20 Preset/City Style/【1】LRtemplate Lightroom bản cũ/TONE 1/Colors Change Cityscape.lrtemplate
s = {
	id = "41AB263A-D91B-4CF1-920F-A5BA7E7FC789",
	internalName = "Colors Change Cityscape",
	title = "Colors Change Cityscape",
	type = "Develop",
	value = {
		settings = {
			AutoLateralCA = 0,
			Blacks2012 = 3,
			BlueHue = -13,
			BlueSaturation = -12,
			CameraProfile = "Adobe Standard",
			ChromaticAberrationB = 0,
			ChromaticAberrationR = 0,
			Clarity2012 = -10,
			ColorNoiseReduction = 25,
			ColorNoiseReductionDetail = 50,
			ColorNoiseReductionSmoothness = 50,
			Contrast2012 = -3,
			ConvertToGrayscale = false,
			CropConstrainToWarp = 0,
			Defringe = 0,
			DefringeGreenAmount = 0,
			DefringeGreenHueHi = 60,
			DefringeGreenHueLo = 40,
			DefringePurpleAmount = 0,
			DefringePurpleHueHi = 70,
			DefringePurpleHueLo = 30,
			Dehaze = 0,
			EnableCalibration = true,
			EnableColorAdjustments = true,
			EnableDetail = true,
			EnableEffects = true,
			EnableLensCorrections = true,
			EnableSplitToning = true,
			GrainAmount = 0,
			GrainFrequency = 50,
			GrainSize = 25,
			GreenHue = 32,
			GreenSaturation = 0,
			Highlights2012 = -100,
			HueAdjustmentAqua = 100,
			HueAdjustmentBlue = -18,
			HueAdjustmentGreen = -73,
			HueAdjustmentMagenta = 100,
			HueAdjustmentOrange = -8,
			HueAdjustmentPurple = -100,
			HueAdjustmentRed = 38,
			HueAdjustmentYellow = -100,
			LensManualDistortionAmount = 0,
			LensProfileEnable = 0,
			LensProfileSetup = "LensDefaults",
			LuminanceAdjustmentAqua = -1,
			LuminanceAdjustmentBlue = 13,
			LuminanceAdjustmentGreen = 1,
			LuminanceAdjustmentMagenta = -6,
			LuminanceAdjustmentOrange = -4,
			LuminanceAdjustmentPurple = -25,
			LuminanceAdjustmentRed = 0,
			LuminanceAdjustmentYellow = -3,
			LuminanceNoiseReductionContrast = 0,
			LuminanceNoiseReductionDetail = 50,
			LuminanceSmoothing = 0,
			ParametricDarks = 0,
			ParametricHighlightSplit = 75,
			ParametricHighlights = 0,
			ParametricLights = 0,
			ParametricMidtoneSplit = 60,
			ParametricShadowSplit = 14,
			ParametricShadows = 0,
			PostCropVignetteAmount = 0,
			PostCropVignetteFeather = 50,
			PostCropVignetteHighlightContrast = 0,
			PostCropVignetteMidpoint = 50,
			PostCropVignetteRoundness = 0,
			PostCropVignetteStyle = 1,
			ProcessVersion = "6.7",
			RedHue = 48,
			RedSaturation = -1,
			Saturation = -24,
			SaturationAdjustmentAqua = -7,
			SaturationAdjustmentBlue = -100,
			SaturationAdjustmentGreen = -3,
			SaturationAdjustmentMagenta = -23,
			SaturationAdjustmentOrange = 47,
			SaturationAdjustmentPurple = -27,
			SaturationAdjustmentRed = -5,
			SaturationAdjustmentYellow = -100,
			ShadowTint = 61,
			Shadows2012 = 100,
			SharpenDetail = 25,
			SharpenEdgeMasking = 0,
			SharpenRadius = 1,
			Sharpness = 50,
			SplitToningBalance = -1,
			SplitToningHighlightHue = 215,
			SplitToningHighlightSaturation = 0,
			SplitToningShadowHue = 0,
			SplitToningShadowSaturation = 0,
			ToneCurveName2012 = "Custom",
			ToneCurvePV2012 = {
				0,
				49,
				34,
				58,
				125,
				140,
				193,
				210,
				255,
				255,
			},
			ToneCurvePV2012Blue = {
				0,
				0,
				38,
				10,
				82,
				53,
				127,
				135,
				190,
				209,
				255,
				255,
			},
			ToneCurvePV2012Green = {
				0,
				0,
				35,
				9,
				80,
				43,
				128,
				121,
				192,
				201,
				255,
				255,
			},
			ToneCurvePV2012Red = {
				0,
				0,
				64,
				20,
				123,
				106,
				187,
				191,
				255,
				255,
			},
			Vibrance = 0,
			VignetteAmount = 0,
			VignetteMidpoint = 50,
			Whites2012 = 0,
		},
		uuid = "B2C378F4-3158-40A8-BD5E-881A060FE4A1",
	},
	version = 0,
}
