20 Preset/Art Style/【1】LRtemplate Lightroom bản cũ/Black _ White HC --.lrtemplate
s = {
	id = "D2D31734-B2CE-49B8-87A6-051BFEF64221",
	internalName = "Black & White HC -",
	title = "Black & White HC --",
	type = "Develop",
	value = {
		settings = {
			Blacks2012 = 57,
			BlueHue = 0,
			BlueSaturation = 0,
			CameraProfile = "Adobe Standard",
			Clarity2012 = -5,
			Contrast2012 = 78,
			ConvertToGrayscale = true,
			EnableCalibration = true,
			EnableEffects = true,
			EnableSplitToning = true,
			GrainAmount = 18,
			GrainFrequency = 60,
			GrainSize = 40,
			GreenHue = 0,
			GreenSaturation = 0,
			Highlights2012 = -30,
			ParametricDarks = 5,
			ParametricHighlightSplit = 75,
			ParametricHighlights = -10,
			ParametricLights = -10,
			ParametricMidtoneSplit = 50,
			ParametricShadowSplit = 25,
			ParametricShadows = 0,
			ProcessVersion = "6.7",
			RedHue = 0,
			RedSaturation = 0,
			ShadowTint = 0,
			Shadows2012 = 48,
			SplitToningBalance = 0,
			SplitToningHighlightHue = 0,
			SplitToningHighlightSaturation = 0,
			SplitToningShadowHue = 0,
			SplitToningShadowSaturation = 0,
			ToneCurveName2012 = "Custom",
			ToneCurvePV2012 = {
				0,
				0,
				25,
				13,
				55,
				43,
				79,
				78,
				132,
				157,
				196,
				213,
				255,
				251,
			},
			ToneCurvePV2012Blue = {
				0,
				0,
				255,
				255,
			},
			ToneCurvePV2012Green = {
				0,
				0,
				255,
				255,
			},
			ToneCurvePV2012Red = {
				0,
				0,
				255,
				255,
			},
			Whites2012 = -9,
		},
		uuid = "717E29A3-7AB0-4578-8A9C-B404CFEEBB1D",
	},
	version = 0,
}
