20 Preset/Ociden Style/【1】LRtemplate Lightroom bản cũ/Ocident style 5/Tone  (6).lrtemplate
s = {
	id = "FF25A38A-268C-44AA-AAB5-52811114743F",
	internalName = "Cvatik_Artemis_6",
	title = "Cvatik_Artemis_6",
	type = "Develop",
	value = {
		settings = {
			AutoLateralCA = 0,
			Blacks2012 = -16,
			BlueHue = -37,
			BlueSaturation = 0,
			CameraProfile = "Adobe Standard",
			ChromaticAberrationB = 0,
			ChromaticAberrationR = 0,
			Clarity2012 = 0,
			ColorNoiseReduction = 25,
			ColorNoiseReductionDetail = 50,
			ColorNoiseReductionSmoothness = 50,
			Contrast2012 = 0,
			ConvertToGrayscale = false,
			CropConstrainToWarp = 0,
			Defringe = 0,
			DefringeGreenAmount = 0,
			DefringeGreenHueHi = 60,
			DefringeGreenHueLo = 40,
			DefringePurpleAmount = 0,
			DefringePurpleHueHi = 70,
			DefringePurpleHueLo = 30,
			EnableCalibration = true,
			EnableCircularGradientBasedCorrections = true,
			EnableColorAdjustments = true,
			EnableDetail = true,
			EnableEffects = true,
			EnableGradientBasedCorrections = true,
			EnableLensCorrections = true,
			EnableSplitToning = true,
			Exposure2012 = 1.9,
			GrainAmount = 34,
			GrainFrequency = 64,
			GrainSize = 30,
			GreenHue = 87,
			GreenSaturation = 0,
			Highlights2012 = -48,
			HueAdjustmentAqua = -31,
			HueAdjustmentBlue = -4,
			HueAdjustmentGreen = 0,
			HueAdjustmentMagenta = 0,
			HueAdjustmentOrange = 0,
			HueAdjustmentPurple = 0,
			HueAdjustmentRed = 6,
			HueAdjustmentYellow = -10,
			LensManualDistortionAmount = 0,
			LensProfileEnable = 0,
			LensProfileSetup = "LensDefaults",
			LuminanceAdjustmentAqua = 1,
			LuminanceAdjustmentBlue = 44,
			LuminanceAdjustmentGreen = -28,
			LuminanceAdjustmentMagenta = 0,
			LuminanceAdjustmentOrange = 4,
			LuminanceAdjustmentPurple = 0,
			LuminanceAdjustmentRed = 54,
			LuminanceAdjustmentYellow = 100,
			LuminanceNoiseReductionContrast = 0,
			LuminanceNoiseReductionDetail = 50,
			LuminanceSmoothing = 5,
			ParametricDarks = 0,
			ParametricHighlightSplit = 75,
			ParametricHighlights = 0,
			ParametricLights = 0,
			ParametricMidtoneSplit = 50,
			ParametricShadowSplit = 25,
			ParametricShadows = 0,
			PerspectiveAspect = 0,
			PerspectiveHorizontal = 0,
			PerspectiveRotate = 0,
			PerspectiveScale = 100,
			PerspectiveUpright = 0,
			PerspectiveVertical = 0,
			PostCropVignetteAmount = 0,
			PostCropVignetteFeather = 50,
			PostCropVignetteHighlightContrast = 0,
			PostCropVignetteMidpoint = 50,
			PostCropVignetteRoundness = 0,
			PostCropVignetteStyle = 1,
			ProcessVersion = "6.7",
			RedHue = 44,
			RedSaturation = -17,
			Saturation = -10,
			SaturationAdjustmentAqua = -100,
			SaturationAdjustmentBlue = -23,
			SaturationAdjustmentGreen = -9,
			SaturationAdjustmentMagenta = 0,
			SaturationAdjustmentOrange = -2,
			SaturationAdjustmentPurple = 0,
			SaturationAdjustmentRed = 2,
			SaturationAdjustmentYellow = -10,
			ShadowTint = 3,
			Shadows2012 = 82,
			SharpenDetail = 25,
			SharpenEdgeMasking = 0,
			SharpenRadius = 1,
			Sharpness = 25,
			SplitToningBalance = 0,
			SplitToningHighlightHue = 189,
			SplitToningHighlightSaturation = 11,
			SplitToningShadowHue = 38,
			SplitToningShadowSaturation = 14,
			Temperature = 2762,
			Tint = -29,
			ToneCurveName2012 = "Custom",
			ToneCurvePV2012 = {
				0,
				21,
				40,
				37,
				85,
				73,
				170,
				153,
				255,
				232,
			},
			ToneCurvePV2012Blue = {
				0,
				0,
				255,
				255,
			},
			ToneCurvePV2012Green = {
				0,
				0,
				27,
				22,
				71,
				71,
				191,
				191,
				255,
				255,
			},
			ToneCurvePV2012Red = {
				0,
				0,
				31,
				29,
				95,
				94,
				153,
				146,
				211,
				201,
				255,
				255,
			},
			Vibrance = 0,
			VignetteAmount = 0,
			VignetteMidpoint = 50,
			WhiteBalance = "Custom",
			Whites2012 = 27,
			orientation = "DA",
		},
		uuid = "8AC44015-B048-4A79-9183-6A0E30D783E8",
	},
	version = 0,
}
