20 Preset/Ociden Style/【1】LRtemplate Lightroom bản cũ/Ocident style 5/Tone  (3).lrtemplate
s = {
	id = "B6AF7D22-23FE-49DA-BAA7-68774D7CA4AA",
	internalName = "Cvatik_Artemis_3",
	title = "Cvatik_Artemis_3",
	type = "Develop",
	value = {
		settings = {
			AutoLateralCA = 0,
			Blacks2012 = -16,
			BlueHue = -24,
			BlueSaturation = 0,
			CameraProfile = "Adobe Standard",
			ChromaticAberrationB = 0,
			ChromaticAberrationR = 0,
			Clarity2012 = 0,
			ColorNoiseReduction = 25,
			ColorNoiseReductionDetail = 50,
			ColorNoiseReductionSmoothness = 50,
			Contrast2012 = -10,
			ConvertToGrayscale = false,
			Defringe = 0,
			DefringeGreenAmount = 0,
			DefringeGreenHueHi = 60,
			DefringeGreenHueLo = 40,
			DefringePurpleAmount = 0,
			DefringePurpleHueHi = 70,
			DefringePurpleHueLo = 30,
			EnableCalibration = true,
			EnableCircularGradientBasedCorrections = true,
			EnableColorAdjustments = true,
			EnableDetail = true,
			EnableEffects = true,
			EnableGradientBasedCorrections = true,
			EnableLensCorrections = true,
			EnableSplitToning = true,
			Exposure2012 = 0.4,
			GradientBasedCorrections = {
				{
					CorrectionActive = true,
					CorrectionAmount = 1,
					CorrectionID = "7968BABD-BECB-4FE8-85AD-B9815454400F",
					CorrectionMasks = {
						{
							FullX = 1.09638,
							FullY = 0.275654,
							MaskID = "82D7C4C3-922E-457F-B843-49F762CBED68",
							MaskValue = 1,
							What = "Mask/Gradient",
							ZeroX = 0.539156,
							ZeroY = 0.613682,
						},
					},
					CorrectionReferenceX = 0.817768,
					CorrectionReferenceY = 0.444668,
					LocalBrightness = 0,
					LocalClarity = 0,
					LocalClarity2012 = 0,
					LocalContrast = 0,
					LocalContrast2012 = 0,
					LocalDefringe = 0,
					LocalExposure = 0,
					LocalExposure2012 = 0.115081,
					LocalHighlights2012 = 0,
					LocalLuminanceNoise = 0,
					LocalMoire = 0,
					LocalSaturation = 0.084621,
					LocalShadows2012 = 0,
					LocalSharpness = 0,
					LocalTemperature = 0.240081,
					LocalTint = 0.149228,
					LocalToningHue = 0,
					LocalToningSaturation = 0,
					What = "Correction",
				},
			},
			GrainAmount = 31,
			GrainFrequency = 69,
			GrainSize = 42,
			GreenHue = 78,
			GreenSaturation = 0,
			Highlights2012 = -48,
			HueAdjustmentAqua = 0,
			HueAdjustmentBlue = 0,
			HueAdjustmentGreen = 0,
			HueAdjustmentMagenta = 0,
			HueAdjustmentOrange = -19,
			HueAdjustmentPurple = 0,
			HueAdjustmentRed = 6,
			HueAdjustmentYellow = 0,
			LuminanceAdjustmentAqua = 0,
			LuminanceAdjustmentBlue = 0,
			LuminanceAdjustmentGreen = 0,
			LuminanceAdjustmentMagenta = 0,
			LuminanceAdjustmentOrange = 0,
			LuminanceAdjustmentPurple = 0,
			LuminanceAdjustmentRed = 0,
			LuminanceAdjustmentYellow = 0,
			LuminanceNoiseReductionContrast = 0,
			LuminanceNoiseReductionDetail = 50,
			LuminanceSmoothing = 0,
			ParametricDarks = 0,
			ParametricHighlightSplit = 75,
			ParametricHighlights = 0,
			ParametricLights = 0,
			ParametricMidtoneSplit = 50,
			ParametricShadowSplit = 25,
			ParametricShadows = 0,
			PostCropVignetteAmount = 0,
			PostCropVignetteFeather = 50,
			PostCropVignetteHighlightContrast = 0,
			PostCropVignetteMidpoint = 50,
			PostCropVignetteRoundness = 0,
			PostCropVignetteStyle = 1,
			ProcessVersion = "6.7",
			RedHue = 44,
			RedSaturation = -17,
			Saturation = -10,
			SaturationAdjustmentAqua = -8,
			SaturationAdjustmentBlue = 0,
			SaturationAdjustmentGreen = -23,
			SaturationAdjustmentMagenta = 0,
			SaturationAdjustmentOrange = 0,
			SaturationAdjustmentPurple = 0,
			SaturationAdjustmentRed = 0,
			SaturationAdjustmentYellow = -21,
			ShadowTint = -21,
			Shadows2012 = 27,
			SharpenDetail = 25,
			SharpenEdgeMasking = 0,
			SharpenRadius = 1,
			Sharpness = 25,
			SplitToningBalance = 0,
			SplitToningHighlightHue = 189,
			SplitToningHighlightSaturation = 12,
			SplitToningShadowHue = 54,
			SplitToningShadowSaturation = 9,
			Temperature = 4806,
			Tint = 6,
			ToneCurveName2012 = "Custom",
			ToneCurvePV2012 = {
				0,
				15,
				40,
				31,
				88,
				71,
				170,
				153,
				255,
				232,
			},
			ToneCurvePV2012Blue = {
				0,
				0,
				255,
				255,
			},
			ToneCurvePV2012Green = {
				0,
				0,
				27,
				22,
				71,
				71,
				191,
				191,
				255,
				255,
			},
			ToneCurvePV2012Red = {
				0,
				0,
				255,
				255,
			},
			Vibrance = 0,
			VignetteAmount = 0,
			VignetteMidpoint = 50,
			WhiteBalance = "Custom",
			Whites2012 = 0,
			orientation = "DA",
		},
		uuid = "E6525BD2-54E0-4650-A9A7-BE06C9DC0C77",
	},
	version = 0,
}
