20 Preset/Ocident style/【1】LRtemplate Lightroom bản cũ/Ocident style 2/Spectrum 5.lrtemplate
s = {
	id = "22EE0448-4290-45E6-B5DB-EF21CEB8E031",
	internalName = "Spectrum 5",
	title = "Spectrum 5",
	type = "Develop",
	value = {
		settings = {
			AutoLateralCA = 0,
			Blacks2012 = 20,
			BlueHue = 8,
			BlueSaturation = 0,
			CameraProfile = "Adobe Standard",
			ChromaticAberrationB = 0,
			ChromaticAberrationR = 0,
			Clarity2012 = 0,
			ColorNoiseReduction = 25,
			ColorNoiseReductionDetail = 50,
			ColorNoiseReductionSmoothness = 50,
			Contrast2012 = -32,
			ConvertToGrayscale = false,
			CropConstrainToWarp = 0,
			Defringe = 0,
			DefringeGreenAmount = 0,
			DefringeGreenHueHi = 60,
			DefringeGreenHueLo = 40,
			DefringePurpleAmount = 0,
			DefringePurpleHueHi = 70,
			DefringePurpleHueLo = 30,
			Dehaze = 0,
			EnableCalibration = true,
			EnableCircularGradientBasedCorrections = true,
			EnableColorAdjustments = true,
			EnableDetail = true,
			EnableEffects = true,
			EnableGradientBasedCorrections = true,
			EnableLensCorrections = true,
			EnableSplitToning = true,
			EnableTransform = true,
			Exposure2012 = 0.4,
			GradientBasedCorrections = {
				{
					CorrectionActive = true,
					CorrectionAmount = 1,
					CorrectionID = "6639C83E-6324-4BC3-9B46-F5F4E08C034B",
					CorrectionMasks = {
						{
							FullX = 0.540647,
							FullY = 0.001191,
							MaskID = "1B14C428-4C6C-44FD-B9B2-F2246D267B0A",
							MaskValue = 1,
							What = "Mask/Gradient",
							ZeroX = 0.540488,
							ZeroY = 0.294108,
						},
					},
					CorrectionReferenceX = 0.540567,
					CorrectionReferenceY = 0.147649,
					LocalBlacks2012 = 0,
					LocalBrightness = 0,
					LocalClarity = 0,
					LocalClarity2012 = 0,
					LocalContrast = 0,
					LocalContrast2012 = 0,
					LocalDefringe = 0,
					LocalDehaze = 0,
					LocalExposure = 0,
					LocalExposure2012 = 0,
					LocalHighlights2012 = 0,
					LocalLuminanceNoise = 0,
					LocalMoire = 0,
					LocalSaturation = 0,
					LocalShadows2012 = 0,
					LocalSharpness = 0,
					LocalTemperature = -0.340511,
					LocalTint = -0.256574,
					LocalToningHue = 0,
					LocalToningSaturation = 0,
					LocalWhites2012 = 0,
					What = "Correction",
				},
			},
			GrainAmount = 45,
			GrainFrequency = 62,
			GrainSize = 41,
			GreenHue = 100,
			GreenSaturation = -20,
			Highlights2012 = -72,
			HueAdjustmentAqua = 3,
			HueAdjustmentBlue = -5,
			HueAdjustmentGreen = 15,
			HueAdjustmentMagenta = 0,
			HueAdjustmentOrange = 0,
			HueAdjustmentPurple = 20,
			HueAdjustmentRed = 10,
			HueAdjustmentYellow = 12,
			LensManualDistortionAmount = 0,
			LensProfileEnable = 0,
			LensProfileSetup = "LensDefaults",
			LuminanceAdjustmentAqua = 15,
			LuminanceAdjustmentBlue = -10,
			LuminanceAdjustmentGreen = -78,
			LuminanceAdjustmentMagenta = 10,
			LuminanceAdjustmentOrange = 31,
			LuminanceAdjustmentPurple = 30,
			LuminanceAdjustmentRed = -5,
			LuminanceAdjustmentYellow = 100,
			LuminanceNoiseReductionContrast = 0,
			LuminanceNoiseReductionDetail = 50,
			LuminanceSmoothing = 0,
			ParametricDarks = 0,
			ParametricHighlightSplit = 75,
			ParametricHighlights = 0,
			ParametricLights = 0,
			ParametricMidtoneSplit = 35,
			ParametricShadowSplit = 15,
			ParametricShadows = 0,
			PerspectiveAspect = 0,
			PerspectiveHorizontal = 0,
			PerspectiveRotate = 0,
			PerspectiveScale = 100,
			PerspectiveUpright = 0,
			PerspectiveVertical = 0,
			PerspectiveX = 0,
			PerspectiveY = 0,
			PostCropVignetteAmount = 0,
			PostCropVignetteFeather = 50,
			PostCropVignetteHighlightContrast = 0,
			PostCropVignetteMidpoint = 50,
			PostCropVignetteRoundness = 0,
			PostCropVignetteStyle = 1,
			ProcessVersion = "6.7",
			RedHue = 21,
			RedSaturation = -5,
			Saturation = 0,
			SaturationAdjustmentAqua = 19,
			SaturationAdjustmentBlue = 16,
			SaturationAdjustmentGreen = -60,
			SaturationAdjustmentMagenta = -35,
			SaturationAdjustmentOrange = 0,
			SaturationAdjustmentPurple = -50,
			SaturationAdjustmentRed = -15,
			SaturationAdjustmentYellow = -73,
			ShadowTint = -4,
			Shadows2012 = -1,
			SharpenDetail = 25,
			SharpenEdgeMasking = 0,
			SharpenRadius = 1,
			Sharpness = 25,
			SplitToningBalance = 0,
			SplitToningHighlightHue = 196,
			SplitToningHighlightSaturation = 10,
			SplitToningShadowHue = 42,
			SplitToningShadowSaturation = 11,
			ToneCurveName2012 = "Custom",
			ToneCurvePV2012 = {
				0,
				0,
				85,
				99,
				125,
				138,
				196,
				201,
				255,
				191,
			},
			ToneCurvePV2012Blue = {
				0,
				0,
				29,
				15,
				115,
				134,
				179,
				195,
				255,
				255,
			},
			ToneCurvePV2012Green = {
				0,
				0,
				30,
				16,
				115,
				133,
				181,
				196,
				255,
				255,
			},
			ToneCurvePV2012Red = {
				0,
				0,
				31,
				17,
				115,
				132,
				179,
				195,
				255,
				255,
			},
			UprightCenterMode = 0,
			UprightCenterNormX = 0.5,
			UprightCenterNormY = 0.5,
			UprightFocalLength35mm = 35,
			UprightFocalMode = 0,
			UprightFourSegmentsCount = 0,
			UprightPreview = false,
			UprightTransformCount = 6,
			UprightVersion = 151388160,
			Vibrance = 0,
			VignetteAmount = 17,
			VignetteMidpoint = 50,
			WhiteBalance = "As Shot",
			Whites2012 = -15,
			orientation = "AB",
		},
		uuid = "7F8FD28D-D8BA-4320-AEAA-19D2AD44BC5F",
	},
	version = 0,
}
