20 Preset/Dark Style/【3】LUT video cho PR-AE-FCPX/19Tones (6)/19 tones zack 01.cube
# Created by Adobe Lightroom plugin Export LUT (1.24.0)
# www.johnrellis.com/lightroom/exportlut.htm
# Preset: 19 tones zack 01
# Color profile: E:\lut插件\exportlut.1.24\exportlut.lrplugin\color profiles\Rec709gamma2.4.icc
LUT_3D_SIZE 8
DOMAIN_MIN 0.000000 0.000000 0.000000
DOMAIN_MAX 0.903226 0.903226 0.903226
0.114809 0.140932 0.142458
0.126192 0.140322 0.143038
0.357549 0.091432 0.138766
0.676326 0.000000 0.099001
0.918364 0.000000 0.000000
1.000000 0.083345 0.000000
1.000000 0.142947 0.000000
1.000000 0.196353 0.135805
0.118776 0.146151 0.147616
0.141817 0.147127 0.142061
0.279911 0.180514 0.147402
0.610254 0.206363 0.103975
0.860349 0.221042 0.000000
1.000000 0.224277 0.000000
1.000000 0.241855 0.128389
1.000000 0.271214 0.200259
0.166873 0.239963 0.192599
0.224735 0.299870 0.127260
0.469184 0.271031 0.054932
0.470710 0.383886 0.319493
0.706111 0.475074 0.392584
0.922271 0.489631 0.388373
1.000000 0.498970 0.406165
1.000000 0.502647 0.423285
0.379675 0.495369 0.357427
0.401770 0.522820 0.296513
0.643915 0.608911 0.000000
0.811490 0.406012 0.000000
0.869902 0.526574 0.294041
0.719448 0.679652 0.643183
0.914458 0.699916 0.625147
1.000000 0.700526 0.617304
0.560693 0.644831 0.506432
0.565576 0.659022 0.479347
0.646540 0.708370 0.334325
0.859403 0.718105 0.000000
0.977966 0.476967 0.000000
1.000000 0.565942 0.147219
0.871275 0.749416 0.680507
0.900237 0.808133 0.759579
0.697932 0.748318 0.628962
0.704250 0.760342 0.621057
0.725765 0.789853 0.559045
0.836210 0.830442 0.360845
0.985290 0.772824 0.000000
1.000000 0.532036 0.000000
1.000000 0.617090 0.213596
1.000000 0.802304 0.694148
0.803433 0.829343 0.739254
0.804013 0.834989 0.733028
0.807675 0.853117 0.699489
0.843168 0.882475 0.618067
0.963012 0.910185 0.384680
1.000000 0.815183 0.000000
1.000000 0.578088 0.000000
1.000000 0.660365 0.311742
0.883268 0.890379 0.837949
0.882353 0.893462 0.833768
0.881132 0.906218 0.815488
0.890043 0.928161 0.773861
0.926482 0.947723 0.672724
1.000000 0.966857 0.429450
1.000000 0.853849 0.275181
1.000000 0.620233 0.000000
0.114778 0.141329 0.144411
0.125948 0.140536 0.144808
0.328191 0.109377 0.141085
0.633692 0.121492 0.105653
0.872587 0.112795 0.000000
1.000000 0.127169 0.000000
1.000000 0.162631 0.083894
1.000000 0.200839 0.159274
0.119692 0.147311 0.148928
0.141909 0.150149 0.145174
0.265385 0.185489 0.157565
0.580713 0.225162 0.134310
0.838743 0.235569 0.112123
0.993957 0.240604 0.128206
1.000000 0.253574 0.168368
1.000000 0.274296 0.215640
0.177554 0.252628 0.198550
0.237095 0.302647 0.141176
0.451820 0.262150 0.085939
0.427436 0.384497 0.343420
0.688167 0.463050 0.384527
0.903319 0.479957 0.384009
1.000000 0.483894 0.394293
1.000000 0.489570 0.412909
0.358404 0.470222 0.344213
0.382361 0.498116 0.291814
0.619165 0.585107 0.000000
0.771145 0.386542 0.000000
0.820279 0.510491 0.307683
0.699092 0.654505 0.616724
0.898375 0.677790 0.602838
1.000000 0.683650 0.600549
0.557183 0.638880 0.507164
0.560906 0.651820 0.480293
0.637690 0.698512 0.342351
0.842710 0.703700 0.000000
0.960235 0.462684 0.000000
1.000000 0.564965 0.205631
0.855253 0.742306 0.677119
0.896422 0.799924 0.749996
0.691432 0.741024 0.625544
0.692927 0.749325 0.613336
0.714992 0.779324 0.553307
0.826841 0.821439 0.364569
0.976226 0.765438 0.000000
1.000000 0.525597 0.000000
1.000000 0.619348 0.241794
1.000000 0.800717 0.695583
0.797635 0.822538 0.735134
0.796109 0.826413 0.726986
0.799283 0.844755 0.693416
0.835538 0.875364 0.613977
0.957214 0.905333 0.390936
1.000000 0.811307 0.000000
1.000000 0.572992 0.000000
1.000000 0.658808 0.314702
0.880064 0.885313 0.835538
0.879850 0.889250 0.832303
0.878172 0.902098 0.813962
0.886687 0.924559 0.772793
0.928405 0.949615 0.684779
1.000000 0.967315 0.451331
1.000000 0.854765 0.293462
1.000000 0.619898 0.000000
0.105135 0.143801 0.180117
0.127169 0.149081 0.169192
0.318242 0.089570 0.219120
0.655268 0.000000 0.196475
0.892454 0.000000 0.183780
1.000000 0.128084 0.211917
1.000000 0.215061 0.243290
1.000000 0.252873 0.273503
0.116670 0.157992 0.188540
0.143038 0.173129 0.179873
0.357366 0.112245 0.201846
0.655512 0.000000 0.184543
0.876677 0.166873 0.196597
1.000000 0.248692 0.239200
1.000000 0.290990 0.277348
1.000000 0.315709 0.307378
0.229129 0.277928 0.277653
0.235508 0.308049 0.251591
0.457191 0.297704 0.176974
0.458534 0.433906 0.406622
0.750607 0.482399 0.414130
0.925963 0.499367 0.426886
1.000000 0.506310 0.440009
1.000000 0.508873 0.452338
0.408209 0.482521 0.424109
0.419806 0.513176 0.387182
0.627375 0.590753 0.139406
0.781674 0.402106 0.000000
0.770809 0.569482 0.461311
0.750027 0.671778 0.625452
0.920195 0.690730 0.618860
1.000000 0.693721 0.617304
0.582391 0.642664 0.545739
0.584985 0.655940 0.525414
0.648798 0.701289 0.422095
0.840818 0.702510 0.000000
0.967010 0.471504 0.000000
0.982910 0.614160 0.400092
0.833555 0.761257 0.713069
0.914427 0.805539 0.753536
0.704982 0.742489 0.647303
0.706142 0.750759 0.637049
0.723873 0.779110 0.585321
0.824949 0.819059 0.434730
0.968170 0.762875 0.101747
1.000000 0.521294 0.000000
1.000000 0.650446 0.367834
0.984924 0.817441 0.729458
0.808743 0.823819 0.753902
0.807004 0.827848 0.746609
0.807248 0.845151 0.715389
0.837675 0.874540 0.643580
0.950500 0.904234 0.463264
1.000000 0.815793 0.242618
1.000000 0.568353 0.000000
1.000000 0.689143 0.410559
0.886870 0.882689 0.848600
0.885130 0.885527 0.844266
0.881926 0.898558 0.827085
0.888518 0.922362 0.790433
0.925566 0.947997 0.710780
1.000000 0.967315 0.518151
1.000000 0.863035 0.375647
1.000000 0.623651 0.000000
0.117006 0.147555 0.265873
0.151003 0.157473 0.263127
0.233005 0.212253 0.272221
0.629847 0.000000 0.359106
0.885405 0.000000 0.336431
1.000000 0.000000 0.319921
1.000000 0.230930 0.372564
1.000000 0.337133 0.412634
0.136599 0.176638 0.289372
0.179782 0.195682 0.287022
0.289860 0.232242 0.314885
0.658930 0.000000 0.356481
0.892241 0.000000 0.330571
1.000000 0.047089 0.343694
1.000000 0.300633 0.386847
1.000000 0.370489 0.421637
0.198215 0.330083 0.344518
0.249943 0.345434 0.359228
0.465919 0.341894 0.359655
0.677760 0.375036 0.381567
0.861997 0.416999 0.409949
0.980713 0.464271 0.445045
1.000000 0.503441 0.479683
1.000000 0.508873 0.490211
0.484901 0.515435 0.501854
0.484718 0.515282 0.501732
0.584863 0.584680 0.396674
0.751278 0.490120 0.353185
0.650233 0.635004 0.605676
0.816007 0.676356 0.621485
0.952880 0.689143 0.624292
1.000000 0.689082 0.625696
0.637720 0.642817 0.620172
0.630060 0.656092 0.604700
0.660243 0.703243 0.531914
0.829770 0.705348 0.362707
0.960327 0.519554 0.229374
0.920134 0.692470 0.577722
0.811215 0.788174 0.760159
0.947601 0.810636 0.755367
0.737972 0.749416 0.694179
0.740291 0.759915 0.689113
0.747127 0.785580 0.648524
0.827359 0.823850 0.546227
0.960327 0.772824 0.370642
1.000000 0.553002 0.129122
1.000000 0.718715 0.538415
0.951202 0.844266 0.784817
0.828367 0.820676 0.786893
0.826719 0.825834 0.781949
0.823667 0.844968 0.757748
0.843870 0.875517 0.700771
0.938994 0.905913 0.571405
1.000000 0.829953 0.410956
1.000000 0.584100 0.000000
1.000000 0.740383 0.532006
0.900206 0.885740 0.868132
0.900237 0.885801 0.868162
0.896361 0.894682 0.858396
0.894530 0.918212 0.825376
0.920775 0.945190 0.758877
1.000000 0.966583 0.612818
1.000000 0.879179 0.484901
1.000000 0.637049 0.217014
0.149599 0.168978 0.392126
0.193484 0.186160 0.395422
0.310521 0.300481 0.393103
0.530266 0.259861 0.485786
0.857481 0.000000 0.477882
1.000000 0.000000 0.457160
1.000000 0.157839 0.461952
1.000000 0.357488 0.506401
0.177615 0.208499 0.409827
0.223606 0.230472 0.413611
0.344671 0.347448 0.413916
0.560113 0.286656 0.497108
0.862150 0.000000 0.478096
1.000000 0.000000 0.461646
1.000000 0.244724 0.471138
1.000000 0.397620 0.516777
0.230777 0.332311 0.462013
0.296178 0.356146 0.465949
0.438178 0.460548 0.473457
0.668544 0.379400 0.519127
0.865171 0.322972 0.484779
0.994476 0.346532 0.479408
1.000000 0.447791 0.516686
1.000000 0.505913 0.548821
0.510277 0.545495 0.527489
0.531731 0.554559 0.537987
0.563104 0.585687 0.557580
0.624964 0.616236 0.590356
0.785061 0.636744 0.597559
0.907042 0.650904 0.608820
1.000000 0.658076 0.618311
1.000000 0.651484 0.619501
0.671015 0.671077 0.647028
0.672053 0.671992 0.647883
0.669917 0.688624 0.633539
0.796384 0.708400 0.518853
0.895384 0.637324 0.519860
0.819028 0.746120 0.697749
0.879698 0.787137 0.741482
0.993591 0.794797 0.738369
0.757198 0.746609 0.721004
0.757717 0.747066 0.721462
0.750484 0.763729 0.700313
0.796017 0.804349 0.627192
0.925872 0.775021 0.503197
1.000000 0.635340 0.440223
0.994446 0.786801 0.683009
0.891081 0.867460 0.844602
0.843320 0.827726 0.805020
0.842588 0.827085 0.804318
0.841642 0.826566 0.803189
0.839475 0.860472 0.761105
0.907317 0.897429 0.669062
1.000000 0.847166 0.538079
1.000000 0.644282 0.383215
1.000000 0.793698 0.639490
0.904204 0.889982 0.872831
0.904173 0.889952 0.872801
0.904387 0.890196 0.873045
0.903807 0.901793 0.867185
0.910857 0.934661 0.814878
0.984283 0.961822 0.707820
1.000000 0.899229 0.584741
1.000000 0.669215 0.384222
0.219272 0.223362 0.516930
0.260166 0.244266 0.520348
0.390326 0.346105 0.528618
0.520287 0.541588 0.530144
0.777249 0.343481 0.632593
0.993988 0.000000 0.575219
1.000000 0.243107 0.563867
1.000000 0.387976 0.582300
0.239414 0.255924 0.518853
0.278233 0.276005 0.521386
0.403265 0.370336 0.528374
0.524254 0.538720 0.534539
0.781155 0.356237 0.628199
0.986725 0.143099 0.571221
1.000000 0.287510 0.564782
1.000000 0.409094 0.584955
0.300847 0.361913 0.549798
0.343938 0.381384 0.552789
0.476326 0.465522 0.564355
0.588037 0.576226 0.584344
0.828672 0.439826 0.635431
0.979675 0.388495 0.588647
1.000000 0.444892 0.592157
1.000000 0.512749 0.616358
0.312657 0.486549 0.575311
0.343725 0.487953 0.577630
0.554681 0.574090 0.614099
0.694667 0.642603 0.656367
0.862425 0.589532 0.640162
0.970581 0.592218 0.636042
1.000000 0.618189 0.649866
1.000000 0.654444 0.676234
0.701198 0.697047 0.672053
0.705257 0.700587 0.675502
0.722286 0.715480 0.690059
0.769375 0.734798 0.659602
0.780240 0.748531 0.715572
0.862974 0.771023 0.731228
0.964477 0.775326 0.733577
1.000000 0.768704 0.733364
0.793423 0.779965 0.754940
0.795315 0.781704 0.756741
0.796078 0.782437 0.757534
0.797482 0.803830 0.733700
0.898711 0.803342 0.645716
0.973083 0.757626 0.659998
0.902281 0.845335 0.807431
0.953857 0.871916 0.834745
0.865721 0.850095 0.829038
0.866606 0.851041 0.830014
0.867063 0.851499 0.830564
0.867491 0.853483 0.830503
0.883207 0.890349 0.773922
0.989319 0.878447 0.671717
1.000000 0.754604 0.610986
1.000000 0.869810 0.789090
0.919341 0.906218 0.891020
0.918883 0.905760 0.890471
0.918547 0.905364 0.890043
0.919158 0.906065 0.890837
0.915953 0.915740 0.880522
0.948547 0.953307 0.806455
1.000000 0.927062 0.696712
1.000000 0.757046 0.580804
0.302312 0.294438 0.625818
0.337469 0.315251 0.629511
0.449317 0.394446 0.633082
0.595209 0.542809 0.636255
0.692226 0.619379 0.667842
0.922728 0.436042 0.730098
1.000000 0.291112 0.662226
1.000000 0.387243 0.643854
0.304906 0.308568 0.617548
0.340276 0.329076 0.622126
0.450202 0.404120 0.626947
0.591180 0.543755 0.630182
0.687282 0.613153 0.662928
0.915435 0.433692 0.719448
1.000000 0.292912 0.649622
1.000000 0.385504 0.636286
0.340734 0.382391 0.631281
0.374701 0.398718 0.633448
0.486549 0.464576 0.639460
0.626978 0.589868 0.648646
0.717433 0.638636 0.684413
0.930632 0.499306 0.722744
1.000000 0.436408 0.663874
1.000000 0.506981 0.668116
0.315557 0.454780 0.645075
0.374792 0.476204 0.649256
0.515618 0.536370 0.660426
0.677241 0.650019 0.683040
0.771023 0.688930 0.723903
0.945098 0.605829 0.726558
1.000000 0.602167 0.703853
1.000000 0.636378 0.712734
0.459052 0.629755 0.663386
0.469490 0.628992 0.663478
0.519402 0.631922 0.670466
0.680385 0.685634 0.708186
0.816709 0.741268 0.753506
0.935576 0.711818 0.736629
1.000000 0.722713 0.742489
1.000000 0.744656 0.761105
0.806912 0.792630 0.768063
0.809079 0.794675 0.770199
0.816831 0.802090 0.777920
0.831235 0.815976 0.792538
0.853666 0.835904 0.781399
0.865080 0.845853 0.823026
0.943542 0.858885 0.827329
1.000000 0.856718 0.827176
0.882750 0.867521 0.848051
0.884215 0.868986 0.849638
0.886992 0.871946 0.852873
0.888212 0.873167 0.854215
0.887572 0.878416 0.850736
0.953277 0.898497 0.782986
1.000000 0.853819 0.781460
0.942443 0.917754 0.898680
0.932860 0.921080 0.907805
0.933135 0.921386 0.908141
0.934997 0.923430 0.910521
0.936156 0.924743 0.911986
0.936950 0.925597 0.912963
0.935668 0.940917 0.894102
1.000000 0.957458 0.809842
1.000000 0.854124 0.753628
0.391852 0.377844 0.726894
0.418708 0.393805 0.728420
0.505211 0.449439 0.726375
0.634333 0.558862 0.726009
0.735531 0.692988 0.719997
0.816922 0.681788 0.768734
1.000000 0.525872 0.811307
1.000000 0.430610 0.750423
0.386877 0.381384 0.720333
0.414130 0.397223 0.722164
0.503227 0.453407 0.722377
0.631434 0.559564 0.722255
0.733639 0.692164 0.717983
0.815366 0.681422 0.766781
1.000000 0.528740 0.807248
1.000000 0.442542 0.748165
0.384649 0.413825 0.718959
0.411810 0.427039 0.720027
0.505058 0.478584 0.721218
0.643641 0.584009 0.728664
0.746883 0.707393 0.728817
0.824704 0.699123 0.774472
1.000000 0.572381 0.809140
1.000000 0.520928 0.756008
0.318791 0.444038 0.716945
0.359228 0.457618 0.719356
0.482795 0.508782 0.724697
0.643549 0.606836 0.735988
0.767056 0.728328 0.749325
0.844938 0.738979 0.794217
1.000000 0.649928 0.819913
1.000000 0.617792 0.769314
0.000000 0.446754 0.690242
0.000000 0.451698 0.695003
0.221530 0.489265 0.711818
0.579004 0.607233 0.739773
0.773251 0.737514 0.770016
0.863584 0.792508 0.817838
1.000000 0.733242 0.829648
1.000000 0.722866 0.801389
0.527581 0.733913 0.756497
0.531853 0.732753 0.756374
0.552178 0.729519 0.757778
0.593774 0.723171 0.763363
0.696529 0.726955 0.781796
0.882902 0.854887 0.847318
0.990021 0.816068 0.843656
1.000000 0.824826 0.846403
0.865599 0.866484 0.842741
0.867185 0.867094 0.843656
0.874174 0.870024 0.847776
0.888792 0.877531 0.857939
0.902434 0.888090 0.870726
0.914733 0.901274 0.885466
0.943389 0.910674 0.892180
1.000000 0.911620 0.894438
0.933104 0.921324 0.908110
0.933379 0.921630 0.908446
0.935485 0.923980 0.911131
0.940551 0.929625 0.917571
0.947448 0.937407 0.926482
0.951263 0.941772 0.931548
0.965606 0.959045 0.909331
1.000000 0.935607 0.897704
