20 Preset/Dark Style/【3】LUT video cho PR-AE-FCPX/19Tones (6)/19 tones esco 2.cube
# Created by Adobe Lightroom plugin Export LUT (1.24.0)
# www.johnrellis.com/lightroom/exportlut.htm
# Preset: 19 tones esco 2
# Color profile: E:\lut插件\exportlut.1.24\exportlut.lrplugin\color profiles\Rec709gamma2.4.icc
LUT_3D_SIZE 5
DOMAIN_MIN 0.000000 0.000000 0.000000
DOMAIN_MAX 0.903226 0.903226 0.903226
0.129824 0.152255 0.171237
0.148196 0.151888 0.170474
0.391608 0.132784 0.163821
0.774777 0.000000 0.139559
1.000000 0.000000 0.123323
0.103487 0.183078 0.170748
0.155489 0.184543 0.167361
0.410834 0.208774 0.151217
0.784726 0.173556 0.110842
1.000000 0.229801 0.082765
0.000000 0.481086 0.218448
0.000000 0.464729 0.208530
0.446723 0.494942 0.129702
0.812985 0.499763 0.000000
1.000000 0.496651 0.000000
0.000000 0.784512 0.415259
0.000000 0.779416 0.397925
0.420203 0.756100 0.393072
0.752285 0.781582 0.285161
0.981170 0.783444 0.000000
0.547936 0.935943 0.689937
0.558404 0.934997 0.681849
0.639246 0.924590 0.673091
0.766629 0.922789 0.661341
0.919371 0.931365 0.590021
0.121462 0.151461 0.202121
0.162356 0.149538 0.196475
0.403540 0.116701 0.187533
0.769711 0.000000 0.151308
1.000000 0.128878 0.104921
0.033936 0.196567 0.226658
0.159609 0.195804 0.219791
0.426520 0.201633 0.200870
0.779477 0.192599 0.148745
1.000000 0.260227 0.028656
0.000000 0.494362 0.326909
0.000000 0.483192 0.310033
0.448951 0.486885 0.256596
0.800595 0.484596 0.156435
1.000000 0.502495 0.000000
0.000000 0.785550 0.510338
0.000000 0.782559 0.482155
0.453162 0.757992 0.460426
0.753384 0.780697 0.386053
0.976135 0.782834 0.251652
0.585687 0.934936 0.722042
0.588678 0.934295 0.711421
0.659113 0.927855 0.702602
0.774472 0.923674 0.691890
0.919371 0.932799 0.634119
0.000000 0.159182 0.478279
0.139376 0.157687 0.483589
0.521172 0.131930 0.483314
0.809506 0.107729 0.438087
1.000000 0.272526 0.396887
0.000000 0.238102 0.488045
0.018921 0.238254 0.494789
0.531029 0.261021 0.500725
0.805966 0.264378 0.454475
1.000000 0.359319 0.414008
0.000000 0.500816 0.555383
0.000000 0.501274 0.549981
0.487892 0.504753 0.531029
0.786099 0.524559 0.506401
0.989776 0.550317 0.449134
0.000000 0.808560 0.666835
0.209689 0.801205 0.659754
0.569665 0.777859 0.649409
0.757839 0.779812 0.612207
0.954894 0.780575 0.543053
0.590112 0.938964 0.782834
0.626123 0.936675 0.784878
0.695369 0.930632 0.774014
0.783169 0.919921 0.760433
0.914031 0.931548 0.729030
0.000000 0.235050 0.765499
0.164309 0.241093 0.769223
0.601190 0.274510 0.780392
0.869749 0.370459 0.780301
0.981994 0.512627 0.733700
0.000000 0.314336 0.763455
0.169314 0.322148 0.766201
0.592828 0.362097 0.776974
0.856962 0.452461 0.779171
0.969940 0.564385 0.741085
0.000000 0.508995 0.745022
0.000000 0.510887 0.744381
0.530846 0.547723 0.764004
0.816648 0.639460 0.778408
0.945373 0.680415 0.758663
0.000000 0.766720 0.797818
0.245518 0.766262 0.795682
0.526146 0.768429 0.789578
0.757900 0.775204 0.778134
0.927337 0.793362 0.763577
0.511009 0.955566 0.873747
0.548363 0.953704 0.871641
0.666835 0.946410 0.862974
0.814603 0.930968 0.853025
0.912993 0.932525 0.834867
0.435218 0.436957 0.926696
0.500969 0.446571 0.926360
0.689570 0.494545 0.926085
0.879210 0.600763 0.924285
0.985260 0.682094 0.918334
0.435187 0.484993 0.922881
0.499855 0.493935 0.922820
0.684077 0.537224 0.922606
0.871000 0.631861 0.921447
0.977752 0.706050 0.916930
0.353674 0.602319 0.914427
0.441260 0.611414 0.914122
0.649805 0.648157 0.914458
0.843687 0.716213 0.915709
0.957610 0.780514 0.916686
0.231266 0.768276 0.912718
0.307805 0.766476 0.911131
0.494697 0.761166 0.905699
0.782376 0.799619 0.912535
0.940429 0.869139 0.924651
0.522820 0.926787 0.934691
0.548943 0.926482 0.934264
0.644129 0.926482 0.933227
0.774289 0.926604 0.930022
0.911437 0.929076 0.923217
