20 Preset/Dark Style/【3】LUT video cho PR-AE-FCPX/19Tones (6)/19 tones zack 01.cube
# Created by Adobe Lightroom plugin Export LUT (1.24.0)
# www.johnrellis.com/lightroom/exportlut.htm
# Preset: 19 tones zack 01
# Color profile: E:\lut插件\exportlut.1.24\exportlut.lrplugin\color profiles\Rec709gamma2.4.icc
LUT_3D_SIZE 5
DOMAIN_MIN 0.000000 0.000000 0.000000
DOMAIN_MAX 0.903226 0.903226 0.903226
0.114809 0.140932 0.142458
0.276738 0.112428 0.141878
0.802853 0.000000 0.009308
1.000000 0.100313 0.000000
1.000000 0.196353 0.135805
0.146181 0.194949 0.179049
0.366979 0.229007 0.110079
0.623163 0.403113 0.316930
0.995453 0.428382 0.321477
1.000000 0.448096 0.372900
0.476265 0.578302 0.436255
0.568261 0.639796 0.242527
0.907561 0.445838 0.000000
0.819669 0.691279 0.619196
0.968322 0.763088 0.691035
0.732540 0.775051 0.662562
0.741512 0.800168 0.618952
0.925811 0.862760 0.233249
1.000000 0.544610 0.000000
1.000000 0.773068 0.619837
0.883268 0.890379 0.837949
0.881102 0.902037 0.821805
0.898070 0.935058 0.726833
1.000000 0.949859 0.381384
1.000000 0.620233 0.000000
0.108370 0.143069 0.165774
0.245548 0.119661 0.189242
0.777829 0.000000 0.148379
1.000000 0.143160 0.165499
1.000000 0.233433 0.237827
0.182895 0.225376 0.226413
0.355749 0.244755 0.157870
0.652491 0.407172 0.337652
0.977752 0.437568 0.363165
1.000000 0.452491 0.398230
0.484321 0.566888 0.463844
0.564050 0.627955 0.330388
0.878721 0.433295 0.000000
0.772915 0.695735 0.644465
0.974762 0.761227 0.690425
0.740658 0.774166 0.678004
0.748348 0.798947 0.639918
0.920226 0.860288 0.346380
1.000000 0.532525 0.000000
1.000000 0.791226 0.658991
0.888273 0.887388 0.848600
0.884764 0.898985 0.833158
0.903136 0.937743 0.754513
1.000000 0.955169 0.456794
1.000000 0.625330 0.000000
0.128908 0.155062 0.328435
0.241978 0.239536 0.320958
0.760891 0.000000 0.424201
1.000000 0.000000 0.389654
1.000000 0.356878 0.464729
0.184085 0.279911 0.395880
0.350561 0.385412 0.398627
0.788083 0.228458 0.418982
1.000000 0.359472 0.443091
1.000000 0.471656 0.502068
0.585626 0.599359 0.579461
0.583001 0.619562 0.560845
0.834440 0.567376 0.440436
0.806271 0.731228 0.687495
1.000000 0.748989 0.687404
0.778134 0.765743 0.740383
0.768307 0.786007 0.711727
0.886870 0.850187 0.558953
1.000000 0.594049 0.299840
0.978515 0.843565 0.771969
0.900267 0.885832 0.868193
0.901274 0.886870 0.869352
0.899596 0.924987 0.818326
1.000000 0.967315 0.600305
1.000000 0.642634 0.283360
0.234592 0.235691 0.538842
0.360876 0.317845 0.547875
0.598688 0.520073 0.591150
1.000000 0.070375 0.593744
1.000000 0.378698 0.593500
0.290471 0.333196 0.556329
0.417517 0.406592 0.565911
0.644739 0.549859 0.619379
1.000000 0.344427 0.599481
1.000000 0.472663 0.614466
0.447364 0.588251 0.605463
0.515801 0.601678 0.619104
0.781704 0.653040 0.663661
0.961975 0.649958 0.658106
1.000000 0.698299 0.702388
0.822293 0.807309 0.783413
0.821744 0.806760 0.782803
0.834745 0.836362 0.748257
0.985290 0.783108 0.691157
0.943755 0.884154 0.852628
0.923400 0.910643 0.895995
0.923552 0.910826 0.896208
0.924956 0.912352 0.897917
0.964233 0.958984 0.807523
1.000000 0.781460 0.625818
0.391852 0.377844 0.726894
0.478065 0.430518 0.726680
0.693111 0.625055 0.724117
0.861784 0.648951 0.789120
1.000000 0.430610 0.750423
0.389868 0.406775 0.720851
0.479896 0.456031 0.722774
0.698695 0.637812 0.726162
0.866423 0.663996 0.791897
1.000000 0.501152 0.754849
0.000000 0.433875 0.710445
0.374548 0.493080 0.719234
0.705867 0.667720 0.745510
0.890654 0.737697 0.817288
1.000000 0.670008 0.783597
0.639063 0.785641 0.778103
0.651484 0.784604 0.779294
0.704891 0.781094 0.789120
0.910582 0.856077 0.862303
1.000000 0.845274 0.856199
0.933104 0.921324 0.908110
0.934691 0.923125 0.910124
0.943877 0.933349 0.921843
0.951781 0.942382 0.932219
1.000000 0.935607 0.897704
