20 Preset/Dark Style/【3】LUT video cho PR-AE-FCPX/19Tones (6)/19 tones esco 2.cube
# Created by Adobe Lightroom plugin Export LUT (1.24.0)
# www.johnrellis.com/lightroom/exportlut.htm
# Preset: 19 tones esco 2
# Color profile: E:\lut插件\exportlut.1.24\exportlut.lrplugin\color profiles\Rec709gamma2.4.icc
LUT_3D_SIZE 8
DOMAIN_MIN 0.000000 0.000000 0.000000
DOMAIN_MAX 0.903226 0.903226 0.903226
0.129824 0.152255 0.171237
0.129244 0.152132 0.170901
0.164157 0.151858 0.170047
0.292821 0.146761 0.167117
0.504265 0.093690 0.159060
0.726406 0.000000 0.144137
0.908049 0.000000 0.124056
1.000000 0.000000 0.123323
0.128267 0.153048 0.170474
0.130587 0.153231 0.170596
0.167178 0.158419 0.169192
0.291905 0.162142 0.165255
0.498756 0.134890 0.155978
0.718288 0.000000 0.139773
0.897795 0.000000 0.117525
1.000000 0.012085 0.113588
0.053925 0.206912 0.172000
0.100465 0.203372 0.170993
0.174624 0.209476 0.165408
0.325109 0.231815 0.152529
0.524498 0.232334 0.135561
0.738125 0.220951 0.105867
0.910735 0.227970 0.030640
1.000000 0.267979 0.034821
0.000000 0.373358 0.192020
0.000000 0.368841 0.184451
0.000000 0.355505 0.187015
0.332830 0.388952 0.142763
0.595514 0.414282 0.000000
0.771511 0.401770 0.000000
0.913542 0.405371 0.000000
1.000000 0.423651 0.000000
0.000000 0.581140 0.257816
0.000000 0.578119 0.242741
0.000000 0.565026 0.245335
0.271153 0.563287 0.229587
0.552178 0.589654 0.134554
0.778897 0.609979 0.000000
0.905089 0.585382 0.000000
1.000000 0.569909 0.000000
0.000000 0.748074 0.374945
0.000000 0.749844 0.367895
0.000000 0.741756 0.360174
0.286809 0.724819 0.360510
0.513359 0.732357 0.325353
0.719875 0.750271 0.245548
0.894499 0.768917 0.022766
0.987579 0.746914 0.000000
0.149722 0.861692 0.529046
0.164797 0.861601 0.523796
0.274388 0.857389 0.514366
0.424384 0.848112 0.512474
0.553246 0.837308 0.505303
0.691341 0.847166 0.469245
0.834348 0.856992 0.407874
0.964446 0.872282 0.316075
0.547936 0.935943 0.689937
0.548852 0.935790 0.686824
0.568139 0.934295 0.681849
0.619898 0.930419 0.682612
0.673182 0.921355 0.673487
0.746273 0.921233 0.666011
0.830442 0.926970 0.640833
0.919371 0.931365 0.590021
0.128908 0.151919 0.172152
0.130526 0.151797 0.171450
0.166995 0.150027 0.170901
0.287541 0.154208 0.167361
0.492226 0.134371 0.156680
0.712367 0.000000 0.140780
0.891142 0.000000 0.119783
1.000000 0.000000 0.116030
0.125948 0.154482 0.174289
0.131075 0.154269 0.173556
0.172030 0.157137 0.172061
0.294163 0.165011 0.166598
0.495460 0.158572 0.153323
0.712612 0.080323 0.135775
0.887144 0.000000 0.112856
1.000000 0.094789 0.106905
0.040681 0.212650 0.191043
0.095674 0.210941 0.186130
0.176394 0.212375 0.177157
0.326177 0.226261 0.163638
0.521294 0.229709 0.143587
0.726558 0.232334 0.104097
0.893400 0.234836 0.029114
1.000000 0.266911 0.015991
0.000000 0.373419 0.229526
0.000000 0.370306 0.215976
0.028504 0.356298 0.209293
0.325536 0.379889 0.173739
0.573449 0.396887 0.111788
0.749508 0.382177 0.000000
0.895995 0.396948 0.000000
1.000000 0.415778 0.000000
0.000000 0.580133 0.296635
0.000000 0.576776 0.282322
0.000000 0.563500 0.267155
0.274327 0.554589 0.255589
0.542443 0.578851 0.180728
0.768154 0.598871 0.000000
0.897307 0.576379 0.000000
1.000000 0.564508 0.000000
0.000000 0.743771 0.400000
0.000000 0.742763 0.390326
0.000000 0.736080 0.372015
0.288792 0.720027 0.372930
0.511223 0.726436 0.344366
0.716579 0.746304 0.275639
0.890288 0.764828 0.154971
0.984009 0.742855 0.000000
0.194766 0.857908 0.540154
0.195529 0.856870 0.533318
0.265080 0.853178 0.517418
0.420294 0.844266 0.516320
0.551720 0.833433 0.512505
0.688289 0.843748 0.478584
0.830198 0.853300 0.418982
0.960388 0.868498 0.331701
0.549035 0.933898 0.693233
0.551537 0.934051 0.691157
0.564508 0.932891 0.683009
0.616724 0.929015 0.683650
0.680323 0.922972 0.683833
0.748836 0.921477 0.674372
0.830259 0.926513 0.647700
0.918517 0.930968 0.598962
0.113191 0.151217 0.226780
0.132235 0.150301 0.225742
0.188846 0.148409 0.218692
0.313054 0.134676 0.216861
0.521630 0.031464 0.202731
0.731044 0.000000 0.185489
0.901366 0.000000 0.144686
1.000000 0.162020 0.100984
0.093996 0.161440 0.233646
0.117678 0.158816 0.233371
0.194217 0.160037 0.227359
0.318822 0.151064 0.220737
0.522087 0.120302 0.208835
0.730770 0.046784 0.188724
0.897429 0.112764 0.144076
1.000000 0.194858 0.090303
0.000000 0.225711 0.261418
0.000000 0.225223 0.259495
0.183902 0.226047 0.251774
0.343755 0.231632 0.241581
0.546044 0.228916 0.223423
0.745357 0.228489 0.194553
0.901610 0.254490 0.144076
1.000000 0.302190 0.000000
0.000000 0.404913 0.324346
0.000000 0.403235 0.320989
0.132021 0.392309 0.307958
0.351354 0.393378 0.279881
0.585473 0.397894 0.244907
0.761166 0.390814 0.207523
0.904082 0.407202 0.152163
1.000000 0.433204 0.000000
0.000000 0.598810 0.398077
0.000000 0.595911 0.395361
0.000000 0.585657 0.378180
0.326635 0.562036 0.358648
0.560937 0.588067 0.314763
0.769589 0.600305 0.255344
0.896635 0.577752 0.194003
1.000000 0.573999 0.020050
0.000000 0.750179 0.492409
0.000000 0.748745 0.492470
0.000000 0.743191 0.466804
0.341466 0.729000 0.445594
0.529686 0.725124 0.430396
0.719417 0.746120 0.386603
0.884977 0.763149 0.324956
0.980072 0.744442 0.247593
0.379797 0.858854 0.613916
0.379980 0.857969 0.608118
0.385290 0.855161 0.585168
0.461646 0.847654 0.568109
0.576196 0.834409 0.564508
0.698116 0.843381 0.541100
0.831846 0.854917 0.498573
0.956451 0.870207 0.437934
0.591455 0.933318 0.728939
0.591455 0.933013 0.725734
0.595026 0.932372 0.714412
0.630182 0.930022 0.707607
0.690394 0.924041 0.707027
0.755612 0.921111 0.701961
0.832944 0.926696 0.680690
0.917540 0.931579 0.641047
0.000000 0.153323 0.381628
0.000000 0.152499 0.383886
0.217746 0.148562 0.386236
0.385016 0.136477 0.379278
0.551690 0.118868 0.358251
0.758389 0.000000 0.330968
0.902373 0.070710 0.315862
1.000000 0.217411 0.283848
0.000000 0.169680 0.390478
0.000000 0.170047 0.391333
0.213718 0.171328 0.393347
0.392065 0.167941 0.387976
0.557000 0.162570 0.366522
0.759701 0.000000 0.336217
0.900084 0.167483 0.323949
1.000000 0.247623 0.287633
0.000000 0.248844 0.398322
0.000000 0.248692 0.398566
0.165713 0.249393 0.407324
0.400732 0.268589 0.408240
0.572839 0.274083 0.392706
0.763790 0.247440 0.361273
0.904936 0.309941 0.351415
1.000000 0.347570 0.306065
0.000000 0.402625 0.457496
0.000000 0.402655 0.455543
0.000000 0.404150 0.448371
0.374823 0.407050 0.435737
0.583673 0.416236 0.423743
0.757595 0.425940 0.402197
0.896880 0.443091 0.372442
1.000000 0.464668 0.324926
0.000000 0.638361 0.546807
0.000000 0.635096 0.542626
0.000000 0.623682 0.527611
0.405341 0.602441 0.506920
0.582849 0.598322 0.479774
0.764370 0.600641 0.446418
0.889555 0.589105 0.407996
0.992004 0.599054 0.363134
0.000000 0.771481 0.596735
0.000000 0.771908 0.597833
0.252811 0.763851 0.591424
0.467079 0.749447 0.583185
0.573022 0.729213 0.557458
0.727871 0.750393 0.532494
0.874998 0.762905 0.496773
0.970306 0.747646 0.442512
0.382483 0.867491 0.674769
0.405951 0.866514 0.675410
0.483314 0.861845 0.676661
0.551049 0.855222 0.663478
0.619318 0.844450 0.644800
0.716396 0.844083 0.633204
0.833158 0.856596 0.607691
0.946960 0.871000 0.569909
0.619104 0.936736 0.772335
0.627405 0.936065 0.772885
0.660060 0.933410 0.775326
0.665705 0.932250 0.756069
0.706783 0.927306 0.745968
0.765408 0.920195 0.743526
0.836576 0.926787 0.729305
0.916381 0.932647 0.702724
0.000000 0.170962 0.572473
0.000000 0.171572 0.575250
0.187930 0.172030 0.580621
0.455726 0.165713 0.591119
0.653559 0.160159 0.586694
0.774868 0.203708 0.545342
0.913542 0.245212 0.525322
1.000000 0.273442 0.483284
0.000000 0.195773 0.576562
0.000000 0.197330 0.578973
0.187533 0.200595 0.584436
0.456336 0.202487 0.593347
0.655360 0.207309 0.590661
0.774868 0.243961 0.550530
0.911559 0.277256 0.529503
1.000000 0.299535 0.487007
0.000000 0.281376 0.578119
0.000000 0.281102 0.581018
0.140505 0.286290 0.588495
0.446021 0.305211 0.598535
0.652155 0.330510 0.599329
0.766659 0.355962 0.564141
0.901183 0.370001 0.541192
1.000000 0.382849 0.499611
0.000000 0.412390 0.591913
0.000000 0.412818 0.590448
0.000000 0.415686 0.585840
0.394171 0.432319 0.602167
0.643610 0.481147 0.616602
0.758114 0.500664 0.595209
0.887114 0.489418 0.561486
0.980591 0.525780 0.542351
0.000000 0.593072 0.643427
0.000000 0.593500 0.642603
0.000000 0.594018 0.638636
0.375647 0.594781 0.630762
0.585748 0.596857 0.618280
0.741482 0.610803 0.609949
0.866270 0.619532 0.589227
0.970031 0.629236 0.557031
0.000000 0.776913 0.704219
0.000000 0.776852 0.703700
0.000000 0.774899 0.699763
0.413703 0.766323 0.687831
0.611017 0.746090 0.669123
0.729274 0.746151 0.654597
0.857420 0.754635 0.633448
0.953765 0.745846 0.594202
0.311833 0.879454 0.748074
0.335729 0.878172 0.746578
0.422095 0.873411 0.741756
0.548669 0.865232 0.737026
0.667659 0.852720 0.732479
0.728847 0.839506 0.711818
0.831296 0.855009 0.699336
0.934661 0.866789 0.674678
0.552667 0.943694 0.799649
0.564111 0.942931 0.799710
0.607935 0.939910 0.800443
0.680110 0.935454 0.804562
0.729244 0.930297 0.795621
0.774258 0.923461 0.784298
0.837552 0.924987 0.777188
0.913420 0.931914 0.760433
0.000000 0.219608 0.736904
0.000000 0.221256 0.738338
0.225589 0.226444 0.742061
0.488991 0.238560 0.750301
0.704799 0.282841 0.759365
0.841764 0.326513 0.752712
0.907591 0.385412 0.704799
0.990112 0.487068 0.700771
0.000000 0.243961 0.733608
0.000000 0.245487 0.734524
0.225589 0.251011 0.738216
0.482795 0.264225 0.745480
0.697627 0.307256 0.755093
0.835904 0.350530 0.750057
0.902617 0.403662 0.703975
0.986358 0.497169 0.700496
0.000000 0.326574 0.736080
0.000000 0.328588 0.736812
0.219669 0.337987 0.740414
0.477089 0.356207 0.745327
0.687221 0.402167 0.754849
0.825834 0.448127 0.753109
0.892363 0.486580 0.714137
0.976165 0.552087 0.710292
0.000000 0.446876 0.725399
0.000000 0.447944 0.726375
0.117983 0.455818 0.732631
0.448707 0.477974 0.745174
0.667079 0.526268 0.756619
0.809171 0.580072 0.760952
0.875608 0.604028 0.734249
0.962036 0.629603 0.725856
0.000000 0.584802 0.740078
0.000000 0.585046 0.739284
0.000000 0.586175 0.736263
0.365850 0.589349 0.730648
0.605676 0.618494 0.743404
0.781491 0.680354 0.760830
0.855100 0.695125 0.747555
0.948730 0.686091 0.723720
0.000000 0.734890 0.770901
0.000000 0.735897 0.771145
0.234134 0.736233 0.768978
0.430610 0.737362 0.764981
0.590692 0.739437 0.758724
0.730617 0.745754 0.751858
0.842069 0.760952 0.749142
0.934691 0.768551 0.732937
0.278874 0.880674 0.824247
0.310796 0.880858 0.824308
0.399756 0.880095 0.823087
0.519005 0.879118 0.820829
0.642512 0.874632 0.813321
0.757229 0.857847 0.796231
0.834043 0.856474 0.783627
0.925963 0.863493 0.767300
0.516411 0.953185 0.857542
0.525383 0.952514 0.856687
0.563867 0.950164 0.853971
0.630091 0.946136 0.849424
0.714748 0.939208 0.843992
0.796139 0.930022 0.840116
0.841032 0.923125 0.827634
0.912749 0.932311 0.820310
0.058717 0.302953 0.847684
0.185641 0.306188 0.848753
0.357702 0.315587 0.849973
0.539361 0.338872 0.853056
0.710658 0.387579 0.856504
0.854490 0.473213 0.859892
0.936400 0.518547 0.852811
0.969665 0.557122 0.813504
0.058717 0.320836 0.843778
0.185550 0.324315 0.845060
0.354192 0.333288 0.846494
0.533104 0.354681 0.849149
0.703853 0.400427 0.852567
0.847623 0.480903 0.855772
0.930358 0.523430 0.848508
0.964660 0.558129 0.809201
0.115236 0.394141 0.843076
0.196902 0.396338 0.843412
0.357336 0.405463 0.844358
0.531334 0.427710 0.846799
0.696956 0.470253 0.849943
0.837308 0.543908 0.853971
0.919799 0.588586 0.849912
0.956329 0.617090 0.817533
0.000000 0.495369 0.837583
0.125277 0.496590 0.837705
0.331884 0.505394 0.839445
0.514244 0.527245 0.842954
0.682734 0.568017 0.846921
0.821042 0.632380 0.852720
0.903471 0.674464 0.852476
0.942870 0.690822 0.827451
0.000000 0.595483 0.824887
0.000000 0.594415 0.823575
0.115145 0.595880 0.823239
0.429480 0.609430 0.829374
0.636896 0.646509 0.837430
0.789944 0.698573 0.846067
0.883207 0.743771 0.851591
0.930053 0.759030 0.837278
0.000000 0.724269 0.840818
0.000000 0.724514 0.840513
0.251530 0.724727 0.838865
0.415076 0.725216 0.835355
0.560693 0.725856 0.828946
0.740291 0.757107 0.839811
0.868833 0.813291 0.857633
0.921386 0.823209 0.850095
0.331731 0.845182 0.863005
0.352636 0.845640 0.863066
0.417792 0.845670 0.862089
0.515373 0.846036 0.860349
0.622492 0.846311 0.857053
0.728786 0.847318 0.852506
0.829007 0.850706 0.846891
0.915679 0.861997 0.845090
0.495155 0.949310 0.905943
0.505455 0.949218 0.905882
0.547601 0.949096 0.905882
0.612970 0.948302 0.904845
0.692714 0.947356 0.902922
0.776883 0.944366 0.897093
0.859464 0.932738 0.885527
0.914611 0.933196 0.877317
0.435218 0.436957 0.926696
0.455146 0.440436 0.926879
0.522484 0.450141 0.926299
0.629938 0.475502 0.926238
0.748623 0.518334 0.925658
0.856138 0.581842 0.924498
0.936858 0.660426 0.923766
0.985260 0.682094 0.918334
0.432471 0.448402 0.924620
0.452338 0.451850 0.924895
0.520470 0.462226 0.924651
0.626856 0.485908 0.924498
0.745510 0.527276 0.924071
0.853056 0.588983 0.923064
0.934020 0.664179 0.922332
0.982727 0.685023 0.916899
0.432959 0.499611 0.921660
0.451240 0.502068 0.921721
0.517754 0.511223 0.921386
0.625208 0.536034 0.922148
0.740566 0.572900 0.921477
0.845365 0.625971 0.920592
0.925994 0.692500 0.920714
0.975067 0.712703 0.916106
0.410956 0.572351 0.916991
0.434119 0.576165 0.917205
0.500511 0.582971 0.917266
0.609552 0.603906 0.917571
0.727047 0.636744 0.917784
0.832273 0.681392 0.918120
0.913664 0.737240 0.919554
0.963836 0.758053 0.916625
0.267765 0.639521 0.910460
0.301823 0.640925 0.910857
0.401312 0.644739 0.911284
0.552422 0.665003 0.912016
0.689723 0.693141 0.913024
0.807584 0.731136 0.914580
0.897124 0.779507 0.917876
0.951812 0.805173 0.917815
0.149447 0.737331 0.909178
0.185794 0.736416 0.908537
0.285954 0.733761 0.906554
0.409583 0.730526 0.903441
0.594263 0.741146 0.906310
0.763912 0.778500 0.912016
0.878080 0.825010 0.918853
0.942504 0.857359 0.923278
0.369970 0.846921 0.921111
0.382208 0.846677 0.920867
0.429755 0.845884 0.919860
0.508232 0.844877 0.918120
0.601404 0.842985 0.915190
0.698116 0.839445 0.910460
0.837888 0.859556 0.915770
0.934020 0.900908 0.927947
0.522820 0.926787 0.934691
0.529503 0.926665 0.934539
0.558556 0.926482 0.934142
0.611597 0.926482 0.933623
0.679042 0.926421 0.932555
0.754360 0.926513 0.930663
0.834836 0.927184 0.927642
0.911437 0.929076 0.923217
