20 Preset/Dark Style/【3】LUT video cho PR-AE-FCPX/19Tones (6)/19 tones esco 2.cube
# Created by Adobe Lightroom plugin Export LUT (1.24.0)
# www.johnrellis.com/lightroom/exportlut.htm
# Preset: 19 tones esco 2
# Color profile: E:\lut插件\exportlut.1.24\exportlut.lrplugin\color profiles\Rec709gamma2.4.icc
LUT_3D_SIZE 32
DOMAIN_MIN 0.0 0.0 0.0
DOMAIN_MAX 1.0 1.0 1.0
0.129824 0.152255 0.171237
0.129824 0.152255 0.171237
0.129458 0.152316 0.171054
0.129000 0.152346 0.171054
0.129244 0.152132 0.170901
0.131746 0.152102 0.170871
0.137911 0.151919 0.170626
0.148196 0.151888 0.170474
0.164157 0.151858 0.170047
0.186862 0.151614 0.169619
0.216068 0.151217 0.168917
0.251347 0.149844 0.168185
0.292821 0.146761 0.167117
0.339574 0.141726 0.165621
0.391608 0.132784 0.163821
0.446876 0.117769 0.161746
0.504265 0.093690 0.159060
0.562036 0.016602 0.156008
0.619318 0.000000 0.152499
0.674434 0.000000 0.148440
0.726406 0.000000 0.144137
0.774777 0.000000 0.139559
0.822477 0.000000 0.133974
0.868223 0.000000 0.128725
0.908049 0.000000 0.124056
0.943267 0.000000 0.120760
0.975006 0.000000 0.118532
1.000000 0.000000 0.119387
1.000000 0.000000 0.123323
1.000000 0.000000 0.130251
1.000000 0.133913 0.142519
1.000000 0.192813 0.158999
0.129885 0.152255 0.171054
0.129397 0.152316 0.171237
0.129458 0.152316 0.171054
0.129152 0.152132 0.171084
0.129244 0.152132 0.170901
0.131746 0.152102 0.170871
0.137758 0.152163 0.170626
0.148074 0.152102 0.170474
0.164034 0.152071 0.170016
0.185855 0.152163 0.169558
0.214664 0.151675 0.168917
0.249729 0.150210 0.168185
0.290501 0.147433 0.167147
0.337102 0.142641 0.165652
0.388800 0.134188 0.163882
0.443671 0.120333 0.161593
0.500938 0.098207 0.159060
0.558740 0.029328 0.156069
0.616083 0.000000 0.152407
0.671199 0.000000 0.148562
0.723262 0.000000 0.144167
0.771572 0.000000 0.139620
0.818997 0.000000 0.134310
0.864195 0.000000 0.129000
0.903746 0.000000 0.124300
0.939086 0.000000 0.120912
0.971099 0.000000 0.118685
1.000000 0.000000 0.118685
1.000000 0.000000 0.122469
1.000000 0.000000 0.129732
1.000000 0.127108 0.140810
1.000000 0.187198 0.157137
0.129610 0.152102 0.171084
0.129610 0.152102 0.171084
0.129335 0.151919 0.171115
0.128878 0.151949 0.171115
0.129244 0.152132 0.170901
0.132052 0.152285 0.170840
0.138277 0.152499 0.170565
0.148409 0.152682 0.170382
0.164096 0.153079 0.169894
0.186191 0.153109 0.169436
0.214694 0.153292 0.168704
0.249271 0.152377 0.167941
0.290013 0.150088 0.166842
0.336278 0.145388 0.165377
0.387579 0.137881 0.163546
0.442420 0.125307 0.161440
0.499336 0.105592 0.158663
0.557092 0.053498 0.155703
0.614374 0.000000 0.151919
0.669581 0.000000 0.148043
0.721645 0.000000 0.143557
0.770047 0.000000 0.138979
0.817594 0.000000 0.133577
0.862333 0.000000 0.128115
0.901762 0.000000 0.123354
0.936919 0.000000 0.119570
0.969055 0.000000 0.117372
0.998352 0.000000 0.117708
1.000000 0.000000 0.120546
1.000000 0.000000 0.127901
1.000000 0.131685 0.139132
1.000000 0.189456 0.155367
0.129458 0.151919 0.170748
0.129458 0.151919 0.170748
0.129458 0.151919 0.170748
0.129397 0.151919 0.170932
0.129976 0.152255 0.170871
0.132876 0.152804 0.170779
0.139193 0.153445 0.170443
0.149935 0.154116 0.170199
0.165408 0.155123 0.169619
0.187533 0.155703 0.169100
0.216098 0.156222 0.168338
0.250675 0.156069 0.167453
0.290898 0.154910 0.166232
0.336828 0.151308 0.164675
0.387671 0.144839 0.162783
0.441749 0.134371 0.160555
0.498299 0.118135 0.157717
0.555383 0.092042 0.154665
0.612177 0.006195 0.150881
0.666773 0.000000 0.146639
0.718502 0.000000 0.142397
0.767086 0.000000 0.137484
0.814878 0.000000 0.132052
0.859159 0.000000 0.126345
0.898833 0.000000 0.121279
0.934508 0.000000 0.117311
0.967102 0.000000 0.114839
0.996918 0.000000 0.114412
1.000000 0.000000 0.118196
1.000000 0.071626 0.125399
1.000000 0.147860 0.136782
1.000000 0.199039 0.153140
0.128267 0.153048 0.170474
0.128267 0.153048 0.170474
0.128725 0.152987 0.170474
0.129610 0.152926 0.170474
0.130587 0.153231 0.170596
0.133700 0.154543 0.170382
0.140291 0.155703 0.170169
0.151339 0.156954 0.169650
0.167178 0.158419 0.169192
0.189242 0.160098 0.168521
0.217777 0.161501 0.167605
0.251896 0.162295 0.166629
0.291905 0.162142 0.165255
0.337621 0.160098 0.163516
0.387976 0.155673 0.161440
0.442267 0.147250 0.159060
0.498756 0.134890 0.155978
0.555810 0.116426 0.152682
0.612238 0.086366 0.148928
0.666804 0.000000 0.144564
0.718288 0.000000 0.139773
0.766567 0.000000 0.134554
0.814603 0.000000 0.128725
0.858366 0.000000 0.123049
0.897795 0.000000 0.117525
0.933501 0.000000 0.113405
0.966064 0.000000 0.110445
0.995789 0.000000 0.110384
1.000000 0.012085 0.113588
1.000000 0.121553 0.121004
1.000000 0.170199 0.132692
1.000000 0.214084 0.149569
0.125093 0.157443 0.170321
0.125185 0.157443 0.170169
0.126253 0.157168 0.170169
0.127749 0.156832 0.170382
0.130068 0.157229 0.170108
0.134157 0.157839 0.169802
0.142397 0.160342 0.169375
0.153933 0.162387 0.168948
0.170260 0.164431 0.168368
0.192752 0.166629 0.167575
0.221469 0.169375 0.166445
0.255985 0.171328 0.165225
0.295811 0.172580 0.163638
0.341558 0.172244 0.161593
0.392218 0.169650 0.159213
0.446021 0.163760 0.156558
0.502068 0.154788 0.153384
0.559045 0.141573 0.149538
0.615290 0.123629 0.145357
0.669276 0.099214 0.140902
0.720363 0.049805 0.135622
0.769711 0.000000 0.129854
0.838743 0.000000 0.119661
0.881651 0.000000 0.112886
0.919463 0.000000 0.107240
0.953368 0.000000 0.103334
0.983734 0.073793 0.101564
1.000000 0.118074 0.103883
1.000000 0.154269 0.109926
1.000000 0.188449 0.120058
1.000000 0.222995 0.135012
1.000000 0.257908 0.154299
0.117617 0.167453 0.170199
0.117678 0.167453 0.170016
0.119570 0.166964 0.170077
0.123079 0.166171 0.170138
0.127199 0.165499 0.170169
0.133059 0.166659 0.169589
0.142123 0.168215 0.168704
0.158694 0.172915 0.167605
0.177462 0.176120 0.166781
0.201663 0.179843 0.165652
0.231388 0.182589 0.164370
0.267185 0.185458 0.162661
0.308537 0.187961 0.160616
0.354955 0.188815 0.158328
0.405737 0.187716 0.155489
0.459510 0.183841 0.152346
0.515068 0.177005 0.148775
0.571038 0.168246 0.144533
0.626307 0.156802 0.139712
0.679561 0.144228 0.134340
0.731197 0.130343 0.128298
0.783932 0.118624 0.120851
0.832486 0.111482 0.113008
0.876066 0.111940 0.104646
0.914977 0.117617 0.097841
0.949310 0.130190 0.092897
0.979980 0.147860 0.090791
1.000000 0.168246 0.092653
1.000000 0.192020 0.099214
1.000000 0.217594 0.111086
1.000000 0.245914 0.126986
1.000000 0.276616 0.146792
0.103487 0.183078 0.170748
0.103578 0.183078 0.170565
0.105684 0.182498 0.170108
0.111696 0.181552 0.170199
0.119631 0.180087 0.170504
0.128389 0.179995 0.170047
0.139651 0.182071 0.168887
0.155489 0.184543 0.167361
0.181704 0.192752 0.164950
0.207492 0.196780 0.163455
0.238468 0.200687 0.161624
0.274113 0.204257 0.159426
0.314458 0.206516 0.157107
0.360754 0.208347 0.154452
0.410834 0.208774 0.151217
0.463691 0.207218 0.147555
0.518364 0.203494 0.143404
0.573480 0.198001 0.138643
0.628046 0.191348 0.133059
0.680568 0.183841 0.126986
0.734127 0.177737 0.119387
0.784726 0.173556 0.110842
0.831571 0.172030 0.101045
0.874144 0.173770 0.091920
0.912322 0.178805 0.080323
0.946349 0.186648 0.066468
0.976867 0.198001 0.061067
1.000000 0.212222 0.066255
1.000000 0.229801 0.082765
1.000000 0.250340 0.097810
1.000000 0.273594 0.116213
1.000000 0.300084 0.138521
0.053925 0.206912 0.172000
0.055512 0.206760 0.171481
0.060151 0.206180 0.170535
0.084260 0.205020 0.170809
0.100465 0.203372 0.170993
0.115846 0.200870 0.171420
0.131319 0.202640 0.169894
0.150423 0.205692 0.167819
0.174624 0.209476 0.165408
0.211856 0.220829 0.160922
0.246006 0.225315 0.158450
0.283482 0.229038 0.155703
0.325109 0.231815 0.152529
0.370489 0.233555 0.148836
0.418585 0.233799 0.144808
0.470649 0.233463 0.140597
0.524498 0.232334 0.135561
0.578485 0.229404 0.129946
0.632197 0.225711 0.123598
0.686580 0.222629 0.115663
0.738125 0.220951 0.105867
0.786587 0.219669 0.095460
0.831968 0.220523 0.080629
0.873381 0.223117 0.054108
0.910735 0.227970 0.030640
0.944213 0.234348 0.016480
0.974517 0.243107 0.009888
1.000000 0.254063 0.016419
1.000000 0.267979 0.034821
1.000000 0.284672 0.074525
1.000000 0.304356 0.102144
1.000000 0.327398 0.127962
0.000000 0.238346 0.174319
0.000000 0.238102 0.173861
0.000000 0.237522 0.172274
0.000000 0.236301 0.171908
0.014038 0.234165 0.172213
0.082673 0.231449 0.172732
0.112886 0.229221 0.172732
0.137728 0.232822 0.169772
0.166323 0.237095 0.166415
0.199863 0.241794 0.162539
0.246677 0.254032 0.155886
0.291508 0.261082 0.150973
0.334966 0.263676 0.146975
0.381750 0.264836 0.142489
0.430549 0.265263 0.137423
0.480537 0.264256 0.131930
0.531670 0.263157 0.124788
0.586450 0.263157 0.117098
0.641138 0.262882 0.107942
0.693324 0.262394 0.097444
0.742611 0.262516 0.083833
0.788754 0.263218 0.053285
0.831907 0.264927 0.021576
0.871427 0.267765 0.000000
0.907408 0.271550 0.000000
0.940368 0.276371 0.000000
0.970336 0.283787 0.000000
0.997833 0.292821 0.000000
1.000000 0.304173 0.000000
1.000000 0.318578 0.012970
1.000000 0.335668 0.077241
1.000000 0.355596 0.114046
0.000000 0.275364 0.177829
0.000000 0.275364 0.177340
0.000000 0.274907 0.175448
0.000000 0.273686 0.173800
0.000000 0.271641 0.174472
0.000000 0.268986 0.174868
0.040681 0.265324 0.175601
0.111604 0.265690 0.173983
0.149233 0.270359 0.169711
0.189273 0.275731 0.164401
0.232609 0.281651 0.158053
0.287785 0.293523 0.148684
0.345830 0.303868 0.139376
0.394049 0.304417 0.133669
0.443732 0.304112 0.127352
0.495491 0.303777 0.119600
0.547509 0.302800 0.110170
0.598779 0.301152 0.099031
0.648829 0.301091 0.081117
0.698756 0.302403 0.048676
0.745998 0.303502 0.012940
0.790616 0.305364 0.000000
0.832364 0.307652 0.000000
0.870848 0.310582 0.000000
0.906126 0.314336 0.000000
0.938384 0.318975 0.000000
0.968078 0.324895 0.000000
0.995361 0.332219 0.000000
1.000000 0.341955 0.000000
1.000000 0.354162 0.000000
1.000000 0.368902 0.012482
1.000000 0.386694 0.094392
0.000000 0.319158 0.182559
0.000000 0.319158 0.182559
0.000000 0.318853 0.180728
0.000000 0.317693 0.177584
0.000000 0.315648 0.177981
0.000000 0.313085 0.178592
0.000000 0.309636 0.179538
0.006653 0.305089 0.180514
0.116701 0.309026 0.176089
0.168795 0.314824 0.169589
0.219364 0.321172 0.161837
0.273014 0.327916 0.152041
0.349706 0.349401 0.135286
0.425116 0.365576 0.114809
0.479225 0.364691 0.104280
0.532464 0.363348 0.090822
0.584375 0.361181 0.061402
0.634272 0.359075 0.019196
0.681483 0.357000 0.000000
0.726070 0.355291 0.000000
0.769680 0.356268 0.000000
0.811246 0.358587 0.000000
0.849729 0.360784 0.000000
0.885252 0.363348 0.000000
0.917906 0.366217 0.000000
0.948058 0.369665 0.000000
0.975525 0.374426 0.000000
1.000000 0.380163 0.000000
1.000000 0.387945 0.000000
1.000000 0.397925 0.000000
1.000000 0.410132 0.000000
1.000000 0.425544 0.066560
0.000000 0.373358 0.192020
0.000000 0.373236 0.191318
0.000000 0.372503 0.189456
0.000000 0.371160 0.184512
0.000000 0.368841 0.184451
0.000000 0.365759 0.185183
0.000000 0.361944 0.186191
0.000000 0.357610 0.187259
0.000000 0.355505 0.187015
0.135927 0.362737 0.179629
0.202029 0.370794 0.170260
0.265721 0.379706 0.158328
0.332830 0.388952 0.142763
0.404761 0.399115 0.121553
0.491554 0.420508 0.072908
0.544732 0.417639 0.029786
0.595514 0.414282 0.000000
0.643244 0.410712 0.000000
0.688502 0.407416 0.000000
0.731228 0.404364 0.000000
0.771511 0.401770 0.000000
0.809445 0.399298 0.000000
0.846372 0.400610 0.000000
0.881315 0.402777 0.000000
0.913542 0.405371 0.000000
0.943542 0.408179 0.000000
0.971008 0.412207 0.000000
0.996460 0.417243 0.000000
1.000000 0.423651 0.000000
1.000000 0.432441 0.000000
1.000000 0.443366 0.000000
1.000000 0.456886 0.000000
0.000000 0.426673 0.203311
0.000000 0.426368 0.203006
0.000000 0.425299 0.199924
0.000000 0.424323 0.195438
0.000000 0.422309 0.193698
0.000000 0.419135 0.194125
0.000000 0.415503 0.195193
0.000000 0.411261 0.196353
0.000000 0.406134 0.197940
0.045075 0.408209 0.193912
0.172305 0.416052 0.184482
0.246311 0.424720 0.172061
0.316960 0.433845 0.156466
0.389288 0.442817 0.135073
0.462959 0.451209 0.104250
0.553979 0.475319 0.000000
0.603876 0.470680 0.000000
0.650507 0.465644 0.000000
0.694514 0.460853 0.000000
0.735866 0.456458 0.000000
0.774868 0.452552 0.000000
0.811460 0.448798 0.000000
0.845884 0.445686 0.000000
0.878508 0.442695 0.000000
0.910369 0.444739 0.000000
0.939971 0.447059 0.000000
0.967254 0.450233 0.000000
0.992645 0.454353 0.000000
1.000000 0.459937 0.000000
1.000000 0.467475 0.000000
1.000000 0.477150 0.000000
1.000000 0.489296 0.000000
0.000000 0.481086 0.218448
0.000000 0.480812 0.218051
0.000000 0.480018 0.215488
0.000000 0.478462 0.210452
0.000000 0.476326 0.206455
0.000000 0.472938 0.206821
0.000000 0.469154 0.207614
0.000000 0.464729 0.208530
0.000000 0.459876 0.209842
0.000000 0.454505 0.211582
0.133150 0.461036 0.202823
0.224674 0.469368 0.191043
0.300847 0.478065 0.176272
0.373663 0.486763 0.156802
0.446723 0.494942 0.129702
0.519829 0.502434 0.085786
0.610468 0.528801 0.000000
0.656367 0.522637 0.000000
0.699367 0.516625 0.000000
0.739864 0.510613 0.000000
0.777401 0.504875 0.000000
0.812985 0.499763 0.000000
0.846616 0.495430 0.000000
0.878172 0.491524 0.000000
0.907866 0.488197 0.000000
0.936584 0.485481 0.000000
0.963653 0.488167 0.000000
0.988952 0.491615 0.000000
1.000000 0.496651 0.000000
1.000000 0.503532 0.000000
1.000000 0.512474 0.000000
1.000000 0.523827 0.000000
0.000000 0.532464 0.236606
0.000000 0.532403 0.236088
0.000000 0.531731 0.233646
0.000000 0.530785 0.228763
0.000000 0.528832 0.222660
0.000000 0.526207 0.222721
0.000000 0.523125 0.223758
0.000000 0.519249 0.224430
0.000000 0.514946 0.226017
0.000000 0.509789 0.227451
0.056703 0.507622 0.226352
0.203677 0.514580 0.214725
0.285161 0.522087 0.200992
0.358679 0.529595 0.183413
0.430610 0.536675 0.160830
0.501122 0.543450 0.129244
0.570764 0.550286 0.057343
0.657771 0.576959 0.000000
0.701930 0.571466 0.000000
0.741512 0.564263 0.000000
0.778500 0.557610 0.000000
0.813443 0.551324 0.000000
0.846464 0.545892 0.000000
0.877623 0.540917 0.000000
0.906981 0.536736 0.000000
0.934661 0.533471 0.000000
0.960845 0.527672 0.000000
0.985809 0.529290 0.000000
1.000000 0.533532 0.000000
1.000000 0.539452 0.000000
1.000000 0.547143 0.000000
1.000000 0.557000 0.000000
0.000000 0.581140 0.257816
0.000000 0.580957 0.257664
0.000000 0.580438 0.254612
0.000000 0.579644 0.250584
0.000000 0.578119 0.242741
0.000000 0.575799 0.242649
0.000000 0.572625 0.242985
0.000000 0.569116 0.243870
0.000000 0.565026 0.245335
0.000000 0.560143 0.246464
0.000000 0.554498 0.248142
0.183047 0.556390 0.242008
0.271153 0.563287 0.229587
0.346227 0.570031 0.213687
0.416510 0.576776 0.194736
0.485237 0.583398 0.169711
0.552178 0.589654 0.134554
0.617700 0.596185 0.056153
0.700374 0.622522 0.000000
0.742672 0.617762 0.000000
0.778897 0.609979 0.000000
0.813077 0.602808 0.000000
0.845426 0.596277 0.000000
0.876158 0.590478 0.000000
0.905089 0.585382 0.000000
0.932372 0.581018 0.000000
0.958251 0.577478 0.000000
0.982544 0.572259 0.000000
1.000000 0.569909 0.000000
1.000000 0.575189 0.000000
1.000000 0.582086 0.000000
1.000000 0.590936 0.000000
0.000000 0.628351 0.283604
0.000000 0.628565 0.282658
0.000000 0.640772 0.288518
0.000000 0.640101 0.284276
0.000000 0.638819 0.277287
0.000000 0.636622 0.274022
0.000000 0.633631 0.274235
0.000000 0.629847 0.274723
0.000000 0.625727 0.275578
0.000000 0.620935 0.276310
0.000000 0.615259 0.277562
0.189120 0.609003 0.278904
0.276432 0.614649 0.267674
0.349767 0.620264 0.253452
0.417426 0.625879 0.236820
0.482490 0.631403 0.216464
0.545830 0.636469 0.190005
0.607233 0.641627 0.154940
0.667567 0.646723 0.099123
0.740932 0.667781 0.000000
0.783536 0.666102 0.000000
0.816434 0.657557 0.000000
0.847471 0.649805 0.000000
0.876890 0.642603 0.000000
0.904540 0.635981 0.000000
0.930816 0.630060 0.000000
0.955718 0.624903 0.000000
0.979431 0.620905 0.000000
1.000000 0.616144 0.000000
1.000000 0.612390 0.000000
1.000000 0.616388 0.000000
1.000000 0.624201 0.000000
0.000000 0.676020 0.313481
0.000000 0.677119 0.314611
0.000000 0.677913 0.313085
0.000000 0.678309 0.309789
0.000000 0.678096 0.304143
0.000000 0.676600 0.299046
0.000000 0.674006 0.299321
0.000000 0.670710 0.299351
0.000000 0.666865 0.299565
0.000000 0.662440 0.300359
0.000000 0.657404 0.301274
0.176120 0.651484 0.301915
0.271153 0.649165 0.298680
0.341497 0.654292 0.286961
0.407050 0.659449 0.273075
0.469429 0.664454 0.256474
0.529656 0.669337 0.236027
0.588495 0.674159 0.210910
0.646418 0.679072 0.179202
0.703029 0.683955 0.131960
0.769345 0.701625 0.000000
0.813718 0.704463 0.000000
0.844297 0.696101 0.000000
0.873106 0.688655 0.000000
0.900389 0.681422 0.000000
0.926177 0.674861 0.000000
0.950652 0.669215 0.000000
0.974121 0.664424 0.000000
0.996796 0.660883 0.000000
1.000000 0.657099 0.000000
1.000000 0.654719 0.000000
1.000000 0.655940 0.000000
0.000000 0.713466 0.343297
0.000000 0.714382 0.343145
0.000000 0.715145 0.342901
0.000000 0.715724 0.340002
0.000000 0.715633 0.334813
0.000000 0.714565 0.328130
0.000000 0.712306 0.328313
0.000000 0.709499 0.328222
0.000000 0.706081 0.328344
0.000000 0.702083 0.328832
0.000000 0.697597 0.328771
0.178256 0.692470 0.329229
0.274815 0.686580 0.329717
0.342107 0.688106 0.322728
0.403754 0.692653 0.311223
0.462013 0.697108 0.297368
0.518914 0.701503 0.280980
0.574609 0.705806 0.261265
0.629389 0.710292 0.237675
0.683070 0.714748 0.207919
0.735592 0.719265 0.169436
0.795590 0.733516 0.098085
0.840879 0.740017 0.000000
0.869139 0.732143 0.000000
0.895811 0.724788 0.000000
0.921172 0.717891 0.000000
0.945251 0.711788 0.000000
0.968444 0.706600 0.000000
0.990845 0.702480 0.000000
1.000000 0.699550 0.000000
1.000000 0.696895 0.000000
1.000000 0.695644 0.000000
0.000000 0.748074 0.374945
0.000000 0.748898 0.375616
0.000000 0.749508 0.374578
0.000000 0.749905 0.372076
0.000000 0.749844 0.367895
0.000000 0.749111 0.360204
0.000000 0.747219 0.360021
0.000000 0.744747 0.360021
0.000000 0.741756 0.360174
0.000000 0.738186 0.359808
0.000000 0.734279 0.359991
0.199374 0.729915 0.360204
0.286809 0.724819 0.360510
0.350286 0.720027 0.359838
0.406317 0.723995 0.350256
0.460426 0.728115 0.338872
0.513359 0.732357 0.325353
0.565881 0.736660 0.309880
0.617945 0.741054 0.292180
0.669276 0.745602 0.271397
0.719875 0.750271 0.245548
0.769100 0.755001 0.214267
0.822904 0.766415 0.169528
0.868345 0.775967 0.115969
0.894499 0.768917 0.022766
0.919219 0.762264 0.000000
0.942809 0.756252 0.000000
0.965576 0.751034 0.000000
0.987579 0.746914 0.000000
1.000000 0.743740 0.000000
1.000000 0.741390 0.000000
1.000000 0.739742 0.000000
0.000000 0.784512 0.415259
0.000000 0.784817 0.415259
0.000000 0.784817 0.414557
0.000000 0.784726 0.411902
0.000000 0.784146 0.406683
0.000000 0.783230 0.399969
0.000000 0.781643 0.398230
0.000000 0.779416 0.397925
0.000000 0.776791 0.397620
0.000000 0.773831 0.397498
0.127535 0.770443 0.397436
0.243015 0.766537 0.397559
0.313695 0.762295 0.397375
0.370489 0.757473 0.397345
0.420203 0.756100 0.393072
0.468421 0.759579 0.383612
0.516197 0.763149 0.372534
0.564111 0.766781 0.359594
0.611872 0.770382 0.345190
0.659236 0.774105 0.328252
0.706050 0.777859 0.308446
0.752285 0.781582 0.285161
0.797269 0.785275 0.256291
0.845243 0.793729 0.219974
0.889891 0.804959 0.181613
0.913970 0.798489 0.150118
0.937102 0.792721 0.102235
0.959472 0.787625 0.000000
0.981170 0.783444 0.000000
1.000000 0.780148 0.000000
1.000000 0.777584 0.000000
1.000000 0.775601 0.000000
0.000000 0.812650 0.451698
0.000000 0.812863 0.451698
0.000000 0.812924 0.450721
0.000000 0.812741 0.447944
0.000000 0.812406 0.443977
0.000000 0.811765 0.438544
0.000000 0.810452 0.435279
0.000000 0.808560 0.434913
0.000000 0.806363 0.434791
0.066468 0.803799 0.434424
0.213565 0.800900 0.434302
0.286473 0.797635 0.434028
0.343969 0.793973 0.433906
0.393500 0.789914 0.433722
0.438148 0.785397 0.433600
0.480476 0.787106 0.426856
0.523156 0.790341 0.417609
0.566400 0.793576 0.407202
0.609918 0.796872 0.395422
0.653437 0.800168 0.381720
0.697078 0.803464 0.366003
0.740200 0.806790 0.347570
0.782437 0.810056 0.326604
0.823667 0.813291 0.300603
0.864714 0.817502 0.265476
0.908202 0.829618 0.233158
0.931334 0.824613 0.208011
0.953185 0.819821 0.177768
0.974456 0.815793 0.135683
0.995178 0.812375 0.020752
1.000000 0.809781 0.000000
1.000000 0.807675 0.000000
0.000000 0.840238 0.492805
0.000000 0.840543 0.493538
0.000000 0.840574 0.492348
0.000000 0.840330 0.490120
0.000000 0.839780 0.486458
0.000000 0.839017 0.480507
0.000000 0.837705 0.476387
0.000000 0.835782 0.475563
0.147158 0.833524 0.474311
0.225528 0.831083 0.473457
0.284062 0.828244 0.472724
0.334264 0.825223 0.471870
0.379400 0.821805 0.471046
0.420722 0.818051 0.470130
0.458961 0.813931 0.469184
0.495308 0.810819 0.467018
0.532708 0.813352 0.459083
0.570794 0.816098 0.449683
0.610010 0.818906 0.439918
0.649622 0.821927 0.428748
0.689845 0.824979 0.416022
0.729732 0.827970 0.401404
0.769223 0.830777 0.384344
0.807889 0.833402 0.363592
0.845518 0.835904 0.339300
0.883757 0.840238 0.311009
0.925444 0.852262 0.283360
0.947936 0.848844 0.260380
0.968566 0.844816 0.234318
0.988739 0.841398 0.203006
1.000000 0.838651 0.162509
1.000000 0.836393 0.094972
0.149722 0.861692 0.529046
0.154147 0.861906 0.529290
0.157931 0.862028 0.528740
0.162387 0.861906 0.527306
0.164797 0.861601 0.523796
0.170016 0.861173 0.519615
0.187961 0.860441 0.515557
0.233127 0.858976 0.514824
0.274388 0.857389 0.514366
0.314336 0.855497 0.514061
0.352392 0.853330 0.513512
0.389044 0.850889 0.512932
0.424384 0.848112 0.512474
0.458289 0.844999 0.511498
0.490944 0.841520 0.510765
0.521996 0.837827 0.509697
0.553246 0.837308 0.505303
0.586053 0.839597 0.497475
0.620203 0.842008 0.489143
0.655329 0.844602 0.479713
0.691341 0.847166 0.469245
0.727382 0.849760 0.457343
0.763516 0.852262 0.443427
0.799313 0.854704 0.427039
0.834348 0.856992 0.407874
0.868589 0.859220 0.385443
0.902800 0.862364 0.359106
0.942596 0.874266 0.335851
0.964446 0.872282 0.316075
0.984009 0.869047 0.293431
1.000000 0.866270 0.267491
1.000000 0.863951 0.235721
0.306157 0.882628 0.569482
0.307256 0.882750 0.569635
0.307958 0.882719 0.568933
0.308690 0.882597 0.567315
0.309636 0.882353 0.564508
0.311406 0.881956 0.560845
0.316564 0.881407 0.556542
0.338262 0.880156 0.555993
0.362402 0.878752 0.555535
0.388464 0.877134 0.555047
0.415320 0.875273 0.554467
0.442847 0.873198 0.553948
0.470710 0.870970 0.553552
0.498299 0.868315 0.552605
0.525414 0.865446 0.551934
0.552087 0.862272 0.550896
0.578271 0.858946 0.549920
0.605982 0.860624 0.543603
0.635340 0.862730 0.536339
0.665888 0.864958 0.528466
0.697505 0.867216 0.519951
0.729549 0.869474 0.510002
0.761898 0.871641 0.498482
0.794308 0.873747 0.484718
0.826352 0.875792 0.469001
0.857939 0.877714 0.450568
0.888975 0.879576 0.429053
0.919524 0.881651 0.403815
0.956695 0.892302 0.382910
0.978790 0.892149 0.364294
0.997314 0.889586 0.344091
1.000000 0.887205 0.320012
0.398260 0.900999 0.608209
0.398993 0.901091 0.608301
0.399359 0.901122 0.607752
0.400366 0.901061 0.606653
0.401526 0.900969 0.604547
0.403174 0.900816 0.601617
0.407141 0.900725 0.598596
0.423560 0.900023 0.598932
0.441993 0.899290 0.599634
0.462348 0.898436 0.600580
0.484138 0.897368 0.601404
0.506493 0.896086 0.602167
0.529412 0.894591 0.602777
0.552300 0.892790 0.603113
0.575006 0.890684 0.603204
0.597192 0.888273 0.602686
0.619196 0.885649 0.602319
0.641505 0.884398 0.600000
0.665675 0.886198 0.594476
0.691096 0.888060 0.588342
0.717556 0.889982 0.581720
0.744808 0.891905 0.573816
0.772427 0.893736 0.564508
0.800198 0.895506 0.553643
0.828153 0.897185 0.540642
0.856046 0.898802 0.525475
0.883787 0.900389 0.508171
0.911437 0.901884 0.487861
0.938750 0.903410 0.463844
0.971710 0.911711 0.444221
0.993835 0.912993 0.426459
1.000000 0.910613 0.407385
0.485756 0.920592 0.653437
0.485786 0.920592 0.653254
0.486000 0.920531 0.652644
0.486091 0.920409 0.651362
0.486336 0.920256 0.649378
0.487251 0.920073 0.646815
0.488411 0.919829 0.643397
0.498787 0.919097 0.643183
0.511162 0.918212 0.643030
0.525170 0.917205 0.643000
0.540764 0.916075 0.643091
0.557427 0.914794 0.643091
0.575219 0.913298 0.643153
0.593286 0.911681 0.642969
