20 Preset/Dark Style/【3】LUT video cho PR-AE-FCPX/19Tones (6)/19 tones zack 01.cube
# Created by Adobe Lightroom plugin Export LUT (1.24.0)
# www.johnrellis.com/lightroom/exportlut.htm
# Preset: 19 tones zack 01
# Color profile: E:\lut插件\exportlut.1.24\exportlut.lrplugin\color profiles\Rec709gamma2.4.icc
LUT_3D_SIZE 32
DOMAIN_MIN 0.0 0.0 0.0
DOMAIN_MAX 1.0 1.0 1.0
0.114809 0.140932 0.142458
0.114809 0.140932 0.142458
0.114809 0.140932 0.142458
0.114809 0.140932 0.142458
0.126192 0.140322 0.143038
0.153353 0.137697 0.143313
0.205356 0.128817 0.143008
0.276738 0.112428 0.141878
0.357549 0.091432 0.138766
0.442420 0.037781 0.133181
0.525566 0.000000 0.125154
0.603632 0.000000 0.114046
0.676326 0.000000 0.099001
0.743343 0.000000 0.068360
0.802853 0.000000 0.009308
0.868894 0.000000 0.000000
0.918364 0.000000 0.000000
0.958038 0.000000 0.000000
0.993469 0.025208 0.000000
1.000000 0.047517 0.000000
1.000000 0.083345 0.000000
1.000000 0.100313 0.000000
1.000000 0.115023 0.000000
1.000000 0.129519 0.000000
1.000000 0.142947 0.000000
1.000000 0.156252 0.000000
1.000000 0.169711 0.061402
1.000000 0.183078 0.108705
1.000000 0.196353 0.135805
1.000000 0.210666 0.160433
1.000000 0.224735 0.182834
1.000000 0.239872 0.204837
0.114809 0.140932 0.142458
0.114809 0.140932 0.142458
0.114809 0.140932 0.142458
0.115328 0.140871 0.142458
0.126192 0.140322 0.143038
0.153353 0.137697 0.143313
0.203433 0.129244 0.143038
0.273045 0.115969 0.141695
0.352148 0.099550 0.138521
0.435554 0.067689 0.132998
0.518334 0.012421 0.125185
0.596338 0.000000 0.114351
0.669032 0.000000 0.099641
0.736355 0.000000 0.069703
0.797055 0.000000 0.010986
0.861204 0.000000 0.000000
0.909697 0.000000 0.000000
0.949523 0.024231 0.000000
0.985382 0.058015 0.000000
1.000000 0.078859 0.000000
1.000000 0.093996 0.000000
1.000000 0.105653 0.000000
1.000000 0.119387 0.000000
1.000000 0.132052 0.000000
1.000000 0.143160 0.000000
1.000000 0.156100 0.000000
1.000000 0.168734 0.041993
1.000000 0.181552 0.101320
1.000000 0.194217 0.129488
1.000000 0.207584 0.154147
1.000000 0.221408 0.176944
1.000000 0.236088 0.199161
0.114809 0.140932 0.142458
0.114809 0.140932 0.142458
0.114809 0.140932 0.142458
0.116670 0.140993 0.142672
0.128817 0.140291 0.143008
0.156710 0.138186 0.143191
0.205875 0.134676 0.142519
0.273442 0.128573 0.140505
0.350805 0.120760 0.136721
0.433295 0.110475 0.130617
0.515160 0.099214 0.121920
0.592432 0.083711 0.110475
0.664668 0.057588 0.094697
0.731777 0.038087 0.056458
0.793942 0.036408 0.000000
0.851926 0.059113 0.000000
0.899260 0.093507 0.000000
0.940063 0.110323 0.000000
0.976898 0.116304 0.000000
1.000000 0.121248 0.000000
1.000000 0.127779 0.000000
1.000000 0.136324 0.000000
1.000000 0.144167 0.000000
1.000000 0.153597 0.000000
1.000000 0.163424 0.000000
1.000000 0.172885 0.003815
1.000000 0.183597 0.081209
1.000000 0.194858 0.114015
1.000000 0.206149 0.138979
1.000000 0.218845 0.162509
1.000000 0.231632 0.184207
1.000000 0.245121 0.205234
0.115572 0.141970 0.143435
0.115572 0.141970 0.143435
0.116030 0.141909 0.143648
0.120424 0.142245 0.142672
0.121614 0.145510 0.146365
0.145632 0.148074 0.145815
0.193271 0.150027 0.143954
0.260533 0.152285 0.140658
0.338720 0.153811 0.135439
0.421271 0.153964 0.128054
0.503166 0.152071 0.118837
0.579095 0.150332 0.106844
0.649226 0.149111 0.091493
0.714565 0.147768 0.053956
0.778805 0.148470 0.000855
0.835172 0.154116 0.000000
0.882628 0.160800 0.000000
0.923827 0.166567 0.000000
0.961669 0.167483 0.000000
0.995300 0.169223 0.000000
1.000000 0.172580 0.000000
1.000000 0.176791 0.000000
1.000000 0.182345 0.000000
1.000000 0.188998 0.000000
1.000000 0.196506 0.031586
1.000000 0.204654 0.093507
1.000000 0.214237 0.121004
1.000000 0.223362 0.143465
1.000000 0.233463 0.164523
1.000000 0.244358 0.184909
1.000000 0.254978 0.203891
1.000000 0.266697 0.222599
0.118776 0.146151 0.147616
0.118715 0.146151 0.147829
0.119020 0.146334 0.147799
0.124453 0.152285 0.142947
0.141817 0.147127 0.142061
0.149203 0.154208 0.146395
0.143984 0.162020 0.159396
0.201968 0.170626 0.154482
0.279911 0.180514 0.147402
0.364904 0.190066 0.139528
0.451820 0.197604 0.129305
0.534844 0.202731 0.117494
0.610254 0.206363 0.103975
0.681880 0.208804 0.086610
0.751339 0.213474 0.044709
0.810056 0.217319 0.006073
0.860349 0.221042 0.000000
0.905791 0.221042 0.000000
0.945983 0.220829 0.000000
0.981384 0.221897 0.000000
1.000000 0.224277 0.000000
1.000000 0.227237 0.034607
1.000000 0.231144 0.083253
1.000000 0.235874 0.107546
1.000000 0.241855 0.128389
1.000000 0.248295 0.147219
1.000000 0.255222 0.165225
1.000000 0.262821 0.182589
1.000000 0.271214 0.200259
1.000000 0.280034 0.216831
1.000000 0.289097 0.233280
1.000000 0.299229 0.249790
0.124178 0.153140 0.154665
0.124178 0.153140 0.154665
0.124392 0.153323 0.154818
0.127657 0.164004 0.146365
0.162417 0.178836 0.136690
0.190921 0.160220 0.138582
0.235447 0.181247 0.134981
0.188144 0.181582 0.164431
0.197330 0.198581 0.186587
0.288579 0.215976 0.176425
0.383093 0.232700 0.165591
0.475471 0.246220 0.154452
0.559899 0.256229 0.143709
0.643091 0.265873 0.134463
0.716945 0.273503 0.126467
0.781247 0.277134 0.119753
0.837430 0.278630 0.117525
0.886320 0.279484 0.118105
0.929046 0.280583 0.123690
0.966369 0.281468 0.131228
0.998901 0.283787 0.142214
1.000000 0.286015 0.153841
1.000000 0.315373 0.208804
1.000000 0.319615 0.221286
1.000000 0.324376 0.233524
1.000000 0.329198 0.245243
1.000000 0.334569 0.257450
1.000000 0.339971 0.268864
1.000000 0.346685 0.281407
1.000000 0.353185 0.293462
1.000000 0.360540 0.305791
1.000000 0.367498 0.317510
0.135714 0.167544 0.169070
0.135561 0.167727 0.169039
0.132937 0.173983 0.163333
0.140841 0.191012 0.149477
0.185214 0.220951 0.130404
0.234165 0.224552 0.122347
0.278874 0.193301 0.127840
0.346075 0.225742 0.114260
0.323919 0.229191 0.139406
0.251957 0.242741 0.219852
0.287755 0.272801 0.249577
0.403540 0.298009 0.240208
0.514611 0.321233 0.234562
0.612360 0.336492 0.229007
0.696773 0.346075 0.224491
0.766720 0.350958 0.221469
0.825834 0.353674 0.220737
0.876463 0.355291 0.222660
0.920623 0.356542 0.226688
0.959594 0.358495 0.233036
0.994659 0.361120 0.241428
1.000000 0.364721 0.251621
1.000000 0.369268 0.263157
1.000000 0.374273 0.275181
1.000000 0.378820 0.286320
1.000000 0.383276 0.296727
1.000000 0.386755 0.305943
1.000000 0.390692 0.315068
1.000000 0.395178 0.324590
1.000000 0.399268 0.333532
1.000000 0.404334 0.343267
1.000000 0.410101 0.353460
0.146181 0.194949 0.179049
0.145785 0.196902 0.176944
0.146059 0.206394 0.168490
0.158968 0.225589 0.151919
0.203006 0.257694 0.125612
0.287083 0.301183 0.072816
0.312688 0.268894 0.097932
0.366979 0.229007 0.110079
0.437690 0.263706 0.082307
0.458625 0.283665 0.089509
0.406683 0.292882 0.194583
0.313542 0.335119 0.322484
0.412116 0.368170 0.332799
0.526757 0.389288 0.324437
0.623163 0.403113 0.316930
0.704067 0.411566 0.311162
0.771939 0.416175 0.307347
0.829282 0.419379 0.306310
0.879057 0.421515 0.307408
0.922576 0.423316 0.310063
0.961212 0.425391 0.314794
0.995453 0.428382 0.321477
1.000000 0.431800 0.329259
1.000000 0.435492 0.337804
1.000000 0.438849 0.345922
1.000000 0.441321 0.353094
1.000000 0.443610 0.359808
1.000000 0.445319 0.365789
1.000000 0.448096 0.372900
1.000000 0.450904 0.379889
1.000000 0.454170 0.387213
1.000000 0.457984 0.395026
0.166873 0.239963 0.192599
0.167330 0.242222 0.190249
0.169986 0.251438 0.180728
0.184390 0.270390 0.160983
0.224735 0.299870 0.127260
0.297215 0.338048 0.039368
0.371099 0.355627 0.000000
0.403174 0.317906 0.004150
0.469184 0.271031 0.054932
0.542107 0.307073 0.000000
0.586084 0.336309 0.000000
0.542657 0.345861 0.170291
0.470710 0.383886 0.319493
0.406775 0.430915 0.417060
0.527337 0.451942 0.407294
0.625513 0.466041 0.398779
0.706111 0.475074 0.392584
0.773342 0.480720 0.388525
0.830320 0.484504 0.386633
0.879545 0.487037 0.386358
0.922271 0.489631 0.388373
0.960204 0.491981 0.391577
0.994018 0.494362 0.395850
1.000000 0.496956 0.401160
1.000000 0.498970 0.406165
1.000000 0.500008 0.410407
1.000000 0.500786 0.414496
1.000000 0.501518 0.418616
1.000000 0.502647 0.423285
1.000000 0.504112 0.428168
1.000000 0.506004 0.433600
1.000000 0.508446 0.439612
0.203464 0.298924 0.219883
0.204318 0.301213 0.216922
0.207675 0.309697 0.206424
0.222263 0.327794 0.183719
0.258732 0.354314 0.142794
0.323156 0.388098 0.025910
0.416571 0.426825 0.000000
0.465278 0.411719 0.000000
0.494759 0.363622 0.000000
0.559289 0.306828 0.000000
0.623804 0.339910 0.000000
0.676387 0.372381 0.000000
0.647486 0.384375 0.128298
0.588891 0.420111 0.306493
0.505180 0.470008 0.433722
0.521874 0.503716 0.475563
0.624201 0.521080 0.468818
0.706233 0.532464 0.463569
0.773342 0.540032 0.460212
0.829801 0.544671 0.457893
0.877775 0.547784 0.456794
0.919585 0.549493 0.456336
0.956237 0.550958 0.457008
0.989014 0.551843 0.458320
1.000000 0.552483 0.460182
1.000000 0.552392 0.461830
1.000000 0.552636 0.464240
1.000000 0.552758 0.466896
1.000000 0.553368 0.470192
1.000000 0.554528 0.474281
1.000000 0.555810 0.478614
1.000000 0.557763 0.483650
0.248844 0.359655 0.253269
0.249546 0.361578 0.250614
0.253361 0.368902 0.240635
0.265904 0.383978 0.218143
0.295720 0.406439 0.177768
0.348760 0.434424 0.101289
0.427863 0.466102 0.000000
0.520989 0.493812 0.000000
0.547051 0.455299 0.000000
0.576532 0.400855 0.000000
0.641016 0.338842 0.000000
0.698817 0.369451 0.000000
0.744106 0.399451 0.000000
0.737545 0.417639 0.012177
0.690028 0.453742 0.294530
0.623255 0.503532 0.430732
0.539178 0.549920 0.529564
0.623316 0.570550 0.531395
0.703853 0.582910 0.526024
0.769802 0.590967 0.521721
0.825284 0.596033 0.518273
0.872465 0.599298 0.515984
0.913909 0.601678 0.514855
0.950713 0.603113 0.514397
0.983215 0.603998 0.514519
1.000000 0.604242 0.515007
1.000000 0.604273 0.515831
1.000000 0.604150 0.517082
1.000000 0.604273 0.519036
1.000000 0.604913 0.521813
1.000000 0.605829 0.525078
1.000000 0.607141 0.528954
0.300633 0.418647 0.293706
0.301518 0.420081 0.291630
0.305028 0.426856 0.281621
0.314641 0.438911 0.262181
0.337316 0.457282 0.226719
0.379248 0.480385 0.167025
0.444434 0.507073 0.000000
0.530999 0.535637 0.000000
0.600519 0.538201 0.000000
0.627070 0.495064 0.000000
0.656367 0.436194 0.000000
0.719081 0.369604 0.000000
0.814176 0.415778 0.000000
0.850065 0.443854 0.000000
0.856504 0.468116 0.000000
0.812680 0.511955 0.317144
0.752987 0.565240 0.461891
0.684047 0.611170 0.561120
0.654963 0.641169 0.612543
0.729183 0.652369 0.605615
0.789761 0.659419 0.599695
0.840909 0.663691 0.594659
0.885130 0.666194 0.590539
0.923796 0.667445 0.587335
0.957733 0.667689 0.584741
0.988006 0.666957 0.582300
1.000000 0.665858 0.580529
1.000000 0.664393 0.579034
1.000000 0.662989 0.578271
1.000000 0.661921 0.578332
1.000000 0.661311 0.579217
1.000000 0.661433 0.581170
0.379675 0.495369 0.357427
0.379980 0.496254 0.355322
0.381445 0.500450 0.346593
0.387274 0.509453 0.327764
0.401770 0.522820 0.296513
0.431678 0.540642 0.246708
0.482216 0.562005 0.160586
0.554406 0.585382 0.000000
0.643915 0.608911 0.000000
0.688350 0.587366 0.000000
0.717037 0.540764 0.000000
0.749081 0.477943 0.000000
0.811490 0.406012 0.000000
0.854582 0.431647 0.000000
0.888762 0.459297 0.000000
0.907774 0.484718 0.000000
0.869902 0.526574 0.294041
0.817075 0.580072 0.449989
0.757259 0.626856 0.553399
0.693690 0.662348 0.627588
0.719448 0.679652 0.643183
0.779843 0.688106 0.637263
0.831205 0.693843 0.632349
0.875639 0.697688 0.628473
0.914458 0.699916 0.625147
0.948821 0.700954 0.622309
0.979187 0.701259 0.620111
1.000000 0.700984 0.618402
1.000000 0.700526 0.617304
1.000000 0.700313 0.617182
1.000000 0.700252 0.617731
1.000000 0.700557 0.619165
0.428504 0.537957 0.397101
0.428168 0.538323 0.395422
0.428809 0.541711 0.386969
0.432349 0.548882 0.371466
0.442054 0.559655 0.346044
0.463325 0.574701 0.305211
0.500481 0.592432 0.244114
0.557122 0.612268 0.127871
0.632288 0.632868 0.000000
0.718135 0.650874 0.000000
0.743740 0.613153 0.000000
0.772732 0.564538 0.000000
0.803799 0.499763 0.000000
0.862150 0.426947 0.000000
0.898802 0.449317 0.000000
0.927550 0.475349 0.000000
0.951507 0.499794 0.000000
0.919615 0.538872 0.267124
0.871458 0.592859 0.437842
0.817563 0.640558 0.546105
0.762051 0.677211 0.622797
0.713344 0.704433 0.678004
0.773495 0.714412 0.672511
0.824918 0.721706 0.668025
0.869230 0.726741 0.664271
0.908049 0.730007 0.661036
0.942260 0.732021 0.658320
0.972869 0.733120 0.656123
1.000000 0.733913 0.654780
1.000000 0.734585 0.654322
1.000000 0.735286 0.654627
1.000000 0.735897 0.655482
0.476265 0.578302 0.436255
0.476295 0.579004 0.434546
0.476570 0.581659 0.427985
0.478614 0.587091 0.415320
0.484779 0.595911 0.393866
0.498787 0.607843 0.361669
0.525444 0.622797 0.314702
0.568261 0.639796 0.242527
0.629236 0.658106 0.065095
0.705379 0.676326 0.000000
0.769924 0.676265 0.000000
0.795865 0.636774 0.000000
0.824002 0.585840 0.000000
0.853239 0.519646 0.000000
0.907561 0.445838 0.000000
0.938140 0.465400 0.000000
0.962066 0.489937 0.000000
0.981842 0.513451 0.000000
0.963287 0.549676 0.236484
0.918578 0.603998 0.425391
0.869261 0.652979 0.539361
0.819669 0.691279 0.619196
0.769528 0.720638 0.680385
0.769711 0.738399 0.705440
0.820676 0.746731 0.701045
0.864652 0.752804 0.697444
0.903197 0.757229 0.694545
0.937530 0.760494 0.692348
0.968322 0.763088 0.691035
0.996124 0.765408 0.690761
1.000000 0.767605 0.691371
1.000000 0.768826 0.691768
0.519982 0.613611 0.471809
0.520256 0.614252 0.471015
0.520806 0.616876 0.465827
0.522698 0.622126 0.455695
0.527337 0.629908 0.439063
0.537835 0.640803 0.414191
0.557580 0.654231 0.379004
0.589837 0.669764 0.327245
0.637324 0.686336 0.245975
0.700282 0.702846 0.000000
0.776028 0.718441 0.000000
0.819821 0.700679 0.000000
0.843931 0.658289 0.000000
0.869291 0.604822 0.000000
0.896269 0.536614 0.000000
0.944732 0.462104 0.000000
0.970581 0.478798 0.000000
0.990875 0.502312 0.000000
1.000000 0.525353 0.000000
1.000000 0.557916 0.197818
0.959350 0.612970 0.411383
0.913878 0.664302 0.533104
0.868803 0.704433 0.616571
0.824033 0.735409 0.679988
0.778775 0.759670 0.731594
0.818997 0.770474 0.733028
0.862638 0.777890 0.730037
0.900969 0.783566 0.727718
0.935088 0.788022 0.726162
0.965606 0.791745 0.725490
0.992767 0.794308 0.724880
1.000000 0.796201 0.724636
0.560693 0.644831 0.506432
0.560693 0.645380 0.505455
0.561059 0.647700 0.501152
0.562249 0.652064 0.493019
0.565576 0.659022 0.479347
0.573083 0.668452 0.459052
0.587091 0.680140 0.430915
0.610773 0.693721 0.391302
0.646540 0.708370 0.334325
0.695827 0.723232 0.243626
0.759762 0.737789 0.000000
0.834104 0.751095 0.000000
0.859403 0.718105 0.000000
0.882689 0.674037 0.000000
0.906950 0.619501 0.000000
0.933898 0.551385 0.000000
0.977966 0.476967 0.000000
1.000000 0.491402 0.000000
1.000000 0.514336 0.000000
1.000000 0.537316 0.000000
1.000000 0.565942 0.147219
0.996338 0.621942 0.398627
0.953918 0.675105 0.527581
0.911986 0.717159 0.615015
0.871275 0.749416 0.680507
0.830777 0.774960 0.733608
0.818936 0.792569 0.763577
0.862211 0.801175 0.761166
0.900237 0.808133 0.759579
0.933562 0.813352 0.758267
0.963226 0.817258 0.757229
0.989715 0.820340 0.756710
0.600916 0.675166 0.541131
0.601312 0.675990 0.540429
0.623499 0.694545 0.555932
0.624262 0.698299 0.549126
0.626368 0.704067 0.538109
0.630671 0.711696 0.521874
0.639521 0.721431 0.498360
0.655177 0.732753 0.466682
0.680293 0.745205 0.424109
0.717433 0.758358 0.363622
0.767239 0.771298 0.267796
0.829709 0.783261 0.000000
0.888823 0.783291 0.000000
0.909667 0.745022 0.000000
0.931609 0.698482 0.000000
0.954467 0.641413 0.000000
0.980438 0.571649 0.000000
1.000000 0.495583 0.000000
1.000000 0.507805 0.000000
1.000000 0.530388 0.000000
1.000000 0.553674 0.000000
1.000000 0.577905 0.080842
1.000000 0.635370 0.393530
0.992950 0.690303 0.529168
0.952850 0.733028 0.618647
0.914733 0.765621 0.684962
0.877195 0.791440 0.738643
0.840055 0.812345 0.783871
0.863462 0.823117 0.791012
0.900023 0.830076 0.788907
0.932433 0.835691 0.787533
0.961303 0.840177 0.786618
0.642634 0.706691 0.577508
0.644526 0.708492 0.578424
0.646632 0.711635 0.577264
0.648920 0.716091 0.573297
0.651667 0.722194 0.565209
0.655360 0.729305 0.552239
0.661921 0.737942 0.533471
0.673182 0.747860 0.507744
0.691493 0.759060 0.473274
0.719326 0.770993 0.426490
0.758450 0.783139 0.360601
0.809262 0.794705 0.253788
0.871672 0.804929 0.000000
0.914366 0.791745 0.000000
0.934844 0.753048 0.000000
0.956573 0.706172 0.000000
0.979095 0.649531 0.000000
1.000000 0.581353 0.000000
1.000000 0.506615 0.000000
1.000000 0.517510 0.000000
1.000000 0.540307 0.000000
1.000000 0.564355 0.000000
1.000000 0.588830 0.124239
1.000000 0.641230 0.378424
1.000000 0.698085 0.523033
0.985290 0.742733 0.616663
0.949462 0.776852 0.685481
0.914366 0.803525 0.740536
0.880217 0.824979 0.786282
0.863401 0.840787 0.816281
0.899413 0.848600 0.814664
0.931212 0.854917 0.813565
0.670588 0.727657 0.603143
0.672389 0.729427 0.603937
0.674342 0.732265 0.603265
0.676356 0.736355 0.600183
0.678676 0.741695 0.593561
0.681483 0.748043 0.582849
0.686244 0.755703 0.567285
0.694392 0.764584 0.546441
0.707912 0.774563 0.518883
0.728573 0.785428 0.481819
0.758267 0.796658 0.431434
0.798703 0.807645 0.360235
0.850004 0.817777 0.241520
0.911742 0.826566 0.000000
0.940154 0.801602 0.000000
0.960449 0.762631 0.000000
0.982025 0.715602 0.000000
1.000000 0.659022 0.000000
1.000000 0.591852 0.000000
1.000000 0.518364 0.000000
1.000000 0.527459 0.000000
1.000000 0.550561 0.000000
1.000000 0.575311 0.000000
1.000000 0.600549 0.163302
1.000000 0.646326 0.361669
1.000000 0.705623 0.517632
1.000000 0.751492 0.614801
0.979522 0.786618 0.685695
0.946777 0.814450 0.742214
0.915221 0.836942 0.789273
0.884520 0.855283 0.829129
0.899748 0.865782 0.838895
0.697932 0.748318 0.628962
0.699428 0.749722 0.629908
0.700954 0.752224 0.629175
0.702663 0.755764 0.626429
0.704250 0.760342 0.621057
0.706325 0.765988 0.611810
0.709773 0.772793 0.598962
0.715694 0.780697 0.581720
0.725765 0.789853 0.559045
0.741146 0.799649 0.529717
0.763699 0.810056 0.490700
0.794919 0.820554 0.437140
0.836210 0.830442 0.360845
0.887877 0.839353 0.230350
0.945678 0.844388 0.000000
0.964660 0.811704 0.000000
0.985290 0.772824 0.000000
1.000000 0.726314 0.000000
1.000000 0.670314 0.000000
1.000000 0.604456 0.000000
1.000000 0.532036 0.000000
1.000000 0.539818 0.000000
1.000000 0.564050 0.000000
1.000000 0.590631 0.001984
1.000000 0.617090 0.213596
1.000000 0.655970 0.354742
1.000000 0.717861 0.520073
1.000000 0.765835 0.621271
1.000000 0.802304 0.694148
0.979400 0.831113 0.752071
0.950195 0.854124 0.799557
0.921965 0.872618 0.839384
0.732540 0.775051 0.662562
0.733120 0.775753 0.662684
0.733547 0.777157 0.661433
0.733944 0.779507 0.658259
0.734401 0.782986 0.652735
0.735348 0.787503 0.644556
0.737392 0.793240 0.633478
0.741512 0.800168 0.618952
0.748653 0.808225 0.600336
0.760250 0.817288 0.576440
0.777218 0.826871 0.545892
0.801144 0.836637 0.505486
0.832914 0.846128 0.450294
0.874418 0.855009 0.370611
0.925811 0.862760 0.233249
0.971740 0.857603 0.000000
0.990661 0.824765 0.000000
1.000000 0.785550 0.000000
1.000000 0.738827 0.000000
1.000000 0.682582 0.000000
1.000000 0.616968 0.000000
1.000000 0.544610 0.000000
1.000000 0.550011 0.000000
1.000000 0.574395 0.000000
1.000000 0.601068 0.113039
1.000000 0.627863 0.239414
1.000000 0.657923 0.331975
1.000000 0.722652 0.513024
1.000000 0.773068 0.619837
1.000000 0.811063 0.695552
1.000000 0.840818 0.754971
0.976226 0.864469 0.803372
0.756588 0.793484 0.687526
0.757076 0.794003 0.687648
0.757412 0.795285 0.686549
0.757656 0.797452 0.683742
0.757931 0.800504 0.679103
0.758572 0.804562 0.672175
0.759976 0.809781 0.662623
0.762905 0.816037 0.650294
0.768124 0.823301 0.634821
0.776730 0.831601 0.614923
0.789517 0.840391 0.590112
0.807736 0.849577 0.558312
0.832700 0.858701 0.516411
0.865476 0.867491 0.459388
0.907439 0.875547 0.375830
0.958679 0.882444 0.230442
0.993957 0.868711 0.000000
1.000000 0.836057 0.000000
1.000000 0.796872 0.000000
1.000000 0.750088 0.000000
1.000000 0.693935 0.000000
1.000000 0.628351 0.000000
1.000000 0.556573 0.000000
1.000000 0.560021 0.000000
1.000000 0.582910 0.000000
1.000000 0.610040 0.147127
1.000000 0.637385 0.259922
1.000000 0.663416 0.329564
1.000000 0.725185 0.502892
1.000000 0.778347 0.616693
1.000000 0.818082 0.695735
1.000000 0.848966 0.756954
0.784207 0.814908 0.717006
0.784817 0.815702 0.717403
0.785092 0.816739 0.716487
0.784939 0.818418 0.713771
0.784573 0.820706 0.709255
0.784298 0.823911 0.702693
0.784512 0.827939 0.693996
0.785824 0.833066 0.682795
0.788907 0.839170 0.668757
0.794522 0.846189 0.651545
0.803494 0.853788 0.630243
0.816983 0.861997 0.603662
0.835752 0.870207 0.569940
0.860929 0.878233 0.525841
0.893614 0.885679 0.465827
0.935241 0.892393 0.376806
0.986267 0.898009 0.215152
1.000000 0.876158 0.045594
1.000000 0.843320 0.000000
1.000000 0.804410 0.000000
1.000000 0.758022 0.000000
1.000000 0.702388 0.000000
1.000000 0.637537 0.000000
1.000000 0.566430 0.000000
1.000000 0.567224 0.000000
1.000000 0.592370 0.000000
1.000000 0.619867 0.180362
1.000000 0.647517 0.282231
1.000000 0.673518 0.348669
1.000000 0.727169 0.492470
1.000000 0.782681 0.612879
1.000000 0.823697 0.694514
0.803433 0.829343 0.739254
0.803983 0.830014 0.739590
0.804257 0.831113 0.738888
0.804227 0.832700 0.736721
0.804013 0.834989 0.733028
0.803922 0.838102 0.727687
0.804196 0.842161 0.720485
0.805264 0.847257 0.711025
0.807675 0.853117 0.699489
0.811948 0.859800 0.685084
0.818692 0.867033 0.667292
0.828855 0.874693 0.645441
0.843168 0.882475 0.618067
0.862669 0.890196 0.583276
0.888243 0.897520 0.538109
0.921294 0.904265 0.476722
0.963012 0.910185 0.384680
1.000000 0.914427 0.220523
1.000000 0.886595 0.171817
1.000000 0.853941 0.061128
1.000000 0.815183 0.000000
1.000000 0.769009 0.000000
1.000000 0.713558 0.000000
1.000000 0.649012 0.000000
1.000000 0.578088 0.000000
1.000000 0.576745 0.000000
1.000000 0.603143 0.000000
1.000000 0.631861 0.218631
1.000000 0.660365 0.311742
1.000000 0.686702 0.375433
1.000000 0.730129 0.483619
1.000000 0.787625 0.609918
0.824338 0.845243 0.763973
0.824582 0.845670 0.764004
0.824582 0.846433 0.763180
0.824399 0.847776 0.761227
0.824033 0.849790 0.757900
0.823697 0.852567 0.753109
0.823545 0.856199 0.746761
0.824002 0.860685 0.738552
0.825376 0.865965 0.728389
0.828183 0.872007 0.715877
0.833036 0.878630 0.700496
0.840513 0.885740 0.681819
0.851255 0.893065 0.659083
0.866178 0.900450 0.630701
0.886137 0.907530 0.594934
0.912200 0.914244 0.548425
0.945434 0.920348 0.485512
0.987182 0.925628 0.390875
1.000000 0.923278 0.262608
1.000000 0.895720 0.224155
1.000000 0.863340 0.168063
1.000000 0.824918 0.000000
1.000000 0.778927 0.000000
1.000000 0.723629 0.000000
1.000000 0.659358 0.000000
1.000000 0.588861 0.000000
1.000000 0.584680 0.000000
1.000000 0.611872 0.000000
1.000000 0.641138 0.243229
1.000000 0.669947 0.331640
1.000000 0.696132 0.393225
1.000000 0.725399 0.458412
0.842557 0.858915 0.786404
0.842771 0.859251 0.786465
0.842802 0.859983 0.785855
0.842649 0.861295 0.784176
0.842435 0.863310 0.781552
0.842344 0.866117 0.777859
0.842679 0.870054 0.773037
0.843534 0.874815 0.766873
0.845182 0.880461 0.759152
0.847959 0.886809 0.749599
0.852262 0.893736 0.737819
0.858457 0.900999 0.723262
0.867124 0.908415 0.705257
0.878782 0.915770 0.682887
0.894285 0.922881 0.654963
0.914397 0.929503 0.619562
0.940154 0.935576 0.574182
0.972930 0.941039 0.512535
1.000000 0.945556 0.421973
1.000000 0.937499 0.331456
1.000000 0.910582 0.301305
1.000000 0.878721 0.262150
1.000000 0.840726 0.205875
1.000000 0.795163 0.096468
1.000000 0.739986 0.000000
1.000000 0.675196 0.000000
1.000000 0.603754 0.000000
1.000000 0.597681 0.000000
1.000000 0.627497 0.159609
1.000000 0.658198 0.294713
1.000000 0.687221 0.372900
1.000000 0.713039 0.429938
0.866545 0.877867 0.816007
0.866514 0.878019 0.815824
0.866331 0.878508 0.815000
0.865995 0.879484 0.813474
0.865476 0.881132 0.810941
0.864958 0.883421 0.807370
0.864561 0.886442 0.802731
0.864439 0.890257 0.796780
0.864836 0.894774 0.789456
0.866056 0.899962 0.780484
0.868345 0.905730 0.769619
0.872221 0.911925 0.756497
0.878111 0.918425 0.740475
0.886473 0.924987 0.721187
