20 Preset/Dark Style/【3】LUT video cho PR-AE-FCPX/19Tones (6)/19T-GreyingTones.Car.cube
# Created by Adobe Lightroom plugin Export LUT (1.24.0)
# www.johnrellis.com/lightroom/exportlut.htm
# Preset: 19T-GreyingTones.Car
# Color profile: E:\lut插件\exportlut.1.24\exportlut.lrplugin\color profiles\Rec709gamma2.4.icc
LUT_3D_SIZE 8
DOMAIN_MIN 0.000000 0.000000 0.000000
DOMAIN_MAX 0.903226 0.903226 0.903226
0.183169 0.227756 0.235019
0.166476 0.228702 0.234653
0.375616 0.209262 0.230045
0.871580 0.000000 0.202487
1.000000 0.000000 0.171298
1.000000 0.000000 0.132967
1.000000 0.229862 0.081788
1.000000 0.286076 0.080598
0.173831 0.223545 0.229801
0.177554 0.226596 0.228092
0.365606 0.264012 0.225132
0.883238 0.261875 0.168246
1.000000 0.247105 0.141146
1.000000 0.277531 0.113619
1.000000 0.330175 0.078737
1.000000 0.346807 0.029511
0.000000 0.419593 0.398138
0.000000 0.450690 0.391974
0.197635 0.505760 0.214572
0.641718 0.564508 0.489784
0.881529 0.740505 0.665034
0.998352 0.743313 0.628138
1.000000 0.730892 0.575280
1.000000 0.678920 0.490089
0.423926 0.727230 0.700710
0.423529 0.735470 0.698665
0.473976 0.757382 0.666194
0.553338 0.779873 0.489906
0.733944 0.725765 0.713649
0.900755 0.861906 0.808347
0.981170 0.890013 0.825315
1.000000 0.868467 0.778286
0.683070 0.810330 0.787320
0.682460 0.812741 0.787167
0.685664 0.821653 0.783688
0.673945 0.839414 0.752621
0.723476 0.846311 0.684810
0.805539 0.811246 0.764340
0.895903 0.887999 0.848386
0.966217 0.928008 0.884092
0.730892 0.873869 0.846128
0.733089 0.877653 0.848447
0.734585 0.883482 0.847227
0.739773 0.893980 0.839017
0.710689 0.907652 0.786862
0.794980 0.906889 0.754482
0.865232 0.885130 0.813291
0.901213 0.907347 0.881529
0.777615 0.924346 0.893919
0.779263 0.925475 0.894194
0.782834 0.928344 0.892943
0.791897 0.933898 0.889067
0.789273 0.941131 0.870329
0.757504 0.952056 0.807126
0.851713 0.944976 0.807950
0.905913 0.929473 0.856046
0.834470 0.956664 0.926909
0.835874 0.957031 0.926818
0.842191 0.958740 0.926665
0.854643 0.961852 0.925994
0.855131 0.964172 0.916075
0.832822 0.971160 0.887602
0.840635 0.976593 0.847318
0.900999 0.967773 0.861784
0.175784 0.221408 0.235142
0.189303 0.219120 0.245823
0.332677 0.198245 0.257481
0.741299 0.000000 0.233890
1.000000 0.000000 0.211643
1.000000 0.117922 0.183810
1.000000 0.286809 0.109377
1.000000 0.321843 0.038087
0.188022 0.232303 0.239536
0.197482 0.241459 0.248661
0.344366 0.229374 0.277317
0.792294 0.000000 0.243290
1.000000 0.150393 0.235904
1.000000 0.281376 0.214054
1.000000 0.371588 0.180179
1.000000 0.386938 0.105409
0.335332 0.358312 0.365270
0.353216 0.377508 0.388495
0.303471 0.500145 0.445197
0.704585 0.630915 0.584741
0.879728 0.712947 0.655146
0.984894 0.724819 0.643366
1.000000 0.726009 0.614710
1.000000 0.693111 0.523552
0.573571 0.668910 0.679072
0.568414 0.681025 0.685481
0.558770 0.731563 0.702480
0.532158 0.769070 0.555138
0.726894 0.718746 0.710811
0.897063 0.857633 0.809567
0.977050 0.878843 0.816068
1.000000 0.863951 0.781033
0.711940 0.794766 0.782437
0.709377 0.797787 0.783383
0.702907 0.811917 0.787167
0.706386 0.827634 0.772549
0.712215 0.840513 0.689387
0.802152 0.807614 0.764279
0.897063 0.889006 0.850889
0.966552 0.929992 0.889677
0.743832 0.863127 0.841825
0.742885 0.865904 0.843137
0.741299 0.874357 0.845274
0.744900 0.886076 0.840970
0.727108 0.900694 0.802121
0.790280 0.905272 0.757961
0.864103 0.884092 0.815213
0.902861 0.908873 0.883207
0.779904 0.919646 0.892576
0.779812 0.919982 0.892027
0.782559 0.922942 0.891051
0.790860 0.929229 0.888426
0.797513 0.937438 0.875303
0.758846 0.949035 0.813779
0.847776 0.942931 0.807614
0.903349 0.927153 0.854612
0.832731 0.954528 0.926177
0.834958 0.955169 0.926482
0.840818 0.956878 0.926329
0.852934 0.960204 0.925841
0.866026 0.964355 0.921935
0.842496 0.970520 0.894743
0.843229 0.975952 0.853330
0.901762 0.967742 0.864958
0.291447 0.335393 0.492897
0.318944 0.330449 0.525841
0.535271 0.279423 0.639857
0.780575 0.205112 0.649531
0.908324 0.399329 0.620142
1.000000 0.293706 0.543908
1.000000 0.232059 0.458289
1.000000 0.512474 0.530877
0.377234 0.411536 0.481239
0.397436 0.424018 0.519188
0.510094 0.408576 0.622248
0.780453 0.346929 0.682124
0.885588 0.477394 0.640558
1.000000 0.375402 0.563409
1.000000 0.341619 0.487556
1.000000 0.561883 0.560937
0.532616 0.518914 0.523461
0.546288 0.531273 0.535302
0.592370 0.574884 0.576837
0.705959 0.634607 0.703761
0.836606 0.646937 0.697353
0.962615 0.542199 0.607630
1.000000 0.676448 0.675959
1.000000 0.730190 0.688045
0.690028 0.677150 0.672663
0.696681 0.684596 0.679591
0.714290 0.704494 0.698085
0.744900 0.739834 0.730922
0.785611 0.783230 0.767575
0.911009 0.839933 0.807187
0.981811 0.853574 0.810880
1.000000 0.856931 0.803006
0.783413 0.785000 0.773068
0.785092 0.786954 0.774868
0.785153 0.792966 0.783719
0.778958 0.809567 0.799619
0.762173 0.837949 0.791714
0.817990 0.826871 0.792996
0.923156 0.916136 0.887785
0.973358 0.943633 0.917144
0.802731 0.844297 0.837034
0.802487 0.846342 0.838773
0.799893 0.854124 0.844450
0.793179 0.871763 0.854582
0.791318 0.891264 0.853635
0.784421 0.907286 0.795865
0.872343 0.892943 0.837095
0.920989 0.926207 0.903685
0.821317 0.907744 0.893736
0.820676 0.908751 0.894102
0.819028 0.914092 0.896635
0.819577 0.924285 0.900572
0.828946 0.932891 0.896941
0.815549 0.943267 0.866972
0.853696 0.946380 0.832944
0.911528 0.933593 0.875059
0.848081 0.951659 0.931304
0.848722 0.951995 0.931212
0.853452 0.953887 0.931518
0.864591 0.957885 0.932403
0.877897 0.962371 0.930877
0.872435 0.967864 0.916350
0.860044 0.974304 0.879820
0.908537 0.968902 0.882048
0.634760 0.623102 0.735866
0.646021 0.628382 0.742885
0.680537 0.634180 0.762722
0.757534 0.636103 0.794888
0.867277 0.635401 0.820737
0.897185 0.683680 0.792935
0.964477 0.707332 0.792721
1.000000 0.639612 0.747585
0.674464 0.672450 0.733913
0.678553 0.673823 0.739193
0.697841 0.675807 0.758175
0.756008 0.678706 0.791043
0.857877 0.675074 0.822812
0.890043 0.702602 0.797086
0.959777 0.718532 0.796292
1.000000 0.656336 0.752682
0.710445 0.705013 0.705592
0.713863 0.710475 0.713619
0.727382 0.727962 0.741085
0.752621 0.740871 0.776699
0.828458 0.747219 0.821592
0.874357 0.754849 0.812833
0.952880 0.759976 0.814359
1.000000 0.709682 0.770199
0.755093 0.751766 0.742031
0.755978 0.752743 0.742947
0.760830 0.758450 0.748257
0.770169 0.769436 0.758480
0.793454 0.794827 0.800137
0.853300 0.801572 0.824338
0.942382 0.788693 0.816648
1.000000 0.752102 0.769894
0.790616 0.793454 0.780972
0.791348 0.794278 0.781765
0.795834 0.799557 0.786709
0.805631 0.810910 0.797421
0.819547 0.826871 0.812650
0.836759 0.846189 0.831327
0.929870 0.889464 0.870359
0.978820 0.918120 0.895659
0.835782 0.845090 0.830289
0.838834 0.848447 0.833555
0.843595 0.853666 0.838682
0.854337 0.865293 0.850248
0.867826 0.881041 0.867124
0.858152 0.899748 0.882078
0.884947 0.906157 0.869352
0.947204 0.950011 0.934264
0.875944 0.898253 0.888884
0.876219 0.899290 0.890105
0.876555 0.903136 0.894438
0.877012 0.911223 0.902281
0.875883 0.924193 0.911681
0.876799 0.937987 0.914305
0.865965 0.947631 0.879332
0.921935 0.941100 0.900481
0.881834 0.941527 0.931762
0.882200 0.942321 0.932311
0.883970 0.945861 0.934691
0.887785 0.952697 0.939178
0.895384 0.959319 0.941680
0.906615 0.964782 0.939727
0.892302 0.971099 0.916594
0.918883 0.970794 0.905821
0.754635 0.755306 0.803220
0.757382 0.756924 0.806455
0.765957 0.758816 0.816587
0.788388 0.760830 0.837003
0.837522 0.758633 0.866575
0.920439 0.750362 0.897826
0.944244 0.758175 0.877745
0.983337 0.784054 0.867918
0.763455 0.768154 0.804532
0.765774 0.769711 0.807950
0.772152 0.770748 0.817655
0.789792 0.770565 0.836088
0.834470 0.768276 0.865019
0.917388 0.760861 0.898711
0.942809 0.766567 0.880125
0.981109 0.790402 0.869444
0.778042 0.787625 0.798093
0.779324 0.789059 0.801083
0.784146 0.793271 0.811795
0.792691 0.794156 0.828763
0.823209 0.794766 0.856291
0.891508 0.792813 0.889586
0.936004 0.794217 0.886778
0.971862 0.812222 0.873472
0.792294 0.795407 0.782834
0.792874 0.796078 0.783444
0.795987 0.800900 0.789487
0.804044 0.814572 0.811948
0.820829 0.828641 0.844724
0.864012 0.837339 0.879698
0.926360 0.840818 0.898039
0.959533 0.851835 0.883665
0.814481 0.821103 0.807126
0.815366 0.822110 0.808103
0.818387 0.825559 0.811398
0.824186 0.832151 0.817716
0.832364 0.841276 0.826596
0.852934 0.865873 0.861631
0.910033 0.882292 0.901030
0.956847 0.876921 0.888365
0.840055 0.849821 0.834897
0.840909 0.850767 0.835843
0.843320 0.853361 0.838407
0.849332 0.859922 0.844907
0.859709 0.871031 0.855985
0.875700 0.887816 0.873014
0.893736 0.906004 0.891997
0.954253 0.940459 0.927245
0.881346 0.893553 0.878965
0.881773 0.893980 0.879393
0.884733 0.897002 0.882536
0.893004 0.905272 0.891234
0.904814 0.916838 0.903532
0.915862 0.928496 0.917113
0.910765 0.940459 0.926696
0.928313 0.944823 0.918456
0.910796 0.930632 0.922850
0.910979 0.931273 0.923613
0.911986 0.934051 0.926818
0.915709 0.940795 0.933898
0.918914 0.949340 0.941588
0.921538 0.960204 0.949096
0.928557 0.966674 0.947143
0.925261 0.971649 0.924559
0.805234 0.814450 0.860838
0.806760 0.815183 0.862760
0.810544 0.814755 0.867521
0.821378 0.814969 0.878233
0.843168 0.813718 0.893431
0.883177 0.811490 0.913024
0.944762 0.809537 0.935485
0.984375 0.816800 0.936767
0.805356 0.816373 0.856657
0.806027 0.816342 0.857877
0.809567 0.816190 0.863127
0.819303 0.816312 0.873869
0.840421 0.815915 0.890013
0.879606 0.814817 0.910430
0.940398 0.813748 0.933440
0.981628 0.820127 0.935821
0.820645 0.837064 0.858000
0.820798 0.836881 0.858976
0.822568 0.836942 0.863890
0.827054 0.835477 0.872343
0.842618 0.836118 0.887755
0.875090 0.837369 0.907836
0.929137 0.839689 0.930877
0.973602 0.843503 0.936828
0.831876 0.847684 0.845792
0.832242 0.848234 0.847135
0.835691 0.852476 0.854551
0.845121 0.862119 0.870695
0.855680 0.867765 0.887236
0.876158 0.871641 0.906065
0.917510 0.877562 0.928740
0.963165 0.880156 0.939544
0.845304 0.855558 0.840543
0.845823 0.856077 0.841093
0.848264 0.858762 0.843717
0.853422 0.864347 0.849271
0.862730 0.878080 0.870695
0.878477 0.892302 0.896910
0.907530 0.901305 0.922301
0.953735 0.905852 0.938506
0.864378 0.876005 0.860990
0.865690 0.877348 0.862364
0.867918 0.879698 0.864744
0.872404 0.884337 0.869474
0.878782 0.890959 0.876280
0.888914 0.901183 0.886931
0.908507 0.921355 0.915862
0.946471 0.931823 0.939269
0.892363 0.904662 0.890562
0.893309 0.905577 0.891569
0.895476 0.907683 0.893767
0.899687 0.911864 0.898222
0.906218 0.918151 0.904997
0.915404 0.926909 0.914519
0.926055 0.936828 0.925505
0.939361 0.948852 0.939086
0.919890 0.931121 0.919158
0.920195 0.931395 0.919432
0.922332 0.933379 0.921660
0.927428 0.938079 0.926879
0.935302 0.945220 0.934966
0.945708 0.954437 0.945525
0.947387 0.961669 0.954803
0.946349 0.969238 0.954314
0.839536 0.852445 0.894224
0.840452 0.852873 0.895232
0.843107 0.853056 0.898314
0.849577 0.853635 0.904662
0.861173 0.853666 0.913695
0.881193 0.853361 0.925353
0.912352 0.852934 0.938872
0.955657 0.853330 0.953491
0.841154 0.855253 0.893248
0.842100 0.855711 0.894316
0.844511 0.855833 0.897429
0.850095 0.855924 0.903441
0.861021 0.855833 0.912444
0.880125 0.855253 0.923980
0.910521 0.854551 0.937530
0.953613 0.854643 0.952300
0.852537 0.869963 0.894377
0.852873 0.869993 0.895079
0.854246 0.869902 0.897826
0.858183 0.869993 0.903532
0.866545 0.869963 0.912016
0.882658 0.870298 0.923400
0.909758 0.871519 0.937041
0.949126 0.874022 0.951965
0.865202 0.884337 0.892119
0.865568 0.884642 0.892943
0.868589 0.887175 0.897276
0.873625 0.890623 0.904326
0.878691 0.891539 0.912505
0.890288 0.893339 0.923613
0.911192 0.895995 0.936767
0.944335 0.899351 0.951446
0.875486 0.890806 0.881407
0.875608 0.891142 0.882200
0.877409 0.893675 0.886625
0.882048 0.899199 0.895933
0.890990 0.907683 0.909880
0.899596 0.912474 0.922332
0.914092 0.916014 0.935515
0.942535 0.921843 0.951537
0.889403 0.901671 0.887449
0.889921 0.902190 0.887968
0.891844 0.904082 0.889982
0.895476 0.907744 0.893828
0.900908 0.912993 0.899443
0.910552 0.924712 0.917540
0.923613 0.935088 0.936095
0.944121 0.941375 0.952575
0.905974 0.917967 0.904753
0.906523 0.918486 0.905333
0.908324 0.920195 0.907195
0.911955 0.923644 0.910918
0.917296 0.928679 0.916442
0.924346 0.935271 0.923766
0.933013 0.943145 0.932616
0.947234 0.955444 0.951934
0.925689 0.936492 0.925139
0.926177 0.936919 0.925597
0.928252 0.938811 0.927733
0.931701 0.941985 0.931273
0.936767 0.946532 0.936431
0.943389 0.952422 0.943175
0.952178 0.960113 0.952087
0.960327 0.967102 0.960327
0.874235 0.888487 0.920684
0.874754 0.888701 0.921172
0.876097 0.888609 0.922820
0.879698 0.889036 0.926421
0.886015 0.889403 0.931792
0.896391 0.889647 0.938750
0.912535 0.890227 0.947143
0.935393 0.890776 0.956390
0.875669 0.890501 0.920500
0.876219 0.890654 0.921050
0.877562 0.890715 0.922759
0.880858 0.890990 0.926299
0.886931 0.891295 0.931579
0.896941 0.891569 0.938537
0.912596 0.891997 0.946868
0.935088 0.892546 0.956115
0.883482 0.899779 0.921569
0.883787 0.899840 0.921996
0.884703 0.899809 0.923583
0.887877 0.900572 0.927245
0.892699 0.900755 0.932250
0.901152 0.900969 0.938842
0.915099 0.901762 0.947021
0.935576 0.902678 0.956085
0.896666 0.913817 0.923766
0.896941 0.913939 0.924224
0.897520 0.914061 0.925719
0.899413 0.914580 0.928985
0.902983 0.915190 0.933806
0.909422 0.915923 0.940154
0.920592 0.917144 0.947967
0.937896 0.918639 0.956664
0.902525 0.919463 0.919432
0.903075 0.920012 0.920226
0.904845 0.921599 0.923003
0.910002 0.925933 0.929168
0.915618 0.929900 0.935882
0.919890 0.931060 0.942016
0.928313 0.932891 0.949615
0.941619 0.934356 0.957671
0.913787 0.925963 0.914336
0.913970 0.926268 0.914946
0.915038 0.927855 0.917693
0.917632 0.931212 0.923339
0.922484 0.936400 0.932158
0.932494 0.944854 0.944396
0.938262 0.947601 0.952026
0.947845 0.949706 0.959808
0.923674 0.934630 0.923033
0.923980 0.934905 0.923339
0.925261 0.936095 0.924681
0.928069 0.938659 0.927520
0.932311 0.942535 0.931914
0.938140 0.947723 0.937835
0.946960 0.956817 0.951812
0.955627 0.962402 0.962463
0.934478 0.944488 0.934112
0.934783 0.944732 0.934417
0.936187 0.946014 0.935851
0.939178 0.948669 0.938903
0.943603 0.952605 0.943420
0.949432 0.957733 0.949310
0.956878 0.964141 0.956817
0.964965 0.971008 0.964965
