20 Preset/Dark Style/【3】LUT video cho PR-AE-FCPX/19Tones (6)/19T-GreyingTones.Car.cube
# Created by Adobe Lightroom plugin Export LUT (1.24.0)
# www.johnrellis.com/lightroom/exportlut.htm
# Preset: 19T-GreyingTones.Car
# Color profile: E:\lut插件\exportlut.1.24\exportlut.lrplugin\color profiles\Rec709gamma2.4.icc
LUT_3D_SIZE 5
DOMAIN_MIN 0.000000 0.000000 0.000000
DOMAIN_MAX 0.903226 0.903226 0.903226
0.183169 0.227756 0.235019
0.280705 0.220279 0.232303
0.973816 0.000000 0.186282
1.000000 0.117891 0.121065
1.000000 0.286076 0.080598
0.000000 0.340826 0.324437
0.185489 0.401007 0.215640
0.874754 0.652796 0.538842
1.000000 0.638300 0.452003
1.000000 0.584741 0.354986
0.618555 0.776638 0.754055
0.619013 0.786221 0.745418
0.665797 0.815457 0.619928
0.863554 0.852995 0.812345
0.993286 0.911711 0.853635
0.743465 0.891020 0.862272
0.745388 0.895750 0.861723
0.752773 0.911894 0.843259
0.809934 0.918578 0.768002
0.875608 0.887633 0.872770
0.834470 0.956664 0.926909
0.839994 0.958160 0.926696
0.853758 0.961822 0.920775
0.826139 0.973327 0.875944
0.900999 0.967773 0.861784
0.227359 0.281498 0.392432
0.415900 0.233768 0.527764
0.865507 0.223911 0.539269
1.000000 0.000000 0.372808
1.000000 0.457710 0.424475
0.417762 0.423133 0.429938
0.484199 0.476997 0.482918
0.814664 0.524651 0.619715
1.000000 0.550072 0.573907
1.000000 0.671962 0.599420
0.747097 0.742397 0.733303
0.750332 0.751095 0.744350
0.730648 0.796597 0.756130
0.889555 0.878447 0.845548
0.994629 0.911955 0.866850
0.795926 0.871275 0.859831
0.794217 0.879240 0.864561
0.792111 0.904051 0.870298
0.805722 0.922118 0.791226
0.892210 0.903746 0.887510
0.847288 0.953857 0.931579
0.851652 0.955444 0.931670
0.869963 0.961395 0.930968
0.860441 0.970947 0.903197
0.908995 0.969360 0.880644
0.716091 0.711025 0.773617
0.728939 0.714626 0.785306
0.804501 0.719814 0.832914
0.911070 0.719753 0.843656
1.000000 0.738186 0.826749
0.747555 0.752346 0.766415
0.754910 0.759030 0.779873
0.793576 0.762844 0.823331
0.904356 0.759487 0.855497
1.000000 0.761471 0.833249
0.786740 0.788937 0.776730
0.789609 0.792264 0.779843
0.801816 0.806516 0.793271
0.874174 0.846830 0.871275
0.985473 0.819303 0.838682
0.846372 0.856718 0.841703
0.848417 0.858915 0.843870
0.866423 0.878141 0.863188
0.890837 0.906737 0.894285
0.941650 0.947784 0.933959
0.895171 0.934142 0.927367
0.896880 0.937469 0.930205
0.902556 0.949828 0.939635
0.914458 0.963867 0.943999
0.920806 0.970886 0.913451
0.810513 0.820462 0.866667
0.814694 0.821653 0.871885
0.833768 0.822202 0.889525
0.890166 0.820310 0.919493
0.977569 0.824430 0.942809
0.821744 0.837369 0.865599
0.823636 0.837430 0.869627
0.837064 0.837858 0.886503
0.884459 0.837919 0.915923
0.970367 0.842649 0.942443
0.842069 0.855619 0.845975
0.843961 0.858793 0.851621
0.856382 0.873503 0.876524
0.881163 0.884123 0.908171
0.955444 0.896178 0.944305
0.877104 0.889220 0.874479
0.878477 0.890593 0.875914
0.886259 0.898528 0.884154
0.900786 0.912932 0.899351
0.947478 0.940063 0.946227
0.920562 0.931731 0.919829
0.922301 0.933379 0.921660
0.930846 0.941192 0.930388
0.947570 0.956085 0.947417
0.951965 0.968658 0.959197
0.874235 0.888487 0.920684
0.875578 0.888579 0.922240
0.882506 0.889250 0.928923
0.899840 0.889799 0.940734
0.935393 0.890776 0.956390
0.881163 0.897063 0.921324
0.882231 0.897154 0.922850
0.887785 0.897612 0.929229
0.902922 0.898283 0.940734
0.935546 0.899931 0.956176
0.899046 0.916503 0.921996
0.901488 0.918456 0.924620
0.907012 0.921935 0.931975
0.915801 0.923339 0.942443
0.939513 0.926513 0.957092
0.916625 0.928069 0.915770
0.917754 0.929137 0.916960
0.922545 0.935027 0.926024
0.935912 0.947753 0.946075
0.949462 0.953002 0.960327
0.934478 0.944488 0.934112
0.935698 0.945556 0.935363
0.941253 0.950500 0.940978
0.951171 0.959197 0.951080
0.964965 0.971008 0.964965
