20 Preset/Dark Style/【3】LUT video cho PR-AE-FCPX/19Tones (6)/19T-GreyingTones.Car.cube
# Created by Adobe Lightroom plugin Export LUT (1.24.0)
# www.johnrellis.com/lightroom/exportlut.htm
# Preset: 19T-GreyingTones.Car
# Color profile: E:\lut插件\exportlut.1.24\exportlut.lrplugin\color profiles\Rec709gamma2.4.icc
LUT_3D_SIZE 32
DOMAIN_MIN 0.0 0.0 0.0
DOMAIN_MAX 1.0 1.0 1.0
0.183169 0.227756 0.235019
0.183169 0.227756 0.235019
0.181491 0.227878 0.235019
0.172457 0.228367 0.234867
0.166476 0.228702 0.234653
0.177951 0.227390 0.234348
0.216342 0.224887 0.233738
0.280705 0.220279 0.232303
0.375616 0.209262 0.230045
0.505028 0.181796 0.226139
0.647669 0.118349 0.219760
0.774563 0.000000 0.211521
0.871580 0.000000 0.202487
0.933410 0.000000 0.193942
0.973816 0.000000 0.186282
1.000000 0.000000 0.178927
1.000000 0.000000 0.171298
1.000000 0.000000 0.163119
1.000000 0.000000 0.154147
1.000000 0.000000 0.144106
1.000000 0.000000 0.132967
1.000000 0.117891 0.121065
1.000000 0.170138 0.106905
1.000000 0.204471 0.093935
1.000000 0.229862 0.081788
1.000000 0.249027 0.069337
1.000000 0.264988 0.064027
1.000000 0.276646 0.070375
1.000000 0.286076 0.080598
1.000000 0.294163 0.090669
1.000000 0.299474 0.101564
1.000000 0.303716 0.112398
0.183169 0.227756 0.235019
0.183169 0.227756 0.235019
0.181247 0.227909 0.234897
0.172152 0.228397 0.234867
0.166934 0.228214 0.234714
0.178653 0.227237 0.234257
0.216495 0.225345 0.233585
0.280186 0.221225 0.232181
0.374609 0.211582 0.229801
0.501976 0.186496 0.225711
0.642267 0.130098 0.219516
0.768429 0.000000 0.211337
0.866361 0.000000 0.202213
0.930266 0.000000 0.193210
0.971099 0.000000 0.185824
1.000000 0.000000 0.178225
1.000000 0.000000 0.170718
1.000000 0.000000 0.162387
1.000000 0.000000 0.153567
1.000000 0.000000 0.143618
1.000000 0.014740 0.132509
1.000000 0.122469 0.121309
1.000000 0.172427 0.106905
1.000000 0.204532 0.094789
1.000000 0.228641 0.082948
1.000000 0.247959 0.070985
1.000000 0.263310 0.064057
1.000000 0.274937 0.066743
1.000000 0.284794 0.076356
1.000000 0.292241 0.089235
1.000000 0.297978 0.098878
1.000000 0.302129 0.110353
0.184176 0.225040 0.233555
0.184207 0.225040 0.233463
0.182834 0.224521 0.234867
0.178286 0.224399 0.232609
0.172213 0.223697 0.232090
0.183047 0.225193 0.232090
0.225101 0.226688 0.231785
0.295476 0.225559 0.230533
0.395483 0.217716 0.227512
0.525841 0.196078 0.222599
0.663325 0.151034 0.215457
0.783108 0.023102 0.206577
0.874937 0.000000 0.196872
0.933593 0.000000 0.188235
0.972839 0.000000 0.180453
1.000000 0.000000 0.173190
1.000000 0.000000 0.165438
1.000000 0.000000 0.157259
1.000000 0.000000 0.148653
1.000000 0.037446 0.138277
1.000000 0.124269 0.126925
1.000000 0.164645 0.114534
1.000000 0.198123 0.100771
1.000000 0.224887 0.088411
1.000000 0.246067 0.069398
1.000000 0.261265 0.056275
1.000000 0.274815 0.050752
1.000000 0.285649 0.056001
1.000000 0.293675 0.067842
1.000000 0.300877 0.084749
1.000000 0.306004 0.096529
1.000000 0.309270 0.108797
0.182315 0.220951 0.229587
0.182071 0.220829 0.229709
0.182864 0.220462 0.231235
0.178988 0.220645 0.232059
0.176761 0.221561 0.228885
0.180026 0.222141 0.228061
0.215549 0.227665 0.226627
0.287053 0.233371 0.224460
0.398901 0.234257 0.220554
0.541711 0.223026 0.214115
0.684718 0.197604 0.205325
0.803861 0.166476 0.194430
0.888121 0.140383 0.183566
0.940978 0.121370 0.175021
0.976837 0.108736 0.168063
1.000000 0.112062 0.160861
1.000000 0.121767 0.153323
1.000000 0.136751 0.145418
1.000000 0.153353 0.136507
1.000000 0.174411 0.126131
1.000000 0.195682 0.114443
1.000000 0.218967 0.100801
1.000000 0.241337 0.084718
1.000000 0.260594 0.057099
1.000000 0.276158 0.037079
1.000000 0.289097 0.028412
1.000000 0.300481 0.025696
1.000000 0.308843 0.034333
1.000000 0.315404 0.052064
1.000000 0.320653 0.077974
1.000000 0.323705 0.094057
1.000000 0.325994 0.106203
0.173831 0.223545 0.229801
0.173312 0.223819 0.229770
0.172122 0.225223 0.229618
0.171878 0.227604 0.228244
0.177554 0.226596 0.228092
0.177462 0.221988 0.228122
0.187808 0.227085 0.229374
0.243168 0.243900 0.229831
0.365606 0.264012 0.225132
0.520012 0.272099 0.213138
0.673701 0.270329 0.198306
0.798123 0.265690 0.182345
0.883238 0.261875 0.168246
0.936278 0.254154 0.158816
0.972137 0.249088 0.152132
1.000000 0.246067 0.146395
1.000000 0.247105 0.141146
1.000000 0.249058 0.135805
1.000000 0.255253 0.129061
1.000000 0.264805 0.121553
1.000000 0.277531 0.113619
1.000000 0.292973 0.105043
1.000000 0.307744 0.096834
1.000000 0.320104 0.089296
1.000000 0.330175 0.078737
1.000000 0.337072 0.060121
1.000000 0.341588 0.041444
1.000000 0.343450 0.020081
1.000000 0.346807 0.029511
1.000000 0.349462 0.061494
1.000000 0.350958 0.090425
1.000000 0.351446 0.105074
0.153872 0.240513 0.240787
0.153231 0.241306 0.240909
0.150912 0.244083 0.240208
0.145296 0.249790 0.235630
0.142824 0.257694 0.223362
0.179629 0.252140 0.224063
0.190738 0.236393 0.230014
0.199039 0.238834 0.239902
0.277134 0.272282 0.245365
0.446509 0.322118 0.249302
0.645533 0.365393 0.239445
0.782650 0.382361 0.212070
0.871397 0.387091 0.191897
0.925139 0.382422 0.179995
0.961791 0.376165 0.174228
0.990570 0.368536 0.169528
1.000000 0.364446 0.166842
1.000000 0.362585 0.163363
1.000000 0.364263 0.160128
1.000000 0.367834 0.156130
1.000000 0.375677 0.154147
1.000000 0.385687 0.153109
1.000000 0.421698 0.169223
1.000000 0.428779 0.169863
1.000000 0.432746 0.168765
1.000000 0.432959 0.164858
1.000000 0.431525 0.159335
1.000000 0.427039 0.150515
1.000000 0.421851 0.141543
1.000000 0.413123 0.127718
1.000000 0.403265 0.111696
1.000000 0.399237 0.123445
0.088991 0.283421 0.273625
0.087404 0.284123 0.273533
0.069093 0.288701 0.273167
0.028046 0.297887 0.268833
0.000000 0.310338 0.250217
0.000000 0.325994 0.215976
0.183810 0.315007 0.219425
0.227787 0.281926 0.238254
0.218662 0.260838 0.267308
0.342626 0.328038 0.287999
0.557488 0.416480 0.313603
0.750759 0.503746 0.353674
0.847532 0.534020 0.362371
0.900481 0.528161 0.341283
0.938109 0.519707 0.324895
0.968841 0.511315 0.311131
0.996124 0.505730 0.299443
1.000000 0.502251 0.288823
1.000000 0.500450 0.280125
1.000000 0.500008 0.274815
1.000000 0.508080 0.278202
1.000000 0.515129 0.280705
1.000000 0.521080 0.282719
1.000000 0.524071 0.281987
1.000000 0.523522 0.277806
1.000000 0.520653 0.271794
1.000000 0.513817 0.261173
1.000000 0.505333 0.248722
1.000000 0.495247 0.234745
1.000000 0.482460 0.217685
1.000000 0.468513 0.199161
1.000000 0.453468 0.179355
0.000000 0.340826 0.324437
0.000000 0.341863 0.324285
0.000000 0.347448 0.323888
0.000000 0.357427 0.321782
0.000000 0.374365 0.312047
0.000000 0.392767 0.273228
0.000000 0.413855 0.209628
0.185489 0.401007 0.215640
0.283299 0.357580 0.250675
0.281804 0.311986 0.292088
0.388739 0.379400 0.346715
0.608301 0.496681 0.401160
0.765743 0.590661 0.466438
0.832944 0.646448 0.537682
0.874754 0.652796 0.538842
0.910887 0.644923 0.519310
0.943359 0.637293 0.501183
0.973053 0.631647 0.484993
1.000000 0.628626 0.471839
1.000000 0.632013 0.465187
1.000000 0.635645 0.459602
1.000000 0.638300 0.452003
1.000000 0.638727 0.442237
1.000000 0.635920 0.434424
1.000000 0.630732 0.424109
1.000000 0.622156 0.410010
1.000000 0.611688 0.393927
1.000000 0.598383 0.374304
1.000000 0.584741 0.354986
1.000000 0.569146 0.333532
1.000000 0.551598 0.309819
1.000000 0.532647 0.284764
0.000000 0.419593 0.398138
0.000000 0.420661 0.398169
0.000000 0.425605 0.397955
0.000000 0.435279 0.397101
0.000000 0.450690 0.391974
0.000000 0.472114 0.373144
0.000000 0.493446 0.308598
0.000000 0.516106 0.211185
0.197635 0.505760 0.214572
0.360967 0.459754 0.271275
0.389136 0.404395 0.332982
0.433509 0.428656 0.415534
0.641718 0.564508 0.489784
0.764828 0.655329 0.565179
0.815274 0.705470 0.630610
0.847868 0.739345 0.674403
0.881529 0.740505 0.665034
0.914336 0.740963 0.654994
0.945312 0.742123 0.645869
0.973510 0.742641 0.636652
0.998352 0.743313 0.628138
1.000000 0.742733 0.618585
1.000000 0.740475 0.606806
1.000000 0.737057 0.593347
1.000000 0.730892 0.575280
1.000000 0.720516 0.554406
1.000000 0.708339 0.534661
1.000000 0.694209 0.512871
1.000000 0.678920 0.490089
1.000000 0.661830 0.465034
1.000000 0.643091 0.438361
1.000000 0.622217 0.409369
0.000000 0.508721 0.484260
0.000000 0.509636 0.484108
0.000000 0.513237 0.483589
0.000000 0.521386 0.483345
0.000000 0.533257 0.479438
0.000000 0.550591 0.468452
0.000000 0.571557 0.439887
0.000000 0.592370 0.356512
0.000000 0.612696 0.232700
0.248905 0.603632 0.231632
0.444648 0.561913 0.307683
0.500542 0.509911 0.384375
0.486610 0.477058 0.474342
0.661219 0.612482 0.561181
0.760159 0.696803 0.634730
0.807004 0.742153 0.686397
0.844297 0.773373 0.718471
0.882780 0.797513 0.737850
0.912993 0.800473 0.730678
0.940337 0.802152 0.723476
0.964477 0.802853 0.716426
0.985626 0.802121 0.708644
1.000000 0.800717 0.700435
1.000000 0.798123 0.690913
1.000000 0.794217 0.679438
1.000000 0.788235 0.664179
1.000000 0.780453 0.645472
1.000000 0.769528 0.626795
1.000000 0.757168 0.607477
1.000000 0.743038 0.585870
1.000000 0.726406 0.560998
1.000000 0.707912 0.533989
0.000000 0.589929 0.563500
0.000000 0.591241 0.563836
0.000000 0.594476 0.563836
0.000000 0.600366 0.563561
0.000000 0.610559 0.561425
0.000000 0.623407 0.555810
0.000000 0.639734 0.540948
0.000000 0.657893 0.503838
0.000000 0.676844 0.411536
0.000000 0.692409 0.284306
0.336767 0.682765 0.280949
0.523827 0.652674 0.367559
0.595575 0.612604 0.450111
0.598108 0.574701 0.532280
0.684321 0.656703 0.627039
0.763485 0.729702 0.687098
0.807614 0.768399 0.723079
0.846983 0.796811 0.745968
0.886687 0.820706 0.762966
0.920500 0.837064 0.773465
0.944121 0.837583 0.765957
0.964569 0.837095 0.758694
0.982849 0.835813 0.751400
0.999176 0.833799 0.743771
1.000000 0.831113 0.735500
1.000000 0.827543 0.726009
1.000000 0.822934 0.714717
1.000000 0.816831 0.700404
1.000000 0.808682 0.684627
1.000000 0.799344 0.670588
1.000000 0.788449 0.654505
1.000000 0.775479 0.635523
0.098543 0.661433 0.633356
0.095735 0.662409 0.633753
0.059663 0.666621 0.635248
0.077913 0.670771 0.634638
0.097414 0.677302 0.632685
0.126253 0.685939 0.628656
0.167727 0.697047 0.620539
0.218936 0.709529 0.604700
0.152377 0.723232 0.563531
0.000000 0.738521 0.475685
0.000000 0.748959 0.369055
0.440253 0.740352 0.369970
0.625422 0.737728 0.497780
0.690578 0.715602 0.570855
0.705928 0.692348 0.633204
0.720790 0.709133 0.695583
0.780270 0.765896 0.735470
0.823270 0.801144 0.760708
0.865568 0.829923 0.779751
0.903197 0.852537 0.795834
0.932860 0.869047 0.809659
0.954833 0.877165 0.815396
0.971557 0.874022 0.805447
0.986481 0.870359 0.795743
1.000000 0.866239 0.785946
1.000000 0.861570 0.775692
1.000000 0.856596 0.765103
1.000000 0.851102 0.753384
1.000000 0.844877 0.740169
1.000000 0.837369 0.725216
1.000000 0.829191 0.713619
1.000000 0.820188 0.701015
0.423926 0.727230 0.700710
0.423377 0.727657 0.700771
0.420630 0.729946 0.701289
0.420447 0.732692 0.700801
0.423529 0.735470 0.698665
0.429664 0.739376 0.695094
0.440192 0.744350 0.689723
0.454078 0.750484 0.680568
0.473976 0.757382 0.666194
0.429572 0.767514 0.626795
0.348150 0.779629 0.553887
0.387854 0.786862 0.480446
0.553338 0.779873 0.489906
0.665705 0.764736 0.564843
0.720333 0.749142 0.625940
0.738064 0.733486 0.671962
0.733944 0.725765 0.713649
0.781125 0.773678 0.748867
0.823636 0.809873 0.772976
0.865049 0.839353 0.792020
0.900755 0.861906 0.808347
0.928954 0.878355 0.822416
0.950774 0.890105 0.834012
0.967285 0.894285 0.836118
0.981170 0.890013 0.825315
0.994110 0.885161 0.814145
1.000000 0.880003 0.802762
1.000000 0.874418 0.790921
1.000000 0.868467 0.778286
1.000000 0.862058 0.764584
1.000000 0.854673 0.749569
1.000000 0.847196 0.739010
0.548058 0.755947 0.731960
0.547478 0.755978 0.731838
0.544823 0.757321 0.731899
0.543908 0.759091 0.731716
0.544152 0.760555 0.730007
0.545769 0.762814 0.727413
0.549706 0.765866 0.723873
0.556176 0.769863 0.718715
0.565850 0.774594 0.711025
0.573449 0.780331 0.698238
0.533928 0.789151 0.663569
0.481575 0.799527 0.604089
0.508232 0.805173 0.550622
0.616724 0.798886 0.562829
0.700557 0.786099 0.622187
0.742519 0.773465 0.666072
0.758694 0.761196 0.699092
0.757351 0.751400 0.727687
0.781643 0.778683 0.758907
0.823636 0.816251 0.782956
0.864134 0.846708 0.802609
0.898802 0.869902 0.819760
0.925933 0.886503 0.834043
0.946990 0.898131 0.845396
0.963256 0.906004 0.853819
0.976257 0.907439 0.852934
0.988098 0.902464 0.841550
0.999481 0.896910 0.829282
1.000000 0.890837 0.816281
1.000000 0.884306 0.802335
1.000000 0.877165 0.786862
1.000000 0.869230 0.770871
0.618555 0.776638 0.754055
0.618158 0.776852 0.754055
0.616938 0.777523 0.754025
0.615290 0.778805 0.753841
0.614832 0.779599 0.752560
0.615045 0.781003 0.750790
0.616388 0.783230 0.748562
0.619013 0.786221 0.745418
0.623743 0.790036 0.741024
0.630304 0.794583 0.734676
0.623651 0.800534 0.720363
0.596735 0.808225 0.691585
0.561791 0.817075 0.643946
0.587945 0.821439 0.606897
0.665797 0.815457 0.619928
0.727138 0.804562 0.662348
0.760159 0.793759 0.694240
0.774777 0.783108 0.719387
0.775235 0.772793 0.740658
0.782071 0.782132 0.767239
0.823667 0.821256 0.791745
0.863554 0.852995 0.812345
0.897246 0.876707 0.830137
0.923552 0.893400 0.844388
0.943847 0.904845 0.855314
0.959594 0.912505 0.863188
0.972076 0.917296 0.868315
0.982666 0.917144 0.865690
0.993286 0.911711 0.853635
1.000000 0.905699 0.840513
1.000000 0.898833 0.825650
1.000000 0.890959 0.808377
0.658259 0.794217 0.771725
0.658412 0.794400 0.771817
0.657862 0.795071 0.771969
0.657374 0.796139 0.771969
0.657313 0.797055 0.771328
0.657862 0.798520 0.770504
0.659083 0.800626 0.769436
0.660761 0.803464 0.767880
0.663478 0.806943 0.765560
0.666743 0.811032 0.761776
0.670985 0.815579 0.755764
0.657008 0.821164 0.739834
0.635218 0.827604 0.713344
0.608057 0.834714 0.671443
0.638605 0.837186 0.645533
0.698665 0.830869 0.657618
0.746426 0.821012 0.688808
0.774289 0.811307 0.713680
0.788083 0.801663 0.734401
0.790860 0.792477 0.752865
0.788052 0.789517 0.774563
0.823819 0.825315 0.799680
0.863401 0.858457 0.821439
0.896300 0.882719 0.839628
0.921904 0.899504 0.853880
0.941558 0.910857 0.864439
0.956817 0.918425 0.871977
0.968872 0.923125 0.876799
0.978759 0.925658 0.879149
0.987732 0.924224 0.874846
0.997559 0.918120 0.861448
1.000000 0.910948 0.845853
0.683070 0.810330 0.787320
0.682948 0.810452 0.787381
0.682490 0.811093 0.787533
0.682307 0.811856 0.787472
0.682460 0.812741 0.787167
0.682765 0.814115 0.786709
0.683314 0.816068 0.786099
0.684260 0.818570 0.785153
0.685664 0.821653 0.783688
0.687343 0.825284 0.781186
0.689662 0.829496 0.777188
0.689326 0.834134 0.769589
0.673945 0.839414 0.752621
0.655940 0.845212 0.727169
0.642329 0.850828 0.693263
0.672572 0.852720 0.672023
0.723476 0.846311 0.684810
0.762875 0.837430 0.709102
0.787564 0.828702 0.729549
0.801022 0.819730 0.747433
0.805539 0.811246 0.764340
0.803647 0.806271 0.783230
0.824521 0.829068 0.807462
0.863676 0.863371 0.830076
0.895903 0.887999 0.848386
0.920775 0.904784 0.862394
0.939818 0.916075 0.872679
0.954559 0.923430 0.879728
0.966217 0.928008 0.884092
0.975738 0.930358 0.885985
0.983917 0.930846 0.885313
0.991913 0.928161 0.878935
0.700557 0.827054 0.803067
0.700618 0.827359 0.803250
0.708400 0.836698 0.811887
0.708431 0.837217 0.811795
0.708339 0.838102 0.811612
0.708278 0.839322 0.811307
0.708217 0.841001 0.810788
0.708553 0.843137 0.810117
0.708980 0.845945 0.809049
0.709865 0.849241 0.807340
0.710933 0.853056 0.804440
0.712642 0.857176 0.799741
0.706416 0.861295 0.789273
0.692958 0.865660 0.771511
0.678126 0.870237 0.746242
0.676295 0.873869 0.718868
0.707607 0.874418 0.701686
0.750271 0.867491 0.712978
0.782773 0.859037 0.731044
0.804776 0.850584 0.747555
0.817868 0.841886 0.763149
0.823484 0.833738 0.778836
0.821744 0.826566 0.795407
0.828550 0.835843 0.818235
0.866728 0.870329 0.840909
0.897337 0.894255 0.858366
0.920836 0.910277 0.871305
0.938842 0.920958 0.880552
0.952850 0.927947 0.886839
0.964019 0.932219 0.890532
0.973175 0.934295 0.891722
0.981048 0.934478 0.890257
0.714656 0.846036 0.820737
0.715267 0.846891 0.821500
0.715846 0.848020 0.822263
0.716426 0.849241 0.822965
0.716854 0.850645 0.823423
0.716945 0.852018 0.823423
0.717006 0.853605 0.823117
0.717098 0.855558 0.822538
0.717403 0.858000 0.821653
0.718013 0.860868 0.820279
0.718990 0.864195 0.818112
0.720363 0.867857 0.814542
0.722194 0.871611 0.808774
0.710872 0.875456 0.795560
0.698268 0.879515 0.776913
0.684810 0.883879 0.750942
0.692622 0.886412 0.728695
0.724971 0.886931 0.713649
0.764614 0.880186 0.726772
0.794583 0.872801 0.742824
0.815915 0.865476 0.758175
0.829740 0.858030 0.773251
0.836759 0.850706 0.788663
0.836484 0.843351 0.804562
0.833463 0.841886 0.825193
0.866850 0.873350 0.847623
0.896849 0.897429 0.864805
0.919890 0.913603 0.877440
0.937499 0.924254 0.886351
0.951110 0.931151 0.892149
0.961944 0.935302 0.895354
0.970794 0.937163 0.895842
0.722835 0.859892 0.833433
0.723415 0.860777 0.834165
0.723995 0.861845 0.834989
0.724605 0.863096 0.835691
0.725093 0.864408 0.836179
0.725307 0.865660 0.836240
0.725399 0.867124 0.835996
0.725643 0.868833 0.835508
0.726009 0.870939 0.834806
0.726589 0.873472 0.833616
0.727413 0.876371 0.831754
0.728786 0.879576 0.828977
0.730587 0.882933 0.824582
0.727291 0.886381 0.816190
0.716060 0.890013 0.801816
0.704189 0.893828 0.782193
0.691707 0.897887 0.755276
0.709468 0.899443 0.738430
0.742458 0.899718 0.724910
0.778958 0.892943 0.739773
0.806577 0.886381 0.754330
0.827298 0.879850 0.768887
0.841489 0.873320 0.783597
0.849577 0.866758 0.798795
0.851011 0.860014 0.814420
0.848356 0.856809 0.833433
0.867552 0.876341 0.854276
0.897063 0.900664 0.871153
0.919432 0.916716 0.883268
0.936553 0.927245 0.891691
0.949767 0.934020 0.897032
0.960174 0.937896 0.899474
0.730892 0.873869 0.846128
0.731411 0.874571 0.846799
0.732021 0.875486 0.847471
0.732662 0.876524 0.848051
0.733089 0.877653 0.848447
0.733425 0.878782 0.848478
0.733669 0.880064 0.848295
0.733974 0.881590 0.847837
0.734585 0.883482 0.847227
0.735286 0.885649 0.846220
0.736416 0.888212 0.844724
0.737819 0.891020 0.842466
0.739773 0.893980 0.839017
0.742214 0.897063 0.833951
0.733028 0.900298 0.822843
0.721981 0.903807 0.807431
0.710689 0.907652 0.786862
0.699428 0.911803 0.759335
0.727565 0.912657 0.748836
0.761501 0.912444 0.740291
0.794980 0.906889 0.754482
0.821378 0.901396 0.768643
0.841520 0.895933 0.782986
0.856199 0.890593 0.797879
0.865232 0.885130 0.813291
0.868284 0.879423 0.829007
0.866361 0.875334 0.846311
0.873106 0.883818 0.865568
0.901213 0.907347 0.881529
0.922271 0.922637 0.892699
0.938079 0.932403 0.900023
0.950195 0.938415 0.904204
0.743465 0.891020 0.862272
0.743709 0.891325 0.862547
0.743984 0.891661 0.862699
0.744198 0.892180 0.862791
0.744442 0.892760 0.862699
0.744747 0.893492 0.862516
0.744961 0.894469 0.862181
0.745388 0.895750 0.861723
0.746181 0.897307 0.861112
0.747250 0.899260 0.860258
0.748745 0.901457 0.859098
0.750576 0.903899 0.857267
0.752743 0.906462 0.854520
0.755520 0.909117 0.850645
0.752773 0.911894 0.843259
0.742306 0.914977 0.830747
0.731411 0.918242 0.814420
0.720363 0.921843 0.792782
0.719051 0.924804 0.770047
0.746883 0.925292 0.759609
0.779538 0.923919 0.755032
0.809934 0.918578 0.768002
0.834165 0.913298 0.781186
0.852934 0.907958 0.794705
0.867155 0.902983 0.809110
0.876402 0.898070 0.823972
0.880369 0.893095 0.839170
0.879118 0.888487 0.854856
0.875608 0.887633 0.872770
0.902586 0.910643 0.887816
0.922728 0.925414 0.898039
0.937835 0.934783 0.904479
0.753445 0.902861 0.873350
0.753689 0.903075 0.873564
0.753902 0.903441 0.873686
0.754299 0.903838 0.873777
0.754635 0.904387 0.873716
0.755001 0.905058 0.873533
0.755459 0.905943 0.873228
0.756130 0.907042 0.872831
0.757137 0.908415 0.872313
0.758572 0.910063 0.871611
0.760250 0.911986 0.870603
0.762417 0.914092 0.869169
0.764920 0.916350 0.867002
0.768002 0.918700 0.864012
0.771267 0.921172 0.859709
0.761654 0.923919 0.849638
0.751369 0.926940 0.836484
0.740749 0.930205 0.819455
0.730037 0.933745 0.797024
0.738796 0.935698 0.779934
0.765896 0.936095 0.769802
0.797116 0.933928 0.769528
0.824857 0.929137 0.781949
0.847410 0.924315 0.794827
0.862974 0.917784 0.805386
0.876677 0.913237 0.819303
0.886076 0.908965 0.833707
0.890776 0.904631 0.848325
0.890501 0.900298 0.862852
0.887877 0.898833 0.879484
0.903838 0.913359 0.893431
0.923186 0.927672 0.902647
0.767544 0.915587 0.885679
0.768032 0.915892 0.885985
0.768338 0.916167 0.886107
0.768521 0.916381 0.885985
0.768582 0.916655 0.885740
0.768673 0.917021 0.885313
0.768917 0.917479 0.884764
0.769314 0.918151 0.884062
0.770077 0.919066 0.883330
0.771206 0.920256 0.882414
0.772610 0.921599 0.881224
0.774624 0.923217 0.879759
0.777066 0.924956 0.877836
0.779873 0.926848 0.875212
0.783200 0.928771 0.871672
0.778317 0.930938 0.864317
0.768338 0.933471 0.853239
0.758053 0.936309 0.839231
0.747555 0.939483 0.821225
0.737331 0.942962 0.798123
0.756252 0.943908 0.787167
0.782437 0.944274 0.777127
0.811734 0.941253 0.781186
0.837003 0.936675 0.793057
0.857511 0.932006 0.805142
0.873716 0.927245 0.817472
0.886473 0.923033 0.830442
0.895567 0.919097 0.843931
0.900542 0.915221 0.857511
0.901213 0.911284 0.871153
0.898863 0.909026 0.885985
0.905425 0.916106 0.898955
0.777615 0.924346 0.893919
0.778103 0.924590 0.894163
0.778561 0.924865 0.894347
0.778897 0.925139 0.894316
0.779263 0.925475 0.894194
0.779751 0.925933 0.894011
0.780545 0.926543 0.893736
0.781521 0.927337 0.893370
0.782834 0.928344 0.892943
0.784573 0.929534 0.892393
0.786587 0.930846 0.891600
0.789059 0.932311 0.890532
0.791897 0.933898 0.889067
0.795102 0.935515 0.887022
0.798672 0.937163 0.884306
0.798184 0.938964 0.879393
0.789273 0.941131 0.870329
0.779812 0.943572 0.858976
0.769986 0.946380 0.844541
0.760037 0.949432 0.826200
0.757504 0.952056 0.807126
0.777676 0.952667 0.797848
0.801846 0.952911 0.787625
0.828885 0.949157 0.796506
0.851713 0.944976 0.807950
0.870390 0.940764 0.819608
0.885222 0.936522 0.831235
0.897093 0.932799 0.843442
0.905913 0.929473 0.856046
0.911131 0.926116 0.868711
0.912535 0.922728 0.881254
0.910521 0.919951 0.894255
0.790677 0.933593 0.902983
0.791012 0.933715 0.903105
0.791257 0.933867 0.903136
0.791592 0.934051 0.903075
0.791989 0.934325 0.902953
0.792538 0.934691 0.902739
0.793301 0.935210 0.902464
0.794339 0.935882 0.902129
0.795804 0.936675 0.901701
0.797635 0.937682 0.901213
0.799832 0.938781 0.900542
0.802487 0.940063 0.899657
0.805600 0.941405 0.898528
0.808927 0.942840 0.896910
0.812558 0.944244 0.894774
0.815122 0.945739 0.891569
0.807401 0.947631 0.884154
0.798856 0.949767 0.874723
0.789944 0.952209 0.863005
0.780819 0.954894 0.848325
0.771420 0.957885 0.829679
0.778805 0.959350 0.816739
0.797452 0.959808 0.807279
0.820096 0.959350 0.800046
0.844327 0.955444 0.810605
0.864561 0.951537 0.821134
0.881285 0.947662 0.831846
0.894652 0.943755 0.842496
0.905547 0.940276 0.853696
0.914061 0.937407 0.865507
0.919371 0.934508 0.877256
0.921172 0.931456 0.888823
0.802609 0.941344 0.910521
0.802853 0.941436 0.910613
0.803159 0.941588 0.910674
0.803616 0.941802 0.910674
0.804318 0.942107 0.910674
0.805295 0.942565 0.910643
0.806882 0.943236 0.910735
0.808957 0.944091 0.910857
0.811521 0.945098 0.910979
0.814633 0.946288 0.911101
0.818265 0.947570 0.911131
0.822141 0.948913 0.910979
0.826261 0.950317 0.910552
0.830503 0.951720 0.909789
0.834745 0.953063 0.908568
0.838926 0.954376 0.906706
0.833249 0.955993 0.901061
0.826291 0.957824 0.893675
0.818997 0.959869 0.884642
0.811307 0.962127 0.873472
0.803098 0.964630 0.859373
0.796689 0.967071 0.842771
0.809232 0.967681 0.834684
0.824918 0.968078 0.825406
0.845060 0.966613 0.823789
0.865263 0.963165 0.833036
0.882414 0.959686 0.842313
0.896605 0.956268 0.851530
0.908080 0.952850 0.860624
0.917510 0.949737 0.870176
0.925109 0.947204 0.880247
0.929931 0.944579 0.890227
0.821592 0.950500 0.920500
0.821622 0.950530 0.920500
0.821805 0.950561 0.920470
0.822080 0.950683 0.920409
0.822660 0.950866 0.920287
0.823423 0.951171 0.920165
0.824643 0.951568 0.920073
0.826169 0.952087 0.919921
0.828244 0.952728 0.919799
0.830686 0.953521 0.919615
0.833585 0.954376 0.919371
0.836759 0.955352 0.919036
0.840299 0.956390 0.918486
0.844022 0.957427 0.917754
