20 Preset/Dark Style/【3】LUT video cho PR-AE-FCPX/19Tones (6)/19T-ColourfulTones.Rooftop.cube
# Created by Adobe Lightroom plugin Export LUT (1.24.0)
# www.johnrellis.com/lightroom/exportlut.htm
# Preset: 19T-ColourfulTones.Rooftop
# Color profile: E:\lut插件\exportlut.1.24\exportlut.lrplugin\color profiles\Rec709gamma2.4.icc
LUT_3D_SIZE 5
DOMAIN_MIN 0.000000 0.000000 0.000000
DOMAIN_MAX 0.903226 0.903226 0.903226
0.114351 0.160433 0.192935
0.170108 0.170535 0.200595
0.430823 0.215976 0.237583
0.782498 0.357580 0.350774
0.942077 0.570153 0.564477
0.199039 0.255497 0.179416
0.264866 0.258183 0.177615
0.581781 0.236362 0.172335
0.849027 0.344488 0.258427
0.978851 0.553643 0.512016
0.587243 0.649653 0.000000
0.699367 0.629541 0.000000
0.743404 0.654658 0.000000
0.947723 0.573114 0.000000
1.000000 0.550164 0.172274
0.815274 0.858824 0.000000
0.877195 0.852750 0.000000
0.944335 0.841276 0.000000
0.956970 0.843717 0.000000
1.000000 0.765835 0.000000
0.892943 0.949462 0.000000
0.925719 0.946532 0.000000
1.000000 0.929137 0.000000
1.000000 0.927733 0.000000
1.000000 0.927794 0.000000
0.142397 0.182681 0.209873
0.163455 0.199466 0.222568
0.417334 0.273686 0.287694
0.772824 0.366094 0.351873
0.952422 0.538994 0.514336
0.179080 0.236698 0.245243
0.270481 0.264378 0.234653
0.558618 0.276555 0.245579
0.827634 0.372717 0.303258
0.982849 0.527550 0.461524
0.498970 0.642267 0.000000
0.674739 0.626856 0.000000
0.720699 0.639734 0.000000
0.934325 0.558190 0.000000
1.000000 0.559716 0.242527
0.785580 0.860258 0.000000
0.853147 0.854368 0.000000
0.942138 0.840787 0.000000
0.951537 0.843503 0.000000
1.000000 0.765499 0.000000
0.871916 0.950896 0.000000
0.905974 0.947967 0.000000
1.000000 0.935851 0.000000
1.000000 0.929442 0.000000
1.000000 0.929686 0.000000
0.328527 0.345251 0.352514
0.351385 0.367468 0.375341
0.444434 0.460670 0.473701
0.599573 0.615686 0.633356
0.856321 0.684688 0.704921
0.381933 0.397681 0.406958
0.406195 0.422065 0.432776
0.490913 0.507561 0.523125
0.670008 0.599176 0.622065
0.888731 0.677058 0.691341
0.490120 0.579278 0.576410
0.432258 0.630793 0.562402
0.696407 0.641077 0.526177
0.889372 0.594324 0.501854
0.982208 0.660456 0.607965
0.634852 0.866423 0.553552
0.703975 0.861143 0.479377
0.929564 0.839322 0.000000
0.916045 0.847227 0.556756
1.000000 0.767788 0.484871
0.779477 0.954040 0.614557
0.810178 0.952422 0.579522
0.948394 0.942992 0.326299
1.000000 0.930205 0.320287
1.000000 0.931579 0.524804
0.610620 0.626551 0.644129
0.625208 0.640925 0.658350
0.675105 0.689723 0.706081
0.723629 0.736782 0.751339
0.800565 0.810727 0.821592
0.634974 0.650446 0.667750
0.645747 0.661006 0.678096
0.690700 0.704860 0.720699
0.736110 0.748806 0.762814
0.802396 0.812436 0.823239
0.661433 0.676387 0.693111
0.668635 0.683406 0.699977
0.723720 0.736873 0.751431
0.758145 0.770108 0.783078
0.834836 0.815732 0.828153
0.788388 0.804868 0.814755
0.775326 0.815793 0.818540
0.741848 0.852811 0.795285
0.872587 0.843442 0.791928
0.971283 0.803067 0.770260
0.743618 0.948180 0.837339
0.743832 0.950896 0.829953
0.824369 0.949432 0.835203
0.995575 0.934936 0.649958
0.977630 0.937957 0.805936
0.812650 0.822263 0.832517
0.815640 0.825132 0.835233
0.829953 0.838773 0.848142
0.847471 0.855436 0.863920
0.866087 0.873167 0.880674
0.816342 0.825803 0.835874
0.819516 0.828794 0.838743
0.833341 0.841978 0.851194
0.851347 0.859159 0.867399
0.869657 0.876585 0.883879
0.822538 0.831662 0.841459
0.829099 0.837980 0.847379
0.844968 0.853086 0.861692
0.868742 0.875669 0.883024
0.885924 0.892027 0.898436
0.846555 0.854582 0.863127
0.848020 0.855955 0.864408
0.855436 0.863066 0.871122
0.887449 0.893462 0.899809
0.903349 0.908568 0.914031
0.898802 0.904265 0.909972
0.900816 0.906188 0.911803
0.910399 0.915251 0.920317
0.911559 0.934569 0.932006
0.949706 0.940703 0.926055
