20 Preset/Dark Style/【3】LUT video cho PR-AE-FCPX/19Tones (6)/19T-ColourfulTones.Rooftop.cube
# Created by Adobe Lightroom plugin Export LUT (1.24.0)
# www.johnrellis.com/lightroom/exportlut.htm
# Preset: 19T-ColourfulTones.Rooftop
# Color profile: E:\lut插件\exportlut.1.24\exportlut.lrplugin\color profiles\Rec709gamma2.4.icc
LUT_3D_SIZE 8
DOMAIN_MIN 0.000000 0.000000 0.000000
DOMAIN_MAX 0.903226 0.903226 0.903226
0.114351 0.160433 0.192935
0.124361 0.163516 0.195132
0.196323 0.174197 0.203342
0.340032 0.197299 0.222171
0.529381 0.239872 0.257206
0.742031 0.329168 0.327428
0.871702 0.445502 0.431464
0.942077 0.570153 0.564477
0.126925 0.174807 0.192233
0.141573 0.175692 0.191501
0.247471 0.178164 0.193362
0.380377 0.189364 0.205875
0.557549 0.226017 0.234928
0.747189 0.308629 0.294255
0.873350 0.422766 0.394873
0.946807 0.551598 0.536797
0.238956 0.296727 0.168307
0.301579 0.290990 0.165469
0.321630 0.300145 0.165896
0.517815 0.288701 0.157534
0.705837 0.278843 0.152163
0.838499 0.329625 0.202518
0.937438 0.429206 0.317693
0.989105 0.545708 0.486030
0.470863 0.538415 0.000000
0.525902 0.532982 0.000000
0.588678 0.529259 0.000000
0.628229 0.554162 0.000000
0.795712 0.532830 0.000000
0.926757 0.479469 0.000000
1.000000 0.480385 0.000000
1.000000 0.538231 0.329076
0.673152 0.729213 0.000000
0.705104 0.725734 0.000000
0.793942 0.712581 0.000000
0.807645 0.718868 0.000000
0.824247 0.725734 0.000000
0.916838 0.685969 0.000000
1.000000 0.626886 0.000000
1.000000 0.582879 0.000000
0.791501 0.836606 0.000000
0.813474 0.837217 0.000000
0.886198 0.829679 0.000000
0.920531 0.821683 0.000000
0.927062 0.822904 0.000000
0.937194 0.826078 0.000000
0.993622 0.790249 0.000000
1.000000 0.732418 0.000000
0.857969 0.903288 0.000000
0.870970 0.902434 0.000000
0.919951 0.897185 0.000000
0.989776 0.884276 0.000000
0.992309 0.883604 0.000000
0.996918 0.884184 0.000000
1.000000 0.885588 0.000000
1.000000 0.854765 0.000000
0.892943 0.949462 0.000000
0.901701 0.948669 0.000000
0.937560 0.945434 0.000000
1.000000 0.939208 0.000000
1.000000 0.927276 0.000000
1.000000 0.927550 0.000000
1.000000 0.928008 0.000000
1.000000 0.927794 0.000000
0.121218 0.165499 0.196841
0.123354 0.167269 0.198184
0.188571 0.183108 0.211002
0.350744 0.199344 0.220462
0.547112 0.225986 0.236484
0.735592 0.302892 0.291508
0.863462 0.414832 0.389715
0.939330 0.543694 0.530846
0.127260 0.170535 0.200717
0.142458 0.177890 0.200839
0.242985 0.184756 0.203281
0.388342 0.200046 0.211307
0.575525 0.226932 0.225925
0.752316 0.297063 0.270176
0.871275 0.404517 0.365393
0.945159 0.531243 0.508690
0.214603 0.295842 0.177127
0.293614 0.291783 0.169009
0.319371 0.300145 0.179690
0.513207 0.283543 0.172305
0.685145 0.279149 0.173892
0.825162 0.325383 0.196902
0.924437 0.409247 0.287358
0.984100 0.524712 0.454261
0.432044 0.521050 0.000000
0.491279 0.516533 0.000000
0.568750 0.512474 0.000000
0.599969 0.530755 0.000000
0.765805 0.506615 0.000000
0.902556 0.458167 0.000000
0.982422 0.467811 0.066499
1.000000 0.523339 0.301152
0.654536 0.724636 0.000000
0.687129 0.720394 0.000000
0.784634 0.704738 0.000000
0.795254 0.708431 0.000000
0.809659 0.713771 0.000000
0.906218 0.675502 0.000000
1.000000 0.619226 0.000000
1.000000 0.578820 0.000000
0.778042 0.832639 0.000000
0.798154 0.830900 0.000000
0.873136 0.823636 0.000000
0.913695 0.815915 0.000000
0.921141 0.818173 0.000000
0.932555 0.822873 0.000000
0.990021 0.787015 0.000000
1.000000 0.729427 0.000000
0.848447 0.900816 0.000000
0.860472 0.899168 0.000000
0.910521 0.893767 0.000000
0.985595 0.880797 0.000000
0.989136 0.881102 0.000000
0.993652 0.881773 0.000000
0.999878 0.882811 0.000000
1.000000 0.851682 0.000000
0.885618 0.948272 0.000000
0.894896 0.947753 0.000000
0.931212 0.944488 0.000000
0.997284 0.938262 0.000000
1.000000 0.928527 0.000000
1.000000 0.928038 0.000000
1.000000 0.927794 0.000000
1.000000 0.927581 0.000000
0.157565 0.194858 0.219059
0.161349 0.197879 0.221225
0.191104 0.222202 0.239902
0.282841 0.302220 0.309667
0.515984 0.325872 0.339605
0.727382 0.380011 0.380102
0.868223 0.458717 0.439216
0.957610 0.547631 0.521843
0.177371 0.211124 0.231327
0.183322 0.215885 0.234928
0.215915 0.243229 0.256718
0.332891 0.290776 0.302098
0.548241 0.316594 0.324895
0.741024 0.373816 0.363928
0.873686 0.451148 0.421393
0.961578 0.539879 0.505760
0.208042 0.273991 0.272404
0.181338 0.301183 0.263951
0.329473 0.308751 0.255650
0.513024 0.297368 0.250828
0.673457 0.329931 0.273991
0.812284 0.385962 0.311986
0.915862 0.457404 0.374517
0.987915 0.538445 0.466163
0.298924 0.539757 0.177523
0.391211 0.537469 0.131655
0.577630 0.523308 0.000000
0.605646 0.544549 0.199466
0.776455 0.507622 0.180880
0.900816 0.470710 0.174411
0.974212 0.498939 0.262547
1.000000 0.549310 0.371710
0.589166 0.730495 0.000000
0.629603 0.727321 0.000000
0.770962 0.714931 0.000000
0.797299 0.713008 0.000000
0.812467 0.722499 0.000000
0.908232 0.676417 0.104402
1.000000 0.619806 0.000000
1.000000 0.593011 0.139712
0.741115 0.835874 0.000000
0.763455 0.834379 0.000000
0.846433 0.826627 0.000000
0.911650 0.815518 0.000000
0.917266 0.817624 0.000000
0.927184 0.823758 0.000000
0.985809 0.786130 0.172702
1.000000 0.730587 0.000000
0.822507 0.904326 0.000000
0.835599 0.902770 0.000000
0.888792 0.897093 0.000000
0.980407 0.887175 0.000000
0.987854 0.881651 0.000000
0.990906 0.882780 0.000000
0.995789 0.884886 0.000000
1.000000 0.853666 0.260655
0.861845 0.950256 0.139773
0.870939 0.949371 0.019928
0.909026 0.946166 0.000000
0.979553 0.940337 0.000000
1.000000 0.929015 0.000000
1.000000 0.928862 0.000000
1.000000 0.928893 0.000000
1.000000 0.928832 0.000000
0.257664 0.279606 0.288304
0.264775 0.285924 0.294224
0.289158 0.308110 0.315282
0.346746 0.363043 0.370733
0.454170 0.470497 0.484138
0.601923 0.533165 0.555749
0.787503 0.568353 0.590112
0.897307 0.632807 0.645045
0.284459 0.303685 0.311101
0.289769 0.308690 0.315953
0.310887 0.328496 0.335485
0.369116 0.384985 0.393622
0.464027 0.480446 0.494636
0.634760 0.523339 0.546960
0.801938 0.563622 0.582483
0.904906 0.629847 0.639002
0.319158 0.336278 0.343359
0.327398 0.344182 0.351415
0.361395 0.377447 0.385657
0.414221 0.430213 0.441382
0.570916 0.468025 0.486061
0.743709 0.504570 0.514092
0.862821 0.565179 0.563745
0.938415 0.630426 0.623590
0.386847 0.477485 0.469276
0.363165 0.497169 0.470253
0.425696 0.545647 0.391913
0.597833 0.542657 0.420966
0.766690 0.498573 0.380835
0.857633 0.520043 0.422827
0.931914 0.562310 0.482979
0.985534 0.619074 0.560204
0.392370 0.746975 0.424445
0.458991 0.742580 0.411170
0.653193 0.731319 0.229465
0.793057 0.718746 0.189364
0.796902 0.731838 0.434272
0.902556 0.678584 0.395453
0.995148 0.624109 0.343450
1.000000 0.633814 0.433570
0.655604 0.846006 0.363378
0.682704 0.846342 0.341375
0.778775 0.838712 0.165835
0.914336 0.821378 0.000000
0.912078 0.823362 0.237797
0.910918 0.829068 0.435767
0.974762 0.788144 0.436683
1.000000 0.734829 0.367987
0.757900 0.909545 0.391241
0.772549 0.908721 0.371557
0.832303 0.904417 0.261875
0.939696 0.895018 0.000000
0.986389 0.885161 0.000000
0.982544 0.885985 0.285801
0.981262 0.888701 0.431159
1.000000 0.856352 0.477241
0.812833 0.954131 0.500298
0.821622 0.953552 0.486946
0.859312 0.950958 0.423590
0.934844 0.945251 0.238743
1.000000 0.931304 0.000000
1.000000 0.930327 0.000000
1.000000 0.930694 0.340673
1.000000 0.931365 0.415290
0.406683 0.422553 0.433234
0.413642 0.429511 0.440650
0.436378 0.452461 0.465003
0.465370 0.481788 0.496101
0.540520 0.557092 0.574273
0.623774 0.639460 0.656947
0.685084 0.699397 0.715450
0.808103 0.738277 0.757382
0.426917 0.442969 0.454932
0.433417 0.449500 0.461921
0.454963 0.471260 0.484962
0.479774 0.496376 0.511406
0.552850 0.569390 0.586786
0.627710 0.643336 0.660792
0.687068 0.701350 0.717342
0.818021 0.735164 0.754604
0.466468 0.482856 0.497230
0.477607 0.494087 0.509026
0.496925 0.513573 0.529381
0.517662 0.534295 0.550835
0.583185 0.599451 0.617090
0.634058 0.649561 0.666896
0.738613 0.686000 0.706508
0.853269 0.721187 0.739773
0.506584 0.523247 0.539422
0.511681 0.528374 0.544762
0.533349 0.549950 0.566979
0.569970 0.586358 0.603967
0.625574 0.621820 0.640803
0.750790 0.633265 0.650019
0.844388 0.665339 0.675532
0.912322 0.708583 0.714199
0.592615 0.667170 0.668116
0.582238 0.677363 0.670344
0.544640 0.713039 0.657588
0.739559 0.720699 0.442664
0.767178 0.718257 0.622400
0.875792 0.669368 0.576501
0.936828 0.669917 0.601587
0.978698 0.699825 0.652949
0.504753 0.845060 0.636683
0.531029 0.846036 0.635798
0.637842 0.836698 0.627405
0.800168 0.826658 0.435645
0.883391 0.817411 0.479927
0.877317 0.829038 0.644892
0.954040 0.786343 0.608240
1.000000 0.736690 0.554101
0.684993 0.910491 0.683680
0.696925 0.909239 0.681239
0.732967 0.907073 0.640681
0.830076 0.901701 0.523705
0.977661 0.885435 0.192782
0.961425 0.886717 0.524102
0.953765 0.890410 0.642267
1.000000 0.856413 0.628534
0.755581 0.954192 0.717494
0.761349 0.953857 0.711360
0.787808 0.952392 0.683406
0.851133 0.949432 0.616785
0.964569 0.941466 0.415961
1.000000 0.931243 0.376837
1.000000 0.931914 0.556054
1.000000 0.933440 0.626856
0.580804 0.597101 0.614801
0.586419 0.602686 0.620356
0.602380 0.618402 0.636072
0.633783 0.649317 0.666651
0.638331 0.653773 0.671046
0.697841 0.711818 0.727382
0.750271 0.762509 0.775845
0.794064 0.804471 0.815671
0.584131 0.600397 0.618097
0.587610 0.603845 0.621546
0.602319 0.618372 0.636011
0.631739 0.647303 0.664668
0.637018 0.652491 0.669734
0.698238 0.712184 0.727749
0.748592 0.760830 0.774289
0.792599 0.803037 0.814328
0.617792 0.633570 0.651118
0.620539 0.636286 0.653773
0.633722 0.649226 0.666590
0.656703 0.671717 0.688594
0.660456 0.675410 0.692195
0.719203 0.732540 0.747280
0.756100 0.768093 0.781155
0.797482 0.807736 0.818784
0.626368 0.642023 0.659449
0.629023 0.644587 0.661982
0.656703 0.671778 0.688624
0.691127 0.705287 0.721096
0.700130 0.714015 0.729488
0.743160 0.755642 0.769314
0.769467 0.780911 0.793362
0.826261 0.809964 0.822629
0.674220 0.688869 0.705226
0.676631 0.691157 0.707454
0.686580 0.700893 0.716854
0.704433 0.718196 0.733547
0.729580 0.742580 0.756863
0.780667 0.747372 0.762173
0.844450 0.762509 0.774716
0.898009 0.788937 0.798642
0.752316 0.783261 0.791012
0.749416 0.788357 0.793637
0.732906 0.803738 0.796231
0.708186 0.828397 0.779202
0.862272 0.821927 0.621027
0.857450 0.824338 0.764675
0.933318 0.783627 0.730068
0.973449 0.785672 0.751003
0.709926 0.897185 0.813169
0.710201 0.898894 0.811398
0.707607 0.904356 0.799008
0.757321 0.906523 0.791806
0.853330 0.900114 0.719081
0.936889 0.890837 0.695613
0.928222 0.895659 0.784756
0.984619 0.861357 0.752895
0.715785 0.954101 0.807309
0.719814 0.954253 0.806577
0.741176 0.955077 0.805447
0.800443 0.950591 0.814298
0.859648 0.947356 0.766751
1.000000 0.936584 0.569909
0.988373 0.934630 0.718288
0.983368 0.936950 0.778012
0.714076 0.727535 0.742489
0.717311 0.730678 0.745510
0.725429 0.738552 0.753017
0.742519 0.755032 0.768734
0.766781 0.778347 0.790890
0.758907 0.770779 0.783719
0.797879 0.808164 0.819150
0.827970 0.836851 0.846342
0.713313 0.726833 0.741817
0.716823 0.730251 0.745083
0.724941 0.738064 0.752590
0.740780 0.753353 0.767147
0.764614 0.776272 0.788937
0.755581 0.767575 0.780667
0.794644 0.805020 0.816220
0.824125 0.833188 0.842893
0.730404 0.743343 0.757626
0.732204 0.745113 0.759274
0.739010 0.751675 0.765530
0.753780 0.765835 0.779049
0.775753 0.786954 0.799100
0.767788 0.779355 0.791836
0.806821 0.816709 0.827298
0.832303 0.841032 0.850278
0.742794 0.755306 0.769009
0.745663 0.758022 0.771603
0.756435 0.768429 0.781491
0.771725 0.783108 0.795407
0.793668 0.804105 0.815335
0.789487 0.800107 0.811551
0.825315 0.834348 0.843992
0.841672 0.849973 0.858732
0.749783 0.762020 0.775387
0.749874 0.762142 0.775509
0.753658 0.765713 0.778927
0.771359 0.782773 0.795102
0.801419 0.811521 0.822354
0.808927 0.818692 0.829129
0.831540 0.840299 0.849607
0.850156 0.858030 0.866361
0.786923 0.797696 0.809262
0.788174 0.798886 0.810391
0.792691 0.803159 0.814450
0.800900 0.811032 0.821897
0.811551 0.821225 0.831571
0.831907 0.840604 0.849912
0.853666 0.843626 0.853513
0.895445 0.855985 0.865049
0.847135 0.855161 0.863645
0.848539 0.856474 0.864897
0.852903 0.860624 0.868803
0.848173 0.872557 0.875761
0.831937 0.890654 0.873960
0.886046 0.894774 0.828794
0.911223 0.891844 0.859068
0.967193 0.860075 0.833036
0.835843 0.925689 0.898131
0.835630 0.926604 0.898039
0.835294 0.930694 0.897520
0.833280 0.937560 0.893400
0.831754 0.946899 0.879301
0.890745 0.945159 0.867552
0.966918 0.938140 0.826902
0.963134 0.941131 0.871489
0.812650 0.822263 0.832517
0.813931 0.823484 0.833707
0.816770 0.826200 0.836240
0.824582 0.833616 0.843290
0.836149 0.844663 0.853758
0.848600 0.856535 0.864958
0.842924 0.851133 0.859831
0.866087 0.873167 0.880674
0.812131 0.821775 0.832059
0.813504 0.823056 0.833310
0.816892 0.826291 0.836362
0.824338 0.833433 0.843107
0.835966 0.844480 0.853574
0.848661 0.856626 0.865019
0.842435 0.850675 0.859434
0.865751 0.872862 0.880369
0.817472 0.826871 0.836881
0.818448 0.827756 0.837736
0.821439 0.830686 0.840513
0.830198 0.839017 0.848386
0.841062 0.849363 0.858152
0.854093 0.861784 0.869902
0.847776 0.855741 0.864195
0.870573 0.877440 0.884672
0.825071 0.834104 0.843748
0.826200 0.835172 0.844785
0.829618 0.838437 0.847868
0.837430 0.845884 0.854887
0.849027 0.856962 0.865354
0.864744 0.871885 0.879454
0.858946 0.866361 0.874266
0.880552 0.886931 0.893645
0.818570 0.827909 0.837888
0.820615 0.829831 0.839719
0.827085 0.836057 0.845579
0.842924 0.851102 0.859831
0.855344 0.862974 0.871031
0.872526 0.879332 0.886473
0.872374 0.879179 0.886320
0.891417 0.897246 0.903380
0.837949 0.846403 0.855344
0.838041 0.846494 0.855467
0.839475 0.847807 0.856718
0.843320 0.851530 0.860197
0.853483 0.861204 0.869352
0.880888 0.887236 0.893919
0.889220 0.895171 0.901396
0.901976 0.907256 0.912810
0.866667 0.873716 0.881193
0.867094 0.874113 0.881559
0.868925 0.875914 0.883238
0.872984 0.879728 0.886839
0.878721 0.885191 0.891997
0.885466 0.891600 0.898039
0.901946 0.907225 0.912779
0.907225 0.912230 0.917479
0.898802 0.904265 0.909972
0.899260 0.904692 0.910369
0.901671 0.906981 0.912535
0.906859 0.911894 0.917174
0.914397 0.919036 0.923888
0.914061 0.930785 0.931395
0.915770 0.943236 0.925200
0.949706 0.940703 0.926055
