20 Preset/Dark Style/【3】LUT video cho PR-AE-FCPX/19Tones (6)/19T-ColourfulTones.Rooftop.cube
# Created by Adobe Lightroom plugin Export LUT (1.24.0)
# www.johnrellis.com/lightroom/exportlut.htm
# Preset: 19T-ColourfulTones.Rooftop
# Color profile: E:\lut插件\exportlut.1.24\exportlut.lrplugin\color profiles\Rec709gamma2.4.icc
LUT_3D_SIZE 32
DOMAIN_MIN 0.0 0.0 0.0
DOMAIN_MAX 1.0 1.0 1.0
0.114351 0.160433 0.192935
0.114717 0.160616 0.192905
0.115663 0.160891 0.193332
0.118654 0.161959 0.193912
0.124361 0.163516 0.195132
0.134157 0.165377 0.196689
0.149325 0.167697 0.198550
0.170108 0.170535 0.200595
0.196323 0.174197 0.203342
0.226993 0.178347 0.206699
0.261479 0.183413 0.210819
0.299168 0.189731 0.215915
0.340032 0.197299 0.222171
0.384253 0.206088 0.229404
0.430823 0.215976 0.237583
0.479438 0.227146 0.246891
0.529381 0.239872 0.257206
0.583490 0.255985 0.269932
0.641444 0.277745 0.287114
0.694789 0.302312 0.306279
0.742031 0.329168 0.327428
0.782498 0.357580 0.350774
0.816648 0.386175 0.375555
0.846250 0.415656 0.402411
0.871702 0.445502 0.431464
0.893706 0.475624 0.462440
0.912718 0.506249 0.495033
0.928832 0.537713 0.529229
0.942077 0.570153 0.564477
0.952941 0.602838 0.599878
0.961761 0.635248 0.634760
0.968841 0.666957 0.668605
0.113985 0.160830 0.192905
0.114504 0.160800 0.192905
0.116884 0.160830 0.193027
0.119936 0.161685 0.193790
0.125551 0.163241 0.195010
0.135744 0.165072 0.196445
0.150607 0.167605 0.198123
0.171267 0.170230 0.200198
0.197238 0.173587 0.202823
0.227604 0.177768 0.205936
0.261265 0.182681 0.209995
0.298283 0.188907 0.215030
0.338750 0.196231 0.221134
0.382849 0.204776 0.228092
0.429053 0.214542 0.236179
0.477333 0.225528 0.245212
0.527062 0.238224 0.255467
0.580560 0.254032 0.267948
0.637537 0.275059 0.284306
0.689967 0.298619 0.302739
0.736446 0.324651 0.323156
0.776791 0.352148 0.345769
0.811215 0.380163 0.369574
0.841123 0.409277 0.395789
0.867002 0.438880 0.424475
0.889677 0.468879 0.454994
0.909331 0.499550 0.487648
0.926116 0.531212 0.521935
0.939971 0.563897 0.557549
0.951293 0.597131 0.593622
0.960479 0.630060 0.629175
0.967895 0.662257 0.663600
0.115389 0.162417 0.192874
0.116976 0.162325 0.192874
0.118318 0.162417 0.192844
0.123842 0.162356 0.192935
0.131716 0.163149 0.193790
0.142733 0.165072 0.195193
0.158907 0.167178 0.196750
0.179934 0.169802 0.198703
0.205692 0.172976 0.201083
0.235538 0.176730 0.203983
0.268650 0.181369 0.207706
0.304997 0.187228 0.212589
0.344915 0.194095 0.218357
0.388128 0.202365 0.225101
0.433936 0.211795 0.232944
0.481697 0.222690 0.241825
0.530938 0.235264 0.251621
0.584222 0.251438 0.264134
0.639307 0.271794 0.279789
0.690791 0.294987 0.297551
0.736934 0.320836 0.317571
0.777005 0.348180 0.339635
0.811002 0.376104 0.363653
0.840879 0.404974 0.389685
0.866880 0.434485 0.418006
0.889311 0.464515 0.448707
0.909117 0.495247 0.481422
0.926055 0.526940 0.516014
0.940185 0.559747 0.552026
0.951598 0.593256 0.588678
0.960876 0.626398 0.624628
0.968231 0.658930 0.659541
0.119356 0.166140 0.192874
0.120699 0.166232 0.192844
0.124178 0.165988 0.192691
0.125490 0.166629 0.192447
0.136934 0.167117 0.192569
0.157626 0.167483 0.192691
0.175326 0.168948 0.194278
0.197482 0.170932 0.195834
0.223087 0.173342 0.197879
0.252140 0.176394 0.200443
0.284276 0.180087 0.203922
0.320134 0.185092 0.208042
0.359411 0.191226 0.213352
0.401709 0.198764 0.219638
0.446021 0.207919 0.227207
0.492714 0.218326 0.235355
0.540368 0.230777 0.244907
0.592798 0.246769 0.256779
0.644739 0.266270 0.271244
0.693538 0.288640 0.287846
0.737667 0.313664 0.306859
0.776699 0.340337 0.328130
0.810788 0.368231 0.351659
0.840970 0.397467 0.377966
0.867582 0.427680 0.407080
0.890898 0.458656 0.438697
0.911284 0.490303 0.472694
0.928405 0.522850 0.508751
0.942626 0.556207 0.545830
0.953948 0.590082 0.583276
0.962890 0.623377 0.619837
0.969970 0.655634 0.654932
0.126925 0.174807 0.192233
0.128603 0.174838 0.192203
0.137057 0.174533 0.191989
0.139162 0.174868 0.191806
0.141573 0.175692 0.191501
0.160616 0.177737 0.191440
0.191745 0.178195 0.191135
0.222507 0.177646 0.191714
0.247471 0.178164 0.193362
0.275761 0.179629 0.195285
0.307073 0.181582 0.197971
0.341985 0.184878 0.201419
0.380377 0.189364 0.205875
0.421637 0.195743 0.211521
0.465309 0.203769 0.218173
0.510826 0.213901 0.226047
0.557549 0.226017 0.234928
0.609308 0.242313 0.246555
0.658412 0.261540 0.260166
0.704860 0.283879 0.275944
0.747189 0.308629 0.294255
0.784604 0.335210 0.315129
0.817563 0.363012 0.338720
0.847166 0.392370 0.365332
0.873350 0.422766 0.394873
0.896330 0.453986 0.427283
0.916197 0.485878 0.462287
0.932921 0.518425 0.499092
0.946807 0.551598 0.536797
0.957671 0.585595 0.575189
0.966247 0.619043 0.612634
0.972992 0.651484 0.648402
0.141238 0.191348 0.190555
0.143465 0.191318 0.190524
0.153262 0.191012 0.190127
0.163821 0.190524 0.189883
0.166537 0.191775 0.189670
0.170138 0.193332 0.189242
0.196689 0.196750 0.189181
0.234226 0.196506 0.188327
0.275242 0.193973 0.187778
0.309178 0.191470 0.188571
0.339971 0.190768 0.190555
0.374334 0.191440 0.192996
0.411963 0.193393 0.196292
0.452155 0.197360 0.200778
0.494972 0.203464 0.206516
0.538476 0.212192 0.213687
0.586114 0.224308 0.222385
0.634821 0.240360 0.233127
0.681514 0.259617 0.245823
0.724910 0.281865 0.261021
0.764462 0.306554 0.278843
0.799680 0.332921 0.299840
0.862211 0.389502 0.346960
0.886778 0.419348 0.376745
0.907988 0.449348 0.408972
0.926116 0.479683 0.443641
0.941497 0.510307 0.479744
0.954009 0.541650 0.516991
0.964141 0.573541 0.554650
0.971923 0.605707 0.592187
0.977996 0.637079 0.628077
0.982635 0.667384 0.662226
0.167544 0.221256 0.186130
0.170047 0.221073 0.186130
0.182223 0.220676 0.185672
0.203891 0.218906 0.184909
0.206760 0.219821 0.185000
0.210849 0.221469 0.184939
0.215915 0.223667 0.184573
0.247807 0.227756 0.184390
0.291814 0.225284 0.183230
0.338445 0.221317 0.181979
0.387579 0.215854 0.180423
0.426032 0.211856 0.181491
0.462898 0.210300 0.183719
0.501762 0.210666 0.186984
0.542107 0.213626 0.191684
0.585229 0.220523 0.197879
0.633906 0.232456 0.206119
0.679835 0.248508 0.216464
0.723201 0.268162 0.229129
0.763516 0.291295 0.244633
0.800687 0.317296 0.264225
0.834592 0.345556 0.287816
0.864836 0.375677 0.315343
0.891508 0.406806 0.346715
0.914122 0.438270 0.381445
0.932921 0.469398 0.417975
0.948211 0.500237 0.456214
0.960632 0.531304 0.495186
0.970489 0.563104 0.534630
0.977783 0.595422 0.574212
0.983459 0.627375 0.612299
0.987701 0.658320 0.648310
0.199039 0.255497 0.179416
0.201968 0.255283 0.179385
0.214481 0.254917 0.178836
0.237034 0.253574 0.177890
0.250797 0.251896 0.177676
0.254185 0.253513 0.178012
0.258915 0.255528 0.177920
0.264866 0.258183 0.177615
0.299718 0.263523 0.177035
0.348150 0.259434 0.175631
0.398688 0.254337 0.173983
0.450629 0.247898 0.171695
0.503746 0.239780 0.169162
0.542260 0.237369 0.169589
0.581781 0.236362 0.172335
0.625788 0.239963 0.176333
0.668116 0.247471 0.182956
0.708888 0.259709 0.191867
0.747585 0.276066 0.203250
0.783719 0.295872 0.217960
0.817563 0.318791 0.236118
0.849027 0.344488 0.258427
0.877409 0.372351 0.285405
0.902739 0.401495 0.316503
0.924559 0.431525 0.351537
0.942596 0.461585 0.389319
0.957458 0.491676 0.428931
0.969360 0.522271 0.470222
0.978851 0.553643 0.512016
0.985840 0.585870 0.553796
0.990875 0.618280 0.594659
0.994507 0.649958 0.633356
0.238956 0.296727 0.168307
0.241978 0.296727 0.168215
0.253635 0.296025 0.167483
0.276097 0.294591 0.166384
0.301579 0.290990 0.165469
0.304784 0.292302 0.166201
0.309026 0.294224 0.166506
0.314702 0.296727 0.166384
0.321630 0.300145 0.165896
0.358495 0.307195 0.164981
0.410956 0.301854 0.162966
0.464149 0.295842 0.160525
0.517815 0.288701 0.157534
0.574517 0.281834 0.153109
0.627436 0.275731 0.149203
0.667506 0.276280 0.149020
0.705837 0.278843 0.152163
0.741543 0.285191 0.159854
0.775631 0.295933 0.170871
0.807919 0.310918 0.185153
0.838499 0.329625 0.202518
0.867063 0.351141 0.224125
0.893309 0.375433 0.250736
0.916930 0.401617 0.282170
0.937438 0.429206 0.317693
0.954589 0.457191 0.356695
0.968750 0.485786 0.398138
0.980133 0.515221 0.441505
0.989105 0.545708 0.486030
0.995666 0.577203 0.530602
1.000000 0.609674 0.574517
1.000000 0.641810 0.616144
0.284794 0.345342 0.149813
0.287907 0.345068 0.149783
0.298863 0.344182 0.149020
0.320623 0.342840 0.147555
0.352636 0.340124 0.145266
0.360876 0.337652 0.146426
0.364630 0.339178 0.147219
0.369879 0.341588 0.147524
0.376196 0.344701 0.147402
0.383886 0.348608 0.146365
0.421118 0.357549 0.145022
0.478492 0.352880 0.141299
0.535576 0.347753 0.136568
0.591424 0.341039 0.131380
0.645686 0.334081 0.125246
0.697139 0.326329 0.118013
0.739315 0.322515 0.114443
0.773312 0.324712 0.116030
0.805081 0.329625 0.123537
0.834043 0.337957 0.139651
0.861143 0.350500 0.159060
0.886229 0.366125 0.182071
0.909514 0.384802 0.208804
0.930694 0.405951 0.240208
0.949462 0.429023 0.276097
0.965606 0.453590 0.316106
0.979370 0.479744 0.358831
0.990631 0.507347 0.404608
0.999512 0.536675 0.452186
1.000000 0.567437 0.500420
1.000000 0.599664 0.548425
1.000000 0.632532 0.594476
0.334874 0.397803 0.118807
0.337652 0.397650 0.118410
0.347875 0.397131 0.117311
0.368475 0.395789 0.115206
0.399634 0.393561 0.111116
0.421942 0.388861 0.111482
0.425574 0.390448 0.112306
0.430549 0.392859 0.112642
0.437232 0.396368 0.112093
0.446754 0.402045 0.109712
0.457343 0.408301 0.105715
0.495460 0.421149 0.101991
0.552789 0.414099 0.096193
0.607568 0.406775 0.088228
0.660151 0.399237 0.070649
0.709651 0.391485 0.045808
0.755459 0.382757 0.022156
0.798032 0.373602 0.000000
0.829221 0.371984 0.005097
0.856809 0.374945 0.027985
0.881987 0.380591 0.084291
0.904814 0.389563 0.120790
0.926329 0.402289 0.154330
0.946014 0.418006 0.189700
0.963745 0.436439 0.228275
0.979156 0.457069 0.270451
0.992248 0.479835 0.315831
1.000000 0.504723 0.364324
1.000000 0.531731 0.415137
1.000000 0.560723 0.467170
1.000000 0.591669 0.518975
1.000000 0.624140 0.569574
0.390692 0.457099 0.000000
0.392950 0.457069 0.000000
0.403601 0.456580 0.000000
0.422919 0.455879 0.000000
0.452918 0.454414 0.000000
0.489448 0.450782 0.000000
0.495552 0.450874 0.000000
0.501274 0.454200 0.000000
0.508110 0.458137 0.000000
0.516106 0.462776 0.000000
0.525170 0.468055 0.000000
0.535210 0.473915 0.000000
0.601587 0.514672 0.000000
0.657252 0.505608 0.000000
0.707118 0.494759 0.000000
0.752621 0.483223 0.000000
0.794156 0.471077 0.000000
0.832456 0.458747 0.000000
0.867796 0.446723 0.000000
0.899931 0.435431 0.000000
0.921813 0.435309 0.000000
0.942168 0.437934 0.000000
0.960235 0.443244 0.000000
0.976501 0.452033 0.116915
0.990997 0.464088 0.173281
1.000000 0.478920 0.225559
1.000000 0.496651 0.277256
1.000000 0.516899 0.330266
1.000000 0.539940 0.384924
1.000000 0.565576 0.440772
1.000000 0.593713 0.496071
1.000000 0.624231 0.550042
0.470863 0.538415 0.000000
0.472877 0.538170 0.000000
0.481544 0.537285 0.000000
0.499550 0.535485 0.000000
0.525902 0.532982 0.000000
0.560754 0.529717 0.000000
0.578882 0.524163 0.000000
0.583001 0.526207 0.000000
0.588678 0.529259 0.000000
0.596063 0.533684 0.000000
0.605493 0.539605 0.000000
0.616388 0.546502 0.000000
0.628229 0.554162 0.000000
0.658869 0.568841 0.000000
0.710292 0.558892 0.000000
0.755184 0.546227 0.000000
0.795712 0.532830 0.000000
0.832364 0.519219 0.000000
0.866331 0.505669 0.000000
0.897642 0.492378 0.000000
0.926757 0.479469 0.000000
0.951232 0.470863 0.000000
0.969512 0.471290 0.000000
0.986481 0.474342 0.000000
1.000000 0.480385 0.000000
1.000000 0.489876 0.142061
1.000000 0.502770 0.208011
1.000000 0.518822 0.268681
1.000000 0.538231 0.329076
1.000000 0.560937 0.390143
1.000000 0.586633 0.451514
1.000000 0.615229 0.511559
0.533227 0.598230 0.000000
0.534478 0.597864 0.000000
0.542290 0.596338 0.000000
0.557214 0.594354 0.000000
0.579522 0.591608 0.000000
0.610285 0.587854 0.000000
0.641474 0.579492 0.000000
0.644434 0.580652 0.000000
0.648524 0.582666 0.000000
0.654414 0.585992 0.000000
0.661952 0.590539 0.000000
0.670832 0.596094 0.000000
0.680476 0.602106 0.000000
0.690272 0.608148 0.000000
0.713313 0.620783 0.000000
0.758206 0.607813 0.000000
0.797269 0.592859 0.000000
0.832700 0.577752 0.000000
0.865568 0.562829 0.000000
0.895781 0.548302 0.000000
0.924010 0.534295 0.000000
0.950652 0.521019 0.000000
0.975677 0.508293 0.000000
0.994781 0.503319 0.000000
1.000000 0.504417 0.000000
1.000000 0.508080 0.000000
1.000000 0.515557 0.097414
1.000000 0.526574 0.190585
1.000000 0.541527 0.262211
1.000000 0.560204 0.330694
1.000000 0.582574 0.398566
1.000000 0.608515 0.465827
0.587243 0.649653 0.000000
0.588922 0.649378 0.000000
0.595300 0.648157 0.000000
0.607782 0.646113 0.000000
0.627497 0.643122 0.000000
0.653803 0.639460 0.000000
0.686397 0.635554 0.000000
0.699367 0.629541 0.000000
0.702632 0.631037 0.000000
0.707240 0.633417 0.000000
0.713130 0.636805 0.000000
0.720272 0.641138 0.000000
0.727901 0.645716 0.000000
0.735836 0.650385 0.000000
0.743404 0.654658 0.000000
0.760006 0.665553 0.000000
0.799313 0.650752 0.000000
0.833616 0.634394 0.000000
0.865171 0.618250 0.000000
0.894377 0.602411 0.000000
0.921813 0.587366 0.000000
0.947723 0.573114 0.000000
0.972137 0.559472 0.000000
0.995178 0.546227 0.000000
1.000000 0.533440 0.000000
1.000000 0.532311 0.000000
1.000000 0.534203 0.000000
1.000000 0.540093 0.000000
1.000000 0.550164 0.172274
1.000000 0.564477 0.258488
1.000000 0.583154 0.336889
1.000000 0.606043 0.413001
0.633600 0.692500 0.000000
0.635004 0.692500 0.000000
0.640803 0.691707 0.000000
0.652491 0.690364 0.000000
0.669947 0.688228 0.000000
0.693904 0.685603 0.000000
0.723415 0.682673 0.000000
0.750668 0.675196 0.000000
0.753567 0.676509 0.000000
0.757259 0.678279 0.000000
0.761410 0.680415 0.000000
0.766140 0.682795 0.000000
0.771298 0.685481 0.000000
0.776425 0.688014 0.000000
0.781643 0.690486 0.000000
0.786831 0.692744 0.000000
0.798611 0.702480 0.000000
0.833036 0.686946 0.000000
0.863645 0.669978 0.000000
0.892149 0.653407 0.000000
0.919158 0.637751 0.000000
0.944671 0.622766 0.000000
0.968719 0.608453 0.000000
0.991394 0.594629 0.000000
1.000000 0.581262 0.000000
1.000000 0.568292 0.000000
1.000000 0.558892 0.000000
1.000000 0.559411 0.000000
1.000000 0.564080 0.000000
1.000000 0.573205 0.153750
1.000000 0.586755 0.257603
1.000000 0.605066 0.345251
0.673152 0.729213 0.000000
0.674342 0.729061 0.000000
0.679561 0.728481 0.000000
0.689479 0.727443 0.000000
0.705104 0.725734 0.000000
0.726436 0.723476 0.000000
0.752834 0.720882 0.000000
0.783841 0.717891 0.000000
0.793942 0.712581 0.000000
0.796689 0.713741 0.000000
0.799985 0.715175 0.000000
0.803647 0.716945 0.000000
0.807645 0.718868 0.000000
0.811734 0.720699 0.000000
0.815915 0.722499 0.000000
0.820066 0.724178 0.000000
0.824247 0.725734 0.000000
0.833921 0.733883 0.000000
0.863035 0.719570 0.000000
0.890562 0.702296 0.000000
0.916838 0.685969 0.000000
0.941680 0.670344 0.000000
0.965179 0.655360 0.000000
0.987427 0.640833 0.000000
1.000000 0.626886 0.000000
1.000000 0.613428 0.000000
1.000000 0.600366 0.000000
1.000000 0.587671 0.000000
1.000000 0.582879 0.000000
1.000000 0.586633 0.000000
1.000000 0.595026 0.135012
1.000000 0.608362 0.259495
0.709590 0.762264 0.000000
0.711025 0.762356 0.000000
0.728878 0.773831 0.000000
0.737758 0.772854 0.000000
0.751522 0.771359 0.000000
0.769955 0.769314 0.000000
0.793423 0.766659 0.000000
0.820798 0.763699 0.000000
0.843168 0.756252 0.000000
0.845060 0.756893 0.000000
0.847349 0.757656 0.000000
0.849882 0.758572 0.000000
0.852384 0.759365 0.000000
0.854856 0.760037 0.000000
0.857298 0.760586 0.000000
0.859800 0.761013 0.000000
0.862181 0.761318 0.000000
0.864836 0.761715 0.000000
0.871550 0.767575 0.000000
0.895048 0.753811 0.000000
0.919432 0.736141 0.000000
0.942870 0.719356 0.000000
0.965057 0.703273 0.000000
0.986206 0.687678 0.000000
1.000000 0.672511 0.000000
1.000000 0.657954 0.000000
1.000000 0.643854 0.000000
1.000000 0.630243 0.000000
1.000000 0.617273 0.000000
1.000000 0.604730 0.000000
1.000000 0.607599 0.000000
1.000000 0.615534 0.115023
0.744564 0.793668 0.000000
0.746639 0.794553 0.000000
0.751827 0.795132 0.000000
0.760342 0.795254 0.000000
0.773373 0.794644 0.000000
0.790066 0.793149 0.000000
0.810941 0.790921 0.000000
0.835386 0.788174 0.000000
0.863035 0.785183 0.000000
0.870329 0.779599 0.000000
0.872129 0.780087 0.000000
0.874174 0.780728 0.000000
0.876158 0.781247 0.000000
0.878264 0.781796 0.000000
0.880430 0.782223 0.000000
0.882597 0.782620 0.000000
0.884855 0.783017 0.000000
0.887297 0.783474 0.000000
0.890105 0.784115 0.000000
0.895964 0.789456 0.000000
0.915953 0.777493 0.000000
0.938811 0.760647 0.000000
0.960571 0.744289 0.000000
0.981323 0.728420 0.000000
1.000000 0.713069 0.000000
1.000000 0.698085 0.000000
1.000000 0.683650 0.000000
1.000000 0.669642 0.000000
1.000000 0.656306 0.000000
1.000000 0.643427 0.000000
1.000000 0.629572 0.000000
1.000000 0.626429 0.000000
0.769070 0.816068 0.000000
0.771145 0.816831 0.000000
0.775570 0.817411 0.000000
0.783291 0.817594 0.000000
0.794705 0.817075 0.000000
0.809567 0.815793 0.000000
0.828305 0.813840 0.000000
0.850309 0.811429 0.000000
0.875273 0.808652 0.000000
0.894713 0.801389 0.000000
0.896117 0.801694 0.000000
0.897673 0.802060 0.000000
0.899382 0.802457 0.000000
0.901122 0.802823 0.000000
0.902983 0.803220 0.000000
0.904845 0.803494 0.000000
0.906767 0.803738 0.000000
0.908812 0.804105 0.000000
0.911162 0.804562 0.000000
0.913787 0.805203 0.000000
0.918303 0.809628 0.000000
0.934874 0.799069 0.000000
0.956115 0.782803 0.000000
0.976471 0.766812 0.000000
0.995789 0.751308 0.000000
1.000000 0.736110 0.000000
1.000000 0.721431 0.000000
1.000000 0.707210 0.000000
1.000000 0.693599 0.000000
1.000000 0.680415 0.000000
1.000000 0.667445 0.000000
1.000000 0.653956 0.000000
0.791501 0.836606 0.000000
0.792844 0.837247 0.000000
0.796902 0.837613 0.000000
0.803647 0.837675 0.000000
0.813474 0.837217 0.000000
0.826871 0.836027 0.000000
0.843442 0.834348 0.000000
0.863249 0.832181 0.000000
0.886198 0.829679 0.000000
0.911345 0.826841 0.000000
0.917845 0.821225 0.000000
0.919158 0.821439 0.000000
0.920531 0.821683 0.000000
0.921965 0.821927 0.000000
0.923552 0.822171 0.000000
0.925200 0.822477 0.000000
0.927062 0.822904 0.000000
0.929168 0.823423 0.000000
0.931518 0.824125 0.000000
0.934234 0.825010 0.000000
0.937194 0.826078 0.000000
0.940978 0.830106 0.000000
0.954467 0.821134 0.000000
0.974517 0.805509 0.000000
0.993622 0.790249 0.000000
1.000000 0.775174 0.000000
1.000000 0.760464 0.000000
1.000000 0.746181 0.000000
1.000000 0.732418 0.000000
1.000000 0.719051 0.000000
1.000000 0.705959 0.000000
1.000000 0.692622 0.000000
0.815274 0.858824 0.000000
0.816190 0.859007 0.000000
0.819028 0.858915 0.000000
0.824552 0.858518 0.000000
0.833158 0.857664 0.000000
0.844694 0.856382 0.000000
0.859373 0.854734 0.000000
0.877195 0.852750 0.000000
0.897795 0.850492 0.000000
0.921141 0.847898 0.000000
0.939757 0.840818 0.000000
0.940795 0.840909 0.000000
0.941955 0.841062 0.000000
0.943114 0.841184 0.000000
0.944335 0.841276 0.000000
0.945647 0.841398 0.000000
0.947082 0.841550 0.000000
0.948638 0.841794 0.000000
0.950378 0.842100 0.000000
0.952361 0.842527 0.000000
0.954528 0.843046 0.000000
0.956970 0.843717 0.000000
0.959228 0.846708 0.000000
0.969543 0.838651 0.000000
0.988128 0.823270 0.000000
1.000000 0.808347 0.000000
1.000000 0.793790 0.000000
1.000000 0.779599 0.000000
1.000000 0.765835 0.000000
1.000000 0.752438 0.000000
1.000000 0.739162 0.000000
1.000000 0.725826 0.000000
0.831357 0.874784 0.000000
0.831998 0.874937 0.000000
0.834653 0.874846 0.000000
0.839719 0.874449 0.000000
0.847288 0.873747 0.000000
0.857664 0.872648 0.000000
0.871122 0.871183 0.000000
0.887297 0.869413 0.000000
0.906065 0.867399 0.000000
0.927581 0.865049 0.000000
0.950896 0.862455 0.000000
0.958343 0.856687 0.000000
0.959289 0.856779 0.000000
0.960357 0.856870 0.000000
0.961425 0.856962 0.000000
0.962646 0.857084 0.000000
0.963897 0.857267 0.000000
0.965301 0.857481 0.000000
0.966827 0.857725 0.000000
0.968536 0.858091 0.000000
0.970397 0.858549 0.000000
0.972503 0.859068 0.000000
0.974762 0.859617 0.000000
0.976135 0.862089 0.000000
0.982208 0.853727 0.000000
0.999756 0.838743 0.000000
1.000000 0.824399 0.000000
1.000000 0.810361 0.000000
1.000000 0.796750 0.000000
1.000000 0.783291 0.000000
1.000000 0.770077 0.000000
1.000000 0.756893 0.000000
0.847379 0.891081 0.000000
0.848203 0.891325 0.000000
0.850492 0.891203 0.000000
0.854856 0.890745 0.000000
0.861418 0.889921 0.000000
0.870573 0.888701 0.000000
0.882292 0.887144 0.000000
0.896696 0.885283 0.000000
0.913756 0.883177 0.000000
0.933165 0.880827 0.000000
0.954498 0.878202 0.000000
0.973571 0.871550 0.000000
0.974578 0.870573 0.000000
0.975250 0.870420 0.000000
0.975891 0.870237 0.000000
0.976654 0.870054 0.000000
0.977539 0.869993 0.000000
0.978637 0.870024 0.000000
0.979919 0.870207 0.000000
0.981476 0.870542 0.000000
0.983185 0.870970 0.000000
0.985046 0.871427 0.000000
0.986969 0.871855 0.000000
0.988922 0.872221 0.000000
0.989410 0.874052 0.000000
0.994476 0.868345 0.000000
1.000000 0.853574 0.000000
1.000000 0.839597 0.000000
1.000000 0.825864 0.000000
1.000000 0.812436 0.000000
1.000000 0.799313 0.000000
1.000000 0.786435 0.000000
0.857969 0.903288 0.000000
0.858701 0.903471 0.000000
0.860868 0.903441 0.000000
0.864805 0.903075 0.000000
0.870970 0.902434 0.000000
0.879423 0.901518 0.000000
0.890349 0.900359 0.000000
0.904082 0.898863 0.000000
0.919951 0.897185 0.000000
0.938048 0.895232 0.000000
0.958160 0.893004 0.000000
0.980041 0.890501 0.000000
0.989776 0.884276 0.000000
0.990387 0.884123 0.000000
0.990967 0.883940 0.000000
0.991608 0.883757 0.000000
0.992309 0.883604 0.000000
0.993164 0.883543 0.000000
0.994232 0.883635 0.000000
0.995514 0.883848 0.000000
0.996918 0.884184 0.000000
0.998505 0.884550 0.000000
1.000000 0.884916 0.000000
1.000000 0.885252 0.000000
1.000000 0.885588 0.000000
1.000000 0.887114 0.000000
1.000000 0.882719 0.000000
1.000000 0.868284 0.000000
1.000000 0.854765 0.000000
1.000000 0.841520 0.000000
1.000000 0.828611 0.000000
1.000000 0.815946 0.000000
0.868589 0.915862 0.000000
0.869169 0.915953 0.000000
0.870970 0.915801 0.000000
0.874540 0.915496 0.000000
0.880156 0.914885 0.000000
0.887907 0.914031 0.000000
0.897948 0.912932 0.000000
0.910338 0.911589 0.000000
0.924956 0.910033 0.000000
0.941741 0.908232 0.000000
0.960571 0.906157 0.000000
0.981079 0.903868 0.000000
1.000000 0.899840 0.000000
1.000000 0.896147 0.000000
1.000000 0.895964 0.000000
1.000000 0.895750 0.000000
1.000000 0.895598 0.000000
1.000000 0.895506 0.000000
1.000000 0.895537 0.000000
1.000000 0.895689 0.000000
1.000000 0.895933 0.000000
1.000000 0.896208 0.000000
1.000000 0.896483 0.000000
1.000000 0.896696 0.000000
1.000000 0.896880 0.000000
1.000000 0.897002 0.000000
1.000000 0.898161 0.000000
1.000000 0.894926 0.000000
1.000000 0.880797 0.000000
1.000000 0.867887 0.000000
1.000000 0.855314 0.000000
1.000000 0.843046 0.000000
0.877043 0.926970 0.000000
0.877531 0.927031 0.000000
0.879149 0.926940 0.000000
0.882536 0.926665 0.000000
0.887724 0.926207 0.000000
0.894957 0.925628 0.000000
0.904570 0.924895 0.000000
0.916381 0.923980 0.000000
0.930358 0.922911 0.000000
0.946410 0.921660 0.000000
0.964385 0.920195 0.000000
0.984039 0.918456 0.000000
1.000000 0.916442 0.000000
1.000000 0.910094 0.000000
1.000000 0.910124 0.000000
1.000000 0.910033 0.000000
1.000000 0.909941 0.000000
1.000000 0.909850 0.000000
1.000000 0.909880 0.000000
1.000000 0.909911 0.000000
1.000000 0.910063 0.000000
1.000000 0.910185 0.000000
1.000000 0.910307 0.000000
1.000000 0.910430 0.000000
1.000000 0.910491 0.000000
1.000000 0.910521 0.000000
1.000000 0.910552 0.000000
1.000000 0.911345 0.000000
1.000000 0.909209 0.162814
1.000000 0.895415 0.063478
1.000000 0.883055 0.000000
1.000000 0.871092 0.000000
0.887114 0.939788 0.000000
0.887449 0.939757 0.000000
0.888975 0.939605 0.000000
0.891814 0.939300 0.000000
0.896544 0.938811 0.000000
0.903105 0.938170 0.000000
0.911681 0.937346 0.000000
0.922362 0.936339 0.000000
0.935058 0.935149 0.000000
0.949737 0.933745 0.000000
0.966247 0.932128 0.000000
0.984405 0.930327 0.000000
1.000000 0.928222 0.000000
1.000000 0.925902 0.000000
