20 Preset/Dark Style/【3】LUT video cho PR-AE-FCPX/19Tones (6)/19tones.pack-02.06.Vinyl.cube
# Created by Adobe Lightroom plugin Export LUT (1.24.0)
# www.johnrellis.com/lightroom/exportlut.htm
# Preset: 19tones.pack-02.06.Vinyl
# Color profile: E:\lut插件\exportlut.1.24\exportlut.lrplugin\color profiles\Rec709gamma2.4.icc
LUT_3D_SIZE 8
DOMAIN_MIN 0.000000 0.000000 0.000000
DOMAIN_MAX 0.903226 0.903226 0.903226
0.082429 0.176150 0.201572
0.017975 0.173190 0.198978
0.000000 0.165438 0.191714
0.156435 0.158358 0.183688
0.298314 0.149081 0.178927
0.466102 0.130495 0.182925
0.678767 0.081849 0.193759
0.917082 0.147951 0.215000
0.087495 0.160678 0.193576
0.031464 0.161440 0.194369
0.000855 0.159854 0.187778
0.141756 0.161074 0.182010
0.279484 0.160830 0.179324
0.445350 0.153750 0.184360
0.660273 0.133669 0.195682
0.905882 0.186435 0.216617
0.000000 0.174014 0.184695
0.000000 0.172793 0.180697
0.082155 0.174105 0.180362
0.138857 0.176059 0.182437
0.227817 0.187228 0.186587
0.378210 0.201968 0.192813
0.586053 0.217044 0.204166
0.857053 0.275761 0.224796
0.000000 0.277287 0.213474
0.000000 0.275364 0.202487
0.010071 0.265202 0.197574
0.215946 0.272435 0.197910
0.299809 0.261753 0.207492
0.323003 0.245426 0.216495
0.492134 0.276005 0.228824
0.763027 0.350378 0.244938
0.000000 0.440986 0.280766
0.000000 0.438697 0.267552
0.000000 0.427680 0.232792
0.240635 0.416541 0.243534
0.415320 0.428870 0.243076
0.532799 0.417762 0.253086
0.556359 0.379278 0.265690
0.656397 0.398840 0.286809
0.000000 0.671962 0.395026
0.000000 0.670100 0.379034
0.000000 0.661738 0.306676
0.178225 0.635645 0.297704
0.480598 0.637232 0.306310
0.660212 0.655818 0.308782
0.796841 0.668269 0.331762
0.843137 0.635309 0.361456
0.000000 0.867796 0.569696
0.000000 0.867094 0.558068
0.000000 0.863798 0.505486
0.000000 0.852903 0.441199
0.545983 0.831388 0.473762
0.700771 0.836179 0.491859
0.830228 0.842832 0.517723
0.927489 0.850431 0.590692
0.435889 0.949096 0.769711
0.443977 0.948791 0.766201
0.476692 0.947570 0.751644
0.533562 0.945159 0.724697
0.677668 0.934905 0.739773
0.779751 0.928710 0.761318
0.850187 0.929961 0.778500
0.915404 0.932189 0.798032
0.060365 0.169009 0.194797
0.055818 0.167910 0.193759
0.028748 0.160861 0.186679
0.171633 0.154665 0.181460
0.300450 0.152071 0.180972
0.456397 0.144289 0.185489
0.663416 0.120821 0.194858
0.910155 0.169039 0.215640
0.063447 0.164462 0.186465
0.029877 0.159182 0.185458
0.046326 0.157412 0.183108
0.163577 0.159182 0.181247
0.290532 0.162081 0.182467
0.445289 0.160403 0.188113
0.646540 0.152712 0.196719
0.899168 0.200717 0.217411
0.000000 0.178714 0.193729
0.000000 0.178195 0.186679
0.088746 0.177768 0.183688
0.144320 0.179171 0.188205
0.248814 0.192569 0.192966
0.398688 0.205997 0.200351
0.597498 0.220737 0.210117
0.852232 0.280278 0.225406
0.000000 0.283238 0.234409
0.000000 0.281163 0.222354
0.004791 0.270359 0.207370
0.221836 0.276432 0.208560
0.302068 0.264408 0.216831
0.324315 0.248020 0.223392
0.509606 0.282048 0.235721
0.776730 0.355871 0.252018
0.000000 0.446509 0.303319
0.000000 0.444190 0.289708
0.000000 0.434150 0.242710
0.246372 0.420111 0.254643
0.420752 0.432532 0.254734
0.534356 0.419409 0.263493
0.556512 0.380224 0.272862
0.669490 0.405432 0.292576
0.000000 0.676570 0.420752
0.000000 0.674586 0.404761
0.000000 0.666468 0.334997
0.154513 0.641260 0.308904
0.483436 0.640162 0.319432
0.662806 0.658564 0.322637
0.796780 0.668757 0.344915
0.842313 0.634882 0.370336
0.000000 0.868650 0.589410
0.000000 0.867948 0.578271
0.000000 0.864622 0.527825
0.000000 0.854978 0.453620
0.548180 0.832151 0.486336
0.701808 0.836912 0.504356
0.830411 0.843565 0.530327
0.926390 0.850614 0.600916
0.449805 0.948882 0.778073
0.457649 0.948608 0.774685
0.488441 0.947387 0.760494
0.542718 0.945006 0.734035
0.678035 0.935302 0.744594
0.781003 0.928740 0.766049
0.850797 0.930053 0.782834
0.915465 0.932341 0.801724
0.024323 0.157259 0.183352
0.023682 0.156710 0.182773
0.023682 0.156710 0.182773
0.144717 0.163363 0.216648
0.390356 0.111116 0.214450
0.557519 0.074159 0.217288
0.742489 0.015442 0.228763
0.937102 0.169223 0.242527
0.022705 0.156558 0.182620
0.026307 0.157229 0.183352
0.034394 0.160739 0.186831
0.173037 0.166751 0.222599
0.391119 0.129824 0.209934
0.543816 0.129397 0.221378
0.730556 0.120882 0.231388
0.929778 0.201022 0.245274
0.000000 0.164584 0.202640
0.000000 0.167971 0.204685
0.101747 0.188785 0.212497
0.208530 0.197391 0.217227
0.335180 0.206790 0.224338
0.487221 0.213901 0.233036
0.682124 0.224918 0.243259
0.898192 0.286351 0.257542
0.000000 0.291508 0.305028
0.000000 0.298650 0.300877
0.000000 0.293767 0.257298
0.241917 0.289555 0.250004
0.306920 0.272831 0.251255
0.387457 0.273655 0.253391
0.586938 0.304906 0.264958
0.831998 0.375067 0.281956
0.000000 0.467140 0.392309
0.000000 0.466316 0.382330
0.000000 0.458076 0.327977
0.265995 0.434150 0.298650
0.441108 0.446845 0.300420
0.538384 0.424048 0.303044
0.554162 0.382452 0.299901
0.723903 0.433295 0.317845
0.000000 0.694881 0.523033
0.000000 0.693080 0.508385
0.000000 0.684962 0.443641
0.000000 0.664851 0.355169
0.494148 0.651392 0.372198
0.673030 0.669459 0.378912
0.795743 0.669856 0.396063
0.838224 0.632532 0.404517
0.000000 0.872007 0.663508
0.000000 0.871305 0.654139
0.000000 0.868132 0.611261
0.000000 0.861631 0.519402
0.547051 0.837858 0.533410
0.706264 0.839628 0.553552
0.831388 0.846220 0.578759
0.921843 0.851591 0.639948
0.499947 0.948272 0.809873
0.506249 0.947997 0.806851
0.531823 0.946868 0.794125
0.577569 0.944610 0.769680
0.678828 0.936980 0.763424
0.786130 0.928893 0.783902
0.853208 0.930419 0.798886
0.915862 0.932952 0.815885
0.046113 0.164797 0.190890
0.054200 0.167269 0.193088
0.092012 0.180850 0.206027
0.116518 0.196628 0.220981
0.201816 0.247929 0.276585
0.538964 0.182101 0.381628
0.881773 0.000000 0.340978
1.000000 0.000000 0.324681
0.075990 0.173404 0.199100
0.083650 0.176455 0.201785
0.107820 0.190921 0.215518
0.132448 0.207462 0.231113
0.225925 0.252750 0.291295
0.561852 0.182071 0.380438
0.895476 0.000000 0.315557
1.000000 0.000000 0.327703
0.097017 0.186130 0.212833
0.108705 0.191592 0.216068
0.151492 0.220279 0.243168
0.189792 0.247257 0.268589
0.335576 0.264805 0.341497
0.655238 0.179599 0.342840
0.846677 0.161257 0.321630
0.988312 0.261112 0.337774
0.000000 0.225376 0.293462
0.007996 0.230961 0.296208
0.148318 0.256107 0.307958
0.277348 0.312566 0.328405
0.407141 0.314488 0.327062
0.564324 0.320867 0.329656
0.746670 0.340276 0.336278
0.927886 0.398444 0.354650
0.000000 0.422248 0.498054
0.000000 0.434363 0.496773
0.000000 0.482338 0.490730
0.249851 0.482094 0.402655
0.477211 0.473304 0.388525
0.538262 0.429450 0.370703
0.591638 0.404334 0.352544
0.826169 0.486030 0.379675
0.000000 0.720699 0.667689
0.000000 0.719814 0.659266
0.000000 0.715297 0.619959
0.000000 0.701991 0.520165
0.512413 0.671321 0.470985
0.689448 0.688563 0.482460
0.789792 0.668940 0.480079
0.826139 0.623255 0.458595
0.000000 0.880644 0.765530
0.000000 0.879484 0.760342
0.000000 0.874388 0.739376
0.281773 0.867857 0.673091
0.525536 0.852506 0.611627
0.715572 0.844236 0.635340
0.833036 0.851072 0.658717
0.913909 0.852567 0.698299
0.545525 0.949004 0.856992
0.563714 0.948180 0.856291
0.595392 0.946532 0.846921
0.629694 0.944457 0.824735
0.676356 0.940764 0.793790
0.794400 0.929320 0.812039
0.857511 0.931273 0.824552
0.916960 0.934203 0.838621
0.129885 0.205570 0.229404
0.136294 0.210117 0.233585
0.164553 0.229618 0.251957
0.228092 0.274083 0.294255
0.254826 0.292851 0.312505
0.345403 0.358831 0.378271
0.684321 0.338018 0.585504
0.986847 0.272251 0.656886
0.145449 0.216159 0.239322
0.151308 0.220401 0.243259
0.179141 0.239719 0.261540
0.242679 0.284154 0.304021
0.269322 0.303258 0.322698
0.357733 0.367926 0.387610
0.702083 0.341375 0.592981
0.993378 0.282383 0.649897
0.176822 0.238102 0.259922
0.188388 0.246067 0.267460
0.218601 0.267277 0.287694
0.286137 0.315343 0.334600
0.323919 0.342931 0.362188
0.406012 0.405097 0.425696
0.770626 0.356420 0.612757
1.000000 0.320195 0.609125
0.173159 0.252445 0.291752
0.184268 0.257206 0.293828
0.229160 0.278111 0.302678
0.336065 0.351843 0.371130
0.415717 0.412696 0.433509
0.572534 0.436988 0.540520
0.882719 0.391821 0.576562
1.000000 0.411627 0.519982
0.113069 0.325444 0.434089
0.138460 0.331090 0.437507
0.216861 0.355474 0.452338
0.341253 0.409216 0.484230
0.522423 0.511711 0.528283
0.657252 0.500237 0.508873
0.811643 0.511101 0.503044
0.945861 0.550164 0.519005
0.000000 0.565728 0.750271
0.000000 0.578576 0.749172
0.000000 0.627619 0.742397
0.000000 0.708858 0.727687
0.504997 0.721767 0.631373
0.709346 0.713680 0.617731
0.770687 0.657221 0.570123
0.812650 0.607813 0.519188
0.000000 0.877562 0.864591
0.000000 0.881621 0.863890
0.000000 0.890990 0.855528
0.279545 0.880919 0.816464
0.567651 0.867735 0.751156
0.729427 0.850401 0.727077
0.836973 0.857877 0.745602
0.903624 0.850950 0.754910
0.356085 0.959747 0.902800
0.396155 0.958679 0.900938
0.516869 0.954467 0.893919
0.657404 0.947387 0.883513
0.720699 0.942565 0.858244
0.789242 0.935180 0.842161
0.862974 0.932769 0.854154
0.919249 0.936156 0.865385
0.228305 0.274083 0.294255
0.234928 0.278782 0.298802
0.264317 0.299718 0.319188
0.328557 0.346258 0.365606
0.444221 0.435798 0.457343
0.447669 0.438605 0.460243
0.544610 0.524987 0.548821
0.774075 0.609216 0.760769
0.240177 0.282506 0.302373
0.246708 0.287144 0.306889
0.275792 0.307897 0.327184
0.340246 0.354955 0.374304
0.456519 0.445869 0.467811
0.461402 0.449958 0.471962
0.554681 0.534844 0.558831
0.785946 0.613123 0.769528
0.270848 0.304387 0.323766
0.277867 0.309392 0.328649
0.307805 0.331060 0.350317
0.374884 0.381018 0.400885
0.497475 0.481056 0.504021
0.513115 0.495247 0.518517
0.592950 0.574029 0.598322
0.829343 0.628687 0.798306
0.263981 0.299443 0.318944
0.275181 0.307530 0.326818
0.327123 0.345159 0.364508
0.415503 0.412573 0.433387
0.547021 0.527306 0.551202
0.590906 0.571954 0.596185
0.652674 0.640497 0.664149
0.886198 0.657343 0.820310
0.265629 0.342687 0.410803
0.274968 0.346960 0.412848
0.315099 0.365179 0.421302
0.394324 0.405066 0.438697
0.571527 0.551781 0.575952
0.670527 0.661463 0.684688
0.772366 0.690150 0.771725
0.954223 0.689265 0.797818
0.171084 0.464515 0.638392
0.195834 0.469581 0.641199
0.279149 0.492012 0.653254
0.405982 0.540215 0.677363
0.566186 0.625330 0.716091
0.735042 0.746548 0.761257
0.829129 0.724300 0.731441
0.926665 0.731838 0.728328
0.000000 0.670405 0.896513
0.000000 0.674891 0.897520
0.000000 0.700557 0.899657
0.334844 0.779751 0.890959
0.547906 0.862028 0.879545
0.741756 0.871092 0.828458
0.845853 0.867704 0.826688
0.887419 0.841459 0.799527
0.213260 0.921263 0.945098
0.262455 0.924132 0.944701
0.389685 0.935241 0.942931
0.531914 0.953399 0.939788
0.700191 0.950500 0.919066
0.803555 0.942321 0.892638
0.870451 0.935180 0.886320
0.923278 0.939300 0.895262
0.384283 0.388190 0.408301
0.395361 0.396887 0.417182
0.424964 0.420142 0.441199
0.489143 0.473701 0.496437
0.585931 0.566705 0.590967
0.699825 0.696590 0.718776
0.672694 0.663996 0.687160
0.722683 0.724422 0.745510
0.375402 0.381445 0.401404
0.387213 0.390509 0.410681
0.415198 0.412360 0.433204
0.475166 0.461646 0.484047
0.569574 0.549767 0.573907
0.682429 0.675654 0.698482
0.651545 0.639155 0.662867
0.701839 0.699062 0.721157
0.407446 0.406256 0.426886
0.414374 0.411719 0.432471
0.440986 0.433082 0.454566
0.501640 0.484871 0.507897
0.592401 0.573510 0.597772
0.704402 0.702174 0.724147
0.691341 0.686336 0.708858
0.739376 0.744686 0.764920
0.421881 0.417731 0.438666
0.432410 0.426123 0.447333
0.467964 0.455482 0.477668
0.536400 0.516991 0.540734
0.632624 0.617548 0.641566
0.743313 0.749416 0.769436
0.745937 0.752560 0.772427
0.777646 0.790066 0.808011
0.354742 0.371984 0.400549
0.357275 0.371862 0.397925
0.386267 0.389776 0.409918
0.487129 0.471962 0.494636
0.625025 0.609033 0.633112
0.747341 0.754269 0.774044
0.773861 0.785672 0.803891
0.809201 0.825284 0.841245
0.340795 0.457252 0.584070
0.349798 0.461006 0.585534
0.386725 0.474891 0.589044
0.457038 0.504845 0.595789
0.558434 0.557794 0.605463
0.749447 0.756802 0.776486
0.825498 0.842618 0.857511
0.870878 0.853574 0.891203
0.290074 0.617609 0.822507
0.313176 0.623713 0.825010
0.377966 0.639521 0.828031
0.486671 0.675319 0.835294
0.617334 0.731838 0.844846
0.749630 0.805905 0.862150
0.857939 0.878233 0.888457
0.909758 0.866636 0.874388
0.415778 0.781979 0.956146
0.434394 0.785794 0.956390
0.510399 0.803861 0.957916
0.606714 0.831083 0.959503
0.704189 0.882841 0.955627
0.788449 0.935912 0.948363
0.875517 0.944060 0.924376
0.928923 0.943236 0.925231
0.580987 0.561578 0.585809
0.588312 0.569177 0.593408
0.602136 0.583978 0.608209
0.642512 0.628779 0.652644
0.697505 0.693782 0.716060
0.758633 0.767758 0.786893
0.810147 0.826291 0.842222
0.793423 0.807889 0.824918
0.569574 0.549767 0.573907
0.577295 0.557763 0.581933
0.595239 0.576532 0.600793
0.634363 0.619532 0.643549
0.690883 0.685786 0.708309
0.753872 0.762112 0.781521
0.805966 0.821775 0.837980
0.786831 0.800504 0.817929
0.573938 0.554223 0.578424
0.579278 0.559808 0.584009
0.596155 0.577508 0.601770
0.644953 0.631617 0.655451
0.698177 0.694575 0.716823
0.758267 0.767361 0.786496
0.814511 0.830961 0.846586
0.795590 0.810330 0.827207
0.574670 0.555016 0.579187
0.581842 0.562432 0.586664
0.602136 0.583978 0.608209
0.647456 0.634485 0.658259
0.707424 0.705806 0.727657
0.771603 0.783078 0.801419
0.834043 0.851499 0.865812
0.817533 0.834195 0.849638
0.514458 0.496437 0.519738
0.524559 0.505821 0.529351
0.554559 0.534661 0.558679
0.626307 0.610437 0.634546
0.695979 0.691981 0.714290
0.771115 0.782467 0.800839
0.841245 0.858885 0.872679
0.840055 0.857633 0.871550
0.457465 0.485817 0.558465
0.458778 0.483955 0.553399
0.470710 0.483009 0.539330
0.504021 0.491493 0.521263
0.619593 0.602991 0.627131
0.764492 0.774746 0.793484
0.857572 0.875151 0.887816
0.877440 0.894377 0.905577
0.438972 0.618036 0.792020
0.444373 0.618891 0.790768
0.469398 0.624048 0.786435
0.524529 0.642054 0.782925
0.603998 0.673823 0.777188
0.702388 0.724239 0.770840
0.854826 0.872435 0.885313
0.907042 0.921721 0.930602
0.537407 0.764950 0.924743
0.543084 0.766445 0.924437
0.572961 0.775906 0.924163
0.632868 0.797757 0.924865
0.707332 0.827756 0.925719
0.786252 0.863432 0.927916
0.864195 0.903655 0.935058
0.931060 0.943969 0.949828
