20 Preset/Dark Style/【3】LUT video cho PR-AE-FCPX/19Tones (6)/19tones.pack-02.05.Day of shadows.cube
# Created by Adobe Lightroom plugin Export LUT (1.24.0)
# www.johnrellis.com/lightroom/exportlut.htm
# Preset: 19tones.pack-02.05.Day of shadows
# Color profile: E:\lut插件\exportlut.1.24\exportlut.lrplugin\color profiles\Rec709gamma2.4.icc
LUT_3D_SIZE 8
DOMAIN_MIN 0.000000 0.000000 0.000000
DOMAIN_MAX 0.903226 0.903226 0.903226
0.105837 0.187747 0.211307
0.113222 0.190097 0.213809
0.129732 0.193637 0.218265
0.138949 0.194980 0.220096
0.165499 0.198611 0.225864
0.248692 0.209476 0.245182
0.438911 0.226383 0.294652
0.713893 0.287968 0.409247
0.098054 0.207614 0.215946
0.129152 0.202976 0.220737
0.202213 0.204227 0.219486
0.192050 0.197910 0.224033
0.218265 0.200687 0.230747
0.312810 0.208835 0.251591
0.508141 0.219791 0.302403
0.756466 0.289708 0.417060
0.000000 0.454108 0.252079
0.000000 0.446906 0.249088
0.387915 0.385351 0.330541
0.587060 0.384283 0.264897
0.633509 0.288212 0.250065
0.666743 0.236515 0.276707
0.780972 0.235447 0.329992
0.899657 0.320348 0.435096
0.321996 0.798886 0.488289
0.390265 0.794278 0.481788
0.578576 0.773312 0.469429
0.755703 0.721065 0.634211
0.838071 0.704524 0.579034
0.959991 0.643977 0.387030
0.984039 0.550072 0.411994
1.000000 0.548974 0.502007
0.685512 0.898680 0.728420
0.693141 0.897429 0.725765
0.724849 0.892180 0.714015
0.808560 0.877440 0.735714
0.868589 0.856077 0.808835
0.890196 0.848356 0.804776
0.964385 0.818112 0.699153
1.000000 0.777096 0.620142
0.810330 0.935515 0.833860
0.812436 0.935119 0.832914
0.821683 0.933410 0.829007
0.840635 0.929992 0.821225
0.889982 0.920378 0.846311
0.916320 0.909911 0.880034
0.922637 0.906981 0.889525
0.962463 0.896941 0.841459
0.876555 0.957855 0.891569
0.877348 0.957733 0.891173
0.880858 0.957153 0.889616
0.888212 0.956054 0.886534
0.903716 0.953674 0.885374
0.931945 0.947692 0.902922
0.945617 0.941955 0.921355
0.945892 0.939208 0.932097
0.920806 0.972442 0.930144
0.921141 0.972412 0.930022
0.922637 0.972290 0.929412
0.925780 0.972015 0.928222
0.930877 0.971588 0.926146
0.943297 0.969543 0.929107
0.957488 0.965942 0.938079
0.964263 0.962036 0.947539
0.111147 0.191531 0.217929
0.139071 0.189487 0.225162
0.124300 0.198276 0.221561
0.140780 0.198001 0.223117
0.173556 0.200687 0.228214
0.272129 0.210300 0.248447
0.481636 0.222202 0.299107
0.734676 0.288090 0.412634
0.114473 0.205997 0.229129
0.153262 0.219516 0.240574
0.180636 0.209689 0.234836
0.184146 0.202914 0.229770
0.214725 0.203586 0.233646
0.323125 0.209903 0.253727
0.548516 0.213718 0.305089
0.774563 0.290196 0.419471
0.000000 0.481392 0.343938
0.136477 0.482307 0.321477
0.448249 0.428077 0.386114
0.623468 0.398291 0.288640
0.584649 0.272068 0.267826
0.621729 0.231357 0.283543
0.764431 0.234867 0.333013
0.907805 0.329564 0.437995
0.451423 0.803586 0.571405
0.463508 0.801022 0.551263
0.598016 0.782650 0.523003
0.768338 0.736141 0.665034
0.844358 0.711788 0.594446
0.960967 0.643214 0.404273
0.974914 0.540887 0.428840
1.000000 0.544884 0.511559
0.710292 0.899016 0.753140
0.714748 0.898009 0.749264
0.741512 0.893004 0.738277
0.813870 0.879728 0.750973
0.871885 0.859861 0.817411
0.892790 0.851255 0.808927
0.964324 0.819608 0.706416
1.000000 0.777401 0.635920
0.818753 0.935760 0.842466
0.820737 0.935393 0.841611
0.829129 0.933715 0.837888
0.846433 0.930388 0.830350
0.892119 0.921477 0.851621
0.917784 0.911559 0.883513
0.924254 0.908598 0.891264
0.962860 0.898039 0.844205
0.880613 0.958038 0.895598
0.881346 0.957916 0.895262
0.884642 0.957366 0.893706
0.891569 0.956268 0.890715
0.905516 0.954131 0.888670
0.933104 0.948363 0.905425
0.946441 0.942840 0.923186
0.946960 0.940276 0.933074
0.922789 0.972595 0.932097
0.923095 0.972564 0.931945
0.924529 0.972442 0.931365
0.927550 0.972198 0.930236
0.932494 0.971771 0.928222
0.944213 0.969848 0.930724
0.958129 0.966369 0.939452
0.964813 0.962585 0.948638
0.146059 0.213382 0.269780
0.181979 0.213809 0.302251
0.526482 0.134951 0.450446
0.583185 0.222843 0.395972
0.126925 0.199466 0.222843
0.158755 0.206638 0.232761
0.318547 0.235569 0.280797
0.661250 0.296910 0.404669
0.189975 0.249271 0.284825
0.222599 0.262760 0.324254
0.574060 0.253391 0.491432
0.452827 0.268070 0.358160
0.125673 0.199527 0.222629
0.184756 0.212039 0.240299
0.364263 0.238773 0.291020
0.698573 0.301122 0.414649
0.281895 0.413947 0.433173
0.351843 0.440101 0.457527
0.598840 0.549584 0.558312
0.428046 0.323644 0.353399
0.341222 0.244846 0.281498
0.406073 0.234623 0.285466
0.602319 0.244083 0.335454
0.833249 0.330999 0.448859
0.577142 0.815549 0.717128
0.616938 0.814542 0.719051
0.698146 0.808988 0.704341
0.803647 0.779110 0.746548
0.864530 0.722255 0.628992
0.911559 0.576349 0.479377
0.928313 0.490578 0.467628
0.973358 0.519615 0.535851
0.774929 0.900725 0.819455
0.784176 0.900175 0.820554
0.793576 0.897765 0.808042
0.830076 0.888304 0.796963
0.883391 0.873045 0.844877
0.901701 0.860014 0.821805
0.964965 0.823239 0.729274
1.000000 0.775387 0.684321
0.855711 0.936461 0.876829
0.855100 0.936309 0.874784
0.854917 0.935515 0.867613
0.867124 0.932464 0.861204
0.899992 0.925811 0.870298
0.923461 0.917815 0.896208
0.930144 0.914458 0.897581
0.964630 0.902007 0.854368
0.897734 0.958648 0.911742
0.897490 0.958618 0.910857
0.898100 0.958343 0.908171
0.903563 0.957366 0.905547
0.912932 0.955840 0.901427
0.937438 0.951049 0.914855
0.949798 0.946441 0.930175
0.951080 0.944366 0.936950
0.930968 0.973114 0.939879
0.930877 0.973144 0.939483
0.931609 0.973083 0.938628
0.934173 0.972869 0.937621
0.938323 0.972503 0.935821
0.947662 0.971099 0.936706
0.960601 0.968017 0.944488
0.966857 0.964752 0.952758
0.275303 0.288273 0.452583
0.326452 0.294957 0.500084
0.632288 0.306889 0.694301
0.947570 0.366369 0.812070
1.000000 0.635279 0.795346
0.639490 0.312688 0.459632
0.173861 0.223850 0.247837
0.336400 0.282658 0.321080
0.342046 0.348791 0.474769
0.387182 0.362737 0.520531
0.646815 0.417273 0.700984
0.932921 0.495338 0.816190
0.996826 0.660914 0.794583
0.555047 0.306706 0.418585
0.152041 0.216251 0.238376
0.376562 0.291447 0.336217
0.414496 0.400946 0.415656
0.458076 0.435096 0.453681
0.658045 0.602197 0.676295
0.885527 0.720943 0.824918
0.884428 0.641627 0.730617
0.230625 0.249729 0.276860
0.241764 0.245335 0.274998
0.571283 0.331060 0.408911
0.627070 0.722866 0.733547
0.654505 0.732448 0.741634
0.743923 0.770230 0.773648
0.846525 0.830289 0.827329
0.748348 0.605676 0.625086
0.681666 0.421820 0.471443
0.744167 0.386938 0.460365
0.874388 0.465217 0.544518
0.803952 0.907073 0.870603
0.812161 0.906767 0.871000
0.840604 0.905516 0.872435
0.869017 0.902159 0.867582
0.900633 0.892424 0.879667
0.914336 0.867735 0.837247
0.953155 0.810849 0.761013
0.975952 0.759548 0.729549
0.871794 0.939239 0.901091
0.874937 0.939147 0.901640
0.886809 0.938811 0.903563
0.895537 0.937560 0.899504
0.911070 0.933043 0.895659
0.932616 0.927733 0.914488
0.938994 0.922637 0.906828
0.968261 0.907347 0.869230
0.911437 0.960082 0.927611
0.913207 0.960082 0.928130
0.920134 0.960143 0.930297
0.920592 0.959838 0.925963
0.927001 0.958434 0.922576
0.943908 0.955444 0.928344
0.955138 0.952178 0.940673
0.957549 0.950652 0.943053
0.942412 0.973999 0.950958
0.943572 0.974090 0.951507
0.943908 0.974182 0.950683
0.944060 0.974243 0.948638
0.947204 0.973907 0.947143
0.952728 0.973297 0.945708
0.964508 0.970764 0.952209
0.970153 0.968261 0.959136
0.544152 0.469032 0.701503
0.574945 0.480018 0.723507
0.698299 0.525475 0.798825
0.883207 0.619501 0.886351
0.993469 0.695674 0.908537
1.000000 0.792813 0.884611
0.971649 0.714961 0.814115
0.816098 0.517998 0.639033
0.583673 0.524346 0.706142
0.608576 0.535546 0.726864
0.712490 0.582727 0.798550
0.877043 0.674800 0.883452
0.981842 0.734310 0.907958
1.000000 0.810697 0.888670
0.962005 0.714961 0.809567
0.790188 0.506859 0.620417
0.645319 0.613306 0.682856
0.669184 0.635920 0.710048
0.739895 0.693263 0.784909
0.862211 0.778653 0.873655
0.953735 0.820981 0.908232
0.984649 0.859312 0.901457
0.915648 0.693874 0.776455
0.646052 0.447211 0.523705
0.688197 0.664668 0.685878
0.699153 0.672023 0.689876
0.739742 0.703059 0.706844
0.849393 0.832395 0.850767
0.932494 0.882750 0.910460
0.935637 0.859525 0.880705
0.701717 0.542229 0.595727
0.479591 0.400855 0.432410
0.804715 0.854643 0.857053
0.812253 0.857359 0.859342
0.839811 0.868376 0.868864
0.879362 0.887449 0.886046
0.917876 0.911467 0.908782
0.874907 0.827756 0.828855
0.868345 0.731685 0.746273
0.906798 0.706844 0.732265
0.886015 0.943816 0.926818
0.888823 0.943816 0.927001
0.899077 0.943572 0.927520
0.913970 0.942901 0.927703
0.927703 0.942046 0.925872
0.942351 0.938262 0.931731
0.948028 0.927581 0.913451
0.970306 0.905516 0.881407
0.916625 0.962219 0.940093
0.918090 0.962280 0.940368
0.923796 0.962341 0.941436
0.934173 0.962615 0.943694
0.941344 0.962554 0.942840
0.950011 0.960662 0.941588
0.961120 0.958556 0.951415
0.964385 0.956725 0.948943
0.939269 0.974670 0.953674
0.940642 0.974731 0.954223
0.945922 0.975036 0.956359
0.954376 0.975708 0.959991
0.956695 0.975952 0.958953
0.960143 0.975555 0.957336
0.968780 0.974090 0.960479
0.973999 0.972320 0.966125
0.719112 0.657588 0.825193
0.729641 0.663172 0.832059
0.773037 0.686397 0.857664
0.849882 0.728542 0.896208
0.943114 0.784390 0.935485
0.996307 0.815518 0.940826
1.000000 0.858427 0.923796
1.000000 0.862303 0.908873
0.735378 0.686824 0.825040
0.744472 0.692073 0.831693
0.782437 0.713466 0.856779
0.852201 0.752895 0.894957
0.939666 0.803738 0.934295
0.991302 0.829923 0.940764
1.000000 0.866941 0.925811
0.998230 0.865232 0.909361
0.770504 0.748440 0.818814
0.777096 0.753750 0.825711
0.805051 0.774166 0.851286
0.859129 0.809506 0.890349
0.931182 0.852476 0.930907
0.977173 0.870878 0.941436
0.992462 0.893767 0.932799
0.984588 0.873045 0.909056
0.780026 0.759060 0.772885
0.788388 0.769924 0.785397
0.822751 0.810361 0.830716
0.867765 0.853025 0.881315
0.924132 0.892729 0.926452
0.964477 0.910582 0.943877
0.981445 0.923339 0.942260
0.958892 0.871214 0.898283
0.825864 0.827359 0.836606
0.829740 0.829770 0.838102
0.844388 0.839261 0.844083
0.867460 0.856413 0.855100
0.916686 0.909667 0.915496
0.957397 0.934905 0.946380
0.962158 0.926421 0.935210
0.891630 0.827665 0.844236
0.881529 0.911742 0.912383
0.884184 0.912749 0.913268
0.894377 0.916930 0.916960
0.911131 0.924498 0.923827
0.931212 0.935149 0.933806
0.951751 0.948394 0.946624
0.930541 0.908782 0.908049
0.932616 0.878965 0.881743
0.923674 0.963409 0.953704
0.925261 0.963775 0.954162
0.931670 0.965209 0.956023
0.940581 0.965942 0.957244
0.950622 0.966369 0.958160
0.959014 0.966430 0.957824
0.967254 0.965087 0.961517
0.971344 0.961334 0.954131
0.942565 0.976074 0.962097
0.943511 0.976135 0.962310
0.947265 0.976318 0.963195
0.953643 0.976745 0.964782
0.962341 0.977478 0.967437
0.968475 0.978241 0.968780
0.972992 0.977691 0.968566
0.977996 0.976593 0.972961
0.808743 0.775113 0.881468
0.813596 0.778317 0.884733
0.829648 0.785641 0.895201
0.862486 0.800443 0.913603
0.911528 0.822782 0.936370
0.970123 0.852842 0.958984
1.000000 0.869963 0.959136
1.000000 0.893828 0.945586
0.811704 0.782467 0.878569
0.816617 0.785977 0.882078
0.831693 0.792996 0.892638
0.862669 0.806973 0.911131
0.910094 0.828580 0.934295
0.967498 0.857176 0.957336
0.997711 0.871580 0.957763
1.000000 0.893400 0.944457
0.834226 0.819333 0.878325
0.836912 0.821042 0.880980
0.848295 0.827329 0.891142
0.873350 0.840848 0.909667
0.912566 0.860472 0.932677
0.961944 0.886320 0.956054
0.989258 0.897856 0.959014
0.997009 0.914153 0.950347
0.855894 0.849454 0.872587
0.859525 0.853086 0.876493
0.869383 0.861936 0.888334
0.888548 0.876555 0.908293
0.918730 0.895720 0.932189
0.957824 0.919036 0.955993
0.980774 0.928008 0.961913
0.989532 0.936431 0.957366
0.856901 0.843656 0.842039
0.857572 0.843809 0.841459
0.867491 0.856992 0.857145
0.891936 0.886381 0.892882
0.920470 0.913390 0.926482
0.952850 0.935821 0.953307
0.975402 0.946075 0.963622
0.984955 0.953124 0.963378
0.887205 0.894804 0.900389
0.888975 0.895872 0.901122
0.895567 0.899596 0.903716
0.907073 0.906615 0.908568
0.921569 0.916777 0.915496
0.950439 0.946715 0.949645
0.973724 0.961639 0.967529
0.977783 0.958892 0.963256
0.919341 0.943053 0.943633
0.921080 0.943847 0.944366
0.926238 0.945892 0.946227
0.935698 0.950072 0.949981
0.947570 0.955657 0.955138
0.960418 0.962676 0.961791
0.972320 0.970489 0.969421
0.966949 0.957122 0.956542
0.945129 0.975250 0.969085
0.946197 0.975433 0.969360
0.950805 0.976379 0.970672
0.957824 0.977813 0.972656
0.965576 0.979187 0.974609
0.972320 0.979919 0.975799
0.977813 0.980743 0.976806
0.981476 0.980255 0.978515
0.847959 0.824887 0.908110
0.850065 0.825864 0.909606
0.857145 0.827543 0.914794
0.874022 0.833127 0.925292
0.901793 0.842374 0.939483
0.940307 0.856596 0.955444
0.982361 0.876768 0.969055
1.000000 0.890745 0.968902
0.850248 0.829526 0.906859
0.852262 0.830564 0.908476
0.859495 0.832792 0.913939
0.875517 0.838224 0.924346
0.902373 0.847440 0.938659
0.939849 0.861540 0.954742
0.981140 0.880644 0.968627
1.000000 0.892851 0.968475
0.862394 0.849668 0.905760
0.863890 0.850401 0.907164
0.869780 0.852781 0.912535
0.884733 0.860136 0.923705
0.907591 0.869230 0.937804
0.940124 0.882322 0.953674
0.977691 0.900237 0.968322
0.997559 0.908537 0.968688
0.879118 0.873869 0.903868
0.880491 0.874968 0.905516
0.885313 0.878172 0.911254
0.896696 0.885344 0.922393
0.915618 0.895720 0.937194
0.942321 0.909178 0.953399
0.973938 0.925994 0.968719
0.990295 0.931090 0.970153
0.884031 0.879667 0.889097
0.886107 0.881956 0.891875
0.892882 0.889311 0.901366
0.908537 0.904814 0.919371
0.922545 0.915282 0.935149
0.943938 0.928466 0.952422
0.970428 0.944060 0.968475
0.985260 0.949767 0.972290
0.894194 0.890166 0.892027
0.894743 0.890379 0.891905
0.898009 0.892302 0.892424
0.905516 0.897887 0.895079
0.924407 0.921172 0.924468
0.947478 0.943236 0.951507
0.969604 0.959106 0.969604
0.983062 0.966339 0.976074
0.915770 0.926757 0.931792
0.916686 0.927214 0.932097
0.920684 0.929259 0.933532
0.928862 0.933989 0.937041
0.940093 0.941100 0.942473
0.953155 0.950835 0.950042
0.971008 0.968933 0.970428
0.982818 0.976318 0.979217
0.940093 0.961089 0.961883
0.940917 0.961395 0.962127
0.944640 0.962860 0.963439
0.951751 0.965911 0.966186
0.960754 0.969970 0.969940
0.970031 0.974548 0.974182
0.978027 0.978973 0.978424
0.983429 0.982330 0.981689
