20 Preset/Dark Style/【3】LUT video cho PR-AE-FCPX/19Tones (6)/19tones.pack-02.07.BMX.cube
# Created by Adobe Lightroom plugin Export LUT (1.24.0)
# www.johnrellis.com/lightroom/exportlut.htm
# Preset: 19tones.pack-02.07.BMX
# Color profile: E:\lut插件\exportlut.1.24\exportlut.lrplugin\color profiles\Rec709gamma2.4.icc
LUT_3D_SIZE 32
DOMAIN_MIN 0.0 0.0 0.0
DOMAIN_MAX 1.0 1.0 1.0
0.000000 0.037751 0.061921
0.000000 0.037751 0.061921
0.000000 0.037751 0.061921
0.000000 0.041108 0.068299
0.000000 0.052186 0.083070
0.000000 0.064271 0.091554
0.000000 0.074678 0.098207
0.000000 0.081727 0.103975
0.000000 0.085817 0.108736
0.000000 0.089113 0.112581
0.000000 0.090761 0.115724
0.000000 0.092409 0.118196
0.002991 0.093324 0.120394
0.010986 0.094118 0.121981
0.016999 0.094972 0.123507
0.024994 0.095766 0.125032
0.034241 0.096864 0.126467
0.044617 0.097902 0.128725
0.055238 0.099641 0.131044
0.071901 0.101381 0.134279
0.089113 0.104494 0.138674
0.103426 0.108156 0.144717
0.119570 0.112642 0.151736
0.137881 0.118196 0.159884
0.159121 0.124300 0.169253
0.183413 0.132265 0.180209
0.213016 0.141085 0.193271
0.247807 0.152132 0.209079
0.288975 0.166110 0.227970
0.338689 0.183902 0.251652
0.397253 0.206882 0.281010
0.466682 0.235904 0.317693
0.000000 0.037751 0.061921
0.000000 0.037751 0.061921
0.000000 0.037751 0.061921
0.000000 0.040894 0.068269
0.000000 0.052186 0.083070
0.000000 0.064271 0.091554
0.000000 0.074678 0.098604
0.000000 0.081575 0.103975
0.000000 0.085695 0.108736
0.000000 0.089021 0.112581
0.000000 0.090669 0.115724
0.000000 0.092409 0.118196
0.004273 0.093690 0.120363
0.011963 0.094453 0.122194
0.019959 0.095247 0.123751
0.025971 0.096101 0.125277
0.035950 0.096773 0.126741
0.045594 0.098238 0.128939
0.056916 0.099550 0.131289
0.073152 0.101686 0.134249
0.089509 0.104158 0.138460
0.102266 0.107637 0.144106
0.117098 0.112062 0.150393
0.133913 0.117098 0.158114
0.153750 0.122805 0.166812
0.176913 0.130068 0.177127
0.204685 0.138582 0.189517
0.237949 0.148959 0.204501
0.277897 0.162295 0.222812
0.325994 0.179141 0.245518
0.383093 0.201236 0.273838
0.450935 0.229374 0.309270
0.000000 0.037751 0.061921
0.000000 0.037751 0.061921
0.000000 0.037751 0.061921
0.000000 0.042084 0.070405
0.000000 0.051759 0.083772
0.000000 0.062165 0.092012
0.000000 0.072358 0.099031
0.000000 0.080873 0.104646
0.000000 0.085725 0.109316
0.000000 0.088960 0.113466
0.001221 0.091066 0.116854
0.008881 0.092714 0.119265
0.015259 0.093965 0.121675
0.022950 0.094759 0.123507
0.030243 0.095949 0.125002
0.036225 0.096773 0.126467
0.045197 0.097902 0.128176
0.055848 0.098909 0.130098
0.069184 0.100130 0.132448
0.082490 0.102266 0.135622
0.094728 0.104616 0.139528
0.106630 0.108125 0.145144
0.121004 0.112184 0.151156
0.137301 0.117189 0.158450
0.156374 0.122683 0.166964
0.178561 0.129549 0.176791
0.205142 0.137819 0.188663
0.237339 0.147921 0.203128
0.276646 0.160830 0.221164
0.323888 0.177218 0.243442
0.379797 0.198825 0.271061
0.446326 0.226047 0.305669
0.000000 0.052888 0.072450
0.000000 0.052888 0.072450
0.000000 0.053895 0.071168
0.000000 0.053407 0.079438
0.000000 0.063630 0.083406
0.000000 0.068147 0.089479
0.000000 0.074495 0.096834
0.009339 0.079683 0.102785
0.015137 0.085145 0.108888
0.022248 0.089052 0.113924
0.028962 0.091524 0.117830
0.037415 0.093080 0.121401
0.043091 0.094728 0.123690
0.049775 0.095918 0.125704
0.054749 0.097169 0.127413
0.062470 0.097963 0.129152
0.071412 0.099062 0.130770
0.080140 0.100404 0.132631
0.088960 0.101534 0.134890
0.094911 0.103670 0.137728
0.104402 0.105867 0.141817
0.115389 0.108980 0.146670
0.128511 0.113008 0.152407
0.144442 0.117281 0.159304
0.163088 0.122652 0.167544
0.184878 0.129641 0.177493
0.212284 0.137758 0.189578
0.244480 0.147951 0.204166
0.283726 0.160708 0.222202
0.331060 0.177218 0.244297
0.385626 0.198154 0.271397
0.449470 0.224582 0.304753
0.000000 0.083558 0.083192
0.000000 0.084169 0.083070
0.000000 0.084779 0.083680
0.000000 0.084077 0.086488
0.000000 0.080354 0.094392
0.000000 0.088258 0.099489
0.024872 0.093416 0.096223
0.058320 0.092256 0.100679
0.070924 0.091035 0.107698
0.080262 0.091615 0.113069
0.086061 0.092287 0.117464
0.090211 0.093385 0.121065
0.092226 0.095338 0.124697
0.092897 0.097414 0.127932
0.095827 0.098543 0.130129
0.097780 0.100069 0.132235
0.100526 0.101076 0.134310
0.104250 0.102358 0.136324
0.107912 0.103944 0.138735
0.113649 0.105806 0.141451
0.122896 0.108064 0.145571
0.132998 0.111238 0.150210
0.145632 0.114595 0.155795
0.160372 0.119173 0.162600
0.178653 0.124361 0.170809
0.200259 0.131014 0.180453
0.226719 0.138918 0.192386
0.258915 0.148836 0.206821
0.297490 0.161379 0.224521
0.342809 0.177493 0.246128
0.396033 0.197726 0.272465
0.458900 0.223362 0.305241
0.000000 0.105623 0.094789
0.000000 0.105898 0.094728
0.000000 0.105776 0.094728
0.000000 0.106447 0.094545
0.000000 0.103517 0.099855
0.000000 0.099153 0.109651
0.000000 0.103426 0.119142
0.056458 0.112428 0.111940
0.113558 0.115969 0.106203
0.124788 0.109499 0.112428
0.128023 0.105165 0.118868
0.129702 0.103334 0.124086
0.131075 0.102571 0.128145
0.132113 0.102296 0.130953
0.132998 0.102388 0.133669
0.133608 0.102541 0.135592
0.134859 0.102937 0.137667
0.136568 0.104616 0.140261
0.139620 0.106325 0.143221
0.144472 0.108339 0.146670
0.152377 0.110933 0.150729
0.162081 0.113893 0.155734
0.200259 0.123415 0.171267
0.220584 0.129335 0.180423
0.244175 0.135958 0.191165
0.271641 0.144015 0.203372
0.303288 0.154116 0.217929
0.339666 0.166506 0.235080
0.382574 0.182040 0.255802
0.431525 0.201083 0.280705
0.488655 0.224491 0.310796
0.552972 0.252537 0.346777
0.000000 0.143526 0.109163
0.000000 0.143465 0.109163
0.000000 0.143526 0.109102
0.000000 0.143618 0.108675
0.000000 0.142916 0.109590
0.000000 0.137148 0.120363
0.000000 0.130098 0.135348
0.000000 0.133059 0.152621
0.106477 0.144625 0.137697
0.156191 0.148043 0.126467
0.197665 0.147280 0.118044
0.201236 0.134707 0.125856
0.198520 0.125704 0.132570
0.195193 0.119966 0.137484
0.191806 0.116548 0.141207
0.188632 0.114168 0.143984
0.186557 0.113008 0.146365
0.186282 0.112337 0.148775
0.187778 0.112490 0.151217
0.194430 0.113802 0.154971
0.203250 0.115358 0.159487
0.215244 0.118441 0.165255
0.230686 0.122927 0.173068
0.250034 0.128695 0.182376
0.273289 0.135134 0.193454
0.299779 0.143496 0.205783
0.329320 0.152956 0.220005
0.363378 0.164736 0.236423
0.403265 0.179568 0.256260
0.448676 0.197513 0.279698
0.502464 0.219730 0.308324
0.564141 0.246311 0.342779
0.000000 0.185702 0.125246
0.000000 0.185489 0.125032
0.000000 0.185519 0.124697
0.000000 0.185122 0.124392
0.000000 0.185214 0.123934
0.000000 0.182162 0.129824
0.000000 0.174746 0.144564
0.066133 0.166659 0.163668
0.063966 0.168185 0.191928
0.149050 0.182040 0.171023
0.202579 0.185061 0.154269
0.246677 0.182864 0.140963
0.279088 0.175509 0.132296
0.273136 0.158328 0.140230
0.266606 0.146242 0.145907
0.260105 0.137789 0.150057
0.253605 0.131502 0.154116
0.248936 0.127871 0.157229
0.249699 0.125917 0.161044
0.252476 0.125185 0.164920
0.257664 0.125277 0.169223
0.266667 0.126406 0.174350
0.279637 0.128328 0.180789
0.296941 0.131319 0.188510
0.317906 0.135195 0.197971
0.341222 0.141909 0.209323
0.368231 0.151583 0.223270
0.399207 0.163119 0.239475
0.436286 0.177554 0.258701
0.479591 0.195163 0.281712
0.530114 0.216861 0.309514
0.588678 0.242771 0.342962
0.000000 0.236027 0.144869
0.000000 0.235996 0.144869
0.000000 0.235599 0.144472
0.000000 0.235355 0.144198
0.000000 0.234623 0.143526
0.000000 0.233524 0.142580
0.000000 0.227665 0.155367
0.106966 0.219760 0.174319
0.139162 0.211521 0.197574
0.141787 0.212375 0.232822
0.203983 0.227268 0.212558
0.259037 0.230076 0.190066
0.303624 0.225834 0.171054
0.341497 0.217899 0.155398
0.356176 0.201938 0.151186
0.345129 0.182132 0.157717
0.336126 0.167544 0.162570
0.332189 0.157900 0.166995
0.330510 0.151156 0.171054
0.329595 0.146304 0.175235
0.330816 0.143038 0.180117
0.335790 0.141390 0.185428
0.344060 0.141512 0.191714
0.357580 0.142885 0.199374
0.374853 0.145724 0.208408
0.394965 0.150057 0.218631
0.419196 0.155367 0.230411
0.448341 0.162936 0.244541
0.482734 0.175021 0.262486
0.523064 0.192813 0.285161
0.570886 0.213993 0.312505
0.626001 0.239811 0.345312
0.000000 0.292302 0.168063
0.000000 0.292180 0.167910
0.000000 0.291478 0.167514
0.000000 0.290837 0.167025
0.000000 0.289250 0.165957
0.000000 0.287510 0.164431
0.000000 0.284337 0.167086
0.112337 0.277623 0.185519
0.177798 0.269627 0.208225
0.207309 0.261265 0.235294
0.214023 0.261112 0.273838
0.264897 0.276341 0.260197
0.318242 0.278630 0.231754
0.362829 0.273075 0.207156
0.400793 0.263584 0.186282
0.436408 0.253239 0.169253
0.439185 0.231998 0.171176
0.428840 0.210849 0.177920
0.421118 0.194980 0.183230
0.416083 0.183078 0.187808
0.414862 0.174990 0.192355
0.416846 0.168887 0.197147
0.422705 0.165377 0.203037
0.429236 0.162997 0.210269
0.439887 0.163027 0.218570
0.454505 0.164462 0.227970
0.474495 0.168368 0.239322
0.499763 0.174411 0.252903
0.531823 0.182864 0.269352
0.570764 0.194522 0.289372
0.616815 0.209689 0.313420
0.668849 0.235294 0.345617
0.000000 0.348730 0.193393
0.000000 0.348699 0.193393
0.000000 0.348180 0.192752
0.000000 0.347509 0.192355
0.000000 0.346349 0.191226
0.000000 0.344762 0.190127
0.000000 0.342351 0.188022
0.096437 0.337896 0.198856
0.198795 0.331273 0.221134
0.253666 0.323644 0.247684
0.282383 0.315984 0.278630
0.291112 0.314855 0.319554
0.333013 0.330846 0.316106
0.387243 0.334783 0.282414
0.433845 0.330083 0.252659
0.473732 0.320806 0.226688
0.508965 0.308934 0.203952
0.541741 0.296818 0.184237
0.527733 0.267063 0.192966
0.515618 0.243687 0.199466
0.506981 0.225650 0.204776
0.503014 0.212589 0.209873
0.504784 0.203464 0.215579
0.511437 0.197574 0.222263
0.523217 0.194369 0.230350
0.533715 0.192294 0.240146
0.548425 0.192935 0.251469
0.569543 0.196262 0.264988
0.597375 0.202914 0.281254
0.632410 0.212985 0.300847
0.673732 0.227451 0.324559
0.720577 0.247166 0.353399
0.000000 0.411933 0.223026
0.000000 0.411841 0.222660
0.000000 0.411414 0.222599
0.000000 0.410742 0.221927
0.000000 0.409339 0.220859
0.000000 0.407538 0.219394
0.000000 0.405371 0.217533
0.017365 0.402533 0.215305
0.211093 0.396979 0.236637
0.285252 0.390478 0.262852
0.336461 0.384588 0.294072
0.368170 0.379706 0.330999
0.420020 0.410803 0.407111
0.460822 0.432868 0.420630
0.512444 0.435126 0.372503
0.556756 0.428534 0.330449
0.594873 0.416815 0.293523
0.627955 0.402747 0.261143
0.657893 0.388190 0.232700
0.673762 0.366735 0.217563
0.658930 0.331670 0.226902
0.648219 0.304631 0.234134
0.643061 0.284398 0.241215
0.644068 0.270237 0.248478
0.650568 0.260655 0.256840
0.662104 0.255253 0.266453
0.677333 0.252750 0.277958
0.690242 0.250828 0.292027
0.709682 0.253605 0.308690
0.735500 0.261448 0.328496
0.767056 0.274449 0.352575
0.804166 0.294163 0.381903
0.000000 0.495308 0.263127
0.000000 0.495125 0.263249
0.000000 0.494057 0.262364
0.000000 0.492195 0.261326
0.000000 0.489540 0.259464
0.000000 0.486549 0.257664
0.000000 0.484962 0.255985
0.116213 0.483040 0.253788
0.230106 0.480964 0.260533
0.325780 0.478279 0.289220
0.396246 0.476204 0.323095
0.449683 0.474647 0.363348
0.484962 0.473671 0.410040
0.498848 0.475013 0.464240
0.533654 0.501183 0.497841
0.581170 0.503075 0.441352
0.621332 0.495094 0.391180
0.654932 0.481605 0.346838
0.684474 0.466072 0.308202
0.711543 0.450538 0.274723
0.737484 0.436133 0.245396
0.741299 0.407874 0.240177
0.731563 0.374884 0.249516
0.727199 0.349950 0.258061
0.727962 0.331518 0.266667
0.733669 0.318700 0.276280
0.745418 0.311681 0.287327
0.762142 0.309270 0.300572
0.777859 0.307469 0.317693
0.797574 0.310643 0.338293
0.822965 0.320256 0.362768
0.852873 0.336736 0.392157
0.000000 0.575006 0.303136
0.000000 0.574609 0.302922
0.000000 0.572778 0.301701
0.000000 0.570947 0.300359
0.000000 0.568170 0.298741
0.000000 0.564782 0.296117
0.000000 0.561089 0.293400
0.155459 0.557519 0.290623
0.243351 0.553948 0.287510
0.337224 0.551324 0.306096
0.419013 0.549523 0.339086
0.483864 0.548211 0.377905
0.532525 0.547204 0.422431
0.563745 0.546014 0.472541
0.573175 0.544274 0.526970
0.597162 0.569909 0.577417
0.638666 0.569787 0.515099
0.674403 0.559197 0.456764
0.705531 0.544518 0.405737
0.732998 0.528130 0.361120
0.758663 0.512383 0.322911
0.784207 0.498390 0.289555
0.810117 0.487037 0.259892
0.808286 0.455085 0.265995
0.805692 0.427039 0.276402
0.807340 0.405249 0.286748
0.813870 0.390600 0.298375
0.825589 0.382055 0.311467
0.842405 0.379583 0.327306
0.859800 0.379278 0.348058
0.877714 0.382513 0.373602
0.899840 0.394171 0.403998
0.000000 0.649897 0.346929
0.000000 0.649592 0.346624
0.000000 0.647944 0.345434
0.000000 0.645167 0.343389
0.000000 0.641566 0.340826
0.000000 0.637110 0.337377
0.000000 0.632685 0.334234
0.195132 0.628443 0.330571
0.273625 0.624384 0.326940
0.339269 0.621118 0.325017
0.431312 0.619379 0.357153
0.503441 0.618647 0.394873
0.560693 0.617762 0.438056
0.603082 0.616632 0.485603
0.629541 0.614588 0.536797
0.636713 0.611353 0.588647
0.650141 0.634211 0.651698
0.685512 0.632197 0.588281
0.718227 0.620874 0.527214
0.747585 0.605127 0.470649
0.774563 0.588434 0.420935
0.800229 0.573175 0.378241
0.825345 0.559686 0.341314
0.850462 0.548577 0.308934
0.871183 0.535515 0.286442
0.871336 0.506462 0.297917
0.875151 0.484474 0.310124
0.882841 0.468849 0.324224
0.894926 0.460273 0.340856
0.911070 0.458869 0.361242
0.927520 0.460609 0.387671
0.942962 0.466072 0.421027
0.000000 0.713313 0.392493
0.000000 0.713313 0.392370
0.000000 0.712367 0.391699
0.000000 0.710689 0.390021
0.000000 0.708156 0.387823
0.000000 0.705043 0.384894
0.160739 0.701991 0.382086
0.247105 0.698939 0.378912
0.313603 0.695705 0.375982
0.372259 0.692256 0.372137
0.440223 0.689143 0.382910
0.516228 0.686671 0.418463
0.577111 0.684169 0.458167
0.624903 0.680873 0.501701
0.659815 0.677119 0.547448
0.680751 0.672663 0.594415
0.686091 0.668391 0.642054
0.692958 0.687282 0.708003
0.721614 0.685725 0.653986
0.751339 0.674800 0.594385
0.779873 0.660517 0.538506
0.807065 0.645136 0.487129
0.833097 0.630488 0.441413
0.858152 0.617639 0.401831
0.882719 0.606867 0.367285
0.907195 0.598291 0.337194
0.922118 0.583032 0.328496
0.927794 0.561669 0.342504
0.936248 0.546563 0.359350
0.947539 0.538476 0.379461
0.960845 0.536767 0.403632
0.973419 0.538354 0.435340
0.000000 0.764645 0.441352
0.000000 0.764431 0.441108
0.000000 0.763851 0.440681
0.000000 0.762661 0.439094
0.045258 0.760861 0.437079
0.172396 0.758572 0.434730
0.238590 0.755947 0.431586
0.296300 0.753140 0.428443
0.349432 0.750027 0.424872
0.399176 0.746670 0.420783
0.447395 0.742916 0.416663
0.516869 0.739986 0.441321
0.581720 0.737148 0.479255
0.633997 0.733944 0.519493
0.674891 0.730220 0.561578
0.704372 0.726192 0.604822
0.721950 0.722042 0.648280
0.726802 0.718379 0.691615
0.731075 0.731685 0.746548
0.751156 0.732753 0.714595
0.777707 0.723690 0.660731
0.804929 0.711177 0.607874
0.831418 0.697505 0.558251
0.857206 0.683742 0.512261
0.882200 0.671351 0.471199
0.906493 0.660761 0.435218
0.930297 0.652522 0.404303
0.953613 0.646296 0.378027
0.964752 0.631098 0.384314
0.973358 0.617548 0.403693
0.983398 0.610315 0.427375
0.994079 0.609277 0.456153
0.200381 0.806394 0.497688
0.204929 0.806546 0.497688
0.291539 0.824582 0.528954
0.303288 0.823789 0.527733
0.320134 0.822416 0.525566
0.341833 0.820615 0.522576
0.369177 0.818265 0.519036
0.399268 0.815702 0.515038
0.432654 0.812924 0.510826
0.467811 0.809995 0.506645
0.503655 0.806577 0.501244
0.543847 0.802792 0.500145
0.605982 0.799008 0.534051
0.657404 0.794827 0.569818
0.698909 0.790341 0.606592
0.730983 0.785702 0.643854
0.753536 0.780636 0.680720
0.766537 0.775998 0.716152
0.769650 0.771969 0.749447
0.771511 0.779324 0.789792
0.783871 0.781308 0.774838
0.804623 0.774044 0.731746
0.828092 0.763363 0.685695
0.852659 0.750607 0.638758
0.876860 0.737209 0.593652
0.900633 0.724483 0.552117
0.923674 0.713191 0.514916
0.946258 0.703853 0.482704
0.968383 0.696803 0.455756
0.989319 0.691463 0.435920
0.997314 0.679683 0.457191
1.000000 0.673610 0.483589
0.349920 0.842008 0.562371
0.356237 0.843290 0.565179
0.365454 0.844327 0.567590
0.377142 0.844938 0.569177
0.391424 0.844877 0.569512
0.406867 0.843870 0.567895
0.425116 0.842252 0.564965
0.446082 0.840055 0.561028
0.470436 0.837705 0.556664
0.497475 0.835142 0.552361
0.526177 0.832303 0.547539
0.556023 0.829007 0.541802
0.600061 0.825315 0.553521
0.652003 0.821561 0.585809
0.695583 0.817533 0.619501
0.730861 0.813474 0.653742
0.758053 0.809445 0.687617
0.777493 0.805722 0.720363
0.789059 0.802548 0.751247
0.792782 0.800046 0.779995
0.794736 0.805539 0.813077
0.803769 0.809903 0.810758
0.820859 0.804990 0.776822
0.840848 0.797055 0.739864
0.862669 0.786954 0.700618
0.885557 0.775692 0.660426
0.908507 0.764645 0.622431
0.931151 0.754665 0.587945
0.953399 0.746395 0.558221
0.974975 0.740139 0.533776
0.995850 0.735805 0.514366
1.000000 0.731014 0.512810
0.430243 0.862333 0.609033
0.435950 0.863340 0.611933
0.443030 0.864286 0.614557
0.451698 0.864897 0.616358
0.461799 0.864866 0.617060
0.472297 0.864134 0.615595
0.484382 0.862882 0.612940
0.498970 0.861234 0.609552
0.516045 0.859373 0.605890
0.535607 0.857237 0.601465
0.557183 0.854917 0.596765
0.580591 0.852232 0.591577
0.605035 0.849210 0.585565
0.651209 0.845701 0.609064
0.694911 0.842100 0.639490
0.731350 0.838437 0.670466
0.760891 0.834897 0.700893
0.783719 0.831571 0.729885
0.800076 0.828672 0.757565
0.810086 0.826322 0.783413
0.813779 0.824491 0.807126
0.815549 0.828336 0.833768
0.822110 0.833677 0.839506
0.835935 0.830472 0.812924
0.852476 0.824704 0.783780
0.871366 0.817105 0.752499
0.891752 0.808560 0.720333
0.913115 0.799832 0.688594
0.934783 0.791958 0.659388
0.956176 0.785336 0.633845
0.976928 0.780209 0.612970
0.996918 0.776394 0.596216
0.501946 0.879362 0.655451
0.506035 0.880125 0.657954
0.511437 0.880766 0.660060
0.517784 0.881132 0.661799
0.524559 0.881163 0.662257
0.531609 0.880613 0.660975
0.540002 0.879667 0.658900
0.549920 0.878447 0.656031
0.562005 0.877012 0.652613
0.575860 0.875303 0.648676
0.592004 0.873503 0.644617
0.609735 0.871397 0.640009
0.628687 0.868986 0.634546
0.653773 0.866209 0.635065
0.696223 0.862882 0.662348
0.732692 0.859709 0.690181
0.763302 0.856870 0.717556
0.788296 0.854307 0.743984
0.808011 0.852293 0.769436
0.822507 0.850767 0.793210
0.831907 0.849821 0.815274
0.836149 0.849332 0.835264
0.838132 0.852262 0.856291
0.843168 0.858152 0.866972
0.854368 0.856687 0.847410
0.867887 0.853269 0.826169
0.883543 0.848508 0.803861
0.901030 0.843107 0.781064
0.919677 0.837613 0.758999
0.938872 0.832578 0.738582
0.958160 0.828183 0.720516
0.977081 0.824460 0.704952
0.583917 0.897673 0.712917
0.585534 0.897887 0.713832
0.587335 0.897948 0.714168
0.589593 0.897795 0.713863
0.592554 0.897429 0.712917
0.596155 0.896788 0.711299
0.600946 0.895964 0.709041
0.607172 0.894987 0.706477
0.615290 0.893858 0.703639
0.625116 0.892638 0.700771
0.636561 0.891264 0.697475
0.649287 0.889677 0.693690
0.663142 0.887877 0.689387
0.678065 0.885832 0.684230
0.706081 0.883146 0.694697
0.740078 0.880217 0.717922
0.769284 0.877470 0.740658
0.794064 0.874937 0.762844
0.814328 0.872709 0.783963
0.830381 0.870878 0.803983
0.842130 0.869444 0.822568
0.849790 0.868345 0.839750
0.853239 0.867552 0.855467
0.854429 0.868956 0.871794
0.857847 0.874449 0.885069
0.867063 0.873686 0.869200
0.878630 0.871672 0.852628
0.892241 0.868833 0.835782
0.907500 0.865599 0.819120
0.923919 0.862272 0.803189
0.940978 0.859159 0.788571
0.958251 0.856352 0.775418
0.632837 0.909087 0.748898
0.633936 0.909239 0.749569
0.635218 0.909331 0.749813
0.637018 0.909209 0.749660
0.639277 0.908934 0.749172
0.641840 0.908476 0.747738
0.645228 0.907866 0.746090
0.649836 0.907103 0.744106
0.655634 0.906279 0.742000
0.662898 0.905303 0.739620
0.671321 0.904265 0.736995
0.680873 0.903075 0.734096
0.691524 0.901701 0.730739
0.703182 0.900175 0.726955
0.715694 0.898466 0.722469
0.745754 0.895995 0.740475
0.773892 0.893553 0.760159
0.798093 0.891325 0.779171
0.818692 0.889372 0.797543
0.835721 0.887663 0.814908
0.849241 0.886320 0.831205
0.859312 0.885252 0.846403
0.865995 0.884459 0.860502
0.869200 0.883879 0.873472
0.867765 0.882231 0.884062
0.870146 0.887388 0.899107
0.878202 0.887480 0.886259
0.888426 0.886625 0.873198
0.900542 0.885252 0.860288
0.914092 0.883635 0.847898
0.928801 0.882078 0.836484
0.944091 0.880613 0.826261
0.683131 0.920897 0.786343
0.684504 0.921141 0.787167
0.685420 0.921202 0.787411
0.686183 0.920989 0.786923
0.686671 0.920653 0.785702
0.687617 0.920043 0.784054
0.688838 0.919310 0.781827
0.690852 0.918486 0.779355
0.693935 0.917540 0.776699
0.698177 0.916564 0.774044
0.703243 0.915496 0.770962
0.709773 0.914336 0.767910
0.717189 0.913085 0.764523
0.725460 0.911681 0.760678
0.734615 0.910063 0.756435
0.749569 0.908110 0.757534
0.775570 0.905638 0.773800
0.798856 0.903410 0.790097
0.819333 0.901518 0.806119
0.837064 0.899992 0.821714
0.851835 0.898741 0.836545
0.863554 0.897704 0.850370
0.872190 0.896788 0.863066
0.877867 0.895933 0.874815
0.880552 0.895109 0.885557
0.881010 0.895109 0.896178
0.882933 0.899107 0.908934
0.889342 0.900206 0.901396
0.898375 0.900145 0.890867
0.909148 0.899809 0.880797
0.921386 0.899382 0.871519
0.934478 0.898924 0.863066
0.713863 0.928832 0.809171
0.714931 0.929046 0.809903
0.715938 0.929107 0.810208
0.716823 0.929046 0.810117
0.717769 0.928832 0.809537
0.718959 0.928527 0.808682
0.720668 0.928130 0.807584
0.723049 0.927642 0.806302
0.726101 0.927123 0.804868
0.730037 0.926543 0.803494
0.734463 0.925872 0.801633
0.739742 0.925078 0.799710
0.745510 0.924193 0.797299
0.751949 0.923125 0.794522
0.758938 0.921904 0.791226
0.766629 0.920592 0.787625
0.784421 0.918669 0.794797
0.805692 0.916625 0.808011
0.825071 0.914824 0.821378
0.842191 0.913359 0.834470
0.856992 0.912108 0.847135
0.869322 0.911070 0.859098
0.879179 0.910216 0.870390
0.886625 0.909453 0.880858
0.891539 0.908751 0.890623
0.894072 0.908171 0.899687
0.894530 0.908049 0.908568
0.896300 0.911284 0.919341
0.901671 0.913268 0.916136
0.909880 0.914092 0.908110
0.919493 0.914611 0.900511
0.930053 0.914641 0.893095
0.746456 0.937316 0.833127
0.747036 0.937407 0.833494
0.747433 0.937407 0.833494
0.747982 0.937346 0.833249
0.748623 0.937163 0.832792
0.749447 0.936889 0.832059
0.750637 0.936553 0.831113
0.752285 0.936156 0.830045
0.754543 0.935698 0.828885
0.757443 0.935241 0.827695
0.760891 0.934691 0.826261
0.764920 0.934112 0.824704
0.769528 0.933410 0.822965
0.774624 0.932616 0.820951
0.780117 0.931701 0.818448
0.786160 0.930694 0.815610
0.792996 0.929595 0.812711
0.812528 0.927733 0.823728
0.830503 0.926055 0.834867
0.846860 0.924681 0.846006
0.861295 0.923491 0.856901
0.873808 0.922484 0.867308
0.884215 0.921569 0.877165
0.892576 0.920745 0.886473
0.898863 0.920012 0.895201
0.903105 0.919371 0.903349
0.905364 0.918853 0.911070
0.905730 0.918486 0.918425
0.907256 0.921111 0.927733
0.911681 0.923461 0.927428
0.918944 0.924590 0.920806
0.927520 0.925414 0.914488
0.772763 0.944579 0.852262
0.773129 0.944640 0.852445
0.773617 0.944701 0.852567
0.774166 0.944640 0.852506
0.774990 0.944610 0.852384
0.776242 0.944518 0.852232
0.778225 0.944518 0.852262
0.780880 0.944518 0.852445
0.784085 0.944518 0.852659
0.787808 0.944549 0.852934
0.792020 0.944579 0.853147
0.796475 0.944518 0.853178
0.801175 0.944366 0.852934
0.806027 0.944091 0.852384
0.810880 0.943664 0.851347
0.815824 0.943084 0.849790
0.821164 0.942382 0.848020
0.830716 0.941405 0.849912
0.846220 0.940032 0.858518
0.860533 0.938811 0.867216
0.873533 0.937774 0.875761
0.885039 0.936858 0.884062
0.894987 0.935973 0.891997
0.903288 0.935210 0.899535
0.910002 0.934478 0.906706
0.915129 0.933837 0.913481
0.918608 0.933196 0.919921
0.920409 0.932616 0.925933
0.920592 0.932128 0.931701
0.921294 0.933562 0.938750
0.924407 0.935729 0.940246
0.930755 0.937011 0.935027
0.806729 0.953643 0.876341
0.806821 0.953643 0.876341
0.806882 0.953613 0.876219
0.807004 0.953552 0.875975
0.807370 0.953429 0.875700
0.807950 0.953307 0.875334
0.808865 0.953155 0.874968
0.810056 0.953002 0.874540
0.811734 0.952850 0.874113
0.813779 0.952667 0.873686
0.816281 0.952483 0.873228
0.819059 0.952300 0.872709
0.822263 0.952026 0.872099
0.825620 0.951751 0.871305
