20 Preset/Dark Style/【3】LUT video cho PR-AE-FCPX/19Tones (6)/19tones.pack-02.06.Vinyl.cube
# Created by Adobe Lightroom plugin Export LUT (1.24.0)
# www.johnrellis.com/lightroom/exportlut.htm
# Preset: 19tones.pack-02.06.Vinyl
# Color profile: E:\lut插件\exportlut.1.24\exportlut.lrplugin\color profiles\Rec709gamma2.4.icc
LUT_3D_SIZE 32
DOMAIN_MIN 0.0 0.0 0.0
DOMAIN_MAX 1.0 1.0 1.0
0.082429 0.176150 0.201572
0.080568 0.176028 0.201450
0.071168 0.175723 0.201083
0.049165 0.174807 0.200259
0.017975 0.173190 0.198978
0.000000 0.171115 0.197177
0.000000 0.169345 0.195438
0.000000 0.167514 0.193759
0.000000 0.165438 0.191714
0.025696 0.163577 0.189578
0.090394 0.161898 0.187594
0.123995 0.160220 0.185489
0.156435 0.158358 0.183688
0.189822 0.156466 0.181857
0.224613 0.154391 0.180484
0.260777 0.151888 0.179507
0.298314 0.149081 0.178927
0.336858 0.145907 0.179049
0.377447 0.141848 0.179843
0.420966 0.136690 0.181125
0.466102 0.130495 0.182925
0.513573 0.122713 0.185245
0.564141 0.112154 0.187655
0.620264 0.098543 0.190463
0.678767 0.081849 0.193759
0.739803 0.062074 0.197574
0.800900 0.081331 0.202090
0.861265 0.110933 0.207675
0.917082 0.147951 0.215000
0.966796 0.188418 0.224826
1.000000 0.229252 0.238224
1.000000 0.269322 0.255741
0.083070 0.175662 0.201205
0.081636 0.175692 0.201328
0.074220 0.175204 0.200717
0.051575 0.174258 0.200198
0.019013 0.172702 0.198611
0.000000 0.170565 0.196963
0.000000 0.168948 0.195315
0.000000 0.167117 0.193484
0.000000 0.165255 0.191592
0.026703 0.163394 0.189456
0.090791 0.161715 0.187472
0.123598 0.160250 0.185336
0.156130 0.158419 0.183536
0.189181 0.156741 0.181857
0.223911 0.154726 0.180453
0.259861 0.152316 0.179507
0.297490 0.149722 0.178897
0.335973 0.146426 0.179202
0.376867 0.142550 0.179782
0.420356 0.137484 0.181247
0.465370 0.131502 0.182895
0.512749 0.123659 0.185214
0.563470 0.113771 0.187747
0.619196 0.100771 0.190433
0.678187 0.085786 0.193851
0.738827 0.070832 0.197696
0.800259 0.086580 0.202152
0.860624 0.113741 0.207614
0.916808 0.149599 0.215030
0.966522 0.189456 0.225101
1.000000 0.230106 0.238254
1.000000 0.270146 0.255833
0.084779 0.172976 0.199954
0.081941 0.173037 0.200259
0.073335 0.173068 0.200137
0.058839 0.172152 0.199130
0.033234 0.170260 0.197452
0.000000 0.168460 0.196017
0.000000 0.167025 0.194491
0.000000 0.165591 0.192752
0.000000 0.164126 0.190829
0.024079 0.162905 0.188907
0.089540 0.161410 0.186893
0.121492 0.160250 0.185031
0.153262 0.158907 0.183352
0.186343 0.157565 0.181674
0.220981 0.155856 0.180240
0.257145 0.153964 0.179416
0.294377 0.151644 0.178988
0.332891 0.148989 0.179263
0.373724 0.145418 0.179995
0.417212 0.140963 0.181277
0.462257 0.135439 0.183230
0.509483 0.128634 0.185397
0.560388 0.119539 0.187930
0.616358 0.108064 0.190890
0.675196 0.096895 0.194125
0.736110 0.090852 0.197940
0.797971 0.098329 0.202487
0.858488 0.122469 0.207889
0.915190 0.156466 0.215305
0.965179 0.194827 0.225315
1.000000 0.234470 0.238590
1.000000 0.273716 0.256229
0.086091 0.167849 0.197421
0.084474 0.167880 0.197696
0.073671 0.168307 0.197696
0.054963 0.167941 0.197635
0.032166 0.166995 0.196231
0.013947 0.165621 0.194247
0.000000 0.164096 0.192721
0.000000 0.163027 0.191226
0.000000 0.162173 0.189517
0.025483 0.161624 0.187808
0.085664 0.161044 0.186038
0.117525 0.160372 0.184268
0.148836 0.159792 0.182681
0.181521 0.159213 0.181247
0.215640 0.158175 0.180117
0.251133 0.157076 0.179263
0.288701 0.155428 0.179110
0.327184 0.153353 0.179538
0.367834 0.150942 0.180240
0.410864 0.147555 0.181674
0.455756 0.142977 0.183780
0.503166 0.137362 0.185946
0.553765 0.130861 0.188418
0.610101 0.121401 0.191379
0.669673 0.112764 0.194705
0.730770 0.110262 0.198550
0.792844 0.118105 0.203006
0.854368 0.138216 0.208682
0.911376 0.169345 0.215702
0.962066 0.205722 0.225711
1.000000 0.243351 0.238834
1.000000 0.281254 0.256565
0.087495 0.160678 0.193576
0.086061 0.160708 0.193729
0.079164 0.161074 0.194858
0.055573 0.161349 0.194461
0.031464 0.161440 0.194369
0.010773 0.161318 0.192966
0.001495 0.161013 0.190799
0.000000 0.160189 0.188968
0.000855 0.159854 0.187778
0.025238 0.160006 0.186313
0.078248 0.160372 0.184878
0.110903 0.160861 0.183505
0.141756 0.161074 0.182010
0.173434 0.161410 0.180819
0.206851 0.161532 0.179934
0.242161 0.161410 0.179355
0.279484 0.160830 0.179324
0.317815 0.159945 0.179843
0.358434 0.158389 0.180880
0.401099 0.156344 0.182589
0.445350 0.153750 0.184360
0.493111 0.149722 0.186770
0.543999 0.144717 0.189395
0.600580 0.138399 0.192294
0.660273 0.133669 0.195682
0.722469 0.132967 0.199527
0.785245 0.140505 0.203891
0.847440 0.158663 0.209384
0.905882 0.186435 0.216617
0.957488 0.220066 0.226474
1.000000 0.255772 0.239658
1.000000 0.292576 0.257450
0.080873 0.156039 0.189792
0.079469 0.156100 0.189944
0.076783 0.156130 0.190677
0.057221 0.156527 0.190555
0.037934 0.156924 0.190249
0.019806 0.156893 0.190158
0.006561 0.157565 0.189059
0.006744 0.158022 0.187198
0.012696 0.158175 0.185763
0.028565 0.158480 0.184604
0.066682 0.159701 0.183597
0.102480 0.161074 0.182467
0.131930 0.162539 0.181338
0.162661 0.163973 0.180545
0.194949 0.165164 0.179965
0.230106 0.166415 0.179568
0.267002 0.167178 0.179812
0.305211 0.167605 0.180606
0.345495 0.167605 0.181857
0.387732 0.166964 0.183413
0.431861 0.165805 0.185458
0.478981 0.163851 0.187869
0.530358 0.161013 0.190707
0.586694 0.157656 0.193698
0.647303 0.155428 0.197116
0.710109 0.156954 0.200839
0.774472 0.164797 0.205356
0.837888 0.181674 0.210819
0.897581 0.207614 0.217746
0.950774 0.238254 0.227604
0.996643 0.272496 0.240970
1.000000 0.307286 0.258732
0.055238 0.155764 0.186374
0.054932 0.155764 0.186526
0.052644 0.155795 0.186679
0.046387 0.155917 0.186862
0.035676 0.156161 0.186252
0.028016 0.156313 0.186099
0.020935 0.156832 0.185885
0.023835 0.157961 0.185153
0.034302 0.158785 0.183932
0.051148 0.159274 0.182895
0.070344 0.159854 0.182284
0.098238 0.161532 0.181643
0.124483 0.163882 0.181125
0.152712 0.166476 0.180575
0.183108 0.169223 0.180362
0.215579 0.171603 0.180453
0.251560 0.173709 0.180789
0.289647 0.175631 0.181643
0.329290 0.177157 0.183169
0.370855 0.177890 0.185000
0.414893 0.178286 0.186984
0.461952 0.178195 0.189609
0.512627 0.177859 0.192386
0.569024 0.177157 0.195438
0.630732 0.177127 0.198856
0.694636 0.180545 0.202823
0.760189 0.189334 0.207218
0.825193 0.205875 0.212558
0.887175 0.229862 0.219516
0.942168 0.259068 0.229252
0.989654 0.291325 0.242435
1.000000 0.324987 0.260319
0.010651 0.161837 0.184604
0.010925 0.161837 0.184451
0.012238 0.161654 0.184146
0.012482 0.161471 0.183383
0.016785 0.161044 0.182956
0.023041 0.160922 0.182773
0.030426 0.161563 0.182528
0.042756 0.162264 0.182406
0.068482 0.164553 0.181765
0.086824 0.164858 0.181338
0.097688 0.165072 0.181247
0.107515 0.165591 0.181247
0.117891 0.166140 0.181704
0.144381 0.169680 0.181765
0.174411 0.173312 0.181918
0.206027 0.176944 0.182406
0.240208 0.180270 0.183139
0.275914 0.183474 0.183932
0.312810 0.186252 0.185306
0.351476 0.188632 0.186831
0.395056 0.190494 0.189090
0.441199 0.192416 0.191653
0.491707 0.193881 0.194369
0.547784 0.195682 0.197604
0.610163 0.197848 0.201297
0.675349 0.203281 0.205142
0.742672 0.212833 0.209781
0.809567 0.229496 0.215061
0.873655 0.252903 0.221805
0.931029 0.281346 0.231266
0.980499 0.312383 0.244480
1.000000 0.344762 0.262486
0.000000 0.174014 0.184695
0.000000 0.174014 0.184390
0.000000 0.173831 0.183627
0.000000 0.173526 0.181918
0.000000 0.172793 0.180697
0.000000 0.171664 0.180758
0.020935 0.171969 0.180667
0.047028 0.172885 0.180484
0.082155 0.174105 0.180362
0.105501 0.176913 0.179995
0.118898 0.176577 0.180545
0.129335 0.175998 0.181460
0.138857 0.176059 0.182437
0.148898 0.176486 0.183688
0.162966 0.177920 0.184848
0.194430 0.182681 0.185672
0.227817 0.187228 0.186587
0.262577 0.191287 0.187778
0.299382 0.195132 0.189181
0.337804 0.198611 0.190890
0.378210 0.201968 0.192813
0.421057 0.205295 0.194827
0.467811 0.208621 0.197086
0.523705 0.212345 0.200504
0.586053 0.217044 0.204166
0.652735 0.223819 0.208194
0.721431 0.235203 0.212711
0.790372 0.252293 0.218021
0.857053 0.275761 0.224796
0.917571 0.303716 0.233951
0.969390 0.334356 0.246921
1.000000 0.366033 0.265354
0.000000 0.192416 0.187594
0.000000 0.192264 0.187289
0.000000 0.191958 0.185946
0.000000 0.191592 0.183627
0.000000 0.190799 0.179873
0.000000 0.189212 0.180484
0.000000 0.187625 0.181186
0.032471 0.188998 0.181064
0.083955 0.190249 0.181033
0.110414 0.191653 0.180941
0.136629 0.194858 0.180972
0.153719 0.194400 0.182376
0.164034 0.192599 0.184237
0.173892 0.191470 0.185916
0.183383 0.190890 0.187839
0.191836 0.190646 0.189517
0.212711 0.193484 0.191073
0.247532 0.198764 0.192264
0.283604 0.203830 0.193973
0.321477 0.208408 0.195682
0.361456 0.213016 0.197757
0.404334 0.217502 0.199893
0.450965 0.222171 0.202396
0.502342 0.227481 0.205081
0.559258 0.234012 0.207767
0.626642 0.242588 0.211856
0.697017 0.255222 0.216526
0.768154 0.273167 0.221927
0.837644 0.297032 0.228336
0.901396 0.325689 0.237430
0.956176 0.356451 0.250278
1.000000 0.387915 0.268833
0.000000 0.216068 0.193423
0.000000 0.215946 0.192996
0.000000 0.215763 0.191684
0.000000 0.215061 0.188754
0.000000 0.214359 0.184360
0.000000 0.212955 0.182284
0.000000 0.210300 0.183444
0.005432 0.209720 0.184268
0.074464 0.211246 0.184298
0.112093 0.212985 0.184390
0.141054 0.214694 0.184237
0.171786 0.218051 0.184451
0.193454 0.218051 0.186679
0.203403 0.213901 0.189120
0.212253 0.211093 0.191318
0.220584 0.209018 0.193515
0.228397 0.207706 0.195712
0.236179 0.206882 0.197787
0.265782 0.211612 0.199527
0.303258 0.217350 0.201236
0.342962 0.223056 0.203525
0.384924 0.228702 0.205814
0.431189 0.234806 0.208377
0.482277 0.241459 0.211124
0.539055 0.249424 0.214115
0.601373 0.259525 0.217197
0.668818 0.273198 0.220859
0.742367 0.292241 0.226352
0.814939 0.316991 0.232883
0.882658 0.346380 0.241611
0.940948 0.377905 0.254398
0.989807 0.409857 0.273075
0.000000 0.244694 0.202243
0.000000 0.244694 0.201816
0.000000 0.244205 0.200076
0.000000 0.243717 0.196902
0.000000 0.242771 0.191806
0.000000 0.241581 0.185885
0.000000 0.239017 0.187625
0.000000 0.235904 0.189548
0.046937 0.236820 0.190036
0.110811 0.238468 0.190005
0.144869 0.240208 0.190066
0.176730 0.242222 0.189944
0.209293 0.244694 0.190158
0.237339 0.245914 0.192935
0.246342 0.239567 0.195926
0.254337 0.234714 0.198550
0.261418 0.230838 0.200961
0.268223 0.227878 0.203159
0.274876 0.225925 0.205325
0.283360 0.224826 0.207370
0.322393 0.231907 0.209751
0.363958 0.238773 0.212100
0.409827 0.246189 0.215091
0.460151 0.254246 0.218021
0.516625 0.263676 0.221256
0.579278 0.275090 0.224643
0.645960 0.289525 0.228122
0.714565 0.308782 0.231785
0.789181 0.334600 0.238010
0.860929 0.365423 0.246616
0.923339 0.398138 0.259342
0.975525 0.431403 0.278325
0.000000 0.277287 0.213474
0.000000 0.277287 0.213199
0.000000 0.277073 0.211704
0.000000 0.276280 0.207767
0.000000 0.275364 0.202487
0.000000 0.274144 0.195224
0.000000 0.271702 0.193301
0.000000 0.268101 0.195377
0.010071 0.265202 0.197574
0.104707 0.266911 0.197574
0.145449 0.268650 0.197665
0.181399 0.270542 0.197848
0.215946 0.272435 0.197910
0.250309 0.274601 0.198032
0.285039 0.277775 0.201236
0.292912 0.268864 0.204440
0.299809 0.261753 0.207492
0.305943 0.256107 0.210025
0.311711 0.251530 0.212467
0.317327 0.248051 0.214511
0.323003 0.245426 0.216495
0.341497 0.247074 0.218936
0.386511 0.255833 0.221958
0.436286 0.265293 0.225254
0.492134 0.276005 0.228824
0.554345 0.288945 0.232517
0.621912 0.304723 0.236515
0.692012 0.324926 0.240452
0.763027 0.350378 0.244938
0.836179 0.382208 0.252445
0.903380 0.417151 0.265110
0.959533 0.451942 0.284642
0.000000 0.312291 0.226963
0.000000 0.312291 0.226871
0.000000 0.311894 0.224460
0.000000 0.311345 0.221042
0.000000 0.310338 0.215640
0.000000 0.308934 0.207462
0.000000 0.306920 0.200168
0.000000 0.303319 0.202640
0.000000 0.298802 0.205570
0.094209 0.297826 0.207309
0.144015 0.299657 0.207370
0.184695 0.301579 0.207401
0.222385 0.303716 0.207523
0.259281 0.305791 0.207614
0.296025 0.308049 0.207736
0.337896 0.313878 0.210941
0.344396 0.302556 0.214664
0.349889 0.292821 0.217777
0.354711 0.285191 0.220371
0.359197 0.278782 0.222629
0.363745 0.273777 0.224918
0.369451 0.270115 0.227115
0.376806 0.268009 0.229618
0.410864 0.274296 0.232853
0.465553 0.286503 0.236881
0.527398 0.300664 0.241062
0.595666 0.317937 0.245274
0.667170 0.339208 0.249790
0.740139 0.365698 0.254826
0.811643 0.397436 0.260807
0.880827 0.433967 0.271977
0.941466 0.471046 0.291783
0.000000 0.350866 0.242618
0.000000 0.350652 0.242008
0.000000 0.350317 0.240024
0.000000 0.349767 0.236393
0.000000 0.348760 0.230472
0.000000 0.347234 0.222293
0.000000 0.345373 0.212070
0.000000 0.342077 0.210971
0.000000 0.337469 0.214206
0.060822 0.332067 0.217929
0.141878 0.333379 0.218235
0.187625 0.335424 0.218479
0.228458 0.337804 0.218723
0.267613 0.340063 0.218875
0.306554 0.342504 0.218845
0.345739 0.345006 0.218845
0.394507 0.354162 0.221958
0.401282 0.340948 0.225925
0.405005 0.328649 0.229221
0.408362 0.318486 0.231876
0.411902 0.310216 0.234104
0.416602 0.303868 0.236484
0.423224 0.299687 0.238956
0.431647 0.296941 0.241703
0.442267 0.295995 0.244785
0.498299 0.310124 0.249516
0.566339 0.328649 0.254368
0.639521 0.351263 0.259464
0.714565 0.379004 0.265049
0.788876 0.412238 0.271977
0.858518 0.449439 0.281682
0.921538 0.488624 0.299992
0.000000 0.393408 0.260502
0.000000 0.393347 0.259922
0.000000 0.392981 0.258061
0.000000 0.392248 0.253727
0.000000 0.391241 0.247898
0.000000 0.389654 0.239200
0.000000 0.387762 0.228489
0.000000 0.384863 0.219974
0.000000 0.380072 0.223392
0.000000 0.374609 0.227390
0.138125 0.370520 0.230625
0.190249 0.372717 0.230686
0.234745 0.375219 0.230838
0.276493 0.377813 0.230808
0.317754 0.380438 0.230777
0.358648 0.383429 0.230869
0.399908 0.386572 0.230777
0.451362 0.396887 0.233249
0.463630 0.384802 0.237644
0.465736 0.369726 0.241093
0.468238 0.357275 0.243931
0.471992 0.347631 0.246555
0.477485 0.340337 0.249210
0.485115 0.335271 0.252018
0.495491 0.332525 0.255161
0.508995 0.331853 0.258854
0.535485 0.336950 0.263523
0.609735 0.360876 0.269413
0.686732 0.390204 0.275975
0.763760 0.424964 0.283757
0.837613 0.464607 0.294530
0.901549 0.505028 0.311284
0.000000 0.440986 0.280766
0.000000 0.440742 0.279942
0.000000 0.440314 0.277928
0.000000 0.439734 0.274022
0.000000 0.438697 0.267552
0.000000 0.436957 0.258396
0.000000 0.434730 0.246677
0.000000 0.432136 0.232212
0.000000 0.427680 0.232792
0.000000 0.421881 0.236851
0.102998 0.415076 0.241581
0.191501 0.413916 0.243503
0.240635 0.416541 0.243534
0.286015 0.419226 0.243565
0.329320 0.422309 0.243412
0.372412 0.425574 0.243381
0.415320 0.428870 0.243076
0.458350 0.432563 0.242710
0.511711 0.444373 0.244480
0.531243 0.435431 0.249149
0.532799 0.417762 0.253086
0.535882 0.403906 0.256291
0.540429 0.392889 0.259586
0.547234 0.384680 0.262516
0.556359 0.379278 0.265690
0.568994 0.376593 0.269413
0.585412 0.376837 0.274083
0.606348 0.380377 0.279667
0.656397 0.398840 0.286809
0.736782 0.435767 0.296056
0.814359 0.477790 0.308202
0.882689 0.521202 0.326574
0.000000 0.493355 0.303563
0.000000 0.493111 0.302678
0.000000 0.492958 0.301061
0.000000 0.491981 0.296147
0.000000 0.490944 0.289647
0.000000 0.489296 0.279881
0.000000 0.486915 0.266697
0.000000 0.484321 0.250980
0.000000 0.480201 0.241642
0.000000 0.474342 0.246067
0.000000 0.467170 0.250797
0.188388 0.459236 0.256474
0.244877 0.461830 0.256474
0.294347 0.464790 0.256199
0.340978 0.468116 0.256199
0.386481 0.471778 0.255955
0.431250 0.475288 0.255711
0.475868 0.479347 0.255222
0.520012 0.483742 0.254856
0.572930 0.496559 0.256260
0.600855 0.493202 0.261326
0.603540 0.474128 0.265873
0.607599 0.458839 0.269596
0.613245 0.446723 0.273259
0.621149 0.437903 0.276890
0.632349 0.432654 0.280888
0.647181 0.430915 0.285557
0.666346 0.432959 0.291569
0.690425 0.439643 0.299107
0.720027 0.451179 0.308873
0.789151 0.489021 0.322759
0.862486 0.536095 0.343053
0.000000 0.549554 0.329351
0.000000 0.549523 0.329046
0.000000 0.548943 0.326329
0.000000 0.548363 0.322118
0.000000 0.547173 0.314336
0.000000 0.545617 0.303990
0.000000 0.543542 0.290257
0.000000 0.540764 0.273045
0.000000 0.537469 0.251713
0.000000 0.531762 0.254856
0.000000 0.524804 0.260105
0.130220 0.516716 0.265873
0.247684 0.511742 0.270024
0.301976 0.514885 0.269841
0.352575 0.518486 0.269993
0.401129 0.522057 0.269841
0.447791 0.525963 0.269352
0.493721 0.530297 0.269200
0.538750 0.534844 0.268894
0.582513 0.540002 0.268559
0.633692 0.553460 0.269810
0.669429 0.556878 0.276036
0.673091 0.536767 0.280735
0.678401 0.520836 0.285069
0.685786 0.508690 0.289494
0.695583 0.500267 0.293950
0.708797 0.495857 0.299168
0.725673 0.495613 0.305638
0.747158 0.500175 0.313848
0.773556 0.510277 0.324804
0.804837 0.526299 0.339666
0.840879 0.549340 0.360693
0.000000 0.609674 0.359533
0.000000 0.609796 0.359350
0.000000 0.609308 0.356817
0.000000 0.608637 0.351812
0.000000 0.607630 0.343969
0.000000 0.606134 0.333043
0.000000 0.604059 0.317845
0.000000 0.601526 0.298924
0.000000 0.598474 0.275975
0.000000 0.593866 0.265293
0.000000 0.586786 0.270665
0.000000 0.579095 0.276738
0.232883 0.570092 0.283421
0.310124 0.569299 0.285710
0.364752 0.572808 0.285740
0.416083 0.576440 0.285832
0.464820 0.580499 0.285771
0.511894 0.584924 0.285832
0.557000 0.589593 0.285618
0.601038 0.594690 0.285801
0.643641 0.600153 0.285832
0.691890 0.613001 0.287663
0.733608 0.623011 0.296818
0.738949 0.603296 0.301457
0.745876 0.587640 0.305974
0.754818 0.575891 0.310979
0.766537 0.568475 0.316716
0.781216 0.565301 0.323919
0.799710 0.567315 0.333379
0.821805 0.574334 0.345922
0.847471 0.586908 0.363409
0.875700 0.605493 0.387884
0.000000 0.671962 0.395026
0.000000 0.671870 0.394720
0.000000 0.671534 0.392340
0.000000 0.670954 0.387030
0.000000 0.670100 0.379034
0.000000 0.668605 0.367376
0.000000 0.666835 0.351690
0.000000 0.664546 0.331640
0.000000 0.661738 0.306676
0.000000 0.658350 0.278569
0.000000 0.651759 0.284123
0.000000 0.644221 0.290715
0.178225 0.635645 0.297704
0.319005 0.626673 0.305303
0.377111 0.630030 0.305699
0.430549 0.633509 0.306004
0.480598 0.637232 0.306310
0.528099 0.641413 0.306676
0.573663 0.645777 0.307378
0.617670 0.650599 0.307927
0.660212 0.655818 0.308782
0.701381 0.661555 0.309758
0.745907 0.672480 0.312474
0.789792 0.686397 0.327520
0.796841 0.668269 0.331762
0.805142 0.653742 0.336675
0.815366 0.643122 0.342718
0.827939 0.636896 0.350622
0.843137 0.635309 0.361456
0.861173 0.638636 0.376074
0.881865 0.647486 0.396399
0.904356 0.661921 0.424414
0.000000 0.732631 0.435096
0.000000 0.732631 0.434821
0.000000 0.732296 0.432380
0.000000 0.731807 0.426947
0.000000 0.730983 0.418860
0.000000 0.729824 0.407080
0.000000 0.728420 0.391882
0.000000 0.726345 0.370886
0.000000 0.723995 0.345892
0.000000 0.721096 0.314275
0.000000 0.716091 0.303868
0.000000 0.708827 0.310124
0.000000 0.701106 0.317479
0.296910 0.692287 0.325566
0.389624 0.687648 0.331090
0.444282 0.690639 0.332036
0.494820 0.693935 0.333104
0.542809 0.697536 0.334447
0.588159 0.701289 0.335790
0.631647 0.705348 0.337438
0.673518 0.709590 0.339574
0.713710 0.714137 0.341955
0.752316 0.718868 0.344488
0.792782 0.727382 0.348791
0.833585 0.740352 0.371527
0.843534 0.726162 0.376562
0.852873 0.713527 0.381964
0.863859 0.704707 0.389960
0.876646 0.700069 0.401526
0.891447 0.700191 0.417823
0.908049 0.705257 0.440345
0.925689 0.715663 0.471107
0.000000 0.786252 0.477760
0.000000 0.786282 0.477852
0.000000 0.786069 0.475380
0.000000 0.785611 0.470192
0.000000 0.785000 0.462623
0.000000 0.784085 0.451423
0.000000 0.782834 0.436378
0.000000 0.781277 0.417060
0.000000 0.779477 0.393378
0.000000 0.777249 0.363165
0.000000 0.774044 0.333135
0.000000 0.767788 0.339544
0.000000 0.760678 0.346868
0.266941 0.752956 0.354864
0.394293 0.744503 0.363806
0.458625 0.744045 0.367468
0.508721 0.746517 0.369512
0.555749 0.749172 0.371710
0.600275 0.751980 0.374273
0.642878 0.754940 0.377142
0.683497 0.758145 0.380560
0.722286 0.761593 0.384253
0.759579 0.765133 0.388434
0.795224 0.768826 0.393133
0.830594 0.774075 0.398993
0.866453 0.784146 0.426795
0.880156 0.775509 0.436469
0.889860 0.765164 0.443671
0.900847 0.758602 0.454749
0.913085 0.755886 0.471260
0.926421 0.757870 0.494667
0.940368 0.764889 0.527092
0.000000 0.831510 0.522881
0.000000 0.831479 0.522545
0.000000 0.831357 0.520378
0.000000 0.831022 0.516106
0.000000 0.830564 0.509453
0.000000 0.829831 0.499184
0.000000 0.828885 0.486122
0.000000 0.827726 0.469154
0.000000 0.826230 0.447303
0.000000 0.824521 0.420325
0.000000 0.822446 0.387884
0.000000 0.817746 0.381109
0.000000 0.811582 0.388220
0.243717 0.804807 0.396307
0.387121 0.797604 0.404944
0.476844 0.790829 0.413855
0.524773 0.792508 0.416754
0.569757 0.794308 0.419928
0.612329 0.796262 0.423468
0.652857 0.798306 0.427680
0.691737 0.800534 0.432105
0.728756 0.802884 0.436835
0.764248 0.805325 0.442145
0.798215 0.807889 0.447883
0.830655 0.810575 0.454017
0.861692 0.813413 0.460914
0.892515 0.820798 0.492256
0.907591 0.816159 0.508965
0.917144 0.808438 0.519036
0.927550 0.804288 0.534966
0.938537 0.804227 0.558343
0.949187 0.807767 0.588281
0.000000 0.867796 0.569696
0.000000 0.867826 0.569574
0.000000 0.867704 0.567498
0.000000 0.867430 0.564080
0.000000 0.867094 0.558068
0.000000 0.866545 0.549737
0.000000 0.865843 0.538445
0.000000 0.864866 0.523613
0.000000 0.863798 0.505486
0.000000 0.862394 0.483375
0.000000 0.860838 0.455940
0.000000 0.858244 0.434516
0.000000 0.852903 0.441199
0.249973 0.847135 0.448768
0.391974 0.841001 0.457374
0.484993 0.834623 0.466590
0.545983 0.831388 0.473762
0.587335 0.832486 0.477638
0.626856 0.833616 0.482124
0.664576 0.834867 0.486763
0.700771 0.836179 0.491859
0.735195 0.837705 0.497658
0.768276 0.839292 0.503807
0.799924 0.841001 0.510521
0.830228 0.842832 0.517723
0.859190 0.844816 0.525628
0.886931 0.846891 0.533959
0.912505 0.851896 0.566155
0.927489 0.850431 0.590692
0.936431 0.845518 0.605463
0.945159 0.843351 0.624872
0.953582 0.844083 0.649226
0.000000 0.896178 0.617823
0.000000 0.896178 0.617365
0.000000 0.896056 0.615961
0.000000 0.895903 0.613123
0.000000 0.895598 0.608179
0.000000 0.895140 0.601556
0.000000 0.894591 0.592218
0.000000 0.893889 0.580438
0.000000 0.893034 0.566155
0.000000 0.891997 0.548913
0.000000 0.890745 0.527642
0.000000 0.889372 0.503105
0.000000 0.885435 0.503258
0.298070 0.880552 0.510704
0.416938 0.875364 0.518853
0.502251 0.869932 0.527550
0.570336 0.864378 0.537285
0.611536 0.863737 0.542992
0.646540 0.864347 0.547906
0.680171 0.865080 0.553185
0.712581 0.865934 0.559106
0.743801 0.866880 0.565332
0.773861 0.867887 0.572198
0.802701 0.869108 0.579492
0.830350 0.870420 0.587518
0.856779 0.871855 0.596002
0.882109 0.873503 0.605219
0.906371 0.875212 0.614984
0.927642 0.878935 0.645594
0.941009 0.879118 0.672999
0.948486 0.875578 0.687007
0.955871 0.874968 0.706355
0.000000 0.918273 0.667567
0.000000 0.918242 0.667262
0.000000 0.918151 0.666255
0.000000 0.918029 0.663935
0.000000 0.917815 0.660426
0.000000 0.917449 0.655116
0.000000 0.916991 0.647913
0.000000 0.916411 0.639124
0.000000 0.915740 0.628351
0.000000 0.914916 0.615503
0.000000 0.913970 0.600458
0.076020 0.912902 0.582544
0.246952 0.910704 0.572198
0.376806 0.906615 0.579278
0.464881 0.902312 0.586938
0.535454 0.897856 0.595575
0.594934 0.893278 0.604730
0.643671 0.889403 0.613855
0.673274 0.889769 0.619135
0.701991 0.890227 0.624781
0.730068 0.890806 0.631037
0.757321 0.891478 0.637598
0.783536 0.892271 0.644800
0.809018 0.893187 0.652583
0.833433 0.894224 0.660639
0.857023 0.895415 0.669123
0.879149 0.896269 0.676417
0.900481 0.897185 0.683711
0.920806 0.898192 0.691341
0.938323 0.900420 0.713558
0.950683 0.902190 0.741238
0.957488 0.900755 0.756161
0.187686 0.935454 0.718654
0.188266 0.935424 0.718379
0.193668 0.935363 0.717556
0.202335 0.935271 0.716152
0.215305 0.935058 0.713313
0.231632 0.934783 0.709773
0.251774 0.934417 0.705013
0.273136 0.933989 0.698573
0.296971 0.933440 0.691096
0.322148 0.932769 0.682429
0.348455 0.932006 0.672236
0.374762 0.931151 0.660487
0.402045 0.930144 0.647517
0.469551 0.927062 0.652064
