20 Preset/Dark Style/【3】LUT video cho PR-AE-FCPX/19Tones (6)/19tones esco 1.cube
# Created by Adobe Lightroom plugin Export LUT (1.24.0)
# www.johnrellis.com/lightroom/exportlut.htm
# Preset: 19tones esco 1
# Color profile: E:\lut插件\exportlut.1.24\exportlut.lrplugin\color profiles\Rec709gamma2.4.icc
LUT_3D_SIZE 8
DOMAIN_MIN 0.000000 0.000000 0.000000
DOMAIN_MAX 0.903226 0.903226 0.903226
0.105837 0.187747 0.211307
0.108217 0.187900 0.211521
0.137728 0.188571 0.212863
0.228916 0.188693 0.213687
0.430243 0.174594 0.212039
0.748440 0.084993 0.199863
1.000000 0.173983 0.174563
1.000000 0.292973 0.185550
0.104952 0.189273 0.211917
0.107668 0.189120 0.212314
0.138460 0.190799 0.211704
0.213504 0.193240 0.212192
0.384558 0.190188 0.210330
0.689082 0.147036 0.198672
0.952148 0.174289 0.172519
1.000000 0.281102 0.165560
0.097261 0.206210 0.215366
0.105013 0.205875 0.215244
0.126986 0.201633 0.219821
0.225437 0.218753 0.210422
0.418280 0.232944 0.199619
0.747036 0.254368 0.169680
0.995026 0.329656 0.102602
1.000000 0.388952 0.097383
0.000000 0.278264 0.228092
0.006867 0.275242 0.227451
0.138949 0.276677 0.228275
0.242283 0.281865 0.266056
0.511254 0.363500 0.226596
0.818357 0.419837 0.024079
0.990600 0.470436 0.000000
1.000000 0.498939 0.000000
0.000000 0.486641 0.255253
0.000000 0.481880 0.253971
0.000000 0.475715 0.250797
0.330571 0.473854 0.275914
0.479255 0.454047 0.376745
0.688502 0.531914 0.348547
0.932097 0.585229 0.000000
1.000000 0.600580 0.000000
0.000000 0.716274 0.353979
0.000000 0.731899 0.368750
0.174716 0.724300 0.360479
0.395941 0.711269 0.346319
0.610834 0.694423 0.436347
0.726070 0.686610 0.587671
0.831235 0.752193 0.652583
1.000000 0.762844 0.386786
0.466377 0.865354 0.579126
0.482918 0.866453 0.582788
0.509819 0.861784 0.571740
0.567529 0.854948 0.557000
0.653559 0.841917 0.548577
0.785763 0.832639 0.660609
0.846250 0.829984 0.765347
0.882231 0.856443 0.826352
0.742611 0.936065 0.784176
0.744015 0.935760 0.783383
0.752987 0.935271 0.782284
0.773098 0.935058 0.782620
0.765530 0.921874 0.739712
0.833280 0.919524 0.776242
0.894652 0.917510 0.836393
0.920195 0.914244 0.878447
0.105196 0.188022 0.212436
0.107454 0.188083 0.212284
0.129061 0.188724 0.213046
0.198398 0.190951 0.213657
0.361639 0.188876 0.211490
0.648676 0.146853 0.202243
0.917174 0.138308 0.180362
1.000000 0.242802 0.169436
0.104433 0.189273 0.212711
0.108644 0.189639 0.213016
0.133181 0.190982 0.213260
0.201450 0.194125 0.213230
0.357336 0.195499 0.210483
0.634791 0.169924 0.199710
0.885954 0.164492 0.178164
1.000000 0.245304 0.160464
0.104036 0.204471 0.218906
0.107088 0.205020 0.218082
0.128328 0.202426 0.221775
0.221561 0.215335 0.212284
0.384802 0.225040 0.205478
0.661189 0.233982 0.186587
0.904753 0.278660 0.142580
1.000000 0.346563 0.101839
0.024018 0.263005 0.232700
0.045380 0.262486 0.230228
0.132845 0.263828 0.229709
0.206851 0.256779 0.254582
0.396307 0.304692 0.226505
0.689967 0.340337 0.153628
0.905150 0.396216 0.019440
1.000000 0.453773 0.000000
0.000000 0.463935 0.263859
0.000000 0.456580 0.259739
0.000000 0.444007 0.255344
0.288457 0.430152 0.269566
0.411994 0.402838 0.344915
0.626062 0.477119 0.316014
0.891783 0.541314 0.000000
1.000000 0.571405 0.000000
0.000000 0.683528 0.342290
0.000000 0.682948 0.341497
0.000000 0.677607 0.336309
0.347356 0.670314 0.328038
0.573724 0.659266 0.408453
0.703548 0.661189 0.565240
0.818753 0.731136 0.622919
0.997589 0.743191 0.345098
0.400122 0.848356 0.546654
0.398901 0.844785 0.538598
0.435523 0.838865 0.526207
0.515740 0.833371 0.516411
0.622187 0.825132 0.515740
0.766018 0.815946 0.630640
0.828824 0.809262 0.738064
0.868528 0.837461 0.801907
0.716518 0.929107 0.764675
0.723262 0.929992 0.767910
0.732143 0.929198 0.765835
0.754726 0.929015 0.766445
0.783017 0.927276 0.762356
0.836515 0.921416 0.782681
0.892790 0.916014 0.834195
0.918608 0.912444 0.876463
0.100557 0.189090 0.221927
0.108858 0.188815 0.221897
0.131899 0.188937 0.221958
0.214420 0.189029 0.229648
0.390204 0.178134 0.236118
0.706722 0.089967 0.236576
0.955383 0.130282 0.222507
1.000000 0.273930 0.206485
0.102358 0.191012 0.223392
0.109804 0.191073 0.223697
0.134157 0.192264 0.224094
0.210361 0.194125 0.229892
0.375647 0.191012 0.236667
0.683162 0.132448 0.233158
0.928344 0.150057 0.215915
1.000000 0.273533 0.194980
0.098695 0.206027 0.229587
0.106325 0.207004 0.230350
0.140810 0.211154 0.232975
0.233616 0.215763 0.233219
0.430091 0.219455 0.231724
0.718105 0.213291 0.220676
0.937499 0.260838 0.196841
1.000000 0.345342 0.170565
0.035981 0.274205 0.259861
0.083986 0.278111 0.261204
0.145480 0.286839 0.257939
0.245182 0.282719 0.282322
0.483223 0.324376 0.235325
0.749996 0.345068 0.182773
0.944060 0.397772 0.138888
1.000000 0.451087 0.083436
0.000000 0.474434 0.330785
0.000000 0.474830 0.328832
0.000000 0.473762 0.305150
0.309056 0.465919 0.304692
0.473640 0.447913 0.396948
0.685756 0.512352 0.337926
0.914702 0.538903 0.039979
1.000000 0.565148 0.000000
0.000000 0.688594 0.437781
0.000000 0.690425 0.431128
0.146304 0.686091 0.399054
0.370092 0.673823 0.385534
0.573022 0.660304 0.436347
0.708003 0.665858 0.585718
0.830900 0.737423 0.623102
1.000000 0.741360 0.363714
0.504082 0.853422 0.620142
0.494697 0.851194 0.609644
0.491005 0.845151 0.583551
0.546777 0.837186 0.567163
0.625940 0.827390 0.547204
0.772030 0.821134 0.654749
0.839506 0.822049 0.762295
0.884154 0.853452 0.815885
0.736477 0.929015 0.786282
0.733364 0.928344 0.782132
0.737667 0.927672 0.777401
0.764096 0.929046 0.782406
0.789670 0.927214 0.777615
0.839170 0.923796 0.793240
0.896666 0.919524 0.843656
0.922240 0.916503 0.883665
0.094118 0.190066 0.253544
0.109377 0.189670 0.255985
0.155001 0.189792 0.259831
0.220493 0.190097 0.265568
0.432563 0.159670 0.300847
0.732937 0.000000 0.326574
0.940124 0.023987 0.352544
1.000000 0.297978 0.379095
0.094881 0.193027 0.261509
0.108431 0.193362 0.262760
0.158724 0.194675 0.266697
0.231968 0.195682 0.272862
0.444190 0.169100 0.305150
0.736324 0.000000 0.328161
0.932769 0.172824 0.361456
1.000000 0.306218 0.372290
0.030060 0.214176 0.268772
0.064332 0.214145 0.270756
0.147005 0.215702 0.278264
0.244450 0.222293 0.284611
0.485481 0.220188 0.321996
0.769955 0.210269 0.349798
0.969848 0.319005 0.386450
1.000000 0.394842 0.384344
0.000000 0.282506 0.305882
0.000000 0.283726 0.306584
0.138705 0.292699 0.312993
0.291691 0.313329 0.328069
0.523156 0.320165 0.326116
0.764309 0.336584 0.322057
0.950500 0.386847 0.318334
1.000000 0.451209 0.321294
0.000000 0.506310 0.432044
0.000000 0.503929 0.428840
0.206241 0.507805 0.426947
0.377081 0.522850 0.418433
0.553185 0.510399 0.483955
0.766995 0.541619 0.371435
0.950591 0.530297 0.228977
1.000000 0.561303 0.232914
0.275578 0.721096 0.556268
0.334691 0.733913 0.570214
0.414893 0.729458 0.564263
0.486091 0.726589 0.536095
0.614893 0.709071 0.530694
0.743313 0.706142 0.652491
0.861479 0.757595 0.638636
1.000000 0.730770 0.382116
0.575616 0.857237 0.695888
0.588037 0.857694 0.698329
0.626093 0.856779 0.702235
0.633570 0.855222 0.675349
0.684169 0.846403 0.655482
0.789853 0.837736 0.706508
0.852018 0.836881 0.792020
0.901366 0.866728 0.822904
0.783658 0.933257 0.832486
0.786435 0.932952 0.832731
0.785946 0.932616 0.826596
0.788632 0.932525 0.816648
0.807828 0.930205 0.810239
0.839780 0.927276 0.807340
0.900786 0.923888 0.855772
0.928344 0.923186 0.895476
0.044495 0.190097 0.348699
0.097353 0.189639 0.355413
0.183902 0.187900 0.366979
0.320348 0.180209 0.393103
0.466133 0.152163 0.410895
0.773434 0.000000 0.489204
0.968170 0.000000 0.520134
1.000000 0.366796 0.555444
0.000000 0.195438 0.362860
0.075776 0.195285 0.370153
0.185733 0.194003 0.381689
0.327062 0.188540 0.401953
0.483772 0.162020 0.423072
0.781247 0.000000 0.495796
0.966400 0.150515 0.523278
1.000000 0.390326 0.559899
0.000000 0.222812 0.382971
0.000000 0.220706 0.387945
0.149966 0.222934 0.397253
0.332097 0.227939 0.422522
0.506920 0.221622 0.442786
0.768978 0.203891 0.493843
0.945861 0.291936 0.522667
1.000000 0.444221 0.560967
0.000000 0.300298 0.407752
0.000000 0.300328 0.409003
0.000000 0.302281 0.417853
0.314336 0.320836 0.461097
0.558099 0.354681 0.492500
0.783902 0.400488 0.531121
0.929564 0.472145 0.558312
1.000000 0.566064 0.597864
0.000000 0.460304 0.486519
0.000000 0.463905 0.489540
0.000000 0.473243 0.496315
0.345800 0.491859 0.509911
0.562066 0.515862 0.525841
0.763210 0.522545 0.514549
0.923552 0.549126 0.510674
1.000000 0.585077 0.512016
0.177646 0.681727 0.608423
0.225742 0.682765 0.608911
0.332616 0.676722 0.601434
0.469154 0.676661 0.597406
0.589868 0.682551 0.586328
0.737819 0.699306 0.672053
0.887449 0.729458 0.595727
1.000000 0.677577 0.392889
0.553735 0.851835 0.737972
0.556420 0.849821 0.734798
0.583215 0.845914 0.729610
0.655573 0.846616 0.735531
0.704952 0.845151 0.722377
0.773892 0.834287 0.718807
0.850004 0.834592 0.800900
0.912169 0.859617 0.798184
0.740810 0.927062 0.829221
0.744350 0.926604 0.829191
0.760250 0.925414 0.830503
0.801083 0.928069 0.843046
0.811856 0.927855 0.832364
0.837278 0.924895 0.824186
0.894469 0.921538 0.855650
0.926116 0.920714 0.896147
0.000000 0.185275 0.573388
0.000000 0.183139 0.580224
0.236912 0.172885 0.588769
0.434241 0.135958 0.614588
0.676204 0.000000 0.666285
0.825925 0.000000 0.681056
0.977325 0.221683 0.698512
1.000000 0.473518 0.720424
0.000000 0.194186 0.555566
0.000000 0.192935 0.558129
0.214755 0.185458 0.569848
0.410712 0.160525 0.595972
0.649348 0.107454 0.645258
0.801541 0.000000 0.660853
0.963622 0.227878 0.685389
1.000000 0.464912 0.710750
0.000000 0.230869 0.585290
0.000000 0.230625 0.587579
0.163668 0.230350 0.606287
0.415473 0.224155 0.625269
0.661311 0.241703 0.665766
0.814420 0.254551 0.680659
0.959594 0.382452 0.702541
1.000000 0.547051 0.726223
0.000000 0.339788 0.609461
0.000000 0.337530 0.611505
0.000000 0.336034 0.633051
0.407111 0.362890 0.677455
0.692988 0.437659 0.719539
0.839963 0.488746 0.732509
0.949340 0.588739 0.748226
1.000000 0.676326 0.765408
0.000000 0.478828 0.625208
0.000000 0.478706 0.625391
0.000000 0.480018 0.628962
0.229191 0.485328 0.639429
0.596277 0.536004 0.687221
0.793240 0.607538 0.718563
0.910857 0.675929 0.744167
0.978271 0.727230 0.763119
0.000000 0.663294 0.685115
0.000000 0.670588 0.691737
0.217685 0.673793 0.693446
0.428656 0.681971 0.698451
0.600214 0.695155 0.705745
0.764096 0.730434 0.730465
0.895140 0.746578 0.731930
0.985351 0.760769 0.731014
0.573968 0.857877 0.808011
0.592126 0.859922 0.811063
0.635279 0.860960 0.813931
0.689113 0.860380 0.813596
0.749660 0.858824 0.811093
0.801083 0.854582 0.799130
0.865263 0.852262 0.834318
0.944976 0.858335 0.785550
0.742000 0.928557 0.862486
0.742397 0.927733 0.861112
0.753567 0.926757 0.859983
0.781827 0.927306 0.862058
0.819120 0.927031 0.864378
0.847959 0.926268 0.859251
0.887358 0.923003 0.862242
0.928649 0.923461 0.904723
0.000000 0.172396 0.762936
0.142153 0.168429 0.768551
0.321721 0.148867 0.774960
0.517357 0.087190 0.791440
0.712490 0.000000 0.810605
0.882902 0.246616 0.831144
0.973693 0.266178 0.827726
1.000000 0.444465 0.803281
0.000000 0.185672 0.748043
0.038270 0.182773 0.754971
0.296880 0.167758 0.762387
0.493874 0.127260 0.776120
0.692256 0.093690 0.795499
0.864988 0.239994 0.815610
0.956603 0.245304 0.810239
1.000000 0.412634 0.787961
0.000000 0.236759 0.766079
0.000000 0.235721 0.767819
0.245090 0.230472 0.772061
0.479316 0.222599 0.784268
0.685878 0.242557 0.799954
0.859922 0.361517 0.820737
0.955535 0.395331 0.822782
1.000000 0.535180 0.808164
0.000000 0.343359 0.779599
0.000000 0.338994 0.779141
0.000000 0.336736 0.783505
0.436774 0.355474 0.797238
0.676295 0.406744 0.813107
0.851377 0.529015 0.833799
0.941985 0.572442 0.838193
0.993072 0.665400 0.829038
0.000000 0.479194 0.751339
0.000000 0.474495 0.747829
0.000000 0.469001 0.753292
0.214450 0.473884 0.776699
0.602350 0.524865 0.801877
0.811917 0.627649 0.825345
0.909972 0.681941 0.834958
0.971618 0.761074 0.846555
0.000000 0.651453 0.785122
0.000000 0.652094 0.785855
0.000000 0.652461 0.786984
0.233341 0.653376 0.789364
0.485512 0.653742 0.791379
0.765591 0.727840 0.826902
0.891691 0.797421 0.851987
0.956085 0.834531 0.865476
0.368017 0.816739 0.830564
0.393622 0.818540 0.832059
0.459144 0.820035 0.832700
0.563592 0.824308 0.835080
0.673304 0.829892 0.837369
0.777646 0.839597 0.842252
0.868559 0.855955 0.852811
0.948577 0.860258 0.849454
0.713222 0.925383 0.891844
0.719417 0.925658 0.892393
0.746731 0.927611 0.895903
0.785367 0.929412 0.899687
0.826688 0.930968 0.902647
0.862730 0.931456 0.902129
0.894957 0.930388 0.896757
0.935088 0.930449 0.919524
0.291447 0.182467 0.891539
0.326116 0.180728 0.893156
0.428534 0.167727 0.892973
0.577264 0.159365 0.898192
0.732479 0.200412 0.904051
0.870848 0.327123 0.909148
0.970031 0.496803 0.912810
1.000000 0.511345 0.908415
0.264256 0.195224 0.885618
0.303807 0.194034 0.887541
0.414588 0.184665 0.889006
0.566155 0.177646 0.893553
0.724086 0.214572 0.899809
0.864622 0.333135 0.905364
0.965301 0.494728 0.908721
1.000000 0.502922 0.903746
0.175753 0.253971 0.884703
0.232517 0.253758 0.885527
0.373510 0.250797 0.886290
0.550744 0.264775 0.894560
0.713558 0.305089 0.898802
0.853941 0.406470 0.902464
0.954650 0.556146 0.906493
1.000000 0.560174 0.902281
0.000000 0.344274 0.883635
0.000000 0.346807 0.884977
0.262821 0.351995 0.886503
0.500511 0.373327 0.891814
0.689754 0.425574 0.897154
0.837858 0.521813 0.901671
0.937896 0.654505 0.906462
0.996979 0.660945 0.903960
0.000000 0.472114 0.872557
0.000000 0.472023 0.874571
0.000000 0.464820 0.877348
0.345830 0.476967 0.884916
0.624903 0.526360 0.890013
0.803006 0.610925 0.895720
0.915160 0.723537 0.903441
0.974517 0.747463 0.905211
0.000000 0.622766 0.867948
0.000000 0.619471 0.866453
0.000000 0.609033 0.863188
0.000000 0.594018 0.861204
0.441230 0.608240 0.876066
0.752102 0.701167 0.892821
0.897093 0.802182 0.908934
0.958618 0.837308 0.916869
0.000000 0.786435 0.888823
0.000000 0.785794 0.888426
0.152010 0.783871 0.887205
0.362982 0.783536 0.886809
0.523156 0.784268 0.886381
0.668605 0.788174 0.886625
0.864012 0.848692 0.908476
0.948119 0.894530 0.926207
0.612116 0.903716 0.914214
0.616968 0.903593 0.914031
0.642329 0.904234 0.914153
0.691981 0.906828 0.915648
0.752316 0.910399 0.917388
0.816068 0.915221 0.919646
0.879606 0.922484 0.923674
0.937407 0.932860 0.930663
