20 Preset/Dark Style/【3】LUT video cho PR-AE-FCPX/19Tones (6)/19tones esco 1.cube
# Created by Adobe Lightroom plugin Export LUT (1.24.0)
# www.johnrellis.com/lightroom/exportlut.htm
# Preset: 19tones esco 1
# Color profile: E:\lut插件\exportlut.1.24\exportlut.lrplugin\color profiles\Rec709gamma2.4.icc
LUT_3D_SIZE 5
DOMAIN_MIN 0.000000 0.000000 0.000000
DOMAIN_MAX 0.903226 0.903226 0.903226
0.105837 0.187747 0.211307
0.126192 0.188479 0.212467
0.313512 0.185702 0.213504
0.844907 0.039612 0.192660
1.000000 0.292973 0.185550
0.101015 0.199588 0.214023
0.119570 0.196597 0.216892
0.314702 0.216312 0.206149
0.832975 0.238010 0.165286
1.000000 0.372686 0.129549
0.000000 0.377844 0.240177
0.000000 0.359899 0.236728
0.361028 0.366186 0.316533
0.825132 0.489967 0.076631
1.000000 0.547478 0.000000
0.000000 0.782498 0.427405
0.253696 0.777554 0.420508
0.529503 0.756771 0.409796
0.766415 0.733944 0.640833
0.971588 0.799527 0.549889
0.742611 0.936065 0.784176
0.749660 0.935363 0.782376
0.747585 0.922667 0.741268
0.852445 0.919036 0.793240
0.920195 0.914244 0.878447
0.103212 0.188663 0.217807
0.121584 0.188418 0.217563
0.269718 0.189548 0.225406
0.744167 0.100404 0.216861
1.000000 0.259525 0.172305
0.101930 0.198947 0.222507
0.127291 0.201999 0.224460
0.293278 0.209049 0.224186
0.752499 0.196994 0.205447
1.000000 0.327245 0.147036
0.000000 0.352178 0.276219
0.012634 0.350378 0.262150
0.316838 0.333257 0.309819
0.768215 0.424384 0.152926
1.000000 0.520165 0.000000
0.272282 0.776455 0.495857
0.309514 0.775692 0.474769
0.526726 0.755398 0.444892
0.765469 0.732815 0.652003
0.973846 0.792691 0.542504
0.751186 0.934813 0.796201
0.754452 0.933959 0.792020
0.784512 0.931853 0.786679
0.863096 0.925963 0.814054
0.927398 0.922148 0.890745
0.086946 0.190341 0.289494
0.149264 0.189517 0.297551
0.318303 0.183413 0.320317
0.818540 0.000000 0.410986
1.000000 0.362768 0.487709
0.000000 0.209476 0.312169
0.133150 0.209903 0.318547
0.347753 0.213107 0.341375
0.813870 0.156802 0.416052
1.000000 0.445350 0.511528
0.000000 0.357427 0.382025
0.000000 0.364294 0.386542
0.419287 0.402747 0.415137
0.811582 0.428931 0.407263
1.000000 0.517479 0.417578
0.370214 0.765286 0.632074
0.419684 0.755184 0.619989
0.578241 0.756222 0.602228
0.777646 0.747524 0.705013
0.994293 0.754238 0.494179
0.756252 0.927489 0.823972
0.773312 0.927703 0.828214
0.792966 0.927916 0.818235
0.846769 0.922393 0.813077
0.923980 0.918395 0.891020
0.000000 0.183780 0.601099
0.192447 0.174228 0.617273
0.553002 0.061982 0.667506
0.859007 0.000000 0.710964
1.000000 0.451423 0.737209
0.000000 0.217105 0.613245
0.105653 0.213565 0.623957
0.541619 0.190158 0.670069
0.843748 0.211917 0.703853
1.000000 0.501488 0.736202
0.000000 0.377478 0.602441
0.000000 0.373480 0.609400
0.454444 0.402136 0.671809
0.814633 0.503044 0.713466
0.989380 0.679408 0.767178
0.000000 0.719600 0.738857
0.237156 0.717250 0.735592
0.538811 0.730739 0.743526
0.794400 0.767636 0.766171
0.972839 0.780850 0.756466
0.744686 0.929015 0.872404
0.757259 0.928893 0.872587
0.806485 0.930144 0.875914
0.863890 0.929412 0.872496
0.929808 0.924712 0.907744
0.291447 0.182467 0.891539
0.397009 0.171450 0.892607
0.655879 0.170199 0.901305
0.900633 0.372320 0.910460
1.000000 0.511345 0.908415
0.218112 0.237064 0.886412
0.355566 0.234012 0.888212
0.637629 0.251316 0.896452
0.888273 0.426276 0.905364
1.000000 0.553155 0.904753
0.000000 0.403326 0.880766
0.000000 0.398444 0.882292
0.556359 0.440314 0.888518
0.849363 0.582086 0.896544
0.985595 0.701289 0.903258
0.000000 0.672786 0.877714
0.000000 0.666011 0.875334
0.048310 0.646845 0.871946
0.782162 0.743038 0.894926
0.955261 0.852628 0.918791
0.612116 0.903716 0.914214
0.633661 0.903899 0.914031
0.721675 0.908598 0.916594
0.832242 0.916808 0.920470
0.937407 0.932860 0.930663
