20 Preset/Dark Style/【3】LUT video cho PR-AE-FCPX/19Tones (6)/19tones.pack-02.07.BMX.cube
# Created by Adobe Lightroom plugin Export LUT (1.24.0)
# www.johnrellis.com/lightroom/exportlut.htm
# Preset: 19tones.pack-02.07.BMX
# Color profile: E:\lut插件\exportlut.1.24\exportlut.lrplugin\color profiles\Rec709gamma2.4.icc
LUT_3D_SIZE 8
DOMAIN_MIN 0.000000 0.000000 0.000000
DOMAIN_MAX 0.903226 0.903226 0.903226
0.000000 0.037751 0.061921
0.000000 0.052186 0.083070
0.000000 0.085817 0.108736
0.002991 0.093324 0.120394
0.034241 0.096864 0.126467
0.089113 0.104494 0.138674
0.159121 0.124300 0.169253
0.288975 0.166110 0.227970
0.000000 0.083558 0.083192
0.000000 0.080354 0.094392
0.070924 0.091035 0.107698
0.092226 0.095338 0.124697
0.100526 0.101076 0.134310
0.122896 0.108064 0.145571
0.178653 0.124361 0.170809
0.297490 0.161379 0.224521
0.000000 0.236027 0.144869
0.000000 0.234623 0.143526
0.139162 0.211521 0.197574
0.303624 0.225834 0.171054
0.336126 0.167544 0.162570
0.330816 0.143038 0.180117
0.374853 0.145724 0.208408
0.482734 0.175021 0.262486
0.000000 0.495308 0.263127
0.000000 0.489540 0.259464
0.230106 0.480964 0.260533
0.484962 0.473671 0.410040
0.621332 0.495094 0.391180
0.737484 0.436133 0.245396
0.727962 0.331518 0.266667
0.777859 0.307469 0.317693
0.000000 0.764645 0.441352
0.045258 0.760861 0.437079
0.349432 0.750027 0.424872
0.581720 0.737148 0.479255
0.721950 0.722042 0.648280
0.777707 0.723690 0.660731
0.882200 0.671351 0.471199
0.964752 0.631098 0.384314
0.501946 0.879362 0.655451
0.524559 0.881163 0.662257
0.562005 0.877012 0.652613
0.628687 0.868986 0.634546
0.763302 0.856870 0.717556
0.831907 0.849821 0.815274
0.854368 0.856687 0.847410
0.919677 0.837613 0.758999
0.713863 0.928832 0.809171
0.717769 0.928832 0.809537
0.726101 0.927123 0.804868
0.745510 0.924193 0.797299
0.784421 0.918669 0.794797
0.856992 0.912108 0.847135
0.891539 0.908751 0.890623
0.901671 0.913268 0.916136
0.828946 0.960052 0.891844
0.829679 0.959960 0.891569
0.833768 0.959655 0.890745
0.842802 0.959289 0.889769
0.846860 0.955779 0.879179
0.881346 0.953307 0.891539
0.917540 0.950225 0.915892
0.934844 0.947356 0.935973
0.000000 0.054353 0.088258
0.000000 0.045289 0.097169
0.000000 0.092134 0.114199
0.018372 0.099275 0.128450
0.073426 0.100679 0.132631
0.110048 0.106203 0.142153
0.157626 0.120668 0.164584
0.261418 0.153872 0.212345
0.000000 0.079652 0.100984
0.000000 0.093202 0.114137
0.033936 0.101564 0.128664
0.095033 0.105074 0.136660
0.114382 0.105440 0.139864
0.142031 0.109621 0.148318
0.184482 0.122499 0.168917
0.279118 0.152621 0.213352
0.000000 0.237644 0.190494
0.000000 0.241123 0.182376
0.157900 0.225132 0.220829
0.313115 0.228580 0.186007
0.310307 0.165652 0.177035
0.301152 0.142306 0.180972
0.342962 0.141390 0.198276
0.441657 0.161837 0.243351
0.000000 0.482551 0.300420
0.000000 0.480018 0.286870
0.223636 0.471107 0.278416
0.458808 0.451087 0.401587
0.578943 0.457038 0.367376
0.687861 0.394598 0.238407
0.653437 0.289830 0.257481
0.715389 0.273686 0.297093
0.000000 0.758267 0.465919
0.116976 0.753567 0.456275
0.347570 0.739681 0.440009
0.565057 0.721065 0.474952
0.705806 0.702663 0.633112
0.765743 0.704799 0.638941
0.869627 0.651270 0.453407
0.948089 0.605676 0.376135
0.497200 0.874174 0.657710
0.507988 0.873320 0.656031
0.548394 0.869322 0.647425
0.619532 0.861967 0.631861
0.755917 0.851133 0.711116
0.828641 0.846433 0.812985
0.851804 0.853117 0.842893
0.917540 0.831266 0.749416
0.707240 0.925780 0.806058
0.707424 0.924987 0.803677
0.715877 0.923095 0.798581
0.737453 0.920409 0.791867
0.777951 0.915862 0.789670
0.853208 0.909331 0.843503
0.887968 0.905425 0.887175
0.898314 0.909789 0.912352
0.824796 0.958526 0.889677
0.826780 0.958679 0.890166
0.830594 0.958343 0.889158
0.839902 0.957977 0.888182
0.852995 0.957031 0.885435
0.882963 0.953918 0.893980
0.917540 0.950134 0.916320
0.934813 0.947265 0.936217
0.000000 0.090974 0.124758
0.000000 0.091005 0.145998
0.182223 0.060578 0.227573
0.279973 0.135103 0.238163
0.000000 0.113558 0.140993
0.009247 0.106874 0.137148
0.110994 0.121920 0.160678
0.250736 0.160128 0.216220
0.000000 0.106416 0.137423
0.000000 0.114870 0.160525
0.202060 0.127291 0.247257
0.227359 0.165988 0.233280
0.000000 0.117067 0.144228
0.048798 0.114900 0.148104
0.131380 0.126406 0.166842
0.265507 0.160555 0.218173
0.000000 0.194827 0.218936
0.000000 0.210758 0.233585
0.237003 0.280278 0.300267
0.241886 0.222843 0.254063
0.219913 0.174075 0.213046
0.216403 0.150515 0.194217
0.261448 0.150484 0.202670
0.388891 0.176669 0.247959
0.000000 0.509178 0.422492
0.123323 0.513970 0.425116
0.316930 0.521263 0.409277
0.523339 0.506188 0.485115
0.623896 0.475257 0.397955
0.618006 0.344945 0.303655
0.583917 0.265751 0.286137
0.656764 0.255863 0.312474
0.342290 0.767819 0.596277
0.378058 0.767208 0.595300
0.427771 0.762814 0.560082
0.580682 0.745602 0.549645
0.733486 0.736782 0.696284
0.784939 0.722072 0.661372
0.875792 0.647700 0.472633
0.927520 0.573968 0.421027
0.604456 0.873655 0.742123
0.604181 0.873747 0.737148
0.606653 0.871702 0.716182
0.655787 0.864225 0.700069
0.762234 0.854490 0.741360
0.834501 0.852598 0.829526
0.858000 0.857542 0.846464
0.920104 0.832242 0.757443
0.748409 0.926299 0.839780
0.746273 0.925841 0.836698
0.745266 0.924346 0.828061
0.760403 0.921324 0.820737
0.786831 0.917052 0.810330
0.858213 0.912047 0.855772
0.893462 0.910399 0.896544
0.905058 0.915404 0.916808
0.839139 0.958618 0.901274
0.838254 0.958495 0.900084
0.840116 0.958282 0.898253
0.849668 0.958282 0.898222
0.861112 0.957366 0.895445
0.886625 0.955230 0.900633
0.920745 0.952026 0.921721
0.937591 0.949615 0.940246
0.000000 0.109377 0.168368
0.000000 0.114382 0.191989
0.139986 0.143038 0.316014
0.541955 0.000000 0.478859
0.859098 0.120668 0.555352
0.337743 0.208225 0.294865
0.000000 0.110048 0.137423
0.044800 0.126009 0.159548
0.000000 0.127840 0.180087
0.000000 0.136172 0.201785
0.156283 0.180056 0.324041
0.560815 0.167514 0.498421
0.818814 0.231815 0.548211
0.295415 0.207156 0.278691
0.000000 0.103151 0.127474
0.083192 0.132723 0.168154
0.000000 0.127291 0.153964
0.000000 0.144106 0.171511
0.177890 0.252689 0.307317
0.579553 0.354101 0.534752
0.612451 0.353491 0.478309
0.119966 0.174044 0.207095
0.058503 0.134401 0.167544
0.200870 0.169772 0.216251
0.150179 0.349065 0.364569
0.190249 0.361639 0.377295
0.331243 0.420996 0.438758
0.587701 0.568566 0.592798
0.484810 0.394263 0.427070
0.393927 0.281559 0.321447
0.374517 0.229191 0.279301
0.463264 0.231571 0.299260
0.415259 0.788571 0.724392
0.444404 0.787198 0.723140
0.545953 0.785580 0.722774
0.651820 0.783871 0.712367
0.766445 0.776944 0.770626
0.807645 0.726955 0.676875
0.851469 0.592859 0.505638
0.862150 0.489815 0.459205
0.658167 0.881071 0.809323
0.674098 0.882750 0.813779
0.705806 0.880522 0.815030
0.731807 0.877440 0.803281
0.781613 0.868223 0.797391
0.849638 0.867918 0.859373
0.869261 0.864469 0.852567
0.926146 0.828946 0.763485
0.780270 0.927825 0.871733
0.784878 0.927825 0.872740
0.801114 0.927214 0.875700
0.802243 0.926238 0.865568
0.819242 0.922301 0.857176
0.868254 0.918303 0.876768
0.901610 0.917723 0.909850
0.913420 0.921508 0.921111
0.864530 0.959930 0.921141
0.866575 0.959899 0.921630
0.866667 0.959869 0.919493
0.867399 0.959930 0.915282
0.875944 0.958892 0.912413
0.891295 0.957458 0.910552
0.925505 0.954955 0.929839
0.942504 0.953643 0.946990
0.000000 0.138155 0.219272
0.000000 0.145480 0.239963
0.054902 0.184939 0.340795
0.537194 0.231083 0.628687
0.868833 0.228763 0.773220
0.998108 0.438544 0.772244
0.856504 0.380987 0.631403
0.417121 0.261692 0.351781
0.000000 0.150484 0.222080
0.000000 0.159335 0.242252
0.098634 0.203647 0.343053
0.535210 0.275761 0.628077
0.869902 0.304051 0.780331
0.990814 0.485634 0.777951
0.831815 0.386511 0.618067
0.381811 0.254368 0.334325
0.000000 0.158328 0.197757
0.000000 0.176242 0.220066
0.133394 0.237552 0.316320
0.497658 0.378302 0.599664
0.853788 0.488167 0.791196
0.958099 0.613275 0.792050
0.695949 0.379889 0.537011
0.228580 0.210361 0.258488
0.000000 0.162722 0.191562
0.006928 0.166598 0.194888
0.097719 0.186007 0.211429
0.427466 0.436103 0.502983
0.818997 0.685786 0.807370
0.844114 0.650111 0.749874
0.347234 0.298741 0.344518
0.104860 0.167727 0.199008
0.296818 0.496742 0.513695
0.320592 0.507713 0.525078
0.415808 0.554162 0.573510
0.588891 0.655451 0.676722
0.781094 0.794003 0.811765
0.690059 0.598779 0.633356
0.587793 0.410468 0.457954
0.589837 0.337224 0.401343
0.666804 0.879850 0.855161
0.676173 0.879667 0.855406
0.706264 0.877348 0.853971
0.754482 0.874601 0.852873
0.799832 0.872618 0.848325
0.857084 0.875059 0.877745
0.874296 0.853880 0.840421
0.926207 0.786740 0.736934
0.784207 0.929015 0.893095
0.786618 0.928588 0.892821
0.798856 0.927581 0.892851
0.825711 0.927123 0.895933
0.843687 0.925780 0.891875
0.869627 0.921172 0.890135
0.907164 0.922454 0.920104
0.918151 0.922118 0.919188
0.851072 0.959564 0.923674
0.853483 0.959472 0.924132
0.863554 0.959228 0.926207
0.883574 0.959991 0.931731
0.888609 0.959960 0.928099
0.899077 0.958648 0.924559
0.927733 0.956878 0.936034
0.945769 0.956237 0.952209
0.000000 0.186282 0.293339
0.000000 0.193545 0.311833
0.097902 0.230014 0.395331
0.400305 0.301640 0.611841
0.844480 0.437690 0.875975
0.979828 0.525048 0.901152
1.000000 0.669520 0.872862
0.997803 0.706081 0.850370
0.000000 0.189456 0.285161
0.000000 0.196872 0.302190
0.103822 0.234104 0.384619
0.390478 0.313481 0.597650
0.832395 0.461677 0.868803
0.971038 0.548699 0.897734
1.000000 0.682155 0.872282
0.991577 0.703517 0.846555
0.000000 0.194766 0.256138
0.000000 0.205356 0.273045
0.135164 0.252689 0.355291
0.377783 0.359197 0.568658
0.802487 0.568933 0.856870
0.943328 0.668849 0.897459
0.978424 0.754208 0.882567
0.964904 0.714199 0.840299
0.000000 0.132082 0.161837
0.000000 0.145235 0.176211
0.114778 0.220157 0.258518
0.344549 0.383886 0.482399
0.755642 0.674983 0.831662
0.911864 0.793423 0.902159
0.954009 0.833494 0.900145
0.907713 0.695033 0.806302
0.092012 0.223362 0.251530
0.101839 0.225742 0.253819
0.138308 0.236637 0.262943
0.208713 0.265507 0.287541
0.643641 0.646906 0.711971
0.886503 0.850156 0.899565
0.903777 0.833890 0.878294
0.631769 0.478340 0.557458
0.417609 0.643397 0.660975
0.435798 0.652308 0.670069
0.497536 0.679896 0.697871
0.612573 0.734615 0.752407
0.752499 0.809049 0.824949
0.869383 0.886656 0.898466
0.806271 0.764828 0.790372
0.786648 0.595361 0.646235
0.790127 0.926574 0.915221
0.796902 0.927977 0.917052
0.818540 0.932403 0.922728
0.842039 0.933501 0.924620
0.866880 0.932891 0.924407
0.887663 0.930816 0.920684
0.917235 0.931182 0.934020
0.926421 0.920897 0.916289
0.856199 0.961456 0.939025
0.857511 0.961273 0.938933
0.864683 0.961120 0.939391
0.878996 0.961334 0.941009
0.898711 0.961486 0.943542
0.913237 0.961578 0.943175
0.929961 0.960174 0.943847
0.951202 0.960601 0.959442
0.089509 0.263798 0.408515
0.108461 0.271702 0.427680
0.186282 0.299260 0.499519
0.384649 0.359625 0.660670
0.700710 0.466529 0.849882
0.935088 0.665888 0.941833
0.995483 0.702449 0.940398
1.000000 0.772946 0.916320
0.084321 0.257023 0.387243
0.105837 0.265873 0.406714
0.174990 0.292882 0.476112
0.363287 0.354803 0.634272
0.683528 0.463264 0.836271
0.927398 0.662898 0.936706
0.990875 0.695155 0.935943
1.000000 0.763699 0.911559
0.119173 0.260472 0.355688
0.133303 0.268772 0.370947
0.186984 0.300389 0.438422
0.349401 0.375006 0.601862
0.664912 0.513512 0.821134
0.907927 0.727871 0.930510
0.972503 0.764309 0.936309
0.991150 0.813443 0.920623
0.085176 0.218845 0.266819
0.105806 0.231571 0.282261
0.176333 0.280522 0.348211
0.317723 0.380194 0.515831
0.626276 0.568475 0.785946
0.884123 0.798123 0.922515
0.952880 0.836942 0.938659
0.976562 0.862150 0.930358
0.000000 0.113466 0.139010
0.000000 0.112001 0.137270
0.000000 0.137148 0.165164
0.175448 0.260594 0.296361
0.504631 0.521233 0.638148
0.842191 0.815122 0.898009
0.936706 0.876677 0.937530
0.966339 0.898222 0.938567
0.176272 0.312840 0.340917
0.181369 0.313512 0.341527
0.200504 0.314763 0.342351
0.236881 0.318914 0.345068
0.296208 0.331762 0.353643
0.764187 0.785092 0.829526
0.930785 0.914946 0.942931
0.943938 0.907866 0.933440
0.531334 0.777218 0.790402
0.545129 0.781582 0.794736
0.585718 0.791470 0.804776
0.659968 0.812894 0.826200
0.751125 0.843992 0.856870
0.843229 0.886351 0.897429
0.921965 0.934966 0.942626
0.880156 0.863859 0.881224
0.839841 0.952331 0.943664
0.843259 0.952941 0.944457
0.858671 0.955962 0.948333
0.882048 0.960571 0.954162
0.906371 0.964569 0.959197
0.924132 0.965087 0.959899
0.939391 0.965240 0.959319
0.957549 0.965728 0.967224
0.259373 0.381445 0.589380
0.268498 0.386542 0.604547
0.305608 0.399481 0.652644
0.442023 0.446021 0.754391
0.646326 0.524651 0.859922
0.838132 0.645777 0.928649
0.963745 0.763546 0.963745
1.000000 0.780789 0.961212
0.249943 0.372381 0.565789
0.259251 0.378424 0.581781
0.293858 0.393378 0.634913
0.427131 0.440375 0.739040
0.635981 0.521965 0.852384
0.833066 0.647517 0.925475
0.961028 0.766445 0.962249
1.000000 0.780423 0.959686
0.251865 0.366949 0.519738
0.259342 0.372808 0.533745
0.289067 0.391760 0.588403
0.409277 0.448859 0.711452
0.619867 0.542473 0.838102
0.821805 0.679500 0.918456
0.952972 0.800534 0.960204
0.993530 0.808682 0.958434
0.227634 0.334051 0.422919
0.238529 0.343114 0.437690
0.276799 0.374609 0.495247
0.365820 0.439368 0.628382
0.577325 0.557427 0.801236
0.803281 0.723232 0.906584
0.941314 0.844511 0.957580
0.980011 0.851652 0.958556
0.099062 0.216861 0.253635
0.111940 0.226902 0.265080
0.160433 0.265721 0.311162
0.287114 0.366979 0.444587
0.469459 0.512718 0.681056
0.755337 0.728359 0.876249
0.922148 0.869261 0.950134
0.968475 0.888823 0.959350
0.047272 0.187564 0.216251
0.039216 0.183383 0.212039
0.021607 0.169406 0.197574
0.001953 0.147799 0.174166
0.241672 0.311192 0.348241
0.644129 0.670588 0.783810
0.900481 0.888914 0.940215
0.963073 0.926696 0.964385
0.313756 0.497139 0.535546
0.315373 0.494453 0.532708
0.323033 0.484993 0.522759
0.345342 0.473518 0.510460
0.377111 0.455604 0.490211
0.420447 0.435279 0.462074
0.845457 0.869108 0.899260
0.961334 0.951507 0.968872
0.697292 0.881956 0.889647
0.700221 0.882200 0.889921
0.716670 0.884672 0.892546
0.751614 0.891508 0.899565
0.797482 0.901732 0.909880
0.850645 0.916747 0.924620
0.907988 0.939025 0.945708
0.960082 0.967590 0.971740
