20 Preset/Dark Style/【3】LUT video cho PR-AE-FCPX/19Tones (6)/19tones.pack-02.07.BMX.cube
# Created by Adobe Lightroom plugin Export LUT (1.24.0)
# www.johnrellis.com/lightroom/exportlut.htm
# Preset: 19tones.pack-02.07.BMX
# Color profile: E:\lut插件\exportlut.1.24\exportlut.lrplugin\color profiles\Rec709gamma2.4.icc
LUT_3D_SIZE 5
DOMAIN_MIN 0.000000 0.000000 0.000000
DOMAIN_MAX 0.903226 0.903226 0.903226
0.000000 0.037751 0.061921
0.000000 0.081727 0.103975
0.016999 0.094972 0.123507
0.103426 0.108156 0.144717
0.288975 0.166110 0.227970
0.000000 0.185702 0.125246
0.066133 0.166659 0.163668
0.266606 0.146242 0.145907
0.266667 0.126406 0.174350
0.436286 0.177554 0.258701
0.000000 0.649897 0.346929
0.195132 0.628443 0.330571
0.629541 0.614588 0.536797
0.800229 0.573175 0.378241
0.894926 0.460273 0.340856
0.583917 0.897673 0.712917
0.607172 0.894987 0.706477
0.706081 0.883146 0.694697
0.849790 0.868345 0.839750
0.907500 0.865599 0.819120
0.828946 0.960052 0.891844
0.832303 0.959747 0.890990
0.839109 0.956298 0.880705
0.892088 0.952514 0.898009
0.934844 0.947356 0.935973
0.000000 0.085084 0.113954
0.114778 0.064515 0.181308
0.000000 0.114412 0.142061
0.075990 0.111116 0.145357
0.268070 0.156863 0.215579
0.000000 0.159152 0.185275
0.151492 0.220523 0.243351
0.185275 0.160678 0.197452
0.197360 0.134646 0.178592
0.375555 0.168246 0.239719
0.119203 0.644953 0.473793
0.273625 0.639368 0.436744
0.625879 0.610407 0.564080
0.779324 0.539208 0.377752
0.842252 0.409186 0.358556
0.645472 0.895781 0.766690
0.650050 0.894774 0.754330
0.716487 0.884154 0.729458
0.853666 0.872190 0.850828
0.908995 0.865415 0.821286
0.839414 0.959930 0.900816
0.841123 0.959655 0.899229
0.854978 0.958618 0.896208
0.897642 0.954864 0.906249
0.938628 0.950469 0.940917
0.000000 0.121981 0.193088
0.000000 0.153933 0.284398
0.728969 0.093385 0.637751
0.743862 0.292882 0.526848
0.005707 0.126894 0.157076
0.000000 0.151034 0.189120
0.086091 0.208682 0.279454
0.742336 0.356603 0.670832
0.585321 0.319951 0.451637
0.000000 0.121981 0.150362
0.228550 0.420905 0.436622
0.333227 0.466346 0.483986
0.704189 0.701869 0.723873
0.511711 0.373816 0.414527
0.518242 0.275914 0.341527
0.706508 0.896941 0.848753
0.727108 0.894408 0.847837
0.784665 0.890990 0.843565
0.868803 0.886687 0.883207
0.916564 0.855131 0.815213
0.856870 0.959075 0.920989
0.866209 0.959167 0.923461
0.876127 0.959350 0.920439
0.900206 0.956817 0.917632
0.943084 0.954009 0.948516
0.000000 0.198428 0.311467
0.011414 0.228122 0.381048
0.592187 0.354376 0.751431
0.986175 0.570245 0.912413
1.000000 0.769345 0.885161
0.000000 0.207004 0.285557
0.099916 0.241825 0.351995
0.567529 0.416083 0.727596
0.959930 0.664759 0.908751
0.996490 0.783047 0.884581
0.000000 0.111086 0.136416
0.000000 0.135592 0.163302
0.433478 0.451575 0.549187
0.905211 0.816129 0.903136
0.917754 0.766262 0.847196
0.449073 0.684474 0.701289
0.497749 0.702388 0.719356
0.685786 0.783688 0.799924
0.884337 0.900847 0.911528
0.811490 0.672175 0.713924
0.859068 0.962036 0.943664
0.866117 0.962036 0.944213
0.891325 0.962554 0.946685
0.921050 0.962890 0.948089
0.952758 0.961852 0.961425
0.259373 0.381445 0.589380
0.286107 0.392798 0.635737
0.540642 0.480903 0.810758
0.877043 0.680842 0.940520
1.000000 0.780789 0.961212
0.255009 0.371954 0.538842
0.282475 0.389502 0.589258
0.514641 0.485878 0.785306
0.865690 0.708034 0.934173
0.996490 0.803830 0.959411
0.180667 0.288701 0.346319
0.225895 0.324437 0.396033
0.405402 0.464363 0.643885
0.826108 0.763882 0.911528
0.973754 0.869322 0.958404
0.133761 0.248356 0.277379
0.123995 0.234470 0.263035
0.096345 0.188510 0.214481
0.697902 0.724605 0.813687
0.962188 0.933532 0.965393
0.697292 0.881956 0.889647
0.710872 0.883665 0.891508
0.773678 0.896269 0.904417
0.864836 0.921569 0.929290
0.960082 0.967590 0.971740
