20 Preset/Dark Style/【3】LUT video cho PR-AE-FCPX/19Tones (6)/19tones.pack-02.06.Vinyl.cube
# Created by Adobe Lightroom plugin Export LUT (1.24.0)
# www.johnrellis.com/lightroom/exportlut.htm
# Preset: 19tones.pack-02.06.Vinyl
# Color profile: E:\lut插件\exportlut.1.24\exportlut.lrplugin\color profiles\Rec709gamma2.4.icc
LUT_3D_SIZE 5
DOMAIN_MIN 0.000000 0.000000 0.000000
DOMAIN_MAX 0.903226 0.903226 0.903226
0.082429 0.176150 0.201572
0.000000 0.167514 0.193759
0.224613 0.154391 0.180484
0.513573 0.122713 0.185245
0.917082 0.147951 0.215000
0.010651 0.161837 0.184604
0.042756 0.162264 0.182406
0.174411 0.173312 0.181918
0.441199 0.192416 0.191653
0.873655 0.252903 0.221805
0.000000 0.350866 0.242618
0.000000 0.342077 0.210971
0.306554 0.342504 0.218845
0.416602 0.303868 0.236484
0.714565 0.379004 0.265049
0.000000 0.732631 0.435096
0.000000 0.726345 0.370886
0.389624 0.687648 0.331090
0.713710 0.714137 0.341955
0.876646 0.700069 0.401526
0.435889 0.949096 0.769711
0.466011 0.947997 0.756497
0.603296 0.940734 0.727779
0.797543 0.928954 0.765316
0.915404 0.932189 0.798032
0.030182 0.159182 0.185306
0.022675 0.156924 0.182925
0.292393 0.131899 0.197848
0.566735 0.111238 0.208957
0.920348 0.179538 0.229191
0.002289 0.158572 0.190311
0.062745 0.171023 0.195987
0.256382 0.185946 0.204990
0.517601 0.196414 0.219944
0.891752 0.264103 0.240940
0.000000 0.368994 0.319280
0.000000 0.363104 0.276951
0.326390 0.355200 0.259739
0.418585 0.310399 0.263127
0.765072 0.401526 0.289311
0.000000 0.745846 0.526360
0.000000 0.739803 0.469215
0.384375 0.700740 0.377783
0.720363 0.721920 0.395911
0.873411 0.699458 0.437537
0.484443 0.948455 0.799710
0.509361 0.947387 0.787778
0.605219 0.942199 0.746792
0.801633 0.929107 0.781918
0.915740 0.932738 0.811337
0.093080 0.181582 0.206607
0.116335 0.196201 0.220554
0.178897 0.239506 0.261265
0.514519 0.274327 0.449409
1.000000 0.000000 0.445899
0.133242 0.207645 0.231418
0.160922 0.227085 0.249577
0.233494 0.277806 0.297826
0.598688 0.280034 0.472206
1.000000 0.107881 0.404669
0.034058 0.271305 0.356451
0.157687 0.293248 0.367956
0.393530 0.401068 0.416205
0.654108 0.401923 0.405951
0.940276 0.469245 0.427924
0.000000 0.765805 0.760006
0.000000 0.781827 0.749111
0.352605 0.760403 0.605829
0.739925 0.748226 0.580621
0.853361 0.685847 0.540093
0.482979 0.953521 0.876707
0.563622 0.950072 0.872221
0.676204 0.943359 0.841337
0.814176 0.930205 0.830381
0.917937 0.935058 0.851560
0.260288 0.296788 0.316320
0.286503 0.315648 0.334874
0.411505 0.409491 0.430213
0.507897 0.490425 0.513573
0.702876 0.677363 0.721035
0.292546 0.319890 0.339178
0.318791 0.339086 0.358343
0.447181 0.438148 0.459785
0.551781 0.532006 0.555993
0.739406 0.685939 0.756222
0.276921 0.312871 0.338262
0.305699 0.329412 0.348699
0.496468 0.480140 0.503044
0.644190 0.630701 0.654566
0.867765 0.714870 0.836973
0.188205 0.505058 0.693355
0.271641 0.523888 0.702266
0.496407 0.610529 0.738857
0.773587 0.791043 0.804562
0.919310 0.773465 0.774990
0.265995 0.890196 0.950896
0.378515 0.903868 0.948913
0.607874 0.945830 0.942321
0.822751 0.942657 0.901030
0.924743 0.940337 0.903014
0.580987 0.561578 0.585809
0.596490 0.577874 0.602106
0.669245 0.659968 0.683223
0.774807 0.786740 0.804868
0.793423 0.807889 0.824918
0.576074 0.556451 0.580621
0.593683 0.574823 0.599084
0.667018 0.657252 0.680598
0.774594 0.786526 0.804685
0.796902 0.811765 0.828580
0.556390 0.536584 0.560601
0.583825 0.564538 0.588739
0.664881 0.654810 0.678187
0.782498 0.795621 0.813291
0.826352 0.843503 0.858335
0.466712 0.525170 0.628809
0.480171 0.524834 0.617182
0.550256 0.543969 0.585412
0.785000 0.798489 0.816007
0.885069 0.901610 0.912200
0.537407 0.764950 0.924743
0.562554 0.772488 0.924163
0.669368 0.812131 0.925353
0.806149 0.873228 0.929107
0.931060 0.943969 0.949828
