20 Preset/Dark Style/【3】LUT video cho PR-AE-FCPX/19Tones (6)/19tones.pack-02.05.Day of shadows.cube
# Created by Adobe Lightroom plugin Export LUT (1.24.0)
# www.johnrellis.com/lightroom/exportlut.htm
# Preset: 19tones.pack-02.05.Day of shadows
# Color profile: E:\lut插件\exportlut.1.24\exportlut.lrplugin\color profiles\Rec709gamma2.4.icc
LUT_3D_SIZE 5
DOMAIN_MIN 0.000000 0.000000 0.000000
DOMAIN_MAX 0.903226 0.903226 0.903226
0.105837 0.187747 0.211307
0.127108 0.192966 0.217502
0.147860 0.196109 0.221958
0.284367 0.213199 0.253758
0.713893 0.287968 0.409247
0.000000 0.357610 0.236728
0.282963 0.310491 0.282353
0.483223 0.253452 0.238376
0.584771 0.205356 0.276921
0.858701 0.299870 0.428870
0.557336 0.864775 0.629755
0.625971 0.855802 0.611597
0.827512 0.807706 0.743893
0.945251 0.758663 0.597345
1.000000 0.668879 0.553399
0.830137 0.942077 0.851072
0.836484 0.940917 0.848325
0.868833 0.935271 0.842161
0.924834 0.919341 0.892210
0.954101 0.911925 0.871855
0.920806 0.972442 0.930144
0.922148 0.972320 0.929625
0.928130 0.971862 0.927367
0.947326 0.968658 0.931273
0.964263 0.962036 0.947539
0.132570 0.204990 0.249516
0.373266 0.174044 0.352575
0.126528 0.199496 0.222721
0.219394 0.215335 0.247562
0.709133 0.293645 0.411627
0.208438 0.335973 0.355230
0.466957 0.438117 0.449928
0.290654 0.236088 0.267735
0.413214 0.225071 0.280430
0.827665 0.313787 0.437537
0.689693 0.867857 0.756069
0.717647 0.864012 0.738643
0.846281 0.830167 0.792325
0.947601 0.761929 0.630854
1.000000 0.660792 0.594812
0.858061 0.942687 0.877806
0.858640 0.942077 0.872648
0.879484 0.937560 0.862486
0.929442 0.924376 0.902525
0.956512 0.915709 0.879301
0.928130 0.972961 0.937255
0.928923 0.972900 0.936553
0.934112 0.972473 0.934539
0.950347 0.969909 0.936797
0.966186 0.964050 0.951446
0.407691 0.367315 0.590051
0.593072 0.405432 0.715419
0.987091 0.567651 0.876951
0.959442 0.607691 0.754604
0.297398 0.289311 0.316838
0.537102 0.509789 0.585382
0.652125 0.590692 0.709346
0.939788 0.750271 0.877287
0.876890 0.572686 0.694301
0.276066 0.284703 0.307805
0.735988 0.805295 0.810422
0.783322 0.823087 0.825437
0.890623 0.881102 0.878019
0.807401 0.623896 0.649134
0.896025 0.580438 0.631922
0.888670 0.946990 0.918639
0.897826 0.946868 0.920043
0.917510 0.945800 0.919097
0.943328 0.939330 0.929686
0.965179 0.925109 0.899199
0.941375 0.974304 0.952300
0.945861 0.974578 0.954253
0.950439 0.975036 0.953826
0.958526 0.974029 0.951843
0.971984 0.970245 0.962585
0.748074 0.695064 0.843229
0.778378 0.711147 0.862242
0.889586 0.771084 0.917754
0.997223 0.833036 0.946380
1.000000 0.890837 0.929168
0.783017 0.758297 0.840208
0.804715 0.772824 0.858915
0.891325 0.823789 0.914458
0.984253 0.870207 0.946777
1.000000 0.900603 0.931731
0.803159 0.780148 0.780301
0.820462 0.802548 0.804623
0.894560 0.884367 0.901152
0.964569 0.925414 0.948699
0.965850 0.902617 0.921050
0.893645 0.921477 0.922026
0.901366 0.924559 0.924773
0.926513 0.936095 0.935271
0.958007 0.955138 0.953552
0.942046 0.905394 0.906554
0.944152 0.976532 0.964660
0.947539 0.976745 0.965362
0.958587 0.977478 0.967864
0.971099 0.978882 0.971038
0.978973 0.977600 0.974548
0.847959 0.824887 0.908110
0.854551 0.826780 0.913024
0.886534 0.837308 0.932036
0.951202 0.861295 0.959442
1.000000 0.890745 0.968902
0.859159 0.844297 0.906401
0.864958 0.846677 0.911437
0.892576 0.857725 0.930571
0.949859 0.880858 0.958099
0.999145 0.904875 0.968841
0.883787 0.880217 0.899657
0.891386 0.887388 0.907530
0.909270 0.900084 0.927916
0.949371 0.922148 0.956451
0.987488 0.940459 0.970977
0.901061 0.900877 0.904417
0.904265 0.902708 0.905241
0.918303 0.912718 0.910948
0.953643 0.950011 0.956146
0.982849 0.969238 0.976867
0.940093 0.961089 0.961883
0.943359 0.962341 0.963012
0.956146 0.967864 0.967987
0.972198 0.975677 0.975280
0.983429 0.982330 0.981689
