20 Preset/Dark Style/【3】LUT video cho PR-AE-FCPX/19Tones (6)/19tones esco 1.cube
# Created by Adobe Lightroom plugin Export LUT (1.24.0)
# www.johnrellis.com/lightroom/exportlut.htm
# Preset: 19tones esco 1
# Color profile: E:\lut插件\exportlut.1.24\exportlut.lrplugin\color profiles\Rec709gamma2.4.icc
LUT_3D_SIZE 32
DOMAIN_MIN 0.0 0.0 0.0
DOMAIN_MAX 1.0 1.0 1.0
0.105837 0.187747 0.211307
0.105837 0.187747 0.211307
0.105837 0.187747 0.211307
0.105837 0.187747 0.211307
0.108217 0.187900 0.211521
0.111879 0.188144 0.211856
0.117983 0.188266 0.212192
0.126192 0.188479 0.212467
0.137728 0.188571 0.212863
0.153567 0.188693 0.213046
0.173068 0.188846 0.213291
0.198001 0.188937 0.213504
0.228916 0.188693 0.213687
0.267308 0.187747 0.213657
0.313512 0.185702 0.213504
0.368048 0.181582 0.212924
0.430243 0.174594 0.212039
0.499184 0.163729 0.210361
0.573541 0.146731 0.208316
0.651209 0.123293 0.205142
0.748440 0.084993 0.199863
0.844907 0.039612 0.192660
0.916258 0.094636 0.185275
0.969879 0.136782 0.179141
1.000000 0.173983 0.174563
1.000000 0.206607 0.172396
1.000000 0.236118 0.173129
1.000000 0.264714 0.176913
1.000000 0.292973 0.185550
1.000000 0.322576 0.200137
1.000000 0.354467 0.222873
1.000000 0.389807 0.254215
0.105837 0.187747 0.211307
0.105837 0.187747 0.211307
0.105837 0.187747 0.211307
0.105837 0.187747 0.211307
0.108217 0.187900 0.211521
0.111879 0.188144 0.211856
0.117494 0.188266 0.212192
0.125032 0.188418 0.212375
0.135927 0.188571 0.212619
0.150881 0.188754 0.212955
0.169253 0.189059 0.213169
0.192721 0.189120 0.213443
0.222080 0.188937 0.213565
0.258213 0.188327 0.213565
0.302129 0.186618 0.213382
0.354253 0.183261 0.212924
0.414832 0.177188 0.212161
0.481971 0.167514 0.210697
0.555383 0.152346 0.208743
0.632197 0.131075 0.205905
0.727718 0.096956 0.200900
0.821317 0.050813 0.194278
0.891997 0.083619 0.187594
0.947326 0.121798 0.181247
0.990265 0.155520 0.176669
1.000000 0.189059 0.173190
1.000000 0.218875 0.172335
1.000000 0.248295 0.174044
1.000000 0.277256 0.180728
1.000000 0.307347 0.192477
1.000000 0.339574 0.212345
1.000000 0.374914 0.240879
0.105837 0.187747 0.211307
0.105837 0.187747 0.211307
0.105837 0.187747 0.211307
0.105837 0.187747 0.211307
0.108217 0.187900 0.211521
0.111879 0.188144 0.211856
0.117372 0.188449 0.212039
0.125338 0.188540 0.212345
0.136049 0.188876 0.212589
0.149935 0.189151 0.212802
0.167941 0.189334 0.213046
0.190555 0.189670 0.213169
0.218631 0.189578 0.213291
0.253147 0.189364 0.213321
0.295171 0.188144 0.213199
0.345617 0.185336 0.212772
0.404181 0.180362 0.211826
0.470588 0.171725 0.210452
0.542901 0.158389 0.208469
0.619654 0.139315 0.205753
0.717525 0.109224 0.200717
0.809049 0.086427 0.194156
0.879179 0.094972 0.187778
0.935149 0.123781 0.181399
0.978820 0.155673 0.176120
1.000000 0.184970 0.172793
1.000000 0.214359 0.170718
1.000000 0.242985 0.171695
1.000000 0.272038 0.176577
1.000000 0.301732 0.187228
1.000000 0.333471 0.205539
1.000000 0.367834 0.232151
0.105318 0.188052 0.211398
0.105318 0.188052 0.211398
0.105104 0.188235 0.211398
0.106203 0.188174 0.211521
0.109773 0.188449 0.211337
0.113466 0.188693 0.211521
0.119265 0.188937 0.211856
0.126986 0.189212 0.212009
0.137514 0.189517 0.212253
0.151095 0.189975 0.212436
0.168490 0.190341 0.212650
0.190219 0.190768 0.212802
0.217014 0.190982 0.212772
0.249851 0.191104 0.212802
0.289525 0.190372 0.212589
0.337072 0.188510 0.212100
0.392432 0.184817 0.211246
0.455055 0.178073 0.210056
0.524102 0.167666 0.208133
0.598138 0.152651 0.205478
0.695766 0.128817 0.200534
0.782528 0.110597 0.194583
0.852781 0.111330 0.188418
0.912139 0.129885 0.181735
0.961089 0.157321 0.175692
1.000000 0.186648 0.170993
1.000000 0.216434 0.167910
1.000000 0.245701 0.167971
1.000000 0.274601 0.172152
1.000000 0.303777 0.181918
1.000000 0.333654 0.198917
1.000000 0.365545 0.224308
0.104952 0.189273 0.211917
0.104738 0.189425 0.211887
0.104829 0.189425 0.211765
0.105928 0.189364 0.211887
0.107668 0.189120 0.212314
0.110994 0.189853 0.212192
0.120912 0.190219 0.211307
0.128420 0.190463 0.211582
0.138460 0.190799 0.211704
0.151522 0.191287 0.211887
0.167666 0.191775 0.211978
0.188388 0.192447 0.212100
0.213504 0.193240 0.212192
0.245182 0.193637 0.212100
0.283238 0.193698 0.211856
0.329992 0.192660 0.211246
0.384558 0.190188 0.210330
0.446937 0.185031 0.208957
0.515435 0.176761 0.206882
0.591211 0.164401 0.204013
0.689082 0.147036 0.198672
0.772061 0.135470 0.192752
0.841337 0.136843 0.186313
0.901427 0.151705 0.179202
0.952148 0.174289 0.172519
0.994659 0.200290 0.166842
1.000000 0.227329 0.163119
1.000000 0.253971 0.162356
1.000000 0.281102 0.165560
1.000000 0.307866 0.174716
1.000000 0.335912 0.190097
1.000000 0.365637 0.213718
0.104433 0.191073 0.212222
0.104524 0.191073 0.212100
0.104891 0.191196 0.212070
0.105989 0.191135 0.212222
0.108186 0.191012 0.212467
0.109529 0.190463 0.213169
0.112642 0.191196 0.213291
0.125490 0.192538 0.211887
0.141482 0.193393 0.211093
0.154452 0.193973 0.211246
0.170657 0.194705 0.211215
0.190982 0.195651 0.211307
0.216464 0.196628 0.211215
0.247349 0.197635 0.211063
0.285466 0.198428 0.210575
0.331762 0.198276 0.209842
0.386633 0.196719 0.208804
0.449134 0.193088 0.207065
0.517845 0.187015 0.204715
0.603906 0.176974 0.200839
0.696864 0.166598 0.194980
0.776761 0.162325 0.188327
0.969421 0.227481 0.157992
1.000000 0.253635 0.150332
1.000000 0.277623 0.146029
1.000000 0.299657 0.145693
1.000000 0.319768 0.150759
1.000000 0.339696 0.160250
1.000000 0.360266 0.175296
1.000000 0.382116 0.196536
1.000000 0.405829 0.223545
1.000000 0.431830 0.257450
0.103090 0.195010 0.213046
0.103090 0.195010 0.213046
0.103487 0.195132 0.213016
0.105318 0.195071 0.213016
0.108278 0.194919 0.213016
0.112032 0.194125 0.213718
0.114076 0.193240 0.214694
0.116487 0.193942 0.215732
0.134340 0.197086 0.213291
0.158968 0.199557 0.211307
0.186282 0.201511 0.209873
0.211185 0.203006 0.209598
0.240055 0.204654 0.209293
0.275486 0.206119 0.208835
0.317723 0.207370 0.208103
0.367285 0.207584 0.206912
0.424323 0.206760 0.205203
0.488197 0.204166 0.202792
0.562951 0.199619 0.199374
0.670405 0.195224 0.191989
0.767178 0.197421 0.182498
0.851316 0.210361 0.171237
0.922911 0.233310 0.158206
0.980041 0.260136 0.145541
1.000000 0.285740 0.136477
1.000000 0.307927 0.131960
1.000000 0.326940 0.133791
1.000000 0.344854 0.140749
1.000000 0.362890 0.153628
1.000000 0.381445 0.172549
1.000000 0.402075 0.197391
1.000000 0.425055 0.228946
0.101015 0.199588 0.214023
0.101015 0.199588 0.214023
0.102296 0.199527 0.214023
0.104189 0.199435 0.214023
0.106935 0.199466 0.214023
0.111757 0.198947 0.214298
0.116579 0.197818 0.215396
0.119570 0.196597 0.216892
0.119783 0.196780 0.219211
0.141512 0.201419 0.215335
0.169558 0.205417 0.212467
0.203494 0.209049 0.209751
0.239475 0.211978 0.207797
0.274510 0.214206 0.207065
0.314702 0.216312 0.206149
0.361639 0.217868 0.204746
0.416175 0.218723 0.202823
0.478096 0.218387 0.200290
0.569879 0.218570 0.194675
0.664393 0.219333 0.187137
0.752987 0.224796 0.177493
0.832975 0.238010 0.165286
0.903502 0.258244 0.150851
0.961761 0.281926 0.135927
1.000000 0.304814 0.122988
1.000000 0.324346 0.114656
1.000000 0.341222 0.112886
1.000000 0.356695 0.118410
1.000000 0.372686 0.129549
1.000000 0.388800 0.147646
1.000000 0.406592 0.172183
1.000000 0.426795 0.203311
0.097261 0.206210 0.215366
0.097932 0.206180 0.215366
0.099275 0.206119 0.215366
0.101198 0.206027 0.215366
0.105013 0.205875 0.215244
0.110079 0.205783 0.215213
0.117189 0.204593 0.216190
0.123690 0.203128 0.217807
0.126986 0.201633 0.219821
0.126589 0.201511 0.223697
0.151797 0.207797 0.219028
0.185672 0.213504 0.214450
0.225437 0.218753 0.210422
0.271275 0.223362 0.206760
0.317449 0.227024 0.204044
0.363378 0.229953 0.202121
0.418280 0.232944 0.199619
0.495521 0.237064 0.195010
0.578790 0.240635 0.188846
0.664942 0.245457 0.180575
0.747036 0.254368 0.169680
0.822660 0.268315 0.156466
0.890990 0.287602 0.139742
0.948730 0.309117 0.121035
0.995026 0.329656 0.102602
1.000000 0.346960 0.088533
1.000000 0.362005 0.078218
1.000000 0.375586 0.082277
1.000000 0.388952 0.097383
1.000000 0.402747 0.117067
1.000000 0.417731 0.144106
1.000000 0.434791 0.175723
0.092256 0.215427 0.217319
0.092531 0.215305 0.217350
0.094331 0.215122 0.217227
0.097047 0.215030 0.217227
0.102174 0.214572 0.217136
0.107942 0.214206 0.217014
0.115480 0.213626 0.217166
0.125368 0.211795 0.218784
0.132967 0.210147 0.220890
0.136782 0.208499 0.223941
0.136995 0.208042 0.228824
0.162844 0.215610 0.224430
0.202457 0.223301 0.217716
0.248631 0.230381 0.211795
0.302617 0.236881 0.206332
0.370031 0.244419 0.200168
0.439460 0.251255 0.195224
0.512779 0.257786 0.189700
0.591730 0.264775 0.182040
0.671534 0.273930 0.171908
0.746212 0.285649 0.159304
0.814237 0.299260 0.144686
0.875944 0.315740 0.126680
0.929992 0.333501 0.105104
0.974914 0.350256 0.077333
1.000000 0.365148 0.027466
1.000000 0.378729 0.000000
1.000000 0.391089 0.000000
1.000000 0.403510 0.001068
1.000000 0.416114 0.047486
1.000000 0.429694 0.102785
1.000000 0.444709 0.140993
0.083009 0.226200 0.219455
0.083009 0.226200 0.219455
0.087160 0.226017 0.219486
0.091157 0.225895 0.219455
0.096223 0.225742 0.219333
0.103487 0.225467 0.219211
0.112306 0.225132 0.219059
0.124208 0.224063 0.220096
0.136385 0.222049 0.222446
0.146059 0.220035 0.225589
0.151339 0.218082 0.229740
0.151736 0.217350 0.236027
0.178592 0.226474 0.232670
0.230137 0.238926 0.223331
0.292638 0.250950 0.214054
0.364446 0.262089 0.204562
0.443244 0.271946 0.194644
0.518639 0.278874 0.185122
0.598077 0.288792 0.175540
0.672297 0.299351 0.164553
0.741726 0.311864 0.150759
0.805722 0.326574 0.133455
0.864805 0.344091 0.109987
0.917876 0.362219 0.067109
0.963195 0.378210 0.000000
1.000000 0.392065 0.000000
1.000000 0.404364 0.000000
1.000000 0.415381 0.000000
1.000000 0.426184 0.000000
1.000000 0.436927 0.000000
1.000000 0.448310 0.000000
1.000000 0.460883 0.092287
0.047211 0.242618 0.222446
0.049195 0.242588 0.222446
0.055146 0.242527 0.222446
0.066346 0.242527 0.222446
0.083803 0.242191 0.222324
0.094820 0.242039 0.222171
0.107057 0.241611 0.222049
0.119112 0.241489 0.221836
0.137636 0.239475 0.224369
0.153079 0.237186 0.227726
0.166201 0.235752 0.232700
0.175631 0.235080 0.239658
0.211582 0.256657 0.266667
0.260410 0.277806 0.267369
0.354345 0.303746 0.241794
0.453254 0.325109 0.217044
0.551385 0.342351 0.191714
0.642969 0.357641 0.164523
0.721828 0.370977 0.134493
0.785061 0.382422 0.104952
0.845335 0.399359 0.037293
0.896361 0.414862 0.000000
0.940337 0.429297 0.000000
0.978363 0.442298 0.000000
1.000000 0.453468 0.000000
1.000000 0.462531 0.000000
1.000000 0.468452 0.000000
1.000000 0.473030 0.000000
1.000000 0.477638 0.000000
1.000000 0.483040 0.000000
1.000000 0.489387 0.000000
1.000000 0.497871 0.000000
0.000000 0.278264 0.228092
0.000000 0.278172 0.228092
0.000000 0.277562 0.227848
0.000000 0.276493 0.227756
0.006867 0.275242 0.227451
0.049653 0.273899 0.227115
0.091310 0.274662 0.226993
0.113436 0.275639 0.226932
0.138949 0.276677 0.228275
0.168917 0.277256 0.233433
0.196719 0.278264 0.240909
0.222171 0.280064 0.251408
0.242283 0.281865 0.266056
0.253239 0.284184 0.286778
0.303105 0.309087 0.297459
0.408545 0.340307 0.261357
0.511254 0.363500 0.226596
0.606043 0.381567 0.192386
0.688472 0.396674 0.156863
0.758114 0.408820 0.116457
0.818357 0.419837 0.024079
0.869383 0.431952 0.000000
0.916167 0.446418 0.000000
0.956085 0.459327 0.000000
0.990600 0.470436 0.000000
1.000000 0.479957 0.000000
1.000000 0.488106 0.000000
1.000000 0.494423 0.000000
1.000000 0.498939 0.000000
1.000000 0.503685 0.000000
1.000000 0.508965 0.000000
1.000000 0.515496 0.000000
0.000000 0.323217 0.233768
0.000000 0.322759 0.233738
0.000000 0.321263 0.233555
0.000000 0.320043 0.233310
0.000000 0.318212 0.232944
0.000000 0.316350 0.232517
0.004089 0.315099 0.232181
0.090547 0.314549 0.231754
0.126925 0.314794 0.231449
0.167300 0.315435 0.235294
0.206119 0.316503 0.243137
0.242374 0.318303 0.254032
0.274083 0.320195 0.268986
0.298253 0.321263 0.288762
0.308080 0.320928 0.313787
0.349248 0.344610 0.337224
0.460090 0.378576 0.288548
0.561669 0.402472 0.242893
0.651881 0.421546 0.199008
0.727199 0.435981 0.153780
0.791592 0.447944 0.097871
0.848234 0.459113 0.000000
0.894591 0.466865 0.000000
0.939208 0.481086 0.000000
0.975280 0.492378 0.000000
1.000000 0.501701 0.000000
1.000000 0.509758 0.000000
1.000000 0.516747 0.000000
1.000000 0.523003 0.000000
1.000000 0.527245 0.000000
1.000000 0.531487 0.000000
1.000000 0.536461 0.000000
0.000000 0.377844 0.240177
0.000000 0.377295 0.240085
0.000000 0.375433 0.239872
0.000000 0.372595 0.239414
0.000000 0.368902 0.238773
0.000000 0.364965 0.238041
0.000000 0.362127 0.237552
0.000000 0.359899 0.236728
0.105226 0.359289 0.236332
0.152010 0.360357 0.235996
0.208103 0.361578 0.244480
0.256260 0.364050 0.256046
0.299657 0.366033 0.271672
0.335729 0.367071 0.291630
0.361028 0.366186 0.316533
0.368963 0.362676 0.345190
0.395605 0.382086 0.385046
0.509667 0.419287 0.324926
0.610101 0.445472 0.268406
0.693782 0.463905 0.213931
0.764096 0.478004 0.158236
0.825132 0.489967 0.076631
0.877592 0.500114 0.000000
0.922606 0.508171 0.000000
0.958068 0.513146 0.000000
0.993561 0.524743 0.000000
1.000000 0.532982 0.000000
1.000000 0.540398 0.000000
1.000000 0.547478 0.000000
1.000000 0.554314 0.000000
1.000000 0.558862 0.000000
1.000000 0.563470 0.000000
0.000000 0.431708 0.246983
0.000000 0.431922 0.246921
0.000000 0.430823 0.246769
0.000000 0.429023 0.246372
0.000000 0.426368 0.245823
0.000000 0.423560 0.244968
0.000000 0.422004 0.244419
0.000000 0.420996 0.243717
0.000916 0.420996 0.243198
0.140078 0.421668 0.242466
0.205356 0.422126 0.246189
0.268894 0.421973 0.258824
0.321386 0.421027 0.274662
0.364874 0.418341 0.294316
0.398291 0.414221 0.317540
0.418647 0.408026 0.344396
0.424353 0.401892 0.375128
0.439826 0.417243 0.427832
0.550744 0.457527 0.366278
0.648219 0.485634 0.302129
0.729305 0.505577 0.240085
0.798276 0.520714 0.174533
0.856626 0.533165 0.079133
0.906065 0.542473 0.000000
0.947753 0.549218 0.000000
0.983764 0.554131 0.000000
1.000000 0.559045 0.000000
1.000000 0.567437 0.000000
1.000000 0.573907 0.000000
1.000000 0.579858 0.000000
1.000000 0.585138 0.000000
1.000000 0.588373 0.000000
0.000000 0.486641 0.255253
0.000000 0.486305 0.255131
0.000000 0.485451 0.255070
0.000000 0.484016 0.254643
0.000000 0.481880 0.253971
0.000000 0.479561 0.253086
0.000000 0.477821 0.252445
0.000000 0.476387 0.251682
0.000000 0.475715 0.250797
0.113985 0.475257 0.249821
0.190768 0.475135 0.249027
0.265629 0.474952 0.259098
0.330571 0.473854 0.275914
0.383856 0.471260 0.296178
0.427100 0.467109 0.319707
0.459510 0.461128 0.346624
0.479255 0.454047 0.376745
0.485481 0.447395 0.410803
0.500694 0.462104 0.466529
0.595148 0.502129 0.418677
0.688502 0.531914 0.348547
0.766323 0.552422 0.279850
0.831693 0.567498 0.207950
0.886442 0.578088 0.115267
0.932097 0.585229 0.000000
0.970825 0.590112 0.000000
1.000000 0.593378 0.000000
1.000000 0.595148 0.000000
1.000000 0.600580 0.000000
1.000000 0.606500 0.000000
1.000000 0.611322 0.000000
1.000000 0.615625 0.000000
0.000000 0.551415 0.269474
0.000000 0.552178 0.269749
0.000000 0.620569 0.295689
0.000000 0.619165 0.294926
0.000000 0.616876 0.293614
0.000000 0.613855 0.291630
0.000000 0.610437 0.289433
0.000000 0.607263 0.287633
0.000000 0.604669 0.285710
0.176547 0.602594 0.283848
0.255192 0.600275 0.281621
0.319982 0.597559 0.282170
0.400275 0.593622 0.304845
0.463416 0.588037 0.330297
0.513542 0.580407 0.358099
0.551690 0.571313 0.388098
0.577844 0.560357 0.419837
0.592340 0.548943 0.453346
0.594324 0.538476 0.489601
0.601678 0.548089 0.544366
0.669459 0.582208 0.511528
0.752773 0.609125 0.433326
0.822110 0.625513 0.354711
0.878447 0.634058 0.274632
0.924498 0.637018 0.184756
0.963256 0.637201 0.000000
0.996521 0.635981 0.000000
1.000000 0.634577 0.000000
1.000000 0.633692 0.000000
1.000000 0.632380 0.000000
1.000000 0.637446 0.000000
1.000000 0.640894 0.000000
0.000000 0.632166 0.300389
0.000000 0.638148 0.303655
0.000000 0.643946 0.306706
0.000000 0.648493 0.309361
0.000000 0.650904 0.310399
0.000000 0.650111 0.309758
0.000000 0.647456 0.307530
0.000000 0.644007 0.305089
0.000000 0.641016 0.302922
0.175143 0.638148 0.300389
0.254337 0.635431 0.298009
0.314946 0.632349 0.295476
0.382422 0.628168 0.304387
0.451911 0.623468 0.328923
0.508476 0.617151 0.355871
0.553613 0.609735 0.385199
0.588495 0.601312 0.416327
0.614008 0.592676 0.450050
0.630091 0.584802 0.486488
0.635309 0.577844 0.524651
0.643336 0.587823 0.577905
0.697597 0.622126 0.568566
0.776577 0.650874 0.496773
0.841855 0.666255 0.419562
0.894774 0.672511 0.339605
0.939025 0.673640 0.254032
0.976257 0.672175 0.148653
1.000000 0.669490 0.000000
1.000000 0.667170 0.000000
1.000000 0.665278 0.000000
1.000000 0.663691 0.000000
1.000000 0.663478 0.000000
0.000000 0.673579 0.323522
0.000000 0.679347 0.327367
0.000000 0.685267 0.331579
0.000000 0.689937 0.334966
0.000000 0.692531 0.336980
0.000000 0.692164 0.336492
0.000000 0.689967 0.334386
0.000000 0.686946 0.331670
0.083772 0.683742 0.328893
0.202853 0.680446 0.325963
0.271702 0.677363 0.322942
0.328496 0.673945 0.319799
0.377935 0.669825 0.315953
0.447639 0.665522 0.335760
0.509056 0.660456 0.362799
0.559136 0.654353 0.391730
0.599969 0.647303 0.422644
0.631983 0.639948 0.455604
0.655940 0.632929 0.490547
0.671565 0.626795 0.527153
0.677760 0.621790 0.564691
0.685054 0.631128 0.615259
0.725521 0.662959 0.625238
0.797574 0.691279 0.560449
0.857115 0.705013 0.490059
0.907500 0.709865 0.413031
0.950317 0.709560 0.330846
0.987213 0.706844 0.241764
1.000000 0.703517 0.118990
1.000000 0.700069 0.000000
1.000000 0.696803 0.000000
1.000000 0.693721 0.000000
0.000000 0.716274 0.353979
0.000000 0.721218 0.358526
0.000000 0.725978 0.362799
0.000000 0.729824 0.366522
0.000000 0.731899 0.368750
0.000000 0.731472 0.368200
0.000000 0.729793 0.366155
0.000000 0.727108 0.363470
0.174716 0.724300 0.360479
0.244358 0.721187 0.357000
0.300725 0.718318 0.353857
0.350713 0.715175 0.350347
0.395941 0.711269 0.346319
0.444221 0.706844 0.347295
0.509178 0.702937 0.374304
0.564141 0.698390 0.403815
0.610834 0.694423 0.436347
0.650050 0.690700 0.471321
0.682429 0.688106 0.508537
0.707881 0.686641 0.547387
0.726070 0.686610 0.587671
0.735958 0.687587 0.628260
0.743709 0.698085 0.676936
0.770535 0.726467 0.704189
0.831235 0.752193 0.652583
0.883299 0.764401 0.594690
0.928710 0.768093 0.531121
0.969146 0.766842 0.462074
1.000000 0.762844 0.386786
1.000000 0.757229 0.303288
1.000000 0.750820 0.201022
1.000000 0.743740 0.000000
0.000000 0.782498 0.427405
0.000000 0.783993 0.429603
0.013336 0.784970 0.431281
0.106966 0.785031 0.431312
0.147127 0.784207 0.430091
0.182223 0.782376 0.427558
0.216770 0.780056 0.424018
0.253696 0.777554 0.420508
0.291844 0.775113 0.416968
0.331243 0.772763 0.413733
0.370001 0.770413 0.410407
0.407874 0.767849 0.406958
0.444099 0.764706 0.402655
0.479347 0.760952 0.397467
0.529503 0.756771 0.409796
0.584894 0.752529 0.439124
0.631861 0.748287 0.469886
0.671778 0.744198 0.502220
0.704768 0.740597 0.535454
0.731838 0.737575 0.570092
0.752377 0.735348 0.605127
0.766415 0.733944 0.640833
0.773068 0.732845 0.675715
0.776699 0.738247 0.714717
0.791897 0.759670 0.748867
0.843961 0.782834 0.706661
0.890623 0.794827 0.659266
0.933043 0.799466 0.606378
0.971588 0.799527 0.549889
1.000000 0.796353 0.488350
1.000000 0.790738 0.419257
1.000000 0.783261 0.338262
0.251347 0.813016 0.473365
0.258549 0.814115 0.475532
0.267399 0.814817 0.476783
0.278355 0.814939 0.477058
0.290593 0.814420 0.476295
0.304295 0.813138 0.474067
0.321050 0.811460 0.471168
0.341558 0.809506 0.467933
0.365484 0.807523 0.464607
0.392676 0.805692 0.461738
0.421149 0.803769 0.458534
0.450843 0.801785 0.455573
0.480903 0.799252 0.451575
0.510796 0.796506 0.447028
0.540398 0.793271 0.441810
0.593561 0.790066 0.467445
0.641657 0.786862 0.497536
0.682795 0.783749 0.528466
0.717891 0.781094 0.560632
0.747250 0.778866 0.593683
0.770932 0.777249 0.627222
0.788937 0.776211 0.661006
0.800961 0.775753 0.693355
0.806973 0.775570 0.723598
0.799405 0.766323 0.741268
0.807065 0.783108 0.781064
0.853452 0.805631 0.747402
0.895628 0.818265 0.709926
0.934508 0.824460 0.668971
0.970855 0.826108 0.623560
1.000000 0.824643 0.574823
1.000000 0.820493 0.520562
0.408148 0.849424 0.544579
0.414679 0.850797 0.547875
0.419471 0.851255 0.549126
0.421881 0.850675 0.547875
0.423163 0.849241 0.544518
0.425116 0.847074 0.539666
0.428443 0.844358 0.533654
0.434577 0.841367 0.527367
0.444251 0.838285 0.520684
0.458137 0.835355 0.514794
0.473884 0.832120 0.508171
0.493629 0.829160 0.502434
0.514702 0.825986 0.496529
0.536645 0.822385 0.489601
0.559014 0.818235 0.481666
0.589715 0.813870 0.482612
0.636194 0.809598 0.508263
0.677424 0.805966 0.536126
0.713924 0.803342 0.566339
0.745907 0.801724 0.598566
0.772763 0.800870 0.631739
0.794095 0.800107 0.664271
0.809628 0.799191 0.694606
0.819364 0.797940 0.721950
0.823453 0.796262 0.746700
0.824033 0.796841 0.771756
0.830045 0.809812 0.804990
0.864958 0.828519 0.785214
0.901854 0.840696 0.755734
0.936675 0.847654 0.724269
0.969635 0.850706 0.690303
1.000000 0.850736 0.653254
0.466377 0.865354 0.579126
0.472053 0.866514 0.582452
0.476722 0.867094 0.584253
0.479774 0.867033 0.584070
0.482918 0.866453 0.582788
0.486610 0.865476 0.580285
0.492226 0.864347 0.577691
0.499947 0.863066 0.574731
0.509819 0.861784 0.571740
0.522210 0.860441 0.568811
0.535943 0.858793 0.565332
0.551385 0.857053 0.561791
0.567529 0.854948 0.557000
0.584436 0.852323 0.551263
0.601526 0.849210 0.544244
0.619593 0.845762 0.536492
0.653559 0.841917 0.548577
0.692348 0.838407 0.573571
0.727565 0.835721 0.601068
0.758785 0.833829 0.630365
0.785763 0.832639 0.660609
0.807919 0.831846 0.689876
0.825345 0.831296 0.717311
0.838071 0.830655 0.742489
0.846250 0.829984 0.765347
0.850156 0.829221 0.786038
0.850889 0.829648 0.806180
0.856474 0.840360 0.833768
0.882231 0.856443 0.826352
0.913573 0.868406 0.805875
0.943236 0.875975 0.784726
0.971435 0.880125 0.762325
0.547997 0.885679 0.633051
0.550744 0.886137 0.634668
0.552392 0.886290 0.635126
0.553948 0.886076 0.634516
0.555291 0.885496 0.632898
0.557092 0.884672 0.630518
0.559930 0.883696 0.627771
0.564141 0.882567 0.624537
0.570245 0.881346 0.621393
0.578485 0.880186 0.618555
0.588067 0.878843 0.615259
0.599237 0.877501 0.611872
0.611444 0.875914 0.607965
0.624201 0.873960 0.602960
0.637324 0.871550 0.596948
0.651240 0.868803 0.589776
0.666499 0.865965 0.582818
0.703304 0.862638 0.605371
0.737057 0.859983 0.630549
0.767575 0.858091 0.657404
0.794003 0.856809 0.684260
0.816312 0.855833 0.710170
0.834440 0.854978 0.734463
0.848478 0.854154 0.756863
0.858762 0.853269 0.777188
0.865354 0.852293 0.795590
0.868650 0.851499 0.812650
0.868864 0.851102 0.828733
0.873838 0.860075 0.852323
0.893614 0.874388 0.852720
0.921538 0.886473 0.837644
0.947967 0.894682 0.822568
0.606043 0.900511 0.675257
0.607813 0.900816 0.676387
0.609705 0.901061 0.677272
0.611444 0.901030 0.677272
0.614099 0.900969 0.677241
0.618097 0.900999 0.677638
0.625086 0.901366 0.679255
0.633936 0.901884 0.681575
0.644526 0.902647 0.684596
0.656672 0.903502 0.688197
0.669612 0.904356 0.691859
0.682582 0.905058 0.694911
0.695155 0.905486 0.696956
0.707088 0.905425 0.697688
0.718135 0.904875 0.696620
0.728267 0.903655 0.693355
0.738552 0.902159 0.689204
0.756039 0.900267 0.693263
0.783047 0.898192 0.712856
0.807584 0.896574 0.732998
0.829374 0.895415 0.752987
0.848142 0.894469 0.772061
0.863798 0.893553 0.789700
0.876493 0.892699 0.805936
0.886381 0.891752 0.820737
0.893584 0.890837 0.834348
0.898405 0.890013 0.847135
0.900847 0.889311 0.859068
0.901030 0.888853 0.870451
0.904387 0.894713 0.887205
0.917327 0.905303 0.891936
0.939300 0.915648 0.882139
0.700984 0.923980 0.749630
0.701137 0.923980 0.749630
0.701167 0.923857 0.749264
0.701289 0.923613 0.748592
0.701625 0.923278 0.747433
0.702510 0.922881 0.746365
0.704280 0.922515 0.745296
0.706966 0.922179 0.744289
0.710842 0.921904 0.743618
0.715633 0.921630 0.743099
0.721492 0.921386 0.742794
0.728054 0.921141 0.742336
0.735134 0.920775 0.741634
0.742397 0.920226 0.740291
