20 Preset/Dark Style/【3】LUT video cho PR-AE-FCPX/19Tones (6)/19tones.pack-02.05.Day of shadows.cube
# Created by Adobe Lightroom plugin Export LUT (1.24.0)
# www.johnrellis.com/lightroom/exportlut.htm
# Preset: 19tones.pack-02.05.Day of shadows
# Color profile: E:\lut插件\exportlut.1.24\exportlut.lrplugin\color profiles\Rec709gamma2.4.icc
LUT_3D_SIZE 32
DOMAIN_MIN 0.0 0.0 0.0
DOMAIN_MAX 1.0 1.0 1.0
0.105837 0.187747 0.211307
0.105531 0.187900 0.211429
0.106905 0.188266 0.211887
0.108675 0.189059 0.212558
0.113222 0.190097 0.213809
0.118715 0.191226 0.215274
0.122988 0.192386 0.216617
0.127108 0.192966 0.217502
0.129732 0.193637 0.218265
0.131899 0.194064 0.218814
0.134188 0.194308 0.219242
0.136477 0.194583 0.219699
0.138949 0.194980 0.220096
0.142611 0.195407 0.220890
0.147860 0.196109 0.221958
0.155245 0.197177 0.223545
0.165499 0.198611 0.225864
0.179263 0.200687 0.228946
0.196841 0.203098 0.232975
0.219669 0.206027 0.238376
0.248692 0.209476 0.245182
0.284367 0.213199 0.253758
0.327153 0.217105 0.264347
0.378882 0.221347 0.277775
0.438911 0.226383 0.294652
0.505730 0.233310 0.315953
0.577447 0.243839 0.342199
0.649073 0.261021 0.373449
0.713893 0.287968 0.409247
0.769833 0.324926 0.448798
0.816678 0.369757 0.490669
0.854643 0.419654 0.533379
0.105318 0.188052 0.211398
0.105837 0.188022 0.211551
0.107973 0.188357 0.211734
0.110079 0.188846 0.212436
0.114809 0.190005 0.213809
0.120058 0.191287 0.215244
0.124941 0.192264 0.216617
0.128481 0.193179 0.217716
0.131746 0.193668 0.218357
0.133852 0.194064 0.218906
0.135714 0.194369 0.219364
0.137911 0.194614 0.219791
0.140291 0.195010 0.220340
0.144167 0.195560 0.221073
0.149325 0.196262 0.222141
0.156649 0.197330 0.223758
0.166781 0.198764 0.226078
0.180697 0.200809 0.229160
0.198520 0.203189 0.233280
0.221683 0.206149 0.238651
0.250431 0.209628 0.245426
0.286076 0.213260 0.254002
0.329534 0.216983 0.264561
0.381262 0.221256 0.278080
0.440894 0.226139 0.294926
0.508537 0.233036 0.316320
0.579889 0.243748 0.342504
0.651179 0.260899 0.373816
0.715450 0.287907 0.409583
0.771115 0.324987 0.449042
0.817777 0.369970 0.490944
0.855375 0.419959 0.533623
0.105623 0.189517 0.212009
0.106233 0.189487 0.212009
0.107362 0.189273 0.212406
0.112032 0.190066 0.212558
0.121706 0.190829 0.213382
0.129274 0.191470 0.215030
0.134249 0.192264 0.216403
0.137514 0.192996 0.217777
0.139620 0.193820 0.218753
0.141512 0.194247 0.219425
0.142611 0.194705 0.219974
0.144289 0.195010 0.220432
0.146548 0.195377 0.220951
0.150149 0.195926 0.221836
0.155367 0.196628 0.222904
0.163119 0.197726 0.224582
0.173800 0.199191 0.226993
0.187808 0.201175 0.230045
0.206088 0.203525 0.234257
0.229740 0.206424 0.239689
0.259739 0.209628 0.246494
0.295995 0.213138 0.255161
0.339269 0.216770 0.265751
0.391974 0.220584 0.279301
0.452003 0.225406 0.296300
0.518212 0.232364 0.317693
0.589258 0.242924 0.343908
0.659327 0.260563 0.375189
0.722286 0.288243 0.410895
0.776608 0.325719 0.450233
0.822202 0.370855 0.491951
0.858885 0.421027 0.534508
0.105135 0.193912 0.213291
0.105715 0.193881 0.213291
0.108766 0.194003 0.213382
0.113405 0.192996 0.214725
0.123049 0.195163 0.215518
0.147097 0.198001 0.214450
0.155978 0.196262 0.216190
0.159182 0.195346 0.217990
0.160189 0.195071 0.219120
0.160281 0.194888 0.220005
0.159915 0.195041 0.220584
0.160098 0.195560 0.221378
0.161929 0.195956 0.222171
0.164645 0.196689 0.222995
0.169680 0.197452 0.224277
0.177829 0.198581 0.226169
0.188815 0.200015 0.228641
0.203708 0.201846 0.231785
0.223117 0.204196 0.236118
0.248020 0.206851 0.241642
0.278630 0.209751 0.248569
0.316258 0.212680 0.257298
0.360662 0.215793 0.268040
0.413153 0.219181 0.281621
0.473060 0.223606 0.298741
0.538964 0.230320 0.320226
0.608911 0.241154 0.346654
0.675685 0.259953 0.377874
0.735561 0.288762 0.413397
0.787472 0.327245 0.452552
0.830900 0.372930 0.494026
0.865873 0.423255 0.536339
0.098054 0.207614 0.215946
0.099611 0.207675 0.216190
0.106081 0.207645 0.216007
0.119448 0.206455 0.216922
0.129152 0.202976 0.220737
0.141848 0.206119 0.222873
0.175753 0.210422 0.218997
0.205142 0.210575 0.216892
0.202213 0.204227 0.219486
0.198581 0.200900 0.221164
0.194705 0.199069 0.222293
0.192111 0.198215 0.223148
0.192050 0.197910 0.224033
0.193912 0.197940 0.224826
0.198856 0.198337 0.226139
0.206607 0.199313 0.228092
0.218265 0.200687 0.230747
0.233555 0.202365 0.234226
0.253758 0.204379 0.238682
0.280156 0.206516 0.244480
0.312810 0.208835 0.251591
0.351354 0.210941 0.260380
0.396368 0.213260 0.271305
0.448920 0.215915 0.285039
0.508141 0.219791 0.302403
0.572534 0.226444 0.324102
0.638331 0.238315 0.350469
0.700557 0.258976 0.381689
0.756466 0.289708 0.417060
0.804471 0.329717 0.456001
0.844541 0.376135 0.497169
0.876585 0.426795 0.538933
0.058137 0.235660 0.220584
0.066651 0.235782 0.220554
0.090486 0.235416 0.220401
0.112306 0.235203 0.220188
0.143191 0.230228 0.224247
0.158389 0.222843 0.232273
0.170413 0.225498 0.238651
0.215213 0.231510 0.228672
0.259037 0.232792 0.222019
0.276249 0.225498 0.221042
0.265415 0.215335 0.223545
0.257237 0.209506 0.225284
0.251255 0.206149 0.227024
0.248966 0.204288 0.228458
0.252018 0.203372 0.230106
0.257786 0.202945 0.231968
0.268803 0.203098 0.234501
0.284947 0.203403 0.237736
0.307073 0.203769 0.241886
0.334234 0.203708 0.247013
0.367346 0.204959 0.254490
0.405921 0.206027 0.263493
0.450172 0.207309 0.274632
0.501762 0.209049 0.288701
0.558526 0.212650 0.306432
0.618952 0.219913 0.328374
0.679164 0.234104 0.355016
0.734554 0.258030 0.386114
0.784360 0.291600 0.421485
0.827268 0.333349 0.460029
0.863279 0.380896 0.500999
0.890959 0.431800 0.542168
0.000000 0.283421 0.227207
0.000000 0.283421 0.227207
0.000000 0.283055 0.227054
0.081666 0.281804 0.226566
0.136904 0.279149 0.227268
0.186160 0.268467 0.236912
0.206790 0.256870 0.251347
0.215457 0.257633 0.268162
0.273869 0.266148 0.247318
0.328344 0.266911 0.233646
0.379400 0.264988 0.224277
0.374243 0.246525 0.226444
0.356085 0.231144 0.229801
0.345892 0.222019 0.232273
0.343938 0.216648 0.234470
0.347784 0.213077 0.236790
0.357153 0.210697 0.239811
0.370428 0.208743 0.243534
0.389807 0.207156 0.248020
0.415137 0.205478 0.253544
0.446296 0.203555 0.260258
0.483131 0.201205 0.268437
0.525658 0.198276 0.278538
0.573907 0.195682 0.291295
0.625635 0.199313 0.309392
0.678553 0.209720 0.332036
0.729274 0.228885 0.358892
0.776547 0.257450 0.390326
0.818936 0.294774 0.425727
0.855528 0.338933 0.464454
0.885801 0.387732 0.504997
0.908629 0.438544 0.545708
0.000000 0.357610 0.236728
0.000000 0.357183 0.236576
0.000000 0.356512 0.236027
0.000000 0.354620 0.235599
0.103731 0.352117 0.234623
0.196292 0.343481 0.241154
0.257145 0.327398 0.258366
0.282963 0.310491 0.282353
0.286076 0.308324 0.320439
0.356756 0.319677 0.282017
0.420203 0.319127 0.255985
0.478065 0.314855 0.238102
0.529900 0.308080 0.225620
0.501793 0.274815 0.233524
0.483223 0.253452 0.238376
0.474556 0.239811 0.242252
0.474556 0.230442 0.245792
0.485725 0.223911 0.249943
0.502770 0.218509 0.254856
0.528191 0.213962 0.260685
0.554498 0.209415 0.267979
0.584771 0.205356 0.276921
0.619806 0.202090 0.287663
0.659815 0.200412 0.301152
0.702205 0.202670 0.317754
0.744594 0.211154 0.337865
0.786435 0.227451 0.361975
0.824186 0.258610 0.392767
0.858701 0.299870 0.428870
0.888090 0.346502 0.467964
0.911284 0.396796 0.508629
0.928771 0.447181 0.548882
0.000000 0.454108 0.252079
0.000000 0.453895 0.251987
0.000000 0.452705 0.251316
0.000000 0.450477 0.250492
0.000000 0.446906 0.249088
0.178958 0.441962 0.247013
0.290227 0.425971 0.266056
0.357641 0.406165 0.294408
0.387915 0.385351 0.330541
0.389197 0.379553 0.387121
0.459205 0.392737 0.340734
0.526787 0.391150 0.297185
0.587060 0.384283 0.264897
0.643732 0.378027 0.241184
0.670192 0.357488 0.232975
0.647547 0.316808 0.243015
0.633509 0.288212 0.250065
0.628260 0.268284 0.256046
0.632990 0.253971 0.262058
0.646113 0.243717 0.268772
0.666743 0.236515 0.276707
0.692439 0.231693 0.286076
0.723018 0.230198 0.297642
0.751217 0.230594 0.312291
0.780972 0.235447 0.329992
0.811429 0.246067 0.350835
0.842588 0.263737 0.375280
0.872465 0.288640 0.403418
0.899657 0.320348 0.435096
0.922545 0.358038 0.469703
0.938811 0.408301 0.510765
0.950896 0.457618 0.551019
0.000000 0.562188 0.281346
0.000000 0.561730 0.280888
0.000000 0.560296 0.280095
0.000000 0.558221 0.279026
0.000000 0.553765 0.276585
0.184268 0.548058 0.273014
0.305119 0.538476 0.277317
0.410559 0.519860 0.310063
0.476905 0.498817 0.349859
0.507530 0.476020 0.397162
0.509148 0.467018 0.462898
0.566674 0.481910 0.425849
0.629999 0.479500 0.364843
0.685786 0.470680 0.316381
0.735561 0.461250 0.279026
0.780209 0.452369 0.248875
0.785641 0.416785 0.248386
0.772335 0.373785 0.259495
0.766140 0.342168 0.269047
0.766873 0.319402 0.277745
0.774258 0.303807 0.287236
0.786465 0.293187 0.297704
0.805295 0.288579 0.310124
0.827939 0.289342 0.325170
0.854063 0.296239 0.343175
0.876219 0.305241 0.364874
0.897124 0.319341 0.390082
0.917235 0.340246 0.418585
0.935393 0.367376 0.450019
0.950896 0.400244 0.484047
0.963287 0.436194 0.519066
0.972869 0.473548 0.553704
0.000000 0.659998 0.333501
0.000000 0.659754 0.333257
0.000000 0.658564 0.331884
0.000000 0.656184 0.330327
0.018524 0.652461 0.327276
0.239933 0.647150 0.322881
0.337346 0.640223 0.317144
0.443244 0.627161 0.336889
0.529931 0.609583 0.377630
0.587366 0.589868 0.425483
0.614649 0.569512 0.478370
0.615473 0.559197 0.543420
0.654231 0.573571 0.526970
0.709377 0.569879 0.456123
0.758541 0.558160 0.394293
0.801999 0.545220 0.343786
0.841733 0.533288 0.302525
0.878172 0.523522 0.268772
0.873411 0.478706 0.278080
0.868681 0.440467 0.289403
0.867521 0.410468 0.300847
0.871489 0.389624 0.312596
0.880430 0.376623 0.325994
0.893248 0.370062 0.341588
0.909239 0.370886 0.359960
0.926787 0.377996 0.381384
0.943877 0.390814 0.406043
0.955779 0.404334 0.434913
0.966705 0.423926 0.466041
0.976165 0.449256 0.499245
0.983703 0.477668 0.532647
0.989410 0.508110 0.565576
0.000000 0.740597 0.405554
0.000000 0.740322 0.405097
0.013092 0.739345 0.404242
0.172305 0.737301 0.401953
0.255070 0.734096 0.398138
0.329351 0.729793 0.393683
0.398779 0.724269 0.387610
0.464668 0.717311 0.380194
0.559197 0.702998 0.418402
0.628504 0.687404 0.463416
0.674372 0.670497 0.511467
0.696132 0.652888 0.560815
0.695003 0.640864 0.615808
0.719326 0.654688 0.620386
0.764920 0.650782 0.552697
0.807675 0.638575 0.488808
0.846708 0.623194 0.430518
0.881926 0.607996 0.380621
0.913664 0.594598 0.339330
0.936065 0.576013 0.313787
0.934447 0.536431 0.323827
0.934691 0.504906 0.335058
0.938170 0.481636 0.348394
0.944457 0.466407 0.363958
0.953246 0.458564 0.381994
0.963348 0.457038 0.402869
0.974487 0.462623 0.426520
0.985290 0.473762 0.452888
0.992340 0.486641 0.483131
0.997345 0.503105 0.514885
1.000000 0.523400 0.546532
1.000000 0.546654 0.577813
0.321996 0.798886 0.488289
0.324926 0.798703 0.488106
0.336492 0.798154 0.487404
0.358984 0.796567 0.485054
0.390265 0.794278 0.481788
0.429084 0.791135 0.477180
0.472450 0.786831 0.471260
0.518486 0.781369 0.463203
0.578576 0.773312 0.469429
0.649805 0.761135 0.507683
0.702693 0.748196 0.548363
0.738308 0.734829 0.590967
0.755703 0.721065 0.634211
0.753811 0.709255 0.678981
0.766201 0.720027 0.698207
0.802060 0.715969 0.638025
0.838071 0.704524 0.579034
0.872343 0.689540 0.523613
0.904265 0.673548 0.472541
0.933501 0.658076 0.426581
0.959991 0.643977 0.387030
0.972869 0.619532 0.373480
0.975280 0.589227 0.383185
0.979034 0.566278 0.396063
0.984039 0.550072 0.411994
0.990112 0.540764 0.430884
0.996887 0.538140 0.452522
1.000000 0.541070 0.476478
1.000000 0.548974 0.502007
1.000000 0.559136 0.530480
1.000000 0.571649 0.560601
1.000000 0.587671 0.590173
0.459754 0.838102 0.564019
0.460853 0.838071 0.564080
0.466438 0.837400 0.562737
0.477516 0.836362 0.561212
0.493721 0.834806 0.558221
0.515953 0.832334 0.554040
0.542565 0.829282 0.548791
0.573175 0.825437 0.542138
0.606867 0.820676 0.534051
0.662776 0.812467 0.553735
0.716060 0.802518 0.587640
0.756619 0.792172 0.623438
0.783963 0.781643 0.660243
0.797269 0.771206 0.696071
0.795285 0.760952 0.729976
0.800076 0.768643 0.756405
0.827207 0.765927 0.708614
0.856809 0.756344 0.658137
0.886809 0.743008 0.607752
0.915435 0.727993 0.559960
0.942290 0.712795 0.516289
0.967376 0.698451 0.476753
0.990661 0.685603 0.442054
0.998169 0.661463 0.441352
1.000000 0.639673 0.452369
1.000000 0.623682 0.466865
1.000000 0.613672 0.484382
1.000000 0.609064 0.504295
1.000000 0.609369 0.525963
1.000000 0.613855 0.548791
1.000000 0.620691 0.574365
1.000000 0.629816 0.602411
0.557336 0.864775 0.629755
0.558038 0.864714 0.629633
0.561151 0.864347 0.628901
0.567254 0.863615 0.627527
0.576745 0.862425 0.625116
0.589746 0.860746 0.621790
0.606439 0.858549 0.617517
0.625971 0.855802 0.611597
0.648890 0.852445 0.604852
0.675563 0.848325 0.598871
0.725765 0.840360 0.627008
0.766323 0.832242 0.656855
0.796994 0.824002 0.686915
0.817441 0.815824 0.715938
0.827512 0.807706 0.743893
0.826413 0.799924 0.770260
0.826291 0.804593 0.798764
0.846464 0.802853 0.761501
0.869810 0.795712 0.721401
0.894896 0.784970 0.679438
0.920409 0.772000 0.637049
0.945251 0.758663 0.597345
0.968872 0.745724 0.561212
0.991089 0.733364 0.528252
1.000000 0.720912 0.502037
1.000000 0.700771 0.510124
1.000000 0.685603 0.521874
1.000000 0.674891 0.536614
1.000000 0.668879 0.553399
1.000000 0.666835 0.571893
1.000000 0.668238 0.591272
1.000000 0.672053 0.614374
0.631159 0.884001 0.684901
0.631525 0.883940 0.684688
0.633295 0.883635 0.684108
0.637110 0.883146 0.683101
0.642664 0.882292 0.681117
0.650843 0.881102 0.678584
0.661463 0.879545 0.675410
0.674189 0.877592 0.670863
0.689448 0.875151 0.665553
0.706844 0.872313 0.659266
0.735561 0.867735 0.664698
0.773281 0.861143 0.688289
0.803769 0.854582 0.712215
0.826993 0.847959 0.735775
0.842649 0.841398 0.758633
0.850553 0.835050 0.780575
0.849943 0.828824 0.801205
0.847807 0.831388 0.827451
0.862119 0.830472 0.800473
0.880552 0.825193 0.768673
0.901152 0.817197 0.735500
0.923064 0.807370 0.701595
0.945281 0.796628 0.668330
0.967163 0.785367 0.635950
0.988037 0.774258 0.605890
1.000000 0.763516 0.578119
1.000000 0.750637 0.564691
1.000000 0.736172 0.573297
1.000000 0.725338 0.584710
1.000000 0.718227 0.598352
1.000000 0.714260 0.613245
1.000000 0.713130 0.628901
0.685512 0.898680 0.728420
0.685756 0.898650 0.728389
0.687037 0.898436 0.727962
0.689296 0.898070 0.727077
0.693141 0.897429 0.725765
0.698451 0.896544 0.723690
0.705501 0.895354 0.721126
0.714321 0.893919 0.717983
0.724849 0.892180 0.714015
0.736843 0.890105 0.709194
0.750912 0.887633 0.703792
0.779751 0.882902 0.716701
0.808560 0.877440 0.735714
0.832090 0.871977 0.754788
0.850095 0.866575 0.773434
0.862394 0.861265 0.791562
0.868589 0.856077 0.808835
0.868345 0.851072 0.825315
0.866209 0.851896 0.845884
0.875456 0.851896 0.829892
0.890196 0.848356 0.804776
0.907256 0.842679 0.778775
0.925780 0.835508 0.752316
0.945006 0.827146 0.725582
0.964385 0.818112 0.699153
0.983337 0.808713 0.673396
1.000000 0.799008 0.648280
1.000000 0.789151 0.623682
1.000000 0.777096 0.620142
1.000000 0.766476 0.628321
1.000000 0.758511 0.638209
1.000000 0.753079 0.649378
0.727077 0.910277 0.762997
0.727352 0.910246 0.762905
0.728115 0.910094 0.762631
0.729702 0.909819 0.761929
0.732448 0.909331 0.760922
0.736141 0.908690 0.759548
0.740993 0.907805 0.757443
0.747097 0.906706 0.754940
0.754543 0.905394 0.752041
0.763394 0.903807 0.748440
0.773373 0.901976 0.744137
0.787015 0.899596 0.742092
0.813046 0.895109 0.757198
0.835538 0.890532 0.772519
0.854063 0.885985 0.787747
0.868406 0.881529 0.802762
0.878233 0.877134 0.817350
0.883238 0.872862 0.831327
0.883268 0.868742 0.844816
0.881254 0.868711 0.861265
0.887175 0.869352 0.853147
0.899321 0.867155 0.833036
0.913420 0.863218 0.812406
0.929015 0.857939 0.791440
0.945495 0.851530 0.770077
0.962341 0.844388 0.748745
0.979278 0.836606 0.727321
0.995911 0.828305 0.705867
1.000000 0.819638 0.684504
1.000000 0.810330 0.662287
1.000000 0.799741 0.666194
1.000000 0.791043 0.672328
0.760037 0.919829 0.790738
0.760159 0.919829 0.790677
0.760769 0.919677 0.790402
0.761929 0.919493 0.790036
0.763912 0.919127 0.789242
0.766506 0.918608 0.788083
0.770108 0.917967 0.786618
0.774563 0.917144 0.784726
0.779934 0.916167 0.782528
0.786435 0.914946 0.779843
0.793973 0.913573 0.776669
0.802548 0.912016 0.773068
0.818509 0.909270 0.777096
0.839139 0.905486 0.789395
0.857145 0.901671 0.801907
0.872007 0.897887 0.814328
0.883543 0.894194 0.826535
0.891569 0.890532 0.838499
0.895750 0.887022 0.850156
0.895903 0.883604 0.861326
0.894133 0.883024 0.874693
0.897673 0.883970 0.872099
0.907744 0.882689 0.855589
0.919585 0.879973 0.838773
0.932769 0.876097 0.821836
0.946868 0.871183 0.804623
0.961486 0.865537 0.787289
0.976349 0.859129 0.769558
0.991241 0.852079 0.751400
1.000000 0.844358 0.732540
1.000000 0.835874 0.712612
1.000000 0.826291 0.697047
0.787289 0.928161 0.814023
0.787381 0.928130 0.813962
0.787778 0.928038 0.813718
0.788693 0.927886 0.813443
0.790127 0.927611 0.812863
0.792142 0.927245 0.812039
0.794736 0.926757 0.810849
0.798123 0.926116 0.809445
0.802213 0.925353 0.807767
0.807065 0.924468 0.805753
0.812741 0.923430 0.803342
0.819303 0.922210 0.800656
0.826688 0.920897 0.797482
0.843656 0.917967 0.805570
0.860410 0.914763 0.815793
0.874937 0.911559 0.826047
0.887114 0.908385 0.836332
0.896544 0.905272 0.846464
0.903136 0.902190 0.856413
0.906676 0.899229 0.866148
0.906950 0.896391 0.875578
0.905272 0.895415 0.886534
0.907042 0.896422 0.887877
0.915465 0.895781 0.874083
0.925536 0.893950 0.860166
0.936797 0.891051 0.846098
0.948943 0.887297 0.831876
0.961639 0.882719 0.817380
0.974640 0.877470 0.802548
0.987884 0.871397 0.787015
1.000000 0.864530 0.770443
1.000000 0.856626 0.752102
0.810330 0.935515 0.833860
0.810391 0.935515 0.833829
0.810697 0.935454 0.833677
0.811398 0.935302 0.833402
0.812436 0.935119 0.832914
0.813962 0.934813 0.832242
0.815976 0.934478 0.831449
0.818540 0.933989 0.830381
0.821683 0.933410 0.829007
0.825406 0.932708 0.827481
0.829770 0.931945 0.825681
0.834867 0.931029 0.823575
0.840635 0.929992 0.821225
0.849149 0.928527 0.820981
0.864286 0.925841 0.829252
0.878019 0.923095 0.837736
0.889982 0.920378 0.846311
0.899931 0.917662 0.854856
0.907744 0.915007 0.863371
0.913268 0.912413 0.871763
0.916320 0.909911 0.880034
0.916625 0.907500 0.888090
0.915068 0.906249 0.897093
0.915496 0.907164 0.901183
0.922637 0.906981 0.889525
0.931243 0.905760 0.877775
0.940917 0.903624 0.865873
0.951415 0.900664 0.853819
0.962463 0.896941 0.841459
0.973968 0.892485 0.828611
0.985718 0.887144 0.814908
0.997803 0.880858 0.799863
0.830137 0.942077 0.851072
0.830167 0.942077 0.851011
0.830442 0.942016 0.850919
0.830991 0.941924 0.850675
0.831785 0.941741 0.850309
0.833005 0.941527 0.849851
0.834562 0.941253 0.849180
0.836484 0.940917 0.848325
0.838895 0.940459 0.847257
0.841886 0.939940 0.846067
0.845274 0.939330 0.844663
0.849210 0.938628 0.843015
0.853696 0.937865 0.841184
0.858762 0.936980 0.839109
0.868833 0.935271 0.842161
0.881437 0.932921 0.849119
0.892790 0.930602 0.856260
0.902739 0.928252 0.863523
0.911070 0.925933 0.870756
0.917632 0.923674 0.877989
0.922240 0.921477 0.885130
0.924834 0.919341 0.892210
0.925200 0.917235 0.899138
0.923796 0.915892 0.906645
0.923095 0.916533 0.912566
0.929229 0.916625 0.902617
0.936584 0.915862 0.892515
0.944976 0.914275 0.882292
0.954101 0.911925 0.871855
0.963806 0.908812 0.861021
0.973907 0.904906 0.849607
0.984436 0.900084 0.837125
0.847410 0.947906 0.866087
0.847440 0.947906 0.866087
0.847623 0.947875 0.865965
0.848020 0.947784 0.865812
0.848722 0.947662 0.865507
0.849638 0.947509 0.865141
0.850828 0.947295 0.864591
0.852384 0.946990 0.863920
0.854307 0.946685 0.863096
0.856596 0.946288 0.862150
0.859281 0.945800 0.861021
0.862364 0.945281 0.859739
0.865934 0.944671 0.858274
0.869963 0.944030 0.856687
0.874540 0.943297 0.854887
0.885405 0.941405 0.860197
0.895933 0.939391 0.866148
0.905455 0.937377 0.872221
0.913756 0.935363 0.878386
0.920775 0.933410 0.884581
0.926329 0.931426 0.890745
0.930266 0.929534 0.896910
0.932525 0.927703 0.903014
0.932891 0.925933 0.909026
0.931640 0.924529 0.915343
0.930022 0.924773 0.922332
0.935271 0.925109 0.913817
0.941650 0.924651 0.905089
0.948882 0.923461 0.896147
0.956817 0.921508 0.886900
0.965362 0.918791 0.877165
0.974334 0.915251 0.866697
0.862730 0.953155 0.879484
0.862760 0.953155 0.879454
0.862913 0.953124 0.879393
0.863249 0.953063 0.879240
0.863767 0.952972 0.879026
0.864500 0.952850 0.878721
0.865446 0.952667 0.878294
0.866697 0.952483 0.877775
0.868162 0.952209 0.877134
0.869993 0.951904 0.876341
0.872129 0.951568 0.875456
0.874571 0.951171 0.874418
0.877440 0.950713 0.873259
0.880644 0.950225 0.871946
0.884276 0.949676 0.870542
0.890013 0.948760 0.870909
0.899535 0.947021 0.875822
0.908415 0.945312 0.880919
0.916411 0.943572 0.886107
0.923430 0.941833 0.891386
0.929351 0.940124 0.896727
0.934081 0.938445 0.902037
0.937438 0.936797 0.907378
0.939391 0.935210 0.912657
0.939788 0.933623 0.917906
0.938689 0.932311 0.923247
0.937072 0.932158 0.929198
0.940764 0.932555 0.923552
0.946319 0.932311 0.915831
0.952636 0.931365 0.907927
0.959564 0.929717 0.899626
0.966979 0.927214 0.890593
0.876555 0.957855 0.891569
0.876585 0.957855 0.891539
0.876707 0.957824 0.891508
0.876982 0.957794 0.891386
0.877348 0.957733 0.891173
0.877928 0.957641 0.890959
0.878721 0.957519 0.890623
0.879667 0.957336 0.890166
0.880858 0.957153 0.889616
0.882292 0.956939 0.889036
0.883970 0.956664 0.888304
0.885985 0.956359 0.887510
0.888212 0.956054 0.886534
0.890837 0.955657 0.885496
0.893706 0.955261 0.884367
0.896941 0.954833 0.883085
0.903716 0.953674 0.885374
0.911742 0.952209 0.889586
0.919219 0.950683 0.893950
0.925994 0.949187 0.898405
0.931945 0.947692 0.902922
0.937011 0.946197 0.907500
0.941039 0.944762 0.912108
0.943938 0.943328 0.916747
0.945617 0.941955 0.921355
0.945983 0.940612 0.925963
0.945098 0.939330 0.930541
0.943450 0.938842 0.935515
0.945892 0.939208 0.932097
0.950652 0.939117 0.925292
0.956054 0.938262 0.918029
0.961913 0.936431 0.909911
0.888975 0.962097 0.902403
0.889006 0.962097 0.902434
0.889097 0.962066 0.902373
0.889311 0.962036 0.902281
0.889616 0.962005 0.902129
0.890074 0.961944 0.901946
0.890684 0.961852 0.901640
0.891478 0.961730 0.901305
0.892424 0.961578 0.900908
0.893614 0.961425 0.900389
0.894957 0.961242 0.899840
0.896544 0.960998 0.899138
0.898344 0.960754 0.898405
0.900450 0.960479 0.897581
0.902800 0.960174 0.896696
0.905394 0.959869 0.895628
0.908415 0.959503 0.894682
0.915618 0.958221 0.898161
0.922454 0.956939 0.901793
0.928801 0.955627 0.905547
0.934508 0.954345 0.909392
0.939574 0.953033 0.913298
0.943847 0.951751 0.917235
0.947326 0.950500 0.921233
0.949828 0.949279 0.925261
0.951293 0.948058 0.929259
0.951690 0.946899 0.933288
0.950896 0.945739 0.937285
0.949248 0.944976 0.941375
0.950469 0.945037 0.939483
0.954314 0.944701 0.933043
0.958801 0.943633 0.925963
0.900328 0.965911 0.912352
0.900359 0.965911 0.912352
0.900420 0.965911 0.912322
0.900603 0.965881 0.912230
0.900816 0.965850 0.912108
0.901183 0.965789 0.911955
0.901701 0.965728 0.911742
0.902342 0.965637 0.911467
0.903105 0.965545 0.911131
0.904051 0.965423 0.910735
0.905150 0.965301 0.910277
0.906401 0.965148 0.909728
0.907897 0.964965 0.909148
0.909575 0.964782 0.908507
0.911467 0.964569 0.907744
0.913573 0.964324 0.906920
0.915953 0.964080 0.906065
0.919982 0.963500 0.906584
0.926085 0.962402 0.909636
0.931853 0.961303 0.912810
0.937255 0.960174 0.916045
0.942107 0.959075 0.919341
0.946441 0.957946 0.922698
0.950103 0.956878 0.926146
0.953063 0.955779 0.929595
0.955200 0.954711 0.933104
0.956451 0.953643 0.936522
0.956725 0.952514 0.939910
0.955962 0.951354 0.943236
0.954101 0.950103 0.946288
0.954192 0.949737 0.945434
0.957366 0.949218 0.939330
0.910857 0.969360 0.921508
0.910857 0.969360 0.921508
0.910948 0.969329 0.921477
0.911040 0.969329 0.921416
0.911284 0.969299 0.921355
0.911589 0.969299 0.921202
0.911986 0.969207 0.921019
0.912444 0.969177 0.920806
0.913115 0.969116 0.920562
0.913848 0.969024 0.920226
0.914763 0.968933 0.919890
0.915770 0.968841 0.919463
0.916960 0.968688 0.919005
