20 Preset/Dark Style/【3】LUT video cho PR-AE-FCPX/19Tones (6)/19tp2.cube
# Created by Adobe Lightroom plugin Export LUT (1.24.0)
# www.johnrellis.com/lightroom/exportlut.htm
# Preset: 19tp2
# Color profile: E:\lut插件\exportlut.1.24\exportlut.lrplugin\color profiles\Rec709gamma2.4.icc
LUT_3D_SIZE 8
DOMAIN_MIN 0.000000 0.000000 0.000000
DOMAIN_MAX 0.903226 0.903226 0.903226
0.057893 0.128908 0.143984
0.059419 0.131319 0.146120
0.080903 0.146426 0.159487
0.095521 0.161807 0.173220
0.120089 0.190127 0.197940
0.203281 0.276219 0.274144
0.410437 0.471443 0.473945
0.632685 0.663600 0.682124
0.063508 0.134768 0.149325
0.066102 0.135866 0.150423
0.080873 0.146822 0.159823
0.095216 0.160922 0.172457
0.117891 0.187503 0.195560
0.194736 0.267643 0.266361
0.379736 0.443091 0.443122
0.609369 0.644617 0.661799
0.093294 0.159182 0.170809
0.093568 0.159365 0.171115
0.095888 0.161593 0.173068
0.101259 0.168856 0.179294
0.117891 0.187503 0.195560
0.192996 0.265965 0.264744
0.381842 0.445197 0.445319
0.613031 0.647608 0.665034
0.145602 0.217624 0.221744
0.145968 0.218082 0.222141
0.151186 0.223606 0.226932
0.171420 0.244327 0.245274
0.203281 0.276219 0.274144
0.207431 0.280247 0.277806
0.337041 0.403540 0.400641
0.575738 0.616907 0.631891
0.382788 0.445899 0.446174
0.381720 0.444953 0.445136
0.382818 0.446021 0.446296
0.403052 0.464698 0.466590
0.431922 0.491218 0.495491
0.478614 0.533288 0.541344
0.469459 0.525139 0.532464
0.509026 0.560204 0.570520
0.670008 0.693690 0.714076
0.676692 0.699031 0.719753
0.675837 0.698360 0.719051
0.677638 0.699794 0.720577
0.691066 0.710597 0.731868
0.711879 0.727291 0.749325
0.759792 0.766232 0.789273
0.761807 0.767849 0.790921
0.836545 0.832700 0.854459
0.837217 0.833310 0.855070
0.836423 0.832609 0.854398
0.835935 0.832120 0.853941
0.838071 0.834073 0.855802
0.845304 0.840696 0.862089
0.855039 0.849851 0.870665
0.875761 0.869688 0.888975
0.914366 0.908415 0.923644
0.914366 0.908446 0.923674
0.914641 0.908721 0.923919
0.915618 0.909728 0.924804
0.912779 0.906798 0.922240
0.917266 0.911467 0.926329
0.923003 0.917418 0.931487
0.928740 0.923461 0.936736
0.034913 0.135195 0.150423
0.061921 0.133394 0.148013
0.083070 0.148409 0.161318
0.099977 0.166506 0.177462
0.129763 0.201083 0.207248
0.221530 0.294194 0.290715
0.406378 0.467750 0.469917
0.620417 0.653620 0.671443
0.055665 0.136294 0.151644
0.073365 0.141085 0.154879
0.088441 0.152590 0.165042
0.099977 0.166873 0.177737
0.128389 0.199557 0.205997
0.216007 0.288670 0.285618
0.389837 0.452461 0.453254
0.604425 0.640589 0.657465
0.096284 0.162844 0.173922
0.096956 0.163180 0.174228
0.098482 0.165377 0.176303
0.104799 0.172335 0.182498
0.125856 0.196292 0.203189
0.203677 0.276646 0.274449
0.374365 0.438209 0.437873
0.599573 0.636591 0.653162
0.150088 0.222293 0.225834
0.150637 0.222599 0.226139
0.154604 0.226932 0.229831
0.168368 0.241459 0.242649
0.191836 0.265080 0.263828
0.194888 0.268101 0.266667
0.324681 0.391943 0.388464
0.558221 0.602289 0.616114
0.388769 0.451514 0.452216
0.386206 0.449195 0.449714
0.383642 0.446784 0.447089
0.395789 0.457984 0.459297
0.418830 0.479164 0.482368
0.463081 0.519432 0.526238
0.453773 0.510979 0.517052
0.491554 0.544793 0.553796
0.665797 0.690303 0.710506
0.666163 0.690578 0.710842
0.665980 0.690455 0.710689
0.668910 0.692836 0.713191
0.684688 0.705470 0.726528
0.708736 0.724758 0.746700
0.755550 0.762722 0.785733
0.754696 0.762051 0.785031
0.833127 0.829557 0.851499
0.832181 0.828702 0.850675
0.831144 0.827756 0.849790
0.831235 0.827878 0.849912
0.834958 0.831235 0.853117
0.842344 0.837980 0.859525
0.851102 0.846128 0.867185
0.871824 0.865843 0.885466
0.912657 0.906676 0.922118
0.913115 0.907103 0.922515
0.913329 0.907347 0.922698
0.914275 0.908354 0.923613
0.915435 0.909545 0.924651
0.918608 0.912840 0.927489
0.923156 0.917601 0.931640
0.928832 0.923522 0.936767
0.000000 0.149844 0.170718
0.028595 0.143252 0.170413
0.090822 0.155734 0.167880
0.109499 0.178225 0.187320
0.178988 0.252049 0.252171
0.364630 0.429114 0.427985
0.546014 0.591943 0.604913
0.708797 0.724788 0.746731
0.000000 0.159701 0.173159
0.034668 0.154696 0.173617
0.095308 0.161288 0.172610
0.115602 0.184817 0.193179
0.188815 0.262089 0.261143
0.351110 0.416693 0.414679
0.527489 0.576196 0.587823
0.696101 0.714595 0.736110
0.089387 0.166964 0.179782
0.094057 0.169497 0.181521
0.112123 0.180880 0.189853
0.132204 0.203464 0.209293
0.195560 0.268681 0.267155
0.323186 0.390570 0.386969
0.500969 0.553155 0.562829
0.680140 0.701808 0.722683
0.192233 0.265324 0.264073
0.199771 0.272587 0.270787
0.204257 0.277012 0.274846
0.219608 0.292149 0.288884
0.235477 0.307439 0.303319
0.261906 0.332647 0.327764
0.439490 0.498054 0.502953
0.641535 0.670771 0.689784
0.456550 0.513481 0.519799
0.455573 0.512688 0.518914
0.454322 0.511528 0.517632
0.461372 0.517815 0.524498
0.484871 0.538903 0.547356
0.508415 0.559625 0.569848
0.480385 0.534936 0.543053
0.565454 0.608331 0.622675
0.700771 0.718318 0.740017
0.701320 0.718807 0.740505
0.700099 0.717830 0.739467
0.698390 0.716396 0.738003
0.709255 0.725154 0.747127
0.730343 0.742153 0.764706
0.768154 0.773159 0.796262
0.763241 0.769070 0.792142
0.846067 0.841428 0.862760
0.845335 0.840757 0.862119
0.843626 0.839231 0.860685
0.842557 0.838224 0.859739
0.843992 0.839506 0.860960
0.851133 0.846128 0.867185
0.860533 0.855039 0.875456
0.881285 0.875059 0.893889
0.916808 0.910979 0.925872
0.916594 0.910735 0.925689
0.916686 0.910857 0.925780
0.918120 0.912291 0.927031
0.918853 0.913115 0.927764
0.922148 0.916533 0.930724
0.926726 0.921324 0.934874
0.932067 0.926970 0.939757
0.000000 0.165255 0.196963
0.000000 0.163394 0.198917
0.087068 0.162081 0.204379
0.132357 0.203555 0.209537
0.224033 0.296361 0.292851
0.444862 0.502922 0.508263
0.643153 0.672084 0.691188
0.785855 0.787991 0.811093
0.000000 0.179019 0.204257
0.000000 0.176150 0.206516
0.073579 0.167788 0.214359
0.144839 0.216983 0.221103
0.248112 0.319371 0.314855
0.461616 0.518120 0.524834
0.650629 0.678096 0.697597
0.788510 0.790311 0.813352
0.000000 0.213657 0.202792
0.000000 0.218784 0.208682
0.000000 0.215610 0.241978
0.192996 0.265965 0.264744
0.339178 0.405554 0.402808
0.525811 0.574731 0.586297
0.696895 0.715206 0.736751
0.792386 0.793637 0.816648
0.082826 0.270115 0.285557
0.110933 0.276829 0.290806
0.203311 0.315282 0.322911
0.313909 0.381842 0.377874
0.369543 0.433692 0.432959
0.493446 0.546563 0.555657
0.630976 0.662226 0.680629
0.756893 0.763790 0.786801
0.535546 0.583062 0.595300
0.538903 0.585901 0.598383
0.557488 0.601648 0.615412
0.564569 0.607568 0.621881
0.578210 0.618952 0.634150
0.566918 0.609583 0.624018
0.513054 0.563622 0.574243
0.694697 0.713436 0.734890
0.761868 0.767941 0.790982
0.765408 0.770871 0.793942
0.762356 0.768338 0.791409
0.759457 0.765927 0.788998
0.760006 0.766384 0.789425
0.771633 0.776089 0.799161
0.789456 0.791073 0.814145
0.773098 0.777249 0.800381
0.865293 0.859525 0.879667
0.865446 0.859678 0.879789
0.865080 0.859342 0.879454
0.864408 0.858732 0.878904
0.862943 0.857298 0.877562
0.867582 0.861784 0.881712
0.874418 0.868315 0.887755
0.892882 0.886564 0.904265
0.925689 0.920226 0.933928
0.925658 0.920195 0.933898
0.925597 0.920134 0.933867
0.925811 0.920409 0.934051
0.926146 0.920714 0.934356
0.928130 0.922820 0.936156
0.932433 0.927367 0.940063
0.937774 0.933043 0.944915
0.000000 0.220279 0.285130
0.000000 0.218173 0.293004
0.000000 0.198398 0.321019
0.210025 0.230533 0.369787
0.350042 0.415656 0.413519
0.511284 0.562158 0.572625
0.722072 0.735470 0.757839
0.822599 0.820096 0.842435
0.000000 0.238834 0.298100
0.000000 0.236362 0.306554
0.000000 0.215549 0.337346
0.215946 0.244602 0.389685
0.374548 0.438300 0.437964
0.532250 0.580224 0.592218
0.729549 0.741512 0.764065
0.825406 0.822599 0.844877
0.000000 0.307225 0.318608
0.000000 0.306859 0.329320
0.000000 0.289830 0.369726
0.191379 0.291478 0.451453
0.448707 0.506462 0.512108
0.593072 0.631281 0.647425
0.749874 0.758022 0.780941
0.832822 0.829282 0.851255
0.000000 0.378759 0.336278
0.000000 0.383154 0.337957
0.000000 0.403754 0.343999
0.000000 0.452430 0.510460
0.555474 0.600000 0.613611
0.689509 0.709285 0.730556
0.782498 0.785183 0.808255
0.848783 0.843992 0.865171
0.289158 0.538384 0.581720
0.320073 0.545953 0.587976
0.424598 0.577569 0.614466
0.572900 0.637018 0.664576
0.652522 0.679622 0.699214
0.662440 0.687617 0.707668
0.745510 0.754513 0.777371
0.818875 0.816739 0.839200
0.775845 0.779599 0.802701
0.777554 0.781003 0.804105
0.781735 0.784543 0.807645
0.790677 0.792142 0.815183
0.790768 0.792233 0.815244
0.801083 0.801114 0.824002
0.795438 0.796231 0.819211
0.759579 0.766049 0.789090
0.880613 0.874418 0.893278
0.880583 0.874388 0.893278
0.881773 0.875517 0.894316
0.882261 0.875975 0.894713
0.880705 0.874479 0.893370
0.880827 0.874601 0.893462
0.886046 0.879789 0.898131
0.895903 0.889586 0.906981
0.933013 0.927977 0.940581
0.932891 0.927855 0.940490
0.932616 0.927581 0.940276
0.933623 0.928618 0.941161
0.933776 0.928771 0.941283
0.934112 0.929107 0.941588
0.937835 0.933104 0.944976
0.942473 0.938048 0.949187
0.000000 0.350378 0.505211
0.000000 0.346349 0.516503
0.000000 0.318608 0.554833
0.000000 0.251835 0.622919
0.569726 0.517540 0.682521
0.670527 0.694118 0.714565
0.752865 0.760494 0.783444
0.856565 0.851255 0.871977
0.000000 0.362554 0.503929
0.000000 0.358129 0.513634
0.000000 0.333227 0.553674
0.000000 0.272404 0.623804
0.567498 0.520623 0.683528
0.673457 0.696468 0.717037
0.755428 0.762631 0.785611
0.857267 0.851957 0.872618
0.000000 0.436316 0.523522
0.000000 0.433753 0.534447
0.000000 0.417548 0.579858
0.000000 0.370306 0.651087
0.592523 0.565454 0.718105
0.715511 0.730220 0.752377
0.786801 0.788815 0.811887
0.870359 0.864408 0.884123
0.000000 0.506798 0.463508
0.000000 0.522515 0.488472
0.000000 0.552789 0.565118
0.000000 0.543145 0.671412
0.601312 0.626093 0.763699
0.775296 0.779141 0.802243
0.831754 0.828336 0.850340
0.886870 0.880552 0.898863
0.000000 0.631861 0.595972
0.000000 0.634058 0.596643
0.000000 0.643580 0.598810
0.000000 0.661372 0.598352
0.454566 0.702358 0.754696
0.805203 0.804715 0.827512
0.860563 0.855039 0.875486
0.894621 0.888334 0.905852
0.610468 0.746670 0.791684
0.624384 0.750942 0.794949
0.666163 0.761440 0.802243
0.733211 0.783230 0.818418
0.806363 0.814817 0.842008
0.838193 0.834195 0.855894
0.837736 0.833799 0.855528
0.876799 0.870665 0.889891
0.894102 0.887785 0.905364
0.895018 0.888701 0.906218
0.896849 0.890532 0.907836
0.900145 0.893828 0.910765
0.903960 0.897795 0.914275
0.902434 0.896208 0.912871
0.904234 0.898039 0.914488
0.900389 0.894133 0.911040
0.940398 0.935821 0.947295
0.940429 0.935882 0.947326
0.941344 0.936858 0.948150
0.943694 0.939361 0.950286
0.945098 0.940887 0.951568
0.944701 0.940429 0.951202
0.946197 0.942046 0.952575
0.950256 0.946410 0.956237
0.000000 0.524651 0.741512
0.000000 0.519585 0.747951
0.000000 0.489387 0.768490
0.000000 0.429023 0.803769
0.465339 0.515282 0.832151
0.806119 0.764797 0.840513
0.833951 0.830350 0.852232
0.859129 0.853696 0.874205
0.000000 0.533349 0.736202
0.000000 0.529107 0.743374
0.000000 0.500908 0.764584
0.000000 0.443488 0.799954
0.454688 0.518547 0.830259
0.804471 0.763394 0.839841
0.832853 0.829313 0.851286
0.857908 0.852537 0.873136
0.000000 0.589166 0.736507
0.000000 0.584680 0.742367
0.000000 0.562402 0.764553
0.000000 0.517479 0.802701
0.437873 0.556329 0.837705
0.816312 0.778256 0.851987
0.848478 0.843687 0.864866
0.873045 0.867033 0.886534
0.000000 0.675532 0.714656
0.000000 0.673732 0.721767
0.000000 0.662379 0.749172
0.000000 0.633234 0.796963
0.410040 0.631128 0.844297
0.829435 0.798581 0.869505
0.870603 0.864622 0.884337
0.892851 0.886503 0.904234
0.000000 0.648829 0.544427
0.000000 0.645045 0.538598
0.000000 0.689052 0.608331
0.000000 0.749660 0.739681
0.091524 0.726802 0.827878
0.813504 0.803250 0.878141
0.887846 0.881529 0.899718
0.912810 0.906828 0.922271
0.000000 0.813016 0.788266
0.000000 0.814176 0.788693
0.000000 0.818723 0.789639
0.000000 0.819760 0.783230
0.000000 0.817746 0.765866
0.728115 0.829435 0.870146
0.906706 0.900542 0.916716
0.933379 0.928374 0.940917
0.786954 0.856626 0.890990
0.791257 0.857939 0.891844
0.805692 0.862058 0.894347
0.832090 0.870512 0.899657
0.866148 0.883848 0.908385
0.903471 0.903441 0.921904
0.920195 0.914488 0.928923
0.920256 0.914549 0.929015
0.947265 0.943206 0.953552
0.947601 0.943572 0.953857
0.949157 0.945220 0.955230
0.951476 0.947723 0.957336
0.954498 0.951019 0.960082
0.957946 0.954711 0.963165
0.958221 0.954986 0.963439
0.960632 0.957580 0.965545
0.000000 0.681697 0.891173
0.000000 0.676753 0.893095
0.000000 0.652461 0.899016
0.000000 0.615381 0.910094
0.355474 0.618402 0.918761
0.801572 0.765103 0.913848
0.899962 0.878080 0.912383
0.907622 0.901488 0.917540
0.000000 0.689052 0.888609
0.000000 0.684169 0.890654
0.000000 0.661189 0.897154
0.000000 0.624506 0.908415
0.354162 0.625788 0.917723
0.800015 0.766171 0.913817
0.900175 0.878050 0.912718
0.907774 0.901640 0.917693
0.000000 0.725795 0.884031
0.000000 0.721004 0.885924
0.000000 0.700191 0.892882
0.000000 0.668330 0.906188
0.371527 0.663447 0.916838
0.798520 0.776150 0.916381
0.904784 0.882414 0.917540
0.912963 0.906981 0.922393
0.000000 0.790036 0.871885
0.000000 0.786343 0.874357
0.000000 0.768795 0.883055
0.000000 0.737209 0.898711
0.346410 0.719570 0.914275
0.788571 0.790249 0.921202
0.912139 0.889860 0.925872
0.922606 0.917021 0.931121
0.000000 0.866148 0.837186
0.000000 0.864744 0.840848
0.000000 0.854337 0.853971
0.000000 0.827085 0.878477
0.000000 0.786160 0.904448
0.748592 0.802365 0.923339
0.916136 0.895109 0.933837
0.933867 0.928862 0.941375
0.000000 0.878569 0.780514
0.000000 0.877073 0.777584
0.000000 0.871702 0.765835
0.000000 0.858793 0.741421
0.000000 0.894652 0.865995
0.642237 0.844846 0.915557
0.911162 0.899229 0.941985
0.948272 0.944274 0.954467
0.000000 0.920226 0.902770
0.000000 0.920378 0.902586
0.000000 0.921416 0.901915
0.000000 0.924102 0.900938
0.000000 0.924254 0.894713
0.000000 0.918090 0.875029
0.858579 0.908507 0.937743
0.960632 0.957580 0.965545
0.878569 0.925994 0.948882
0.879820 0.926329 0.949035
0.885710 0.928130 0.949981
0.897398 0.932128 0.952209
0.913970 0.938262 0.955657
0.934417 0.946929 0.960815
0.957824 0.959716 0.969055
0.971344 0.969238 0.975189
