20 Preset/Dark Style/【3】LUT video cho PR-AE-FCPX/19Tones (6)/19tp2.cube
# Created by Adobe Lightroom plugin Export LUT (1.24.0)
# www.johnrellis.com/lightroom/exportlut.htm
# Preset: 19tp2
# Color profile: E:\lut插件\exportlut.1.24\exportlut.lrplugin\color profiles\Rec709gamma2.4.icc
LUT_3D_SIZE 32
DOMAIN_MIN 0.0 0.0 0.0
DOMAIN_MAX 1.0 1.0 1.0
0.057893 0.128908 0.143984
0.057893 0.128908 0.143984
0.057893 0.128908 0.143984
0.057893 0.128908 0.143984
0.059419 0.131319 0.146120
0.063539 0.134310 0.148959
0.068910 0.138308 0.152407
0.074952 0.142336 0.156100
0.080903 0.146426 0.159487
0.085267 0.150332 0.163119
0.089784 0.154086 0.166506
0.092226 0.157931 0.169741
0.095521 0.161807 0.173220
0.099367 0.166201 0.177157
0.104219 0.172061 0.182223
0.110750 0.179873 0.188937
0.120089 0.190127 0.197940
0.132845 0.204074 0.209842
0.149905 0.222202 0.225742
0.173220 0.246220 0.246983
0.203281 0.276219 0.274144
0.248112 0.319371 0.314855
0.297704 0.366613 0.362036
0.352514 0.417823 0.415900
0.410437 0.471443 0.473945
0.468238 0.524071 0.531273
0.524987 0.573968 0.585443
0.579858 0.620356 0.635645
0.632685 0.663600 0.682124
0.682795 0.703944 0.724941
0.728237 0.740444 0.762966
0.767941 0.772976 0.796078
0.057893 0.128908 0.143984
0.057893 0.128908 0.143984
0.057893 0.128908 0.143984
0.057588 0.128908 0.144198
0.061402 0.131258 0.146090
0.062837 0.134554 0.148928
0.069917 0.138064 0.152224
0.076265 0.142123 0.155734
0.080079 0.146212 0.159518
0.084657 0.150149 0.162966
0.089509 0.153902 0.166140
0.092256 0.157565 0.169436
0.095552 0.161440 0.172915
0.099458 0.165866 0.176730
0.104036 0.171572 0.181674
0.110231 0.179294 0.188418
0.119081 0.189334 0.197177
0.131716 0.202670 0.208743
0.148653 0.220768 0.224399
0.171420 0.244114 0.245090
0.200717 0.273564 0.271733
0.242985 0.314763 0.310246
0.290898 0.360204 0.355413
0.343511 0.409430 0.407019
0.399939 0.461830 0.463478
0.457923 0.514733 0.521141
0.514305 0.564813 0.575463
0.569787 0.611963 0.626581
0.623438 0.656092 0.674098
0.674647 0.697414 0.718074
0.721462 0.734981 0.757290
0.762387 0.768368 0.791440
0.057893 0.128908 0.143984
0.057893 0.128908 0.143984
0.057893 0.128908 0.143984
0.058564 0.129152 0.144411
0.062074 0.131472 0.146517
0.063508 0.134768 0.149325
0.069886 0.138521 0.152560
0.074952 0.142336 0.156100
0.080079 0.146212 0.159518
0.084840 0.150149 0.162783
0.089052 0.153719 0.166171
0.092531 0.157351 0.169467
0.095308 0.161288 0.172610
0.098817 0.165530 0.176425
0.103395 0.171267 0.181399
0.110048 0.178836 0.187869
0.118868 0.188602 0.196567
0.130861 0.201938 0.208042
0.147311 0.219547 0.223392
0.169741 0.242496 0.243656
0.199039 0.272129 0.270329
0.240421 0.312169 0.307836
0.287022 0.356481 0.351659
0.338933 0.405280 0.402533
0.393988 0.456397 0.457527
0.451392 0.508812 0.514672
0.508232 0.559472 0.569696
0.563684 0.606806 0.621057
0.617731 0.651484 0.669154
0.669703 0.693416 0.713832
0.717250 0.731594 0.753811
0.758907 0.765469 0.788510
0.059480 0.130343 0.145357
0.059480 0.130343 0.145357
0.060456 0.130556 0.145541
0.060426 0.131044 0.145907
0.063966 0.132876 0.147616
0.065126 0.135653 0.150240
0.070832 0.139162 0.153109
0.076204 0.142977 0.156435
0.081483 0.146609 0.159640
0.085878 0.150118 0.162966
0.089052 0.153719 0.166171
0.091890 0.157382 0.169284
0.095216 0.160922 0.172457
0.099062 0.165347 0.176455
0.103334 0.170932 0.181277
0.109682 0.178378 0.187625
0.117922 0.188083 0.195926
0.129763 0.200809 0.207004
0.145541 0.217624 0.221866
0.166934 0.239780 0.241184
0.196292 0.269139 0.267613
0.234806 0.306828 0.302708
0.279240 0.349218 0.344274
0.329625 0.396551 0.393286
0.384894 0.447913 0.448371
0.443427 0.501610 0.506889
0.501854 0.553857 0.563622
0.559106 0.602991 0.616876
0.614191 0.648554 0.666011
0.666529 0.690913 0.711147
0.714443 0.729366 0.751461
0.756008 0.763088 0.786069
0.063508 0.134768 0.149325
0.065522 0.134707 0.149325
0.064485 0.134981 0.149508
0.064454 0.135439 0.149844
0.066102 0.135866 0.150423
0.069947 0.137606 0.151858
0.072419 0.140444 0.154360
0.077852 0.143343 0.156954
0.080873 0.146822 0.159823
0.085878 0.150118 0.162966
0.089418 0.153506 0.166018
0.091890 0.157015 0.168978
0.095216 0.160922 0.172457
0.098482 0.165377 0.176303
0.102998 0.170779 0.181125
0.109712 0.178073 0.187350
0.117891 0.187503 0.195560
0.129061 0.199924 0.206332
0.144472 0.216526 0.220676
0.165469 0.238102 0.239811
0.194736 0.267643 0.266361
0.231876 0.304082 0.300053
0.274907 0.345037 0.340124
0.324987 0.392187 0.388708
0.379736 0.443091 0.443122
0.437964 0.496651 0.501427
0.496956 0.549554 0.558984
0.554101 0.598779 0.612329
0.609369 0.644617 0.661799
0.662226 0.687465 0.707515
0.710475 0.726192 0.748165
0.752743 0.760403 0.783352
0.071748 0.140230 0.153994
0.071443 0.140230 0.154177
0.072724 0.140444 0.154147
0.073396 0.140627 0.154513
0.072663 0.141329 0.154849
0.075288 0.141909 0.155550
0.077852 0.143343 0.156954
0.080751 0.145571 0.158999
0.083101 0.147982 0.160983
0.085878 0.150515 0.163302
0.089509 0.153902 0.166140
0.092531 0.157351 0.169467
0.095308 0.161288 0.172610
0.099367 0.165499 0.176608
0.103731 0.171084 0.181247
0.109407 0.178225 0.187503
0.117891 0.187503 0.195560
0.128847 0.199802 0.206210
0.144045 0.216068 0.220371
0.164828 0.237705 0.239414
0.194522 0.267491 0.266117
0.230961 0.303014 0.299107
0.311437 0.379492 0.375341
0.367590 0.431922 0.431006
0.425818 0.485542 0.489357
0.484352 0.538476 0.546960
0.541039 0.587762 0.600397
0.595300 0.633112 0.649409
0.646998 0.675166 0.694453
0.695308 0.713954 0.735409
0.737789 0.748196 0.770901
0.774319 0.778256 0.801389
0.081300 0.146609 0.159854
0.081300 0.146609 0.159854
0.080873 0.146822 0.159823
0.081483 0.147005 0.159976
0.082521 0.147402 0.160494
0.083101 0.147982 0.160983
0.083040 0.148806 0.161654
0.084840 0.150149 0.162783
0.087648 0.152255 0.164736
0.089784 0.154086 0.166506
0.090822 0.156130 0.168215
0.093599 0.158602 0.170504
0.096193 0.162478 0.173800
0.099733 0.167056 0.177707
0.104494 0.172519 0.182650
0.111055 0.179721 0.188815
0.119356 0.189181 0.197055
0.130861 0.201694 0.207828
0.146029 0.218326 0.222232
0.170321 0.243076 0.244205
0.202335 0.275456 0.273381
0.243320 0.314885 0.310460
0.292302 0.361364 0.356664
0.348241 0.413916 0.411719
0.408331 0.469581 0.471870
0.469123 0.524865 0.532158
0.527245 0.575952 0.587549
0.582086 0.622156 0.637598
0.634852 0.665339 0.684016
0.684291 0.705135 0.726162
0.728450 0.740597 0.763119
0.766598 0.771817 0.794919
0.088441 0.152987 0.165377
0.088441 0.152987 0.165377
0.088441 0.152987 0.165377
0.088808 0.153170 0.165530
0.088808 0.153567 0.165835
0.089509 0.153902 0.166140
0.089754 0.154452 0.166812
0.090486 0.155184 0.167422
0.090822 0.156130 0.168215
0.092958 0.158267 0.170047
0.094575 0.159854 0.171572
0.095644 0.161807 0.173037
0.097536 0.163485 0.174685
0.099733 0.167056 0.177707
0.104799 0.172335 0.182498
0.110780 0.179263 0.188418
0.118441 0.188357 0.196170
0.129274 0.200046 0.206455
0.145235 0.217411 0.221530
0.167697 0.240665 0.242008
0.197696 0.270726 0.269047
0.235752 0.307774 0.303655
0.281834 0.351629 0.346777
0.335821 0.402289 0.399359
0.394476 0.456886 0.458076
0.455024 0.512139 0.518334
0.513390 0.563928 0.574548
0.569635 0.611810 0.626429
0.623590 0.656245 0.674281
0.674281 0.697139 0.717769
0.720363 0.734096 0.756405
0.760067 0.766445 0.789517
0.093294 0.159182 0.170809
0.093294 0.159182 0.170809
0.093202 0.159182 0.170962
0.093660 0.159365 0.170962
0.093568 0.159365 0.171115
0.094240 0.159701 0.171420
0.094575 0.160220 0.171878
0.095216 0.160922 0.172457
0.095888 0.161593 0.173068
0.096193 0.162478 0.173800
0.098390 0.165042 0.176181
0.099733 0.167056 0.177707
0.101259 0.168856 0.179294
0.103120 0.170779 0.180972
0.104585 0.172854 0.182773
0.110323 0.178988 0.187991
0.117891 0.187503 0.195560
0.128847 0.199802 0.206210
0.144045 0.216068 0.220371
0.164981 0.237797 0.239536
0.192996 0.265965 0.264744
0.228702 0.300847 0.296971
0.272740 0.342840 0.337926
0.324407 0.391730 0.388159
0.381842 0.445197 0.445319
0.441901 0.500267 0.505364
0.500969 0.553155 0.562829
0.558129 0.602136 0.615961
0.613031 0.647608 0.665034
0.665187 0.689784 0.710018
0.712886 0.728084 0.750149
0.754208 0.761593 0.784604
0.099672 0.166018 0.177035
0.099458 0.166201 0.177005
0.099458 0.166201 0.177005
0.099367 0.166201 0.177157
0.099763 0.166354 0.177157
0.100069 0.166506 0.177279
0.099733 0.167056 0.177707
0.100343 0.167697 0.178286
0.100954 0.168704 0.179141
0.102083 0.169650 0.180148
0.102785 0.170962 0.181125
0.106111 0.174594 0.184115
0.108034 0.176577 0.186007
0.110048 0.178836 0.187869
0.111940 0.181064 0.189822
0.114565 0.183658 0.192142
0.117647 0.187076 0.195193
0.127718 0.198642 0.205173
0.142336 0.214084 0.218570
0.161929 0.234501 0.236515
0.187747 0.260868 0.260044
0.220737 0.293248 0.289952
0.261662 0.332494 0.327611
0.309880 0.377966 0.373846
0.364141 0.428717 0.427619
0.422644 0.482673 0.486152
0.482368 0.536706 0.545006
0.541039 0.587762 0.600397
0.598138 0.635431 0.651911
0.652491 0.679591 0.699153
0.702815 0.720027 0.741756
0.746914 0.755612 0.778500
0.106966 0.175662 0.185061
0.106966 0.175662 0.185061
0.107454 0.175631 0.185214
0.107149 0.175814 0.185336
0.107454 0.175967 0.185489
0.107454 0.176272 0.185763
0.108309 0.176699 0.186160
0.109163 0.177462 0.186831
0.109682 0.178683 0.187900
0.111116 0.180026 0.188907
0.112490 0.181643 0.190341
0.114229 0.183536 0.192172
0.119356 0.189181 0.197055
0.121828 0.192172 0.199619
0.124483 0.195254 0.202243
0.127260 0.198123 0.204715
0.129976 0.200931 0.207126
0.132631 0.203677 0.209506
0.139101 0.210849 0.215793
0.157015 0.229679 0.232273
0.181003 0.254246 0.254063
0.211704 0.284520 0.281712
0.250340 0.321630 0.317021
0.296605 0.365545 0.360967
0.349493 0.415015 0.412909
0.407080 0.468421 0.470619
0.467689 0.523552 0.530755
0.527398 0.576104 0.587762
0.585901 0.625330 0.641047
0.641962 0.671107 0.690150
0.694301 0.713130 0.734585
0.740352 0.750240 0.773037
0.119905 0.190311 0.197910
0.119905 0.190311 0.197910
0.120394 0.190280 0.197910
0.120638 0.190402 0.198032
0.120638 0.190677 0.198276
0.120638 0.190982 0.198520
0.121309 0.191348 0.199039
0.122316 0.192447 0.199863
0.123781 0.194064 0.201175
0.125246 0.195926 0.202701
0.127932 0.198764 0.205295
0.130770 0.201938 0.208164
0.143282 0.215122 0.219547
0.154055 0.226169 0.229252
0.158389 0.231357 0.233738
0.161563 0.234073 0.236240
0.163882 0.236728 0.238499
0.166171 0.239109 0.240513
0.168460 0.241337 0.242649
0.170962 0.243839 0.244846
0.187198 0.260349 0.259556
0.220005 0.292424 0.289158
0.260472 0.331243 0.326452
0.307774 0.375982 0.371740
0.361547 0.426307 0.425025
0.419623 0.479927 0.483162
0.479225 0.533928 0.541955
0.537621 0.584863 0.597223
0.594476 0.632410 0.648646
0.649226 0.676997 0.696407
0.700130 0.717861 0.739498
0.745205 0.754208 0.777096
0.145602 0.217624 0.221744
0.145541 0.217624 0.221866
0.145785 0.217746 0.221836
0.145602 0.217868 0.221958
0.145968 0.218082 0.222141
0.146517 0.218662 0.222660
0.147433 0.219425 0.223392
0.148470 0.220890 0.224521
0.151186 0.223606 0.226932
0.154757 0.227268 0.230137
0.159243 0.231846 0.234226
0.164828 0.237491 0.239231
0.171420 0.244327 0.245274
0.178683 0.251682 0.251835
0.192508 0.265660 0.264317
0.201877 0.274784 0.272740
0.203281 0.276219 0.274144
0.204135 0.276951 0.274754
0.205081 0.277897 0.275700
0.205997 0.278843 0.276616
0.207431 0.280247 0.277806
0.209751 0.282597 0.279911
0.240513 0.312230 0.307897
0.285222 0.354894 0.349981
0.337041 0.403540 0.400641
0.394476 0.456886 0.458076
0.455482 0.512596 0.518822
0.516167 0.566369 0.577173
0.575738 0.616907 0.631891
0.633478 0.664210 0.682795
0.687739 0.707912 0.729091
0.735927 0.746700 0.769375
0.186770 0.259709 0.259068
0.186648 0.259617 0.258976
0.186130 0.259098 0.258457
0.185824 0.258946 0.258396
0.185550 0.258579 0.258061
0.185367 0.258305 0.257908
0.185550 0.258579 0.258061
0.186252 0.259190 0.258549
0.188632 0.261814 0.260990
0.192996 0.265965 0.264744
0.198581 0.271458 0.269688
0.205417 0.278111 0.275914
0.213230 0.285863 0.283055
0.221714 0.294041 0.290654
0.230564 0.302739 0.298833
0.244602 0.316045 0.311650
0.259922 0.330694 0.325841
0.258396 0.329229 0.324437
0.256779 0.327947 0.323125
0.255497 0.326635 0.321843
0.255161 0.326238 0.321447
0.256046 0.327245 0.322393
0.258549 0.329473 0.324681
0.264134 0.334783 0.329900
0.313787 0.381628 0.377600
0.370275 0.434394 0.433722
0.432136 0.491371 0.495674
0.494820 0.547692 0.556939
0.557153 0.601373 0.615137
0.617548 0.651270 0.668940
0.674800 0.697536 0.718166
0.726467 0.739040 0.761471
0.242679 0.314275 0.309880
0.242588 0.314214 0.309819
0.241917 0.313481 0.309148
0.241093 0.312749 0.308446
0.239872 0.311772 0.307439
0.238895 0.310674 0.306462
0.238621 0.310338 0.306126
0.238621 0.310338 0.306126
0.240330 0.311955 0.307652
0.244785 0.316320 0.311833
0.251072 0.322240 0.317571
0.258793 0.329656 0.324865
0.267430 0.337957 0.333043
0.276585 0.346654 0.341711
0.286076 0.355535 0.350774
0.294743 0.363806 0.359136
0.306889 0.375128 0.370886
0.330205 0.397131 0.393896
0.325719 0.392859 0.389349
0.321172 0.388678 0.384955
0.317998 0.385657 0.381781
0.316716 0.384466 0.380591
0.317357 0.385046 0.381201
0.319707 0.387304 0.383551
0.324193 0.391455 0.387976
0.345129 0.411017 0.408637
0.406622 0.468055 0.470222
0.472663 0.527977 0.535576
0.538262 0.585321 0.597742
0.602625 0.639124 0.655879
0.664027 0.688869 0.709010
0.719783 0.733639 0.755917
0.309056 0.377203 0.373022
0.309178 0.377295 0.373114
0.308751 0.376959 0.372717
0.308202 0.376440 0.372259
0.307622 0.375891 0.371649
0.307164 0.375433 0.371191
0.307439 0.375860 0.371527
0.308202 0.376440 0.372259
0.309575 0.377722 0.373541
0.313359 0.381292 0.377203
0.319158 0.386664 0.382849
0.325719 0.392950 0.389471
0.333288 0.399969 0.396887
0.340795 0.406958 0.404334
0.348791 0.414343 0.412207
0.356725 0.421729 0.420142
0.364874 0.429389 0.428321
0.373419 0.437354 0.436927
0.406165 0.467567 0.469703
0.399023 0.460975 0.462531
0.393744 0.456123 0.457252
0.390387 0.453010 0.453895
0.389075 0.451759 0.452522
0.389837 0.452461 0.453254
0.392798 0.455238 0.456306
0.398718 0.460700 0.462226
0.408392 0.469642 0.471992
0.450416 0.507866 0.513695
0.518975 0.568841 0.579858
0.585992 0.625422 0.641108
0.650385 0.677882 0.697353
0.709438 0.725307 0.747250
0.382788 0.445899 0.446174
0.382666 0.445808 0.446113
0.382361 0.445533 0.445777
0.382025 0.445258 0.445472
0.381720 0.444953 0.445136
0.381109 0.444526 0.444617
0.381109 0.444526 0.444617
0.381781 0.445075 0.445258
0.382818 0.446021 0.446296
0.384283 0.447333 0.447730
0.389837 0.452461 0.453254
0.395941 0.458106 0.459419
0.403052 0.464698 0.466590
0.410010 0.471077 0.473548
0.417243 0.477729 0.480751
0.424598 0.484413 0.488106
0.431922 0.491218 0.495491
0.440101 0.498573 0.503563
0.446418 0.504356 0.509850
0.482155 0.536431 0.544762
0.478614 0.533288 0.541344
0.473182 0.528527 0.536126
0.469734 0.525383 0.532708
0.468238 0.524071 0.531273
0.469459 0.525139 0.532464
0.473426 0.528710 0.536309
0.481117 0.535607 0.543786
0.492744 0.545861 0.554955
0.509026 0.560204 0.570520
0.568353 0.610712 0.625238
0.636530 0.666682 0.685451
0.699733 0.717494 0.739132
0.462806 0.519158 0.525963
0.463020 0.519371 0.526146
0.491951 0.545220 0.554223
0.491585 0.544884 0.553887
0.491188 0.544488 0.553460
0.490425 0.543847 0.552728
0.489723 0.543175 0.552026
0.489418 0.542901 0.551751
0.489723 0.543175 0.552026
0.490028 0.543511 0.552361
0.492744 0.545861 0.554955
0.497536 0.550134 0.559594
0.502403 0.554376 0.564141
0.506920 0.558373 0.568475
0.511559 0.562402 0.572839
0.516167 0.566369 0.577173
0.520348 0.570031 0.581140
0.525017 0.574060 0.585534
0.530388 0.578668 0.590509
0.535485 0.582971 0.595209
0.564324 0.607416 0.621637
0.568078 0.610529 0.625055
0.561456 0.604974 0.619043
0.557031 0.601251 0.614984
0.554253 0.598932 0.612482
0.554437 0.599084 0.612634
0.558038 0.602045 0.615900
0.565545 0.608423 0.622736
0.578027 0.618830 0.633997
0.595911 0.633600 0.649958
0.620996 0.654108 0.671992
0.688319 0.708370 0.729580
0.546258 0.592157 0.605188
0.548882 0.594385 0.607568
0.551171 0.596307 0.609644
0.553277 0.598077 0.611566
0.554772 0.599329 0.612940
0.554864 0.599420 0.613031
0.554528 0.599145 0.612726
0.553857 0.598566 0.612085
0.553674 0.598444 0.611963
0.553552 0.598383 0.611902
0.554101 0.598779 0.612329
0.558038 0.602045 0.615900
0.561975 0.605402 0.619501
0.566186 0.608881 0.623285
0.570245 0.612329 0.627008
0.574548 0.615900 0.630854
0.578820 0.619471 0.634730
0.583490 0.623316 0.638880
0.588678 0.627649 0.643519
0.594720 0.632593 0.648859
0.601099 0.637842 0.654505
0.625971 0.658167 0.676326
0.637079 0.667201 0.685969
0.631464 0.662593 0.681056
0.627527 0.659419 0.677668
0.625635 0.657862 0.676020
0.626947 0.658961 0.677150
0.631861 0.662928 0.681422
0.641413 0.670680 0.689662
0.655787 0.682277 0.702022
0.675532 0.698085 0.718776
0.699733 0.717494 0.739132
0.610040 0.645228 0.662440
0.612299 0.647028 0.664363
0.614740 0.649042 0.666560
0.617121 0.650996 0.668635
0.618402 0.652003 0.669703
0.618677 0.652247 0.669978
0.618250 0.651881 0.669581
0.617792 0.651545 0.669184
0.617456 0.651240 0.668910
0.617090 0.650935 0.668574
0.616999 0.650904 0.668513
0.618402 0.652003 0.669703
0.621759 0.654749 0.672663
0.625452 0.657740 0.675868
0.629145 0.660731 0.679042
0.632685 0.663600 0.682124
0.636591 0.666743 0.685481
0.640650 0.670069 0.689021
0.645136 0.673671 0.692866
0.650446 0.677943 0.697414
0.656123 0.682521 0.702296
0.662562 0.687709 0.707790
0.683070 0.704128 0.725124
0.699763 0.717525 0.739193
0.695064 0.713771 0.735225
0.692042 0.711330 0.732692
0.691402 0.710842 0.732174
0.694026 0.712978 0.734401
0.700679 0.718288 0.739956
0.711299 0.726802 0.748836
0.726223 0.738857 0.761288
0.744930 0.753994 0.776852
0.670008 0.693690 0.714076
0.671809 0.695094 0.715602
0.673823 0.696773 0.717342
0.675532 0.698085 0.718776
0.676692 0.699031 0.719753
0.676875 0.699153 0.719905
0.676692 0.699031 0.719753
0.676051 0.698543 0.719234
0.675837 0.698360 0.719051
0.675288 0.697902 0.718563
0.675288 0.697902 0.718563
0.675166 0.697841 0.718471
0.677638 0.699794 0.720577
0.680537 0.702083 0.722988
0.683833 0.704738 0.725795
0.687160 0.707424 0.728573
0.691066 0.710597 0.731868
0.695430 0.714015 0.735531
0.700252 0.717952 0.739590
0.705776 0.722377 0.744198
0.711879 0.727291 0.749325
0.718166 0.732357 0.754574
0.724697 0.737606 0.760037
0.740444 0.750362 0.773129
0.759792 0.766232 0.789273
0.757046 0.763973 0.786984
0.756039 0.763119 0.786130
0.757473 0.764279 0.787320
0.761807 0.767849 0.790921
0.769345 0.774166 0.797238
0.779995 0.783078 0.806180
0.793484 0.794553 0.817563
0.732570 0.743984 0.766567
0.733150 0.744472 0.767056
0.733577 0.744778 0.767391
0.733791 0.744961 0.767605
0.733669 0.744839 0.767483
0.733303 0.744564 0.767178
0.732723 0.744076 0.766690
0.732174 0.743618 0.766232
0.731807 0.743343 0.765927
0.731594 0.743191 0.765774
0.731533 0.743130 0.765713
0.731472 0.743069 0.765652
0.732082 0.743557 0.766171
0.734401 0.745449 0.768093
0.736782 0.747372 0.770077
0.739162 0.749355 0.772061
0.741878 0.751522 0.774319
0.744930 0.753994 0.776852
0.748196 0.756680 0.779568
0.751919 0.759731 0.782681
0.756008 0.763088 0.786069
0.760311 0.766659 0.789670
0.764797 0.770352 0.793423
0.769314 0.774105 0.797208
0.780362 0.783383 0.806485
0.799405 0.799680 0.822599
0.798489 0.798886 0.821805
0.798917 0.799252 0.822171
0.801511 0.801511 0.824369
0.806577 0.805875 0.828672
0.814084 0.812528 0.835111
0.824002 0.821347 0.843656
0.773861 0.777890 0.800992
0.774258 0.778256 0.801358
0.774594 0.778531 0.801633
0.774807 0.778714 0.801816
0.774777 0.778683 0.801785
0.774533 0.778470 0.801602
0.774166 0.778164 0.801266
0.773770 0.777829 0.800961
0.773587 0.777646 0.800778
0.773404 0.777523 0.800626
0.773434 0.777554 0.800656
0.773373 0.777493 0.800595
0.773312 0.777432 0.800565
0.774777 0.778622 0.801755
0.776730 0.780331 0.803433
0.778836 0.782071 0.805173
0.781155 0.784054 0.807156
0.783627 0.786099 0.809232
0.786374 0.788479 0.811551
0.789364 0.790982 0.814054
0.792630 0.793851 0.816831
0.796078 0.796780 0.819730
0.799771 0.799985 0.822904
0.803555 0.803281 0.826139
0.803616 0.803311 0.826169
0.811551 0.810239 0.832944
0.827634 0.824582 0.846769
0.830747 0.827420 0.849454
0.832242 0.828794 0.850767
0.835660 0.831907 0.853758
0.841276 0.837034 0.858610
0.848905 0.844083 0.865263
0.811398 0.810117 0.832792
0.812039 0.810697 0.833371
0.812253 0.810880 0.833524
0.812100 0.810758 0.833433
0.811673 0.810361 0.833036
0.811032 0.809812 0.832517
0.810208 0.809079 0.831785
0.809384 0.808347 0.831083
0.808652 0.807706 0.830442
0.807950 0.807095 0.829862
0.807340 0.806638 0.829374
0.806912 0.806241 0.829007
0.806455 0.805814 0.828611
0.806332 0.805692 0.828458
0.807279 0.806546 0.829313
0.808438 0.807584 0.830289
0.809842 0.808774 0.831510
0.811673 0.810361 0.833036
0.813840 0.812253 0.834867
0.816373 0.814542 0.837095
0.819272 0.817105 0.839567
0.822202 0.819699 0.842069
0.825162 0.822354 0.844602
0.827970 0.824887 0.847044
0.830625 0.827298 0.849363
0.833402 0.829801 0.851743
0.838926 0.834867 0.856565
0.852323 0.847288 0.868254
0.857847 0.852445 0.873075
0.859983 0.854520 0.874998
0.863951 0.858274 0.878477
0.869810 0.863920 0.883696
0.836545 0.832700 0.854459
0.837034 0.833127 0.854887
0.837339 0.833402 0.855161
0.837339 0.833402 0.855161
0.837217 0.833310 0.855070
0.837064 0.833127 0.854917
0.836820 0.832975 0.854734
0.836606 0.832731 0.854551
0.836423 0.832609 0.854398
0.836332 0.832517 0.854307
0.836179 0.832364 0.854185
0.836118 0.832303 0.854124
0.835935 0.832120 0.853941
0.835660 0.831876 0.853727
0.836088 0.832242 0.854063
0.836973 0.833097 0.854856
0.838071 0.834073 0.855802
0.839353 0.835264 0.856901
0.841093 0.836851 0.858427
0.843015 0.838651 0.860136
0.845304 0.840696 0.862089
0.847715 0.842954 0.864195
0.850156 0.845274 0.866361
0.852628 0.847562 0.868528
0.855039 0.849851 0.870665
0.857542 0.852171 0.872831
0.860044 0.854551 0.875029
0.864317 0.858610 0.878813
0.875761 0.869688 0.888975
0.882933 0.876646 0.895323
0.885801 0.879515 0.897948
0.890227 0.883940 0.901915
0.860227 0.854734 0.875212
0.860441 0.854948 0.875395
0.860502 0.855009 0.875425
0.860502 0.855009 0.875425
0.860380 0.854887 0.875334
0.860166 0.854673 0.875120
0.859953 0.854490 0.874937
0.859770 0.854307 0.874784
0.859648 0.854185 0.874662
0.859525 0.854063 0.874571
0.859403 0.853971 0.874479
0.859312 0.853849 0.874388
0.859281 0.853849 0.874388
0.859159 0.853727 0.874266
0.859037 0.853605 0.874144
0.859709 0.854246 0.874754
0.860594 0.855100 0.875517
0.861692 0.856107 0.876493
0.863005 0.857359 0.877623
0.864683 0.858976 0.879118
0.866545 0.860746 0.880766
0.868559 0.862669 0.882536
0.870512 0.864591 0.884306
0.872557 0.866545 0.886107
0.874571 0.868498 0.887907
0.876585 0.870481 0.889708
0.878721 0.872557 0.891600
0.880888 0.874662 0.893553
0.884672 0.878416 0.896910
0.894285 0.887968 0.905547
0.902464 0.896239 0.912902
0.906004 0.899840 0.916106
0.879301 0.873136 0.892119
0.879454 0.873259 0.892241
0.879545 0.873350 0.892332
0.879576 0.873411 0.892363
0.879667 0.873472 0.892424
0.879789 0.873594 0.892546
0.880095 0.873869 0.892790
0.880522 0.874296 0.893187
0.881041 0.874815 0.893645
0.881651 0.875425 0.894194
0.882322 0.876097 0.894804
0.882963 0.876707 0.895384
0.883543 0.877256 0.895872
0.883970 0.877714 0.896300
0.884276 0.877989 0.896544
0.884764 0.878477 0.896971
0.885557 0.879271 0.897704
0.886503 0.880217 0.898558
0.887633 0.881346 0.899565
0.888975 0.882658 0.900755
0.890471 0.884184 0.902098
0.892058 0.885740 0.903532
0.893706 0.887358 0.904997
0.895293 0.889006 0.906462
0.896971 0.890654 0.907927
0.898650 0.892332 0.909422
0.900359 0.894072 0.910979
0.902159 0.895933 0.912627
0.904082 0.897856 0.914366
0.907286 0.901152 0.917266
0.915099 0.909209 0.924346
0.923400 0.917845 0.931884
0.899901 0.893584 0.910552
0.899901 0.893584 0.910552
0.899870 0.893584 0.910552
0.899809 0.893492 0.910460
0.899718 0.893462 0.910430
0.899687 0.893400 0.910399
0.899687 0.893370 0.910369
0.899687 0.893370 0.910369
0.899779 0.893462 0.910460
0.899870 0.893614 0.910582
0.900053 0.893797 0.910735
0.900267 0.894011 0.910918
0.900511 0.894224 0.911131
0.900694 0.894438 0.911284
