20 Preset/Dark Style/【3】LUT video cho PR-AE-FCPX/19Tones (6)/19tp2.cube
# Created by Adobe Lightroom plugin Export LUT (1.24.0)
# www.johnrellis.com/lightroom/exportlut.htm
# Preset: 19tp2
# Color profile: E:\lut插件\exportlut.1.24\exportlut.lrplugin\color profiles\Rec709gamma2.4.icc
LUT_3D_SIZE 5
DOMAIN_MIN 0.000000 0.000000 0.000000
DOMAIN_MAX 0.903226 0.903226 0.903226
0.057893 0.128908 0.143984
0.074952 0.142336 0.156100
0.104219 0.172061 0.182223
0.248112 0.319371 0.314855
0.632685 0.663600 0.682124
0.088441 0.152987 0.165377
0.090486 0.155184 0.167422
0.104799 0.172335 0.182498
0.235752 0.307774 0.303655
0.623590 0.656245 0.674281
0.242679 0.314275 0.309880
0.238621 0.310338 0.306126
0.286076 0.355535 0.350774
0.316716 0.384466 0.380591
0.538262 0.585321 0.597742
0.732570 0.743984 0.766567
0.732174 0.743618 0.766232
0.736782 0.747372 0.770077
0.760311 0.766659 0.789670
0.801511 0.801511 0.824369
0.914366 0.908415 0.923644
0.914519 0.908598 0.923796
0.911894 0.905882 0.921416
0.918700 0.912932 0.927581
0.928740 0.923461 0.936736
0.000000 0.147799 0.166140
0.084871 0.149355 0.162142
0.127047 0.197726 0.204349
0.352819 0.418189 0.416297
0.675837 0.698360 0.719051
0.084138 0.159152 0.172091
0.100374 0.167361 0.178012
0.137270 0.209079 0.214176
0.326116 0.393194 0.389807
0.660578 0.686122 0.706081
0.287694 0.357061 0.352270
0.286015 0.355474 0.350652
0.313359 0.381292 0.377203
0.324102 0.391272 0.387732
0.591730 0.630213 0.646296
0.753231 0.760830 0.783810
0.753445 0.761013 0.783963
0.754299 0.761685 0.784634
0.773709 0.777768 0.800900
0.805234 0.804746 0.827543
0.917571 0.911742 0.926574
0.917571 0.911742 0.926574
0.918547 0.912779 0.927459
0.923400 0.917815 0.931853
0.932952 0.927916 0.940551
0.000000 0.185763 0.228519
0.000000 0.174777 0.243412
0.208713 0.281590 0.279026
0.549950 0.595331 0.608576
0.803433 0.803159 0.826017
0.000000 0.243717 0.253544
0.000000 0.229099 0.277287
0.279911 0.349584 0.344732
0.594263 0.632227 0.648463
0.815946 0.814145 0.836698
0.134920 0.392065 0.419898
0.252781 0.426642 0.451209
0.495216 0.547997 0.557275
0.606744 0.642512 0.659541
0.789944 0.791531 0.814572
0.808011 0.807187 0.829923
0.809506 0.808469 0.831205
0.807401 0.806668 0.829435
0.816434 0.814603 0.837125
0.809842 0.808774 0.831510
0.928099 0.922789 0.936126
0.928313 0.923003 0.936339
0.928771 0.923522 0.936767
0.930968 0.925811 0.938750
0.938964 0.934295 0.945983
0.000000 0.386572 0.561761
0.000000 0.364996 0.596399
0.214450 0.345098 0.700557
0.720790 0.734463 0.756741
0.854734 0.849577 0.870390
0.000000 0.446448 0.572259
0.000000 0.430121 0.607263
0.135866 0.393652 0.718715
0.745571 0.754543 0.777401
0.864408 0.858732 0.878904
0.000000 0.510979 0.421393
0.000000 0.551293 0.475319
0.000000 0.619989 0.725399
0.808286 0.807401 0.830137
0.895018 0.888701 0.906188
0.673884 0.783597 0.825803
0.701259 0.789761 0.829679
0.793179 0.820798 0.851865
0.863615 0.857939 0.878172
0.886809 0.880491 0.898802
0.942107 0.937682 0.948882
0.943145 0.938781 0.949798
0.947448 0.943389 0.953704
0.948577 0.944579 0.954711
0.952575 0.948943 0.958343
0.000000 0.681697 0.891173
0.000000 0.660243 0.896941
0.000000 0.605798 0.915373
0.843931 0.798795 0.912902
0.907622 0.901488 0.917540
0.000000 0.714290 0.886107
0.000000 0.695308 0.892576
0.000000 0.643977 0.912749
0.843870 0.805447 0.915282
0.911833 0.905821 0.921386
0.000000 0.829770 0.859831
0.000000 0.815732 0.868956
0.000000 0.759518 0.900603
0.829160 0.820706 0.923400
0.927703 0.922362 0.935790
0.000000 0.902098 0.820584
0.000000 0.898924 0.812985
0.000000 0.883330 0.772671
0.713313 0.860410 0.919860
0.951629 0.947906 0.957488
0.878569 0.925994 0.948882
0.883665 0.927489 0.949645
0.905150 0.934905 0.953796
0.940093 0.949615 0.962463
0.971344 0.969238 0.975189
