20 Preset/Travel Style/【1】LRtemplate Lightroom bản cũ/LuxPreset - GreenMoody (23).lrtemplate
s = {
	id = "F4A70C61-793E-41CC-97C4-CAD2CF7CBD0D",
	internalName = "23自然风光-天空-素材江湖",
	title = "23自然风光-天空-素材江湖",
	type = "Develop",
	value = {
		settings = {
			AutoLateralCA = 0,
			Blacks2012 = -16,
			BlueHue = 0,
			BlueSaturation = 0,
			CameraProfile = "Adobe Standard",
			ChromaticAberrationB = 0,
			ChromaticAberrationR = 0,
			Clarity2012 = 38,
			ColorNoiseReduction = 25,
			ColorNoiseReductionDetail = 50,
			ColorNoiseReductionSmoothness = 50,
			Contrast2012 = 20,
			ConvertToGrayscale = false,
			CropConstrainToWarp = 0,
			Defringe = 0,
			DefringeGreenAmount = 0,
			DefringeGreenHueHi = 60,
			DefringeGreenHueLo = 40,
			DefringePurpleAmount = 0,
			DefringePurpleHueHi = 70,
			DefringePurpleHueLo = 30,
			Dehaze = -6,
			EnableCalibration = true,
			EnableColorAdjustments = true,
			EnableDetail = true,
			EnableEffects = true,
			EnableLensCorrections = true,
			EnableSplitToning = true,
			Exposure2012 = 0,
			GrainAmount = 0,
			GrainFrequency = 50,
			GrainSize = 25,
			GreenHue = 0,
			GreenSaturation = 0,
			Highlights2012 = 85,
			HueAdjustmentAqua = 0,
			HueAdjustmentBlue = 0,
			HueAdjustmentGreen = 0,
			HueAdjustmentMagenta = 0,
			HueAdjustmentOrange = 0,
			HueAdjustmentPurple = 0,
			HueAdjustmentRed = 11,
			HueAdjustmentYellow = 0,
			LensManualDistortionAmount = 0,
			LuminanceAdjustmentAqua = 0,
			LuminanceAdjustmentBlue = 0,
			LuminanceAdjustmentGreen = 0,
			LuminanceAdjustmentMagenta = 0,
			LuminanceAdjustmentOrange = -57,
			LuminanceAdjustmentPurple = 0,
			LuminanceAdjustmentRed = 0,
			LuminanceAdjustmentYellow = -56,
			LuminanceNoiseReductionContrast = 0,
			LuminanceNoiseReductionDetail = 50,
			LuminanceSmoothing = 41,
			ParametricDarks = 0,
			ParametricHighlightSplit = 75,
			ParametricHighlights = 0,
			ParametricLights = 0,
			ParametricMidtoneSplit = 50,
			ParametricShadowSplit = 25,
			ParametricShadows = 0,
			PostCropVignetteAmount = -6,
			PostCropVignetteFeather = 50,
			PostCropVignetteHighlightContrast = 0,
			PostCropVignetteMidpoint = 50,
			PostCropVignetteRoundness = 0,
			PostCropVignetteStyle = 1,
			ProcessVersion = "6.7",
			RedHue = 0,
			RedSaturation = 0,
			Saturation = -12,
			SaturationAdjustmentAqua = 0,
			SaturationAdjustmentBlue = -63,
			SaturationAdjustmentGreen = 0,
			SaturationAdjustmentMagenta = 8,
			SaturationAdjustmentOrange = 20,
			SaturationAdjustmentPurple = 0,
			SaturationAdjustmentRed = 12,
			SaturationAdjustmentYellow = 20,
			ShadowTint = 0,
			Shadows2012 = 35,
			SharpenDetail = 49,
			SharpenEdgeMasking = 28,
			SharpenRadius = 1.7,
			Sharpness = 137,
			SplitToningBalance = 0,
			SplitToningHighlightHue = 58,
			SplitToningHighlightSaturation = 11,
			SplitToningShadowHue = 220,
			SplitToningShadowSaturation = 23,
			ToneCurveName2012 = "Custom",
			ToneCurvePV2012 = {
				0,
				18,
				55,
				57,
				107,
				135,
				255,
				255,
			},
			ToneCurvePV2012Blue = {
				0,
				0,
				53,
				54,
				162,
				171,
				255,
				255,
			},
			ToneCurvePV2012Green = {
				0,
				0,
				56,
				57,
				183,
				188,
				255,
				255,
			},
			ToneCurvePV2012Red = {
				0,
				0,
				37,
				35,
				176,
				179,
				255,
				255,
			},
			Vibrance = 7,
			VignetteAmount = 0,
			VignetteMidpoint = 50,
			WhiteBalance = "As Shot",
			Whites2012 = -10,
		},
		uuid = "B689C741-DE29-4263-9753-D9DE9DE28BC8",
	},
	version = 0,
}
