20 Preset/Travel Style/【1】LRtemplate Lightroom bản cũ/LuxPreset - GreenMoody (21).lrtemplate
s = {
	id = "F587598B-14BD-4A1C-8638-510800B99DA6",
	internalName = "21自然风光-日落-素材江湖",
	title = "21自然风光-日落-素材江湖",
	type = "Develop",
	value = {
		settings = {
			AutoLateralCA = 1,
			Blacks2012 = -28,
			BlueHue = 0,
			BlueSaturation = 0,
			CameraProfile = "Adobe Standard",
			ChromaticAberrationB = 0,
			ChromaticAberrationR = 0,
			Clarity2012 = -40,
			ColorNoiseReduction = 25,
			ColorNoiseReductionDetail = 50,
			ColorNoiseReductionSmoothness = 50,
			Contrast2012 = 10,
			ConvertToGrayscale = false,
			CropConstrainToWarp = 0,
			Defringe = 0,
			DefringeGreenAmount = 0,
			DefringeGreenHueHi = 60,
			DefringeGreenHueLo = 40,
			DefringePurpleAmount = 0,
			DefringePurpleHueHi = 70,
			DefringePurpleHueLo = 30,
			Dehaze = 4,
			EnableCalibration = true,
			EnableColorAdjustments = true,
			EnableDetail = true,
			EnableEffects = true,
			EnableLensCorrections = true,
			EnableSplitToning = true,
			Exposure2012 = 0.15,
			GrainAmount = 0,
			GrainFrequency = 50,
			GrainSize = 25,
			GreenHue = 0,
			GreenSaturation = 0,
			Highlights2012 = -100,
			HueAdjustmentAqua = 0,
			HueAdjustmentBlue = 0,
			HueAdjustmentGreen = -10,
			HueAdjustmentMagenta = 0,
			HueAdjustmentOrange = -8,
			HueAdjustmentPurple = 0,
			HueAdjustmentRed = 0,
			HueAdjustmentYellow = -28,
			LensManualDistortionAmount = 0,
			LuminanceAdjustmentAqua = 0,
			LuminanceAdjustmentBlue = 10,
			LuminanceAdjustmentGreen = -28,
			LuminanceAdjustmentMagenta = 0,
			LuminanceAdjustmentOrange = -12,
			LuminanceAdjustmentPurple = 0,
			LuminanceAdjustmentRed = -14,
			LuminanceAdjustmentYellow = -10,
			LuminanceNoiseReductionContrast = 0,
			LuminanceNoiseReductionDetail = 50,
			LuminanceSmoothing = 4,
			ParametricDarks = 0,
			ParametricHighlightSplit = 75,
			ParametricHighlights = 0,
			ParametricLights = 0,
			ParametricMidtoneSplit = 50,
			ParametricShadowSplit = 25,
			ParametricShadows = 0,
			PostCropVignetteAmount = -8,
			PostCropVignetteFeather = 60,
			PostCropVignetteHighlightContrast = 0,
			PostCropVignetteMidpoint = 50,
			PostCropVignetteRoundness = 0,
			PostCropVignetteStyle = 1,
			ProcessVersion = "6.7",
			RedHue = 0,
			RedSaturation = 0,
			Saturation = -4,
			SaturationAdjustmentAqua = 0,
			SaturationAdjustmentBlue = -23,
			SaturationAdjustmentGreen = -28,
			SaturationAdjustmentMagenta = 0,
			SaturationAdjustmentOrange = -5,
			SaturationAdjustmentPurple = 0,
			SaturationAdjustmentRed = -14,
			SaturationAdjustmentYellow = -12,
			ShadowTint = 0,
			Shadows2012 = 44,
			SharpenDetail = 30,
			SharpenEdgeMasking = 0,
			SharpenRadius = 1,
			Sharpness = 74,
			SplitToningBalance = 0,
			SplitToningHighlightHue = 223,
			SplitToningHighlightSaturation = 20,
			SplitToningShadowHue = 239,
			SplitToningShadowSaturation = 18,
			Temperature = 6563,
			Tint = -3,
			ToneCurveName2012 = "Custom",
			ToneCurvePV2012 = {
				0,
				21,
				38,
				43,
				83,
				95,
				162,
				183,
				255,
				255,
			},
			ToneCurvePV2012Blue = {
				0,
				0,
				38,
				32,
				167,
				183,
				255,
				255,
			},
			ToneCurvePV2012Green = {
				0,
				0,
				43,
				41,
				183,
				192,
				255,
				255,
			},
			ToneCurvePV2012Red = {
				0,
				0,
				38,
				33,
				166,
				170,
				255,
				255,
			},
			Vibrance = -6,
			VignetteAmount = 0,
			VignetteMidpoint = 50,
			WhiteBalance = "Custom",
			Whites2012 = 42,
		},
		uuid = "3E099736-09CA-49F9-87EA-E792DC2DB65E",
	},
	version = 0,
}
