20 Preset/Travel Style/【1】LRtemplate Lightroom bản cũ/LuxPreset - GreenMoody (26).lrtemplate
s = {
	id = "03AC0FFE-7A9D-4BD5-AB9B-A60A95C9CB5C",
	internalName = "26自然风光-中式-素材江湖",
	title = "26自然风光-中式-素材江湖",
	type = "Develop",
	value = {
		settings = {
			AutoLateralCA = 1,
			Blacks2012 = -32,
			BlueHue = 0,
			BlueSaturation = 0,
			CameraProfile = "Adobe Standard",
			ChromaticAberrationB = 0,
			ChromaticAberrationR = 0,
			Clarity2012 = 0,
			ColorNoiseReduction = 25,
			ColorNoiseReductionDetail = 50,
			ColorNoiseReductionSmoothness = 50,
			Contrast2012 = 22,
			ConvertToGrayscale = false,
			CropConstrainToWarp = 0,
			Defringe = 0,
			DefringeGreenAmount = 0,
			DefringeGreenHueHi = 60,
			DefringeGreenHueLo = 40,
			DefringePurpleAmount = 0,
			DefringePurpleHueHi = 70,
			DefringePurpleHueLo = 30,
			Dehaze = 2,
			EnableCalibration = true,
			EnableColorAdjustments = true,
			EnableDetail = true,
			EnableEffects = true,
			EnableLensCorrections = true,
			EnableSplitToning = true,
			Exposure2012 = 0,
			GrainAmount = 0,
			GrainFrequency = 50,
			GrainSize = 25,
			GreenHue = 0,
			GreenSaturation = 0,
			Highlights2012 = -100,
			HueAdjustmentAqua = 2,
			HueAdjustmentBlue = 27,
			HueAdjustmentGreen = -42,
			HueAdjustmentMagenta = 0,
			HueAdjustmentOrange = 0,
			HueAdjustmentPurple = 0,
			HueAdjustmentRed = 0,
			HueAdjustmentYellow = -41,
			LensManualDistortionAmount = 0,
			LuminanceAdjustmentAqua = -10,
			LuminanceAdjustmentBlue = -17,
			LuminanceAdjustmentGreen = 8,
			LuminanceAdjustmentMagenta = 0,
			LuminanceAdjustmentOrange = 0,
			LuminanceAdjustmentPurple = 0,
			LuminanceAdjustmentRed = -3,
			LuminanceAdjustmentYellow = -25,
			LuminanceNoiseReductionContrast = 0,
			LuminanceNoiseReductionDetail = 50,
			LuminanceSmoothing = 22,
			ParametricDarks = 0,
			ParametricHighlightSplit = 75,
			ParametricHighlights = 0,
			ParametricLights = 0,
			ParametricMidtoneSplit = 50,
			ParametricShadowSplit = 25,
			ParametricShadows = 0,
			PostCropVignetteAmount = -10,
			PostCropVignetteFeather = 50,
			PostCropVignetteHighlightContrast = 0,
			PostCropVignetteMidpoint = 50,
			PostCropVignetteRoundness = 0,
			PostCropVignetteStyle = 1,
			ProcessVersion = "6.7",
			RedHue = 0,
			RedSaturation = 0,
			Saturation = 5,
			SaturationAdjustmentAqua = -35,
			SaturationAdjustmentBlue = -31,
			SaturationAdjustmentGreen = -29,
			SaturationAdjustmentMagenta = 0,
			SaturationAdjustmentOrange = -6,
			SaturationAdjustmentPurple = 0,
			SaturationAdjustmentRed = -6,
			SaturationAdjustmentYellow = -32,
			ShadowTint = 0,
			Shadows2012 = 61,
			SharpenDetail = 37,
			SharpenEdgeMasking = 55,
			SharpenRadius = 1.4,
			Sharpness = 82,
			SplitToningBalance = 0,
			SplitToningHighlightHue = 211,
			SplitToningHighlightSaturation = 30,
			SplitToningShadowHue = 60,
			SplitToningShadowSaturation = 5,
			ToneCurveName2012 = "Custom",
			ToneCurvePV2012 = {
				0,
				23,
				43,
				52,
				102,
				114,
				152,
				172,
				191,
				211,
				255,
				255,
			},
			ToneCurvePV2012Blue = {
				0,
				15,
				53,
				43,
				99,
				89,
				160,
				160,
				255,
				255,
			},
			ToneCurvePV2012Green = {
				0,
				0,
				38,
				28,
				104,
				99,
				154,
				158,
				255,
				255,
			},
			ToneCurvePV2012Red = {
				0,
				0,
				47,
				34,
				86,
				75,
				117,
				113,
				154,
				159,
				186,
				193,
				255,
				255,
			},
			Vibrance = 4,
			VignetteAmount = 0,
			VignetteMidpoint = 50,
			WhiteBalance = "As Shot",
			Whites2012 = 17,
		},
		uuid = "98C4ACBE-EBBC-4DD0-A6D2-9955ABC441C4",
	},
	version = 0,
}
