20 Preset/Travel Style/【1】LRtemplate Lightroom bản cũ/LuxPreset - GreenMoody (22).lrtemplate
s = {
	id = "7DF1F2DE-F9C9-42EC-9A6D-E57B29836247",
	internalName = "22自然风光-山湖-素材江湖",
	title = "22自然风光-山湖-素材江湖",
	type = "Develop",
	value = {
		settings = {
			AutoLateralCA = 0,
			Blacks2012 = -16,
			BlueHue = 0,
			BlueSaturation = 0,
			CameraProfile = "Adobe Standard",
			ChromaticAberrationB = 0,
			ChromaticAberrationR = 0,
			Clarity2012 = 40,
			ColorNoiseReduction = 25,
			ColorNoiseReductionDetail = 50,
			ColorNoiseReductionSmoothness = 50,
			Contrast2012 = 20,
			ConvertToGrayscale = false,
			CropConstrainToWarp = 0,
			Defringe = 0,
			DefringeGreenAmount = 0,
			DefringeGreenHueHi = 60,
			DefringeGreenHueLo = 40,
			DefringePurpleAmount = 0,
			DefringePurpleHueHi = 70,
			DefringePurpleHueLo = 30,
			Dehaze = -6,
			EnableCalibration = true,
			EnableColorAdjustments = true,
			EnableDetail = true,
			EnableEffects = true,
			EnableLensCorrections = true,
			EnableSplitToning = true,
			Exposure2012 = 0,
			GrainAmount = 0,
			GrainFrequency = 50,
			GrainSize = 25,
			GreenHue = 0,
			GreenSaturation = 0,
			Highlights2012 = -62,
			HueAdjustmentAqua = 51,
			HueAdjustmentBlue = 0,
			HueAdjustmentGreen = 0,
			HueAdjustmentMagenta = 0,
			HueAdjustmentOrange = 0,
			HueAdjustmentPurple = 0,
			HueAdjustmentRed = 29,
			HueAdjustmentYellow = 0,
			LensManualDistortionAmount = 0,
			LuminanceAdjustmentAqua = 0,
			LuminanceAdjustmentBlue = 0,
			LuminanceAdjustmentGreen = 0,
			LuminanceAdjustmentMagenta = 0,
			LuminanceAdjustmentOrange = 0,
			LuminanceAdjustmentPurple = 0,
			LuminanceAdjustmentRed = 0,
			LuminanceAdjustmentYellow = 0,
			LuminanceNoiseReductionContrast = 0,
			LuminanceNoiseReductionDetail = 50,
			LuminanceSmoothing = 0,
			ParametricDarks = 0,
			ParametricHighlightSplit = 75,
			ParametricHighlights = 0,
			ParametricLights = 0,
			ParametricMidtoneSplit = 50,
			ParametricShadowSplit = 25,
			ParametricShadows = 0,
			PostCropVignetteAmount = -6,
			PostCropVignetteFeather = 50,
			PostCropVignetteHighlightContrast = 0,
			PostCropVignetteMidpoint = 50,
			PostCropVignetteRoundness = 0,
			PostCropVignetteStyle = 1,
			ProcessVersion = "6.7",
			RedHue = 0,
			RedSaturation = 0,
			Saturation = -12,
			SaturationAdjustmentAqua = -18,
			SaturationAdjustmentBlue = -49,
			SaturationAdjustmentGreen = -38,
			SaturationAdjustmentMagenta = 8,
			SaturationAdjustmentOrange = -14,
			SaturationAdjustmentPurple = 0,
			SaturationAdjustmentRed = 0,
			SaturationAdjustmentYellow = 20,
			ShadowTint = 0,
			Shadows2012 = 13,
			SharpenDetail = 72,
			SharpenEdgeMasking = 71,
			SharpenRadius = 2.3,
			Sharpness = 107,
			SplitToningBalance = 100,
			SplitToningHighlightHue = 219,
			SplitToningHighlightSaturation = 6,
			SplitToningShadowHue = 224,
			SplitToningShadowSaturation = 19,
			ToneCurveName2012 = "Custom",
			ToneCurvePV2012 = {
				0,
				23,
				55,
				57,
				84,
				98,
				107,
				135,
				153,
				191,
				203,
				229,
				255,
				255,
			},
			ToneCurvePV2012Blue = {
				0,
				0,
				53,
				54,
				105,
				111,
				162,
				171,
				203,
				210,
				255,
				255,
			},
			ToneCurvePV2012Green = {
				0,
				0,
				56,
				57,
				124,
				128,
				183,
				188,
				255,
				255,
			},
			ToneCurvePV2012Red = {
				0,
				0,
				37,
				35,
				82,
				81,
				132,
				134,
				176,
				179,
				216,
				218,
				255,
				255,
			},
			Vibrance = 7,
			VignetteAmount = 0,
			VignetteMidpoint = 50,
			WhiteBalance = "As Shot",
			Whites2012 = 23,
		},
		uuid = "47D357D0-7315-4842-BBDC-CBDF7CD29F62",
	},
	version = 0,
}
