20 Preset/Travel Style/【1】LRtemplate Lightroom bản cũ/LuxPreset - GreenMoody (12).lrtemplate
s = {
	id = "F05CA36F-9BAC-43B8-9949-0CA2E34BD2E1",
	internalName = "12自然风光-寒冷-素材江湖",
	title = "12自然风光-寒冷-素材江湖",
	type = "Develop",
	value = {
		settings = {
			AutoLateralCA = 1,
			Blacks2012 = -28,
			BlueHue = 0,
			BlueSaturation = 0,
			CameraProfile = "Adobe Standard",
			ChromaticAberrationB = 0,
			ChromaticAberrationR = 0,
			Clarity2012 = -26,
			ColorNoiseReduction = 25,
			ColorNoiseReductionDetail = 50,
			ColorNoiseReductionSmoothness = 50,
			Contrast2012 = 10,
			ConvertToGrayscale = false,
			CropConstrainToWarp = 0,
			Defringe = 0,
			DefringeGreenAmount = 0,
			DefringeGreenHueHi = 60,
			DefringeGreenHueLo = 40,
			DefringePurpleAmount = 0,
			DefringePurpleHueHi = 70,
			DefringePurpleHueLo = 30,
			Dehaze = 4,
			EnableCalibration = true,
			EnableColorAdjustments = true,
			EnableDetail = true,
			EnableEffects = true,
			EnableLensCorrections = true,
			EnableSplitToning = true,
			Exposure2012 = 0,
			GrainAmount = 0,
			GrainFrequency = 50,
			GrainSize = 25,
			GreenHue = 0,
			GreenSaturation = 0,
			Highlights2012 = -71,
			HueAdjustmentAqua = 0,
			HueAdjustmentBlue = 0,
			HueAdjustmentGreen = -10,
			HueAdjustmentMagenta = 0,
			HueAdjustmentOrange = 0,
			HueAdjustmentPurple = 0,
			HueAdjustmentRed = 0,
			HueAdjustmentYellow = -39,
			LensManualDistortionAmount = 0,
			LuminanceAdjustmentAqua = 0,
			LuminanceAdjustmentBlue = 43,
			LuminanceAdjustmentGreen = -28,
			LuminanceAdjustmentMagenta = 0,
			LuminanceAdjustmentOrange = 10,
			LuminanceAdjustmentPurple = 0,
			LuminanceAdjustmentRed = -14,
			LuminanceAdjustmentYellow = 100,
			LuminanceNoiseReductionContrast = 0,
			LuminanceNoiseReductionDetail = 50,
			LuminanceSmoothing = 4,
			ParametricDarks = 0,
			ParametricHighlightSplit = 75,
			ParametricHighlights = 0,
			ParametricLights = 0,
			ParametricMidtoneSplit = 50,
			ParametricShadowSplit = 25,
			ParametricShadows = 0,
			PostCropVignetteAmount = -8,
			PostCropVignetteFeather = 60,
			PostCropVignetteHighlightContrast = 0,
			PostCropVignetteMidpoint = 50,
			PostCropVignetteRoundness = 0,
			PostCropVignetteStyle = 1,
			ProcessVersion = "6.7",
			RedHue = 0,
			RedSaturation = 0,
			Saturation = -4,
			SaturationAdjustmentAqua = 0,
			SaturationAdjustmentBlue = -30,
			SaturationAdjustmentGreen = -28,
			SaturationAdjustmentMagenta = 0,
			SaturationAdjustmentOrange = -12,
			SaturationAdjustmentPurple = 0,
			SaturationAdjustmentRed = -14,
			SaturationAdjustmentYellow = -51,
			ShadowTint = 0,
			Shadows2012 = -37,
			SharpenDetail = 30,
			SharpenEdgeMasking = 61,
			SharpenRadius = 1,
			Sharpness = 74,
			SplitToningBalance = 0,
			SplitToningHighlightHue = 223,
			SplitToningHighlightSaturation = 12,
			SplitToningShadowHue = 239,
			SplitToningShadowSaturation = 18,
			ToneCurveName2012 = "Custom",
			ToneCurvePV2012 = {
				0,
				23,
				38,
				43,
				83,
				95,
				162,
				183,
				255,
				255,
			},
			ToneCurvePV2012Blue = {
				0,
				0,
				38,
				32,
				167,
				183,
				255,
				255,
			},
			ToneCurvePV2012Green = {
				0,
				0,
				43,
				41,
				183,
				192,
				255,
				255,
			},
			ToneCurvePV2012Red = {
				0,
				0,
				38,
				33,
				166,
				170,
				255,
				255,
			},
			Vibrance = -6,
			VignetteAmount = 0,
			VignetteMidpoint = 50,
			WhiteBalance = "As Shot",
			Whites2012 = 42,
		},
		uuid = "BCFF936D-EB5F-47F0-B5A6-3D617FE81E34",
	},
	version = 0,
}
