20 Preset/Travel Style/【1】LRtemplate Lightroom bản cũ/LuxPreset - GreenMoody (15).lrtemplate
s = {
	id = "6AAA8C30-3023-4B1C-A9DE-24891CCFF1EA",
	internalName = "15自然风光-暗黑天空-素材江湖",
	title = "15自然风光-暗黑天空-素材江湖",
	type = "Develop",
	value = {
		settings = {
			AutoLateralCA = 0,
			Blacks2012 = -30,
			BlueHue = 0,
			BlueSaturation = 0,
			CameraProfile = "Adobe Standard",
			ChromaticAberrationB = 0,
			ChromaticAberrationR = 0,
			Clarity2012 = 61,
			ColorNoiseReduction = 25,
			ColorNoiseReductionDetail = 50,
			ColorNoiseReductionSmoothness = 50,
			Contrast2012 = 25,
			ConvertToGrayscale = false,
			CropConstrainToWarp = 0,
			Defringe = 0,
			DefringeGreenAmount = 0,
			DefringeGreenHueHi = 60,
			DefringeGreenHueLo = 40,
			DefringePurpleAmount = 0,
			DefringePurpleHueHi = 70,
			DefringePurpleHueLo = 30,
			Dehaze = 0,
			EnableCalibration = true,
			EnableColorAdjustments = true,
			EnableDetail = true,
			EnableEffects = true,
			EnableLensCorrections = true,
			EnableSplitToning = true,
			Exposure2012 = -0.5,
			GrainAmount = 0,
			GrainFrequency = 50,
			GrainSize = 25,
			GreenHue = 0,
			GreenSaturation = 0,
			Highlights2012 = -60,
			HueAdjustmentAqua = 42,
			HueAdjustmentBlue = -3,
			HueAdjustmentGreen = 6,
			HueAdjustmentMagenta = 0,
			HueAdjustmentOrange = -19,
			HueAdjustmentPurple = 0,
			HueAdjustmentRed = 9,
			HueAdjustmentYellow = 20,
			LensManualDistortionAmount = 0,
			LuminanceAdjustmentAqua = -22,
			LuminanceAdjustmentBlue = -20,
			LuminanceAdjustmentGreen = -47,
			LuminanceAdjustmentMagenta = 0,
			LuminanceAdjustmentOrange = 89,
			LuminanceAdjustmentPurple = 0,
			LuminanceAdjustmentRed = -27,
			LuminanceAdjustmentYellow = 67,
			LuminanceNoiseReductionContrast = 0,
			LuminanceNoiseReductionDetail = 50,
			LuminanceSmoothing = 20,
			ParametricDarks = 0,
			ParametricHighlightSplit = 75,
			ParametricHighlights = 0,
			ParametricLights = 0,
			ParametricMidtoneSplit = 50,
			ParametricShadowSplit = 25,
			ParametricShadows = 0,
			PostCropVignetteAmount = -12,
			PostCropVignetteFeather = 50,
			PostCropVignetteHighlightContrast = 0,
			PostCropVignetteMidpoint = 50,
			PostCropVignetteRoundness = 0,
			PostCropVignetteStyle = 1,
			ProcessVersion = "6.7",
			RedHue = 0,
			RedSaturation = 0,
			Saturation = 0,
			SaturationAdjustmentAqua = -46,
			SaturationAdjustmentBlue = -25,
			SaturationAdjustmentGreen = -2,
			SaturationAdjustmentMagenta = 0,
			SaturationAdjustmentOrange = 35,
			SaturationAdjustmentPurple = 0,
			SaturationAdjustmentRed = 38,
			SaturationAdjustmentYellow = 35,
			ShadowTint = 0,
			Shadows2012 = 75,
			SharpenDetail = 76,
			SharpenEdgeMasking = 63,
			SharpenRadius = 2.4,
			Sharpness = 119,
			SplitToningBalance = 28,
			SplitToningHighlightHue = 49,
			SplitToningHighlightSaturation = 21,
			SplitToningShadowHue = 225,
			SplitToningShadowSaturation = 14,
			Temperature = 4736,
			Tint = 3,
			ToneCurveName2012 = "Custom",
			ToneCurvePV2012 = {
				0,
				22,
				35,
				41,
				67,
				60,
				129,
				118,
				183,
				191,
				238,
				255,
			},
			ToneCurvePV2012Blue = {
				0,
				0,
				255,
				255,
			},
			ToneCurvePV2012Green = {
				0,
				0,
				255,
				255,
			},
			ToneCurvePV2012Red = {
				0,
				0,
				255,
				255,
			},
			Vibrance = 0,
			VignetteAmount = 0,
			VignetteMidpoint = 50,
			WhiteBalance = "Custom",
			Whites2012 = 39,
		},
		uuid = "CE09A474-FE01-47CC-9768-0D2E463D039A",
	},
	version = 0,
}
