20 Preset/Street 2/【1】LRtemplate Lightroom bản cũ/Street 1/Tone 1 (3).lrtemplate
s = {
	id = "334511A4-EE22-4F51-86D9-9841A3959A76",
	internalName = "青橙风光-素材江湖03",
	title = "青橙风光-素材江湖03",
	type = "Develop",
	value = {
		settings = {
			AutoLateralCA = 0,
			Blacks2012 = -35,
			BlueHue = -22,
			BlueSaturation = 25,
			CameraProfile = "Embedded",
			ChromaticAberrationB = 0,
			ChromaticAberrationR = 0,
			Clarity2012 = -15,
			ColorNoiseReduction = 25,
			ColorNoiseReductionDetail = 50,
			ColorNoiseReductionSmoothness = 50,
			Contrast2012 = 31,
			ConvertToGrayscale = false,
			CropConstrainToWarp = 0,
			Defringe = 0,
			DefringeGreenAmount = 0,
			DefringeGreenHueHi = 60,
			DefringeGreenHueLo = 40,
			DefringePurpleAmount = 0,
			DefringePurpleHueHi = 70,
			DefringePurpleHueLo = 30,
			Dehaze = 0,
			EnableCalibration = true,
			EnableColorAdjustments = true,
			EnableDetail = true,
			EnableEffects = true,
			EnableLensCorrections = true,
			EnableSplitToning = true,
			Exposure2012 = 0.55,
			GrainAmount = 0,
			GrainFrequency = 50,
			GrainSize = 25,
			GreenHue = 13,
			GreenSaturation = 15,
			Highlights2012 = -72,
			HueAdjustmentAqua = 10,
			HueAdjustmentBlue = -32,
			HueAdjustmentGreen = -100,
			HueAdjustmentMagenta = 20,
			HueAdjustmentOrange = -8,
			HueAdjustmentPurple = 20,
			HueAdjustmentRed = 15,
			HueAdjustmentYellow = -56,
			LensManualDistortionAmount = 0,
			LuminanceAdjustmentAqua = -35,
			LuminanceAdjustmentBlue = -43,
			LuminanceAdjustmentGreen = -31,
			LuminanceAdjustmentMagenta = -58,
			LuminanceAdjustmentOrange = -11,
			LuminanceAdjustmentPurple = -57,
			LuminanceAdjustmentRed = 0,
			LuminanceAdjustmentYellow = -15,
			LuminanceNoiseReductionContrast = 0,
			LuminanceNoiseReductionDetail = 50,
			LuminanceSmoothing = 7,
			ParametricDarks = 10,
			ParametricHighlightSplit = 75,
			ParametricHighlights = 20,
			ParametricLights = 10,
			ParametricMidtoneSplit = 48,
			ParametricShadowSplit = 14,
			ParametricShadows = 30,
			PostCropVignetteAmount = 0,
			PostCropVignetteFeather = 50,
			PostCropVignetteHighlightContrast = 0,
			PostCropVignetteMidpoint = 50,
			PostCropVignetteRoundness = 0,
			PostCropVignetteStyle = 1,
			ProcessVersion = "6.7",
			RedHue = 35,
			RedSaturation = 50,
			Saturation = -2,
			SaturationAdjustmentAqua = -88,
			SaturationAdjustmentBlue = -79,
			SaturationAdjustmentGreen = -75,
			SaturationAdjustmentMagenta = -71,
			SaturationAdjustmentOrange = -23,
			SaturationAdjustmentPurple = -59,
			SaturationAdjustmentRed = -3,
			SaturationAdjustmentYellow = -54,
			ShadowTint = -2,
			Shadows2012 = 84,
			SharpenDetail = 25,
			SharpenEdgeMasking = 67,
			SharpenRadius = 1,
			Sharpness = 19,
			SplitToningBalance = 0,
			SplitToningHighlightHue = 0,
			SplitToningHighlightSaturation = 0,
			SplitToningShadowHue = 48,
			SplitToningShadowSaturation = 22,
			ToneCurveName2012 = "Custom",
			ToneCurvePV2012 = {
				0,
				35,
				68,
				72,
				176,
				180,
				255,
				253,
			},
			ToneCurvePV2012Blue = {
				0,
				0,
				32,
				19,
				78,
				66,
				113,
				117,
				174,
				198,
				255,
				255,
			},
			ToneCurvePV2012Green = {
				0,
				0,
				32,
				17,
				79,
				65,
				115,
				119,
				177,
				204,
				255,
				255,
			},
			ToneCurvePV2012Red = {
				0,
				0,
				27,
				11,
				81,
				64,
				116,
				122,
				175,
				201,
				255,
				255,
			},
			Vibrance = 15,
			VignetteAmount = 0,
			VignetteMidpoint = 50,
			WhiteBalance = "As Shot",
			Whites2012 = -19,
		},
		uuid = "CB090E4E-C43F-4674-AED8-83DD239455D9",
	},
	version = 0,
}
