20 Preset/Street 2/【1】LRtemplate Lightroom bản cũ/Street 1/Tone 1 (4).lrtemplate
s = {
	id = "C597C379-C883-49FD-93E8-5D6AD87DAC6C",
	internalName = "青橙风光-素材江湖04",
	title = "青橙风光-素材江湖04",
	type = "Develop",
	value = {
		settings = {
			AutoLateralCA = 0,
			Blacks2012 = -37,
			BlueHue = -10,
			BlueSaturation = 21,
			CameraProfile = "Embedded",
			ChromaticAberrationB = 0,
			ChromaticAberrationR = 0,
			Clarity2012 = -35,
			ColorNoiseReduction = 25,
			ColorNoiseReductionDetail = 50,
			ColorNoiseReductionSmoothness = 50,
			Contrast2012 = 16,
			ConvertToGrayscale = false,
			CropConstrainToWarp = 0,
			Defringe = 0,
			DefringeGreenAmount = 0,
			DefringeGreenHueHi = 60,
			DefringeGreenHueLo = 40,
			DefringePurpleAmount = 0,
			DefringePurpleHueHi = 70,
			DefringePurpleHueLo = 30,
			Dehaze = 0,
			EnableCalibration = true,
			EnableColorAdjustments = true,
			EnableDetail = true,
			EnableEffects = true,
			EnableLensCorrections = true,
			EnableSplitToning = true,
			Exposure2012 = 0.45,
			GrainAmount = 0,
			GrainFrequency = 50,
			GrainSize = 25,
			GreenHue = 35,
			GreenSaturation = 18,
			Highlights2012 = -83,
			HueAdjustmentAqua = 10,
			HueAdjustmentBlue = -43,
			HueAdjustmentGreen = -100,
			HueAdjustmentMagenta = 20,
			HueAdjustmentOrange = -15,
			HueAdjustmentPurple = 20,
			HueAdjustmentRed = 15,
			HueAdjustmentYellow = -94,
			LensManualDistortionAmount = 0,
			LuminanceAdjustmentAqua = 10,
			LuminanceAdjustmentBlue = -15,
			LuminanceAdjustmentGreen = -31,
			LuminanceAdjustmentMagenta = -41,
			LuminanceAdjustmentOrange = 21,
			LuminanceAdjustmentPurple = -37,
			LuminanceAdjustmentRed = -49,
			LuminanceAdjustmentYellow = 22,
			LuminanceNoiseReductionContrast = 0,
			LuminanceNoiseReductionDetail = 50,
			LuminanceSmoothing = 19,
			ParametricDarks = 10,
			ParametricHighlightSplit = 75,
			ParametricHighlights = 20,
			ParametricLights = 10,
			ParametricMidtoneSplit = 48,
			ParametricShadowSplit = 14,
			ParametricShadows = 30,
			PostCropVignetteAmount = 0,
			PostCropVignetteFeather = 50,
			PostCropVignetteHighlightContrast = 0,
			PostCropVignetteMidpoint = 50,
			PostCropVignetteRoundness = 0,
			PostCropVignetteStyle = 1,
			ProcessVersion = "6.7",
			RedHue = 35,
			RedSaturation = 50,
			Saturation = -1,
			SaturationAdjustmentAqua = 44,
			SaturationAdjustmentBlue = -74,
			SaturationAdjustmentGreen = -62,
			SaturationAdjustmentMagenta = -4,
			SaturationAdjustmentOrange = -36,
			SaturationAdjustmentPurple = -100,
			SaturationAdjustmentRed = -46,
			SaturationAdjustmentYellow = -5,
			ShadowTint = -2,
			Shadows2012 = 85,
			SharpenDetail = 25,
			SharpenEdgeMasking = 72,
			SharpenRadius = 1,
			Sharpness = 44,
			SplitToningBalance = 0,
			SplitToningHighlightHue = 0,
			SplitToningHighlightSaturation = 0,
			SplitToningShadowHue = 0,
			SplitToningShadowSaturation = 0,
			ToneCurveName2012 = "Custom",
			ToneCurvePV2012 = {
				0,
				23,
				50,
				52,
				157,
				172,
				247,
				255,
			},
			ToneCurvePV2012Blue = {
				0,
				0,
				32,
				19,
				78,
				66,
				113,
				117,
				174,
				198,
				255,
				255,
			},
			ToneCurvePV2012Green = {
				0,
				0,
				32,
				17,
				79,
				65,
				115,
				119,
				177,
				204,
				255,
				255,
			},
			ToneCurvePV2012Red = {
				0,
				0,
				27,
				11,
				81,
				64,
				116,
				122,
				175,
				201,
				255,
				255,
			},
			Vibrance = 13,
			VignetteAmount = 0,
			VignetteMidpoint = 50,
			WhiteBalance = "As Shot",
			Whites2012 = -11,
		},
		uuid = "249262B3-CF0A-4D42-AB7B-72F5737869D6",
	},
	version = 0,
}
