20 Preset/City Style/【2】XMP cho Photoshop - Lightroom CC/TONE 2/Darky Rain.xmp
<x:xmpmeta xmlns:x="adobe:ns:meta/" x:xmptk="Adobe XMP Core 5.6-c140 79.160451, 2017/05/06-01:08:21        ">
 <rdf:RDF xmlns:rdf="http://www.w3.org/1999/02/22-rdf-syntax-ns#">
  <rdf:Description rdf:about=""
    xmlns:crs="http://ns.adobe.com/camera-raw-settings/1.0/"
   crs:PresetType="Normal"
   crs:Cluster=""
   crs:UUID="DD3D1D1118392CBA31A00CC27188DF80"
   crs:SupportsAmount="False"
   crs:SupportsColor="True"
   crs:SupportsMonochrome="True"
   crs:SupportsHighDynamicRange="True"
   crs:SupportsNormalDynamicRange="True"
   crs:SupportsSceneReferred="True"
   crs:SupportsOutputReferred="True"
   crs:CameraModelRestriction=""
   crs:Copyright=""
   crs:ContactInfo=""
   crs:Version="12.0"
   crs:ProcessVersion="6.7"
   crs:WhiteBalance="Custom"
   crs:Temperature="4664"
   crs:Tint="-1"
   crs:Saturation="-15"
   crs:Sharpness="104"
   crs:LuminanceSmoothing="0"
   crs:ColorNoiseReduction="25"
   crs:VignetteAmount="0"
   crs:ShadowTint="0"
   crs:RedHue="-3"
   crs:RedSaturation="+5"
   crs:GreenHue="+100"
   crs:GreenSaturation="0"
   crs:BlueHue="-37"
   crs:BlueSaturation="-12"
   crs:Vibrance="0"
   crs:HueAdjustmentRed="+28"
   crs:HueAdjustmentOrange="+8"
   crs:HueAdjustmentYellow="-1"
   crs:HueAdjustmentGreen="-100"
   crs:HueAdjustmentAqua="+10"
   crs:HueAdjustmentBlue="+1"
   crs:HueAdjustmentPurple="-24"
   crs:HueAdjustmentMagenta="+80"
   crs:SaturationAdjustmentRed="-33"
   crs:SaturationAdjustmentOrange="-58"
   crs:SaturationAdjustmentYellow="+29"
   crs:SaturationAdjustmentGreen="-100"
   crs:SaturationAdjustmentAqua="-100"
   crs:SaturationAdjustmentBlue="-65"
   crs:SaturationAdjustmentPurple="-8"
   crs:SaturationAdjustmentMagenta="+3"
   crs:LuminanceAdjustmentRed="+12"
   crs:LuminanceAdjustmentOrange="+15"
   crs:LuminanceAdjustmentYellow="+15"
   crs:LuminanceAdjustmentGreen="+44"
   crs:LuminanceAdjustmentAqua="-6"
   crs:LuminanceAdjustmentBlue="+30"
   crs:LuminanceAdjustmentPurple="+18"
   crs:LuminanceAdjustmentMagenta="+54"
   crs:SplitToningShadowHue="0"
   crs:SplitToningShadowSaturation="0"
   crs:SplitToningHighlightHue="215"
   crs:SplitToningHighlightSaturation="0"
   crs:SplitToningBalance="-1"
   crs:ParametricShadows="0"
   crs:ParametricDarks="0"
   crs:ParametricLights="0"
   crs:ParametricHighlights="0"
   crs:ParametricShadowSplit="14"
   crs:ParametricMidtoneSplit="60"
   crs:ParametricHighlightSplit="75"
   crs:SharpenRadius="+1.0"
   crs:SharpenDetail="25"
   crs:SharpenEdgeMasking="0"
   crs:PostCropVignetteAmount="0"
   crs:GrainAmount="0"
   crs:ColorNoiseReductionDetail="50"
   crs:ColorNoiseReductionSmoothness="50"
   crs:LensManualDistortionAmount="0"
   crs:AutoLateralCA="0"
   crs:Exposure2012="-0.14"
   crs:Contrast2012="+1"
   crs:Highlights2012="-100"
   crs:Shadows2012="+100"
   crs:Whites2012="-33"
   crs:Blacks2012="+1"
   crs:Clarity2012="-10"
   crs:DefringePurpleAmount="0"
   crs:DefringePurpleHueLo="30"
   crs:DefringePurpleHueHi="70"
   crs:DefringeGreenAmount="0"
   crs:DefringeGreenHueLo="40"
   crs:DefringeGreenHueHi="60"
   crs:Dehaze="0"
   crs:ConvertToGrayscale="False"
   crs:OverrideLookVignette="False"
   crs:ToneCurveName2012="Custom"
   crs:CameraProfile="Adobe Standard"
   crs:HasSettings="True">
   <crs:Name>
    <rdf:Alt>
     <rdf:li xml:lang="x-default">Darky Rain</rdf:li>
    </rdf:Alt>
   </crs:Name>
   <crs:ShortName>
    <rdf:Alt>
     <rdf:li xml:lang="x-default"/>
    </rdf:Alt>
   </crs:ShortName>
   <crs:SortName>
    <rdf:Alt>
     <rdf:li xml:lang="x-default"/>
    </rdf:Alt>
   </crs:SortName>
   <crs:Group>
    <rdf:Alt>
     <rdf:li xml:lang="x-default">City Style 2</rdf:li>
    </rdf:Alt>
   </crs:Group>
   <crs:Description>
    <rdf:Alt>
     <rdf:li xml:lang="x-default"/>
    </rdf:Alt>
   </crs:Description>
   <crs:ToneCurvePV2012>
    <rdf:Seq>
     <rdf:li>0, 30</rdf:li>
     <rdf:li>36, 35</rdf:li>
     <rdf:li>57, 46</rdf:li>
     <rdf:li>127, 123</rdf:li>
     <rdf:li>184, 196</rdf:li>
     <rdf:li>255, 250</rdf:li>
    </rdf:Seq>
   </crs:ToneCurvePV2012>
   <crs:ToneCurvePV2012Red>
    <rdf:Seq>
     <rdf:li>0, 0</rdf:li>
     <rdf:li>31, 7</rdf:li>
     <rdf:li>72, 51</rdf:li>
     <rdf:li>116, 111</rdf:li>
     <rdf:li>179, 197</rdf:li>
     <rdf:li>255, 255</rdf:li>
    </rdf:Seq>
   </crs:ToneCurvePV2012Red>
   <crs:ToneCurvePV2012Green>
    <rdf:Seq>
     <rdf:li>0, 0</rdf:li>
     <rdf:li>27, 11</rdf:li>
     <rdf:li>119, 118</rdf:li>
     <rdf:li>181, 196</rdf:li>
     <rdf:li>255, 255</rdf:li>
    </rdf:Seq>
   </crs:ToneCurvePV2012Green>
   <crs:ToneCurvePV2012Blue>
    <rdf:Seq>
     <rdf:li>0, 0</rdf:li>
     <rdf:li>21, 13</rdf:li>
     <rdf:li>80, 70</rdf:li>
     <rdf:li>116, 119</rdf:li>
     <rdf:li>183, 197</rdf:li>
     <rdf:li>255, 255</rdf:li>
    </rdf:Seq>
   </crs:ToneCurvePV2012Blue>
   <crs:Look
    crs:Name=""/>
  </rdf:Description>
 </rdf:RDF>
</x:xmpmeta>
