20 Preset/Emotion Style/【3】LUT video cho PR-AE-FCPX/Emotion Style LUT (1).cube
# Created by Adobe Lightroom plugin Export LUT (1.24.0)
# www.johnrellis.com/lightroom/exportlut.htm
# Preset: 01日系情绪（素材江湖）
# Color profile: E:\lut插件\exportlut.1.24\exportlut.lrplugin\color profiles\Rec709gamma2.4.icc
LUT_3D_SIZE 32
DOMAIN_MIN 0.0 0.0 0.0
DOMAIN_MAX 1.0 1.0 1.0
0.195651 0.222049 0.224918
0.195804 0.222171 0.224887
0.196933 0.222171 0.224979
0.198886 0.222324 0.225040
0.202487 0.222690 0.225071
0.208255 0.223178 0.225254
0.216587 0.223850 0.225376
0.226413 0.224521 0.225437
0.238376 0.225223 0.225589
0.253452 0.226108 0.225467
0.272374 0.227207 0.225467
0.296422 0.228153 0.225162
0.325475 0.229191 0.224704
0.360113 0.230259 0.224063
0.399908 0.230900 0.223178
0.444587 0.231235 0.222080
0.493477 0.231357 0.220554
0.545281 0.231266 0.218784
0.598566 0.231388 0.216373
0.651728 0.232578 0.213596
0.702266 0.235935 0.210117
0.753994 0.243503 0.205692
0.799039 0.254063 0.201083
0.839719 0.267704 0.195682
0.876799 0.284092 0.189853
0.911131 0.302373 0.183505
0.943023 0.322545 0.176425
0.972656 0.343359 0.169009
1.000000 0.364599 0.161532
1.000000 0.385504 0.154818
1.000000 0.405798 0.149111
1.000000 0.425116 0.145815
0.195682 0.222293 0.224979
0.195682 0.222293 0.224979
0.196750 0.222416 0.224949
0.198947 0.222568 0.225010
0.202518 0.222934 0.225132
0.208377 0.223301 0.225223
0.216495 0.223972 0.225345
0.226352 0.224643 0.225437
0.238041 0.225498 0.225559
0.252934 0.226413 0.225559
0.271824 0.227390 0.225437
0.295506 0.228397 0.225132
0.324346 0.229404 0.224704
0.358709 0.230533 0.224063
0.398322 0.231266 0.223178
0.442756 0.231632 0.222110
0.491493 0.231785 0.220584
0.543114 0.231601 0.218875
0.596429 0.231937 0.216464
0.649470 0.233188 0.213687
0.699916 0.236393 0.210300
0.751003 0.243442 0.205936
0.795743 0.253605 0.201328
0.836118 0.266941 0.196109
0.873167 0.282841 0.190463
0.907500 0.301091 0.184054
0.939696 0.320958 0.177096
0.969604 0.341741 0.169741
0.997620 0.362799 0.162234
1.000000 0.383856 0.155093
1.000000 0.404273 0.149172
1.000000 0.423682 0.145357
0.195682 0.223117 0.225223
0.195956 0.223087 0.225223
0.196780 0.223239 0.225193
0.198917 0.223514 0.225132
0.202823 0.223728 0.225162
0.208591 0.224216 0.225345
0.216892 0.224857 0.225467
0.226505 0.225559 0.225528
0.238407 0.226383 0.225528
0.253300 0.227298 0.225559
0.272251 0.228367 0.225406
0.295842 0.229496 0.225101
0.324590 0.230625 0.224674
0.358801 0.231754 0.224002
0.398383 0.232609 0.223239
0.442634 0.233341 0.221988
0.491249 0.233524 0.220584
0.542962 0.233677 0.218692
0.596094 0.233982 0.216434
0.649042 0.235508 0.213504
0.699855 0.238926 0.210147
0.750423 0.246159 0.205783
0.794675 0.256168 0.201266
0.834867 0.269291 0.196078
0.871794 0.285039 0.190311
0.906035 0.302708 0.184024
0.938231 0.322423 0.177127
0.968139 0.343053 0.169619
0.996277 0.364080 0.162020
1.000000 0.384894 0.154940
1.000000 0.405249 0.148989
1.000000 0.424506 0.145022
0.196017 0.224949 0.225803
0.196017 0.224949 0.225803
0.196872 0.224979 0.225895
0.198520 0.225437 0.225589
0.202792 0.225834 0.225467
0.209384 0.226108 0.225437
0.217655 0.226780 0.225528
0.227451 0.227420 0.225620
0.239475 0.228214 0.225620
0.254490 0.229313 0.225589
0.273472 0.230381 0.225467
0.297337 0.231754 0.225101
0.326299 0.233127 0.224613
0.360388 0.234440 0.224033
0.399939 0.235569 0.223087
0.444007 0.236484 0.221927
0.492195 0.237217 0.220493
0.543297 0.237736 0.218692
0.596185 0.238437 0.216342
0.648737 0.240085 0.213443
0.699763 0.244175 0.209812
0.749081 0.251072 0.205631
0.792691 0.261204 0.201083
0.832792 0.274022 0.195804
0.869963 0.289494 0.189975
0.904631 0.307256 0.183658
0.937285 0.326818 0.176577
0.967529 0.347295 0.169070
0.995819 0.368170 0.161532
1.000000 0.388861 0.154299
1.000000 0.408515 0.148379
1.000000 0.427375 0.144778
0.196384 0.227787 0.226596
0.196597 0.227787 0.226719
0.197330 0.227695 0.226810
0.198672 0.228153 0.226627
0.201694 0.229160 0.226200
0.208591 0.230442 0.225772
0.217716 0.230533 0.225711
0.228519 0.230503 0.225742
0.240726 0.231479 0.225589
0.256107 0.232609 0.225559
0.275456 0.233799 0.225406
0.299565 0.235294 0.225132
0.328496 0.237125 0.224552
0.363134 0.238712 0.223911
0.402472 0.240421 0.222965
0.446876 0.241764 0.221836
0.495277 0.243015 0.220249
0.546624 0.244053 0.218326
0.599054 0.245365 0.215885
0.651301 0.247776 0.212863
0.702693 0.252506 0.209110
0.750790 0.259831 0.204868
0.793729 0.269902 0.200198
0.833463 0.282597 0.194949
0.870329 0.298131 0.189090
0.904967 0.315526 0.182498
0.937316 0.334752 0.175448
0.967437 0.354650 0.167880
0.995575 0.374975 0.160311
1.000000 0.395026 0.153140
1.000000 0.414221 0.147646
1.000000 0.432441 0.144259
0.196353 0.232334 0.227359
0.196262 0.232456 0.227359
0.197330 0.232242 0.227481
0.198825 0.232334 0.227665
0.201450 0.233555 0.227237
0.207095 0.235142 0.226566
0.216770 0.236851 0.225895
0.227909 0.237034 0.225772
0.242100 0.237095 0.225711
0.259190 0.237522 0.225620
0.279362 0.239048 0.225376
0.303960 0.241001 0.224979
0.333562 0.243198 0.224430
0.368505 0.245274 0.223789
0.408637 0.247501 0.222812
0.453132 0.249454 0.221622
0.501793 0.251347 0.220005
0.553155 0.253269 0.217838
0.605554 0.255406 0.215183
0.657160 0.258640 0.211826
0.708797 0.264408 0.207858
0.755673 0.272435 0.203433
0.817014 0.290288 0.195865
0.855406 0.304570 0.190311
0.890776 0.320958 0.183932
0.923583 0.338933 0.176944
0.953918 0.357519 0.169955
0.982055 0.376379 0.162814
1.000000 0.395209 0.156161
1.000000 0.413611 0.150454
1.000000 0.431006 0.146578
1.000000 0.447547 0.145327
0.195865 0.238926 0.228397
0.196109 0.238926 0.228397
0.197024 0.238834 0.228641
0.198917 0.238651 0.228977
0.201419 0.239292 0.228855
0.206027 0.241062 0.228153
0.214115 0.243412 0.227207
0.227756 0.246372 0.226169
0.242954 0.247166 0.225834
0.262089 0.247715 0.225681
0.286229 0.248264 0.225315
0.313725 0.249973 0.224857
0.344976 0.252781 0.224308
0.381201 0.255589 0.223545
0.422309 0.258366 0.222324
0.467506 0.261112 0.220859
0.516442 0.263676 0.218936
0.567468 0.266392 0.216495
0.619287 0.269505 0.213504
0.673030 0.274754 0.209689
0.724544 0.282292 0.205173
0.771328 0.292149 0.200076
0.813718 0.304143 0.194827
0.852873 0.318639 0.188663
0.888975 0.334874 0.182162
0.922179 0.352270 0.175265
0.952514 0.370123 0.168093
0.980438 0.388220 0.161013
1.000000 0.406165 0.154391
1.000000 0.423255 0.149020
1.000000 0.439887 0.145296
1.000000 0.455604 0.144747
0.195834 0.246677 0.230045
0.196078 0.246677 0.230045
0.197024 0.246586 0.230259
0.199008 0.246311 0.230503
0.202029 0.246036 0.231052
0.205509 0.248020 0.230381
0.212314 0.250614 0.229526
0.223301 0.253941 0.228214
0.240879 0.258427 0.226688
0.261479 0.260929 0.225925
0.286259 0.262699 0.225467
0.316594 0.264134 0.224918
0.352758 0.264958 0.224247
0.390051 0.268193 0.223178
0.431525 0.271641 0.221988
0.476753 0.275090 0.220157
0.525536 0.278416 0.217960
0.576104 0.282200 0.215213
0.629114 0.286931 0.211765
0.681605 0.293309 0.207584
0.730373 0.301335 0.202945
0.775174 0.311345 0.197848
0.816068 0.323491 0.192233
0.854093 0.337469 0.186252
0.889525 0.352972 0.179568
0.922240 0.369482 0.172488
0.952117 0.386664 0.165255
0.979858 0.403418 0.158236
1.000000 0.419989 0.152346
1.000000 0.436255 0.147189
1.000000 0.451667 0.144289
1.000000 0.466438 0.144015
0.195712 0.256870 0.232242
0.196048 0.256748 0.232242
0.197024 0.256657 0.232364
0.199252 0.256382 0.232731
0.202335 0.256016 0.233280
0.206241 0.256870 0.233310
0.211917 0.259892 0.232395
0.221256 0.263676 0.231174
0.236027 0.268681 0.229496
0.258488 0.275242 0.227268
0.286656 0.280491 0.225864
0.317845 0.283665 0.224826
0.354955 0.286076 0.223667
0.397436 0.287724 0.222477
0.443946 0.288914 0.220859
0.489540 0.293095 0.218814
0.538079 0.297398 0.216281
0.589776 0.302525 0.213046
0.642206 0.308415 0.209201
0.692042 0.315709 0.204685
0.738552 0.324468 0.199741
0.780941 0.334661 0.194430
0.820371 0.346349 0.188785
0.857267 0.359838 0.182528
0.891661 0.374792 0.175875
0.923583 0.390204 0.168795
0.952941 0.406043 0.161715
0.980224 0.421576 0.155245
1.000000 0.436957 0.149447
1.000000 0.451789 0.145266
1.000000 0.465980 0.143404
1.000000 0.479530 0.144350
0.194583 0.270420 0.234470
0.195071 0.270390 0.234562
0.195895 0.270237 0.234684
0.198367 0.269963 0.235050
0.201907 0.269413 0.235508
0.206485 0.268742 0.236210
0.211734 0.271824 0.235416
0.220279 0.276310 0.234165
0.233677 0.281926 0.232486
0.253330 0.288792 0.230259
0.281315 0.296941 0.227298
0.318639 0.306371 0.224430
0.356573 0.310826 0.222751
0.399878 0.314366 0.220920
0.448615 0.316899 0.218936
0.501335 0.318181 0.216464
0.555627 0.321386 0.213474
0.606775 0.327642 0.209659
0.656977 0.334508 0.205478
0.704372 0.342351 0.200595
0.748165 0.351476 0.195468
0.787808 0.361181 0.190249
0.825071 0.372259 0.184451
0.860075 0.384649 0.178408
0.893065 0.398169 0.171847
0.923980 0.412329 0.164736
0.952728 0.426703 0.158083
0.979706 0.441016 0.152071
1.000000 0.455024 0.147066
1.000000 0.468666 0.143740
1.000000 0.481666 0.142702
1.000000 0.494179 0.145113
0.191501 0.287999 0.236698
0.191989 0.287968 0.236790
0.193332 0.287785 0.236912
0.195956 0.287449 0.237278
0.199985 0.286992 0.237736
0.205539 0.286351 0.238529
0.211612 0.287327 0.238682
0.219913 0.292241 0.237339
0.232059 0.298497 0.235630
0.250614 0.306249 0.233188
0.276402 0.315587 0.230106
0.311742 0.326329 0.226078
0.359228 0.339727 0.221256
0.404273 0.345617 0.218601
0.454902 0.350927 0.215640
0.509178 0.354894 0.212284
0.565728 0.357458 0.208896
0.622400 0.358831 0.205112
0.671778 0.364508 0.200565
0.716365 0.372595 0.195621
0.757504 0.381231 0.190341
0.795193 0.390539 0.185031
0.830869 0.400946 0.179171
0.864652 0.412482 0.173037
0.896574 0.425025 0.166415
0.926604 0.437812 0.160006
0.954650 0.450629 0.153689
0.981109 0.463294 0.148592
1.000000 0.475746 0.144686
1.000000 0.487953 0.142550
1.000000 0.499641 0.143191
1.000000 0.510765 0.147341
0.185763 0.310643 0.238987
0.186038 0.310613 0.238987
0.187686 0.310460 0.239231
0.190982 0.310094 0.239445
0.195804 0.309514 0.240055
0.202274 0.308812 0.240940
0.210147 0.307897 0.241978
0.218662 0.312139 0.241001
0.230991 0.319127 0.239078
0.248631 0.327550 0.236637
0.273594 0.337652 0.233280
0.307408 0.350256 0.228824
0.361028 0.372351 0.222141
0.424079 0.392432 0.213321
0.477852 0.399847 0.208896
0.534142 0.405798 0.204471
0.590967 0.410254 0.199588
0.646326 0.413306 0.194797
0.698268 0.415412 0.190188
0.746090 0.416541 0.186069
0.783291 0.424445 0.180758
0.817777 0.432654 0.175387
0.850553 0.441810 0.170016
0.881834 0.451667 0.164370
0.911406 0.462104 0.158755
0.939117 0.472480 0.153414
0.965118 0.482734 0.149294
0.989868 0.492836 0.146090
1.000000 0.502831 0.144259
1.000000 0.512688 0.144930
1.000000 0.522271 0.148043
1.000000 0.531640 0.154726
0.174655 0.341039 0.241459
0.175204 0.341009 0.241550
0.177218 0.340734 0.241703
0.181704 0.340124 0.242100
0.188235 0.339330 0.242710
0.196475 0.338354 0.243565
0.206485 0.337133 0.244724
0.217288 0.338079 0.245518
0.230106 0.346136 0.243320
0.248203 0.356023 0.240604
0.273899 0.368170 0.236851
0.308507 0.382391 0.231998
0.353277 0.398657 0.225376
0.409064 0.416754 0.216770
0.480385 0.440192 0.204349
0.538354 0.448707 0.197940
0.594263 0.454353 0.192050
0.647578 0.458320 0.186557
0.697444 0.461067 0.181460
0.743404 0.462501 0.176913
0.785519 0.462715 0.173037
0.822995 0.464790 0.169345
0.854551 0.472663 0.164309
0.884886 0.481117 0.159274
0.913634 0.489967 0.154238
0.940703 0.498756 0.150240
0.966278 0.507561 0.147066
0.990631 0.516350 0.145327
1.000000 0.524987 0.145266
1.000000 0.533501 0.147677
1.000000 0.541863 0.152560
1.000000 0.549950 0.161257
0.158206 0.375341 0.243931
0.158816 0.375219 0.243961
0.161929 0.374701 0.244144
0.167575 0.374151 0.244663
0.175540 0.373388 0.245274
0.186740 0.372259 0.246250
0.199283 0.370977 0.247623
0.213626 0.369512 0.249302
0.228183 0.374609 0.248356
0.246433 0.384955 0.245335
0.271641 0.397162 0.241489
0.305241 0.411627 0.236423
0.348150 0.428138 0.229740
0.400855 0.446052 0.221134
0.462562 0.465064 0.209842
0.536919 0.488258 0.194095
0.597314 0.498543 0.184665
0.648920 0.502739 0.178408
0.697200 0.505669 0.173007
0.741604 0.506950 0.168185
0.782528 0.507286 0.164523
0.821164 0.507408 0.161349
0.857816 0.507591 0.158541
0.889616 0.511772 0.155001
0.917388 0.519066 0.151247
0.943664 0.526360 0.148379
0.968597 0.533623 0.147158
0.992432 0.540856 0.146975
1.000000 0.548119 0.148775
1.000000 0.555291 0.153170
1.000000 0.562341 0.160342
1.000000 0.569299 0.170352
0.132235 0.413886 0.246799
0.133425 0.413764 0.246799
0.138369 0.413214 0.247013
0.146059 0.412482 0.247471
0.158022 0.411261 0.248295
0.172702 0.409827 0.249271
0.189334 0.408240 0.250797
0.207034 0.406561 0.252537
0.225711 0.405859 0.254215
0.244511 0.416114 0.251133
0.270176 0.428412 0.247135
0.303288 0.442878 0.242130
0.345006 0.458900 0.235569
0.394995 0.476326 0.227146
0.453590 0.494575 0.216403
0.518669 0.513024 0.202823
0.591913 0.534295 0.184512
0.651637 0.545434 0.172183
0.697993 0.547997 0.166629
0.740810 0.548974 0.162081
0.780697 0.549248 0.158450
0.818601 0.549432 0.155215
0.854704 0.549615 0.152773
0.888945 0.549615 0.151064
0.921019 0.549279 0.150484
0.947112 0.554162 0.149844
0.971496 0.560052 0.149966
0.994995 0.566003 0.152224
1.000000 0.571984 0.156313
1.000000 0.578027 0.162966
1.000000 0.583948 0.171908
1.000000 0.589807 0.184176
0.092805 0.454047 0.249973
0.094911 0.454017 0.249973
0.102083 0.453681 0.250248
0.116121 0.453040 0.250858
0.134035 0.452003 0.251652
0.154452 0.450752 0.252873
0.175845 0.449439 0.254459
0.198764 0.447791 0.256443
0.222110 0.446113 0.258915
0.244327 0.450843 0.258518
0.270573 0.462684 0.254612
0.303746 0.476143 0.249454
0.344152 0.491096 0.243076
0.391913 0.507012 0.235203
0.446845 0.523461 0.225376
0.507774 0.540124 0.213199
0.572808 0.556664 0.198215
0.641413 0.575280 0.178836
0.699062 0.586725 0.165194
0.740383 0.587610 0.160830
0.779690 0.588067 0.157259
0.817014 0.588342 0.154208
0.852598 0.588647 0.152193
0.886320 0.588708 0.151583
0.917906 0.588312 0.152102
0.947753 0.587396 0.154330
0.975525 0.586969 0.158083
0.998413 0.591608 0.162051
1.000000 0.596216 0.168185
1.000000 0.600885 0.176150
1.000000 0.605463 0.186984
1.000000 0.610101 0.200259
0.000000 0.495125 0.254154
0.000000 0.495033 0.254185
0.001160 0.494728 0.254520
0.054322 0.494179 0.254948
0.102602 0.493233 0.255894
0.133761 0.492042 0.257176
0.162936 0.490578 0.258885
0.191135 0.489021 0.260990
0.218662 0.487190 0.263706
0.245396 0.485115 0.266850
0.272679 0.495827 0.263249
0.305852 0.508385 0.258549
0.345678 0.522271 0.252598
0.391791 0.536858 0.245457
0.444160 0.551720 0.236728
0.501671 0.566705 0.226230
0.561975 0.581445 0.213687
0.623590 0.596246 0.198734
0.686671 0.612390 0.179751
0.741939 0.623957 0.165988
0.780148 0.624445 0.162509
0.816678 0.624811 0.160433
0.851499 0.625086 0.159426
0.884428 0.624994 0.159579
0.915465 0.624384 0.161166
0.944823 0.623377 0.164614
0.972900 0.622034 0.169894
0.999634 0.620203 0.176364
1.000000 0.620294 0.184756
1.000000 0.623774 0.194308
1.000000 0.627253 0.206119
1.000000 0.630854 0.220401
0.000000 0.536706 0.260258
0.000000 0.536797 0.260197
0.000000 0.545556 0.262364
0.000000 0.544976 0.263035
0.069764 0.544121 0.264042
0.122225 0.542870 0.265415
0.159243 0.541283 0.267216
0.193088 0.539422 0.269535
0.224643 0.537407 0.272374
0.255528 0.535119 0.275731
0.285374 0.537896 0.276524
0.319860 0.549218 0.272190
0.359564 0.561151 0.267033
0.404822 0.573602 0.260716
0.454536 0.586267 0.253361
0.508232 0.598993 0.244602
0.563897 0.611475 0.234287
0.619837 0.623774 0.222263
0.675837 0.636011 0.208469
0.733120 0.649683 0.191043
0.786526 0.661860 0.178439
0.821439 0.661891 0.176761
0.854704 0.661646 0.176394
0.886107 0.660914 0.177646
0.915801 0.659663 0.180148
0.944060 0.658045 0.184390
0.971069 0.656062 0.189517
0.997131 0.653712 0.196567
1.000000 0.651148 0.205661
1.000000 0.648280 0.216190
1.000000 0.648981 0.228885
1.000000 0.651575 0.243595
0.000000 0.578729 0.269780
0.000000 0.579492 0.270115
0.000000 0.580011 0.270573
0.000000 0.580316 0.271427
0.092988 0.580102 0.272709
0.134646 0.579126 0.274113
0.170382 0.577783 0.275853
0.203738 0.575982 0.278172
0.235630 0.573999 0.281010
0.266636 0.571832 0.284306
0.297093 0.569238 0.288365
0.329992 0.577234 0.286046
0.368444 0.587823 0.281621
0.410895 0.598901 0.276493
0.457771 0.610224 0.270542
0.507744 0.621515 0.263554
0.558953 0.632776 0.255589
0.611231 0.644068 0.246372
0.663966 0.655390 0.235904
0.716274 0.666682 0.223728
0.767483 0.677913 0.209842
0.820371 0.691737 0.199435
0.854582 0.692805 0.198703
0.885161 0.692012 0.200504
0.914031 0.690730 0.203677
0.941711 0.688960 0.207950
0.968200 0.686854 0.213840
0.993805 0.684352 0.221378
1.000000 0.681605 0.230442
1.000000 0.678614 0.241184
1.000000 0.675410 0.254185
1.000000 0.672084 0.268711
0.029694 0.614099 0.281590
0.045136 0.614862 0.281956
0.084504 0.615412 0.282628
0.111269 0.615747 0.283574
0.139284 0.615564 0.284916
0.168673 0.614771 0.286442
0.198642 0.613519 0.288060
0.228458 0.611902 0.290562
0.258152 0.610010 0.293278
0.288304 0.607843 0.296574
0.317449 0.605463 0.300450
0.347631 0.605982 0.302831
0.383978 0.615229 0.299443
0.424140 0.624903 0.295476
0.467384 0.634760 0.290776
0.513054 0.644739 0.285527
0.560449 0.654871 0.279332
0.608728 0.665034 0.272435
0.657527 0.675319 0.264500
0.706355 0.685695 0.255711
0.754696 0.696162 0.245975
0.802396 0.706783 0.234714
0.851011 0.719387 0.228122
0.884642 0.721553 0.228763
0.912779 0.720241 0.232395
0.939788 0.718379 0.236790
0.965759 0.716182 0.242496
0.990753 0.713558 0.249912
1.000000 0.710719 0.259403
1.000000 0.707607 0.270390
1.000000 0.704280 0.283330
1.000000 0.700862 0.298131
0.153994 0.647608 0.297551
0.156069 0.648219 0.298070
0.164828 0.648615 0.298741
0.177584 0.648890 0.299779
0.195163 0.648737 0.300908
0.215824 0.647944 0.302495
0.239689 0.646845 0.304326
0.264622 0.645380 0.306523
0.291295 0.643671 0.309331
0.318120 0.641688 0.312566
0.345800 0.639460 0.316442
0.373297 0.636988 0.320836
0.405219 0.641901 0.320378
0.442115 0.650263 0.317418
0.481605 0.658900 0.314153
0.523430 0.667903 0.310277
0.566827 0.677180 0.306004
0.611536 0.686671 0.301213
0.657008 0.696376 0.295995
0.702846 0.706294 0.290166
0.748470 0.716396 0.283787
0.793332 0.726497 0.276860
0.837095 0.736416 0.268925
0.881743 0.748165 0.266484
0.914794 0.751431 0.269627
0.941131 0.749599 0.274968
0.966461 0.747311 0.281376
0.990753 0.744564 0.289250
1.000000 0.741512 0.298985
1.000000 0.738216 0.310430
1.000000 0.734676 0.323674
1.000000 0.731044 0.338842
0.233982 0.682612 0.321141
0.235691 0.682826 0.321416
0.239872 0.682765 0.321935
0.247623 0.682551 0.322576
0.259556 0.681971 0.323552
0.274235 0.681086 0.324895
0.292332 0.679927 0.326513
0.312322 0.678523 0.328588
0.334783 0.676936 0.331243
0.358892 0.675135 0.334569
0.383856 0.673121 0.338384
0.408789 0.670863 0.342687
0.434730 0.669673 0.346593
0.467903 0.676997 0.344610
0.503319 0.684627 0.342351
0.540795 0.692531 0.339635
0.579675 0.700771 0.336767
0.620111 0.709224 0.333471
0.661219 0.717922 0.329870
0.702876 0.726772 0.325811
0.744289 0.735622 0.321416
0.785336 0.744656 0.316686
0.825650 0.753628 0.311254
0.865415 0.762600 0.305364
0.906523 0.773495 0.304875
0.938872 0.777462 0.309758
0.963561 0.775143 0.316289
0.987243 0.772396 0.324285
1.000000 0.769253 0.333898
1.000000 0.765835 0.345373
1.000000 0.762203 0.358404
1.000000 0.758419 0.373358
0.299077 0.711513 0.346197
0.299901 0.711696 0.346502
0.303166 0.711727 0.346960
0.309270 0.711452 0.347662
0.317998 0.710964 0.348547
0.329717 0.710201 0.349828
0.344244 0.709163 0.351324
0.361212 0.707881 0.353429
0.379980 0.706447 0.355993
0.400763 0.704860 0.359258
0.422400 0.703029 0.362921
0.444892 0.700984 0.367193
0.467689 0.698695 0.371801
0.494636 0.701472 0.373419
0.525994 0.708400 0.372107
0.559472 0.715541 0.370642
0.594568 0.723110 0.368872
0.630854 0.730861 0.366918
0.668025 0.738766 0.364782
0.705592 0.746822 0.362432
0.743313 0.755032 0.359960
0.780819 0.763394 0.357275
0.817960 0.771817 0.354223
0.854734 0.780392 0.350652
0.889677 0.787259 0.343267
0.928008 0.797726 0.343969
0.959564 0.802365 0.351293
0.982635 0.799588 0.359136
1.000000 0.796445 0.368597
1.000000 0.792874 0.379889
1.000000 0.789181 0.392920
1.000000 0.785397 0.407630
0.364813 0.741176 0.377722
0.366308 0.741451 0.378180
0.368811 0.741451 0.378576
0.373022 0.741085 0.379156
0.379370 0.740444 0.379767
0.388190 0.739467 0.380529
0.398932 0.738277 0.381689
0.412146 0.736843 0.383246
0.427222 0.735225 0.385382
0.444343 0.733455 0.388067
0.462501 0.731563 0.391180
0.482185 0.729458 0.394873
0.502190 0.727230 0.399237
0.522637 0.724880 0.403784
0.549676 0.730800 0.402777
0.578759 0.736995 0.401648
0.609491 0.743526 0.400458
0.641535 0.750393 0.399390
0.674708 0.757534 0.398291
0.708522 0.765042 0.397314
0.742763 0.772763 0.396155
0.776913 0.780636 0.394812
0.810849 0.788571 0.393103
0.844541 0.796567 0.390875
0.878141 0.804532 0.388006
0.911864 0.812436 0.384710
0.947662 0.822385 0.385931
0.977600 0.827207 0.395148
0.998871 0.823789 0.403906
1.000000 0.820066 0.414679
1.000000 0.816159 0.427161
1.000000 0.812222 0.441566
0.418769 0.766384 0.408484
0.419928 0.766598 0.408942
0.422217 0.766659 0.409491
0.425788 0.766415 0.410071
0.431312 0.765988 0.410864
0.438697 0.765316 0.411933
0.448249 0.764462 0.413367
0.459754 0.763424 0.415167
0.473091 0.762234 0.417487
0.488045 0.760952 0.420325
0.504326 0.759396 0.423651
0.521447 0.757717 0.427405
0.539483 0.755764 0.431464
0.557824 0.753628 0.436042
0.578668 0.754757 0.438453
0.603662 0.760250 0.437995
0.630304 0.766049 0.437507
0.658076 0.772244 0.437018
0.687098 0.778744 0.436652
0.716915 0.785641 0.436469
0.747280 0.792844 0.436194
0.777768 0.800290 0.435859
0.808347 0.807889 0.435401
0.839017 0.815549 0.434455
0.869718 0.823270 0.433143
0.900725 0.830869 0.431617
0.932158 0.838315 0.429389
0.965545 0.847776 0.431495
0.992523 0.851408 0.442634
1.000000 0.848447 0.453223
1.000000 0.844327 0.465217
1.000000 0.839994 0.478645
0.473060 0.792264 0.444526
0.473640 0.792386 0.444800
0.475319 0.792294 0.445136
0.478187 0.792050 0.445655
0.482612 0.791623 0.446296
0.488563 0.791012 0.447242
0.496437 0.790249 0.448463
0.506065 0.789303 0.450202
0.517235 0.788235 0.452369
0.529992 0.787045 0.454932
0.543938 0.785702 0.457954
0.559136 0.784176 0.461341
0.574914 0.782559 0.465339
0.591302 0.780728 0.469581
0.608087 0.778683 0.474189
0.628931 0.782803 0.474586
0.651637 0.788144 0.474525
0.675624 0.793790 0.474464
0.700801 0.799863 0.474617
0.726772 0.806332 0.474891
0.753353 0.813138 0.475257
0.780331 0.820157 0.475563
0.807584 0.827298 0.475593
0.835080 0.834531 0.475410
0.862821 0.841703 0.474983
0.891020 0.848692 0.474159
0.919646 0.855528 0.473152
0.948699 0.862089 0.471809
0.979980 0.870909 0.473854
1.000000 0.873289 0.486549
1.000000 0.870634 0.498451
1.000000 0.866148 0.511254
0.521874 0.817227 0.481147
0.522545 0.817319 0.481392
0.523827 0.817319 0.481758
0.526299 0.817166 0.482277
0.530144 0.816922 0.483162
0.535668 0.816556 0.484321
0.543023 0.816251 0.486152
0.551965 0.815824 0.488502
0.562432 0.815396 0.491279
0.574334 0.814908 0.494697
0.587457 0.814328 0.498482
0.601312 0.813565 0.502647
0.616022 0.812619 0.507103
0.631006 0.811460 0.511742
0.646296 0.809995 0.516564
0.662440 0.810452 0.519951
0.681270 0.815457 0.520348
0.701228 0.820798 0.520714
0.722225 0.826505 0.521233
0.744076 0.832578 0.521904
0.766567 0.838926 0.522637
0.789670 0.845426 0.523339
0.813260 0.851987 0.523827
0.837369 0.858457 0.524163
0.861936 0.864836 0.524346
0.887053 0.871000 0.524163
0.912718 0.876951 0.524010
0.938781 0.882597 0.523522
0.965179 0.887968 0.522911
0.993408 0.895201 0.524712
1.000000 0.896513 0.538018
1.000000 0.893767 0.551293
0.574975 0.846342 0.525628
0.575280 0.846342 0.525689
0.576226 0.846220 0.525902
0.578027 0.846006 0.526177
0.580987 0.845701 0.526726
0.585168 0.845274 0.527550
0.590661 0.844755 0.528771
0.597498 0.844175 0.530297
0.605737 0.843565 0.532372
0.615137 0.842832 0.534752
0.625696 0.842008 0.537682
0.637110 0.841154 0.540887
0.649439 0.840146 0.544549
0.662196 0.838987 0.548455
