20 Preset/Emotion Style/【3】LUT video cho PR-AE-FCPX/Emotion Style LUT (1).cube
# Created by Adobe Lightroom plugin Export LUT (1.24.0)
# www.johnrellis.com/lightroom/exportlut.htm
# Preset: 01日系情绪（素材江湖）
# Color profile: E:\lut插件\exportlut.1.24\exportlut.lrplugin\color profiles\Rec709gamma2.4.icc
LUT_3D_SIZE 5
DOMAIN_MIN 0.000000 0.000000 0.000000
DOMAIN_MAX 0.903226 0.903226 0.903226
0.195651 0.222049 0.224918
0.226413 0.224521 0.225437
0.399908 0.230900 0.223178
0.753994 0.243503 0.205692
1.000000 0.364599 0.161532
0.195834 0.246677 0.230045
0.223301 0.253941 0.228214
0.431525 0.271641 0.221988
0.775174 0.311345 0.197848
1.000000 0.419989 0.152346
0.132235 0.413886 0.246799
0.207034 0.406561 0.252537
0.453590 0.494575 0.216403
0.818601 0.549432 0.155215
1.000000 0.571984 0.156313
0.233982 0.682612 0.321141
0.312322 0.678523 0.328588
0.503319 0.684627 0.342351
0.785336 0.744656 0.316686
1.000000 0.769253 0.333898
0.617639 0.872709 0.565179
0.636957 0.871244 0.570062
0.698451 0.862119 0.583642
0.803861 0.886259 0.598383
0.942443 0.918456 0.603235
0.198947 0.224277 0.247166
0.225254 0.225834 0.249027
0.398657 0.217136 0.251438
0.735195 0.221836 0.248386
0.987549 0.340429 0.229129
0.194827 0.253910 0.254520
0.228763 0.257725 0.257664
0.421454 0.268376 0.257298
0.757229 0.292393 0.247013
0.992370 0.400214 0.228183
0.110048 0.436439 0.280766
0.214878 0.429725 0.286687
0.452369 0.488563 0.272526
0.809995 0.530816 0.245884
1.000000 0.568597 0.253788
0.270634 0.691585 0.368719
0.342992 0.687709 0.375525
0.515587 0.683894 0.394629
0.785122 0.744259 0.383856
1.000000 0.767483 0.406012
0.624140 0.874754 0.584558
0.642847 0.873136 0.588739
0.709224 0.867918 0.607630
0.808621 0.887419 0.623285
0.943633 0.919982 0.631342
0.210422 0.228641 0.401190
0.264317 0.229191 0.406561
0.449744 0.226627 0.426032
0.772549 0.280095 0.474952
1.000000 0.238712 0.431800
0.187930 0.270695 0.420386
0.258244 0.272770 0.423590
0.465644 0.282658 0.439307
0.775784 0.336522 0.474586
1.000000 0.325536 0.426368
0.000000 0.479438 0.453346
0.166781 0.484535 0.457404
0.494667 0.503655 0.474342
0.777981 0.521477 0.469459
0.983215 0.566461 0.473091
0.364355 0.721553 0.526635
0.433722 0.718105 0.530938
0.580713 0.704829 0.540398
0.788510 0.745083 0.558801
0.995026 0.760281 0.575677
0.637354 0.883604 0.647089
0.656764 0.882200 0.650599
0.722805 0.876402 0.664332
0.814481 0.881468 0.685145
0.943847 0.918639 0.700526
0.320928 0.232822 0.673060
0.391577 0.230747 0.675624
0.598444 0.228031 0.684199
0.817197 0.290959 0.699245
0.972595 0.523064 0.715450
0.311528 0.298100 0.677852
0.386603 0.299168 0.679469
0.598260 0.310430 0.686427
0.811948 0.376928 0.699367
0.966857 0.567712 0.719539
0.212619 0.508080 0.679347
0.327611 0.510765 0.682063
0.586786 0.535943 0.691066
0.796262 0.579461 0.703456
0.958831 0.688106 0.744137
0.374060 0.737331 0.704250
0.435554 0.736690 0.704891
0.606073 0.737758 0.710780
0.800595 0.746029 0.725154
0.968200 0.748440 0.717464
0.630182 0.904082 0.751400
0.653681 0.903014 0.753292
0.736538 0.899199 0.763272
0.833433 0.888975 0.776791
0.946685 0.919585 0.804288
0.573907 0.332921 0.889220
0.610620 0.340246 0.889097
0.727657 0.380255 0.889677
0.864775 0.469673 0.890074
0.988403 0.571191 0.893278
0.569146 0.406561 0.887175
0.605676 0.413336 0.887175
0.721462 0.447242 0.887602
0.858793 0.518242 0.888243
0.983642 0.601312 0.892485
0.551568 0.588708 0.883879
0.588251 0.591516 0.883696
0.705409 0.607202 0.884428
0.844755 0.641199 0.886687
0.972442 0.692012 0.894408
0.546929 0.742763 0.884062
0.574609 0.741970 0.883757
0.678157 0.742977 0.884611
0.835111 0.766018 0.892485
0.962524 0.808225 0.904723
0.634852 0.904875 0.901732
0.653986 0.904936 0.901915
0.727321 0.906401 0.903777
0.837308 0.910124 0.907439
0.948486 0.920500 0.917144
