20 Preset/Emotion Style/【3】LUT video cho PR-AE-FCPX/Emotion Style LUT (4).cube
# Created by Adobe Lightroom plugin Export LUT (1.24.0)
# www.johnrellis.com/lightroom/exportlut.htm
# Preset: 04日系情绪-春（素材江湖）
# Color profile: E:\lut插件\exportlut.1.24\exportlut.lrplugin\color profiles\Rec709gamma2.4.icc
LUT_3D_SIZE 8
DOMAIN_MIN 0.000000 0.000000 0.000000
DOMAIN_MAX 0.903226 0.903226 0.903226
0.003235 0.064118 0.079530
0.055207 0.070405 0.082582
0.231357 0.059419 0.085237
0.524163 0.000000 0.058289
0.818662 0.000000 0.000000
1.000000 0.000000 0.000000
1.000000 0.000000 0.000000
1.000000 0.230228 0.089570
0.000000 0.119600 0.100374
0.011719 0.117403 0.089601
0.228763 0.139101 0.065370
0.528405 0.015076 0.014069
0.819150 0.000000 0.000000
0.997436 0.000000 0.000000
1.000000 0.138491 0.000000
1.000000 0.281346 0.049348
0.000000 0.380194 0.185916
0.000000 0.372107 0.164920
0.000000 0.358007 0.079591
0.571527 0.370001 0.000000
0.819791 0.352300 0.000000
0.985992 0.362493 0.000000
1.000000 0.388922 0.000000
1.000000 0.425940 0.000000
0.000000 0.687678 0.358923
0.000000 0.682307 0.347631
0.000000 0.651637 0.265934
0.404578 0.640925 0.199313
0.828794 0.675685 0.000000
0.963073 0.619287 0.000000
1.000000 0.597986 0.000000
1.000000 0.592645 0.000000
0.000000 0.871275 0.533165
0.000000 0.867948 0.528985
0.000000 0.852110 0.518853
0.218601 0.819608 0.455634
0.637507 0.817716 0.384161
0.924071 0.846372 0.000000
1.000000 0.789090 0.000000
1.000000 0.749386 0.000000
0.000000 0.943999 0.663691
0.000000 0.941924 0.664485
0.000000 0.932067 0.669154
0.385809 0.918456 0.642542
0.602197 0.895018 0.629755
0.767575 0.898833 0.565606
0.944762 0.907134 0.400977
1.000000 0.880339 0.273350
0.220615 0.973327 0.766812
0.297765 0.971771 0.768734
0.470344 0.965576 0.776577
0.638361 0.954864 0.792355
0.674769 0.948302 0.761807
0.764431 0.934264 0.762600
0.847135 0.940612 0.711177
0.959655 0.945739 0.601740
0.624994 0.986999 0.846464
0.639734 0.986053 0.848325
0.693050 0.982330 0.855955
0.767330 0.976257 0.869505
0.794736 0.972686 0.863706
0.823758 0.967926 0.857359
0.860075 0.963684 0.852171
0.901671 0.967407 0.818021
0.000000 0.079225 0.131258
0.068452 0.076814 0.125795
0.248783 0.034974 0.104555
0.530266 0.000000 0.070436
0.816617 0.000000 0.000000
0.996490 0.000000 0.000000
1.000000 0.105074 0.000000
1.000000 0.263676 0.059937
0.000000 0.132418 0.162387
0.000000 0.133242 0.153597
0.248356 0.144594 0.129366
0.540398 0.105837 0.076753
0.818265 0.000000 0.000000
0.994293 0.077333 0.000000
1.000000 0.213291 0.000000
1.000000 0.306798 0.014038
0.000000 0.405890 0.275700
0.000000 0.398566 0.255192
0.000000 0.368200 0.203342
0.577935 0.375891 0.082033
0.825193 0.359442 0.000000
0.983154 0.384039 0.000000
1.000000 0.406836 0.000000
1.000000 0.436866 0.000000
0.000000 0.698207 0.417426
0.000000 0.693050 0.405982
0.000000 0.664912 0.347631
0.414557 0.641352 0.286076
0.825620 0.674434 0.000000
0.959411 0.619989 0.000000
1.000000 0.600641 0.000000
1.000000 0.596277 0.000000
0.000000 0.874357 0.562280
0.000000 0.871061 0.557916
0.000000 0.855375 0.545434
0.248386 0.823697 0.486305
0.640406 0.816983 0.429572
0.921477 0.846036 0.192782
1.000000 0.789670 0.130953
1.000000 0.750729 0.000000
0.000000 0.944671 0.677455
0.000000 0.942443 0.677668
0.000000 0.932738 0.681270
0.428748 0.917906 0.666835
0.610559 0.895964 0.645808
0.769467 0.898405 0.590845
0.942687 0.907256 0.443061
1.000000 0.880491 0.329961
0.216922 0.973571 0.772335
0.293004 0.972045 0.773892
0.467933 0.965820 0.781125
0.638758 0.955077 0.796689
0.680934 0.948302 0.769436
0.767910 0.934447 0.769650
0.848051 0.940246 0.722896
0.958190 0.945617 0.621485
0.621698 0.987274 0.847959
0.637049 0.986328 0.849851
0.690913 0.982574 0.857237
0.765896 0.976471 0.870481
0.800168 0.972534 0.868070
0.826383 0.967987 0.860624
0.861997 0.963531 0.855833
0.902525 0.967285 0.823331
0.000000 0.099702 0.375586
0.000000 0.096956 0.379095
0.341741 0.000000 0.380835
0.655726 0.000000 0.298497
0.835904 0.000000 0.241459
0.998810 0.000000 0.194980
1.000000 0.250431 0.101106
1.000000 0.336156 0.000000
0.000000 0.170535 0.383032
0.000000 0.162905 0.393591
0.331487 0.166262 0.402228
0.634607 0.000000 0.320378
0.834775 0.000000 0.265354
0.995087 0.186160 0.212955
1.000000 0.297215 0.115084
1.000000 0.366644 0.000000
0.000000 0.396216 0.469062
0.000000 0.399268 0.464790
0.000000 0.408179 0.443854
0.571099 0.399695 0.399084
0.827268 0.393622 0.337163
0.981476 0.408789 0.263890
1.000000 0.439612 0.174685
1.000000 0.470588 0.000000
0.000000 0.741207 0.602014
0.000000 0.736843 0.592645
0.000000 0.712276 0.549340
0.467659 0.646204 0.494270
0.817136 0.673854 0.394598
0.944823 0.634272 0.378790
1.000000 0.620356 0.295109
1.000000 0.612573 0.174411
0.000000 0.888243 0.665888
0.000000 0.885222 0.661433
0.000000 0.870939 0.645167
0.402686 0.839963 0.616876
0.660914 0.817746 0.575769
0.911589 0.847410 0.459144
0.995209 0.795560 0.422766
1.000000 0.760586 0.368170
0.000000 0.948516 0.731624
0.000000 0.946380 0.731258
0.000000 0.937133 0.731167
0.514916 0.919677 0.736843
0.645258 0.901091 0.705959
0.779324 0.897459 0.676356
0.934997 0.908598 0.581292
1.000000 0.882811 0.498726
0.225101 0.975189 0.796323
0.298405 0.973693 0.797452
0.469429 0.967620 0.802548
0.638697 0.957122 0.814023
0.715358 0.948333 0.803952
0.783993 0.936095 0.798337
0.854063 0.939757 0.767880
0.953674 0.946136 0.695094
0.612482 0.988617 0.855680
0.628107 0.987640 0.857267
0.684199 0.983795 0.863859
0.762173 0.977600 0.875883
0.818631 0.971954 0.883268
0.836271 0.968322 0.872618
0.869688 0.963043 0.869810
0.906432 0.967010 0.843595
0.000000 0.154757 0.646448
0.000000 0.156863 0.651392
0.386908 0.136690 0.669398
0.754482 0.000000 0.678981
0.964111 0.000000 0.598108
1.000000 0.000000 0.468208
1.000000 0.273747 0.420478
1.000000 0.381048 0.364782
0.000000 0.222751 0.648005
0.000000 0.228336 0.652644
0.348791 0.235874 0.670466
0.744961 0.193881 0.685695
0.950927 0.025360 0.606653
1.000000 0.139834 0.479896
1.000000 0.330205 0.434638
1.000000 0.411383 0.375982
0.000000 0.411444 0.650935
0.000000 0.413428 0.648707
0.000000 0.419684 0.654719
0.679408 0.470497 0.694575
0.884672 0.449317 0.628260
0.966400 0.436652 0.533440
1.000000 0.489204 0.490333
1.000000 0.512291 0.417609
0.000000 0.676936 0.729091
0.000000 0.677729 0.727352
0.000000 0.679835 0.719753
0.476265 0.680110 0.702235
0.770748 0.674189 0.668452
0.911955 0.668116 0.625696
1.000000 0.660883 0.569024
1.000000 0.648157 0.488808
0.000000 0.901366 0.799863
0.000000 0.900572 0.798459
0.000000 0.895750 0.791989
0.399268 0.867704 0.764126
0.703883 0.825193 0.730373
0.884215 0.842618 0.689601
0.961089 0.810147 0.665888
1.000000 0.785458 0.600824
0.000000 0.956023 0.813352
0.000000 0.954040 0.812589
0.000000 0.945403 0.808591
0.507378 0.929534 0.803677
0.717433 0.908507 0.800473
0.799069 0.895659 0.777890
0.925475 0.911620 0.734035
0.995270 0.887724 0.686976
0.171786 0.979095 0.835325
0.268040 0.977630 0.835843
0.457221 0.971679 0.838193
0.633112 0.961395 0.843961
0.767544 0.948913 0.854643
0.810330 0.939452 0.840269
0.865629 0.938994 0.826017
0.948974 0.946990 0.785763
0.578912 0.992065 0.869017
0.597620 0.990997 0.870298
0.662806 0.986847 0.875700
0.750118 0.980224 0.885557
0.827420 0.973053 0.897856
0.851377 0.969207 0.891142
0.881529 0.963195 0.889494
0.913420 0.966674 0.872526
0.000000 0.258640 0.829313
0.000000 0.261662 0.831144
0.445045 0.269566 0.838132
0.753902 0.311498 0.850645
0.949737 0.329046 0.852659
1.000000 0.337438 0.779416
1.000000 0.391608 0.685847
1.000000 0.437079 0.607935
0.000000 0.315709 0.827115
0.000000 0.318853 0.829007
0.420203 0.330236 0.836240
0.737331 0.371832 0.848722
0.938445 0.400519 0.852598
1.000000 0.403174 0.783688
1.000000 0.438025 0.693477
1.000000 0.468605 0.617060
0.000000 0.465919 0.808133
0.000000 0.466499 0.811246
0.226261 0.470253 0.824491
0.661799 0.516472 0.838529
0.891661 0.587243 0.850156
0.990875 0.579828 0.798581
1.000000 0.572259 0.719783
1.000000 0.578546 0.656336
0.000000 0.645472 0.823789
0.000000 0.645777 0.822599
0.000000 0.646815 0.817411
0.465217 0.651575 0.806424
0.805051 0.729030 0.837644
0.923949 0.742641 0.817441
0.982238 0.702846 0.748745
1.000000 0.704524 0.706813
0.000000 0.833249 0.855711
0.000000 0.833158 0.855100
0.000000 0.832792 0.852323
0.435554 0.832395 0.846616
0.704433 0.833371 0.837705
0.850126 0.831327 0.822171
0.931518 0.823056 0.796628
1.000000 0.809537 0.756619
0.000000 0.952270 0.884520
0.000000 0.951171 0.884031
0.000000 0.946593 0.881743
0.474830 0.939086 0.877592
0.708522 0.922911 0.866056
0.826902 0.900755 0.850431
0.920562 0.912871 0.836881
0.969970 0.893004 0.815396
0.000000 0.985840 0.885435
0.000000 0.984497 0.884947
0.384375 0.979065 0.883146
0.597589 0.968811 0.881926
0.753536 0.955993 0.883635
0.842710 0.943938 0.884367
0.880186 0.938018 0.873991
0.949126 0.948180 0.855802
0.446479 1.000000 0.886381
0.480262 0.998779 0.887266
0.586297 0.993591 0.891081
0.711910 0.985412 0.898650
0.810910 0.976989 0.908110
0.878508 0.969757 0.918303
0.894499 0.965301 0.909575
0.922087 0.966430 0.900816
0.308446 0.386023 0.915373
0.369696 0.389746 0.915740
0.538598 0.407660 0.916869
0.734127 0.452003 0.919097
0.899779 0.542504 0.921599
1.000000 0.567681 0.920287
1.000000 0.573236 0.870939
1.000000 0.605524 0.818570
0.293309 0.425055 0.912749
0.355779 0.428473 0.913085
0.527581 0.444526 0.914397
0.723720 0.486030 0.916777
0.890410 0.570703 0.919615
0.994690 0.600031 0.918853
1.000000 0.602319 0.872313
1.000000 0.627680 0.821988
0.156008 0.533257 0.902953
0.263401 0.535882 0.903746
0.471412 0.549493 0.906126
0.684443 0.587915 0.908873
0.855741 0.657740 0.912902
0.961151 0.701686 0.914611
1.000000 0.696376 0.878233
1.000000 0.701686 0.834684
0.000000 0.654994 0.887114
0.000000 0.655726 0.886198
0.281865 0.663111 0.886107
0.595483 0.693080 0.893400
0.797391 0.748165 0.901396
0.917754 0.808560 0.909972
0.973358 0.798947 0.887236
1.000000 0.785275 0.850736
0.000000 0.792844 0.898833
0.000000 0.793332 0.898283
0.244114 0.795132 0.895750
0.515770 0.799222 0.890684
0.697566 0.806119 0.882200
0.868956 0.855375 0.898955
0.939483 0.865721 0.894499
0.981628 0.839109 0.857572
0.000000 0.902953 0.911559
0.000000 0.902770 0.911315
0.344213 0.902068 0.910155
0.547417 0.901213 0.907958
0.708309 0.901152 0.904631
0.828550 0.902617 0.900359
0.905364 0.901671 0.892302
0.956237 0.895842 0.877348
0.252873 0.978515 0.931212
0.304845 0.977752 0.930938
0.442054 0.974701 0.929625
0.597894 0.969451 0.927428
0.734493 0.963653 0.925048
0.840055 0.953277 0.918608
0.897490 0.940887 0.910826
0.953216 0.949584 0.904936
0.381292 1.000000 0.926268
0.414405 1.000000 0.926055
0.520226 1.000000 0.925383
0.650782 0.992828 0.924498
0.773007 0.983612 0.925505
0.865812 0.974640 0.930816
0.910216 0.968505 0.931823
0.932464 0.966522 0.927306
0.548577 0.531060 0.956725
0.571435 0.536828 0.956878
0.645838 0.552789 0.956146
0.755917 0.587640 0.955108
0.865446 0.642847 0.953521
0.951019 0.716152 0.951873
1.000000 0.719203 0.950744
1.000000 0.713527 0.916258
0.538964 0.548608 0.953521
0.562707 0.554467 0.953796
0.637354 0.569024 0.953307
0.747066 0.599908 0.952331
0.857969 0.651026 0.950958
0.945220 0.719905 0.949554
1.000000 0.723262 0.948333
1.000000 0.714534 0.914183
0.536187 0.629694 0.948180
0.555932 0.632471 0.948119
0.626154 0.643183 0.947570
0.732143 0.668147 0.946899
0.839902 0.708797 0.946044
0.927214 0.766110 0.945922
0.988647 0.781186 0.945983
1.000000 0.774868 0.918669
0.465644 0.709255 0.939117
0.490700 0.711391 0.938994
0.579706 0.722591 0.938598
0.703883 0.749874 0.938872
0.813291 0.781430 0.939391
0.902770 0.824430 0.941558
0.962554 0.847868 0.943816
0.997559 0.839384 0.924437
0.364508 0.788998 0.933593
0.385687 0.788479 0.932738
0.470741 0.789731 0.930297
0.591028 0.794400 0.926207
0.760616 0.824521 0.928862
0.871183 0.859861 0.934051
0.941588 0.891447 0.941161
0.977111 0.886259 0.929778
0.391394 0.873838 0.937774
0.415595 0.874113 0.937560
0.495460 0.874784 0.936431
0.607111 0.876341 0.934173
0.720302 0.879057 0.930266
0.819272 0.884855 0.924743
0.920378 0.916991 0.937865
0.962890 0.921477 0.935668
0.481819 0.940826 0.946105
0.501396 0.940856 0.946136
0.562646 0.940368 0.945586
0.655695 0.939879 0.944640
0.750240 0.939757 0.943084
0.832914 0.940673 0.941222
0.899962 0.942687 0.939391
0.945678 0.941924 0.934356
0.521294 0.995178 0.960784
0.537224 0.994903 0.960876
0.599725 0.993225 0.960876
0.685206 0.989166 0.959167
0.772061 0.984466 0.956939
0.848600 0.980377 0.955077
0.912902 0.973480 0.952087
0.943755 0.967071 0.949462
0.689815 0.666987 0.976623
0.699336 0.670253 0.976501
0.732418 0.677668 0.975555
0.790402 0.697414 0.974121
0.857359 0.726925 0.972045
0.920348 0.765621 0.969635
0.972473 0.811063 0.967681
1.000000 0.799557 0.967926
0.686397 0.675990 0.975036
0.696132 0.679133 0.974975
0.729915 0.687251 0.974182
0.787167 0.705226 0.972808
0.854124 0.733364 0.970886
0.917479 0.770626 0.968627
0.970062 0.813809 0.966827
1.000000 0.802792 0.967010
0.685695 0.719844 0.970947
0.694087 0.721706 0.970825
0.725673 0.727779 0.970123
0.782650 0.745754 0.969299
0.846433 0.768124 0.967681
0.908385 0.798123 0.965972
0.961151 0.834867 0.965026
1.000000 0.829313 0.965209
0.665095 0.768246 0.965759
0.677211 0.771878 0.965576
0.719203 0.784482 0.964508
0.771633 0.795956 0.964019
0.834684 0.814237 0.963226
0.896056 0.837888 0.962615
0.948669 0.866270 0.962951
0.989166 0.868376 0.963531
0.574548 0.804898 0.960845
0.589227 0.806485 0.960876
0.638300 0.810544 0.960510
0.727596 0.827298 0.959472
0.815152 0.851743 0.958526
0.880034 0.870115 0.959014
0.935424 0.893126 0.960784
0.974884 0.903380 0.962707
0.554894 0.864195 0.961273
0.563012 0.864012 0.960937
0.599115 0.864225 0.959686
0.664607 0.866361 0.957580
0.743313 0.870787 0.954498
0.857267 0.896696 0.956207
0.923522 0.918975 0.960174
0.965332 0.935698 0.964446
0.602655 0.922454 0.966094
0.611231 0.922515 0.965911
0.645472 0.922820 0.965240
0.703456 0.923919 0.964050
0.770443 0.925719 0.962188
0.834745 0.928130 0.959655
0.895720 0.932952 0.956573
0.956634 0.953033 0.964172
0.625055 0.964843 0.969879
0.633051 0.964721 0.969787
0.667262 0.964477 0.969482
0.725124 0.964355 0.969085
0.789731 0.964569 0.968505
0.850706 0.965423 0.967742
0.905028 0.966857 0.966918
0.947936 0.968353 0.965789
