20 Preset/Emotion Style/【3】LUT video cho PR-AE-FCPX/Emotion Style LUT (3).cube
# Created by Adobe Lightroom plugin Export LUT (1.24.0)
# www.johnrellis.com/lightroom/exportlut.htm
# Preset: 03日系情绪-春（素材江湖）
# Color profile: E:\lut插件\exportlut.1.24\exportlut.lrplugin\color profiles\Rec709gamma2.4.icc
LUT_3D_SIZE 8
DOMAIN_MIN 0.000000 0.000000 0.000000
DOMAIN_MAX 0.903226 0.903226 0.903226
0.105837 0.187747 0.211307
0.117433 0.189029 0.212375
0.184970 0.192874 0.214786
0.333959 0.195529 0.217472
0.562158 0.186007 0.220371
0.786099 0.196475 0.226810
0.942565 0.281621 0.254185
1.000000 0.386328 0.317510
0.105592 0.195285 0.214511
0.119265 0.196292 0.214176
0.191135 0.201572 0.213138
0.329900 0.208011 0.214817
0.547875 0.207462 0.216281
0.771328 0.220645 0.220584
0.923552 0.286717 0.242405
1.000000 0.383001 0.302281
0.040558 0.250187 0.231052
0.052399 0.252995 0.226780
0.215610 0.263828 0.226413
0.391028 0.273289 0.215457
0.585565 0.281956 0.206607
0.798917 0.317266 0.202670
0.940948 0.374823 0.224491
1.000000 0.446509 0.296239
0.000000 0.403540 0.282383
0.000000 0.405737 0.273960
0.112947 0.425238 0.265660
0.499916 0.475380 0.274937
0.727840 0.486610 0.252903
0.834775 0.463630 0.197482
0.941894 0.486030 0.216800
1.000000 0.526543 0.266209
0.000000 0.616815 0.397559
0.000000 0.618494 0.389746
0.017884 0.629389 0.366461
0.447486 0.650477 0.379034
0.719478 0.677333 0.406897
0.862150 0.664332 0.402777
0.938811 0.631678 0.318822
1.000000 0.621118 0.274998
0.393256 0.759487 0.546136
0.406683 0.765438 0.549279
0.413367 0.770993 0.533135
0.490028 0.778164 0.529808
0.670741 0.790341 0.553002
0.833585 0.808316 0.589563
0.931884 0.805051 0.616419
0.992126 0.781186 0.547784
0.603052 0.858244 0.690303
0.605707 0.859617 0.689967
0.607691 0.861662 0.681605
0.625147 0.865721 0.672572
0.686671 0.868956 0.677852
0.800717 0.877134 0.702358
0.900633 0.887419 0.731563
0.966735 0.885954 0.762509
0.749966 0.925231 0.807462
0.750271 0.925505 0.806699
0.752651 0.927001 0.804166
0.758114 0.930297 0.799649
0.768856 0.928130 0.790829
0.822019 0.932860 0.803525
0.889342 0.938689 0.822354
0.949493 0.943755 0.839048
0.105318 0.188785 0.216281
0.116487 0.189548 0.215976
0.175265 0.193088 0.219516
0.309575 0.200534 0.224369
0.530755 0.198123 0.226322
0.756252 0.207828 0.227329
0.911986 0.271244 0.241184
1.000000 0.364721 0.295964
0.106142 0.195529 0.218601
0.119234 0.196658 0.219608
0.183505 0.202060 0.221744
0.318639 0.210147 0.224491
0.533501 0.213321 0.225864
0.755001 0.227817 0.226413
0.904021 0.283818 0.234623
1.000000 0.367803 0.285771
0.105440 0.244877 0.241764
0.113588 0.248356 0.239719
0.209445 0.258610 0.237644
0.370611 0.266545 0.226841
0.567102 0.276921 0.223270
0.771481 0.305638 0.223606
0.911315 0.355322 0.234195
1.000000 0.425513 0.275639
0.000000 0.385077 0.295476
0.000000 0.388403 0.288731
0.125856 0.406531 0.276310
0.458076 0.441627 0.283574
0.673610 0.446784 0.260624
0.791958 0.430060 0.212467
0.912657 0.459693 0.230686
1.000000 0.506065 0.270542
0.083558 0.602594 0.409583
0.070466 0.603388 0.401495
0.111696 0.612512 0.371984
0.426947 0.629267 0.379248
0.697444 0.653895 0.401617
0.843931 0.643732 0.395850
0.924804 0.614923 0.317937
0.999542 0.609339 0.283116
0.396674 0.747280 0.545739
0.399084 0.748867 0.542748
0.406622 0.755184 0.527733
0.478462 0.764767 0.522972
0.659174 0.779263 0.547295
0.826871 0.800809 0.587640
0.926452 0.798367 0.612329
0.987671 0.773892 0.541680
0.596155 0.850523 0.685023
0.594720 0.850217 0.681727
0.596307 0.852232 0.672969
0.612879 0.857603 0.663386
0.677333 0.862913 0.671595
0.794400 0.871672 0.696498
0.895445 0.881559 0.724056
0.963073 0.879911 0.753414
0.744076 0.921294 0.803159
0.745907 0.922148 0.803525
0.747951 0.923583 0.800717
0.753811 0.927062 0.796353
0.776059 0.930114 0.798154
0.823575 0.933288 0.806851
0.888609 0.937987 0.822751
0.948852 0.943084 0.839322
0.092958 0.192020 0.250217
0.120974 0.192172 0.248600
0.179721 0.194308 0.245457
0.329778 0.197818 0.262730
0.536522 0.201022 0.280156
0.761990 0.232425 0.304143
0.912749 0.309911 0.328283
1.000000 0.401801 0.361852
0.090547 0.208164 0.259037
0.116884 0.203922 0.257267
0.187533 0.205692 0.252140
0.329107 0.212741 0.266056
0.530846 0.225803 0.285283
0.757015 0.249943 0.302831
0.905364 0.316960 0.322820
1.000000 0.404211 0.355688
0.099153 0.251835 0.271519
0.127382 0.252689 0.271977
0.205478 0.254795 0.273136
0.359564 0.268070 0.279973
0.574853 0.285618 0.290440
0.775418 0.320348 0.304417
0.909514 0.377539 0.324926
1.000000 0.449714 0.359533
0.128206 0.376562 0.335546
0.165072 0.381903 0.338720
0.246616 0.400214 0.339086
0.453834 0.434272 0.345281
0.655055 0.434699 0.317937
0.795346 0.438148 0.301671
0.913664 0.475929 0.327550
1.000000 0.526452 0.367041
0.271244 0.585962 0.460792
0.297459 0.587854 0.461769
0.331334 0.599145 0.448310
0.435676 0.620386 0.436286
0.695338 0.650874 0.466743
0.831418 0.639765 0.450507
0.914458 0.608820 0.372045
0.994690 0.618830 0.373175
0.478798 0.735042 0.588861
0.480964 0.737209 0.586877
0.485908 0.743374 0.574945
0.513787 0.754513 0.557733
0.657343 0.769406 0.577020
0.819974 0.793942 0.616602
0.917571 0.794766 0.634974
0.981262 0.773037 0.570550
0.632410 0.847166 0.711696
0.631464 0.847105 0.709010
0.631464 0.848539 0.700343
0.636927 0.853819 0.686366
0.683375 0.859281 0.689021
0.795346 0.869780 0.714321
0.895415 0.882383 0.744625
0.961395 0.883085 0.770962
0.757168 0.919493 0.814542
0.756832 0.919493 0.813291
0.758511 0.920897 0.810422
0.765743 0.925231 0.807797
0.782254 0.928923 0.806394
0.825620 0.933043 0.815305
0.890166 0.938476 0.831724
0.949401 0.943969 0.847990
0.000000 0.199619 0.365301
0.061982 0.199893 0.363928
0.233249 0.201450 0.347814
0.343175 0.201663 0.337255
0.580224 0.189242 0.376043
0.774044 0.226017 0.401831
0.890959 0.345800 0.443702
0.983215 0.455085 0.492012
0.000000 0.221439 0.383001
0.011444 0.219883 0.379065
0.241459 0.219577 0.360967
0.356512 0.218021 0.347234
0.584192 0.216281 0.381628
0.772671 0.255589 0.406775
0.884428 0.373022 0.453407
0.982300 0.462531 0.491951
0.000000 0.325383 0.414405
0.000000 0.320287 0.411505
0.233341 0.287510 0.392523
0.377844 0.280705 0.368811
0.596948 0.307530 0.403784
0.770413 0.355413 0.432502
0.893950 0.443000 0.477302
0.986755 0.510185 0.507134
0.067567 0.410895 0.423865
0.148257 0.410071 0.422858
0.279271 0.408087 0.420447
0.416999 0.401038 0.413428
0.610681 0.423835 0.427283
0.771633 0.457801 0.444648
0.891936 0.504540 0.469642
0.983215 0.560510 0.502678
0.301823 0.566979 0.509178
0.323980 0.567864 0.509880
0.406409 0.575952 0.516716
0.508629 0.597162 0.523400
0.679591 0.633478 0.544121
0.803952 0.619867 0.511131
0.897368 0.605951 0.471473
0.980682 0.641291 0.508232
0.504082 0.726925 0.627771
0.521691 0.731746 0.633570
0.561395 0.734188 0.637201
0.600946 0.744991 0.633478
0.663661 0.761868 0.631403
0.813230 0.787839 0.666011
0.904631 0.788754 0.668452
0.971679 0.766598 0.605768
0.651484 0.840360 0.736568
0.658015 0.841154 0.738064
0.681941 0.843076 0.742702
0.691371 0.849546 0.735134
0.712123 0.857694 0.726650
0.798123 0.868101 0.745113
0.893706 0.881834 0.772671
0.957305 0.883787 0.790005
0.778744 0.918425 0.835142
0.781796 0.918547 0.835813
0.784573 0.919890 0.833982
0.788357 0.923125 0.829587
0.794217 0.927855 0.822232
0.826688 0.932006 0.828183
0.891325 0.938567 0.844999
0.950347 0.945434 0.862333
0.000000 0.221744 0.572259
0.000000 0.222232 0.570825
0.274296 0.219394 0.552514
0.464393 0.214572 0.517540
0.594354 0.205539 0.501946
0.792203 0.254520 0.539757
0.908690 0.367681 0.561059
0.979278 0.489235 0.596979
0.000000 0.250706 0.584588
0.000000 0.251011 0.583246
0.282414 0.247227 0.564569
0.472206 0.240513 0.526024
0.603113 0.232761 0.510338
0.792905 0.285435 0.544976
0.905303 0.388891 0.565026
0.975982 0.501946 0.600580
0.000000 0.387945 0.607019
0.000000 0.379278 0.603418
0.275975 0.340856 0.587366
0.488136 0.330602 0.552453
0.614588 0.322759 0.527642
0.783413 0.376135 0.554742
0.888121 0.453925 0.575036
0.961761 0.540337 0.608911
0.000000 0.529747 0.626276
0.136965 0.529107 0.625544
0.330724 0.527306 0.623743
0.495399 0.471534 0.593805
0.627588 0.452949 0.557153
0.769192 0.501030 0.580133
0.866575 0.549920 0.600488
0.945220 0.614618 0.636042
0.313390 0.605097 0.612726
0.338415 0.604608 0.612207
0.419654 0.600610 0.608362
0.525536 0.591211 0.599115
0.621027 0.570977 0.578790
0.752193 0.593225 0.590021
0.862791 0.624598 0.606744
0.952331 0.662531 0.628260
0.475654 0.689693 0.641901
0.487495 0.690852 0.643214
0.528679 0.693172 0.645930
0.597528 0.701839 0.654627
0.667079 0.718471 0.661219
0.787503 0.758267 0.691768
0.880217 0.757046 0.675227
0.956512 0.740444 0.629755
0.631220 0.825742 0.748470
0.635096 0.825437 0.748135
0.655024 0.826413 0.749416
0.699214 0.831907 0.757534
0.737240 0.841642 0.759518
0.784268 0.854887 0.762448
0.885100 0.873136 0.791745
0.948669 0.873960 0.795193
0.748867 0.910521 0.832486
0.752316 0.910613 0.833036
0.767117 0.911284 0.835904
0.798123 0.915343 0.845274
0.812192 0.920836 0.843320
0.828794 0.927459 0.840299
0.886595 0.935058 0.854978
0.948150 0.943389 0.872892
0.000000 0.276036 0.754391
0.000000 0.276585 0.752895
0.337835 0.275456 0.740688
0.550866 0.274540 0.718654
0.705653 0.289250 0.687221
0.806302 0.301518 0.677516
0.907561 0.411749 0.681880
0.983337 0.542382 0.708980
0.000000 0.306035 0.750240
0.000000 0.305943 0.747707
0.340581 0.303868 0.736599
0.546868 0.301701 0.715114
0.698909 0.311467 0.683375
0.798520 0.320287 0.672694
0.900999 0.423346 0.678920
0.978485 0.546685 0.706538
0.184756 0.443397 0.760983
0.219730 0.432563 0.759243
0.380743 0.417945 0.752651
0.564477 0.411658 0.730556
0.703212 0.410285 0.697139
0.795438 0.412482 0.681636
0.892821 0.499245 0.691554
0.967773 0.591852 0.716579
0.371283 0.621118 0.779812
0.400580 0.616632 0.776913
0.497536 0.602594 0.767605
0.591699 0.566888 0.755245
0.712306 0.554772 0.725093
0.791012 0.544335 0.701930
0.883635 0.606043 0.718135
0.953307 0.660487 0.735897
0.452277 0.700649 0.766720
0.467964 0.700465 0.766110
0.526116 0.700282 0.764614
0.609674 0.699763 0.761990
0.689113 0.654322 0.735744
0.766476 0.632166 0.703151
0.861723 0.673915 0.723934
0.933196 0.707424 0.738857
0.529076 0.745571 0.747768
0.540948 0.746822 0.748989
0.573663 0.744381 0.746487
0.626062 0.739376 0.741421
0.686030 0.729152 0.730892
0.748226 0.711177 0.712093
0.849973 0.735439 0.726406
0.933837 0.761440 0.741756
0.625025 0.815640 0.776303
0.631342 0.816281 0.777218
0.650568 0.814969 0.776486
0.688258 0.818418 0.780148
0.739895 0.826169 0.787594
0.792447 0.838376 0.793912
0.875669 0.863432 0.816495
0.940185 0.858854 0.800809
0.733944 0.903105 0.845243
0.735988 0.902953 0.845060
0.747829 0.903838 0.846220
0.772946 0.907195 0.850645
0.809995 0.912047 0.857908
0.843168 0.919860 0.862608
0.878660 0.930266 0.867948
0.946441 0.942016 0.888823
0.215885 0.363134 0.862913
0.281254 0.364965 0.861875
0.438544 0.370886 0.856291
0.605158 0.385809 0.845945
0.743984 0.408026 0.827054
0.844724 0.435676 0.797910
0.913970 0.454078 0.792691
0.965972 0.550103 0.781491
0.255222 0.394018 0.862028
0.309392 0.395697 0.861112
0.450782 0.400977 0.856046
0.607568 0.411933 0.845090
0.742519 0.429999 0.826291
0.841398 0.452216 0.797055
0.909880 0.467353 0.791012
0.962737 0.557824 0.780789
0.378790 0.508202 0.864561
0.395972 0.502922 0.863798
0.496864 0.504662 0.858518
0.625177 0.509148 0.847776
0.743862 0.516045 0.829526
0.835874 0.523827 0.801785
0.901701 0.531945 0.794888
0.955901 0.606561 0.789273
0.541619 0.672572 0.864805
0.554986 0.670680 0.863310
0.585992 0.654475 0.860044
0.647547 0.631189 0.852781
0.744991 0.626459 0.836576
0.827268 0.620172 0.811551
0.888304 0.618402 0.801297
0.945373 0.673884 0.802182
0.570764 0.774075 0.869383
0.580072 0.774258 0.869078
0.620172 0.769131 0.866300
0.682673 0.754025 0.858701
0.738766 0.721736 0.846281
0.814786 0.706172 0.822843
0.872160 0.695155 0.806882
0.935760 0.741787 0.817960
0.623041 0.817746 0.859525
0.629603 0.817960 0.859556
0.654658 0.818479 0.859525
0.697200 0.819181 0.859373
0.750729 0.819364 0.858671
0.801907 0.786984 0.841062
0.857939 0.767178 0.816037
0.926909 0.801175 0.832670
0.665339 0.852201 0.851194
0.669856 0.852293 0.851316
0.686732 0.851774 0.850767
0.717189 0.850736 0.849638
0.756680 0.847990 0.846616
0.799435 0.841276 0.839384
0.838926 0.821347 0.818509
0.919554 0.839048 0.829435
0.727108 0.900328 0.869444
0.729976 0.900298 0.869535
0.742367 0.900389 0.869993
0.763882 0.899992 0.870207
0.795407 0.901488 0.872160
0.837308 0.909087 0.879576
0.881315 0.920470 0.887846
0.943420 0.939117 0.907286
0.476265 0.497292 0.936461
0.497383 0.500206 0.935790
0.570031 0.509972 0.932525
0.673213 0.529290 0.926360
0.776577 0.554833 0.916472
0.864805 0.582055 0.902434
0.932341 0.605676 0.885893
0.982666 0.617792 0.882689
0.492958 0.521843 0.935424
0.512413 0.524193 0.934813
0.579644 0.532525 0.931701
0.677058 0.548669 0.925597
0.776730 0.570336 0.915953
0.863340 0.593988 0.902098
0.930236 0.614405 0.885313
0.980407 0.624659 0.882078
0.545983 0.602411 0.933562
0.559686 0.603418 0.932952
0.611444 0.607660 0.930083
0.692226 0.617090 0.924804
0.779202 0.628565 0.915740
0.859007 0.640925 0.902586
0.923919 0.652125 0.885527
0.972961 0.657954 0.882750
0.638056 0.723598 0.929992
0.642420 0.721035 0.929808
0.658808 0.709224 0.928832
0.709743 0.703700 0.924926
0.782040 0.706386 0.917021
0.852934 0.708614 0.905150
0.914244 0.709071 0.888090
0.961578 0.709834 0.885100
0.667994 0.807340 0.931273
0.675105 0.806943 0.931029
0.701503 0.804410 0.929503
0.746365 0.799557 0.926207
0.782986 0.779751 0.921233
0.845579 0.774868 0.910369
0.903105 0.767788 0.894224
0.949126 0.764736 0.888884
0.695308 0.864408 0.931273
0.699702 0.864622 0.931273
0.718044 0.865690 0.931456
0.751858 0.868284 0.932280
0.798154 0.857939 0.928252
0.840391 0.838041 0.920714
0.894804 0.828031 0.905669
0.938628 0.820920 0.896239
0.732235 0.897124 0.926970
0.735531 0.897246 0.927031
0.748898 0.897795 0.927245
0.774197 0.899107 0.928008
0.809110 0.901274 0.929290
0.850401 0.904204 0.931395
0.888365 0.885222 0.922148
0.930236 0.871061 0.904997
0.767178 0.925475 0.924895
0.769406 0.925505 0.924895
0.779141 0.925719 0.925109
0.797879 0.926299 0.925658
0.824247 0.927062 0.926299
0.856077 0.927733 0.926696
0.890532 0.926818 0.925261
0.919585 0.913329 0.910704
