20 Preset/Emotion Style/【3】LUT video cho PR-AE-FCPX/Emotion Style LUT (7).cube
# Created by Adobe Lightroom plugin Export LUT (1.24.0)
# www.johnrellis.com/lightroom/exportlut.htm
# Preset: 07日系情绪-夏（素材江湖）
# Color profile: E:\lut插件\exportlut.1.24\exportlut.lrplugin\color profiles\Rec709gamma2.4.icc
LUT_3D_SIZE 5
DOMAIN_MIN 0.000000 0.000000 0.000000
DOMAIN_MAX 0.903226 0.903226 0.903226
0.159243 0.133028 0.102998
0.407202 0.072572 0.108278
0.988769 0.000000 0.000671
1.000000 0.261479 0.090730
1.000000 0.455024 0.276402
0.000000 0.425360 0.021271
0.439673 0.432990 0.000000
0.949065 0.434089 0.000000
1.000000 0.474037 0.000000
1.000000 0.539391 0.286778
0.000000 0.875212 0.435889
0.417517 0.854612 0.420966
0.889189 0.856870 0.224887
1.000000 0.769772 0.000000
1.000000 0.720089 0.337743
0.708095 0.943633 0.714229
0.733944 0.939971 0.710750
0.818875 0.929992 0.691218
0.966979 0.932280 0.581933
1.000000 0.880674 0.384161
0.867887 0.971344 0.844663
0.871641 0.970672 0.842771
0.882536 0.966918 0.828733
0.916838 0.966674 0.799374
0.994720 0.967376 0.671656
0.178897 0.154879 0.334020
0.470161 0.000000 0.357244
0.974975 0.000000 0.233982
1.000000 0.391547 0.000000
1.000000 0.482094 0.260197
0.000000 0.425360 0.436896
0.469337 0.434394 0.409552
0.941802 0.476783 0.305394
1.000000 0.518822 0.055421
1.000000 0.551080 0.268254
0.429358 0.868894 0.624994
0.529442 0.855772 0.583581
0.876402 0.847227 0.513420
1.000000 0.774960 0.402930
1.000000 0.722988 0.333898
0.770291 0.939696 0.769650
0.773739 0.938262 0.756619
0.839048 0.927062 0.742580
0.962036 0.931548 0.675044
1.000000 0.884062 0.488563
0.881865 0.970550 0.861326
0.882322 0.970184 0.857267
0.896635 0.967498 0.850645
0.924559 0.966552 0.826780
0.991302 0.967681 0.731075
0.322362 0.300145 0.783108
0.576379 0.324743 0.797971
0.989197 0.433997 0.814847
1.000000 0.598077 0.688106
1.000000 0.668116 0.623285
0.373724 0.544793 0.766018
0.580133 0.574273 0.782834
0.943664 0.650477 0.809567
1.000000 0.694209 0.715541
1.000000 0.712001 0.647364
0.523430 0.835447 0.809201
0.644739 0.835050 0.806271
0.870237 0.838529 0.797391
0.977417 0.837675 0.775448
1.000000 0.809201 0.702480
0.805356 0.942748 0.852140
0.829435 0.938811 0.850706
0.884886 0.928588 0.841886
0.954620 0.930602 0.829435
1.000000 0.903899 0.774105
0.900664 0.970153 0.895689
0.910369 0.969177 0.898985
0.918578 0.967712 0.891234
0.938659 0.964691 0.880308
0.984192 0.967041 0.841672
0.628321 0.611810 0.898161
0.699519 0.627588 0.899962
0.886839 0.684382 0.907561
1.000000 0.742458 0.909728
1.000000 0.800259 0.848173
0.681209 0.705226 0.889189
0.733089 0.713741 0.891264
0.883360 0.751797 0.901091
1.000000 0.792538 0.906737
1.000000 0.825467 0.855650
0.709743 0.809842 0.868040
0.748623 0.814298 0.865934
0.877256 0.849943 0.885283
0.968658 0.877897 0.902556
1.000000 0.881926 0.876585
0.820584 0.919127 0.905669
0.837003 0.919249 0.904967
0.889616 0.921538 0.904051
0.948760 0.925872 0.902892
0.991852 0.924498 0.892332
0.886320 0.975555 0.929625
0.894804 0.974670 0.929564
0.923644 0.971649 0.929900
0.954498 0.967315 0.929107
0.980896 0.968078 0.920104
0.793393 0.768124 0.942077
0.811582 0.771023 0.942290
0.876555 0.785916 0.943999
0.960693 0.813748 0.948058
1.000000 0.832334 0.948272
0.810910 0.798367 0.938323
0.826200 0.800809 0.938750
0.881559 0.812284 0.940978
0.957153 0.835233 0.945861
1.000000 0.850523 0.947082
0.833066 0.853056 0.931426
0.850950 0.858976 0.931975
0.895079 0.871183 0.935363
0.950378 0.886381 0.942046
1.000000 0.899290 0.946899
0.846159 0.902434 0.934630
0.854826 0.903166 0.933867
0.888121 0.907774 0.931823
0.945800 0.927092 0.941711
0.985779 0.943938 0.952483
0.890867 0.957885 0.954345
0.897002 0.958312 0.954376
0.920989 0.960632 0.955169
0.952178 0.964263 0.956329
0.979004 0.967834 0.957305
