20 Preset/Emotion Style/【3】LUT video cho PR-AE-FCPX/Emotion Style LUT (9).cube
# Created by Adobe Lightroom plugin Export LUT (1.24.0)
# www.johnrellis.com/lightroom/exportlut.htm
# Preset: 09日系情绪-秋（素材江湖）
# Color profile: E:\lut插件\exportlut.1.24\exportlut.lrplugin\color profiles\Rec709gamma2.4.icc
LUT_3D_SIZE 5
DOMAIN_MIN 0.000000 0.000000 0.000000
DOMAIN_MAX 0.903226 0.903226 0.903226
0.105837 0.187747 0.211307
0.240482 0.193393 0.214939
0.816587 0.160586 0.214298
1.000000 0.377356 0.276158
1.000000 0.548913 0.450416
0.000000 0.287053 0.231785
0.291783 0.322637 0.212833
0.827848 0.376593 0.165469
1.000000 0.475319 0.226566
1.000000 0.583215 0.433082
0.209171 0.719234 0.423468
0.390723 0.702358 0.406714
0.805661 0.776089 0.347967
1.000000 0.726467 0.323430
1.000000 0.699825 0.409277
0.673518 0.886595 0.715145
0.690089 0.884184 0.710719
0.756435 0.877745 0.693172
0.917754 0.905486 0.673518
1.000000 0.876066 0.643397
0.841703 0.950561 0.862669
0.845151 0.950195 0.861753
0.855192 0.946807 0.852842
0.894041 0.952026 0.849424
0.966491 0.963378 0.840635
0.104463 0.190921 0.265354
0.242588 0.190799 0.277653
0.785672 0.186740 0.335332
1.000000 0.431312 0.406806
1.000000 0.565606 0.480598
0.000000 0.291081 0.313451
0.290745 0.312779 0.327520
0.801144 0.374670 0.352789
1.000000 0.505699 0.410712
1.000000 0.602686 0.490242
0.394354 0.716213 0.545556
0.456886 0.710903 0.514763
0.787381 0.756619 0.470863
1.000000 0.719753 0.456672
1.000000 0.723964 0.536400
0.712764 0.885863 0.755642
0.716732 0.884794 0.745693
0.768643 0.875273 0.727657
0.914611 0.904021 0.716243
1.000000 0.879271 0.693904
0.850126 0.950744 0.872221
0.852201 0.950408 0.870542
0.866178 0.949187 0.867216
0.899199 0.952789 0.862333
0.967071 0.964416 0.855985
0.000000 0.195560 0.621576
0.396948 0.180423 0.648463
0.838499 0.229068 0.700130
1.000000 0.559594 0.704677
1.000000 0.735897 0.761410
0.000000 0.321324 0.646265
0.368322 0.334813 0.669612
0.829953 0.452735 0.717525
0.980133 0.647578 0.727626
1.000000 0.765713 0.777401
0.349126 0.698756 0.716365
0.497139 0.706355 0.720699
0.770687 0.738552 0.738216
0.930205 0.778134 0.760891
1.000000 0.806577 0.778561
0.755154 0.887968 0.827329
0.771481 0.886137 0.826627
0.816678 0.882963 0.820645
0.908324 0.900572 0.816159
0.997009 0.887449 0.804746
0.865782 0.950591 0.896269
0.874083 0.950744 0.898802
0.883513 0.950927 0.894621
0.906310 0.950195 0.888548
0.966094 0.963897 0.887724
0.376532 0.262730 0.868681
0.523613 0.280430 0.872770
0.821042 0.438911 0.883696
0.985077 0.624018 0.885985
1.000000 0.776120 0.863737
0.388525 0.393194 0.867033
0.529473 0.416480 0.870115
0.811612 0.553613 0.879850
0.965301 0.692897 0.884184
1.000000 0.801175 0.869535
0.302434 0.636011 0.841794
0.457343 0.646815 0.844694
0.774960 0.736751 0.865812
0.924010 0.818509 0.883940
0.980346 0.862303 0.887694
0.712581 0.868925 0.875669
0.736385 0.870146 0.876036
0.814023 0.877745 0.879973
0.899840 0.891417 0.888426
0.968231 0.905699 0.897795
0.865934 0.953887 0.923919
0.872313 0.954009 0.924498
0.895872 0.954864 0.927092
0.925597 0.955749 0.928557
0.966949 0.965026 0.928527
0.584283 0.433295 0.955474
0.639765 0.454505 0.954681
0.796048 0.551507 0.951659
0.934783 0.712490 0.946349
1.000000 0.785885 0.943999
0.601465 0.517082 0.950744
0.652003 0.535454 0.950103
0.796048 0.615167 0.947570
0.928527 0.746304 0.944091
1.000000 0.807279 0.943420
0.615625 0.685267 0.938811
0.668482 0.703517 0.938231
0.792325 0.750576 0.937987
0.913878 0.823850 0.940398
0.983490 0.866453 0.945098
0.634363 0.825193 0.930663
0.656703 0.826291 0.929992
0.738491 0.833585 0.928527
0.895354 0.884733 0.939635
0.970764 0.926299 0.953704
0.824857 0.941466 0.947265
0.834195 0.942290 0.947692
0.870207 0.946532 0.950317
0.920012 0.954040 0.955261
0.966522 0.964263 0.963012
