20 Preset/Emotion Style/【3】LUT video cho PR-AE-FCPX/Emotion Style LUT (9).cube
# Created by Adobe Lightroom plugin Export LUT (1.24.0)
# www.johnrellis.com/lightroom/exportlut.htm
# Preset: 09日系情绪-秋（素材江湖）
# Color profile: E:\lut插件\exportlut.1.24\exportlut.lrplugin\color profiles\Rec709gamma2.4.icc
LUT_3D_SIZE 32
DOMAIN_MIN 0.0 0.0 0.0
DOMAIN_MAX 1.0 1.0 1.0
0.105837 0.187747 0.211307
0.106142 0.187869 0.211429
0.108858 0.188174 0.211643
0.114199 0.188632 0.212039
0.127901 0.189578 0.212711
0.153536 0.190921 0.213443
0.191745 0.192294 0.214237
0.240482 0.193393 0.214939
0.302190 0.193210 0.215549
0.378027 0.190707 0.216068
0.465187 0.184421 0.216190
0.559808 0.173526 0.215915
0.655177 0.160098 0.215305
0.742763 0.153628 0.214420
0.816587 0.160586 0.214298
0.877958 0.182437 0.215091
0.928954 0.212222 0.217472
0.970062 0.245731 0.222202
1.000000 0.278813 0.229892
1.000000 0.310826 0.241093
1.000000 0.344457 0.256352
1.000000 0.377356 0.276158
1.000000 0.406073 0.297490
1.000000 0.432593 0.320256
1.000000 0.457160 0.344030
1.000000 0.480446 0.368841
1.000000 0.503380 0.394873
1.000000 0.526085 0.422095
1.000000 0.548913 0.450416
1.000000 0.572137 0.480171
1.000000 0.595422 0.510216
1.000000 0.618402 0.539940
0.105623 0.188205 0.211521
0.106294 0.188174 0.211398
0.109041 0.188479 0.211582
0.114870 0.188876 0.212009
0.127871 0.190005 0.212680
0.153872 0.191318 0.213382
0.191226 0.192782 0.214054
0.239353 0.194003 0.214755
0.299657 0.194339 0.215366
0.373754 0.192386 0.215793
0.459754 0.186465 0.215885
0.553338 0.176059 0.215610
0.648219 0.163394 0.215000
0.736385 0.157259 0.214054
0.810941 0.163363 0.213870
0.873106 0.183902 0.214359
0.924895 0.212772 0.216617
0.966735 0.245426 0.221073
1.000000 0.278264 0.228550
1.000000 0.310033 0.239231
1.000000 0.342657 0.254063
1.000000 0.374304 0.273350
1.000000 0.402594 0.293400
1.000000 0.428595 0.315679
1.000000 0.452644 0.338659
1.000000 0.475990 0.363195
1.000000 0.498878 0.389075
1.000000 0.521599 0.416144
1.000000 0.544488 0.444770
1.000000 0.567803 0.474372
1.000000 0.591333 0.504784
1.000000 0.614649 0.534936
0.105837 0.189670 0.212253
0.106416 0.189639 0.212253
0.108919 0.189944 0.211948
0.116243 0.190585 0.211917
0.131716 0.191714 0.212314
0.157809 0.193790 0.212924
0.195346 0.195682 0.213535
0.242466 0.197421 0.214145
0.301915 0.198306 0.214572
0.375525 0.197269 0.214755
0.460212 0.192905 0.214755
0.552483 0.184543 0.214267
0.646204 0.174929 0.213291
0.733394 0.170687 0.212100
0.807858 0.177768 0.211673
0.870085 0.196353 0.211917
0.921996 0.223392 0.213931
0.964263 0.253819 0.218265
0.998657 0.284733 0.225711
1.000000 0.314946 0.236118
1.000000 0.346960 0.251469
1.000000 0.377478 0.269780
1.000000 0.404273 0.289982
1.000000 0.429328 0.311742
1.000000 0.453010 0.334722
1.000000 0.475471 0.358984
1.000000 0.498054 0.384863
1.000000 0.520500 0.411994
1.000000 0.543297 0.440833
1.000000 0.566430 0.470558
1.000000 0.589929 0.501305
1.000000 0.613245 0.531823
0.106386 0.193240 0.213626
0.106783 0.193393 0.213596
0.109285 0.193545 0.213565
0.117006 0.194888 0.212955
0.136416 0.197421 0.212467
0.166323 0.199863 0.212070
0.203738 0.202548 0.212406
0.251225 0.205203 0.212711
0.310430 0.207095 0.212802
0.382849 0.207462 0.212650
0.466102 0.204898 0.212314
0.556542 0.200046 0.211368
0.648035 0.194980 0.209964
0.733394 0.194675 0.208377
0.806210 0.202609 0.207218
0.867277 0.220279 0.207279
0.918761 0.243717 0.208804
0.960632 0.270787 0.212650
0.995178 0.298589 0.219821
1.000000 0.325902 0.230472
1.000000 0.355169 0.245457
1.000000 0.382757 0.263310
1.000000 0.407874 0.283055
1.000000 0.431830 0.304906
1.000000 0.454688 0.328283
1.000000 0.477333 0.353704
1.000000 0.499733 0.379889
1.000000 0.522026 0.408026
1.000000 0.544671 0.437537
1.000000 0.567590 0.467750
1.000000 0.590539 0.498360
1.000000 0.613214 0.528649
0.102815 0.202731 0.215793
0.103883 0.202823 0.215763
0.108431 0.202762 0.215732
0.116274 0.204288 0.215244
0.136294 0.208103 0.213657
0.173281 0.213016 0.212161
0.213443 0.216037 0.211307
0.262364 0.218906 0.210300
0.321477 0.221988 0.209842
0.392401 0.224369 0.209201
0.472847 0.224674 0.208225
0.560845 0.223453 0.206607
0.649775 0.223301 0.204288
0.732937 0.226902 0.201968
0.804227 0.236912 0.200137
0.865232 0.253117 0.199466
0.916289 0.273899 0.200656
0.958373 0.296941 0.204532
0.992798 0.321080 0.211734
1.000000 0.345251 0.222568
1.000000 0.371832 0.237766
1.000000 0.395880 0.255894
1.000000 0.418463 0.276188
1.000000 0.440467 0.298283
1.000000 0.462074 0.322362
1.000000 0.483314 0.347845
1.000000 0.504631 0.375128
1.000000 0.525963 0.403449
1.000000 0.547723 0.433173
1.000000 0.569787 0.463569
1.000000 0.592126 0.494606
1.000000 0.614252 0.525078
0.093172 0.219791 0.219089
0.094667 0.219974 0.219181
0.101198 0.219852 0.219028
0.113130 0.219974 0.218906
0.132692 0.224308 0.217288
0.170108 0.231601 0.214115
0.226322 0.240543 0.210575
0.278721 0.243412 0.209171
0.339635 0.246250 0.207279
0.409979 0.249088 0.204929
0.489174 0.252750 0.202182
0.574273 0.256168 0.198795
0.659907 0.260380 0.195438
0.739254 0.267643 0.191867
0.808072 0.279515 0.188785
0.866789 0.294194 0.187655
0.916686 0.312291 0.188418
0.958007 0.331579 0.192538
0.991974 0.351904 0.200229
1.000000 0.373297 0.212680
1.000000 0.395544 0.228489
1.000000 0.416236 0.247745
1.000000 0.457588 0.288426
1.000000 0.477455 0.314214
1.000000 0.496681 0.340551
1.000000 0.515648 0.367926
1.000000 0.534752 0.396002
1.000000 0.553948 0.424659
1.000000 0.573663 0.454047
1.000000 0.593622 0.483833
1.000000 0.613672 0.513329
1.000000 0.633356 0.542046
0.039307 0.250065 0.224674
0.046265 0.249912 0.224552
0.075929 0.249912 0.224491
0.103578 0.249363 0.224338
0.128084 0.250156 0.223545
0.165347 0.259861 0.219699
0.224796 0.272709 0.214023
0.311192 0.289189 0.206058
0.378149 0.291142 0.203311
0.450721 0.292943 0.200137
0.528679 0.294774 0.195590
0.611505 0.299870 0.190799
0.692164 0.308354 0.185061
0.764157 0.318822 0.179446
0.826627 0.331731 0.174136
0.880430 0.346319 0.170382
0.926207 0.361822 0.169986
0.964324 0.377203 0.175296
0.996857 0.393500 0.185336
1.000000 0.413336 0.201083
1.000000 0.432288 0.220737
1.000000 0.450599 0.244297
1.000000 0.469032 0.269902
1.000000 0.487465 0.297398
1.000000 0.505577 0.325994
1.000000 0.523400 0.354833
1.000000 0.540887 0.384070
1.000000 0.558648 0.413489
1.000000 0.576898 0.443244
1.000000 0.595544 0.473732
1.000000 0.614710 0.503960
1.000000 0.633722 0.533318
0.000000 0.287053 0.231785
0.000000 0.286900 0.231662
0.000000 0.286656 0.231540
0.067079 0.285924 0.231388
0.118563 0.284947 0.230991
0.157198 0.290440 0.228336
0.212802 0.304875 0.221988
0.291783 0.322637 0.212833
0.402228 0.346960 0.198886
0.476722 0.348089 0.193912
0.552758 0.349462 0.189670
0.628595 0.351812 0.183627
0.700923 0.355291 0.175906
0.768551 0.365454 0.170138
0.827848 0.376593 0.165469
0.879210 0.389044 0.162020
0.923400 0.401892 0.161624
0.960601 0.415473 0.163424
0.995270 0.431830 0.170779
1.000000 0.447089 0.182071
1.000000 0.461158 0.201785
1.000000 0.475319 0.226566
1.000000 0.489815 0.253330
1.000000 0.504784 0.282231
1.000000 0.520134 0.311986
1.000000 0.535241 0.341527
1.000000 0.550622 0.371496
1.000000 0.566491 0.402106
1.000000 0.583215 0.433082
1.000000 0.600549 0.464118
1.000000 0.618463 0.494972
1.000000 0.636622 0.525414
0.000000 0.335668 0.241337
0.000000 0.335454 0.241367
0.000000 0.334997 0.241154
0.000000 0.333989 0.240879
0.093263 0.332525 0.240452
0.150027 0.330419 0.239811
0.204227 0.343725 0.233494
0.277531 0.362524 0.224155
0.372930 0.384283 0.210330
0.498726 0.414313 0.187839
0.579675 0.417304 0.178805
0.651759 0.418830 0.172641
0.717800 0.420691 0.165652
0.777127 0.422400 0.158145
0.830961 0.426734 0.152224
0.879820 0.436164 0.150362
0.922454 0.446571 0.151308
0.961181 0.458961 0.157107
0.993317 0.470893 0.166842
1.000000 0.482124 0.180758
1.000000 0.493172 0.197421
1.000000 0.503929 0.216403
1.000000 0.514855 0.236576
1.000000 0.526452 0.265324
1.000000 0.538506 0.296239
1.000000 0.550927 0.327642
1.000000 0.563989 0.358953
1.000000 0.577752 0.390661
1.000000 0.592523 0.422461
1.000000 0.608148 0.454322
1.000000 0.624689 0.486336
1.000000 0.641749 0.517723
0.000000 0.394141 0.254154
0.000000 0.393835 0.253910
0.000000 0.392828 0.253544
0.000000 0.391821 0.253269
0.000000 0.389349 0.252506
0.137087 0.386481 0.251408
0.199191 0.387945 0.248692
0.268559 0.406836 0.239078
0.356237 0.428687 0.225650
0.462165 0.453285 0.206394
0.589349 0.485847 0.174380
0.670069 0.491859 0.158389
0.731716 0.490700 0.151461
0.786404 0.489387 0.147066
0.836179 0.488777 0.142214
0.882353 0.490181 0.135866
0.924376 0.496407 0.138277
0.960601 0.504631 0.147860
0.990936 0.512718 0.162570
1.000000 0.520287 0.179385
1.000000 0.527611 0.199100
1.000000 0.534783 0.218997
1.000000 0.542443 0.239475
1.000000 0.550347 0.259983
1.000000 0.558526 0.280247
1.000000 0.567498 0.309453
1.000000 0.577935 0.342077
1.000000 0.589593 0.375219
1.000000 0.602472 0.408576
1.000000 0.616602 0.442176
1.000000 0.631769 0.475624
1.000000 0.647791 0.508659
0.000000 0.456336 0.270390
0.000000 0.456245 0.270481
0.000000 0.455665 0.270054
0.000000 0.454231 0.269566
0.000000 0.452155 0.268711
0.121340 0.449439 0.267521
0.201022 0.445777 0.265934
0.267643 0.455818 0.259220
0.348211 0.477363 0.246342
0.445563 0.501488 0.228458
0.553918 0.527398 0.202976
0.669734 0.559045 0.163027
0.744930 0.565301 0.140169
0.799039 0.562493 0.132448
0.846738 0.559716 0.134493
0.888670 0.557153 0.134463
0.925536 0.554101 0.136568
0.958068 0.551507 0.138888
0.986755 0.555077 0.157565
1.000000 0.559014 0.178531
1.000000 0.562768 0.200565
1.000000 0.567132 0.221866
1.000000 0.572107 0.243503
1.000000 0.577600 0.264775
1.000000 0.583551 0.285801
1.000000 0.589715 0.305730
1.000000 0.596338 0.326665
1.000000 0.605432 0.361059
1.000000 0.616175 0.396094
1.000000 0.628260 0.430854
1.000000 0.641627 0.465522
1.000000 0.656123 0.499763
0.000000 0.524956 0.293339
0.000000 0.524956 0.293400
0.000000 0.524132 0.292851
0.000000 0.522972 0.292363
0.000000 0.520958 0.291051
0.116915 0.518059 0.289677
0.209720 0.514549 0.287938
0.276768 0.509972 0.285679
0.351171 0.529595 0.274418
0.438819 0.551995 0.258885
0.536614 0.576654 0.238407
0.638239 0.602960 0.210452
0.765469 0.656855 0.175357
0.833310 0.662959 0.154055
0.875486 0.653803 0.150484
0.911559 0.644953 0.162081
0.943328 0.636530 0.171756
0.971221 0.628382 0.179446
0.995666 0.620539 0.186679
1.000000 0.614618 0.198093
1.000000 0.614557 0.223301
1.000000 0.615076 0.246525
1.000000 0.616602 0.269963
1.000000 0.618860 0.291081
1.000000 0.621790 0.311742
1.000000 0.625025 0.330846
1.000000 0.628779 0.349340
1.000000 0.632685 0.365911
1.000000 0.639582 0.396033
1.000000 0.648920 0.431342
1.000000 0.659693 0.465797
1.000000 0.671839 0.500023
0.000000 0.603143 0.330053
0.000000 0.602991 0.330022
0.000000 0.601923 0.329259
0.000000 0.600000 0.328130
0.000000 0.597192 0.326329
0.162875 0.593744 0.324254
0.244236 0.590906 0.322332
0.310918 0.587488 0.319890
0.375433 0.591730 0.315312
0.454170 0.613275 0.303746
0.540520 0.636530 0.289281
0.631037 0.660914 0.271275
0.721675 0.685420 0.247196
0.810544 0.710658 0.214755
0.871916 0.715938 0.199710
0.907042 0.703853 0.198276
0.937316 0.692103 0.205539
0.963439 0.680934 0.215640
0.986633 0.670253 0.223301
1.000000 0.660243 0.229282
1.000000 0.651026 0.234531
1.000000 0.646052 0.250034
1.000000 0.645319 0.273594
1.000000 0.645716 0.296147
1.000000 0.646723 0.316655
1.000000 0.648371 0.336553
1.000000 0.650721 0.355138
1.000000 0.653407 0.372381
1.000000 0.656580 0.388830
1.000000 0.662348 0.415900
1.000000 0.671412 0.452705
1.000000 0.681971 0.488838
0.000000 0.666682 0.374304
0.000000 0.666255 0.373877
0.000000 0.664973 0.372686
0.088716 0.663355 0.371557
0.170626 0.660822 0.369482
0.235233 0.657527 0.366613
0.292760 0.653864 0.363836
0.348058 0.649775 0.360540
0.401373 0.645411 0.357214
0.462959 0.656733 0.350195
0.534783 0.676173 0.340459
0.612512 0.696803 0.327916
0.691798 0.717189 0.312749
0.769619 0.736507 0.294041
0.843870 0.753933 0.269993
0.900298 0.758602 0.256992
0.929747 0.744411 0.253788
0.955291 0.730648 0.254978
0.977417 0.717952 0.264347
0.997375 0.705989 0.270359
1.000000 0.695125 0.275425
1.000000 0.685389 0.279973
1.000000 0.676661 0.284001
1.000000 0.673915 0.303410
1.000000 0.673365 0.324681
1.000000 0.673487 0.344549
1.000000 0.674372 0.363867
1.000000 0.675654 0.381109
1.000000 0.677638 0.398138
1.000000 0.679988 0.413489
1.000000 0.684932 0.439338
1.000000 0.693751 0.477089
0.209171 0.719234 0.423468
0.211887 0.718990 0.423163
0.223087 0.717861 0.422034
0.243259 0.716060 0.420203
0.273259 0.713375 0.417609
0.308415 0.710048 0.414343
0.348486 0.706325 0.410681
0.390723 0.702358 0.406714
0.434485 0.698329 0.402960
0.479164 0.695369 0.399023
0.538170 0.711635 0.392248
0.602960 0.728664 0.384466
0.670893 0.745541 0.374853
0.738674 0.761501 0.363165
0.805661 0.776089 0.347967
0.869780 0.788876 0.328527
0.921111 0.792142 0.318059
0.946044 0.777157 0.312474
0.968322 0.762692 0.307958
0.987427 0.749447 0.314977
1.000000 0.737331 0.319646
1.000000 0.726467 0.323430
1.000000 0.716609 0.327001
1.000000 0.707790 0.329625
1.000000 0.700313 0.333837
1.000000 0.699031 0.354284
1.000000 0.698512 0.373327
1.000000 0.698848 0.392065
1.000000 0.699825 0.409277
1.000000 0.701350 0.425422
1.000000 0.703273 0.440558
1.000000 0.708248 0.467964
0.323919 0.759762 0.472969
0.325139 0.759701 0.472755
0.330968 0.759060 0.472023
0.342596 0.757961 0.470741
0.359258 0.756191 0.468452
0.382116 0.753933 0.465797
0.409857 0.751431 0.463111
0.441535 0.748592 0.459724
0.475990 0.745449 0.456214
0.511803 0.742031 0.452491
0.553124 0.745174 0.447944
0.604547 0.758328 0.442054
0.659724 0.771359 0.434821
0.717006 0.783688 0.425727
0.774929 0.795193 0.414649
0.832242 0.805631 0.400824
0.888334 0.815152 0.384649
0.934813 0.817472 0.375311
0.957244 0.803189 0.368261
0.977142 0.788937 0.362280
0.994629 0.776242 0.364935
1.000000 0.764797 0.369574
1.000000 0.754482 0.372656
1.000000 0.745083 0.375067
1.000000 0.736507 0.377142
1.000000 0.728664 0.378454
1.000000 0.723690 0.386755
1.000000 0.722835 0.405371
1.000000 0.722652 0.422827
1.000000 0.723079 0.438972
1.000000 0.723720 0.453285
1.000000 0.724544 0.466041
0.407019 0.791745 0.519860
0.407904 0.791592 0.519585
0.411566 0.791165 0.518944
0.418708 0.790311 0.517815
0.429938 0.789029 0.516197
0.445777 0.787259 0.514000
0.465156 0.785275 0.511528
0.488472 0.782925 0.508568
0.514702 0.780240 0.505211
0.542443 0.777249 0.501305
0.572534 0.773800 0.497383
0.611322 0.781369 0.493019
0.656092 0.792111 0.488350
0.703792 0.802396 0.482185
0.753079 0.812070 0.474342
0.803128 0.820951 0.464820
0.852995 0.829038 0.453132
0.902403 0.836515 0.439887
0.944152 0.838132 0.432044
0.965881 0.825589 0.424323
0.983948 0.812314 0.417517
1.000000 0.800259 0.415808
1.000000 0.789670 0.420020
1.000000 0.779904 0.422492
1.000000 0.770962 0.424079
1.000000 0.762814 0.425360
1.000000 0.755337 0.426001
1.000000 0.748318 0.426093
1.000000 0.745510 0.437934
1.000000 0.744961 0.453864
1.000000 0.744747 0.468299
1.000000 0.744686 0.480720
0.477333 0.818265 0.565393
0.478553 0.818296 0.565362
0.507591 0.827543 0.583581
0.511894 0.826932 0.582513
0.519005 0.825925 0.581140
0.528374 0.824582 0.579126
0.540826 0.822843 0.576410
0.555901 0.820798 0.573388
0.573632 0.818570 0.570031
0.593896 0.816068 0.566644
0.615778 0.813199 0.562646
0.640040 0.811551 0.558221
0.673579 0.819516 0.554376
0.710323 0.827207 0.549767
0.749325 0.834470 0.543603
0.789944 0.841276 0.536553
0.831846 0.847471 0.527398
0.874205 0.853239 0.516533
0.916655 0.858579 0.504875
0.953582 0.859403 0.496986
0.974212 0.848447 0.488960
0.990478 0.836057 0.480598
1.000000 0.824491 0.474769
1.000000 0.814389 0.477058
1.000000 0.804868 0.477302
1.000000 0.796078 0.476875
1.000000 0.787869 0.475685
1.000000 0.780270 0.474098
1.000000 0.773373 0.472694
1.000000 0.766781 0.470710
1.000000 0.765499 0.484138
1.000000 0.764584 0.496040
0.543023 0.841733 0.611719
0.545739 0.842435 0.613397
0.549645 0.842924 0.614588
0.554650 0.843137 0.615259
0.561334 0.842924 0.615259
0.568933 0.842069 0.613947
0.578363 0.840757 0.611902
0.589532 0.839048 0.609094
0.603113 0.837186 0.606134
0.618585 0.835080 0.602777
0.636103 0.832700 0.599084
0.654902 0.829984 0.594903
0.678553 0.831876 0.591150
0.708217 0.838499 0.587671
0.740688 0.844938 0.583551
0.775143 0.851072 0.578424
0.811063 0.856840 0.572076
0.848203 0.862303 0.564935
0.886259 0.867399 0.556664
0.924529 0.872190 0.547478
0.958679 0.873564 0.541131
0.978912 0.864652 0.534844
0.993957 0.853391 0.527184
1.000000 0.842710 0.520104
1.000000 0.833188 0.520134
1.000000 0.824399 0.519738
1.000000 0.816220 0.518761
1.000000 0.808530 0.517327
1.000000 0.801450 0.515587
1.000000 0.794888 0.513420
1.000000 0.788602 0.510643
1.000000 0.783505 0.510338
0.588037 0.857328 0.645899
0.590417 0.857939 0.647395
0.593744 0.858396 0.648707
0.597955 0.858701 0.649653
0.603082 0.858549 0.649592
0.608850 0.857939 0.648768
0.615747 0.856901 0.646815
0.624170 0.855558 0.644465
0.634424 0.854032 0.641901
0.646265 0.852293 0.638941
0.659754 0.850309 0.635462
0.674647 0.848142 0.631891
0.690730 0.845609 0.627527
0.713680 0.850156 0.624750
0.740017 0.855802 0.621881
0.768521 0.861265 0.618067
0.798825 0.866484 0.613489
0.830533 0.871458 0.608392
0.863615 0.876158 0.602167
0.897429 0.880644 0.595483
0.931579 0.884825 0.588220
0.963226 0.886564 0.582727
0.982849 0.879179 0.577874
0.996735 0.868956 0.570489
1.000000 0.859159 0.563409
1.000000 0.850156 0.560296
1.000000 0.842039 0.559716
1.000000 0.834409 0.558251
1.000000 0.827481 0.556847
1.000000 0.820890 0.554772
1.000000 0.814633 0.551812
1.000000 0.808377 0.547570
0.628687 0.871305 0.678157
0.630457 0.871763 0.679347
0.632959 0.872160 0.680415
0.636286 0.872343 0.681117
0.640101 0.872282 0.681209
0.644434 0.871763 0.680323
0.649805 0.870970 0.678889
0.656153 0.869902 0.676967
0.664088 0.868681 0.674800
0.673182 0.867277 0.672114
0.683833 0.865721 0.669490
0.695674 0.863920 0.666255
0.708492 0.861906 0.662684
0.723598 0.861265 0.659022
0.744778 0.866178 0.657008
0.768124 0.871122 0.654536
0.793393 0.875944 0.651942
0.820401 0.880705 0.648646
0.848722 0.885313 0.645228
0.878202 0.889769 0.641596
0.908415 0.894011 0.637476
0.939117 0.898009 0.632868
0.968078 0.900206 0.628901
0.986755 0.894316 0.626062
0.999542 0.885374 0.619562
1.000000 0.876646 0.612940
1.000000 0.868498 0.608270
1.000000 0.861326 0.608026
1.000000 0.854673 0.607050
1.000000 0.848325 0.605310
1.000000 0.842283 0.602838
1.000000 0.836179 0.598596
0.673518 0.886595 0.715145
0.674250 0.886778 0.715663
0.675257 0.886778 0.715785
0.676905 0.886625 0.715572
0.679072 0.886320 0.715023
0.681819 0.885771 0.713924
0.685359 0.885039 0.712367
0.690089 0.884184 0.710719
0.695918 0.883177 0.708858
0.703059 0.882109 0.706844
0.711238 0.880858 0.704524
0.720516 0.879484 0.701961
0.730587 0.877897 0.698970
0.741665 0.876127 0.695644
0.756435 0.877745 0.693172
0.774899 0.881987 0.691310
0.795132 0.886168 0.689174
0.817166 0.890288 0.686732
0.840604 0.894316 0.683955
0.865415 0.898222 0.680903
0.891081 0.901946 0.677455
0.917754 0.905486 0.673518
0.945037 0.908751 0.668971
0.971679 0.910979 0.664515
0.989441 0.905943 0.661891
1.000000 0.897826 0.655543
1.000000 0.889982 0.649439
1.000000 0.882506 0.643671
1.000000 0.876066 0.643397
1.000000 0.869993 0.642298
1.000000 0.864103 0.640131
1.000000 0.858244 0.636500
0.704128 0.897459 0.741329
0.704616 0.897581 0.741665
0.705440 0.897612 0.741726
0.706813 0.897490 0.741634
0.708461 0.897276 0.741146
0.710628 0.896849 0.740383
0.713527 0.896269 0.739162
0.717098 0.895598 0.737697
0.721706 0.894865 0.736294
0.727382 0.893950 0.734646
0.733791 0.893004 0.732723
0.741207 0.891905 0.730739
0.749416 0.890654 0.728298
0.758389 0.889281 0.725643
0.768154 0.887724 0.722591
0.782834 0.891203 0.721309
0.799435 0.894987 0.719966
0.817502 0.898741 0.718441
0.836973 0.902434 0.716487
0.857816 0.906035 0.714382
0.879789 0.909545 0.712062
0.902708 0.912840 0.709407
0.926299 0.916014 0.706355
0.950683 0.918914 0.702785
0.974853 0.920226 0.694057
0.991669 0.915953 0.692042
1.000000 0.908690 0.686275
1.000000 0.901671 0.680812
1.000000 0.894987 0.675807
1.000000 0.888945 0.673823
1.000000 0.883452 0.672786
1.000000 0.877958 0.669978
0.735714 0.908751 0.768704
0.736416 0.908965 0.769162
0.737087 0.908965 0.769284
0.737758 0.908812 0.768917
0.738613 0.908476 0.768154
0.739834 0.907958 0.767025
0.741390 0.907317 0.765591
0.743557 0.906584 0.763943
0.746578 0.905760 0.762142
0.750454 0.904906 0.760220
0.755032 0.903899 0.758175
0.760586 0.902861 0.756039
0.766842 0.901732 0.753719
0.773800 0.900450 0.750973
0.781399 0.899016 0.748043
0.790799 0.898924 0.745418
0.804074 0.902159 0.743954
0.818845 0.905455 0.742519
0.835080 0.908812 0.741146
0.852781 0.912200 0.739803
0.871611 0.915526 0.738308
0.891356 0.918669 0.736416
0.911955 0.921630 0.734066
0.933257 0.924346 0.731014
0.955230 0.926757 0.727199
0.978180 0.929259 0.722744
0.993408 0.925200 0.720333
1.000000 0.918944 0.715236
1.000000 0.912566 0.709834
1.000000 0.906493 0.704982
1.000000 0.900847 0.701839
1.000000 0.895628 0.700099
0.757595 0.917144 0.787961
0.758206 0.917296 0.788357
0.758907 0.917357 0.788632
0.759640 0.917266 0.788418
0.760494 0.917082 0.788022
0.761776 0.916808 0.787350
0.763455 0.916411 0.786557
0.765713 0.915953 0.785641
0.768490 0.915496 0.784573
0.772000 0.914916 0.783413
0.776028 0.914244 0.782101
0.780636 0.913542 0.780575
0.785794 0.912657 0.778775
0.791470 0.911711 0.776791
0.797635 0.910582 0.774380
0.804440 0.909331 0.771756
0.813993 0.910796 0.770016
0.825803 0.913695 0.768795
0.839078 0.916686 0.767697
0.853574 0.919677 0.766690
0.869291 0.922698 0.765591
0.885924 0.925628 0.764309
0.903471 0.928405 0.762692
0.921782 0.931029 0.760678
0.940764 0.933410 0.758114
0.960510 0.935607 0.755123
0.981201 0.937896 0.751400
0.995422 0.934569 0.749172
1.000000 0.929351 0.745205
1.000000 0.923705 0.740597
1.000000 0.918273 0.736049
1.000000 0.912840 0.731136
0.780514 0.925994 0.808194
0.780850 0.926085 0.808377
0.781155 0.926055 0.808347
0.781704 0.925994 0.808225
0.782376 0.925811 0.807797
0.783322 0.925536 0.807218
0.784665 0.925231 0.806546
0.786374 0.924865 0.805722
0.788602 0.924437 0.804807
0.791379 0.923980 0.803830
0.794553 0.923461 0.802701
0.798337 0.922881 0.801480
0.802640 0.922210 0.800137
0.807309 0.921447 0.798489
0.812375 0.920562 0.796567
0.817960 0.919615 0.794400
0.824216 0.918669 0.792264
0.833799 0.921263 0.791226
0.844633 0.923888 0.790372
0.856596 0.926635 0.789548
0.869657 0.929381 0.788724
0.883665 0.932036 0.787839
0.898466 0.934600 0.786557
0.914122 0.937041 0.785000
0.930449 0.939269 0.783108
0.947478 0.941375 0.780575
0.965209 0.943297 0.777859
0.983764 0.945098 0.774563
0.997406 0.942535 0.772030
1.000000 0.938048 0.768826
1.000000 0.932952 0.764462
1.000000 0.927855 0.759670
0.800076 0.933867 0.825589
0.800381 0.933928 0.825772
0.800687 0.933959 0.825803
0.801205 0.933928 0.825742
0.801877 0.933837 0.825559
0.803037 0.933776 0.825437
0.804746 0.933715 0.825406
0.806912 0.933684 0.825437
0.809506 0.933654 0.825467
0.812650 0.933623 0.825528
0.816159 0.933562 0.825528
0.819974 0.933440 0.825345
0.824094 0.933227 0.825040
0.828458 0.932921 0.824430
0.832975 0.932464 0.823453
0.837675 0.931853 0.822049
0.842741 0.931182 0.820554
0.849119 0.931640 0.819272
0.857603 0.933959 0.818723
0.867063 0.936309 0.818173
0.877409 0.938720 0.817624
0.888670 0.941070 0.816983
0.900633 0.943359 0.816037
0.913359 0.945495 0.814908
0.926787 0.947509 0.813352
0.940917 0.949401 0.811521
0.955749 0.951141 0.809415
0.971252 0.952728 0.806882
0.987427 0.954162 0.804044
0.999847 0.951965 0.801022
1.000000 0.948028 0.798001
1.000000 0.943389 0.793484
0.824277 0.943359 0.847074
0.824308 0.943359 0.847074
0.824491 0.943328 0.847013
0.824735 0.943236 0.846830
0.825132 0.943145 0.846555
0.825803 0.942992 0.846220
0.826780 0.942840 0.845853
0.828000 0.942687 0.845457
0.829679 0.942504 0.845090
0.831662 0.942321 0.844663
0.834043 0.942138 0.844205
0.836728 0.941894 0.843656
0.839780 0.941619 0.843046
0.843107 0.941283 0.842313
