20 Preset/Emotion Style/【3】LUT video cho PR-AE-FCPX/Emotion Style LUT (9).cube
# Created by Adobe Lightroom plugin Export LUT (1.24.0)
# www.johnrellis.com/lightroom/exportlut.htm
# Preset: 09日系情绪-秋（素材江湖）
# Color profile: E:\lut插件\exportlut.1.24\exportlut.lrplugin\color profiles\Rec709gamma2.4.icc
LUT_3D_SIZE 8
DOMAIN_MIN 0.000000 0.000000 0.000000
DOMAIN_MAX 0.903226 0.903226 0.903226
0.105837 0.187747 0.211307
0.127901 0.189578 0.212711
0.302190 0.193210 0.215549
0.655177 0.160098 0.215305
0.928954 0.212222 0.217472
1.000000 0.344457 0.256352
1.000000 0.457160 0.344030
1.000000 0.548913 0.450416
0.102815 0.202731 0.215793
0.136294 0.208103 0.213657
0.321477 0.221988 0.209842
0.649775 0.223301 0.204288
0.916289 0.273899 0.200656
1.000000 0.371832 0.237766
1.000000 0.462074 0.322362
1.000000 0.547723 0.433173
0.000000 0.335668 0.241337
0.093263 0.332525 0.240452
0.372930 0.384283 0.210330
0.717800 0.420691 0.165652
0.922454 0.446571 0.151308
1.000000 0.493172 0.197421
1.000000 0.538506 0.296239
1.000000 0.592523 0.422461
0.000000 0.603143 0.330053
0.000000 0.597192 0.326329
0.375433 0.591730 0.315312
0.721675 0.685420 0.247196
0.937316 0.692103 0.205539
1.000000 0.651026 0.234531
1.000000 0.646723 0.316655
1.000000 0.656580 0.388830
0.407019 0.791745 0.519860
0.429938 0.789029 0.516197
0.514702 0.780240 0.505211
0.656092 0.792111 0.488350
0.852995 0.829038 0.453132
0.983948 0.812314 0.417517
1.000000 0.770962 0.424079
1.000000 0.745510 0.437934
0.628687 0.871305 0.678157
0.640101 0.872282 0.681209
0.664088 0.868681 0.674800
0.708492 0.861906 0.662684
0.793393 0.875944 0.651942
0.908415 0.894011 0.637476
0.999542 0.885374 0.619562
1.000000 0.854673 0.607050
0.757595 0.917144 0.787961
0.760494 0.917082 0.788022
0.768490 0.915496 0.784573
0.785794 0.912657 0.778775
0.813993 0.910796 0.770016
0.869291 0.922698 0.765591
0.940764 0.933410 0.758114
1.000000 0.929351 0.745205
0.841703 0.950561 0.862669
0.842496 0.950439 0.862333
0.846586 0.950134 0.861540
0.855283 0.949645 0.860258
0.862760 0.946288 0.851469
0.886046 0.950011 0.849668
0.921569 0.957580 0.847440
0.966491 0.963378 0.840635
0.106752 0.189151 0.220432
0.128267 0.189822 0.220798
0.285252 0.192172 0.229374
0.617731 0.181308 0.237003
0.905882 0.234623 0.235477
1.000000 0.354620 0.255924
1.000000 0.448615 0.317815
1.000000 0.535515 0.426459
0.099214 0.203677 0.227298
0.136721 0.208286 0.230289
0.308232 0.220615 0.234867
0.632990 0.225498 0.234958
0.904875 0.283452 0.232670
1.000000 0.382666 0.254734
1.000000 0.460517 0.304631
1.000000 0.538445 0.413611
0.000641 0.338781 0.278141
0.116518 0.341009 0.268406
0.367712 0.377508 0.245853
0.698573 0.401953 0.219272
0.910674 0.437446 0.219120
1.000000 0.487922 0.257237
1.000000 0.532891 0.317510
1.000000 0.580774 0.399145
0.000000 0.595758 0.373114
0.096193 0.592920 0.357061
0.376806 0.579095 0.346563
0.699245 0.661311 0.289036
0.915648 0.666438 0.252598
1.000000 0.632837 0.268986
1.000000 0.637629 0.342565
1.000000 0.653315 0.409949
0.428168 0.788602 0.541070
0.441840 0.785611 0.534112
0.518120 0.775509 0.520623
0.648524 0.781430 0.500237
0.843931 0.819394 0.465492
0.976471 0.804593 0.433570
1.000000 0.766171 0.441901
1.000000 0.744411 0.458839
0.629145 0.868193 0.682399
0.635401 0.867430 0.681209
0.659876 0.864012 0.675349
0.705287 0.857725 0.664363
0.789761 0.871580 0.655482
0.905577 0.891417 0.645655
0.996185 0.883238 0.628870
1.000000 0.853208 0.615930
0.755184 0.914916 0.787381
0.756100 0.914244 0.785794
0.764034 0.912505 0.782101
0.782162 0.909880 0.776883
0.811582 0.908080 0.769711
0.867124 0.920439 0.765774
0.938659 0.931151 0.757626
1.000000 0.927062 0.744228
0.839536 0.949248 0.861509
0.841093 0.949401 0.861845
0.845029 0.949004 0.860807
0.853788 0.948516 0.859586
0.866758 0.947509 0.856809
0.887572 0.950225 0.853178
0.921630 0.957275 0.849516
0.966155 0.963134 0.842893
0.098787 0.191562 0.295842
0.155184 0.191287 0.301793
0.314214 0.189090 0.318486
0.674891 0.134829 0.367071
0.901030 0.272679 0.404425
1.000000 0.437995 0.459419
1.000000 0.534203 0.501488
1.000000 0.595911 0.535515
0.000000 0.213565 0.315373
0.143069 0.215061 0.321996
0.339727 0.223209 0.337987
0.666316 0.224125 0.373999
0.888548 0.338628 0.418494
1.000000 0.457313 0.458991
1.000000 0.539910 0.495735
1.000000 0.599023 0.530724
0.000000 0.342168 0.364965
0.117678 0.348699 0.369543
0.375036 0.371099 0.384039
0.679194 0.405493 0.402075
0.898283 0.468574 0.427741
1.000000 0.537835 0.464881
1.000000 0.592432 0.504387
1.000000 0.635462 0.540490
0.248142 0.615137 0.505241
0.319036 0.617578 0.506432
0.457832 0.618799 0.486336
0.703761 0.663050 0.459968
0.901122 0.661707 0.450568
0.992981 0.657404 0.475105
1.000000 0.676356 0.521477
1.000000 0.696437 0.558984
0.536126 0.792172 0.640436
0.555047 0.791440 0.640314
0.581018 0.787716 0.614954
0.671077 0.779080 0.596124
0.842557 0.820981 0.582818
0.962493 0.806241 0.560601
1.000000 0.776242 0.561883
1.000000 0.767727 0.583154
0.692378 0.868223 0.742153
0.692134 0.868193 0.738186
0.694392 0.866331 0.722377
0.729152 0.859922 0.711025
0.795804 0.868193 0.702174
0.901976 0.889830 0.699794
0.985657 0.883818 0.689967
1.000000 0.859770 0.681483
0.783383 0.915801 0.815640
0.782193 0.915435 0.812985
0.783017 0.914061 0.805722
0.797208 0.911192 0.799832
0.820523 0.907134 0.791531
0.870939 0.919768 0.790249
0.938231 0.931853 0.787503
0.998871 0.929137 0.779629
0.850980 0.949645 0.873625
0.850370 0.949523 0.872374
0.852476 0.949279 0.870420
0.861265 0.949126 0.869902
0.872892 0.948119 0.867033
0.891905 0.950072 0.864195
0.924102 0.957519 0.861997
0.966339 0.963622 0.856992
0.000000 0.193820 0.498512
0.170199 0.191562 0.510704
0.435889 0.175814 0.547417
0.700649 0.146822 0.579492
0.934630 0.308141 0.613397
1.000000 0.494026 0.625605
1.000000 0.634302 0.676265
1.000000 0.699031 0.705959
0.000000 0.224521 0.522789
0.144808 0.225254 0.531701
0.446571 0.227176 0.564813
0.713710 0.237125 0.594812
0.926268 0.377722 0.621424
0.996185 0.528496 0.635645
1.000000 0.655970 0.687984
1.000000 0.703944 0.706844
0.000000 0.353521 0.531731
0.000000 0.355138 0.541588
0.406561 0.376745 0.585412
0.714382 0.441413 0.619989
0.889921 0.548943 0.648615
0.961669 0.635615 0.674922
1.000000 0.703639 0.709010
1.000000 0.731472 0.718196
0.084565 0.600427 0.622034
0.236057 0.603265 0.623774
0.471687 0.617517 0.633173
0.691341 0.644862 0.649134
0.850889 0.680323 0.668025
0.942199 0.713649 0.687190
0.997620 0.740902 0.705104
1.000000 0.760891 0.718410
0.581476 0.803494 0.734768
0.598199 0.802548 0.734066
0.659663 0.800412 0.733547
0.728054 0.797147 0.722988
0.838041 0.819577 0.715145
0.934234 0.809964 0.708492
0.988647 0.800626 0.710414
1.000000 0.807187 0.727260
0.724086 0.873716 0.793729
0.733730 0.874815 0.796384
0.756863 0.873136 0.796902
0.776913 0.870359 0.785733
0.813687 0.866728 0.773404
0.899535 0.889891 0.775540
0.970703 0.885771 0.768521
1.000000 0.869871 0.763180
0.806821 0.917510 0.845945
0.810391 0.917510 0.846738
0.823819 0.917082 0.849149
0.825620 0.916014 0.838682
0.842466 0.912169 0.831022
0.878813 0.919554 0.828122
0.937652 0.932494 0.828183
0.991058 0.931029 0.823575
0.871702 0.951263 0.895293
0.873625 0.951232 0.895842
0.873899 0.951202 0.893187
0.874937 0.951141 0.888090
0.884276 0.950072 0.885039
0.898772 0.949584 0.881437
0.927916 0.957733 0.881163
0.966827 0.964538 0.879271
0.136477 0.201236 0.722347
0.256992 0.198520 0.728573
0.501366 0.190799 0.745998
0.763058 0.266941 0.775662
0.918486 0.359869 0.784390
0.996185 0.546960 0.768978
1.000000 0.667353 0.769772
1.000000 0.742550 0.788205
0.110658 0.243015 0.730617
0.251286 0.243931 0.736416
0.505150 0.251225 0.752590
0.761990 0.332677 0.778561
0.914061 0.419715 0.787778
0.988464 0.581109 0.774014
1.000000 0.684260 0.774838
1.000000 0.751675 0.792416
0.000000 0.375891 0.735195
0.066438 0.375433 0.741176
0.476875 0.403693 0.755886
0.744533 0.495735 0.781064
0.889769 0.572869 0.792508
0.959625 0.675135 0.787686
0.989868 0.734127 0.789670
1.000000 0.779690 0.804807
0.000000 0.570672 0.736599
0.000000 0.571710 0.737209
0.385290 0.577661 0.740963
0.699245 0.646082 0.776913
0.855375 0.721065 0.800351
0.922515 0.769070 0.806363
0.960601 0.794614 0.811887
0.990631 0.820829 0.825315
0.500938 0.769833 0.782956
0.526390 0.771481 0.783932
0.611810 0.777218 0.786893
0.724147 0.788235 0.792630
0.822995 0.802365 0.799893
0.897185 0.817380 0.808408
0.951507 0.831052 0.816556
0.993011 0.841032 0.821744
0.732631 0.874144 0.836667
0.739010 0.874022 0.836790
0.761257 0.872496 0.835752
0.797971 0.870542 0.834623
0.832639 0.867796 0.828122
0.893187 0.883970 0.829923
0.952453 0.883146 0.829099
0.991760 0.876982 0.825956
0.809781 0.919097 0.868864
0.811978 0.918761 0.868620
0.822599 0.918029 0.868620
0.845060 0.917723 0.871122
0.861234 0.916411 0.866148
0.882933 0.915343 0.859190
0.935607 0.930938 0.862791
0.982788 0.929870 0.858701
0.860563 0.951110 0.899901
0.862791 0.951049 0.900389
0.871916 0.950988 0.902586
0.889616 0.951812 0.908232
0.894957 0.951843 0.903624
0.906401 0.950469 0.899718
0.930114 0.956542 0.899321
0.966339 0.964263 0.899626
0.343389 0.247807 0.852110
0.397528 0.250797 0.853941
0.556023 0.270390 0.858366
0.746426 0.351080 0.866819
0.899992 0.524804 0.876371
0.979858 0.590478 0.874876
1.000000 0.697871 0.850278
1.000000 0.773617 0.851682
0.343725 0.288731 0.849302
0.395972 0.292119 0.850492
0.554162 0.313664 0.855406
0.742031 0.391241 0.863920
0.893523 0.549554 0.873564
0.972900 0.610193 0.872618
1.000000 0.708980 0.850431
1.000000 0.778714 0.852354
0.341955 0.419532 0.849332
0.397284 0.425299 0.850431
0.558221 0.456245 0.855528
0.737697 0.528222 0.862242
0.877745 0.648188 0.871977
0.951415 0.696010 0.873259
0.982879 0.762722 0.859709
1.000000 0.807828 0.861692
0.295384 0.575250 0.836820
0.361028 0.580133 0.838437
0.542992 0.609766 0.846281
0.726833 0.671839 0.858366
0.859464 0.753323 0.872038
0.926909 0.790341 0.878019
0.963073 0.827237 0.875761
0.988190 0.847288 0.876432
0.470558 0.733639 0.838956
0.491890 0.734890 0.838987
0.568475 0.740566 0.839170
0.675990 0.752621 0.840177
0.825650 0.803677 0.860563
0.905089 0.843229 0.876738
0.945373 0.864500 0.882139
0.973022 0.874113 0.883818
0.680903 0.852781 0.860319
0.691585 0.854093 0.861265
0.724636 0.856443 0.862333
0.776761 0.861173 0.864744
0.833646 0.868009 0.868376
0.887938 0.877989 0.874907
0.934813 0.888609 0.882231
0.971588 0.896452 0.887144
0.817441 0.922362 0.899046
0.821866 0.922820 0.899809
0.836637 0.923674 0.901671
0.856229 0.923857 0.902281
0.879057 0.923369 0.901762
0.899168 0.921355 0.897154
0.935546 0.931029 0.897795
0.974701 0.930877 0.896666
0.863798 0.953216 0.918303
0.865110 0.953094 0.918242
0.871763 0.953063 0.918700
0.884916 0.953460 0.920287
0.903777 0.953918 0.923125
0.918456 0.954253 0.922515
0.933684 0.955291 0.919768
0.966735 0.964813 0.922759
0.482612 0.332464 0.915984
0.511833 0.339574 0.916716
0.607965 0.367529 0.917388
0.740566 0.437659 0.918425
0.862882 0.554253 0.918639
0.947356 0.689326 0.918853
0.996918 0.716121 0.916228
1.000000 0.774533 0.893736
0.484352 0.363378 0.912963
0.513634 0.370855 0.913817
0.607568 0.397345 0.914549
0.737545 0.462257 0.915373
0.858640 0.570245 0.915862
0.943145 0.696468 0.916503
0.992798 0.720424 0.913756
1.000000 0.775448 0.891966
0.508995 0.479927 0.910307
0.534203 0.485756 0.910460
0.620447 0.510552 0.910704
0.740291 0.565270 0.911498
0.851774 0.649653 0.912505
0.932494 0.747005 0.915373
0.979583 0.768673 0.914794
0.997620 0.810605 0.899260
0.529351 0.615137 0.902617
0.553765 0.620752 0.902708
0.631434 0.640497 0.903502
0.741482 0.683192 0.905577
0.843565 0.742306 0.908934
0.920470 0.808133 0.915679
0.963409 0.826688 0.917632
0.984985 0.852415 0.908934
0.463844 0.706538 0.887694
0.478157 0.706355 0.886992
0.569055 0.717403 0.888365
0.709133 0.752529 0.894133
0.825376 0.800534 0.902312
0.906126 0.847807 0.913176
0.949340 0.868101 0.918883
0.975006 0.888487 0.918914
0.639673 0.826871 0.893950
0.648280 0.827695 0.894011
0.680446 0.830564 0.894102
0.733181 0.836027 0.894347
0.794003 0.842985 0.894621
0.887419 0.876585 0.910185
0.941070 0.904234 0.923949
0.968017 0.917113 0.928130
0.771542 0.904265 0.910094
0.776455 0.904875 0.910552
0.792935 0.906279 0.911254
0.821988 0.909209 0.912932
0.857725 0.913390 0.915282
0.895537 0.919066 0.918853
0.931487 0.926390 0.924041
0.964172 0.934051 0.929717
0.859373 0.953826 0.936645
0.861814 0.954009 0.936950
0.872435 0.954894 0.938537
0.889921 0.956176 0.940978
0.909972 0.957671 0.943511
0.927916 0.958556 0.944488
0.943908 0.959014 0.943755
0.967742 0.965759 0.945342
0.584283 0.433295 0.955474
0.600549 0.439765 0.955474
0.658076 0.462776 0.954345
0.748074 0.514946 0.952819
0.841672 0.593774 0.950195
0.919066 0.688624 0.946929
0.972351 0.770443 0.945525
1.000000 0.785885 0.943999
0.587213 0.455970 0.953552
0.603326 0.462257 0.953582
0.660365 0.485084 0.952697
0.748013 0.533532 0.951171
0.840208 0.607904 0.948730
0.916960 0.697932 0.945861
0.970397 0.775845 0.944671
1.000000 0.789334 0.943145
0.605615 0.541100 0.949157
0.619379 0.545892 0.949065
0.670863 0.564416 0.948211
0.753231 0.607721 0.947448
0.838499 0.667750 0.945373
0.911254 0.738399 0.943572
0.964202 0.804227 0.943938
0.999817 0.813138 0.943053
0.623896 0.646113 0.942382
0.636866 0.650324 0.942382
0.683253 0.665431 0.941894
0.756680 0.697017 0.941436
0.835416 0.741360 0.940978
0.904356 0.792203 0.941466
0.956451 0.842802 0.944244
0.988830 0.849332 0.944335
0.581933 0.713802 0.934722
0.598779 0.717800 0.934905
0.655695 0.731624 0.934905
0.748165 0.766476 0.935271
0.825986 0.797818 0.936492
0.895140 0.834867 0.939269
0.948058 0.874205 0.944640
0.978637 0.884459 0.946685
0.593988 0.798550 0.929168
0.600244 0.798489 0.928832
0.627985 0.799405 0.927916
0.680446 0.803464 0.926787
0.792416 0.831540 0.930785
0.882719 0.869810 0.938018
0.941619 0.904204 0.947143
0.971984 0.919219 0.952361
0.723812 0.884459 0.934630
0.727962 0.884733 0.934600
0.745357 0.886046 0.934447
0.777523 0.889433 0.934722
0.818540 0.894255 0.935302
0.862608 0.900206 0.936492
0.930663 0.924987 0.948028
0.968505 0.945434 0.958221
0.824857 0.941466 0.947265
0.827207 0.941619 0.947356
0.837736 0.942626 0.947875
0.857664 0.944945 0.949310
0.883757 0.948333 0.951446
0.912657 0.952728 0.954376
0.941405 0.958221 0.958312
0.966522 0.964263 0.963012
