20 Preset/Emotion Style/【3】LUT video cho PR-AE-FCPX/Emotion Style LUT (3).cube
# Created by Adobe Lightroom plugin Export LUT (1.24.0)
# www.johnrellis.com/lightroom/exportlut.htm
# Preset: 03日系情绪-春（素材江湖）
# Color profile: E:\lut插件\exportlut.1.24\exportlut.lrplugin\color profiles\Rec709gamma2.4.icc
LUT_3D_SIZE 32
DOMAIN_MIN 0.0 0.0 0.0
DOMAIN_MAX 1.0 1.0 1.0
0.105837 0.187747 0.211307
0.106142 0.187869 0.211429
0.107393 0.188113 0.211521
0.111757 0.188327 0.211704
0.117433 0.189029 0.212375
0.127443 0.189883 0.212955
0.142336 0.190890 0.213565
0.161044 0.191867 0.214237
0.184970 0.192874 0.214786
0.213291 0.194003 0.215305
0.247288 0.195041 0.215946
0.287205 0.195621 0.216709
0.333959 0.195529 0.217472
0.386572 0.194675 0.218204
0.443153 0.192508 0.218845
0.502342 0.189456 0.219608
0.562158 0.186007 0.220371
0.621271 0.183261 0.221317
0.677760 0.182773 0.222446
0.730770 0.186252 0.224002
0.786099 0.196475 0.226810
0.837858 0.214420 0.231266
0.878721 0.235233 0.236912
0.913054 0.258030 0.244480
0.942565 0.281621 0.254185
0.968414 0.306218 0.265873
0.991608 0.331670 0.279942
1.000000 0.358251 0.296696
1.000000 0.386328 0.317510
1.000000 0.416205 0.342168
1.000000 0.448005 0.371496
1.000000 0.482033 0.405676
0.105318 0.188052 0.211398
0.105928 0.188022 0.211398
0.108370 0.188205 0.211490
0.112123 0.188449 0.211704
0.117830 0.189151 0.212222
0.127749 0.190005 0.212924
0.141939 0.190921 0.213565
0.160647 0.192050 0.214115
0.183536 0.193179 0.214664
0.211521 0.194247 0.215183
0.244327 0.195224 0.215885
0.283482 0.196048 0.216526
0.329229 0.196078 0.217197
0.381140 0.195407 0.217868
0.437079 0.193515 0.218662
0.495766 0.190524 0.219394
0.555810 0.187045 0.220218
0.614710 0.184665 0.220981
0.671626 0.183932 0.222049
0.724971 0.186984 0.223667
0.779934 0.196231 0.226108
0.830686 0.212314 0.230198
0.871244 0.232059 0.235477
0.905516 0.253666 0.242649
0.935302 0.276188 0.251316
0.961608 0.300053 0.262028
0.985443 0.324956 0.275364
1.000000 0.351263 0.291875
1.000000 0.379370 0.312047
1.000000 0.408972 0.336034
1.000000 0.440894 0.364935
1.000000 0.474891 0.398474
0.105165 0.189090 0.211948
0.105776 0.189059 0.211948
0.107729 0.189273 0.211887
0.112215 0.189487 0.211826
0.119295 0.189975 0.212100
0.129335 0.190951 0.212802
0.143191 0.192020 0.213413
0.161532 0.192996 0.213840
0.184451 0.194247 0.214389
0.211704 0.195529 0.215030
0.244358 0.196780 0.215579
0.282811 0.197604 0.216251
0.327764 0.198123 0.216770
0.378851 0.197635 0.217472
0.434546 0.195987 0.218143
0.492531 0.193668 0.218753
0.552026 0.190951 0.219455
0.611170 0.188479 0.220249
0.668025 0.187778 0.221256
0.721553 0.190890 0.222782
0.777310 0.200198 0.225254
0.827268 0.215671 0.228916
0.867552 0.233951 0.234012
0.901793 0.254734 0.240818
0.931609 0.276432 0.249271
0.958007 0.299229 0.259617
0.982055 0.323583 0.272831
1.000000 0.349584 0.288853
1.000000 0.377173 0.308324
1.000000 0.406653 0.332097
1.000000 0.438117 0.360388
1.000000 0.471809 0.393927
0.106355 0.191226 0.213077
0.106233 0.191379 0.212955
0.106691 0.191531 0.212802
0.111727 0.191684 0.212863
0.119326 0.192294 0.212863
0.131991 0.193271 0.212497
0.146548 0.194400 0.212985
0.165072 0.195590 0.213504
0.187320 0.196963 0.214023
0.214633 0.198428 0.214359
0.246494 0.199832 0.215030
0.284703 0.201022 0.215518
0.328954 0.201877 0.216129
0.379065 0.202029 0.216556
0.433417 0.201175 0.217105
0.490242 0.199619 0.217594
0.548699 0.197482 0.218326
0.606561 0.195956 0.218936
0.662684 0.195804 0.219760
0.715785 0.199008 0.221103
0.771847 0.207523 0.223209
0.820096 0.221317 0.226474
0.860197 0.238132 0.231388
0.895048 0.257359 0.237675
0.925963 0.278477 0.245701
0.953735 0.301091 0.256291
0.979034 0.325628 0.269474
1.000000 0.351415 0.285893
1.000000 0.378943 0.305730
1.000000 0.408240 0.329656
1.000000 0.438880 0.357641
1.000000 0.471321 0.390204
0.105592 0.195285 0.214511
0.105379 0.195438 0.214511
0.105440 0.195590 0.214115
0.109773 0.195956 0.214176
0.119265 0.196292 0.214176
0.132021 0.197086 0.213962
0.149111 0.198581 0.213321
0.168795 0.200046 0.212894
0.191135 0.201572 0.213138
0.217716 0.203159 0.213596
0.249119 0.204807 0.213962
0.286534 0.206516 0.214389
0.329900 0.208011 0.214817
0.379400 0.208804 0.215152
0.432776 0.209049 0.215518
0.489693 0.208347 0.215885
0.547875 0.207462 0.216281
0.605890 0.206668 0.216800
0.661646 0.207431 0.217563
0.715328 0.211398 0.218631
0.771328 0.220645 0.220584
0.817960 0.233463 0.223758
0.857450 0.248844 0.228305
0.892424 0.266850 0.234409
0.923552 0.286717 0.242405
0.951629 0.308415 0.253086
0.977142 0.331579 0.266117
1.000000 0.356481 0.282536
1.000000 0.383001 0.302281
1.000000 0.410956 0.325597
1.000000 0.440711 0.353796
1.000000 0.472236 0.385534
0.102113 0.202060 0.216617
0.102541 0.202182 0.216587
0.102541 0.202457 0.215946
0.105440 0.202884 0.215732
0.115389 0.203647 0.215702
0.131350 0.204501 0.215702
0.151003 0.205325 0.215518
0.172732 0.207340 0.214328
0.197299 0.208927 0.213352
0.224460 0.210788 0.212833
0.256016 0.212924 0.212833
0.293462 0.215366 0.212741
0.336889 0.217380 0.213046
0.385840 0.219059 0.213107
0.439124 0.220096 0.213291
0.495186 0.220737 0.213352
0.552911 0.221012 0.213443
0.610254 0.221378 0.213962
0.665522 0.223514 0.214267
0.722316 0.228885 0.215488
0.775601 0.238865 0.217075
0.820645 0.251133 0.220096
0.899138 0.290074 0.230838
0.930785 0.310002 0.239902
0.958251 0.330846 0.251133
0.982544 0.352453 0.264805
1.000000 0.375189 0.281193
1.000000 0.398749 0.300999
1.000000 0.423835 0.323613
1.000000 0.450202 0.350042
1.000000 0.478279 0.380224
1.000000 0.507561 0.413367
0.094636 0.214633 0.220249
0.094484 0.214786 0.220096
0.094606 0.215030 0.219333
0.095674 0.215915 0.218357
0.105501 0.216770 0.218296
0.127443 0.218082 0.218204
0.153994 0.219638 0.218204
0.183444 0.220615 0.218265
0.211612 0.222873 0.216373
0.242374 0.224949 0.214420
0.276127 0.226932 0.212741
0.315984 0.229587 0.212009
0.361181 0.232212 0.211704
0.411048 0.234562 0.211398
0.464179 0.236637 0.210666
0.519249 0.238499 0.209842
0.575189 0.240238 0.209445
0.630396 0.242313 0.209354
0.685267 0.246372 0.209781
0.746456 0.255955 0.210330
0.799222 0.268162 0.212650
0.844816 0.283116 0.216342
0.884489 0.300145 0.222599
0.919371 0.319524 0.231266
0.949798 0.339910 0.242222
0.975738 0.360662 0.255985
0.998444 0.381781 0.272496
1.000000 0.403876 0.291630
1.000000 0.427283 0.314000
1.000000 0.451850 0.339879
1.000000 0.478248 0.369238
1.000000 0.506279 0.402289
0.080903 0.229770 0.224765
0.080659 0.229892 0.224613
0.079561 0.230503 0.223819
0.080385 0.231205 0.222263
0.092287 0.232303 0.221836
0.113375 0.234012 0.221683
0.145357 0.235996 0.221714
0.180453 0.238437 0.221622
0.219394 0.239628 0.222477
0.252720 0.242466 0.219364
0.289494 0.244755 0.216434
0.328496 0.246769 0.213687
0.369421 0.248325 0.211063
0.418067 0.251255 0.210636
0.469917 0.253788 0.210056
0.523033 0.256321 0.209140
0.577691 0.259037 0.208194
0.631495 0.262791 0.206912
0.692988 0.270390 0.205722
0.748470 0.280461 0.204532
0.797726 0.291752 0.205631
0.841184 0.305119 0.209049
0.879789 0.320134 0.214755
0.914000 0.337011 0.222995
0.944427 0.355230 0.233707
0.970672 0.373754 0.247349
0.993622 0.393103 0.263645
1.000000 0.413123 0.282506
1.000000 0.434821 0.305119
1.000000 0.457893 0.330480
1.000000 0.482826 0.360143
1.000000 0.509422 0.393011
0.040558 0.250187 0.231052
0.041169 0.250187 0.230808
0.040101 0.250614 0.230045
0.037629 0.251591 0.228397
0.052399 0.252995 0.226780
0.089754 0.254612 0.226535
0.130098 0.257053 0.226444
0.171298 0.260166 0.226535
0.215610 0.263828 0.226413
0.264683 0.266056 0.227909
0.306371 0.269474 0.223819
0.348272 0.271855 0.219577
0.391028 0.273289 0.215457
0.434272 0.274083 0.211398
0.479683 0.275273 0.208408
0.531670 0.278264 0.207706
0.585565 0.281956 0.206607
0.645472 0.288457 0.205173
0.701503 0.296605 0.203769
0.752804 0.306126 0.202823
0.798917 0.317266 0.202670
0.840116 0.330022 0.203799
0.877440 0.343969 0.206485
0.910948 0.358923 0.213413
0.940948 0.374823 0.224491
0.967041 0.391180 0.237949
0.990173 0.408515 0.254002
1.000000 0.426703 0.273350
1.000000 0.446509 0.296239
1.000000 0.467842 0.322057
1.000000 0.491066 0.351812
1.000000 0.516106 0.384894
0.000000 0.276432 0.239445
0.000000 0.276432 0.239322
0.000000 0.276799 0.238285
0.000000 0.277836 0.236454
0.000000 0.279271 0.233341
0.024506 0.280980 0.232822
0.100069 0.283238 0.232670
0.155062 0.287053 0.232639
0.206210 0.291478 0.232578
0.260349 0.296513 0.232609
0.318395 0.299382 0.234348
0.368383 0.303014 0.230167
0.413458 0.305089 0.224002
0.458137 0.305730 0.218082
0.502190 0.305760 0.212558
0.549187 0.307103 0.206699
0.602991 0.311559 0.203616
0.658656 0.318334 0.202213
0.711116 0.326574 0.201022
0.758968 0.335576 0.200198
0.801572 0.345556 0.200839
0.839780 0.356176 0.202182
0.874388 0.368048 0.204715
0.906035 0.380774 0.208652
0.934936 0.394446 0.214237
0.960754 0.408362 0.225895
0.984131 0.423529 0.241917
1.000000 0.439918 0.261173
1.000000 0.458076 0.284092
1.000000 0.478035 0.311070
1.000000 0.499886 0.341283
1.000000 0.523766 0.375433
0.000000 0.307744 0.249332
0.000000 0.307836 0.249210
0.000000 0.308415 0.248173
0.000000 0.309453 0.246220
0.000000 0.311345 0.242924
0.000000 0.313542 0.240604
0.002045 0.316106 0.240269
0.124056 0.320134 0.240146
0.190433 0.325597 0.240360
0.252750 0.331487 0.240391
0.317296 0.337865 0.240116
0.382422 0.341253 0.242283
0.441474 0.345159 0.238651
0.492012 0.348394 0.230503
0.541070 0.350225 0.222324
0.587335 0.351080 0.214389
0.630243 0.351202 0.206607
0.670527 0.351720 0.198611
0.718318 0.358434 0.197391
0.762539 0.366522 0.196872
0.802792 0.375006 0.197665
0.839048 0.384192 0.199588
0.872557 0.394537 0.202457
0.903441 0.405798 0.207248
0.931762 0.418006 0.212985
0.957580 0.430701 0.220218
0.981140 0.444160 0.230381
1.000000 0.458717 0.250401
1.000000 0.474922 0.273747
1.000000 0.493019 0.300999
1.000000 0.513085 0.332250
1.000000 0.535149 0.366888
0.000000 0.347417 0.262303
0.000000 0.347539 0.262089
0.000000 0.348180 0.261021
0.000000 0.349371 0.258915
0.000000 0.351202 0.255314
0.000000 0.354009 0.250278
0.000000 0.356970 0.250156
0.000000 0.360662 0.249699
0.164004 0.366400 0.249851
0.240177 0.373022 0.250278
0.313603 0.381964 0.250736
0.391547 0.392645 0.251408
0.505943 0.425086 0.262303
0.579767 0.432990 0.261418
0.626581 0.433783 0.247501
0.669154 0.432776 0.234165
0.707027 0.430426 0.221836
0.740780 0.427314 0.210086
0.771237 0.424170 0.199191
0.801297 0.423224 0.191287
0.836240 0.429694 0.194766
0.867796 0.436744 0.198672
0.897093 0.444739 0.204746
0.924254 0.453742 0.211368
0.949096 0.463264 0.219821
0.971923 0.473396 0.229099
0.992828 0.484169 0.240177
1.000000 0.495766 0.252567
1.000000 0.508568 0.275029
1.000000 0.523522 0.304082
1.000000 0.540642 0.336370
1.000000 0.560143 0.371923
0.000000 0.403540 0.282383
0.000000 0.403540 0.281773
0.000000 0.403845 0.280674
0.000000 0.404456 0.278080
0.000000 0.405737 0.273960
0.000000 0.407904 0.267796
0.000000 0.412329 0.265080
0.000000 0.417945 0.265049
0.112947 0.425238 0.265660
0.230808 0.435462 0.267460
0.321813 0.447517 0.269261
0.410254 0.460975 0.272099
0.499916 0.475380 0.274937
0.579400 0.483101 0.281865
0.653407 0.493172 0.286717
0.693050 0.491188 0.269261
0.727840 0.486610 0.252903
0.758389 0.480995 0.237583
0.786099 0.474983 0.223178
0.811368 0.468971 0.209934
0.834775 0.463630 0.197482
0.861021 0.464149 0.194553
0.889982 0.470466 0.200656
0.916899 0.477852 0.208377
0.941894 0.486030 0.216800
0.965057 0.494850 0.226719
0.986450 0.504631 0.237858
1.000000 0.515099 0.250950
1.000000 0.526543 0.266209
1.000000 0.539818 0.290227
1.000000 0.555261 0.323827
1.000000 0.572992 0.360632
0.000000 0.461463 0.306584
0.000000 0.461372 0.306218
0.000000 0.461311 0.304540
0.000000 0.461952 0.301671
0.000000 0.463142 0.297551
0.000000 0.465400 0.290898
0.000000 0.468757 0.284001
0.000000 0.472602 0.283879
0.000000 0.478035 0.283879
0.198428 0.486549 0.285313
0.305241 0.497475 0.288090
0.398993 0.509972 0.291722
0.488624 0.523339 0.295689
0.574517 0.536797 0.300450
0.645808 0.542779 0.307866
0.712551 0.549859 0.320714
0.744533 0.544060 0.299962
0.772885 0.536309 0.280369
0.798886 0.528313 0.262303
0.822568 0.520104 0.245121
0.844633 0.512535 0.229557
0.865812 0.506096 0.215030
0.886381 0.501030 0.200809
0.911803 0.504997 0.204898
0.936736 0.511894 0.214511
0.959930 0.519554 0.224979
0.981445 0.527886 0.237125
1.000000 0.537194 0.250980
1.000000 0.547478 0.266300
1.000000 0.558984 0.283879
1.000000 0.572290 0.311223
1.000000 0.588342 0.349706
0.000000 0.519097 0.335515
0.000000 0.519127 0.334691
0.000000 0.518883 0.333165
0.000000 0.518730 0.330205
0.000000 0.519066 0.324865
0.000000 0.520195 0.318547
0.000000 0.522728 0.309911
0.000000 0.526024 0.306279
0.000000 0.530297 0.306340
0.145724 0.536522 0.306920
0.284306 0.546410 0.310246
0.384833 0.557671 0.314916
0.475746 0.569390 0.320226
0.558526 0.581079 0.326177
0.635554 0.592340 0.332341
0.699886 0.597436 0.340490
0.758053 0.600214 0.361456
0.784817 0.592157 0.338109
0.809323 0.582788 0.316045
0.831846 0.572992 0.295262
0.853086 0.563714 0.275731
0.873655 0.555749 0.258061
0.893462 0.548760 0.241184
0.912779 0.542779 0.224887
0.931975 0.538994 0.211704
0.955138 0.545251 0.223728
0.976898 0.552667 0.236454
0.997223 0.561151 0.251072
1.000000 0.570642 0.267826
1.000000 0.581567 0.287144
1.000000 0.593652 0.308690
1.000000 0.608057 0.341985
0.000000 0.570916 0.365454
0.000000 0.571130 0.365454
0.000000 0.571283 0.363958
0.000000 0.571710 0.361303
0.000000 0.572534 0.356664
0.000000 0.574334 0.350591
0.000000 0.577264 0.342596
0.000000 0.581201 0.335241
0.000000 0.585290 0.335851
0.156069 0.590265 0.336645
0.264988 0.596704 0.338994
0.372107 0.604944 0.343725
0.462135 0.613245 0.349279
0.541985 0.621424 0.355108
0.614618 0.629603 0.361273
0.681514 0.637568 0.367773
0.740078 0.642420 0.375891
0.790433 0.642420 0.402441
0.815274 0.633936 0.380011
0.837339 0.624018 0.356451
0.858610 0.614527 0.334508
0.879118 0.605768 0.313634
0.898772 0.597742 0.294499
0.917876 0.590692 0.276341
0.936278 0.584619 0.258671
0.954345 0.579675 0.241764
0.973541 0.579889 0.236973
0.993988 0.587182 0.253208
1.000000 0.595575 0.270939
1.000000 0.605066 0.290837
1.000000 0.615564 0.312902
1.000000 0.627405 0.337591
0.000000 0.616815 0.397559
0.000000 0.616724 0.397345
0.000000 0.617029 0.396155
0.000000 0.617487 0.393683
0.000000 0.618494 0.389746
0.000000 0.620050 0.384131
0.000000 0.622644 0.377081
0.000000 0.625971 0.367926
0.017884 0.629389 0.366461
0.185794 0.633082 0.367193
0.258824 0.637415 0.368627
0.357275 0.643641 0.373083
0.447486 0.650477 0.379034
0.525048 0.657221 0.385595
0.595422 0.664057 0.392462
0.660121 0.670771 0.399664
0.719478 0.677333 0.406897
0.773312 0.682918 0.415808
0.815824 0.680903 0.442664
0.841306 0.673671 0.427008
0.862150 0.664332 0.402777
0.882353 0.655238 0.379767
0.901732 0.646662 0.358526
0.920592 0.638788 0.338201
0.938811 0.631678 0.318822
0.956573 0.625605 0.300694
0.974090 0.620661 0.283299
0.991333 0.616968 0.266850
1.000000 0.621118 0.274998
1.000000 0.629541 0.295811
1.000000 0.639002 0.318761
1.000000 0.649622 0.344060
0.119539 0.659602 0.433875
0.120912 0.659937 0.433967
0.197696 0.680842 0.453376
0.198337 0.681331 0.451209
0.199191 0.682094 0.447791
0.200107 0.683192 0.443030
0.201083 0.684871 0.436194
0.204440 0.687221 0.428046
0.227787 0.689998 0.422187
0.281254 0.692561 0.423285
0.330388 0.695460 0.424781
0.382910 0.698878 0.426917
0.464088 0.703426 0.432990
0.535119 0.707973 0.439490
0.599237 0.712337 0.445960
0.658076 0.716732 0.452552
0.712520 0.721065 0.459052
0.763088 0.725643 0.466194
0.810391 0.730587 0.473915
0.844785 0.726131 0.498634
0.869413 0.719753 0.489570
0.888273 0.710292 0.464332
0.906615 0.700923 0.440314
0.924407 0.691768 0.417060
0.941650 0.682734 0.394507
0.958373 0.674617 0.373358
0.974914 0.667506 0.353124
0.991302 0.661707 0.334600
1.000000 0.657557 0.318120
1.000000 0.654810 0.302953
1.000000 0.662593 0.325383
1.000000 0.671962 0.351385
0.257176 0.702419 0.477729
0.262455 0.704158 0.479561
0.266758 0.706264 0.480415
0.271885 0.708248 0.480690
0.276066 0.710201 0.479255
0.277714 0.711666 0.475471
0.279362 0.713191 0.470039
0.281254 0.715084 0.462989
0.284855 0.717647 0.454841
0.320226 0.719661 0.454627
0.359625 0.721920 0.456092
0.398077 0.724544 0.457496
0.454108 0.727687 0.461402
0.521599 0.731655 0.467536
0.583154 0.735683 0.474128
0.639399 0.739712 0.481178
0.691859 0.743801 0.488258
0.740780 0.748257 0.496010
0.786801 0.753079 0.504295
0.829892 0.758328 0.513512
0.861082 0.754757 0.536645
0.886046 0.751217 0.536767
0.903716 0.742916 0.513573
0.921111 0.734279 0.490364
0.937957 0.725551 0.467506
0.954589 0.717220 0.445380
0.970886 0.709590 0.424384
0.987030 0.702846 0.404974
1.000000 0.697658 0.387366
1.000000 0.693874 0.371832
1.000000 0.691615 0.358251
1.000000 0.693019 0.356390
0.329137 0.731441 0.511192
0.333196 0.733211 0.512963
0.337530 0.735103 0.514336
0.342046 0.737026 0.514916
0.345617 0.738827 0.514061
0.347417 0.740261 0.511192
0.349187 0.741573 0.506920
0.350500 0.743160 0.500908
0.352911 0.745205 0.494026
0.367620 0.747250 0.489998
0.397894 0.749050 0.491188
0.429297 0.751064 0.492805
0.460761 0.753262 0.494087
0.518517 0.756588 0.499702
0.575830 0.760067 0.506371
0.628656 0.763668 0.513237
0.678248 0.767330 0.520073
0.724666 0.771176 0.527428
0.768338 0.775326 0.535546
0.809689 0.779934 0.544182
0.848478 0.784756 0.553399
0.876402 0.781552 0.574090
0.900725 0.779812 0.581872
0.916991 0.772427 0.560937
0.933074 0.764675 0.539635
0.949126 0.756832 0.518395
0.965057 0.749294 0.497719
0.980896 0.742458 0.478187
0.996765 0.736660 0.460273
1.000000 0.732265 0.444465
1.000000 0.729122 0.430793
1.000000 0.727138 0.418952
0.393256 0.759487 0.546136
0.397070 0.760800 0.548089
0.400153 0.762417 0.549126
0.403967 0.764034 0.549950
0.406683 0.765438 0.549279
0.408484 0.766629 0.547082
0.409705 0.767849 0.543420
0.411017 0.769223 0.538598
0.413367 0.770993 0.533135
0.415564 0.773098 0.526085
0.439002 0.774624 0.527123
0.464088 0.776303 0.528496
0.490028 0.778164 0.529808
0.522850 0.780301 0.532311
0.574914 0.783413 0.538628
0.624140 0.786709 0.545464
0.670741 0.790341 0.553002
0.714717 0.794278 0.560815
0.756435 0.798550 0.569726
0.796139 0.803281 0.579187
0.833585 0.808316 0.589563
0.869017 0.813443 0.600336
0.893736 0.810880 0.619440
0.916838 0.810880 0.634089
0.931884 0.805051 0.616419
0.946899 0.798734 0.598505
0.961883 0.792386 0.580713
0.976959 0.786435 0.563622
0.992126 0.781186 0.547784
1.000000 0.776730 0.533410
1.000000 0.773251 0.520623
1.000000 0.770748 0.509545
0.468208 0.793301 0.592493
0.469398 0.793851 0.593194
0.470588 0.794308 0.593256
0.471473 0.794827 0.592767
0.471962 0.795407 0.591089
0.472206 0.795895 0.588586
0.472694 0.796597 0.585260
0.473610 0.797635 0.581292
0.475349 0.799039 0.576745
0.477485 0.800900 0.571191
0.488838 0.802579 0.569116
0.508629 0.803983 0.570306
0.529259 0.805478 0.571771
0.550805 0.807095 0.573083
0.586328 0.809201 0.577081
0.630121 0.811856 0.583062
0.671809 0.814603 0.589502
0.711879 0.817624 0.596551
0.749722 0.820829 0.604181
0.786191 0.824338 0.612177
0.820645 0.828031 0.620813
0.853666 0.831937 0.629725
0.884794 0.835874 0.638849
0.906432 0.832761 0.654200
0.928038 0.833188 0.672572
0.941833 0.828061 0.656886
0.955779 0.822843 0.641352
0.969970 0.817685 0.626276
0.984283 0.812985 0.612085
0.998749 0.808804 0.598993
1.000000 0.805325 0.587274
1.000000 0.802609 0.576837
0.515862 0.816373 0.625391
0.516960 0.816709 0.625971
0.517784 0.817166 0.626123
0.518639 0.817624 0.625635
0.519188 0.818112 0.624353
0.519677 0.818601 0.622431
0.520165 0.819272 0.619776
0.520897 0.820157 0.616388
0.522393 0.821347 0.612573
0.524437 0.822904 0.608240
0.528099 0.824704 0.603845
0.544213 0.825895 0.605097
0.561242 0.827176 0.606348
0.579309 0.828580 0.607843
0.598291 0.830076 0.609277
0.636347 0.832334 0.614984
0.674220 0.834836 0.621515
0.710658 0.837461 0.628138
0.745785 0.840299 0.635187
0.779446 0.843320 0.642817
0.811734 0.846525 0.650843
0.842405 0.849882 0.659297
0.871702 0.853361 0.668055
0.899565 0.856901 0.676905
0.916930 0.850980 0.684016
0.937224 0.852018 0.705776
0.950225 0.847837 0.692226
0.963348 0.843565 0.678889
0.976776 0.839475 0.666194
0.990356 0.835782 0.654536
1.000000 0.832670 0.644129
1.000000 0.830198 0.634943
0.568353 0.841184 0.663569
0.569696 0.841733 0.664393
0.570428 0.842130 0.664576
0.570520 0.842222 0.663752
0.569848 0.842222 0.662013
0.569238 0.842191 0.659602
0.568475 0.842222 0.656519
0.567834 0.842374 0.652888
0.567773 0.842832 0.648798
0.568200 0.843626 0.644221
0.569207 0.844633 0.639185
0.577569 0.845487 0.637476
0.590936 0.846189 0.638056
0.605035 0.846983 0.638605
0.620050 0.847745 0.639063
0.641413 0.848844 0.641016
0.675135 0.850523 0.646113
0.708156 0.852598 0.651881
0.740536 0.854948 0.658473
0.772152 0.857694 0.665858
0.802487 0.860624 0.673610
0.831571 0.863645 0.681636
0.859129 0.866575 0.689509
0.885344 0.869444 0.697200
0.910246 0.872129 0.704616
0.927550 0.869047 0.715145
0.945586 0.869566 0.734310
0.958221 0.866545 0.726528
0.970428 0.862943 0.714809
0.982971 0.859556 0.704005
0.995758 0.856657 0.694240
1.000000 0.854368 0.685817
0.603052 0.858244 0.690303
0.604211 0.858762 0.691035
0.604944 0.859129 0.691279
0.605524 0.859373 0.691005
0.605707 0.859617 0.689967
0.605676 0.859892 0.688380
0.606226 0.860258 0.686671
0.606622 0.860868 0.684199
0.607691 0.861662 0.681605
0.609064 0.862669 0.678645
0.610620 0.863828 0.675044
0.614160 0.865049 0.671901
0.625147 0.865721 0.672572
0.636927 0.866392 0.673243
0.649378 0.867094 0.673945
0.662593 0.867796 0.674586
0.686671 0.868956 0.677852
0.715785 0.870542 0.682979
0.744717 0.872465 0.688869
0.773037 0.874693 0.695338
0.800717 0.877134 0.702358
0.827359 0.879698 0.709773
0.852964 0.882292 0.717098
0.877287 0.884886 0.724453
0.900633 0.887419 0.731563
0.922850 0.889891 0.738674
0.938537 0.887297 0.747616
0.954528 0.887633 0.764645
0.966735 0.885954 0.762509
0.977966 0.883177 0.753017
0.989593 0.880735 0.744564
1.000000 0.878721 0.737179
0.642420 0.876616 0.721004
0.642939 0.876829 0.721370
0.643275 0.876982 0.721370
0.643458 0.877165 0.720943
0.643427 0.877287 0.719936
0.643458 0.877470 0.718593
0.643641 0.877745 0.716945
0.644099 0.878172 0.715053
0.644709 0.878782 0.712734
0.645716 0.879545 0.710140
0.646967 0.880491 0.707149
0.648554 0.881651 0.703792
0.655818 0.882414 0.703426
0.665644 0.882994 0.704128
0.675959 0.883574 0.704677
0.686885 0.884184 0.705257
0.699031 0.884886 0.706172
0.724697 0.886168 0.710689
0.750423 0.887724 0.715877
0.775967 0.889586 0.721767
0.800931 0.891661 0.728054
0.825284 0.893828 0.734676
0.848600 0.895995 0.741176
0.871153 0.898192 0.747768
0.892699 0.900328 0.754116
0.913451 0.902403 0.760220
0.933410 0.904509 0.766354
0.947601 0.902159 0.773617
0.961883 0.902129 0.788479
0.973693 0.901488 0.790646
0.984161 0.899626 0.783505
0.995056 0.898009 0.777157
0.675990 0.892210 0.747860
0.676478 0.892393 0.748165
0.676844 0.892576 0.748226
0.677272 0.892790 0.748074
0.677760 0.893065 0.747616
0.678523 0.893523 0.747189
0.680018 0.894285 0.746822
0.681910 0.895262 0.746426
0.684413 0.896452 0.746151
0.687251 0.897887 0.745693
0.690455 0.899474 0.745052
0.693629 0.901122 0.744015
0.698604 0.902617 0.743618
0.707576 0.903685 0.745510
0.716762 0.904601 0.747005
0.725887 0.905303 0.748074
0.735470 0.906004 0.749081
0.749874 0.906950 0.751339
0.771420 0.908263 0.755917
0.792935 0.909728 0.760983
0.814206 0.911406 0.766384
0.835080 0.913146 0.771878
0.855314 0.914885 0.777371
0.874907 0.916594 0.782773
0.893858 0.918273 0.787991
0.912169 0.919951 0.793088
0.929961 0.921630 0.798276
0.947265 0.923369 0.803494
0.960021 0.921630 0.809415
0.971893 0.920867 0.821195
0.982605 0.920775 0.826108
0.991913 0.919463 0.820706
0.720485 0.911620 0.783352
0.720485 0.911650 0.783322
0.720485 0.911650 0.783139
0.720455 0.911681 0.782712
0.720455 0.911772 0.782071
0.720638 0.911925 0.781369
0.720943 0.912230 0.780423
0.721523 0.912657 0.779385
0.722347 0.913237 0.778256
0.723537 0.913970 0.777035
0.725063 0.914794 0.775692
0.726558 0.915801 0.773983
0.728328 0.916869 0.772030
0.734371 0.917540 0.772549
