20 Preset/Emotion Style/【3】LUT video cho PR-AE-FCPX/Emotion Style LUT (3).cube
# Created by Adobe Lightroom plugin Export LUT (1.24.0)
# www.johnrellis.com/lightroom/exportlut.htm
# Preset: 03日系情绪-春（素材江湖）
# Color profile: E:\lut插件\exportlut.1.24\exportlut.lrplugin\color profiles\Rec709gamma2.4.icc
LUT_3D_SIZE 5
DOMAIN_MIN 0.000000 0.000000 0.000000
DOMAIN_MAX 0.903226 0.903226 0.903226
0.105837 0.187747 0.211307
0.161044 0.191867 0.214237
0.443153 0.192508 0.218845
0.837858 0.214420 0.231266
1.000000 0.386328 0.317510
0.080903 0.229770 0.224765
0.180453 0.238437 0.221622
0.469917 0.253788 0.210056
0.841184 0.305119 0.209049
1.000000 0.434821 0.305119
0.000000 0.519097 0.335515
0.000000 0.526024 0.306279
0.635554 0.592340 0.332341
0.873655 0.555749 0.258061
1.000000 0.570642 0.267826
0.468208 0.793301 0.592493
0.473610 0.797635 0.581292
0.586328 0.809201 0.577081
0.853666 0.831937 0.629725
0.984283 0.812985 0.612085
0.749966 0.925231 0.807462
0.751675 0.926482 0.804929
0.753964 0.926543 0.788083
0.839475 0.934325 0.808377
0.949493 0.943755 0.839048
0.099916 0.190921 0.235752
0.155734 0.192416 0.233555
0.413703 0.201877 0.256138
0.800381 0.234714 0.281376
1.000000 0.382086 0.326085
0.102815 0.230198 0.251194
0.173922 0.233280 0.253330
0.446265 0.253452 0.263249
0.808316 0.301793 0.280400
1.000000 0.425635 0.328710
0.163516 0.484565 0.382483
0.220157 0.495857 0.370123
0.590204 0.548058 0.375341
0.837186 0.522026 0.303105
1.000000 0.571954 0.347051
0.522484 0.781735 0.624079
0.528099 0.786954 0.615808
0.594202 0.800961 0.601465
0.847929 0.826474 0.651392
0.977996 0.810086 0.628565
0.760067 0.922972 0.816342
0.761318 0.924041 0.813657
0.770809 0.929442 0.805051
0.844511 0.936004 0.820188
0.951171 0.945922 0.850065
0.000000 0.208164 0.464118
0.207614 0.208164 0.448890
0.465614 0.201175 0.413947
0.822385 0.262608 0.476326
0.973236 0.483314 0.552911
0.000000 0.321508 0.501274
0.195224 0.287205 0.484108
0.490181 0.274296 0.437232
0.810239 0.352300 0.489876
0.964233 0.531975 0.572015
0.181521 0.510918 0.521416
0.305516 0.506920 0.517327
0.528038 0.486610 0.497444
0.791623 0.535546 0.524376
0.967071 0.614923 0.570581
0.540856 0.749935 0.668269
0.569818 0.749691 0.668635
0.656855 0.766903 0.675654
0.829038 0.807431 0.709194
0.959258 0.789364 0.659449
0.763088 0.913359 0.831479
0.776791 0.914641 0.835203
0.797391 0.920836 0.834104
0.838132 0.930388 0.834653
0.948272 0.943328 0.864988
0.000000 0.290166 0.779934
0.290715 0.292027 0.773129
0.643122 0.300969 0.739284
0.834134 0.330602 0.704799
0.981140 0.543694 0.728359
0.041810 0.405097 0.785519
0.336767 0.398444 0.778378
0.647150 0.399268 0.745541
0.823667 0.406867 0.705196
0.969482 0.580041 0.732265
0.422705 0.684138 0.799039
0.495094 0.677180 0.794308
0.649165 0.620356 0.766690
0.798672 0.593835 0.719631
0.941772 0.685634 0.753201
0.572168 0.778592 0.779507
0.594995 0.775601 0.776608
0.675013 0.768307 0.769009
0.772183 0.740352 0.739925
0.927916 0.778531 0.761624
0.730861 0.900694 0.849271
0.742458 0.901884 0.850797
0.788510 0.908293 0.858793
0.854032 0.921233 0.870268
0.945922 0.941527 0.893187
0.476265 0.497292 0.936461
0.547448 0.506554 0.933623
0.726192 0.541650 0.921935
0.883909 0.588708 0.898192
0.982666 0.617792 0.882689
0.531701 0.579126 0.934173
0.585290 0.584131 0.931579
0.733516 0.603449 0.920806
0.878660 0.630762 0.898436
0.975494 0.648463 0.882811
0.663905 0.771389 0.929870
0.691432 0.770352 0.928130
0.748928 0.744228 0.922484
0.864591 0.740536 0.903166
0.955230 0.736751 0.886534
0.706111 0.873564 0.930419
0.721614 0.874388 0.930602
0.778439 0.878508 0.932158
0.853208 0.850797 0.920989
0.936248 0.833707 0.898161
0.767178 0.925475 0.924895
0.775906 0.925628 0.925017
0.810239 0.926696 0.925994
0.864622 0.927794 0.926604
0.919585 0.913329 0.910704
