20 Preset/Emotion Style/【3】LUT video cho PR-AE-FCPX/Emotion Style LUT (7).cube
# Created by Adobe Lightroom plugin Export LUT (1.24.0)
# www.johnrellis.com/lightroom/exportlut.htm
# Preset: 07日系情绪-夏（素材江湖）
# Color profile: E:\lut插件\exportlut.1.24\exportlut.lrplugin\color profiles\Rec709gamma2.4.icc
LUT_3D_SIZE 32
DOMAIN_MIN 0.0 0.0 0.0
DOMAIN_MAX 1.0 1.0 1.0
0.159243 0.133028 0.102998
0.162478 0.132784 0.102937
0.171145 0.132906 0.103639
0.186282 0.132753 0.104768
0.215457 0.131746 0.106630
0.263096 0.126864 0.108309
0.327581 0.113436 0.108919
0.407202 0.072572 0.108278
0.498268 0.000000 0.106264
0.595941 0.000000 0.102327
0.693721 0.000000 0.095583
0.787076 0.000000 0.084169
0.867613 0.000000 0.058320
0.934447 0.000000 0.028443
0.988769 0.000000 0.000671
1.000000 0.000000 0.000000
1.000000 0.000000 0.000000
1.000000 0.000000 0.000000
1.000000 0.000000 0.000000
1.000000 0.151339 0.000000
1.000000 0.216251 0.037201
1.000000 0.261479 0.090730
1.000000 0.300603 0.120089
1.000000 0.336614 0.149905
1.000000 0.366217 0.177310
1.000000 0.391730 0.202914
1.000000 0.414618 0.227817
1.000000 0.435584 0.252049
1.000000 0.455024 0.276402
1.000000 0.473823 0.300816
1.000000 0.491737 0.325048
1.000000 0.509117 0.349401
0.159884 0.134859 0.103334
0.161593 0.134615 0.102968
0.171359 0.134310 0.103731
0.186313 0.133944 0.104891
0.215610 0.133181 0.106691
0.262577 0.128603 0.108034
0.325292 0.116640 0.108675
0.403571 0.085054 0.108064
0.492897 0.000000 0.105989
0.589075 0.000000 0.102174
0.686458 0.000000 0.095369
0.779904 0.000000 0.084382
0.861082 0.000000 0.057923
0.928649 0.000000 0.026947
0.983795 0.000000 0.000000
1.000000 0.000000 0.000000
1.000000 0.000000 0.000000
1.000000 0.000000 0.000000
1.000000 0.000000 0.000000
1.000000 0.153811 0.000000
1.000000 0.215976 0.026825
1.000000 0.260227 0.086275
1.000000 0.299229 0.116121
1.000000 0.334020 0.145510
1.000000 0.362768 0.172549
1.000000 0.388190 0.197696
1.000000 0.410864 0.222568
1.000000 0.431769 0.247044
1.000000 0.451423 0.271458
1.000000 0.470283 0.295964
1.000000 0.488411 0.320439
1.000000 0.506126 0.345525
0.161959 0.141695 0.105684
0.164187 0.141390 0.105989
0.171664 0.141024 0.103761
0.188022 0.140230 0.104952
0.217227 0.140139 0.106600
0.263951 0.137270 0.107698
0.325902 0.128206 0.108064
0.402441 0.106264 0.106844
0.490578 0.008698 0.104433
0.585718 0.000000 0.099702
0.682246 0.000000 0.092042
0.775174 0.000000 0.076844
0.856138 0.000000 0.044068
0.923857 0.000000 0.011170
0.979217 0.000000 0.000000
1.000000 0.000000 0.000000
1.000000 0.000000 0.000000
1.000000 0.000000 0.000000
1.000000 0.093111 0.000000
1.000000 0.180301 0.000000
1.000000 0.232914 0.009644
1.000000 0.273045 0.072297
1.000000 0.308141 0.112428
1.000000 0.340459 0.141817
1.000000 0.367834 0.169558
1.000000 0.391394 0.194705
1.000000 0.413306 0.219821
1.000000 0.433600 0.244266
1.000000 0.452857 0.268986
1.000000 0.471412 0.293553
1.000000 0.489296 0.318273
1.000000 0.506584 0.343114
0.165133 0.155856 0.109529
0.167178 0.155398 0.109560
0.174624 0.154238 0.109529
0.191867 0.155032 0.104646
0.226017 0.155520 0.104494
0.268681 0.152926 0.106783
0.329625 0.148196 0.105806
0.405005 0.136019 0.104036
0.491585 0.108217 0.100130
0.584985 0.000000 0.093843
0.680049 0.000000 0.081727
0.771572 0.000000 0.050416
0.851499 0.000000 0.013367
0.918517 0.000000 0.000000
0.973846 0.000000 0.000000
1.000000 0.000000 0.000000
1.000000 0.000000 0.000000
1.000000 0.101961 0.000000
1.000000 0.175204 0.000000
1.000000 0.223270 0.000000
1.000000 0.261601 0.000000
1.000000 0.294591 0.037659
1.000000 0.325780 0.101808
1.000000 0.353613 0.135042
1.000000 0.378363 0.163912
1.000000 0.400855 0.190829
1.000000 0.421759 0.216983
1.000000 0.441077 0.242557
1.000000 0.459480 0.267765
1.000000 0.477211 0.292668
1.000000 0.494057 0.317571
1.000000 0.510460 0.342046
0.161410 0.186282 0.112245
0.164004 0.186038 0.112551
0.176516 0.182773 0.113008
0.195621 0.182345 0.109804
0.230259 0.184054 0.101350
0.285893 0.186770 0.096315
0.338048 0.180148 0.099428
0.406073 0.173587 0.098177
0.490455 0.163394 0.092012
0.581201 0.145357 0.079225
0.673793 0.115969 0.046937
0.763851 0.067536 0.003571
0.843046 0.005463 0.000000
0.910277 0.000000 0.000000
0.965454 0.086458 0.000000
1.000000 0.134340 0.000000
1.000000 0.178195 0.000000
1.000000 0.214481 0.000000
1.000000 0.246769 0.000000
1.000000 0.277012 0.000000
1.000000 0.304753 0.000000
1.000000 0.329198 0.000000
1.000000 0.354284 0.091066
1.000000 0.377203 0.128817
1.000000 0.398505 0.159670
1.000000 0.417792 0.188388
1.000000 0.436103 0.215305
1.000000 0.453407 0.241245
1.000000 0.470222 0.266789
1.000000 0.486458 0.292302
1.000000 0.502129 0.316991
1.000000 0.517449 0.341619
0.138430 0.235721 0.111360
0.143801 0.235203 0.112062
0.163149 0.231418 0.112581
0.192264 0.224704 0.114260
0.229404 0.228916 0.104005
0.286015 0.233524 0.085542
0.367224 0.245457 0.038697
0.429603 0.235233 0.047730
0.496315 0.223239 0.054505
0.582422 0.220951 0.022217
0.672908 0.219699 0.000000
0.760678 0.220584 0.000000
0.838041 0.224796 0.000000
0.903960 0.232273 0.000000
0.958953 0.245762 0.000000
1.000000 0.261021 0.000000
1.000000 0.280125 0.000000
1.000000 0.299077 0.000000
1.000000 0.318212 0.000000
1.000000 0.336339 0.000000
1.000000 0.354711 0.000000
1.000000 0.373205 0.000000
1.000000 0.411841 0.112428
1.000000 0.430640 0.152377
1.000000 0.447517 0.185275
1.000000 0.463020 0.214298
1.000000 0.477546 0.241001
1.000000 0.491310 0.266606
1.000000 0.504845 0.291325
1.000000 0.517754 0.315221
1.000000 0.530571 0.338750
1.000000 0.542870 0.361395
0.000000 0.324254 0.096773
0.000000 0.323247 0.097322
0.044282 0.318883 0.099733
0.156191 0.308995 0.103853
0.214755 0.304448 0.099763
0.280797 0.314794 0.050446
0.364660 0.327153 0.000000
0.475685 0.356695 0.000000
0.545861 0.342168 0.000000
0.617212 0.329168 0.000000
0.690089 0.320104 0.000000
0.774746 0.330938 0.000000
0.847715 0.339025 0.000000
0.909911 0.346075 0.000000
0.961822 0.353613 0.000000
1.000000 0.362127 0.000000
1.000000 0.371008 0.000000
1.000000 0.380682 0.000000
1.000000 0.390570 0.000000
1.000000 0.401465 0.000000
1.000000 0.413245 0.000000
1.000000 0.428992 0.000000
1.000000 0.444160 0.086702
1.000000 0.458961 0.138857
1.000000 0.472816 0.176730
1.000000 0.485634 0.208377
1.000000 0.497414 0.236820
1.000000 0.508751 0.263127
1.000000 0.520043 0.288182
1.000000 0.530999 0.312352
1.000000 0.542046 0.335851
1.000000 0.553094 0.358923
0.000000 0.425360 0.021271
0.000000 0.424048 0.023285
0.000000 0.419409 0.031250
0.000000 0.409827 0.052216
0.147890 0.395605 0.080323
0.241794 0.401892 0.006348
0.335119 0.416663 0.000000
0.439673 0.432990 0.000000
0.569726 0.474098 0.000000
0.641199 0.458228 0.000000
0.710323 0.445197 0.000000
0.774228 0.431342 0.000000
0.836118 0.424201 0.000000
0.897337 0.429877 0.000000
0.949065 0.434089 0.000000
0.991913 0.438056 0.000000
1.000000 0.441627 0.000000
1.000000 0.445747 0.000000
1.000000 0.450507 0.000000
1.000000 0.455818 0.000000
1.000000 0.464424 0.000000
1.000000 0.474037 0.000000
1.000000 0.483650 0.034546
1.000000 0.493690 0.128695
1.000000 0.503532 0.170321
1.000000 0.512779 0.204593
1.000000 0.521691 0.233890
1.000000 0.530327 0.261173
1.000000 0.539391 0.286778
1.000000 0.548455 0.311467
1.000000 0.557671 0.335393
1.000000 0.567102 0.358831
0.000000 0.532433 0.000000
0.000000 0.531243 0.000000
0.000000 0.527398 0.000000
0.000000 0.519677 0.000000
0.000000 0.507195 0.000000
0.150790 0.495583 0.000000
0.284001 0.509178 0.000000
0.401587 0.524376 0.000000
0.520592 0.540368 0.000000
0.664118 0.581476 0.000000
0.730220 0.561303 0.000000
0.789487 0.545251 0.000000
0.843076 0.528344 0.000000
0.890898 0.511803 0.000000
0.937743 0.505669 0.000000
0.980407 0.506432 0.000000
1.000000 0.506676 0.000000
1.000000 0.506889 0.000000
1.000000 0.507774 0.000000
1.000000 0.511131 0.000000
1.000000 0.515160 0.000000
1.000000 0.519677 0.000000
1.000000 0.524926 0.000000
1.000000 0.530907 0.120089
1.000000 0.537072 0.166873
1.000000 0.542992 0.202518
1.000000 0.549096 0.233494
1.000000 0.555352 0.261479
1.000000 0.562066 0.287724
1.000000 0.569024 0.312505
1.000000 0.576440 0.336950
1.000000 0.584100 0.360449
0.000000 0.628840 0.000000
0.000000 0.627741 0.000000
0.000000 0.624414 0.000000
0.000000 0.618494 0.000000
0.000000 0.607813 0.000000
0.000000 0.593988 0.000000
0.213809 0.592950 0.000000
0.357916 0.605005 0.000000
0.483314 0.617151 0.000000
0.604242 0.628992 0.000000
0.743771 0.661860 0.000000
0.801175 0.639826 0.000000
0.850889 0.620600 0.000000
0.895171 0.603693 0.000000
0.934936 0.586236 0.000000
0.969635 0.569665 0.000000
1.000000 0.565728 0.000000
1.000000 0.564355 0.000000
1.000000 0.564141 0.000000
1.000000 0.563684 0.000000
1.000000 0.563775 0.000000
1.000000 0.563989 0.000000
1.000000 0.565393 0.000000
1.000000 0.567376 0.109834
1.000000 0.570062 0.160800
1.000000 0.572900 0.198978
1.000000 0.576532 0.231083
1.000000 0.580560 0.260075
1.000000 0.585229 0.287175
1.000000 0.590631 0.313359
1.000000 0.596338 0.338201
1.000000 0.602502 0.362066
0.000000 0.702083 0.033661
0.000000 0.701534 0.033570
0.000000 0.699367 0.033936
0.000000 0.695003 0.048219
0.000000 0.687953 0.062226
0.000000 0.678065 0.082124
0.125795 0.664881 0.093965
0.318700 0.672999 0.000000
0.448249 0.681666 0.000000
0.568200 0.690028 0.000000
0.681392 0.697719 0.000000
0.807828 0.722621 0.000000
0.859800 0.702632 0.000000
0.900694 0.681727 0.000000
0.937133 0.663661 0.000000
0.969970 0.647822 0.000000
0.998566 0.631464 0.000000
1.000000 0.618097 0.000000
1.000000 0.614740 0.000000
1.000000 0.611505 0.000000
1.000000 0.608515 0.000000
1.000000 0.606256 0.000000
1.000000 0.604944 0.000000
1.000000 0.604334 0.107424
1.000000 0.604486 0.161654
1.000000 0.605219 0.200870
1.000000 0.606500 0.233951
1.000000 0.608545 0.263676
1.000000 0.611231 0.291081
1.000000 0.614649 0.317266
1.000000 0.618738 0.342504
1.000000 0.623194 0.366400
0.000000 0.761440 0.176394
0.000000 0.761166 0.176547
0.000000 0.759426 0.177005
0.000000 0.756313 0.177371
0.000000 0.750942 0.177035
0.000000 0.743709 0.178775
0.000000 0.734157 0.180117
0.297765 0.729274 0.166476
0.426184 0.735317 0.097719
0.539483 0.741238 0.000000
0.646784 0.746578 0.000000
0.748531 0.751431 0.000000
0.874907 0.782620 0.000000
0.924010 0.769223 0.000000
0.956359 0.748867 0.000000
0.984192 0.730068 0.000000
1.000000 0.712764 0.000000
1.000000 0.695216 0.000000
1.000000 0.679103 0.000000
1.000000 0.668574 0.000000
1.000000 0.663172 0.000000
1.000000 0.658350 0.000000
1.000000 0.654353 0.093538
1.000000 0.651148 0.156008
1.000000 0.648646 0.197299
1.000000 0.646601 0.230930
1.000000 0.645441 0.260288
1.000000 0.644739 0.286961
1.000000 0.644862 0.311742
1.000000 0.645747 0.335698
1.000000 0.647395 0.359075
1.000000 0.649805 0.381323
0.000000 0.814603 0.279515
0.000000 0.814206 0.279240
0.000000 0.812802 0.278477
0.000000 0.809812 0.277317
0.000000 0.805417 0.275517
0.000000 0.799313 0.273838
0.145174 0.791501 0.272038
0.321172 0.782742 0.271489
0.432624 0.784573 0.250645
0.535210 0.789822 0.213077
0.634302 0.795071 0.153994
0.730129 0.800137 0.000000
0.820401 0.804685 0.000000
0.909514 0.816342 0.000000
0.954589 0.806821 0.000000
0.980224 0.786099 0.000000
1.000000 0.766720 0.000000
1.000000 0.748623 0.000000
1.000000 0.731319 0.000000
1.000000 0.714900 0.000000
1.000000 0.700313 0.000000
1.000000 0.692622 0.000000
1.000000 0.687221 0.099031
1.000000 0.682643 0.160647
1.000000 0.678676 0.201511
1.000000 0.675380 0.235416
1.000000 0.672847 0.264836
1.000000 0.670985 0.292058
1.000000 0.669795 0.317174
1.000000 0.669551 0.341466
1.000000 0.669978 0.364691
1.000000 0.671046 0.387182
0.000000 0.849912 0.362707
0.000000 0.849638 0.362219
0.000000 0.848295 0.360998
0.000000 0.846006 0.359716
0.000000 0.842618 0.357733
0.000000 0.837766 0.354986
0.253880 0.831907 0.352880
0.364141 0.824887 0.351141
0.451392 0.818753 0.346929
0.535729 0.822202 0.324193
0.620081 0.825772 0.295415
0.704097 0.829221 0.256443
0.785367 0.832242 0.197055
0.860899 0.834867 0.022004
0.933379 0.841764 0.000000
0.974914 0.834684 0.000000
0.995941 0.814328 0.000000
1.000000 0.795132 0.000000
1.000000 0.777310 0.000000
1.000000 0.760403 0.000000
1.000000 0.744442 0.000000
1.000000 0.730312 0.000000
1.000000 0.718807 0.118257
1.000000 0.713222 0.173037
1.000000 0.708309 0.212314
1.000000 0.703944 0.245396
1.000000 0.700282 0.274235
1.000000 0.697261 0.300877
1.000000 0.695033 0.325750
1.000000 0.693629 0.349737
1.000000 0.692866 0.372747
1.000000 0.692958 0.395361
0.000000 0.875212 0.435889
0.000000 0.874968 0.435431
0.000000 0.873930 0.434211
0.000000 0.872038 0.432258
0.165316 0.869047 0.429633
0.264958 0.865080 0.426520
0.345678 0.860319 0.424018
0.417517 0.854612 0.420966
0.484443 0.848051 0.418738
0.549218 0.846464 0.408881
0.617975 0.849027 0.389502
0.688411 0.851591 0.365423
0.758785 0.853727 0.334051
0.826078 0.855528 0.290684
0.889189 0.856870 0.224887
0.949584 0.860838 0.084657
0.988861 0.856138 0.000000
1.000000 0.836790 0.000000
1.000000 0.818387 0.000000
1.000000 0.801114 0.000000
1.000000 0.784878 0.000000
1.000000 0.769772 0.000000
1.000000 0.756252 0.000000
1.000000 0.744259 0.176516
1.000000 0.736355 0.227298
1.000000 0.731258 0.258122
1.000000 0.726802 0.286320
1.000000 0.723079 0.312810
1.000000 0.720089 0.337743
1.000000 0.717952 0.361669
1.000000 0.716548 0.385046
1.000000 0.715785 0.407385
0.264958 0.892363 0.494636
0.268559 0.892302 0.494789
0.281895 0.891539 0.494057
0.307927 0.890196 0.492988
0.342016 0.888060 0.491096
0.384100 0.885252 0.489265
0.431037 0.881682 0.487587
0.479896 0.877440 0.485420
0.529992 0.872435 0.484016
0.578759 0.866728 0.482429
0.631098 0.868162 0.469001
0.686427 0.869749 0.450721
0.743099 0.871122 0.427741
0.799954 0.872038 0.397864
0.855558 0.872648 0.359014
0.908568 0.873014 0.305272
0.960388 0.875181 0.227909
0.998291 0.872801 0.134218
1.000000 0.854673 0.036896
1.000000 0.837339 0.000000
1.000000 0.821164 0.000000
1.000000 0.805814 0.000000
1.000000 0.791623 0.000000
1.000000 0.778836 0.144961
1.000000 0.767514 0.222354
1.000000 0.757626 0.276432
1.000000 0.752682 0.303593
1.000000 0.748318 0.328649
1.000000 0.744594 0.352697
1.000000 0.741604 0.375860
1.000000 0.739132 0.397772
1.000000 0.737362 0.419043
0.396857 0.905180 0.542779
0.398535 0.905028 0.542596
0.405615 0.904479 0.542168
0.418585 0.903471 0.541192
0.438483 0.901854 0.540002
0.464942 0.899596 0.538567
0.496254 0.896818 0.537072
0.531762 0.893339 0.535424
0.569116 0.889311 0.533745
0.607294 0.884733 0.532036
0.647059 0.881895 0.526757
0.690333 0.883177 0.513909
0.736202 0.884306 0.497353
0.783474 0.885130 0.476295
0.830808 0.885710 0.449256
0.877714 0.886015 0.414313
0.923369 0.886168 0.368444
0.968444 0.887266 0.308202
1.000000 0.887083 0.242771
1.000000 0.870176 0.209598
1.000000 0.854063 0.169375
1.000000 0.838865 0.120882
1.000000 0.824430 0.000000
1.000000 0.810849 0.102205
1.000000 0.798764 0.204074
1.000000 0.788083 0.264317
1.000000 0.778744 0.312535
1.000000 0.772183 0.346838
1.000000 0.768032 0.369940
1.000000 0.764340 0.391760
1.000000 0.761288 0.413184
1.000000 0.758785 0.433356
0.489326 0.915618 0.585870
0.491066 0.915557 0.586053
0.530144 0.919188 0.604150
0.537621 0.918395 0.603510
0.549218 0.917174 0.602594
0.564324 0.915435 0.601099
0.583368 0.913207 0.599115
0.606134 0.910491 0.597345
0.631556 0.907347 0.595483
0.659144 0.903655 0.593652
0.687434 0.899596 0.591577
0.718196 0.899199 0.583703
0.751583 0.899931 0.571130
0.787167 0.900450 0.555718
0.823880 0.900786 0.536370
0.861570 0.900847 0.512200
0.899931 0.900694 0.480720
0.938354 0.900450 0.440314
0.976837 0.900572 0.389654
1.000000 0.901732 0.331670
1.000000 0.885985 0.300145
1.000000 0.870939 0.265293
1.000000 0.856443 0.226444
1.000000 0.842466 0.180331
1.000000 0.829252 0.195926
1.000000 0.817594 0.258915
1.000000 0.807126 0.308232
1.000000 0.798001 0.350500
1.000000 0.790341 0.388312
1.000000 0.786007 0.409369
1.000000 0.782406 0.429541
1.000000 0.779263 0.448646
0.567987 0.925017 0.627771
0.571374 0.925231 0.629206
0.576898 0.925261 0.630426
0.584710 0.924926 0.631373
0.595209 0.924163 0.631647
0.607080 0.922881 0.630854
0.621759 0.921080 0.629450
0.638819 0.918853 0.627527
0.658473 0.916258 0.625818
0.680171 0.913237 0.623804
0.703304 0.909850 0.621942
0.727321 0.906798 0.618830
0.754025 0.907500 0.609094
0.782681 0.908110 0.597131
0.813230 0.908537 0.582605
0.845274 0.908782 0.564630
0.878172 0.908873 0.542290
0.912078 0.908873 0.514519
0.946471 0.908782 0.480140
0.981048 0.908721 0.435462
1.000000 0.911162 0.384039
1.000000 0.897246 0.351293
1.000000 0.883238 0.317357
1.000000 0.869566 0.278233
1.000000 0.856138 0.232761
1.000000 0.843595 0.246799
1.000000 0.832609 0.299351
1.000000 0.822690 0.343664
1.000000 0.814115 0.382727
1.000000 0.806882 0.418799
1.000000 0.801877 0.445502
1.000000 0.798306 0.463783
0.617029 0.931304 0.656153
0.620203 0.931518 0.657588
0.624598 0.931548 0.658778
0.630823 0.931334 0.659785
0.638758 0.930724 0.660121
0.647913 0.929717 0.659571
0.658839 0.928283 0.658259
0.671839 0.926513 0.656703
0.687007 0.924376 0.655085
0.703914 0.921904 0.653223
0.722194 0.919127 0.651087
0.741634 0.915984 0.648951
0.762234 0.914855 0.643580
0.785214 0.915465 0.634272
0.809964 0.915984 0.622858
0.836240 0.916381 0.609094
0.864103 0.916625 0.592096
0.893065 0.916777 0.571557
0.923095 0.916808 0.546410
0.953887 0.916808 0.515282
0.984985 0.916747 0.476417
1.000000 0.919738 0.429816
1.000000 0.907378 0.394415
1.000000 0.894285 0.359808
1.000000 0.881254 0.318822
1.000000 0.868284 0.270939
1.000000 0.856504 0.291783
1.000000 0.846098 0.337896
1.000000 0.836881 0.378393
1.000000 0.828794 0.415137
1.000000 0.821988 0.448981
1.000000 0.816373 0.479652
0.660212 0.937102 0.682673
0.662440 0.937285 0.683803
0.665858 0.937285 0.684901
0.670710 0.937102 0.685634
0.676448 0.936645 0.685847
0.683467 0.935821 0.685359
0.691768 0.934691 0.684352
0.701717 0.933227 0.683009
0.713588 0.931487 0.681392
0.726741 0.929503 0.679652
0.741329 0.927245 0.677790
0.757076 0.924681 0.675868
0.773312 0.921813 0.673518
0.791409 0.922271 0.666163
0.811337 0.922850 0.657313
0.832883 0.923339 0.646693
0.856138 0.923796 0.633906
0.880705 0.924193 0.618677
0.906523 0.924559 0.600702
0.933379 0.924865 0.578759
0.961059 0.925139 0.552209
0.989441 0.925322 0.518456
1.000000 0.928771 0.477028
1.000000 0.917906 0.441596
1.000000 0.905760 0.406287
1.000000 0.893431 0.362921
1.000000 0.880949 0.310124
1.000000 0.870176 0.345800
1.000000 0.860594 0.386511
1.000000 0.852018 0.423133
1.000000 0.844511 0.456489
1.000000 0.837919 0.486946
0.708095 0.943633 0.714229
0.709041 0.943664 0.714626
0.710597 0.943572 0.714809
0.713069 0.943267 0.714717
0.716518 0.942779 0.714199
0.720943 0.942077 0.713283
0.726711 0.941131 0.712184
0.733944 0.939971 0.710750
0.742672 0.938598 0.709285
0.752956 0.937011 0.707820
0.764370 0.935180 0.706172
0.776730 0.933165 0.704402
0.789578 0.930877 0.702205
0.803433 0.929442 0.698543
0.818875 0.929992 0.691218
0.835904 0.930510 0.682490
0.854429 0.930968 0.672145
0.874418 0.931365 0.660060
0.895781 0.931701 0.645624
0.918425 0.931975 0.628260
0.942138 0.932158 0.607538
0.966979 0.932280 0.581933
0.992767 0.932280 0.549767
1.000000 0.934874 0.509575
1.000000 0.925933 0.470954
1.000000 0.914366 0.432746
1.000000 0.902556 0.385626
1.000000 0.890684 0.342931
1.000000 0.880674 0.384161
1.000000 0.871641 0.421393
1.000000 0.863523 0.455268
1.000000 0.856199 0.485603
0.738888 0.948302 0.735958
0.739406 0.948363 0.736294
0.740719 0.948302 0.736477
0.742672 0.948058 0.736355
0.745296 0.947692 0.735958
0.748714 0.947112 0.735225
0.753079 0.946380 0.734127
0.758724 0.945434 0.732998
0.765499 0.944335 0.731716
0.773495 0.943053 0.730282
0.782528 0.941588 0.728847
0.792386 0.939940 0.727138
0.803006 0.938048 0.725246
0.814176 0.936004 0.723140
0.826413 0.935882 0.718044
0.840024 0.936461 0.711055
0.855039 0.936980 0.702846
0.871336 0.937438 0.693141
0.889006 0.937896 0.681636
0.908019 0.938231 0.667933
0.928252 0.938537 0.651789
0.949676 0.938781 0.631983
0.972229 0.938872 0.607935
0.995911 0.938872 0.577539
1.000000 0.940063 0.532982
1.000000 0.932891 0.490974
1.000000 0.921843 0.449805
1.000000 0.910399 0.397314
1.000000 0.899413 0.380499
1.000000 0.889921 0.418647
1.000000 0.881376 0.453162
1.000000 0.873564 0.483925
0.770504 0.953307 0.759762
0.771420 0.953338 0.760281
0.772335 0.953307 0.760464
0.773373 0.953094 0.760006
0.774777 0.952728 0.759243
0.776761 0.952209 0.758114
0.779385 0.951537 0.756710
0.782895 0.950713 0.755093
0.787472 0.949706 0.753353
0.793057 0.948577 0.751461
0.799557 0.947326 0.749569
0.807065 0.945892 0.747524
0.815244 0.944274 0.745327
0.824125 0.942504 0.742916
0.833433 0.940887 0.739773
0.844053 0.941344 0.733364
0.856016 0.941772 0.726009
0.869322 0.942229 0.717647
0.884001 0.942687 0.708003
0.900114 0.943114 0.696986
0.917388 0.943542 0.683925
0.935851 0.943847 0.668147
0.955474 0.944030 0.648768
0.976287 0.944030 0.624445
0.998474 0.943877 0.593591
1.000000 0.945220 0.553979
1.000000 0.939391 0.507561
1.000000 0.928740 0.461433
1.000000 0.917479 0.398535
1.000000 0.907408 0.417182
1.000000 0.898375 0.451362
1.000000 0.890135 0.482612
0.791043 0.957031 0.776120
0.791775 0.957061 0.776608
0.792660 0.957061 0.776822
0.793637 0.956909 0.776638
0.794949 0.956634 0.776181
0.796811 0.956268 0.775540
0.799374 0.955779 0.774685
0.802518 0.955200 0.773587
0.806516 0.954467 0.772427
0.811246 0.953643 0.771145
0.816678 0.952667 0.769711
0.822751 0.951568 0.768093
0.829374 0.950286 0.766201
0.836545 0.948852 0.763973
0.844114 0.947265 0.761501
0.852354 0.946715 0.757229
0.861631 0.947143 0.750881
0.872129 0.947601 0.743771
0.883940 0.948028 0.735592
0.897032 0.948486 0.726345
0.911315 0.948913 0.715511
0.926757 0.949279 0.702571
0.943420 0.949523 0.686976
0.961303 0.949676 0.667659
0.980560 0.949676 0.643702
1.000000 0.949523 0.613306
1.000000 0.950469 0.573144
1.000000 0.945861 0.522271
1.000000 0.935546 0.468513
1.000000 0.924834 0.425269
1.000000 0.915465 0.456489
1.000000 0.906798 0.486519
0.812802 0.960937 0.794278
0.813199 0.960967 0.794522
0.813657 0.960906 0.794491
0.814267 0.960815 0.794278
0.815274 0.960601 0.793790
0.816617 0.960266 0.793088
0.818418 0.959869 0.792233
0.820829 0.959380 0.791226
0.823819 0.958801 0.790097
0.827420 0.958129 0.788876
0.831571 0.957336 0.787411
0.836393 0.956451 0.785885
0.841703 0.955444 0.784146
0.847440 0.954284 0.782071
0.853635 0.952972 0.779782
0.860227 0.951537 0.777188
0.867552 0.951843 0.771908
0.875853 0.952270 0.765621
0.885313 0.952728 0.758572
0.895933 0.953185 0.750698
0.907652 0.953643 0.741451
0.920500 0.954040 0.730648
0.934478 0.954314 0.717342
0.949676 0.954528 0.701289
0.966247 0.954589 0.681544
0.984253 0.954528 0.656672
1.000000 0.954314 0.625116
1.000000 0.954864 0.582757
1.000000 0.951202 0.523827
1.000000 0.941070 0.458320
1.000000 0.931243 0.460639
1.000000 0.922087 0.488136
0.830503 0.964416 0.809842
0.830838 0.964446 0.810025
0.831235 0.964416 0.810056
0.831846 0.964324 0.809903
0.832853 0.964172 0.809720
0.834257 0.963989 0.809445
0.836332 0.963745 0.809293
0.838956 0.963470 0.809110
0.842100 0.963134 0.808927
0.845792 0.962737 0.808682
0.849912 0.962280 0.808438
0.854307 0.961700 0.807828
0.859007 0.961059 0.807004
0.863920 0.960296 0.805753
0.868956 0.959380 0.804074
0.874174 0.958343 0.801907
0.879698 0.957702 0.798764
0.885863 0.958160 0.793484
0.892973 0.958587 0.787594
0.900999 0.959045 0.780880
0.910002 0.959503 0.773159
0.919982 0.959899 0.763943
0.931029 0.960204 0.752895
0.943236 0.960449 0.739528
0.956725 0.960571 0.723018
0.971679 0.960571 0.702449
0.988373 0.960449 0.676875
1.000000 0.960174 0.643702
1.000000 0.960357 0.597620
1.000000 0.957336 0.527642
1.000000 0.947326 0.476020
1.000000 0.937926 0.500603
0.853056 0.968414 0.830381
0.853086 0.968414 0.830381
0.853239 0.968383 0.830228
0.853574 0.968261 0.829984
0.854093 0.968139 0.829587
0.854826 0.967956 0.829099
0.855985 0.967742 0.828550
0.857450 0.967468 0.827848
0.859373 0.967132 0.827115
0.861662 0.966735 0.826291
0.864317 0.966308 0.825406
0.867308 0.965820 0.824338
0.870665 0.965209 0.823087
0.874266 0.964569 0.821561
