20 Preset/Emotion Style/【3】LUT video cho PR-AE-FCPX/Emotion Style LUT (4).cube
# Created by Adobe Lightroom plugin Export LUT (1.24.0)
# www.johnrellis.com/lightroom/exportlut.htm
# Preset: 04日系情绪-春（素材江湖）
# Color profile: E:\lut插件\exportlut.1.24\exportlut.lrplugin\color profiles\Rec709gamma2.4.icc
LUT_3D_SIZE 32
DOMAIN_MIN 0.0 0.0 0.0
DOMAIN_MAX 1.0 1.0 1.0
0.003235 0.064118 0.079530
0.005219 0.063905 0.079500
0.012146 0.064210 0.080110
0.026581 0.067018 0.081117
0.055207 0.070405 0.082582
0.096986 0.076570 0.084108
0.131899 0.079866 0.085664
0.177279 0.077729 0.086336
0.231357 0.059419 0.085237
0.294102 0.019379 0.083101
0.364446 0.000000 0.079408
0.442542 0.000000 0.071107
0.524163 0.000000 0.058289
0.605676 0.000000 0.040620
0.683131 0.000000 0.020569
0.754238 0.000000 0.000000
0.818662 0.000000 0.000000
0.874601 0.000000 0.000000
0.922942 0.000000 0.000000
0.964599 0.000000 0.000000
1.000000 0.000000 0.000000
1.000000 0.000000 0.000000
1.000000 0.000000 0.000000
1.000000 0.000000 0.000000
1.000000 0.000000 0.000000
1.000000 0.000000 0.000000
1.000000 0.127626 0.000000
1.000000 0.187198 0.007660
1.000000 0.230228 0.089570
1.000000 0.266361 0.125246
1.000000 0.298192 0.156527
1.000000 0.327520 0.186435
0.003510 0.066316 0.080049
0.003784 0.066316 0.079316
0.012024 0.067597 0.079835
0.025177 0.069398 0.080903
0.055055 0.073793 0.082277
0.096956 0.079255 0.083803
0.131716 0.082734 0.085298
0.177157 0.080751 0.085969
0.230930 0.066621 0.084657
0.293523 0.029206 0.082368
0.364080 0.000000 0.078737
0.442176 0.000000 0.070069
0.523705 0.000000 0.056947
0.605219 0.000000 0.038849
0.682643 0.000000 0.018677
0.753658 0.000000 0.000000
0.818112 0.000000 0.000000
0.873991 0.000000 0.000000
0.922515 0.000000 0.000000
0.964233 0.000000 0.000000
1.000000 0.000000 0.000000
1.000000 0.000000 0.000000
1.000000 0.000000 0.000000
1.000000 0.000000 0.000000
1.000000 0.000000 0.000000
1.000000 0.000000 0.000000
1.000000 0.131106 0.000000
1.000000 0.189395 0.003876
1.000000 0.231479 0.088319
1.000000 0.267155 0.124208
1.000000 0.298772 0.155612
1.000000 0.327855 0.185763
0.000000 0.078706 0.083253
0.000000 0.078584 0.083223
0.006409 0.078157 0.081819
0.022034 0.079927 0.079957
0.050935 0.083406 0.081971
0.094697 0.088838 0.083894
0.130739 0.092073 0.084382
0.176364 0.092592 0.084688
0.230900 0.088228 0.083009
0.293736 0.061402 0.080293
0.364538 0.000000 0.074891
0.442664 0.000000 0.065187
0.524285 0.000000 0.051301
0.605646 0.000000 0.032593
0.682979 0.000000 0.011353
0.753994 0.000000 0.000000
0.818204 0.000000 0.000000
0.874083 0.000000 0.000000
0.922240 0.000000 0.000000
0.963775 0.000000 0.000000
0.999573 0.000000 0.000000
1.000000 0.000000 0.000000
1.000000 0.000000 0.000000
1.000000 0.000000 0.000000
1.000000 0.000000 0.000000
1.000000 0.019440 0.000000
1.000000 0.149752 0.000000
1.000000 0.200900 0.000000
1.000000 0.240055 0.083314
1.000000 0.274113 0.122469
1.000000 0.304265 0.154696
1.000000 0.332555 0.184756
0.000000 0.093172 0.090455
0.000000 0.092653 0.090517
0.000000 0.091951 0.089296
0.008484 0.092714 0.087098
0.046632 0.096834 0.080018
0.091646 0.101320 0.081697
0.128054 0.106538 0.082216
0.174807 0.110201 0.080842
0.230289 0.109895 0.078889
0.294133 0.102571 0.073640
0.365759 0.076387 0.064637
0.444434 0.000000 0.053010
0.526146 0.000000 0.037232
0.607324 0.000000 0.017945
0.684291 0.000000 0.000000
0.754635 0.000000 0.000000
0.818540 0.000000 0.000000
0.873808 0.000000 0.000000
0.921813 0.000000 0.000000
0.963073 0.000000 0.000000
0.998657 0.000000 0.000000
1.000000 0.000000 0.000000
1.000000 0.000000 0.000000
1.000000 0.000000 0.000000
1.000000 0.000000 0.000000
1.000000 0.126284 0.000000
1.000000 0.182467 0.000000
1.000000 0.222782 0.000000
1.000000 0.256931 0.072267
1.000000 0.287785 0.119142
1.000000 0.315557 0.152529
1.000000 0.342107 0.183413
0.000000 0.119600 0.100374
0.000000 0.119875 0.100343
0.000000 0.118105 0.096773
0.000000 0.114717 0.094484
0.011719 0.117403 0.089601
0.085847 0.127993 0.075135
0.126314 0.132937 0.069551
0.171847 0.136385 0.070497
0.228763 0.139101 0.065370
0.294194 0.137636 0.056977
0.366949 0.127932 0.046571
0.446448 0.104829 0.032563
0.528405 0.015076 0.014069
0.609583 0.000000 0.000000
0.685756 0.000000 0.000000
0.756069 0.000000 0.000000
0.819150 0.000000 0.000000
0.873960 0.000000 0.000000
0.921324 0.000000 0.000000
0.962188 0.000000 0.000000
0.997436 0.000000 0.000000
1.000000 0.000000 0.000000
1.000000 0.000000 0.000000
1.000000 0.028138 0.000000
1.000000 0.138491 0.000000
1.000000 0.184573 0.000000
1.000000 0.221103 0.000000
1.000000 0.252567 0.000000
1.000000 0.281346 0.049348
1.000000 0.307836 0.113954
1.000000 0.332860 0.149325
1.000000 0.356878 0.181186
0.000000 0.166842 0.114870
0.000000 0.166964 0.114229
0.000000 0.165377 0.110079
0.000000 0.161471 0.097230
0.000000 0.153170 0.100038
0.000000 0.160830 0.088716
0.109255 0.171054 0.060334
0.175296 0.180819 0.040345
0.231785 0.181765 0.030274
0.293706 0.179568 0.027100
0.368139 0.175906 0.014679
0.449195 0.165927 0.000000
0.531792 0.148013 0.000000
0.612634 0.119722 0.000000
0.688594 0.065980 0.000000
0.757900 0.000000 0.000000
0.820066 0.000000 0.000000
0.874083 0.000000 0.000000
0.920836 0.000000 0.000000
0.961120 0.000000 0.000000
0.995819 0.000000 0.000000
1.000000 0.104524 0.000000
1.000000 0.151522 0.000000
1.000000 0.185885 0.000000
1.000000 0.215763 0.000000
1.000000 0.242802 0.000000
1.000000 0.268406 0.000000
1.000000 0.291997 0.000000
1.000000 0.315160 0.026368
1.000000 0.336797 0.109346
1.000000 0.358373 0.147463
1.000000 0.379095 0.180697
0.000000 0.230533 0.133333
0.000000 0.230259 0.132418
0.000000 0.229252 0.127749
0.000000 0.225834 0.116915
0.000000 0.217380 0.101259
0.000000 0.205661 0.106722
0.000000 0.219638 0.082582
0.140566 0.230716 0.022126
0.240696 0.244266 0.000000
0.309911 0.238743 0.000000
0.380743 0.233646 0.000000
0.454841 0.226505 0.000000
0.537102 0.217899 0.000000
0.617914 0.206821 0.000000
0.692805 0.195163 0.000000
0.761227 0.185275 0.000000
0.822080 0.179263 0.000000
0.874723 0.177707 0.000000
0.920470 0.181369 0.000000
0.960082 0.190982 0.000000
0.994507 0.204562 0.000000
1.000000 0.220890 0.000000
1.000000 0.238682 0.000000
1.000000 0.257298 0.000000
1.000000 0.275853 0.000000
1.000000 0.294774 0.000000
1.000000 0.312718 0.000000
1.000000 0.330877 0.000000
1.000000 0.349096 0.000000
1.000000 0.366613 0.097444
1.000000 0.384619 0.140627
1.000000 0.402655 0.176669
0.000000 0.302922 0.156863
0.000000 0.302464 0.155612
0.000000 0.301335 0.150637
0.000000 0.298680 0.142519
0.000000 0.292149 0.119570
0.000000 0.280400 0.112215
0.000000 0.270085 0.115389
0.000000 0.286473 0.073396
0.182376 0.300481 0.000000
0.320409 0.318975 0.000000
0.400488 0.306554 0.000000
0.476814 0.296483 0.000000
0.551324 0.287388 0.000000
0.622370 0.279850 0.000000
0.694423 0.276493 0.000000
0.761685 0.274083 0.000000
0.821317 0.272953 0.000000
0.873075 0.273808 0.000000
0.918059 0.277165 0.000000
0.957061 0.282109 0.000000
0.990753 0.289433 0.000000
1.000000 0.298772 0.000000
1.000000 0.309117 0.000000
1.000000 0.320928 0.000000
1.000000 0.333288 0.000000
1.000000 0.346075 0.000000
1.000000 0.359197 0.000000
1.000000 0.372229 0.000000
1.000000 0.386236 0.000000
1.000000 0.400458 0.073121
1.000000 0.414923 0.132357
1.000000 0.429786 0.171603
0.000000 0.380194 0.185916
0.000000 0.379919 0.184909
0.000000 0.378637 0.180850
0.000000 0.376287 0.173739
0.000000 0.372107 0.164920
0.000000 0.362127 0.124788
0.000000 0.347570 0.133303
0.000000 0.340093 0.131991
0.000000 0.358007 0.079591
0.238010 0.373907 0.000000
0.409033 0.398688 0.000000
0.496162 0.383581 0.000000
0.571527 0.370001 0.000000
0.640986 0.360082 0.000000
0.704982 0.353094 0.000000
0.763455 0.349157 0.000000
0.819791 0.352300 0.000000
0.870512 0.353429 0.000000
0.914611 0.355169 0.000000
0.952819 0.357946 0.000000
0.985992 0.362493 0.000000
1.000000 0.367681 0.000000
1.000000 0.373724 0.000000
1.000000 0.380957 0.000000
1.000000 0.388922 0.000000
1.000000 0.397192 0.000000
1.000000 0.406165 0.000000
1.000000 0.415717 0.000000
1.000000 0.425940 0.000000
1.000000 0.436683 0.018189
1.000000 0.448127 0.121675
1.000000 0.460029 0.165743
0.000000 0.459937 0.221378
0.000000 0.459632 0.220493
0.000000 0.458412 0.217044
0.000000 0.456428 0.211612
0.000000 0.452125 0.203342
0.000000 0.444831 0.181888
0.000000 0.432868 0.151919
0.000000 0.416999 0.163729
0.000000 0.413306 0.155825
0.063325 0.431586 0.099214
0.309941 0.448157 0.000000
0.471534 0.463203 0.000000
0.586389 0.466163 0.000000
0.655543 0.450507 0.000000
0.718166 0.440101 0.000000
0.773922 0.431983 0.000000
0.823697 0.426642 0.000000
0.867948 0.423041 0.000000
0.909850 0.426581 0.000000
0.947387 0.427710 0.000000
0.980133 0.429511 0.000000
1.000000 0.431617 0.000000
1.000000 0.434668 0.000000
1.000000 0.438331 0.000000
1.000000 0.442756 0.000000
1.000000 0.447517 0.000000
1.000000 0.453346 0.000000
1.000000 0.459602 0.000000
1.000000 0.466712 0.000000
1.000000 0.474678 0.000000
1.000000 0.483040 0.107912
1.000000 0.492287 0.159091
0.000000 0.538933 0.262425
0.000000 0.538659 0.261814
0.000000 0.537835 0.259037
0.000000 0.535790 0.254276
0.000000 0.532250 0.247410
0.000000 0.526940 0.240269
0.000000 0.517082 0.201755
0.000000 0.503441 0.188815
0.000000 0.486336 0.200137
0.000000 0.486732 0.184390
0.204349 0.504479 0.125856
0.389227 0.521019 0.000000
0.533745 0.528527 0.000000
0.664973 0.549187 0.000000
0.727016 0.531945 0.000000
0.780667 0.518761 0.000000
0.828183 0.508019 0.000000
0.870481 0.500023 0.000000
0.907897 0.493965 0.000000
0.941558 0.490669 0.000000
0.973083 0.492378 0.000000
1.000000 0.492439 0.000000
1.000000 0.492866 0.000000
1.000000 0.493874 0.000000
1.000000 0.495460 0.000000
1.000000 0.497719 0.000000
1.000000 0.500633 0.000000
1.000000 0.504051 0.000000
1.000000 0.508324 0.000000
1.000000 0.513603 0.000000
1.000000 0.519493 0.089204
1.000000 0.526177 0.151614
0.000000 0.615717 0.308659
0.000000 0.615625 0.308141
0.000000 0.614618 0.306004
0.000000 0.612787 0.301793
0.000000 0.609552 0.295659
0.000000 0.604944 0.288762
0.000000 0.597650 0.271427
0.000000 0.586969 0.224247
0.000000 0.571313 0.230289
0.000000 0.552728 0.240970
0.000000 0.557671 0.217227
0.309026 0.574395 0.159854
0.472114 0.592798 0.000000
0.602594 0.602045 0.000000
0.732631 0.629847 0.000000
0.785977 0.610132 0.000000
0.832090 0.593744 0.000000
0.872648 0.580438 0.000000
0.908629 0.569848 0.000000
0.940673 0.561334 0.000000
0.969146 0.554833 0.000000
0.994842 0.550835 0.000000
1.000000 0.550774 0.000000
1.000000 0.549462 0.000000
1.000000 0.548699 0.000000
1.000000 0.548241 0.000000
1.000000 0.548669 0.000000
1.000000 0.549676 0.000000
1.000000 0.551476 0.000000
1.000000 0.553979 0.000000
1.000000 0.557397 0.049805
1.000000 0.561730 0.144991
0.000000 0.687678 0.358923
0.000000 0.687526 0.358465
0.000000 0.686854 0.356664
0.000000 0.685023 0.353002
0.000000 0.682307 0.347631
0.000000 0.678187 0.341039
0.000000 0.672206 0.334325
0.000000 0.663416 0.298772
0.000000 0.651637 0.265934
0.000000 0.635096 0.274449
0.000000 0.615900 0.283604
0.235416 0.625635 0.253422
0.404578 0.640925 0.199313
0.540307 0.655085 0.097536
0.655787 0.664240 0.000000
0.777218 0.692622 0.000000
0.828794 0.675685 0.000000
0.868864 0.657557 0.000000
0.903990 0.642390 0.000000
0.935210 0.629786 0.000000
0.963073 0.619287 0.000000
0.988006 0.610681 0.000000
1.000000 0.603937 0.000000
1.000000 0.600061 0.000000
1.000000 0.597986 0.000000
1.000000 0.595575 0.000000
1.000000 0.593988 0.000000
1.000000 0.592981 0.000000
1.000000 0.592645 0.000000
1.000000 0.593256 0.000000
1.000000 0.594537 0.000000
1.000000 0.596765 0.136660
0.000000 0.747951 0.407080
0.000000 0.747829 0.406683
0.000000 0.746883 0.404761
0.000000 0.745480 0.401953
0.000000 0.743130 0.397589
0.000000 0.739376 0.391363
0.000000 0.734188 0.385016
0.000000 0.727230 0.370001
0.000000 0.718441 0.325566
0.000000 0.705776 0.312566
0.000000 0.689662 0.319707
0.162142 0.671077 0.327672
0.348028 0.684138 0.292088
0.479866 0.697292 0.243259
0.596124 0.709285 0.168063
0.699031 0.717525 0.000000
0.801114 0.735134 0.000000
0.861997 0.732113 0.000000
0.897154 0.712947 0.000000
0.927947 0.696529 0.000000
0.955352 0.682612 0.000000
0.980072 0.670832 0.000000
1.000000 0.660914 0.000000
1.000000 0.652674 0.000000
1.000000 0.645869 0.000000
1.000000 0.641474 0.000000
1.000000 0.638025 0.000000
1.000000 0.635187 0.000000
1.000000 0.633204 0.000000
1.000000 0.631891 0.000000
1.000000 0.631434 0.000000
1.000000 0.631891 0.129793
0.000000 0.797910 0.452155
0.000000 0.797787 0.451850
0.000000 0.797086 0.450629
0.000000 0.795773 0.448249
0.000000 0.793545 0.444526
0.000000 0.790311 0.439704
0.000000 0.785885 0.434424
0.000000 0.779812 0.428901
0.000000 0.772763 0.398627
0.000000 0.764736 0.354894
0.000000 0.751095 0.360174
0.000000 0.735714 0.366369
0.309941 0.722347 0.368170
0.432197 0.734096 0.334112
0.541466 0.745052 0.289860
0.642817 0.754971 0.228580
0.734432 0.762081 0.117586
0.819486 0.770474 0.000000
0.888426 0.779355 0.000000
0.919036 0.760098 0.000000
0.946380 0.743221 0.000000
0.970855 0.728756 0.000000
0.993164 0.716304 0.000000
1.000000 0.705348 0.000000
1.000000 0.695857 0.000000
1.000000 0.687800 0.000000
1.000000 0.680934 0.000000
1.000000 0.676081 0.000000
1.000000 0.672480 0.000000
1.000000 0.669734 0.000000
1.000000 0.667689 0.000000
1.000000 0.666590 0.124971
0.000000 0.838621 0.494087
0.000000 0.838529 0.493935
0.000000 0.837919 0.492897
0.000000 0.836790 0.491157
0.000000 0.834897 0.488289
0.000000 0.832151 0.484749
0.000000 0.828336 0.480812
0.000000 0.823239 0.476661
0.000000 0.816983 0.465888
0.000000 0.810727 0.429023
0.000000 0.801816 0.404395
0.000000 0.788754 0.408667
0.266850 0.774472 0.413428
0.403143 0.766354 0.409033
0.500298 0.775998 0.377234
0.593225 0.784878 0.337316
0.682002 0.792935 0.284947
0.763577 0.798795 0.209842
0.837156 0.802914 0.000000
0.909422 0.817655 0.000000
0.936553 0.799344 0.000000
0.961151 0.782773 0.000000
0.983185 0.768368 0.000000
1.000000 0.755489 0.000000
1.000000 0.744167 0.000000
1.000000 0.733974 0.000000
1.000000 0.725154 0.000000
1.000000 0.717281 0.000000
1.000000 0.710170 0.000000
1.000000 0.706111 0.000000
1.000000 0.702754 0.000000
1.000000 0.700252 0.123812
0.000000 0.871275 0.533165
0.000000 0.871153 0.532952
0.000000 0.870634 0.532280
0.000000 0.869627 0.530907
0.000000 0.867948 0.528985
0.000000 0.865507 0.526452
0.000000 0.862150 0.523552
0.000000 0.857725 0.520775
0.000000 0.852110 0.518853
0.000000 0.846830 0.495521
0.000000 0.841093 0.460029
0.000000 0.831449 0.452155
0.218601 0.819608 0.455634
0.384283 0.806577 0.459358
0.477211 0.802823 0.449958
0.557824 0.810727 0.420508
0.637507 0.817716 0.384161
0.715236 0.824063 0.339117
0.788083 0.828763 0.279118
0.854337 0.831785 0.190341
0.924071 0.846372 0.000000
0.951232 0.831632 0.000000
0.973175 0.816037 0.000000
0.993256 0.801816 0.000000
1.000000 0.789090 0.000000
1.000000 0.777646 0.000000
1.000000 0.767300 0.000000
1.000000 0.757870 0.000000
1.000000 0.749386 0.000000
1.000000 0.741848 0.000000
1.000000 0.736294 0.000000
1.000000 0.732692 0.128786
0.000000 0.896788 0.569482
0.000000 0.896666 0.569421
0.000000 0.897276 0.570550
0.000000 0.896330 0.569665
0.000000 0.894835 0.568505
0.000000 0.892699 0.566796
0.000000 0.889647 0.564904
0.000000 0.885740 0.563256
0.000000 0.880888 0.562524
0.000000 0.875517 0.556329
0.000000 0.871214 0.527276
0.000000 0.865721 0.498573
0.197879 0.856077 0.500633
0.372625 0.845396 0.503136
0.470893 0.833829 0.505943
0.541009 0.833341 0.492744
0.608637 0.839414 0.465248
0.677028 0.844877 0.432136
0.744747 0.849577 0.392432
0.809445 0.853300 0.341650
0.869413 0.855955 0.274723
0.931579 0.865965 0.173342
0.963745 0.858518 0.077943
0.983490 0.843748 0.000000
1.000000 0.830076 0.000000
1.000000 0.817777 0.000000
1.000000 0.806424 0.000000
1.000000 0.795987 0.000000
1.000000 0.786496 0.000000
1.000000 0.777615 0.000000
1.000000 0.769711 0.000000
1.000000 0.763638 0.129763
0.000000 0.916564 0.603326
0.000000 0.916533 0.603388
0.000000 0.916167 0.603174
0.000000 0.915435 0.602899
0.000000 0.914122 0.602319
0.000000 0.912169 0.601434
0.000000 0.909514 0.600519
0.000000 0.906065 0.600031
0.000000 0.901884 0.600336
0.000000 0.896696 0.602045
0.000000 0.892760 0.584771
0.000000 0.888975 0.557916
0.214389 0.882780 0.543633
0.372137 0.874205 0.545190
0.467628 0.864866 0.547295
0.538781 0.854856 0.549493
0.594263 0.856870 0.532952
0.651423 0.861814 0.507530
0.710628 0.866117 0.477455
0.769711 0.869810 0.441505
0.827207 0.872892 0.397467
0.881651 0.875273 0.341375
0.936492 0.881285 0.268193
0.973938 0.880247 0.202579
0.991913 0.866423 0.182956
1.000000 0.853513 0.161105
1.000000 0.841733 0.142031
1.000000 0.830777 0.114229
1.000000 0.820645 0.024414
1.000000 0.811124 0.000000
1.000000 0.802182 0.000000
1.000000 0.794217 0.000000
0.000000 0.931792 0.634272
0.000000 0.931762 0.634394
0.000000 0.931456 0.634363
0.000000 0.930755 0.634363
0.000000 0.929564 0.634333
0.000000 0.927794 0.634150
0.000000 0.925383 0.634150
0.000000 0.922393 0.634668
0.000000 0.918639 0.636072
0.000000 0.914183 0.638544
0.207797 0.909758 0.635584
0.246372 0.906859 0.613855
0.280919 0.903532 0.589319
0.390326 0.896880 0.586969
0.475502 0.889342 0.588251
0.541802 0.881224 0.589776
0.596216 0.872587 0.591516
0.641535 0.876463 0.572869
0.690089 0.880430 0.549706
0.740658 0.883848 0.521935
0.791897 0.886717 0.489052
0.842741 0.889189 0.449317
0.891966 0.891356 0.400488
0.940581 0.894682 0.338781
0.982513 0.898466 0.274174
0.999115 0.885557 0.255619
1.000000 0.873503 0.235416
1.000000 0.862242 0.215579
1.000000 0.851804 0.194278
1.000000 0.841978 0.162112
1.000000 0.832609 0.109926
1.000000 0.823575 0.000000
0.000000 0.943999 0.663691
0.000000 0.943999 0.663844
0.000000 0.943664 0.663966
0.000000 0.942992 0.664210
0.000000 0.941924 0.664485
0.000000 0.940276 0.664942
0.000000 0.938170 0.665766
0.000000 0.935424 0.667140
0.000000 0.932067 0.669154
0.132906 0.928191 0.671870
0.330510 0.923766 0.675746
0.368658 0.921019 0.662531
0.385809 0.918456 0.642542
0.421393 0.914763 0.626795
0.493019 0.908629 0.627680
0.552087 0.902007 0.628626
0.602197 0.895018 0.629755
0.644556 0.889220 0.628687
0.682765 0.892821 0.611231
0.724086 0.896056 0.590295
0.767575 0.898833 0.565606
0.812100 0.901183 0.535943
0.856718 0.903166 0.499580
0.901305 0.905180 0.455818
0.944762 0.907134 0.400977
0.988586 0.913298 0.340520
1.000000 0.902159 0.315099
1.000000 0.890898 0.294957
1.000000 0.880339 0.273350
1.000000 0.870390 0.251011
1.000000 0.860899 0.220371
1.000000 0.851682 0.175326
0.000000 0.953979 0.692470
0.000000 0.953918 0.692531
0.000000 0.953613 0.692714
0.000000 0.952941 0.693050
0.000000 0.951873 0.693721
0.000000 0.950408 0.694606
0.000000 0.948455 0.695857
0.000000 0.946044 0.697505
0.000000 0.943114 0.699855
0.290471 0.939696 0.702907
0.396826 0.935851 0.706874
0.455543 0.932464 0.704891
0.466133 0.930510 0.689052
0.477729 0.928313 0.671260
0.519585 0.924041 0.665278
0.569757 0.918639 0.665766
0.613855 0.912932 0.666407
0.653010 0.906920 0.667353
0.686519 0.903716 0.663386
0.718837 0.906676 0.647425
0.753872 0.909270 0.628656
0.791135 0.911528 0.606226
0.829679 0.913420 0.579248
0.868956 0.914977 0.546532
0.909117 0.916838 0.506737
0.949218 0.918608 0.456733
0.991760 0.924681 0.400488
1.000000 0.916228 0.366125
1.000000 0.905730 0.344579
1.000000 0.895781 0.321141
1.000000 0.886320 0.295262
1.000000 0.877134 0.262242
0.000000 0.961730 0.718990
0.000000 0.961700 0.719081
0.000000 0.961395 0.719295
0.000000 0.960784 0.719814
0.000000 0.959838 0.720577
0.000000 0.958495 0.721645
0.000000 0.956725 0.723110
0.139437 0.954589 0.725093
0.288121 0.952026 0.727626
0.381231 0.949004 0.730892
0.455238 0.945647 0.734798
0.519341 0.941955 0.739559
0.531731 0.940154 0.728511
0.539544 0.938445 0.714351
0.551171 0.936309 0.700008
0.592523 0.931914 0.700282
0.630365 0.927214 0.700649
0.664607 0.922332 0.701137
0.695705 0.917174 0.701778
0.722744 0.915984 0.695583
0.750118 0.918456 0.681270
0.780056 0.920623 0.664240
0.811948 0.922484 0.644038
0.845426 0.924071 0.619715
0.879850 0.925261 0.589532
0.916045 0.926940 0.553826
0.952941 0.928649 0.508476
0.992248 0.933074 0.455421
1.000000 0.928466 0.412207
1.000000 0.918700 0.388983
1.000000 0.909361 0.363439
1.000000 0.900359 0.333043
0.000000 0.968139 0.744076
0.000000 0.968078 0.744198
0.000000 0.967834 0.744503
0.000000 0.967285 0.745022
0.000000 0.966430 0.745846
0.136355 0.965209 0.747005
0.246525 0.963684 0.748562
0.325139 0.961730 0.750637
0.392462 0.959411 0.753262
0.453223 0.956786 0.756466
0.508629 0.953826 0.760281
0.560296 0.950530 0.764858
0.588159 0.948119 0.762692
0.593378 0.946807 0.751278
0.599115 0.945312 0.738613
0.618982 0.942596 0.731991
0.650416 0.938720 0.732052
0.679713 0.934691 0.732265
0.706905 0.930480 0.732601
0.732113 0.926085 0.733150
0.754025 0.926482 0.725185
0.777279 0.928588 0.712184
0.802792 0.930419 0.696773
0.830259 0.932006 0.678431
0.859434 0.933349 0.656275
0.889921 0.934417 0.629511
0.922423 0.935912 0.597284
0.956390 0.937560 0.556573
0.992676 0.940856 0.506218
1.000000 0.939269 0.455634
1.000000 0.930205 0.430426
1.000000 0.921477 0.402075
0.220615 0.973327 0.766812
0.224582 0.973266 0.766934
0.238956 0.973022 0.767269
0.264103 0.972534 0.767849
0.297765 0.971771 0.768734
0.337163 0.970733 0.770016
0.380163 0.969329 0.771725
0.425391 0.967590 0.773892
0.470344 0.965576 0.776577
0.515160 0.963256 0.779812
0.558801 0.960632 0.783658
0.600671 0.957794 0.788113
0.638361 0.954864 0.792355
0.641901 0.953857 0.783474
0.645869 0.952667 0.773465
0.650324 0.951385 0.762478
0.674769 0.948302 0.761807
0.699001 0.945037 0.761776
0.722103 0.941588 0.761929
0.743954 0.937987 0.762173
0.764431 0.934264 0.762600
0.782132 0.935851 0.753292
0.801785 0.937652 0.741634
0.823514 0.939239 0.727749
0.847135 0.940612 0.711177
0.872526 0.941772 0.691279
0.899413 0.942718 0.666926
0.928496 0.944060 0.638178
0.959655 0.945739 0.601740
0.993103 0.948241 0.555169
1.000000 0.949004 0.498848
1.000000 0.940398 0.468727
0.380438 0.977691 0.788266
0.382361 0.977630 0.788357
0.388403 0.977417 0.788632
0.400580 0.976989 0.789242
0.418921 0.976287 0.790127
0.442512 0.975341 0.791440
0.470497 0.974121 0.793149
0.501946 0.972564 0.795377
0.535424 0.970764 0.798093
0.569970 0.968719 0.801266
0.605005 0.966430 0.805020
0.639338 0.963928 0.809262
0.672480 0.961303 0.814054
0.685084 0.959838 0.811093
0.687892 0.958953 0.803311
0.690913 0.957946 0.794583
0.701076 0.956268 0.789029
0.720760 0.953582 0.788846
0.739895 0.950805 0.788785
0.758419 0.947875 0.788907
0.776150 0.944854 0.789151
0.792477 0.942504 0.788205
0.807156 0.944213 0.779355
0.823819 0.945800 0.768917
0.842313 0.947173 0.756558
0.862547 0.948394 0.741634
0.884581 0.949432 0.723781
0.908232 0.950256 0.701930
0.934264 0.951446 0.675959
0.962768 0.953063 0.642878
0.993469 0.954864 0.597955
1.000000 0.956878 0.541314
0.479164 0.981323 0.808255
0.480323 0.981292 0.808347
0.484474 0.981079 0.808652
0.492836 0.980713 0.809262
0.505394 0.980102 0.810208
0.522179 0.979248 0.811521
0.543114 0.978149 0.813352
0.567102 0.976806 0.815610
0.593225 0.975219 0.818357
0.620996 0.973449 0.821592
0.649470 0.971435 0.825345
0.677821 0.969299 0.829496
0.705684 0.967041 0.834104
0.725582 0.965179 0.836088
0.727565 0.964538 0.830014
0.729732 0.963775 0.823301
0.732174 0.962951 0.816037
0.745998 0.960998 0.814817
0.761410 0.958770 0.814694
0.776608 0.956451 0.814694
0.791379 0.954040 0.814786
0.805692 0.951568 0.815000
0.818479 0.950561 0.812528
0.830777 0.952087 0.804837
0.844724 0.953460 0.795712
0.860319 0.954681 0.784817
0.877379 0.955688 0.771420
0.896178 0.956542 0.755093
0.916716 0.957183 0.734920
0.939666 0.958099 0.710536
0.965637 0.959625 0.679988
0.993988 0.960998 0.637263
0.558923 0.984436 0.827939
0.559686 0.984405 0.828000
0.562860 0.984222 0.828305
0.568719 0.983886 0.828885
0.578119 0.983337 0.829801
0.590875 0.982605 0.831113
0.606500 0.981628 0.832853
0.625025 0.980438 0.835019
0.645594 0.979065 0.837644
0.667628 0.977478 0.840726
0.690669 0.975738 0.844205
0.713924 0.973907 0.848142
0.737118 0.971954 0.852415
0.759426 0.969940 0.856901
