20 Preset/Emotion Style/【3】LUT video cho PR-AE-FCPX/Emotion Style LUT (10).cube
# Created by Adobe Lightroom plugin Export LUT (1.24.0)
# www.johnrellis.com/lightroom/exportlut.htm
# Preset: 10日系情绪-秋（素材江湖）
# Color profile: E:\lut插件\exportlut.1.24\exportlut.lrplugin\color profiles\Rec709gamma2.4.icc
LUT_3D_SIZE 32
DOMAIN_MIN 0.0 0.0 0.0
DOMAIN_MAX 1.0 1.0 1.0
0.052338 0.109529 0.125643
0.056031 0.109407 0.125887
0.065919 0.109712 0.126345
0.086580 0.110109 0.127230
0.108309 0.110567 0.129244
0.147951 0.109102 0.131441
0.199222 0.102815 0.133577
0.256748 0.089082 0.135561
0.318029 0.033021 0.137575
0.383154 0.000000 0.139895
0.450446 0.000000 0.142611
0.519829 0.000000 0.145663
0.590143 0.000000 0.149691
0.659724 0.000000 0.154513
0.727230 0.000000 0.160342
0.790433 0.000000 0.167147
0.846708 0.000000 0.175631
0.896117 0.000000 0.185306
0.939025 0.000000 0.196994
0.976043 0.000000 0.209689
1.000000 0.000000 0.223758
1.000000 0.000000 0.238224
1.000000 0.000000 0.253696
1.000000 0.000000 0.269963
1.000000 0.000000 0.289464
1.000000 0.000000 0.309697
1.000000 0.023774 0.330755
1.000000 0.165774 0.352758
1.000000 0.224125 0.375799
1.000000 0.271580 0.400122
1.000000 0.313390 0.425635
1.000000 0.352575 0.452613
0.051301 0.110506 0.126314
0.053590 0.110445 0.126070
0.065766 0.110658 0.126253
0.086305 0.111086 0.127413
0.109316 0.111391 0.129397
0.148531 0.110262 0.131319
0.199008 0.104646 0.133425
0.256596 0.091249 0.135409
0.317540 0.042847 0.137331
0.381842 0.000000 0.139406
0.449012 0.000000 0.142214
0.517937 0.000000 0.145327
0.587823 0.000000 0.149386
0.657527 0.000000 0.153902
0.724910 0.000000 0.159609
0.788113 0.000000 0.166445
0.844663 0.000000 0.174655
0.894194 0.000000 0.184604
0.937438 0.000000 0.196323
0.974548 0.000000 0.208957
1.000000 0.000000 0.222812
1.000000 0.000000 0.237217
1.000000 0.000000 0.252232
1.000000 0.000000 0.268742
1.000000 0.000000 0.287999
1.000000 0.000000 0.307713
1.000000 0.006134 0.328679
1.000000 0.161654 0.350591
1.000000 0.220706 0.373480
1.000000 0.268284 0.397894
1.000000 0.310307 0.423377
1.000000 0.349615 0.450324
0.048859 0.115419 0.128420
0.053254 0.114961 0.128695
0.062684 0.114748 0.127382
0.086549 0.115053 0.127199
0.111513 0.116365 0.128817
0.152468 0.116365 0.131044
0.203220 0.112337 0.132753
0.259983 0.102052 0.134310
0.320836 0.075257 0.136202
0.384894 0.000000 0.138430
0.451453 0.000000 0.140871
0.520043 0.000000 0.144106
0.589349 0.000000 0.147921
0.658595 0.000000 0.152621
0.725673 0.000000 0.157992
0.788510 0.000000 0.164706
0.844602 0.000000 0.173068
0.893980 0.000000 0.183139
0.936889 0.000000 0.194736
0.973968 0.000000 0.207218
1.000000 0.000000 0.221164
1.000000 0.000000 0.235904
1.000000 0.000000 0.251194
1.000000 0.000000 0.267643
1.000000 0.000000 0.286870
1.000000 0.000000 0.306523
1.000000 0.062837 0.327306
1.000000 0.169833 0.349096
1.000000 0.225559 0.372168
1.000000 0.271336 0.396277
1.000000 0.312657 0.422004
1.000000 0.351049 0.448890
0.037476 0.126955 0.133852
0.043153 0.126284 0.133669
0.059052 0.124269 0.134096
0.085115 0.125734 0.130282
0.117037 0.128969 0.128145
0.160586 0.130617 0.129305
0.211887 0.128847 0.130678
0.268742 0.122438 0.131930
0.329198 0.107881 0.133852
0.392554 0.072816 0.135683
0.458625 0.000000 0.138247
0.526513 0.000000 0.141268
0.595117 0.000000 0.144808
0.663172 0.000000 0.149264
0.729030 0.000000 0.155032
0.790616 0.000000 0.161440
0.845823 0.000000 0.169772
0.894224 0.000000 0.179690
0.936614 0.000000 0.191562
0.973175 0.000000 0.204440
1.000000 0.000000 0.218570
1.000000 0.000000 0.233249
1.000000 0.000000 0.248661
1.000000 0.000000 0.265873
1.000000 0.000000 0.284916
1.000000 0.000000 0.304540
1.000000 0.123445 0.325658
1.000000 0.190219 0.347906
1.000000 0.239231 0.370977
1.000000 0.281590 0.395392
1.000000 0.320165 0.420966
1.000000 0.356878 0.447639
0.000000 0.159152 0.140810
0.000000 0.158846 0.140139
0.026246 0.153964 0.141176
0.081575 0.149966 0.140200
0.117098 0.153567 0.132021
0.168429 0.159365 0.125704
0.223301 0.158297 0.126040
0.280461 0.153719 0.127138
0.340581 0.144564 0.128817
0.403601 0.128634 0.130617
0.468605 0.101076 0.132723
0.535546 0.002655 0.135805
0.603052 0.000000 0.139071
0.670008 0.000000 0.143587
0.734737 0.000000 0.148867
0.795285 0.000000 0.155734
0.849180 0.000000 0.164065
0.896635 0.000000 0.174929
0.938048 0.000000 0.186740
0.973968 0.000000 0.200259
1.000000 0.000000 0.214847
1.000000 0.000000 0.229801
1.000000 0.000000 0.245914
1.000000 0.000000 0.263706
1.000000 0.000000 0.282597
1.000000 0.100587 0.302953
1.000000 0.170352 0.324010
1.000000 0.218509 0.346380
1.000000 0.259739 0.369665
1.000000 0.297063 0.393896
1.000000 0.332372 0.419501
1.000000 0.366735 0.446235
0.000000 0.211582 0.152010
0.000000 0.210880 0.150271
0.000000 0.205386 0.151369
0.032288 0.195438 0.154086
0.111330 0.193484 0.147555
0.166049 0.199527 0.131563
0.234562 0.206088 0.118593
0.295109 0.201236 0.117250
0.357366 0.191928 0.118288
0.420111 0.181949 0.120211
0.484596 0.167483 0.122316
0.550683 0.146975 0.125154
0.616846 0.117830 0.128481
0.682185 0.046357 0.133242
0.745571 0.000000 0.138460
0.803464 0.000000 0.146029
0.855375 0.000000 0.155550
0.901244 0.000000 0.167117
0.941436 0.000000 0.180301
0.976165 0.000000 0.194522
1.000000 0.000000 0.209964
1.000000 0.000000 0.225895
1.000000 0.000000 0.247318
1.000000 0.102937 0.267582
1.000000 0.161318 0.288457
1.000000 0.203372 0.309789
1.000000 0.240055 0.331823
1.000000 0.273228 0.354803
1.000000 0.305272 0.378546
1.000000 0.335912 0.403388
1.000000 0.366125 0.428931
1.000000 0.395758 0.455421
0.000000 0.280919 0.170260
0.000000 0.280003 0.168215
0.000000 0.274876 0.167697
0.000000 0.263554 0.170809
0.099001 0.247623 0.175601
0.158907 0.253330 0.157534
0.230381 0.262028 0.131472
0.315862 0.270024 0.104952
0.380102 0.261021 0.094453
0.446479 0.249485 0.096071
0.512139 0.237430 0.098909
0.577813 0.226108 0.102266
0.642451 0.212222 0.107240
0.705531 0.196017 0.113069
0.765469 0.178042 0.120821
0.819516 0.159274 0.130343
0.867979 0.140871 0.142153
0.910857 0.126131 0.156008
0.948821 0.117861 0.171267
0.981872 0.120607 0.187198
1.000000 0.131197 0.204196
1.000000 0.148898 0.221988
1.000000 0.174014 0.241062
1.000000 0.201328 0.261936
1.000000 0.228183 0.283421
1.000000 0.254520 0.305333
1.000000 0.280217 0.327886
1.000000 0.305730 0.350958
1.000000 0.331762 0.375067
1.000000 0.357397 0.399664
1.000000 0.383795 0.425360
1.000000 0.410620 0.452094
0.000000 0.352331 0.195529
0.000000 0.351202 0.193362
0.000000 0.346624 0.190341
0.000000 0.336461 0.194003
0.000000 0.321172 0.199252
0.151827 0.308202 0.198672
0.217929 0.318120 0.171908
0.299809 0.328222 0.134768
0.396033 0.339757 0.086854
0.463416 0.327825 0.042847
0.529290 0.317540 0.000000
0.595789 0.303838 0.010101
0.659236 0.292821 0.025788
0.720089 0.283146 0.049165
0.776699 0.272526 0.080018
0.827665 0.262028 0.099733
0.873655 0.252171 0.117739
0.914488 0.244358 0.136416
0.950958 0.240055 0.155215
0.982605 0.238254 0.174105
1.000000 0.239933 0.193545
1.000000 0.247013 0.213291
1.000000 0.258061 0.234134
1.000000 0.272038 0.255955
1.000000 0.287968 0.278080
1.000000 0.305089 0.300511
1.000000 0.323217 0.323583
1.000000 0.342229 0.347326
1.000000 0.362676 0.371313
1.000000 0.384161 0.396551
1.000000 0.406561 0.422492
1.000000 0.429938 0.449317
0.000000 0.428107 0.228977
0.000000 0.427131 0.226596
0.000000 0.423041 0.221134
0.000000 0.414496 0.224643
0.000000 0.400427 0.229526
0.133425 0.381292 0.235477
0.214420 0.377295 0.224369
0.286351 0.388830 0.192416
0.373816 0.400824 0.145266
0.478676 0.416693 0.039826
0.547295 0.402869 0.000000
0.612421 0.391089 0.000000
0.675288 0.379919 0.000000
0.735470 0.365637 0.000000
0.788693 0.356481 0.000000
0.836576 0.346960 0.000000
0.879850 0.337987 0.044556
0.918669 0.330632 0.101625
0.953338 0.324926 0.130098
0.983459 0.321202 0.155154
1.000000 0.321080 0.178958
1.000000 0.323339 0.202335
1.000000 0.327947 0.225162
1.000000 0.335149 0.248295
1.000000 0.344579 0.271672
1.000000 0.355169 0.295354
1.000000 0.367681 0.319036
1.000000 0.381689 0.343297
1.000000 0.397314 0.367956
1.000000 0.414557 0.393561
1.000000 0.433112 0.419806
1.000000 0.453162 0.447028
0.000000 0.506859 0.268132
0.000000 0.505943 0.266148
0.000000 0.502464 0.258305
0.000000 0.494820 0.261234
0.000000 0.481880 0.265019
0.000000 0.464515 0.270115
0.220218 0.442420 0.276860
0.283513 0.450385 0.253635
0.359503 0.463233 0.217380
0.449866 0.476417 0.163302
0.559075 0.496773 0.007965
0.625879 0.481331 0.000000
0.688106 0.468147 0.000000
0.745174 0.455146 0.000000
0.797452 0.441199 0.000000
0.844205 0.426581 0.000000
0.885344 0.417090 0.000000
0.922423 0.408301 0.000000
0.955657 0.401770 0.081147
0.985138 0.396735 0.127504
1.000000 0.393286 0.159274
1.000000 0.391394 0.187076
1.000000 0.391485 0.212863
1.000000 0.393744 0.238193
1.000000 0.397772 0.263005
1.000000 0.403540 0.287846
1.000000 0.411505 0.312413
1.000000 0.421241 0.337621
1.000000 0.432959 0.363134
1.000000 0.446479 0.389319
1.000000 0.461555 0.416266
1.000000 0.478492 0.444343
0.000000 0.583703 0.310857
0.000000 0.582940 0.308873
0.000000 0.580438 0.301732
0.000000 0.573785 0.302129
0.000000 0.562982 0.305516
0.000000 0.548150 0.309972
0.203220 0.528405 0.315435
0.293858 0.512779 0.315953
0.356298 0.525780 0.286412
0.435401 0.539666 0.245914
0.525658 0.553735 0.186862
0.630549 0.574121 0.048981
0.697292 0.560021 0.000000
0.752712 0.542931 0.000000
0.802792 0.526757 0.000000
0.847745 0.511894 0.000000
0.889372 0.495064 0.000000
0.925872 0.483803 0.000000
0.957397 0.475166 0.000000
0.984894 0.467262 0.054749
1.000000 0.460426 0.128176
1.000000 0.455268 0.165652
1.000000 0.452094 0.197391
1.000000 0.450477 0.226352
1.000000 0.451026 0.253696
1.000000 0.453254 0.280247
1.000000 0.457221 0.306188
1.000000 0.463233 0.332738
1.000000 0.471107 0.359014
1.000000 0.481178 0.386053
1.000000 0.493019 0.413581
1.000000 0.506584 0.441840
0.000000 0.658808 0.358892
0.000000 0.658320 0.357366
0.000000 0.656092 0.350683
0.000000 0.651087 0.348363
0.000000 0.642115 0.350683
0.000000 0.629694 0.354437
0.170321 0.613306 0.359228
0.298680 0.592523 0.365026
0.366125 0.588037 0.354437
0.431373 0.601556 0.322576
0.509514 0.615290 0.279454
0.597162 0.628779 0.218753
0.704005 0.656001 0.127810
0.767361 0.643153 0.000000
0.816190 0.623285 0.000000
0.859922 0.605005 0.000000
0.899413 0.587976 0.000000
0.934508 0.571160 0.000000
0.964965 0.554009 0.000000
0.990051 0.543236 0.000000
1.000000 0.533501 0.082124
1.000000 0.525170 0.145235
1.000000 0.518608 0.185885
1.000000 0.513848 0.219608
1.000000 0.510826 0.250340
1.000000 0.509239 0.278782
1.000000 0.509697 0.306340
1.000000 0.512016 0.333654
1.000000 0.516197 0.360693
1.000000 0.522362 0.387976
1.000000 0.530510 0.415778
1.000000 0.540887 0.444465
0.000000 0.728542 0.418219
0.000000 0.728054 0.416602
0.000000 0.726467 0.411170
0.000000 0.722225 0.405097
0.000000 0.715023 0.406653
0.000000 0.705135 0.408972
0.154360 0.692287 0.412451
0.301671 0.676112 0.416724
0.387152 0.656733 0.422339
0.442908 0.664027 0.401282
0.508202 0.677211 0.368627
0.584222 0.690394 0.326909
0.667659 0.703029 0.269566
0.754360 0.715663 0.190677
0.813169 0.704280 0.129702
0.855985 0.683436 0.007874
0.894102 0.663905 0.000000
0.927825 0.645075 0.000000
0.957763 0.627008 0.000000
0.983764 0.608057 0.000000
1.000000 0.592798 0.000000
1.000000 0.581933 0.097047
1.000000 0.572747 0.158724
1.000000 0.565301 0.200839
1.000000 0.559503 0.235874
1.000000 0.555383 0.267979
1.000000 0.553246 0.297551
1.000000 0.552789 0.326696
1.000000 0.554162 0.355169
1.000000 0.557733 0.383673
1.000000 0.563165 0.412390
1.000000 0.570733 0.441627
0.000000 0.782895 0.479377
0.000000 0.782528 0.477790
0.000000 0.780758 0.471901
0.000000 0.777859 0.465309
0.000000 0.772213 0.465888
0.000000 0.764065 0.466743
0.179568 0.753780 0.468513
0.311620 0.740993 0.471015
0.397162 0.725582 0.474647
0.459754 0.712642 0.474800
0.510277 0.723537 0.449378
0.572137 0.734798 0.417243
0.642206 0.745541 0.376379
0.717800 0.755520 0.322301
0.794644 0.764431 0.253635
0.848295 0.754635 0.202152
0.885374 0.733608 0.157565
0.918059 0.713161 0.096437
0.947417 0.693172 0.000000
0.973754 0.673884 0.000000
0.996918 0.655085 0.000000
1.000000 0.636744 0.000000
1.000000 0.625116 0.121492
1.000000 0.615564 0.178439
1.000000 0.607660 0.220523
1.000000 0.601190 0.256352
1.000000 0.596582 0.289006
1.000000 0.593683 0.319799
1.000000 0.592615 0.349615
1.000000 0.593683 0.379370
1.000000 0.596643 0.409186
1.000000 0.601587 0.439033
0.000000 0.825162 0.539910
0.000000 0.824796 0.538476
0.000000 0.823606 0.534173
0.000000 0.821378 0.525628
0.000000 0.816648 0.525475
0.000000 0.810178 0.525628
0.238956 0.801938 0.526329
0.338201 0.791867 0.527581
0.414405 0.779751 0.529870
0.476204 0.765805 0.533074
0.523308 0.762356 0.524651
0.571069 0.771878 0.499825
0.627893 0.781033 0.468452
0.691035 0.789670 0.429084
0.758846 0.797269 0.377752
0.826749 0.803464 0.315373
0.875029 0.794949 0.268345
0.906798 0.774319 0.229191
0.935363 0.753872 0.187289
0.961273 0.733822 0.134798
0.985046 0.714412 0.000000
1.000000 0.695857 0.000000
1.000000 0.678340 0.047028
1.000000 0.663600 0.151217
1.000000 0.653712 0.203220
1.000000 0.645563 0.243992
1.000000 0.638941 0.279973
1.000000 0.634119 0.312932
1.000000 0.631098 0.344945
1.000000 0.630060 0.376013
1.000000 0.630976 0.407202
1.000000 0.633814 0.438331
0.000000 0.856870 0.596674
0.000000 0.856779 0.596307
0.000000 0.855955 0.592584
0.000000 0.854429 0.586145
0.079591 0.851164 0.584222
0.227024 0.846372 0.584466
0.311284 0.840330 0.585199
0.382147 0.832700 0.586114
0.444038 0.823484 0.587701
0.498116 0.812772 0.589776
0.545403 0.800168 0.592523
0.582177 0.803494 0.576379
0.625055 0.810941 0.551537
0.675319 0.817807 0.520592
0.731411 0.823941 0.481605
0.791135 0.829191 0.432654
0.851225 0.833341 0.373602
0.894682 0.825834 0.328893
0.922301 0.806424 0.291661
0.947753 0.786862 0.253574
0.971374 0.767941 0.211978
0.993683 0.749264 0.158175
1.000000 0.731350 0.028595
1.000000 0.714534 0.132357
1.000000 0.698726 0.185733
1.000000 0.688319 0.232395
1.000000 0.680232 0.271672
1.000000 0.673701 0.307500
1.000000 0.668818 0.340795
1.000000 0.665736 0.373205
1.000000 0.664515 0.405249
1.000000 0.665095 0.436927
0.231754 0.880491 0.648371
0.232578 0.880339 0.647517
0.237125 0.879789 0.645014
0.244968 0.878691 0.639979
0.276585 0.876432 0.636866
0.326848 0.872770 0.636927
0.377630 0.868040 0.637110
0.428321 0.862150 0.637629
0.476661 0.855161 0.638666
0.521569 0.846830 0.639643
0.563287 0.837064 0.641230
0.599359 0.828092 0.640711
0.631250 0.834257 0.622065
0.669795 0.840024 0.598657
0.714290 0.845274 0.569207
0.763912 0.849882 0.532341
0.816556 0.853758 0.486244
0.870176 0.856809 0.430457
0.909850 0.850340 0.387457
0.934356 0.832425 0.351080
0.957733 0.814633 0.312078
0.979706 0.797086 0.273198
1.000000 0.779782 0.228519
1.000000 0.762387 0.168185
1.000000 0.746334 0.182132
1.000000 0.731533 0.225071
1.000000 0.719326 0.263493
1.000000 0.711452 0.302007
1.000000 0.705165 0.337530
1.000000 0.700465 0.371130
1.000000 0.697475 0.404181
1.000000 0.696223 0.436774
0.356451 0.898711 0.694301
0.357031 0.898650 0.693660
0.380163 0.901762 0.701717
0.383581 0.900969 0.697871
0.395300 0.899413 0.693996
0.422248 0.896696 0.693721
0.454353 0.892973 0.693507
0.488502 0.888457 0.693385
0.524071 0.883116 0.693599
0.559228 0.876768 0.694057
0.593133 0.869352 0.694667
0.624659 0.860929 0.695430
0.651392 0.857694 0.689387
0.679347 0.862181 0.672053
0.712673 0.866270 0.650507
0.750912 0.869932 0.623590
0.793454 0.873014 0.589441
0.839292 0.875669 0.546197
0.886992 0.877714 0.493477
0.923125 0.871916 0.450843
0.945373 0.855833 0.412604
0.966857 0.839658 0.373663
0.987304 0.823484 0.333623
1.000000 0.807187 0.289769
1.000000 0.790524 0.235966
1.000000 0.775051 0.231540
1.000000 0.760983 0.266911
1.000000 0.747799 0.299413
1.000000 0.739712 0.335271
1.000000 0.733608 0.370062
1.000000 0.729183 0.404028
1.000000 0.726345 0.437385
0.444465 0.913603 0.736141
0.446113 0.913787 0.736538
0.448737 0.913725 0.735683
0.452277 0.913420 0.733669
0.458717 0.912535 0.730159
0.478035 0.910430 0.730129
0.501030 0.907622 0.729915
0.526848 0.904051 0.729641
0.554498 0.899779 0.729488
0.583246 0.894774 0.729519
0.611780 0.888945 0.729702
0.639124 0.882322 0.730068
0.664668 0.874723 0.730465
0.686549 0.875700 0.720577
0.711879 0.879301 0.704738
0.741726 0.882628 0.685237
0.775540 0.885588 0.661067
0.813291 0.888151 0.630823
0.854307 0.890318 0.592737
0.897765 0.892088 0.544182
0.931945 0.887572 0.502708
0.952880 0.873320 0.464576
0.973114 0.858701 0.425422
0.992676 0.843870 0.384131
1.000000 0.828763 0.339513
1.000000 0.813107 0.285740
1.000000 0.798550 0.275059
1.000000 0.785641 0.306737
1.000000 0.773617 0.336797
1.000000 0.764340 0.368902
1.000000 0.758724 0.403540
1.000000 0.754574 0.437629
0.506554 0.924285 0.768643
0.508019 0.924437 0.768887
0.510033 0.924468 0.768521
0.512688 0.924224 0.766934
0.515801 0.923644 0.763729
0.529198 0.922026 0.763455
0.546166 0.919799 0.763088
0.565667 0.917021 0.762875
0.587091 0.913634 0.762600
0.609949 0.909636 0.762478
0.633326 0.905058 0.762234
0.656519 0.899809 0.762234
0.678798 0.893889 0.762295
0.699275 0.888090 0.761471
0.718105 0.891203 0.749844
0.740688 0.894163 0.735561
0.767178 0.896818 0.718074
0.797238 0.899229 0.696407
0.830808 0.901335 0.669368
0.867491 0.903075 0.635431
0.906676 0.904448 0.592493
0.938201 0.900298 0.552972
0.958953 0.888273 0.514336
0.978210 0.875090 0.474372
0.997009 0.861479 0.431617
1.000000 0.847349 0.384924
1.000000 0.832609 0.329778
1.000000 0.818967 0.318273
1.000000 0.807340 0.347265
1.000000 0.796414 0.376379
1.000000 0.786465 0.404578
1.000000 0.781277 0.439063
0.560662 0.933349 0.797696
0.561761 0.933471 0.798032
0.563287 0.933440 0.797665
0.565209 0.933288 0.796475
0.567376 0.932830 0.794095
0.575463 0.931670 0.792996
0.588067 0.929900 0.792752
0.602808 0.927703 0.792447
0.619501 0.925017 0.792142
0.637385 0.921843 0.791775
0.656336 0.918212 0.791562
0.675563 0.914061 0.791409
0.694514 0.909331 0.791196
0.712734 0.904082 0.791043
0.729000 0.901793 0.787350
0.745846 0.904417 0.776883
0.766079 0.906889 0.764034
0.789639 0.909209 0.748501
0.816526 0.911315 0.729793
0.846555 0.913146 0.706416
0.879545 0.914733 0.676997
0.915160 0.915923 0.639490
0.944060 0.912200 0.603357
0.964446 0.902159 0.566094
0.982940 0.890349 0.526085
1.000000 0.877897 0.481331
1.000000 0.864866 0.432563
1.000000 0.850919 0.374487
1.000000 0.838621 0.367468
1.000000 0.828092 0.394873
1.000000 0.818265 0.422370
1.000000 0.809171 0.449866
0.614069 0.941894 0.826383
0.614588 0.941955 0.826505
0.615137 0.941833 0.825986
0.615869 0.941588 0.824735
0.616754 0.941161 0.822507
0.621088 0.940276 0.820920
0.630091 0.938872 0.820584
0.640894 0.937133 0.820157
0.653346 0.934997 0.819760
0.667414 0.932494 0.819516
0.682399 0.929625 0.819242
0.697841 0.926329 0.818936
0.713405 0.922667 0.818662
0.728847 0.918547 0.818418
0.743740 0.913909 0.818112
0.756802 0.914183 0.812284
0.771633 0.916350 0.802884
0.789425 0.918364 0.791348
0.810117 0.920226 0.777462
0.833829 0.921904 0.760372
0.860349 0.923369 0.739406
0.889891 0.924498 0.712917
0.922087 0.925353 0.678950
0.948852 0.921782 0.644160
0.968658 0.913115 0.607813
0.986419 0.902373 0.567956
1.000000 0.890898 0.522210
1.000000 0.878660 0.470558
1.000000 0.865446 0.408209
1.000000 0.854429 0.411017
1.000000 0.844846 0.437507
1.000000 0.835813 0.463935
0.654932 0.948425 0.848173
0.655299 0.948425 0.848264
0.655665 0.948363 0.847837
0.656123 0.948150 0.846830
0.656703 0.947845 0.845182
0.658869 0.947265 0.843534
0.665644 0.946136 0.843168
0.673915 0.944701 0.842832
0.683497 0.943053 0.842496
0.694423 0.941039 0.842191
0.706172 0.938750 0.841825
0.718654 0.936126 0.841550
0.731563 0.933165 0.841184
0.744533 0.929900 0.840909
0.757412 0.926238 0.840604
0.769711 0.922484 0.840085
0.780667 0.924437 0.833158
0.793881 0.926268 0.824826
0.809567 0.928008 0.814755
0.827939 0.929595 0.802457
0.848966 0.930968 0.787350
0.872770 0.932189 0.768460
0.899260 0.933104 0.744747
0.928527 0.933715 0.714290
0.953063 0.929992 0.679042
0.972381 0.922454 0.643519
0.989532 0.912657 0.604303
1.000000 0.902068 0.558190
1.000000 0.890501 0.502312
1.000000 0.877714 0.433722
1.000000 0.868254 0.453986
1.000000 0.859495 0.479622
0.693935 0.954498 0.868650
0.694270 0.954559 0.868711
0.694606 0.954498 0.868467
0.694789 0.954314 0.867643
0.694728 0.954009 0.866239
0.695216 0.953582 0.864378
0.699794 0.952636 0.863859
0.705562 0.951446 0.863310
0.712520 0.950042 0.862760
0.720638 0.948394 0.862211
0.729519 0.946502 0.861631
0.739315 0.944366 0.861082
0.749599 0.941924 0.860594
0.760189 0.939208 0.860014
0.770809 0.936187 0.859464
0.781369 0.932891 0.858915
0.791043 0.931212 0.856565
0.800778 0.932830 0.850156
0.812619 0.934386 0.842649
0.826719 0.935912 0.833646
0.843168 0.937285 0.822690
0.861967 0.938476 0.809171
0.883299 0.939452 0.792050
0.907286 0.940154 0.770291
0.934081 0.940551 0.741939
0.957305 0.937530 0.710628
0.976104 0.930755 0.675624
0.992645 0.921752 0.636713
1.000000 0.911803 0.588800
1.000000 0.900786 0.528557
1.000000 0.889067 0.472694
1.000000 0.880583 0.497017
0.724300 0.959350 0.884306
0.724666 0.959380 0.884398
0.725002 0.959350 0.884245
0.725154 0.959228 0.883665
0.725338 0.959014 0.882658
0.725521 0.958709 0.881224
0.728817 0.958038 0.880735
0.733547 0.957122 0.880369
0.739132 0.956054 0.880034
0.745541 0.954772 0.879667
0.752743 0.953307 0.879301
0.760586 0.951598 0.878904
0.768887 0.949676 0.878416
0.777554 0.947509 0.877897
0.786404 0.945068 0.877317
0.795346 0.942443 0.876799
0.804196 0.939513 0.876280
0.811917 0.939513 0.872740
0.820584 0.940917 0.867063
0.831113 0.942260 0.860349
0.843534 0.943511 0.852293
0.858000 0.944701 0.842496
0.874693 0.945678 0.830381
0.893767 0.946441 0.815030
0.915373 0.946990 0.795377
0.939849 0.947265 0.769619
0.961700 0.944549 0.739773
0.979767 0.938506 0.705745
0.995972 0.930175 0.666896
1.000000 0.920836 0.617151
1.000000 0.910124 0.551354
1.000000 0.899931 0.519249
0.753445 0.963989 0.898924
0.753658 0.964019 0.898955
0.753719 0.963989 0.898741
0.753811 0.963897 0.898314
0.753811 0.963714 0.897459
0.753872 0.963470 0.896330
0.755825 0.962982 0.895659
0.759457 0.962249 0.895384
0.763760 0.961364 0.895079
0.768704 0.960357 0.894774
0.774411 0.959136 0.894408
0.780636 0.957794 0.894011
0.787289 0.956268 0.893584
0.794369 0.954498 0.893126
0.801633 0.952575 0.892576
0.809079 0.950408 0.891997
0.816617 0.948058 0.891478
0.824125 0.945525 0.890990
0.830442 0.946746 0.886595
0.838224 0.947967 0.881559
0.847562 0.949126 0.875547
0.858549 0.950195 0.868254
0.871397 0.951141 0.859312
0.886229 0.951965 0.848203
0.903258 0.952575 0.834195
0.922850 0.952972 0.816098
0.945220 0.953124 0.792538
0.965850 0.950622 0.763699
0.983459 0.945037 0.729213
0.999420 0.937224 0.689601
1.000000 0.928283 0.636316
1.000000 0.917571 0.560571
0.778714 0.968139 0.911254
0.778897 0.968139 0.911284
0.778988 0.968109 0.911162
0.779049 0.968048 0.910765
0.779232 0.967926 0.910246
0.779416 0.967742 0.909453
0.780819 0.967468 0.908904
0.784054 0.966949 0.908934
0.787900 0.966339 0.908934
0.792386 0.965606 0.908965
0.797391 0.964721 0.908965
0.802731 0.963745 0.908904
0.808438 0.962585 0.908812
0.814389 0.961273 0.908598
0.820462 0.959838 0.908293
0.826596 0.958160 0.907897
0.832822 0.956329 0.907439
0.839139 0.954345 0.906981
0.844907 0.953246 0.905577
0.850431 0.954284 0.901823
0.857115 0.955322 0.897398
0.865171 0.956268 0.892088
0.874571 0.957153 0.885557
0.885649 0.957885 0.877653
0.898528 0.958526 0.867704
0.913481 0.958984 0.855039
0.930877 0.959228 0.838865
0.951171 0.959289 0.817319
0.970459 0.957000 0.790036
0.987304 0.951690 0.755276
1.000000 0.944213 0.713008
1.000000 0.935332 0.652827
0.805631 0.972351 0.923857
0.805661 0.972320 0.923857
0.805661 0.972290 0.923705
0.805600 0.972229 0.923430
0.805509 0.972137 0.922911
0.805539 0.971984 0.922240
0.805997 0.971740 0.921569
0.808194 0.971313 0.921416
0.810880 0.970794 0.921263
0.814054 0.970153 0.921111
0.817655 0.969421 0.920928
0.821622 0.968597 0.920714
0.826017 0.967651 0.920470
0.830655 0.966583 0.920226
