20 Preset/Emotion Style/【3】LUT video cho PR-AE-FCPX/Emotion Style LUT (10).cube
# Created by Adobe Lightroom plugin Export LUT (1.24.0)
# www.johnrellis.com/lightroom/exportlut.htm
# Preset: 10日系情绪-秋（素材江湖）
# Color profile: E:\lut插件\exportlut.1.24\exportlut.lrplugin\color profiles\Rec709gamma2.4.icc
LUT_3D_SIZE 8
DOMAIN_MIN 0.000000 0.000000 0.000000
DOMAIN_MAX 0.903226 0.903226 0.903226
0.052338 0.109529 0.125643
0.108309 0.110567 0.129244
0.318029 0.033021 0.137575
0.590143 0.000000 0.149691
0.846708 0.000000 0.175631
1.000000 0.000000 0.223758
1.000000 0.000000 0.289464
1.000000 0.224125 0.375799
0.000000 0.159152 0.140810
0.117098 0.153567 0.132021
0.340581 0.144564 0.128817
0.603052 0.000000 0.139071
0.849180 0.000000 0.164065
1.000000 0.000000 0.214847
1.000000 0.000000 0.282597
1.000000 0.259739 0.369665
0.000000 0.428107 0.228977
0.000000 0.400427 0.229526
0.373816 0.400824 0.145266
0.675288 0.379919 0.000000
0.879850 0.337987 0.044556
1.000000 0.321080 0.178958
1.000000 0.344579 0.271672
1.000000 0.397314 0.367956
0.000000 0.728542 0.418219
0.000000 0.715023 0.406653
0.387152 0.656733 0.422339
0.667659 0.703029 0.269566
0.894102 0.663905 0.000000
1.000000 0.592798 0.000000
1.000000 0.559503 0.235874
1.000000 0.554162 0.355169
0.231754 0.880491 0.648371
0.276585 0.876432 0.636866
0.476661 0.855161 0.638666
0.631250 0.834257 0.622065
0.816556 0.853758 0.486244
0.957733 0.814633 0.312078
1.000000 0.746334 0.182132
1.000000 0.705165 0.337530
0.560662 0.933349 0.797696
0.567376 0.932830 0.794095
0.619501 0.925017 0.792142
0.694514 0.909331 0.791196
0.766079 0.906889 0.764034
0.879545 0.914733 0.676997
0.982940 0.890349 0.526085
1.000000 0.838621 0.367468
0.724300 0.959350 0.884306
0.725338 0.959014 0.882658
0.739132 0.956054 0.880034
0.768887 0.949676 0.878416
0.804196 0.939513 0.876280
0.843534 0.943511 0.852293
0.915373 0.946990 0.795377
0.995972 0.930175 0.666896
0.827359 0.975708 0.933715
0.827359 0.975555 0.932982
0.831296 0.974578 0.931640
0.843442 0.972137 0.931060
0.856718 0.967468 0.928099
0.874723 0.964080 0.924681
0.897795 0.966888 0.907469
0.943481 0.968078 0.865324
0.018372 0.113985 0.177493
0.114168 0.111971 0.159030
0.323705 0.068910 0.144228
0.589868 0.000000 0.140993
0.842649 0.000000 0.164340
1.000000 0.000000 0.213870
1.000000 0.000000 0.280827
1.000000 0.236515 0.366125
0.000000 0.174105 0.211765
0.121309 0.168429 0.194644
0.351476 0.159213 0.166690
0.608850 0.119875 0.128573
0.850004 0.000000 0.152865
1.000000 0.000000 0.207004
1.000000 0.120699 0.276188
1.000000 0.271702 0.361822
0.000000 0.446754 0.309300
0.000000 0.428992 0.297490
0.383734 0.411536 0.245212
0.675776 0.383734 0.154879
0.876371 0.359960 0.000000
1.000000 0.342596 0.169192
1.000000 0.353887 0.261601
1.000000 0.397864 0.358373
0.000000 0.731960 0.465156
0.000000 0.721492 0.459327
0.391913 0.666285 0.459297
0.660151 0.697139 0.341253
0.881712 0.655543 0.196292
0.998260 0.589410 0.000000
1.000000 0.556573 0.222477
1.000000 0.550469 0.344640
0.234867 0.881193 0.668940
0.317388 0.876555 0.667597
0.478584 0.856199 0.657099
0.631250 0.830472 0.643885
0.809964 0.850340 0.522515
0.950866 0.812467 0.369940
1.000000 0.745266 0.205447
1.000000 0.703151 0.330663
0.561089 0.932830 0.804105
0.575952 0.931243 0.803769
0.617914 0.924224 0.797024
0.693935 0.908843 0.796384
0.765103 0.905394 0.773617
0.876280 0.914000 0.696590
0.977691 0.890471 0.561120
1.000000 0.837552 0.363104
0.724025 0.958892 0.886076
0.727230 0.958160 0.885283
0.737392 0.955474 0.880980
0.767849 0.949187 0.879606
0.804105 0.939269 0.878111
0.842985 0.942809 0.856077
0.913390 0.946288 0.802335
0.992370 0.929747 0.683040
0.827115 0.975463 0.934234
0.828336 0.975311 0.933989
0.830808 0.974456 0.932067
0.843076 0.972015 0.931487
0.859373 0.968017 0.930388
0.876249 0.964233 0.926818
0.898283 0.966827 0.909972
0.942962 0.968048 0.870054
0.000000 0.123537 0.423377
0.103975 0.112978 0.422095
0.382635 0.021942 0.363592
0.669673 0.000000 0.320806
0.854765 0.000000 0.267185
1.000000 0.090913 0.218875
1.000000 0.216220 0.276799
1.000000 0.306798 0.367468
0.000000 0.200565 0.438239
0.000000 0.195651 0.441382
0.403845 0.192874 0.397681
0.662531 0.126589 0.340520
0.857420 0.128969 0.287572
1.000000 0.206943 0.233616
1.000000 0.262943 0.271672
1.000000 0.331945 0.363561
0.000000 0.456825 0.524468
0.000000 0.454322 0.515404
0.399145 0.441291 0.474861
0.667567 0.422065 0.422309
0.871702 0.403601 0.353246
1.000000 0.400427 0.278294
1.000000 0.405066 0.257298
1.000000 0.430365 0.358404
0.000000 0.773709 0.643610
0.000000 0.765408 0.633295
0.393866 0.725612 0.605951
0.664973 0.714687 0.555138
0.867002 0.673610 0.474830
0.982635 0.622950 0.386145
1.000000 0.583276 0.278782
1.000000 0.567803 0.347784
0.183047 0.892607 0.744900
0.300481 0.888609 0.743862
0.511742 0.871855 0.743465
0.656245 0.835477 0.736995
0.803311 0.856413 0.671473
0.930632 0.822995 0.573083
1.000000 0.764004 0.454353
1.000000 0.709407 0.334356
0.562493 0.936675 0.832151
0.583246 0.934936 0.833494
0.648951 0.927703 0.837278
0.709804 0.914031 0.831022
0.772946 0.905486 0.819303
0.869047 0.915221 0.771359
0.959777 0.895109 0.684688
1.000000 0.848508 0.534630
0.725490 0.960876 0.895750
0.732723 0.959960 0.896452
0.757870 0.956634 0.898802
0.779965 0.951110 0.894713
0.812985 0.941772 0.892699
0.847929 0.943175 0.878508
0.910430 0.947326 0.841764
0.980224 0.932769 0.760189
0.824887 0.976501 0.936522
0.828214 0.976104 0.937041
0.839963 0.974731 0.938659
0.848905 0.972778 0.936980
0.864439 0.968963 0.935912
0.881468 0.964416 0.933867
0.901579 0.967163 0.920592
0.941924 0.968475 0.889281
0.000000 0.159335 0.715450
0.000000 0.154940 0.720455
0.499336 0.128878 0.732540
0.727230 0.058808 0.660090
0.930266 0.180819 0.595361
1.000000 0.167178 0.476753
1.000000 0.319890 0.437324
1.000000 0.347662 0.365942
0.000000 0.243778 0.723415
0.000000 0.246708 0.727291
0.494392 0.257481 0.739742
0.731502 0.251865 0.678340
0.920256 0.293523 0.609186
1.000000 0.264103 0.492042
1.000000 0.363561 0.451820
1.000000 0.373083 0.363928
0.000000 0.451972 0.722713
0.000000 0.450111 0.718135
0.394293 0.468544 0.742092
0.710170 0.511040 0.719081
0.872435 0.509361 0.651331
0.961395 0.496742 0.574121
1.000000 0.507012 0.515343
1.000000 0.475471 0.403235
0.000000 0.736446 0.804044
0.000000 0.735500 0.800717
0.259220 0.732540 0.787839
0.652705 0.725582 0.760159
0.812131 0.708003 0.720302
0.926329 0.689265 0.670100
1.000000 0.661463 0.596674
1.000000 0.610285 0.470527
0.000000 0.914519 0.860380
0.109346 0.910735 0.856931
0.469825 0.895811 0.844327
0.679072 0.867857 0.830167
0.794888 0.863249 0.811704
0.893400 0.839536 0.771206
0.970642 0.804501 0.707485
1.000000 0.755703 0.589044
0.566369 0.944671 0.879515
0.588739 0.943450 0.880217
0.654261 0.936767 0.879484
0.740688 0.924712 0.881285
0.792538 0.907439 0.875517
0.863859 0.918334 0.854551
0.935851 0.902770 0.812406
0.999573 0.868193 0.732692
0.721523 0.964813 0.911772
0.729641 0.964050 0.912383
0.759182 0.960815 0.914488
0.801785 0.955169 0.918151
0.828702 0.947143 0.914641
0.857908 0.944274 0.908293
0.908385 0.949004 0.888365
0.964630 0.937102 0.843931
0.819028 0.978973 0.941222
0.822904 0.978576 0.941741
0.837949 0.976959 0.943755
0.860899 0.974334 0.946929
0.872892 0.971038 0.944854
0.889250 0.965942 0.943542
0.907042 0.967712 0.935332
0.941558 0.969390 0.915435
0.000000 0.252476 0.891936
0.000000 0.256962 0.893645
0.496162 0.276555 0.898100
0.792721 0.356054 0.904662
0.917235 0.361517 0.854368
1.000000 0.494423 0.802090
1.000000 0.475349 0.705104
1.000000 0.479103 0.628565
0.000000 0.324346 0.891752
0.026184 0.329381 0.893553
0.495949 0.352819 0.898009
0.784237 0.428840 0.903960
0.909026 0.434791 0.858549
0.993256 0.540917 0.809354
1.000000 0.512566 0.716304
1.000000 0.512810 0.644007
0.000000 0.492805 0.882200
0.000000 0.496590 0.884581
0.449348 0.524132 0.890745
0.743008 0.601526 0.898192
0.870970 0.623529 0.868559
0.950225 0.662928 0.828824
1.000000 0.620142 0.750820
1.000000 0.624079 0.701503
0.000000 0.687648 0.884184
0.000000 0.688167 0.882444
0.296941 0.691890 0.874968
0.660029 0.737881 0.884886
0.822629 0.781430 0.880583
0.894957 0.773648 0.848417
0.952667 0.738674 0.795895
1.000000 0.716915 0.743343
0.001892 0.869596 0.907530
0.234470 0.869291 0.906767
0.452308 0.867887 0.903471
0.643183 0.865446 0.896971
0.785916 0.861845 0.886351
0.857481 0.850462 0.868620
0.926238 0.835264 0.842100
0.996704 0.806516 0.789303
0.531182 0.951415 0.927337
0.552514 0.950622 0.927123
0.624018 0.946777 0.925505
0.719448 0.935607 0.917632
0.804288 0.919921 0.910674
0.860807 0.919280 0.905425
0.915862 0.908843 0.888762
0.968811 0.886046 0.851225
0.704860 0.970642 0.933898
0.711818 0.969848 0.933623
0.739956 0.966857 0.932830
0.788846 0.961334 0.932860
0.840208 0.953460 0.934386
0.866880 0.944182 0.931121
0.908202 0.950256 0.922148
0.952728 0.940703 0.899290
0.792813 0.983093 0.946197
0.797787 0.982605 0.946532
0.817166 0.980682 0.947997
0.849149 0.977569 0.951202
0.881498 0.973663 0.954864
0.896422 0.969116 0.952972
0.912657 0.968048 0.949004
0.941985 0.970153 0.937377
0.284367 0.380285 0.960876
0.354833 0.386358 0.961028
0.539696 0.413245 0.960815
0.749355 0.478950 0.960235
0.911681 0.599634 0.957610
0.975616 0.585901 0.929137
1.000000 0.660945 0.890105
1.000000 0.653468 0.840360
0.301854 0.429419 0.958038
0.365087 0.434852 0.958068
0.541283 0.459937 0.958068
0.743679 0.521508 0.957488
0.902281 0.630457 0.955322
0.966094 0.618433 0.928435
1.000000 0.683284 0.892210
1.000000 0.670039 0.843992
0.324987 0.569665 0.951019
0.381109 0.575006 0.950988
0.542779 0.599756 0.950958
0.726986 0.648981 0.950317
0.873350 0.728206 0.949920
0.934997 0.725246 0.929290
0.974731 0.762844 0.903288
1.000000 0.733181 0.860655
0.160006 0.697627 0.936858
0.277073 0.702296 0.936919
0.497566 0.725612 0.937896
0.694728 0.767697 0.940612
0.838773 0.821469 0.943908
0.899443 0.830808 0.932647
0.941192 0.842588 0.917784
0.984741 0.806973 0.882322
0.356146 0.834226 0.938598
0.391516 0.834745 0.937957
0.502190 0.836667 0.935241
0.636774 0.840421 0.930022
0.793332 0.866667 0.934234
0.875273 0.887816 0.934783
0.915099 0.880797 0.921660
0.956481 0.853605 0.893614
0.561944 0.923430 0.946654
0.579095 0.923461 0.946532
0.633387 0.922789 0.945403
0.710475 0.921752 0.943328
0.788724 0.920562 0.940185
0.859770 0.919341 0.936065
0.901701 0.912718 0.927337
0.947021 0.902129 0.912749
0.700465 0.972717 0.959167
0.708370 0.972381 0.959106
0.735866 0.970947 0.958679
0.780819 0.968627 0.957977
0.831418 0.962737 0.954131
0.878508 0.953155 0.950225
0.911101 0.952361 0.947112
0.945525 0.945312 0.937041
0.782742 0.987182 0.961517
0.786465 0.986816 0.961395
0.802457 0.985260 0.961059
0.830472 0.982513 0.960754
0.867277 0.978424 0.961120
0.904753 0.973449 0.963653
0.920134 0.968658 0.961852
0.944305 0.971496 0.956146
0.488991 0.519463 0.988983
0.516991 0.526177 0.988800
0.610742 0.548150 0.987366
0.741939 0.593896 0.984649
0.863218 0.661921 0.980560
0.949676 0.731319 0.975799
0.993835 0.715053 0.958312
1.000000 0.749599 0.929198
0.495674 0.550134 0.986297
0.523064 0.556634 0.986175
0.612512 0.576562 0.984894
0.738460 0.616815 0.982361
0.857664 0.679072 0.978607
0.943938 0.744625 0.974151
0.987793 0.726528 0.956939
1.000000 0.756954 0.928771
0.527855 0.655970 0.979583
0.549096 0.659480 0.979339
0.624781 0.673884 0.978241
0.735653 0.703975 0.976287
0.843503 0.750088 0.973480
0.926970 0.805142 0.970672
0.966644 0.790341 0.956512
0.991638 0.809110 0.934966
0.523186 0.752865 0.971069
0.546593 0.756741 0.970703
0.630884 0.775662 0.969329
0.728939 0.796506 0.968475
0.827573 0.827573 0.967498
0.908141 0.865476 0.967468
0.942535 0.859129 0.957458
0.969421 0.865721 0.943450
0.480018 0.827848 0.963897
0.495186 0.827909 0.963317
0.556695 0.830259 0.961181
0.686641 0.846433 0.960723
0.805020 0.873259 0.961669
0.889433 0.899809 0.964141
0.925811 0.902770 0.958679
0.953918 0.906767 0.951415
0.595300 0.904601 0.964721
0.606165 0.904814 0.964508
0.645258 0.905394 0.963500
0.705470 0.906249 0.961578
0.771908 0.906706 0.958343
0.864622 0.921019 0.960693
0.918273 0.933898 0.961852
0.943297 0.928435 0.954498
0.704891 0.954314 0.969177
0.711543 0.954345 0.969146
0.734432 0.954101 0.968750
0.773312 0.953826 0.968017
0.819486 0.953368 0.966827
0.866758 0.952880 0.965148
0.911192 0.952178 0.962982
0.939178 0.947509 0.957702
0.781552 0.987060 0.976684
0.785489 0.986847 0.976593
0.802090 0.985962 0.976440
0.828977 0.984375 0.975982
0.862608 0.982391 0.975463
0.897002 0.979065 0.973724
0.928771 0.973785 0.972534
0.947845 0.973175 0.970520
0.627802 0.659174 1.000000
0.640314 0.662715 0.999908
0.685359 0.673091 0.998657
0.759213 0.696437 0.996399
0.840452 0.730617 0.993103
0.914031 0.773831 0.989075
0.971679 0.801053 0.985779
1.000000 0.783017 0.973938
0.631525 0.676295 0.998535
0.643641 0.679561 0.998291
0.687648 0.689784 0.997162
0.758785 0.710780 0.995026
0.838376 0.742641 0.991943
0.911192 0.783291 0.988128
0.968475 0.808957 0.984955
1.000000 0.790555 0.973358
0.649012 0.738216 0.993378
0.659052 0.740230 0.993164
0.697108 0.747524 0.992218
0.761746 0.765774 0.990509
0.833890 0.789792 0.988006
0.902403 0.820218 0.985077
0.957641 0.842496 0.982574
0.990784 0.826047 0.972381
0.667689 0.809506 0.986694
0.678004 0.812009 0.986511
0.710079 0.817075 0.985870
0.765194 0.828580 0.984710
0.829923 0.845060 0.983154
0.893065 0.865843 0.981506
0.945373 0.885100 0.980133
0.973419 0.872160 0.972045
0.612360 0.843473 0.983429
0.626307 0.845457 0.983246
0.673762 0.852018 0.982361
0.755642 0.870695 0.980468
0.822354 0.884520 0.979400
0.883513 0.899229 0.978759
0.936187 0.917266 0.978698
0.959747 0.910124 0.972778
0.635096 0.897063 0.980896
0.640986 0.897063 0.980682
0.666590 0.897520 0.979828
0.712062 0.899016 0.978271
0.787320 0.905974 0.977050
0.871061 0.923461 0.977142
0.928038 0.939178 0.978271
0.952483 0.940459 0.975219
0.717464 0.943450 0.981445
0.721950 0.943481 0.981323
0.740139 0.943755 0.980896
0.772610 0.944396 0.980133
0.813138 0.945220 0.978943
0.855772 0.945830 0.977295
0.915801 0.953613 0.977752
0.950042 0.960754 0.977844
0.787015 0.973388 0.983032
0.789944 0.973388 0.982971
0.802823 0.973358 0.982818
0.826505 0.973449 0.982574
0.856870 0.973602 0.982208
0.889708 0.973816 0.981720
0.921782 0.974029 0.981048
0.949676 0.973785 0.979980
