20 Preset/Emotion Style/【3】LUT video cho PR-AE-FCPX/Emotion Style LUT (10).cube
# Created by Adobe Lightroom plugin Export LUT (1.24.0)
# www.johnrellis.com/lightroom/exportlut.htm
# Preset: 10日系情绪-秋（素材江湖）
# Color profile: E:\lut插件\exportlut.1.24\exportlut.lrplugin\color profiles\Rec709gamma2.4.icc
LUT_3D_SIZE 5
DOMAIN_MIN 0.000000 0.000000 0.000000
DOMAIN_MAX 0.903226 0.903226 0.903226
0.052338 0.109529 0.125643
0.256748 0.089082 0.135561
0.727230 0.000000 0.160342
1.000000 0.000000 0.238224
1.000000 0.224125 0.375799
0.000000 0.352331 0.195529
0.299809 0.328222 0.134768
0.776699 0.272526 0.080018
1.000000 0.247013 0.213291
1.000000 0.362676 0.371313
0.000000 0.825162 0.539910
0.338201 0.791867 0.527581
0.758846 0.797269 0.377752
1.000000 0.695857 0.000000
1.000000 0.631098 0.344945
0.614069 0.941894 0.826383
0.640894 0.937133 0.820157
0.743740 0.913909 0.818112
0.889891 0.924498 0.712917
1.000000 0.865446 0.408209
0.827359 0.975708 0.933715
0.829160 0.974975 0.931762
0.847807 0.969726 0.928649
0.879118 0.964874 0.921569
0.943481 0.968078 0.865324
0.000000 0.119722 0.351171
0.298619 0.078737 0.298192
0.739223 0.000000 0.229282
1.000000 0.004547 0.220706
1.000000 0.286625 0.364935
0.000000 0.378241 0.440528
0.323003 0.364385 0.397528
0.775692 0.330205 0.299382
1.000000 0.333623 0.195987
1.000000 0.390387 0.359991
0.000000 0.839536 0.650996
0.365545 0.814359 0.645289
0.747219 0.796750 0.557794
0.989227 0.706233 0.371771
1.000000 0.638483 0.342229
0.620691 0.943999 0.847501
0.669795 0.938720 0.851560
0.755428 0.917906 0.844266
0.883391 0.925261 0.776333
1.000000 0.872953 0.559594
0.827909 0.976410 0.936645
0.838193 0.975128 0.937987
0.855589 0.970977 0.935302
0.884489 0.965332 0.929656
0.942626 0.968658 0.885100
0.000000 0.199649 0.822477
0.395575 0.202365 0.831144
0.844877 0.227878 0.777127
1.000000 0.344732 0.625635
1.000000 0.432807 0.515221
0.000000 0.418128 0.818936
0.334813 0.433570 0.831052
0.819333 0.505089 0.802426
0.992889 0.512657 0.670527
1.000000 0.519219 0.551537
0.000000 0.818448 0.870176
0.202213 0.816648 0.864256
0.729976 0.809171 0.839078
0.902556 0.782803 0.786740
1.000000 0.725734 0.662928
0.606867 0.954742 0.908110
0.658625 0.949554 0.906401
0.786954 0.932067 0.905577
0.875334 0.928313 0.890410
0.974823 0.895262 0.821286
0.807706 0.980591 0.942992
0.823880 0.979034 0.944762
0.870298 0.973846 0.950561
0.896239 0.965759 0.947539
0.941283 0.969574 0.926268
0.342290 0.411231 0.969574
0.508354 0.434882 0.969299
0.827298 0.553429 0.966217
0.981353 0.622766 0.938109
1.000000 0.686976 0.871427
0.380285 0.551629 0.962158
0.521141 0.572137 0.961700
0.807431 0.664576 0.959472
0.952758 0.716915 0.937346
1.000000 0.741817 0.882353
0.273198 0.763394 0.942962
0.413947 0.766995 0.939574
0.748531 0.823636 0.943297
0.897124 0.864469 0.938964
0.966064 0.847501 0.907317
0.611749 0.933013 0.953613
0.650721 0.932341 0.952728
0.761227 0.930938 0.949798
0.874022 0.928985 0.944091
0.942107 0.915679 0.927153
0.782254 0.988128 0.966217
0.797391 0.986786 0.965850
0.847349 0.981842 0.964630
0.911284 0.973602 0.966094
0.945159 0.971923 0.960143
0.627802 0.659174 1.000000
0.670832 0.669306 0.999084
0.800137 0.712337 0.994873
0.930358 0.785733 0.988037
1.000000 0.783017 0.973938
0.644862 0.721065 0.994934
0.682338 0.728817 0.994049
0.797787 0.761654 0.990600
0.920867 0.818967 0.985168
0.994751 0.816770 0.972747
0.641291 0.823850 0.985412
0.689418 0.835691 0.983948
0.794705 0.858976 0.981567
0.902068 0.887907 0.979614
0.965850 0.891936 0.972198
0.658808 0.910979 0.980957
0.680415 0.911376 0.980285
0.753841 0.913481 0.977813
0.882628 0.931731 0.976989
0.951446 0.946166 0.975830
0.787015 0.973388 0.983032
0.798520 0.973358 0.982849
0.841215 0.973510 0.982422
0.897948 0.973877 0.981567
0.949676 0.973785 0.979980
