20 Preset/Emotion Style/【3】LUT video cho PR-AE-FCPX/Emotion Style LUT (1).cube
# Created by Adobe Lightroom plugin Export LUT (1.24.0)
# www.johnrellis.com/lightroom/exportlut.htm
# Preset: 01日系情绪（素材江湖）
# Color profile: E:\lut插件\exportlut.1.24\exportlut.lrplugin\color profiles\Rec709gamma2.4.icc
LUT_3D_SIZE 8
DOMAIN_MIN 0.000000 0.000000 0.000000
DOMAIN_MAX 0.903226 0.903226 0.903226
0.195651 0.222049 0.224918
0.202487 0.222690 0.225071
0.238376 0.225223 0.225589
0.325475 0.229191 0.224704
0.493477 0.231357 0.220554
0.702266 0.235935 0.210117
0.876799 0.284092 0.189853
1.000000 0.364599 0.161532
0.196384 0.227787 0.226596
0.201694 0.229160 0.226200
0.240726 0.231479 0.225589
0.328496 0.237125 0.224552
0.495277 0.243015 0.220249
0.702693 0.252506 0.209110
0.870329 0.298131 0.189090
0.995575 0.374975 0.160311
0.195712 0.256870 0.232242
0.202335 0.256016 0.233280
0.236027 0.268681 0.229496
0.354955 0.286076 0.223667
0.538079 0.297398 0.216281
0.738552 0.324468 0.199741
0.891661 0.374792 0.175875
1.000000 0.436957 0.149447
0.174655 0.341039 0.241459
0.188235 0.339330 0.242710
0.230106 0.346136 0.243320
0.353277 0.398657 0.225376
0.594263 0.454353 0.192050
0.785519 0.462715 0.173037
0.913634 0.489967 0.154238
1.000000 0.524987 0.145266
0.000000 0.495125 0.254154
0.102602 0.493233 0.255894
0.218662 0.487190 0.263706
0.345678 0.522271 0.252598
0.561975 0.581445 0.213687
0.780148 0.624445 0.162509
0.915465 0.624384 0.161166
1.000000 0.620294 0.184756
0.153994 0.647608 0.297551
0.195163 0.648737 0.300908
0.291295 0.643671 0.309331
0.405219 0.641901 0.320378
0.566827 0.677180 0.306004
0.748470 0.716396 0.283787
0.914794 0.751431 0.269627
1.000000 0.741512 0.298985
0.418769 0.766384 0.408484
0.431312 0.765988 0.410864
0.473091 0.762234 0.417487
0.539483 0.755764 0.431464
0.630304 0.766049 0.437507
0.747280 0.792844 0.436194
0.869718 0.823270 0.433143
0.992523 0.851408 0.442634
0.617639 0.872709 0.565179
0.622705 0.872282 0.566339
0.643946 0.870787 0.572076
0.681941 0.868345 0.583856
0.724239 0.861204 0.592432
0.786374 0.881010 0.596979
0.860258 0.901396 0.601678
0.942443 0.918456 0.603235
0.196841 0.222843 0.230259
0.202274 0.223484 0.230320
0.236332 0.223789 0.230564
0.318608 0.230167 0.232883
0.481849 0.230808 0.230472
0.689998 0.231388 0.221927
0.860807 0.271611 0.206088
0.989136 0.351812 0.183169
0.195529 0.229221 0.231601
0.203098 0.230076 0.232395
0.238529 0.232975 0.233066
0.324895 0.238041 0.233188
0.489509 0.241917 0.230228
0.695369 0.247868 0.220737
0.860075 0.288365 0.204562
0.986755 0.364324 0.181521
0.197421 0.260990 0.238804
0.204959 0.260258 0.239780
0.237552 0.269505 0.237858
0.353643 0.282750 0.233494
0.529595 0.294224 0.227268
0.725246 0.316625 0.214145
0.876341 0.361578 0.195590
0.995483 0.426062 0.174380
0.174411 0.344610 0.248661
0.188815 0.343206 0.249912
0.232975 0.345037 0.252903
0.347692 0.391638 0.237491
0.575128 0.438209 0.212070
0.768490 0.444984 0.197177
0.898039 0.476753 0.180911
1.000000 0.516014 0.172030
0.000000 0.498421 0.264103
0.106996 0.496101 0.265721
0.222324 0.488930 0.273014
0.343603 0.516594 0.265965
0.553185 0.573907 0.232090
0.771023 0.616358 0.191592
0.908904 0.617426 0.190341
1.000000 0.616358 0.208713
0.156954 0.646754 0.307622
0.193942 0.645655 0.309697
0.290196 0.640925 0.317723
0.402625 0.636805 0.330846
0.562524 0.673182 0.319005
0.745083 0.713710 0.301061
0.911131 0.748318 0.290837
1.000000 0.738735 0.316045
0.415808 0.764248 0.413916
0.425879 0.762936 0.414679
0.468025 0.759091 0.420905
0.535790 0.752987 0.434974
0.627100 0.762783 0.443824
0.744198 0.789883 0.443275
0.866575 0.819883 0.440040
0.989868 0.848234 0.449226
0.614099 0.870603 0.565484
0.620203 0.870634 0.567498
0.641474 0.869047 0.572869
0.679713 0.866606 0.584619
0.728206 0.862791 0.601312
0.787778 0.881315 0.603784
0.860197 0.900816 0.606714
0.942199 0.918029 0.608545
0.199924 0.224643 0.256901
0.207523 0.224949 0.257450
0.238407 0.227481 0.259892
0.317693 0.234562 0.268406
0.498451 0.201022 0.263828
0.695155 0.199863 0.262974
0.860380 0.250950 0.259586
0.989471 0.337743 0.251377
0.199771 0.233005 0.260533
0.207980 0.233677 0.260990
0.240513 0.236454 0.262852
0.324834 0.241306 0.270024
0.500572 0.214572 0.262211
0.692531 0.230838 0.265110
0.859648 0.270512 0.258824
0.987732 0.352300 0.250340
0.190951 0.268772 0.268101
0.200687 0.269963 0.269139
0.244999 0.274784 0.272923
0.353002 0.281590 0.273289
0.528191 0.289769 0.271702
0.722988 0.306340 0.266789
0.874052 0.350530 0.259037
0.993072 0.417273 0.252262
0.157198 0.370489 0.286198
0.180636 0.371801 0.288029
0.247379 0.368719 0.291905
0.362890 0.400824 0.287572
0.588312 0.430426 0.276738
0.766690 0.441199 0.270085
0.896208 0.474769 0.263859
1.000000 0.514977 0.264683
0.000000 0.525994 0.309239
0.099275 0.524132 0.310826
0.241978 0.517235 0.318059
0.364538 0.523919 0.324620
0.567041 0.580682 0.305821
0.774075 0.613764 0.290074
0.910185 0.611963 0.292668
1.000000 0.618128 0.306859
0.206973 0.660670 0.359838
0.237461 0.659724 0.361730
0.324468 0.654536 0.368475
0.429847 0.644892 0.382086
0.570184 0.673182 0.381262
0.746334 0.713924 0.375402
0.907836 0.745968 0.379248
1.000000 0.737545 0.399207
0.441779 0.771389 0.458534
0.451484 0.770199 0.459266
0.490455 0.765988 0.463752
0.554192 0.759274 0.474739
0.635248 0.761776 0.486732
0.747219 0.790005 0.490364
0.867735 0.821714 0.493874
0.988708 0.849882 0.509178
0.622187 0.873594 0.587640
0.626825 0.872953 0.588281
0.647578 0.871244 0.592950
0.686152 0.869291 0.604547
0.733730 0.865293 0.619623
0.791562 0.880797 0.626886
0.862455 0.901091 0.631861
0.942840 0.918669 0.635645
0.205814 0.227207 0.334112
0.217868 0.227604 0.335973
0.264866 0.229191 0.340764
0.350805 0.230686 0.350225
0.502892 0.237156 0.369421
0.725399 0.202457 0.386816
0.884154 0.107881 0.355901
0.994141 0.262913 0.350439
0.204349 0.237705 0.341650
0.217044 0.238163 0.342687
0.266911 0.239567 0.346532
0.356512 0.241886 0.355230
0.510948 0.253635 0.373968
0.728054 0.220188 0.385718
0.883665 0.145876 0.351110
0.989960 0.298955 0.354040
0.180270 0.279698 0.353674
0.195590 0.280095 0.355901
0.262608 0.284703 0.361151
0.368963 0.293278 0.368139
0.539391 0.325170 0.391180
0.739712 0.281987 0.376013
0.877073 0.319890 0.366155
0.983490 0.406470 0.370275
0.059266 0.389227 0.375128
0.122957 0.390692 0.376196
0.233890 0.397589 0.381323
0.385870 0.410346 0.391516
0.573571 0.419562 0.389410
0.742336 0.437446 0.387243
0.878202 0.469795 0.386603
0.989288 0.511528 0.390661
0.000000 0.562554 0.407874
0.000000 0.562066 0.408484
0.265873 0.561456 0.414801
0.418921 0.553796 0.425208
0.587152 0.588830 0.429145
0.775082 0.606439 0.429633
0.904509 0.607019 0.432013
1.000000 0.622889 0.438331
0.315190 0.686458 0.466743
0.343328 0.687465 0.470680
0.388525 0.683345 0.464210
0.489876 0.672999 0.473915
0.595422 0.677363 0.484443
0.753262 0.717647 0.489326
0.903258 0.743343 0.500542
1.000000 0.735500 0.512016
0.479500 0.784207 0.529290
0.489967 0.783536 0.530449
0.528466 0.780087 0.534630
0.589258 0.773678 0.542870
0.657038 0.764370 0.555016
0.754910 0.791196 0.562829
0.869657 0.823911 0.570581
0.984924 0.849332 0.588830
0.637690 0.881315 0.628412
0.642573 0.880858 0.629175
0.662379 0.879026 0.632898
0.698268 0.875944 0.640955
0.744320 0.871458 0.653193
0.797910 0.879057 0.664637
0.866148 0.900877 0.672206
0.944274 0.919829 0.679774
0.219394 0.229496 0.481209
0.238041 0.229496 0.483314
0.306767 0.228428 0.488289
0.421302 0.225284 0.497993
0.567895 0.220066 0.512779
0.723934 0.257572 0.527031
0.880674 0.373053 0.561639
0.997864 0.371527 0.549096
0.216068 0.242435 0.487617
0.235904 0.242344 0.489662
0.307744 0.241947 0.494118
0.424628 0.240696 0.501915
0.572686 0.239750 0.516320
0.727016 0.282963 0.530297
0.880278 0.387640 0.562188
0.996826 0.383948 0.547692
0.181857 0.294987 0.502068
0.209598 0.295811 0.503044
0.299107 0.298497 0.506249
0.431128 0.304692 0.513695
0.583062 0.317021 0.525505
0.730617 0.373785 0.538354
0.876860 0.434546 0.559747
0.992248 0.422858 0.537743
0.000000 0.407996 0.513024
0.115541 0.408576 0.514031
0.258000 0.412696 0.519615
0.432380 0.428565 0.530907
0.595331 0.451301 0.540887
0.738399 0.513268 0.560845
0.876036 0.497108 0.547875
0.984131 0.495308 0.521324
0.000000 0.570947 0.534386
0.000000 0.572045 0.535393
0.240604 0.575494 0.539117
0.432074 0.581262 0.546075
0.602441 0.589227 0.555932
0.746304 0.592370 0.551446
0.871397 0.602808 0.548608
0.976959 0.619562 0.549279
0.248783 0.703975 0.559350
0.283879 0.703487 0.560021
0.388281 0.700374 0.561913
0.520653 0.695583 0.569299
0.629297 0.686061 0.578332
0.756252 0.716152 0.592981
0.895354 0.732967 0.603571
0.995209 0.727291 0.608331
0.504051 0.797482 0.610315
0.514183 0.796689 0.610590
0.555749 0.794095 0.613336
0.613397 0.790677 0.615045
0.683742 0.780850 0.622461
0.759731 0.786648 0.633387
0.870481 0.823270 0.646876
0.979431 0.844053 0.663966
0.654871 0.887846 0.680446
0.656367 0.887572 0.679103
0.665370 0.886381 0.675227
0.704677 0.883940 0.683223
0.752010 0.878996 0.692836
0.802701 0.873106 0.706020
0.868132 0.897826 0.716670
0.944732 0.919005 0.727657
0.292393 0.231510 0.641260
0.313725 0.230777 0.642298
0.389075 0.228458 0.644312
0.509239 0.224063 0.649226
0.650355 0.229099 0.658106
0.779629 0.263706 0.668635
0.875486 0.370336 0.667811
0.975830 0.530785 0.697200
0.289097 0.248478 0.640497
0.309819 0.248234 0.641047
0.386297 0.246799 0.643305
0.507073 0.244938 0.648371
0.647272 0.252689 0.656275
0.776303 0.287907 0.666835
0.872343 0.389807 0.666804
0.973083 0.541314 0.697169
0.273716 0.315618 0.648920
0.298100 0.316167 0.649439
0.383948 0.318669 0.651850
0.510216 0.324163 0.654749
0.650263 0.342626 0.661128
0.775540 0.382269 0.670527
0.869902 0.471290 0.673152
0.968536 0.590509 0.705440
0.203677 0.433600 0.655634
0.239933 0.434058 0.656367
0.365576 0.446326 0.659632
0.512139 0.459846 0.664790
0.654261 0.483375 0.670863
0.773770 0.517235 0.679133
0.869078 0.581964 0.688472
0.966918 0.647242 0.716243
0.182467 0.580713 0.656641
0.225284 0.581109 0.657008
0.344091 0.582910 0.658808
0.488380 0.587945 0.662593
0.644831 0.605066 0.672847
0.765591 0.625818 0.682734
0.868650 0.673548 0.704433
0.969482 0.664546 0.696132
0.307652 0.707942 0.671046
0.334325 0.708644 0.672267
0.415930 0.708736 0.673945
0.528435 0.709499 0.677455
0.647852 0.711696 0.683131
0.768276 0.718685 0.693904
0.875273 0.720119 0.690150
0.971191 0.724636 0.687648
0.479225 0.818021 0.699123
0.492714 0.817960 0.699702
0.539239 0.816190 0.700404
0.616114 0.812772 0.702510
0.708370 0.807675 0.708583
0.785336 0.797665 0.715084
0.876280 0.826139 0.731807
0.975952 0.839841 0.744900
0.635615 0.900450 0.734188
0.641138 0.899931 0.734371
0.665583 0.898466 0.736538
0.710628 0.896330 0.742641
0.766567 0.892668 0.751675
0.815274 0.885710 0.757168
0.872068 0.893431 0.770871
0.946258 0.919371 0.787900
0.433661 0.247837 0.772732
0.450355 0.248173 0.773587
0.511437 0.248783 0.774472
0.609186 0.255253 0.776974
0.718868 0.279850 0.780209
0.822690 0.336675 0.784176
0.911559 0.410742 0.789853
0.967468 0.508721 0.776730
0.429694 0.269230 0.770657
0.446937 0.269718 0.771664
0.508080 0.270817 0.772702
0.605127 0.277592 0.774655
0.714778 0.301640 0.777615
0.818173 0.354467 0.781155
0.906889 0.423194 0.786435
0.963439 0.515679 0.773861
0.424598 0.349523 0.773922
0.441505 0.350225 0.774105
0.504173 0.353857 0.774624
0.602136 0.364691 0.776181
0.710689 0.389868 0.778378
0.812924 0.436530 0.782040
0.901732 0.493385 0.788724
0.961334 0.569940 0.780270
0.407233 0.477607 0.776455
0.425452 0.478035 0.776272
0.492317 0.482490 0.776455
0.594141 0.494575 0.778225
0.703761 0.515465 0.780697
0.805966 0.548913 0.785367
0.894408 0.586633 0.793210
0.957855 0.642786 0.790158
0.365881 0.598596 0.770748
0.385534 0.598383 0.770748
0.458869 0.600092 0.772488
0.572869 0.609033 0.777035
0.691127 0.622889 0.780850
0.796078 0.642573 0.786740
0.885832 0.668086 0.796017
0.955932 0.716732 0.804349
0.423987 0.710933 0.776699
0.438361 0.710964 0.777035
0.491157 0.710750 0.777920
0.574609 0.710658 0.779812
0.673823 0.712154 0.782559
0.791653 0.728725 0.794186
0.884367 0.750149 0.806699
0.955871 0.794278 0.827481
0.503746 0.811887 0.793240
0.514458 0.812131 0.793820
0.553216 0.812070 0.794736
0.620142 0.812528 0.796963
0.703334 0.813718 0.800259
0.791836 0.817411 0.805753
0.879820 0.825620 0.815366
0.959686 0.826230 0.809964
0.606867 0.915129 0.812528
0.613916 0.914916 0.812802
0.643183 0.914397 0.814450
0.692164 0.912627 0.816800
0.755520 0.909636 0.820737
0.825864 0.905608 0.828153
0.884550 0.898070 0.835325
0.948150 0.920745 0.854978
0.573907 0.332921 0.889220
0.584253 0.335424 0.889494
0.623224 0.343297 0.889067
0.689113 0.364019 0.889464
0.767361 0.400824 0.889708
0.845823 0.454108 0.889860
0.919463 0.517937 0.890776
0.988403 0.571191 0.893278
0.571710 0.353063 0.887724
0.582116 0.355444 0.888029
0.621393 0.363409 0.887938
0.686824 0.382788 0.888151
0.765011 0.417395 0.888487
0.843626 0.467475 0.888701
0.917418 0.526909 0.889464
0.986450 0.577142 0.891936
0.566918 0.429572 0.886473
0.576989 0.431403 0.886534
0.615808 0.438270 0.886290
0.681849 0.456764 0.887327
0.759243 0.484169 0.887297
0.837736 0.522301 0.887449
0.912230 0.569177 0.888823
0.981872 0.610437 0.891875
0.557336 0.536797 0.884642
0.567803 0.538384 0.884825
0.607202 0.543481 0.884825
0.673152 0.555322 0.885435
0.751278 0.574029 0.886198
0.830411 0.599634 0.887358
0.905943 0.632471 0.889677
0.975830 0.663996 0.893584
0.533501 0.630549 0.882963
0.544518 0.631434 0.883360
0.596063 0.640009 0.883330
0.660334 0.644282 0.884306
0.740505 0.655268 0.885496
0.821988 0.672328 0.887449
0.899687 0.696498 0.890867
0.969604 0.722530 0.896330
0.531792 0.719387 0.881163
0.539208 0.718929 0.880888
0.570947 0.717891 0.880400
0.636500 0.719265 0.882048
0.723110 0.726772 0.885954
0.815702 0.743984 0.890410
0.897032 0.765682 0.896239
0.964355 0.790951 0.903166
0.584161 0.808164 0.890227
0.590539 0.808072 0.890196
0.617060 0.807858 0.890135
0.665766 0.808316 0.890623
0.730190 0.810025 0.891478
0.803525 0.814755 0.893065
0.891539 0.835782 0.901427
0.956664 0.859892 0.910094
0.634852 0.904875 0.901732
0.639796 0.904845 0.901762
0.661097 0.905028 0.902068
0.701289 0.905791 0.903044
0.756283 0.907103 0.904509
0.820554 0.909331 0.906676
0.887327 0.913268 0.910338
0.948486 0.920500 0.917144
