20 Preset/Emotion Style/【3】LUT video cho PR-AE-FCPX/Emotion Style LUT (4).cube
# Created by Adobe Lightroom plugin Export LUT (1.24.0)
# www.johnrellis.com/lightroom/exportlut.htm
# Preset: 04日系情绪-春（素材江湖）
# Color profile: E:\lut插件\exportlut.1.24\exportlut.lrplugin\color profiles\Rec709gamma2.4.icc
LUT_3D_SIZE 5
DOMAIN_MIN 0.000000 0.000000 0.000000
DOMAIN_MAX 0.903226 0.903226 0.903226
0.003235 0.064118 0.079530
0.177279 0.077729 0.086336
0.683131 0.000000 0.020569
1.000000 0.000000 0.000000
1.000000 0.230228 0.089570
0.000000 0.302922 0.156863
0.000000 0.286473 0.073396
0.694423 0.276493 0.000000
1.000000 0.298772 0.000000
1.000000 0.386236 0.000000
0.000000 0.797910 0.452155
0.000000 0.779812 0.428901
0.541466 0.745052 0.289860
0.970855 0.728756 0.000000
1.000000 0.672480 0.000000
0.000000 0.953979 0.692470
0.000000 0.946044 0.697505
0.519585 0.924041 0.665278
0.791135 0.911528 0.606226
1.000000 0.905730 0.344579
0.624994 0.986999 0.846464
0.676692 0.983520 0.853452
0.792477 0.973541 0.872282
0.833402 0.966339 0.857206
0.901671 0.967407 0.818021
0.000000 0.093233 0.305943
0.246830 0.003723 0.304356
0.708339 0.000000 0.199619
1.000000 0.098543 0.042969
1.000000 0.318059 0.009339
0.000000 0.322301 0.391394
0.000000 0.332708 0.368719
0.714046 0.315282 0.280766
1.000000 0.353338 0.124666
1.000000 0.428687 0.000000
0.000000 0.820523 0.590387
0.000000 0.804532 0.563653
0.564202 0.746181 0.479164
0.959411 0.733242 0.326940
1.000000 0.683772 0.187686
0.000000 0.956451 0.735042
0.000000 0.948821 0.737362
0.586084 0.924926 0.726772
0.798672 0.910735 0.679469
1.000000 0.906523 0.496681
0.617517 0.988159 0.853544
0.670893 0.984588 0.859770
0.800900 0.973816 0.881712
0.842344 0.966705 0.868772
0.905333 0.967163 0.837766
0.000000 0.202701 0.752865
0.288640 0.205295 0.764309
0.878202 0.159335 0.784665
1.000000 0.214206 0.615351
1.000000 0.421759 0.506950
0.000000 0.392554 0.735103
0.000000 0.392859 0.755276
0.832792 0.467140 0.789151
1.000000 0.448035 0.644739
1.000000 0.518090 0.540520
0.000000 0.770077 0.806394
0.000000 0.770474 0.802335
0.610376 0.771389 0.783627
0.897978 0.763058 0.737209
1.000000 0.740017 0.646967
0.000000 0.967620 0.855070
0.000000 0.960510 0.851865
0.641108 0.935729 0.843290
0.829343 0.907439 0.827115
0.977844 0.908873 0.769924
0.533349 0.995300 0.876738
0.611322 0.991058 0.880980
0.780941 0.978485 0.896666
0.866392 0.968566 0.900572
0.917418 0.966461 0.886625
0.383215 0.420233 0.928313
0.524315 0.435920 0.928832
0.816434 0.520500 0.930449
1.000000 0.612482 0.929839
1.000000 0.642267 0.853635
0.335515 0.525841 0.920531
0.488502 0.539422 0.921294
0.787991 0.611353 0.923888
0.979248 0.701137 0.925658
1.000000 0.709224 0.861845
0.000000 0.723079 0.902647
0.213962 0.724453 0.899290
0.660639 0.755215 0.898680
0.913176 0.847044 0.915709
0.996368 0.832853 0.879820
0.211704 0.914519 0.921691
0.378912 0.913848 0.920806
0.650416 0.912627 0.917479
0.849729 0.914397 0.911559
0.951202 0.909819 0.895048
0.412024 1.000000 0.936553
0.500420 1.000000 0.936217
0.711727 0.989593 0.933867
0.878508 0.974273 0.936400
0.935241 0.966583 0.933349
0.689815 0.666987 0.976623
0.721462 0.674769 0.975830
0.823758 0.711147 0.973175
0.934600 0.776761 0.969085
1.000000 0.799557 0.967926
0.687434 0.707851 0.972290
0.717800 0.714504 0.971710
0.816007 0.744289 0.969574
0.925658 0.799832 0.966461
1.000000 0.823026 0.965972
0.625849 0.783719 0.963775
0.670253 0.792081 0.962829
0.792172 0.824155 0.960754
0.901854 0.858732 0.960449
0.981628 0.885801 0.962799
0.569696 0.881010 0.962646
0.602625 0.881346 0.961700
0.714229 0.885100 0.958190
0.867735 0.906889 0.956298
0.963378 0.941192 0.964538
0.625055 0.964843 0.969879
0.656092 0.964538 0.969574
0.757565 0.964416 0.968841
0.865080 0.965759 0.967559
0.947936 0.968353 0.965789
