20 Preset/Emotion Style/【3】LUT video cho PR-AE-FCPX/Emotion Style LUT (7).cube
# Created by Adobe Lightroom plugin Export LUT (1.24.0)
# www.johnrellis.com/lightroom/exportlut.htm
# Preset: 07日系情绪-夏（素材江湖）
# Color profile: E:\lut插件\exportlut.1.24\exportlut.lrplugin\color profiles\Rec709gamma2.4.icc
LUT_3D_SIZE 8
DOMAIN_MIN 0.000000 0.000000 0.000000
DOMAIN_MAX 0.903226 0.903226 0.903226
0.159243 0.133028 0.102998
0.215457 0.131746 0.106630
0.498268 0.000000 0.106264
0.867613 0.000000 0.058320
1.000000 0.000000 0.000000
1.000000 0.216251 0.037201
1.000000 0.366217 0.177310
1.000000 0.455024 0.276402
0.161410 0.186282 0.112245
0.230259 0.184054 0.101350
0.490455 0.163394 0.092012
0.843046 0.005463 0.000000
1.000000 0.178195 0.000000
1.000000 0.304753 0.000000
1.000000 0.398505 0.159670
1.000000 0.470222 0.266789
0.000000 0.532433 0.000000
0.000000 0.507195 0.000000
0.520592 0.540368 0.000000
0.843076 0.528344 0.000000
1.000000 0.506676 0.000000
1.000000 0.515160 0.000000
1.000000 0.537072 0.166873
1.000000 0.562066 0.287724
0.000000 0.814603 0.279515
0.000000 0.805417 0.275517
0.432624 0.784573 0.250645
0.820401 0.804685 0.000000
1.000000 0.766720 0.000000
1.000000 0.700313 0.000000
1.000000 0.678676 0.201511
1.000000 0.669795 0.317174
0.396857 0.905180 0.542779
0.438483 0.901854 0.540002
0.569116 0.889311 0.533745
0.736202 0.884306 0.497353
0.923369 0.886168 0.368444
1.000000 0.854063 0.169375
1.000000 0.798764 0.204074
1.000000 0.768032 0.369940
0.660212 0.937102 0.682673
0.676448 0.936645 0.685847
0.713588 0.931487 0.681392
0.773312 0.921813 0.673518
0.856138 0.923796 0.633906
0.961059 0.925139 0.552209
1.000000 0.905760 0.406287
1.000000 0.860594 0.386511
0.791043 0.957031 0.776120
0.794949 0.956634 0.776181
0.806516 0.954467 0.772427
0.829374 0.950286 0.766201
0.861631 0.947143 0.750881
0.911315 0.948913 0.715511
0.980560 0.949676 0.643702
1.000000 0.935546 0.468513
0.867887 0.971344 0.844663
0.868742 0.971191 0.844053
0.873136 0.970459 0.842191
0.882170 0.968994 0.838682
0.890288 0.965515 0.825071
0.910185 0.966247 0.806577
0.941985 0.967590 0.767147
0.994720 0.967376 0.671656
0.175998 0.141573 0.156161
0.229435 0.132906 0.153841
0.488716 0.000000 0.126345
0.827695 0.000000 0.000000
1.000000 0.141207 0.000000
1.000000 0.288396 0.000000
1.000000 0.382666 0.152804
1.000000 0.454047 0.257694
0.166110 0.189822 0.182528
0.245853 0.187655 0.174594
0.500145 0.175723 0.145052
0.826352 0.201328 0.000000
1.000000 0.281224 0.000000
1.000000 0.352972 0.000000
1.000000 0.415229 0.140963
1.000000 0.471626 0.252049
0.000000 0.544335 0.262058
0.000000 0.527611 0.204562
0.527489 0.537591 0.083406
0.834409 0.518242 0.000000
1.000000 0.517632 0.000000
1.000000 0.522881 0.000000
1.000000 0.534813 0.131960
1.000000 0.556664 0.267247
0.000000 0.806729 0.398474
0.000000 0.801236 0.356939
0.446052 0.774685 0.346319
0.805173 0.791714 0.179568
0.987121 0.751949 0.000000
1.000000 0.691432 0.000000
1.000000 0.669581 0.156466
1.000000 0.662257 0.293462
0.453864 0.901579 0.580957
0.464912 0.899168 0.568414
0.580896 0.886229 0.559442
0.734676 0.878355 0.527062
0.916136 0.880522 0.419898
1.000000 0.849638 0.281254
1.000000 0.795254 0.172824
1.000000 0.764126 0.355291
0.669337 0.934630 0.693568
0.675654 0.933715 0.690730
0.712978 0.928649 0.686793
0.773251 0.919219 0.680201
0.855161 0.921050 0.647242
0.958282 0.923430 0.579187
1.000000 0.904784 0.457160
1.000000 0.858824 0.376471
0.790860 0.955627 0.778286
0.792538 0.954986 0.776516
0.804013 0.952728 0.772610
0.827878 0.948608 0.767239
0.861570 0.945434 0.755123
0.910674 0.947417 0.722316
0.978576 0.948180 0.655055
1.000000 0.934325 0.499519
0.866728 0.970733 0.844633
0.868437 0.970642 0.844877
0.872740 0.969848 0.842863
0.881956 0.968414 0.839628
0.895048 0.965972 0.833066
0.912627 0.966186 0.813962
0.942504 0.967315 0.775021
0.993622 0.967163 0.686519
0.164553 0.161563 0.422889
0.277348 0.145266 0.440528
0.585473 0.000000 0.457984
0.892088 0.000000 0.380652
1.000000 0.214786 0.298283
1.000000 0.389776 0.222263
1.000000 0.455116 0.151522
1.000000 0.496254 0.267643
0.172519 0.231876 0.428321
0.273686 0.225498 0.450111
0.597772 0.183017 0.476997
0.879606 0.145266 0.389502
1.000000 0.338140 0.318669
1.000000 0.438819 0.243809
1.000000 0.477424 0.141146
1.000000 0.510613 0.263188
0.000000 0.530205 0.527825
0.000000 0.532921 0.523217
0.552575 0.539940 0.499336
0.832090 0.553948 0.457343
0.999420 0.566461 0.393347
1.000000 0.575128 0.312291
1.000000 0.570214 0.172580
1.000000 0.578729 0.274571
0.000000 0.828092 0.620935
0.275578 0.821500 0.616724
0.558648 0.796048 0.578882
0.815640 0.795682 0.543053
0.963867 0.762173 0.502861
1.000000 0.725704 0.444739
1.000000 0.696559 0.333776
1.000000 0.674647 0.305760
0.602869 0.899535 0.700465
0.633112 0.896361 0.700740
0.666316 0.889128 0.670680
0.774044 0.875334 0.657923
0.914336 0.882414 0.615747
1.000000 0.855711 0.554437
1.000000 0.812009 0.491249
1.000000 0.768307 0.362829
0.757259 0.930175 0.766201
0.757839 0.929839 0.761959
0.760586 0.927642 0.743648
0.805173 0.919097 0.736294
0.867643 0.918486 0.718288
0.953368 0.922759 0.681453
1.000000 0.907164 0.615045
1.000000 0.865660 0.505791
0.832273 0.953704 0.818540
0.831327 0.953429 0.815518
0.831174 0.952209 0.805509
0.849332 0.948363 0.799832
0.875822 0.943908 0.790707
0.917052 0.946685 0.768765
0.975128 0.948669 0.726375
1.000000 0.936553 0.630488
0.883787 0.969848 0.864408
0.883238 0.969726 0.862730
0.883848 0.969390 0.858335
0.892821 0.968170 0.856413
0.904326 0.965911 0.850828
0.920348 0.965637 0.837736
0.946105 0.967010 0.808164
0.990143 0.967193 0.743160
0.208988 0.222690 0.703853
0.336217 0.220310 0.713497
0.644984 0.208499 0.741024
0.928527 0.219364 0.746914
1.000000 0.449653 0.662257
1.000000 0.482155 0.571008
1.000000 0.585870 0.547265
1.000000 0.568292 0.437110
0.246189 0.322118 0.707332
0.355169 0.328130 0.714473
0.643061 0.354620 0.740169
0.917296 0.388617 0.749050
1.000000 0.521111 0.671290
1.000000 0.533928 0.586481
1.000000 0.609796 0.559258
1.000000 0.587091 0.449836
0.196414 0.537591 0.680720
0.308629 0.543145 0.679957
0.595514 0.591089 0.717617
0.864225 0.638514 0.742611
0.970672 0.670222 0.694423
1.000000 0.691371 0.657588
1.000000 0.697688 0.615137
1.000000 0.657801 0.503929
0.304601 0.783810 0.756130
0.395270 0.783413 0.754330
0.611444 0.783658 0.748592
0.813382 0.785763 0.738521
0.924681 0.787503 0.722560
0.994202 0.784726 0.698482
1.000000 0.772183 0.656184
1.000000 0.735988 0.560967
0.612238 0.911894 0.801572
0.641657 0.908782 0.799283
0.737942 0.897368 0.792203
0.826871 0.880949 0.776455
0.912596 0.882902 0.766110
0.973846 0.865995 0.744350
1.000000 0.844053 0.711421
1.000000 0.815549 0.636835
0.783780 0.934691 0.821805
0.796445 0.934142 0.824033
0.828458 0.929290 0.824552
0.852811 0.923430 0.812161
0.890501 0.917510 0.803616
0.950042 0.923735 0.789609
1.000000 0.912108 0.757046
1.000000 0.883940 0.705287
0.857542 0.954223 0.855833
0.862119 0.953735 0.856779
0.878569 0.951568 0.859922
0.879454 0.950072 0.845853
0.898711 0.945068 0.839658
0.927794 0.946471 0.828855
0.971496 0.949371 0.807401
1.000000 0.939574 0.756863
0.908751 0.969390 0.894774
0.909606 0.969238 0.894530
0.909026 0.969024 0.890105
0.909209 0.968566 0.882261
0.918303 0.966522 0.877684
0.930999 0.964996 0.869749
0.951720 0.966674 0.852384
0.986084 0.967437 0.814176
0.425269 0.397803 0.833036
0.481361 0.408270 0.835813
0.655146 0.443122 0.843595
0.874937 0.518883 0.858396
1.000000 0.570672 0.855528
1.000000 0.664759 0.790127
1.000000 0.683711 0.740627
1.000000 0.695216 0.698207
0.456031 0.481178 0.830045
0.505852 0.490089 0.832822
0.664302 0.519615 0.840696
0.868528 0.579950 0.855070
0.999512 0.619715 0.854398
1.000000 0.693935 0.794888
1.000000 0.703426 0.747219
1.000000 0.713466 0.708553
0.498939 0.632715 0.812314
0.541772 0.640345 0.815488
0.674372 0.663325 0.825895
0.847776 0.706172 0.844022
0.965362 0.732906 0.849363
0.998291 0.769131 0.808316
1.000000 0.759518 0.766842
1.000000 0.771756 0.744289
0.530907 0.750759 0.809751
0.562005 0.752346 0.808347
0.665461 0.760311 0.803281
0.824277 0.797726 0.826688
0.931243 0.827115 0.846464
0.970764 0.832944 0.822904
1.000000 0.826871 0.798398
1.000000 0.817838 0.768093
0.658900 0.868620 0.845975
0.679255 0.868742 0.845731
0.747005 0.869169 0.844266
0.832547 0.870756 0.841764
0.903746 0.872953 0.837675
0.950011 0.873350 0.830228
0.990143 0.870359 0.816709
1.000000 0.856596 0.784482
0.768917 0.939574 0.874662
0.778805 0.938842 0.874296
0.812436 0.934020 0.870085
0.860685 0.926055 0.863127
0.901854 0.916625 0.852537
0.945769 0.920897 0.851530
0.981872 0.914336 0.840421
1.000000 0.899199 0.815122
0.848997 0.958007 0.882444
0.852384 0.957397 0.882109
0.867094 0.955200 0.881498
0.894835 0.951507 0.883116
0.913390 0.947509 0.876677
0.934356 0.944579 0.870848
0.968627 0.948943 0.862821
1.000000 0.941131 0.836881
0.891661 0.971832 0.899596
0.894499 0.971496 0.900237
0.905791 0.970214 0.903044
0.925353 0.968444 0.909697
0.929473 0.967346 0.902251
0.939940 0.964721 0.897276
0.956268 0.965972 0.888334
0.982879 0.967285 0.869169
0.600092 0.584131 0.890562
0.624933 0.589624 0.891295
0.710323 0.607965 0.893065
0.835966 0.645441 0.898314
0.952178 0.699855 0.906950
1.000000 0.723690 0.902922
1.000000 0.766812 0.855375
1.000000 0.785885 0.827939
0.616571 0.619318 0.885679
0.637812 0.622919 0.886198
0.716732 0.637934 0.888701
0.834073 0.669001 0.894347
0.946624 0.717342 0.903746
1.000000 0.738643 0.900694
1.000000 0.776944 0.855955
1.000000 0.792264 0.829374
0.673945 0.716793 0.877989
0.689387 0.718868 0.878660
0.749477 0.729366 0.881926
0.839628 0.748470 0.887755
0.933684 0.783566 0.899016
0.994263 0.798611 0.898985
1.000000 0.821500 0.865354
1.000000 0.824216 0.841825
0.689296 0.782223 0.863066
0.705989 0.785061 0.863920
0.770047 0.799863 0.869261
0.850675 0.823819 0.880827
0.923186 0.849668 0.895323
0.972656 0.862303 0.900298
0.991119 0.872923 0.881437
1.000000 0.864469 0.860349
0.735134 0.847410 0.872770
0.745541 0.848173 0.872282
0.783871 0.851408 0.870481
0.838285 0.857603 0.867369
0.906157 0.878721 0.882475
0.956054 0.895872 0.897032
0.978851 0.897673 0.885740
1.000000 0.889250 0.868070
0.798703 0.910185 0.894804
0.806455 0.910765 0.895201
0.829618 0.911284 0.894682
0.865263 0.912474 0.893889
0.904295 0.914275 0.892668
0.942229 0.917540 0.892363
0.970489 0.918914 0.889067
0.996582 0.915831 0.878843
0.849271 0.959930 0.920165
0.853635 0.959930 0.920378
0.867765 0.959442 0.920226
0.891569 0.958068 0.919188
0.919738 0.953582 0.914397
0.943267 0.947753 0.907286
0.967620 0.949859 0.905150
0.990631 0.944732 0.894774
0.886503 0.974853 0.922423
0.888396 0.974548 0.922240
0.897276 0.973510 0.922240
0.913634 0.971801 0.922942
0.934966 0.969238 0.925078
0.949248 0.966979 0.923186
0.961181 0.965759 0.919036
0.981140 0.967864 0.911589
0.716976 0.695949 0.921355
0.729488 0.699641 0.921904
0.770626 0.707820 0.922545
0.838193 0.725246 0.924590
0.912688 0.750759 0.928008
0.980255 0.785092 0.933562
1.000000 0.795010 0.929747
1.000000 0.816861 0.891875
0.722133 0.709163 0.917784
0.734554 0.712978 0.918517
0.773373 0.720119 0.919432
0.837034 0.734524 0.921477
0.909972 0.757687 0.925200
0.976989 0.789273 0.930968
1.000000 0.796811 0.927092
1.000000 0.816342 0.889433
0.761685 0.768246 0.913512
0.769284 0.769436 0.913817
0.798306 0.773800 0.914794
0.848966 0.784421 0.917388
0.909331 0.801602 0.921721
0.968261 0.827146 0.928832
1.000000 0.834714 0.927214
1.000000 0.849302 0.897581
0.789639 0.819883 0.907500
0.797086 0.821592 0.907683
0.827634 0.830808 0.909270
0.865843 0.839933 0.913146
0.911986 0.853086 0.918853
0.959380 0.872923 0.927825
0.992126 0.879362 0.928771
1.000000 0.885832 0.907927
0.788540 0.852323 0.899992
0.792569 0.852232 0.899077
0.814267 0.855131 0.897856
0.860288 0.866911 0.903746
0.908049 0.883146 0.912932
0.950042 0.899535 0.923919
0.980316 0.907530 0.928374
0.993133 0.913603 0.917144
0.821134 0.896147 0.912810
0.825559 0.896635 0.912749
0.841703 0.898161 0.912230
0.868315 0.900908 0.911131
0.899596 0.904540 0.908995
0.941466 0.919799 0.920439
0.972503 0.932708 0.931731
0.986755 0.933410 0.924437
0.858000 0.938750 0.930144
0.861540 0.939086 0.930419
0.872618 0.939635 0.930358
0.892241 0.940917 0.930480
0.916045 0.942535 0.930297
0.941131 0.944671 0.930175
0.964691 0.947265 0.930358
0.982940 0.948028 0.927947
0.884977 0.974151 0.947784
0.887297 0.974090 0.947814
0.897307 0.973907 0.948119
0.912627 0.973388 0.948089
0.931518 0.972900 0.948150
0.950927 0.970459 0.945769
0.966705 0.967681 0.943053
0.980377 0.968719 0.940948
0.793393 0.768124 0.942077
0.799069 0.769741 0.942290
0.818051 0.772122 0.942351
0.854307 0.780270 0.943297
0.900145 0.792294 0.944854
0.948730 0.808621 0.947265
0.994629 0.830747 0.951049
1.000000 0.832334 0.948272
0.796384 0.775143 0.940398
0.801938 0.776699 0.940642
0.820829 0.779629 0.940978
0.855314 0.786679 0.941924
0.899901 0.797879 0.943633
0.947601 0.813504 0.946197
0.992981 0.834073 0.950103
1.000000 0.834562 0.947265
0.815732 0.806943 0.937194
0.819760 0.807675 0.937377
0.834989 0.809537 0.937743
0.865843 0.817380 0.939483
0.903532 0.825711 0.941344
0.945464 0.837797 0.944182
0.986908 0.855528 0.948699
1.000000 0.855192 0.946502
0.837919 0.844663 0.933410
0.843656 0.847135 0.933715
0.855375 0.848875 0.934417
0.878538 0.853941 0.936156
0.909270 0.861326 0.938781
0.944060 0.871611 0.942473
0.979248 0.886046 0.947784
1.000000 0.886046 0.946777
0.829191 0.863645 0.928740
0.834073 0.865049 0.929198
0.849912 0.868681 0.930114
0.882536 0.880156 0.932769
0.911376 0.888548 0.936126
0.941375 0.897337 0.940551
0.972381 0.910155 0.946929
0.995117 0.912963 0.947784
0.836912 0.892332 0.931029
0.838926 0.892302 0.930663
0.848875 0.893065 0.929564
0.868711 0.895811 0.928161
0.901884 0.904143 0.931823
0.939269 0.919554 0.940002
0.967864 0.932830 0.948241
0.987243 0.938964 0.951659
0.864500 0.927428 0.943053
0.866575 0.927611 0.942962
0.875181 0.928435 0.942657
0.891630 0.930510 0.942443
0.912963 0.933623 0.942138
0.936187 0.937865 0.941863
0.963836 0.948730 0.948974
0.982300 0.956420 0.955016
0.890867 0.957885 0.954345
0.892363 0.957977 0.954314
0.899351 0.958495 0.954437
0.912718 0.959777 0.954894
0.929656 0.961547 0.955474
0.947723 0.963684 0.956146
0.964874 0.966003 0.956939
0.979004 0.967834 0.957305
