20 Preset/Travel Style/【2】XMP cho Photoshop - Lightroom CC/LuxPresets - Green Moody 19.xmp
<x:xmpmeta xmlns:x="adobe:ns:meta/" x:xmptk="Adobe XMP Core 5.6-c140 79.160451, 2017/05/06-01:08:21        ">
 <rdf:RDF xmlns:rdf="http://www.w3.org/1999/02/22-rdf-syntax-ns#">
  <rdf:Description rdf:about=""
    xmlns:crs="http://ns.adobe.com/camera-raw-settings/1.0/"
   crs:PresetType="Normal"
   crs:Cluster=""
   crs:UUID="73928FDBED672D458B8D9716B9B92907"
   crs:SupportsAmount="False"
   crs:SupportsColor="True"
   crs:SupportsMonochrome="True"
   crs:SupportsHighDynamicRange="True"
   crs:SupportsNormalDynamicRange="True"
   crs:SupportsSceneReferred="True"
   crs:SupportsOutputReferred="True"
   crs:CameraModelRestriction=""
   crs:Copyright=""
   crs:ContactInfo=""
   crs:Version="12.0"
   crs:ProcessVersion="6.7"
   crs:WhiteBalance="Custom"
   crs:Temperature="4885"
   crs:Tint="+3"
   crs:Saturation="-12"
   crs:Sharpness="114"
   crs:LuminanceSmoothing="0"
   crs:ColorNoiseReduction="25"
   crs:VignetteAmount="0"
   crs:ShadowTint="0"
   crs:RedHue="0"
   crs:RedSaturation="0"
   crs:GreenHue="0"
   crs:GreenSaturation="0"
   crs:BlueHue="0"
   crs:BlueSaturation="0"
   crs:Vibrance="+7"
   crs:HueAdjustmentRed="+29"
   crs:HueAdjustmentOrange="0"
   crs:HueAdjustmentYellow="0"
   crs:HueAdjustmentGreen="+40"
   crs:HueAdjustmentAqua="+29"
   crs:HueAdjustmentBlue="0"
   crs:HueAdjustmentPurple="0"
   crs:HueAdjustmentMagenta="0"
   crs:SaturationAdjustmentRed="0"
   crs:SaturationAdjustmentOrange="-14"
   crs:SaturationAdjustmentYellow="-36"
   crs:SaturationAdjustmentGreen="-100"
   crs:SaturationAdjustmentAqua="-18"
   crs:SaturationAdjustmentBlue="-49"
   crs:SaturationAdjustmentPurple="0"
   crs:SaturationAdjustmentMagenta="+8"
   crs:LuminanceAdjustmentRed="0"
   crs:LuminanceAdjustmentOrange="0"
   crs:LuminanceAdjustmentYellow="0"
   crs:LuminanceAdjustmentGreen="-36"
   crs:LuminanceAdjustmentAqua="0"
   crs:LuminanceAdjustmentBlue="0"
   crs:LuminanceAdjustmentPurple="0"
   crs:LuminanceAdjustmentMagenta="0"
   crs:SplitToningShadowHue="0"
   crs:SplitToningShadowSaturation="0"
   crs:SplitToningHighlightHue="219"
   crs:SplitToningHighlightSaturation="6"
   crs:SplitToningBalance="+100"
   crs:ParametricShadows="0"
   crs:ParametricDarks="0"
   crs:ParametricLights="0"
   crs:ParametricHighlights="0"
   crs:ParametricShadowSplit="25"
   crs:ParametricMidtoneSplit="50"
   crs:ParametricHighlightSplit="75"
   crs:SharpenRadius="+2.5"
   crs:SharpenDetail="68"
   crs:SharpenEdgeMasking="82"
   crs:PostCropVignetteAmount="-6"
   crs:PostCropVignetteMidpoint="50"
   crs:PostCropVignetteFeather="50"
   crs:PostCropVignetteRoundness="0"
   crs:PostCropVignetteStyle="1"
   crs:PostCropVignetteHighlightContrast="0"
   crs:GrainAmount="0"
   crs:ColorNoiseReductionDetail="50"
   crs:ColorNoiseReductionSmoothness="50"
   crs:LensManualDistortionAmount="0"
   crs:AutoLateralCA="0"
   crs:Exposure2012="0.00"
   crs:Contrast2012="+20"
   crs:Highlights2012="-31"
   crs:Shadows2012="+13"
   crs:Whites2012="+10"
   crs:Blacks2012="-16"
   crs:Clarity2012="0"
   crs:DefringePurpleAmount="0"
   crs:DefringePurpleHueLo="30"
   crs:DefringePurpleHueHi="70"
   crs:DefringeGreenAmount="0"
   crs:DefringeGreenHueLo="40"
   crs:DefringeGreenHueHi="60"
   crs:Dehaze="-6"
   crs:ConvertToGrayscale="False"
   crs:OverrideLookVignette="True"
   crs:ToneCurveName2012="Custom"
   crs:CameraProfile="Adobe Standard"
   crs:HasSettings="True">
   <crs:Name>
    <rdf:Alt>
     <rdf:li xml:lang="x-default">LuxPresets - Green Moody 19</rdf:li>
    </rdf:Alt>
   </crs:Name>
   <crs:ShortName>
    <rdf:Alt>
     <rdf:li xml:lang="x-default"/>
    </rdf:Alt>
   </crs:ShortName>
   <crs:SortName>
    <rdf:Alt>
     <rdf:li xml:lang="x-default"/>
    </rdf:Alt>
   </crs:SortName>
   <crs:Group>
    <rdf:Alt>
     <rdf:li xml:lang="x-default">LuxPresets - Green Moody</rdf:li>
    </rdf:Alt>
   </crs:Group>
   <crs:Description>
    <rdf:Alt>
     <rdf:li xml:lang="x-default"/>
    </rdf:Alt>
   </crs:Description>
   <crs:ToneCurvePV2012>
    <rdf:Seq>
     <rdf:li>3, 23</rdf:li>
     <rdf:li>55, 57</rdf:li>
     <rdf:li>107, 135</rdf:li>
     <rdf:li>255, 255</rdf:li>
    </rdf:Seq>
   </crs:ToneCurvePV2012>
   <crs:ToneCurvePV2012Red>
    <rdf:Seq>
     <rdf:li>0, 0</rdf:li>
     <rdf:li>37, 35</rdf:li>
     <rdf:li>176, 179</rdf:li>
     <rdf:li>255, 255</rdf:li>
    </rdf:Seq>
   </crs:ToneCurvePV2012Red>
   <crs:ToneCurvePV2012Green>
    <rdf:Seq>
     <rdf:li>0, 0</rdf:li>
     <rdf:li>56, 57</rdf:li>
     <rdf:li>183, 188</rdf:li>
     <rdf:li>255, 255</rdf:li>
    </rdf:Seq>
   </crs:ToneCurvePV2012Green>
   <crs:ToneCurvePV2012Blue>
    <rdf:Seq>
     <rdf:li>0, 0</rdf:li>
     <rdf:li>53, 54</rdf:li>
     <rdf:li>162, 171</rdf:li>
     <rdf:li>255, 255</rdf:li>
    </rdf:Seq>
   </crs:ToneCurvePV2012Blue>
   <crs:Look
    crs:Name=""/>
  </rdf:Description>
 </rdf:RDF>
</x:xmpmeta>
