20 Preset/Travel Style/【2】XMP cho Photoshop - Lightroom CC/LuxPresets - Green Moody 24.xmp
<x:xmpmeta xmlns:x="adobe:ns:meta/" x:xmptk="Adobe XMP Core 5.6-c140 79.160451, 2017/05/06-01:08:21        ">
 <rdf:RDF xmlns:rdf="http://www.w3.org/1999/02/22-rdf-syntax-ns#">
  <rdf:Description rdf:about=""
    xmlns:crs="http://ns.adobe.com/camera-raw-settings/1.0/"
   crs:PresetType="Normal"
   crs:Cluster=""
   crs:UUID="86DEACEDFB704C488E9C42C87EFA4ABC"
   crs:SupportsAmount="False"
   crs:SupportsColor="True"
   crs:SupportsMonochrome="True"
   crs:SupportsHighDynamicRange="True"
   crs:SupportsNormalDynamicRange="True"
   crs:SupportsSceneReferred="True"
   crs:SupportsOutputReferred="True"
   crs:CameraModelRestriction=""
   crs:Copyright=""
   crs:ContactInfo=""
   crs:Version="12.0"
   crs:ProcessVersion="6.7"
   crs:WhiteBalance="As Shot"
   crs:Saturation="0"
   crs:Sharpness="128"
   crs:LuminanceSmoothing="0"
   crs:ColorNoiseReduction="0"
   crs:VignetteAmount="0"
   crs:ShadowTint="0"
   crs:RedHue="0"
   crs:RedSaturation="0"
   crs:GreenHue="0"
   crs:GreenSaturation="0"
   crs:BlueHue="0"
   crs:BlueSaturation="0"
   crs:Vibrance="0"
   crs:HueAdjustmentRed="+3"
   crs:HueAdjustmentOrange="+2"
   crs:HueAdjustmentYellow="-25"
   crs:HueAdjustmentGreen="-77"
   crs:HueAdjustmentAqua="0"
   crs:HueAdjustmentBlue="-12"
   crs:HueAdjustmentPurple="+62"
   crs:HueAdjustmentMagenta="+61"
   crs:SaturationAdjustmentRed="-28"
   crs:SaturationAdjustmentOrange="-30"
   crs:SaturationAdjustmentYellow="-37"
   crs:SaturationAdjustmentGreen="-14"
   crs:SaturationAdjustmentAqua="-16"
   crs:SaturationAdjustmentBlue="-59"
   crs:SaturationAdjustmentPurple="-49"
   crs:SaturationAdjustmentMagenta="-6"
   crs:LuminanceAdjustmentRed="+7"
   crs:LuminanceAdjustmentOrange="+32"
   crs:LuminanceAdjustmentYellow="+2"
   crs:LuminanceAdjustmentGreen="+5"
   crs:LuminanceAdjustmentAqua="+3"
   crs:LuminanceAdjustmentBlue="+4"
   crs:LuminanceAdjustmentPurple="+3"
   crs:LuminanceAdjustmentMagenta="+14"
   crs:SplitToningShadowHue="331"
   crs:SplitToningShadowSaturation="0"
   crs:SplitToningHighlightHue="229"
   crs:SplitToningHighlightSaturation="24"
   crs:SplitToningBalance="0"
   crs:ParametricShadows="0"
   crs:ParametricDarks="0"
   crs:ParametricLights="0"
   crs:ParametricHighlights="0"
   crs:ParametricShadowSplit="25"
   crs:ParametricMidtoneSplit="50"
   crs:ParametricHighlightSplit="75"
   crs:SharpenRadius="+2.9"
   crs:SharpenDetail="86"
   crs:SharpenEdgeMasking="89"
   crs:PostCropVignetteAmount="0"
   crs:GrainAmount="12"
   crs:GrainSize="29"
   crs:GrainFrequency="61"
   crs:LensManualDistortionAmount="0"
   crs:AutoLateralCA="0"
   crs:Exposure2012="0.00"
   crs:Contrast2012="+11"
   crs:Highlights2012="-1"
   crs:Shadows2012="+34"
   crs:Whites2012="+3"
   crs:Blacks2012="+17"
   crs:Clarity2012="0"
   crs:DefringePurpleAmount="0"
   crs:DefringePurpleHueLo="30"
   crs:DefringePurpleHueHi="70"
   crs:DefringeGreenAmount="0"
   crs:DefringeGreenHueLo="40"
   crs:DefringeGreenHueHi="60"
   crs:Dehaze="0"
   crs:ConvertToGrayscale="False"
   crs:OverrideLookVignette="False"
   crs:ToneCurveName2012="Custom"
   crs:CameraProfile="Adobe Standard"
   crs:HasSettings="True">
   <crs:Name>
    <rdf:Alt>
     <rdf:li xml:lang="x-default">LuxPresets - Green Moody 24</rdf:li>
    </rdf:Alt>
   </crs:Name>
   <crs:ShortName>
    <rdf:Alt>
     <rdf:li xml:lang="x-default"/>
    </rdf:Alt>
   </crs:ShortName>
   <crs:SortName>
    <rdf:Alt>
     <rdf:li xml:lang="x-default"/>
    </rdf:Alt>
   </crs:SortName>
   <crs:Group>
    <rdf:Alt>
     <rdf:li xml:lang="x-default">LuxPresets - Green Moody</rdf:li>
    </rdf:Alt>
   </crs:Group>
   <crs:Description>
    <rdf:Alt>
     <rdf:li xml:lang="x-default"/>
    </rdf:Alt>
   </crs:Description>
   <crs:ToneCurvePV2012>
    <rdf:Seq>
     <rdf:li>0, 37</rdf:li>
     <rdf:li>39, 46</rdf:li>
     <rdf:li>67, 66</rdf:li>
     <rdf:li>123, 124</rdf:li>
     <rdf:li>175, 182</rdf:li>
     <rdf:li>255, 254</rdf:li>
    </rdf:Seq>
   </crs:ToneCurvePV2012>
   <crs:ToneCurvePV2012Red>
    <rdf:Seq>
     <rdf:li>0, 0</rdf:li>
     <rdf:li>59, 49</rdf:li>
     <rdf:li>127, 124</rdf:li>
     <rdf:li>180, 184</rdf:li>
     <rdf:li>255, 255</rdf:li>
    </rdf:Seq>
   </crs:ToneCurvePV2012Red>
   <crs:ToneCurvePV2012Green>
    <rdf:Seq>
     <rdf:li>0, 0</rdf:li>
     <rdf:li>52, 39</rdf:li>
     <rdf:li>125, 124</rdf:li>
     <rdf:li>180, 189</rdf:li>
     <rdf:li>255, 255</rdf:li>
    </rdf:Seq>
   </crs:ToneCurvePV2012Green>
   <crs:ToneCurvePV2012Blue>
    <rdf:Seq>
     <rdf:li>0, 0</rdf:li>
     <rdf:li>61, 42</rdf:li>
     <rdf:li>122, 116</rdf:li>
     <rdf:li>180, 188</rdf:li>
     <rdf:li>255, 255</rdf:li>
    </rdf:Seq>
   </crs:ToneCurvePV2012Blue>
   <crs:Look
    crs:Name=""/>
  </rdf:Description>
 </rdf:RDF>
</x:xmpmeta>
