20 Preset/Dark Style/【2】XMP cho Photoshop - Lightroom CC/19Tones (6)/BP 19Tones.xmp
<x:xmpmeta xmlns:x="adobe:ns:meta/" x:xmptk="Adobe XMP Core 5.6-c140 79.160451, 2017/05/06-01:08:21        ">
 <rdf:RDF xmlns:rdf="http://www.w3.org/1999/02/22-rdf-syntax-ns#">
  <rdf:Description rdf:about=""
    xmlns:crs="http://ns.adobe.com/camera-raw-settings/1.0/"
   crs:PresetType="Normal"
   crs:Cluster=""
   crs:UUID="79684A3164762025F4A0037C500FD6C1"
   crs:SupportsAmount="False"
   crs:SupportsColor="True"
   crs:SupportsMonochrome="True"
   crs:SupportsHighDynamicRange="True"
   crs:SupportsNormalDynamicRange="True"
   crs:SupportsSceneReferred="True"
   crs:SupportsOutputReferred="True"
   crs:CameraModelRestriction=""
   crs:Copyright=""
   crs:ContactInfo=""
   crs:Version="12.0"
   crs:ProcessVersion="6.7"
   crs:WhiteBalance="Custom"
   crs:Temperature="3966"
   crs:Tint="-4"
   crs:Saturation="-15"
   crs:Sharpness="104"
   crs:LuminanceSmoothing="0"
   crs:ColorNoiseReduction="25"
   crs:ShadowTint="0"
   crs:RedHue="-16"
   crs:RedSaturation="+31"
   crs:GreenHue="-100"
   crs:GreenSaturation="0"
   crs:BlueHue="-63"
   crs:BlueSaturation="-12"
   crs:Vibrance="0"
   crs:HueAdjustmentRed="-3"
   crs:HueAdjustmentOrange="0"
   crs:HueAdjustmentYellow="-100"
   crs:HueAdjustmentGreen="-26"
   crs:HueAdjustmentAqua="+100"
   crs:HueAdjustmentBlue="0"
   crs:HueAdjustmentPurple="+22"
   crs:HueAdjustmentMagenta="-1"
   crs:SaturationAdjustmentRed="-13"
   crs:SaturationAdjustmentOrange="-54"
   crs:SaturationAdjustmentYellow="-3"
   crs:SaturationAdjustmentGreen="-100"
   crs:SaturationAdjustmentAqua="-51"
   crs:SaturationAdjustmentBlue="-78"
   crs:SaturationAdjustmentPurple="+5"
   crs:SaturationAdjustmentMagenta="-4"
   crs:LuminanceAdjustmentRed="+15"
   crs:LuminanceAdjustmentOrange="+4"
   crs:LuminanceAdjustmentYellow="-8"
   crs:LuminanceAdjustmentGreen="-3"
   crs:LuminanceAdjustmentAqua="-6"
   crs:LuminanceAdjustmentBlue="-26"
   crs:LuminanceAdjustmentPurple="-25"
   crs:LuminanceAdjustmentMagenta="0"
   crs:SplitToningShadowHue="0"
   crs:SplitToningShadowSaturation="0"
   crs:SplitToningHighlightHue="215"
   crs:SplitToningHighlightSaturation="0"
   crs:SplitToningBalance="-1"
   crs:ParametricShadows="0"
   crs:ParametricDarks="0"
   crs:ParametricLights="0"
   crs:ParametricHighlights="0"
   crs:ParametricShadowSplit="14"
   crs:ParametricMidtoneSplit="60"
   crs:ParametricHighlightSplit="75"
   crs:SharpenRadius="+1.0"
   crs:SharpenDetail="25"
   crs:SharpenEdgeMasking="0"
   crs:PostCropVignetteAmount="0"
   crs:GrainAmount="0"
   crs:ColorNoiseReductionDetail="50"
   crs:ColorNoiseReductionSmoothness="50"
   crs:Exposure2012="+1.90"
   crs:Contrast2012="+1"
   crs:Highlights2012="-100"
   crs:Shadows2012="+100"
   crs:Whites2012="-93"
   crs:Blacks2012="-37"
   crs:Clarity2012="-10"
   crs:Dehaze="0"
   crs:ConvertToGrayscale="False"
   crs:OverrideLookVignette="False"
   crs:ToneCurveName2012="Custom"
   crs:CameraProfile="Adobe Standard"
   crs:HasSettings="True">
   <crs:Name>
    <rdf:Alt>
     <rdf:li xml:lang="x-default">BP 19Tones</rdf:li>
    </rdf:Alt>
   </crs:Name>
   <crs:ShortName>
    <rdf:Alt>
     <rdf:li xml:lang="x-default"/>
    </rdf:Alt>
   </crs:ShortName>
   <crs:SortName>
    <rdf:Alt>
     <rdf:li xml:lang="x-default"/>
    </rdf:Alt>
   </crs:SortName>
   <crs:Group>
    <rdf:Alt>
     <rdf:li xml:lang="x-default">Dark Style 6</rdf:li>
    </rdf:Alt>
   </crs:Group>
   <crs:Description>
    <rdf:Alt>
     <rdf:li xml:lang="x-default"/>
    </rdf:Alt>
   </crs:Description>
   <crs:ToneCurvePV2012>
    <rdf:Seq>
     <rdf:li>0, 36</rdf:li>
     <rdf:li>25, 45</rdf:li>
     <rdf:li>46, 51</rdf:li>
     <rdf:li>125, 149</rdf:li>
     <rdf:li>185, 232</rdf:li>
     <rdf:li>255, 184</rdf:li>
    </rdf:Seq>
   </crs:ToneCurvePV2012>
   <crs:ToneCurvePV2012Red>
    <rdf:Seq>
     <rdf:li>0, 0</rdf:li>
     <rdf:li>31, 7</rdf:li>
     <rdf:li>72, 51</rdf:li>
     <rdf:li>116, 111</rdf:li>
     <rdf:li>179, 197</rdf:li>
     <rdf:li>255, 255</rdf:li>
    </rdf:Seq>
   </crs:ToneCurvePV2012Red>
   <crs:ToneCurvePV2012Green>
    <rdf:Seq>
     <rdf:li>0, 0</rdf:li>
     <rdf:li>27, 11</rdf:li>
     <rdf:li>119, 118</rdf:li>
     <rdf:li>181, 196</rdf:li>
     <rdf:li>255, 255</rdf:li>
    </rdf:Seq>
   </crs:ToneCurvePV2012Green>
   <crs:ToneCurvePV2012Blue>
    <rdf:Seq>
     <rdf:li>0, 0</rdf:li>
     <rdf:li>21, 13</rdf:li>
     <rdf:li>80, 70</rdf:li>
     <rdf:li>116, 119</rdf:li>
     <rdf:li>183, 197</rdf:li>
     <rdf:li>255, 255</rdf:li>
    </rdf:Seq>
   </crs:ToneCurvePV2012Blue>
   <crs:Look
    crs:Name=""/>
  </rdf:Description>
 </rdf:RDF>
</x:xmpmeta>
