20 Preset/Portrait Preset/【3】LUT for PR-AE-FCPX/Film Portrait - LUT  (2).cube
# Created by Adobe Lightroom plugin Export LUT (1.24.0)
# www.johnrellis.com/lightroom/exportlut.htm
# Preset: 灰青电影-素材江湖02
# Color profile: E:\lut插件\exportlut.1.24\exportlut.lrplugin\color profiles\Rec709gamma2.4.icc
LUT_3D_SIZE 8
DOMAIN_MIN 0.000000 0.000000 0.000000
DOMAIN_MAX 0.903226 0.903226 0.903226
0.000000 0.000000 0.000000
0.116579 0.000000 0.000000
0.346044 0.094270 0.061219
0.576318 0.163851 0.127321
0.798428 0.265843 0.236851
0.932097 0.367956 0.354681
1.000000 0.462135 0.457527
1.000000 0.558068 0.557641
0.000000 0.001190 0.000000
0.027161 0.080690 0.000000
0.308659 0.147189 0.057649
0.540246 0.201450 0.125154
0.759182 0.278935 0.223056
0.896300 0.361486 0.331884
0.993378 0.449134 0.434913
1.000000 0.546715 0.541100
0.027924 0.138186 0.089113
0.054200 0.151308 0.101106
0.185428 0.214878 0.139040
0.479042 0.323522 0.181125
0.740932 0.385107 0.265721
0.887327 0.440223 0.368261
0.996490 0.518395 0.478401
1.000000 0.597742 0.575494
0.057618 0.212833 0.139925
0.093233 0.227146 0.151919
0.190341 0.299931 0.193942
0.344976 0.385443 0.271580
0.635187 0.527214 0.373419
0.873777 0.567193 0.444434
0.976806 0.604974 0.525200
1.000000 0.653376 0.601953
0.099367 0.286717 0.189395
0.118318 0.299443 0.200198
0.205509 0.364752 0.257633
0.341650 0.471504 0.303532
0.485756 0.530480 0.394537
0.684169 0.625299 0.491615
0.907622 0.690089 0.566064
1.000000 0.719783 0.631922
0.139681 0.377356 0.252476
0.158053 0.392309 0.265507
0.225772 0.439185 0.308843
0.354559 0.528038 0.385992
0.494301 0.619837 0.417365
0.611841 0.650294 0.518639
0.756374 0.725856 0.616083
0.950652 0.803738 0.681117
0.202365 0.490852 0.330266
0.205570 0.493751 0.333562
0.252628 0.522271 0.361486
0.367346 0.588464 0.431189
0.494545 0.661921 0.490822
0.635187 0.741573 0.535546
0.728450 0.762020 0.625238
0.820737 0.809079 0.713313
0.349920 0.649653 0.455818
0.351965 0.650507 0.457923
0.363043 0.655695 0.468666
0.441230 0.691981 0.517174
0.553887 0.737789 0.579400
0.655055 0.809964 0.611810
0.771908 0.863554 0.662776
0.847044 0.877409 0.745541
0.000000 0.000000 0.011353
0.085695 0.029389 0.086336
0.314366 0.008545 0.117708
0.521477 0.143313 0.166964
0.740841 0.242954 0.248356
0.878996 0.337987 0.341375
0.980224 0.430030 0.434272
1.000000 0.528679 0.533471
0.000000 0.009339 0.021485
0.076905 0.091585 0.097292
0.286503 0.132509 0.127565
0.508843 0.188602 0.171664
0.726741 0.268223 0.249119
0.866850 0.349706 0.339117
0.968597 0.431617 0.427314
1.000000 0.524590 0.524193
0.066529 0.126680 0.109102
0.095430 0.151522 0.127321
0.192905 0.217533 0.170596
0.471473 0.309331 0.211215
0.703670 0.364172 0.277043
0.852476 0.418524 0.362951
0.963928 0.486458 0.453468
1.000000 0.569818 0.551537
0.093629 0.203281 0.151461
0.111757 0.220401 0.164645
0.197116 0.292729 0.215457
0.329442 0.365698 0.274083
0.594385 0.487282 0.351751
0.828519 0.528191 0.415595
0.945037 0.569024 0.492683
1.000000 0.626032 0.577050
0.117617 0.283452 0.199710
0.133303 0.296513 0.210666
0.207706 0.356847 0.263157
0.333227 0.455421 0.310216
0.467506 0.509789 0.387671
0.667292 0.606714 0.478004
0.893492 0.672175 0.553246
1.000000 0.705074 0.619562
0.147677 0.367407 0.254246
0.161501 0.378027 0.263584
0.222385 0.423194 0.304692
0.348333 0.512169 0.384924
0.483955 0.606806 0.416480
0.604089 0.641688 0.515831
0.749935 0.717983 0.610895
0.945068 0.794614 0.673732
0.194980 0.472847 0.322240
0.195193 0.472328 0.322576
0.242954 0.502129 0.351171
0.352789 0.570916 0.419806
0.485023 0.650019 0.486152
0.625147 0.730922 0.529564
0.715999 0.749111 0.616327
0.809567 0.796658 0.700496
0.330938 0.634058 0.442023
0.336095 0.637049 0.446693
0.346441 0.641657 0.456489
0.425422 0.678218 0.505272
0.563195 0.745022 0.589563
0.658473 0.811460 0.618006
0.770687 0.861784 0.663355
0.845487 0.875456 0.744930
0.101808 0.110079 0.141207
0.122652 0.116915 0.161349
0.237613 0.172763 0.232486
0.519554 0.147921 0.301946
0.735531 0.200259 0.326818
0.868864 0.342626 0.409644
0.973999 0.450599 0.492500
1.000000 0.551690 0.578332
0.126650 0.138643 0.156832
0.138674 0.146700 0.174289
0.232853 0.189700 0.236576
0.499641 0.169833 0.287419
0.714626 0.235752 0.325658
0.854154 0.353185 0.405859
0.963317 0.450904 0.485298
1.000000 0.549187 0.571557
0.139406 0.148867 0.160250
0.157839 0.167208 0.180240
0.230167 0.241245 0.260533
0.470619 0.288823 0.297795
0.697200 0.355901 0.360815
0.844388 0.425025 0.430213
0.956268 0.500084 0.505058
1.000000 0.581872 0.585840
0.169039 0.200778 0.202457
0.179660 0.219394 0.217746
0.231235 0.292515 0.276158
0.362799 0.389227 0.350500
0.634943 0.497383 0.420722
0.822721 0.535393 0.478798
0.941344 0.583642 0.544305
1.000000 0.638849 0.611719
0.178134 0.282780 0.242649
0.188174 0.296239 0.253666
0.239811 0.354314 0.303166
0.361730 0.461372 0.381170
0.494209 0.528008 0.443915
0.689784 0.618219 0.521843
0.904204 0.676875 0.590265
1.000000 0.710323 0.644923
0.193668 0.361639 0.284764
0.203738 0.372473 0.293980
0.249699 0.416083 0.332067
0.359503 0.503258 0.411566
0.492439 0.601343 0.460121
0.611841 0.642573 0.543938
0.765805 0.726162 0.626825
0.951141 0.797055 0.693416
0.214206 0.457984 0.336919
0.222385 0.464118 0.342473
0.264225 0.495613 0.370825
0.359869 0.562799 0.434546
0.499245 0.645594 0.515435
0.633906 0.731289 0.559045
0.727138 0.756252 0.637263
0.828031 0.810666 0.719570
0.332097 0.624079 0.448585
0.332738 0.623926 0.449378
0.343053 0.628473 0.458625
0.424231 0.668727 0.509941
0.557000 0.736660 0.591852
0.664179 0.810086 0.634943
0.777768 0.865324 0.679316
0.851225 0.878965 0.757351
0.176730 0.182071 0.240146
0.192935 0.191318 0.257511
0.268162 0.219974 0.318120
0.402808 0.300694 0.395300
0.668238 0.333257 0.487312
0.839994 0.331701 0.487373
0.950286 0.418982 0.525017
1.000000 0.538201 0.603143
0.200809 0.211337 0.259403
0.212070 0.218173 0.273045
0.274113 0.243015 0.327367
0.406622 0.315770 0.403723
0.671717 0.341039 0.488502
0.836210 0.338293 0.483375
0.946014 0.431678 0.528222
1.000000 0.544762 0.604852
0.231388 0.240635 0.262119
0.245487 0.254368 0.277592
0.285496 0.293523 0.338323
0.399268 0.348486 0.413245
0.672633 0.358526 0.475410
0.829160 0.394263 0.488655
0.947021 0.504784 0.564843
1.000000 0.589075 0.628443
0.230289 0.239292 0.260685
0.242100 0.251072 0.273838
0.295323 0.303807 0.332525
0.402930 0.411261 0.443671
0.636866 0.462257 0.482307
0.794278 0.513725 0.529870
0.922332 0.575067 0.586572
1.000000 0.637171 0.643977
0.260655 0.269474 0.294469
0.270329 0.279515 0.305394
0.307103 0.338048 0.354742
0.396277 0.452674 0.447974
0.533074 0.551232 0.523186
0.732143 0.634211 0.588220
0.906188 0.677607 0.635554
0.999573 0.714321 0.680964
0.269261 0.352056 0.335241
0.278294 0.365576 0.346258
0.306859 0.407599 0.378882
0.387549 0.494392 0.451911
0.527153 0.605493 0.539178
0.637507 0.656184 0.597620
0.797604 0.742733 0.663233
0.964660 0.801602 0.728786
0.261601 0.435340 0.363409
0.269047 0.443977 0.370581
0.302068 0.479500 0.400153
0.379889 0.550408 0.461646
0.526574 0.641932 0.561883
0.649775 0.732845 0.608911
0.743069 0.765225 0.670161
0.854246 0.828061 0.744625
0.348730 0.611536 0.467262
0.350866 0.612512 0.469093
0.361639 0.617487 0.477852
0.425696 0.652094 0.519524
0.547417 0.721859 0.596826
0.671199 0.804044 0.661616
0.787503 0.869596 0.704250
0.861143 0.884977 0.778714
0.267155 0.270390 0.354040
0.279271 0.277867 0.366552
0.328038 0.301335 0.408759
0.436164 0.349950 0.477546
0.572595 0.439643 0.550195
0.745541 0.493935 0.616358
0.921874 0.484230 0.630335
1.000000 0.533288 0.649744
0.283787 0.291051 0.366552
0.294469 0.297978 0.378119
0.337621 0.319127 0.417395
0.440589 0.363256 0.484199
0.571954 0.446265 0.552178
0.746273 0.496590 0.616693
0.919524 0.489113 0.629847
1.000000 0.535485 0.648280
0.322484 0.335668 0.384405
0.327886 0.340581 0.392981
0.356329 0.360082 0.427955
0.443977 0.398749 0.496986
0.560876 0.463447 0.552514
0.741268 0.496010 0.608087
0.906706 0.500023 0.621057
1.000000 0.545892 0.642267
0.326299 0.334081 0.365515
0.336553 0.344182 0.376440
0.380682 0.386816 0.421515
0.450935 0.452888 0.503685
0.559380 0.506340 0.568811
0.756466 0.517601 0.607294
0.902098 0.528893 0.611627
1.000000 0.610132 0.666499
0.318608 0.326635 0.357519
0.328008 0.335851 0.367437
0.366155 0.372869 0.406867
0.441535 0.444892 0.481239
0.554376 0.553765 0.585657
0.732784 0.596796 0.617823
0.883696 0.639033 0.653254
0.990143 0.690242 0.698665
0.320073 0.328099 0.358984
0.327092 0.334905 0.366430
0.354681 0.361730 0.395087
0.409827 0.431678 0.456947
0.516014 0.560174 0.559045
0.648463 0.655055 0.636622
0.831388 0.745693 0.700618
0.972229 0.790249 0.753262
0.320562 0.380865 0.381720
0.323247 0.386938 0.385779
0.338079 0.416754 0.406439
0.384375 0.488624 0.459052
0.499733 0.598444 0.555413
0.646571 0.711940 0.644892
0.750027 0.763516 0.698695
0.879454 0.836942 0.763699
0.341588 0.556237 0.456214
0.343389 0.557366 0.457710
0.352605 0.563348 0.465492
0.397589 0.598047 0.501457
0.513024 0.675196 0.581598
0.662470 0.777035 0.679255
0.783658 0.859525 0.727199
0.862242 0.881132 0.792264
0.373449 0.371435 0.473274
0.382361 0.376837 0.481514
0.419287 0.397192 0.512840
0.503410 0.438117 0.573877
0.599695 0.487068 0.617456
0.694820 0.566339 0.664210
0.826658 0.621515 0.722042
0.985382 0.626703 0.750790
0.375525 0.376654 0.470863
0.382300 0.380713 0.477424
0.416205 0.399481 0.507317
0.491157 0.434211 0.562249
0.588922 0.482124 0.609308
0.685908 0.561639 0.657649
0.820737 0.615625 0.716152
0.981964 0.620966 0.745113
0.408820 0.417304 0.489326
0.414557 0.421363 0.495827
0.441566 0.438758 0.523278
0.498482 0.465614 0.568719
0.591913 0.508904 0.618189
0.684718 0.576318 0.662470
0.826505 0.621820 0.719112
0.985840 0.627466 0.744839
0.435828 0.441901 0.482490
0.442237 0.448615 0.490822
0.473640 0.479469 0.528923
0.523186 0.518181 0.583093
0.609491 0.562493 0.643336
0.693935 0.609949 0.680140
0.846372 0.640528 0.730282
0.992462 0.651057 0.749233
0.416419 0.421057 0.456947
0.423468 0.427649 0.463722
0.453803 0.456519 0.492958
0.515251 0.514244 0.550317
0.592950 0.585748 0.629847
0.679805 0.629206 0.680507
0.859586 0.640131 0.717403
0.988769 0.656947 0.727138
0.391730 0.397375 0.432563
0.399878 0.405158 0.440620
0.425635 0.429755 0.465888
0.477852 0.479133 0.515648
0.560906 0.556695 0.591638
0.677668 0.668208 0.694728
0.857969 0.722408 0.736385
0.974182 0.766415 0.774411
0.377539 0.383825 0.418433
0.383581 0.389563 0.424384
0.403388 0.408545 0.444129
0.444221 0.447425 0.483772
0.513420 0.528283 0.554223
0.638880 0.674617 0.668116
0.775204 0.776822 0.749172
0.922240 0.854337 0.811978
0.414221 0.472572 0.475715
0.413611 0.473426 0.475624
0.416297 0.482490 0.480568
0.427741 0.508843 0.496895
0.482734 0.597223 0.556268
0.612360 0.718410 0.657740
0.778561 0.842069 0.760342
0.870726 0.882750 0.818540
0.481361 0.471504 0.581018
0.488533 0.476081 0.586877
0.513176 0.489937 0.605615
0.565057 0.518242 0.640192
0.643824 0.556237 0.686122
0.714443 0.595117 0.711879
0.800229 0.661280 0.755947
0.885954 0.725521 0.804013
0.480995 0.473671 0.578119
0.488075 0.478401 0.584161
0.511711 0.491768 0.602716
0.560601 0.517845 0.635859
0.637781 0.554925 0.681300
0.707942 0.592523 0.707149
0.793149 0.656428 0.750301
0.881926 0.719570 0.799069
0.499794 0.499245 0.585473
0.504448 0.502190 0.589746
0.523980 0.513970 0.606470
0.566827 0.537835 0.637934
0.636652 0.571252 0.681819
0.709804 0.606348 0.712551
0.795438 0.668482 0.756008
0.890074 0.728542 0.805936
0.528405 0.532219 0.589868
0.530510 0.533806 0.592859
0.544244 0.544427 0.608576
0.578271 0.567254 0.639918
0.637568 0.598535 0.684352
0.716548 0.634028 0.725582
0.798917 0.689448 0.765743
0.902220 0.739101 0.813718
0.517754 0.516625 0.552605
0.521965 0.520470 0.556390
0.543145 0.540185 0.575616
0.582330 0.579889 0.622431
0.631098 0.618647 0.674800
0.714229 0.660639 0.734157
0.794797 0.708095 0.770779
0.921019 0.749660 0.820859
0.489998 0.490578 0.526970
0.494972 0.495247 0.531609
0.515679 0.514580 0.550652
0.556878 0.552911 0.587976
0.618708 0.610254 0.642908
0.705104 0.690272 0.729366
0.799680 0.744106 0.787625
0.951568 0.763607 0.824552
0.455573 0.458167 0.494667
0.460456 0.462806 0.499275
0.478187 0.479469 0.515923
0.515953 0.514855 0.550927
0.576104 0.570764 0.605188
0.661830 0.650385 0.680842
0.795834 0.782254 0.800778
0.948577 0.834958 0.841917
0.451972 0.454810 0.491249
0.454047 0.456703 0.493172
0.465034 0.467109 0.503563
0.494270 0.494606 0.530938
0.543908 0.540917 0.576349
0.610681 0.616419 0.640467
0.750240 0.791989 0.768795
0.886564 0.889647 0.857359
0.613458 0.594537 0.692317
0.617548 0.597101 0.695735
0.630915 0.603754 0.706386
0.662837 0.619959 0.730190
0.715419 0.644434 0.764614
0.782742 0.676722 0.799191
0.842069 0.715023 0.821225
0.904631 0.782406 0.858640
0.611566 0.594324 0.689387
0.615686 0.596918 0.692897
0.629633 0.604303 0.704311
0.660426 0.619867 0.727596
0.712398 0.644160 0.762051
0.780362 0.676417 0.797665
0.839536 0.713985 0.819455
0.903319 0.781888 0.857664
0.615930 0.603815 0.688563
0.619013 0.605768 0.691463
0.631434 0.612543 0.702358
0.662562 0.630091 0.727596
0.711116 0.653162 0.761196
0.779324 0.684382 0.799374
0.838682 0.721187 0.821378
0.902770 0.786526 0.859190
0.623133 0.617823 0.684565
0.626154 0.620081 0.687831
0.637049 0.627405 0.699306
0.662959 0.643610 0.723415
0.708339 0.667964 0.758694
0.777951 0.701228 0.802945
0.839780 0.737270 0.827634
0.903410 0.796994 0.863645
0.624384 0.620264 0.663111
0.627771 0.623621 0.667262
0.639216 0.634638 0.681971
0.662654 0.655024 0.710353
0.700130 0.680415 0.747890
0.764828 0.715877 0.796353
0.838621 0.756252 0.834379
0.903777 0.810788 0.869291
0.610040 0.602258 0.635279
0.611994 0.604028 0.636957
0.622248 0.613519 0.645991
0.647181 0.636744 0.667964
0.689265 0.679652 0.716426
0.752102 0.732601 0.784298
0.841459 0.787015 0.848356
0.906645 0.832914 0.879759
0.585840 0.579797 0.613825
0.588098 0.581872 0.615839
0.598230 0.591272 0.624842
0.621332 0.612696 0.645167
0.661463 0.650080 0.680507
0.728237 0.713313 0.739651
0.823209 0.806149 0.837308
0.906310 0.858549 0.890196
0.562402 0.558099 0.592950
0.562402 0.558099 0.592950
0.566918 0.562280 0.597009
0.591699 0.585260 0.619013
0.630121 0.620844 0.652949
0.691798 0.678614 0.707332
0.779019 0.762814 0.785397
0.905241 0.896452 0.905211
