20 Preset/Portrait Preset/【3】LUT for PR-AE-FCPX/Film Portrait - LUT  (6).cube
# Created by Adobe Lightroom plugin Export LUT (1.24.0)
# www.johnrellis.com/lightroom/exportlut.htm
# Preset: 灰青电影-素材江湖06
# Color profile: E:\lut插件\exportlut.1.24\exportlut.lrplugin\color profiles\Rec709gamma2.4.icc
LUT_3D_SIZE 8
DOMAIN_MIN 0.000000 0.000000 0.000000
DOMAIN_MAX 0.903226 0.903226 0.903226
0.112947 0.106386 0.103517
0.114290 0.106538 0.103822
0.211521 0.103609 0.120974
0.352331 0.036591 0.124117
0.527855 0.000000 0.118624
0.704036 0.000000 0.120760
0.862699 0.000000 0.149142
0.993835 0.096773 0.206638
0.107668 0.124178 0.106691
0.122560 0.128511 0.105959
0.215763 0.128847 0.118044
0.355474 0.127138 0.120516
0.529473 0.122866 0.114076
0.703700 0.109712 0.125338
0.862089 0.112306 0.155642
0.992798 0.167330 0.213901
0.038514 0.220676 0.136141
0.083223 0.223575 0.128420
0.213870 0.226230 0.130129
0.359960 0.241428 0.130037
0.533227 0.258366 0.132753
0.702937 0.267979 0.149630
0.859281 0.278447 0.185092
0.988312 0.302647 0.245548
0.000000 0.377874 0.188754
0.000000 0.380407 0.175174
0.114687 0.386297 0.169741
0.349493 0.381537 0.170321
0.517388 0.389960 0.177615
0.698268 0.418067 0.205203
0.852781 0.431220 0.243748
0.978637 0.447578 0.303990
0.000000 0.550500 0.280949
0.000000 0.552026 0.271916
0.000000 0.556909 0.252293
0.272251 0.560967 0.257877
0.495491 0.545617 0.254215
0.656855 0.538323 0.259190
0.828519 0.569543 0.311254
0.962402 0.591882 0.386694
0.000000 0.709682 0.395392
0.000000 0.710597 0.389685
0.000000 0.714595 0.364385
0.203189 0.717739 0.370733
0.443915 0.714961 0.374182
0.632258 0.697108 0.365240
0.782193 0.678706 0.361669
0.926146 0.707088 0.450568
0.214633 0.834470 0.540398
0.219760 0.835019 0.537560
0.241611 0.837217 0.525689
0.338048 0.839628 0.520928
0.469947 0.841611 0.531762
0.613581 0.835111 0.530236
0.754635 0.821469 0.517327
0.889708 0.810239 0.511406
0.551995 0.918639 0.705165
0.553735 0.918883 0.704311
0.560540 0.919890 0.700374
0.577783 0.921660 0.694881
0.633173 0.922118 0.704250
0.697078 0.922698 0.716762
0.777096 0.918181 0.712978
0.865690 0.912566 0.707240
0.112337 0.108095 0.114076
0.131777 0.106722 0.115663
0.218845 0.112215 0.130159
0.356481 0.104555 0.139376
0.528923 0.041596 0.145602
0.703517 0.000000 0.160494
0.861723 0.000000 0.188754
0.992309 0.140963 0.240024
0.100252 0.132540 0.124727
0.138430 0.134157 0.126467
0.221164 0.141726 0.135714
0.359228 0.143648 0.143130
0.530083 0.135500 0.148898
0.703548 0.128756 0.165042
0.861234 0.139712 0.194308
0.991333 0.192050 0.246372
0.106355 0.225895 0.161868
0.124178 0.228336 0.157076
0.221958 0.232425 0.154482
0.366217 0.247410 0.158907
0.535027 0.263584 0.167636
0.703090 0.274357 0.186648
0.858518 0.287175 0.219913
0.986999 0.313664 0.273136
0.000000 0.380621 0.221347
0.000000 0.383062 0.210544
0.147250 0.389471 0.197086
0.355413 0.385565 0.197513
0.521691 0.394507 0.206058
0.700618 0.422766 0.235019
0.852384 0.435767 0.270390
0.977478 0.453529 0.326116
0.000000 0.551720 0.306462
0.000000 0.553155 0.298619
0.000000 0.558648 0.274174
0.283085 0.563622 0.280156
0.499458 0.548425 0.275303
0.659815 0.541711 0.280095
0.829435 0.572808 0.331884
0.961242 0.595392 0.403693
0.000000 0.709895 0.414374
0.000000 0.710842 0.409064
0.000000 0.714839 0.385779
0.231601 0.718318 0.386664
0.450813 0.716213 0.390692
0.634974 0.698451 0.380774
0.783719 0.680629 0.376837
0.925994 0.709316 0.464240
0.259403 0.834104 0.552758
0.263951 0.834592 0.550317
0.280858 0.836790 0.538964
0.356329 0.839536 0.531640
0.480598 0.841520 0.542199
0.618219 0.835447 0.540490
0.756497 0.821866 0.527520
0.889799 0.810544 0.520745
0.561486 0.918242 0.711147
0.563165 0.918456 0.710292
0.569696 0.919524 0.706416
0.584100 0.921416 0.699763
0.638148 0.921935 0.708858
0.700801 0.922484 0.721096
0.779141 0.918151 0.717556
0.866453 0.912596 0.711330
0.134951 0.120821 0.187106
0.159335 0.123171 0.189181
0.236423 0.129793 0.196963
0.376837 0.129000 0.222385
0.537407 0.132387 0.248966
0.708095 0.099794 0.260227
0.860868 0.154879 0.291447
0.987976 0.223423 0.333562
0.142397 0.152529 0.194003
0.164797 0.153933 0.196323
0.242710 0.159670 0.205051
0.378790 0.165591 0.227237
0.540795 0.163668 0.246799
0.707546 0.169986 0.266667
0.860349 0.199893 0.295903
0.986938 0.254826 0.338567
0.137392 0.242466 0.224399
0.166140 0.245548 0.226688
0.255772 0.256718 0.233951
0.390021 0.266056 0.244602
0.546441 0.279667 0.261814
0.707332 0.295659 0.284733
0.857847 0.315831 0.314824
0.982452 0.350347 0.359350
0.049470 0.394141 0.288945
0.138766 0.395575 0.290227
0.234043 0.402594 0.283574
0.380102 0.402380 0.280827
0.540520 0.413123 0.292851
0.705867 0.436683 0.321843
0.851560 0.452888 0.353491
0.972961 0.475959 0.400946
0.000000 0.559716 0.373083
0.051423 0.560296 0.373754
0.200046 0.564904 0.362341
0.333013 0.572290 0.353857
0.517082 0.559533 0.347845
0.672786 0.556023 0.353063
0.833433 0.586419 0.404273
0.956970 0.609033 0.464637
0.096101 0.712490 0.472450
0.163241 0.712612 0.473671
0.217990 0.715755 0.460700
0.316411 0.720943 0.445228
0.478309 0.721462 0.450172
0.646387 0.704005 0.437385
0.789364 0.688716 0.434150
0.925566 0.718563 0.515953
0.369024 0.833005 0.596765
0.381811 0.833036 0.597742
0.391516 0.835264 0.588006
0.419715 0.839078 0.572442
0.520439 0.841245 0.581689
0.637201 0.836973 0.581231
0.763851 0.823758 0.566064
0.890257 0.812039 0.556664
0.597070 0.916625 0.734218
0.598535 0.916869 0.733486
0.604334 0.917876 0.729885
0.616052 0.919921 0.723140
0.657923 0.921111 0.727382
0.715633 0.921752 0.738277
0.787106 0.918090 0.735378
0.869688 0.912718 0.727993
0.174594 0.143465 0.304326
0.200229 0.145144 0.307378
0.286778 0.152865 0.320745
0.406683 0.164736 0.334691
0.567163 0.181064 0.364385
0.717952 0.217472 0.393988
0.856596 0.280522 0.431556
0.978912 0.326055 0.459632
0.177890 0.177493 0.310613
0.203311 0.179507 0.313451
0.289464 0.187472 0.326421
0.410285 0.199008 0.340581
0.566674 0.216526 0.368322
0.717098 0.250187 0.398444
0.854917 0.307439 0.436988
0.979767 0.335973 0.457862
0.177829 0.268650 0.328893
0.204318 0.270634 0.330938
0.295384 0.283940 0.346715
0.422980 0.300359 0.364202
0.568414 0.319799 0.387243
0.714107 0.349828 0.417945
0.858457 0.362402 0.434577
0.974792 0.409247 0.474220
0.174228 0.411688 0.382696
0.208347 0.413947 0.384649
0.308476 0.424811 0.393896
0.433265 0.441108 0.407202
0.575738 0.449073 0.418036
0.717250 0.464729 0.438178
0.850889 0.485298 0.466438
0.965179 0.514824 0.505791
0.183200 0.575921 0.457465
0.219608 0.576562 0.458808
0.322881 0.579797 0.464912
0.417975 0.588678 0.461036
0.552087 0.583062 0.456672
0.698207 0.585260 0.465766
0.839780 0.613123 0.512474
0.949767 0.633448 0.554803
0.266209 0.720394 0.542138
0.289525 0.720638 0.543297
0.368078 0.721370 0.548547
0.440894 0.725460 0.543023
0.530816 0.730800 0.541497
0.668696 0.714992 0.526696
0.800381 0.704982 0.526604
0.924804 0.736965 0.600122
0.418982 0.835935 0.640833
0.432868 0.835782 0.642542
0.485298 0.835203 0.650263
0.529564 0.837339 0.647852
0.578790 0.841520 0.641688
0.668635 0.840513 0.644190
0.777401 0.827634 0.627253
0.892607 0.817075 0.618555
0.607141 0.917693 0.753201
0.614801 0.917418 0.754971
0.644556 0.916442 0.762417
0.668147 0.917327 0.762783
0.689723 0.919890 0.758053
0.739834 0.920653 0.766781
0.800900 0.918212 0.765560
0.875486 0.913115 0.756191
0.229435 0.181216 0.444068
0.253178 0.183993 0.447181
0.335515 0.196017 0.460578
0.462593 0.221530 0.486732
0.591119 0.243107 0.495735
0.742916 0.279149 0.518669
0.867124 0.338537 0.543145
0.969604 0.425238 0.582574
0.234348 0.216648 0.447791
0.257237 0.219089 0.450752
0.337835 0.229770 0.463813
0.463203 0.252842 0.489357
0.592218 0.271244 0.499397
0.741695 0.304967 0.521324
0.865232 0.360540 0.546990
0.967254 0.442390 0.587182
0.240574 0.306554 0.458106
0.261997 0.308904 0.462135
0.341070 0.319738 0.474281
0.464393 0.343114 0.499641
0.596460 0.361791 0.514214
0.737270 0.390936 0.534630
0.857603 0.437049 0.562951
0.958099 0.504326 0.606165
0.245121 0.425330 0.486885
0.267887 0.427100 0.488319
0.345098 0.435004 0.495033
0.468605 0.462379 0.521447
0.605676 0.489021 0.545678
0.732296 0.510643 0.564508
0.844480 0.546624 0.596124
0.952789 0.572747 0.621820
0.276341 0.586236 0.552880
0.299168 0.587854 0.554314
0.377844 0.594934 0.561181
0.493843 0.610315 0.575860
0.607935 0.623590 0.587976
0.731258 0.629023 0.598871
0.841276 0.641932 0.619898
0.942626 0.663539 0.650080
0.358007 0.731838 0.622370
0.374701 0.731991 0.623407
0.434668 0.732113 0.627375
0.525414 0.732540 0.635370
0.607263 0.740078 0.639551
0.702144 0.732479 0.631189
0.818082 0.731533 0.637995
0.926940 0.762387 0.692561
0.469764 0.840848 0.696071
0.479286 0.840818 0.696925
0.516899 0.840543 0.700435
0.585504 0.840208 0.709529
0.645899 0.842832 0.711757
0.704921 0.847196 0.712917
0.795590 0.834257 0.695308
0.899779 0.828519 0.695155
0.601312 0.920592 0.774411
0.609247 0.920317 0.775967
0.641047 0.919249 0.782650
0.695033 0.917418 0.795560
0.738094 0.917418 0.802182
0.768399 0.919677 0.801328
0.818723 0.918944 0.803189
0.883452 0.913970 0.791958
0.299596 0.242893 0.586053
0.318669 0.245792 0.588739
0.388373 0.259068 0.599908
0.501030 0.285069 0.622309
0.637537 0.322210 0.648463
0.762692 0.349798 0.653956
0.876829 0.408759 0.660365
0.969177 0.489265 0.682704
0.304295 0.271458 0.587488
0.322637 0.274174 0.590112
0.390753 0.285618 0.601160
0.501701 0.309758 0.623346
0.638025 0.345342 0.650568
0.762020 0.370947 0.655909
0.874784 0.426520 0.662409
0.966827 0.503471 0.685756
0.310552 0.350622 0.591852
0.328374 0.352972 0.594415
0.394232 0.363989 0.605615
0.502586 0.387182 0.627771
0.639429 0.424292 0.659113
0.759579 0.444221 0.664088
0.866972 0.490883 0.671138
0.957427 0.556390 0.698848
0.305852 0.442573 0.590417
0.324712 0.446357 0.594202
0.394415 0.463142 0.610468
0.503410 0.490211 0.636591
0.638117 0.530175 0.670283
0.755093 0.551659 0.680354
0.853910 0.587243 0.691615
0.943145 0.633814 0.721675
0.337041 0.584649 0.642084
0.352972 0.585931 0.643000
0.412512 0.590997 0.646937
0.506371 0.601984 0.655543
0.634730 0.635035 0.682765
0.751064 0.665187 0.705898
0.844541 0.683711 0.721981
0.930724 0.711788 0.748745
0.418158 0.734066 0.702846
0.432074 0.734676 0.703517
0.484565 0.737301 0.706813
0.567956 0.743008 0.714199
0.665217 0.754391 0.728115
0.748135 0.762325 0.736843
0.844907 0.767361 0.747127
0.927428 0.779049 0.766232
0.538354 0.847471 0.761624
0.545647 0.847471 0.762173
0.574487 0.847471 0.764462
0.624842 0.847776 0.769009
0.692164 0.848600 0.776730
0.754238 0.852262 0.780453
0.820798 0.845609 0.771237
0.909361 0.846403 0.781399
0.644770 0.922271 0.818601
0.649378 0.922148 0.819089
0.668147 0.921569 0.821256
0.702632 0.920531 0.825559
0.755520 0.918822 0.834775
0.806760 0.918608 0.843809
0.841489 0.920928 0.846159
0.893828 0.915709 0.833524
0.383917 0.324590 0.730678
0.400214 0.329046 0.734157
0.456519 0.342046 0.740932
0.551446 0.370031 0.755306
0.671473 0.415351 0.775784
0.790951 0.460395 0.788785
0.893858 0.493202 0.786770
0.963409 0.556909 0.778225
0.381628 0.339666 0.723507
0.397772 0.344182 0.727352
0.452918 0.356054 0.734493
0.545647 0.380591 0.748074
0.663691 0.422278 0.767910
0.781643 0.463386 0.780453
0.883482 0.491554 0.777615
0.955657 0.550072 0.769802
0.390631 0.407446 0.727749
0.404547 0.409918 0.729488
0.457527 0.419867 0.735378
0.547784 0.442481 0.748440
0.661982 0.479866 0.767208
0.779660 0.521813 0.783505
0.879881 0.550164 0.784665
0.951751 0.604913 0.783047
0.392706 0.494209 0.728634
0.407355 0.497078 0.730312
0.460365 0.507286 0.736385
0.551080 0.530846 0.750790
0.663478 0.567864 0.770901
0.781460 0.616815 0.794461
0.873014 0.636622 0.796963
0.942412 0.672786 0.798062
0.375463 0.580987 0.726253
0.385260 0.579889 0.724788
0.428290 0.579522 0.723629
0.521813 0.598199 0.736904
0.649531 0.642420 0.764401
0.769802 0.690028 0.795499
0.858885 0.706569 0.802640
0.931395 0.738735 0.813779
0.441474 0.715389 0.766690
0.451972 0.716030 0.767178
0.491615 0.717891 0.768276
0.558495 0.721675 0.770840
0.643000 0.728054 0.775479
0.758663 0.760739 0.802335
0.857572 0.793729 0.826566
0.921294 0.811185 0.839139
0.553246 0.843534 0.818906
0.561669 0.844327 0.819883
0.589593 0.844999 0.821073
0.641321 0.847135 0.824369
0.710933 0.850492 0.829862
0.791287 0.858000 0.840940
0.854734 0.864256 0.849699
0.918486 0.868986 0.859251
0.696559 0.922179 0.863401
0.700649 0.922179 0.863890
0.719081 0.922515 0.866606
0.747280 0.922087 0.869657
0.784268 0.921202 0.873564
0.827543 0.920592 0.879057
0.868223 0.921660 0.883391
0.906035 0.918730 0.876738
0.479530 0.425666 0.845884
0.490944 0.429572 0.847440
0.531090 0.439704 0.849485
0.604913 0.465888 0.856870
0.700191 0.507408 0.866606
0.803830 0.566278 0.877806
0.893614 0.606958 0.881285
0.969574 0.636835 0.877256
0.476783 0.433692 0.841306
0.488167 0.437507 0.843015
0.529076 0.448493 0.846159
0.601892 0.472938 0.853239
0.696864 0.512779 0.863401
0.800565 0.570397 0.875059
0.890074 0.608728 0.878477
0.966278 0.636652 0.874449
0.478828 0.476814 0.837858
0.489235 0.479561 0.838895
0.528801 0.489021 0.841733
0.603998 0.515648 0.851499
0.696254 0.551537 0.860899
0.796933 0.603113 0.872160
0.885222 0.639857 0.877592
0.959777 0.663355 0.874662
0.473762 0.538354 0.832731
0.485054 0.541466 0.834195
0.526024 0.551293 0.837766
0.600031 0.574151 0.846281
0.693965 0.609918 0.857450
0.793484 0.656916 0.870817
0.880247 0.693355 0.879850
0.950958 0.711971 0.878569
0.425879 0.592493 0.822538
0.439399 0.595331 0.824338
0.485939 0.603479 0.828122
0.578180 0.631098 0.837919
0.677211 0.663172 0.850797
0.780606 0.705287 0.866972
0.872923 0.749660 0.882322
0.939818 0.768276 0.884092
0.445380 0.700710 0.838987
0.450813 0.699367 0.837980
0.476967 0.695796 0.835386
0.528588 0.691554 0.832761
0.623743 0.703334 0.839597
0.763210 0.758419 0.866117
0.871275 0.816129 0.890990
0.930358 0.832639 0.895232
0.568383 0.832853 0.877775
0.572961 0.832700 0.877684
0.593225 0.832273 0.877317
0.632715 0.832181 0.877256
0.686671 0.830869 0.876127
0.753475 0.829709 0.875059
0.853208 0.854490 0.888609
0.921294 0.880613 0.903410
0.685908 0.919158 0.902495
0.688960 0.918975 0.902403
0.704128 0.918730 0.902617
0.734890 0.918883 0.903746
0.777127 0.918730 0.905150
0.826902 0.918669 0.907256
0.879789 0.920775 0.912291
0.919493 0.923644 0.917540
