20 Preset/Portrait Preset/【3】LUT for PR-AE-FCPX/Film Portrait - LUT  (2).cube
# Created by Adobe Lightroom plugin Export LUT (1.24.0)
# www.johnrellis.com/lightroom/exportlut.htm
# Preset: 灰青电影-素材江湖02
# Color profile: E:\lut插件\exportlut.1.24\exportlut.lrplugin\color profiles\Rec709gamma2.4.icc
LUT_3D_SIZE 32
DOMAIN_MIN 0.0 0.0 0.0
DOMAIN_MAX 1.0 1.0 1.0
0.000000 0.000000 0.000000
0.000000 0.000000 0.000000
0.000000 0.000000 0.000000
0.000000 0.000000 0.000000
0.116579 0.000000 0.000000
0.172793 0.000000 0.000000
0.229252 0.031159 0.000000
0.287236 0.070497 0.040345
0.346044 0.094270 0.061219
0.404669 0.110231 0.081758
0.462593 0.127108 0.095888
0.520073 0.145144 0.110201
0.576318 0.163851 0.127321
0.630579 0.183932 0.146181
0.693965 0.209689 0.172488
0.753719 0.238865 0.205173
0.798428 0.265843 0.236851
0.836606 0.291844 0.267460
0.871305 0.316991 0.296788
0.903288 0.342473 0.326116
0.932097 0.367956 0.354681
0.957549 0.392706 0.382177
0.979278 0.416083 0.407935
0.998718 0.439338 0.433082
1.000000 0.462135 0.457527
1.000000 0.485084 0.481788
1.000000 0.508629 0.506554
1.000000 0.533013 0.531884
1.000000 0.558068 0.557641
1.000000 0.583398 0.583368
1.000000 0.608881 0.608972
1.000000 0.634577 0.634730
0.000000 0.000000 0.000000
0.000000 0.000000 0.000000
0.000000 0.000000 0.000000
0.000000 0.000000 0.000000
0.114992 0.000000 0.000000
0.169833 0.000000 0.000000
0.224857 0.034882 0.000000
0.281987 0.076143 0.037568
0.339635 0.096254 0.059205
0.397559 0.111604 0.080385
0.455268 0.127138 0.094453
0.512413 0.144625 0.108400
0.568383 0.163180 0.125002
0.622431 0.183169 0.143587
0.684962 0.207584 0.169039
0.743893 0.235599 0.199924
0.788937 0.261509 0.230716
0.826902 0.286595 0.260410
0.861753 0.311345 0.289403
0.893828 0.336126 0.318212
0.922850 0.360723 0.346044
0.948638 0.384649 0.372930
0.970825 0.407568 0.398291
0.990814 0.430335 0.422980
1.000000 0.452827 0.447272
1.000000 0.475624 0.471504
1.000000 0.499153 0.496376
1.000000 0.523705 0.521965
1.000000 0.549310 0.548455
1.000000 0.575219 0.574914
1.000000 0.601312 0.601282
1.000000 0.627405 0.627436
0.000000 0.000000 0.000000
0.000000 0.000000 0.000000
0.000000 0.000000 0.000000
0.000000 0.000000 0.000000
0.111727 0.000000 0.000000
0.163088 0.016419 0.000000
0.218235 0.063081 0.000000
0.275090 0.092561 0.036316
0.332769 0.106813 0.059205
0.390631 0.121218 0.079774
0.448371 0.136233 0.093690
0.505516 0.152560 0.107546
0.561395 0.169863 0.124208
0.615534 0.188602 0.142702
0.677485 0.211856 0.167697
0.735836 0.238071 0.197238
0.780819 0.262638 0.227146
0.818997 0.286687 0.256291
0.854063 0.310430 0.285039
0.886687 0.334752 0.313542
0.916411 0.359045 0.341741
0.942809 0.382818 0.368719
0.965667 0.405219 0.393866
0.986114 0.427619 0.418585
1.000000 0.449775 0.442664
1.000000 0.472053 0.466621
1.000000 0.495430 0.491493
1.000000 0.519860 0.517113
1.000000 0.545525 0.543816
1.000000 0.571710 0.570672
1.000000 0.597925 0.597284
1.000000 0.624018 0.623560
0.000000 0.000000 0.000000
0.000000 0.000000 0.000000
0.000000 0.000000 0.000000
0.000000 0.000000 0.000000
0.094514 0.036835 0.000000
0.153536 0.069825 0.000000
0.208896 0.096315 0.000000
0.265904 0.112428 0.037842
0.324071 0.125765 0.058961
0.382422 0.138827 0.080110
0.440467 0.152499 0.094209
0.497688 0.167483 0.107973
0.553491 0.183536 0.124636
0.607568 0.200351 0.143191
0.669184 0.222354 0.167300
0.725551 0.245762 0.195682
0.770077 0.267857 0.223758
0.807065 0.289311 0.251469
0.841520 0.311131 0.278721
0.873899 0.333410 0.306218
0.903868 0.356023 0.333288
0.931060 0.378637 0.359869
0.955261 0.400855 0.385321
0.977447 0.423346 0.410742
0.997711 0.446235 0.436103
1.000000 0.469673 0.461707
1.000000 0.494087 0.487953
1.000000 0.519280 0.514733
1.000000 0.545464 0.542199
1.000000 0.571740 0.569360
1.000000 0.597467 0.595727
1.000000 0.622766 0.621271
0.000000 0.001190 0.000000
0.000000 0.002411 0.000000
0.000000 0.014435 0.000000
0.000000 0.045716 0.000000
0.027161 0.080690 0.000000
0.111330 0.104341 0.023804
0.183017 0.121492 0.025971
0.249332 0.134218 0.038392
0.308659 0.147189 0.057649
0.367468 0.160098 0.080262
0.425940 0.172793 0.094667
0.483833 0.186435 0.108736
0.540246 0.201450 0.125154
0.595361 0.216953 0.143832
0.656764 0.237461 0.168460
0.713436 0.258762 0.195468
0.759182 0.278935 0.223056
0.797513 0.298955 0.250553
0.832761 0.319097 0.277684
0.865812 0.340093 0.304997
0.896300 0.361486 0.331884
0.924102 0.382940 0.358068
0.949126 0.404364 0.383429
0.972259 0.426459 0.409186
0.993378 0.449134 0.434913
1.000000 0.472328 0.460792
1.000000 0.496345 0.487129
1.000000 0.521050 0.513817
1.000000 0.546715 0.541100
1.000000 0.572351 0.567926
1.000000 0.597650 0.594018
1.000000 0.622431 0.619379
0.000000 0.074952 0.001678
0.000000 0.077119 0.002533
0.000000 0.081147 0.007233
0.000000 0.089113 0.016388
0.028351 0.103182 0.000000
0.090150 0.111513 0.046571
0.130129 0.132143 0.086946
0.210727 0.159213 0.076509
0.291051 0.172366 0.069429
0.353552 0.185611 0.085298
0.413642 0.198550 0.098634
0.472755 0.211765 0.113405
0.530388 0.225834 0.129976
0.586297 0.240330 0.149081
0.649805 0.260349 0.174472
0.706538 0.279637 0.200809
0.753292 0.297948 0.228183
0.792477 0.316258 0.255589
0.828550 0.335058 0.282963
0.862150 0.354528 0.309850
0.893065 0.374640 0.336584
0.921386 0.394965 0.362524
0.988983 0.461555 0.439277
1.000000 0.482673 0.464240
1.000000 0.503868 0.488563
1.000000 0.525353 0.512627
1.000000 0.547265 0.536828
1.000000 0.569177 0.560571
1.000000 0.591058 0.583795
1.000000 0.612726 0.606470
1.000000 0.634241 0.628717
1.000000 0.656428 0.651606
0.010498 0.103670 0.042908
0.011475 0.103975 0.043885
0.015534 0.106172 0.046204
0.018097 0.110262 0.052125
0.040620 0.121462 0.056123
0.096345 0.141451 0.050324
0.124239 0.149111 0.093355
0.156954 0.165621 0.118654
0.249271 0.204501 0.111635
0.336736 0.223911 0.109163
0.417151 0.237369 0.111971
0.479683 0.251041 0.128054
0.539330 0.264317 0.145968
0.597803 0.278325 0.166110
0.668391 0.300908 0.195468
0.724483 0.319219 0.224063
0.769192 0.335729 0.252232
0.807675 0.352056 0.279789
0.843809 0.369512 0.307347
0.878141 0.388647 0.335210
0.910765 0.409369 0.363806
0.940978 0.431556 0.393042
0.968292 0.454871 0.422461
0.992432 0.478676 0.451575
1.000000 0.502190 0.479561
1.000000 0.524804 0.505882
1.000000 0.546685 0.530907
1.000000 0.568231 0.554925
1.000000 0.589624 0.578210
1.000000 0.610559 0.600671
1.000000 0.631464 0.622766
1.000000 0.652979 0.645258
0.026429 0.121492 0.067689
0.025696 0.121767 0.067536
0.026917 0.123079 0.071290
0.026368 0.125460 0.077852
0.051728 0.136660 0.090578
0.091005 0.153964 0.089052
0.126009 0.172976 0.090272
0.154055 0.181155 0.115358
0.182071 0.194369 0.143130
0.273289 0.238956 0.141604
0.362768 0.264073 0.141421
0.451057 0.279850 0.144808
0.521324 0.292821 0.155856
0.585443 0.308934 0.177310
0.652766 0.328344 0.204013
0.708125 0.343999 0.230106
0.753536 0.357702 0.256321
0.792386 0.371466 0.282353
0.829160 0.386542 0.308934
0.864256 0.403235 0.335698
0.897581 0.421759 0.363409
0.928710 0.441993 0.391852
0.957122 0.463447 0.420508
0.982361 0.485603 0.449226
1.000000 0.507805 0.476967
1.000000 0.529229 0.503044
1.000000 0.550286 0.528008
1.000000 0.571038 0.551995
1.000000 0.591760 0.575372
1.000000 0.612177 0.597833
1.000000 0.632502 0.619898
1.000000 0.653376 0.642115
0.027924 0.138186 0.089113
0.029908 0.138125 0.089113
0.029450 0.139284 0.090089
0.029603 0.141054 0.092592
0.054200 0.151308 0.101106
0.093812 0.168978 0.108522
0.121370 0.188815 0.106111
0.157015 0.206363 0.113313
0.185428 0.214878 0.139040
0.212345 0.226291 0.167849
0.299229 0.273899 0.174014
0.389654 0.303746 0.176089
0.479042 0.323522 0.181125
0.571527 0.342199 0.195132
0.639582 0.359869 0.217258
0.694911 0.373449 0.241276
0.740932 0.385107 0.265721
0.780392 0.396368 0.290715
0.817807 0.409216 0.315862
0.853513 0.423743 0.341741
0.887327 0.440223 0.368261
0.918883 0.458198 0.395636
0.947967 0.477546 0.423468
0.973877 0.497871 0.451301
0.996490 0.518395 0.478401
1.000000 0.538384 0.503990
1.000000 0.558251 0.528649
1.000000 0.578058 0.552483
1.000000 0.597742 0.575494
1.000000 0.617182 0.597620
1.000000 0.636683 0.619348
1.000000 0.656703 0.641260
0.033021 0.154726 0.101137
0.033997 0.154910 0.101442
0.032532 0.155734 0.101991
0.035401 0.156985 0.104158
0.061952 0.167666 0.112001
0.099702 0.184817 0.125307
0.121431 0.203006 0.126528
0.153567 0.224887 0.124636
0.188663 0.240055 0.137209
0.216739 0.248783 0.164126
0.242771 0.258640 0.193210
0.322240 0.305241 0.206699
0.414557 0.341009 0.210727
0.513359 0.371099 0.222995
0.606195 0.390967 0.237736
0.679286 0.403906 0.254246
0.728084 0.414862 0.278050
0.769772 0.424964 0.302678
0.808560 0.436408 0.327550
0.844999 0.449104 0.352361
0.878691 0.463020 0.377356
0.909545 0.477760 0.402289
0.937804 0.493812 0.427375
0.963287 0.510643 0.452674
0.985840 0.528191 0.477607
1.000000 0.545953 0.501823
1.000000 0.564355 0.526055
1.000000 0.583246 0.549889
1.000000 0.602380 0.573205
1.000000 0.621576 0.595850
1.000000 0.640742 0.617884
1.000000 0.660487 0.640162
0.038453 0.170687 0.112337
0.039429 0.170840 0.112612
0.039246 0.171695 0.113039
0.041932 0.173648 0.115267
0.071229 0.184176 0.123232
0.100832 0.199771 0.135256
0.126802 0.219059 0.146487
0.151553 0.239078 0.145907
0.187289 0.262638 0.144930
0.221653 0.275639 0.163394
0.250187 0.284550 0.191287
0.276738 0.294835 0.221439
0.347326 0.338598 0.244816
0.450660 0.386389 0.252842
0.545861 0.416449 0.264775
0.634302 0.436439 0.279118
0.709926 0.446784 0.297215
0.757717 0.455177 0.316564
0.797116 0.464546 0.339818
0.834043 0.475105 0.363104
0.868223 0.486610 0.386694
0.899504 0.499397 0.410315
0.928374 0.513451 0.434424
0.954559 0.528435 0.458686
0.977844 0.544244 0.482887
0.998291 0.560540 0.506615
1.000000 0.577508 0.530205
1.000000 0.594873 0.553429
1.000000 0.612665 0.576074
1.000000 0.630701 0.598260
1.000000 0.648829 0.619867
1.000000 0.667659 0.641871
0.046967 0.188510 0.123964
0.045960 0.188663 0.124208
0.045899 0.189242 0.125154
0.055024 0.192905 0.127932
0.082124 0.202579 0.135500
0.104128 0.216800 0.146670
0.131899 0.235935 0.162112
0.155154 0.255955 0.167575
0.184573 0.278019 0.167697
0.224704 0.303655 0.167514
0.256931 0.313695 0.192020
0.286503 0.323430 0.221622
0.343969 0.364691 0.278813
0.409308 0.406867 0.314427
0.524376 0.464668 0.325353
0.620325 0.496803 0.340673
0.699977 0.513603 0.358770
0.766995 0.522484 0.378576
0.823056 0.529351 0.397589
0.860197 0.537224 0.416785
0.892088 0.546136 0.437934
0.920592 0.555779 0.459022
0.946136 0.566461 0.480293
0.969024 0.578180 0.501701
0.989258 0.590661 0.522820
1.000000 0.603449 0.543389
1.000000 0.616358 0.562921
1.000000 0.629511 0.581781
1.000000 0.643122 0.600305
1.000000 0.657343 0.618891
1.000000 0.672572 0.638117
1.000000 0.689540 0.658839
0.057618 0.212833 0.139925
0.057313 0.212833 0.140169
0.059785 0.213565 0.140902
0.075685 0.218631 0.144991
0.093233 0.227146 0.151919
0.111269 0.240208 0.162325
0.136416 0.257511 0.176791
0.166781 0.278874 0.192813
0.190341 0.299931 0.193942
0.224613 0.324590 0.195132
0.268315 0.351568 0.198428
0.306371 0.366979 0.232975
0.344976 0.385443 0.271580
0.380835 0.403235 0.310582
0.429725 0.434638 0.348852
0.545312 0.496010 0.358679
0.635187 0.527214 0.373419
0.708400 0.543297 0.390753
0.773159 0.553521 0.409155
0.831601 0.560876 0.428260
0.873777 0.567193 0.444434
0.903960 0.575036 0.463935
0.930938 0.583978 0.484169
0.955169 0.594079 0.504662
0.976806 0.604974 0.525200
0.996155 0.616510 0.545281
1.000000 0.628351 0.564599
1.000000 0.640589 0.583398
1.000000 0.653376 0.601953
1.000000 0.666865 0.620508
1.000000 0.681422 0.639704
1.000000 0.697505 0.660304
0.069917 0.230442 0.151675
0.069612 0.230442 0.151858
0.074708 0.232273 0.153231
0.086946 0.236790 0.157076
0.098634 0.244541 0.163485
0.115633 0.256291 0.173129
0.137850 0.272038 0.186221
0.167453 0.292241 0.203769
0.193698 0.313970 0.213504
0.221530 0.336919 0.215610
0.261753 0.366186 0.220188
0.311223 0.397406 0.234470
0.349432 0.412665 0.270207
0.385351 0.427649 0.306676
0.417884 0.441901 0.342718
0.454810 0.463935 0.379614
0.565240 0.525200 0.390021
0.647944 0.554559 0.404364
0.717220 0.571069 0.421393
0.780148 0.582818 0.438972
0.836881 0.591577 0.457588
0.886503 0.598505 0.476844
0.917479 0.605615 0.492744
0.943053 0.614252 0.512505
0.965820 0.623743 0.532311
0.986297 0.633722 0.551476
1.000000 0.644099 0.570062
1.000000 0.654963 0.588128
1.000000 0.666529 0.606134
1.000000 0.678920 0.624262
1.000000 0.692531 0.643275
1.000000 0.707729 0.663752
0.082399 0.249058 0.163973
0.083314 0.249546 0.164431
0.087709 0.251377 0.165957
0.093690 0.255619 0.169528
0.105287 0.262760 0.175601
0.120241 0.273381 0.184390
0.141115 0.287755 0.196780
0.167544 0.306462 0.212955
0.200992 0.329534 0.233280
0.225193 0.353063 0.237613
0.260533 0.382513 0.244297
0.306279 0.415473 0.251865
0.353124 0.441199 0.270817
0.389105 0.453895 0.305150
0.422400 0.466133 0.339330
0.452247 0.477302 0.372351
0.484779 0.494697 0.405951
0.578943 0.548089 0.420935
0.660426 0.580133 0.434852
0.726955 0.597711 0.451423
0.788357 0.611200 0.468849
0.843992 0.621790 0.487495
0.892790 0.629969 0.507012
0.929870 0.636805 0.524559
0.954955 0.644312 0.541344
0.976440 0.652735 0.559503
0.996033 0.661891 0.577325
1.000000 0.671717 0.595117
1.000000 0.682429 0.612879
1.000000 0.694301 0.631281
1.000000 0.707759 0.651057
1.000000 0.722774 0.672145
0.091554 0.267979 0.176791
0.091829 0.268498 0.177157
0.095521 0.270390 0.178805
0.101534 0.274540 0.182406
0.111757 0.281407 0.187991
0.125948 0.291630 0.196750
0.145571 0.305241 0.208591
0.170016 0.322942 0.224094
0.203342 0.347814 0.246128
0.235569 0.374487 0.263005
0.265049 0.401160 0.269444
0.303441 0.430610 0.276188
0.349920 0.462074 0.283238
0.391852 0.480842 0.304784
0.424598 0.490089 0.336400
0.454688 0.498970 0.367346
0.482246 0.508019 0.397894
0.511070 0.521599 0.428962
0.589288 0.566857 0.448737
0.670954 0.602167 0.462593
0.736629 0.622431 0.479774
0.797665 0.638483 0.498116
0.852140 0.650965 0.517388
0.899687 0.660670 0.537163
0.940276 0.668208 0.556664
0.967590 0.674861 0.571221
0.988342 0.682734 0.588037
1.000000 0.691249 0.604883
1.000000 0.700526 0.621820
1.000000 0.711086 0.639582
1.000000 0.723018 0.658503
1.000000 0.736385 0.678676
0.099367 0.286717 0.189395
0.099825 0.287114 0.189731
0.102876 0.289067 0.191470
0.108736 0.292943 0.194736
0.118318 0.299443 0.200198
0.132387 0.309636 0.209140
0.151217 0.324071 0.221561
0.175326 0.342443 0.237644
0.205509 0.364752 0.257633
0.242405 0.390906 0.281682
0.269444 0.415869 0.290379
0.301488 0.442573 0.296757
0.341650 0.471504 0.303532
0.388952 0.501854 0.310521
0.426123 0.515129 0.335302
0.457221 0.522789 0.365118
0.485756 0.530480 0.394537
0.512078 0.538537 0.423774
0.537835 0.548852 0.453162
0.601404 0.586175 0.477394
0.684169 0.625299 0.491615
0.749050 0.648066 0.509453
0.808652 0.665980 0.528191
0.861753 0.679774 0.547204
0.907622 0.690089 0.566064
0.946838 0.698024 0.584619
0.978515 0.704677 0.601587
1.000000 0.711513 0.615320
1.000000 0.719783 0.631922
1.000000 0.729335 0.649500
1.000000 0.740261 0.668116
1.000000 0.752529 0.687922
0.109010 0.309148 0.205081
0.110536 0.309850 0.205570
0.118135 0.321263 0.214237
0.124239 0.325811 0.218357
0.134615 0.333227 0.224735
0.148257 0.343664 0.233707
0.166690 0.357763 0.246159
0.190127 0.375463 0.261936
0.219303 0.396857 0.281529
0.255222 0.422309 0.305455
0.291386 0.449561 0.326390
0.319890 0.475257 0.333318
0.355200 0.502525 0.340307
0.397436 0.530999 0.347387
0.445045 0.559197 0.354742
0.477150 0.565515 0.381903
0.505425 0.570153 0.409735
0.531182 0.574945 0.436927
0.554559 0.580194 0.463935
0.575891 0.586145 0.490578
0.625055 0.615137 0.517937
0.708583 0.658198 0.532006
0.771542 0.682277 0.548852
0.828336 0.700435 0.565728
0.877714 0.713252 0.582116
0.920043 0.722377 0.598291
0.956420 0.729091 0.614160
0.987640 0.734768 0.630579
1.000000 0.740780 0.644953
1.000000 0.748501 0.660487
1.000000 0.758022 0.678431
1.000000 0.768917 0.697444
0.122347 0.336156 0.224399
0.123537 0.337682 0.225559
0.127047 0.340795 0.227939
0.133089 0.345678 0.232242
0.142550 0.353063 0.238621
0.155581 0.362524 0.247044
0.172763 0.374975 0.258091
0.193881 0.390478 0.272007
0.220157 0.409369 0.289708
0.252171 0.431922 0.310887
0.290715 0.457984 0.335973
0.320134 0.482734 0.347845
0.350317 0.507805 0.354253
0.386358 0.534081 0.360967
0.428382 0.560632 0.368231
0.472816 0.583734 0.378302
0.502098 0.587915 0.405615
0.529351 0.592340 0.432837
0.554559 0.597253 0.459937
0.577661 0.602716 0.486915
0.598474 0.608545 0.513420
0.637415 0.632166 0.543908
0.720699 0.677821 0.557946
0.784298 0.704982 0.573785
0.839017 0.723568 0.589532
0.886503 0.736751 0.605005
0.927153 0.746120 0.620508
0.962127 0.753536 0.636866
0.992004 0.760159 0.654200
1.000000 0.766781 0.672419
1.000000 0.774380 0.687098
1.000000 0.783993 0.705409
0.131350 0.356664 0.238529
0.132540 0.358465 0.239933
0.135988 0.361486 0.242313
0.141421 0.366278 0.246494
0.150668 0.373022 0.252415
0.163027 0.381689 0.260227
0.178927 0.392950 0.270359
0.198764 0.406989 0.283330
0.222751 0.424018 0.299260
0.252384 0.444373 0.318578
0.287114 0.467994 0.341222
0.325017 0.493812 0.363928
0.350805 0.517082 0.370123
0.382544 0.541772 0.376715
0.419654 0.566613 0.383856
0.461128 0.590692 0.391699
0.501183 0.608209 0.405615
0.529137 0.611872 0.432288
0.555261 0.615900 0.458991
0.579583 0.620600 0.485603
0.601953 0.625971 0.511955
0.622644 0.632136 0.538323
0.652827 0.650843 0.569085
0.732540 0.696498 0.583001
0.797910 0.727291 0.597192
0.850736 0.746242 0.612085
0.896025 0.759640 0.627283
0.934966 0.769680 0.643519
0.968292 0.777981 0.660853
0.996704 0.785428 0.679103
1.000000 0.792721 0.698238
1.000000 0.800443 0.716152
0.139681 0.377356 0.252476
0.140780 0.378912 0.253605
0.144076 0.381872 0.256168
0.149599 0.386236 0.260075
0.158053 0.392309 0.265507
0.169284 0.400366 0.272648
0.184115 0.410590 0.282048
0.202884 0.423346 0.293950
0.225772 0.439185 0.308843
0.253086 0.457710 0.326543
0.285344 0.479438 0.347448
0.323522 0.504051 0.371710
0.354559 0.528038 0.385992
0.382513 0.551141 0.392462
0.415442 0.574395 0.399817
0.452949 0.597406 0.407996
0.494301 0.619837 0.417365
0.531273 0.633631 0.435584
0.559655 0.638361 0.463111
0.586481 0.643946 0.490852
0.611841 0.650294 0.518639
0.635370 0.657343 0.546044
0.656580 0.664912 0.571557
0.686091 0.683467 0.600092
0.756374 0.725856 0.616083
0.822934 0.759915 0.629969
0.872404 0.779019 0.646143
0.914641 0.792935 0.663203
0.950652 0.803738 0.681117
0.981079 0.812650 0.699702
1.000000 0.820493 0.718746
1.000000 0.828061 0.738399
0.154055 0.407355 0.273503
0.154940 0.408270 0.274266
0.157259 0.410010 0.275883
0.162203 0.413184 0.278813
0.169345 0.418250 0.283360
0.179873 0.425147 0.289738
0.193698 0.434180 0.298283
0.211490 0.445899 0.309331
0.233188 0.460426 0.323003
0.259312 0.478065 0.339910
0.290043 0.498451 0.359655
0.326116 0.521538 0.382452
0.366613 0.546685 0.407599
0.391608 0.568109 0.414435
0.421180 0.589593 0.421820
0.454932 0.610803 0.430060
0.492134 0.631617 0.439338
0.532738 0.653071 0.449409
0.566247 0.663508 0.470192
0.593347 0.667933 0.496712
0.618738 0.672969 0.523033
0.642420 0.678706 0.548882
0.663966 0.684901 0.573083
0.683528 0.691463 0.595636
0.710384 0.707851 0.620783
0.770871 0.745571 0.638483
0.837552 0.781888 0.652918
0.884672 0.801389 0.670283
0.924804 0.815915 0.688380
0.958770 0.827176 0.706935
0.987121 0.836301 0.725826
1.000000 0.844419 0.745357
0.166751 0.431983 0.290166
0.167330 0.432471 0.290715
0.168215 0.433173 0.291356
0.170443 0.435004 0.293126
0.177523 0.439429 0.297307
0.187350 0.445686 0.303258
0.200931 0.454292 0.311223
0.217227 0.465187 0.321477
0.237766 0.478584 0.334234
0.263005 0.494972 0.350072
0.291997 0.513878 0.368505
0.325780 0.535393 0.389776
0.364752 0.558892 0.414099
0.398932 0.581109 0.431952
0.425727 0.601343 0.439673
0.456458 0.621363 0.448188
0.490852 0.641596 0.457679
0.528222 0.662715 0.467872
0.568963 0.684565 0.478859
0.599725 0.692226 0.502556
0.626337 0.697047 0.528923
0.651057 0.702449 0.554253
0.673793 0.708400 0.578088
0.694636 0.714809 0.600336
0.707118 0.715236 0.615259
0.731899 0.729793 0.638697
0.783841 0.763485 0.659480
0.850584 0.801816 0.674647
0.895476 0.821744 0.692897
0.933715 0.836667 0.711727
0.966003 0.848478 0.731167
0.992554 0.858183 0.750881
0.187015 0.465217 0.313451
0.187747 0.466224 0.314397
0.188388 0.466865 0.315129
0.188937 0.467170 0.315557
0.190311 0.467964 0.316686
0.199344 0.472755 0.321355
0.210819 0.479591 0.327947
0.226200 0.488624 0.336767
0.245365 0.500237 0.347967
0.268162 0.514397 0.361852
0.294987 0.530877 0.378119
0.326421 0.550103 0.397528
0.362463 0.570642 0.419715
0.403479 0.592096 0.444923
0.429023 0.610376 0.453773
0.456062 0.628412 0.461341
0.486580 0.647272 0.469734
0.520653 0.667292 0.479103
0.558129 0.688441 0.489631
0.598718 0.710384 0.501396
0.626795 0.715419 0.527886
0.652613 0.720577 0.553216
0.676051 0.725917 0.576684
0.697261 0.731289 0.598322
0.716335 0.736629 0.618219
0.733639 0.742092 0.637201
0.756100 0.754421 0.659907
0.799283 0.783383 0.682887
0.861875 0.820249 0.698665
0.907103 0.842405 0.716762
0.943175 0.857603 0.736172
0.973175 0.869566 0.755917
0.202365 0.490852 0.330266
0.202914 0.491951 0.331121
0.203922 0.492744 0.331945
0.204746 0.493202 0.332738
0.205570 0.493751 0.333562
0.207126 0.494636 0.334874
0.218479 0.501396 0.341375
0.233646 0.510735 0.350317
0.252628 0.522271 0.361486
0.275273 0.536217 0.375067
0.301762 0.552178 0.391089
0.332280 0.569787 0.409827
0.367346 0.588464 0.431189
0.406409 0.607874 0.455207
0.442329 0.626490 0.475319
0.466743 0.643641 0.482734
0.494545 0.661921 0.490822
0.525536 0.681270 0.499794
0.560021 0.701747 0.509911
0.597528 0.722957 0.521263
0.635187 0.741573 0.535546
0.661616 0.746365 0.560357
0.685939 0.751461 0.583581
0.708125 0.756710 0.605097
0.728450 0.762020 0.625238
0.747158 0.767422 0.645014
0.764340 0.772976 0.664576
0.784939 0.783810 0.687221
0.820737 0.809079 0.713313
0.878782 0.844572 0.730404
0.923339 0.868681 0.748836
0.955962 0.883360 0.768215
0.225406 0.525383 0.353582
0.226047 0.525963 0.354192
0.226474 0.526390 0.354650
0.227237 0.526726 0.355261
0.227909 0.526970 0.355993
0.228580 0.527367 0.357153
0.230198 0.528191 0.358618
0.243503 0.535943 0.366094
0.261509 0.546319 0.376410
0.283360 0.558801 0.389044
0.309026 0.572992 0.404181
0.338872 0.588678 0.421881
0.372320 0.605341 0.442084
0.409583 0.622797 0.464851
0.450111 0.640864 0.489998
0.477760 0.658228 0.502129
0.503014 0.675959 0.509911
0.531487 0.694728 0.518517
0.563226 0.714534 0.528252
0.597711 0.735012 0.538781
0.634333 0.755673 0.549920
0.668147 0.770565 0.565637
0.692927 0.774990 0.588342
0.715602 0.779660 0.609491
0.736446 0.784329 0.629694
0.755703 0.788998 0.649561
0.773495 0.793912 0.669276
0.789822 0.798947 0.688624
0.808316 0.808042 0.710536
0.838102 0.830442 0.739651
0.891936 0.864714 0.757595
0.935821 0.890440 0.775906
0.250675 0.559655 0.376776
0.251255 0.560174 0.377295
0.251896 0.560723 0.377966
0.252781 0.561273 0.378790
0.253788 0.562036 0.380072
0.255680 0.563256 0.381994
0.258671 0.565393 0.384924
0.262669 0.568353 0.388647
0.280491 0.578637 0.399481
0.304509 0.591669 0.413733
0.332494 0.606226 0.430671
0.364050 0.621668 0.449805
0.398810 0.637842 0.471260
0.436103 0.655146 0.494514
0.475959 0.673640 0.519493
0.513756 0.692653 0.542412
0.536675 0.710353 0.550011
0.562341 0.728817 0.558129
0.590814 0.747890 0.566827
0.621698 0.767300 0.576165
0.654475 0.786496 0.585962
0.688533 0.805112 0.596002
0.717586 0.815610 0.611780
0.740352 0.819425 0.632776
0.761532 0.823178 0.653468
0.781064 0.827054 0.673762
0.799100 0.831083 0.693690
0.815488 0.835325 0.713161
0.830686 0.840146 0.732296
0.846738 0.847623 0.753140
0.872618 0.868070 0.782345
0.916136 0.897154 0.800992
0.303227 0.611719 0.420661
0.303502 0.611780 0.420752
0.303746 0.611780 0.420996
0.303899 0.611841 0.421393
0.304601 0.612055 0.422156
0.305791 0.612482 0.423407
0.307683 0.613275 0.425299
0.310399 0.614527 0.427955
0.313909 0.616419 0.431312
0.332006 0.624598 0.441718
0.356878 0.635462 0.455970
0.384955 0.647883 0.472511
0.416083 0.662013 0.491218
0.449928 0.677394 0.511833
