20 Preset/Portrait Preset/【3】LUT for PR-AE-FCPX/Film Portrait - LUT  (4).cube
# Created by Adobe Lightroom plugin Export LUT (1.24.0)
# www.johnrellis.com/lightroom/exportlut.htm
# Preset: 灰青电影-素材江湖04
# Color profile: E:\lut插件\exportlut.1.24\exportlut.lrplugin\color profiles\Rec709gamma2.4.icc
LUT_3D_SIZE 8
DOMAIN_MIN 0.000000 0.000000 0.000000
DOMAIN_MAX 0.903226 0.903226 0.903226
0.047669 0.024628 0.005890
0.110048 0.028595 0.007660
0.239078 0.012970 0.007416
0.471168 0.000000 0.000000
0.691981 0.000000 0.000000
0.825315 0.187930 0.057862
0.895781 0.343816 0.219974
0.941039 0.458900 0.360845
0.075868 0.097658 0.006897
0.118898 0.097292 0.010407
0.244968 0.101076 0.002533
0.464973 0.058350 0.000000
0.680385 0.111299 0.000000
0.815030 0.243839 0.081422
0.886046 0.363622 0.223148
0.933837 0.467567 0.361791
0.000000 0.273136 0.000000
0.000000 0.281041 0.000000
0.281651 0.278813 0.000000
0.486519 0.301976 0.000000
0.668482 0.331334 0.000000
0.796780 0.397833 0.165408
0.868467 0.464332 0.293889
0.918883 0.532403 0.417426
0.000000 0.526055 0.000000
0.000000 0.529503 0.000000
0.242771 0.536950 0.089052
0.511620 0.539818 0.217990
0.666285 0.562982 0.290990
0.765530 0.549462 0.309545
0.834867 0.570123 0.392706
0.890043 0.608698 0.488258
0.122713 0.687282 0.310613
0.169680 0.688289 0.314366
0.282292 0.693721 0.334325
0.493751 0.689357 0.389960
0.634943 0.683772 0.461952
0.725032 0.687373 0.526513
0.792874 0.679561 0.534905
0.856046 0.679164 0.564019
0.406958 0.762203 0.510430
0.418219 0.764096 0.516930
0.446937 0.766506 0.528069
0.517296 0.767697 0.551904
0.620203 0.763180 0.588922
0.703548 0.760800 0.631678
0.772213 0.770809 0.680507
0.834440 0.773648 0.684749
0.524620 0.826749 0.647242
0.527947 0.827573 0.648951
0.539818 0.829435 0.653468
0.562585 0.833646 0.662867
0.627649 0.831907 0.679713
0.699611 0.830076 0.702785
0.765774 0.829618 0.729244
0.831876 0.841794 0.769131
0.580041 0.897887 0.733120
0.581842 0.898283 0.733700
0.590082 0.900053 0.736721
0.606439 0.903807 0.742916
0.638697 0.903624 0.748592
0.705470 0.902281 0.764614
0.772641 0.901183 0.783841
0.834897 0.899931 0.804715
0.050477 0.031189 0.035401
0.112154 0.039307 0.030854
0.237583 0.022492 0.043671
0.457588 0.000000 0.053407
0.675776 0.000000 0.088563
0.812131 0.212589 0.152010
0.882322 0.351019 0.256168
0.929717 0.460609 0.378027
0.096590 0.100282 0.032105
0.130373 0.099733 0.035554
0.250767 0.106447 0.044068
0.460273 0.094240 0.053803
0.671473 0.141024 0.092988
0.806088 0.263218 0.160678
0.875608 0.373205 0.262181
0.923949 0.471229 0.381262
0.106844 0.256962 0.042084
0.115114 0.265202 0.023835
0.284916 0.270573 0.085084
0.477211 0.293278 0.094453
0.659144 0.333288 0.128084
0.785946 0.398352 0.209506
0.857023 0.461402 0.312718
0.909331 0.529808 0.425879
0.000000 0.506401 0.111879
0.000000 0.510674 0.113375
0.249546 0.523064 0.149752
0.499397 0.521355 0.237491
0.649531 0.543542 0.293278
0.753109 0.534295 0.310643
0.825101 0.562219 0.394446
0.881987 0.603204 0.488380
0.187137 0.679133 0.329961
0.215152 0.679835 0.332860
0.301671 0.685115 0.349218
0.489113 0.681422 0.396338
0.628443 0.675349 0.461769
0.719173 0.680201 0.522667
0.787716 0.673762 0.533165
0.851011 0.676295 0.565423
0.413245 0.756924 0.514275
0.420478 0.757565 0.517052
0.448768 0.760250 0.528283
0.513939 0.762875 0.551995
0.617548 0.758938 0.589441
0.700984 0.757504 0.632624
0.769131 0.767727 0.679866
0.831205 0.770535 0.683955
0.525872 0.822446 0.646906
0.528252 0.822538 0.647364
0.539788 0.824430 0.651698
0.562646 0.829007 0.661555
0.625757 0.828733 0.679469
0.697505 0.827054 0.702266
0.762814 0.826230 0.727932
0.828367 0.838346 0.766812
0.580194 0.894896 0.732448
0.582361 0.895659 0.733547
0.590417 0.897429 0.736355
0.606622 0.901305 0.742641
0.640223 0.904784 0.752377
0.705928 0.902464 0.766812
0.772335 0.900572 0.784909
0.834470 0.899351 0.805539
0.000000 0.063325 0.170748
0.102907 0.053254 0.166751
0.239933 0.064546 0.158938
0.475044 0.134035 0.215702
0.680507 0.155428 0.261570
0.803555 0.264683 0.303075
0.864012 0.407477 0.388617
0.911620 0.506310 0.479194
0.071443 0.133944 0.180758
0.117342 0.115999 0.178164
0.256931 0.127443 0.166384
0.474922 0.180240 0.217929
0.671992 0.201663 0.256718
0.793515 0.304723 0.308141
0.858091 0.422675 0.390112
0.906920 0.514183 0.480446
0.129458 0.265415 0.177676
0.176608 0.263859 0.178622
0.296849 0.254490 0.181643
0.478981 0.290074 0.216587
0.654841 0.348455 0.270115
0.773556 0.422950 0.340795
0.840604 0.492317 0.421057
0.893034 0.558434 0.506462
0.248081 0.469978 0.263951
0.278813 0.473396 0.273075
0.317754 0.495216 0.273198
0.497566 0.505150 0.327581
0.638331 0.529046 0.364996
0.742000 0.543969 0.404059
0.812161 0.580377 0.476143
0.869596 0.622431 0.551934
0.346258 0.655726 0.419257
0.350927 0.657679 0.418097
0.379309 0.665980 0.420050
0.494118 0.671687 0.455177
0.625849 0.668360 0.510185
0.710994 0.675105 0.553979
0.778714 0.671168 0.564477
0.843107 0.684596 0.603693
0.464546 0.744778 0.556329
0.467597 0.745846 0.557031
0.485267 0.749142 0.563043
0.523796 0.755245 0.580743
0.618555 0.752468 0.611505
0.697963 0.752163 0.649134
0.764370 0.763851 0.689296
0.827573 0.768185 0.694636
0.546715 0.816526 0.665461
0.547387 0.816892 0.664912
0.557305 0.818631 0.668421
0.577508 0.823148 0.676875
0.627588 0.825376 0.691890
0.697993 0.824460 0.713313
0.762905 0.824979 0.738216
0.828550 0.838529 0.774380
0.589044 0.891600 0.740841
0.590631 0.891814 0.741207
0.598322 0.893645 0.743984
0.614466 0.898161 0.750668
0.639765 0.903563 0.759548
0.706294 0.901854 0.774075
0.773159 0.900359 0.791714
0.835447 0.899351 0.811856
0.000000 0.099550 0.422370
0.000000 0.085908 0.419898
0.222171 0.085878 0.398596
0.446143 0.125307 0.384771
0.659113 0.278874 0.459266
0.776883 0.423407 0.515801
0.837766 0.488411 0.541436
0.886961 0.553704 0.585534
0.000000 0.167483 0.430457
0.000000 0.147860 0.426490
0.241032 0.148867 0.405371
0.454597 0.185336 0.389654
0.656367 0.324132 0.463722
0.771420 0.439277 0.516014
0.832944 0.498146 0.541833
0.883421 0.559350 0.585687
0.000000 0.346136 0.438544
0.000000 0.338964 0.434821
0.272984 0.295720 0.417334
0.467445 0.319432 0.393500
0.644068 0.447761 0.479561
0.753048 0.486244 0.512230
0.817868 0.536553 0.547692
0.870909 0.592126 0.599329
0.153964 0.489509 0.406195
0.210513 0.486885 0.405188
0.340978 0.477546 0.403296
0.477058 0.458167 0.397314
0.618494 0.502708 0.448341
0.721584 0.549798 0.504082
0.790249 0.597253 0.564233
0.852415 0.639796 0.620325
0.392859 0.622614 0.476204
0.407050 0.623102 0.480140
0.458015 0.626551 0.498482
0.506126 0.643275 0.515373
0.615808 0.649409 0.559442
0.696620 0.659419 0.585779
0.765621 0.666590 0.607019
0.833219 0.693904 0.652338
0.529717 0.723110 0.612299
0.533562 0.725216 0.614801
0.540856 0.729488 0.615503
0.559289 0.738094 0.621485
0.619379 0.743313 0.644251
0.693385 0.743709 0.673701
0.757137 0.756558 0.702632
0.821622 0.761227 0.708644
0.581262 0.802914 0.694820
0.582391 0.803861 0.695064
0.586694 0.807126 0.695674
0.599176 0.813199 0.699947
0.628351 0.820890 0.712367
0.697780 0.820218 0.730861
0.761410 0.821164 0.753079
0.826841 0.835996 0.783871
0.611353 0.885405 0.760647
0.612085 0.885924 0.760647
0.615076 0.888243 0.760494
0.626917 0.892638 0.764218
0.649378 0.898863 0.772671
0.704555 0.900328 0.785611
0.773251 0.899321 0.802731
0.837064 0.899199 0.822629
0.000000 0.143954 0.651240
0.000000 0.124605 0.649683
0.000000 0.135317 0.637171
0.424292 0.178470 0.611688
0.609522 0.272343 0.601343
0.743771 0.434943 0.638575
0.798978 0.605035 0.686671
0.862730 0.633448 0.706996
0.000000 0.213809 0.651362
0.000000 0.197055 0.650111
0.000000 0.193301 0.638544
0.432532 0.230838 0.612421
0.609216 0.310277 0.601251
0.738918 0.459449 0.638819
0.795956 0.610529 0.686976
0.860441 0.637110 0.706905
0.000000 0.404791 0.644984
0.000000 0.394171 0.643427
0.173342 0.349645 0.635279
0.450996 0.364691 0.611902
0.603235 0.415045 0.595972
0.719905 0.530480 0.637079
0.784390 0.625605 0.683772
0.851072 0.647456 0.703273
0.000000 0.557275 0.635523
0.000000 0.554925 0.634485
0.306004 0.543938 0.629084
0.463783 0.507652 0.609216
0.594812 0.525078 0.588464
0.697200 0.616175 0.646448
0.769467 0.642359 0.672663
0.839780 0.660639 0.692592
0.316014 0.638788 0.592523
0.336370 0.637537 0.592096
0.404273 0.631617 0.589746
0.495094 0.619593 0.583703
0.583703 0.599634 0.570855
0.676417 0.631800 0.612116
0.751461 0.663630 0.653407
0.824155 0.693141 0.691890
0.499977 0.696590 0.608545
0.506676 0.697017 0.611170
0.531609 0.697810 0.619867
0.572473 0.700893 0.636805
0.607782 0.714534 0.653712
0.678828 0.722988 0.684627
0.743374 0.736782 0.705715
0.812314 0.743526 0.716670
0.592645 0.781704 0.708278
0.595361 0.781857 0.709194
0.607233 0.783169 0.713924
0.622156 0.789609 0.720180
0.637079 0.801358 0.725582
0.688289 0.808621 0.743099
0.754421 0.810636 0.764645
0.820432 0.826169 0.788449
0.632929 0.869169 0.778683
0.633570 0.869749 0.778683
0.636500 0.872404 0.778775
0.643763 0.879118 0.780636
0.658137 0.887449 0.784360
0.694057 0.895872 0.796780
0.768460 0.895140 0.813596
0.835569 0.895445 0.833158
0.000000 0.209659 0.773861
0.000000 0.197879 0.773190
0.000000 0.210025 0.766354
0.361822 0.258946 0.752895
0.561913 0.343481 0.732418
0.686824 0.439765 0.725154
0.781125 0.557519 0.743771
0.844663 0.674342 0.783078
0.000000 0.267613 0.769558
0.000000 0.257786 0.768429
0.000000 0.255070 0.762600
0.372778 0.298436 0.749569
0.561547 0.369177 0.728664
0.683619 0.455390 0.721645
0.776730 0.567407 0.741390
0.842069 0.678218 0.782437
0.000000 0.439277 0.762844
0.000000 0.433173 0.761990
0.110353 0.408576 0.758389
0.410529 0.421759 0.745296
0.567224 0.462898 0.725093
0.677546 0.519860 0.717433
0.765438 0.610468 0.741421
0.838224 0.699123 0.787381
0.237888 0.587701 0.754574
0.277134 0.586603 0.752926
0.389746 0.583948 0.745968
0.464546 0.558343 0.740047
0.580957 0.570153 0.723018
0.671473 0.599054 0.713222
0.754299 0.664607 0.745846
0.835172 0.726101 0.793698
0.346471 0.673854 0.736599
0.364324 0.673030 0.735988
0.426001 0.669917 0.733639
0.509728 0.663905 0.729458
0.585779 0.641291 0.713527
0.662104 0.648646 0.699519
0.745480 0.707393 0.747982
0.824918 0.726986 0.774228
0.459693 0.719661 0.702419
0.468238 0.719356 0.702815
0.496590 0.715969 0.700984
0.541161 0.709804 0.697932
0.593896 0.699519 0.691371
0.650416 0.683955 0.680079
0.729793 0.711604 0.715633
0.811276 0.737636 0.748684
0.571008 0.758999 0.705989
0.574578 0.759609 0.707607
0.587457 0.761013 0.712459
0.611383 0.764218 0.722011
0.644923 0.770016 0.736477
0.675746 0.785183 0.750820
0.742245 0.793515 0.774655
0.812039 0.808682 0.791562
0.624567 0.848997 0.782223
0.626520 0.849241 0.782803
0.635523 0.851255 0.786191
0.654261 0.856168 0.793973
0.677272 0.865171 0.802884
0.695583 0.879820 0.808164
0.757717 0.888090 0.826230
0.832944 0.889647 0.846799
0.000000 0.284276 0.855772
0.000000 0.279759 0.855741
0.000000 0.288731 0.851286
0.303685 0.340093 0.842039
0.518334 0.413458 0.827024
0.640894 0.489357 0.806638
0.735622 0.562707 0.802335
0.819760 0.631464 0.817899
0.000000 0.329015 0.850706
0.000000 0.325200 0.850858
0.000000 0.323217 0.847135
0.317113 0.367010 0.837552
0.518853 0.430732 0.822538
0.638483 0.497078 0.801938
0.731716 0.564904 0.797177
0.814939 0.631464 0.812772
0.000000 0.474525 0.845243
0.000000 0.471199 0.844602
0.070344 0.457557 0.841367
0.376806 0.471046 0.832975
0.534600 0.508476 0.818387
0.642298 0.551507 0.799527
0.729885 0.603388 0.796506
0.812894 0.659876 0.816434
0.343725 0.619348 0.836912
0.353552 0.616480 0.835904
0.393500 0.606806 0.832578
0.458839 0.591608 0.827359
0.563348 0.602075 0.815091
0.652064 0.621698 0.798611
0.728481 0.650721 0.795529
0.810361 0.695918 0.820066
0.406836 0.698451 0.830106
0.418158 0.697169 0.828702
0.463600 0.694087 0.824887
0.531640 0.688808 0.818479
0.580407 0.668238 0.809476
0.655024 0.670924 0.793912
0.723018 0.686366 0.787900
0.810452 0.732998 0.824186
0.465827 0.753201 0.812009
0.472511 0.752895 0.812039
0.497749 0.751278 0.811765
0.541772 0.747372 0.810513
0.596826 0.739956 0.808011
0.654322 0.717830 0.794339
0.719997 0.722438 0.782284
0.815976 0.776761 0.832853
0.527550 0.785977 0.785031
0.531731 0.785885 0.785245
0.546471 0.784054 0.784360
0.573724 0.780484 0.782803
0.610559 0.773861 0.778866
0.654505 0.763180 0.771603
0.702785 0.744594 0.756741
0.796811 0.775845 0.794522
0.600092 0.819699 0.775875
0.602197 0.820127 0.776730
0.611841 0.822629 0.780911
0.629572 0.826474 0.787808
0.656794 0.832639 0.798428
0.696101 0.842893 0.814572
0.737270 0.864500 0.832181
0.822385 0.874846 0.858213
0.000000 0.360357 0.926757
0.000000 0.358282 0.926574
0.000000 0.360571 0.923278
0.250858 0.407080 0.916442
0.481758 0.470008 0.905364
0.615198 0.534569 0.890288
0.707881 0.592615 0.872374
0.790585 0.639094 0.872038
0.000000 0.393774 0.923613
0.000000 0.392035 0.923522
0.000000 0.387854 0.920989
0.270573 0.429206 0.914031
0.485328 0.485206 0.903197
0.615778 0.544274 0.888365
0.706752 0.596948 0.870298
0.788479 0.641016 0.869657
0.000000 0.504997 0.917906
0.000000 0.503502 0.917510
0.000000 0.495705 0.915160
0.340673 0.509789 0.910704
0.506859 0.546014 0.900053
0.623407 0.585962 0.885588
0.708370 0.622492 0.868620
0.787350 0.658076 0.868315
0.298802 0.626734 0.910857
0.312596 0.625818 0.910643
0.359075 0.619867 0.908598
0.430762 0.610681 0.905180
0.537652 0.621057 0.896849
0.635309 0.640375 0.884276
0.712581 0.660304 0.868559
0.787686 0.685634 0.868132
0.416236 0.714137 0.906828
0.426825 0.714107 0.906798
0.465797 0.712245 0.904387
0.510491 0.702174 0.900755
0.557549 0.683406 0.894987
0.639948 0.686580 0.883482
0.714626 0.696223 0.868345
0.787808 0.714931 0.867155
0.447059 0.777096 0.901427
0.452644 0.776364 0.901030
0.476600 0.774014 0.900450
0.523095 0.768185 0.898528
0.585382 0.757717 0.894560
0.638666 0.735195 0.887388
0.717739 0.737362 0.873533
0.791501 0.751034 0.869169
0.489235 0.827665 0.887175
0.493050 0.827298 0.887114
0.509087 0.825711 0.887083
0.540002 0.823117 0.887663
0.585779 0.818265 0.888304
0.645441 0.809995 0.889006
0.710475 0.782712 0.877714
0.788510 0.785550 0.863249
0.540764 0.860868 0.863340
0.543175 0.860502 0.863188
0.554223 0.859403 0.862821
0.576287 0.857633 0.862516
0.608728 0.854093 0.861387
0.651331 0.847562 0.858488
0.703670 0.835599 0.851591
0.762692 0.808347 0.831052
