20 Preset/Portrait Preset/【3】LUT for PR-AE-FCPX/Film Portrait - LUT  (5).cube
# Created by Adobe Lightroom plugin Export LUT (1.24.0)
# www.johnrellis.com/lightroom/exportlut.htm
# Preset: 灰青电影-素材江湖05
# Color profile: E:\lut插件\exportlut.1.24\exportlut.lrplugin\color profiles\Rec709gamma2.4.icc
LUT_3D_SIZE 5
DOMAIN_MIN 0.000000 0.000000 0.000000
DOMAIN_MAX 0.903226 0.903226 0.903226
0.058534 0.101015 0.120760
0.195895 0.088685 0.119081
0.647150 0.031312 0.000000
0.879210 0.233097 0.000000
1.000000 0.323369 0.000000
0.092409 0.127901 0.144594
0.116762 0.155276 0.135683
0.604791 0.281804 0.000000
0.864591 0.325444 0.000000
1.000000 0.381781 0.000000
0.400336 0.379095 0.348486
0.416144 0.391913 0.360266
0.496040 0.469734 0.318944
0.799924 0.540124 0.127352
0.970886 0.543847 0.000000
0.637934 0.588922 0.560143
0.647120 0.598108 0.570062
0.654536 0.605554 0.578180
0.697444 0.654658 0.526055
0.882109 0.713069 0.434058
0.776394 0.736172 0.721370
0.780240 0.740475 0.726040
0.779568 0.739712 0.725246
0.790494 0.752071 0.738643
0.835782 0.805264 0.694179
0.113466 0.151858 0.164157
0.129915 0.167575 0.176669
0.641779 0.000000 0.195621
0.890379 0.086336 0.132998
1.000000 0.285557 0.000000
0.163485 0.196078 0.198581
0.242313 0.255802 0.244358
0.661952 0.237644 0.217380
0.872862 0.287083 0.150240
1.000000 0.357977 0.076387
0.427863 0.401465 0.369207
0.454658 0.423590 0.390173
0.516045 0.486000 0.375860
0.802060 0.541650 0.265751
0.970062 0.546349 0.232547
0.644892 0.595880 0.567620
0.653986 0.605066 0.577600
0.668971 0.620386 0.594324
0.703395 0.661036 0.552026
0.886503 0.717128 0.463264
0.777340 0.737240 0.722560
0.780911 0.741268 0.726894
0.790372 0.751949 0.738521
0.798734 0.761471 0.748806
0.841611 0.812375 0.706996
0.458961 0.427131 0.393622
0.472847 0.438788 0.404883
0.512383 0.472663 0.438422
0.686305 0.555932 0.539666
0.962646 0.470710 0.494423
0.500389 0.462348 0.428077
0.508873 0.469673 0.435370
0.542168 0.498848 0.465003
0.718654 0.556420 0.545373
0.972534 0.484199 0.499275
0.542077 0.498817 0.464973
0.557977 0.513024 0.479652
0.625574 0.576684 0.546929
0.802090 0.586023 0.568597
0.965026 0.585229 0.523033
0.667964 0.619287 0.593164
0.672847 0.624384 0.598657
0.701015 0.653742 0.630976
0.728725 0.687953 0.636347
0.901701 0.735103 0.582391
0.777066 0.736904 0.722194
0.781369 0.741787 0.727474
0.798947 0.761715 0.749081
0.813474 0.778408 0.767086
0.847013 0.819669 0.733669
0.668727 0.620111 0.594018
0.673243 0.624781 0.599115
0.686122 0.638087 0.613733
0.701076 0.653834 0.631067
0.758175 0.715816 0.699184
0.676875 0.628473 0.603204
0.679438 0.631128 0.606104
0.690608 0.642847 0.618952
0.705318 0.658350 0.636042
0.761196 0.719142 0.702815
0.684993 0.636957 0.612512
0.690242 0.642420 0.618494
0.708675 0.661860 0.639918
0.725521 0.680018 0.659937
0.783383 0.744015 0.729915
0.714412 0.668055 0.646723
0.716976 0.670832 0.649775
0.732448 0.687526 0.668177
0.772641 0.731930 0.716762
0.934081 0.741909 0.736233
0.791653 0.753414 0.740078
0.794339 0.756466 0.743374
0.807187 0.771145 0.759274
0.841001 0.810361 0.801358
0.868406 0.846067 0.802090
0.792294 0.754116 0.740841
0.792905 0.754849 0.741634
0.798184 0.760830 0.748135
0.807645 0.771664 0.759823
0.818540 0.784268 0.773404
0.792294 0.754177 0.740902
0.793271 0.755245 0.742092
0.798184 0.760861 0.748135
0.807706 0.771695 0.759884
0.820066 0.786007 0.775265
0.801694 0.764858 0.752438
0.801846 0.764981 0.752621
0.806027 0.769802 0.757839
0.815915 0.781216 0.770108
0.834623 0.802884 0.793393
0.811917 0.776608 0.765103
0.812406 0.777127 0.765682
0.819791 0.785702 0.774929
0.844236 0.814176 0.805417
0.865232 0.838956 0.831815
0.837766 0.806577 0.797330
0.838895 0.807889 0.798734
0.847166 0.817624 0.809140
0.865721 0.839506 0.832395
0.907439 0.889250 0.884916
