20 Preset/Portrait Preset/【3】LUT for PR-AE-FCPX/Film Portrait - LUT  (5).cube
# Created by Adobe Lightroom plugin Export LUT (1.24.0)
# www.johnrellis.com/lightroom/exportlut.htm
# Preset: 灰青电影-素材江湖05
# Color profile: E:\lut插件\exportlut.1.24\exportlut.lrplugin\color profiles\Rec709gamma2.4.icc
LUT_3D_SIZE 8
DOMAIN_MIN 0.000000 0.000000 0.000000
DOMAIN_MAX 0.903226 0.903226 0.903226
0.058534 0.101015 0.120760
0.060517 0.100954 0.120760
0.267277 0.058717 0.116823
0.542718 0.000000 0.080476
0.730465 0.131960 0.000000
0.853971 0.218479 0.000000
0.940673 0.270878 0.000000
1.000000 0.323369 0.000000
0.059541 0.100649 0.120516
0.060365 0.102052 0.120638
0.228885 0.128664 0.111666
0.510369 0.146609 0.051118
0.708492 0.199374 0.000000
0.841886 0.245823 0.000000
0.926604 0.285161 0.000000
1.000000 0.332647 0.000000
0.113741 0.151644 0.164004
0.119997 0.158083 0.169253
0.155215 0.194278 0.149844
0.463935 0.294316 0.000000
0.689204 0.326909 0.000000
0.833158 0.347936 0.000000
0.925200 0.367895 0.000000
1.000000 0.398932 0.000000
0.306279 0.304662 0.283635
0.316655 0.312779 0.290349
0.325994 0.319982 0.296483
0.397436 0.388983 0.251316
0.640894 0.469490 0.110536
0.809018 0.485939 0.000000
0.902892 0.481392 0.000000
0.987854 0.493263 0.000000
0.483345 0.447761 0.413672
0.488624 0.452216 0.418097
0.499855 0.461860 0.427619
0.511803 0.472175 0.437903
0.566217 0.530297 0.377813
0.719081 0.580072 0.277409
0.847745 0.589990 0.215732
0.953521 0.597223 0.153964
0.607385 0.559075 0.528069
0.614008 0.565454 0.534874
0.622461 0.573663 0.543725
0.626856 0.577966 0.548333
0.633478 0.587243 0.551812
0.677028 0.634272 0.497230
0.776089 0.668879 0.431067
0.898924 0.695949 0.391089
0.699123 0.651789 0.628779
0.701076 0.653834 0.631067
0.705806 0.658900 0.636622
0.707698 0.660822 0.638788
0.709987 0.663325 0.641535
0.716670 0.677302 0.637385
0.752163 0.711849 0.602167
0.832761 0.747799 0.552392
0.776394 0.736172 0.721370
0.777279 0.737179 0.722499
0.781796 0.742245 0.727962
0.785336 0.746212 0.732265
0.781857 0.742275 0.727993
0.788388 0.749722 0.736080
0.800412 0.773678 0.727474
0.835782 0.805264 0.694179
0.062104 0.102968 0.122499
0.062104 0.102968 0.122499
0.248325 0.048951 0.123354
0.547173 0.000000 0.098756
0.731472 0.007202 0.000000
0.852140 0.176333 0.000000
0.929534 0.242283 0.000000
1.000000 0.302739 0.000000
0.065705 0.104219 0.123720
0.076936 0.112947 0.131380
0.270298 0.110567 0.126833
0.535210 0.101686 0.091829
0.722621 0.155734 0.000000
0.845640 0.216617 0.000000
0.921996 0.264012 0.000000
0.998169 0.315679 0.000000
0.130800 0.168185 0.177249
0.146761 0.182620 0.188174
0.188418 0.222263 0.182437
0.493111 0.299748 0.081666
0.696956 0.314946 0.000000
0.829740 0.332067 0.000000
0.913359 0.349828 0.000000
0.994873 0.383215 0.000000
0.309117 0.306889 0.285435
0.319768 0.315221 0.292454
0.343053 0.333379 0.307927
0.398260 0.389258 0.266575
0.630701 0.457710 0.140810
0.795651 0.471168 0.000000
0.888579 0.466011 0.000000
0.975189 0.479347 0.000000
0.484657 0.448829 0.414710
0.488960 0.452522 0.418372
0.503899 0.465339 0.431128
0.511711 0.472114 0.437842
0.559472 0.524346 0.380163
0.713802 0.573785 0.282048
0.842374 0.583581 0.228855
0.946441 0.590051 0.179965
0.603113 0.555016 0.523735
0.606226 0.557977 0.526909
0.618189 0.569482 0.539239
0.623560 0.574762 0.544823
0.631098 0.583062 0.551690
0.675074 0.632380 0.499611
0.774319 0.666651 0.433661
0.895781 0.691768 0.392798
0.694728 0.647150 0.623713
0.695247 0.647700 0.624262
0.700191 0.652888 0.630030
0.703853 0.656794 0.634302
0.707698 0.660883 0.638819
0.714015 0.673854 0.635676
0.747768 0.707149 0.598871
0.827909 0.742184 0.547478
0.772061 0.731258 0.716030
0.773831 0.733242 0.718196
0.778134 0.738064 0.723445
0.782620 0.743191 0.729000
0.786374 0.747433 0.733608
0.790616 0.752255 0.738796
0.800351 0.773404 0.728511
0.835355 0.804898 0.694942
0.153262 0.188388 0.192569
0.159701 0.193332 0.196445
0.182315 0.210788 0.209873
0.379461 0.282170 0.278843
0.729305 0.000000 0.239292
0.882628 0.000000 0.206363
0.950011 0.204257 0.181247
1.000000 0.289158 0.145968
0.187198 0.214298 0.212558
0.192874 0.218753 0.215885
0.215152 0.235416 0.228702
0.417639 0.281376 0.283543
0.735622 0.099275 0.243015
0.873198 0.121950 0.211856
0.941924 0.236362 0.181125
1.000000 0.305791 0.146395
0.226932 0.244205 0.235416
0.244450 0.257298 0.245579
0.317723 0.313512 0.291051
0.557397 0.306584 0.303685
0.742885 0.307317 0.268193
0.852323 0.325444 0.234287
0.927855 0.349615 0.206241
1.000000 0.383368 0.176455
0.358618 0.345647 0.318547
0.370825 0.355413 0.327184
0.416327 0.392004 0.360388
0.465309 0.441077 0.369421
0.679286 0.493324 0.312047
0.810422 0.488106 0.286625
0.899290 0.481910 0.260410
0.983795 0.491341 0.234531
0.509697 0.470314 0.436103
0.514519 0.474495 0.440284
0.535851 0.493202 0.459236
0.560143 0.515038 0.481727
0.592126 0.553399 0.445808
0.737087 0.592554 0.356146
0.851682 0.597925 0.338811
0.950317 0.601129 0.311742
0.615015 0.566430 0.535973
0.618189 0.569543 0.539269
0.629297 0.580438 0.550927
0.644678 0.595697 0.567437
0.650446 0.601465 0.573724
0.684474 0.642176 0.533532
0.782559 0.675715 0.472572
0.902434 0.699641 0.440345
0.700923 0.653681 0.630854
0.701534 0.654322 0.631586
0.705653 0.658717 0.636408
0.713710 0.667323 0.645930
0.716793 0.670619 0.649561
0.722591 0.680446 0.651179
0.755489 0.715969 0.617914
0.837308 0.753017 0.573266
0.774136 0.733608 0.718593
0.774655 0.734249 0.719234
0.778866 0.738949 0.724392
0.788266 0.749569 0.735927
0.791745 0.753536 0.740230
0.796780 0.759243 0.746395
0.805600 0.778195 0.739437
0.839322 0.809842 0.705684
0.367376 0.352667 0.324743
0.374762 0.358434 0.329839
0.393591 0.373602 0.343542
0.418799 0.394049 0.362280
0.509758 0.470405 0.436164
0.755550 0.437873 0.451087
0.899565 0.379461 0.414923
1.000000 0.344823 0.378271
0.392370 0.372686 0.342657
0.396674 0.376074 0.345739
0.411658 0.388220 0.356878
0.435187 0.407416 0.374792
0.520806 0.480018 0.445808
0.763241 0.439673 0.452827
0.901335 0.386145 0.417212
1.000000 0.351385 0.378973
0.419928 0.394903 0.363073
0.429725 0.402930 0.370581
0.456031 0.424781 0.391333
0.481422 0.446021 0.412024
0.555932 0.511223 0.477790
0.793240 0.456458 0.464759
0.915831 0.430945 0.440772
1.000000 0.426551 0.402747
0.461799 0.429511 0.395941
0.467872 0.434607 0.400824
0.495766 0.458259 0.424048
0.553338 0.508843 0.475349
0.676783 0.527092 0.506828
0.809262 0.514946 0.486183
0.896086 0.516594 0.459449
0.982605 0.520348 0.426551
0.547539 0.503655 0.470008
0.551965 0.507652 0.474098
0.572869 0.526635 0.493843
0.610956 0.562493 0.531701
0.641871 0.597223 0.553521
0.757382 0.625544 0.516564
0.856229 0.626337 0.501884
0.951537 0.624231 0.470466
0.640558 0.591547 0.562951
0.645594 0.596582 0.568414
0.654261 0.605341 0.577935
0.672724 0.624231 0.598505
0.689509 0.641688 0.617700
0.705348 0.663355 0.597681
0.800687 0.694667 0.543023
0.912383 0.715663 0.529717
0.709194 0.662501 0.640589
0.710658 0.664027 0.642298
0.715969 0.669673 0.648554
0.726802 0.681422 0.661463
0.738430 0.694087 0.675380
0.742336 0.698360 0.680049
0.767971 0.730465 0.649134
0.851438 0.767819 0.609583
0.780148 0.740414 0.725948
0.781064 0.741390 0.727047
0.785122 0.745998 0.732052
0.794095 0.756191 0.743099
0.803738 0.767239 0.755032
0.808011 0.772091 0.760281
0.814847 0.785885 0.759091
0.846708 0.818906 0.726162
0.533928 0.491493 0.457527
0.537713 0.494942 0.460975
0.547387 0.503532 0.469825
0.567834 0.522026 0.489021
0.584710 0.537652 0.505364
0.631342 0.582391 0.553094
0.733333 0.617304 0.603296
0.900267 0.575555 0.588739
0.544976 0.501366 0.467628
0.548577 0.504570 0.470954
0.558190 0.513268 0.479957
0.574823 0.528435 0.495735
0.590600 0.543114 0.511131
0.635492 0.586481 0.557458
0.738735 0.617639 0.604547
0.903838 0.575433 0.588525
0.571771 0.525628 0.492805
0.573816 0.527520 0.494759
0.580102 0.533349 0.500877
0.592981 0.545403 0.513542
0.608148 0.559777 0.528832
0.646571 0.597559 0.569451
0.759915 0.615961 0.606226
0.916106 0.574273 0.585870
0.578973 0.532280 0.499733
0.581994 0.535088 0.502647
0.597040 0.549187 0.517601
0.626612 0.577722 0.548028
0.646448 0.597467 0.569360
0.676753 0.628351 0.603082
0.805661 0.619226 0.614069
0.944701 0.585321 0.589410
0.606928 0.558618 0.527611
0.610010 0.561608 0.530785
0.622034 0.573236 0.543206
0.645594 0.596582 0.568414
0.678859 0.630518 0.605432
0.727718 0.652735 0.634150
0.857816 0.636133 0.619745
0.949950 0.636927 0.596582
0.649073 0.600092 0.572259
0.651637 0.602655 0.574975
0.660182 0.611353 0.584436
0.677974 0.629603 0.604456
0.703761 0.656703 0.634211
0.726772 0.683375 0.657649
0.820157 0.714595 0.633173
0.920348 0.725002 0.621851
0.716426 0.670192 0.649104
0.716854 0.670649 0.649561
0.720150 0.674189 0.653529
0.730800 0.685695 0.666194
0.748959 0.705623 0.688045
0.764462 0.722805 0.706813
0.780087 0.744656 0.688258
0.868803 0.778958 0.644587
0.777188 0.737087 0.722347
0.778012 0.738003 0.723354
0.781979 0.742458 0.728206
0.793240 0.755215 0.742031
0.808255 0.772396 0.760586
0.820981 0.787076 0.776425
0.825711 0.792538 0.782284
0.851774 0.825589 0.748959
0.654566 0.605676 0.578271
0.656703 0.607813 0.580591
0.659998 0.611139 0.584253
0.668269 0.619593 0.593500
0.679133 0.630854 0.605798
0.686305 0.638300 0.613977
0.710353 0.663691 0.641932
0.757626 0.715206 0.698512
0.651820 0.602869 0.575219
0.652674 0.603723 0.576165
0.656428 0.607477 0.580255
0.664454 0.615686 0.589227
0.676448 0.628077 0.602747
0.684993 0.636957 0.612512
0.709346 0.662623 0.640772
0.756588 0.714046 0.697261
0.666865 0.618189 0.591943
0.667353 0.618677 0.592493
0.670527 0.621912 0.596002
0.674800 0.626398 0.600885
0.685451 0.637446 0.613031
0.694697 0.647120 0.623682
0.717250 0.671046 0.650050
0.763607 0.721798 0.705715
0.676722 0.628321 0.603052
0.678218 0.629877 0.604730
0.686488 0.638453 0.614160
0.694789 0.647211 0.623774
0.705043 0.658106 0.635737
0.715206 0.668879 0.647639
0.735744 0.691157 0.672145
0.807553 0.724483 0.716182
0.679896 0.631586 0.606622
0.681025 0.632807 0.607935
0.686366 0.638392 0.614038
0.697322 0.649866 0.626673
0.718257 0.672175 0.651301
0.732784 0.687892 0.668574
0.753689 0.710811 0.693721
0.871702 0.709895 0.711116
0.695979 0.648463 0.625147
0.698024 0.650568 0.627497
0.702449 0.655238 0.632624
0.711360 0.664759 0.643122
0.726619 0.681178 0.661219
0.754269 0.711452 0.694423
0.810391 0.736568 0.726741
0.939727 0.723171 0.711788
0.727993 0.682704 0.662867
0.729732 0.684596 0.664942
0.734493 0.689723 0.670588
0.744503 0.700710 0.682673
0.761837 0.719844 0.703578
0.787015 0.748165 0.734371
0.807034 0.773495 0.753414
0.898741 0.802976 0.723842
0.787900 0.749172 0.735470
0.788113 0.749386 0.735714
0.790585 0.752163 0.738735
0.797238 0.759792 0.746975
0.809384 0.773678 0.761990
0.831754 0.799588 0.789822
0.847257 0.817716 0.809232
0.863981 0.840726 0.789120
0.723537 0.677821 0.657527
0.725032 0.679500 0.659327
0.726833 0.681422 0.661433
0.731533 0.686549 0.667048
0.737911 0.693477 0.674739
0.746700 0.703090 0.685267
0.751064 0.707942 0.690578
0.768154 0.726955 0.711330
0.720516 0.674647 0.653986
0.722255 0.676509 0.656062
0.724208 0.678584 0.658320
0.727962 0.682673 0.662806
0.733913 0.689113 0.669917
0.741848 0.697780 0.679438
0.745510 0.701839 0.683864
0.762020 0.720058 0.703792
0.728695 0.683467 0.663691
0.729152 0.683925 0.664179
0.730159 0.685054 0.665461
0.733547 0.688685 0.669459
0.738552 0.694179 0.675471
0.747127 0.703578 0.685786
0.754086 0.711269 0.694209
0.773037 0.732387 0.717250
0.740475 0.696254 0.677790
0.740169 0.695949 0.677455
0.740871 0.696681 0.678218
0.744869 0.701106 0.683070
0.750393 0.707240 0.689754
0.760372 0.718227 0.701808
0.769284 0.728176 0.712673
0.787289 0.748470 0.734737
0.737514 0.693019 0.674220
0.737453 0.692988 0.674189
0.740932 0.696834 0.678370
0.750973 0.707851 0.690455
0.759060 0.716823 0.700282
0.769253 0.728145 0.712642
0.781033 0.741360 0.727016
0.804227 0.767788 0.755612
0.745541 0.701839 0.683894
0.746334 0.702754 0.684871
0.749264 0.705928 0.688380
0.755367 0.712673 0.695735
0.765377 0.723873 0.707942
0.790494 0.752071 0.738643
0.809262 0.773556 0.761837
0.830716 0.798398 0.788540
0.763882 0.722164 0.706081
0.765164 0.723568 0.707668
0.767910 0.726619 0.710994
0.774228 0.733700 0.718685
0.784360 0.745174 0.731136
0.801602 0.764736 0.752346
0.829923 0.797452 0.787564
0.899870 0.817594 0.815244
0.796170 0.758572 0.745663
0.797147 0.759670 0.746853
0.802182 0.765377 0.753048
0.809751 0.774105 0.762417
0.821500 0.787655 0.777035
0.840116 0.809384 0.800290
0.867399 0.841489 0.834531
0.885924 0.866209 0.847868
0.792294 0.754116 0.740841
0.793149 0.755093 0.741909
0.793149 0.755123 0.741939
0.796139 0.758511 0.745602
0.800229 0.763180 0.750668
0.805692 0.769436 0.757412
0.814145 0.779171 0.767941
0.818540 0.784268 0.773404
0.790036 0.751583 0.738125
0.791012 0.752651 0.739254
0.791775 0.753567 0.740261
0.794400 0.756527 0.743465
0.798550 0.761227 0.748531
0.804105 0.767605 0.755459
0.812253 0.776974 0.765530
0.816556 0.781979 0.770901
0.792447 0.754299 0.741054
0.792874 0.754757 0.741573
0.793271 0.755276 0.742092
0.797879 0.760494 0.747768
0.801144 0.764218 0.751766
0.805936 0.769772 0.757748
0.814603 0.779721 0.768490
0.819913 0.785824 0.775082
0.797879 0.760525 0.747768
0.798581 0.761288 0.748623
0.799405 0.762295 0.749660
0.802640 0.765957 0.753658
0.806973 0.770932 0.758999
0.812955 0.777768 0.766384
0.822324 0.788632 0.778073
0.829343 0.796719 0.786770
0.803311 0.766720 0.754482
0.804440 0.768063 0.755917
0.806760 0.770626 0.758724
0.809415 0.773739 0.762051
0.813687 0.778653 0.767361
0.820401 0.786404 0.775692
0.831540 0.799313 0.789548
0.842710 0.812406 0.803525
0.805570 0.769345 0.757290
0.805325 0.769009 0.756954
0.805600 0.769345 0.757321
0.811002 0.775540 0.764004
0.822690 0.789029 0.778531
0.835966 0.804501 0.795102
0.851530 0.822721 0.814542
0.861082 0.834012 0.826566
0.824033 0.790585 0.780209
0.824338 0.790921 0.780575
0.825834 0.792691 0.782406
0.830167 0.797757 0.787869
0.836393 0.804959 0.795590
0.846006 0.816251 0.807645
0.867308 0.841398 0.834440
0.882597 0.859525 0.853635
0.837766 0.806577 0.797330
0.837919 0.806729 0.797482
0.839506 0.808621 0.799527
0.843931 0.813840 0.805051
0.850980 0.822110 0.813901
0.861906 0.835050 0.827665
0.880217 0.856718 0.850645
0.907439 0.889250 0.884916
