20 Preset/Portrait Preset/【3】LUT for PR-AE-FCPX/Film Portrait - LUT  (6).cube
# Created by Adobe Lightroom plugin Export LUT (1.24.0)
# www.johnrellis.com/lightroom/exportlut.htm
# Preset: 灰青电影-素材江湖06
# Color profile: E:\lut插件\exportlut.1.24\exportlut.lrplugin\color profiles\Rec709gamma2.4.icc
LUT_3D_SIZE 5
DOMAIN_MIN 0.000000 0.000000 0.000000
DOMAIN_MAX 0.903226 0.903226 0.903226
0.112947 0.106386 0.103517
0.187015 0.105745 0.116487
0.438331 0.000000 0.122652
0.745022 0.000000 0.125490
0.993835 0.096773 0.206638
0.085817 0.190768 0.126680
0.186831 0.194980 0.123140
0.445075 0.219211 0.123903
0.743648 0.231632 0.147280
0.989807 0.267491 0.235233
0.000000 0.464607 0.231266
0.000000 0.470436 0.205020
0.423499 0.464607 0.208957
0.723537 0.488258 0.243107
0.971435 0.520165 0.342596
0.000000 0.744198 0.429114
0.000000 0.747280 0.409949
0.331395 0.752682 0.409766
0.663478 0.730159 0.399237
0.916258 0.732692 0.464271
0.551995 0.918639 0.705165
0.558343 0.919554 0.701778
0.603784 0.921874 0.698970
0.715511 0.921935 0.716915
0.865690 0.912566 0.707240
0.124392 0.114351 0.166354
0.205295 0.122499 0.172091
0.448524 0.121370 0.210269
0.745846 0.096193 0.240024
0.989319 0.201419 0.306767
0.135042 0.207126 0.192660
0.217594 0.217319 0.198917
0.458167 0.235355 0.219791
0.744961 0.258396 0.257084
0.985443 0.309331 0.326635
0.000000 0.473487 0.309789
0.149996 0.478431 0.299077
0.442267 0.476967 0.288121
0.732692 0.502800 0.324468
0.967224 0.536736 0.409400
0.138613 0.744472 0.488045
0.179995 0.747189 0.474708
0.385779 0.753994 0.460975
0.672755 0.734035 0.449104
0.916289 0.739620 0.510002
0.585840 0.917144 0.726802
0.591211 0.918090 0.723476
0.624506 0.921050 0.716579
0.727260 0.921660 0.734279
0.868620 0.912688 0.722652
0.199283 0.158846 0.373022
0.284245 0.167575 0.385443
0.499855 0.199100 0.414618
0.764492 0.258976 0.461830
0.968994 0.397711 0.533928
0.206668 0.261143 0.388037
0.289799 0.270237 0.400366
0.507256 0.299748 0.431708
0.760189 0.351171 0.476570
0.964843 0.449409 0.545190
0.218814 0.500877 0.468940
0.311772 0.508751 0.475959
0.523247 0.535454 0.499306
0.756130 0.552667 0.524590
0.953796 0.592981 0.580591
0.341833 0.755612 0.600824
0.403265 0.755795 0.605615
0.541527 0.760159 0.612268
0.709773 0.750546 0.597162
0.917784 0.767514 0.649622
0.606317 0.918883 0.763302
0.634424 0.917937 0.769589
0.703212 0.917327 0.782193
0.766201 0.920409 0.785672
0.879179 0.913481 0.773190
0.319219 0.261204 0.623102
0.383185 0.272953 0.632929
0.579065 0.323125 0.671778
0.800900 0.382666 0.690822
0.968627 0.506828 0.707240
0.328649 0.341619 0.626337
0.388708 0.351354 0.635920
0.578790 0.396094 0.674250
0.796841 0.449256 0.696498
0.959380 0.553246 0.716548
0.325719 0.509056 0.634485
0.377600 0.511376 0.635126
0.568750 0.561028 0.678004
0.774105 0.613489 0.710506
0.935485 0.677211 0.749935
0.459236 0.764126 0.734676
0.501274 0.765927 0.737148
0.630182 0.775418 0.749355
0.778378 0.792050 0.768948
0.924163 0.805142 0.792996
0.659174 0.922484 0.830594
0.675471 0.921996 0.832395
0.734981 0.920317 0.839689
0.823026 0.919249 0.854124
0.896788 0.916411 0.844388
0.479530 0.425666 0.845884
0.517723 0.435828 0.848539
0.650813 0.484962 0.861631
0.829709 0.584497 0.880980
0.969574 0.636835 0.877256
0.479744 0.464912 0.839841
0.517357 0.474525 0.843046
0.647913 0.518669 0.856413
0.824125 0.610224 0.876890
0.962585 0.658137 0.875853
0.458595 0.567224 0.828977
0.501396 0.577295 0.831815
0.635889 0.616236 0.846159
0.809598 0.689418 0.870542
0.945190 0.737514 0.880278
0.478553 0.738735 0.851041
0.500511 0.736294 0.849241
0.587335 0.730465 0.845457
0.787930 0.785031 0.872007
0.927428 0.844541 0.896605
0.685908 0.919158 0.902495
0.698909 0.918791 0.902464
0.754879 0.918975 0.904509
0.840116 0.918914 0.908171
0.919493 0.923644 0.917540
