20 Preset/Portrait Preset/【3】LUT for PR-AE-FCPX/Film Portrait - LUT  (4).cube
# Created by Adobe Lightroom plugin Export LUT (1.24.0)
# www.johnrellis.com/lightroom/exportlut.htm
# Preset: 灰青电影-素材江湖04
# Color profile: E:\lut插件\exportlut.1.24\exportlut.lrplugin\color profiles\Rec709gamma2.4.icc
LUT_3D_SIZE 5
DOMAIN_MIN 0.000000 0.000000 0.000000
DOMAIN_MAX 0.903226 0.903226 0.903226
0.047669 0.024628 0.005890
0.196384 0.029938 0.008179
0.592432 0.000000 0.000000
0.847471 0.233341 0.112001
0.941039 0.458900 0.360845
0.000000 0.217044 0.000000
0.230869 0.220462 0.000000
0.584649 0.254856 0.000000
0.826291 0.379767 0.175906
0.925170 0.516869 0.405859
0.000000 0.624445 0.184939
0.063783 0.631800 0.204105
0.587427 0.629114 0.350866
0.762875 0.624628 0.423896
0.872618 0.644434 0.524651
0.451423 0.779416 0.556756
0.471534 0.781613 0.564813
0.576776 0.783047 0.600397
0.719051 0.778134 0.660883
0.832181 0.792264 0.707332
0.580041 0.897887 0.733120
0.587335 0.899413 0.735683
0.614008 0.903044 0.742611
0.722438 0.902037 0.769192
0.834897 0.899931 0.804715
0.022766 0.052705 0.127321
0.197269 0.058778 0.120333
0.583734 0.000000 0.188571
0.822873 0.291814 0.282506
0.916228 0.490639 0.447395
0.126436 0.213352 0.134157
0.248692 0.206943 0.138918
0.573449 0.268070 0.195621
0.803464 0.402930 0.312871
0.902739 0.535607 0.473701
0.249424 0.585809 0.313542
0.284123 0.597894 0.308782
0.572961 0.605158 0.399481
0.747341 0.610559 0.455512
0.860166 0.652949 0.566918
0.484840 0.769467 0.584863
0.500267 0.772244 0.591180
0.580987 0.777401 0.620661
0.716457 0.773648 0.673487
0.828428 0.789273 0.714382
0.588098 0.894499 0.740505
0.594995 0.895995 0.742824
0.623865 0.902922 0.753506
0.724269 0.902708 0.777310
0.836881 0.900999 0.811826
0.000000 0.118929 0.550164
0.000000 0.104250 0.535760
0.539117 0.190860 0.503044
0.772671 0.514733 0.606622
0.874266 0.594446 0.649989
0.000000 0.331243 0.552117
0.091371 0.278843 0.541405
0.543999 0.330938 0.503716
0.756527 0.546105 0.604883
0.864744 0.610864 0.650507
0.233799 0.573938 0.508385
0.339574 0.566430 0.505425
0.536797 0.537102 0.491920
0.715236 0.605768 0.577539
0.836332 0.669184 0.660090
0.545434 0.733303 0.641138
0.562646 0.733577 0.647639
0.595758 0.748409 0.660761
0.705379 0.755917 0.702998
0.816129 0.773281 0.730007
0.621332 0.877470 0.768643
0.624262 0.880064 0.768978
0.641169 0.889647 0.773068
0.717800 0.897429 0.794095
0.835477 0.896757 0.826566
0.000000 0.225223 0.793759
0.000000 0.219242 0.789731
0.463935 0.314824 0.767453
0.698817 0.471321 0.744717
0.837736 0.663844 0.789609
0.000000 0.399969 0.785946
0.000000 0.377539 0.782712
0.482582 0.422583 0.761563
0.691951 0.524346 0.739010
0.832090 0.682429 0.790982
0.299229 0.637110 0.767697
0.382177 0.633051 0.762448
0.529290 0.608331 0.746120
0.677272 0.629877 0.722621
0.826627 0.738369 0.802609
0.485389 0.737301 0.725765
0.505974 0.734371 0.723873
0.574334 0.724269 0.718471
0.663996 0.700160 0.700923
0.807187 0.746487 0.759609
0.619654 0.842893 0.781582
0.627832 0.844785 0.784817
0.662531 0.853758 0.799100
0.706661 0.877867 0.815335
0.831540 0.887297 0.850248
0.000000 0.360357 0.926757
0.000000 0.352819 0.924559
0.388891 0.437568 0.911498
0.641749 0.550286 0.886107
0.790585 0.639094 0.872038
0.000000 0.474403 0.920012
0.000000 0.467414 0.918181
0.421271 0.506096 0.906737
0.646021 0.585321 0.882689
0.788571 0.653956 0.869657
0.392737 0.678889 0.908080
0.418341 0.672633 0.906035
0.503532 0.650629 0.898863
0.657557 0.665705 0.878325
0.787228 0.699397 0.867124
0.459815 0.791989 0.899718
0.479988 0.790005 0.899168
0.554314 0.781979 0.898589
0.656825 0.747158 0.885405
0.791470 0.759701 0.868498
0.540764 0.860868 0.863340
0.550500 0.859770 0.862943
0.591180 0.856229 0.862211
0.663508 0.845335 0.857359
0.762692 0.808347 0.831052
