20 Preset/Portrait Preset/【3】LUT for PR-AE-FCPX/Film Portrait - LUT  (6).cube
# Created by Adobe Lightroom plugin Export LUT (1.24.0)
# www.johnrellis.com/lightroom/exportlut.htm
# Preset: 灰青电影-素材江湖06
# Color profile: E:\lut插件\exportlut.1.24\exportlut.lrplugin\color profiles\Rec709gamma2.4.icc
LUT_3D_SIZE 32
DOMAIN_MIN 0.0 0.0 0.0
DOMAIN_MAX 1.0 1.0 1.0
0.112947 0.106386 0.103517
0.112947 0.106386 0.103517
0.112947 0.106386 0.103517
0.112947 0.106386 0.103517
0.114290 0.106538 0.103822
0.142031 0.106355 0.107881
0.165042 0.106569 0.111971
0.187015 0.105745 0.116487
0.211521 0.103609 0.120974
0.240024 0.098573 0.124880
0.274052 0.088441 0.124514
0.311864 0.062379 0.123690
0.352331 0.036591 0.124117
0.394751 0.010101 0.123568
0.438331 0.000000 0.122652
0.483009 0.000000 0.120638
0.527855 0.000000 0.118624
0.572930 0.000000 0.116274
0.617334 0.000000 0.114870
0.661097 0.000000 0.117403
0.704036 0.000000 0.120760
0.745022 0.000000 0.125490
0.784970 0.000000 0.131655
0.824674 0.000000 0.139590
0.862699 0.000000 0.149142
0.898344 0.000000 0.160464
0.931762 0.000000 0.174228
0.963317 0.018677 0.189425
0.993835 0.096773 0.206638
1.000000 0.133486 0.225620
1.000000 0.166567 0.246006
1.000000 0.198703 0.268894
0.112947 0.106386 0.103517
0.112947 0.106386 0.103517
0.112947 0.106386 0.103517
0.112947 0.106386 0.103517
0.114382 0.106538 0.103456
0.142763 0.106233 0.108217
0.165591 0.106447 0.112612
0.187411 0.105989 0.116762
0.211734 0.103517 0.121248
0.240513 0.098421 0.123781
0.274632 0.088197 0.123415
0.311986 0.068910 0.123445
0.352331 0.042176 0.124208
0.395178 0.016968 0.123293
0.438514 0.000000 0.122347
0.482765 0.000000 0.120577
0.527825 0.000000 0.118227
0.572839 0.000000 0.115938
0.617426 0.000000 0.114748
0.661189 0.000000 0.117372
0.703944 0.000000 0.121187
0.745022 0.000000 0.126131
0.784878 0.000000 0.132204
0.824643 0.000000 0.139712
0.862608 0.000000 0.149203
0.898375 0.000000 0.160708
0.931701 0.000000 0.174533
0.963226 0.029267 0.190280
0.993774 0.101381 0.206973
1.000000 0.135683 0.225834
1.000000 0.167849 0.246555
1.000000 0.200443 0.269108
0.112947 0.106386 0.103517
0.112947 0.106386 0.103517
0.112947 0.106386 0.103517
0.112947 0.106386 0.103517
0.117220 0.106508 0.104128
0.145296 0.106111 0.108492
0.167056 0.106477 0.112551
0.188479 0.105715 0.116732
0.213169 0.103487 0.119753
0.242130 0.099062 0.120851
0.275456 0.094820 0.122194
0.312474 0.087221 0.123171
0.352819 0.071504 0.123476
0.395239 0.048188 0.122805
0.439033 0.025177 0.121614
0.483223 0.005585 0.119783
0.528222 0.000000 0.117647
0.573205 0.000000 0.115206
0.617609 0.000000 0.115145
0.661219 0.000000 0.117342
0.703975 0.000000 0.121309
0.745022 0.000000 0.126864
0.784878 0.000000 0.133181
0.824582 0.000000 0.140749
0.862608 0.000000 0.150362
0.898253 0.000000 0.161624
0.931640 0.001892 0.175601
0.963165 0.076631 0.190799
0.993622 0.115663 0.208194
1.000000 0.145785 0.226810
1.000000 0.175784 0.247501
1.000000 0.206271 0.270176
0.112947 0.106386 0.103517
0.112947 0.106386 0.103517
0.112947 0.106386 0.103517
0.112947 0.106386 0.103517
0.123507 0.106630 0.104646
0.149660 0.107698 0.107820
0.169833 0.109224 0.111147
0.190524 0.110842 0.114504
0.215061 0.111574 0.117281
0.243442 0.111482 0.119936
0.276493 0.108919 0.121767
0.313634 0.105531 0.122438
0.353979 0.101289 0.122194
0.396216 0.095766 0.121309
0.439765 0.089143 0.119905
0.483864 0.083375 0.117739
0.528801 0.078553 0.115023
0.573358 0.072511 0.114137
0.617731 0.056336 0.116091
0.661402 0.040772 0.118715
0.703975 0.021027 0.123293
0.744961 0.012757 0.127932
0.784756 0.006806 0.134340
0.824460 0.003906 0.142428
0.862394 0.014282 0.152285
0.898009 0.048524 0.163973
0.931304 0.090242 0.178195
0.962860 0.113863 0.193393
0.993286 0.138796 0.210361
1.000000 0.163821 0.229160
1.000000 0.189761 0.250004
1.000000 0.218235 0.272435
0.107668 0.124178 0.106691
0.107393 0.124483 0.106996
0.107240 0.125277 0.107179
0.106844 0.127138 0.107210
0.122560 0.128511 0.105959
0.148989 0.127535 0.108095
0.169192 0.127474 0.111635
0.190982 0.128084 0.114748
0.215763 0.128847 0.118044
0.244846 0.129335 0.119722
0.278111 0.128969 0.120699
0.315373 0.128511 0.120760
0.355474 0.127138 0.120516
0.397711 0.126040 0.119173
0.441047 0.124971 0.117006
0.485176 0.124666 0.114626
0.529473 0.122866 0.114076
0.573938 0.119875 0.115236
0.617945 0.115450 0.117830
0.661433 0.112245 0.121157
0.703700 0.109712 0.125338
0.744686 0.107301 0.130892
0.784573 0.106325 0.137484
0.824216 0.108278 0.145327
0.862089 0.112306 0.155642
0.897704 0.121065 0.167422
0.930877 0.133791 0.181216
0.962310 0.148989 0.197086
0.992798 0.167330 0.213901
1.000000 0.187747 0.233066
1.000000 0.210025 0.253269
1.000000 0.235355 0.276127
0.100404 0.145724 0.112306
0.100313 0.145724 0.112642
0.100496 0.146120 0.112551
0.101259 0.147433 0.109407
0.117403 0.148135 0.110231
0.143313 0.147768 0.110628
0.168185 0.147250 0.112825
0.191135 0.147799 0.115511
0.217227 0.149660 0.117037
0.246616 0.151186 0.118471
0.280278 0.152743 0.119081
0.317845 0.154391 0.118685
0.357488 0.156191 0.117342
0.399481 0.157473 0.116060
0.442329 0.157900 0.115999
0.485878 0.157321 0.115602
0.530053 0.156619 0.116121
0.574273 0.155184 0.118318
0.618372 0.154849 0.120272
0.661769 0.153414 0.124208
0.703639 0.152712 0.128969
0.744472 0.152163 0.134676
0.784360 0.152407 0.141604
0.823941 0.154208 0.150301
0.861631 0.158328 0.160189
0.897063 0.164462 0.172366
0.930205 0.173281 0.186587
0.961669 0.184970 0.202609
0.992065 0.199344 0.219547
1.000000 0.215732 0.238224
1.000000 0.235050 0.258488
1.000000 0.257084 0.281315
0.092256 0.166598 0.116884
0.093263 0.166384 0.116915
0.093507 0.167117 0.115236
0.099367 0.167910 0.113466
0.114046 0.168765 0.114229
0.137148 0.169131 0.114839
0.163973 0.169345 0.115846
0.190494 0.169131 0.116457
0.217136 0.171115 0.117830
0.247623 0.174563 0.118685
0.282811 0.178408 0.119417
0.320012 0.181674 0.119448
0.359655 0.184360 0.119173
0.400977 0.186404 0.119173
0.443519 0.188174 0.118746
0.486946 0.189029 0.118898
0.530968 0.189700 0.119966
0.575097 0.190707 0.121798
0.618708 0.191104 0.125246
0.661677 0.191928 0.128847
0.703456 0.192477 0.133639
0.744076 0.192660 0.140169
0.783993 0.194003 0.147372
0.823453 0.196414 0.156008
0.860990 0.199771 0.166873
0.896330 0.204868 0.179660
0.929381 0.211826 0.193545
0.960754 0.221103 0.209079
0.991058 0.232822 0.226139
1.000000 0.246586 0.245243
1.000000 0.263035 0.265812
1.000000 0.282719 0.288396
0.085817 0.190768 0.126680
0.086793 0.190921 0.126375
0.086946 0.191684 0.124605
0.089174 0.192538 0.121340
0.106691 0.193515 0.121675
0.126223 0.194888 0.122072
0.156710 0.194949 0.122683
0.186831 0.194980 0.123140
0.216495 0.195041 0.123598
0.246677 0.198123 0.124117
0.281773 0.203189 0.124361
0.320562 0.208377 0.124392
0.361639 0.213199 0.124086
0.402686 0.216617 0.124117
0.445075 0.219211 0.123903
0.488136 0.221653 0.124331
0.532006 0.223636 0.125429
0.575738 0.225956 0.127535
0.619318 0.227512 0.131136
0.661677 0.228763 0.135439
0.703212 0.230472 0.140536
0.743648 0.231632 0.147280
0.783536 0.233463 0.154635
0.822751 0.236027 0.164523
0.860197 0.239536 0.175479
0.895415 0.243839 0.188022
0.928222 0.249821 0.202335
0.959594 0.257511 0.217868
0.989807 0.267491 0.235233
1.000000 0.279240 0.253696
1.000000 0.293400 0.274357
1.000000 0.310643 0.296757
0.038514 0.220676 0.136141
0.038392 0.220798 0.135622
0.039643 0.221317 0.133791
0.042115 0.222293 0.130007
0.083223 0.223575 0.128420
0.112215 0.224826 0.128969
0.140780 0.226322 0.129274
0.179019 0.226322 0.129793
0.213870 0.226230 0.130129
0.246403 0.225376 0.130495
0.281010 0.229038 0.130404
0.318944 0.235477 0.130373
0.359960 0.241428 0.130037
0.403326 0.247166 0.130190
0.446845 0.251865 0.130526
0.489784 0.255344 0.130678
0.533227 0.258366 0.132753
0.576623 0.261479 0.135286
0.619379 0.263890 0.139071
0.661799 0.265782 0.143832
0.702937 0.267979 0.149630
0.743008 0.269810 0.157015
0.782986 0.272038 0.164828
0.822049 0.274846 0.174472
0.859281 0.278447 0.185092
0.894255 0.282261 0.198062
0.926879 0.287510 0.212436
0.958160 0.294163 0.228031
0.988312 0.302647 0.245548
1.000000 0.313176 0.264195
1.000000 0.325689 0.284764
1.000000 0.340887 0.307042
0.000000 0.255772 0.146365
0.000000 0.255955 0.146304
0.000000 0.256168 0.144045
0.000000 0.257481 0.139559
0.000000 0.258396 0.135622
0.066865 0.259953 0.135927
0.119326 0.261479 0.136294
0.161959 0.262577 0.136721
0.205447 0.262425 0.136904
0.244785 0.261967 0.137423
0.281071 0.260899 0.137697
0.317449 0.263157 0.137423
0.357610 0.270115 0.137240
0.400122 0.276829 0.137545
0.444556 0.283391 0.138064
0.490455 0.289525 0.139467
0.534356 0.293797 0.142245
0.577050 0.297337 0.145144
0.619532 0.300359 0.149508
0.661494 0.303166 0.154269
0.702449 0.305669 0.160678
0.742580 0.307622 0.168154
0.782284 0.310582 0.176547
0.821256 0.313634 0.185916
0.858061 0.316655 0.197635
0.892821 0.320409 0.209964
0.925231 0.325139 0.224918
0.956451 0.331090 0.240024
0.986511 0.338598 0.257389
1.000000 0.347875 0.276524
1.000000 0.358801 0.296483
1.000000 0.372381 0.319005
0.000000 0.294408 0.158511
0.000000 0.294499 0.157504
0.000000 0.294926 0.155367
0.000000 0.295933 0.151003
0.000000 0.297307 0.143832
0.000000 0.298619 0.144045
0.066072 0.299992 0.144533
0.132479 0.301976 0.144839
0.187167 0.302251 0.145052
0.236118 0.301274 0.145327
0.278294 0.300450 0.145754
0.317540 0.299504 0.145998
0.354650 0.299168 0.145541
0.396307 0.306523 0.146212
0.440101 0.313756 0.147677
0.485054 0.320684 0.149538
0.530999 0.327550 0.152895
0.577661 0.333806 0.157412
0.619776 0.337560 0.162020
0.661250 0.340612 0.167575
0.702052 0.343114 0.174380
0.741665 0.345922 0.181918
0.781552 0.348882 0.189883
0.820005 0.351720 0.200107
0.856626 0.355138 0.211185
0.890990 0.358495 0.224094
0.923217 0.362829 0.238651
0.954376 0.367956 0.253971
0.984283 0.374640 0.271092
1.000000 0.382879 0.289982
1.000000 0.392859 0.310552
1.000000 0.405035 0.333104
0.000000 0.335424 0.172091
0.000000 0.335515 0.171359
0.000000 0.335973 0.169802
0.000000 0.336736 0.165408
0.000000 0.338018 0.158114
0.000000 0.339513 0.153933
0.000000 0.340734 0.154665
0.087678 0.342596 0.155184
0.152346 0.344579 0.156069
0.217105 0.343603 0.156435
0.268681 0.342199 0.156710
0.313542 0.340581 0.156466
0.354345 0.338811 0.156680
0.392279 0.336736 0.156161
0.434546 0.343633 0.157839
0.478950 0.351537 0.160861
0.524498 0.359106 0.164858
0.570550 0.366308 0.169986
0.616632 0.372869 0.176364
0.660700 0.378332 0.182681
0.701106 0.381170 0.189487
0.740871 0.383948 0.196780
0.780514 0.387182 0.205142
0.818631 0.390021 0.215427
0.854826 0.393225 0.226566
0.888975 0.396185 0.239536
0.920928 0.400336 0.253849
0.951995 0.405097 0.269657
0.981628 0.411139 0.286870
1.000000 0.418494 0.305516
1.000000 0.427497 0.326085
1.000000 0.438483 0.348638
0.000000 0.377874 0.188754
0.000000 0.377996 0.188693
0.000000 0.378332 0.186435
0.000000 0.379095 0.182376
0.000000 0.380407 0.175174
0.000000 0.382025 0.167269
0.000000 0.383215 0.168002
0.000000 0.384710 0.168795
0.114687 0.386297 0.169741
0.186038 0.387396 0.170535
0.251164 0.385565 0.170230
0.303532 0.383551 0.170291
0.349493 0.381537 0.170321
0.391547 0.378851 0.170565
0.430701 0.376684 0.169894
0.472267 0.381537 0.173068
0.517388 0.389960 0.177615
0.562707 0.397559 0.183169
0.608331 0.405066 0.189487
0.653559 0.411780 0.196933
0.698268 0.418067 0.205203
0.739803 0.422156 0.213596
0.779355 0.425391 0.222416
0.817014 0.428382 0.232578
0.852781 0.431220 0.243748
0.886595 0.433997 0.256504
0.918334 0.437598 0.271122
0.949218 0.442023 0.286961
0.978637 0.447578 0.303990
1.000000 0.454200 0.322667
1.000000 0.462348 0.343175
1.000000 0.472450 0.365759
0.000000 0.421118 0.208438
0.000000 0.421210 0.208255
0.000000 0.421454 0.206180
0.000000 0.422156 0.202792
0.000000 0.423316 0.196445
0.000000 0.424750 0.186465
0.000000 0.425940 0.184604
0.000000 0.427283 0.185092
0.000000 0.428870 0.186069
0.147189 0.430610 0.187289
0.222507 0.430426 0.188235
0.286931 0.428107 0.188052
0.339666 0.425696 0.188052
0.386450 0.422980 0.188296
0.429114 0.419898 0.188663
0.469520 0.417670 0.186923
0.509331 0.419684 0.190402
0.554162 0.428046 0.195987
0.599420 0.435950 0.202670
0.644312 0.443275 0.210391
0.688991 0.450111 0.219242
0.733394 0.456794 0.229099
0.777371 0.463355 0.240269
0.815122 0.466438 0.250858
0.850462 0.469123 0.262303
0.883635 0.471778 0.274998
0.915465 0.474830 0.289525
0.946136 0.478798 0.305180
0.975311 0.483925 0.322301
1.000000 0.489937 0.341222
1.000000 0.497444 0.362005
1.000000 0.506645 0.384619
0.000000 0.464607 0.231266
0.000000 0.464668 0.230320
0.000000 0.465034 0.229252
0.000000 0.465492 0.225223
0.000000 0.466560 0.219852
0.000000 0.467811 0.210758
0.000000 0.469276 0.204349
0.000000 0.470436 0.205020
0.000000 0.471839 0.206119
0.095918 0.473548 0.207584
0.184054 0.475532 0.208774
0.262455 0.473671 0.208927
0.324376 0.470863 0.209232
0.376440 0.467964 0.208774
0.423499 0.464607 0.208957
0.466407 0.460945 0.208316
0.506859 0.457954 0.206943
0.544945 0.457099 0.209323
0.589532 0.465492 0.216251
0.634333 0.473365 0.224155
0.678706 0.480873 0.232792
0.723537 0.488258 0.243107
0.767727 0.495583 0.254612
0.809537 0.501793 0.267735
0.847684 0.506706 0.282292
0.880461 0.509026 0.295476
0.912108 0.511955 0.309545
0.942565 0.515618 0.325719
0.971435 0.520165 0.342596
0.998169 0.525719 0.361578
1.000000 0.532555 0.382391
1.000000 0.540978 0.405158
0.000000 0.507866 0.255283
0.000000 0.507866 0.255161
0.000000 0.508110 0.253178
0.000000 0.508782 0.250584
0.000000 0.509575 0.244694
0.000000 0.510887 0.237491
0.000000 0.512383 0.226383
0.000000 0.513512 0.227512
0.000000 0.514763 0.228275
0.000000 0.516228 0.229557
0.151369 0.517815 0.231540
0.226841 0.519036 0.232517
0.302037 0.516197 0.232273
0.361608 0.512993 0.232151
0.413092 0.509545 0.231632
0.459968 0.505608 0.230777
0.502678 0.501518 0.230228
0.540826 0.495613 0.228885
0.579278 0.493568 0.229374
0.623407 0.501946 0.237156
0.667933 0.510307 0.246372
0.713130 0.518425 0.256291
0.757382 0.526360 0.268162
0.799527 0.533104 0.281743
0.838834 0.539117 0.297490
0.875456 0.544610 0.314763
0.908385 0.548821 0.331060
0.938659 0.552148 0.346532
0.967163 0.556146 0.363928
0.993408 0.561273 0.383062
1.000000 0.567437 0.403937
1.000000 0.575250 0.427039
0.000000 0.550500 0.280949
0.000000 0.550500 0.280858
0.000000 0.550744 0.279026
0.000000 0.551263 0.276463
0.000000 0.552026 0.271916
0.000000 0.553063 0.264378
0.000000 0.554498 0.255253
0.000000 0.555749 0.251133
0.000000 0.556909 0.252293
0.000000 0.558190 0.253300
0.099947 0.559564 0.255009
0.198215 0.561242 0.256474
0.272251 0.560967 0.257877
0.341436 0.557702 0.256962
0.398810 0.554009 0.255894
0.449531 0.550103 0.255436
0.495491 0.545617 0.254215
0.537865 0.541039 0.253086
0.576349 0.534874 0.251621
0.612085 0.529229 0.250034
0.656855 0.538323 0.259190
0.701961 0.547356 0.269627
0.746395 0.555962 0.281559
0.788846 0.563226 0.295720
0.828519 0.569543 0.311254
0.865385 0.575311 0.328740
0.900603 0.581384 0.347997
0.933928 0.587762 0.368688
0.962402 0.591882 0.386694
0.988190 0.596399 0.406043
1.000000 0.602014 0.426795
1.000000 0.609186 0.449989
0.000000 0.591852 0.307469
0.000000 0.591852 0.306706
0.000000 0.592096 0.305669
0.000000 0.592523 0.303349
0.000000 0.593225 0.299321
0.000000 0.594232 0.293431
0.000000 0.595483 0.284581
0.000000 0.596887 0.276066
0.000000 0.597864 0.277317
0.000000 0.598871 0.278660
0.000000 0.600183 0.280064
0.168521 0.601678 0.281865
0.242802 0.603235 0.283757
0.315435 0.601343 0.283360
0.380163 0.597650 0.282597
0.435370 0.593713 0.281712
0.484840 0.589136 0.280430
0.530144 0.584527 0.279118
0.572137 0.579583 0.277470
0.610773 0.573602 0.275792
0.647578 0.568536 0.273533
0.690455 0.574945 0.282383
0.734951 0.584192 0.294469
0.777554 0.592096 0.309056
0.817655 0.598779 0.324987
0.854887 0.604791 0.342870
0.890562 0.610956 0.362310
0.924346 0.617456 0.383398
0.955261 0.624414 0.406348
0.982483 0.631098 0.429999
1.000000 0.636164 0.451179
1.000000 0.642756 0.474586
0.000000 0.632136 0.334783
0.000000 0.632166 0.334752
0.000000 0.632349 0.333135
0.000000 0.632685 0.330999
0.000000 0.633417 0.327337
0.000000 0.634211 0.322576
0.000000 0.635431 0.314977
0.000000 0.636835 0.305180
0.000000 0.637873 0.303716
0.000000 0.638849 0.305028
0.000000 0.640040 0.306493
0.133089 0.641321 0.308110
0.223789 0.642756 0.310094
0.285527 0.644434 0.312230
0.358587 0.640925 0.311009
0.418921 0.637110 0.309911
0.472114 0.632898 0.308446
0.520287 0.628290 0.306950
0.565118 0.623407 0.305516
0.606531 0.618189 0.303380
0.645472 0.612543 0.301640
0.683497 0.608423 0.298375
0.723110 0.611017 0.306950
0.765988 0.619501 0.321416
0.806241 0.626703 0.338140
0.844053 0.633051 0.356542
0.880095 0.639460 0.376623
0.914336 0.646113 0.398138
0.945769 0.652949 0.421729
0.973724 0.660212 0.447028
0.997955 0.668238 0.474434
1.000000 0.675654 0.500511
0.000000 0.672053 0.364477
0.000000 0.672175 0.363836
0.000000 0.672236 0.362982
0.000000 0.672572 0.361151
0.000000 0.673213 0.357916
0.000000 0.673976 0.353185
0.000000 0.675013 0.346502
0.000000 0.676265 0.338628
0.000000 0.677516 0.332372
0.000000 0.678340 0.333776
0.000000 0.679286 0.335241
0.092317 0.680323 0.336919
0.207218 0.681544 0.339025
0.274693 0.682795 0.341344
0.335302 0.682979 0.342718
0.401160 0.679377 0.341527
0.458198 0.675319 0.339757
0.508843 0.671107 0.338018
0.555779 0.666407 0.336156
0.599420 0.661463 0.333684
0.640223 0.656275 0.331792
0.679133 0.650568 0.328893
0.718044 0.647150 0.325750
0.753658 0.645594 0.333379
0.794461 0.653315 0.350286
0.832761 0.659998 0.369421
0.869383 0.666804 0.389807
0.904143 0.673610 0.412085
0.935973 0.680598 0.436255
0.964385 0.687648 0.462440
0.988952 0.695460 0.490669
1.000000 0.704341 0.521111
0.000000 0.709682 0.395392
0.000000 0.709682 0.395392
0.000000 0.709834 0.394202
0.000000 0.710109 0.392584
0.000000 0.710597 0.389685
0.000000 0.711238 0.385657
0.000000 0.712123 0.380591
0.000000 0.713252 0.373510
0.000000 0.714595 0.364385
0.000000 0.715206 0.365209
0.000000 0.715999 0.366888
0.072297 0.716793 0.368780
0.203189 0.717739 0.370733
0.271366 0.718746 0.373022
0.325841 0.719936 0.375311
0.384863 0.718624 0.376074
0.443915 0.714961 0.374182
0.496834 0.710903 0.372320
0.544854 0.706661 0.370306
0.589929 0.702022 0.367651
0.632258 0.697108 0.365240
0.672206 0.691859 0.362371
0.710353 0.686366 0.359319
0.750210 0.684199 0.355840
0.782193 0.678706 0.361669
0.821195 0.685847 0.381598
0.858366 0.692958 0.402716
0.893645 0.700099 0.425574
0.926146 0.707088 0.450568
0.954925 0.714199 0.477485
0.979889 0.721706 0.506706
1.000000 0.730220 0.538048
0.000000 0.744198 0.429114
0.000000 0.744259 0.428656
0.000000 0.744350 0.428138
0.000000 0.744656 0.426703
0.000000 0.745052 0.423926
0.000000 0.745541 0.420569
0.000000 0.746365 0.416388
0.000000 0.747280 0.409949
0.000000 0.748409 0.402594
0.000000 0.749264 0.399542
0.000000 0.749874 0.401099
0.119966 0.750393 0.402838
0.216068 0.751125 0.405005
0.278996 0.751888 0.407233
0.331395 0.752682 0.409766
0.377569 0.753597 0.412543
0.433509 0.751064 0.411719
0.486519 0.747433 0.409583
0.535027 0.743496 0.407538
0.580285 0.739345 0.405035
0.622919 0.734890 0.402106
0.663478 0.730159 0.399237
0.702205 0.725124 0.396216
0.739406 0.719814 0.392767
0.779904 0.718746 0.389258
0.809140 0.710475 0.392248
0.847196 0.718074 0.414191
0.883207 0.725490 0.438239
0.916258 0.732692 0.464271
0.945525 0.739742 0.492226
0.970886 0.747066 0.522515
0.992004 0.755337 0.555291
0.000000 0.775967 0.464637
0.000000 0.776028 0.464179
0.000000 0.776089 0.463416
0.000000 0.776303 0.462104
0.000000 0.776638 0.460334
0.000000 0.777096 0.457618
0.000000 0.777768 0.453773
0.000000 0.778592 0.448707
0.000000 0.779568 0.442908
0.000000 0.780667 0.436133
0.000000 0.781064 0.437690
0.178592 0.781643 0.439368
0.246189 0.782193 0.441413
0.299565 0.782864 0.443977
0.346380 0.783566 0.446296
0.389075 0.784390 0.449256
0.430365 0.785031 0.452094
0.481422 0.781735 0.449744
0.528710 0.778256 0.447669
0.573205 0.774472 0.445136
0.615290 0.770474 0.442329
0.655543 0.766171 0.439124
0.694118 0.761685 0.436103
0.731319 0.756863 0.432502
0.767269 0.751858 0.428565
0.805509 0.749874 0.425696
0.836515 0.743221 0.426703
0.872587 0.749996 0.450233
0.906340 0.757412 0.477333
0.936339 0.764370 0.506432
0.962066 0.771603 0.538445
0.983490 0.779568 0.572473
0.000000 0.806180 0.501701
0.000000 0.806210 0.501335
0.000000 0.806332 0.500633
0.000000 0.806485 0.499794
0.000000 0.806821 0.498024
0.000000 0.807218 0.495766
0.000000 0.807767 0.492470
0.039490 0.808499 0.488502
0.092195 0.809354 0.483406
0.118044 0.810391 0.477577
0.180270 0.811002 0.476448
0.239139 0.811490 0.478187
0.287541 0.811978 0.480079
0.330968 0.812528 0.482429
0.370825 0.813138 0.484901
0.408698 0.813809 0.487709
0.445167 0.814511 0.490913
0.484260 0.814084 0.492378
0.528862 0.811002 0.490120
0.571191 0.807675 0.487587
0.611566 0.804166 0.484657
0.650477 0.800443 0.481727
0.688106 0.796475 0.478462
0.724575 0.792386 0.475227
0.760098 0.787961 0.471229
0.794675 0.783383 0.467475
0.830838 0.780819 0.465217
0.864103 0.777279 0.466560
0.896727 0.781216 0.489448
0.927337 0.788327 0.520348
0.953552 0.795468 0.553857
0.975250 0.803250 0.589837
0.214633 0.834470 0.540398
0.213962 0.834501 0.540093
0.216220 0.834592 0.539971
0.217166 0.834745 0.538964
0.219760 0.835019 0.537560
0.223819 0.835386 0.535698
0.228702 0.835874 0.533196
0.234714 0.836454 0.529656
0.241611 0.837217 0.525689
0.249638 0.838071 0.520897
0.265293 0.838956 0.517021
0.302922 0.839261 0.518944
0.338048 0.839628 0.520928
0.372351 0.840055 0.523308
0.405676 0.840513 0.525902
0.438087 0.841062 0.528649
0.469947 0.841611 0.531762
0.501213 0.842252 0.535119
0.537591 0.840879 0.535210
0.576135 0.838071 0.532738
0.613581 0.835111 0.530236
0.650019 0.831937 0.527153
0.685573 0.828672 0.524254
0.720424 0.825132 0.520806
0.754635 0.821469 0.517327
0.788266 0.817624 0.513756
0.821317 0.813657 0.509758
0.856229 0.811826 0.508141
0.889708 0.810239 0.511406
0.918639 0.811734 0.533959
0.945434 0.818753 0.569574
0.967376 0.825711 0.605646
0.319493 0.859983 0.581323
0.319554 0.859983 0.581140
0.319707 0.860044 0.580682
0.320745 0.860227 0.580041
0.322698 0.860410 0.579004
0.324834 0.860716 0.577386
0.328435 0.861112 0.575586
0.332280 0.861601 0.572961
0.336858 0.862242 0.569879
0.342168 0.862974 0.566033
0.348577 0.863798 0.561822
0.370092 0.864164 0.562097
0.396490 0.864439 0.564294
0.423072 0.864744 0.566552
0.449958 0.865049 0.569177
0.476844 0.865415 0.571984
0.503899 0.865812 0.575097
0.530785 0.866300 0.578210
0.557733 0.866758 0.581964
0.590509 0.864775 0.580346
0.623651 0.862394 0.578180
0.656336 0.859861 0.575647
0.688594 0.857176 0.572778
0.720638 0.854398 0.569970
0.752468 0.851499 0.567071
0.783993 0.848417 0.563653
0.815335 0.845304 0.560418
0.846586 0.842069 0.556786
0.879606 0.840909 0.556298
0.912688 0.841428 0.562676
0.937591 0.840940 0.583856
0.959777 0.846860 0.619776
0.406439 0.882353 0.623194
0.406928 0.882353 0.623346
0.407202 0.882414 0.623072
0.407568 0.882536 0.622370
0.409186 0.882719 0.621698
0.410712 0.882963 0.620508
0.413092 0.883299 0.618830
0.415869 0.883696 0.616876
0.419287 0.884215 0.614405
0.423560 0.884794 0.611719
0.428229 0.885496 0.608392
0.438270 0.886046 0.606622
0.457771 0.886229 0.608515
0.478340 0.886442 0.610773
0.499245 0.886687 0.612940
0.521141 0.886931 0.615564
0.543450 0.887205 0.618494
0.566155 0.887541 0.621668
0.589105 0.887877 0.625086
0.612879 0.887907 0.627832
0.641016 0.886076 0.625971
0.669520 0.884123 0.624140
0.698024 0.882048 0.621973
0.726619 0.879942 0.619989
0.755184 0.877714 0.617792
0.783963 0.875456 0.615381
0.812741 0.873136 0.613001
0.841703 0.870756 0.610651
0.870420 0.868223 0.607691
0.900328 0.867155 0.607324
0.931395 0.868925 0.614771
0.952850 0.867185 0.633417
0.482734 0.901823 0.664820
0.482643 0.901854 0.664668
0.483192 0.901884 0.664546
0.483619 0.901976 0.664118
0.484627 0.902129 0.663416
0.486122 0.902342 0.662684
0.487953 0.902586 0.661463
0.490211 0.902953 0.659937
0.492805 0.903380 0.658076
0.496040 0.903868 0.655940
0.499947 0.904417 0.653498
0.504112 0.905058 0.650629
0.518181 0.905241 0.652033
0.534142 0.905364 0.654108
