20 Preset/Portrait Preset/【3】LUT for PR-AE-FCPX/Film Portrait - LUT  (2).cube
# Created by Adobe Lightroom plugin Export LUT (1.24.0)
# www.johnrellis.com/lightroom/exportlut.htm
# Preset: 灰青电影-素材江湖02
# Color profile: E:\lut插件\exportlut.1.24\exportlut.lrplugin\color profiles\Rec709gamma2.4.icc
LUT_3D_SIZE 5
DOMAIN_MIN 0.000000 0.000000 0.000000
DOMAIN_MAX 0.903226 0.903226 0.903226
0.000000 0.000000 0.000000
0.287236 0.070497 0.040345
0.693965 0.209689 0.172488
0.957549 0.392706 0.382177
1.000000 0.558068 0.557641
0.026429 0.121492 0.067689
0.154055 0.181155 0.115358
0.652766 0.328344 0.204013
0.928710 0.441993 0.391852
1.000000 0.591760 0.575372
0.082399 0.249058 0.163973
0.167544 0.306462 0.212955
0.422400 0.466133 0.339330
0.843992 0.621790 0.487495
1.000000 0.682429 0.612879
0.154055 0.407355 0.273503
0.211490 0.445899 0.309331
0.421180 0.589593 0.421820
0.642420 0.678706 0.548882
0.924804 0.815915 0.688380
0.349920 0.649653 0.455818
0.359106 0.653742 0.464881
0.479347 0.701259 0.533501
0.685054 0.827359 0.621210
0.847044 0.877409 0.745541
0.085023 0.096620 0.118776
0.196811 0.142641 0.192142
0.627924 0.136355 0.259983
0.892821 0.363622 0.405951
1.000000 0.538506 0.558618
0.115999 0.125460 0.134646
0.190768 0.201907 0.216739
0.598688 0.293553 0.293736
0.879179 0.419287 0.421088
1.000000 0.567987 0.570977
0.150973 0.242405 0.207065
0.198520 0.298405 0.253361
0.415686 0.449866 0.373205
0.827878 0.596185 0.502739
1.000000 0.677028 0.625208
0.193393 0.398108 0.298253
0.238590 0.437140 0.332952
0.437659 0.584131 0.458656
0.646876 0.677638 0.569451
0.927367 0.814084 0.699245
0.346929 0.638056 0.459052
0.355505 0.641596 0.466987
0.497017 0.709773 0.555016
0.697292 0.832944 0.644465
0.856992 0.885100 0.762875
0.220951 0.225467 0.296910
0.272435 0.251194 0.345342
0.493416 0.373602 0.479347
0.851774 0.402289 0.561151
1.000000 0.527947 0.619348
0.272953 0.286595 0.328862
0.299290 0.305241 0.365545
0.487221 0.399969 0.485878
0.836973 0.422766 0.552850
1.000000 0.560479 0.631739
0.274113 0.282902 0.309453
0.314733 0.322789 0.353307
0.480659 0.485206 0.518303
0.798520 0.567559 0.585504
1.000000 0.663935 0.671687
0.302281 0.352087 0.357794
0.321752 0.385229 0.383185
0.449836 0.539147 0.507103
0.669764 0.683650 0.634058
0.946502 0.809445 0.741360
0.336553 0.582055 0.456825
0.348058 0.589166 0.466377
0.462745 0.657984 0.544640
0.691463 0.809293 0.677516
0.857664 0.879362 0.780148
0.391485 0.388373 0.492226
0.423224 0.406989 0.520012
0.558740 0.470344 0.612390
0.715175 0.584497 0.681849
0.958770 0.646754 0.764401
0.415625 0.420569 0.503258
0.438209 0.434455 0.525628
0.552758 0.489357 0.609186
0.706447 0.588952 0.678798
0.958068 0.645350 0.759854
0.441016 0.444434 0.480751
0.466438 0.468391 0.504875
0.553246 0.547051 0.604761
0.697688 0.621668 0.686671
0.974853 0.661646 0.755917
0.411017 0.415839 0.451606
0.430304 0.434272 0.470436
0.521569 0.520165 0.556115
0.706569 0.695552 0.720302
0.965942 0.778592 0.786648
0.433173 0.445411 0.476539
0.437507 0.455055 0.482918
0.472358 0.530816 0.531243
0.646876 0.737972 0.685420
0.873777 0.883787 0.826780
0.613458 0.594537 0.692317
0.626154 0.601282 0.702602
0.686458 0.631281 0.746304
0.797482 0.685756 0.804379
0.904631 0.782406 0.858640
0.615381 0.601648 0.689662
0.627314 0.608392 0.700130
0.683742 0.637354 0.743221
0.794797 0.690974 0.804349
0.903563 0.785885 0.859373
0.628046 0.624567 0.679652
0.635554 0.630549 0.689479
0.678828 0.659297 0.733303
0.790616 0.716030 0.810605
0.903227 0.802853 0.865873
0.608423 0.600732 0.633814
0.617426 0.609033 0.641749
0.664149 0.652613 0.682918
0.768215 0.748989 0.795987
0.906310 0.838193 0.881743
0.562402 0.558099 0.592950
0.564233 0.559777 0.594598
0.609186 0.601434 0.634485
0.710536 0.696345 0.723873
0.905241 0.896452 0.905211
