20 Preset/Portrait Preset/【3】LUT for PR-AE-FCPX/Film Portrait - LUT  (1).cube
# Created by Adobe Lightroom plugin Export LUT (1.24.0)
# www.johnrellis.com/lightroom/exportlut.htm
# Preset: 灰青电影-素材江湖01
# Color profile: E:\lut插件\exportlut.1.24\exportlut.lrplugin\color profiles\Rec709gamma2.4.icc
LUT_3D_SIZE 32
DOMAIN_MIN 0.0 0.0 0.0
DOMAIN_MAX 1.0 1.0 1.0
0.027497 0.103548 0.129274
0.027497 0.103548 0.129274
0.027497 0.103548 0.129274
0.027497 0.103548 0.129274
0.027497 0.103548 0.129274
0.025513 0.103639 0.129274
0.044678 0.103304 0.129213
0.091463 0.102632 0.129030
0.129305 0.100710 0.128634
0.178561 0.095155 0.127871
0.240452 0.074769 0.126680
0.310185 0.005768 0.124849
0.380529 0.000000 0.122316
0.446326 0.000000 0.118349
0.507591 0.000000 0.112612
0.564202 0.000000 0.104524
0.616815 0.000000 0.094026
0.665217 0.000000 0.072419
0.709712 0.000000 0.031708
0.750820 0.000000 0.000000
0.791836 0.000000 0.000000
0.829068 0.000000 0.000000
0.859586 0.000000 0.000000
0.885893 0.000000 0.000000
0.910307 0.088014 0.000000
0.934234 0.120577 0.000000
0.958038 0.145296 0.000000
0.981872 0.166232 0.000000
1.000000 0.185214 0.000000
1.000000 0.202976 0.000000
1.000000 0.219699 0.000000
1.000000 0.235874 0.000000
0.027497 0.103548 0.129274
0.027497 0.103548 0.129274
0.027497 0.103548 0.129274
0.027497 0.103548 0.129274
0.027497 0.103548 0.129274
0.025513 0.103639 0.129274
0.044678 0.103304 0.129213
0.090272 0.102388 0.129061
0.127169 0.100679 0.128664
0.175479 0.095583 0.127932
0.236484 0.078218 0.126772
0.305760 0.009766 0.125032
0.375677 0.000000 0.122530
0.441260 0.000000 0.118532
0.502800 0.000000 0.112886
0.559655 0.000000 0.104921
0.612665 0.000000 0.094453
0.661250 0.000000 0.073884
0.706264 0.000000 0.033448
0.747463 0.000000 0.000000
0.788205 0.000000 0.000000
0.825101 0.000000 0.000000
0.855406 0.000000 0.000000
0.881743 0.000000 0.000000
0.905943 0.082643 0.000000
0.929808 0.117678 0.000000
0.953643 0.142824 0.000000
0.977600 0.163851 0.000000
1.000000 0.182986 0.000000
1.000000 0.200565 0.000000
1.000000 0.217441 0.000000
1.000000 0.233738 0.000000
0.027497 0.103548 0.129274
0.027497 0.103548 0.129274
0.027497 0.103548 0.129274
0.027497 0.103548 0.129274
0.027497 0.103548 0.129274
0.025513 0.103639 0.129274
0.042695 0.103365 0.129213
0.089509 0.102449 0.129061
0.125765 0.100893 0.128664
0.173495 0.095705 0.127993
0.233616 0.079561 0.126833
0.302525 0.013947 0.125093
0.371191 0.000000 0.122347
0.436530 0.000000 0.118105
0.498054 0.000000 0.111910
0.555230 0.000000 0.104005
0.608331 0.000000 0.093355
0.657588 0.000000 0.070741
0.702785 0.000000 0.030030
0.744289 0.000000 0.000000
0.785489 0.000000 0.000000
0.822232 0.000000 0.000000
0.852659 0.000000 0.000000
0.879118 0.029206 0.000000
0.903197 0.099458 0.000000
0.927001 0.126131 0.000000
0.950866 0.148836 0.000000
0.974914 0.168704 0.000000
0.999145 0.186709 0.000000
1.000000 0.203830 0.000000
1.000000 0.220249 0.000000
1.000000 0.235904 0.000000
0.027497 0.103548 0.129274
0.027497 0.103548 0.129274
0.027497 0.103548 0.129274
0.027497 0.103548 0.129274
0.027497 0.103548 0.129274
0.025513 0.103639 0.129274
0.044678 0.103304 0.129213
0.088777 0.102541 0.129061
0.124819 0.101045 0.128664
0.171695 0.096162 0.127993
0.230869 0.082856 0.126772
0.297612 0.038697 0.124636
0.364965 0.000000 0.121370
0.430152 0.000000 0.116457
0.491768 0.000000 0.110231
0.548791 0.000000 0.101808
0.602136 0.000000 0.090181
0.651240 0.000000 0.062867
0.696742 0.000000 0.022034
0.738552 0.000000 0.000000
0.779995 0.000000 0.000000
0.816373 0.000000 0.000000
0.847013 0.024659 0.000000
0.874144 0.095399 0.000000
0.898863 0.121950 0.000000
0.923308 0.143771 0.000000
0.947906 0.163027 0.000000
0.972595 0.180484 0.000000
0.997253 0.196811 0.000000
1.000000 0.212924 0.000000
1.000000 0.227787 0.000000
1.000000 0.242618 0.000000
0.028199 0.103182 0.129305
0.028199 0.103182 0.129305
0.028199 0.103182 0.129305
0.028504 0.103182 0.129061
0.028504 0.103182 0.129061
0.026215 0.103243 0.129305
0.041962 0.103761 0.129183
0.083467 0.104616 0.128908
0.118807 0.105074 0.128389
0.163455 0.104311 0.127443
0.220310 0.100191 0.125612
0.286351 0.090150 0.123049
0.354009 0.058412 0.119326
0.420081 0.010407 0.114137
0.482063 0.000000 0.106813
0.540490 0.000000 0.097414
0.594751 0.000000 0.082948
0.644923 0.000000 0.047639
0.691096 0.000000 0.006043
0.733883 0.000000 0.000000
0.775753 0.028168 0.000000
0.812009 0.090669 0.000000
0.842985 0.115084 0.000000
0.870573 0.135164 0.000000
0.895628 0.152560 0.000000
0.920439 0.168307 0.000000
0.945281 0.183200 0.000000
0.970092 0.197818 0.000000
0.994781 0.212375 0.000000
1.000000 0.226169 0.000000
1.000000 0.239841 0.000000
1.000000 0.253391 0.000000
0.028504 0.103182 0.129061
0.028504 0.103182 0.129061
0.028504 0.103182 0.129061
0.028504 0.103182 0.129061
0.027802 0.103548 0.129000
0.027497 0.103548 0.129274
0.027192 0.103548 0.129519
0.066255 0.108675 0.128054
0.108888 0.113100 0.127413
0.152163 0.117189 0.126040
0.208499 0.119051 0.123690
0.275059 0.117525 0.120516
0.343694 0.113191 0.115938
0.410407 0.106691 0.109743
0.473610 0.101411 0.101320
0.532738 0.096559 0.090242
0.587976 0.096162 0.063539
0.639063 0.099825 0.024598
0.686000 0.108156 0.000000
0.730800 0.119814 0.000000
0.772519 0.134646 0.000000
0.808988 0.148836 0.000000
0.862089 0.178958 0.000000
0.888487 0.190677 0.000000
0.913603 0.201938 0.000000
0.938354 0.213260 0.000000
0.962615 0.224643 0.000000
0.986664 0.235782 0.000000
1.000000 0.247044 0.000000
1.000000 0.258396 0.000000
1.000000 0.269505 0.000000
1.000000 0.280522 0.000000
0.028901 0.107149 0.131197
0.028901 0.107149 0.131197
0.028901 0.107149 0.131197
0.028199 0.107485 0.131136
0.027893 0.107485 0.131411
0.028992 0.107424 0.132174
0.030793 0.106996 0.132937
0.030793 0.106996 0.132937
0.078553 0.116854 0.129885
0.140444 0.131533 0.124392
0.203067 0.140780 0.120699
0.272190 0.146883 0.116030
0.342687 0.150179 0.109773
0.410193 0.152926 0.101717
0.473762 0.155123 0.090669
0.533013 0.157565 0.065370
0.588312 0.160739 0.027131
0.639246 0.165408 0.000000
0.686946 0.171481 0.000000
0.735225 0.181338 0.000000
0.778744 0.191775 0.000000
0.816556 0.202274 0.000000
0.849363 0.212131 0.000000
0.878233 0.221561 0.000000
0.905028 0.230625 0.000000
0.930816 0.239811 0.000000
0.955871 0.248661 0.000000
0.980255 0.257725 0.000000
1.000000 0.267308 0.000000
1.000000 0.276524 0.000000
1.000000 0.286259 0.000000
1.000000 0.296239 0.000000
0.029999 0.114534 0.135103
0.029999 0.114534 0.135103
0.029999 0.114534 0.135103
0.030976 0.114778 0.135317
0.030671 0.114778 0.135561
0.033875 0.114351 0.136782
0.036194 0.113313 0.138277
0.035554 0.113893 0.139162
0.036225 0.114137 0.139590
0.079103 0.125460 0.137209
0.152041 0.148928 0.126436
0.244724 0.169192 0.114748
0.324590 0.180575 0.104921
0.393225 0.188663 0.094301
0.458137 0.195254 0.075990
0.518364 0.200992 0.037781
0.574853 0.205936 0.000000
0.626978 0.211093 0.000000
0.679042 0.218173 0.000000
0.726436 0.225345 0.000000
0.769528 0.233158 0.000000
0.807675 0.240879 0.000000
0.841123 0.248081 0.000000
0.870573 0.255009 0.000000
0.897642 0.261692 0.000000
0.923857 0.268437 0.000000
0.949248 0.275456 0.000000
0.974121 0.282597 0.000000
0.998535 0.290623 0.000000
1.000000 0.298528 0.000000
1.000000 0.306859 0.000000
1.000000 0.315557 0.000000
0.034516 0.127016 0.141848
0.034211 0.127016 0.142092
0.033509 0.127291 0.142061
0.034485 0.127535 0.142245
0.036988 0.126894 0.142977
0.040284 0.126223 0.144594
0.044709 0.125002 0.146456
0.047089 0.124300 0.148653
0.046723 0.125338 0.149599
0.049378 0.126040 0.150332
0.076051 0.135317 0.152316
0.164492 0.169039 0.135409
0.267918 0.197360 0.115114
0.367163 0.218265 0.090303
0.442329 0.230350 0.047303
0.504021 0.238590 0.004669
0.561669 0.245335 0.000000
0.618189 0.252598 0.000000
0.670100 0.259312 0.000000
0.717494 0.265537 0.000000
0.760555 0.272129 0.000000
0.799100 0.278141 0.000000
0.833158 0.283665 0.000000
0.863218 0.288823 0.000000
0.890654 0.293523 0.000000
0.917205 0.298558 0.000000
0.943023 0.304051 0.000000
0.968292 0.309819 0.000000
0.993194 0.316228 0.000000
1.000000 0.323003 0.000000
1.000000 0.330114 0.000000
1.000000 0.337682 0.000000
0.043000 0.146029 0.152346
0.043702 0.145785 0.152377
0.043397 0.145785 0.152590
0.047883 0.145235 0.153262
0.050202 0.144503 0.154543
0.056916 0.143404 0.156039
0.061158 0.142123 0.158328
0.066590 0.140536 0.161563
0.070100 0.140810 0.163363
0.072663 0.142306 0.164675
0.074525 0.143954 0.165927
0.083101 0.149294 0.170626
0.176638 0.190036 0.153262
0.288243 0.226017 0.125429
0.390173 0.252232 0.088441
0.481422 0.270787 0.000000
0.551202 0.282383 0.000000
0.608331 0.290440 0.000000
0.660487 0.297398 0.000000
0.708248 0.303349 0.000000
0.751431 0.309056 0.000000
0.789975 0.313817 0.000000
0.823880 0.317906 0.000000
0.854154 0.321294 0.000000
0.881468 0.324254 0.000000
0.908110 0.327642 0.000000
0.934356 0.331853 0.000000
0.960235 0.336614 0.000000
0.985809 0.342016 0.000000
1.000000 0.347967 0.000000
1.000000 0.354253 0.000000
1.000000 0.361028 0.000000
0.072724 0.172335 0.168307
0.072419 0.172335 0.168490
0.073548 0.171969 0.168704
0.078340 0.171328 0.169497
0.082338 0.170138 0.170657
0.086671 0.168582 0.172427
0.090944 0.166354 0.174716
0.093721 0.163943 0.177829
0.096010 0.162417 0.181399
0.097658 0.163912 0.182650
0.099886 0.166079 0.184421
0.102052 0.168551 0.186435
0.105135 0.171420 0.188663
0.190768 0.213748 0.180056
0.311986 0.258091 0.147219
0.417182 0.289189 0.102907
0.509453 0.310033 0.000000
0.589746 0.323980 0.000000
0.648493 0.332067 0.000000
0.696590 0.338109 0.000000
0.740352 0.343236 0.000000
0.779568 0.347753 0.000000
0.814450 0.351232 0.000000
0.845518 0.353796 0.000000
0.873503 0.355779 0.000000
0.900603 0.358404 0.000000
0.927276 0.361608 0.000000
0.953674 0.365423 0.000000
0.979736 0.369848 0.000000
1.000000 0.374945 0.000000
1.000000 0.380407 0.000000
1.000000 0.386481 0.000000
0.110414 0.208774 0.190585
0.110323 0.208774 0.190738
0.111696 0.208438 0.191073
0.113039 0.207584 0.191928
0.115572 0.206363 0.193118
0.119356 0.204654 0.194949
0.123110 0.202457 0.197513
0.126741 0.199557 0.200809
0.129915 0.196139 0.204807
0.131533 0.194919 0.207492
0.132601 0.195834 0.208286
0.135531 0.198276 0.210056
0.152590 0.211948 0.220951
0.154421 0.213291 0.221958
0.226902 0.254459 0.225620
0.355566 0.306798 0.188174
0.463935 0.340734 0.140230
0.556115 0.362371 0.030304
0.634730 0.375952 0.000000
0.701747 0.384466 0.000000
0.749660 0.389441 0.000000
0.787381 0.392584 0.000000
0.820798 0.394476 0.000000
0.850462 0.395514 0.000000
0.877928 0.396338 0.000000
0.904906 0.397681 0.000000
0.931151 0.399664 0.000000
0.956970 0.402167 0.000000
0.982269 0.405249 0.000000
1.000000 0.408820 0.000000
1.000000 0.413001 0.000000
1.000000 0.417914 0.000000
0.164645 0.256870 0.221195
0.164767 0.256748 0.221225
0.165469 0.256016 0.221561
0.166537 0.254856 0.222232
0.168368 0.253117 0.223209
0.170809 0.250828 0.224857
0.174075 0.248203 0.227115
0.178378 0.245518 0.230686
0.183017 0.243168 0.235477
0.187472 0.240513 0.241459
0.191165 0.242039 0.244511
0.195438 0.245365 0.247135
0.200229 0.248905 0.249882
0.204654 0.252567 0.252781
0.206119 0.253422 0.253452
0.243046 0.279026 0.266667
0.372503 0.335393 0.228641
0.480232 0.371710 0.183932
0.571344 0.394659 0.124056
0.648432 0.408881 0.000000
0.713985 0.417273 0.000000
0.769589 0.421668 0.000000
0.806851 0.423560 0.000000
0.837827 0.424598 0.000000
0.866117 0.425055 0.000000
0.893858 0.426032 0.000000
0.920989 0.427680 0.000000
0.947601 0.429847 0.000000
0.973816 0.432441 0.000000
0.999573 0.435889 0.000000
1.000000 0.439704 0.000000
1.000000 0.444190 0.000000
0.220768 0.301762 0.252567
0.220645 0.301701 0.252567
0.221073 0.300816 0.252628
0.221744 0.299870 0.253269
0.223423 0.298375 0.254307
0.225559 0.296361 0.255894
0.228702 0.293950 0.258213
0.232181 0.291569 0.261540
0.236027 0.288731 0.265599
0.240360 0.285954 0.270970
0.244297 0.283299 0.277287
0.247898 0.286107 0.279637
0.251743 0.289097 0.282017
0.255467 0.292027 0.284459
0.258732 0.294743 0.286656
0.258732 0.294743 0.286656
0.278508 0.310338 0.299657
0.388678 0.362371 0.272160
0.494240 0.400305 0.229526
0.584070 0.424811 0.179049
0.660304 0.440284 0.106447
0.725734 0.449744 0.000000
0.780392 0.453742 0.000000
0.825620 0.453620 0.000000
0.855070 0.453834 0.000000
0.883513 0.454627 0.000000
0.911406 0.456062 0.000000
0.938720 0.457923 0.000000
0.965606 0.460426 0.000000
0.992004 0.463478 0.000000
1.000000 0.467048 0.000000
1.000000 0.471260 0.000000
0.276036 0.346319 0.286259
0.276005 0.346197 0.286198
0.276127 0.345373 0.286259
0.276432 0.344244 0.286534
0.277226 0.342382 0.287175
0.278538 0.340093 0.288304
0.280644 0.337743 0.290257
0.283299 0.335119 0.292851
0.286809 0.332464 0.296544
0.290654 0.329778 0.301274
0.294652 0.327214 0.307195
0.298344 0.326055 0.312871
0.301488 0.328588 0.315068
0.304753 0.331090 0.317205
0.307469 0.333135 0.319066
0.309483 0.334844 0.320500
0.308934 0.334386 0.320073
0.320684 0.343725 0.328161
0.404944 0.387945 0.316533
0.508934 0.428046 0.276677
0.596490 0.453925 0.231235
0.672053 0.471199 0.177005
0.736965 0.481910 0.093202
0.790494 0.485817 0.000000
0.834867 0.484627 0.000000
0.872923 0.482765 0.000000
0.901610 0.484199 0.000000
0.929900 0.486122 0.000000
0.957702 0.488777 0.000000
0.985046 0.491981 0.000000
1.000000 0.495705 0.000000
1.000000 0.500053 0.000000
0.326146 0.386328 0.319005
0.326238 0.386297 0.319066
0.326482 0.385779 0.319310
0.327092 0.384985 0.319799
0.327977 0.383612 0.320531
0.329351 0.382025 0.321782
0.331701 0.380346 0.323735
0.334752 0.378302 0.326513
0.338109 0.376226 0.330053
0.341619 0.373877 0.334417
0.345129 0.371283 0.339452
0.348150 0.368231 0.345190
0.350286 0.367315 0.348974
0.351781 0.368536 0.350103
0.353307 0.369696 0.351171
0.354284 0.370550 0.351843
0.355291 0.371344 0.352605
0.354711 0.370855 0.352178
0.359564 0.374762 0.355657
0.419715 0.410742 0.359167
0.522637 0.453864 0.322850
0.610040 0.482551 0.282475
0.684352 0.501732 0.236393
0.747890 0.513420 0.181521
0.799954 0.517723 0.097749
0.844480 0.517021 0.000000
0.886259 0.515068 0.000000
0.921508 0.514672 0.000000
0.949981 0.517235 0.000000
0.977813 0.520317 0.000000
1.000000 0.523827 0.000000
1.000000 0.527947 0.000000
0.372198 0.423194 0.351141
0.372290 0.423041 0.351141
0.372503 0.422675 0.351415
0.373053 0.421942 0.351781
0.373877 0.420966 0.352575
0.375463 0.419654 0.353826
0.377447 0.418036 0.355566
0.379828 0.416358 0.357977
0.382879 0.414466 0.361181
0.385931 0.412299 0.364843
0.389258 0.409766 0.369360
0.392157 0.407019 0.374365
0.394537 0.403876 0.380133
0.395789 0.403723 0.382238
0.396918 0.404608 0.383093
0.397711 0.405341 0.383703
0.398383 0.405859 0.384161
0.399237 0.406470 0.384802
0.399115 0.406378 0.384741
0.397955 0.405463 0.383856
0.436042 0.433082 0.401892
0.538140 0.479683 0.368658
0.624201 0.510979 0.333074
0.697444 0.532067 0.293187
0.757961 0.544152 0.248722
0.808408 0.549126 0.197910
0.854154 0.550286 0.121035
0.897612 0.549523 0.000000
0.938750 0.547234 0.000000
0.970367 0.548638 0.000000
0.998230 0.552270 0.000000
1.000000 0.556420 0.000000
0.417151 0.459083 0.384070
0.417426 0.459174 0.384344
0.433173 0.471321 0.396399
0.433692 0.470741 0.396796
0.434516 0.469886 0.397467
0.435462 0.468635 0.398474
0.436988 0.466987 0.399878
0.438849 0.465248 0.401831
0.441291 0.463386 0.404425
0.443915 0.461311 0.407721
0.446479 0.458991 0.411505
0.449073 0.456336 0.415930
0.450904 0.453010 0.420417
0.451789 0.449104 0.425299
0.451881 0.449165 0.425391
0.451728 0.449012 0.425208
0.451148 0.448554 0.424811
0.450690 0.448157 0.424445
0.450477 0.447974 0.424262
0.449928 0.447517 0.423804
0.448676 0.446479 0.422827
0.472419 0.465980 0.441810
0.559899 0.509819 0.419379
0.643519 0.543023 0.386999
0.712947 0.564569 0.351812
0.769375 0.576165 0.313817
0.818357 0.581781 0.273320
0.864897 0.584649 0.223484
0.909178 0.585351 0.151705
0.951324 0.583703 0.000000
0.990906 0.580285 0.000000
1.000000 0.584558 0.000000
0.463539 0.496437 0.420020
0.464912 0.497505 0.421180
0.466499 0.498421 0.422461
0.468391 0.499031 0.423987
0.470069 0.499123 0.425422
0.471351 0.498360 0.426642
0.472786 0.497078 0.427985
0.474189 0.495430 0.429572
0.476326 0.493690 0.431830
0.478523 0.491798 0.434577
0.481025 0.489723 0.438025
0.483467 0.487312 0.441810
0.485298 0.484352 0.445838
0.486702 0.481025 0.450202
0.487098 0.478126 0.453803
0.487251 0.478248 0.453956
0.487190 0.478187 0.453864
0.487190 0.478187 0.453864
0.487434 0.478370 0.454017
0.487800 0.478706 0.454353
0.488380 0.479164 0.454810
0.488808 0.479500 0.455207
0.507042 0.494728 0.470375
0.575128 0.533104 0.462745
0.656428 0.568444 0.433692
0.722652 0.590814 0.402991
0.776425 0.603174 0.370611
0.826169 0.611444 0.337163
0.873716 0.616968 0.299016
0.919066 0.619806 0.251774
0.962188 0.619776 0.185092
1.000000 0.616968 0.000000
0.499916 0.526268 0.449775
0.501396 0.527337 0.450904
0.502953 0.528313 0.452308
0.504723 0.529076 0.453834
0.506401 0.529259 0.455268
0.507683 0.528679 0.456428
0.508812 0.527581 0.457649
0.510216 0.526238 0.459144
0.512016 0.524681 0.461097
0.513909 0.522881 0.463478
0.516075 0.520989 0.466377
0.518273 0.518853 0.469734
0.520348 0.516350 0.473426
0.521904 0.513481 0.477363
0.522972 0.510277 0.481697
0.523308 0.508385 0.484199
0.523400 0.508446 0.484230
0.523522 0.508598 0.484352
0.523796 0.508812 0.484596
0.524285 0.509300 0.485054
0.525170 0.510002 0.485786
0.526268 0.510948 0.486732
0.527672 0.512108 0.487922
0.541009 0.523461 0.499519
0.590539 0.555596 0.505364
0.669184 0.592828 0.479408
0.731624 0.615808 0.453040
0.784176 0.629877 0.425422
0.834806 0.641291 0.398291
0.883207 0.649592 0.368017
0.929076 0.654749 0.332830
0.972839 0.656580 0.288121
0.535760 0.556115 0.480354
0.537011 0.557061 0.481422
0.538354 0.557885 0.482673
0.539910 0.558556 0.484016
0.541314 0.558740 0.485237
0.542473 0.558251 0.486336
0.543572 0.557397 0.487526
0.544793 0.556207 0.488838
0.546349 0.554894 0.490608
0.548119 0.553277 0.492714
0.550134 0.551659 0.495338
0.552178 0.549859 0.498360
0.554192 0.547631 0.501701
0.555932 0.545159 0.505303
0.557305 0.542504 0.509331
0.558312 0.539483 0.513573
0.558923 0.538994 0.515435
0.559716 0.539666 0.516136
0.560906 0.540642 0.517174
0.562310 0.541894 0.518456
0.564080 0.543450 0.520073
0.566155 0.545251 0.521935
0.568139 0.547021 0.523735
0.571130 0.549615 0.526452
0.580529 0.557946 0.535088
0.613489 0.584161 0.553491
0.686915 0.621912 0.531762
0.745052 0.645472 0.510246
0.798154 0.662928 0.487984
0.849729 0.677729 0.466865
0.898314 0.688808 0.443946
0.944182 0.696162 0.417639
0.577264 0.591669 0.517937
0.577844 0.592065 0.518456
0.578393 0.592187 0.518914
0.578912 0.592065 0.519432
0.579431 0.591730 0.519951
0.580041 0.590967 0.520531
0.580804 0.590021 0.521355
0.581781 0.588891 0.522454
0.583124 0.587732 0.523949
0.584741 0.586450 0.525963
0.586664 0.585077 0.528313
0.588678 0.583520 0.531060
0.590570 0.581659 0.534112
0.592309 0.579614 0.537377
0.593744 0.577203 0.540948
0.594842 0.574578 0.544793
0.595636 0.571740 0.548974
0.596307 0.572045 0.549859
0.597009 0.572656 0.550530
0.597925 0.573510 0.551385
0.599023 0.574548 0.552453
0.600427 0.575769 0.553765
0.601862 0.577081 0.555138
0.603326 0.578393 0.556512
0.606378 0.581170 0.559442
0.611963 0.586297 0.564813
0.635950 0.608484 0.588342
0.698482 0.643977 0.575494
0.754849 0.669581 0.558282
0.808957 0.690730 0.541253
0.860563 0.708278 0.525231
0.908873 0.721706 0.508049
0.609430 0.619165 0.549004
0.609857 0.619440 0.549371
0.610254 0.619623 0.549859
0.610864 0.619532 0.550347
0.611292 0.619257 0.550896
0.611902 0.618708 0.551415
0.612604 0.617945 0.552178
0.613519 0.617090 0.553155
0.614801 0.616144 0.554559
0.616327 0.615137 0.556390
0.618006 0.613977 0.558526
0.619867 0.612787 0.561028
0.621637 0.611322 0.563775
0.623529 0.609705 0.566857
0.625208 0.607874 0.570153
0.626703 0.605859 0.573724
0.627924 0.603662 0.577691
0.628870 0.601892 0.581323
0.629725 0.602655 0.582177
0.630701 0.603632 0.583185
0.631891 0.604700 0.584344
0.633265 0.605951 0.585687
0.634699 0.607294 0.587121
0.636255 0.608759 0.588678
0.634272 0.606958 0.586725
0.637507 0.609918 0.589899
0.641962 0.614099 0.594324
0.662409 0.633509 0.615106
0.709499 0.663813 0.614099
0.766140 0.692653 0.600824
0.821164 0.717525 0.589441
0.872313 0.737850 0.578759
0.643153 0.647517 0.583551
0.643763 0.647974 0.584192
0.644068 0.648127 0.584558
0.644282 0.647852 0.584741
0.644312 0.647303 0.584741
0.644343 0.646479 0.584771
0.644434 0.645441 0.584833
0.644678 0.644282 0.585168
0.645228 0.643030 0.585779
0.646021 0.641779 0.586725
0.646937 0.640436 0.588006
0.648127 0.639094 0.589715
0.649470 0.637568 0.591699
0.650690 0.635950 0.593896
0.651789 0.634058 0.596246
0.652857 0.632013 0.598901
0.653834 0.629938 0.601923
0.654688 0.627924 0.605432
0.655634 0.627039 0.608148
0.656703 0.628077 0.609247
0.658015 0.629297 0.610559
0.659358 0.630610 0.611963
0.660609 0.631830 0.613245
0.661830 0.632929 0.614466
0.662837 0.633936 0.615534
0.663844 0.634882 0.616571
0.666865 0.637812 0.619684
0.671504 0.642206 0.624445
0.687404 0.657679 0.641077
0.723323 0.684016 0.648920
0.780941 0.716457 0.639490
0.835691 0.744228 0.632441
0.668208 0.669062 0.610163
0.668727 0.669429 0.610681
0.669154 0.669642 0.611139
0.669429 0.669581 0.611414
0.669673 0.669306 0.611658
0.670008 0.668879 0.612024
0.670466 0.668360 0.612512
0.671168 0.667720 0.613214
0.671962 0.667109 0.614160
0.673030 0.666377 0.615442
0.674159 0.665553 0.616815
0.675441 0.664668 0.618524
0.676722 0.663600 0.620294
0.677943 0.662318 0.622248
0.679011 0.660822 0.624292
0.680049 0.659174 0.626551
0.680964 0.657496 0.629084
0.681941 0.655787 0.631952
0.682918 0.654231 0.635340
0.683925 0.654261 0.637385
0.685054 0.655360 0.638544
0.686336 0.656611 0.639887
0.687617 0.657893 0.641260
0.688869 0.659113 0.642603
0.690089 0.660304 0.643885
0.691310 0.661494 0.645167
0.692561 0.662684 0.646418
0.695735 0.665827 0.649836
0.701106 0.671077 0.655512
0.714717 0.684627 0.670008
0.741878 0.708522 0.687587
0.800107 0.744472 0.681910
0.693965 0.693111 0.637690
0.694209 0.693324 0.637995
0.694453 0.693355 0.638148
0.694606 0.693233 0.638331
0.694820 0.692927 0.638544
0.695003 0.692500 0.638788
0.695369 0.691981 0.639155
0.695888 0.691371 0.639704
0.696529 0.690761 0.640467
0.697444 0.690089 0.641474
0.698421 0.689326 0.642634
0.699519 0.688533 0.644038
0.700679 0.687678 0.645655
0.701808 0.686580 0.647364
0.702876 0.685298 0.649195
0.703853 0.683864 0.651148
0.704860 0.682368 0.653407
0.705898 0.680873 0.655970
0.706966 0.679561 0.658961
0.708095 0.678370 0.662501
0.709224 0.679133 0.664149
0.710475 0.680385 0.665492
0.711727 0.681636 0.666835
0.713008 0.682887 0.668208
0.714290 0.684138 0.669520
0.715480 0.685359 0.670832
0.716793 0.686702 0.672267
0.718166 0.688045 0.673762
0.721736 0.691646 0.677607
0.728542 0.698512 0.684932
0.740597 0.710689 0.697993
0.763241 0.733913 0.722805
0.717494 0.717311 0.662715
0.717708 0.717525 0.662959
0.717922 0.717586 0.663233
0.718196 0.717556 0.663447
0.718624 0.717464 0.663844
0.719142 0.717433 0.664454
0.720089 0.717586 0.665431
0.721309 0.717769 0.666743
0.722774 0.718044 0.668360
0.724514 0.718349 0.670314
0.726436 0.718685 0.672480
0.728389 0.718837 0.674800
0.730312 0.718868 0.677211
0.732174 0.718593 0.679591
0.733852 0.717983 0.681971
0.735225 0.717037 0.684169
0.736477 0.715938 0.686549
0.737758 0.714717 0.689174
0.739101 0.713680 0.692256
0.740475 0.712734 0.695705
0.741848 0.711971 0.699367
0.743191 0.713313 0.700801
0.744472 0.714656 0.702205
0.745815 0.715999 0.703670
0.747097 0.717311 0.705074
0.748379 0.718654 0.706508
0.749752 0.720058 0.708003
0.751247 0.721553 0.709621
0.752712 0.723079 0.711238
0.756283 0.726741 0.715145
0.764126 0.734829 0.723781
0.775143 0.746334 0.735988
0.748165 0.748959 0.696132
0.748165 0.748959 0.696193
0.748257 0.748867 0.696223
0.748287 0.748684 0.696284
0.748440 0.748470 0.696437
0.748745 0.748165 0.696742
0.749203 0.747860 0.697230
0.749844 0.747555 0.697902
0.750729 0.747311 0.698878
0.751766 0.747036 0.700038
0.753017 0.746792 0.701472
0.754360 0.746487 0.703059
0.755825 0.746090 0.704860
0.757259 0.745571 0.706783
