20 Preset/Portrait Preset/【3】LUT for PR-AE-FCPX/Film Portrait - LUT  (4).cube
# Created by Adobe Lightroom plugin Export LUT (1.24.0)
# www.johnrellis.com/lightroom/exportlut.htm
# Preset: 灰青电影-素材江湖04
# Color profile: E:\lut插件\exportlut.1.24\exportlut.lrplugin\color profiles\Rec709gamma2.4.icc
LUT_3D_SIZE 32
DOMAIN_MIN 0.0 0.0 0.0
DOMAIN_MAX 1.0 1.0 1.0
0.047669 0.024628 0.005890
0.052918 0.025177 0.005707
0.067079 0.025788 0.006470
0.090822 0.026337 0.006836
0.110048 0.028595 0.007660
0.132570 0.034028 0.008515
0.160494 0.036591 0.007599
0.196384 0.029938 0.008179
0.239078 0.012970 0.007416
0.289616 0.000000 0.004059
0.345983 0.000000 0.000000
0.407294 0.000000 0.000000
0.471168 0.000000 0.000000
0.533715 0.000000 0.000000
0.592432 0.000000 0.000000
0.645197 0.000000 0.000000
0.691981 0.000000 0.000000
0.733700 0.000000 0.000000
0.770230 0.025452 0.000000
0.800626 0.136690 0.000000
0.825315 0.187930 0.057862
0.847471 0.233341 0.112001
0.866361 0.273960 0.149325
0.882170 0.310369 0.184878
0.895781 0.343816 0.219974
0.907958 0.374884 0.255131
0.919249 0.404242 0.290471
0.930236 0.432044 0.325414
0.941039 0.458900 0.360845
0.951812 0.484962 0.396521
0.962982 0.510216 0.431495
0.974487 0.534966 0.466407
0.049195 0.027802 0.006561
0.051179 0.027558 0.006531
0.069642 0.027741 0.006165
0.090761 0.029725 0.006378
0.110384 0.032959 0.007019
0.132387 0.038605 0.007935
0.160555 0.038758 0.008423
0.195712 0.032776 0.007904
0.237858 0.018891 0.006867
0.287633 0.000000 0.003571
0.343664 0.000000 0.000000
0.404456 0.000000 0.000000
0.467903 0.000000 0.000000
0.530266 0.000000 0.000000
0.589288 0.000000 0.000000
0.642115 0.000000 0.000000
0.689418 0.000000 0.000000
0.731014 0.000000 0.000000
0.768154 0.035767 0.000000
0.798703 0.138308 0.000000
0.823606 0.187961 0.054139
0.845731 0.231998 0.109926
0.864469 0.272190 0.146487
0.880278 0.307866 0.181674
0.893950 0.340612 0.215976
0.906218 0.371710 0.250950
0.917571 0.401190 0.285954
0.928679 0.428901 0.320836
0.939544 0.455879 0.356603
0.950530 0.481819 0.391669
0.961669 0.507500 0.427405
0.973236 0.532189 0.462257
0.054292 0.040650 0.005829
0.055970 0.040436 0.006958
0.073121 0.039612 0.006714
0.091981 0.041596 0.008087
0.111727 0.045808 0.007446
0.133425 0.051484 0.008331
0.161898 0.052369 0.008667
0.196628 0.047608 0.007996
0.238499 0.034913 0.006806
0.287877 0.010346 0.003235
0.343114 0.000000 0.000000
0.403510 0.000000 0.000000
0.466255 0.000000 0.000000
0.528252 0.000000 0.000000
0.586786 0.000000 0.000000
0.640070 0.000000 0.000000
0.686976 0.000000 0.000000
0.728939 0.000000 0.000000
0.766049 0.092195 0.000000
0.796658 0.152682 0.000000
0.821805 0.197635 0.057343
0.843992 0.239719 0.112245
0.862821 0.277012 0.147036
0.878538 0.311772 0.182284
0.892271 0.343694 0.216037
0.904570 0.373663 0.249973
0.916106 0.402441 0.284886
0.927184 0.429877 0.320134
0.938231 0.456306 0.355108
0.949157 0.482277 0.390967
0.960418 0.507530 0.425971
0.972076 0.532189 0.461006
0.064820 0.067353 0.007630
0.066102 0.068330 0.007477
0.079652 0.068971 0.007111
0.096498 0.068086 0.008759
0.114076 0.072755 0.009247
0.137179 0.076295 0.009125
0.165225 0.078798 0.007996
0.199863 0.077119 0.007996
0.241398 0.069551 0.006012
0.290074 0.051759 0.001526
0.344732 0.021851 0.000000
0.403937 0.000000 0.000000
0.466072 0.000000 0.000000
0.527062 0.000000 0.000000
0.584985 0.000000 0.000000
0.637110 0.000000 0.000000
0.683803 0.000000 0.000000
0.725307 0.069978 0.000000
0.762356 0.134249 0.000000
0.793057 0.177615 0.000000
0.818326 0.215793 0.060761
0.840665 0.253056 0.114137
0.859403 0.287358 0.149020
0.875334 0.319463 0.183139
0.889342 0.350164 0.217258
0.901915 0.379553 0.252110
0.913756 0.407752 0.287327
0.925231 0.434516 0.322423
0.936400 0.460670 0.357763
0.947509 0.486091 0.393103
0.958831 0.510582 0.427741
0.970459 0.534508 0.462013
0.075868 0.097658 0.006897
0.078767 0.097932 0.006744
0.083619 0.098787 0.006256
0.101259 0.098177 0.007874
0.118898 0.097292 0.010407
0.140291 0.100099 0.010803
0.169070 0.102113 0.009033
0.203891 0.101167 0.006714
0.244968 0.101076 0.002533
0.292576 0.099489 0.000000
0.345861 0.094026 0.000000
0.404547 0.082185 0.000000
0.464973 0.058350 0.000000
0.525231 0.035920 0.000000
0.582025 0.036194 0.000000
0.633997 0.073976 0.000000
0.680385 0.111299 0.000000
0.721889 0.144686 0.000000
0.758755 0.177951 0.000000
0.789425 0.211521 0.006348
0.815030 0.243839 0.081422
0.837278 0.276097 0.121279
0.855863 0.306004 0.155398
0.871885 0.335302 0.189181
0.886046 0.363622 0.223148
0.898924 0.390784 0.257206
0.910948 0.417151 0.291814
0.922545 0.442695 0.326635
0.933837 0.467567 0.361791
0.945098 0.491920 0.396307
0.956481 0.515679 0.430854
0.968109 0.538903 0.464729
0.074098 0.126101 0.003235
0.074647 0.126589 0.002930
0.081605 0.127413 0.002258
0.095705 0.128664 0.003174
0.121431 0.127901 0.004150
0.147036 0.126558 0.008270
0.175296 0.129397 0.010071
0.210544 0.133333 0.003510
0.251591 0.133150 0.000000
0.297856 0.131533 0.000000
0.350317 0.132601 0.000000
0.407568 0.132662 0.000000
0.466896 0.132937 0.000000
0.525414 0.135195 0.000000
0.581415 0.142580 0.000000
0.632410 0.155520 0.000000
0.677974 0.175509 0.000000
0.718837 0.198795 0.000000
0.755428 0.224735 0.000000
0.785885 0.250889 0.029297
0.811856 0.278782 0.098207
0.833707 0.305730 0.133577
0.861112 0.349859 0.187594
0.876432 0.376349 0.223087
0.889952 0.401404 0.257023
0.902342 0.425666 0.291386
0.913878 0.449195 0.325566
0.925139 0.471809 0.358770
0.936217 0.494148 0.392096
0.947326 0.516075 0.424720
0.958618 0.537530 0.456977
0.970214 0.558404 0.488228
0.022309 0.168734 0.000000
0.024842 0.169039 0.000000
0.032776 0.170291 0.000000
0.053468 0.173037 0.000000
0.110536 0.172854 0.000000
0.149813 0.171908 0.000000
0.186404 0.170596 0.000000
0.223941 0.173495 0.005615
0.266514 0.179477 0.000000
0.313939 0.180972 0.000000
0.364538 0.179171 0.000000
0.420447 0.180697 0.000000
0.478218 0.186679 0.000000
0.534722 0.194156 0.000000
0.588037 0.204349 0.000000
0.636561 0.217594 0.000000
0.680354 0.234806 0.000000
0.719753 0.253849 0.000000
0.754940 0.275273 0.008606
0.785245 0.298039 0.081514
0.811704 0.323003 0.123629
0.833768 0.347326 0.158968
0.852567 0.371374 0.194339
0.868772 0.395392 0.229740
0.883207 0.418555 0.264927
0.896086 0.440833 0.298863
0.908110 0.462287 0.332403
0.919615 0.483314 0.364965
0.930999 0.503960 0.397101
0.942321 0.524346 0.428931
0.953826 0.544579 0.460487
0.965637 0.564569 0.491157
0.000000 0.217044 0.000000
0.000000 0.217136 0.000000
0.000000 0.218875 0.000000
0.000000 0.221134 0.000000
0.041749 0.223728 0.000000
0.134432 0.223117 0.000000
0.186007 0.221805 0.000000
0.230869 0.220462 0.000000
0.276768 0.225284 0.000000
0.323095 0.232242 0.000000
0.374090 0.236149 0.000000
0.426429 0.236912 0.000000
0.479225 0.234531 0.000000
0.533013 0.243442 0.000000
0.584649 0.254856 0.000000
0.631495 0.268437 0.000000
0.674220 0.283299 0.000000
0.712886 0.300816 0.000000
0.748074 0.319646 0.051209
0.779019 0.339818 0.106783
0.804562 0.359808 0.142672
0.826291 0.379767 0.175906
0.844999 0.399847 0.209567
0.861326 0.420203 0.243809
0.876036 0.440253 0.277256
0.889311 0.459754 0.310674
0.901640 0.479042 0.342901
0.913542 0.497810 0.374456
0.925170 0.516869 0.405859
0.936797 0.535821 0.436774
0.948638 0.554742 0.467231
0.960754 0.573449 0.497078
0.000000 0.273136 0.000000
0.000000 0.273259 0.000000
0.000000 0.274510 0.000000
0.000000 0.277195 0.000000
0.000000 0.281041 0.000000
0.080262 0.281621 0.000000
0.170047 0.280735 0.000000
0.230167 0.279759 0.000000
0.281651 0.278813 0.000000
0.333013 0.283024 0.000824
0.383978 0.293004 0.000000
0.435309 0.299138 0.000000
0.486519 0.301976 0.000000
0.535363 0.302251 0.000000
0.581628 0.303380 0.000000
0.626978 0.316655 0.000000
0.668482 0.331334 0.000000
0.706783 0.347295 0.050111
0.742306 0.364935 0.101289
0.771878 0.381598 0.133730
0.796780 0.397833 0.165408
0.818235 0.413794 0.196841
0.837034 0.430304 0.228702
0.853513 0.447456 0.261418
0.868467 0.464332 0.293889
0.881987 0.481270 0.325414
0.894713 0.498207 0.356695
0.906889 0.515129 0.387091
0.918883 0.532403 0.417426
0.930877 0.549706 0.447242
0.942992 0.567071 0.476478
0.955383 0.584649 0.505791
0.000000 0.334783 0.000000
0.000000 0.335088 0.000000
0.000000 0.335912 0.000000
0.000000 0.338293 0.000000
0.000000 0.341680 0.000000
0.000000 0.345098 0.000000
0.128817 0.344060 0.000000
0.216495 0.343267 0.000000
0.281651 0.342351 0.000000
0.337438 0.341558 0.000000
0.389319 0.343633 0.042908
0.442634 0.357305 0.070130
0.491554 0.364782 0.037415
0.538537 0.368597 0.026856
0.582696 0.370581 0.027283
0.623346 0.370642 0.035523
0.663386 0.377874 0.074342
0.701656 0.393194 0.107149
0.735531 0.408301 0.134707
0.764187 0.422095 0.162844
0.788479 0.434913 0.191897
0.809476 0.447547 0.221164
0.828031 0.460609 0.250797
0.844572 0.474159 0.280949
0.859495 0.488167 0.310704
0.873350 0.502373 0.340673
0.886412 0.517235 0.370214
0.899046 0.532372 0.399695
0.911498 0.547967 0.428656
0.923857 0.564111 0.458045
0.936584 0.580163 0.486427
0.949371 0.596735 0.515160
0.000000 0.397436 0.000000
0.000000 0.397803 0.000000
0.000000 0.398779 0.000000
0.000000 0.400885 0.000000
0.000000 0.404303 0.000000
0.000000 0.408850 0.000000
0.000000 0.409735 0.000000
0.188479 0.408942 0.000000
0.271427 0.408484 0.000000
0.338354 0.407477 0.000000
0.394995 0.406744 0.059510
0.443641 0.406928 0.111482
0.497475 0.423102 0.137575
0.541863 0.430488 0.129397
0.584649 0.435859 0.129183
0.624414 0.438788 0.133028
0.661311 0.439826 0.139162
0.695705 0.439826 0.147707
0.727504 0.448341 0.168368
0.755276 0.459266 0.194064
0.779202 0.469429 0.220340
0.799985 0.479744 0.247623
0.818631 0.490455 0.275151
0.835416 0.501610 0.303563
0.850645 0.513481 0.332067
0.864744 0.525811 0.360449
0.878172 0.538628 0.388281
0.891203 0.552087 0.416541
0.904021 0.566094 0.444282
0.916869 0.580529 0.472053
0.929870 0.595422 0.499580
0.943053 0.610681 0.526970
0.000000 0.461097 0.000000
0.000000 0.461524 0.000000
0.000000 0.462013 0.000000
0.000000 0.464088 0.000000
0.000000 0.466804 0.000000
0.000000 0.470771 0.000000
0.000000 0.474678 0.000000
0.139773 0.473945 0.000000
0.255467 0.472816 0.000000
0.333257 0.471962 0.027832
0.396551 0.471046 0.101747
0.451637 0.471931 0.137758
0.510735 0.486580 0.185794
0.560449 0.502983 0.223819
0.599756 0.509697 0.220279
0.636805 0.513237 0.221134
0.671412 0.514549 0.224491
0.702419 0.513329 0.230350
0.729946 0.510399 0.238041
0.754604 0.506432 0.246647
0.776974 0.514031 0.270542
0.796689 0.521660 0.295140
0.814481 0.529870 0.320684
0.830564 0.538750 0.346593
0.845457 0.548180 0.372137
0.859434 0.558068 0.397406
0.872801 0.568566 0.422461
0.885863 0.579675 0.447456
0.898741 0.591424 0.472541
0.911772 0.603723 0.497597
0.924895 0.616602 0.522728
0.938354 0.630060 0.547845
0.000000 0.526055 0.000000
0.000000 0.526055 0.000000
0.000000 0.526574 0.000000
0.000000 0.527611 0.000000
0.000000 0.529503 0.000000
0.000000 0.532280 0.000000
0.000000 0.535973 0.000000
0.041474 0.537346 0.003540
0.242771 0.536950 0.089052
0.331548 0.536889 0.124178
0.401495 0.537469 0.155642
0.460853 0.538384 0.187015
0.511620 0.539818 0.217990
0.554467 0.541741 0.249912
0.599176 0.556268 0.294804
0.633967 0.561486 0.292119
0.666285 0.562982 0.290990
0.694850 0.561669 0.293706
0.720607 0.558434 0.298161
0.744106 0.554284 0.303441
0.765530 0.549462 0.309545
0.785214 0.547814 0.321294
0.803220 0.554650 0.344701
0.819638 0.562097 0.368353
0.834867 0.570123 0.392706
0.849271 0.578790 0.416724
0.863005 0.588220 0.440711
0.876616 0.598077 0.464210
0.890043 0.608698 0.488258
0.903471 0.620050 0.512352
0.917052 0.632044 0.536736
0.931121 0.644251 0.560449
0.000000 0.578943 0.104616
0.000000 0.578912 0.104616
0.000000 0.579248 0.103975
0.000000 0.579950 0.107210
0.000000 0.581353 0.110414
0.000000 0.583520 0.115541
0.000000 0.586511 0.122957
0.000000 0.589532 0.134218
0.229648 0.588373 0.156802
0.325200 0.587579 0.180270
0.397314 0.587243 0.204898
0.457649 0.587518 0.230594
0.509209 0.588190 0.258457
0.553399 0.589014 0.286107
0.591577 0.589960 0.314672
0.631495 0.601373 0.354955
0.660426 0.603784 0.359686
0.687068 0.602716 0.357794
0.711513 0.600000 0.358892
0.733822 0.595972 0.361669
0.754452 0.591638 0.365454
0.773922 0.587182 0.370672
0.792142 0.583307 0.377173
0.809079 0.585077 0.392798
0.824613 0.592065 0.415045
0.839414 0.599634 0.437598
0.853544 0.607965 0.460395
0.867460 0.616815 0.482856
0.881254 0.626490 0.505760
0.895109 0.636866 0.528801
0.909178 0.647730 0.551598
0.923888 0.658869 0.573907
0.000000 0.624445 0.184939
0.000000 0.624598 0.184360
0.000000 0.624689 0.184817
0.000000 0.625025 0.185885
0.000000 0.625727 0.188571
0.000000 0.626886 0.192172
0.000000 0.628962 0.197208
0.063783 0.631800 0.204105
0.225071 0.632197 0.217197
0.321050 0.630915 0.234989
0.393042 0.630091 0.255314
0.452674 0.629725 0.277623
0.504082 0.629358 0.301396
0.548577 0.629206 0.325994
0.587427 0.629114 0.350866
0.621118 0.628809 0.375830
0.656092 0.636957 0.410101
0.679835 0.637507 0.422309
0.702815 0.635554 0.419348
0.724117 0.632288 0.418830
0.743984 0.628412 0.420752
0.762875 0.624628 0.423896
0.780728 0.620966 0.428748
0.797940 0.617639 0.434333
0.814359 0.614801 0.441199
0.829435 0.619837 0.459815
0.844053 0.627253 0.481117
0.858396 0.635431 0.502586
0.872618 0.644434 0.524651
0.886961 0.654200 0.546960
0.901823 0.664302 0.568627
0.917357 0.674403 0.589075
0.000000 0.659998 0.250278
0.000000 0.660090 0.251011
0.000000 0.660273 0.251560
0.000000 0.660670 0.252537
0.000000 0.661280 0.254978
0.000000 0.662379 0.258335
0.130404 0.663905 0.263218
0.185214 0.666102 0.269383
0.238773 0.668330 0.278477
0.325750 0.666835 0.293004
0.392950 0.665400 0.309606
0.449287 0.664027 0.327794
0.498329 0.662776 0.347051
0.541588 0.661433 0.367315
0.579675 0.660273 0.388006
0.613306 0.659113 0.409094
0.642969 0.658320 0.430610
0.674037 0.664302 0.459907
0.694575 0.665003 0.477546
0.714778 0.662806 0.474617
0.734188 0.660029 0.473457
0.752407 0.657069 0.475563
0.769955 0.654170 0.478859
0.786923 0.651423 0.483192
0.803250 0.649042 0.488777
0.819303 0.647150 0.495125
0.834897 0.646418 0.503441
0.849577 0.654017 0.523949
0.864225 0.662226 0.544457
0.879057 0.670893 0.564782
0.894469 0.679774 0.584222
0.910521 0.688930 0.603113
0.122713 0.687282 0.310613
0.124025 0.687373 0.310491
0.132876 0.687465 0.311070
0.148989 0.687739 0.312352
0.169680 0.688289 0.314366
0.195010 0.689052 0.317510
0.222751 0.690181 0.321965
0.252018 0.691707 0.327459
0.282292 0.693721 0.334325
0.335241 0.693782 0.344610
0.395483 0.692287 0.358526
0.447486 0.690730 0.373816
0.493751 0.689357 0.389960
0.534997 0.687922 0.407111
0.572168 0.686458 0.424903
0.605280 0.685115 0.443244
0.634943 0.683772 0.461952
0.661097 0.682856 0.481178
0.687617 0.686702 0.506279
0.706844 0.688808 0.528862
0.725032 0.687373 0.526513
0.742977 0.685359 0.525475
0.759945 0.683375 0.527489
0.776577 0.681331 0.530724
0.792874 0.679561 0.534905
0.808865 0.678126 0.539910
0.824674 0.677180 0.546075
0.840391 0.676661 0.552697
0.856046 0.679164 0.564019
0.871550 0.686976 0.582269
0.887633 0.695064 0.599969
0.904204 0.703426 0.617243
0.237552 0.710201 0.367163
0.238956 0.710262 0.367651
0.264256 0.716091 0.383368
0.269780 0.716304 0.384405
0.278569 0.716701 0.386084
0.290532 0.717250 0.388525
0.305760 0.718013 0.391852
0.323217 0.719020 0.396368
0.343084 0.720363 0.402350
0.366155 0.721828 0.409308
0.415229 0.720333 0.420386
0.459998 0.718807 0.432502
0.500511 0.717159 0.445594
0.538079 0.715358 0.459510
0.572107 0.713588 0.473701
0.603265 0.711818 0.488777
0.631312 0.709957 0.504021
0.656703 0.708492 0.519524
0.679194 0.707179 0.535943
0.701472 0.709133 0.556329
0.719875 0.712825 0.580499
0.736416 0.712032 0.578515
0.752804 0.710811 0.577569
0.768948 0.709407 0.578393
0.784848 0.707881 0.580285
0.800656 0.706538 0.583032
0.816342 0.705501 0.586786
0.832120 0.704799 0.591241
0.848142 0.704616 0.596643
0.864408 0.704891 0.602838
0.881041 0.709682 0.615229
0.898070 0.717403 0.630945
0.311986 0.730892 0.422705
0.314397 0.731350 0.424353
0.317937 0.731960 0.426215
0.323430 0.732540 0.428473
0.330968 0.733211 0.430976
0.339788 0.733852 0.433478
0.350561 0.734463 0.436408
0.363561 0.735256 0.440314
0.378302 0.736355 0.444984
0.394995 0.737697 0.450874
0.425544 0.737606 0.459022
0.464485 0.736202 0.469520
0.501457 0.734676 0.480720
0.535790 0.733150 0.492836
0.568017 0.731472 0.505486
0.597436 0.729885 0.518822
0.624659 0.728328 0.532372
0.649592 0.726955 0.546532
0.672297 0.725765 0.560876
0.692561 0.724941 0.574914
0.712215 0.726162 0.591455
0.731044 0.731685 0.617426
0.746639 0.731716 0.616114
0.762356 0.731289 0.615442
0.778103 0.730495 0.615686
0.793637 0.729824 0.617670
0.809232 0.729213 0.620111
0.825101 0.728756 0.623346
0.841215 0.728664 0.627405
0.857664 0.729061 0.632319
0.874540 0.729854 0.638056
0.891905 0.731075 0.644434
0.362982 0.746822 0.467720
0.364721 0.747311 0.469093
0.367620 0.747890 0.470802
0.371832 0.748470 0.472877
0.377203 0.749050 0.475105
0.384131 0.749538 0.477546
0.392248 0.750149 0.480201
0.402228 0.750881 0.483558
0.413642 0.751766 0.487617
0.426642 0.752834 0.492592
0.441169 0.754177 0.498360
0.475166 0.752865 0.507225
0.507683 0.751553 0.517021
0.538720 0.750149 0.527428
0.568109 0.748745 0.538720
0.595636 0.747311 0.549981
0.621363 0.745937 0.561639
0.645136 0.744717 0.573236
0.667140 0.743618 0.585199
0.687495 0.742824 0.597375
0.705898 0.742245 0.609552
0.723507 0.742672 0.622553
0.743099 0.749416 0.645869
0.757870 0.750423 0.648554
0.773159 0.750607 0.648127
0.788602 0.750484 0.648280
0.804105 0.750362 0.649805
0.819760 0.750362 0.652186
0.835843 0.750668 0.655390
0.852354 0.751217 0.659266
0.869291 0.752132 0.663935
0.886809 0.753353 0.669154
0.406958 0.762203 0.510430
0.408362 0.762600 0.511589
0.410559 0.763088 0.512993
0.414038 0.763516 0.515068
0.418219 0.764096 0.516930
0.423468 0.764523 0.519036
0.429786 0.765103 0.521263
0.437690 0.765682 0.524346
0.446937 0.766506 0.528069
0.456977 0.767514 0.532128
0.468818 0.768673 0.537133
0.488960 0.768856 0.543755
0.517296 0.767697 0.551904
0.544579 0.766567 0.560357
0.570825 0.765377 0.569512
0.596155 0.764248 0.579065
0.620203 0.763180 0.588922
0.642969 0.762295 0.599207
0.664454 0.761532 0.609705
0.684718 0.761074 0.620600
0.703548 0.760800 0.631678
0.720974 0.760800 0.642847
0.736965 0.760952 0.653834
0.757534 0.768704 0.674281
0.772213 0.770809 0.680507
0.787289 0.771695 0.680385
0.802701 0.772366 0.680873
0.818418 0.772915 0.682307
0.834440 0.773648 0.684749
0.850950 0.774563 0.687892
0.867979 0.775662 0.691554
0.885527 0.776974 0.695735
0.451423 0.779416 0.556756
0.451911 0.779660 0.557153
0.453162 0.779782 0.557885
0.454841 0.780026 0.558556
0.457435 0.780331 0.559472
0.461280 0.780575 0.561028
0.465675 0.781064 0.562524
0.471534 0.781613 0.564813
0.478462 0.782437 0.567559
0.486732 0.783352 0.571160
0.496010 0.784482 0.575219
0.506096 0.785824 0.579706
0.529290 0.785031 0.586084
0.553246 0.784085 0.593072
0.576776 0.783047 0.600397
0.599664 0.782071 0.608087
0.621881 0.781064 0.616114
0.643244 0.780209 0.624659
0.663600 0.779446 0.633326
0.683192 0.778866 0.642298
0.701595 0.778408 0.651514
0.719051 0.778134 0.660883
0.735286 0.778012 0.670222
0.750454 0.778042 0.679530
0.771145 0.785733 0.696498
0.785641 0.788540 0.705318
0.800656 0.789944 0.705287
0.816190 0.791135 0.705928
0.832181 0.792264 0.707332
0.848539 0.793545 0.709804
0.865385 0.794919 0.712825
0.882750 0.796384 0.716335
0.480629 0.794583 0.590448
0.481117 0.794705 0.590814
0.481941 0.794919 0.591394
0.483528 0.795102 0.592096
0.485573 0.795407 0.592859
0.488380 0.795712 0.593957
0.492134 0.796170 0.595361
0.496803 0.796750 0.597131
0.502464 0.797482 0.599512
0.509087 0.798398 0.602319
0.516472 0.799557 0.605524
0.524834 0.800900 0.609277
0.539086 0.801358 0.613886
0.560388 0.800565 0.619776
0.581750 0.799771 0.626001
0.602747 0.798978 0.632654
0.623651 0.798184 0.639704
0.643854 0.797513 0.646998
0.663478 0.796902 0.654475
0.682521 0.796384 0.662287
0.700710 0.795987 0.670405
0.718166 0.795743 0.678523
0.734737 0.795682 0.686793
0.750454 0.795682 0.695003
0.763973 0.794430 0.701350
0.784817 0.802090 0.715877
0.799649 0.805661 0.726955
0.814725 0.807553 0.727321
0.830350 0.809232 0.728206
0.846677 0.810880 0.729610
0.863371 0.812680 0.732235
0.880613 0.814481 0.735317
0.506676 0.811551 0.622827
0.507012 0.811795 0.623163
0.507836 0.811948 0.623774
0.508843 0.812070 0.624048
0.510277 0.812192 0.624445
0.512352 0.812345 0.624994
0.515099 0.812558 0.625727
0.518578 0.812863 0.626825
0.522850 0.813382 0.628290
0.528099 0.814115 0.630243
0.534051 0.814969 0.632502
0.540917 0.816098 0.635279
0.548516 0.817350 0.638483
0.566552 0.816709 0.642969
0.585840 0.815854 0.647944
0.605249 0.814969 0.653346
0.624598 0.814145 0.659052
0.643763 0.813474 0.665187
0.662593 0.812894 0.671748
0.681117 0.812497 0.678737
0.699245 0.812192 0.685878
0.716670 0.812009 0.693141
0.733364 0.811856 0.700435
0.749264 0.811765 0.707698
0.764431 0.811643 0.714931
0.778683 0.811582 0.722286
0.798672 0.818235 0.734859
0.814725 0.823056 0.747768
0.829923 0.825284 0.748165
0.845640 0.827420 0.749233
0.862150 0.829435 0.750851
0.879118 0.831510 0.753384
0.524620 0.826749 0.647242
0.525078 0.826963 0.647608
0.525780 0.827176 0.648127
0.526543 0.827390 0.648402
0.527947 0.827573 0.648951
0.529961 0.827848 0.649622
0.532677 0.828214 0.650690
0.535821 0.828794 0.651850
0.539818 0.829435 0.653468
0.544488 0.830320 0.655268
0.549889 0.831266 0.657527
0.555901 0.832395 0.660060
0.562585 0.833646 0.662867
0.573602 0.834226 0.666163
0.591302 0.833463 0.670314
0.609308 0.832700 0.674861
0.627649 0.831907 0.679713
0.645716 0.831266 0.684962
0.663905 0.830777 0.690578
0.681849 0.830381 0.696468
0.699611 0.830076 0.702785
0.716976 0.829923 0.709285
0.733852 0.829770 0.715816
0.750118 0.829648 0.722560
0.765774 0.829618 0.729244
0.780697 0.829618 0.736049
0.794980 0.829740 0.742947
0.814176 0.835538 0.754208
0.831876 0.841794 0.769131
0.847196 0.844388 0.769802
0.863157 0.846830 0.771115
0.879576 0.849058 0.772763
0.541314 0.843626 0.671290
0.541527 0.843717 0.671473
0.541985 0.843870 0.671656
0.542718 0.844022 0.671992
0.543908 0.844205 0.672328
0.545556 0.844419 0.672816
0.547753 0.844785 0.673640
0.550622 0.845243 0.674708
0.554040 0.845853 0.675898
0.558038 0.846677 0.677455
0.562829 0.847532 0.679377
0.568139 0.848631 0.681422
0.573938 0.849882 0.683742
0.580377 0.851225 0.686336
0.595605 0.850858 0.689784
0.612604 0.850156 0.693721
0.629877 0.849454 0.697963
0.647364 0.848814 0.702480
0.665003 0.848325 0.707424
0.682643 0.847929 0.712703
0.700099 0.847684 0.718318
0.717342 0.847440 0.724147
0.734188 0.847257 0.730098
0.750698 0.847135 0.736233
0.766598 0.847013 0.742336
0.782010 0.846921 0.748592
0.796780 0.846921 0.754971
0.810971 0.847013 0.761471
0.829374 0.851896 0.771542
0.848417 0.859068 0.786343
0.863798 0.862119 0.789303
0.879637 0.864622 0.790555
0.554498 0.860349 0.691859
0.554711 0.860472 0.692073
0.555169 0.860594 0.692256
0.555871 0.860777 0.692531
0.556939 0.861051 0.692988
0.558709 0.861448 0.693782
0.560967 0.862058 0.694789
0.563775 0.862821 0.696132
0.567285 0.863798 0.697749
0.571435 0.864927 0.699763
0.576104 0.866270 0.701961
0.581231 0.867704 0.704341
0.586969 0.869230 0.706844
0.593133 0.870787 0.709529
0.602686 0.871733 0.712459
0.619074 0.871214 0.716030
0.635645 0.870665 0.719844
0.652613 0.870115 0.723873
0.669825 0.869657 0.728237
0.687068 0.869261 0.733028
0.704250 0.869017 0.738064
0.721431 0.868711 0.743282
0.738430 0.868467 0.748623
0.755001 0.868254 0.754177
0.771176 0.868040 0.759823
0.786923 0.867857 0.765591
0.802152 0.867765 0.771450
0.816861 0.867704 0.777462
0.830991 0.867704 0.783536
0.848234 0.871336 0.792355
0.868223 0.878813 0.806241
0.883604 0.882200 0.811460
0.569116 0.880308 0.714900
0.569085 0.880369 0.714870
0.569482 0.880369 0.715023
0.570001 0.880491 0.715145
0.571008 0.880613 0.715450
0.572412 0.880888 0.715908
0.574243 0.881224 0.716579
0.576562 0.881743 0.717403
0.579583 0.882383 0.718502
0.582940 0.883177 0.719783
0.586969 0.884123 0.721401
0.591485 0.885191 0.723079
0.596582 0.886381 0.725093
0.602167 0.887663 0.727230
