20 Preset/Portrait Preset/【3】LUT for PR-AE-FCPX/Film Portrait - LUT  (1).cube
# Created by Adobe Lightroom plugin Export LUT (1.24.0)
# www.johnrellis.com/lightroom/exportlut.htm
# Preset: 灰青电影-素材江湖01
# Color profile: E:\lut插件\exportlut.1.24\exportlut.lrplugin\color profiles\Rec709gamma2.4.icc
LUT_3D_SIZE 5
DOMAIN_MIN 0.000000 0.000000 0.000000
DOMAIN_MAX 0.903226 0.903226 0.903226
0.027497 0.103548 0.129274
0.091463 0.102632 0.129030
0.507591 0.000000 0.112612
0.829068 0.000000 0.000000
1.000000 0.185214 0.000000
0.029999 0.114534 0.135103
0.035554 0.113893 0.139162
0.458137 0.195254 0.075990
0.807675 0.240879 0.000000
0.998535 0.290623 0.000000
0.276036 0.346319 0.286259
0.283299 0.335119 0.292851
0.307469 0.333135 0.319066
0.672053 0.471199 0.177005
0.957702 0.488777 0.000000
0.577264 0.591669 0.517937
0.581781 0.588891 0.522454
0.593744 0.577203 0.540948
0.600427 0.575769 0.553765
0.754849 0.669581 0.558282
0.774166 0.776028 0.725154
0.776333 0.775357 0.727413
0.778042 0.766232 0.730068
0.790951 0.764065 0.752499
0.801236 0.773861 0.765133
0.000000 0.105653 0.152438
0.105013 0.097292 0.153567
0.522423 0.000000 0.123507
0.815946 0.107881 0.000000
0.991455 0.228763 0.000000
0.000000 0.132876 0.145541
0.083650 0.150271 0.171389
0.490547 0.191287 0.124269
0.800961 0.250767 0.000000
0.984100 0.306126 0.000000
0.299046 0.371679 0.304448
0.333776 0.376715 0.328801
0.347906 0.365423 0.347295
0.694148 0.477790 0.219547
0.957000 0.490089 0.000000
0.589197 0.603540 0.530999
0.599237 0.604486 0.540856
0.611414 0.593957 0.557702
0.616938 0.590845 0.569665
0.770504 0.679500 0.566064
0.776577 0.779934 0.728511
0.779904 0.779965 0.732143
0.788479 0.777829 0.742123
0.799222 0.773342 0.761318
0.809110 0.782345 0.774075
0.000000 0.131472 0.403723
0.000000 0.139040 0.410956
0.552117 0.000000 0.413397
0.848447 0.000000 0.276799
1.000000 0.216831 0.308385
0.000000 0.252354 0.413306
0.000000 0.245975 0.419165
0.553582 0.218357 0.415473
0.836423 0.200900 0.324834
0.999115 0.322820 0.327398
0.269291 0.451606 0.370245
0.348760 0.462989 0.389990
0.505425 0.493416 0.469032
0.773404 0.514885 0.422675
0.962615 0.517845 0.372686
0.601068 0.631708 0.550378
0.616022 0.633570 0.563745
0.661341 0.643824 0.608789
0.669490 0.640284 0.622370
0.834318 0.710079 0.589288
0.767300 0.784176 0.720485
0.775631 0.787167 0.729519
0.801114 0.795560 0.757870
0.812589 0.790005 0.774685
0.820432 0.794522 0.786923
0.000000 0.295354 0.644190
0.000000 0.306950 0.648585
0.320592 0.346166 0.661982
0.821653 0.295415 0.641230
0.984405 0.396643 0.513787
0.146334 0.378424 0.641535
0.200961 0.378088 0.645106
0.389654 0.408362 0.658076
0.809415 0.377234 0.637934
0.976013 0.439948 0.531670
0.415106 0.514733 0.624384
0.462013 0.530510 0.629236
0.541527 0.551232 0.648127
0.772183 0.555962 0.635554
0.960143 0.563012 0.595972
0.560601 0.670375 0.598169
0.582849 0.672267 0.605066
0.659022 0.685115 0.636866
0.735134 0.705135 0.692073
0.929931 0.719631 0.658106
0.757412 0.807431 0.723598
0.764614 0.808835 0.729915
0.794064 0.816007 0.757321
0.842100 0.829557 0.807584
0.849516 0.826413 0.820310
0.399237 0.518242 0.821134
0.420813 0.521721 0.821744
0.501640 0.539544 0.827024
0.693294 0.550805 0.832273
0.974395 0.533806 0.818021
0.448890 0.547662 0.816342
0.461189 0.548272 0.817655
0.529198 0.563745 0.823026
0.692500 0.576776 0.829526
0.968048 0.558129 0.816526
0.568231 0.633875 0.809201
0.573693 0.632990 0.809995
0.602411 0.634058 0.816953
0.686793 0.655390 0.829801
0.956329 0.635187 0.820951
0.598810 0.725307 0.803342
0.609888 0.719875 0.803159
0.663966 0.712123 0.808896
0.741238 0.739956 0.836301
0.942840 0.751492 0.837888
0.689570 0.849241 0.782101
0.698207 0.849119 0.783841
0.737636 0.851682 0.794827
0.813016 0.861204 0.822019
0.902220 0.885801 0.882139
