20 Preset/Portrait Preset/【3】LUT for PR-AE-FCPX/Film Portrait - LUT  (5).cube
# Created by Adobe Lightroom plugin Export LUT (1.24.0)
# www.johnrellis.com/lightroom/exportlut.htm
# Preset: 灰青电影-素材江湖05
# Color profile: E:\lut插件\exportlut.1.24\exportlut.lrplugin\color profiles\Rec709gamma2.4.icc
LUT_3D_SIZE 32
DOMAIN_MIN 0.0 0.0 0.0
DOMAIN_MAX 1.0 1.0 1.0
0.058534 0.101015 0.120760
0.058534 0.101015 0.120760
0.058534 0.101015 0.120760
0.058534 0.101015 0.120760
0.060517 0.100954 0.120760
0.095979 0.100038 0.120577
0.137667 0.097047 0.120119
0.195895 0.088685 0.119081
0.267277 0.058717 0.116823
0.343328 0.013367 0.112337
0.415167 0.000000 0.105684
0.481636 0.000000 0.096407
0.542718 0.000000 0.080476
0.597925 0.000000 0.040223
0.647150 0.031312 0.000000
0.691127 0.099336 0.000000
0.730465 0.131960 0.000000
0.765652 0.159731 0.000000
0.797482 0.183383 0.000000
0.826047 0.202609 0.000000
0.853971 0.218479 0.000000
0.879210 0.233097 0.000000
0.900511 0.245487 0.000000
0.920897 0.258396 0.000000
0.940673 0.270878 0.000000
0.959991 0.283482 0.000000
0.979217 0.296300 0.000000
0.998383 0.309667 0.000000
1.000000 0.323369 0.000000
1.000000 0.337591 0.000000
1.000000 0.352453 0.000000
1.000000 0.367864 0.000000
0.058534 0.101015 0.120760
0.058534 0.101015 0.120760
0.058534 0.101015 0.120760
0.058534 0.101015 0.120760
0.060517 0.100954 0.120760
0.095277 0.100099 0.120577
0.135561 0.097444 0.120119
0.192660 0.089296 0.119173
0.261723 0.068482 0.116518
0.336980 0.026642 0.112428
0.409033 0.000000 0.105898
0.475837 0.000000 0.096895
0.536980 0.000000 0.081544
0.592462 0.000000 0.042298
0.642206 0.043214 0.000000
0.686641 0.102358 0.000000
0.726528 0.133516 0.000000
0.762051 0.160464 0.000000
0.794247 0.184024 0.000000
0.823148 0.202884 0.000000
0.851041 0.218112 0.000000
0.875944 0.232090 0.000000
0.896727 0.244358 0.000000
0.916686 0.256687 0.000000
0.936217 0.268620 0.000000
0.955352 0.281315 0.000000
0.974609 0.293889 0.000000
0.993927 0.307134 0.000000
1.000000 0.320775 0.000000
1.000000 0.335058 0.000000
1.000000 0.349889 0.000000
1.000000 0.365362 0.000000
0.058534 0.101015 0.120760
0.058534 0.101015 0.120760
0.058534 0.101015 0.120760
0.058534 0.101015 0.120760
0.060517 0.100954 0.120760
0.095277 0.100099 0.120577
0.134127 0.098085 0.120089
0.187167 0.095521 0.118471
0.255161 0.088746 0.115908
0.330144 0.064057 0.111604
0.402411 0.030976 0.104860
0.469459 0.011322 0.095460
0.531029 0.012696 0.078187
0.586908 0.045808 0.037812
0.637171 0.093202 0.000000
0.682063 0.120851 0.000000
0.722225 0.146975 0.000000
0.758450 0.170230 0.000000
0.790982 0.191623 0.000000
0.820584 0.208103 0.000000
0.848966 0.222782 0.000000
0.873777 0.235966 0.000000
0.894377 0.247532 0.000000
0.914244 0.259007 0.000000
0.933532 0.270787 0.000000
0.952605 0.282750 0.000000
0.971832 0.295171 0.000000
0.991180 0.308171 0.000000
1.000000 0.321721 0.000000
1.000000 0.335760 0.000000
1.000000 0.350439 0.000000
1.000000 0.365667 0.000000
0.058534 0.101015 0.120760
0.058534 0.101015 0.120760
0.058534 0.101015 0.120760
0.059541 0.100649 0.120516
0.062806 0.100893 0.120485
0.092195 0.102937 0.120027
0.127779 0.105531 0.119112
0.178408 0.108125 0.117433
0.245243 0.107851 0.114107
0.320592 0.103029 0.109316
0.393744 0.097749 0.102113
0.461372 0.096407 0.091371
0.523186 0.102480 0.067445
0.579492 0.114473 0.026337
0.630182 0.130220 0.000000
0.675288 0.150088 0.000000
0.715938 0.169619 0.000000
0.752346 0.188602 0.000000
0.785702 0.205142 0.000000
0.816098 0.218143 0.000000
0.844724 0.231510 0.000000
0.869169 0.243107 0.000000
0.889738 0.253635 0.000000
0.909636 0.264256 0.000000
0.929351 0.275731 0.000000
0.949096 0.287327 0.000000
0.968994 0.299596 0.000000
0.988952 0.312352 0.000000
1.000000 0.325780 0.000000
1.000000 0.339635 0.000000
1.000000 0.353765 0.000000
1.000000 0.368566 0.000000
0.059541 0.100649 0.120516
0.059541 0.100649 0.120516
0.059541 0.100649 0.120516
0.058534 0.101015 0.120760
0.060365 0.102052 0.120638
0.081056 0.106142 0.119509
0.116091 0.115023 0.117922
0.163485 0.122713 0.115633
0.228885 0.128664 0.111666
0.303807 0.132509 0.106203
0.378027 0.134737 0.097932
0.447303 0.138888 0.084901
0.510369 0.146609 0.051118
0.568078 0.156802 0.008240
0.619867 0.169863 0.000000
0.666590 0.184176 0.000000
0.708492 0.199374 0.000000
0.746792 0.212070 0.000000
0.781552 0.223362 0.000000
0.812497 0.234226 0.000000
0.841886 0.245823 0.000000
0.866087 0.256077 0.000000
0.886656 0.265110 0.000000
0.906676 0.274754 0.000000
0.926604 0.285161 0.000000
0.946563 0.296239 0.000000
0.966613 0.307744 0.000000
0.986633 0.319829 0.000000
1.000000 0.332647 0.000000
1.000000 0.345861 0.000000
1.000000 0.359442 0.000000
1.000000 0.373816 0.000000
0.065370 0.104860 0.124483
0.065370 0.104860 0.124483
0.064668 0.105226 0.124453
0.065644 0.105501 0.124666
0.065309 0.106142 0.125429
0.072786 0.109926 0.123049
0.096132 0.118135 0.119844
0.142794 0.134676 0.115267
0.210666 0.150637 0.109102
0.286473 0.161196 0.101686
0.362585 0.169986 0.091432
0.433509 0.178988 0.065827
0.498482 0.188235 0.025635
0.557427 0.198764 0.000000
0.610712 0.210056 0.000000
0.659571 0.219089 0.000000
0.703822 0.228336 0.000000
0.743282 0.237430 0.000000
0.778653 0.246372 0.000000
0.811002 0.256107 0.000000
0.840055 0.265965 0.000000
0.864256 0.274266 0.000000
0.904601 0.294530 0.000000
0.925689 0.303746 0.000000
0.945983 0.313603 0.000000
0.965881 0.323919 0.000000
0.985351 0.334569 0.000000
1.000000 0.345708 0.000000
1.000000 0.357366 0.000000
1.000000 0.369451 0.000000
1.000000 0.382147 0.000000
1.000000 0.395148 0.000000
0.079622 0.114015 0.132479
0.079622 0.114015 0.132479
0.078798 0.114321 0.132937
0.080232 0.114839 0.133120
0.081239 0.115358 0.133791
0.082216 0.117983 0.133486
0.093111 0.127687 0.127352
0.118990 0.140078 0.120455
0.184268 0.166506 0.111788
0.271000 0.189944 0.098024
0.358740 0.209659 0.070832
0.433234 0.222416 0.025849
0.500572 0.232547 0.000000
0.561364 0.241001 0.000000
0.615503 0.248569 0.000000
0.664149 0.255375 0.000000
0.707485 0.262486 0.000000
0.746304 0.269444 0.000000
0.781308 0.276555 0.000000
0.816251 0.285924 0.000000
0.845975 0.294530 0.000000
0.871092 0.302098 0.000000
0.893706 0.309728 0.000000
0.916106 0.318425 0.000000
0.937957 0.327611 0.000000
0.958801 0.337285 0.000000
0.978882 0.346929 0.000000
0.998322 0.357153 0.000000
1.000000 0.368017 0.000000
1.000000 0.378973 0.000000
1.000000 0.390784 0.000000
1.000000 0.403174 0.000000
0.092409 0.127901 0.144594
0.092775 0.128145 0.144778
0.094179 0.130007 0.146273
0.095399 0.130892 0.147250
0.095827 0.132082 0.147951
0.097047 0.133425 0.149264
0.099458 0.140200 0.145632
0.116762 0.155276 0.135683
0.151949 0.171267 0.124025
0.233951 0.203372 0.109041
0.327611 0.230411 0.084932
0.413245 0.251499 0.018006
0.487373 0.266148 0.000000
0.549279 0.274784 0.000000
0.604791 0.281804 0.000000
0.653986 0.287724 0.000000
0.698268 0.293400 0.000000
0.737789 0.299046 0.000000
0.775723 0.305943 0.000000
0.810239 0.313359 0.000000
0.839506 0.319646 0.000000
0.864591 0.325444 0.000000
0.887083 0.331243 0.000000
0.909453 0.338170 0.000000
0.931365 0.345983 0.000000
0.952422 0.354253 0.000000
0.972686 0.362951 0.000000
0.992462 0.372015 0.000000
1.000000 0.381781 0.000000
1.000000 0.392126 0.000000
1.000000 0.402991 0.000000
1.000000 0.414649 0.000000
0.113741 0.151644 0.164004
0.114534 0.152163 0.164492
0.116060 0.153994 0.166049
0.118502 0.157076 0.168338
0.119997 0.158083 0.169253
0.121370 0.159670 0.170291
0.123262 0.161349 0.171786
0.128969 0.174411 0.164065
0.155215 0.194278 0.149844
0.205447 0.215671 0.131167
0.290715 0.246860 0.108522
0.382818 0.274723 0.058503
0.463935 0.294316 0.000000
0.534691 0.308507 0.000000
0.593835 0.316960 0.000000
0.644099 0.322179 0.000000
0.689204 0.326909 0.000000
0.730983 0.331884 0.000000
0.769955 0.338018 0.000000
0.804105 0.343297 0.000000
0.833158 0.347936 0.000000
0.858244 0.352056 0.000000
0.880858 0.356146 0.000000
0.903197 0.361456 0.000000
0.925200 0.367895 0.000000
0.946441 0.374701 0.000000
0.966949 0.382208 0.000000
0.987030 0.390204 0.000000
1.000000 0.398932 0.000000
1.000000 0.408301 0.000000
1.000000 0.418341 0.000000
1.000000 0.429053 0.000000
0.147494 0.183169 0.188693
0.147921 0.183749 0.189059
0.150027 0.185550 0.190463
0.155398 0.189670 0.193668
0.157198 0.190982 0.194644
0.158785 0.192111 0.195621
0.160739 0.194095 0.197055
0.163943 0.196475 0.198947
0.174533 0.215946 0.186007
0.208316 0.238926 0.167208
0.264714 0.262486 0.142336
0.343053 0.290440 0.113283
0.430426 0.316655 0.045533
0.507134 0.334783 0.000000
0.573724 0.347753 0.000000
0.631464 0.356970 0.000000
0.680232 0.362554 0.000000
0.724392 0.367590 0.000000
0.763424 0.372137 0.000000
0.797482 0.375860 0.000000
0.826444 0.378637 0.000000
0.851347 0.380591 0.000000
0.873442 0.382788 0.000000
0.895293 0.386084 0.000000
0.916747 0.390600 0.000000
0.937926 0.395819 0.000000
0.958740 0.402045 0.000000
0.979248 0.409064 0.000000
0.999603 0.416907 0.000000
1.000000 0.425605 0.000000
1.000000 0.434974 0.000000
1.000000 0.445136 0.000000
0.191958 0.218235 0.215488
0.192508 0.218662 0.215793
0.195071 0.220432 0.217136
0.200259 0.224369 0.220188
0.204929 0.227695 0.222782
0.206668 0.229099 0.223880
0.209018 0.230991 0.225223
0.212436 0.233402 0.227176
0.216617 0.238346 0.227787
0.231724 0.262028 0.210208
0.268070 0.286137 0.187808
0.323339 0.309789 0.158938
0.392645 0.333501 0.126040
0.475502 0.358007 0.065370
0.547448 0.374823 0.000000
0.611414 0.387793 0.000000
0.667506 0.397192 0.000000
0.715145 0.403571 0.000000
0.754147 0.406622 0.000000
0.788449 0.408881 0.000000
0.817838 0.409979 0.000000
0.843015 0.410590 0.000000
0.865599 0.411353 0.000000
0.887724 0.413245 0.000000
0.909575 0.416388 0.000000
0.930968 0.420569 0.000000
0.952087 0.425666 0.000000
0.973022 0.431525 0.000000
0.993713 0.438392 0.000000
1.000000 0.446113 0.000000
1.000000 0.454719 0.000000
1.000000 0.463966 0.000000
0.244450 0.257298 0.245579
0.245029 0.257633 0.245853
0.247257 0.259373 0.247196
0.251591 0.262669 0.249851
0.258183 0.267613 0.253727
0.260014 0.269047 0.254795
0.262333 0.270939 0.256260
0.265537 0.273320 0.258183
0.269383 0.276127 0.260533
0.274235 0.285832 0.257298
0.291600 0.309545 0.237675
0.327214 0.332830 0.213230
0.396033 0.368597 0.189090
0.461738 0.391363 0.154574
0.541497 0.416815 0.113466
0.610468 0.433448 0.018860
0.668910 0.444434 0.000000
0.718807 0.451484 0.000000
0.761624 0.455879 0.000000
0.795926 0.456825 0.000000
0.823850 0.455543 0.000000
0.847868 0.453803 0.000000
0.870542 0.453010 0.000000
0.892760 0.453590 0.000000
0.914519 0.455238 0.000000
0.935760 0.457710 0.000000
0.956359 0.461128 0.000000
0.976593 0.465248 0.000000
0.996490 0.470222 0.000000
1.000000 0.476265 0.000000
1.000000 0.483162 0.000000
1.000000 0.491005 0.000000
0.306279 0.304662 0.283635
0.306645 0.304997 0.283909
0.307958 0.305974 0.284764
0.311315 0.308568 0.286839
0.316655 0.312779 0.290349
0.319310 0.314763 0.292058
0.320775 0.315892 0.293004
0.322942 0.317571 0.294408
0.325994 0.319982 0.296483
0.329992 0.323125 0.299107
0.336461 0.337194 0.291875
0.358556 0.363043 0.273838
0.397436 0.388983 0.251316
0.449928 0.413519 0.222202
0.507164 0.432563 0.187228
0.578393 0.455451 0.154330
0.640894 0.469490 0.110536
0.693446 0.478553 0.030579
0.738735 0.483925 0.000000
0.776974 0.486152 0.000000
0.809018 0.485939 0.000000
0.834531 0.483436 0.000000
0.857755 0.481392 0.000000
0.880552 0.480812 0.000000
0.902892 0.481392 0.000000
0.924834 0.482918 0.000000
0.946166 0.485542 0.000000
0.967132 0.488960 0.000000
0.987854 0.493263 0.000000
1.000000 0.498634 0.000000
1.000000 0.504906 0.000000
1.000000 0.512047 0.000000
0.353460 0.341619 0.315007
0.353613 0.341650 0.315160
0.354650 0.342565 0.315892
0.357214 0.344610 0.317632
0.361517 0.347906 0.320592
0.365606 0.351141 0.323430
0.366613 0.352026 0.324132
0.368505 0.353460 0.325444
0.372198 0.356451 0.328130
0.377539 0.360662 0.331853
0.383948 0.365759 0.336461
0.393957 0.385077 0.326879
0.415839 0.409247 0.308568
0.450813 0.432197 0.285924
0.496620 0.453407 0.257053
0.544732 0.468025 0.220798
0.607996 0.488777 0.193515
0.664759 0.501122 0.158541
0.713313 0.509056 0.126894
0.754574 0.513115 0.088075
0.789181 0.514000 0.000000
0.818967 0.512810 0.000000
0.845090 0.510796 0.000000
0.868681 0.509300 0.000000
0.891722 0.509087 0.000000
0.914305 0.509911 0.000000
0.936400 0.511681 0.000000
0.958007 0.514244 0.000000
0.979248 0.517937 0.000000
1.000000 0.522576 0.000000
1.000000 0.528099 0.000000
1.000000 0.534661 0.000000
0.400336 0.379095 0.348486
0.400671 0.379339 0.348699
0.401648 0.380102 0.349401
0.403784 0.381872 0.350988
0.407538 0.384894 0.353796
0.412970 0.389227 0.357794
0.414282 0.390387 0.358892
0.416144 0.391913 0.360266
0.419013 0.394232 0.362402
0.422950 0.397436 0.365454
0.427863 0.401465 0.369207
0.433967 0.406378 0.373877
0.444343 0.427863 0.360021
0.464973 0.449531 0.341741
0.496040 0.469734 0.318944
0.535973 0.488075 0.290562
0.579095 0.501061 0.255009
0.633143 0.518425 0.230961
0.685389 0.530053 0.201389
0.730343 0.536858 0.174807
0.767849 0.539879 0.152682
0.799924 0.540124 0.127352
0.827878 0.538750 0.094881
0.854856 0.537682 0.000000
0.880034 0.536919 0.000000
0.903319 0.537102 0.000000
0.926146 0.538354 0.000000
0.948699 0.540581 0.000000
0.970886 0.543847 0.000000
0.992889 0.548211 0.000000
1.000000 0.553552 0.000000
1.000000 0.559960 0.000000
0.445045 0.415564 0.382513
0.445380 0.415869 0.382849
0.446265 0.416571 0.383520
0.448280 0.418250 0.385107
0.451270 0.420752 0.387549
0.455970 0.424689 0.391241
0.459113 0.427192 0.393713
0.460914 0.428748 0.395178
0.463416 0.430945 0.397223
0.466529 0.433539 0.399786
0.470222 0.436591 0.402777
0.474342 0.440040 0.406165
0.478767 0.446265 0.407019
0.488197 0.465705 0.391058
0.506126 0.484260 0.371923
0.533196 0.501488 0.348882
0.568536 0.517510 0.321416
0.609003 0.530785 0.287938
0.654017 0.544213 0.265660
0.702754 0.555566 0.239933
0.744381 0.561730 0.215549
0.779385 0.564538 0.200168
0.809384 0.564721 0.183993
0.837522 0.564416 0.164858
0.864988 0.564508 0.140536
0.891997 0.564965 0.105043
0.916320 0.566033 0.092958
0.939605 0.567834 0.093233
0.962463 0.570520 0.094972
0.984924 0.574243 0.099428
1.000000 0.578820 0.106538
1.000000 0.584314 0.116091
0.483345 0.447761 0.413672
0.483528 0.447883 0.413764
0.484382 0.448585 0.414496
0.486000 0.449928 0.415808
0.488624 0.452216 0.418097
0.492561 0.455543 0.421363
0.496498 0.458961 0.424750
0.497932 0.460182 0.425940
0.499855 0.461860 0.427619
0.502190 0.463813 0.429572
0.505058 0.466316 0.432044
0.508232 0.469123 0.434852
0.511803 0.472175 0.437903
0.515740 0.480781 0.434516
0.525048 0.498268 0.418647
0.541833 0.514824 0.399878
0.566217 0.530297 0.377813
0.598016 0.544854 0.352148
0.635035 0.557610 0.321233
0.674617 0.568841 0.298711
0.719081 0.580072 0.277409
0.757534 0.585595 0.256779
0.789914 0.588006 0.243229
0.819150 0.588891 0.230625
0.847745 0.589990 0.215732
0.875761 0.591363 0.198581
0.903227 0.592981 0.177554
0.929870 0.594781 0.152499
0.953521 0.597223 0.153964
0.976654 0.600580 0.156680
0.999512 0.604791 0.161135
1.000000 0.609827 0.167636
0.519158 0.478523 0.444343
0.519554 0.478950 0.444739
0.534569 0.492103 0.458137
0.535912 0.493355 0.459358
0.538201 0.495277 0.461402
0.541192 0.498024 0.464149
0.545373 0.501701 0.467994
0.546441 0.502647 0.468971
0.547784 0.503899 0.470192
0.549676 0.505547 0.471931
0.551690 0.507408 0.473854
0.554070 0.509575 0.476051
0.556390 0.511620 0.478218
0.558587 0.513634 0.480262
0.561425 0.523522 0.472572
0.569696 0.538445 0.456336
0.584253 0.552392 0.437324
0.605310 0.565545 0.415473
0.632715 0.577966 0.390784
0.665339 0.589166 0.361761
0.699641 0.598016 0.338415
0.738308 0.607691 0.321386
0.772641 0.611933 0.303502
0.803067 0.613947 0.289616
0.832242 0.615930 0.278202
0.860716 0.617884 0.265110
0.888548 0.619745 0.249973
0.915831 0.621698 0.232944
0.942565 0.623987 0.214115
0.967956 0.626642 0.200778
0.991272 0.630457 0.204166
1.000000 0.635065 0.208957
0.555474 0.510765 0.477333
0.556847 0.512078 0.478676
0.558740 0.513787 0.480415
0.561120 0.515862 0.482643
0.563928 0.518456 0.485298
0.566857 0.521111 0.488045
0.570397 0.524407 0.491524
0.572290 0.526116 0.493263
0.573236 0.527062 0.494209
0.574517 0.528191 0.495460
0.576257 0.529778 0.497139
0.578088 0.531487 0.498909
0.579980 0.533227 0.500725
0.581781 0.534936 0.502525
0.583673 0.536706 0.504356
0.587030 0.548577 0.493660
0.595361 0.562249 0.478157
0.609400 0.575433 0.460456
0.629358 0.588006 0.440497
0.654810 0.599939 0.417914
0.684779 0.610681 0.392065
0.715480 0.618250 0.369299
0.750179 0.627436 0.356023
0.782284 0.631800 0.340581
0.812894 0.635065 0.325719
0.842283 0.638483 0.315770
0.870909 0.641627 0.304509
0.899077 0.644648 0.292149
0.926635 0.647852 0.278569
0.953796 0.651148 0.264012
0.980560 0.654688 0.247593
1.000000 0.658900 0.244144
0.581842 0.534997 0.502586
0.583307 0.536278 0.503929
0.585138 0.537957 0.505730
0.587274 0.540032 0.507866
0.589746 0.542351 0.510338
0.592340 0.544762 0.512871
0.595361 0.547601 0.515892
0.597955 0.550072 0.518486
0.598688 0.550744 0.519219
0.599664 0.551720 0.520226
0.600885 0.552880 0.521447
0.602350 0.554314 0.523003
0.603967 0.555779 0.524590
0.605554 0.557366 0.526238
0.607263 0.559014 0.527977
0.608911 0.560967 0.529198
0.612726 0.574121 0.516167
0.621088 0.586786 0.501549
0.634485 0.599054 0.485054
0.652827 0.610559 0.466682
0.675654 0.621149 0.446113
0.702632 0.630915 0.422766
0.729854 0.637293 0.400336
0.760983 0.645991 0.390234
0.792538 0.651637 0.376104
0.823392 0.656367 0.362280
0.852995 0.660975 0.352270
0.881956 0.665400 0.342718
0.910277 0.669795 0.332677
0.938170 0.674159 0.322148
0.965637 0.678584 0.310948
0.992737 0.682948 0.298344
0.607385 0.559075 0.528069
0.608515 0.560174 0.529229
0.610101 0.561639 0.530816
0.611933 0.563439 0.532708
0.614008 0.565454 0.534874
0.616175 0.567590 0.537133
0.618769 0.570092 0.539818
0.621790 0.573022 0.542962
0.622461 0.573663 0.543725
0.623224 0.574456 0.544518
0.624262 0.575494 0.545617
0.625574 0.576684 0.546929
0.626856 0.577966 0.548333
0.628290 0.579370 0.549828
0.629847 0.580896 0.551446
0.631434 0.582513 0.553216
0.633478 0.587243 0.551812
0.638148 0.599786 0.540124
0.646998 0.611933 0.527245
0.659937 0.623438 0.512993
0.677028 0.634272 0.497230
0.697871 0.644251 0.479561
0.722042 0.653193 0.459297
0.746456 0.658900 0.437995
0.776089 0.668879 0.431067
0.808103 0.676783 0.418982
0.839353 0.683558 0.407233
0.869627 0.689845 0.397894
0.898924 0.695949 0.391089
0.927581 0.701778 0.383825
0.955718 0.707362 0.376196
0.983307 0.712764 0.367926
0.637934 0.588922 0.560143
0.638483 0.589471 0.560693
0.639094 0.590143 0.561395
0.640040 0.590997 0.562371
0.641199 0.592218 0.563684
0.642664 0.593652 0.565240
0.644587 0.595605 0.567315
0.647120 0.598108 0.570062
0.648219 0.599207 0.571252
0.648890 0.599969 0.572076
0.649836 0.600885 0.573083
0.650965 0.601984 0.574243
0.652064 0.603082 0.575494
0.653254 0.604334 0.576806
0.654536 0.605554 0.578180
0.655787 0.606928 0.579583
0.657221 0.608362 0.581201
0.659174 0.614710 0.577142
0.663630 0.625483 0.566400
0.671504 0.635798 0.554376
0.682704 0.645533 0.541009
0.697444 0.654658 0.526055
0.715358 0.662989 0.509331
0.736782 0.670802 0.490242
0.760311 0.677363 0.469825
0.788602 0.687465 0.462287
0.820157 0.697139 0.452491
0.851530 0.705501 0.442695
0.882109 0.713069 0.434058
0.911467 0.720455 0.428901
0.940154 0.727352 0.423651
0.968322 0.733883 0.417914
0.659876 0.611078 0.584161
0.660304 0.611444 0.584558
0.660883 0.612024 0.585229
0.661585 0.612787 0.586023
0.662562 0.613794 0.587121
0.663813 0.615076 0.588525
0.665461 0.616724 0.590326
0.667536 0.618860 0.592676
0.668971 0.620386 0.594324
0.669612 0.620996 0.594995
0.670375 0.621790 0.595880
0.671290 0.622736 0.596887
0.672267 0.623743 0.597986
0.673365 0.624872 0.599237
0.674556 0.626062 0.600519
0.675746 0.627344 0.601923
0.677119 0.628779 0.603510
0.678645 0.630304 0.605219
0.680812 0.637995 0.599451
0.685420 0.647517 0.590173
0.692744 0.656672 0.579797
0.702846 0.665339 0.568170
0.716182 0.673823 0.554925
0.733059 0.682155 0.539696
0.750729 0.687526 0.517845
0.774228 0.695491 0.499001
0.801175 0.705501 0.490913
0.832181 0.716762 0.483742
0.863523 0.726589 0.475746
0.894163 0.735409 0.468696
0.923766 0.744015 0.464820
0.952667 0.752102 0.461433
0.682948 0.634852 0.610163
0.683497 0.635401 0.610742
0.683955 0.635859 0.611322
0.684382 0.636255 0.611749
0.684810 0.636744 0.612238
0.685420 0.637385 0.612970
0.686244 0.638270 0.613947
0.687495 0.639582 0.615351
0.688655 0.640772 0.616724
0.688746 0.640864 0.616785
0.688960 0.641047 0.616999
0.689326 0.641474 0.617456
0.689815 0.642023 0.618036
0.690425 0.642634 0.618708
0.690974 0.643214 0.619379
0.691707 0.643946 0.620203
0.692561 0.644862 0.621180
0.693660 0.646021 0.622461
0.695094 0.647517 0.624109
0.697658 0.656306 0.617060
0.702419 0.665064 0.609033
0.709590 0.673701 0.599969
0.719509 0.682216 0.589471
0.732265 0.690578 0.577295
0.747982 0.698604 0.563073
0.766781 0.706355 0.546502
0.789975 0.715328 0.528954
0.815244 0.724880 0.520012
0.845487 0.737301 0.514916
0.876585 0.748226 0.508537
0.907103 0.758236 0.503349
0.936858 0.767788 0.500267
0.699123 0.651789 0.628779
0.699611 0.652216 0.629297
0.700008 0.652735 0.629847
0.700496 0.653193 0.630396
0.701076 0.653834 0.631067
0.701808 0.654627 0.631922
0.702815 0.655726 0.633143
0.704219 0.657160 0.634730
0.705806 0.658900 0.636622
0.706203 0.659266 0.637049
0.706600 0.659724 0.637537
0.707118 0.660304 0.638178
0.707698 0.660822 0.638788
0.708217 0.661433 0.639429
0.708736 0.661952 0.640040
0.709316 0.662593 0.640742
0.709987 0.663325 0.641535
0.710933 0.664332 0.642603
0.712123 0.665614 0.644038
0.713619 0.668788 0.643915
0.716670 0.677302 0.637385
0.721920 0.686000 0.630213
0.729519 0.694728 0.622126
0.739528 0.703365 0.612818
0.752163 0.711849 0.602167
0.767483 0.720089 0.589837
0.785611 0.728176 0.575677
0.807950 0.737636 0.560906
0.832761 0.747799 0.552392
0.862394 0.761532 0.549859
0.893339 0.773709 0.545464
0.923735 0.784848 0.542229
0.716548 0.670314 0.649256
0.716762 0.670619 0.649531
0.717037 0.670893 0.649836
0.717403 0.671260 0.650233
0.717861 0.671748 0.650782
0.718471 0.672450 0.651545
0.719417 0.673396 0.652613
0.720577 0.674708 0.654047
0.722133 0.676356 0.655848
0.722591 0.676844 0.656428
0.722957 0.677272 0.656886
0.723445 0.677790 0.657435
0.724025 0.678401 0.658137
0.724605 0.678981 0.658778
0.725093 0.679591 0.659419
0.725643 0.680171 0.660060
0.726375 0.680934 0.660883
0.727230 0.681849 0.661921
0.728389 0.683101 0.663294
0.729854 0.684688 0.665064
0.731716 0.689815 0.663111
0.735256 0.698482 0.656580
0.740841 0.707179 0.649378
0.748684 0.715816 0.641352
0.758724 0.724361 0.632593
0.771206 0.732601 0.622858
0.786130 0.740810 0.611963
0.803494 0.748806 0.599451
0.825040 0.758358 0.586725
0.849271 0.768917 0.578851
0.878416 0.783780 0.578485
0.909300 0.796872 0.575586
0.733333 0.688533 0.669245
0.733577 0.688746 0.669520
0.733852 0.689082 0.669886
0.734279 0.689509 0.670344
0.734890 0.690181 0.671077
0.735836 0.691188 0.672206
0.737240 0.692744 0.673915
0.739071 0.694728 0.676081
0.741329 0.697230 0.678828
0.742855 0.698909 0.680629
0.744137 0.700313 0.682185
0.745480 0.701747 0.683772
0.746761 0.703151 0.685328
0.747921 0.704494 0.686763
0.748989 0.705623 0.688014
0.749813 0.706538 0.689052
0.750668 0.707485 0.690089
0.751614 0.708583 0.691249
0.752895 0.709926 0.692714
0.754330 0.711574 0.694514
0.756008 0.713466 0.696590
0.758297 0.720455 0.692622
0.762173 0.729122 0.685969
0.768002 0.737758 0.678645
0.775845 0.746273 0.670558
0.785916 0.754574 0.661585
0.798245 0.762753 0.651881
0.812863 0.770779 0.641321
0.829801 0.778683 0.629877
0.850492 0.788113 0.618860
0.873899 0.798642 0.611658
0.902159 0.813443 0.611627
0.757107 0.714595 0.697841
0.757137 0.714656 0.697902
0.757229 0.714778 0.698054
0.757473 0.715023 0.698299
0.757839 0.715480 0.698817
0.758511 0.716152 0.699550
0.759396 0.717159 0.700649
0.760647 0.718532 0.702144
0.762234 0.720302 0.704097
0.763272 0.721462 0.705318
0.763882 0.722164 0.706111
0.764645 0.722957 0.707027
0.765408 0.723873 0.707973
0.766232 0.724788 0.708949
