20 Preset/Portrait Preset/【3】LUT for PR-AE-FCPX/Film Portrait - LUT  (1).cube
# Created by Adobe Lightroom plugin Export LUT (1.24.0)
# www.johnrellis.com/lightroom/exportlut.htm
# Preset: 灰青电影-素材江湖01
# Color profile: E:\lut插件\exportlut.1.24\exportlut.lrplugin\color profiles\Rec709gamma2.4.icc
LUT_3D_SIZE 8
DOMAIN_MIN 0.000000 0.000000 0.000000
DOMAIN_MAX 0.903226 0.903226 0.903226
0.027497 0.103548 0.129274
0.027497 0.103548 0.129274
0.129305 0.100710 0.128634
0.380529 0.000000 0.122316
0.616815 0.000000 0.094026
0.791836 0.000000 0.000000
0.910307 0.088014 0.000000
1.000000 0.185214 0.000000
0.028199 0.103182 0.129305
0.028504 0.103182 0.129061
0.118807 0.105074 0.128389
0.354009 0.058412 0.119326
0.594751 0.000000 0.082948
0.775753 0.028168 0.000000
0.895628 0.152560 0.000000
0.994781 0.212375 0.000000
0.034516 0.127016 0.141848
0.036988 0.126894 0.142977
0.046723 0.125338 0.149599
0.267918 0.197360 0.115114
0.561669 0.245335 0.000000
0.760555 0.272129 0.000000
0.890654 0.293523 0.000000
0.993194 0.316228 0.000000
0.164645 0.256870 0.221195
0.168368 0.253117 0.223209
0.183017 0.243168 0.235477
0.200229 0.248905 0.249882
0.372503 0.335393 0.228641
0.713985 0.417273 0.000000
0.866117 0.425055 0.000000
0.973816 0.432441 0.000000
0.372198 0.423194 0.351141
0.373877 0.420966 0.352575
0.382879 0.414466 0.361181
0.394537 0.403876 0.380133
0.398383 0.405859 0.384161
0.436042 0.433082 0.401892
0.757961 0.544152 0.248722
0.938750 0.547234 0.000000
0.535760 0.556115 0.480354
0.541314 0.558740 0.485237
0.546349 0.554894 0.490608
0.554192 0.547631 0.501701
0.558923 0.538994 0.515435
0.564080 0.543450 0.520073
0.580529 0.557946 0.535088
0.798154 0.662928 0.487984
0.668208 0.669062 0.610163
0.669673 0.669306 0.611658
0.671962 0.667109 0.614160
0.676722 0.663600 0.620294
0.680964 0.657496 0.629084
0.685054 0.655360 0.638544
0.690089 0.660304 0.643885
0.701106 0.671077 0.655512
0.774166 0.776028 0.725154
0.774685 0.775753 0.725643
0.777249 0.775265 0.728420
0.782498 0.774746 0.734615
0.781521 0.765530 0.735103
0.789090 0.764309 0.748470
0.795651 0.767941 0.758877
0.801236 0.773861 0.765133
0.027802 0.103548 0.129000
0.027497 0.103548 0.129274
0.133974 0.100313 0.128573
0.360937 0.015076 0.120211
0.596918 0.000000 0.085756
0.774136 0.000000 0.000000
0.892210 0.133333 0.000000
0.990295 0.194369 0.000000
0.029236 0.102785 0.129091
0.027527 0.102876 0.128817
0.123476 0.109743 0.127535
0.348241 0.109102 0.116060
0.586328 0.097719 0.064088
0.765988 0.133150 0.000000
0.884337 0.177737 0.000000
0.982788 0.220584 0.000000
0.032044 0.131594 0.143984
0.044923 0.134005 0.149691
0.053101 0.130648 0.154330
0.270848 0.200717 0.117556
0.555779 0.252201 0.000000
0.746334 0.276371 0.000000
0.874083 0.293858 0.000000
0.978790 0.313787 0.000000
0.172732 0.264225 0.226993
0.181704 0.263706 0.231907
0.197421 0.254612 0.243931
0.205509 0.252995 0.253117
0.372442 0.331426 0.224308
0.692470 0.403449 0.000000
0.849363 0.415625 0.000000
0.959777 0.424598 0.000000
0.378759 0.428168 0.356786
0.379706 0.425452 0.357610
0.386603 0.417578 0.364355
0.394842 0.404730 0.379889
0.395789 0.403723 0.382238
0.442206 0.435065 0.395911
0.753811 0.538323 0.247440
0.931670 0.540826 0.000000
0.534264 0.554925 0.479683
0.535851 0.554284 0.481147
0.541558 0.550927 0.486702
0.550622 0.544823 0.498573
0.556939 0.537194 0.513634
0.564050 0.543420 0.520043
0.581231 0.558556 0.535729
0.797330 0.659846 0.483436
0.664607 0.666194 0.606592
0.664424 0.665003 0.606378
0.666651 0.662623 0.608698
0.672206 0.659724 0.615595
0.678462 0.655238 0.626246
0.682551 0.652918 0.635920
0.686427 0.656733 0.640009
0.696498 0.666590 0.650629
0.770535 0.772580 0.721218
0.771847 0.773190 0.722652
0.774289 0.772488 0.725216
0.779660 0.772061 0.731502
0.786038 0.770443 0.740230
0.791409 0.766812 0.750881
0.795895 0.768215 0.759182
0.801236 0.773861 0.765133
0.000000 0.107576 0.176974
0.000000 0.103914 0.177340
0.147341 0.089387 0.178958
0.407874 0.000000 0.138003
0.641138 0.000000 0.130983
0.797971 0.000000 0.039734
0.903014 0.161654 0.000000
0.997192 0.238712 0.000000
0.000000 0.111177 0.179995
0.000000 0.108309 0.180301
0.154360 0.100679 0.180331
0.408118 0.000000 0.146639
0.628504 0.000000 0.132540
0.788266 0.100587 0.039460
0.895567 0.195621 0.000000
0.991028 0.257023 0.000000
0.000000 0.165805 0.165286
0.000000 0.173098 0.171786
0.128786 0.192844 0.205905
0.386450 0.220768 0.176486
0.605707 0.243259 0.139559
0.772366 0.271000 0.022797
0.885130 0.298161 0.000000
0.984070 0.329229 0.000000
0.202121 0.306493 0.249454
0.225406 0.312810 0.261845
0.280308 0.324071 0.295720
0.290043 0.319402 0.307256
0.482033 0.391852 0.264836
0.737911 0.415045 0.102571
0.862791 0.421851 0.000000
0.968719 0.432776 0.000000
0.399359 0.452064 0.374578
0.409216 0.454536 0.381994
0.434882 0.458015 0.402594
0.446143 0.448066 0.417548
0.448737 0.446540 0.422889
0.522698 0.488228 0.420844
0.779782 0.552972 0.296544
0.940856 0.545953 0.000000
0.547631 0.569696 0.493355
0.553704 0.571740 0.498970
0.566064 0.572534 0.510552
0.574212 0.566217 0.520348
0.580224 0.557702 0.534874
0.586816 0.563561 0.540978
0.608301 0.582940 0.561334
0.815152 0.671229 0.500908
0.672450 0.674891 0.616022
0.674464 0.675074 0.618250
0.678737 0.673945 0.622797
0.683253 0.670375 0.628046
0.688808 0.665736 0.637171
0.693385 0.663508 0.647333
0.698390 0.668482 0.652674
0.709499 0.679408 0.664424
0.772702 0.776974 0.724239
0.774136 0.777218 0.725826
0.778225 0.777646 0.730373
0.784695 0.778195 0.737606
0.791104 0.776455 0.745968
0.797452 0.773800 0.757321
0.802274 0.775021 0.766323
0.807248 0.780331 0.771969
0.000000 0.114290 0.321813
0.000000 0.112673 0.325139
0.000000 0.116701 0.331548
0.424506 0.000000 0.330846
0.651820 0.000000 0.235599
0.819974 0.000000 0.217655
0.918181 0.000000 0.237400
1.000000 0.192142 0.189548
0.000000 0.140291 0.329534
0.000000 0.136812 0.331395
0.000000 0.143740 0.337102
0.431891 0.000000 0.333654
0.655238 0.000000 0.246647
0.817411 0.000000 0.234806
0.913359 0.126589 0.242679
1.000000 0.227909 0.194705
0.000000 0.236271 0.333440
0.000000 0.246586 0.336950
0.155886 0.250614 0.344884
0.434821 0.240238 0.334630
0.656092 0.211948 0.291508
0.806241 0.262089 0.298650
0.902831 0.311070 0.273747
0.997040 0.334264 0.221103
0.143557 0.365881 0.297642
0.185275 0.369879 0.303593
0.300572 0.387854 0.331792
0.399939 0.407050 0.385351
0.608392 0.429023 0.349493
0.759762 0.436378 0.327550
0.870573 0.441505 0.299779
0.975158 0.447059 0.250858
0.419715 0.491585 0.399176
0.430274 0.493294 0.406317
0.472389 0.502983 0.436927
0.519280 0.512902 0.476326
0.524468 0.509422 0.485206
0.635615 0.556786 0.462867
0.824491 0.568048 0.369390
0.947204 0.565118 0.308171
0.567803 0.597223 0.515862
0.576196 0.601129 0.523522
0.596155 0.605798 0.541894
0.620325 0.609705 0.565850
0.627070 0.601709 0.578058
0.629847 0.602838 0.582330
0.662348 0.628656 0.598657
0.850217 0.688960 0.528801
0.677302 0.685939 0.623163
0.680354 0.687007 0.626276
0.691432 0.690608 0.637995
0.704738 0.693385 0.652216
0.710536 0.688808 0.659968
0.714473 0.684352 0.669764
0.717891 0.687831 0.673487
0.731258 0.701228 0.687892
0.774472 0.785397 0.727382
0.776333 0.785946 0.729397
0.784207 0.788632 0.738277
0.795315 0.791653 0.750729
0.801602 0.789395 0.758114
0.807858 0.786282 0.768368
0.812863 0.786343 0.778286
0.818173 0.792111 0.784360
0.000000 0.164248 0.480354
0.000000 0.168093 0.483131
0.000000 0.180209 0.489601
0.313573 0.173709 0.497993
0.656855 0.000000 0.490425
0.807584 0.124727 0.362463
0.916808 0.039765 0.341619
1.000000 0.231540 0.358068
0.000000 0.204288 0.484047
0.000000 0.203555 0.486976
0.000000 0.214359 0.493050
0.320775 0.215152 0.501030
0.656397 0.122194 0.490974
0.805722 0.184207 0.371618
0.914549 0.156741 0.351293
1.000000 0.267552 0.369726
0.087892 0.319097 0.487800
0.115023 0.318639 0.489815
0.183719 0.315679 0.496223
0.333043 0.331182 0.505913
0.646387 0.295872 0.488716
0.792691 0.306584 0.402411
0.899901 0.314061 0.394781
0.992370 0.366796 0.410346
0.216312 0.429938 0.478553
0.248234 0.428809 0.480415
0.348638 0.428107 0.490150
0.439521 0.454719 0.509361
0.633570 0.454139 0.493294
0.777859 0.448524 0.465400
0.877012 0.472145 0.473945
0.975097 0.479164 0.447242
0.372259 0.526726 0.441718
0.388373 0.529290 0.446296
0.446448 0.538750 0.464424
0.538903 0.556634 0.504051
0.591180 0.567468 0.545006
0.730068 0.582422 0.513573
0.839902 0.582025 0.496712
0.949310 0.581384 0.469001
0.561913 0.615778 0.522515
0.567926 0.616968 0.527276
0.589563 0.620203 0.544427
0.627222 0.628321 0.576928
0.658930 0.635187 0.608423
0.666255 0.637201 0.619043
0.735103 0.673091 0.613733
0.900175 0.693263 0.546838
0.675166 0.697780 0.626184
0.677119 0.697780 0.627893
0.686458 0.699367 0.636652
0.707790 0.706355 0.657740
0.729763 0.712001 0.680995
0.735286 0.706142 0.691341
0.737881 0.707942 0.695064
0.756374 0.726833 0.715267
0.761471 0.786893 0.715999
0.763516 0.787350 0.718074
0.772427 0.789761 0.727382
0.792081 0.797787 0.748714
0.810819 0.803372 0.769619
0.818265 0.800076 0.779355
0.823331 0.797665 0.790219
0.827420 0.802152 0.794919
0.000000 0.271977 0.621241
0.000000 0.276036 0.623346
0.000000 0.288304 0.627192
0.224460 0.311467 0.636164
0.556756 0.292058 0.636805
0.800931 0.258824 0.619135
0.895109 0.343328 0.508690
0.994629 0.363439 0.485359
0.000000 0.297612 0.616236
0.000000 0.297765 0.617273
0.000000 0.307683 0.621210
0.248783 0.327459 0.629633
0.552636 0.312535 0.631922
0.794858 0.284062 0.615167
0.889647 0.359075 0.507164
0.990661 0.374212 0.488136
0.203433 0.389685 0.618799
0.213230 0.388952 0.619623
0.255009 0.388708 0.624109
0.349859 0.402075 0.629603
0.559136 0.400702 0.633997
0.784878 0.383093 0.615381
0.879179 0.433082 0.517418
0.984039 0.432349 0.514061
0.400580 0.491829 0.614343
0.405402 0.492042 0.614984
0.428565 0.495277 0.619989
0.471260 0.502220 0.632258
0.577569 0.519860 0.643244
0.769802 0.508659 0.621912
0.868559 0.525505 0.566491
0.975189 0.520592 0.561913
0.395666 0.583612 0.600397
0.408698 0.583276 0.601404
0.458808 0.581750 0.606073
0.540551 0.577813 0.616327
0.619623 0.604120 0.637415
0.743221 0.607904 0.623499
0.853269 0.603265 0.610132
0.956634 0.611292 0.614466
0.525689 0.645258 0.567803
0.535210 0.647181 0.571588
0.565759 0.650965 0.581903
0.616236 0.658808 0.602228
0.678065 0.671290 0.635584
0.710811 0.680720 0.665858
0.824979 0.695949 0.644465
0.933867 0.698116 0.630152
0.674647 0.720821 0.639002
0.678004 0.722011 0.641810
0.688869 0.724392 0.650874
0.709895 0.729274 0.668879
0.740414 0.737484 0.696712
0.767727 0.743557 0.725002
0.770932 0.741939 0.731319
0.835233 0.778286 0.727718
0.758267 0.802548 0.721157
0.759609 0.802426 0.722255
0.766812 0.803525 0.728756
0.782437 0.807309 0.743526
0.806851 0.813931 0.767941
0.833646 0.821958 0.797269
0.840909 0.817594 0.809659
0.844144 0.820462 0.814115
0.079988 0.388373 0.720363
0.135225 0.391821 0.721950
0.227604 0.399817 0.723934
0.333318 0.416632 0.729274
0.440986 0.440406 0.736873
0.709743 0.414282 0.733577
0.889128 0.408148 0.717556
0.965454 0.468849 0.635920
0.161624 0.400153 0.715145
0.185672 0.402930 0.717067
0.253483 0.410132 0.719326
0.344701 0.424292 0.723873
0.445808 0.446326 0.731197
0.703182 0.420539 0.727504
0.881193 0.411749 0.710506
0.958221 0.467781 0.628595
0.326696 0.462959 0.715328
0.332219 0.462928 0.716030
0.354528 0.463111 0.718044
0.415930 0.474983 0.722469
0.494362 0.493507 0.729397
0.703548 0.478218 0.728206
0.875029 0.473640 0.714046
0.954986 0.520287 0.641901
0.463081 0.543481 0.712947
0.465217 0.542870 0.712978
0.477333 0.542748 0.714900
0.506950 0.546838 0.721431
0.566094 0.564508 0.729671
0.707546 0.565148 0.733700
0.864134 0.560052 0.720821
0.947753 0.586206 0.656336
0.514549 0.589532 0.697963
0.521508 0.591547 0.697993
0.554467 0.604150 0.701472
0.590295 0.616754 0.710140
0.621881 0.624048 0.722377
0.700526 0.638697 0.734554
0.847227 0.629847 0.721248
0.944915 0.641016 0.679377
0.526177 0.691096 0.695247
0.532433 0.690944 0.695918
0.556329 0.689479 0.698238
0.598535 0.686183 0.703212
0.655573 0.678401 0.711696
0.721462 0.702785 0.740047
0.839994 0.709102 0.733394
0.946838 0.704005 0.718318
0.624994 0.739620 0.673579
0.628992 0.740505 0.675166
0.643061 0.741695 0.679347
0.671473 0.746395 0.689723
0.714015 0.755734 0.708248
0.771969 0.771572 0.740414
0.809079 0.782254 0.773983
0.921721 0.794125 0.751431
0.749081 0.821286 0.729000
0.751308 0.821836 0.730831
0.761410 0.824887 0.739528
0.778408 0.828611 0.753841
0.802976 0.833799 0.774899
0.834684 0.841794 0.803952
0.865446 0.849729 0.836271
0.869169 0.848295 0.843168
0.399237 0.518242 0.821134
0.406775 0.520195 0.821958
0.428382 0.523033 0.821988
0.473335 0.532830 0.824979
0.532372 0.547112 0.829191
0.641321 0.555566 0.832639
0.832242 0.534813 0.830991
0.974395 0.533806 0.818021
0.408545 0.523247 0.817685
0.415106 0.524956 0.818631
0.437201 0.528679 0.819455
0.479133 0.537469 0.822141
0.536370 0.551263 0.826535
0.639765 0.560479 0.830350
0.828855 0.538628 0.828153
0.970733 0.536400 0.815000
0.463813 0.557244 0.814817
0.466773 0.557397 0.815335
0.478187 0.557122 0.816220
0.517296 0.567864 0.821042
0.565423 0.579431 0.824826
0.643427 0.590265 0.829191
0.825071 0.569604 0.827512
0.965332 0.564813 0.815213
0.535210 0.607630 0.811185
0.537957 0.608209 0.811978
0.546166 0.608026 0.813504
0.565698 0.610193 0.817899
0.606439 0.621210 0.823239
0.657160 0.635889 0.830777
0.820798 0.619257 0.830594
0.959869 0.611231 0.819272
0.601831 0.661219 0.805753
0.603143 0.661402 0.806790
0.605463 0.659113 0.808408
0.617548 0.659022 0.813169
0.639551 0.660517 0.820157
0.685084 0.674250 0.829404
0.810269 0.670893 0.834531
0.953582 0.664607 0.824979
0.596521 0.691737 0.798428
0.599145 0.689662 0.797940
0.612970 0.685542 0.797971
0.645838 0.697566 0.803403
0.684413 0.711635 0.814633
0.717952 0.720821 0.831510
0.801724 0.742214 0.848112
0.946715 0.734951 0.836698
0.605890 0.809049 0.812192
0.608759 0.808499 0.812345
0.621302 0.806241 0.813169
0.647456 0.802365 0.816007
0.686152 0.793301 0.819120
0.740902 0.776028 0.824552
0.811490 0.799588 0.849149
0.931060 0.807034 0.844236
0.689570 0.849241 0.782101
0.691615 0.849088 0.782406
0.701656 0.849271 0.784695
0.722835 0.850706 0.790555
0.755093 0.852689 0.799863
0.799649 0.858457 0.816068
0.857847 0.872587 0.845335
0.902220 0.885801 0.882139
