20 Preset/Nude style/【3】LUT video cho PR-AE-FCPX/Tone  (1).cube
# Created by Adobe Lightroom plugin Export LUT (1.24.0)
# www.johnrellis.com/lightroom/exportlut.htm
# Preset: 奶油裸色-素材江湖02
# Color profile: C:\Program Files (x86)\Common Files\Adobe\Color\Profiles\Recommended\VideoHD.icc
LUT_3D_SIZE 5
DOMAIN_MIN 0.000000 0.000000 0.000000
DOMAIN_MAX 0.903226 0.903226 0.903226
0.000000 0.000000 0.000000
0.244297 0.018280 0.005676
0.441962 0.094881 0.010803
0.598627 0.150851 0.019745
0.755367 0.207340 0.005371
0.246372 0.225681 0.000000
0.248692 0.186404 0.112245
0.433173 0.200168 0.098360
0.591821 0.219821 0.094026
0.752071 0.256107 0.081086
0.444007 0.448402 0.000000
0.478340 0.447059 0.000000
0.438666 0.357458 0.217166
0.552819 0.357122 0.213626
0.739254 0.384283 0.177737
0.598505 0.657618 0.000000
0.619837 0.657557 0.000000
0.646937 0.628382 0.177340
0.589502 0.519097 0.315862
0.683558 0.524224 0.344976
0.779751 0.868345 0.057954
0.796445 0.868376 0.056764
0.863584 0.867857 0.068299
0.859556 0.824155 0.336889
0.814572 0.750088 0.493477
0.000000 0.098573 0.213230
0.241489 0.001526 0.226535
0.466316 0.000000 0.192966
0.609583 0.178836 0.186740
0.761837 0.219608 0.170932
0.145113 0.232670 0.197910
0.260380 0.228580 0.228641
0.449439 0.232029 0.215030
0.601617 0.242435 0.200443
0.757992 0.267552 0.184146
0.413306 0.451270 0.220188
0.452979 0.451087 0.219852
0.442359 0.377447 0.281804
0.566033 0.375921 0.263554
0.743679 0.394232 0.235782
0.580682 0.659052 0.222141
0.602686 0.659022 0.222171
0.646784 0.638788 0.258488
0.590295 0.529381 0.353033
0.690150 0.533410 0.368017
0.766140 0.869718 0.234104
0.783047 0.869657 0.234195
0.851774 0.869322 0.234165
0.859098 0.829038 0.374304
0.812985 0.753384 0.512535
0.000000 0.183902 0.434668
0.034180 0.145449 0.442695
0.448188 0.088167 0.458595
0.660853 0.108248 0.462867
0.806363 0.044373 0.363073
0.177188 0.311803 0.432624
0.211246 0.278050 0.441413
0.453437 0.243198 0.457649
0.650752 0.238651 0.442512
0.797696 0.214939 0.347601
0.237613 0.459419 0.399786
0.301183 0.461524 0.410101
0.449775 0.450355 0.456275
0.604700 0.436591 0.420233
0.765133 0.422919 0.382574
0.491066 0.665827 0.446509
0.520073 0.665492 0.453956
0.616999 0.665614 0.453559
0.591974 0.570336 0.475349
0.720638 0.566430 0.448432
0.701289 0.875303 0.457252
0.720089 0.875273 0.457191
0.795315 0.875090 0.457038
0.858549 0.851011 0.493874
0.807156 0.766537 0.579339
0.000000 0.284581 0.657740
0.000000 0.246616 0.662409
0.336828 0.209873 0.674250
0.616663 0.169741 0.684047
0.843809 0.194125 0.709255
0.000000 0.373449 0.655634
0.000000 0.347753 0.659846
0.350622 0.299016 0.672755
0.617670 0.272435 0.683223
0.840970 0.284337 0.707179
0.242496 0.538659 0.643183
0.295445 0.534874 0.645258
0.398169 0.494820 0.662623
0.614038 0.467720 0.673243
0.825162 0.456733 0.676234
0.254765 0.675746 0.602075
0.304295 0.676417 0.607843
0.441749 0.679133 0.631373
0.596399 0.659144 0.674098
0.778561 0.618860 0.609033
0.498726 0.889952 0.604425
0.531762 0.889494 0.619104
0.652613 0.887205 0.676265
0.819303 0.886168 0.681727
0.797848 0.794583 0.691493
0.000000 0.398932 0.865049
0.000000 0.374701 0.866728
0.000000 0.322972 0.873686
0.519921 0.260410 0.883268
0.788235 0.202457 0.888426
0.000000 0.455604 0.859525
0.000000 0.435828 0.861631
0.000000 0.375708 0.869291
0.518883 0.323308 0.878904
0.786191 0.277928 0.885252
0.134188 0.619593 0.849973
0.166934 0.606714 0.851133
0.265324 0.547143 0.859953
0.516533 0.487312 0.871427
0.788327 0.455543 0.883696
0.056611 0.765164 0.850736
0.206729 0.761044 0.850004
0.404791 0.748165 0.851041
0.537560 0.698085 0.872221
0.809110 0.674250 0.894835
0.000000 0.898802 0.804410
0.135561 0.897765 0.806760
0.378149 0.895995 0.819913
0.591699 0.895354 0.847135
0.803494 0.872465 0.886137
