20 Preset/Nude style/【3】LUT video cho PR-AE-FCPX/Tone  (8).cube
# Created by Adobe Lightroom plugin Export LUT (1.24.0)
# www.johnrellis.com/lightroom/exportlut.htm
# Preset: 奶油裸色-素材江湖09
# Color profile: C:\Program Files (x86)\Common Files\Adobe\Color\Profiles\Recommended\VideoHD.icc
LUT_3D_SIZE 5
DOMAIN_MIN 0.000000 0.000000 0.000000
DOMAIN_MAX 0.903226 0.903226 0.903226
0.102876 0.082918 0.086030
0.319615 0.083986 0.075257
0.522820 0.126070 0.084138
0.710353 0.199710 0.112856
0.944244 0.279026 0.130587
0.322423 0.288426 0.029816
0.287205 0.222660 0.177157
0.502739 0.238865 0.147250
0.696620 0.274479 0.156680
0.944274 0.338048 0.167239
0.548608 0.558923 0.134188
0.566552 0.539452 0.167300
0.467842 0.403357 0.326452
0.633387 0.431006 0.301274
0.916411 0.482795 0.262364
0.756710 0.816007 0.188235
0.783261 0.814878 0.191318
0.773709 0.755123 0.319829
0.628748 0.586053 0.457374
0.804074 0.651301 0.497566
0.907012 0.956329 0.361334
0.923644 0.955016 0.363592
0.971679 0.943999 0.378759
0.959808 0.908598 0.560571
0.882139 0.854154 0.734951
0.000000 0.128206 0.260655
0.308629 0.049500 0.272984
0.530327 0.117922 0.219699
0.687953 0.230838 0.228977
0.910094 0.281071 0.220951
0.208530 0.288243 0.233646
0.315465 0.275731 0.279301
0.506065 0.277043 0.257511
0.679438 0.292454 0.246342
0.907469 0.333257 0.237736
0.503868 0.539940 0.284642
0.543603 0.537102 0.284703
0.462562 0.411688 0.362951
0.634974 0.435004 0.328466
0.906432 0.483131 0.306401
0.732082 0.812009 0.310216
0.759854 0.811704 0.312352
0.772152 0.762661 0.376257
0.626795 0.592340 0.480781
0.810483 0.655329 0.508446
0.892363 0.956573 0.428077
0.908873 0.955108 0.429053
0.970397 0.949310 0.448249
0.960601 0.915312 0.601129
0.886442 0.863432 0.757412
0.000000 0.225895 0.501671
0.189517 0.193484 0.509667
0.531151 0.174746 0.519738
0.780484 0.185214 0.522820
0.955718 0.024048 0.384375
0.263371 0.370672 0.493111
0.292454 0.332158 0.501671
0.539300 0.311192 0.520897
0.756344 0.291142 0.484413
0.930907 0.306493 0.394568
0.304234 0.549920 0.450355
0.369818 0.551446 0.461463
0.503746 0.511498 0.521996
0.691005 0.493324 0.463966
0.912078 0.490608 0.431891
0.628321 0.807065 0.542565
0.656550 0.802426 0.538933
0.765377 0.797208 0.544518
0.632136 0.631647 0.573968
0.849271 0.673304 0.553277
0.827878 0.956420 0.608392
0.845609 0.955596 0.611170
0.914824 0.951354 0.618647
0.949096 0.925566 0.680598
0.873381 0.864958 0.783536
0.000000 0.345678 0.768093
0.000000 0.301274 0.774166
0.444312 0.271733 0.791318
0.755245 0.244388 0.795254
1.000000 0.288487 0.811643
0.000000 0.446418 0.762448
0.000000 0.414221 0.767758
0.452735 0.364538 0.781949
0.750301 0.339727 0.785214
1.000000 0.367529 0.800443
0.282506 0.637324 0.745663
0.355779 0.633936 0.748318
0.482643 0.582666 0.769986
0.773098 0.564935 0.793790
0.971771 0.527520 0.737423
0.310887 0.813626 0.680568
0.371130 0.811978 0.686152
0.546624 0.811704 0.721798
0.678828 0.747066 0.763272
0.913695 0.706630 0.686824
0.707576 0.962127 0.774289
0.733181 0.960418 0.788357
0.818692 0.955505 0.829252
0.926970 0.949889 0.825284
0.864714 0.883391 0.847593
0.000000 0.485420 0.972137
0.000000 0.458381 0.973999
0.275975 0.413306 0.977539
0.659724 0.358373 0.982086
0.953216 0.346227 0.979919
0.000000 0.557458 0.967742
0.000000 0.535424 0.969665
0.312657 0.479591 0.974578
0.662959 0.431403 0.979614
0.952880 0.419471 0.977874
0.394568 0.755703 0.951690
0.413550 0.745846 0.953338
0.464576 0.688380 0.961273
0.680934 0.640192 0.968963
0.947417 0.624384 0.969146
0.456092 0.891051 0.943023
0.498970 0.888762 0.943145
0.634516 0.880705 0.943511
0.738674 0.846342 0.953277
0.940581 0.830961 0.959411
0.568841 0.973724 0.884031
0.596185 0.972564 0.888151
0.690852 0.967956 0.903838
0.819303 0.961120 0.929076
0.901152 0.941375 0.950072
