20 Preset/Nude style/【3】LUT video cho PR-AE-FCPX/Tone  (1).cube
# Created by Adobe Lightroom plugin Export LUT (1.24.0)
# www.johnrellis.com/lightroom/exportlut.htm
# Preset: 奶油裸色-素材江湖02
# Color profile: C:\Program Files (x86)\Common Files\Adobe\Color\Profiles\Recommended\VideoHD.icc
LUT_3D_SIZE 32
DOMAIN_MIN 0.0 0.0 0.0
DOMAIN_MAX 1.0 1.0 1.0
0.000000 0.000000 0.000000
0.010498 0.001068 0.000000
0.060700 0.000000 0.001099
0.109621 0.002197 0.001129
0.144472 0.005524 0.001129
0.178927 0.007904 0.002441
0.212161 0.013214 0.004547
0.244297 0.018280 0.005676
0.275456 0.025513 0.005524
0.305303 0.033387 0.006683
0.334569 0.044648 0.007538
0.362860 0.057954 0.008453
0.390173 0.072572 0.010742
0.416449 0.086641 0.010651
0.441962 0.094881 0.010803
0.466377 0.102815 0.012390
0.490089 0.111025 0.012909
0.513085 0.119203 0.014862
0.535424 0.126864 0.015106
0.557153 0.135073 0.017609
0.578149 0.142824 0.018616
0.598627 0.150851 0.019745
0.618830 0.158572 0.022431
0.639673 0.166293 0.021241
0.661280 0.174197 0.020294
0.683864 0.182284 0.018158
0.707149 0.190677 0.013672
0.730983 0.199008 0.009491
0.755367 0.207340 0.005371
0.780728 0.215763 0.000000
0.807248 0.224552 0.000000
0.835752 0.233677 0.000000
0.010468 0.010010 0.000000
0.011994 0.006409 0.002289
0.059113 0.007813 0.002289
0.109926 0.008728 0.002472
0.144228 0.012268 0.003632
0.178653 0.015869 0.004761
0.211917 0.019013 0.006043
0.243839 0.025513 0.007050
0.275120 0.031525 0.007050
0.305119 0.040375 0.008057
0.334295 0.051850 0.008911
0.362737 0.063722 0.009979
0.389990 0.079805 0.011933
0.416297 0.089815 0.012024
0.441779 0.096956 0.012329
0.466316 0.104280 0.012909
0.490059 0.112306 0.014588
0.513054 0.120363 0.015381
0.535424 0.128176 0.016632
0.557061 0.136110 0.019287
0.578027 0.143771 0.020294
0.598535 0.151736 0.020294
0.618769 0.159182 0.023133
0.639612 0.166873 0.021912
0.661219 0.174899 0.021973
0.683803 0.182956 0.018677
0.707118 0.191135 0.014374
0.730892 0.199588 0.011170
0.755398 0.207706 0.006043
0.780697 0.216251 0.000000
0.807248 0.224918 0.000000
0.835782 0.234104 0.000000
0.059205 0.044800 0.000000
0.073365 0.045441 0.000000
0.069276 0.032074 0.011200
0.106172 0.038849 0.014405
0.143526 0.041505 0.011017
0.177554 0.045563 0.012177
0.210819 0.048920 0.013458
0.243137 0.053010 0.012482
0.274266 0.060456 0.013458
0.304326 0.068330 0.013489
0.333684 0.077394 0.014679
0.362097 0.085328 0.014618
0.389471 0.092348 0.015595
0.415869 0.098177 0.015808
0.441444 0.104494 0.016114
0.466011 0.111086 0.016693
0.489845 0.118441 0.017212
0.512810 0.125734 0.019318
0.535088 0.132937 0.020722
0.556817 0.140475 0.021088
0.577813 0.147829 0.022095
0.598199 0.155337 0.024537
0.618494 0.162722 0.026093
0.639368 0.170047 0.026154
0.660975 0.177859 0.025086
0.683650 0.185550 0.020813
0.706935 0.193729 0.017487
0.730739 0.202029 0.013123
0.755245 0.210147 0.007843
0.780545 0.218570 0.001984
0.807095 0.227085 0.000000
0.835721 0.236027 0.000000
0.108766 0.096742 0.000000
0.111940 0.096681 0.000000
0.119692 0.094697 0.005798
0.115541 0.084535 0.030762
0.136477 0.088350 0.043946
0.174563 0.091066 0.031983
0.209079 0.092164 0.028717
0.240970 0.094026 0.027771
0.272618 0.095766 0.026764
0.302617 0.098604 0.025696
0.332372 0.101106 0.025879
0.360876 0.104616 0.024842
0.388556 0.108583 0.024964
0.415015 0.113283 0.025177
0.440589 0.117983 0.023529
0.465309 0.123568 0.024109
0.489143 0.129488 0.026093
0.512108 0.136019 0.027039
0.534539 0.142428 0.028443
0.556268 0.149111 0.028992
0.577203 0.155764 0.029023
0.597711 0.162570 0.031586
0.618036 0.169314 0.032166
0.638880 0.176272 0.032227
0.660548 0.183413 0.030304
0.683192 0.191104 0.028016
0.706600 0.198917 0.024659
0.730465 0.206638 0.020630
0.754971 0.214542 0.014221
0.780362 0.222660 0.008331
0.806882 0.231235 0.001099
0.835538 0.240024 0.000000
0.143771 0.129122 0.000000
0.146334 0.129030 0.000000
0.156619 0.128603 0.000000
0.156161 0.122072 0.022339
0.150210 0.112154 0.061982
0.163455 0.112367 0.083345
0.201175 0.116762 0.068788
0.238376 0.118227 0.051179
0.270268 0.119875 0.047791
0.300664 0.121675 0.045716
0.330510 0.123354 0.042664
0.359380 0.125704 0.040620
0.386999 0.128664 0.038666
0.413825 0.132052 0.036774
0.439460 0.135897 0.037385
0.464088 0.140383 0.036988
0.488136 0.144869 0.038117
0.511162 0.150271 0.039246
0.533440 0.155825 0.039673
0.555291 0.161349 0.040528
0.576226 0.167208 0.041840
0.596826 0.173007 0.042451
0.617182 0.179110 0.043183
0.638148 0.185489 0.042084
0.659907 0.192111 0.041321
0.682612 0.199313 0.039002
0.706050 0.206455 0.034821
0.729946 0.214054 0.029328
0.754513 0.221561 0.024048
0.779934 0.229435 0.018006
0.806577 0.237491 0.010925
0.835233 0.246189 0.003143
0.178958 0.161379 0.000000
0.180850 0.161318 0.000000
0.188235 0.160861 0.000000
0.194919 0.158694 0.006317
0.191318 0.148806 0.045960
0.183291 0.136721 0.086580
0.188663 0.133852 0.100374
0.226993 0.139681 0.092195
0.264225 0.142702 0.081025
0.298436 0.144350 0.068391
0.328222 0.146242 0.063905
0.357275 0.148135 0.060761
0.385107 0.150271 0.058930
0.411994 0.153262 0.058015
0.437751 0.156222 0.056519
0.462654 0.159701 0.057404
0.486580 0.163394 0.056458
0.509697 0.167636 0.056733
0.532280 0.171969 0.057435
0.553857 0.176516 0.057679
0.574945 0.181491 0.058015
0.595544 0.186435 0.058930
0.616052 0.191867 0.058503
0.637079 0.197543 0.058717
0.658961 0.203342 0.055940
0.681788 0.210117 0.052338
0.705318 0.216831 0.049134
0.729244 0.223819 0.043793
0.753933 0.230838 0.038483
0.779416 0.238407 0.031159
0.806149 0.246220 0.026001
0.834928 0.254551 0.018067
0.213077 0.193484 0.000000
0.214481 0.193576 0.000000
0.219913 0.193301 0.000000
0.230869 0.193088 0.000000
0.230808 0.186679 0.023651
0.224857 0.174289 0.069276
0.216159 0.161471 0.099123
0.213718 0.155398 0.116854
0.251713 0.162417 0.108278
0.288365 0.166690 0.099916
0.324041 0.169162 0.091279
0.354925 0.171023 0.087495
0.383001 0.173281 0.085328
0.409796 0.175509 0.083528
0.435676 0.178012 0.082612
0.460578 0.180667 0.081910
0.484688 0.183749 0.081300
0.508019 0.186893 0.081056
0.530327 0.190494 0.081025
0.552117 0.194125 0.080629
0.573205 0.198123 0.080415
0.593835 0.202396 0.080385
0.614557 0.206668 0.079774
0.635737 0.211765 0.079164
0.657771 0.217105 0.076844
0.680690 0.223148 0.073396
0.704280 0.229221 0.068055
0.728328 0.235782 0.063691
0.753079 0.242405 0.057099
0.778683 0.249668 0.051698
0.805539 0.257145 0.045106
0.834409 0.265232 0.037812
0.246372 0.225681 0.000000
0.247379 0.225650 0.000000
0.251804 0.225559 0.000000
0.260960 0.225376 0.000000
0.266911 0.222354 0.002625
0.264164 0.212894 0.044282
0.257786 0.200015 0.090761
0.248692 0.186404 0.112245
0.242130 0.178317 0.132326
0.275853 0.185336 0.126467
0.312078 0.190555 0.118318
0.346838 0.193942 0.109773
0.379767 0.196078 0.101686
0.407294 0.198123 0.099580
0.433173 0.200168 0.098360
0.458167 0.202335 0.097292
0.482277 0.204929 0.096620
0.505608 0.207401 0.095827
0.528099 0.210147 0.095552
0.549828 0.213260 0.095003
0.571069 0.216403 0.094667
0.591821 0.219821 0.094026
0.612665 0.223636 0.093690
0.634028 0.227909 0.093019
0.656214 0.232731 0.091920
0.679316 0.238071 0.090242
0.703029 0.243809 0.088136
0.727230 0.249821 0.084749
0.752071 0.256107 0.081086
0.777768 0.262913 0.077241
0.804807 0.269902 0.070466
0.833829 0.277775 0.064790
0.278508 0.257755 0.000000
0.279637 0.257816 0.000000
0.282963 0.257664 0.000000
0.290501 0.257572 0.000000
0.300694 0.256931 0.000000
0.301518 0.250980 0.020539
0.296330 0.239384 0.076112
0.289403 0.225895 0.105776
0.280217 0.212222 0.126497
0.271946 0.202182 0.146548
0.299413 0.208255 0.145174
0.334630 0.214115 0.136812
0.368505 0.217990 0.129000
0.400519 0.220676 0.120577
0.430457 0.222507 0.113283
0.455482 0.224552 0.111696
0.479469 0.226535 0.110658
0.502770 0.228550 0.109773
0.525231 0.230808 0.108675
0.547143 0.233188 0.108003
0.568505 0.235752 0.107118
0.589319 0.238712 0.106264
0.610407 0.241855 0.105715
0.631983 0.245579 0.104891
0.654383 0.249851 0.103639
0.677638 0.254704 0.101839
0.701503 0.259983 0.099977
0.725826 0.265568 0.097688
0.750820 0.271489 0.095613
0.776699 0.277714 0.093660
0.803861 0.284672 0.091615
0.833097 0.292149 0.089326
0.309422 0.289891 0.000000
0.310307 0.289860 0.000000
0.313146 0.289830 0.000000
0.319493 0.289677 0.000000
0.328771 0.289525 0.000000
0.334051 0.286168 0.000000
0.332647 0.278019 0.049683
0.327459 0.265629 0.096986
0.320104 0.251865 0.121218
0.310643 0.237736 0.141756
0.301183 0.226352 0.161166
0.321813 0.230777 0.164248
0.356115 0.237217 0.156069
0.388586 0.241550 0.148013
0.419837 0.244419 0.139742
0.449531 0.246464 0.131319
0.476112 0.247990 0.125338
0.499428 0.249729 0.124086
0.522026 0.251743 0.122866
0.544060 0.253696 0.121828
0.565515 0.255802 0.120607
0.586572 0.258122 0.119692
0.607782 0.261051 0.118349
0.629603 0.264347 0.117311
0.652186 0.268101 0.115663
0.675624 0.272648 0.114076
0.699702 0.277409 0.112459
0.724208 0.282567 0.110170
0.749355 0.288151 0.108675
0.775418 0.294224 0.106752
0.802792 0.300755 0.105013
0.832303 0.307988 0.103212
0.338903 0.321904 0.000000
0.339574 0.321904 0.000000
0.342168 0.321935 0.000000
0.347417 0.321874 0.000000
0.355505 0.321752 0.000000
0.365087 0.320897 0.000000
0.366033 0.315099 0.020630
0.362646 0.304631 0.085939
0.356817 0.291569 0.113863
0.349310 0.277409 0.136934
0.339422 0.262791 0.157473
0.328588 0.250431 0.176059
0.342779 0.252720 0.183352
0.375555 0.259403 0.175082
0.407111 0.263859 0.166812
0.437354 0.267155 0.158633
0.466499 0.269413 0.149996
0.494484 0.271000 0.141573
0.518486 0.272709 0.137423
0.540490 0.274327 0.136141
0.562066 0.276158 0.134401
0.583368 0.278172 0.132937
0.604822 0.280674 0.131777
0.626886 0.283635 0.130373
0.649714 0.287114 0.128664
0.673396 0.291356 0.126925
0.697627 0.295964 0.124910
0.722377 0.300816 0.123354
0.747738 0.306004 0.121492
0.774014 0.311772 0.119722
0.801572 0.318181 0.118593
0.831357 0.325292 0.117403
0.367193 0.353979 0.000000
0.367864 0.353948 0.000000
0.369970 0.353887 0.000000
0.374456 0.353857 0.000000
0.381598 0.353887 0.000000
0.391272 0.353674 0.000000
0.395911 0.350164 0.000000
0.395666 0.342748 0.055451
0.390906 0.330632 0.104433
0.384558 0.316960 0.130434
0.376379 0.302220 0.152682
0.366491 0.287480 0.172488
0.354253 0.273320 0.190433
0.362127 0.273411 0.201694
0.393744 0.280461 0.193515
0.424475 0.285374 0.185306
0.453956 0.289036 0.177066
0.482460 0.291600 0.168795
0.509911 0.293553 0.160189
0.536400 0.294804 0.150973
0.558434 0.296483 0.149020
0.579797 0.298344 0.147311
0.601526 0.300694 0.145388
0.623896 0.303502 0.143893
0.646967 0.306767 0.142336
0.670954 0.310674 0.140139
0.695430 0.314916 0.138094
0.720302 0.319677 0.136629
0.745907 0.324773 0.135012
0.772366 0.330358 0.133639
0.800229 0.336461 0.132784
0.830320 0.343511 0.131655
0.394232 0.385901 0.000000
0.394476 0.385931 0.000000
0.396521 0.385748 0.000000
0.400580 0.385809 0.000000
0.406714 0.385687 0.000000
0.415167 0.385534 0.000000
0.424231 0.384466 0.000000
0.424872 0.378332 0.022644
0.422553 0.368750 0.092348
0.417121 0.355688 0.122469
0.410468 0.341405 0.146944
0.402136 0.326452 0.168399
0.391852 0.311315 0.187655
0.379461 0.296666 0.204990
0.380102 0.293553 0.219791
0.410864 0.300725 0.211582
0.440650 0.306065 0.203281
0.469490 0.310002 0.195041
0.497444 0.313024 0.186709
0.524529 0.315221 0.178103
0.550927 0.316899 0.169284
0.576074 0.318364 0.161868
0.598016 0.320714 0.159915
0.620600 0.323430 0.157961
0.643946 0.326665 0.155917
0.668238 0.330419 0.153872
0.692897 0.334630 0.152163
0.718013 0.339300 0.150546
0.743862 0.344182 0.148836
0.770504 0.349584 0.147707
0.798764 0.355749 0.146853
0.829221 0.362799 0.146456
0.419654 0.417182 0.000000
0.420050 0.417212 0.000000
0.421790 0.417243 0.000000
0.425360 0.417182 0.000000
0.430854 0.417090 0.000000
0.438331 0.417090 0.000000
0.448249 0.416968 0.000000
0.452125 0.412879 0.000000
0.452399 0.406012 0.062623
0.448005 0.394049 0.111635
0.442267 0.380316 0.139315
0.435126 0.365576 0.163149
0.426398 0.350164 0.183993
0.415900 0.334691 0.202640
0.403418 0.319554 0.219364
0.398047 0.313268 0.236576
0.426947 0.320287 0.229099
0.455879 0.326024 0.221012
0.484230 0.330388 0.212711
0.511681 0.333715 0.204501
0.538598 0.336187 0.196048
0.565209 0.338598 0.187411
0.592065 0.340795 0.178531
0.617151 0.343420 0.172519
0.640772 0.346715 0.170382
0.665248 0.350591 0.168246
0.690150 0.354650 0.166293
0.715511 0.359228 0.164553
0.741604 0.364111 0.163058
0.768582 0.369574 0.162203
0.797147 0.375738 0.161593
0.828061 0.382940 0.161440
0.444007 0.448402 0.000000
0.444404 0.448432 0.000000
0.445869 0.448432 0.000000
0.449195 0.448371 0.000000
0.454139 0.448402 0.000000
0.460975 0.448280 0.000000
0.469825 0.448219 0.000000
0.478340 0.447059 0.000000
0.478645 0.440620 0.025360
0.477302 0.431678 0.097749
0.472297 0.418677 0.130434
0.466011 0.404334 0.156710
0.458473 0.389136 0.179171
0.449409 0.373388 0.199374
0.438666 0.357458 0.217166
0.426032 0.341894 0.233402
0.419226 0.333989 0.249790
0.442023 0.339269 0.246189
0.470466 0.345281 0.238041
0.498299 0.349950 0.230045
0.525566 0.353826 0.221866
0.552819 0.357122 0.213626
0.580194 0.360388 0.205020
0.607996 0.363500 0.196292
0.636408 0.366796 0.186648
0.662165 0.370611 0.182681
0.687221 0.374823 0.180606
0.712886 0.379370 0.179080
0.739254 0.384283 0.177737
0.766476 0.389868 0.176913
0.795529 0.396246 0.176547
0.826902 0.403571 0.177066
0.467597 0.479377 0.000000
0.468055 0.479316 0.000000
0.469429 0.479316 0.000000
0.472175 0.479347 0.000000
0.476692 0.479347 0.000000
0.482856 0.479255 0.000000
0.490944 0.479255 0.000000
0.500725 0.479225 0.000000
0.504234 0.474769 0.000000
0.504234 0.467659 0.076753
0.500786 0.456489 0.119387
0.495308 0.442664 0.148653
0.488655 0.427863 0.173617
0.480781 0.412268 0.195041
0.471351 0.396094 0.214206
0.460456 0.379889 0.231724
0.447639 0.363775 0.247135
0.439643 0.354284 0.262699
0.456458 0.357549 0.262577
0.484474 0.363867 0.254582
0.512047 0.369268 0.246830
0.539788 0.373938 0.238834
0.567681 0.378332 0.230869
0.596033 0.382483 0.222690
0.624994 0.386664 0.213993
0.654688 0.390936 0.204746
0.684230 0.395026 0.195590
0.710079 0.399725 0.193881
0.736751 0.404822 0.192599
0.764401 0.410437 0.191958
0.793881 0.417060 0.192050
0.825711 0.424720 0.192721
0.490517 0.510033 0.000000
0.490852 0.510002 0.000000
0.492012 0.510033 0.000000
0.494636 0.509972 0.000000
0.498665 0.509972 0.000000
0.504326 0.510002 0.000000
0.511711 0.509911 0.000000
0.520806 0.509880 0.000000
0.529137 0.508476 0.000000
0.529198 0.501793 0.034058
0.528557 0.493782 0.104524
0.523613 0.480690 0.139132
0.517662 0.466407 0.166201
0.510521 0.451087 0.189761
0.502220 0.434974 0.210575
0.492439 0.418463 0.228977
0.481361 0.401862 0.245640
0.468360 0.385412 0.260655
0.459236 0.374456 0.275456
0.470375 0.375463 0.278599
0.498268 0.382513 0.271061
0.526421 0.388708 0.263432
0.554681 0.394507 0.255833
0.583520 0.399908 0.248051
0.612940 0.405219 0.240146
0.643183 0.410590 0.231785
0.673732 0.415686 0.223239
0.704433 0.420447 0.214359
0.734157 0.425391 0.207919
0.762264 0.431373 0.207553
0.792264 0.438300 0.207706
0.824735 0.446357 0.208927
0.512718 0.540337 0.000000
0.512963 0.540307 0.000000
0.514122 0.540307 0.000000
0.516472 0.540276 0.000000
0.520134 0.540307 0.000000
0.525444 0.540276 0.000000
0.532158 0.540246 0.000000
0.540581 0.540185 0.000000
0.550561 0.540215 0.000000
0.553674 0.535454 0.000000
0.553368 0.528130 0.089418
0.550866 0.517937 0.127657
0.545495 0.504173 0.158053
0.539055 0.489326 0.183719
0.531518 0.473640 0.205814
0.522850 0.457313 0.225742
0.512902 0.440436 0.243412
0.501488 0.423468 0.259403
0.488563 0.406744 0.273930
0.478523 0.394690 0.287907
0.484565 0.393469 0.294530
0.512749 0.401526 0.287205
0.541405 0.408698 0.280064
0.570520 0.415564 0.272831
0.600397 0.422248 0.265476
0.631281 0.428840 0.257755
0.662470 0.435096 0.250095
0.693904 0.441047 0.242405
0.725826 0.446906 0.234592
0.758633 0.452735 0.226658
0.790768 0.459785 0.224094
0.823880 0.468269 0.225620
0.534478 0.570245 0.000000
0.534752 0.570245 0.000000
0.535790 0.570275 0.000000
0.537926 0.570245 0.000000
0.541344 0.570245 0.000000
0.546166 0.570214 0.000000
0.552575 0.570153 0.000000
0.560418 0.570123 0.000000
0.569635 0.570123 0.000000
0.577905 0.568688 0.000000
0.577996 0.561975 0.050507
0.577478 0.554345 0.113893
0.573205 0.542016 0.147951
0.567376 0.527825 0.175967
0.560662 0.512718 0.200076
0.552819 0.496651 0.221347
0.543816 0.480018 0.240513
0.533623 0.463020 0.257725
0.522057 0.445716 0.273289
0.508995 0.428656 0.287266
0.498177 0.415381 0.300725
0.499092 0.412024 0.310582
0.527916 0.420966 0.303746
0.557336 0.429358 0.296849
0.587549 0.437507 0.289982
0.618921 0.445563 0.283116
0.650782 0.453315 0.276249
0.682948 0.460578 0.269566
0.715602 0.467659 0.262852
0.749233 0.474739 0.256474
0.784848 0.482490 0.250034
0.822934 0.490730 0.243473
0.555962 0.599847 0.000000
0.556207 0.599817 0.000000
0.557183 0.599847 0.000000
0.559136 0.599817 0.000000
0.562432 0.599817 0.000000
0.566888 0.599786 0.000000
0.572778 0.599756 0.000000
0.580041 0.599725 0.000000
0.588861 0.599664 0.000000
0.599023 0.599664 0.000000
0.602197 0.595209 0.005097
0.602228 0.588281 0.099702
0.600977 0.579706 0.135592
0.595941 0.566552 0.166995
0.590021 0.552270 0.193118
0.583062 0.537011 0.216098
0.574914 0.520623 0.236576
0.565576 0.503716 0.255100
0.555108 0.486397 0.271855
0.543359 0.468910 0.287022
0.530144 0.451453 0.300725
0.518364 0.436988 0.313848
0.514427 0.431250 0.326909
0.543999 0.441474 0.320592
0.574609 0.451179 0.314275
0.606348 0.460822 0.307958
0.638758 0.470192 0.301762
0.671656 0.478920 0.295995
0.705104 0.487495 0.290593
0.739528 0.496071 0.285527
0.776089 0.505211 0.280888
0.815213 0.515068 0.276555
0.577234 0.628931 0.000000
0.577447 0.628931 0.000000
0.578363 0.628962 0.000000
0.580224 0.628931 0.000000
0.583276 0.628901 0.000000
0.587518 0.628901 0.000000
0.593042 0.628901 0.000000
0.599908 0.628870 0.000000
0.608087 0.628840 0.000000
0.617731 0.628809 0.000000
0.626184 0.627436 0.000000
0.626551 0.621302 0.080690
0.626581 0.614343 0.124361
0.623926 0.604120 0.156863
0.618708 0.590997 0.185641
0.612757 0.576837 0.210025
0.605829 0.561608 0.231846
0.597711 0.545434 0.251652
0.588403 0.528588 0.269718
0.577752 0.511009 0.286198
0.565728 0.493202 0.301213
0.552361 0.475471 0.314702
0.539605 0.459846 0.327337
0.534722 0.453590 0.341619
0.561486 0.463203 0.338079
0.593530 0.474617 0.332494
0.626642 0.485634 0.327062
0.660182 0.496162 0.322148
0.694301 0.506371 0.317784
0.729671 0.516533 0.314183
0.767208 0.527398 0.311162
0.807492 0.539086 0.309026
0.598505 0.657618 0.000000
0.598688 0.657618 0.000000
0.599542 0.657618 0.000000
0.601282 0.657557 0.000000
0.604181 0.657618 0.000000
0.608087 0.657557 0.000000
0.613367 0.657527 0.000000
0.619837 0.657557 0.000000
0.627680 0.657465 0.000000
0.636805 0.657465 0.000000
0.647150 0.657404 0.000000
0.650752 0.653315 0.037171
0.651148 0.647120 0.113222
0.651087 0.640040 0.146944
0.646937 0.628382 0.177340
0.641840 0.615351 0.203769
0.635798 0.601312 0.226963
0.628901 0.586389 0.248112
0.620935 0.570611 0.267247
0.611841 0.554009 0.284794
0.601373 0.536736 0.301030
0.589502 0.519097 0.315862
0.576074 0.500999 0.329229
0.562219 0.484199 0.341619
0.558007 0.478279 0.356451
0.580682 0.486824 0.356817
0.614343 0.499825 0.352148
0.648524 0.512169 0.348180
0.683558 0.524224 0.344976
0.719722 0.536309 0.342748
0.758328 0.549065 0.341558
0.799954 0.562829 0.341650
0.620264 0.686427 0.000000
0.620508 0.686427 0.000000
0.621302 0.686427 0.000000
0.623041 0.686427 0.000000
0.625635 0.686397 0.000000
0.629419 0.686397 0.000000
0.634363 0.686366 0.000000
0.640589 0.686336 0.000000
0.648035 0.686366 0.000000
0.656794 0.686336 0.000000
0.666743 0.686305 0.000000
0.675563 0.685145 0.000000
0.676204 0.679469 0.099245
0.676478 0.673060 0.138064
0.675196 0.664790 0.168948
0.670588 0.652796 0.197330
0.665309 0.639857 0.222293
0.659388 0.626032 0.244572
0.652552 0.611414 0.264897
0.644709 0.596002 0.283696
0.635859 0.579858 0.300908
0.625666 0.563134 0.316777
0.614252 0.545800 0.331426
0.601282 0.528252 0.344762
0.586908 0.510643 0.356878
0.583459 0.505303 0.372686
0.602106 0.512596 0.377325
0.636927 0.527123 0.374395
0.672694 0.541222 0.372503
0.709865 0.555383 0.371710
0.749691 0.570336 0.372412
0.792691 0.586481 0.374914
0.643061 0.715633 0.000000
0.643305 0.715633 0.000000
0.644038 0.715633 0.000000
0.645655 0.715633 0.000000
0.648280 0.715633 0.000000
0.651881 0.715602 0.000000
0.656580 0.715602 0.000000
0.662440 0.715602 0.000000
0.669551 0.715602 0.000000
0.677943 0.715633 0.000000
0.687556 0.715602 0.000000
0.698482 0.715602 0.000000
0.702480 0.711910 0.073976
0.703059 0.706172 0.127382
0.703304 0.699733 0.160067
0.700496 0.690028 0.189914
0.695674 0.677974 0.216983
0.690272 0.665156 0.240848
0.684108 0.651514 0.262638
0.677150 0.637110 0.282719
0.669429 0.622126 0.301122
0.660761 0.606531 0.318212
0.651057 0.590356 0.334020
0.640009 0.573785 0.348608
0.627680 0.556817 0.362097
0.613855 0.539635 0.374395
0.610834 0.534600 0.391119
0.625513 0.540978 0.400916
0.662104 0.557427 0.400366
0.700252 0.573938 0.401404
0.741299 0.591455 0.404334
0.784298 0.609033 0.408484
0.666987 0.745266 0.000000
0.667262 0.745235 0.000000
0.667903 0.745266 0.000000
0.669490 0.745266 0.000000
0.671962 0.745266 0.000000
0.675380 0.745266 0.000000
0.679896 0.745266 0.000000
0.685634 0.745266 0.000000
0.692531 0.745266 0.000000
0.700587 0.745266 0.000000
0.709895 0.745266 0.000000
0.720394 0.745235 0.000000
0.730159 0.744411 0.014343
0.731044 0.739254 0.113588
0.731685 0.733516 0.151369
0.731868 0.727169 0.181491
0.727504 0.716121 0.211124
0.722621 0.704280 0.236881
0.717098 0.691676 0.260380
0.710842 0.678309 0.281865
0.703914 0.664271 0.301732
0.696132 0.649714 0.320256
0.687556 0.634607 0.337469
0.678004 0.619043 0.353491
0.667506 0.603265 0.368322
0.655909 0.587213 0.382208
0.642969 0.570977 0.394842
0.640314 0.566552 0.413062
0.651820 0.573053 0.429267
0.690822 0.592004 0.432166
0.731807 0.611109 0.436347
0.775723 0.631159 0.442939
0.692287 0.775235 0.000000
0.692439 0.775235 0.000000
0.693233 0.775204 0.000000
0.694728 0.775235 0.000000
0.697047 0.775235 0.000000
0.700374 0.775235 0.000000
0.704768 0.775265 0.000000
0.710262 0.775265 0.000000
0.716915 0.775235 0.000000
0.724727 0.775265 0.000000
0.733822 0.775204 0.000000
0.744106 0.775235 0.000000
0.755520 0.775265 0.000183
0.760494 0.772274 0.093019
0.761532 0.767208 0.140749
0.762356 0.761685 0.174228
0.761196 0.754177 0.204288
0.756893 0.743435 0.232364
0.751980 0.731960 0.257786
0.746487 0.719783 0.281010
0.740352 0.706996 0.302617
0.733547 0.693568 0.322759
0.725948 0.679713 0.341588
0.717617 0.665309 0.359289
0.708400 0.650629 0.376013
0.698299 0.635767 0.391577
0.687190 0.620722 0.406317
0.675074 0.605707 0.419989
0.672541 0.601740 0.439765
0.680690 0.608515 0.462959
0.722499 0.630152 0.469429
0.767330 0.652888 0.478798
0.719142 0.805600 0.013062
0.719295 0.805631 0.012879
0.720027 0.805600 0.012268
0.721462 0.805600 0.013184
0.723781 0.805631 0.012024
0.727016 0.805631 0.011170
0.731289 0.805661 0.011322
0.736629 0.805661 0.011749
0.743099 0.805661 0.013275
0.750729 0.805692 0.012329
0.759579 0.805661 0.012451
0.769650 0.805692 0.012177
0.780850 0.805722 0.012482
0.791836 0.805234 0.036194
0.793393 0.800900 0.126619
0.794736 0.796201 0.166079
0.795834 0.791012 0.197940
0.793393 0.782528 0.227939
0.789212 0.772274 0.255772
0.784573 0.761440 0.281010
0.779324 0.750027 0.304417
0.773587 0.738033 0.326482
0.767147 0.725582 0.347204
0.760067 0.712734 0.366918
0.752010 0.699306 0.385260
0.742947 0.685359 0.402625
0.732906 0.671199 0.419074
0.722042 0.656977 0.434577
0.710140 0.642878 0.449195
0.707912 0.639734 0.470741
0.716457 0.649653 0.501854
0.759365 0.674250 0.516197
0.748135 0.836515 0.027802
0.748257 0.836515 0.027619
0.748928 0.836545 0.029114
0.750362 0.836545 0.028717
0.752590 0.836545 0.028687
0.755764 0.836545 0.028962
0.759915 0.836606 0.028779
0.765164 0.836637 0.028840
0.771511 0.836637 0.030182
0.779019 0.836667 0.030976
0.787686 0.836698 0.031708
0.797543 0.836759 0.030762
0.808652 0.836790 0.031800
0.820951 0.836820 0.032410
