20 Preset/Nude style/【3】LUT video cho PR-AE-FCPX/Tone  (9).cube
# Created by Adobe Lightroom plugin Export LUT (1.24.0)
# www.johnrellis.com/lightroom/exportlut.htm
# Preset: 奶油裸色-素材江湖10
# Color profile: C:\Program Files (x86)\Common Files\Adobe\Color\Profiles\Recommended\VideoHD.icc
LUT_3D_SIZE 8
DOMAIN_MIN 0.000000 0.000000 0.000000
DOMAIN_MAX 0.903226 0.903226 0.903226
0.159274 0.130373 0.133333
0.204654 0.129519 0.133547
0.300481 0.132052 0.130831
0.411231 0.140383 0.127901
0.510521 0.159701 0.126009
0.596887 0.183902 0.122164
0.678035 0.210147 0.114778
0.744411 0.231754 0.104799
0.186374 0.170413 0.133272
0.209812 0.167514 0.137850
0.299931 0.159548 0.132601
0.406867 0.166201 0.130556
0.505425 0.180392 0.128267
0.592004 0.199496 0.123201
0.668208 0.219852 0.115999
0.737057 0.239506 0.104799
0.258610 0.265324 0.140841
0.291661 0.272465 0.133059
0.321813 0.261509 0.153231
0.415503 0.260166 0.145022
0.522820 0.252811 0.128542
0.609308 0.262455 0.121767
0.685664 0.274296 0.114290
0.749203 0.283879 0.104616
0.339269 0.388922 0.132570
0.360784 0.394690 0.124239
0.424689 0.409979 0.110506
0.457740 0.402930 0.172549
0.523461 0.397009 0.197940
0.632929 0.374243 0.121492
0.698787 0.355200 0.116091
0.755825 0.350958 0.108156
0.400427 0.502342 0.133730
0.414405 0.506432 0.126619
0.473274 0.525414 0.083284
0.521935 0.532036 0.132540
0.547448 0.517632 0.220005
0.579156 0.500908 0.285008
0.680110 0.478004 0.198917
0.759213 0.438270 0.125643
0.444190 0.593805 0.164645
0.455634 0.600031 0.163729
0.496193 0.611444 0.146700
0.563561 0.627436 0.124422
0.592187 0.623072 0.211582
0.615503 0.611261 0.295659
0.631250 0.598962 0.390997
0.726345 0.582086 0.317906
0.481361 0.672572 0.217807
0.489021 0.675074 0.217075
0.518334 0.681788 0.208347
0.576257 0.695399 0.187991
0.624659 0.700282 0.217258
0.653193 0.697841 0.297398
0.672786 0.687800 0.380407
0.683864 0.676722 0.469581
0.525658 0.758785 0.282109
0.530968 0.759762 0.280705
0.554803 0.764553 0.274815
0.602045 0.773953 0.261234
0.668513 0.778683 0.207980
0.697414 0.778775 0.303685
0.727565 0.778897 0.395178
0.742489 0.768276 0.481300
0.157717 0.144167 0.166445
0.197543 0.127840 0.173220
0.292271 0.132387 0.164736
0.393988 0.156527 0.165255
0.496712 0.168002 0.158206
0.583764 0.186923 0.150729
0.659144 0.208164 0.142367
0.728511 0.228489 0.131044
0.183719 0.163455 0.164645
0.205936 0.171695 0.171023
0.290288 0.172274 0.169558
0.397467 0.177005 0.165286
0.498177 0.186648 0.158206
0.584100 0.202304 0.150790
0.656123 0.219150 0.142245
0.724422 0.236912 0.130373
0.238773 0.256718 0.176364
0.267826 0.263340 0.172152
0.316991 0.261753 0.181552
0.411719 0.259007 0.171603
0.513024 0.252323 0.157534
0.595636 0.259617 0.150057
0.666896 0.268315 0.142000
0.734066 0.278813 0.131014
0.319524 0.374456 0.170687
0.339727 0.380072 0.166049
0.413153 0.399542 0.151766
0.441413 0.387884 0.197635
0.504417 0.380072 0.213107
0.611536 0.358923 0.153658
0.679316 0.345525 0.143923
0.740414 0.343969 0.133425
0.388556 0.493507 0.172519
0.401709 0.496864 0.168276
0.459297 0.514336 0.145754
0.512139 0.521477 0.167788
0.535943 0.505669 0.236240
0.569299 0.490913 0.291356
0.671595 0.470649 0.211917
0.749844 0.431983 0.150423
0.434638 0.584833 0.191836
0.444434 0.588037 0.189731
0.484749 0.600336 0.178195
0.556695 0.619928 0.157870
0.585840 0.616663 0.229099
0.610285 0.606958 0.307408
0.626307 0.595331 0.396735
0.721096 0.577356 0.322545
0.473579 0.664820 0.232090
0.480049 0.665766 0.229709
0.509148 0.672511 0.222416
0.566888 0.687037 0.207828
0.619379 0.695125 0.231937
0.647822 0.692744 0.305150
0.666743 0.681788 0.382086
0.677729 0.670222 0.466957
0.518242 0.752224 0.288365
0.524254 0.754208 0.288914
0.547845 0.758938 0.283604
0.595209 0.768826 0.272282
0.667445 0.781308 0.244205
0.697047 0.779751 0.320623
0.725521 0.777981 0.403540
0.740414 0.767422 0.486610
0.152865 0.169039 0.232547
0.160464 0.153811 0.242802
0.288243 0.136751 0.266392
0.419318 0.122042 0.278111
0.513024 0.112551 0.229404
0.581598 0.204837 0.227024
0.657435 0.225345 0.218540
0.727504 0.241337 0.205936
0.189517 0.200259 0.230259
0.196353 0.193759 0.239109
0.289891 0.173617 0.263798
0.412848 0.163638 0.264164
0.502159 0.175631 0.227970
0.580407 0.220462 0.228214
0.654597 0.235080 0.217472
0.724544 0.249210 0.204898
0.233097 0.233677 0.231510
0.247166 0.240238 0.238895
0.311376 0.275547 0.263188
0.410285 0.268162 0.253758
0.509392 0.270848 0.244358
0.592035 0.275975 0.234195
0.663020 0.282414 0.222477
0.729641 0.289281 0.209384
0.269474 0.359442 0.258061
0.295171 0.368139 0.267460
0.373175 0.394507 0.263737
0.437934 0.400244 0.286320
0.511559 0.393133 0.286290
0.609094 0.365209 0.246494
0.676020 0.360021 0.234043
0.737362 0.356146 0.220035
0.352483 0.478157 0.271641
0.365667 0.482704 0.271000
0.421637 0.502373 0.266880
0.504417 0.526268 0.271153
0.531762 0.514824 0.317662
0.569940 0.501579 0.349218
0.670375 0.475593 0.280827
0.744961 0.439307 0.238468
0.408972 0.573388 0.280034
0.418677 0.577173 0.279698
0.458106 0.590265 0.277806
0.534295 0.613184 0.272343
0.576623 0.615412 0.307652
0.601617 0.607691 0.367071
0.619745 0.600000 0.440558
0.718257 0.581445 0.367773
0.455756 0.659358 0.305425
0.462226 0.660578 0.304417
0.490669 0.667140 0.301946
0.547387 0.681727 0.298314
0.612818 0.695064 0.307866
0.641596 0.693538 0.364813
0.662013 0.685664 0.430945
0.674952 0.678218 0.507134
0.502953 0.747677 0.344671
0.508202 0.748409 0.343206
0.531518 0.753414 0.341405
0.579492 0.765103 0.339727
0.651301 0.778500 0.327581
0.692653 0.780880 0.374884
0.721553 0.779660 0.445533
0.737057 0.769955 0.517815
0.106203 0.200443 0.314885
0.114504 0.191836 0.324712
0.224979 0.164858 0.358831
0.397711 0.134676 0.393774
0.530571 0.122530 0.412451
0.613123 0.139010 0.370947
0.671748 0.150118 0.309453
0.715755 0.239933 0.292912
0.155489 0.228794 0.316777
0.161624 0.222446 0.324834
0.229831 0.194583 0.358007
0.399817 0.174777 0.394171
0.530816 0.171023 0.411994
0.609247 0.176883 0.364202
0.667628 0.179019 0.303349
0.709041 0.268894 0.298894
0.219760 0.277348 0.301335
0.232792 0.282017 0.307530
0.280827 0.291630 0.345739
0.401343 0.280369 0.389349
0.520409 0.281895 0.391455
0.596307 0.272435 0.339635
0.648341 0.316075 0.330877
0.716304 0.316838 0.312596
0.281193 0.316197 0.311406
0.291356 0.321294 0.317205
0.332830 0.345006 0.343847
0.420264 0.413306 0.394995
0.506767 0.398108 0.379004
0.584222 0.390509 0.361639
0.655085 0.384161 0.343664
0.720882 0.377295 0.323552
0.284977 0.437385 0.336309
0.293004 0.444770 0.339269
0.359228 0.474250 0.375036
0.458503 0.518853 0.394415
0.519707 0.527794 0.422797
0.570611 0.516350 0.428504
0.664820 0.481209 0.374456
0.730404 0.459785 0.347234
0.368505 0.553552 0.380377
0.378149 0.559960 0.384009
0.413611 0.574670 0.388128
0.486305 0.602075 0.397620
0.564355 0.621973 0.417090
0.589471 0.615137 0.457221
0.615564 0.608911 0.498390
0.715114 0.586572 0.431861
0.418647 0.644038 0.390814
0.425849 0.646509 0.392401
0.454994 0.655787 0.397070
0.511559 0.673396 0.405463
0.597223 0.697627 0.414557
0.631586 0.697719 0.452461
0.652186 0.690822 0.501213
0.667781 0.687922 0.562951
0.472999 0.740383 0.423041
0.478584 0.741634 0.423255
0.502220 0.747311 0.424872
0.549218 0.758602 0.428138
0.620386 0.773709 0.429999
0.683772 0.782528 0.451575
0.713375 0.781704 0.507469
0.731289 0.774289 0.566064
0.000000 0.235203 0.395941
0.000000 0.230014 0.403876
0.055756 0.195346 0.433295
0.323156 0.176852 0.486976
0.493446 0.153994 0.522332
0.617792 0.166690 0.537377
0.690059 0.207584 0.509728
0.742550 0.211521 0.447852
0.053132 0.256474 0.396521
0.076081 0.252506 0.404242
0.128969 0.223789 0.433082
0.324102 0.205356 0.484962
0.493782 0.192142 0.522240
0.615686 0.204562 0.536126
0.686610 0.232975 0.505211
0.739712 0.230869 0.444373
0.205753 0.313420 0.385962
0.218082 0.316197 0.394781
0.237827 0.308141 0.422126
0.329412 0.290837 0.476295
0.490333 0.294499 0.516472
0.602045 0.303624 0.525719
0.670436 0.305058 0.485267
0.726680 0.286992 0.426307
0.251286 0.347417 0.369848
0.260929 0.351659 0.374914
0.300114 0.370825 0.397589
0.374090 0.409155 0.458900
0.487556 0.418402 0.514458
0.580957 0.416083 0.505364
0.646845 0.390600 0.451270
0.696620 0.392340 0.418555
0.314946 0.379614 0.374151
0.321813 0.384100 0.379126
0.350713 0.403265 0.400275
0.403479 0.444465 0.445075
0.491951 0.529686 0.513268
0.563439 0.509728 0.494087
0.633600 0.491585 0.468055
0.701747 0.472908 0.439399
0.308904 0.474952 0.395361
0.314244 0.480903 0.399542
0.336858 0.505119 0.415320
0.407538 0.551232 0.462745
0.510826 0.601556 0.498848
0.568017 0.615015 0.534234
0.610285 0.609766 0.546441
0.710231 0.576562 0.485939
0.336950 0.602472 0.428351
0.347356 0.605402 0.433387
0.389624 0.618921 0.457069
0.447791 0.642512 0.476814
0.533288 0.674434 0.501122
0.611994 0.695705 0.529351
0.635279 0.690852 0.565454
0.660212 0.689845 0.602441
0.408515 0.709926 0.473487
0.414374 0.711604 0.474647
0.440009 0.719142 0.479835
0.491615 0.736690 0.494514
0.566155 0.757504 0.509239
0.664973 0.780606 0.524376
0.698299 0.780087 0.565545
0.719234 0.773526 0.608576
0.000000 0.271427 0.474311
0.000000 0.268009 0.480415
0.000000 0.246860 0.503075
0.200961 0.219669 0.547387
0.419471 0.204501 0.610163
0.567224 0.207614 0.631617
0.682582 0.233066 0.641321
0.750729 0.287633 0.628290
0.000000 0.284520 0.469154
0.000000 0.281437 0.474434
0.000000 0.264042 0.497139
0.207523 0.236393 0.541588
0.416571 0.227787 0.603021
0.563653 0.232090 0.626276
0.677546 0.254429 0.636408
0.746181 0.302464 0.625086
0.146792 0.335088 0.463386
0.151736 0.334081 0.468727
0.175448 0.327153 0.491890
0.233219 0.298405 0.535088
0.416419 0.309483 0.596063
0.560754 0.321477 0.623774
0.667903 0.338384 0.632227
0.736080 0.365332 0.620172
0.223819 0.371466 0.426856
0.232944 0.375586 0.433936
0.272404 0.394141 0.465492
0.323186 0.409277 0.520806
0.419928 0.416480 0.588403
0.557580 0.439216 0.624933
0.651301 0.450202 0.630304
0.718807 0.441505 0.602564
0.269108 0.400122 0.420325
0.276036 0.403723 0.424353
0.303777 0.419348 0.442115
0.356786 0.452094 0.479347
0.440711 0.510765 0.555138
0.544366 0.535149 0.614496
0.623865 0.528801 0.605951
0.692927 0.489723 0.554101
0.326635 0.421790 0.415503
0.331792 0.425940 0.419898
0.351965 0.440345 0.435706
0.390845 0.470008 0.468299
0.449165 0.523888 0.526238
0.545495 0.621668 0.614405
0.609766 0.602533 0.595880
0.683680 0.578546 0.563226
0.297002 0.500359 0.428138
0.300786 0.505882 0.432258
0.317815 0.526970 0.448219
0.355932 0.569726 0.480781
0.445716 0.628931 0.546441
0.564355 0.685786 0.604639
0.620874 0.697871 0.633692
0.667201 0.693965 0.639521
0.239353 0.657374 0.454780
0.252750 0.659144 0.458564
0.303624 0.668788 0.477607
0.389014 0.690822 0.520073
0.483558 0.723384 0.564324
0.589593 0.760037 0.595850
0.680568 0.780819 0.625971
0.706905 0.775845 0.659510
0.000000 0.308324 0.552178
0.000000 0.306035 0.557153
0.000000 0.291783 0.574578
0.000000 0.250980 0.609247
0.302800 0.247532 0.651881
0.494087 0.240787 0.699641
0.619135 0.258549 0.709010
0.732540 0.282322 0.720546
0.000000 0.317174 0.546563
0.000000 0.315343 0.551629
0.000000 0.302647 0.569360
0.000000 0.263676 0.603449
0.303227 0.260777 0.646815
0.491432 0.258030 0.694545
0.615534 0.273503 0.704036
0.727016 0.293584 0.714870
0.000000 0.354650 0.537530
0.000000 0.353521 0.541772
0.000000 0.346532 0.559258
0.113405 0.324071 0.594202
0.310246 0.315038 0.639826
0.489479 0.329534 0.689448
0.613550 0.347021 0.703517
0.721553 0.364141 0.714900
0.169406 0.400183 0.510948
0.180758 0.402441 0.516289
0.206363 0.406104 0.536553
0.244236 0.403937 0.574487
0.322179 0.390600 0.627314
0.486427 0.424872 0.681514
0.609033 0.446509 0.702388
0.708705 0.456214 0.712062
0.201755 0.403449 0.452277
0.208194 0.405463 0.454810
0.234043 0.414832 0.467140
0.291234 0.448005 0.519829
0.367224 0.480507 0.594110
0.474922 0.505058 0.662318
0.598962 0.536217 0.695949
0.692500 0.544488 0.708217
0.243748 0.429755 0.448432
0.248356 0.432288 0.451392
0.268772 0.443030 0.463905
0.308782 0.465919 0.490700
0.373510 0.506279 0.537255
0.482948 0.584192 0.631525
0.593194 0.622705 0.696986
0.678431 0.615961 0.696742
0.295872 0.438605 0.428779
0.299382 0.441230 0.431617
0.315129 0.451972 0.443214
0.347601 0.475257 0.468635
0.400977 0.515923 0.513481
0.479103 0.580468 0.585657
0.597681 0.700435 0.697444
0.669001 0.674891 0.671748
0.230777 0.523613 0.447913
0.233463 0.527733 0.450996
0.246555 0.546319 0.465003
0.278813 0.581628 0.491737
0.347662 0.632502 0.534997
0.463691 0.698665 0.608637
0.624262 0.769894 0.684627
0.692378 0.781094 0.720546
0.000000 0.362615 0.651698
0.000000 0.360296 0.654627
0.000000 0.347417 0.663966
0.000000 0.316503 0.684108
0.149264 0.290959 0.712276
0.391150 0.286168 0.746944
0.565454 0.278019 0.787198
0.677272 0.299260 0.789242
0.000000 0.368566 0.646998
0.000000 0.366522 0.650111
0.000000 0.355169 0.660212
0.000000 0.326116 0.680446
0.153262 0.299260 0.709102
0.390661 0.297459 0.744106
0.563592 0.292668 0.784482
0.675074 0.311192 0.786679
0.000000 0.395911 0.636500
0.000000 0.394354 0.639338
0.000000 0.385901 0.649989
0.000000 0.366430 0.672663
0.170748 0.335546 0.702602
0.391516 0.342687 0.738338
0.560540 0.352636 0.780179
0.672297 0.367163 0.784573
0.000000 0.435401 0.613611
0.000000 0.435248 0.617060
0.000000 0.432166 0.629664
0.080995 0.423346 0.654292
0.217350 0.399664 0.688502
0.391150 0.409064 0.728847
0.555535 0.436927 0.774044
0.668452 0.450385 0.783078
0.000000 0.450904 0.558099
0.000000 0.453101 0.562860
0.020508 0.460304 0.580743
0.198306 0.474769 0.616846
0.273381 0.473274 0.659449
0.379583 0.469856 0.709621
0.543755 0.515526 0.762539
0.663020 0.536095 0.780789
0.000000 0.452247 0.506584
0.000000 0.452735 0.507622
0.055726 0.456123 0.513542
0.155367 0.465400 0.528618
0.256718 0.500633 0.588098
0.390875 0.544213 0.672450
0.527184 0.588281 0.748074
0.661677 0.620508 0.783810
0.055360 0.476753 0.496590
0.082460 0.477790 0.497932
0.125277 0.482673 0.504356
0.180606 0.494667 0.519799
0.252476 0.517021 0.548150
0.350439 0.556909 0.597009
0.510307 0.643885 0.703365
0.658259 0.698726 0.783322
0.194583 0.480568 0.463905
0.198367 0.481575 0.465095
0.213657 0.487221 0.471168
0.244785 0.500511 0.485542
0.295384 0.524102 0.511528
0.373236 0.565057 0.557641
0.494270 0.633265 0.637842
0.668238 0.784573 0.787045
