20 Preset/Nude style/【3】LUT video cho PR-AE-FCPX/Tone  (9).cube
# Created by Adobe Lightroom plugin Export LUT (1.24.0)
# www.johnrellis.com/lightroom/exportlut.htm
# Preset: 奶油裸色-素材江湖10
# Color profile: C:\Program Files (x86)\Common Files\Adobe\Color\Profiles\Recommended\VideoHD.icc
LUT_3D_SIZE 5
DOMAIN_MIN 0.000000 0.000000 0.000000
DOMAIN_MAX 0.903226 0.903226 0.903226
0.159274 0.130373 0.133333
0.274052 0.131411 0.132204
0.463325 0.148409 0.126131
0.620111 0.191409 0.120455
0.744411 0.231754 0.104799
0.239048 0.238743 0.140230
0.291020 0.234104 0.150515
0.472541 0.227756 0.131502
0.627527 0.247990 0.120485
0.749905 0.271580 0.104707
0.373846 0.450965 0.130434
0.437629 0.467720 0.091585
0.508202 0.465675 0.194064
0.634394 0.435584 0.175235
0.756893 0.389715 0.113191
0.455818 0.618280 0.180575
0.489479 0.627497 0.169497
0.586389 0.646326 0.175235
0.629511 0.630762 0.317327
0.711849 0.612207 0.370336
0.525658 0.758785 0.282109
0.546685 0.762905 0.276677
0.628870 0.771969 0.229374
0.705104 0.778927 0.327214
0.742489 0.768276 0.481300
0.157321 0.161379 0.212741
0.261204 0.135958 0.237583
0.459907 0.117372 0.210239
0.600000 0.203403 0.201755
0.725338 0.234714 0.182345
0.220645 0.213809 0.212497
0.282322 0.244755 0.234928
0.457099 0.240391 0.220554
0.607813 0.253941 0.204685
0.729854 0.272282 0.184878
0.328008 0.425788 0.241855
0.388983 0.444862 0.234043
0.488136 0.453956 0.272770
0.620752 0.427527 0.245151
0.745998 0.394690 0.205142
0.433326 0.607691 0.268956
0.466896 0.618158 0.267155
0.578271 0.644892 0.269596
0.621271 0.630610 0.370733
0.707118 0.613489 0.403723
0.511131 0.753719 0.335607
0.532219 0.757870 0.332647
0.619379 0.775082 0.318639
0.703426 0.782650 0.381964
0.741268 0.773068 0.515526
0.009064 0.217746 0.356420
0.111147 0.183505 0.386725
0.447944 0.139315 0.459052
0.639216 0.166629 0.458137
0.736172 0.175814 0.349615
0.202823 0.287541 0.350805
0.227604 0.279423 0.379004
0.449134 0.256535 0.456947
0.623499 0.264286 0.435584
0.722805 0.265293 0.345434
0.299474 0.349584 0.344335
0.330785 0.368231 0.365118
0.459083 0.474128 0.455695
0.591943 0.447272 0.422919
0.712001 0.425635 0.382666
0.340856 0.554009 0.400732
0.384100 0.570062 0.424994
0.504692 0.620935 0.451820
0.595026 0.634485 0.506737
0.697139 0.613581 0.488991
0.443488 0.725521 0.447608
0.466072 0.732204 0.452003
0.555779 0.756252 0.465339
0.682368 0.779995 0.495949
0.723903 0.771908 0.583703
0.000000 0.278386 0.489082
0.000000 0.263859 0.509514
0.285344 0.222416 0.586023
0.579217 0.217716 0.649348
0.744503 0.282048 0.648890
0.000000 0.323217 0.480842
0.086915 0.315770 0.500267
0.294255 0.284489 0.576410
0.573907 0.299657 0.643030
0.734249 0.343877 0.644770
0.232425 0.381537 0.422980
0.259373 0.393072 0.437201
0.363928 0.445686 0.538872
0.559411 0.478523 0.631281
0.703822 0.480995 0.623133
0.324041 0.429389 0.422492
0.340612 0.440864 0.435035
0.409308 0.494026 0.493599
0.557061 0.640497 0.635157
0.676967 0.601038 0.589410
0.227237 0.635676 0.463355
0.254246 0.646326 0.471260
0.397253 0.690700 0.537407
0.598108 0.763424 0.618982
0.703426 0.776791 0.673793
0.000000 0.362615 0.651698
0.000000 0.351781 0.660700
0.000000 0.292149 0.697871
0.435859 0.284825 0.756710
0.677272 0.299260 0.789242
0.000000 0.387762 0.640681
0.000000 0.380041 0.650507
0.000000 0.332403 0.689265
0.435126 0.330510 0.750637
0.673884 0.351690 0.786252
0.000000 0.450568 0.592889
0.000000 0.453498 0.606470
0.203677 0.445716 0.655329
0.427558 0.447242 0.730495
0.665492 0.492042 0.781399
0.000000 0.460151 0.506554
0.030823 0.463355 0.511772
0.198428 0.482460 0.540887
0.420783 0.566827 0.677882
0.661158 0.639979 0.784146
0.194583 0.480568 0.463905
0.208438 0.485237 0.468940
0.267247 0.510826 0.496834
0.399054 0.579522 0.574212
0.668238 0.784573 0.787045
