20 Preset/Nude style/【3】LUT video cho PR-AE-FCPX/Tone  (5).cube
# Created by Adobe Lightroom plugin Export LUT (1.24.0)
# www.johnrellis.com/lightroom/exportlut.htm
# Preset: 奶油裸色-素材江湖06
# Color profile: C:\Program Files (x86)\Common Files\Adobe\Color\Profiles\Recommended\VideoHD.icc
LUT_3D_SIZE 32
DOMAIN_MIN 0.0 0.0 0.0
DOMAIN_MAX 1.0 1.0 1.0
0.000000 0.000000 0.000000
0.016175 0.000397 0.000763
0.060670 0.002014 0.003052
0.105287 0.008118 0.007355
0.139376 0.014710 0.012787
0.177096 0.021088 0.018952
0.214328 0.028382 0.022431
0.249516 0.034791 0.024903
0.282444 0.041596 0.024140
0.313664 0.049073 0.023560
0.343755 0.055756 0.022187
0.372290 0.065400 0.019776
0.400000 0.077150 0.017395
0.426490 0.087861 0.014954
0.452094 0.095430 0.014710
0.476692 0.103182 0.015869
0.500664 0.111391 0.018097
0.524254 0.119875 0.020233
0.547723 0.128298 0.021149
0.576165 0.138979 0.022583
0.607477 0.150668 0.024659
0.636896 0.161776 0.024933
0.664820 0.172244 0.025849
0.692195 0.182254 0.024353
0.718898 0.191867 0.024079
0.745815 0.201572 0.021485
0.773770 0.211246 0.018006
0.803342 0.221042 0.014893
0.834745 0.231235 0.011200
0.868467 0.242069 0.007782
0.904906 0.253330 0.008179
0.943999 0.265171 0.014954
0.012177 0.009796 0.000702
0.011719 0.006409 0.003418
0.055512 0.009216 0.005554
0.104646 0.013886 0.008881
0.138521 0.020722 0.014313
0.175875 0.027558 0.020478
0.212131 0.035004 0.024170
0.246738 0.041505 0.025696
0.279911 0.046357 0.026398
0.311009 0.053529 0.024872
0.340734 0.061555 0.023560
0.369207 0.070893 0.021302
0.396826 0.080171 0.018128
0.423407 0.089204 0.016968
0.448920 0.096590 0.016938
0.473762 0.104250 0.016968
0.497810 0.112154 0.019348
0.521477 0.120363 0.020539
0.544854 0.128939 0.022614
0.572747 0.138979 0.023774
0.602899 0.150149 0.025025
0.631281 0.160464 0.025940
0.658289 0.170565 0.026032
0.684810 0.180453 0.025849
0.711116 0.190036 0.024201
0.737575 0.199191 0.022034
0.765225 0.208621 0.018677
0.794644 0.218418 0.014160
0.826078 0.228702 0.009918
0.859831 0.239322 0.006378
0.896239 0.250614 0.005432
0.935424 0.262638 0.008240
0.056855 0.040436 0.003540
0.065797 0.040528 0.004486
0.052430 0.029267 0.018708
0.099519 0.039857 0.022583
0.137057 0.045808 0.023468
0.173587 0.054749 0.028351
0.210025 0.061433 0.031067
0.244358 0.067628 0.032807
0.277165 0.073610 0.032410
0.308354 0.078706 0.030060
0.338018 0.082826 0.027955
0.366644 0.088167 0.024720
0.394263 0.091859 0.021729
0.420752 0.097261 0.020783
0.446357 0.103304 0.019898
0.471199 0.110140 0.021241
0.495369 0.117586 0.022492
0.518975 0.125460 0.024842
0.542443 0.133150 0.026093
0.570825 0.142763 0.028199
0.600275 0.153201 0.028077
0.628138 0.163363 0.030549
0.654658 0.172885 0.030396
0.680995 0.182101 0.029908
0.706874 0.191379 0.027863
0.733089 0.200229 0.026398
0.760586 0.209598 0.023438
0.789822 0.219211 0.018341
0.821256 0.229435 0.012177
0.855009 0.239963 0.009033
0.891417 0.251133 0.006348
0.930388 0.262852 0.009094
0.104402 0.090791 0.008301
0.107546 0.091188 0.007965
0.110780 0.088075 0.020172
0.101961 0.075013 0.050385
0.125063 0.086915 0.061097
0.170443 0.091615 0.046967
0.207523 0.094179 0.045167
0.241550 0.096284 0.044800
0.274449 0.098146 0.042298
0.305394 0.099947 0.039033
0.335363 0.101717 0.035920
0.363714 0.104097 0.031922
0.391302 0.107271 0.030091
0.417731 0.111330 0.028321
0.443214 0.116030 0.027802
0.467872 0.121645 0.029480
0.491859 0.127687 0.031281
0.515312 0.134340 0.034119
0.538598 0.141451 0.034455
0.567132 0.150423 0.036561
0.594873 0.159274 0.037446
0.621515 0.168460 0.039277
0.647547 0.177188 0.040192
0.673976 0.185855 0.039094
0.700526 0.195132 0.035401
0.727779 0.204105 0.032868
0.756222 0.213382 0.030121
0.786465 0.223026 0.025086
0.818540 0.233127 0.019318
0.852567 0.243687 0.014557
0.888579 0.254551 0.012634
0.926726 0.265904 0.014771
0.140932 0.124361 0.013611
0.143709 0.123995 0.013581
0.149935 0.123049 0.017975
0.145388 0.114626 0.046601
0.133303 0.103548 0.083619
0.148745 0.108492 0.093294
0.194247 0.114992 0.081300
0.236759 0.116274 0.061555
0.269322 0.118105 0.057984
0.300450 0.119692 0.054749
0.330144 0.121279 0.049592
0.358892 0.122927 0.045747
0.386542 0.125490 0.042969
0.413275 0.128542 0.042512
0.439033 0.132723 0.041840
0.464027 0.137148 0.043671
0.488502 0.142184 0.044282
0.512230 0.147890 0.045991
0.537133 0.154238 0.047639
0.565270 0.162387 0.049989
0.592248 0.170230 0.050477
0.618250 0.178195 0.051087
0.643915 0.186221 0.052552
0.670405 0.194430 0.050324
0.697169 0.202731 0.048219
0.724697 0.211429 0.045350
0.753292 0.220310 0.041474
0.783474 0.229679 0.036500
0.815427 0.239384 0.031128
0.849210 0.249516 0.025788
0.884977 0.260044 0.023316
0.922789 0.271031 0.025055
0.178988 0.158022 0.011353
0.180484 0.158206 0.011017
0.187137 0.157656 0.012757
0.188510 0.152804 0.032105
0.178958 0.139864 0.073060
0.163455 0.126528 0.100679
0.169284 0.128420 0.112306
0.215732 0.136629 0.101320
0.259770 0.139956 0.089174
0.296757 0.141024 0.077882
0.326635 0.142611 0.071443
0.355413 0.144320 0.067506
0.383307 0.146395 0.064729
0.410224 0.149142 0.064118
0.436286 0.152102 0.063752
0.461677 0.156100 0.064118
0.486275 0.160159 0.064912
0.510369 0.164736 0.065583
0.538018 0.171145 0.068147
0.565393 0.178134 0.069917
0.591821 0.185122 0.070802
0.617670 0.192203 0.070466
0.678309 0.213657 0.077058
0.706142 0.221836 0.075929
0.733822 0.229770 0.074434
0.761898 0.237949 0.072541
0.790951 0.246464 0.070436
0.821134 0.255070 0.066926
0.852750 0.264164 0.065339
0.886076 0.273686 0.066041
0.921141 0.283391 0.071260
0.957641 0.293523 0.081086
0.221500 0.197757 0.000336
0.223148 0.197696 0.000122
0.228336 0.197269 0.001892
0.234257 0.194949 0.011078
0.228611 0.184421 0.052247
0.215671 0.168490 0.095949
0.197757 0.153048 0.118593
0.194064 0.151614 0.135592
0.240726 0.161532 0.123201
0.285527 0.166476 0.110506
0.327703 0.168215 0.096773
0.359655 0.169986 0.092042
0.387732 0.171756 0.090455
0.414740 0.174105 0.089693
0.440650 0.176608 0.089479
0.465553 0.179599 0.089326
0.490120 0.182712 0.089235
0.517662 0.187839 0.089448
0.546715 0.194339 0.090333
0.575067 0.200717 0.090822
0.603479 0.207858 0.091188
0.632410 0.215274 0.091463
0.662257 0.223484 0.091615
0.692439 0.231998 0.091157
0.722438 0.240360 0.090394
0.751888 0.248661 0.089479
0.781460 0.256596 0.087831
0.811734 0.264714 0.085969
0.843198 0.273320 0.084718
0.876097 0.282170 0.084779
0.910826 0.291569 0.085847
0.947173 0.301335 0.090547
0.255467 0.229923 0.000000
0.256443 0.229801 0.000000
0.260868 0.229313 0.000000
0.269383 0.228946 0.000000
0.267674 0.221439 0.029572
0.258152 0.207553 0.086549
0.244266 0.191470 0.112642
0.225223 0.175631 0.135286
0.212375 0.170993 0.156924
0.258488 0.182345 0.144594
0.302434 0.188846 0.132052
0.343572 0.192142 0.119692
0.382452 0.193393 0.106447
0.409369 0.195438 0.105196
0.435340 0.197696 0.104372
0.460426 0.199924 0.103304
0.487861 0.204074 0.103334
0.516075 0.208957 0.103609
0.543420 0.213962 0.103578
0.570428 0.219272 0.103731
0.597772 0.225071 0.103517
0.625849 0.231601 0.103365
0.655024 0.238895 0.103120
0.684810 0.246464 0.102724
0.714626 0.254246 0.101839
0.744015 0.261723 0.100984
0.773587 0.269230 0.099702
0.803983 0.276890 0.098024
0.835569 0.285100 0.096651
0.868467 0.293645 0.096712
0.903227 0.302586 0.097444
0.939605 0.312291 0.100710
0.287846 0.261265 0.000000
0.288914 0.261326 0.000000
0.292210 0.260990 0.000000
0.299260 0.260594 0.000000
0.302190 0.256260 0.011139
0.296910 0.245670 0.069184
0.286137 0.230655 0.106203
0.271427 0.214084 0.130892
0.252598 0.198428 0.152773
0.234165 0.191043 0.175998
0.275914 0.202823 0.166171
0.318639 0.210697 0.154482
0.359228 0.215213 0.142458
0.397528 0.217655 0.130098
0.431220 0.219028 0.120241
0.460090 0.223148 0.119966
0.487648 0.227146 0.119265
0.514366 0.230991 0.118715
0.540551 0.234928 0.117861
0.566888 0.239292 0.117678
0.593561 0.244266 0.117128
0.621027 0.249973 0.116640
0.649714 0.256382 0.116091
0.679133 0.263371 0.115541
0.708736 0.270481 0.114382
0.738033 0.277440 0.113405
0.767636 0.284520 0.111971
0.798154 0.291875 0.110506
0.829801 0.299596 0.109377
0.862852 0.307774 0.109102
0.897490 0.316442 0.109682
0.933898 0.325628 0.112520
0.319097 0.293004 0.000000
0.319921 0.292821 0.000000
0.322423 0.292485 0.000000
0.328374 0.291966 0.000000
0.334874 0.290227 0.000000
0.331701 0.281895 0.047700
0.323705 0.268681 0.099153
0.312200 0.252934 0.125521
0.296910 0.236088 0.149081
0.277897 0.220340 0.170138
0.258946 0.211460 0.192081
0.291386 0.221744 0.187228
0.333562 0.231174 0.176211
0.375433 0.238590 0.165927
0.415717 0.243595 0.154696
0.454292 0.246799 0.142611
0.485756 0.249699 0.136019
0.512108 0.253147 0.134859
0.538170 0.256626 0.133700
0.564172 0.260563 0.132845
0.590173 0.264714 0.131624
0.616449 0.269413 0.130831
0.643671 0.274723 0.129610
0.671687 0.280552 0.128420
0.699977 0.286503 0.126680
0.728542 0.292729 0.125429
0.757931 0.299290 0.123842
0.788663 0.306279 0.122286
0.820859 0.313909 0.121126
0.854520 0.322118 0.120790
0.889921 0.330907 0.121981
0.927184 0.340215 0.124483
0.347784 0.323217 0.000000
0.348241 0.323156 0.000000
0.350774 0.323033 0.000000
0.355810 0.322698 0.000000
0.363470 0.322240 0.000000
0.363592 0.316442 0.024353
0.359136 0.306401 0.090150
0.349645 0.291691 0.119814
0.337407 0.275334 0.145083
0.321996 0.258579 0.167544
0.304173 0.243839 0.188937
0.285863 0.235203 0.210819
0.310735 0.244480 0.211612
0.353094 0.255283 0.200992
0.393561 0.262974 0.189975
0.432593 0.268528 0.178683
0.470405 0.272282 0.166476
0.507164 0.274846 0.153323
0.534417 0.277836 0.149783
0.559930 0.281254 0.148135
0.585504 0.284886 0.146578
0.611505 0.289006 0.145174
0.638514 0.293980 0.143679
0.666346 0.299229 0.142092
0.694636 0.304875 0.140322
0.723201 0.310765 0.138735
0.752773 0.317021 0.137087
0.783597 0.323857 0.135622
0.815915 0.331304 0.134463
0.849790 0.339239 0.134279
0.885374 0.347875 0.135592
0.922789 0.357122 0.137972
0.377478 0.356176 0.000000
0.378149 0.356176 0.000000
0.380285 0.356023 0.000000
0.384497 0.355871 0.000000
0.391302 0.355627 0.000000
0.396277 0.353063 0.001343
0.394690 0.345983 0.073152
0.388952 0.334447 0.113619
0.379858 0.319829 0.142214
0.367834 0.303868 0.167239
0.352392 0.287114 0.190005
0.333379 0.270848 0.210361
0.325750 0.271916 0.241978
0.341863 0.278721 0.246189
0.384680 0.290715 0.235203
0.425971 0.299657 0.223484
0.465766 0.305974 0.211429
0.504509 0.310674 0.198459
0.542351 0.314305 0.184970
0.578363 0.317205 0.171725
0.604517 0.320623 0.169467
0.631006 0.324468 0.167300
0.658076 0.328527 0.165072
0.685481 0.333165 0.163241
0.713252 0.337865 0.161227
0.741482 0.342901 0.159243
0.770382 0.348150 0.157351
0.800198 0.353918 0.155642
0.831174 0.360266 0.154910
0.863890 0.367132 0.154940
0.898222 0.374823 0.156344
0.934813 0.383215 0.159670
0.421759 0.407965 0.000000
0.421912 0.407843 0.000000
0.423682 0.407385 0.000000
0.427619 0.407050 0.000000
0.433417 0.406470 0.000000
0.441718 0.405921 0.000000
0.439429 0.397864 0.050904
0.435462 0.387701 0.108766
0.426886 0.372564 0.141268
0.416175 0.356023 0.168917
0.403296 0.338842 0.193790
0.387488 0.321447 0.216434
0.367956 0.304509 0.237125
0.346197 0.291142 0.256748
0.353887 0.295232 0.265293
0.395911 0.308171 0.254612
0.436225 0.317815 0.243259
0.475349 0.324956 0.231174
0.513512 0.330510 0.218753
0.550835 0.334905 0.205875
0.588128 0.338384 0.191836
0.621057 0.342016 0.181979
0.648005 0.346014 0.179538
0.675380 0.350378 0.176974
0.703273 0.355077 0.174777
0.731624 0.360113 0.172824
0.760983 0.365606 0.170687
0.791470 0.371435 0.169162
0.823178 0.377905 0.168215
0.856535 0.385077 0.168429
0.891569 0.392859 0.169741
0.928527 0.401526 0.173373
0.453620 0.447486 0.000000
0.453803 0.447181 0.000000
0.455055 0.446601 0.000000
0.458015 0.445624 0.000000
0.462867 0.444465 0.000000
0.469703 0.443366 0.000000
0.471962 0.438056 0.014740
0.468330 0.428077 0.096712
0.462043 0.414954 0.132662
0.452461 0.398779 0.162722
0.441199 0.381476 0.189242
0.427497 0.363500 0.213535
0.410773 0.345098 0.235355
0.390448 0.327062 0.254673
0.367041 0.311467 0.272374
0.365606 0.311498 0.283970
0.406409 0.324743 0.273136
0.445716 0.334905 0.261906
0.484413 0.343053 0.250217
0.522240 0.349523 0.238315
0.559869 0.354955 0.225834
0.598016 0.359930 0.212619
0.636713 0.364599 0.198276
0.667720 0.369055 0.191928
0.695796 0.373816 0.189425
0.724483 0.378912 0.187045
0.754116 0.384344 0.185061
0.784878 0.390417 0.183322
0.816983 0.396918 0.182589
0.850706 0.404242 0.182834
0.886137 0.412299 0.184604
0.923705 0.421149 0.188083
0.483131 0.485420 0.000000
0.483375 0.485237 0.000000
0.484504 0.484504 0.000000
0.486824 0.483314 0.000000
0.490974 0.481880 0.000000
0.496803 0.480262 0.000000
0.503410 0.478065 0.000000
0.499916 0.468330 0.075715
0.495705 0.457313 0.121126
0.487251 0.441810 0.155123
0.477272 0.424842 0.183902
0.465248 0.406714 0.209598
0.450721 0.387884 0.232609
0.432990 0.368292 0.253269
0.411566 0.348730 0.271305
0.386633 0.330938 0.287297
0.376654 0.326970 0.301701
0.416449 0.340703 0.291081
0.455451 0.351720 0.280186
0.493812 0.360723 0.268925
0.531914 0.368383 0.257389
0.570428 0.375372 0.245457
0.609796 0.381872 0.232792
0.649500 0.387793 0.219364
0.689052 0.392767 0.204379
0.717952 0.397986 0.201968
0.748013 0.403784 0.199924
0.779568 0.410285 0.198550
0.812680 0.417395 0.197971
0.847654 0.425422 0.198703
0.884581 0.434272 0.201328
0.923583 0.443946 0.205936
0.510460 0.521233 0.000000
0.510887 0.521324 0.000000
0.512139 0.520989 0.000000
0.514641 0.520409 0.000000
0.518791 0.519585 0.000000
0.524773 0.518730 0.000000
0.532921 0.518456 0.000000
0.533867 0.512108 0.023468
0.530236 0.501884 0.108492
0.524559 0.488991 0.145785
0.514733 0.471687 0.177523
0.503136 0.452796 0.204959
0.489235 0.432593 0.229343
0.472602 0.411475 0.250919
0.453193 0.389868 0.269780
0.430518 0.368658 0.286442
0.404334 0.348913 0.300908
0.386206 0.341009 0.318181
0.425391 0.355444 0.307927
0.464363 0.367590 0.297551
0.503105 0.377996 0.286961
0.542443 0.387457 0.276249
0.582422 0.396338 0.265080
0.623499 0.404700 0.253178
0.664607 0.412116 0.240482
0.705837 0.418647 0.226749
0.744289 0.424750 0.216159
0.776455 0.431647 0.214694
0.810056 0.439033 0.214389
0.845090 0.447211 0.215427
0.881987 0.456092 0.218051
0.920592 0.465705 0.222995
0.536767 0.556237 0.000000
0.537163 0.556176 0.000000
0.538262 0.555962 0.000000
0.540734 0.555596 0.000000
0.544671 0.555047 0.000000
0.550347 0.554620 0.000000
0.557946 0.554223 0.000000
0.564141 0.551843 0.000000
0.561059 0.542229 0.087617
0.556725 0.531029 0.131899
0.548638 0.515343 0.167208
0.537926 0.496864 0.197299
0.525139 0.476905 0.223636
0.510155 0.455512 0.246921
0.492622 0.433295 0.267552
0.472267 0.410712 0.285588
0.449104 0.388739 0.301427
0.422827 0.368017 0.315099
0.403174 0.358556 0.332250
0.435340 0.371069 0.325414
0.474434 0.384527 0.315801
0.514366 0.396582 0.305882
0.554803 0.407843 0.295811
0.596643 0.418616 0.285252
0.639155 0.428626 0.274083
0.681819 0.437659 0.262547
0.725216 0.445991 0.250217
0.769467 0.453559 0.236759
0.807645 0.461250 0.231693
0.843351 0.469917 0.233066
0.880797 0.479255 0.236362
0.919951 0.489296 0.241947
0.563928 0.592370 0.000000
0.564385 0.592584 0.000000
0.580957 0.612696 0.000000
0.583398 0.612451 0.000000
0.587243 0.611902 0.000000
0.592523 0.611261 0.000000
0.599603 0.610590 0.000000
0.608606 0.609979 0.000000
0.608026 0.602380 0.047761
0.604273 0.591730 0.123842
0.598840 0.578973 0.162112
0.588586 0.560632 0.195712
0.576104 0.540002 0.224369
0.561059 0.517235 0.249760
0.543359 0.492897 0.272190
0.523308 0.467811 0.291905
0.500755 0.442481 0.308812
0.475624 0.418036 0.323522
0.448035 0.395148 0.335973
0.426825 0.383398 0.351995
0.451087 0.393164 0.348669
0.491341 0.408057 0.339178
0.532372 0.421729 0.329625
0.574578 0.434699 0.319829
0.617762 0.446632 0.309300
0.660853 0.457496 0.298619
0.704646 0.467384 0.287633
0.749538 0.476783 0.276158
0.795041 0.485359 0.264561
0.841276 0.493111 0.252689
0.879515 0.502586 0.255467
0.918883 0.512932 0.261814
0.594568 0.632776 0.000000
0.596246 0.634577 0.000000
0.598810 0.636408 0.000000
0.602441 0.637842 0.000000
0.606989 0.638727 0.000000
0.612360 0.638788 0.000000
0.619104 0.638300 0.000000
0.627375 0.637720 0.000000
0.632258 0.634089 0.000000
0.629023 0.624353 0.105867
0.624872 0.613336 0.148470
0.617426 0.598505 0.183627
0.606439 0.579492 0.214359
0.593317 0.558618 0.241306
0.578180 0.535943 0.265263
0.560266 0.511620 0.286717
0.539849 0.486336 0.305852
0.517327 0.461280 0.322545
0.492592 0.436957 0.337133
0.465553 0.414191 0.349767
0.444190 0.401770 0.365820
0.461494 0.409400 0.366674
0.502831 0.426123 0.358129
0.545251 0.441749 0.349340
0.589105 0.456489 0.340093
0.633478 0.470100 0.330846
0.678401 0.482734 0.321202
0.724605 0.494789 0.311711
0.771695 0.506065 0.302403
0.819669 0.516533 0.293523
0.868406 0.526085 0.284886
0.915435 0.535271 0.280735
0.617212 0.662226 0.000000
0.618921 0.663996 0.000000
0.621546 0.665888 0.000000
0.624933 0.667414 0.000000
0.629389 0.668391 0.000000
0.634577 0.668544 0.000000
0.640833 0.668208 0.000000
0.648646 0.667567 0.000000
0.658015 0.667079 0.000000
0.656123 0.658930 0.081056
0.652552 0.648920 0.134981
0.647883 0.637446 0.171420
0.638300 0.620386 0.204532
0.626764 0.601221 0.233463
0.613275 0.580194 0.259098
0.597742 0.557610 0.282078
0.579797 0.533379 0.302800
0.559442 0.508293 0.321294
0.536675 0.483040 0.337865
0.511864 0.458503 0.352483
0.484749 0.435279 0.365026
0.463203 0.422095 0.381109
0.473060 0.427222 0.386053
0.515862 0.445777 0.378454
0.559991 0.463447 0.370489
0.605554 0.480140 0.362310
0.651575 0.495705 0.354192
0.698970 0.510552 0.346349
0.747707 0.524895 0.339178
0.797299 0.538293 0.332677
0.847745 0.550683 0.327276
0.898741 0.561883 0.322576
0.640742 0.692042 0.000000
0.642298 0.693568 0.000000
0.644617 0.695186 0.000000
0.647761 0.696498 0.000000
0.651881 0.697322 0.000000
0.656764 0.697475 0.000000
0.662654 0.697200 0.000000
0.669978 0.696651 0.000000
0.678859 0.696193 0.000000
0.683101 0.692226 0.024720
0.680293 0.683467 0.120912
0.676570 0.673457 0.161135
0.670405 0.660548 0.194339
0.660243 0.643183 0.225162
0.648249 0.623926 0.252842
0.634638 0.603204 0.277379
0.619348 0.581292 0.299870
0.601923 0.558160 0.320592
0.582696 0.534569 0.339513
0.560998 0.510552 0.356756
0.536736 0.486610 0.372290
0.509972 0.463722 0.385962
0.488258 0.450050 0.402777
0.491493 0.453254 0.412909
0.537621 0.475441 0.407111
0.585657 0.496681 0.401068
0.634333 0.516533 0.395270
0.684474 0.535546 0.390021
0.735958 0.553735 0.385748
0.788113 0.570733 0.382757
0.840787 0.586389 0.381170
0.893706 0.600519 0.381262
0.672633 0.730953 0.000000
0.673335 0.731563 0.000000
0.674708 0.731960 0.000000
0.676814 0.732113 0.000000
0.679927 0.731930 0.000000
0.684016 0.731441 0.000000
0.689387 0.730800 0.000000
0.696254 0.730190 0.000000
0.704707 0.729641 0.000000
0.714687 0.729244 0.000000
0.712703 0.721859 0.112398
0.709957 0.713252 0.155886
0.706172 0.703243 0.189548
0.698299 0.688899 0.221225
0.687831 0.671778 0.249882
0.675776 0.652949 0.275853
0.661860 0.632471 0.299687
0.646021 0.610651 0.321660
0.628473 0.587793 0.341802
0.608789 0.564050 0.360357
0.586786 0.539879 0.377203
0.562280 0.515587 0.392462
0.534630 0.491402 0.405890
0.511345 0.475959 0.422400
0.506645 0.475837 0.436774
0.555261 0.500664 0.432288
0.605463 0.524407 0.428351
0.656855 0.547204 0.425177
0.710201 0.569238 0.423102
0.763973 0.589776 0.422553
0.818204 0.608789 0.423987
0.872557 0.626246 0.427436
0.696315 0.758877 0.007691
0.696956 0.759365 0.011688
0.698238 0.759731 0.013581
0.700313 0.759884 0.016114
0.703243 0.759762 0.017700
0.707240 0.759396 0.020020
0.712367 0.758877 0.021241
0.718929 0.758358 0.024537
0.726955 0.757900 0.027924
0.736629 0.757504 0.036042
0.740902 0.753933 0.101991
0.738918 0.746578 0.149355
0.736110 0.738125 0.184604
0.731960 0.727993 0.215549
0.722988 0.713039 0.245853
0.712673 0.696620 0.273228
0.700893 0.678706 0.298405
0.687465 0.659358 0.321752
0.672267 0.638758 0.343420
0.654963 0.616907 0.363714
0.635645 0.594141 0.382544
0.614130 0.570886 0.399817
0.589929 0.547234 0.415412
0.562951 0.523613 0.429358
0.534752 0.502190 0.441810
0.522179 0.499062 0.461402
0.573266 0.526787 0.459144
0.625757 0.553460 0.457893
0.680446 0.579461 0.457954
0.736080 0.604028 0.459998
0.792264 0.627253 0.464668
0.848661 0.649042 0.472114
0.725307 0.791501 0.090822
0.726345 0.792233 0.093843
0.727504 0.792538 0.094606
0.729061 0.792325 0.094636
0.731350 0.791623 0.093721
0.734585 0.790646 0.092409
0.738766 0.789395 0.090974
0.744259 0.788144 0.090425
0.751217 0.786862 0.089631
0.759579 0.785794 0.090761
0.769009 0.784482 0.093294
0.767147 0.777584 0.143435
0.764614 0.769772 0.180087
0.761227 0.760861 0.210941
0.754788 0.748898 0.240055
0.745144 0.733700 0.267979
0.734279 0.717220 0.293858
0.722316 0.699763 0.318059
0.709194 0.681361 0.341009
0.694606 0.662104 0.362860
0.678309 0.641932 0.383429
0.659724 0.620569 0.402655
0.638331 0.598108 0.420142
0.614221 0.574792 0.435767
0.587060 0.551080 0.449500
0.562615 0.534051 0.466377
0.545525 0.529656 0.490364
0.594995 0.558190 0.491859
0.650263 0.587671 0.493660
0.707240 0.616236 0.497963
0.764767 0.643519 0.505486
0.822232 0.669337 0.516716
0.747097 0.815091 0.109102
0.748013 0.815793 0.111421
0.749294 0.816220 0.112703
0.751034 0.816220 0.113161
0.753536 0.815976 0.113344
0.757046 0.815518 0.113649
0.761654 0.815030 0.113710
0.767575 0.814481 0.114412
0.774868 0.813993 0.115511
0.783566 0.813535 0.117037
0.793484 0.812985 0.119234
0.798093 0.809659 0.144808
0.796597 0.803281 0.181918
0.794278 0.795834 0.213535
0.791043 0.787289 0.241581
0.783139 0.774502 0.269993
0.773526 0.760006 0.296605
0.763027 0.744594 0.321843
0.751553 0.728359 0.345800
0.739010 0.711452 0.368933
0.724941 0.693599 0.391028
0.709224 0.674891 0.411902
0.691279 0.655177 0.431464
0.670832 0.634272 0.449622
0.647333 0.612573 0.466255
0.620722 0.590143 0.481239
0.596399 0.573907 0.499641
0.581079 0.572595 0.528038
0.625238 0.601556 0.538506
0.684138 0.634943 0.546227
0.743130 0.666407 0.557000
0.801846 0.695888 0.571466
0.773465 0.842313 0.138033
0.774105 0.842649 0.138766
0.775051 0.842771 0.139010
0.776577 0.842679 0.139559
0.778897 0.842344 0.139406
0.782101 0.841886 0.139467
0.786496 0.841337 0.139223
0.792050 0.840726 0.139223
0.798856 0.840146 0.139864
0.807095 0.839597 0.141207
0.816648 0.838956 0.142580
0.827237 0.838315 0.145480
0.826505 0.832975 0.183352
0.825162 0.826810 0.215427
0.822843 0.819577 0.244633
0.818906 0.810819 0.271702
0.810575 0.798184 0.299443
0.801450 0.784726 0.325597
0.791531 0.770626 0.350805
0.780728 0.755917 0.375189
0.768765 0.740475 0.398810
0.755337 0.724178 0.421393
0.740017 0.706996 0.442756
0.722530 0.688777 0.462837
0.702632 0.669581 0.481605
0.680110 0.649714 0.499001
0.654597 0.629297 0.515312
0.630182 0.613977 0.534997
0.616754 0.615747 0.567468
0.654505 0.644434 0.586999
0.715145 0.680385 0.600397
0.775448 0.714076 0.617548
0.798276 0.866728 0.160250
0.798734 0.867002 0.160891
0.799741 0.867155 0.161624
0.801328 0.867185 0.162234
0.803861 0.867216 0.163058
0.807584 0.867277 0.164157
0.812741 0.867674 0.166293
0.819272 0.868162 0.169650
0.827268 0.868864 0.173556
0.836698 0.869657 0.177981
0.847471 0.870451 0.183108
0.859495 0.871092 0.188113
0.866636 0.869657 0.208255
0.867338 0.865660 0.240543
0.867216 0.860777 0.270054
0.865995 0.854795 0.297154
0.861265 0.846006 0.324376
0.853727 0.834958 0.351507
0.845518 0.823362 0.378027
0.836545 0.811246 0.403967
0.826627 0.798642 0.429328
0.815488 0.785397 0.454231
0.802670 0.771389 0.477882
0.788083 0.756680 0.500694
0.771420 0.741115 0.522087
0.752529 0.724941 0.542138
0.731136 0.708278 0.561089
0.707240 0.691432 0.578851
0.684077 0.678950 0.599939
0.673487 0.684749 0.636439
0.703944 0.713069 0.667018
0.765621 0.749813 0.686488
0.833555 0.899138 0.208804
0.833707 0.899138 0.208804
0.834287 0.899046 0.208835
0.835630 0.898802 0.208469
0.837766 0.898528 0.208347
0.840818 0.898192 0.208408
0.845060 0.897887 0.208804
0.850523 0.897581 0.209689
0.857206 0.897368 0.210971
0.865232 0.897154 0.212650
0.874540 0.896910 0.214908
0.885100 0.896666 0.217166
0.896910 0.896300 0.219730
0.898161 0.892760 0.250034
