20 Preset/Nude style/【3】LUT video cho PR-AE-FCPX/Tone  (1).cube
# Created by Adobe Lightroom plugin Export LUT (1.24.0)
# www.johnrellis.com/lightroom/exportlut.htm
# Preset: 奶油裸色-素材江湖02
# Color profile: C:\Program Files (x86)\Common Files\Adobe\Color\Profiles\Recommended\VideoHD.icc
LUT_3D_SIZE 8
DOMAIN_MIN 0.000000 0.000000 0.000000
DOMAIN_MAX 0.903226 0.903226 0.903226
0.000000 0.000000 0.000000
0.144472 0.005524 0.001129
0.275456 0.025513 0.005524
0.390173 0.072572 0.010742
0.490089 0.111025 0.012909
0.578149 0.142824 0.018616
0.661280 0.174197 0.020294
0.755367 0.207340 0.005371
0.143771 0.129122 0.000000
0.150210 0.112154 0.061982
0.270268 0.119875 0.047791
0.386999 0.128664 0.038666
0.488136 0.144869 0.038117
0.576226 0.167208 0.041840
0.659907 0.192111 0.041321
0.754513 0.221561 0.024048
0.278508 0.257755 0.000000
0.300694 0.256931 0.000000
0.280217 0.212222 0.126497
0.368505 0.217990 0.129000
0.479469 0.226535 0.110658
0.568505 0.235752 0.107118
0.654383 0.249851 0.103639
0.750820 0.271489 0.095613
0.394232 0.385901 0.000000
0.406714 0.385687 0.000000
0.422553 0.368750 0.092348
0.391852 0.311315 0.187655
0.440650 0.306065 0.203281
0.550927 0.316899 0.169284
0.643946 0.326665 0.155917
0.743862 0.344182 0.148836
0.490517 0.510033 0.000000
0.498665 0.509972 0.000000
0.529137 0.508476 0.000000
0.517662 0.466407 0.166201
0.481361 0.401862 0.245640
0.498268 0.382513 0.271061
0.612940 0.405219 0.240146
0.734157 0.425391 0.207919
0.577234 0.628931 0.000000
0.583276 0.628901 0.000000
0.608087 0.628840 0.000000
0.626581 0.614343 0.124361
0.605829 0.561608 0.231846
0.565728 0.493202 0.301213
0.561486 0.463203 0.338079
0.694301 0.506371 0.317784
0.666987 0.745266 0.000000
0.671962 0.745266 0.000000
0.692531 0.745266 0.000000
0.730159 0.744411 0.014343
0.727504 0.716121 0.211124
0.703914 0.664271 0.301732
0.667506 0.603265 0.368322
0.651820 0.573053 0.429267
0.779751 0.868345 0.057954
0.784176 0.868376 0.057527
0.802701 0.868345 0.056886
0.838926 0.868162 0.056855
0.868406 0.860868 0.186526
0.863676 0.833616 0.310613
0.843931 0.793271 0.408942
0.814572 0.750088 0.493477
0.000000 0.037781 0.124697
0.141878 0.000000 0.130556
0.286778 0.000000 0.116609
0.396826 0.102419 0.118471
0.494911 0.127413 0.115724
0.581476 0.154299 0.112581
0.663722 0.181765 0.108339
0.757076 0.211307 0.099336
0.084382 0.133272 0.114687
0.154665 0.131350 0.131563
0.279789 0.136294 0.128939
0.393591 0.144289 0.125826
0.492653 0.157992 0.122255
0.579431 0.176791 0.119020
0.662379 0.198886 0.114504
0.756161 0.225559 0.105440
0.261753 0.259678 0.125368
0.286168 0.259220 0.125185
0.284459 0.224155 0.166629
0.377691 0.230198 0.162142
0.483314 0.235630 0.149905
0.571313 0.243046 0.143893
0.656550 0.255528 0.138277
0.752316 0.274968 0.129976
0.384771 0.386755 0.117342
0.397559 0.386633 0.117281
0.423194 0.374670 0.143648
0.393622 0.318395 0.212314
0.445930 0.314122 0.221347
0.554833 0.322576 0.189639
0.645869 0.331151 0.178347
0.745113 0.347204 0.170230
0.484077 0.510613 0.109651
0.492439 0.510582 0.109651
0.525780 0.510430 0.109468
0.518059 0.470649 0.194064
0.482033 0.406378 0.261601
0.501732 0.388128 0.281865
0.615839 0.409308 0.251591
0.735225 0.428016 0.222385
0.572320 0.629358 0.113588
0.578424 0.629328 0.113680
0.603540 0.629267 0.113802
0.625788 0.616571 0.163546
0.606073 0.564630 0.249485
0.566033 0.496376 0.312413
0.563928 0.467170 0.345159
0.696162 0.508782 0.324834
0.663020 0.745602 0.126619
0.667994 0.745632 0.126955
0.688716 0.745602 0.126711
0.728542 0.745602 0.126833
0.727474 0.718166 0.231388
0.703822 0.666194 0.313573
0.667323 0.604974 0.376318
0.653285 0.575433 0.433906
0.776242 0.868681 0.142489
0.780667 0.868711 0.142611
0.799222 0.868681 0.142306
0.835599 0.868528 0.142672
0.867643 0.861845 0.210361
0.863584 0.834928 0.322362
0.843748 0.794400 0.416449
0.814145 0.750942 0.498604
0.000000 0.110445 0.243961
0.044526 0.082948 0.249058
0.273747 0.004456 0.259251
0.418372 0.000000 0.267033
0.518883 0.000000 0.218021
0.592615 0.178958 0.215213
0.673854 0.201877 0.206668
0.764157 0.223270 0.195865
0.112917 0.177340 0.243473
0.131716 0.157778 0.248844
0.280919 0.134920 0.259007
0.416480 0.125551 0.256931
0.514275 0.137148 0.216037
0.591638 0.201205 0.218875
0.672236 0.218479 0.209720
0.763088 0.237247 0.198886
0.162661 0.265751 0.226444
0.199161 0.267002 0.232181
0.292485 0.260929 0.261570
0.401251 0.262028 0.251957
0.497139 0.262119 0.242130
0.582177 0.265629 0.232242
0.665583 0.273411 0.222354
0.758755 0.286259 0.211490
0.337011 0.391363 0.252720
0.353674 0.391028 0.254978
0.410193 0.390448 0.255283
0.398230 0.343481 0.286656
0.466896 0.342260 0.279454
0.565393 0.343511 0.258457
0.653742 0.347814 0.247105
0.750668 0.357946 0.236240
0.454841 0.513176 0.253544
0.463966 0.513115 0.253483
0.499580 0.513024 0.253300
0.519432 0.488716 0.276005
0.484627 0.424414 0.317967
0.515892 0.410163 0.322728
0.628229 0.425116 0.293980
0.739803 0.437934 0.272831
0.550927 0.631128 0.254704
0.557336 0.631098 0.254612
0.583368 0.631067 0.254765
0.622156 0.626001 0.262211
0.606744 0.577478 0.310796
0.567346 0.509178 0.355016
0.574243 0.483314 0.373480
0.704067 0.518669 0.352270
0.645533 0.747097 0.258946
0.650629 0.747127 0.258885
0.671839 0.747127 0.258885
0.712703 0.747158 0.258915
0.727382 0.727291 0.299138
0.703548 0.674586 0.358465
0.666438 0.612299 0.407752
0.659480 0.585351 0.452888
0.760830 0.870176 0.265751
0.765377 0.870176 0.265751
0.784176 0.870115 0.265843
0.821347 0.869993 0.265812
0.864408 0.865995 0.285740
0.863127 0.840574 0.366613
0.842863 0.799161 0.446235
0.812375 0.754604 0.519341
0.000000 0.157809 0.370977
0.000000 0.133791 0.374273
0.219364 0.108919 0.383673
0.394171 0.045106 0.392126
0.535698 0.026398 0.411780
0.627161 0.067536 0.371252
0.707546 0.065248 0.314427
0.782193 0.201114 0.293919
0.000000 0.210697 0.370886
0.000000 0.195468 0.373816
0.231968 0.166201 0.383612
0.396979 0.143557 0.392004
0.534966 0.140749 0.410346
0.624414 0.140932 0.365240
0.705226 0.132998 0.308293
0.776699 0.242649 0.301427
0.195102 0.311162 0.366827
0.221988 0.309819 0.369421
0.275608 0.286687 0.381750
0.405798 0.271275 0.391333
0.526574 0.265812 0.389471
0.613031 0.252567 0.339269
0.681605 0.298253 0.326787
0.771969 0.301793 0.309667
0.218540 0.396124 0.342168
0.241184 0.396704 0.345617
0.313390 0.399298 0.359106
0.403418 0.388495 0.392248
0.498177 0.384619 0.374853
0.582849 0.378607 0.358923
0.669337 0.374731 0.341924
0.762448 0.374304 0.324743
0.367895 0.520531 0.346899
0.383703 0.520073 0.356115
0.439612 0.518395 0.386999
0.511864 0.518395 0.387854
0.488289 0.458381 0.406134
0.543755 0.449866 0.392523
0.650965 0.451759 0.364782
0.749752 0.454780 0.348821
0.503319 0.634791 0.388220
0.510521 0.634730 0.388251
0.539300 0.634699 0.388128
0.591882 0.634668 0.388006
0.607477 0.602838 0.403449
0.569543 0.533898 0.426520
0.594903 0.513725 0.424659
0.720821 0.536156 0.400122
0.607294 0.750179 0.389593
0.612787 0.750179 0.389593
0.635492 0.750271 0.389441
0.678828 0.750362 0.389380
0.722896 0.742184 0.397620
0.703395 0.691585 0.432013
0.664729 0.626581 0.462837
0.672206 0.604364 0.488167
0.727382 0.873106 0.393591
0.732082 0.873136 0.393591
0.751980 0.873075 0.393591
0.790890 0.872984 0.393469
0.849424 0.872648 0.393408
0.862882 0.852506 0.438514
0.841428 0.808927 0.498573
0.809110 0.761715 0.556359
0.000000 0.211490 0.497841
0.000000 0.197269 0.499947
0.018921 0.169039 0.506645
0.342168 0.138003 0.518090
0.498329 0.112612 0.523857
0.637537 0.112123 0.545739
0.735073 0.140169 0.527367
0.820005 0.117250 0.472724
0.000000 0.252079 0.497505
0.000000 0.240482 0.499489
0.116518 0.207889 0.506615
0.346288 0.183169 0.517815
0.499275 0.165194 0.523552
0.636622 0.165866 0.544671
0.732784 0.178988 0.522972
0.818357 0.156558 0.468391
0.188907 0.355840 0.495033
0.197055 0.349462 0.496864
0.230259 0.317784 0.504845
0.359503 0.291447 0.515923
0.502342 0.280064 0.522240
0.632532 0.281773 0.540673
0.723537 0.273991 0.504112
0.811398 0.246860 0.449134
0.217472 0.444373 0.495064
0.242435 0.443122 0.495674
0.320470 0.438666 0.497902
0.385229 0.415106 0.512139
0.506584 0.405005 0.520470
0.619104 0.398596 0.516075
0.706386 0.373266 0.463600
0.788113 0.374060 0.427619
0.251316 0.521691 0.457130
0.267521 0.522148 0.459358
0.324773 0.524132 0.468910
0.407721 0.528038 0.485878
0.492256 0.510674 0.518822
0.583062 0.500603 0.493141
0.672053 0.485481 0.467109
0.768856 0.472877 0.440803
0.372473 0.644404 0.441901
0.386236 0.644068 0.448310
0.437964 0.642481 0.474464
0.518669 0.639307 0.517540
0.602777 0.640864 0.517815
0.571527 0.571588 0.520836
0.627253 0.555901 0.497261
0.751461 0.557641 0.464363
0.534173 0.755581 0.509148
0.542138 0.755428 0.514336
0.569787 0.755306 0.521141
0.617975 0.755673 0.518273
0.688472 0.755886 0.518120
0.704372 0.720455 0.527031
0.661952 0.649104 0.537926
0.693751 0.632136 0.538506
0.667018 0.877958 0.522393
0.672236 0.877989 0.522393
0.694392 0.877958 0.522393
0.737118 0.877897 0.522301
0.800595 0.877653 0.522210
0.858732 0.869810 0.531518
0.840696 0.825437 0.568109
0.804807 0.772457 0.605951
0.000000 0.269108 0.625299
0.000000 0.259495 0.626673
0.000000 0.223728 0.631922
0.251011 0.207614 0.639399
0.449042 0.167727 0.649866
0.593256 0.158694 0.652461
0.734066 0.161898 0.673976
0.845365 0.193088 0.678889
0.000000 0.299626 0.624933
0.000000 0.291203 0.626276
0.000000 0.252598 0.631830
0.259770 0.237156 0.638941
0.450446 0.203647 0.649439
0.593652 0.195560 0.652247
0.733181 0.198611 0.673213
0.844816 0.222446 0.678584
0.000000 0.388769 0.622461
0.000000 0.382818 0.623713
0.115480 0.354925 0.628962
0.286992 0.323491 0.637293
0.455207 0.301671 0.647822
0.594873 0.294926 0.651362
0.729763 0.297551 0.670314
0.839536 0.304295 0.669245
0.226383 0.486671 0.616449
0.243412 0.485817 0.617792
0.302586 0.481361 0.623316
0.341436 0.443000 0.633753
0.462013 0.419837 0.645136
0.596643 0.412940 0.650019
0.723445 0.415320 0.665888
0.827756 0.397803 0.642054
0.189029 0.579065 0.623407
0.216464 0.578149 0.623774
0.297734 0.574151 0.625299
0.401068 0.566857 0.628138
0.474800 0.541955 0.641566
0.599603 0.533104 0.650874
0.709682 0.523003 0.643519
0.811582 0.479835 0.588403
0.255924 0.645594 0.572961
0.270787 0.645838 0.574578
0.322515 0.646723 0.581415
0.400275 0.648493 0.594842
0.490669 0.651423 0.614496
0.574762 0.629816 0.643610
0.669581 0.609735 0.607721
0.776608 0.586542 0.572137
0.339788 0.767666 0.533623
0.354131 0.767483 0.538537
0.407935 0.766812 0.558526
0.494026 0.765530 0.595789
0.600153 0.763424 0.648005
0.701595 0.763973 0.648127
0.659907 0.685756 0.637751
0.730312 0.671626 0.611505
0.548150 0.886778 0.598840
0.555993 0.886656 0.602777
0.588556 0.886107 0.619165
0.649195 0.884825 0.650355
0.720882 0.884825 0.650141
0.814755 0.884215 0.649897
0.842405 0.852537 0.657160
0.799344 0.789059 0.671687
0.000000 0.332769 0.751583
0.000000 0.326055 0.753658
0.000000 0.290318 0.756802
0.000000 0.271275 0.761715
0.370367 0.246830 0.768338
0.549920 0.197269 0.776974
0.688411 0.198306 0.776608
0.836667 0.194430 0.796109
0.000000 0.352178 0.745357
0.000000 0.346380 0.747768
0.000000 0.313939 0.751186
0.000000 0.288975 0.755703
0.370031 0.265812 0.761776
0.545708 0.220920 0.769406
0.681849 0.219272 0.768185
0.827207 0.213230 0.786893
0.000000 0.429267 0.746273
0.000000 0.424079 0.747066
0.000000 0.399207 0.749508
0.137942 0.359655 0.754910
0.379858 0.340703 0.760067
0.547234 0.308812 0.768582
0.685298 0.307103 0.770962
0.831724 0.306096 0.791470
0.184817 0.537865 0.744503
0.192325 0.533806 0.744869
0.221530 0.516320 0.746822
0.272709 0.478859 0.753994
0.397284 0.446967 0.761166
0.551568 0.424964 0.771145
0.690211 0.420935 0.774838
0.832029 0.419074 0.792386
0.245365 0.616724 0.734005
0.262364 0.614984 0.732906
0.308354 0.610986 0.734890
0.381384 0.604028 0.741939
0.428931 0.563836 0.752895
0.547906 0.538140 0.763546
0.686366 0.530785 0.768612
0.828183 0.533745 0.789395
0.000000 0.707729 0.742275
0.111635 0.707088 0.742702
0.239353 0.703670 0.743801
0.359106 0.697047 0.746181
0.475959 0.686854 0.749325
0.557397 0.661646 0.764767
0.693324 0.652766 0.774075
0.824338 0.640375 0.774746
0.226322 0.766232 0.688014
0.243076 0.766995 0.689906
0.298100 0.767269 0.694820
0.379065 0.768521 0.705104
0.471595 0.769833 0.719722
0.574640 0.772641 0.740139
0.670954 0.749111 0.765866
0.786038 0.719356 0.721065
0.212345 0.898131 0.619501
0.238560 0.898222 0.623438
0.323461 0.899321 0.640925
0.435828 0.898741 0.671229
0.563073 0.896635 0.714809
0.703395 0.893217 0.770718
0.835782 0.891508 0.777035
0.792264 0.815793 0.760769
0.000000 0.398932 0.865049
0.000000 0.393347 0.866209
0.000000 0.364996 0.867338
0.000000 0.331579 0.871550
0.256291 0.311070 0.875822
0.475013 0.273747 0.881346
0.649317 0.198917 0.889525
0.788235 0.202457 0.888426
0.000000 0.413397 0.861143
0.000000 0.408423 0.862394
0.000000 0.382116 0.864378
0.000000 0.345037 0.868467
0.258885 0.325139 0.872801
0.474006 0.289799 0.878416
0.646479 0.221134 0.885954
0.784512 0.221622 0.884428
0.000000 0.473762 0.857755
0.000000 0.469123 0.858488
0.000000 0.447303 0.860197
0.000000 0.401495 0.867399
0.274876 0.383307 0.870909
0.475257 0.352728 0.875669
0.645106 0.301488 0.883757
0.784421 0.298100 0.883146
0.000000 0.566674 0.852934
0.000000 0.563561 0.853910
0.000000 0.547356 0.856046
0.103883 0.512596 0.861875
0.297978 0.471138 0.868498
0.478737 0.447272 0.874510
0.644739 0.408972 0.883421
0.787808 0.402441 0.884489
0.171176 0.658137 0.846036
0.191745 0.657679 0.847074
0.252140 0.652064 0.848631
0.313817 0.634424 0.853758
0.357580 0.587427 0.861723
0.478981 0.550500 0.869902
0.639643 0.521477 0.880217
0.791104 0.514946 0.884886
0.158267 0.739132 0.844755
0.184085 0.737606 0.844175
0.261875 0.732876 0.843137
0.358953 0.726101 0.843931
0.439582 0.714351 0.852750
0.501335 0.673396 0.868803
0.641413 0.649073 0.884459
0.805692 0.642664 0.893462
0.000000 0.843534 0.861448
0.000000 0.842588 0.861418
0.000000 0.838834 0.861631
0.251255 0.832578 0.863340
0.415259 0.822995 0.866453
0.560174 0.811307 0.871763
0.656367 0.780453 0.885740
0.815702 0.765042 0.893553
0.000000 0.898802 0.804410
0.000000 0.898405 0.804837
0.177646 0.897520 0.807858
0.315007 0.896757 0.814969
0.439033 0.895262 0.825895
0.560113 0.895323 0.842130
0.689754 0.895689 0.863828
0.803494 0.872465 0.886137
