20 Preset/Nude style/【3】LUT video cho PR-AE-FCPX/Tone  (7).cube
# Created by Adobe Lightroom plugin Export LUT (1.24.0)
# www.johnrellis.com/lightroom/exportlut.htm
# Preset: 奶油裸色-素材江湖08
# Color profile: C:\Program Files (x86)\Common Files\Adobe\Color\Profiles\Recommended\VideoHD.icc
LUT_3D_SIZE 8
DOMAIN_MIN 0.000000 0.000000 0.000000
DOMAIN_MAX 0.903226 0.903226 0.903226
0.116884 0.105470 0.100496
0.179904 0.102785 0.099855
0.288518 0.101320 0.104707
0.393683 0.100069 0.110842
0.493446 0.104463 0.120455
0.583764 0.114015 0.132052
0.668605 0.124971 0.143221
0.760433 0.135714 0.153262
0.150607 0.153353 0.119814
0.187320 0.158389 0.109285
0.275151 0.153414 0.113832
0.382269 0.150668 0.118563
0.484138 0.149538 0.125765
0.576043 0.152438 0.135653
0.662165 0.157565 0.145937
0.755550 0.163973 0.155062
0.209995 0.229343 0.161074
0.227268 0.227787 0.163882
0.290776 0.246311 0.140841
0.371221 0.235660 0.134401
0.449958 0.233066 0.142184
0.546105 0.233463 0.147982
0.637659 0.234226 0.155123
0.736446 0.237919 0.162264
0.269047 0.308415 0.204196
0.279789 0.307500 0.206119
0.316808 0.312352 0.205478
0.392279 0.338170 0.172305
0.473701 0.324956 0.151156
0.512230 0.305272 0.161257
0.592126 0.305852 0.166232
0.699214 0.314549 0.170901
0.320684 0.379400 0.246433
0.327886 0.378820 0.247593
0.354711 0.376806 0.252995
0.401099 0.395758 0.241154
0.479347 0.422614 0.206516
0.567163 0.413611 0.169924
0.603052 0.387121 0.175357
0.647913 0.374456 0.175235
0.366125 0.444556 0.286229
0.371283 0.444343 0.287144
0.391272 0.443153 0.291203
0.425452 0.445045 0.295903
0.480964 0.476783 0.275639
0.561120 0.504997 0.241367
0.667109 0.508904 0.188296
0.713039 0.483894 0.185489
0.415198 0.521050 0.329473
0.419318 0.520958 0.330358
0.435828 0.520470 0.333745
0.465583 0.519738 0.340795
0.507500 0.536919 0.336553
0.574548 0.574304 0.313024
0.657069 0.600946 0.277226
0.758785 0.602045 0.221622
0.486580 0.634119 0.397223
0.490272 0.634211 0.398047
0.505608 0.634516 0.401923
0.534295 0.635218 0.409735
0.573968 0.636988 0.421088
0.624353 0.667109 0.405768
0.698573 0.701961 0.378546
0.781521 0.720790 0.336431
0.098054 0.133333 0.154604
0.149325 0.109804 0.161929
0.289067 0.118044 0.160037
0.397009 0.127413 0.163851
0.497871 0.126986 0.165103
0.587732 0.132937 0.169619
0.671687 0.140902 0.175143
0.762875 0.147829 0.181033
0.143648 0.163333 0.154940
0.182620 0.167910 0.159915
0.282750 0.168002 0.162692
0.388403 0.165835 0.164553
0.489265 0.164218 0.166751
0.580316 0.165438 0.171115
0.665644 0.169253 0.176364
0.758145 0.173587 0.181949
0.210849 0.241947 0.186038
0.230045 0.240299 0.188479
0.290349 0.252476 0.176730
0.368109 0.243229 0.170138
0.456367 0.241642 0.172427
0.550896 0.240787 0.175967
0.641321 0.240879 0.180697
0.739315 0.243290 0.185519
0.269963 0.316106 0.220493
0.281010 0.315129 0.222354
0.318700 0.315648 0.225803
0.391608 0.341680 0.197726
0.470985 0.327977 0.179355
0.509941 0.308598 0.182101
0.596094 0.310430 0.185367
0.702419 0.318120 0.189334
0.321172 0.384314 0.257359
0.328405 0.383795 0.258640
0.355688 0.381689 0.263645
0.401099 0.397589 0.255619
0.478767 0.424842 0.224521
0.564874 0.415320 0.193545
0.601129 0.388617 0.192996
0.647639 0.376043 0.188876
0.366217 0.447791 0.293797
0.371313 0.447517 0.294713
0.391577 0.446387 0.298619
0.425879 0.446113 0.304967
0.480537 0.477821 0.286229
0.560540 0.506523 0.254917
0.665400 0.510094 0.208652
0.711452 0.484688 0.201694
0.414313 0.523003 0.334630
0.418555 0.522881 0.335363
0.435248 0.522362 0.338750
0.465278 0.521599 0.345586
0.507073 0.537163 0.343206
0.573693 0.574640 0.320958
0.656397 0.601678 0.287175
0.758602 0.603235 0.236057
0.484749 0.634943 0.400183
0.488563 0.635065 0.401129
0.504051 0.635340 0.404883
0.532952 0.636103 0.412665
0.573266 0.637354 0.424842
0.623560 0.667018 0.410559
0.697627 0.701961 0.384253
0.780941 0.721218 0.343542
0.000000 0.191043 0.243259
0.004730 0.179629 0.248997
0.220157 0.142306 0.264683
0.397559 0.135988 0.262974
0.503990 0.151186 0.262150
0.601465 0.174960 0.265019
0.686854 0.188083 0.265568
0.775082 0.189761 0.264317
0.145632 0.221103 0.241123
0.153933 0.214328 0.246098
0.235233 0.183444 0.262730
0.395483 0.178225 0.262058
0.501976 0.187045 0.262669
0.598749 0.203006 0.265537
0.681880 0.206882 0.264042
0.771237 0.207156 0.262882
0.199680 0.257511 0.244694
0.220066 0.260533 0.247807
0.287480 0.273411 0.260899
0.386267 0.271458 0.260258
0.483619 0.268559 0.259281
0.573175 0.266636 0.259098
0.659602 0.265721 0.259281
0.753384 0.265141 0.260014
0.252110 0.338140 0.267277
0.267155 0.340307 0.269474
0.322362 0.340185 0.279850
0.390448 0.356542 0.271031
0.461830 0.341192 0.256199
0.521202 0.328893 0.249485
0.614740 0.330907 0.251713
0.717617 0.334386 0.253696
0.319127 0.404517 0.297459
0.327459 0.403906 0.298528
0.357733 0.401740 0.302708
0.402960 0.405463 0.306035
0.477455 0.435187 0.285130
0.556786 0.423590 0.264439
0.593713 0.395911 0.249760
0.663142 0.390112 0.240879
0.365087 0.462043 0.323705
0.370611 0.461738 0.324559
0.392096 0.460487 0.327977
0.428199 0.458350 0.334936
0.479408 0.482734 0.325994
0.558984 0.513451 0.303197
0.658900 0.515312 0.273289
0.705379 0.488106 0.254276
0.410559 0.532067 0.355505
0.414923 0.531914 0.356237
0.432502 0.531334 0.359411
0.463905 0.530449 0.365728
0.505760 0.538720 0.369421
0.570733 0.576776 0.351873
0.654231 0.605646 0.325292
0.759152 0.609033 0.286839
0.477363 0.639277 0.413031
0.481239 0.639338 0.413886
0.497414 0.639612 0.417548
0.527611 0.640223 0.425086
0.569329 0.641291 0.436927
0.619959 0.666468 0.429633
0.693874 0.702296 0.406806
0.778805 0.723262 0.371527
0.000000 0.252354 0.337530
0.000000 0.246891 0.341222
0.000000 0.215396 0.356268
0.292119 0.175845 0.374243
0.498787 0.156344 0.385748
0.598199 0.181094 0.366339
0.690608 0.209628 0.366522
0.785428 0.237369 0.371160
0.000000 0.273777 0.335698
0.000000 0.269139 0.339147
0.117586 0.243229 0.353826
0.300755 0.205692 0.372930
0.497475 0.191012 0.382666
0.596246 0.209995 0.366644
0.688960 0.233188 0.367407
0.784207 0.256565 0.372168
0.190982 0.319219 0.327245
0.209934 0.320409 0.331365
0.256626 0.316808 0.347082
0.332586 0.287388 0.370214
0.492897 0.283268 0.370855
0.589136 0.292912 0.368231
0.683650 0.305608 0.370977
0.777371 0.314214 0.372595
0.246372 0.351690 0.335149
0.259983 0.353826 0.337285
0.309728 0.363378 0.346960
0.388891 0.384192 0.367651
0.478248 0.381323 0.365057
0.563867 0.376562 0.361212
0.652186 0.372351 0.357733
0.746853 0.368170 0.354467
0.290074 0.421912 0.353552
0.300725 0.423682 0.354650
0.341161 0.431312 0.360327
0.408270 0.436805 0.374701
0.476326 0.456001 0.371008
0.542138 0.438941 0.352087
0.587518 0.412940 0.327367
0.694606 0.419348 0.327672
0.345312 0.487984 0.368383
0.356695 0.488960 0.372686
0.387610 0.488960 0.379431
0.429877 0.486366 0.385107
0.479347 0.492866 0.389441
0.557061 0.527733 0.376165
0.646967 0.524407 0.356176
0.693263 0.492531 0.323369
0.398169 0.550561 0.393011
0.403296 0.550378 0.393652
0.423407 0.549706 0.396460
0.458686 0.548516 0.402136
0.504112 0.547051 0.411200
0.565301 0.580987 0.403113
0.650507 0.613642 0.385809
0.760525 0.619745 0.360998
0.458625 0.648249 0.436469
0.462989 0.648310 0.437293
0.481239 0.648402 0.440742
0.514580 0.648798 0.447852
0.559991 0.649378 0.458991
0.612726 0.664820 0.463111
0.686366 0.702663 0.445960
0.774777 0.727291 0.418585
0.000000 0.314031 0.427222
0.000000 0.310765 0.429755
0.000000 0.294163 0.440589
0.000000 0.242496 0.462470
0.359991 0.213931 0.479988
0.583490 0.189151 0.499153
0.686824 0.216373 0.471901
0.782406 0.242710 0.470314
0.000000 0.328985 0.425605
0.000000 0.325872 0.428138
0.000000 0.310735 0.438880
0.080171 0.264958 0.460517
0.365820 0.236332 0.479011
0.585504 0.214878 0.499641
0.685603 0.238865 0.470375
0.781247 0.261387 0.470741
0.168643 0.373816 0.419959
0.173800 0.371954 0.422370
0.196475 0.362463 0.432685
0.241245 0.333898 0.453620
0.387945 0.306981 0.475654
0.580896 0.295811 0.490669
0.680293 0.309575 0.470771
0.776974 0.323247 0.472236
0.236301 0.405798 0.410651
0.249332 0.407568 0.412329
0.296208 0.415351 0.419715
0.356786 0.419745 0.443793
0.424445 0.398108 0.472328
0.574060 0.395026 0.475441
0.672786 0.400793 0.472236
0.770993 0.407721 0.474067
0.290684 0.436011 0.416968
0.299840 0.437629 0.418708
0.335668 0.445014 0.426062
0.396399 0.460670 0.441474
0.476265 0.487312 0.467872
0.558953 0.483803 0.464179
0.648768 0.475257 0.456092
0.742580 0.467414 0.448951
0.314153 0.497169 0.433845
0.322026 0.498573 0.434546
0.353399 0.504509 0.437598
0.408057 0.516716 0.445045
0.483162 0.527367 0.462287
0.556207 0.550958 0.462684
0.628962 0.533745 0.437873
0.672541 0.491524 0.389380
0.350439 0.567620 0.434974
0.356207 0.568597 0.435462
0.379583 0.572839 0.437690
0.438422 0.578424 0.453071
0.497078 0.575830 0.461097
0.557885 0.586816 0.467506
0.645869 0.626368 0.459541
0.747585 0.626032 0.441016
0.412696 0.663050 0.469215
0.418585 0.663020 0.469978
0.442481 0.662867 0.473243
0.484810 0.662715 0.479988
0.539879 0.662593 0.490578
0.600977 0.663172 0.505821
0.673884 0.702480 0.497658
0.768673 0.733455 0.479347
0.000000 0.374395 0.513359
0.000000 0.372107 0.515251
0.000000 0.361273 0.523339
0.000000 0.333318 0.539666
0.000000 0.265965 0.565484
0.422492 0.255650 0.580743
0.637476 0.241245 0.588556
0.775723 0.248081 0.590997
0.000000 0.384894 0.511772
0.000000 0.382727 0.513634
0.000000 0.372503 0.521691
0.000000 0.346319 0.538018
0.044038 0.282017 0.564019
0.426764 0.272984 0.579889
0.639307 0.259373 0.588922
0.774838 0.266117 0.589685
0.000000 0.420111 0.506218
0.000000 0.418524 0.508110
0.000000 0.410956 0.516075
0.136812 0.391669 0.532219
0.231418 0.346044 0.558282
0.443275 0.332219 0.577325
0.647974 0.319615 0.591485
0.771878 0.327062 0.584436
0.213962 0.460151 0.493843
0.226627 0.461067 0.496193
0.273869 0.464485 0.506096
0.304479 0.456886 0.522942
0.344976 0.431830 0.549065
0.471687 0.414252 0.574151
0.664729 0.402533 0.596887
0.768002 0.411170 0.574792
0.271427 0.486122 0.488869
0.280583 0.487495 0.490150
0.314977 0.493202 0.495705
0.372808 0.505150 0.507286
0.439918 0.516716 0.537285
0.507500 0.501122 0.571984
0.662013 0.495979 0.579126
0.763760 0.499886 0.573449
0.318761 0.513970 0.493263
0.325628 0.515251 0.494545
0.352270 0.520714 0.500023
0.399847 0.532128 0.511376
0.467292 0.552422 0.531487
0.559136 0.587579 0.566430
0.646601 0.581781 0.560357
0.741360 0.569818 0.549035
0.296513 0.576104 0.514427
0.303746 0.577142 0.514611
0.332403 0.581537 0.515496
0.384802 0.590784 0.517967
0.459602 0.606592 0.525231
0.556115 0.619562 0.547448
0.641535 0.648432 0.553826
0.725673 0.629725 0.522148
0.326513 0.671687 0.520623
0.332982 0.672206 0.520500
0.359380 0.674495 0.520043
0.407935 0.679286 0.520470
0.496742 0.685542 0.538659
0.578820 0.684382 0.552605
0.656458 0.701106 0.563714
0.760098 0.743496 0.557183
0.000000 0.443122 0.611170
0.000000 0.441566 0.612909
0.000000 0.432929 0.618402
0.000000 0.412818 0.629908
0.000000 0.371130 0.647944
0.146487 0.307836 0.671504
0.483650 0.298039 0.682246
0.691157 0.288670 0.680079
0.000000 0.449531 0.608057
0.000000 0.448127 0.609888
0.000000 0.439826 0.615534
0.000000 0.420478 0.626886
0.000000 0.380713 0.644831
0.171481 0.318944 0.668330
0.485176 0.309667 0.679133
0.689906 0.299535 0.677028
0.000000 0.477882 0.603998
0.000000 0.476417 0.605341
0.000000 0.469306 0.610742
0.000000 0.453285 0.622217
0.000000 0.420813 0.640162
0.243473 0.364935 0.664942
0.498726 0.359167 0.678462
0.699397 0.349523 0.680415
0.133333 0.521386 0.595483
0.140017 0.520226 0.596765
0.164096 0.515557 0.602258
0.206058 0.505119 0.614343
0.262181 0.483101 0.633082
0.332708 0.438880 0.659907
0.522820 0.432959 0.677516
0.718257 0.421424 0.687098
0.219760 0.549676 0.575097
0.229862 0.549889 0.576379
0.267887 0.551873 0.583124
0.330938 0.556176 0.598138
0.378058 0.549920 0.619654
0.423743 0.524529 0.648280
0.551812 0.511711 0.673610
0.748074 0.500908 0.697230
0.266941 0.570916 0.574121
0.274388 0.571740 0.575006
0.303807 0.575219 0.578515
0.355291 0.582483 0.586114
0.426703 0.595544 0.599359
0.513787 0.611322 0.634394
0.593439 0.602869 0.673701
0.755520 0.597436 0.684169
0.302525 0.597436 0.575555
0.308782 0.598413 0.576593
0.333806 0.601740 0.579919
0.380468 0.609186 0.587366
0.448127 0.622309 0.600549
0.537835 0.645380 0.623804
0.646265 0.688380 0.667353
0.745296 0.679866 0.658839
0.191470 0.678431 0.618647
0.204532 0.679072 0.618463
0.251530 0.682124 0.618067
0.323674 0.687312 0.616358
0.414221 0.695674 0.614557
0.517449 0.709682 0.617029
0.638911 0.722255 0.639765
0.750790 0.760708 0.651270
0.000000 0.521294 0.717678
0.000000 0.519738 0.718807
0.000000 0.511833 0.722042
0.000000 0.495186 0.729915
0.000000 0.463905 0.742275
0.000000 0.406470 0.759762
0.226078 0.348150 0.780728
0.544701 0.334508 0.788205
0.000000 0.526116 0.715450
0.000000 0.524712 0.716579
0.000000 0.517144 0.720180
0.000000 0.500877 0.727962
0.000000 0.470436 0.740414
0.000000 0.415015 0.758053
0.238041 0.357275 0.778988
0.546136 0.343816 0.786587
0.000000 0.547723 0.711177
0.000000 0.546288 0.712154
0.000000 0.539483 0.715694
0.000000 0.525750 0.724453
0.000000 0.498634 0.736812
0.000000 0.450050 0.754452
0.282506 0.395178 0.776455
0.556298 0.383459 0.785397
0.000000 0.583795 0.703670
0.000000 0.582696 0.704799
0.000000 0.577447 0.708675
0.000000 0.566339 0.717189
0.000000 0.545281 0.730465
0.201968 0.507469 0.749233
0.343694 0.455573 0.773373
0.575677 0.447089 0.785031
0.054994 0.621149 0.690913
0.106722 0.621210 0.692195
0.183749 0.620294 0.696468
0.242710 0.615412 0.705715
0.283024 0.600732 0.719844
0.337011 0.573968 0.740169
0.405982 0.525231 0.767880
0.602777 0.522118 0.784512
0.172915 0.649531 0.677333
0.184756 0.649592 0.677424
0.227878 0.650416 0.678553
0.293614 0.652186 0.684993
0.377142 0.654108 0.701869
0.442664 0.647486 0.727535
0.499031 0.621302 0.760647
0.642084 0.611505 0.787411
0.215793 0.675898 0.681758
0.225040 0.676173 0.682033
0.260075 0.677302 0.683406
0.319005 0.680537 0.687007
0.396033 0.686732 0.693690
0.486183 0.698299 0.705928
0.587121 0.712215 0.745327
0.688167 0.703609 0.789822
0.243168 0.709621 0.687190
0.251194 0.709773 0.687373
0.282597 0.710994 0.688655
0.338018 0.714168 0.691920
0.410590 0.719661 0.697627
0.497353 0.729610 0.707973
0.606958 0.750851 0.730159
0.756100 0.803647 0.785824
