20 Preset/Nude style/【3】LUT video cho PR-AE-FCPX/Tone  (5).cube
# Created by Adobe Lightroom plugin Export LUT (1.24.0)
# www.johnrellis.com/lightroom/exportlut.htm
# Preset: 奶油裸色-素材江湖06
# Color profile: C:\Program Files (x86)\Common Files\Adobe\Color\Profiles\Recommended\VideoHD.icc
LUT_3D_SIZE 5
DOMAIN_MIN 0.000000 0.000000 0.000000
DOMAIN_MAX 0.903226 0.903226 0.903226
0.000000 0.000000 0.000000
0.249516 0.034791 0.024903
0.452094 0.095430 0.014710
0.636896 0.161776 0.024933
0.834745 0.231235 0.011200
0.255467 0.229923 0.000000
0.225223 0.175631 0.135286
0.435340 0.197696 0.104372
0.625849 0.231601 0.103365
0.835569 0.285100 0.096651
0.483131 0.485420 0.000000
0.499916 0.468330 0.075715
0.411566 0.348730 0.271305
0.570428 0.375372 0.245457
0.812680 0.417395 0.197971
0.672633 0.730953 0.000000
0.696254 0.730190 0.000000
0.687831 0.671778 0.249882
0.562280 0.515587 0.392462
0.710201 0.569238 0.423102
0.860105 0.922484 0.236881
0.877226 0.921691 0.239475
0.918914 0.906249 0.267735
0.894835 0.859342 0.481117
0.802243 0.785336 0.654475
0.000000 0.096101 0.201694
0.240146 0.009369 0.212955
0.460029 0.000000 0.171481
0.620783 0.181949 0.180270
0.807523 0.229282 0.165743
0.149477 0.230137 0.180331
0.251255 0.220035 0.221103
0.441382 0.226139 0.205051
0.613519 0.244144 0.195621
0.805447 0.278996 0.181003
0.441566 0.467872 0.218692
0.478676 0.465248 0.218784
0.406653 0.356207 0.306065
0.573754 0.380163 0.273228
0.805051 0.417975 0.244419
0.650446 0.726436 0.232120
0.675196 0.726528 0.234257
0.686458 0.679133 0.307622
0.561456 0.522881 0.416541
0.716732 0.574334 0.434577
0.844724 0.922148 0.321050
0.861631 0.921019 0.322026
0.925109 0.916625 0.344610
0.900572 0.869169 0.518578
0.809110 0.796872 0.677607
0.000000 0.179507 0.424720
0.126406 0.143893 0.432624
0.460822 0.100008 0.443183
0.697017 0.087190 0.452674
0.853452 0.000000 0.324926
0.195743 0.307805 0.418433
0.226963 0.270817 0.426490
0.471931 0.247257 0.446052
0.678828 0.229129 0.418799
0.831449 0.252171 0.335882
0.242985 0.478065 0.380102
0.311864 0.479469 0.390509
0.447242 0.447211 0.454292
0.624720 0.435370 0.405524
0.814054 0.428565 0.370092
0.556237 0.720363 0.466316
0.581781 0.715969 0.462898
0.679286 0.712276 0.468574
0.567559 0.562921 0.509667
0.755367 0.596246 0.480415
0.772366 0.918914 0.510124
0.791836 0.918883 0.512566
0.867643 0.917174 0.519219
0.893217 0.880980 0.590784
0.794034 0.795377 0.701259
0.000000 0.286503 0.676173
0.000000 0.241825 0.682033
0.383978 0.206790 0.700862
0.670985 0.166690 0.706111
0.919677 0.201694 0.737606
0.000000 0.379461 0.672328
0.000000 0.348913 0.677668
0.392096 0.299443 0.692409
0.666560 0.272740 0.696407
0.910491 0.293339 0.726253
0.234562 0.558831 0.659449
0.307164 0.556420 0.662684
0.425177 0.509361 0.684108
0.688258 0.494331 0.709834
0.881132 0.457832 0.662837
0.248417 0.725643 0.598535
0.308171 0.724300 0.603357
0.471778 0.725551 0.635798
0.605158 0.669917 0.686122
0.827054 0.630335 0.605402
0.611536 0.926146 0.679652
0.640406 0.925048 0.694881
0.742458 0.922911 0.740536
0.887663 0.919921 0.735103
0.785550 0.814237 0.767605
0.000000 0.431495 0.923156
0.000000 0.403296 0.925444
0.160983 0.353033 0.930114
0.605524 0.286046 0.937591
0.891539 0.257908 0.937194
0.000000 0.502129 0.920439
0.000000 0.479377 0.922637
0.213138 0.419593 0.928740
0.608392 0.364416 0.936797
0.893065 0.342138 0.936858
0.271244 0.693751 0.907805
0.299138 0.683436 0.910155
0.369726 0.621729 0.919860
0.618189 0.569818 0.931090
0.893584 0.544976 0.933104
0.289067 0.838773 0.903349
0.351965 0.836332 0.904021
0.518578 0.825284 0.905455
0.640925 0.776272 0.920439
0.902190 0.752377 0.931884
0.365240 0.951934 0.835233
0.406134 0.951629 0.839506
0.532219 0.948852 0.854795
0.708980 0.945464 0.884916
0.850248 0.907683 0.919646
