20 Preset/Nude style/【3】LUT video cho PR-AE-FCPX/Tone  (4).cube
# Created by Adobe Lightroom plugin Export LUT (1.24.0)
# www.johnrellis.com/lightroom/exportlut.htm
# Preset: 奶油裸色-素材江湖05
# Color profile: C:\Program Files (x86)\Common Files\Adobe\Color\Profiles\Recommended\VideoHD.icc
LUT_3D_SIZE 5
DOMAIN_MIN 0.000000 0.000000 0.000000
DOMAIN_MAX 0.903226 0.903226 0.903226
0.000000 0.000000 0.000000
0.233982 0.019959 0.000000
0.410986 0.111696 0.000000
0.550347 0.176547 0.000000
0.682460 0.239017 0.000000
0.221256 0.196017 0.021454
0.247318 0.184451 0.092164
0.420539 0.197482 0.000000
0.558007 0.227909 0.000000
0.692164 0.275639 0.000000
0.392493 0.384527 0.060334
0.439460 0.398260 0.000000
0.453162 0.380468 0.184054
0.587427 0.385992 0.000000
0.710292 0.387366 0.000000
0.506645 0.554009 0.119295
0.535363 0.567346 0.095186
0.589197 0.583948 0.146120
0.593591 0.556786 0.288457
0.715053 0.575280 0.239261
0.630945 0.746914 0.155367
0.651850 0.754147 0.139345
0.732753 0.771908 0.000000
0.759091 0.771664 0.261418
0.768368 0.754452 0.423774
0.000000 0.099458 0.169986
0.219211 0.005310 0.197604
0.414008 0.000000 0.154482
0.533745 0.182803 0.150698
0.660883 0.231998 0.115236
0.176486 0.175082 0.168246
0.240208 0.199802 0.198062
0.409827 0.204898 0.173251
0.541894 0.228061 0.151278
0.668513 0.265751 0.114839
0.349615 0.364721 0.202090
0.398505 0.381415 0.194430
0.435340 0.373297 0.246555
0.570092 0.374273 0.169558
0.700679 0.383459 0.112947
0.483101 0.542046 0.218875
0.511589 0.556176 0.213901
0.581628 0.582818 0.229282
0.586786 0.557458 0.329900
0.713130 0.574701 0.274510
0.612329 0.740017 0.231327
0.632898 0.747097 0.224521
0.725063 0.777859 0.187411
0.762356 0.779477 0.309300
0.772000 0.762692 0.455177
0.000000 0.169650 0.303777
0.000000 0.132570 0.331121
0.402075 0.044465 0.393317
0.580041 0.081331 0.391669
0.689235 0.000000 0.275883
0.168978 0.242283 0.306035
0.188907 0.228336 0.329473
0.408209 0.205600 0.392981
0.568597 0.202640 0.370092
0.673640 0.219272 0.284031
0.279820 0.308507 0.295903
0.310124 0.325017 0.316258
0.414374 0.398077 0.396674
0.544854 0.383398 0.349950
0.676173 0.382361 0.306889
0.393011 0.490120 0.359594
0.417884 0.504570 0.368139
0.529839 0.567590 0.386175
0.565881 0.565637 0.444312
0.711208 0.567407 0.361791
0.526665 0.701259 0.363165
0.548180 0.711421 0.365606
0.641413 0.750271 0.371283
0.744930 0.780484 0.414099
0.753658 0.761868 0.525902
0.000000 0.227604 0.417151
0.000000 0.212955 0.436011
0.261906 0.169955 0.510430
0.540032 0.139559 0.580957
0.724605 0.167086 0.607050
0.000000 0.268589 0.413916
0.008026 0.260533 0.431525
0.274174 0.230472 0.504234
0.537316 0.229099 0.575402
0.719081 0.241337 0.602228
0.216007 0.330419 0.368353
0.244877 0.343664 0.389136
0.331029 0.374029 0.479530
0.533776 0.397101 0.567926
0.704372 0.382391 0.567376
0.316960 0.385992 0.369116
0.332250 0.396429 0.381384
0.395148 0.446571 0.439216
0.527306 0.581292 0.583246
0.682368 0.537469 0.498756
0.322576 0.581262 0.387823
0.345312 0.596796 0.403326
0.452613 0.662348 0.481544
0.668666 0.770932 0.560082
0.732174 0.773526 0.639887
0.000000 0.309850 0.581415
0.000000 0.299413 0.593683
0.000000 0.236637 0.646418
0.419562 0.201541 0.729335
0.677272 0.167269 0.777310
0.000000 0.331182 0.570397
0.000000 0.323735 0.583246
0.000000 0.269444 0.637659
0.416968 0.250340 0.723354
0.675502 0.234958 0.774868
0.000000 0.389837 0.526146
0.000000 0.389624 0.539788
0.129915 0.379339 0.601160
0.399634 0.366308 0.704677
0.675410 0.385748 0.775204
0.012024 0.405829 0.442298
0.097475 0.408057 0.447364
0.199741 0.421912 0.476356
0.364202 0.496223 0.652186
0.683070 0.576318 0.787930
0.221988 0.430335 0.392767
0.233341 0.434852 0.398169
0.283574 0.460761 0.428351
0.394781 0.540856 0.520775
0.687373 0.796017 0.802457
