20 Preset/Nude style/【3】LUT video cho PR-AE-FCPX/Tone  (4).cube
# Created by Adobe Lightroom plugin Export LUT (1.24.0)
# www.johnrellis.com/lightroom/exportlut.htm
# Preset: 奶油裸色-素材江湖05
# Color profile: C:\Program Files (x86)\Common Files\Adobe\Color\Profiles\Recommended\VideoHD.icc
LUT_3D_SIZE 32
DOMAIN_MIN 0.0 0.0 0.0
DOMAIN_MAX 1.0 1.0 1.0
0.000000 0.000000 0.000000
0.000000 0.000000 0.000000
0.032349 0.000000 0.000000
0.102693 0.000000 0.000000
0.143526 0.000000 0.000000
0.175998 0.003845 0.000000
0.205600 0.011261 0.000000
0.233982 0.019959 0.000000
0.261357 0.031189 0.000000
0.287968 0.046143 0.000000
0.314214 0.063172 0.000000
0.339879 0.081788 0.000000
0.364691 0.092897 0.000000
0.388434 0.102449 0.000000
0.410986 0.111696 0.000000
0.432197 0.120882 0.000000
0.452369 0.130251 0.000000
0.471687 0.139254 0.000000
0.490303 0.148135 0.000000
0.508415 0.157046 0.000000
0.529168 0.166567 0.000000
0.550347 0.176547 0.000000
0.569635 0.185611 0.000000
0.588067 0.194522 0.000000
0.606073 0.203128 0.000000
0.623957 0.211734 0.000000
0.642451 0.220310 0.000000
0.661769 0.229404 0.000000
0.682460 0.239017 0.000000
0.704768 0.249332 0.000000
0.728450 0.260105 0.000000
0.753597 0.271336 0.000000
0.000000 0.000000 0.000000
0.000000 0.000000 0.000000
0.037598 0.000000 0.000000
0.103700 0.000092 0.000000
0.143587 0.004028 0.000000
0.175479 0.009857 0.000000
0.204868 0.015320 0.000000
0.232609 0.023713 0.000000
0.259770 0.034394 0.000000
0.286259 0.049805 0.000000
0.312230 0.066529 0.000000
0.337682 0.083711 0.000000
0.362402 0.093843 0.000000
0.386175 0.102998 0.000000
0.408728 0.112306 0.000000
0.430091 0.121462 0.000000
0.450355 0.130526 0.000000
0.469825 0.139254 0.000000
0.488472 0.147951 0.000000
0.506493 0.156619 0.000000
0.526848 0.166079 0.000000
0.547356 0.175540 0.000000
0.566064 0.184451 0.000000
0.584009 0.193179 0.000000
0.601648 0.201480 0.000000
0.619257 0.209751 0.000000
0.637507 0.218296 0.000000
0.656703 0.227298 0.000000
0.677302 0.236881 0.000000
0.699672 0.247074 0.000000
0.723384 0.257939 0.000000
0.748623 0.269230 0.000000
0.021057 0.025605 0.000000
0.033143 0.027649 0.000000
0.051850 0.023224 0.000336
0.107729 0.027771 0.000000
0.146090 0.029541 0.000000
0.176699 0.033661 0.000000
0.205386 0.038331 0.000000
0.232792 0.044770 0.000000
0.259525 0.055909 0.000000
0.285557 0.069795 0.000000
0.311559 0.082826 0.000000
0.337041 0.091768 0.000000
0.361486 0.099825 0.000000
0.385199 0.108095 0.000000
0.407660 0.116640 0.000000
0.428962 0.125185 0.000000
0.449287 0.133913 0.000000
0.468696 0.142184 0.000000
0.487434 0.150668 0.000000
0.505516 0.158907 0.000000
0.526055 0.168124 0.000000
0.546166 0.177340 0.000000
0.564538 0.185885 0.000000
0.582269 0.194247 0.000000
0.599664 0.202213 0.000000
0.617090 0.210330 0.000000
0.635157 0.218723 0.000000
0.654322 0.227543 0.000000
0.674830 0.236973 0.000000
0.697169 0.247135 0.000000
0.720821 0.257816 0.000000
0.745937 0.269017 0.000000
0.099428 0.087129 0.000000
0.103914 0.088167 0.000000
0.116426 0.088411 0.000000
0.115724 0.079347 0.005890
0.145052 0.084382 0.000000
0.179385 0.081941 0.000000
0.207584 0.082734 0.000000
0.234134 0.085725 0.000000
0.260685 0.089998 0.000000
0.286595 0.093904 0.000000
0.312169 0.099458 0.000000
0.337194 0.104768 0.000000
0.361547 0.111604 0.000000
0.384894 0.118685 0.000000
0.407172 0.125856 0.000000
0.428290 0.133211 0.000000
0.448280 0.140810 0.000000
0.467475 0.148501 0.000000
0.486000 0.156069 0.000000
0.503960 0.163485 0.000000
0.524254 0.172061 0.000000
0.543542 0.180514 0.000000
0.561547 0.188510 0.000000
0.579248 0.196384 0.000000
0.596948 0.204410 0.000000
0.614893 0.212467 0.000000
0.633478 0.221012 0.000000
0.653101 0.229862 0.000000
0.673976 0.239139 0.000000
0.696376 0.249271 0.000000
0.719753 0.259861 0.000000
0.744350 0.270573 0.000000
0.133669 0.116793 0.000000
0.136812 0.116976 0.000000
0.150820 0.118135 0.000000
0.152926 0.115633 0.000000
0.151553 0.109438 0.022522
0.170596 0.111177 0.025116
0.208957 0.111513 0.000000
0.235813 0.109865 0.000000
0.261662 0.111269 0.000000
0.287449 0.114199 0.000000
0.312505 0.117525 0.000000
0.337255 0.121889 0.000000
0.361273 0.126864 0.000000
0.384619 0.132387 0.000000
0.406897 0.138582 0.000000
0.427985 0.145083 0.000000
0.448280 0.151339 0.000000
0.467567 0.158083 0.000000
0.486152 0.164858 0.000000
0.504845 0.171878 0.000000
0.524743 0.179751 0.000000
0.543420 0.187137 0.000000
0.561120 0.194614 0.000000
0.578729 0.201938 0.000000
0.596399 0.209567 0.000000
0.614466 0.217288 0.000000
0.633112 0.225467 0.000000
0.652644 0.234043 0.000000
0.673304 0.243076 0.000000
0.695491 0.252811 0.000000
0.718654 0.263035 0.000000
0.742947 0.273655 0.000000
0.162753 0.142092 0.000000
0.164858 0.142245 0.000000
0.174350 0.143374 0.000000
0.183780 0.143679 0.000000
0.184451 0.139620 0.013825
0.182254 0.133120 0.047639
0.194217 0.133974 0.065675
0.235599 0.137911 0.006317
0.265324 0.136812 0.000000
0.290898 0.136843 0.000000
0.315648 0.138949 0.000000
0.340185 0.141970 0.000000
0.363928 0.145998 0.000000
0.386877 0.150423 0.000000
0.408972 0.155276 0.000000
0.430060 0.160433 0.000000
0.450111 0.165774 0.000000
0.469398 0.171359 0.000000
0.488014 0.176883 0.000000
0.507866 0.183658 0.000000
0.527245 0.190585 0.000000
0.545586 0.197360 0.000000
0.583612 0.214298 0.000000
0.601984 0.221775 0.000000
0.620111 0.229160 0.000000
0.638361 0.236698 0.000000
0.657160 0.244572 0.000000
0.676783 0.252659 0.000000
0.697536 0.261509 0.000000
0.719051 0.270512 0.000000
0.741390 0.280125 0.000000
0.764736 0.289708 0.000000
0.194644 0.171054 0.009552
0.196384 0.171511 0.006592
0.203525 0.172610 0.002258
0.218753 0.174990 0.000000
0.221134 0.172824 0.008087
0.219730 0.166964 0.040528
0.217350 0.160372 0.078004
0.223972 0.159792 0.094850
0.265293 0.166812 0.048188
0.301030 0.168612 0.000000
0.326726 0.167208 0.000000
0.351080 0.168368 0.000000
0.374578 0.171023 0.000000
0.396857 0.174197 0.000000
0.418189 0.177523 0.000000
0.438361 0.181003 0.000000
0.457893 0.184909 0.000000
0.476722 0.189181 0.000000
0.496681 0.194705 0.000000
0.517845 0.201144 0.000000
0.538048 0.207919 0.000000
0.557855 0.214755 0.000000
0.577417 0.221836 0.000000
0.596979 0.229252 0.000000
0.616297 0.236545 0.000000
0.635248 0.244083 0.000000
0.654139 0.251408 0.000000
0.673579 0.259068 0.000000
0.694026 0.267338 0.000000
0.715114 0.276005 0.000000
0.737209 0.284916 0.000000
0.760250 0.294163 0.000000
0.221256 0.196017 0.021454
0.222751 0.196109 0.022217
0.228489 0.197330 0.015320
0.240696 0.199557 0.003723
0.249699 0.200015 0.005859
0.251011 0.196902 0.030396
0.249577 0.191043 0.063935
0.247318 0.184451 0.092164
0.250919 0.182681 0.107973
0.288914 0.190707 0.086275
0.327550 0.195438 0.023041
0.354223 0.194980 0.002228
0.377752 0.193790 0.000000
0.399603 0.195407 0.000000
0.420539 0.197482 0.000000
0.440406 0.199832 0.000000
0.459541 0.202823 0.000000
0.479347 0.206699 0.000000
0.500008 0.211551 0.000000
0.519707 0.216709 0.000000
0.538964 0.222171 0.000000
0.558007 0.227909 0.000000
0.576989 0.233982 0.000000
0.596063 0.240482 0.000000
0.615106 0.247227 0.000000
0.633814 0.253971 0.000000
0.652522 0.260716 0.000000
0.671870 0.267796 0.000000
0.692164 0.275639 0.000000
0.713161 0.283726 0.000000
0.735012 0.292241 0.000000
0.757900 0.301122 0.000000
0.247684 0.221195 0.032074
0.249027 0.221622 0.030121
0.253696 0.222446 0.025818
0.263523 0.224582 0.016358
0.278019 0.227420 0.002411
0.280034 0.225528 0.023560
0.280430 0.221469 0.052369
0.279332 0.215366 0.086061
0.277653 0.209384 0.102571
0.280186 0.206607 0.118654
0.313451 0.215305 0.104372
0.350744 0.221012 0.061280
0.381628 0.222232 0.008942
0.403632 0.220462 0.000000
0.424628 0.219242 0.000000
0.444099 0.220737 0.000000
0.464637 0.223667 0.000000
0.484810 0.227085 0.000000
0.504143 0.230564 0.000000
0.522911 0.234501 0.000000
0.541405 0.238773 0.000000
0.559808 0.243626 0.000000
0.578241 0.248631 0.000000
0.596918 0.254337 0.000000
0.615595 0.260258 0.000000
0.634058 0.266239 0.000000
0.652674 0.272435 0.000000
0.671901 0.279057 0.000000
0.692012 0.286290 0.000000
0.712764 0.293828 0.000000
0.734401 0.301793 0.000000
0.757015 0.310277 0.000000
0.273503 0.247044 0.037140
0.274601 0.247196 0.035492
0.278202 0.247959 0.032319
0.286595 0.249821 0.022919
0.299474 0.252689 0.008331
0.307378 0.253147 0.012207
0.309514 0.251041 0.037354
0.309178 0.246098 0.073030
0.308141 0.240208 0.096773
0.306767 0.234134 0.113283
0.308202 0.230655 0.129549
0.336309 0.239109 0.121767
0.372381 0.245212 0.093141
0.405432 0.248325 0.023133
0.428595 0.247318 0.000000
0.450599 0.246342 0.000000
0.471168 0.246708 0.000000
0.490517 0.249119 0.000000
0.509117 0.251621 0.000000
0.527337 0.254398 0.000000
0.545037 0.257542 0.000000
0.562280 0.260899 0.000000
0.579675 0.264836 0.000000
0.597223 0.269261 0.000000
0.614893 0.273991 0.000000
0.632715 0.279026 0.000000
0.651057 0.284459 0.000000
0.670192 0.290593 0.000000
0.690394 0.297429 0.000000
0.711299 0.304662 0.000000
0.733089 0.312352 0.000000
0.755947 0.320500 0.000000
0.297032 0.271550 0.040894
0.297734 0.271733 0.040406
0.301213 0.272648 0.036774
0.308415 0.274388 0.027222
0.319585 0.277256 0.013367
0.333349 0.280583 0.000000
0.335668 0.278965 0.022248
0.337652 0.276493 0.054108
0.337346 0.271427 0.089509
0.336706 0.265904 0.107362
0.335729 0.259831 0.124178
0.336584 0.255985 0.141115
0.360967 0.265141 0.140566
0.396704 0.272343 0.112856
0.429572 0.276371 0.065705
0.456184 0.276799 0.002564
0.476326 0.274784 0.000000
0.495674 0.272984 0.000000
0.513817 0.273472 0.000000
0.531304 0.275120 0.000000
0.548272 0.277226 0.000000
0.565026 0.279759 0.000000
0.582055 0.282841 0.000000
0.599298 0.286259 0.000000
0.616785 0.290227 0.000000
0.634424 0.294774 0.000000
0.652644 0.299657 0.000000
0.671656 0.305241 0.000000
0.691646 0.311467 0.000000
0.712398 0.318059 0.000000
0.734035 0.325292 0.000000
0.756619 0.332952 0.000000
0.320653 0.297246 0.044343
0.321324 0.297551 0.042390
0.324376 0.298283 0.038941
0.330480 0.299962 0.030396
0.340154 0.302800 0.017243
0.353826 0.306523 0.000000
0.361486 0.307500 0.002808
0.364080 0.306004 0.033082
0.365606 0.303075 0.074403
0.366674 0.299199 0.100099
0.367254 0.294652 0.119081
0.367620 0.289921 0.137240
0.381170 0.298466 0.162417
0.401556 0.307622 0.169284
0.435828 0.314427 0.140566
0.467872 0.317784 0.104860
0.497536 0.318853 0.012848
0.516533 0.315648 0.000000
0.534691 0.312627 0.000000
0.552331 0.309972 0.000000
0.568688 0.310552 0.000000
0.584863 0.311772 0.000000
0.601099 0.313390 0.000000
0.617639 0.315770 0.000000
0.634455 0.318578 0.000000
0.651423 0.321874 0.000000
0.668879 0.325597 0.000000
0.686915 0.329747 0.000000
0.705440 0.334539 0.000000
0.724910 0.339757 0.000000
0.745357 0.345708 0.000000
0.767147 0.352422 0.000000
0.349218 0.330297 0.047089
0.349737 0.330358 0.045624
0.352270 0.331090 0.042023
0.357885 0.332799 0.032837
0.366461 0.335241 0.019715
0.378607 0.338994 0.000000
0.392584 0.343206 0.000000
0.395361 0.342351 0.012512
0.398901 0.341680 0.052155
0.400549 0.338506 0.093507
0.402075 0.334997 0.115175
0.403876 0.331518 0.135927
0.405249 0.327855 0.155825
0.405982 0.323949 0.175540
0.421210 0.332311 0.190249
0.454200 0.339178 0.162142
0.484718 0.342321 0.128359
0.513146 0.342992 0.077760
0.535241 0.340734 0.000000
0.552361 0.336980 0.000000
0.569024 0.333654 0.000000
0.585473 0.331579 0.000000
0.601373 0.332525 0.000000
0.617762 0.334081 0.000000
0.634394 0.336187 0.000000
0.651362 0.338964 0.000000
0.669001 0.342138 0.000000
0.687037 0.345953 0.000000
0.705715 0.350317 0.000000
0.725216 0.355230 0.000000
0.745632 0.360754 0.000000
0.767453 0.366979 0.000000
0.372320 0.358618 0.052338
0.372686 0.358648 0.052155
0.374914 0.359197 0.047730
0.379461 0.360296 0.038697
0.386816 0.362280 0.024109
0.397101 0.365332 0.005432
0.411353 0.369879 0.000000
0.418402 0.370794 0.000000
0.421363 0.369909 0.029511
0.424475 0.368811 0.078981
0.426001 0.365545 0.106783
0.427649 0.362158 0.129061
0.429175 0.358587 0.149935
0.430274 0.354711 0.170016
0.430488 0.350378 0.189395
0.440345 0.356634 0.210025
0.470954 0.362860 0.183230
0.500053 0.365728 0.151369
0.527672 0.366400 0.110780
0.552911 0.365301 0.012177
0.569512 0.361212 0.000000
0.586206 0.357733 0.000000
0.603021 0.355016 0.000000
0.619654 0.354589 0.000000
0.636316 0.356085 0.000000
0.653346 0.358312 0.000000
0.670893 0.360937 0.000000
0.688777 0.364141 0.000000
0.707301 0.367895 0.000000
0.726680 0.372259 0.000000
0.747005 0.377325 0.000000
0.768948 0.383246 0.000000
0.392493 0.384527 0.060334
0.392889 0.384619 0.059998
0.394659 0.385016 0.055909
0.398627 0.385901 0.046204
0.405005 0.387640 0.033112
0.414038 0.390234 0.014099
0.426368 0.394141 0.000000
0.439460 0.398260 0.000000
0.442054 0.397284 0.006226
0.445411 0.396765 0.054597
0.448127 0.395056 0.097536
0.449714 0.391974 0.121584
0.451423 0.388617 0.143618
0.452522 0.384802 0.164523
0.453162 0.380468 0.184054
0.452674 0.375402 0.203250
0.460578 0.379980 0.223514
0.486641 0.386053 0.204318
0.514885 0.388891 0.173373
0.541741 0.389563 0.136873
0.567407 0.388800 0.082033
0.587427 0.385992 0.000000
0.604211 0.382696 0.000000
0.621393 0.379950 0.000000
0.638788 0.377874 0.000000
0.656001 0.378912 0.000000
0.673518 0.381109 0.000000
0.691524 0.383948 0.000000
0.710292 0.387366 0.000000
0.729976 0.391485 0.000000
0.750790 0.396399 0.000000
0.773587 0.402441 0.000000
0.410132 0.408179 0.070008
0.410651 0.408423 0.069062
0.412451 0.409003 0.064332
0.416052 0.410132 0.057160
0.422004 0.412085 0.044099
0.430488 0.414984 0.024720
0.441810 0.419165 0.000000
0.456458 0.424720 0.000000
0.463416 0.426307 0.000000
0.466621 0.425849 0.034333
0.469947 0.425360 0.088472
0.471534 0.422339 0.114382
0.472511 0.418463 0.137423
0.473182 0.413977 0.158694
0.473365 0.409064 0.178408
0.473030 0.403815 0.197604
0.472053 0.398383 0.216190
0.478462 0.401495 0.235996
0.500664 0.407813 0.224582
0.528405 0.410925 0.194919
0.555230 0.412268 0.160708
0.581506 0.412421 0.116640
0.605829 0.411383 0.010864
0.623377 0.408392 0.000000
0.641169 0.406073 0.000000
0.659419 0.404364 0.000000
0.677790 0.403296 0.000000
0.695735 0.405554 0.000000
0.714382 0.408331 0.000000
0.733730 0.411872 0.000000
0.754238 0.416052 0.000000
0.776944 0.421546 0.000000
0.426398 0.430854 0.081178
0.426795 0.431006 0.080049
0.428412 0.431495 0.078614
0.431708 0.432746 0.069978
0.437140 0.434668 0.057771
0.444862 0.437568 0.038972
0.455177 0.441566 0.015106
0.468299 0.446754 0.000000
0.481361 0.451667 0.000000
0.484169 0.451179 0.011627
0.487282 0.450690 0.072480
0.490455 0.449805 0.105470
0.491371 0.446174 0.130251
0.492134 0.441962 0.152316
0.492622 0.437324 0.172763
0.492531 0.432197 0.192416
0.492073 0.426917 0.211093
0.491188 0.421576 0.229465
0.496284 0.423682 0.249088
0.515099 0.430304 0.245457
0.542748 0.434150 0.216922
0.569940 0.436255 0.184207
0.596674 0.437110 0.144228
0.623102 0.437171 0.076936
0.643641 0.435248 0.000000
0.662074 0.432990 0.000000
0.680659 0.431281 0.000000
0.699580 0.430060 0.000000
0.718685 0.430457 0.000000
0.738094 0.433417 0.000000
0.758877 0.437354 0.000000
0.782040 0.442725 0.000000
0.442756 0.454414 0.090547
0.443122 0.454688 0.090150
0.452979 0.467506 0.094942
0.456123 0.468727 0.091951
0.461158 0.470680 0.086519
0.468177 0.473457 0.074220
0.477607 0.477180 0.049928
0.489723 0.482063 0.017243
0.504570 0.488228 0.000000
0.511284 0.489906 0.003388
0.514214 0.489296 0.067262
0.517205 0.488594 0.105470
0.519158 0.486091 0.129946
0.519463 0.481544 0.152895
0.519493 0.476356 0.174044
0.519188 0.470710 0.193942
0.518334 0.464637 0.212772
0.517174 0.458534 0.230869
0.515679 0.452491 0.248692
0.519280 0.452979 0.267460
0.534874 0.459754 0.271122
0.562463 0.463844 0.242802
0.589837 0.466194 0.210758
0.616876 0.467170 0.172885
0.643458 0.466773 0.120546
0.667109 0.464881 0.000000
0.684962 0.461799 0.000000
0.703304 0.459358 0.000000
0.722316 0.457740 0.000000
0.742397 0.457069 0.000000
0.763729 0.459663 0.000000
0.787167 0.464698 0.000000
0.460487 0.481117 0.100038
0.461616 0.482399 0.100130
0.463813 0.484169 0.099825
0.467414 0.486427 0.097841
0.472480 0.489021 0.094667
0.479133 0.492042 0.088228
0.487831 0.495705 0.070954
0.498787 0.500175 0.040406
0.512230 0.505821 0.003388
0.525109 0.510918 0.000000
0.527733 0.510399 0.042145
0.530632 0.509758 0.096223
0.533471 0.508751 0.120912
0.534508 0.505241 0.144717
0.534813 0.500633 0.166751
0.534874 0.495552 0.187137
0.534569 0.490211 0.206516
0.534112 0.484688 0.225101
0.533440 0.479255 0.243320
0.532555 0.474128 0.261234
0.535668 0.474098 0.280034
0.549065 0.482429 0.291478
0.577050 0.487465 0.263981
0.604883 0.490486 0.233036
0.632166 0.491859 0.196597
0.658747 0.491524 0.150240
0.684749 0.490059 0.047608
0.704494 0.487312 0.000000
0.723537 0.485145 0.000000
0.743984 0.484169 0.000000
0.766415 0.484657 0.000000
0.791165 0.486610 0.000000
0.473884 0.501762 0.105440
0.474952 0.503105 0.106050
0.477211 0.504906 0.105531
0.480385 0.507164 0.104005
0.485206 0.509850 0.100771
0.491493 0.512749 0.095644
0.499428 0.516197 0.087251
0.509453 0.520439 0.064637
0.521843 0.525719 0.028321
0.536522 0.532067 0.000000
0.542931 0.533593 0.016358
0.545678 0.532982 0.083955
0.548455 0.532158 0.113130
0.551141 0.530907 0.136477
0.551568 0.526726 0.159792
0.551873 0.522148 0.180789
0.551965 0.517205 0.200839
0.551751 0.512139 0.219821
0.551507 0.507073 0.238254
0.551141 0.502068 0.256413
0.550530 0.497353 0.274479
0.553002 0.496773 0.293126
0.564111 0.506126 0.312200
0.592523 0.511864 0.285222
0.620386 0.515282 0.255253
0.647669 0.516655 0.220584
0.674372 0.516442 0.178042
0.700893 0.515160 0.115511
0.725002 0.513268 0.000000
0.745907 0.512108 0.000000
0.768826 0.512474 0.000000
0.794034 0.514305 0.000000
0.487800 0.523827 0.110506
0.488808 0.525017 0.111147
0.490730 0.526665 0.110750
0.493843 0.528832 0.109285
0.498268 0.531273 0.106416
0.504021 0.534081 0.102022
0.511467 0.537407 0.094606
0.520745 0.541405 0.082490
0.532158 0.546410 0.051392
0.545922 0.552453 0.008667
0.558862 0.557733 0.000000
0.561395 0.557153 0.055909
0.564202 0.556481 0.103151
0.567041 0.555627 0.128328
0.568963 0.553521 0.151858
0.569635 0.549523 0.173983
0.570245 0.545464 0.195071
0.570825 0.541283 0.215183
0.571466 0.537285 0.234684
0.572045 0.533440 0.253758
0.572595 0.529839 0.272740
0.572992 0.526452 0.291630
0.575189 0.525750 0.310796
0.586572 0.536431 0.332921
0.613458 0.543114 0.312200
0.641688 0.546746 0.283452
0.669398 0.548363 0.250858
0.696986 0.548577 0.211704
0.725582 0.548425 0.159304
0.755825 0.548425 0.005341
0.780697 0.548852 0.000000
0.807370 0.550835 0.000000
0.506645 0.554009 0.119295
0.507286 0.554620 0.119356
0.508629 0.555474 0.118746
0.510948 0.556725 0.117220
0.514794 0.558465 0.114168
0.519860 0.560632 0.109865
0.526726 0.563561 0.103944
0.535363 0.567346 0.095186
0.546136 0.572045 0.078370
0.559075 0.577722 0.038270
0.574151 0.584222 0.000000
0.580804 0.585992 0.028046
0.583520 0.585443 0.094484
0.586328 0.584741 0.122530
0.589197 0.583948 0.146120
0.590539 0.580926 0.169192
0.591150 0.576928 0.191012
0.591730 0.572839 0.211795
0.592279 0.568780 0.231510
0.592767 0.564691 0.250736
0.593256 0.560632 0.269749
0.593591 0.556786 0.288457
0.593652 0.553033 0.306920
0.594507 0.550713 0.325597
0.605341 0.560693 0.347875
0.629114 0.567742 0.335088
0.657404 0.571527 0.307286
0.685634 0.573632 0.276188
0.715053 0.575280 0.239261
0.746120 0.576745 0.191257
0.779294 0.578332 0.110750
0.810941 0.580285 0.000000
0.521355 0.577996 0.123049
0.521904 0.578515 0.122896
0.523095 0.579339 0.122591
0.525414 0.580560 0.121340
0.528954 0.582147 0.118807
0.533745 0.584253 0.114717
0.540124 0.586938 0.108980
0.548272 0.590417 0.101045
0.558312 0.594690 0.090089
0.570367 0.599817 0.062959
0.584314 0.605737 0.017182
0.597620 0.610895 0.000000
0.600366 0.610498 0.075715
0.603174 0.610071 0.113558
0.606195 0.609522 0.139437
0.609247 0.608850 0.162112
0.610163 0.605402 0.185428
0.611017 0.601801 0.206973
0.611902 0.598138 0.227634
0.612726 0.594446 0.247501
0.613519 0.590845 0.267124
0.614191 0.587274 0.286320
0.614679 0.583764 0.305303
0.614954 0.580407 0.324102
0.612055 0.573297 0.339208
0.622614 0.582940 0.361944
0.643732 0.590753 0.357427
0.672328 0.595056 0.330877
0.702327 0.598596 0.300664
0.734096 0.601984 0.265232
0.768154 0.605371 0.220310
0.804898 0.608911 0.152438
0.538872 0.606592 0.130312
0.539605 0.607385 0.130800
0.540734 0.608087 0.130343
0.542779 0.608850 0.128878
0.545708 0.609827 0.126192
0.549950 0.611170 0.122194
0.555444 0.612940 0.116915
0.562615 0.615381 0.109590
0.571557 0.618585 0.100130
0.582300 0.622583 0.085573
0.594965 0.627161 0.044862
0.609735 0.632654 0.000000
0.616388 0.633967 0.033448
0.618830 0.633143 0.100038
0.621424 0.632136 0.128786
0.624140 0.631159 0.152956
0.626276 0.629297 0.175692
0.627008 0.625757 0.198337
0.627985 0.622339 0.219730
0.629084 0.619104 0.240696
0.630243 0.615961 0.260960
0.631220 0.612696 0.280766
0.631922 0.609308 0.300023
0.632288 0.605737 0.318944
0.632197 0.602075 0.337316
0.631708 0.598352 0.355474
0.641016 0.606470 0.378363
0.659449 0.615045 0.381811
0.689540 0.620386 0.355505
0.721614 0.625452 0.326177
0.755947 0.630579 0.291997
0.793179 0.636072 0.249943
0.552209 0.628321 0.132357
0.552850 0.629053 0.133120
0.554009 0.629786 0.132815
0.555962 0.630701 0.131441
0.558953 0.631830 0.129335
0.563104 0.633387 0.126162
0.568688 0.635462 0.121920
0.575799 0.638178 0.115602
0.584527 0.641535 0.107698
0.594934 0.645563 0.097139
0.607080 0.650080 0.077546
0.621149 0.655207 0.030732
0.634821 0.659815 0.000000
0.637324 0.659205 0.089021
0.639918 0.658350 0.121706
0.642573 0.657465 0.147646
0.645441 0.656580 0.170809
0.647059 0.654139 0.193637
0.648005 0.650874 0.216190
0.649134 0.647791 0.237827
0.650416 0.644800 0.258793
0.651575 0.641871 0.279210
0.652583 0.638819 0.299260
0.653407 0.635615 0.318791
0.653864 0.632410 0.337957
0.653925 0.629145 0.356878
0.653712 0.626001 0.375525
0.662593 0.633600 0.399023
0.680049 0.644465 0.411322
0.712734 0.651820 0.386175
0.747921 0.659083 0.358343
0.785855 0.666621 0.326452
0.568170 0.653773 0.138430
0.568566 0.654139 0.138613
0.569543 0.654658 0.138125
0.571344 0.655329 0.137057
0.574060 0.656245 0.135042
0.577935 0.657588 0.132021
0.583185 0.659388 0.127535
0.589807 0.661738 0.122011
0.598047 0.664698 0.114809
0.607904 0.668330 0.104982
0.619623 0.672572 0.091188
0.633143 0.677485 0.053223
0.648554 0.682948 0.000000
0.656214 0.684688 0.036896
0.658747 0.683894 0.106691
0.661433 0.683101 0.136995
0.664302 0.682338 0.162753
0.667414 0.681697 0.185672
0.668605 0.678828 0.209628
0.669825 0.675959 0.232303
0.671168 0.673213 0.254368
0.672511 0.670436 0.275547
0.673701 0.667536 0.296208
0.674617 0.664515 0.316381
0.675288 0.661341 0.336126
0.675624 0.658137 0.355383
0.675746 0.654994 0.374548
0.675502 0.652033 0.393500
0.684169 0.659113 0.417243
0.700374 0.672328 0.439094
0.735836 0.681880 0.415686
0.774258 0.691707 0.390143
0.583856 0.678431 0.141482
0.584283 0.678798 0.141665
0.585260 0.679316 0.141329
0.587030 0.680110 0.140322
0.589929 0.681270 0.138705
0.594049 0.683040 0.136049
0.599695 0.685634 0.132937
0.606897 0.688960 0.128908
0.615778 0.693050 0.123720
0.626398 0.697841 0.116579
0.638911 0.703334 0.106905
0.653223 0.709255 0.092470
0.669398 0.715663 0.052827
0.685695 0.721523 0.007965
0.688991 0.721736 0.101534
0.692134 0.721492 0.136507
0.695308 0.721035 0.164401
0.698695 0.720668 0.189090
0.701839 0.719905 0.212955
0.703212 0.717342 0.237003
0.704707 0.714809 0.260044
0.706233 0.712245 0.282475
0.707515 0.709499 0.303960
0.708644 0.706600 0.325017
0.709438 0.703578 0.345464
0.709987 0.700465 0.365728
0.710262 0.697414 0.385718
0.710414 0.694484 0.405524
0.710323 0.691890 0.425269
0.718837 0.698421 0.449378
0.735744 0.713741 0.478096
0.773739 0.726253 0.461189
0.608667 0.715389 0.153841
0.608911 0.715450 0.153719
0.609674 0.715663 0.153170
0.611261 0.716152 0.151949
0.613855 0.716976 0.149783
0.617609 0.718196 0.146883
0.622705 0.719997 0.143191
0.629267 0.722347 0.138064
0.637324 0.725277 0.132021
0.647150 0.728939 0.123476
0.658686 0.733089 0.112581
0.672053 0.737850 0.096803
0.687282 0.743099 0.057374
0.704402 0.748684 0.000000
