20 Preset/Nude style/【3】LUT video cho PR-AE-FCPX/Tone  (6).cube
# Created by Adobe Lightroom plugin Export LUT (1.24.0)
# www.johnrellis.com/lightroom/exportlut.htm
# Preset: 奶油裸色-素材江湖07
# Color profile: C:\Program Files (x86)\Common Files\Adobe\Color\Profiles\Recommended\VideoHD.icc
LUT_3D_SIZE 32
DOMAIN_MIN 0.0 0.0 0.0
DOMAIN_MAX 1.0 1.0 1.0
0.129183 0.110658 0.112673
0.132418 0.110842 0.112551
0.144381 0.111177 0.113161
0.166720 0.112825 0.113802
0.195621 0.114778 0.114595
0.229465 0.116548 0.115511
0.264103 0.119753 0.116426
0.298863 0.122927 0.117220
0.333013 0.126223 0.117311
0.366064 0.130648 0.118074
0.398688 0.135378 0.118410
0.430610 0.140749 0.118288
0.462013 0.146792 0.118227
0.492927 0.153414 0.117983
0.523095 0.160708 0.117800
0.552544 0.168795 0.117708
0.581384 0.177157 0.118013
0.609308 0.186374 0.118349
0.636774 0.194888 0.118502
0.663600 0.204257 0.119203
0.689906 0.213291 0.119631
0.715053 0.222293 0.120424
0.739498 0.230991 0.121614
0.764065 0.239750 0.122835
0.789059 0.248447 0.124361
0.814664 0.257664 0.126162
0.841367 0.266941 0.128420
0.869200 0.276493 0.131014
0.898039 0.286198 0.134646
0.927947 0.296330 0.139254
0.958770 0.306645 0.145235
0.990204 0.317510 0.153231
0.131472 0.113130 0.113527
0.132082 0.112734 0.113558
0.144076 0.114015 0.114015
0.166629 0.115236 0.114382
0.195804 0.117098 0.115175
0.229038 0.119539 0.116335
0.263676 0.122103 0.117311
0.298375 0.125246 0.117800
0.332647 0.128725 0.118135
0.365728 0.132815 0.118349
0.398291 0.137453 0.118959
0.430335 0.142672 0.118837
0.461799 0.148592 0.118502
0.492744 0.154910 0.118288
0.522911 0.162325 0.118074
0.552392 0.170108 0.118013
0.581170 0.178714 0.118257
0.609186 0.187381 0.118715
0.636622 0.196139 0.119051
0.663478 0.205112 0.119570
0.689754 0.214115 0.119997
0.714961 0.222934 0.120821
0.739376 0.231632 0.122011
0.763973 0.240421 0.123171
0.788937 0.249332 0.124636
0.814603 0.258274 0.126467
0.841306 0.267460 0.128511
0.869139 0.276951 0.131350
0.898009 0.286717 0.134920
0.927916 0.296818 0.139315
0.958709 0.307134 0.145480
0.990204 0.317876 0.153506
0.141024 0.123018 0.116732
0.143282 0.122683 0.117342
0.145144 0.121584 0.118013
0.164584 0.124849 0.118166
0.194491 0.127230 0.118227
0.227481 0.129793 0.119295
0.262028 0.132479 0.120211
0.296849 0.134829 0.120455
0.331212 0.138003 0.120821
0.364355 0.141329 0.120821
0.397040 0.145449 0.120607
0.429297 0.149813 0.119966
0.460822 0.155367 0.119936
0.491676 0.161807 0.119631
0.522148 0.168154 0.119265
0.551629 0.175753 0.119448
0.580529 0.183688 0.119448
0.608606 0.192020 0.119905
0.636042 0.200504 0.120272
0.662959 0.209232 0.120760
0.689235 0.217990 0.120912
0.714412 0.226505 0.122042
0.738918 0.234989 0.123201
0.763546 0.243626 0.124361
0.788510 0.252171 0.125887
0.814298 0.260929 0.127687
0.841001 0.270176 0.129885
0.868833 0.279545 0.132692
0.897734 0.289189 0.135988
0.927672 0.299168 0.140505
0.958465 0.309361 0.146639
0.989990 0.319982 0.154574
0.158572 0.141238 0.123690
0.160769 0.140932 0.124514
0.165774 0.139956 0.126406
0.168124 0.138186 0.127932
0.188998 0.142184 0.128786
0.224033 0.146212 0.126497
0.258976 0.148775 0.125704
0.293645 0.151217 0.125673
0.328374 0.153567 0.125246
0.361852 0.156283 0.124483
0.394903 0.159670 0.123751
0.427192 0.163210 0.123232
0.459083 0.168093 0.122896
0.490120 0.173709 0.122652
0.520531 0.179721 0.122255
0.550225 0.186648 0.122438
0.579248 0.193790 0.122499
0.607324 0.201328 0.123018
0.634882 0.209262 0.123354
0.661830 0.217533 0.123537
0.688106 0.225437 0.123842
0.713344 0.233555 0.124666
0.737942 0.241550 0.125551
0.762631 0.249760 0.126741
0.787747 0.257908 0.128237
0.813535 0.266484 0.130220
0.840330 0.275547 0.132326
0.868254 0.284550 0.135073
0.897215 0.293858 0.138308
0.927214 0.303746 0.143160
0.958038 0.313878 0.149050
0.989654 0.324407 0.157168
0.182071 0.165438 0.133852
0.184085 0.164797 0.134646
0.191043 0.163058 0.137362
0.193454 0.161776 0.138216
0.195956 0.158511 0.139620
0.214633 0.161379 0.140352
0.251286 0.166812 0.136324
0.289494 0.170352 0.132448
0.324315 0.172854 0.131228
0.358282 0.175357 0.130220
0.391455 0.178012 0.129122
0.424140 0.181399 0.128298
0.456153 0.185550 0.127749
0.487617 0.190249 0.127291
0.518212 0.195712 0.127138
0.547906 0.201846 0.127352
0.577173 0.208103 0.127169
0.605402 0.215061 0.127382
0.632990 0.222263 0.127474
0.660029 0.229313 0.127565
0.686336 0.236820 0.127810
0.711727 0.244083 0.128450
0.736416 0.251499 0.129854
0.761318 0.259037 0.130770
0.786435 0.266880 0.132174
0.812345 0.275120 0.134035
0.839292 0.283421 0.136202
0.867308 0.292241 0.139010
0.896361 0.301396 0.142275
0.926452 0.310948 0.146914
0.957366 0.320806 0.152987
0.989014 0.331151 0.161349
0.208133 0.192660 0.142947
0.209537 0.192325 0.143404
0.215885 0.190249 0.146029
0.222049 0.188602 0.148074
0.224033 0.185428 0.149233
0.225406 0.180301 0.150942
0.239689 0.181186 0.151949
0.278019 0.187869 0.146792
0.316747 0.192721 0.141756
0.353582 0.196445 0.138033
0.387091 0.199374 0.136660
0.420020 0.202609 0.135348
0.452461 0.206302 0.135073
0.484138 0.210666 0.134585
0.514946 0.215335 0.133974
0.544945 0.220676 0.133913
0.574182 0.226230 0.133547
0.602716 0.232181 0.133547
0.630488 0.238437 0.133455
0.657343 0.244694 0.133669
0.683894 0.251316 0.133700
0.709346 0.258061 0.134310
0.734279 0.264591 0.135225
0.759304 0.271611 0.136355
0.784665 0.278721 0.137484
0.810727 0.286412 0.139315
0.837858 0.294347 0.141482
0.865965 0.302800 0.144137
0.895201 0.311528 0.147829
0.925383 0.320714 0.152438
0.956451 0.330327 0.158541
0.988220 0.340368 0.166629
0.235721 0.222812 0.152895
0.237308 0.222477 0.153323
0.242771 0.220676 0.155520
0.252079 0.217624 0.159762
0.254948 0.215732 0.160220
0.255436 0.210300 0.161501
0.256168 0.204105 0.163027
0.265202 0.202213 0.165438
0.303716 0.210391 0.159243
0.342351 0.216403 0.153719
0.380591 0.221225 0.148440
0.415320 0.225315 0.145785
0.447913 0.229068 0.144991
0.479835 0.233158 0.144045
0.510857 0.237369 0.143252
0.541039 0.242008 0.142794
0.570581 0.246891 0.142214
0.599298 0.252079 0.141787
0.626978 0.257420 0.141604
0.653986 0.262974 0.141604
0.680659 0.268742 0.141512
0.706325 0.274510 0.141970
0.731533 0.280583 0.142336
0.756832 0.286809 0.143435
0.782406 0.293370 0.144472
0.808621 0.300664 0.146334
0.835935 0.307897 0.148226
0.864225 0.315801 0.151125
0.893584 0.324346 0.154665
0.923980 0.333074 0.159518
0.955230 0.342412 0.165682
0.987060 0.352148 0.173953
0.265690 0.255039 0.165042
0.267002 0.254765 0.165621
0.271855 0.253269 0.167422
0.280552 0.250462 0.171450
0.286839 0.247745 0.173892
0.288121 0.243595 0.174746
0.287968 0.237278 0.176089
0.287724 0.229679 0.177615
0.292790 0.225467 0.180209
0.328923 0.233982 0.174685
0.367437 0.241062 0.168704
0.405249 0.247013 0.162905
0.442390 0.252354 0.157412
0.474739 0.256443 0.155642
0.505974 0.260624 0.154421
0.536431 0.264714 0.153384
0.566033 0.269230 0.152438
0.594903 0.273716 0.151705
0.622644 0.278294 0.151217
0.649897 0.283146 0.150851
0.676722 0.288212 0.150423
0.702632 0.293370 0.150423
0.728115 0.298619 0.151064
0.753658 0.304295 0.151858
0.779507 0.310369 0.153201
0.806058 0.316747 0.154604
0.833585 0.323735 0.156863
0.862119 0.331212 0.159457
0.891691 0.339208 0.162936
0.922271 0.347753 0.168002
0.953704 0.356634 0.174258
0.985657 0.366247 0.182773
0.296269 0.288914 0.180423
0.297581 0.288670 0.180758
0.301457 0.287449 0.182528
0.309422 0.285039 0.186099
0.318883 0.281590 0.191257
0.321569 0.279057 0.191440
0.321141 0.272923 0.192233
0.320348 0.265354 0.193179
0.319463 0.256687 0.194003
0.321874 0.250309 0.195743
0.353704 0.258030 0.191684
0.391516 0.266178 0.185275
0.429053 0.273014 0.179141
0.465553 0.278874 0.173190
0.500603 0.284123 0.167758
0.531121 0.288212 0.166201
0.560754 0.292332 0.164828
0.589532 0.296330 0.163668
0.617578 0.300298 0.162722
0.645045 0.304692 0.161837
0.672053 0.309300 0.161440
0.698238 0.313817 0.161318
0.724025 0.318578 0.161501
0.749996 0.323552 0.162081
0.776089 0.329198 0.163088
0.802976 0.335149 0.164523
0.830747 0.341711 0.166690
0.859556 0.348821 0.169345
0.889372 0.356390 0.173159
0.920195 0.364538 0.177920
0.951843 0.373144 0.184665
0.984039 0.382330 0.193088
0.326909 0.324407 0.197848
0.327977 0.324071 0.198337
0.331365 0.323003 0.199893
0.338445 0.320958 0.203464
0.347845 0.317906 0.208682
0.353552 0.314702 0.211063
0.354650 0.310246 0.211002
0.353643 0.302983 0.211551
0.352087 0.294347 0.211826
0.350286 0.284550 0.212039
0.350652 0.276005 0.212711
0.377478 0.282292 0.209934
0.414923 0.291264 0.203250
0.451667 0.298772 0.196567
0.487678 0.305150 0.190036
0.522515 0.310796 0.183444
0.554559 0.315435 0.178897
0.583490 0.319402 0.177279
0.611749 0.323247 0.175845
0.639460 0.327184 0.174746
0.666743 0.331395 0.173709
0.693263 0.335424 0.173434
0.719387 0.339727 0.173281
0.745663 0.344396 0.173739
0.772152 0.349493 0.174502
0.799344 0.355077 0.175906
0.827420 0.361242 0.177981
0.856596 0.367895 0.180514
0.886717 0.375280 0.184482
0.917845 0.383062 0.189517
0.949645 0.391394 0.196170
0.982086 0.400366 0.204868
0.357183 0.361151 0.217502
0.357916 0.360876 0.217777
0.361212 0.360113 0.219455
0.367376 0.358251 0.222507
0.376226 0.355535 0.227268
0.385504 0.352087 0.232822
0.387488 0.348821 0.232059
0.386938 0.342168 0.231937
0.385290 0.333623 0.231724
0.383185 0.323857 0.231357
0.380316 0.312779 0.230625
0.378546 0.302281 0.229953
0.400031 0.306310 0.228275
0.436713 0.315801 0.221195
0.472663 0.323674 0.214176
0.507927 0.330571 0.207340
0.542229 0.336584 0.200473
0.575677 0.341924 0.193820
0.605432 0.346197 0.190311
0.633234 0.349981 0.188815
0.660822 0.353826 0.187594
0.687587 0.357641 0.186709
0.714168 0.361730 0.186465
0.740871 0.366033 0.186557
0.767758 0.370733 0.187228
0.795254 0.376104 0.188540
0.823758 0.381964 0.190494
0.853239 0.388464 0.193393
0.883665 0.395544 0.197055
0.915129 0.403113 0.202335
0.947173 0.411292 0.209323
0.979828 0.420050 0.218387
0.386603 0.398840 0.238132
0.387427 0.398627 0.238499
0.390204 0.397833 0.239689
0.395666 0.396338 0.242588
0.403754 0.394049 0.246891
0.413703 0.390784 0.253056
0.418708 0.387182 0.254856
0.419776 0.382452 0.253666
0.418006 0.374121 0.253117
0.415686 0.364355 0.252140
0.412665 0.353124 0.250797
0.409033 0.341039 0.249363
0.404974 0.327947 0.247257
0.421088 0.329534 0.246403
0.457130 0.339513 0.239261
0.492683 0.348028 0.232090
0.527276 0.355413 0.225071
0.561242 0.361761 0.218143
0.594171 0.367437 0.211276
0.626276 0.372595 0.204227
0.654383 0.376440 0.202579
0.681453 0.380224 0.201297
0.708461 0.384100 0.200626
0.735561 0.388373 0.200748
0.762814 0.392981 0.201205
0.790768 0.397986 0.202487
0.819669 0.403601 0.204288
0.849516 0.409979 0.207065
0.880308 0.416968 0.211124
0.912047 0.424353 0.216556
0.944457 0.432380 0.223697
0.977386 0.441077 0.233036
0.414954 0.436774 0.259464
0.415503 0.436683 0.259586
0.417945 0.435950 0.260960
0.423072 0.434607 0.263523
0.430304 0.432471 0.267399
0.439582 0.429511 0.273045
0.448676 0.425818 0.278538
0.449897 0.421576 0.277043
0.449531 0.414740 0.275700
0.447120 0.405127 0.274144
0.444373 0.394171 0.272435
0.440803 0.382147 0.270359
0.436652 0.368963 0.267826
0.431617 0.354772 0.264897
0.441413 0.352300 0.264286
0.476753 0.362951 0.257023
0.511620 0.371923 0.249821
0.545861 0.379706 0.242741
0.579339 0.386358 0.235874
0.612055 0.392432 0.229191
0.644312 0.397864 0.222354
0.674922 0.402747 0.217044
0.702358 0.406744 0.216068
0.729854 0.410895 0.215824
0.757534 0.415381 0.216281
0.785855 0.420508 0.217288
0.815213 0.426093 0.219364
0.845426 0.432349 0.222202
0.876616 0.439155 0.226352
0.908659 0.446632 0.231876
0.941405 0.454658 0.239384
0.974670 0.463386 0.249363
0.441321 0.473976 0.281102
0.441779 0.473915 0.281376
0.444160 0.473365 0.282658
0.448615 0.472114 0.284886
0.455360 0.470222 0.288548
0.464057 0.467659 0.293614
0.474464 0.464271 0.300359
0.478584 0.460151 0.301213
0.479713 0.455177 0.298985
0.477699 0.446204 0.297246
0.475044 0.435676 0.295079
0.471748 0.423896 0.292729
0.467842 0.410834 0.289860
0.463111 0.396765 0.286656
0.457557 0.381659 0.282780
0.461646 0.375280 0.281865
0.495613 0.385870 0.274876
0.529870 0.395270 0.267826
0.563714 0.403479 0.260807
0.596796 0.410681 0.254185
0.629664 0.417151 0.247532
0.662104 0.423072 0.241123
0.693996 0.428717 0.235050
0.723781 0.433509 0.231998
0.751888 0.438117 0.232273
0.780667 0.443275 0.233341
0.810391 0.448981 0.235172
0.841062 0.455268 0.238346
0.872618 0.462165 0.242649
0.905089 0.469642 0.248600
0.938079 0.477790 0.256718
0.971710 0.486641 0.267247
0.466285 0.510582 0.303655
0.466773 0.510430 0.303929
0.468849 0.510002 0.304967
0.472999 0.508873 0.307073
0.479377 0.507195 0.310399
0.487526 0.504906 0.315160
0.497292 0.501946 0.321263
0.506096 0.498238 0.326757
0.506981 0.493416 0.324163
0.506920 0.486702 0.321599
0.504417 0.476783 0.319219
0.501396 0.465431 0.316472
0.497841 0.452857 0.313268
0.493507 0.439155 0.309575
0.488441 0.424231 0.305303
0.482521 0.408362 0.300694
0.484871 0.400092 0.298741
0.513725 0.408362 0.292821
0.547601 0.418280 0.285893
0.581079 0.426917 0.279179
0.614466 0.434730 0.272618
0.647669 0.442023 0.266514
0.680446 0.448646 0.260685
0.712856 0.454871 0.255406
0.745113 0.460639 0.250431
0.775174 0.466163 0.250278
0.805325 0.472084 0.252323
0.836362 0.478584 0.255680
0.868406 0.485634 0.260136
0.901183 0.493324 0.266545
0.934661 0.501610 0.275181
0.968536 0.510613 0.286412
0.490333 0.546258 0.326909
0.490822 0.546136 0.327214
0.492683 0.545708 0.328161
0.496376 0.544762 0.330053
0.502190 0.543297 0.333135
0.509850 0.541192 0.337438
0.519097 0.538567 0.343114
0.529473 0.535302 0.350164
0.533349 0.530907 0.350591
0.534081 0.525505 0.347601
0.532647 0.516991 0.344640
0.529808 0.506249 0.341436
0.526574 0.494331 0.338018
0.522667 0.481209 0.333989
0.518120 0.466804 0.329473
0.512749 0.451484 0.324529
0.506584 0.434882 0.318944
0.507439 0.424994 0.315923
0.531243 0.430671 0.310948
0.564843 0.441047 0.304356
0.598596 0.450477 0.298039
0.632654 0.459236 0.291966
0.666194 0.467384 0.286625
0.699550 0.474739 0.281590
0.732570 0.481636 0.277287
0.766018 0.488472 0.273381
0.799893 0.495369 0.270634
0.831449 0.502037 0.273991
0.863951 0.509392 0.278935
0.897154 0.517388 0.285832
0.930999 0.525994 0.295079
0.965240 0.535271 0.307042
0.513207 0.580652 0.350958
0.513725 0.580468 0.351171
0.515282 0.580133 0.352026
0.518853 0.579278 0.353796
0.524102 0.577996 0.356725
0.531212 0.576257 0.360601
0.540032 0.573846 0.365698
0.550134 0.570916 0.372320
0.558709 0.567254 0.377569
0.559503 0.562310 0.374456
0.559991 0.556268 0.370855
0.557488 0.546319 0.367559
0.554376 0.535058 0.363897
0.550774 0.522545 0.359716
0.546593 0.508873 0.354986
0.541772 0.494118 0.349706
0.536217 0.478309 0.343908
0.529992 0.461341 0.337652
0.529442 0.449989 0.333623
0.548516 0.452918 0.329442
0.582483 0.464302 0.323491
0.617182 0.474922 0.317662
0.651484 0.484657 0.312535
0.685603 0.493477 0.308171
0.719417 0.501671 0.304326
0.753658 0.509636 0.301274
0.788571 0.517540 0.298894
0.824216 0.525475 0.297246
0.859312 0.533410 0.298955
0.893004 0.541833 0.306401
0.927276 0.550805 0.316381
0.961822 0.560510 0.329412
0.534661 0.612451 0.375952
0.534936 0.612360 0.376074
0.536492 0.611994 0.376898
0.539666 0.611322 0.378515
0.544579 0.610193 0.381048
0.551202 0.608606 0.384741
0.559380 0.606561 0.389502
0.569024 0.603967 0.395453
0.579461 0.600977 0.402533
0.583124 0.596704 0.402258
0.583948 0.591485 0.398535
0.583337 0.584100 0.394720
0.580804 0.573846 0.390784
0.577661 0.562493 0.386297
0.574029 0.549828 0.381506
0.569879 0.536034 0.376196
0.564965 0.520989 0.370245
0.559228 0.504906 0.363836
0.552941 0.487800 0.356909
0.551476 0.475380 0.352026
0.566552 0.476051 0.348821
0.601495 0.488716 0.343572
0.636439 0.500206 0.338781
0.671168 0.510796 0.334844
0.705867 0.520439 0.331792
0.740810 0.529747 0.329351
0.776516 0.539055 0.327947
0.813016 0.548302 0.327489
0.850095 0.557427 0.328344
0.887633 0.566552 0.330663
0.923430 0.575952 0.339300
0.958312 0.586175 0.353307
0.554772 0.642115 0.401587
0.555108 0.642054 0.401801
0.556542 0.641779 0.402564
0.559411 0.641138 0.404059
0.563867 0.640162 0.406470
0.570062 0.638788 0.409674
0.577752 0.636988 0.414191
0.586877 0.634760 0.419562
0.596887 0.632074 0.426062
0.605371 0.628809 0.431098
0.606287 0.624292 0.427405
0.607202 0.619013 0.423285
0.605615 0.610407 0.419074
0.603082 0.600275 0.414618
0.600153 0.589014 0.409796
0.596735 0.576532 0.404303
0.592767 0.562951 0.398322
0.588159 0.548241 0.391821
0.582757 0.532311 0.384894
0.576654 0.515251 0.377386
0.574395 0.501915 0.371618
0.585748 0.500511 0.369360
0.621180 0.514153 0.365240
0.656550 0.526574 0.361791
0.691859 0.537987 0.359350
0.727596 0.548974 0.357885
0.764096 0.559716 0.357549
0.801419 0.570397 0.358251
0.839322 0.580987 0.360510
0.877745 0.591455 0.364508
0.916258 0.601862 0.370733
0.954620 0.612177 0.379492
0.574792 0.670863 0.428565
0.575097 0.670802 0.428717
0.576471 0.670558 0.429389
0.578973 0.670039 0.430762
0.583215 0.669184 0.432959
0.588891 0.667964 0.436072
0.596063 0.666438 0.440009
0.604517 0.664485 0.445106
0.614191 0.662104 0.451209
0.624537 0.659419 0.458228
0.628138 0.655665 0.457588
0.629175 0.651087 0.453620
0.629633 0.645258 0.449012
0.627649 0.636286 0.444617
0.625208 0.626307 0.439734
0.622522 0.615351 0.434302
0.619318 0.603143 0.428382
0.615595 0.589929 0.421790
0.611383 0.575616 0.414862
0.606470 0.560113 0.407294
0.600885 0.543572 0.399298
0.598169 0.529595 0.392767
0.605951 0.526268 0.391608
0.641810 0.540887 0.388983
0.677760 0.554314 0.387366
0.714107 0.567010 0.386816
0.751339 0.579522 0.387396
0.789517 0.591821 0.389502
0.828336 0.603998 0.393286
0.867582 0.616052 0.399115
0.906981 0.627955 0.407416
0.945983 0.639857 0.418555
0.595148 0.699306 0.456641
0.595453 0.699275 0.456764
0.596674 0.699031 0.457313
0.599176 0.698543 0.458595
0.602930 0.697841 0.460639
0.608209 0.696803 0.463447
0.614954 0.695430 0.467109
0.622889 0.693690 0.471809
0.631983 0.691676 0.477455
0.641962 0.689265 0.484047
0.650294 0.686336 0.488899
0.651240 0.682277 0.485084
0.652369 0.677699 0.480568
0.651820 0.670924 0.475990
0.649775 0.662013 0.471290
0.647517 0.652247 0.466011
0.644892 0.641535 0.460273
0.641962 0.629755 0.453834
0.638636 0.617121 0.447059
0.634852 0.603357 0.439673
0.630488 0.588586 0.431739
0.625544 0.572717 0.423346
0.622370 0.558343 0.416022
0.630365 0.555566 0.416022
0.663661 0.569146 0.415595
0.700587 0.583948 0.416144
0.738552 0.598322 0.417914
0.777554 0.612451 0.421393
0.817197 0.626398 0.426795
0.857389 0.640192 0.434516
0.897612 0.653773 0.444923
0.937316 0.667384 0.458717
0.616022 0.727291 0.485573
0.616236 0.727260 0.485786
0.617395 0.727077 0.486336
0.619623 0.726650 0.487465
0.623194 0.725978 0.489357
0.628046 0.725032 0.491981
0.634272 0.723873 0.495399
0.641840 0.722347 0.499794
0.650416 0.720516 0.504936
0.659968 0.718441 0.511070
0.670100 0.715999 0.518181
0.673793 0.712734 0.517601
0.674922 0.708736 0.513390
0.676112 0.704250 0.508690
0.674617 0.696620 0.504082
0.672724 0.688075 0.499123
0.670527 0.678584 0.493660
0.668116 0.668208 0.487739
0.665370 0.657069 0.481239
0.662348 0.644862 0.474220
0.658930 0.631769 0.466682
0.655085 0.617792 0.458656
0.650904 0.602777 0.450050
0.647547 0.588251 0.441962
0.656916 0.587091 0.443549
0.687221 0.599542 0.445808
0.725887 0.616114 0.448981
0.765621 0.632288 0.453925
0.806210 0.648249 0.461036
0.847257 0.663874 0.470710
0.888273 0.679347 0.483558
0.928710 0.694850 0.500206
0.637293 0.754635 0.515862
0.637568 0.754604 0.515984
0.638666 0.754391 0.516564
0.640772 0.754055 0.517693
0.644007 0.753475 0.519402
0.648585 0.752682 0.521874
0.654353 0.751614 0.525078
0.661402 0.750240 0.529137
0.669520 0.748684 0.533989
0.678614 0.746853 0.539757
0.688380 0.744747 0.546197
0.696590 0.742214 0.551171
0.697871 0.738857 0.547387
0.699214 0.735012 0.543114
0.699794 0.730037 0.538567
0.698268 0.722621 0.533898
0.696559 0.714473 0.528771
0.694606 0.705470 0.523186
0.692531 0.695735 0.517052
0.690028 0.685176 0.510582
0.687434 0.673793 0.503685
0.684535 0.661555 0.496193
0.681270 0.648402 0.488319
0.677760 0.634455 0.479896
0.674067 0.619867 0.471260
0.685115 0.620691 0.475044
0.713497 0.632959 0.480507
0.753994 0.651423 0.487160
0.795529 0.669490 0.496132
0.837522 0.687221 0.508049
0.879332 0.704829 0.523735
0.920409 0.722408 0.543542
0.659327 0.781247 0.547234
0.659541 0.781216 0.547387
0.660517 0.781033 0.547814
0.662470 0.780697 0.548791
0.665492 0.780209 0.550408
0.669795 0.779507 0.552667
0.675105 0.778592 0.555596
0.681758 0.777432 0.559258
0.689448 0.776028 0.563714
0.698085 0.774441 0.568872
0.707362 0.772580 0.574823
0.717281 0.770535 0.581506
0.721309 0.767880 0.581353
0.722774 0.764767 0.577661
0.724392 0.761227 0.573541
0.724178 0.755795 0.569360
0.722866 0.748836 0.564935
0.721462 0.741268 0.560113
0.719905 0.732998 0.554864
0.718135 0.724056 0.549126
0.716243 0.714382 0.542931
0.714168 0.704005 0.536278
0.711971 0.692836 0.529137
0.709499 0.680964 0.521630
0.706935 0.668299 0.513787
0.704067 0.654963 0.505577
0.716121 0.657069 0.511284
0.742977 0.669856 0.521355
0.785397 0.690364 0.532555
0.828275 0.710445 0.547051
0.871061 0.730129 0.565148
0.911284 0.747890 0.584680
0.681880 0.807034 0.578851
0.682155 0.806973 0.578973
0.683040 0.806851 0.579461
0.684810 0.806577 0.580316
0.687678 0.806149 0.581750
0.691554 0.805539 0.583795
0.696620 0.804746 0.586419
0.702876 0.803708 0.589746
0.710079 0.802487 0.593744
0.718257 0.801083 0.598444
0.727199 0.799496 0.603845
0.736782 0.797696 0.609918
0.745266 0.795651 0.614954
0.746914 0.793179 0.611902
0.748684 0.790433 0.608423
0.750607 0.787320 0.604700
0.749752 0.781582 0.601038
0.748867 0.775326 0.597101
0.747799 0.768551 0.592828
0.746731 0.761166 0.588159
0.745541 0.753170 0.583154
0.744350 0.744656 0.577783
0.743038 0.735592 0.572137
0.741634 0.725856 0.566094
0.740230 0.715602 0.559747
0.738766 0.704799 0.553124
0.737331 0.693385 0.546197
0.750179 0.696773 0.554223
0.776211 0.710964 0.570184
0.819913 0.732998 0.586236
0.862058 0.753017 0.603937
0.902647 0.772152 0.624628
0.705165 0.831907 0.610742
0.705409 0.831876 0.610803
0.706294 0.831754 0.611200
0.707942 0.831510 0.612024
0.710536 0.831174 0.613306
0.714168 0.830625 0.615167
0.718898 0.829953 0.617578
0.724727 0.829068 0.620539
0.731533 0.828031 0.624170
0.739254 0.826810 0.628443
0.747860 0.825376 0.633356
0.757107 0.823819 0.638911
0.766812 0.822110 0.645106
0.771511 0.820249 0.645716
0.773495 0.818143 0.643000
0.775692 0.815854 0.640009
0.777066 0.812558 0.637018
0.776699 0.807553 0.633967
0.776333 0.802121 0.630732
0.775875 0.796262 0.627222
0.775479 0.789975 0.623529
0.775174 0.783230 0.619654
0.774807 0.776120 0.615534
0.774502 0.768612 0.611261
0.774289 0.760678 0.606867
0.774197 0.752438 0.602319
0.774289 0.743862 0.597803
0.774502 0.734981 0.593256
0.787472 0.738827 0.602533
0.811521 0.753201 0.622919
0.854185 0.774716 0.641566
0.895048 0.795193 0.663539
0.729335 0.855985 0.643061
0.729519 0.855955 0.643153
0.730251 0.855863 0.643488
0.731868 0.855650 0.644282
0.734310 0.855344 0.645472
0.737728 0.854856 0.647150
0.742153 0.854276 0.649348
0.747616 0.853544 0.652155
0.753964 0.852628 0.655543
0.761318 0.851591 0.659480
0.769467 0.850401 0.664057
0.778256 0.849088 0.669245
0.787686 0.847623 0.675013
0.796414 0.846098 0.680323
0.798703 0.844602 0.678279
0.801205 0.843015 0.676051
0.803952 0.841306 0.673671
0.804959 0.837980 0.671412
0.805203 0.833829 0.669215
0.805570 0.829404 0.666896
0.805966 0.824674 0.664454
0.806516 0.819669 0.662013
0.807156 0.814389 0.659480
0.808042 0.808927 0.657038
0.808743 0.802914 0.654170
0.809415 0.796414 0.650965
0.810208 0.789578 0.647761
0.811185 0.782589 0.644617
0.812406 0.775418 0.641566
0.825132 0.779477 0.652003
0.849119 0.795743 0.677943
0.888640 0.817227 0.701961
0.754726 0.879210 0.677089
0.754849 0.879179 0.677150
0.755550 0.879118 0.677485
0.756985 0.878935 0.678218
0.759274 0.878660 0.679316
0.762448 0.878264 0.680873
0.766537 0.877806 0.682979
0.771633 0.877165 0.685573
0.777615 0.876432 0.688716
0.784543 0.875547 0.692439
0.792233 0.874540 0.696712
0.800595 0.873442 0.701503
0.809567 0.872221 0.706966
0.818936 0.870939 0.712886
