20 Preset/Nude style/【3】LUT video cho PR-AE-FCPX/Tone  (4).cube
# Created by Adobe Lightroom plugin Export LUT (1.24.0)
# www.johnrellis.com/lightroom/exportlut.htm
# Preset: 奶油裸色-素材江湖05
# Color profile: C:\Program Files (x86)\Common Files\Adobe\Color\Profiles\Recommended\VideoHD.icc
LUT_3D_SIZE 8
DOMAIN_MIN 0.000000 0.000000 0.000000
DOMAIN_MAX 0.903226 0.903226 0.903226
0.000000 0.000000 0.000000
0.143526 0.000000 0.000000
0.261357 0.031189 0.000000
0.364691 0.092897 0.000000
0.452369 0.130251 0.000000
0.529168 0.166567 0.000000
0.606073 0.203128 0.000000
0.682460 0.239017 0.000000
0.133669 0.116793 0.000000
0.151553 0.109438 0.022522
0.261662 0.111269 0.000000
0.361273 0.126864 0.000000
0.448280 0.151339 0.000000
0.524743 0.179751 0.000000
0.596399 0.209567 0.000000
0.673304 0.243076 0.000000
0.247684 0.221195 0.032074
0.278019 0.227420 0.002411
0.277653 0.209384 0.102571
0.381628 0.222232 0.008942
0.464637 0.223667 0.000000
0.541405 0.238773 0.000000
0.615595 0.260258 0.000000
0.692012 0.286290 0.000000
0.349218 0.330297 0.047089
0.366461 0.335241 0.019715
0.398901 0.341680 0.052155
0.405249 0.327855 0.155825
0.484718 0.342321 0.128359
0.569024 0.333654 0.000000
0.634394 0.336187 0.000000
0.705715 0.350317 0.000000
0.426398 0.430854 0.081178
0.437140 0.434668 0.057771
0.481361 0.451667 0.000000
0.491371 0.446174 0.130251
0.492073 0.426917 0.211093
0.542748 0.434150 0.216922
0.643641 0.435248 0.000000
0.718685 0.430457 0.000000
0.487800 0.523827 0.110506
0.498268 0.531273 0.106416
0.532158 0.546410 0.051392
0.564202 0.556481 0.103151
0.570245 0.545464 0.195071
0.572595 0.529839 0.272740
0.613458 0.543114 0.312200
0.725582 0.548425 0.159304
0.552209 0.628321 0.132357
0.558953 0.631830 0.129335
0.584527 0.641535 0.107698
0.634821 0.659815 0.000000
0.645441 0.656580 0.170809
0.650416 0.644800 0.258793
0.653864 0.632410 0.337957
0.680049 0.644465 0.411322
0.630945 0.746914 0.155367
0.636255 0.748684 0.151217
0.659998 0.757046 0.132387
0.709682 0.773922 0.049805
0.740230 0.772549 0.098207
0.756710 0.773312 0.234348
0.764950 0.765347 0.335576
0.768368 0.754452 0.423774
0.000000 0.051148 0.109071
0.134493 0.000000 0.119905
0.256809 0.000000 0.097749
0.350927 0.111757 0.103304
0.441505 0.138247 0.090883
0.517876 0.167086 0.063691
0.587854 0.197391 0.019257
0.662684 0.230503 0.000000
0.109712 0.108583 0.104158
0.146944 0.119020 0.118624
0.253666 0.124910 0.111696
0.354620 0.137636 0.103273
0.443030 0.157351 0.090547
0.518364 0.181308 0.064088
0.585077 0.206455 0.019074
0.658106 0.236423 0.000000
0.225742 0.214328 0.124971
0.254307 0.220584 0.118807
0.273411 0.211154 0.141573
0.374914 0.219852 0.106325
0.457008 0.221836 0.087770
0.529564 0.234195 0.058106
0.596826 0.251133 0.012329
0.672389 0.275975 0.000000
0.330694 0.319158 0.124056
0.347234 0.324041 0.118410
0.388434 0.333715 0.120302
0.390631 0.316594 0.176272
0.467811 0.327489 0.147982
0.548669 0.317876 0.044953
0.612909 0.321965 0.000000
0.685878 0.337713 0.000000
0.414862 0.423224 0.132174
0.425025 0.426368 0.126802
0.470588 0.443091 0.098512
0.482033 0.437140 0.156558
0.480934 0.416419 0.222141
0.533013 0.424445 0.223606
0.631647 0.425177 0.083986
0.707088 0.422126 0.000000
0.477150 0.513909 0.145174
0.485023 0.517693 0.141939
0.518486 0.532982 0.123171
0.555138 0.546502 0.136477
0.562463 0.537469 0.209659
0.566461 0.524376 0.281621
0.608331 0.537835 0.315618
0.718929 0.542138 0.170535
0.542077 0.618189 0.156832
0.547509 0.619593 0.152865
0.572595 0.629480 0.137514
0.625147 0.650111 0.095583
0.638727 0.649805 0.185824
0.644007 0.638483 0.265415
0.646265 0.624628 0.339178
0.672328 0.635462 0.406409
0.620203 0.737057 0.171756
0.626459 0.740291 0.170230
0.649653 0.748470 0.155612
0.698787 0.765866 0.116396
0.744533 0.778225 0.142824
0.757626 0.775387 0.249638
0.762570 0.764187 0.342687
0.765743 0.752987 0.428382
0.000000 0.111910 0.190982
0.014099 0.083711 0.201846
0.248447 0.013581 0.225498
0.376959 0.000000 0.231662
0.461067 0.000000 0.172885
0.517632 0.181003 0.179782
0.588495 0.208103 0.166720
0.664851 0.235782 0.145388
0.125887 0.155398 0.191196
0.133913 0.144045 0.200534
0.253574 0.119814 0.223484
0.372137 0.105409 0.218631
0.449866 0.137240 0.181796
0.516899 0.194491 0.180484
0.585962 0.216190 0.165286
0.661585 0.242100 0.143740
0.194766 0.196506 0.188571
0.211734 0.203037 0.197147
0.269932 0.227909 0.225803
0.370245 0.227085 0.207675
0.456184 0.233768 0.195773
0.528832 0.244144 0.182681
0.595758 0.258305 0.167239
0.670619 0.278599 0.144594
0.287144 0.309331 0.225132
0.303227 0.315709 0.226596
0.371252 0.338415 0.222965
0.388495 0.330053 0.253758
0.476967 0.337438 0.219638
0.548333 0.324407 0.184756
0.613611 0.329259 0.170077
0.687007 0.342138 0.145480
0.381476 0.411353 0.230655
0.391882 0.415473 0.229770
0.436866 0.433661 0.225315
0.478401 0.445350 0.240909
0.478767 0.427375 0.286717
0.537407 0.434363 0.273716
0.629541 0.427008 0.191623
0.705501 0.424628 0.144503
0.451911 0.503105 0.234531
0.459815 0.507225 0.233951
0.492226 0.522515 0.229862
0.546807 0.545922 0.227298
0.555505 0.538506 0.271794
0.559625 0.526452 0.327825
0.607874 0.541619 0.346899
0.720424 0.543999 0.225895
0.522515 0.612055 0.239658
0.527916 0.613886 0.238071
0.552697 0.623590 0.232547
0.604547 0.644343 0.221958
0.632959 0.650538 0.253513
0.640162 0.641596 0.313512
0.644251 0.630457 0.378546
0.677119 0.644282 0.432929
0.601007 0.731075 0.245670
0.605798 0.732387 0.243687
0.628717 0.740749 0.237736
0.679194 0.760678 0.226474
0.739651 0.778897 0.223819
0.756039 0.778927 0.298650
0.761898 0.768460 0.378698
0.765103 0.757473 0.457069
0.000000 0.151095 0.267277
0.000000 0.140475 0.276463
0.181491 0.106477 0.308171
0.355230 0.025544 0.337957
0.477424 0.000000 0.353399
0.552880 0.010437 0.309361
0.610834 0.006317 0.242466
0.657771 0.212222 0.236423
0.075929 0.182071 0.271427
0.092653 0.174624 0.279088
0.193973 0.145418 0.309270
0.359258 0.120394 0.339025
0.478737 0.112001 0.353674
0.550164 0.110903 0.302983
0.605768 0.123507 0.242435
0.651637 0.238560 0.241886
0.184024 0.236698 0.260166
0.199466 0.240940 0.268650
0.242557 0.239078 0.302953
0.366247 0.230381 0.335668
0.472724 0.227787 0.333959
0.541833 0.214847 0.278904
0.586694 0.276555 0.274662
0.662623 0.286961 0.252384
0.257481 0.277043 0.265446
0.267521 0.281712 0.271366
0.308049 0.302739 0.297795
0.375891 0.345800 0.343938
0.462104 0.338384 0.316289
0.530541 0.336156 0.298558
0.598901 0.337896 0.278965
0.675715 0.345098 0.255283
0.315587 0.380194 0.295415
0.327184 0.386206 0.302708
0.375677 0.412024 0.330632
0.460548 0.452216 0.340459
0.470497 0.442542 0.371771
0.544976 0.446509 0.341283
0.625330 0.427588 0.286870
0.698970 0.428717 0.262455
0.407782 0.485664 0.328008
0.416358 0.492256 0.330877
0.446113 0.507988 0.333257
0.510796 0.540826 0.338293
0.550225 0.552300 0.360388
0.552605 0.538109 0.401190
0.611658 0.551202 0.397284
0.718379 0.543969 0.307317
0.479622 0.593317 0.326482
0.485878 0.596948 0.327184
0.511864 0.610559 0.329198
0.565026 0.635676 0.332464
0.626093 0.658350 0.344244
0.635279 0.650874 0.387274
0.638178 0.638727 0.439429
0.682185 0.653742 0.470466
0.563104 0.721798 0.333013
0.568475 0.723842 0.332769
0.591791 0.733028 0.332158
0.640620 0.751919 0.330571
0.720485 0.778744 0.324163
0.750515 0.783566 0.368994
0.758602 0.774716 0.435218
0.763485 0.765438 0.506004
0.000000 0.186954 0.337560
0.000000 0.181399 0.344549
0.000000 0.146578 0.370733
0.289891 0.121157 0.418891
0.445624 0.084565 0.448615
0.561547 0.088197 0.466041
0.638483 0.118898 0.444678
0.704860 0.080964 0.383642
0.000000 0.207889 0.339910
0.000000 0.203555 0.346746
0.047791 0.171878 0.372320
0.293370 0.154177 0.418433
0.447181 0.135836 0.449165
0.560784 0.139528 0.465370
0.636042 0.153170 0.440162
0.702693 0.122103 0.378759
0.177951 0.265843 0.337438
0.182132 0.264500 0.343053
0.203098 0.253422 0.367071
0.305821 0.238956 0.414588
0.448432 0.238346 0.445411
0.552300 0.240848 0.457160
0.623011 0.232486 0.417823
0.690852 0.199283 0.354833
0.225254 0.304326 0.322576
0.235416 0.307591 0.327214
0.276280 0.322210 0.347601
0.338933 0.341314 0.405493
0.453193 0.349493 0.444770
0.540520 0.342840 0.435615
0.606409 0.315160 0.377905
0.661769 0.330816 0.347112
0.298772 0.336675 0.323430
0.305547 0.340734 0.328313
0.332586 0.357733 0.348577
0.381842 0.392432 0.390265
0.448371 0.449256 0.448432
0.526757 0.435248 0.412634
0.597833 0.425574 0.385992
0.676478 0.420020 0.355810
0.322148 0.417792 0.334661
0.329442 0.423194 0.340520
0.360510 0.444953 0.364599
0.425422 0.489845 0.412787
0.521721 0.544427 0.433417
0.532311 0.540002 0.470558
0.613458 0.548852 0.442267
0.708339 0.524071 0.371069
0.404944 0.543420 0.383612
0.411566 0.547295 0.388098
0.436378 0.563561 0.398077
0.487373 0.596612 0.408942
0.574578 0.641474 0.427527
0.619562 0.653529 0.458076
0.622370 0.640833 0.501976
0.683101 0.652979 0.501274
0.484840 0.680751 0.393561
0.490150 0.683192 0.394324
0.513756 0.694148 0.397925
0.565270 0.720607 0.409033
0.647120 0.754513 0.419165
0.732631 0.782345 0.440040
0.745418 0.775998 0.494972
0.749355 0.765377 0.556725
0.000000 0.221286 0.404303
0.000000 0.217746 0.409827
0.000000 0.195895 0.430671
0.181796 0.170077 0.472297
0.388556 0.141909 0.537102
0.524773 0.133913 0.558770
0.640864 0.142061 0.579614
0.731838 0.172946 0.585962
0.000000 0.233402 0.401221
0.000000 0.230259 0.406012
0.000000 0.211978 0.426642
0.189517 0.187076 0.467842
0.386450 0.168124 0.530358
0.521386 0.164065 0.553124
0.635981 0.170748 0.574182
0.727657 0.193484 0.581872
0.114473 0.279759 0.400305
0.120790 0.278416 0.405066
0.146609 0.270176 0.425971
0.219059 0.245884 0.465583
0.390753 0.249424 0.527062
0.522393 0.253483 0.552667
0.633509 0.257359 0.573083
0.722530 0.262394 0.571771
0.208194 0.322484 0.378424
0.217533 0.325933 0.384649
0.257115 0.341222 0.413336
0.292149 0.341863 0.459419
0.399481 0.349187 0.525994
0.527611 0.360937 0.558495
0.632746 0.362432 0.575952
0.714473 0.341863 0.545312
0.248386 0.354772 0.368414
0.255436 0.357641 0.372107
0.283085 0.370153 0.388098
0.334783 0.396216 0.422248
0.405280 0.434180 0.500847
0.523095 0.453834 0.550683
0.614801 0.441474 0.541894
0.692744 0.395727 0.475807
0.317388 0.377935 0.362341
0.322087 0.381781 0.366644
0.340948 0.394934 0.381964
0.376623 0.422339 0.413855
0.430549 0.469337 0.468635
0.511589 0.554345 0.555291
0.602625 0.533501 0.509331
0.684901 0.514427 0.470405
0.306767 0.443824 0.352422
0.310246 0.449195 0.356207
0.328862 0.469764 0.373846
0.377661 0.513146 0.418341
0.467720 0.587884 0.498604
0.594995 0.661585 0.546868
0.605676 0.653681 0.585779
0.698604 0.657984 0.547478
0.361486 0.610224 0.400092
0.367437 0.613062 0.403510
0.394232 0.628321 0.421149
0.451972 0.660975 0.462654
0.533532 0.706172 0.491066
0.660914 0.764034 0.526085
0.730556 0.783200 0.570947
0.735805 0.771359 0.622095
0.000000 0.255650 0.473976
0.000000 0.253300 0.478889
0.000000 0.239170 0.496407
0.000000 0.201389 0.532494
0.280735 0.189822 0.584802
0.475074 0.155337 0.653895
0.596460 0.160891 0.664179
0.713893 0.164126 0.682643
0.000000 0.263462 0.469703
0.000000 0.261570 0.474678
0.000000 0.248936 0.492195
0.000000 0.211398 0.527398
0.281346 0.203311 0.579187
0.472145 0.177615 0.647700
0.592309 0.181247 0.657923
0.708034 0.181918 0.675868
0.000000 0.297002 0.464881
0.000000 0.295750 0.468971
0.000000 0.288304 0.486030
0.053285 0.263645 0.521569
0.289525 0.255436 0.574243
0.471778 0.253483 0.644739
0.594049 0.259037 0.660029
0.709590 0.260655 0.678981
0.164309 0.343725 0.448920
0.167636 0.343603 0.452644
0.182742 0.343450 0.470283
0.215793 0.338170 0.507805
0.300481 0.326085 0.565576
0.469795 0.346410 0.641108
0.596063 0.355474 0.663172
0.708309 0.354589 0.679561
0.193332 0.349615 0.393927
0.199802 0.351049 0.396246
0.227054 0.365118 0.419013
0.280491 0.393500 0.468574
0.331731 0.406806 0.537285
0.455818 0.428992 0.623621
0.592309 0.447303 0.659083
0.705165 0.449256 0.677150
0.227207 0.385290 0.394629
0.232059 0.387335 0.397314
0.252232 0.396185 0.408911
0.290745 0.415045 0.433753
0.351843 0.449042 0.479103
0.445075 0.514763 0.595544
0.591150 0.556573 0.662867
0.696956 0.543725 0.659113
0.297429 0.396735 0.374456
0.300725 0.399237 0.377234
0.315099 0.409430 0.388891
0.344671 0.431891 0.414466
0.392706 0.472389 0.460761
0.465461 0.543420 0.541894
0.577722 0.663142 0.668666
0.682063 0.630457 0.609339
0.263401 0.458381 0.353857
0.265599 0.462623 0.356695
0.275731 0.481697 0.369574
0.297520 0.520531 0.395148
0.358434 0.587091 0.452674
0.494850 0.680476 0.570550
0.692744 0.786923 0.654597
0.720241 0.782986 0.701472
0.000000 0.309850 0.581415
0.000000 0.307683 0.585351
0.000000 0.294957 0.598291
0.000000 0.261173 0.627161
0.037995 0.230900 0.667079
0.371099 0.209781 0.715297
0.562249 0.159152 0.775906
0.677272 0.167269 0.777310
0.000000 0.314641 0.576226
0.000000 0.312749 0.580224
0.000000 0.301488 0.594049
0.000000 0.270085 0.622797
0.052491 0.239200 0.663355
0.370062 0.221927 0.712123
0.559960 0.180789 0.772366
0.674739 0.185702 0.773861
0.000000 0.338109 0.566217
0.000000 0.336645 0.569818
0.000000 0.328374 0.583642
0.000000 0.307286 0.615229
0.089174 0.273289 0.657282
0.368261 0.267491 0.706935
0.556847 0.251865 0.769009
0.674250 0.253056 0.773098
0.000000 0.373114 0.544335
0.000000 0.372930 0.548394
0.000000 0.369909 0.563592
0.000000 0.360174 0.595666
0.119081 0.327337 0.643885
0.361578 0.331731 0.699092
0.551049 0.340337 0.765438
0.675654 0.341375 0.775235
0.000000 0.392340 0.495033
0.000000 0.394415 0.499794
0.082368 0.401038 0.518151
0.155123 0.409430 0.556023
0.211673 0.403845 0.611475
0.338323 0.393133 0.680079
0.535393 0.425055 0.755367
0.676478 0.434333 0.777127
0.009552 0.395514 0.441413
0.038697 0.395758 0.442420
0.110323 0.397833 0.448188
0.167575 0.406317 0.466224
0.246555 0.445075 0.538476
0.332647 0.472084 0.641352
0.511009 0.515435 0.742794
0.682216 0.547723 0.786404
0.064515 0.431067 0.436316
0.085176 0.431952 0.437629
0.122347 0.436072 0.443915
0.172580 0.446235 0.459144
0.237247 0.465614 0.488075
0.324132 0.502098 0.542290
0.476905 0.596918 0.696345
0.684901 0.658686 0.789425
0.221988 0.430335 0.392767
0.225040 0.431312 0.394018
0.237858 0.436744 0.400397
0.264073 0.450080 0.415808
0.307744 0.475319 0.445258
0.372686 0.522789 0.499947
0.485481 0.617212 0.610895
0.687373 0.796017 0.802457
