20 Preset/Nude style/【3】LUT video cho PR-AE-FCPX/Tone  (7).cube
# Created by Adobe Lightroom plugin Export LUT (1.24.0)
# www.johnrellis.com/lightroom/exportlut.htm
# Preset: 奶油裸色-素材江湖08
# Color profile: C:\Program Files (x86)\Common Files\Adobe\Color\Profiles\Recommended\VideoHD.icc
LUT_3D_SIZE 32
DOMAIN_MIN 0.0 0.0 0.0
DOMAIN_MAX 1.0 1.0 1.0
0.116884 0.105470 0.100496
0.116884 0.105470 0.100496
0.125490 0.105013 0.100343
0.147921 0.103761 0.099855
0.179904 0.102785 0.099855
0.208530 0.102266 0.100710
0.235630 0.102419 0.101991
0.262119 0.102266 0.103822
0.288518 0.101320 0.104707
0.314549 0.101411 0.105898
0.341100 0.100587 0.107912
0.367407 0.100679 0.109163
0.393683 0.100069 0.110842
0.419440 0.100862 0.113069
0.444739 0.101350 0.115023
0.469459 0.102358 0.117647
0.493446 0.104463 0.120455
0.516869 0.106447 0.123293
0.539757 0.108522 0.126223
0.562005 0.111360 0.129122
0.583764 0.114015 0.132052
0.604944 0.116854 0.134798
0.625788 0.119966 0.137789
0.646876 0.122744 0.140536
0.668605 0.124971 0.143221
0.690761 0.128084 0.145724
0.713649 0.130800 0.148318
0.737057 0.133303 0.150790
0.760433 0.135714 0.153262
0.783963 0.138460 0.156008
0.807858 0.141268 0.158602
0.832303 0.143984 0.161440
0.116884 0.105470 0.100496
0.117220 0.105776 0.100435
0.126040 0.106600 0.100099
0.148409 0.106020 0.099886
0.179904 0.105562 0.099825
0.207919 0.105562 0.101381
0.235019 0.105409 0.102358
0.261326 0.105043 0.103853
0.288060 0.104372 0.105043
0.314061 0.104189 0.106264
0.340490 0.103822 0.108217
0.366857 0.103212 0.109255
0.393133 0.102968 0.111177
0.419043 0.103304 0.113436
0.444312 0.103853 0.115389
0.468971 0.104891 0.117983
0.493050 0.106538 0.120546
0.516564 0.108461 0.123415
0.539452 0.110414 0.126314
0.561730 0.113252 0.129213
0.583368 0.115908 0.132143
0.604639 0.118349 0.134920
0.625483 0.121187 0.137942
0.646571 0.124208 0.140658
0.668208 0.126741 0.143313
0.690425 0.129244 0.145876
0.713375 0.131624 0.148287
0.736721 0.134432 0.150942
0.760159 0.136507 0.153414
0.783719 0.139254 0.155947
0.807584 0.142092 0.158755
0.832120 0.144930 0.161349
0.121462 0.112978 0.101778
0.123171 0.113039 0.102083
0.130861 0.114839 0.099794
0.150301 0.115846 0.099397
0.177920 0.117861 0.101259
0.205936 0.117678 0.102480
0.232944 0.116762 0.103975
0.259190 0.115969 0.104829
0.285557 0.115633 0.106325
0.311925 0.114809 0.108003
0.338384 0.114015 0.109346
0.364965 0.113191 0.110689
0.391302 0.113375 0.112581
0.417273 0.113130 0.114565
0.442725 0.113283 0.116243
0.467445 0.113924 0.118532
0.491615 0.115389 0.121401
0.515099 0.116915 0.124239
0.538140 0.118379 0.126894
0.560449 0.120394 0.129824
0.582238 0.122805 0.132540
0.603449 0.125154 0.135531
0.624323 0.127535 0.138338
0.645472 0.130098 0.141054
0.667201 0.132448 0.143709
0.689570 0.134401 0.146273
0.712428 0.137270 0.148836
0.735897 0.139651 0.151095
0.759365 0.141848 0.153536
0.782986 0.144167 0.156283
0.806973 0.146548 0.158907
0.831479 0.149325 0.161532
0.133700 0.131472 0.108370
0.135653 0.131472 0.108644
0.142977 0.132601 0.108583
0.159243 0.135653 0.102663
0.182193 0.134005 0.100618
0.203769 0.134981 0.104433
0.228550 0.135042 0.106844
0.254887 0.133822 0.108156
0.281559 0.132906 0.109133
0.307836 0.131930 0.110475
0.334600 0.131350 0.111757
0.361181 0.130587 0.113466
0.387762 0.130282 0.115053
0.413855 0.129702 0.116762
0.439368 0.129427 0.118502
0.464393 0.129702 0.120485
0.488777 0.130159 0.123079
0.512291 0.131319 0.125948
0.535424 0.132631 0.128573
0.557885 0.133883 0.131228
0.579736 0.135286 0.133730
0.601099 0.137087 0.136751
0.622095 0.138979 0.139315
0.643397 0.140993 0.142061
0.665248 0.142611 0.144503
0.687587 0.144930 0.147219
0.710658 0.147005 0.149783
0.734249 0.149050 0.152041
0.757900 0.151003 0.154269
0.781674 0.153017 0.156802
0.805692 0.155459 0.159396
0.830350 0.157687 0.162203
0.150607 0.153353 0.119814
0.152316 0.153170 0.120363
0.158907 0.152560 0.121736
0.169039 0.155612 0.117678
0.187320 0.158389 0.109285
0.210880 0.153994 0.103090
0.230167 0.153506 0.107973
0.248905 0.154086 0.112551
0.275151 0.153414 0.113832
0.301732 0.152987 0.115084
0.328496 0.152132 0.116152
0.355474 0.151186 0.117250
0.382269 0.150668 0.118563
0.408759 0.149844 0.119692
0.434485 0.149508 0.121431
0.459510 0.149722 0.123384
0.484138 0.149538 0.125765
0.507927 0.150088 0.128084
0.531182 0.150881 0.130709
0.553948 0.151461 0.133150
0.576043 0.152438 0.135653
0.597467 0.153658 0.138399
0.618677 0.154849 0.140780
0.640162 0.156161 0.143282
0.662165 0.157565 0.145937
0.684688 0.159182 0.148257
0.707881 0.160800 0.150607
0.731685 0.162387 0.152865
0.755550 0.163973 0.155062
0.779507 0.165743 0.157595
0.803738 0.167758 0.160159
0.828519 0.169924 0.163088
0.166567 0.172274 0.131258
0.167514 0.172152 0.131258
0.172580 0.171572 0.132235
0.181003 0.171420 0.132753
0.193790 0.176699 0.126650
0.212985 0.179812 0.117647
0.238285 0.175357 0.106783
0.256657 0.173556 0.112306
0.274510 0.173190 0.117372
0.293858 0.173526 0.120638
0.320836 0.173159 0.121340
0.347906 0.172610 0.121798
0.375036 0.172000 0.122835
0.401678 0.171664 0.124178
0.427710 0.171328 0.125338
0.453132 0.170871 0.127352
0.477852 0.170901 0.129122
0.501976 0.171054 0.131441
0.525658 0.170993 0.133577
0.548516 0.171267 0.135805
0.570764 0.172030 0.138247
0.592432 0.172549 0.140352
0.614405 0.173220 0.143099
0.636133 0.174319 0.145357
0.658442 0.175113 0.147799
0.681178 0.176486 0.150057
0.704738 0.177737 0.152377
0.728756 0.178866 0.154421
0.752804 0.180392 0.156771
0.777005 0.181979 0.159030
0.801511 0.183627 0.161563
0.826505 0.185397 0.164279
0.180545 0.190860 0.140749
0.181704 0.190768 0.140749
0.185672 0.190311 0.141634
0.193088 0.189609 0.142702
0.202884 0.192050 0.140749
0.218814 0.198062 0.133639
0.238895 0.201450 0.125246
0.262821 0.197330 0.115358
0.283879 0.195254 0.117311
0.301152 0.193759 0.121431
0.318151 0.193179 0.125307
0.339330 0.193210 0.127443
0.366430 0.193210 0.128420
0.393194 0.193301 0.129122
0.419471 0.193027 0.130220
0.445075 0.192844 0.131685
0.470253 0.192630 0.133181
0.494606 0.192599 0.135225
0.518364 0.192569 0.137087
0.541619 0.192538 0.139071
0.564172 0.192630 0.141115
0.586236 0.192905 0.143404
0.608087 0.193149 0.145571
0.630182 0.193912 0.147799
0.652827 0.194430 0.149966
0.675837 0.195438 0.152224
0.699580 0.196292 0.153964
0.723964 0.197360 0.156130
0.748409 0.198672 0.158206
0.773007 0.199924 0.160433
0.797787 0.201419 0.162905
0.823117 0.203006 0.165560
0.195224 0.209903 0.150484
0.195865 0.209964 0.150668
0.199374 0.209445 0.151095
0.205844 0.208865 0.152255
0.214878 0.207919 0.153811
0.226413 0.213474 0.148501
0.244358 0.220249 0.141360
0.264805 0.223575 0.132876
0.286412 0.219211 0.124361
0.311315 0.217807 0.122835
0.328130 0.215488 0.126619
0.344640 0.213962 0.129976
0.360327 0.213138 0.133028
0.383246 0.213169 0.134554
0.409644 0.213443 0.135103
0.435370 0.213596 0.136446
0.460670 0.213626 0.137636
0.485420 0.213565 0.139193
0.509545 0.213382 0.140810
0.532982 0.213382 0.142519
0.555840 0.213291 0.144350
0.578210 0.213230 0.146242
0.600397 0.213443 0.148318
0.622919 0.213718 0.150362
0.645838 0.214328 0.152285
0.669245 0.215061 0.154482
0.693324 0.215824 0.156191
0.718105 0.216800 0.158114
0.742977 0.217868 0.159945
0.768002 0.219211 0.162234
0.793240 0.220371 0.164492
0.818906 0.222019 0.167025
0.209995 0.229343 0.161074
0.210849 0.229374 0.161044
0.213443 0.229099 0.161593
0.219181 0.228611 0.162478
0.227268 0.227787 0.163882
0.237308 0.229526 0.162997
0.250858 0.235630 0.157321
0.270420 0.243107 0.149538
0.290776 0.246311 0.140841
0.311254 0.241855 0.132448
0.339635 0.241245 0.127291
0.355871 0.237980 0.130953
0.371221 0.235660 0.134401
0.385962 0.233707 0.137392
0.399939 0.232395 0.140322
0.424445 0.232731 0.141512
0.449958 0.233066 0.142184
0.474830 0.233463 0.143587
0.499184 0.233463 0.144961
0.522881 0.233463 0.146426
0.546105 0.233463 0.147982
0.568750 0.233402 0.149630
0.591363 0.233524 0.151675
0.614252 0.233921 0.153414
0.637659 0.234226 0.155123
0.661433 0.234897 0.156893
0.685847 0.235782 0.158724
0.711025 0.236759 0.160372
0.736446 0.237919 0.162264
0.761990 0.239078 0.164126
0.787716 0.240513 0.166384
0.813931 0.242008 0.168978
0.225223 0.249210 0.171695
0.225589 0.249149 0.171878
0.228153 0.248997 0.172183
0.233127 0.248569 0.173159
0.240238 0.247898 0.174289
0.249516 0.246952 0.176059
0.260441 0.251652 0.172274
0.275731 0.258488 0.165805
0.296574 0.266392 0.157504
0.317052 0.269352 0.148653
0.337926 0.265995 0.140078
0.367987 0.265141 0.131655
0.383093 0.261082 0.135531
0.397620 0.257755 0.138705
0.411292 0.254795 0.141695
0.424140 0.252537 0.144594
0.437934 0.250797 0.146944
0.462928 0.251469 0.148074
0.487404 0.251987 0.149081
0.511437 0.252323 0.150240
0.534905 0.252476 0.151736
0.557916 0.252598 0.153323
0.580896 0.252903 0.155093
0.604242 0.253269 0.156374
0.627985 0.253819 0.157992
0.652216 0.254551 0.159518
0.677058 0.255558 0.161227
0.702663 0.256718 0.162783
0.728817 0.257908 0.164370
0.754910 0.259251 0.166262
0.781277 0.260655 0.168215
0.808072 0.262303 0.170840
0.240024 0.269139 0.182559
0.240330 0.269200 0.182712
0.242710 0.268956 0.183017
0.247044 0.268528 0.183780
0.253422 0.267948 0.184817
0.261936 0.267277 0.186404
0.271916 0.268101 0.186679
0.284367 0.274327 0.181338
0.300938 0.281621 0.174380
0.322789 0.289921 0.165438
0.342931 0.292454 0.156527
0.364080 0.289860 0.147219
0.395850 0.289494 0.135348
0.409979 0.284276 0.139406
0.423407 0.279911 0.142733
0.436072 0.276219 0.145937
0.447822 0.272862 0.148745
0.458900 0.269932 0.151369
0.474464 0.268681 0.153170
0.498665 0.269352 0.154238
0.522393 0.269932 0.155398
0.545708 0.270359 0.156710
0.569116 0.270970 0.158145
0.592981 0.271550 0.159548
0.617243 0.272282 0.160891
0.641840 0.273442 0.162417
0.667109 0.274601 0.163699
0.693233 0.276005 0.165286
0.719997 0.277531 0.166506
0.746883 0.279088 0.168215
0.773892 0.280858 0.170321
0.801297 0.282719 0.172580
0.254704 0.288945 0.193484
0.255222 0.288884 0.193484
0.257115 0.288701 0.193606
0.260838 0.288396 0.194461
0.266728 0.287968 0.195407
0.274479 0.287236 0.196780
0.283879 0.286412 0.198642
0.294469 0.290257 0.195987
0.308049 0.297124 0.190127
0.326116 0.304814 0.182712
0.348363 0.313420 0.173190
0.368017 0.315526 0.164126
0.389136 0.313451 0.154849
0.419348 0.312322 0.142733
0.436622 0.307836 0.143648
0.449134 0.302525 0.147158
0.460578 0.297826 0.150332
0.471443 0.293553 0.153048
0.481514 0.289799 0.155367
0.491066 0.286351 0.157534
0.508995 0.285618 0.158907
0.532738 0.286625 0.160006
0.556634 0.287541 0.161166
0.580743 0.288701 0.162570
0.605432 0.289952 0.163729
0.630579 0.291295 0.164981
0.656397 0.292851 0.166262
0.682918 0.294621 0.167514
0.710384 0.296574 0.168887
0.738003 0.298619 0.170504
0.765774 0.300725 0.172213
0.793942 0.302953 0.174380
0.269047 0.308415 0.204196
0.269352 0.308385 0.204318
0.271031 0.308202 0.204715
0.274571 0.307958 0.205234
0.279789 0.307500 0.206119
0.286870 0.306920 0.207370
0.295628 0.306126 0.209140
0.305516 0.306065 0.210513
0.316808 0.312352 0.205478
0.331640 0.319493 0.199252
0.350347 0.327581 0.191165
0.373327 0.336400 0.181308
0.392279 0.338170 0.172305
0.413031 0.336217 0.162875
0.440986 0.334356 0.150759
0.462196 0.331121 0.147860
0.473701 0.324956 0.151156
0.484291 0.319280 0.154360
0.494209 0.314122 0.157076
0.503441 0.309483 0.159365
0.512230 0.305272 0.161257
0.520867 0.301579 0.162936
0.542443 0.302342 0.164218
0.567041 0.304051 0.165255
0.592126 0.305852 0.166232
0.617700 0.307683 0.167483
0.644007 0.309789 0.168551
0.671107 0.312047 0.169589
0.699214 0.314549 0.170901
0.727779 0.317113 0.172061
0.756435 0.319768 0.173770
0.785519 0.322484 0.175967
0.282689 0.327184 0.215061
0.283146 0.327123 0.215061
0.284672 0.327062 0.215427
0.287724 0.326757 0.215915
0.292515 0.326360 0.216617
0.298741 0.325872 0.217807
0.306859 0.325231 0.219425
0.316106 0.324346 0.221286
0.326268 0.327245 0.219913
0.338750 0.333928 0.214481
0.354467 0.341466 0.207858
0.373693 0.349828 0.199863
0.396887 0.358892 0.189761
0.415442 0.360143 0.180941
0.435920 0.358618 0.171084
0.461707 0.355962 0.159335
0.487251 0.354284 0.152132
0.497719 0.347234 0.155550
0.507469 0.340734 0.158602
0.516503 0.334813 0.161318
0.525078 0.329351 0.163424
0.533593 0.324590 0.165194
0.542290 0.320592 0.166598
0.552331 0.317449 0.167514
0.577722 0.319951 0.168460
0.603784 0.322545 0.169436
0.630610 0.325231 0.170260
0.658289 0.328161 0.171572
0.687007 0.331334 0.172427
0.716518 0.334600 0.173587
0.746151 0.337987 0.175387
0.776211 0.341466 0.177523
0.295872 0.345251 0.225742
0.296147 0.345251 0.225742
0.297612 0.345159 0.225956
0.300359 0.344915 0.226413
0.304692 0.344549 0.227207
0.310613 0.344091 0.228305
0.317906 0.343420 0.229648
0.326513 0.342748 0.231357
0.336095 0.341863 0.233524
0.346777 0.347936 0.229099
0.360021 0.354955 0.223545
0.376593 0.362860 0.216739
0.396277 0.371435 0.208469
0.419409 0.380407 0.198245
0.437659 0.381567 0.189273
0.457954 0.380346 0.179446
0.481697 0.376837 0.168093
0.511559 0.377234 0.156924
0.521172 0.369268 0.160311
0.530083 0.362097 0.163210
0.538659 0.355413 0.165591
0.547143 0.349645 0.167514
0.555688 0.344701 0.168826
0.564630 0.340337 0.169863
0.573938 0.336584 0.170565
0.588830 0.335576 0.171054
0.616114 0.339025 0.171939
0.644343 0.342748 0.172763
0.673762 0.346746 0.173770
0.704219 0.350988 0.174807
0.734981 0.355291 0.176303
0.766201 0.359533 0.178470
0.308568 0.362615 0.236179
0.308965 0.362585 0.236179
0.310216 0.362524 0.236393
0.312657 0.362310 0.236820
0.316472 0.362066 0.237552
0.321752 0.361608 0.238468
0.328466 0.361120 0.239811
0.336431 0.360479 0.241337
0.345586 0.359716 0.243381
0.355444 0.361639 0.243015
0.366888 0.368200 0.238346
0.380926 0.375616 0.232456
0.397925 0.383795 0.225437
0.418250 0.392523 0.216922
0.440681 0.401099 0.206607
0.458869 0.402350 0.197940
0.479133 0.401465 0.187930
0.500694 0.397192 0.177188
0.535180 0.399908 0.161807
0.544030 0.391302 0.165103
0.552605 0.383551 0.167666
0.561242 0.376684 0.169680
0.569970 0.370703 0.171206
0.578882 0.365454 0.172183
0.588128 0.360876 0.172946
0.597955 0.357122 0.173281
0.608484 0.354192 0.173373
0.629419 0.355688 0.173800
0.659510 0.360662 0.174563
0.690852 0.365942 0.175448
0.722927 0.371252 0.176883
0.755337 0.376623 0.178897
0.320684 0.379400 0.246433
0.320928 0.379370 0.246403
0.322026 0.379278 0.246616
0.324437 0.379095 0.247013
0.327886 0.378820 0.247593
0.332738 0.378485 0.248478
0.338811 0.378058 0.249729
0.346197 0.377478 0.251286
0.354711 0.376806 0.252995
0.364111 0.376043 0.255100
0.374121 0.381079 0.252140
0.386419 0.388067 0.247227
0.401099 0.395758 0.241154
0.418647 0.404059 0.234012
0.439063 0.413031 0.225345
0.461158 0.421241 0.215366
0.479347 0.422614 0.206516
0.499428 0.422004 0.196658
0.520653 0.418250 0.186007
0.554437 0.420722 0.170108
0.567163 0.413611 0.169924
0.575860 0.405554 0.172183
0.584710 0.398627 0.173800
0.593683 0.392523 0.174777
0.603052 0.387121 0.175357
0.612940 0.382574 0.175753
0.623529 0.378851 0.175540
0.635096 0.376074 0.175296
0.647913 0.374456 0.175235
0.676539 0.379400 0.175753
0.709895 0.386053 0.177005
0.743801 0.392645 0.178958
0.332372 0.395697 0.256535
0.332616 0.395666 0.256535
0.333715 0.395789 0.256779
0.335760 0.395636 0.257145
0.338933 0.395392 0.257694
0.343450 0.395087 0.258549
0.349065 0.394690 0.259648
0.355749 0.394141 0.261021
0.363745 0.393530 0.262669
0.372503 0.392920 0.264622
0.382025 0.393805 0.265324
0.392584 0.400397 0.261112
0.405585 0.407691 0.255955
0.420935 0.415564 0.249912
0.438911 0.424140 0.242618
0.459571 0.433265 0.233890
0.481147 0.441047 0.224094
0.499275 0.442573 0.215213
0.519127 0.442237 0.205539
0.540520 0.439277 0.194797
0.572839 0.441230 0.179538
0.591028 0.436561 0.174777
0.600000 0.428504 0.176486
0.609186 0.421424 0.177615
0.618616 0.415106 0.178256
0.628595 0.409766 0.178164
0.639307 0.405341 0.178042
0.650996 0.401923 0.177615
0.663966 0.399634 0.177188
0.678737 0.398718 0.176699
0.696071 0.399451 0.176638
0.731502 0.407568 0.178531
0.343542 0.411688 0.266361
0.343847 0.411658 0.266453
0.344762 0.411688 0.266606
0.346654 0.411505 0.266972
0.349645 0.411322 0.267491
0.353643 0.411048 0.268284
0.358923 0.410712 0.269322
0.365301 0.410193 0.270451
0.372564 0.409705 0.272007
0.380835 0.409155 0.273869
0.389899 0.408453 0.275914
0.399573 0.412573 0.274174
0.410986 0.419471 0.269810
0.424537 0.427039 0.264561
0.440406 0.435309 0.258396
0.458839 0.444129 0.251041
0.479774 0.453559 0.242283
0.500908 0.460914 0.232914
0.519188 0.462684 0.224216
0.539147 0.462715 0.214511
0.560723 0.460395 0.203738
0.591699 0.461982 0.188815
0.615564 0.460029 0.179446
0.624903 0.451972 0.180514
0.634577 0.444923 0.180941
0.644770 0.438666 0.181094
0.655665 0.433570 0.180758
0.667445 0.429450 0.180270
0.680446 0.426459 0.179538
0.695003 0.424842 0.178744
0.711482 0.424598 0.178470
0.730343 0.426093 0.178805
0.354833 0.427863 0.276249
0.355138 0.427893 0.276219
0.355932 0.427863 0.276463
0.357580 0.427741 0.276707
0.360327 0.427588 0.277287
0.364141 0.427375 0.277958
0.368963 0.427039 0.278874
0.374884 0.426642 0.280095
0.381750 0.426246 0.281559
0.389532 0.425696 0.283177
0.398199 0.425116 0.285191
0.407477 0.425330 0.286809
0.417700 0.431952 0.282933
0.429725 0.439185 0.278416
0.443946 0.447120 0.273198
0.460426 0.455604 0.266880
0.479286 0.464759 0.259525
0.500572 0.474372 0.250645
0.521355 0.481453 0.241428
0.539788 0.483375 0.232639
0.559838 0.483742 0.223148
0.581445 0.482033 0.212284
0.611322 0.483192 0.197665
0.641047 0.484291 0.183932
0.650935 0.476326 0.184268
0.661341 0.469337 0.184115
0.672206 0.463294 0.183658
0.683986 0.458350 0.182925
0.696803 0.454536 0.182223
0.711147 0.452186 0.181369
0.727443 0.451270 0.180911
0.746059 0.452125 0.180972
0.366125 0.444556 0.286229
0.366339 0.444556 0.286229
0.367224 0.444526 0.286290
0.368750 0.444465 0.286687
0.371283 0.444343 0.287144
0.374853 0.444129 0.287846
0.379309 0.443915 0.288609
0.384833 0.443519 0.289799
0.391272 0.443153 0.291203
0.398779 0.442786 0.292729
0.406989 0.442267 0.294652
0.415930 0.441718 0.296757
0.425452 0.445045 0.295903
0.436286 0.452033 0.292027
0.449134 0.459663 0.287449
0.463996 0.467903 0.281956
0.480964 0.476783 0.275639
0.500328 0.486183 0.267948
0.522057 0.496101 0.258976
0.542535 0.502831 0.249912
0.561120 0.504997 0.241367
0.581323 0.505638 0.231693
0.603082 0.504295 0.220859
0.632013 0.505119 0.206516
0.667109 0.508904 0.188296
0.677516 0.501061 0.188144
0.688502 0.494209 0.187594
0.700221 0.488441 0.186587
0.713039 0.483894 0.185489
0.727382 0.480720 0.184634
0.743496 0.479133 0.183902
0.761990 0.479377 0.183688
0.377661 0.462043 0.296269
0.377935 0.462013 0.296361
0.378576 0.462013 0.296513
0.380102 0.461921 0.296727
0.382422 0.461830 0.297154
0.385748 0.461616 0.297856
0.389990 0.461463 0.298741
0.395270 0.461158 0.299748
0.401404 0.460853 0.300999
0.408392 0.460456 0.302556
0.416297 0.460090 0.304417
0.424903 0.459602 0.306371
0.434180 0.459113 0.308659
0.444160 0.465766 0.305333
0.455756 0.473152 0.301305
0.469245 0.481239 0.296483
0.484779 0.489784 0.290929
0.502373 0.498939 0.284337
0.522240 0.508598 0.276616
0.544366 0.518791 0.267582
0.564660 0.525170 0.258579
0.583490 0.527489 0.249882
0.603845 0.528344 0.240055
0.625696 0.527337 0.229099
0.653193 0.527306 0.215183
0.690303 0.532189 0.195102
0.704067 0.525750 0.192081
0.715908 0.519280 0.190951
0.728817 0.513939 0.189700
0.743069 0.510094 0.188296
0.759213 0.507897 0.187472
0.777890 0.507683 0.187106
0.389593 0.480323 0.306737
0.389746 0.480354 0.306798
0.390356 0.480323 0.306950
0.391882 0.480262 0.307225
0.394018 0.480171 0.307652
0.397131 0.479957 0.308293
0.401099 0.479866 0.309056
0.406073 0.479591 0.310033
0.412024 0.479316 0.311315
0.418799 0.479042 0.312749
0.426276 0.478706 0.314458
0.434577 0.478370 0.316442
0.443641 0.477913 0.318639
0.453132 0.480568 0.318639
0.463813 0.487739 0.315129
0.476143 0.495521 0.310826
0.490425 0.503929 0.305943
0.506584 0.512871 0.300145
0.524834 0.522362 0.293431
0.545281 0.532280 0.285435
0.567926 0.542779 0.276127
0.588006 0.548699 0.267308
0.607172 0.551202 0.258396
0.627527 0.552056 0.248447
0.648890 0.550774 0.237369
0.674647 0.549676 0.224002
0.711788 0.554620 0.203830
0.731075 0.550744 0.196078
0.744167 0.544762 0.194400
0.758663 0.540337 0.192721
0.775082 0.537652 0.191440
0.793973 0.536980 0.190524
0.401892 0.499916 0.317723
0.402106 0.499947 0.317784
0.402808 0.499916 0.317937
0.404089 0.499855 0.318120
0.406287 0.499763 0.318608
0.409125 0.499672 0.319219
0.413031 0.499519 0.319921
0.417792 0.499306 0.320928
0.423377 0.499123 0.322118
0.429908 0.498848 0.323491
0.437171 0.498604 0.325139
0.445289 0.498299 0.327092
0.453986 0.497993 0.329137
0.463325 0.497658 0.331548
0.473304 0.503655 0.329076
0.484688 0.511254 0.325322
0.497963 0.519402 0.320928
0.512902 0.528191 0.315862
0.529778 0.537469 0.309850
0.548699 0.547234 0.302831
0.569726 0.557519 0.294652
0.592920 0.568231 0.285008
0.612665 0.573541 0.276188
0.631678 0.575647 0.267277
0.651667 0.576135 0.257298
0.672755 0.574609 0.246128
0.696834 0.572473 0.233036
0.734218 0.577722 0.212650
0.759457 0.576349 0.199741
0.774289 0.571466 0.197665
0.791043 0.568292 0.195743
0.810269 0.567254 0.194522
0.415198 0.521050 0.329473
0.415320 0.521050 0.329534
0.415961 0.521050 0.329656
0.417243 0.521050 0.329900
0.419318 0.520958 0.330358
0.422156 0.520836 0.330938
0.425757 0.520775 0.331670
0.430335 0.520653 0.332616
0.435828 0.520470 0.333745
0.442115 0.520287 0.335180
0.449287 0.520104 0.336767
0.457099 0.519890 0.338689
0.465583 0.519738 0.340795
0.474891 0.519493 0.343145
0.484474 0.521538 0.343908
0.495216 0.528923 0.340551
0.507500 0.536919 0.336553
0.521447 0.545464 0.332006
0.537224 0.554589 0.326635
0.554864 0.564202 0.320378
0.574548 0.574304 0.313024
0.596094 0.584588 0.304662
0.619409 0.595026 0.294865
0.638392 0.599268 0.286137
0.657069 0.600946 0.277226
0.676875 0.600977 0.267033
0.697566 0.599207 0.255680
0.721614 0.597101 0.242161
0.758785 0.602045 0.221622
0.790036 0.603479 0.203311
0.807187 0.599939 0.200900
0.826444 0.598138 0.198764
0.429633 0.544457 0.342504
0.429816 0.544457 0.342504
0.430396 0.544457 0.342596
0.431617 0.544427 0.342901
0.433600 0.544396 0.343267
0.436347 0.544366 0.343847
0.439948 0.544305 0.344610
0.444373 0.544213 0.345495
0.449622 0.544121 0.346685
0.455818 0.543999 0.348089
0.462776 0.543877 0.349706
0.470527 0.543786 0.351537
0.478981 0.543664 0.353674
0.488045 0.543542 0.355993
0.497719 0.543481 0.358618
0.507897 0.549035 0.356878
0.519493 0.556817 0.353277
0.532586 0.565301 0.349096
0.547356 0.574212 0.344244
0.563928 0.583490 0.338659
0.582086 0.593103 0.332189
0.601953 0.602960 0.324773
0.623560 0.612909 0.316228
0.647089 0.622950 0.306218
0.665309 0.626093 0.297612
0.683833 0.627314 0.288426
0.703456 0.627070 0.278019
0.724178 0.625147 0.266117
0.748501 0.623194 0.251926
0.785611 0.627985 0.230991
0.822873 0.631739 0.206210
0.842527 0.629541 0.203159
0.445808 0.570886 0.357275
0.445960 0.570855 0.357275
0.446540 0.570855 0.357397
0.447852 0.570825 0.357671
0.449744 0.570825 0.358129
0.452430 0.570825 0.358679
0.455970 0.570855 0.359442
0.460304 0.570825 0.360418
0.465522 0.570855 0.361547
0.471565 0.570855 0.362982
0.478492 0.570855 0.364660
0.486183 0.570855 0.366583
0.494636 0.570886 0.368780
0.503716 0.570947 0.371099
0.513329 0.571038 0.373785
0.523674 0.572625 0.375433
0.534600 0.580255 0.372198
0.546838 0.588342 0.368414
0.560632 0.596826 0.364050
0.575952 0.605646 0.359106
0.592737 0.614740 0.353399
0.611292 0.624018 0.346746
0.631403 0.633509 0.339147
0.653315 0.643153 0.330358
0.676875 0.652857 0.320195
0.694575 0.655055 0.311650
0.713283 0.656031 0.301946
0.732967 0.655573 0.290806
0.753719 0.653346 0.277928
0.777920 0.651087 0.262730
0.815244 0.655634 0.240940
0.858122 0.661463 0.209262
0.464698 0.600946 0.375036
0.464851 0.600946 0.375036
0.465461 0.600946 0.375128
0.466560 0.600977 0.375433
0.468391 0.601007 0.375860
0.471077 0.601007 0.376410
0.474586 0.601007 0.377234
0.478798 0.601038 0.378210
0.483986 0.601099 0.379431
0.489906 0.601160 0.380957
0.496803 0.601221 0.382605
0.504448 0.601312 0.384558
0.512779 0.601465 0.386755
0.521935 0.601556 0.389258
