20 Preset/Nude style/【3】LUT video cho PR-AE-FCPX/Tone  (8).cube
# Created by Adobe Lightroom plugin Export LUT (1.24.0)
# www.johnrellis.com/lightroom/exportlut.htm
# Preset: 奶油裸色-素材江湖09
# Color profile: C:\Program Files (x86)\Common Files\Adobe\Color\Profiles\Recommended\VideoHD.icc
LUT_3D_SIZE 32
DOMAIN_MIN 0.0 0.0 0.0
DOMAIN_MAX 1.0 1.0 1.0
0.102876 0.082918 0.086030
0.102876 0.082918 0.086030
0.105135 0.083101 0.085908
0.139712 0.081636 0.084382
0.185580 0.080354 0.081147
0.235233 0.074739 0.075441
0.279820 0.079744 0.075898
0.319615 0.083986 0.075257
0.355138 0.088167 0.072877
0.387213 0.091554 0.069795
0.417334 0.096284 0.070069
0.445472 0.102846 0.072419
0.472358 0.110201 0.076997
0.498054 0.118013 0.080385
0.522820 0.126070 0.084138
0.546685 0.134585 0.089204
0.570031 0.143771 0.092561
0.593286 0.153506 0.097047
0.616815 0.162661 0.100496
0.645716 0.174502 0.104707
0.678279 0.187289 0.109071
0.710353 0.199710 0.112856
0.741909 0.211795 0.116213
0.774350 0.223545 0.118563
0.806973 0.234867 0.120729
0.839780 0.245975 0.122652
0.873411 0.257053 0.124910
0.908171 0.268040 0.127352
0.944244 0.279026 0.130587
0.981506 0.290257 0.135103
1.000000 0.301396 0.141817
1.000000 0.312779 0.151125
0.102876 0.082918 0.086030
0.102876 0.082918 0.086030
0.105135 0.083101 0.085908
0.139925 0.084382 0.083986
0.185183 0.083406 0.080751
0.233341 0.083680 0.076417
0.277348 0.086915 0.078279
0.316838 0.089113 0.077089
0.352453 0.091402 0.074891
0.384405 0.095033 0.072999
0.414221 0.099672 0.073457
0.442420 0.105135 0.074037
0.469215 0.112245 0.078553
0.495094 0.119295 0.081727
0.519677 0.127260 0.085603
0.543786 0.135714 0.089631
0.567163 0.144625 0.093477
0.590509 0.153750 0.097261
0.613825 0.162966 0.101137
0.642206 0.174258 0.105287
0.673304 0.186557 0.109224
0.704036 0.198337 0.112703
0.734310 0.209812 0.116121
0.765469 0.221225 0.118502
0.797421 0.232486 0.120211
0.829709 0.243076 0.122133
0.863188 0.254093 0.123598
0.897978 0.265202 0.125978
0.934386 0.276127 0.128908
0.972107 0.287480 0.132784
1.000000 0.298894 0.138888
1.000000 0.310155 0.147555
0.112520 0.093690 0.083619
0.115023 0.093721 0.083497
0.109346 0.087770 0.085115
0.138186 0.093324 0.083101
0.185153 0.097108 0.081544
0.231296 0.100893 0.083558
0.274784 0.102968 0.084108
0.313909 0.104158 0.082826
0.349310 0.106081 0.081544
0.381384 0.107881 0.080018
0.411383 0.110964 0.079194
0.439673 0.115480 0.079652
0.466560 0.121065 0.082246
0.492317 0.127443 0.085542
0.517144 0.134218 0.088960
0.541100 0.142092 0.092073
0.564630 0.150088 0.095857
0.587854 0.158785 0.099641
0.611353 0.167422 0.103059
0.640070 0.178195 0.107088
0.670466 0.189639 0.110933
0.700435 0.201083 0.114626
0.730068 0.212100 0.117983
0.760708 0.223026 0.120027
0.792203 0.233829 0.121767
0.824308 0.244236 0.123232
0.857511 0.255131 0.124880
0.892363 0.265965 0.126589
0.928862 0.276982 0.129244
0.966796 0.288273 0.133150
1.000000 0.299321 0.138888
1.000000 0.310674 0.147097
0.147555 0.124086 0.069551
0.150729 0.124727 0.068849
0.153719 0.120912 0.078401
0.143374 0.110842 0.098970
0.171603 0.118990 0.104219
0.227817 0.123476 0.095277
0.271794 0.125734 0.093080
0.310307 0.126833 0.091981
0.345892 0.127687 0.090578
0.378027 0.128511 0.089418
0.408087 0.130312 0.088685
0.436347 0.132967 0.088838
0.463386 0.137148 0.090486
0.489082 0.142306 0.092561
0.513756 0.147555 0.094697
0.537621 0.154086 0.097749
0.560967 0.160983 0.101045
0.584009 0.168246 0.104494
0.607324 0.175845 0.107881
0.635920 0.186038 0.111391
0.664546 0.196017 0.114870
0.692958 0.206271 0.118441
0.721889 0.216403 0.121248
0.752346 0.226719 0.123201
0.784512 0.237278 0.124819
0.817716 0.247990 0.126162
0.852262 0.259159 0.127810
0.888334 0.270024 0.129641
0.925658 0.281071 0.131899
0.964050 0.292149 0.135622
1.000000 0.303197 0.141054
1.000000 0.314092 0.148623
0.193332 0.165682 0.058350
0.196201 0.165652 0.057954
0.204135 0.164248 0.065766
0.198032 0.153292 0.094606
0.182010 0.139315 0.117342
0.200168 0.144289 0.126192
0.255070 0.150820 0.114412
0.304112 0.151095 0.102876
0.339513 0.151949 0.101015
0.371862 0.152407 0.099428
0.402106 0.153048 0.098238
0.430823 0.154818 0.098116
0.458045 0.157595 0.099428
0.484108 0.161318 0.100984
0.509148 0.165713 0.103273
0.533410 0.170901 0.106050
0.557244 0.176455 0.108766
0.580652 0.182498 0.111604
0.605341 0.189670 0.114687
0.633753 0.198489 0.118135
0.661433 0.207462 0.121309
0.689204 0.216495 0.124147
0.717678 0.225772 0.126711
0.748043 0.235508 0.128389
0.780331 0.245609 0.129915
0.813931 0.255985 0.131106
0.848692 0.266575 0.132479
0.884794 0.277226 0.133913
0.922026 0.287877 0.136172
0.960204 0.298589 0.139406
0.998749 0.309270 0.144533
1.000000 0.319860 0.151736
0.238560 0.207004 0.046571
0.240452 0.207156 0.046021
0.248936 0.206332 0.047456
0.250462 0.200137 0.081483
0.238163 0.183841 0.110048
0.218143 0.166445 0.135378
0.224338 0.167727 0.149325
0.278264 0.176364 0.135103
0.327672 0.178164 0.121065
0.367102 0.177737 0.112581
0.397620 0.178195 0.111330
0.426551 0.179538 0.110933
0.454078 0.181674 0.112093
0.480415 0.184268 0.113588
0.505730 0.187655 0.115267
0.530388 0.191653 0.117189
0.554467 0.195956 0.119326
0.578332 0.200900 0.121889
0.605585 0.207950 0.124514
0.633356 0.215488 0.127535
0.660609 0.223392 0.130251
0.688258 0.231540 0.132631
0.757565 0.256748 0.139406
0.791287 0.266789 0.141115
0.825101 0.276402 0.142794
0.859037 0.286229 0.144594
0.893462 0.295750 0.146853
0.928374 0.305272 0.149630
0.963897 0.314824 0.153201
0.999573 0.324315 0.158175
1.000000 0.333593 0.164950
1.000000 0.342718 0.173495
0.286503 0.253147 0.031464
0.288304 0.253086 0.031067
0.294652 0.252506 0.032502
0.302190 0.249454 0.050843
0.295445 0.236332 0.099825
0.279667 0.216403 0.130037
0.257267 0.197330 0.157015
0.251133 0.194247 0.176486
0.303929 0.204654 0.161501
0.352209 0.208591 0.147127
0.396857 0.208530 0.132845
0.429389 0.209384 0.129488
0.457099 0.210971 0.129885
0.483619 0.212833 0.130343
0.508965 0.215030 0.131106
0.533410 0.217624 0.132418
0.557488 0.220798 0.133852
0.584558 0.226261 0.135897
0.613672 0.233066 0.138521
0.642786 0.240330 0.141024
0.672541 0.248234 0.143252
0.704311 0.257115 0.145480
0.738216 0.266880 0.147585
0.774502 0.277226 0.149264
0.811154 0.287572 0.150851
0.846891 0.297398 0.152743
0.882231 0.306645 0.153933
0.917449 0.315801 0.156344
0.953094 0.324987 0.159396
0.988830 0.333867 0.163394
1.000000 0.342779 0.169253
1.000000 0.351507 0.176974
0.322423 0.288426 0.029816
0.323613 0.288365 0.030701
0.328710 0.287938 0.029908
0.338933 0.287236 0.032349
0.336980 0.278325 0.089387
0.326055 0.261479 0.122377
0.310002 0.241794 0.151095
0.287205 0.222660 0.177157
0.270451 0.215915 0.201083
0.320897 0.227909 0.187137
0.367651 0.233951 0.173709
0.410712 0.236118 0.160800
0.450629 0.235904 0.147738
0.477150 0.237339 0.147341
0.502739 0.238865 0.147250
0.527337 0.240665 0.147646
0.554162 0.244572 0.148714
0.581994 0.249424 0.150362
0.609400 0.254551 0.151919
0.637263 0.260349 0.153536
0.665919 0.266850 0.155123
0.696620 0.274479 0.156680
0.729702 0.283207 0.158267
0.765225 0.292760 0.159457
0.801541 0.302464 0.160861
0.837308 0.311681 0.161746
0.872770 0.320562 0.163210
0.908263 0.329229 0.164767
0.944274 0.338048 0.167239
0.980377 0.346685 0.170901
1.000000 0.355169 0.176059
1.000000 0.363714 0.183291
0.355596 0.322515 0.042634
0.356878 0.322423 0.042359
0.360693 0.322057 0.044038
0.368719 0.321538 0.045594
0.372229 0.316350 0.083619
0.366369 0.303868 0.117525
0.353948 0.285863 0.147158
0.337255 0.266331 0.173770
0.315251 0.247623 0.197787
0.293065 0.237949 0.222782
0.337316 0.250370 0.212253
0.382025 0.258030 0.199832
0.424109 0.261845 0.187411
0.463416 0.262882 0.174685
0.497475 0.263096 0.165103
0.525536 0.266667 0.165713
0.552605 0.270024 0.166049
0.579156 0.273564 0.166567
0.605707 0.277501 0.166964
0.632837 0.282200 0.167727
0.660883 0.287785 0.168582
0.690913 0.294469 0.169650
0.723354 0.302312 0.170901
0.758328 0.311009 0.171450
0.794400 0.320073 0.172091
0.830045 0.328862 0.172915
0.865599 0.337255 0.173922
0.901335 0.345647 0.175082
0.937560 0.354040 0.177340
0.973938 0.362188 0.180392
1.000000 0.370428 0.185306
1.000000 0.378454 0.191897
0.387121 0.356542 0.065339
0.388037 0.356359 0.065400
0.390875 0.355932 0.067567
0.397498 0.355383 0.069642
0.404944 0.353368 0.081758
0.401556 0.343603 0.114778
0.392493 0.327947 0.144472
0.379492 0.309453 0.171328
0.362219 0.289891 0.195926
0.340520 0.271397 0.218112
0.318151 0.260319 0.241184
0.351568 0.270726 0.235874
0.395270 0.279973 0.224186
0.437903 0.286778 0.213413
0.478859 0.290715 0.202060
0.517815 0.292821 0.190005
0.549493 0.294896 0.184024
0.575799 0.298009 0.183719
0.602350 0.301396 0.183474
0.629206 0.305455 0.183597
0.656672 0.310124 0.183627
0.685512 0.315557 0.183810
0.716304 0.322057 0.183963
0.749294 0.329473 0.184054
0.783719 0.337407 0.183841
0.818570 0.345312 0.183963
0.853971 0.353338 0.184665
0.890166 0.361425 0.185397
0.927184 0.369787 0.187106
0.964569 0.378088 0.190249
1.000000 0.386358 0.194797
1.000000 0.394446 0.201175
0.415595 0.388922 0.089723
0.416083 0.388922 0.090059
0.418982 0.388678 0.090700
0.424567 0.388281 0.091005
0.433021 0.387732 0.091798
0.433204 0.380987 0.115114
0.428260 0.369268 0.142641
0.417700 0.351995 0.169986
0.403845 0.333165 0.195102
0.386511 0.313725 0.218021
0.366094 0.296239 0.239628
0.344854 0.284977 0.261448
0.369116 0.293950 0.261540
0.412299 0.304723 0.250553
0.453468 0.311955 0.239414
0.493141 0.316869 0.228031
0.531731 0.319921 0.215976
0.569635 0.321752 0.203494
0.597528 0.324681 0.200595
0.624109 0.328038 0.199741
0.651148 0.332006 0.199069
0.679622 0.336950 0.198611
0.710201 0.343023 0.198215
0.742977 0.349889 0.197757
0.777310 0.357458 0.197269
0.812161 0.365057 0.197086
0.847715 0.372869 0.197177
0.884092 0.380743 0.197879
0.921294 0.388800 0.199405
0.958984 0.396918 0.202152
0.996612 0.405066 0.206455
1.000000 0.412970 0.212619
0.444800 0.423774 0.102113
0.445472 0.423804 0.101991
0.447700 0.423651 0.101778
0.452399 0.423468 0.103029
0.459815 0.423224 0.103548
0.465339 0.420111 0.115572
0.463203 0.411536 0.142275
0.456519 0.397986 0.169986
0.446021 0.380896 0.196231
0.432471 0.362249 0.220615
0.415137 0.342779 0.242771
0.393713 0.323949 0.262669
0.382910 0.322515 0.293645
0.397772 0.328466 0.297215
0.441199 0.340856 0.286015
0.483253 0.349737 0.274571
0.524041 0.356085 0.262760
0.564172 0.360784 0.250431
0.604181 0.364385 0.237613
0.642756 0.367285 0.225193
0.671534 0.371374 0.223819
0.701503 0.376257 0.222416
0.733242 0.381872 0.220859
0.766476 0.388251 0.219883
0.800229 0.394720 0.218906
0.834287 0.401160 0.218357
0.868528 0.407385 0.218173
0.903044 0.413794 0.218570
0.938018 0.420203 0.220188
0.973419 0.426825 0.222812
1.000000 0.433417 0.227085
1.000000 0.440070 0.233494
0.487556 0.477729 0.117037
0.487892 0.477607 0.116793
0.489754 0.477089 0.117617
0.494026 0.476814 0.117586
0.500328 0.476081 0.118502
0.509270 0.475380 0.119570
0.506615 0.465949 0.146700
0.501976 0.454017 0.173709
0.492226 0.436561 0.200687
0.480140 0.417548 0.225895
0.465675 0.397681 0.249485
0.448157 0.377722 0.271122
0.426459 0.358190 0.290654
0.402258 0.342138 0.309026
0.408637 0.345098 0.316686
0.451118 0.358587 0.306218
0.492317 0.368566 0.295109
0.532708 0.375952 0.283513
0.572625 0.381811 0.271641
0.612421 0.386511 0.259342
0.652979 0.390661 0.246189
0.690150 0.395087 0.237156
0.721370 0.400580 0.235447
0.754513 0.406744 0.233677
0.788357 0.413153 0.232425
0.822599 0.419837 0.231540
0.857481 0.426368 0.231266
0.892882 0.432898 0.231449
0.928740 0.439612 0.232792
0.965118 0.446571 0.235447
1.000000 0.453285 0.239719
1.000000 0.460029 0.246098
0.518944 0.519005 0.127047
0.519066 0.518700 0.127077
0.520562 0.517998 0.127260
0.523827 0.516991 0.127291
0.529076 0.515709 0.127749
0.536522 0.514488 0.128908
0.538933 0.508354 0.144594
0.534569 0.496773 0.170962
0.527184 0.481575 0.197421
0.516411 0.462959 0.223453
0.503685 0.443244 0.247684
0.488472 0.422705 0.270298
0.470008 0.401770 0.290929
0.447730 0.381109 0.309026
0.422339 0.362860 0.325292
0.419348 0.361486 0.335821
0.460670 0.375463 0.325353
0.501030 0.386358 0.314519
0.541131 0.395117 0.303563
0.581262 0.402258 0.292119
0.621729 0.408392 0.280400
0.664118 0.414466 0.268040
0.708492 0.420508 0.254459
0.745571 0.426917 0.248875
0.779568 0.433509 0.247135
0.814267 0.440253 0.246098
0.849424 0.446967 0.245365
0.885130 0.453681 0.245548
0.921508 0.460487 0.246830
0.958343 0.467536 0.249516
0.994965 0.474403 0.253849
1.000000 0.481270 0.260319
0.548608 0.558923 0.134188
0.548974 0.558679 0.134371
0.550103 0.557916 0.134279
0.552758 0.556695 0.134127
0.557214 0.555016 0.134676
0.563714 0.553307 0.135439
0.570916 0.550896 0.139559
0.566552 0.539452 0.167300
0.561395 0.526696 0.193149
0.551934 0.508934 0.220005
0.540398 0.489570 0.245274
0.526665 0.468971 0.268864
0.510643 0.447486 0.290471
0.491096 0.425452 0.309850
0.467842 0.403357 0.326452
0.441199 0.382940 0.340795
0.429694 0.377264 0.354101
0.470069 0.392126 0.344060
0.510307 0.404089 0.333715
0.550561 0.414038 0.323217
0.591241 0.422766 0.312413
0.633387 0.431006 0.301274
0.677882 0.439185 0.289403
0.724514 0.447242 0.276555
0.771817 0.454170 0.262577
0.806668 0.461097 0.261173
0.842374 0.468116 0.260563
0.878904 0.475410 0.260868
0.916411 0.482795 0.262364
0.954437 0.490455 0.265446
0.992432 0.498024 0.270665
1.000000 0.505425 0.278019
0.577356 0.597467 0.138094
0.577905 0.597528 0.137942
0.579217 0.597192 0.138125
0.581933 0.596551 0.138399
0.586572 0.595666 0.138674
0.593042 0.594751 0.139590
0.602045 0.594354 0.140261
0.602686 0.586969 0.161318
0.597925 0.574823 0.189303
0.590845 0.559686 0.216281
0.579278 0.539818 0.242893
0.565911 0.518303 0.267338
0.550286 0.495644 0.289433
0.531945 0.471778 0.309636
0.510613 0.447639 0.327123
0.486183 0.423957 0.342260
0.458442 0.401587 0.355108
0.438636 0.391852 0.371252
0.478706 0.407630 0.361822
0.519158 0.420966 0.352178
0.560266 0.432837 0.342535
0.602686 0.443763 0.332708
0.647333 0.454627 0.322393
0.694728 0.465248 0.311345
0.743832 0.475349 0.299260
0.792935 0.483864 0.286534
0.838041 0.491066 0.277134
0.875242 0.498665 0.277592
0.913054 0.506340 0.279179
0.951049 0.514000 0.282444
0.988769 0.521386 0.287541
1.000000 0.528527 0.294987
0.606043 0.635676 0.139986
0.606439 0.635584 0.140047
0.607630 0.635309 0.140169
0.610407 0.634913 0.140200
0.614771 0.634333 0.140627
0.621088 0.633814 0.141146
0.629541 0.633417 0.142306
0.636225 0.630579 0.151614
0.631800 0.619135 0.181399
0.626093 0.605829 0.208896
0.616052 0.587671 0.236484
0.603265 0.566461 0.262455
0.588373 0.543511 0.286412
0.571252 0.519341 0.307836
0.551812 0.494545 0.327062
0.529503 0.469368 0.343816
0.504509 0.444862 0.358129
0.476570 0.421729 0.370275
0.455726 0.410620 0.386481
0.488716 0.424323 0.380438
0.529747 0.439429 0.371801
0.572442 0.453407 0.362951
0.616907 0.466712 0.353918
0.664515 0.480140 0.344396
0.714778 0.493202 0.333989
0.765774 0.504997 0.323278
0.816831 0.514855 0.311986
0.867308 0.522820 0.300175
0.910033 0.530327 0.297063
0.948486 0.538262 0.300664
0.986450 0.545922 0.306340
1.000000 0.553155 0.314214
0.636408 0.675074 0.143740
0.636835 0.675288 0.143832
0.655543 0.696956 0.150362
0.658259 0.696651 0.150515
0.662562 0.696040 0.150759
0.668605 0.695277 0.151522
0.676448 0.694545 0.152377
0.686641 0.693874 0.153353
0.685481 0.685145 0.179232
0.680385 0.672877 0.208408
0.673304 0.658137 0.235996
0.660517 0.637171 0.264134
0.645167 0.613367 0.289708
0.626978 0.587182 0.313268
0.606500 0.559625 0.334203
0.583642 0.531304 0.352697
0.558618 0.503075 0.368383
0.531609 0.476051 0.381628
0.502007 0.450690 0.392706
0.479713 0.437476 0.408209
0.505211 0.448615 0.405646
0.548150 0.465766 0.397467
0.592828 0.481849 0.389136
0.640681 0.497780 0.380377
0.691157 0.513054 0.370916
0.742672 0.526970 0.360998
0.794156 0.538903 0.350896
0.845426 0.548974 0.340673
0.896147 0.557061 0.330632
0.945556 0.563043 0.320836
0.983948 0.570581 0.325963
1.000000 0.577752 0.334356
0.670741 0.717983 0.152590
0.672572 0.719875 0.153323
0.675471 0.721798 0.154452
0.679530 0.723262 0.155276
0.684535 0.724178 0.156435
0.690669 0.724147 0.156893
0.698299 0.723568 0.157931
0.707698 0.722866 0.158419
0.713130 0.718807 0.171145
0.708888 0.708095 0.200595
0.703548 0.695766 0.227756
0.694301 0.679133 0.255192
0.680690 0.657710 0.281712
0.664790 0.633936 0.306310
0.646265 0.607965 0.328710
0.625025 0.580102 0.349218
0.601617 0.551629 0.367193
0.576349 0.523461 0.382971
0.549310 0.496529 0.396490
0.520378 0.471351 0.407874
0.498054 0.457832 0.423713
0.516655 0.466987 0.425544
0.561120 0.486336 0.418555
0.608515 0.505028 0.411109
0.658930 0.523339 0.402991
0.711818 0.540703 0.394537
0.764889 0.555993 0.386023
0.817990 0.569268 0.377691
0.870665 0.580560 0.369757
0.922332 0.589624 0.362341
0.971740 0.596063 0.355718
1.000000 0.601038 0.353704
0.695857 0.748196 0.158999
0.697749 0.749996 0.160067
0.700679 0.751919 0.161135
0.704494 0.753445 0.162539
0.709499 0.754452 0.163394
0.715389 0.754513 0.164675
0.722469 0.754086 0.165164
0.731228 0.753353 0.165927
0.741939 0.752682 0.167330
0.739528 0.743984 0.194491
0.735073 0.733272 0.221927
0.729397 0.720851 0.248081
0.717891 0.702327 0.274907
0.704005 0.681239 0.300359
0.687770 0.657771 0.324041
0.669154 0.632258 0.345708
0.647608 0.604730 0.365576
0.623621 0.576074 0.383459
0.597742 0.547723 0.399420
0.570123 0.520409 0.413184
0.540887 0.494820 0.424872
0.518456 0.480842 0.441077
0.529778 0.487495 0.447333
0.576562 0.509331 0.441382
0.626886 0.530663 0.434852
0.680446 0.551537 0.427802
0.735012 0.570428 0.420691
0.789822 0.587213 0.414008
0.844572 0.601892 0.408026
0.898314 0.614099 0.402960
0.949950 0.623651 0.398871
0.998016 0.630152 0.395636
0.721920 0.778256 0.167941
0.723629 0.779782 0.168948
0.726192 0.781369 0.170108
0.729793 0.782620 0.171633
0.734371 0.783413 0.172793
0.739834 0.783474 0.173465
0.746639 0.783078 0.173892
0.754879 0.782467 0.175051
0.764889 0.781857 0.175875
0.769711 0.777676 0.190249
0.766293 0.768582 0.217594
0.761898 0.758022 0.243687
0.754665 0.744411 0.268956
0.742580 0.725978 0.295018
0.728542 0.705348 0.319677
0.712551 0.682887 0.342473
0.694392 0.658747 0.363928
0.673854 0.632898 0.384009
0.651118 0.606256 0.402564
0.625757 0.579004 0.419654
0.598444 0.552392 0.434943
0.568994 0.526970 0.448341
0.546136 0.512840 0.466072
0.550988 0.518029 0.478187
0.603357 0.544610 0.474159
0.659480 0.570428 0.469520
0.717006 0.594110 0.464912
0.774777 0.615198 0.460761
0.832090 0.633539 0.457771
0.887938 0.648951 0.455848
0.940917 0.661097 0.455268
0.989563 0.669795 0.455848
0.756710 0.816007 0.188235
0.757534 0.816617 0.188724
0.758907 0.817014 0.189487
0.761349 0.817075 0.189822
0.764858 0.816861 0.190158
0.769436 0.816281 0.190280
0.775540 0.815579 0.190768
0.783261 0.814878 0.191318
0.792782 0.814145 0.192050
0.804105 0.813596 0.193668
0.801999 0.806271 0.220005
0.799039 0.797665 0.245274
0.794827 0.787564 0.269688
0.785763 0.772854 0.295201
0.773709 0.755123 0.319829
0.759762 0.735500 0.343450
0.743740 0.713954 0.365637
0.725673 0.690761 0.386725
0.705440 0.666163 0.406409
0.682612 0.640162 0.424811
0.657069 0.613275 0.441871
0.628748 0.586053 0.457374
0.597650 0.559319 0.470954
0.572930 0.543236 0.488838
0.569543 0.545190 0.505913
0.625574 0.574762 0.503166
0.684871 0.603174 0.500420
0.744594 0.628748 0.498512
0.804074 0.651301 0.497566
0.861997 0.670497 0.498024
0.916991 0.685969 0.499825
0.967468 0.697810 0.503166
0.781430 0.841794 0.203464
0.782162 0.842222 0.203922
0.783566 0.842496 0.204685
0.785855 0.842649 0.205081
0.789151 0.842435 0.205386
0.793606 0.842039 0.205753
0.799374 0.841428 0.205997
0.806760 0.840787 0.206332
0.815763 0.840177 0.207187
0.826535 0.839597 0.208560
0.831571 0.836088 0.222446
0.829862 0.829129 0.247074
0.827207 0.821012 0.270848
0.822934 0.811154 0.294621
0.812894 0.796353 0.319707
0.801389 0.779782 0.343786
0.788205 0.761624 0.366888
0.773007 0.741878 0.388922
0.755917 0.720577 0.409918
0.736568 0.697841 0.429969
0.714809 0.673945 0.448890
0.690425 0.649042 0.466590
0.662928 0.623346 0.482948
0.632166 0.597345 0.497780
0.600824 0.574304 0.511528
0.588952 0.573114 0.534386
0.648890 0.606043 0.533654
0.710170 0.636316 0.533684
0.771725 0.663478 0.534905
0.832029 0.687068 0.537835
0.889616 0.706996 0.542931
0.942626 0.723079 0.550195
0.810117 0.869932 0.228000
0.811063 0.870573 0.229282
0.812284 0.870817 0.229770
0.814176 0.870542 0.229770
0.816739 0.869902 0.229221
0.820371 0.868956 0.228580
0.825162 0.867796 0.227817
0.831388 0.866514 0.227237
0.839170 0.865232 0.226841
0.848631 0.864042 0.227085
0.859159 0.862638 0.228214
0.857939 0.856504 0.250919
0.855985 0.849516 0.273503
0.853117 0.841398 0.295811
0.846647 0.830137 0.318791
0.836454 0.815518 0.342290
0.824765 0.799496 0.365301
0.811795 0.782284 0.387610
0.797391 0.763973 0.409552
0.781399 0.744594 0.430915
0.763394 0.724147 0.451484
0.742885 0.702419 0.471046
0.719356 0.679286 0.489235
0.692500 0.654932 0.505821
0.662043 0.629664 0.520592
0.635157 0.612085 0.539696
0.617884 0.609705 0.568139
0.675959 0.642420 0.571130
0.738613 0.673762 0.574060
0.800687 0.701686 0.579248
0.860288 0.725856 0.587030
0.915007 0.745968 0.597559
0.829923 0.888792 0.243565
0.830777 0.889372 0.244724
0.832059 0.889616 0.245518
0.833921 0.889586 0.245853
0.836728 0.889281 0.245914
0.840543 0.888823 0.245975
0.845609 0.888273 0.246098
0.852171 0.887633 0.246433
0.860136 0.886992 0.246891
0.869596 0.886320 0.247929
0.880430 0.885496 0.249119
0.886076 0.882567 0.261418
0.885588 0.877226 0.283360
0.884337 0.870939 0.304997
0.882170 0.863615 0.326238
0.874601 0.852018 0.349340
0.865080 0.838651 0.372229
0.854490 0.824308 0.394873
0.842710 0.808988 0.417334
0.829587 0.792844 0.439551
0.814786 0.775662 0.461463
0.798001 0.757504 0.482551
0.778836 0.738155 0.502586
0.756710 0.717647 0.521721
0.731441 0.696071 0.539788
0.702541 0.673701 0.556542
0.676234 0.657954 0.577905
0.660822 0.658930 0.611414
0.711147 0.690028 0.623774
0.775113 0.722652 0.632105
0.836027 0.750729 0.642695
0.891661 0.774014 0.655634
0.851957 0.908904 0.267491
0.852445 0.909117 0.268193
0.853422 0.909178 0.268345
0.855100 0.909056 0.268650
0.857603 0.908721 0.268620
0.861173 0.908232 0.268559
0.865904 0.907652 0.268223
0.871916 0.907012 0.268376
0.879301 0.906310 0.268803
0.888121 0.905577 0.269566
0.898375 0.904692 0.270512
0.909758 0.903777 0.272190
0.910369 0.899626 0.293248
0.910430 0.894743 0.314336
0.909758 0.889006 0.335515
0.907195 0.881773 0.356756
0.899687 0.870756 0.379919
0.891234 0.858885 0.402808
0.881895 0.846311 0.425849
0.871458 0.833036 0.448890
0.859770 0.818967 0.471626
0.846342 0.804044 0.494087
0.830808 0.788174 0.515923
0.812802 0.771206 0.537133
0.791928 0.753231 0.557244
0.768154 0.734463 0.576562
0.740932 0.715175 0.595087
0.715084 0.701228 0.617914
0.701411 0.705318 0.655482
0.742702 0.734066 0.676631
0.805905 0.766476 0.688808
0.863645 0.793606 0.703304
0.870359 0.925292 0.289372
0.870787 0.925444 0.289891
0.871702 0.925505 0.290440
0.873381 0.925475 0.290898
0.875975 0.925353 0.291386
0.879759 0.925231 0.292210
0.884916 0.925292 0.293889
0.891417 0.925353 0.296178
0.899321 0.925475 0.299260
0.908629 0.925566 0.302586
0.919341 0.925597 0.306493
0.931212 0.925475 0.310369
0.938903 0.924102 0.323308
0.941009 0.921172 0.345159
0.942565 0.917632 0.367010
0.943359 0.913268 0.388342
0.940459 0.906340 0.410773
0.934539 0.897246 0.433936
0.927886 0.887633 0.457557
0.920378 0.877531 0.481666
0.911772 0.866941 0.506157
0.901823 0.855833 0.530755
0.890196 0.844053 0.554772
0.876616 0.831632 0.578363
0.860746 0.818570 0.601099
0.842252 0.804868 0.623163
0.820981 0.790707 0.644190
0.796719 0.776333 0.664302
0.772946 0.765988 0.687892
0.761959 0.772732 0.726131
0.792630 0.797665 0.754330
0.850065 0.826108 0.768643
0.893004 0.944427 0.332799
0.893156 0.944427 0.332860
0.893828 0.944305 0.332799
0.895201 0.944121 0.332616
0.897429 0.943877 0.332525
0.900633 0.943511 0.332555
0.904936 0.943114 0.332830
0.910430 0.942687 0.333410
0.917082 0.942199 0.334508
0.925078 0.941680 0.335821
0.934295 0.941070 0.337591
0.944732 0.940398 0.339513
0.956451 0.939544 0.341680
0.959228 0.937163 0.361608
