20 Preset/Nude style/【3】LUT video cho PR-AE-FCPX/Tone  (8).cube
# Created by Adobe Lightroom plugin Export LUT (1.24.0)
# www.johnrellis.com/lightroom/exportlut.htm
# Preset: 奶油裸色-素材江湖09
# Color profile: C:\Program Files (x86)\Common Files\Adobe\Color\Profiles\Recommended\VideoHD.icc
LUT_3D_SIZE 8
DOMAIN_MIN 0.000000 0.000000 0.000000
DOMAIN_MAX 0.903226 0.903226 0.903226
0.102876 0.082918 0.086030
0.185580 0.080354 0.081147
0.355138 0.088167 0.072877
0.472358 0.110201 0.076997
0.570031 0.143771 0.092561
0.678279 0.187289 0.109071
0.806973 0.234867 0.120729
0.944244 0.279026 0.130587
0.193332 0.165682 0.058350
0.182010 0.139315 0.117342
0.339513 0.151949 0.101015
0.458045 0.157595 0.099428
0.557244 0.176455 0.108766
0.661433 0.207462 0.121309
0.780331 0.245609 0.129915
0.922026 0.287877 0.136172
0.355596 0.322515 0.042634
0.372229 0.316350 0.083619
0.315251 0.247623 0.197787
0.424109 0.261845 0.187411
0.552605 0.270024 0.166049
0.660883 0.287785 0.168582
0.794400 0.320073 0.172091
0.937560 0.354040 0.177340
0.487556 0.477729 0.117037
0.500328 0.476081 0.118502
0.492226 0.436561 0.200687
0.426459 0.358190 0.290654
0.492317 0.368566 0.295109
0.652979 0.390661 0.246189
0.788357 0.413153 0.232425
0.928740 0.439612 0.232792
0.606043 0.635676 0.139986
0.614771 0.634333 0.140627
0.631800 0.619135 0.181399
0.588373 0.543511 0.286412
0.504509 0.444862 0.358129
0.529747 0.439429 0.371801
0.714778 0.493202 0.333989
0.910033 0.530327 0.297063
0.721920 0.778256 0.167941
0.734371 0.783413 0.172793
0.764889 0.781857 0.175875
0.754665 0.744411 0.268956
0.694392 0.658747 0.363928
0.598444 0.552392 0.434943
0.603357 0.544610 0.474159
0.832090 0.633539 0.457771
0.829923 0.888792 0.243565
0.836728 0.889281 0.245914
0.860136 0.886992 0.246891
0.885588 0.877226 0.283360
0.865080 0.838651 0.372229
0.814786 0.775662 0.461463
0.731441 0.696071 0.539788
0.711147 0.690028 0.623774
0.907012 0.956329 0.361334
0.911284 0.955932 0.361547
0.929900 0.954589 0.364874
0.966552 0.952087 0.373327
0.976745 0.938933 0.425269
0.965362 0.915557 0.532158
0.936004 0.886198 0.642756
0.882139 0.854154 0.734951
0.073304 0.094057 0.153231
0.186130 0.052155 0.160006
0.355566 0.004913 0.139071
0.460456 0.140749 0.151949
0.558099 0.166873 0.154177
0.657557 0.197604 0.157931
0.770016 0.232700 0.160098
0.907439 0.271946 0.160189
0.122683 0.168551 0.138949
0.197360 0.163729 0.165377
0.341100 0.171756 0.162844
0.454383 0.180117 0.162081
0.552667 0.195224 0.162570
0.651637 0.218357 0.165133
0.758572 0.246769 0.165469
0.893614 0.282780 0.164157
0.333318 0.315373 0.168460
0.358434 0.314336 0.169589
0.318395 0.259373 0.229435
0.430060 0.272251 0.214023
0.544244 0.276310 0.198978
0.644312 0.287846 0.196109
0.759152 0.309880 0.194003
0.902312 0.342260 0.193271
0.464820 0.460273 0.184390
0.477790 0.459358 0.185000
0.481331 0.429572 0.228580
0.416175 0.352300 0.297398
0.481636 0.360327 0.294743
0.629755 0.375952 0.250645
0.750362 0.394354 0.240146
0.893309 0.423041 0.237308
0.591394 0.625299 0.196048
0.599115 0.622919 0.196109
0.620661 0.610010 0.214603
0.577020 0.533806 0.298070
0.495125 0.437201 0.359564
0.523644 0.433356 0.369238
0.700343 0.482216 0.333196
0.889799 0.518883 0.299138
0.706355 0.766934 0.207736
0.713954 0.766964 0.208469
0.744472 0.766232 0.211154
0.741115 0.733089 0.282231
0.683314 0.649104 0.369146
0.591455 0.546899 0.436469
0.598596 0.539300 0.470680
0.821897 0.624262 0.451911
0.816831 0.881193 0.260258
0.821439 0.879698 0.258671
0.844450 0.877287 0.259068
0.873655 0.869108 0.288792
0.855833 0.832273 0.375189
0.804685 0.767636 0.459754
0.717922 0.683070 0.531456
0.698207 0.673732 0.606409
0.899382 0.953521 0.364324
0.904387 0.953643 0.367437
0.922972 0.952239 0.369848
0.959930 0.949889 0.378302
0.978149 0.941680 0.447913
0.965637 0.917327 0.543847
0.934325 0.885771 0.644953
0.879789 0.852720 0.734615
0.000000 0.141268 0.297734
0.127138 0.114107 0.303319
0.345190 0.078279 0.308690
0.496193 0.107240 0.305272
0.585473 0.133608 0.244938
0.672450 0.232639 0.255467
0.785397 0.259922 0.251987
0.922087 0.287633 0.246616
0.178622 0.220829 0.290898
0.195651 0.198123 0.296574
0.352178 0.181765 0.305364
0.484077 0.182528 0.288945
0.566247 0.224918 0.260288
0.663874 0.252659 0.259678
0.774166 0.272648 0.252903
0.910796 0.298711 0.247227
0.232395 0.324559 0.264317
0.269444 0.325170 0.272343
0.347051 0.309545 0.314000
0.459327 0.309636 0.296208
0.560906 0.312169 0.288029
0.658076 0.317205 0.278447
0.771237 0.330785 0.269932
0.909331 0.353094 0.264073
0.425238 0.466865 0.312963
0.441596 0.467475 0.315068
0.489509 0.462257 0.320745
0.431006 0.386328 0.360296
0.518334 0.396368 0.343053
0.646540 0.402075 0.314061
0.765896 0.415076 0.302861
0.905669 0.435920 0.296971
0.559106 0.623285 0.320317
0.568780 0.622553 0.320378
0.608270 0.621759 0.321233
0.586419 0.559960 0.363867
0.505180 0.462348 0.405951
0.549401 0.461524 0.401007
0.724056 0.500359 0.365423
0.896391 0.528618 0.344671
0.680934 0.765255 0.324987
0.689113 0.765774 0.325628
0.720119 0.764706 0.326879
0.738399 0.741909 0.353491
0.683772 0.659876 0.413733
0.591974 0.557427 0.465248
0.614557 0.555688 0.487617
0.836179 0.633997 0.471626
0.799496 0.883818 0.362036
0.804410 0.882567 0.360815
0.827115 0.879423 0.359014
0.870115 0.874815 0.363836
0.855711 0.839780 0.425360
0.806088 0.776150 0.495125
0.722011 0.695125 0.559503
0.718196 0.694759 0.628840
0.883909 0.954437 0.437629
0.887999 0.953857 0.436469
0.906554 0.952422 0.438148
0.944427 0.950774 0.448829
0.972015 0.943511 0.493965
0.963531 0.921721 0.580621
0.933715 0.890990 0.670802
0.880308 0.858152 0.751278
0.000000 0.194034 0.431708
0.000000 0.168734 0.436988
0.293217 0.153079 0.444373
0.471809 0.146944 0.447059
0.632136 0.169528 0.479835
0.726375 0.166293 0.412360
0.818479 0.134768 0.334295
0.914275 0.283421 0.336980
0.132052 0.260136 0.430152
0.158145 0.243595 0.433539
0.311711 0.219059 0.442267
0.474830 0.209995 0.446693
0.629877 0.220127 0.472908
0.719814 0.205661 0.402106
0.806638 0.214603 0.339391
0.913298 0.298039 0.338262
0.271641 0.366064 0.419715
0.298039 0.364691 0.421363
0.349554 0.340520 0.434241
0.490669 0.333654 0.453437
0.608026 0.325963 0.429023
0.693874 0.322332 0.376532
0.797391 0.350622 0.366857
0.925170 0.360632 0.355138
0.293278 0.477882 0.391760
0.314885 0.477790 0.394781
0.401190 0.478828 0.423407
0.459266 0.448646 0.457252
0.568383 0.442542 0.425422
0.662562 0.433875 0.404028
0.776761 0.433997 0.386572
0.912535 0.442756 0.375219
0.483986 0.633783 0.444800
0.499794 0.631861 0.454505
0.550134 0.629908 0.458564
0.605341 0.613764 0.467628
0.522301 0.508751 0.485725
0.603204 0.513664 0.460792
0.769741 0.529656 0.425422
0.908049 0.542412 0.415686
0.635065 0.774655 0.468330
0.646998 0.778836 0.472694
0.679927 0.776242 0.471748
0.743343 0.774624 0.473457
0.701778 0.700343 0.501976
0.603937 0.590478 0.526360
0.655482 0.594873 0.526665
0.866575 0.650996 0.508812
0.759274 0.886656 0.493416
0.765896 0.886717 0.494392
0.791897 0.885679 0.495735
0.841703 0.883421 0.498543
0.863584 0.862638 0.521202
0.813626 0.798337 0.565911
0.725490 0.713893 0.607904
0.747127 0.721798 0.658228
0.855009 0.957946 0.561578
0.859312 0.957580 0.561517
0.877836 0.956146 0.562280
0.914244 0.953613 0.566155
0.960510 0.948455 0.578851
0.959289 0.930022 0.641444
0.931670 0.899443 0.711910
0.881071 0.867765 0.779782
0.000000 0.259251 0.573907
0.000000 0.244633 0.577783
0.204654 0.222873 0.583642
0.431403 0.197452 0.595636
0.595514 0.200534 0.601556
0.771908 0.203067 0.646204
0.878325 0.198611 0.596155
0.978271 0.142733 0.521538
0.000000 0.307652 0.572839
0.000000 0.295872 0.577081
0.237949 0.267216 0.583856
0.436133 0.242924 0.593774
0.596887 0.242741 0.601373
0.771145 0.244785 0.644587
0.873747 0.231479 0.588190
0.974762 0.179965 0.513512
0.272587 0.420386 0.564508
0.279698 0.413184 0.566735
0.310613 0.377813 0.577966
0.450080 0.356542 0.591760
0.597314 0.350591 0.594690
0.758297 0.352758 0.627924
0.849882 0.316838 0.549401
0.955566 0.265690 0.473762
0.287327 0.522210 0.569635
0.311559 0.520409 0.569879
0.391608 0.515465 0.573236
0.470314 0.491951 0.590814
0.617151 0.486458 0.608484
0.722316 0.454292 0.553552
0.813077 0.424079 0.486824
0.919677 0.435554 0.464912
0.302312 0.628931 0.513115
0.320165 0.630213 0.515801
0.386847 0.632349 0.526390
0.521324 0.633906 0.581689
0.549371 0.577050 0.589075
0.672023 0.564721 0.543725
0.781216 0.546349 0.510887
0.911803 0.539605 0.489570
0.500816 0.765316 0.541924
0.515282 0.764950 0.549950
0.569512 0.761013 0.580102
0.647974 0.759518 0.595544
0.702022 0.734096 0.596368
0.609491 0.626276 0.601404
0.710384 0.637293 0.577264
0.904753 0.656031 0.548577
0.687098 0.885161 0.633448
0.692317 0.884092 0.631128
0.716548 0.881956 0.625483
0.769924 0.881071 0.625910
0.847471 0.878477 0.630182
0.812619 0.820035 0.645502
0.718074 0.727596 0.659663
0.776699 0.739895 0.677974
0.799222 0.957122 0.667720
0.803586 0.956756 0.667353
0.822629 0.955383 0.667109
0.862608 0.954345 0.676448
0.917845 0.950805 0.681117
0.951263 0.940154 0.705348
0.925139 0.906889 0.751705
0.871702 0.869749 0.800168
0.000000 0.332555 0.739345
0.000000 0.321233 0.741787
0.000000 0.286656 0.744686
0.356603 0.271794 0.756313
0.571313 0.233219 0.771725
0.730220 0.239750 0.766964
0.904051 0.244663 0.793606
1.000000 0.274662 0.770016
0.000000 0.363073 0.728695
0.000000 0.352636 0.729915
0.000000 0.314611 0.734737
0.361334 0.299992 0.746609
0.566339 0.264927 0.760586
0.723323 0.268864 0.757656
0.896147 0.273381 0.786160
1.000000 0.291844 0.761563
0.104128 0.470527 0.733059
0.133394 0.462928 0.734310
0.209751 0.427802 0.741024
0.383429 0.395331 0.745418
0.570336 0.368872 0.756832
0.725734 0.368475 0.755001
0.893034 0.376410 0.781552
1.000000 0.368627 0.743648
0.283909 0.587579 0.727596
0.302953 0.585229 0.727840
0.370611 0.578424 0.733944
0.420569 0.530602 0.750820
0.583429 0.510918 0.763699
0.751919 0.505364 0.772854
0.890929 0.522148 0.781308
0.987243 0.468391 0.710445
0.213504 0.689967 0.724544
0.248325 0.688350 0.724636
0.350774 0.682643 0.726314
0.482887 0.674220 0.731380
0.585595 0.648829 0.746914
0.739132 0.644373 0.758145
0.841672 0.591119 0.694484
0.954101 0.528344 0.617945
0.295537 0.776394 0.641871
0.316869 0.778714 0.646235
0.383764 0.779110 0.654841
0.486702 0.778927 0.675135
0.638849 0.775662 0.736080
0.651667 0.715023 0.730709
0.793362 0.697841 0.682185
0.920562 0.674647 0.648768
0.536919 0.896086 0.677424
0.550561 0.896422 0.684504
0.597314 0.894408 0.706142
0.678004 0.890349 0.746120
0.766873 0.886381 0.771603
0.830106 0.868986 0.765499
0.727749 0.769375 0.747890
0.841459 0.784360 0.736721
0.737057 0.959899 0.771420
0.742306 0.959197 0.773892
0.767422 0.957061 0.788357
0.805447 0.955352 0.798489
0.853696 0.953307 0.791104
0.923888 0.949096 0.795224
0.920989 0.922362 0.812009
0.865690 0.879728 0.836545
0.000000 0.401434 0.873503
0.000000 0.392157 0.874418
0.000000 0.348852 0.878477
0.215366 0.336431 0.882628
0.487373 0.309880 0.887785
0.686793 0.264103 0.893736
0.847166 0.272557 0.889677
1.000000 0.290806 0.895903
0.000000 0.428382 0.872618
0.000000 0.419776 0.873472
0.000000 0.378882 0.877409
0.229679 0.360052 0.881468
0.489540 0.334905 0.886992
0.687709 0.292973 0.893309
0.847959 0.299931 0.889433
1.000000 0.317998 0.895171
0.000000 0.515099 0.867094
0.000000 0.508507 0.867979
0.000000 0.477852 0.871794
0.271458 0.438849 0.877440
0.496895 0.418311 0.883299
0.689693 0.384466 0.890318
0.848905 0.388281 0.886778
0.999695 0.406348 0.890867
0.250217 0.639399 0.857969
0.260227 0.634577 0.858244
0.293950 0.614221 0.862028
0.352819 0.566400 0.869718
0.509453 0.537926 0.877104
0.692683 0.510033 0.885405
0.850217 0.513176 0.882444
0.986969 0.535607 0.884825
0.312139 0.735775 0.849027
0.334417 0.735225 0.849149
0.402075 0.732601 0.850919
0.487678 0.725032 0.857664
0.541039 0.676814 0.869444
0.694667 0.655329 0.878691
0.859403 0.652369 0.885191
0.967742 0.672755 0.881285
0.210636 0.842985 0.855680
0.245792 0.841825 0.855863
0.348547 0.836790 0.856657
0.476081 0.827146 0.858305
0.609430 0.814359 0.861082
0.706142 0.790249 0.872404
0.848051 0.786313 0.879484
0.940429 0.745937 0.840208
0.380072 0.898772 0.777035
0.393469 0.898619 0.778622
0.444953 0.898039 0.785672
0.528710 0.896971 0.799466
0.631067 0.895171 0.819974
0.762509 0.890684 0.863554
0.772244 0.841642 0.856901
0.904417 0.824186 0.821530
0.595483 0.969116 0.784817
0.604547 0.968688 0.788357
0.640681 0.966796 0.802762
0.704433 0.963287 0.829313
0.785824 0.958312 0.864561
0.864805 0.953368 0.894041
0.921996 0.946899 0.890196
0.866880 0.900114 0.887633
0.000000 0.485420 0.972137
0.000000 0.478523 0.972595
0.000000 0.447639 0.974701
0.000000 0.421241 0.976684
0.408789 0.402838 0.978576
0.612329 0.370123 0.981292
0.794156 0.331487 0.983093
0.953216 0.346227 0.979919
0.000000 0.506371 0.971008
0.000000 0.499977 0.971466
0.000000 0.470680 0.973571
0.000000 0.440131 0.975921
0.413642 0.422034 0.977874
0.613672 0.390692 0.980652
0.794614 0.353704 0.982605
0.953246 0.367712 0.979431
0.000000 0.580743 0.966186
0.000000 0.575433 0.966705
0.000000 0.551904 0.968841
0.169284 0.508537 0.972473
0.432471 0.492042 0.974701
0.618891 0.464607 0.977783
0.796078 0.431922 0.980163
0.952728 0.443458 0.977111
0.278721 0.695583 0.957214
0.284855 0.691768 0.957702
0.310704 0.675166 0.959808
0.357122 0.637995 0.964111
0.472663 0.603815 0.968353
0.631373 0.580621 0.971862
0.798917 0.550835 0.975189
0.949767 0.561151 0.972229
0.425299 0.795651 0.947478
0.435401 0.794949 0.947784
0.474464 0.792111 0.949004
0.523400 0.778988 0.952056
0.551629 0.736355 0.958587
0.656641 0.709804 0.963470
0.804288 0.682521 0.968109
0.944549 0.687282 0.965667
0.462074 0.872129 0.942992
0.473762 0.871641 0.943023
0.518578 0.869627 0.943114
0.593072 0.866087 0.943145
0.663569 0.858946 0.946654
0.703853 0.825956 0.954070
0.813260 0.806760 0.959197
0.939818 0.804746 0.959564
0.436622 0.952148 0.943145
0.449439 0.951263 0.943236
0.498726 0.947448 0.943603
0.578698 0.940185 0.944274
0.674830 0.929992 0.945251
0.772976 0.919066 0.946532
0.837278 0.902770 0.952270
0.931975 0.898955 0.955383
0.568841 0.973724 0.884031
0.576257 0.973419 0.885130
0.605829 0.972107 0.889616
0.658167 0.969604 0.898131
0.726406 0.966094 0.910369
0.800656 0.962158 0.925139
0.876219 0.957702 0.943725
0.901152 0.941375 0.950072
