20 Preset/Nude style/【3】LUT video cho PR-AE-FCPX/Tone  (7).cube
# Created by Adobe Lightroom plugin Export LUT (1.24.0)
# www.johnrellis.com/lightroom/exportlut.htm
# Preset: 奶油裸色-素材江湖08
# Color profile: C:\Program Files (x86)\Common Files\Adobe\Color\Profiles\Recommended\VideoHD.icc
LUT_3D_SIZE 5
DOMAIN_MIN 0.000000 0.000000 0.000000
DOMAIN_MAX 0.903226 0.903226 0.903226
0.116884 0.105470 0.100496
0.262119 0.102266 0.103822
0.444739 0.101350 0.115023
0.604944 0.116854 0.134798
0.760433 0.135714 0.153262
0.195224 0.209903 0.150484
0.264805 0.223575 0.132876
0.409644 0.213443 0.135103
0.578210 0.213230 0.146242
0.742977 0.217868 0.159945
0.295872 0.345251 0.225742
0.326513 0.342748 0.231357
0.437659 0.381567 0.189273
0.547143 0.349645 0.167514
0.673762 0.346746 0.173770
0.377661 0.462043 0.296269
0.395270 0.461158 0.299748
0.455756 0.473152 0.301305
0.583490 0.527489 0.249882
0.728817 0.513939 0.189700
0.486580 0.634119 0.397223
0.500511 0.634394 0.400610
0.552850 0.635554 0.415045
0.640497 0.675471 0.400397
0.781521 0.720790 0.336431
0.015229 0.176059 0.220493
0.201846 0.133577 0.238193
0.451972 0.141207 0.235904
0.619562 0.168490 0.238926
0.771542 0.174655 0.238682
0.187106 0.233646 0.221988
0.261112 0.246067 0.234684
0.436591 0.242344 0.234379
0.596307 0.239750 0.235172
0.754849 0.240085 0.237827
0.294530 0.367407 0.270665
0.329229 0.364721 0.275303
0.435981 0.392493 0.257511
0.539635 0.358892 0.231968
0.687556 0.359899 0.229984
0.376806 0.473548 0.322087
0.395117 0.472633 0.325109
0.456458 0.476814 0.332830
0.581872 0.533013 0.293950
0.723568 0.517235 0.244419
0.480140 0.637995 0.408972
0.494636 0.638209 0.412268
0.549004 0.639399 0.426520
0.637263 0.675319 0.418799
0.779660 0.722713 0.362676
0.000000 0.283452 0.383276
0.000000 0.265751 0.394751
0.327092 0.194278 0.428138
0.618463 0.191897 0.420081
0.784024 0.239872 0.419776
0.162417 0.337591 0.377752
0.185214 0.326665 0.388373
0.351843 0.274327 0.424781
0.612055 0.275700 0.418769
0.779904 0.302647 0.422248
0.269566 0.395148 0.377264
0.309300 0.402655 0.384771
0.434333 0.437049 0.418830
0.581933 0.429175 0.411536
0.744167 0.418616 0.402106
0.342138 0.509178 0.398718
0.367285 0.514153 0.402991
0.459052 0.516930 0.422461
0.577966 0.556970 0.418128
0.702358 0.524437 0.367742
0.440558 0.654688 0.451392
0.459174 0.654658 0.454383
0.525933 0.654871 0.467292
0.622889 0.672572 0.481239
0.772000 0.729915 0.446815
0.000000 0.390478 0.536461
0.000000 0.382025 0.543297
0.000000 0.330083 0.572015
0.438178 0.266178 0.606439
0.772488 0.248814 0.627222
0.000000 0.423224 0.531243
0.000000 0.416297 0.537865
0.019562 0.375921 0.566674
0.452430 0.321813 0.604089
0.769467 0.308659 0.622034
0.236362 0.488411 0.507195
0.273136 0.491585 0.515068
0.360632 0.493233 0.548394
0.498604 0.458808 0.596277
0.763424 0.454261 0.602075
0.319921 0.534020 0.512993
0.343114 0.538354 0.517327
0.427619 0.558740 0.537591
0.580682 0.612909 0.591638
0.741238 0.596979 0.575921
0.305333 0.673487 0.542321
0.331579 0.675532 0.541650
0.426673 0.684810 0.541680
0.591394 0.691829 0.571588
0.757778 0.746883 0.578729
0.000000 0.521294 0.717678
0.000000 0.514427 0.720821
0.000000 0.481910 0.735531
0.000000 0.385229 0.765133
0.544701 0.334508 0.788205
0.000000 0.541009 0.712825
0.000000 0.534936 0.716213
0.000000 0.505608 0.731106
0.000000 0.420752 0.761257
0.553429 0.371557 0.786435
0.000000 0.605127 0.698451
0.000000 0.601007 0.701778
0.162387 0.582055 0.717556
0.297276 0.527489 0.749935
0.587762 0.482551 0.784360
0.186221 0.656428 0.679225
0.225254 0.657191 0.680232
0.339757 0.662959 0.687434
0.478950 0.661738 0.730648
0.652644 0.633845 0.788083
0.243168 0.709621 0.687190
0.272435 0.710536 0.688167
0.372534 0.716548 0.694423
0.521935 0.733455 0.711971
0.756100 0.803647 0.785824
