20 Preset/Nude style/【3】LUT video cho PR-AE-FCPX/Tone  (6).cube
# Created by Adobe Lightroom plugin Export LUT (1.24.0)
# www.johnrellis.com/lightroom/exportlut.htm
# Preset: 奶油裸色-素材江湖07
# Color profile: C:\Program Files (x86)\Common Files\Adobe\Color\Profiles\Recommended\VideoHD.icc
LUT_3D_SIZE 5
DOMAIN_MIN 0.000000 0.000000 0.000000
DOMAIN_MAX 0.903226 0.903226 0.903226
0.129183 0.110658 0.112673
0.298863 0.122927 0.117220
0.523095 0.160708 0.117800
0.715053 0.222293 0.120424
0.898039 0.286198 0.134646
0.265690 0.255039 0.165042
0.287724 0.229679 0.177615
0.505974 0.260624 0.154421
0.702632 0.293370 0.150423
0.891691 0.339208 0.162936
0.466285 0.510582 0.303655
0.506096 0.498238 0.326757
0.488441 0.424231 0.305303
0.647669 0.442023 0.266514
0.868406 0.485634 0.260136
0.616022 0.727291 0.485573
0.641840 0.722347 0.499794
0.674617 0.696620 0.504082
0.655085 0.617792 0.458656
0.806210 0.648249 0.461036
0.781582 0.901610 0.713558
0.797116 0.899840 0.721248
0.849485 0.893004 0.750942
0.865476 0.882109 0.745785
0.882292 0.860594 0.746822
0.135378 0.150942 0.259861
0.273167 0.162387 0.255955
0.546807 0.139712 0.257694
0.727840 0.237583 0.235782
0.902190 0.293309 0.230991
0.174319 0.286656 0.292790
0.318273 0.289006 0.290837
0.533074 0.293370 0.269383
0.714473 0.310338 0.251102
0.895659 0.346838 0.247440
0.432288 0.536370 0.370062
0.490089 0.524315 0.390112
0.497963 0.453254 0.369635
0.661616 0.462898 0.323430
0.871183 0.494209 0.317144
0.599359 0.736843 0.524285
0.627527 0.731991 0.536797
0.675563 0.708980 0.548394
0.655085 0.628992 0.493751
0.810422 0.656977 0.487587
0.771878 0.904906 0.726131
0.788083 0.903014 0.733272
0.843137 0.896025 0.761532
0.864775 0.885130 0.758999
0.881285 0.863035 0.756527
0.000000 0.242588 0.533654
0.270848 0.257969 0.529992
0.493782 0.303716 0.522484
0.708309 0.379004 0.575891
0.919127 0.292027 0.481270
0.260136 0.383032 0.546990
0.315831 0.362676 0.545861
0.506065 0.386877 0.537011
0.715908 0.410040 0.562493
0.920836 0.329564 0.451759
0.161044 0.564630 0.589349
0.289677 0.573541 0.593286
0.529686 0.565515 0.576349
0.699794 0.536126 0.519066
0.885893 0.523644 0.482490
0.478706 0.774380 0.626093
0.537621 0.769162 0.639857
0.665614 0.750576 0.671199
0.657008 0.674006 0.612696
0.831174 0.689174 0.579980
0.719295 0.918730 0.765011
0.740383 0.916594 0.770840
0.811307 0.908690 0.794156
0.863737 0.897459 0.805264
0.878080 0.872496 0.791073
0.000000 0.384924 0.772580
0.252689 0.395209 0.770596
0.478065 0.432074 0.761685
0.660090 0.479225 0.752712
0.837247 0.592645 0.801053
0.256962 0.474311 0.773892
0.308721 0.466224 0.772854
0.493080 0.490791 0.764614
0.662959 0.527428 0.756405
0.834379 0.622980 0.804318
0.352300 0.636255 0.775814
0.407172 0.638209 0.773861
0.528862 0.632349 0.773098
0.668330 0.644495 0.762722
0.847593 0.677638 0.799893
0.293492 0.775204 0.806058
0.351781 0.778225 0.806973
0.506310 0.790311 0.811063
0.691585 0.772152 0.789822
0.875425 0.734127 0.732235
0.501122 0.947906 0.817105
0.539086 0.946288 0.818021
0.689540 0.937285 0.840116
0.850736 0.920012 0.872953
0.874357 0.891417 0.850736
0.330968 0.566735 0.927733
0.374884 0.571405 0.926268
0.506950 0.593683 0.922515
0.662135 0.627771 0.914580
0.807828 0.656336 0.909148
0.370550 0.604425 0.923644
0.397467 0.602533 0.923064
0.515953 0.618921 0.919402
0.663416 0.645991 0.911681
0.806394 0.671260 0.907073
0.478553 0.723659 0.919554
0.489723 0.717372 0.918669
0.542504 0.699367 0.917418
0.674464 0.712673 0.910063
0.813321 0.734005 0.909087
0.456672 0.811612 0.926116
0.482124 0.812497 0.924804
0.580377 0.821286 0.922210
0.706508 0.817990 0.923583
0.847196 0.840421 0.926543
0.417182 0.923125 0.944244
0.450263 0.923552 0.943847
0.571038 0.927245 0.943786
0.729061 0.934112 0.944701
0.877745 0.927672 0.937987
