20 Preset/Nude style/【3】LUT video cho PR-AE-FCPX/Tone  (9).cube
# Created by Adobe Lightroom plugin Export LUT (1.24.0)
# www.johnrellis.com/lightroom/exportlut.htm
# Preset: 奶油裸色-素材江湖10
# Color profile: C:\Program Files (x86)\Common Files\Adobe\Color\Profiles\Recommended\VideoHD.icc
LUT_3D_SIZE 32
DOMAIN_MIN 0.0 0.0 0.0
DOMAIN_MAX 1.0 1.0 1.0
0.159274 0.130373 0.133333
0.159274 0.130373 0.133333
0.164431 0.129854 0.133272
0.182010 0.129183 0.133608
0.204654 0.129519 0.133547
0.226352 0.129885 0.133669
0.249332 0.130709 0.133303
0.274052 0.131411 0.132204
0.300481 0.132052 0.130831
0.327764 0.133364 0.130098
0.355779 0.135256 0.129519
0.383825 0.137453 0.128603
0.411231 0.140383 0.127901
0.437903 0.144198 0.126589
0.463325 0.148409 0.126131
0.487556 0.153506 0.125704
0.510521 0.159701 0.126009
0.532586 0.165713 0.125429
0.553796 0.171023 0.124880
0.574273 0.177432 0.123964
0.596887 0.183902 0.122164
0.620111 0.191409 0.120455
0.640681 0.197848 0.118898
0.659907 0.204166 0.116823
0.678035 0.210147 0.114778
0.695308 0.215885 0.112734
0.711910 0.221347 0.110048
0.728176 0.226658 0.107851
0.744411 0.231754 0.104799
0.760922 0.237003 0.101564
0.778744 0.242588 0.097353
0.798215 0.248325 0.092592
0.159274 0.130373 0.133333
0.159274 0.130373 0.133333
0.165133 0.130251 0.133455
0.182437 0.130098 0.133486
0.204776 0.130526 0.133425
0.225772 0.131289 0.133516
0.248325 0.131991 0.133181
0.272831 0.132296 0.132143
0.298863 0.133120 0.130770
0.325841 0.134340 0.130343
0.353643 0.136172 0.130068
0.381384 0.138369 0.128969
0.408789 0.141176 0.127749
0.435279 0.144686 0.127321
0.460670 0.149233 0.126314
0.484993 0.154360 0.125856
0.508202 0.160098 0.125978
0.530327 0.165927 0.125734
0.551629 0.171603 0.125124
0.572045 0.177249 0.124392
0.594324 0.183993 0.122591
0.616876 0.190951 0.120638
0.636927 0.197208 0.119265
0.655756 0.203342 0.117403
0.673671 0.209293 0.115145
0.690944 0.214786 0.113283
0.707668 0.220188 0.110597
0.724086 0.225498 0.108125
0.740536 0.230686 0.105043
0.757198 0.235782 0.101534
0.774929 0.241398 0.097749
0.794339 0.247074 0.092744
0.160678 0.136995 0.133639
0.162173 0.137270 0.133303
0.168521 0.137026 0.133425
0.183932 0.136934 0.132998
0.205600 0.136233 0.132631
0.226505 0.136263 0.132815
0.248661 0.136751 0.132509
0.272862 0.136904 0.131502
0.298497 0.137758 0.131411
0.325109 0.138888 0.130770
0.352605 0.140536 0.130007
0.380377 0.142885 0.129122
0.407507 0.145754 0.128725
0.433997 0.148989 0.127291
0.459449 0.152956 0.126619
0.483650 0.158022 0.126436
0.506889 0.163424 0.126589
0.529076 0.168948 0.126101
0.550408 0.174350 0.125521
0.571069 0.180087 0.123903
0.593530 0.186465 0.122408
0.615564 0.193027 0.121187
0.635370 0.199100 0.119356
0.654017 0.205142 0.117556
0.671656 0.210697 0.115480
0.688808 0.216129 0.113039
0.705531 0.221286 0.111086
0.722042 0.226566 0.107973
0.738582 0.231601 0.104891
0.755306 0.236759 0.101717
0.772946 0.241978 0.097780
0.792233 0.247684 0.092866
0.172763 0.153597 0.132235
0.174899 0.153933 0.131868
0.185061 0.154116 0.130770
0.189395 0.151766 0.134005
0.201450 0.150607 0.135775
0.227939 0.147189 0.131350
0.250217 0.145846 0.131807
0.273808 0.146059 0.131838
0.299565 0.147005 0.131716
0.325841 0.147890 0.131106
0.353246 0.149416 0.130587
0.380529 0.151339 0.129793
0.407385 0.154116 0.129152
0.433631 0.157015 0.128267
0.458656 0.160922 0.127901
0.482734 0.165377 0.127779
0.505638 0.169986 0.127291
0.527550 0.175051 0.126619
0.548791 0.179995 0.125856
0.569055 0.184970 0.125032
0.591577 0.191135 0.122957
0.612757 0.197177 0.121492
0.632105 0.202731 0.119875
0.650752 0.208286 0.118166
0.668818 0.213840 0.115724
0.686549 0.219120 0.113802
0.703944 0.224552 0.110964
0.720943 0.229618 0.108095
0.737789 0.234501 0.104952
0.754543 0.239567 0.101411
0.772030 0.244724 0.097536
0.790890 0.250187 0.092012
0.186374 0.170413 0.133272
0.188815 0.170809 0.132387
0.198093 0.171511 0.130434
0.205722 0.170535 0.132357
0.209812 0.167514 0.137850
0.216739 0.165011 0.143771
0.246250 0.164034 0.136080
0.274662 0.159762 0.132753
0.299931 0.159548 0.132601
0.326146 0.160708 0.132418
0.353155 0.162020 0.131716
0.380255 0.163607 0.131197
0.406867 0.166201 0.130556
0.432990 0.168887 0.129732
0.458015 0.172610 0.129580
0.482155 0.176333 0.129030
0.505425 0.180392 0.128267
0.527489 0.184726 0.127138
0.548730 0.188998 0.126192
0.569665 0.193759 0.124941
0.592004 0.199496 0.123201
0.612482 0.204593 0.121736
0.631678 0.209842 0.119875
0.650111 0.214908 0.118013
0.668208 0.219852 0.115999
0.686091 0.225010 0.113405
0.703426 0.229831 0.110719
0.720363 0.234653 0.107881
0.737057 0.239506 0.104799
0.753719 0.244144 0.101381
0.771023 0.248783 0.097383
0.789670 0.254185 0.091920
0.201266 0.189059 0.136049
0.202457 0.189364 0.135958
0.210056 0.190097 0.133577
0.223606 0.191440 0.130983
0.228885 0.189548 0.136141
0.231998 0.185122 0.143832
0.233799 0.180728 0.151431
0.265476 0.182925 0.144625
0.300450 0.181033 0.135805
0.329198 0.177493 0.134432
0.355749 0.178653 0.134005
0.382696 0.180179 0.133242
0.409064 0.182467 0.132631
0.434974 0.185000 0.131991
0.460151 0.187564 0.130953
0.484199 0.190585 0.129976
0.507256 0.194156 0.128786
0.529473 0.197665 0.127687
0.550652 0.201389 0.126528
0.572961 0.206027 0.124971
0.594659 0.210758 0.123476
0.614740 0.215488 0.121492
0.654780 0.228153 0.117678
0.673396 0.232914 0.115694
0.691066 0.237461 0.113497
0.707729 0.241672 0.112032
0.723720 0.245731 0.109621
0.739254 0.249699 0.107118
0.754726 0.253696 0.104433
0.770871 0.257877 0.101411
0.788144 0.262211 0.097230
0.806455 0.266941 0.092256
0.220890 0.214176 0.139223
0.222232 0.214664 0.138796
0.228794 0.215640 0.137606
0.242466 0.217929 0.134249
0.254002 0.218082 0.134676
0.259434 0.215213 0.140566
0.262119 0.209720 0.147707
0.261814 0.202152 0.155886
0.292607 0.206760 0.151369
0.330114 0.208286 0.142916
0.366247 0.205783 0.135622
0.394293 0.202823 0.134981
0.420539 0.204227 0.133944
0.445777 0.206058 0.132662
0.470192 0.208042 0.131167
0.493568 0.210239 0.130037
0.515984 0.212772 0.128756
0.537469 0.215457 0.127565
0.559991 0.219150 0.126253
0.583764 0.223728 0.124239
0.606226 0.228428 0.122621
0.627649 0.233066 0.120668
0.648188 0.237858 0.118563
0.668147 0.242618 0.116579
0.687221 0.247074 0.114046
0.704585 0.251164 0.112398
0.720821 0.254673 0.109804
0.736477 0.258061 0.107149
0.751827 0.261479 0.104707
0.767636 0.265171 0.101656
0.784543 0.269108 0.097414
0.802640 0.273350 0.092348
0.239048 0.238743 0.140230
0.240360 0.238926 0.140139
0.246098 0.239994 0.139132
0.258366 0.242405 0.136446
0.277195 0.246006 0.131899
0.282536 0.243351 0.137057
0.288396 0.240391 0.142916
0.291020 0.234104 0.150515
0.288701 0.224216 0.159731
0.315709 0.229557 0.158785
0.354040 0.233005 0.149294
0.391638 0.232700 0.139528
0.422644 0.229252 0.134646
0.448371 0.226596 0.133303
0.472541 0.227756 0.131502
0.495277 0.229313 0.130556
0.517449 0.231022 0.128939
0.540093 0.233524 0.127810
0.563470 0.237217 0.125948
0.585687 0.240604 0.124117
0.606989 0.244236 0.122103
0.627527 0.247990 0.120485
0.647486 0.251743 0.118441
0.666987 0.255650 0.116152
0.685664 0.259525 0.114137
0.702937 0.262760 0.112490
0.719081 0.265812 0.110048
0.734615 0.268711 0.107271
0.749905 0.271580 0.104707
0.765682 0.274754 0.101167
0.782498 0.278141 0.097139
0.800504 0.282048 0.092226
0.258610 0.265324 0.140841
0.259586 0.265599 0.140688
0.264530 0.266636 0.139437
0.275151 0.268864 0.136965
0.291661 0.272465 0.133059
0.306676 0.273869 0.132387
0.312505 0.271153 0.137606
0.318914 0.268070 0.144198
0.321813 0.261509 0.153231
0.320531 0.251469 0.163729
0.340887 0.254856 0.167330
0.378607 0.259525 0.156130
0.415503 0.260166 0.145022
0.449744 0.258183 0.134310
0.476051 0.252781 0.131472
0.499123 0.250858 0.130068
0.522820 0.252811 0.128542
0.545922 0.255192 0.126955
0.567803 0.257511 0.125399
0.588922 0.259831 0.123659
0.609308 0.262455 0.121767
0.629053 0.265385 0.120180
0.648402 0.268345 0.118441
0.667414 0.271305 0.116548
0.685664 0.274296 0.114290
0.702602 0.276921 0.112276
0.718593 0.279271 0.110140
0.734005 0.281498 0.107332
0.749203 0.283879 0.104616
0.764889 0.286351 0.101381
0.781582 0.289281 0.097200
0.799435 0.292638 0.091768
0.277806 0.293309 0.140261
0.279515 0.293645 0.139590
0.283146 0.294469 0.139101
0.293156 0.296544 0.136538
0.307408 0.299779 0.132387
0.327916 0.304387 0.126894
0.336248 0.302800 0.130861
0.342687 0.300237 0.137362
0.349065 0.296880 0.145724
0.352148 0.290166 0.155734
0.352148 0.280217 0.167941
0.364477 0.280583 0.177798
0.401953 0.285924 0.164889
0.437507 0.287480 0.152010
0.472541 0.287053 0.139651
0.504448 0.284276 0.129427
0.529320 0.278996 0.127626
0.551843 0.278813 0.125704
0.573022 0.280095 0.124453
0.593347 0.281590 0.122805
0.612634 0.283024 0.121492
0.631250 0.284459 0.119753
0.649348 0.286229 0.118410
0.667201 0.288182 0.116243
0.684443 0.289952 0.114412
0.700801 0.291722 0.112276
0.716548 0.293492 0.109773
0.731991 0.294957 0.107637
0.747250 0.296880 0.104402
0.763149 0.298955 0.101625
0.780056 0.301427 0.096834
0.798062 0.304387 0.091920
0.296452 0.320623 0.138735
0.297551 0.321019 0.138247
0.301610 0.322057 0.137331
0.310063 0.324010 0.134951
0.322637 0.327092 0.131685
0.341222 0.331792 0.125612
0.359197 0.335149 0.122011
0.365728 0.333043 0.128756
0.372534 0.330571 0.137087
0.379889 0.327764 0.146578
0.382788 0.320317 0.158694
0.384405 0.311772 0.172549
0.393133 0.310277 0.187411
0.428229 0.316930 0.176120
0.464088 0.319615 0.161532
0.497871 0.319432 0.146883
0.529717 0.316411 0.132326
0.555535 0.310948 0.124910
0.577539 0.304295 0.123140
0.597040 0.304417 0.121645
0.615595 0.304723 0.120577
0.633509 0.305211 0.119387
0.651209 0.306157 0.117830
0.668696 0.307195 0.116121
0.685481 0.308019 0.114199
0.701503 0.309178 0.111757
0.717006 0.310002 0.110445
0.732235 0.311070 0.107210
0.747433 0.312047 0.104524
0.763272 0.313634 0.101259
0.780087 0.315770 0.096590
0.798093 0.318334 0.091829
0.315587 0.349950 0.136446
0.316564 0.350286 0.135988
0.319738 0.351202 0.134829
0.327398 0.353155 0.132540
0.338872 0.356390 0.128939
0.355413 0.360784 0.122866
0.377203 0.366766 0.113680
0.388434 0.367102 0.117403
0.395972 0.365759 0.125887
0.404486 0.364660 0.136355
0.413092 0.363104 0.148104
0.417182 0.356664 0.163149
0.434272 0.363958 0.184421
0.440803 0.359838 0.203586
0.470802 0.366278 0.198520
0.505760 0.368170 0.179873
0.538262 0.366217 0.161746
0.568475 0.361913 0.142977
0.596643 0.355383 0.123415
0.617182 0.346838 0.120546
0.636133 0.339330 0.119234
0.652857 0.338201 0.119020
0.669093 0.337316 0.117769
0.684871 0.336492 0.117067
0.699947 0.335790 0.115694
0.714534 0.335088 0.113741
0.728511 0.334386 0.111727
0.742336 0.333837 0.109560
0.756680 0.333776 0.107362
0.771939 0.334325 0.103975
0.788144 0.335607 0.099763
0.805783 0.337224 0.093446
0.339269 0.388922 0.132570
0.339849 0.389014 0.132448
0.343175 0.389746 0.131228
0.349737 0.391699 0.128756
0.360784 0.394690 0.124239
0.375555 0.398840 0.118196
0.395666 0.404913 0.108064
0.417151 0.410925 0.098970
0.424689 0.409979 0.110506
0.433234 0.409339 0.123323
0.442634 0.408881 0.137636
0.452644 0.408820 0.153140
0.457740 0.402930 0.172549
0.461067 0.395087 0.193393
0.465675 0.389075 0.214328
0.490333 0.395666 0.217838
0.523461 0.397009 0.197940
0.554406 0.394568 0.178256
0.583093 0.389654 0.158297
0.609796 0.382696 0.137819
0.632929 0.374243 0.121492
0.651331 0.364904 0.120150
0.668360 0.358465 0.118624
0.683864 0.356786 0.117403
0.698787 0.355200 0.116091
0.713222 0.353796 0.114656
0.727260 0.352605 0.113100
0.741238 0.351537 0.111269
0.755825 0.350958 0.108156
0.771298 0.351110 0.104311
0.787625 0.351812 0.100069
0.805295 0.353216 0.094301
0.357977 0.421546 0.130556
0.358190 0.421393 0.130648
0.361212 0.422004 0.129213
0.367315 0.423407 0.126619
0.376623 0.425635 0.122438
0.389441 0.429084 0.116365
0.407050 0.434211 0.106844
0.429175 0.440772 0.092073
0.443854 0.443488 0.092439
0.451789 0.442725 0.108522
0.460609 0.442298 0.125246
0.470222 0.442115 0.142458
0.479957 0.442115 0.160494
0.484291 0.435309 0.182467
0.487129 0.426917 0.204379
0.488746 0.417700 0.225925
0.507713 0.423774 0.238621
0.539055 0.424475 0.218204
0.568750 0.421698 0.197330
0.596185 0.416480 0.176638
0.622065 0.409247 0.154849
0.646662 0.400916 0.132265
0.666255 0.391455 0.122133
0.683467 0.381842 0.119387
0.698970 0.376501 0.117800
0.713252 0.374395 0.116701
0.727230 0.372412 0.114534
0.741238 0.370672 0.113008
0.755856 0.369604 0.110323
0.771420 0.369177 0.105928
0.787808 0.369543 0.102419
0.805600 0.370428 0.095949
0.373846 0.450965 0.130434
0.374243 0.451087 0.130343
0.376745 0.451484 0.129030
0.382177 0.452583 0.126619
0.390539 0.454383 0.122133
0.402289 0.457404 0.115297
0.417578 0.461738 0.106600
0.437629 0.467720 0.091585
0.461158 0.475319 0.051759
0.468605 0.474525 0.091371
0.477028 0.474128 0.111116
0.486122 0.474067 0.130861
0.495491 0.473976 0.150698
0.504814 0.473487 0.170626
0.508202 0.465675 0.194064
0.510307 0.456519 0.216648
0.510399 0.445594 0.238041
0.523613 0.450752 0.260685
0.553674 0.451057 0.239445
0.582025 0.448005 0.218387
0.608759 0.442603 0.197024
0.634394 0.435584 0.175235
0.658320 0.426947 0.151553
0.680598 0.417182 0.126772
0.697200 0.407080 0.122957
0.713252 0.397284 0.119936
0.727535 0.393194 0.117739
0.741817 0.391180 0.116152
0.756893 0.389715 0.113191
0.772854 0.389044 0.109743
0.789853 0.389166 0.105318
0.808164 0.389929 0.099763
0.387854 0.477638 0.131167
0.388739 0.477913 0.130892
0.390906 0.478553 0.129641
0.395575 0.479713 0.127169
0.403540 0.481910 0.123049
0.414252 0.485023 0.117220
0.428443 0.489570 0.108492
0.446723 0.495491 0.095186
0.468727 0.502800 0.060945
0.485573 0.507134 0.051575
0.493263 0.506493 0.097444
0.501396 0.505699 0.120302
0.509941 0.504753 0.141543
0.518395 0.503410 0.162539
0.526329 0.501488 0.182589
0.528557 0.492439 0.206455
0.530205 0.482765 0.229038
0.530541 0.472297 0.250309
0.540612 0.474647 0.273777
0.566369 0.475776 0.261357
0.594079 0.473152 0.240513
0.620752 0.468330 0.219486
0.645899 0.461341 0.197513
0.669459 0.452735 0.174319
0.691737 0.442725 0.148226
0.710964 0.432136 0.129152
0.727108 0.422248 0.125002
0.743465 0.413001 0.120577
0.758633 0.411139 0.117556
0.774594 0.409888 0.113558
0.791470 0.409308 0.109621
0.809476 0.409430 0.103609
0.400427 0.502342 0.133730
0.401038 0.502525 0.133761
0.402869 0.503075 0.132876
0.407538 0.504356 0.130007
0.414405 0.506432 0.126619
0.424353 0.509422 0.121004
0.437293 0.513573 0.113832
0.453407 0.518853 0.102480
0.473274 0.525414 0.083284
0.496620 0.533135 0.024781
0.506035 0.533593 0.077119
0.513787 0.532952 0.108675
0.521935 0.532036 0.132540
0.530053 0.530785 0.154635
0.538109 0.529198 0.175601
0.545342 0.526543 0.196902
0.547448 0.517632 0.220005
0.549157 0.508446 0.242527
0.549767 0.498604 0.264164
0.557519 0.498482 0.287846
0.579156 0.500908 0.285008
0.606531 0.498604 0.264561
0.632441 0.493629 0.243381
0.656916 0.486671 0.222049
0.680110 0.478004 0.198917
0.702266 0.467903 0.173129
0.723903 0.457130 0.143221
0.741817 0.447333 0.131228
0.759213 0.438270 0.125643
0.776699 0.431708 0.120058
0.793790 0.430823 0.115480
0.811856 0.430457 0.109957
0.412726 0.527214 0.139590
0.413184 0.527459 0.139315
0.421698 0.540703 0.143130
0.425269 0.541802 0.142092
0.431922 0.543755 0.138094
0.440894 0.546441 0.133913
0.452705 0.550011 0.126955
0.467872 0.554650 0.117647
0.485969 0.560510 0.105135
0.507500 0.567315 0.083894
0.526299 0.572290 0.066072
0.533562 0.571344 0.108583
0.541131 0.569970 0.133547
0.548791 0.568292 0.156710
0.556390 0.566247 0.178256
0.563745 0.563714 0.198917
0.569848 0.559777 0.219364
0.571313 0.550103 0.242069
0.572412 0.540520 0.263920
0.572900 0.530816 0.284855
0.578576 0.528191 0.308171
0.595758 0.531121 0.315038
0.621607 0.527825 0.294438
0.646235 0.521996 0.273167
0.669642 0.514031 0.250950
0.692103 0.504662 0.227359
0.714260 0.494423 0.201205
0.736416 0.483742 0.171328
0.757870 0.473091 0.140688
0.776028 0.464363 0.133181
0.795071 0.456153 0.124819
0.814084 0.452033 0.117769
0.425818 0.554253 0.148470
0.426429 0.555383 0.149355
0.428931 0.557183 0.148623
0.433387 0.559350 0.147402
0.439338 0.561822 0.145968
0.447913 0.564752 0.141604
0.458625 0.567987 0.136904
0.472145 0.572076 0.128634
0.488624 0.577020 0.118471
0.507836 0.582879 0.103548
0.529747 0.589349 0.080751
0.541100 0.590570 0.100465
0.548272 0.589380 0.127260
0.555627 0.588006 0.151339
0.563073 0.586328 0.173587
0.570550 0.584375 0.193912
0.577905 0.582177 0.214054
0.583795 0.578515 0.234562
0.585657 0.569879 0.257023
0.587182 0.561364 0.278813
0.588342 0.552850 0.300298
0.592828 0.549462 0.323278
0.606256 0.553460 0.340215
0.631189 0.550134 0.320012
0.655024 0.544305 0.299016
0.678218 0.536706 0.276951
0.701259 0.527977 0.253513
0.724239 0.518639 0.227604
0.747463 0.508751 0.198550
0.771176 0.498482 0.162600
0.792599 0.489296 0.139986
0.812802 0.481605 0.130343
0.434882 0.574090 0.156222
0.436133 0.575402 0.156191
0.438056 0.576959 0.156497
0.442176 0.579065 0.155367
0.447913 0.581445 0.153628
0.455482 0.583917 0.151156
0.465126 0.586786 0.146975
0.477455 0.590265 0.140719
0.492317 0.594598 0.133028
0.509331 0.599420 0.123018
0.529381 0.604913 0.109407
0.549248 0.609888 0.096590
0.556023 0.608881 0.124697
0.563165 0.607782 0.148501
0.570397 0.606439 0.170535
0.577783 0.604913 0.191379
0.585168 0.603082 0.211551
0.592401 0.601160 0.231113
0.597925 0.597498 0.251621
0.599908 0.589624 0.273472
0.601617 0.581750 0.295537
0.603082 0.574182 0.316838
0.606500 0.569818 0.339513
0.616144 0.574884 0.366033
0.640070 0.571527 0.346410
0.663661 0.566155 0.325872
0.687251 0.559411 0.303777
0.710994 0.551751 0.280522
0.735012 0.543297 0.255589
0.759518 0.534386 0.226993
0.784543 0.524895 0.193210
0.810269 0.514519 0.147494
0.444190 0.593805 0.164645
0.445045 0.594873 0.164981
0.447211 0.596307 0.164920
0.450507 0.597986 0.165103
0.455634 0.600031 0.163729
0.462379 0.602136 0.161746
0.471595 0.604700 0.157748
0.482582 0.607660 0.153414
0.496193 0.611444 0.146700
0.511925 0.615625 0.139193
0.530175 0.620478 0.129030
0.550683 0.625727 0.115511
0.563561 0.627436 0.124422
0.570306 0.626490 0.148257
0.577478 0.625360 0.170504
0.584802 0.624262 0.190921
0.592187 0.623072 0.211582
0.599847 0.621881 0.231327
0.607446 0.620905 0.251377
0.613031 0.617853 0.272526
0.615503 0.611261 0.295659
0.617670 0.604791 0.318029
0.619562 0.598444 0.340124
0.622187 0.593805 0.362615
0.631250 0.598962 0.390997
0.652338 0.598047 0.381323
0.676661 0.593896 0.361364
0.701320 0.588403 0.340124
0.726345 0.582086 0.317906
0.751919 0.574823 0.293523
0.778012 0.566735 0.265934
0.804807 0.557794 0.233249
0.455818 0.618280 0.180575
0.456275 0.618738 0.180667
0.457710 0.619348 0.180575
0.460761 0.620294 0.179477
0.465126 0.621546 0.178012
0.471168 0.622950 0.176272
0.479316 0.624933 0.173678
0.489479 0.627497 0.169497
0.501854 0.630610 0.164797
0.516503 0.634302 0.158846
0.533104 0.638422 0.152255
0.552026 0.643122 0.143038
0.573083 0.648157 0.130770
0.579553 0.647272 0.154025
0.586389 0.646326 0.175235
0.593408 0.645289 0.195590
0.600580 0.644129 0.215518
0.607904 0.643000 0.235233
0.615259 0.641901 0.254459
0.622522 0.640833 0.274113
0.627466 0.637293 0.294957
0.629511 0.630762 0.317327
0.631373 0.624292 0.338598
0.632746 0.617914 0.359869
0.634546 0.612696 0.381537
0.643397 0.617823 0.409247
0.661646 0.619287 0.409430
0.686397 0.616419 0.390509
0.711849 0.612207 0.370336
0.737728 0.606958 0.348882
0.764248 0.600793 0.325383
0.791501 0.593622 0.298741
0.464027 0.635920 0.191897
0.464424 0.636316 0.192020
0.465858 0.636866 0.191989
0.468635 0.637690 0.191470
0.472572 0.638727 0.190585
0.478248 0.640070 0.188907
0.485878 0.641810 0.186404
0.495155 0.644068 0.183322
0.506523 0.646845 0.179202
0.520012 0.650202 0.174716
0.535546 0.654139 0.169131
0.553216 0.658534 0.161898
0.572992 0.663355 0.152132
0.587823 0.665888 0.155489
0.594446 0.665187 0.176638
0.601251 0.664332 0.197635
0.608484 0.663539 0.217472
0.615717 0.662654 0.237308
0.623072 0.661830 0.256687
0.630426 0.660975 0.276555
0.637629 0.660304 0.296452
0.642206 0.656764 0.317418
0.644221 0.650690 0.339452
0.645930 0.644739 0.361059
0.645319 0.635920 0.377661
0.647181 0.631281 0.399115
0.655299 0.635676 0.426459
0.670649 0.639551 0.436561
0.696101 0.637781 0.418524
0.722164 0.634882 0.399512
0.748928 0.631006 0.379614
0.776486 0.626093 0.357549
0.473976 0.656458 0.207767
0.474739 0.657008 0.208530
0.475746 0.657496 0.208682
0.478035 0.657984 0.208072
0.481758 0.658625 0.206302
0.486824 0.659510 0.204562
0.493385 0.660639 0.202090
0.501884 0.662257 0.198795
0.512291 0.664393 0.194736
0.524498 0.667048 0.190249
0.538720 0.670222 0.184665
0.555016 0.673976 0.177584
0.573510 0.678126 0.169162
0.593744 0.682582 0.158114
0.601831 0.682246 0.175021
0.608240 0.681147 0.194797
0.614923 0.680110 0.214817
0.621942 0.679164 0.234257
0.629145 0.678431 0.254124
0.636591 0.677882 0.273991
0.643946 0.677424 0.294285
0.651179 0.676967 0.314488
0.655207 0.673274 0.335332
0.656916 0.667353 0.357000
0.658289 0.661341 0.377783
0.659205 0.655390 0.398047
0.661036 0.651118 0.418799
0.668269 0.654627 0.445655
0.680842 0.660365 0.464668
0.706600 0.659632 0.447669
0.733181 0.657862 0.429999
0.760616 0.655329 0.411688
0.481361 0.672572 0.217807
0.482033 0.673091 0.218173
0.483223 0.673640 0.218357
0.485573 0.674281 0.217929
0.489021 0.675074 0.217075
0.493812 0.676051 0.215732
0.500237 0.677546 0.213931
0.508415 0.679469 0.211460
0.518334 0.681788 0.208347
0.530053 0.684627 0.204654
0.543603 0.687831 0.200229
0.558984 0.691432 0.195010
0.576257 0.695399 0.187991
0.595697 0.699580 0.178897
0.611933 0.702327 0.177401
0.618189 0.701320 0.197543
0.624659 0.700282 0.217258
0.631434 0.699428 0.236820
0.638514 0.698756 0.256596
0.645838 0.698238 0.276768
0.653193 0.697841 0.297398
0.660517 0.697536 0.317357
0.667597 0.697139 0.337804
0.671138 0.693294 0.359136
0.672786 0.687800 0.380407
0.674128 0.682307 0.401282
0.675044 0.677028 0.421912
0.676997 0.673426 0.443183
0.683864 0.676722 0.469581
0.693660 0.684627 0.498390
0.719844 0.685237 0.483436
0.746914 0.685023 0.468299
0.491005 0.692042 0.230900
0.491249 0.692348 0.231266
0.492378 0.692714 0.231083
0.494514 0.693172 0.230655
0.497536 0.693812 0.229953
0.502098 0.694759 0.228519
0.508171 0.696040 0.226505
0.515862 0.697688 0.224247
0.524987 0.699733 0.221439
0.535973 0.702235 0.218235
0.548821 0.705135 0.214023
0.563226 0.708431 0.209232
0.579461 0.712032 0.202976
0.597620 0.715816 0.195224
0.617731 0.719753 0.184787
0.627771 0.720241 0.196780
0.634119 0.719326 0.217044
0.640803 0.718532 0.237186
0.647761 0.717891 0.257511
0.654963 0.717494 0.277775
0.662318 0.717159 0.298131
0.669703 0.716884 0.318578
0.676844 0.716579 0.338964
0.683742 0.716182 0.359045
0.686610 0.712001 0.380316
0.688014 0.706661 0.401648
0.689204 0.701411 0.422278
0.689998 0.696376 0.442634
0.691981 0.693324 0.464088
0.698543 0.696407 0.490517
0.708553 0.705013 0.520439
0.732143 0.708522 0.515923
0.500023 0.710903 0.242618
0.500420 0.711177 0.242863
0.501335 0.711513 0.243137
0.503288 0.712062 0.243015
0.506493 0.712856 0.242130
0.511101 0.714076 0.241367
0.517144 0.715846 0.240360
0.524681 0.718074 0.239811
0.534081 0.720790 0.238621
0.545006 0.723964 0.237308
0.557702 0.727504 0.235538
0.572107 0.731319 0.232792
0.588128 0.735317 0.229038
0.605737 0.739315 0.223697
0.625147 0.743313 0.216312
0.643763 0.746548 0.210971
0.650111 0.745907 0.231418
0.656794 0.745266 0.251926
0.663722 0.744778 0.272648
0.670954 0.744442 0.293004
0.678309 0.744198 0.313756
0.685634 0.743954 0.334661
0.692836 0.743679 0.355138
0.699733 0.743282 0.375586
0.706386 0.742824 0.395514
0.708614 0.738430 0.416785
0.709773 0.733364 0.437873
0.710689 0.728481 0.458534
0.711360 0.723964 0.478706
0.713161 0.721248 0.499763
0.719448 0.724392 0.525322
0.730129 0.733364 0.554955
0.514275 0.737453 0.266423
0.514336 0.737484 0.266758
0.515190 0.737575 0.266300
0.517082 0.737881 0.265660
0.519890 0.738369 0.264744
0.523919 0.739101 0.263737
0.529381 0.740230 0.262058
0.536217 0.741634 0.260502
0.544549 0.743435 0.258579
0.554528 0.745632 0.256016
0.566155 0.748104 0.252811
0.579339 0.750912 0.249210
0.594202 0.753933 0.244633
0.610712 0.757137 0.238529
