20 Preset/Nude style/【3】LUT video cho PR-AE-FCPX/Tone  (5).cube
# Created by Adobe Lightroom plugin Export LUT (1.24.0)
# www.johnrellis.com/lightroom/exportlut.htm
# Preset: 奶油裸色-素材江湖06
# Color profile: C:\Program Files (x86)\Common Files\Adobe\Color\Profiles\Recommended\VideoHD.icc
LUT_3D_SIZE 8
DOMAIN_MIN 0.000000 0.000000 0.000000
DOMAIN_MAX 0.903226 0.903226 0.903226
0.000000 0.000000 0.000000
0.139376 0.014710 0.012787
0.282444 0.041596 0.024140
0.400000 0.077150 0.017395
0.500664 0.111391 0.018097
0.607477 0.150668 0.024659
0.718898 0.191867 0.024079
0.834745 0.231235 0.011200
0.140932 0.124361 0.013611
0.133303 0.103548 0.083619
0.269322 0.118105 0.057984
0.386542 0.125490 0.042969
0.488502 0.142184 0.044282
0.592248 0.170230 0.050477
0.697169 0.202731 0.048219
0.815427 0.239384 0.031128
0.287846 0.261265 0.000000
0.302190 0.256260 0.011139
0.252598 0.198428 0.152773
0.359228 0.215213 0.142458
0.487648 0.227146 0.119265
0.593561 0.244266 0.117128
0.708736 0.270481 0.114382
0.829801 0.299596 0.109377
0.421759 0.407965 0.000000
0.433417 0.406470 0.000000
0.426886 0.372564 0.141268
0.367956 0.304509 0.237125
0.436225 0.317815 0.243259
0.588128 0.338384 0.191836
0.703273 0.355077 0.174777
0.823178 0.377905 0.168215
0.536767 0.556237 0.000000
0.544671 0.555047 0.000000
0.561059 0.542229 0.087617
0.525139 0.476905 0.223636
0.449104 0.388739 0.301427
0.474434 0.384527 0.315801
0.639155 0.428626 0.274083
0.807645 0.461250 0.231693
0.640742 0.692042 0.000000
0.651881 0.697322 0.000000
0.678859 0.696193 0.000000
0.670405 0.660548 0.194339
0.619348 0.581292 0.299870
0.536736 0.486610 0.372290
0.537621 0.475441 0.407111
0.735958 0.553735 0.385748
0.747097 0.815091 0.109102
0.753536 0.815976 0.113344
0.774868 0.813993 0.115511
0.796597 0.803281 0.181918
0.773526 0.760006 0.296605
0.724941 0.693599 0.391028
0.647333 0.612573 0.466255
0.625238 0.601556 0.538506
0.860105 0.922484 0.236881
0.864469 0.922179 0.237278
0.883848 0.921569 0.241093
0.922515 0.920775 0.251225
0.920439 0.898466 0.329320
0.902098 0.868284 0.451240
0.865232 0.829587 0.563409
0.802243 0.785336 0.654475
0.002686 0.039918 0.113832
0.136080 0.010681 0.118898
0.281926 0.000000 0.104921
0.388891 0.102480 0.113313
0.489876 0.126833 0.112276
0.589532 0.156405 0.111788
0.689815 0.188602 0.107668
0.803555 0.223301 0.098329
0.080049 0.126375 0.102419
0.144442 0.122866 0.123507
0.271611 0.132235 0.123049
0.383948 0.140597 0.121065
0.485115 0.154818 0.119387
0.584222 0.177249 0.118044
0.680354 0.202548 0.113558
0.791806 0.233402 0.103243
0.268070 0.254978 0.122408
0.290166 0.254307 0.122957
0.255894 0.208133 0.179385
0.365026 0.223331 0.165835
0.480171 0.230900 0.151217
0.578912 0.243107 0.146365
0.680690 0.261570 0.140230
0.799588 0.288365 0.132265
0.399725 0.391485 0.120241
0.411780 0.390692 0.120943
0.416052 0.365301 0.169711
0.357305 0.298253 0.243198
0.425238 0.309636 0.242985
0.567102 0.325109 0.197391
0.672755 0.339330 0.184543
0.792233 0.362402 0.176364
0.523705 0.546899 0.111025
0.530724 0.544732 0.111238
0.550896 0.533684 0.137789
0.514519 0.467628 0.235691
0.439765 0.381628 0.303075
0.469184 0.379492 0.314092
0.628016 0.419928 0.274449
0.789700 0.450507 0.235447
0.626795 0.680720 0.104036
0.633539 0.680812 0.104952
0.660578 0.680446 0.109194
0.658412 0.649470 0.210117
0.609918 0.572808 0.305425
0.530938 0.482368 0.374487
0.534386 0.471717 0.404883
0.727077 0.545159 0.381018
0.733455 0.805234 0.147494
0.737362 0.803586 0.145541
0.758175 0.801480 0.145937
0.783841 0.793027 0.192721
0.764309 0.752560 0.300603
0.715724 0.685328 0.389990
0.635706 0.600610 0.459297
0.613916 0.586511 0.523186
0.848722 0.916350 0.244083
0.854429 0.917144 0.247684
0.873472 0.916320 0.250675
0.912291 0.915831 0.260136
0.925322 0.903746 0.352819
0.903685 0.870878 0.462440
0.863066 0.828672 0.565118
0.799283 0.783200 0.653620
0.000000 0.107881 0.234470
0.086763 0.080934 0.239628
0.274998 0.013306 0.245274
0.420691 0.000000 0.249577
0.517235 0.000000 0.194675
0.607202 0.180911 0.205692
0.705531 0.208927 0.200961
0.818631 0.234653 0.191226
0.124147 0.171756 0.229862
0.140505 0.151827 0.234958
0.282444 0.135164 0.243198
0.412116 0.126864 0.233585
0.501152 0.172091 0.208865
0.599390 0.202487 0.209567
0.696132 0.222263 0.201816
0.808865 0.245518 0.191989
0.169863 0.263737 0.207095
0.206149 0.264530 0.213626
0.282750 0.251499 0.253147
0.394629 0.254490 0.239384
0.499336 0.260655 0.234897
0.594720 0.267430 0.226658
0.693080 0.278996 0.217227
0.807736 0.297368 0.207248
0.363104 0.398260 0.248600
0.378943 0.398810 0.250675
0.425238 0.394507 0.256474
0.372930 0.329534 0.301793
0.462165 0.343053 0.288151
0.584558 0.349004 0.259617
0.687282 0.358190 0.247654
0.804623 0.374517 0.237247
0.494636 0.545129 0.252262
0.503502 0.544518 0.252232
0.539574 0.543725 0.252934
0.523430 0.491188 0.299626
0.450996 0.405921 0.348119
0.495155 0.406806 0.345220
0.649378 0.437385 0.306950
0.796750 0.460365 0.281346
0.604120 0.678828 0.252293
0.611414 0.679438 0.252995
0.639002 0.678645 0.254124
0.655848 0.657679 0.284367
0.610346 0.583062 0.349554
0.532555 0.493568 0.403571
0.550072 0.488624 0.422827
0.740871 0.555871 0.400946
0.717769 0.808072 0.276982
0.722103 0.806760 0.275669
0.742641 0.803647 0.274052
0.781643 0.799710 0.279484
0.764675 0.760647 0.351293
0.717311 0.694331 0.424720
0.639826 0.612879 0.486244
0.632380 0.607355 0.544457
0.833280 0.917388 0.333532
0.837186 0.916594 0.332403
0.856260 0.915679 0.334081
0.897093 0.916533 0.344701
0.921538 0.906737 0.399451
0.904417 0.876890 0.496376
0.864866 0.835111 0.589197
0.800931 0.789425 0.670222
0.000000 0.152255 0.358282
0.000000 0.126558 0.363256
0.237156 0.105196 0.370764
0.400641 0.072755 0.373999
0.555840 0.056733 0.408728
0.652033 0.028168 0.353033
0.735348 0.000000 0.279606
0.815152 0.229435 0.281102
0.000000 0.207279 0.357824
0.049958 0.191348 0.361028
0.250614 0.165743 0.369421
0.404608 0.149966 0.374090
0.555718 0.148379 0.403143
0.647303 0.130770 0.343420
0.725643 0.150820 0.284977
0.814298 0.244053 0.282292
0.206332 0.303105 0.349157
0.233768 0.301610 0.350774
0.285374 0.278202 0.363012
0.423804 0.270451 0.382025
0.541985 0.264805 0.365148
0.628565 0.266911 0.320256
0.717800 0.297826 0.312413
0.824552 0.304875 0.297246
0.229099 0.409369 0.324376
0.252018 0.409339 0.327123
0.340368 0.410407 0.354101
0.400855 0.385809 0.390967
0.510002 0.384039 0.364630
0.600610 0.378546 0.347234
0.698726 0.377417 0.330632
0.813230 0.382422 0.315282
0.425360 0.554925 0.374304
0.440314 0.553124 0.383673
0.486885 0.551232 0.387671
0.538964 0.538231 0.397955
0.468727 0.449836 0.424903
0.546471 0.456428 0.403235
0.689967 0.466194 0.366857
0.809140 0.475166 0.351873
0.562890 0.687770 0.395819
0.573541 0.691981 0.399908
0.603052 0.689723 0.398993
0.659358 0.688808 0.400610
0.625177 0.620691 0.434821
0.544091 0.525902 0.464240
0.586755 0.526482 0.462776
0.770504 0.574914 0.437751
0.680110 0.810788 0.412970
0.686336 0.811093 0.413794
0.710658 0.810636 0.414832
0.757046 0.809659 0.417212
0.774228 0.786282 0.443488
0.725246 0.717678 0.491890
0.643885 0.632319 0.532830
0.659815 0.634943 0.572717
0.804929 0.923278 0.462989
0.809445 0.922942 0.462837
0.829099 0.921904 0.463478
0.868345 0.920592 0.466926
0.916747 0.915648 0.480751
0.905760 0.888304 0.551843
0.866545 0.845640 0.628168
0.803647 0.800351 0.698878
0.000000 0.208804 0.493568
0.000000 0.193362 0.497261
0.136751 0.168276 0.502983
0.370764 0.133181 0.514611
0.524926 0.122896 0.521660
0.685451 0.111482 0.563348
0.784390 0.106752 0.520928
0.875761 0.000000 0.453437
0.000000 0.251164 0.493141
0.000000 0.239322 0.497169
0.170230 0.209598 0.503624
0.374578 0.180728 0.513115
0.526818 0.173556 0.521813
0.685023 0.169345 0.561852
0.780636 0.157168 0.513756
0.872618 0.065675 0.446021
0.205081 0.354681 0.486183
0.213230 0.347784 0.488289
0.246738 0.313725 0.499397
0.388739 0.292393 0.513085
0.529107 0.284794 0.516411
0.674159 0.286595 0.546563
0.760708 0.257420 0.479225
0.855100 0.205997 0.409644
0.225925 0.451698 0.492988
0.252293 0.449897 0.493294
0.334325 0.445136 0.496620
0.411078 0.422705 0.513268
0.548486 0.417243 0.529625
0.647486 0.393530 0.484413
0.730739 0.370733 0.427253
0.822629 0.379736 0.404181
0.248142 0.551080 0.439612
0.267002 0.552148 0.442176
0.334234 0.553979 0.452399
0.461707 0.555077 0.505089
0.492073 0.510277 0.519677
0.604669 0.501976 0.480964
0.701381 0.485512 0.451148
0.815000 0.475746 0.425422
0.441505 0.677913 0.466957
0.454658 0.677638 0.474525
0.503807 0.674250 0.503014
0.574395 0.673762 0.517815
0.623346 0.651057 0.521172
0.548730 0.560021 0.536889
0.635767 0.568444 0.513329
0.809445 0.583581 0.477272
0.608118 0.808042 0.547295
0.613275 0.806851 0.545190
0.636774 0.804776 0.539818
0.687922 0.805203 0.539879
0.761898 0.804471 0.543511
0.725704 0.740536 0.565698
0.639124 0.647730 0.583093
0.688746 0.655177 0.593194
0.737911 0.919341 0.569116
0.742733 0.918975 0.568750
0.763882 0.917815 0.568444
0.809537 0.919402 0.577173
0.872129 0.917632 0.581445
0.902953 0.901823 0.611322
0.861906 0.853910 0.665888
0.792752 0.800351 0.717952
0.000000 0.274510 0.648219
0.000000 0.263096 0.650568
0.000000 0.227451 0.653376
0.298161 0.209506 0.665370
0.503471 0.160983 0.681605
0.648096 0.162783 0.677699
0.805814 0.162387 0.708248
0.921263 0.187991 0.695552
0.000000 0.301946 0.638361
0.000000 0.291905 0.639490
0.000000 0.253941 0.644007
0.302464 0.237583 0.656519
0.498939 0.197055 0.670893
0.642023 0.197543 0.668696
0.798581 0.198550 0.700710
0.913481 0.211612 0.686366
0.000000 0.401770 0.644129
0.000000 0.394690 0.645380
0.127810 0.361547 0.651972
0.324987 0.329961 0.656489
0.503105 0.303075 0.667903
0.644282 0.302251 0.666529
0.796292 0.309331 0.697017
0.904479 0.298680 0.668482
0.232975 0.511406 0.640375
0.252384 0.509361 0.640620
0.319463 0.503319 0.646509
0.365728 0.459266 0.662745
0.516320 0.440711 0.675502
0.666926 0.436011 0.684932
0.796353 0.450050 0.698695
0.893095 0.400946 0.635798
0.165835 0.606256 0.638331
0.203464 0.604700 0.638422
0.303929 0.599481 0.640009
0.425574 0.592004 0.645106
0.517662 0.568444 0.660365
0.656306 0.564172 0.672358
0.754055 0.522667 0.618219
0.860014 0.463996 0.546166
0.245518 0.688289 0.561517
0.265629 0.690639 0.565667
0.329381 0.691310 0.573480
0.422950 0.691768 0.591516
0.561730 0.689876 0.650385
0.582086 0.639094 0.654017
0.711513 0.625299 0.608972
0.830655 0.601007 0.570794
0.452094 0.819059 0.589197
0.465095 0.819821 0.595972
0.511162 0.818448 0.617273
0.590448 0.815610 0.657771
0.680171 0.813077 0.683894
0.744564 0.794430 0.679744
0.648615 0.690455 0.669337
0.754208 0.702815 0.650355
0.650263 0.923583 0.676722
0.656275 0.922637 0.679438
0.684474 0.920775 0.695125
0.730892 0.920439 0.705989
0.793210 0.919738 0.697505
0.881376 0.917296 0.701503
0.864378 0.874418 0.726497
0.786526 0.810239 0.755520
0.000000 0.339666 0.787655
0.000000 0.330297 0.788266
0.000000 0.286870 0.792905
0.103517 0.272587 0.797848
0.424353 0.242222 0.803983
0.612665 0.185611 0.811246
0.757931 0.193088 0.807797
0.911864 0.203525 0.825071
0.000000 0.365942 0.789273
0.000000 0.357275 0.789670
0.000000 0.316747 0.793942
0.131777 0.296788 0.798825
0.427344 0.269200 0.805478
0.615167 0.221134 0.813443
0.761196 0.228153 0.810513
0.914763 0.240208 0.827481
0.000000 0.446815 0.783658
0.000000 0.440467 0.784573
0.000000 0.411292 0.788876
0.192508 0.373114 0.795132
0.434363 0.352361 0.802426
0.616663 0.317540 0.810819
0.760739 0.321141 0.807156
0.909270 0.332616 0.822599
0.169009 0.562829 0.774868
0.182895 0.558373 0.775204
0.223484 0.539727 0.779660
0.287510 0.493965 0.787503
0.445197 0.466743 0.796078
0.617609 0.439368 0.805447
0.759976 0.441505 0.802304
0.901915 0.456336 0.818082
0.238132 0.655390 0.768643
0.262882 0.655238 0.769253
0.332464 0.652827 0.771756
0.415198 0.644709 0.779294
0.468574 0.596979 0.791958
0.617548 0.576379 0.802609
0.771939 0.572503 0.810758
0.895018 0.585321 0.817350
0.000000 0.761166 0.779263
0.008881 0.760006 0.779416
0.246647 0.755154 0.780209
0.388037 0.745693 0.781888
0.522515 0.732815 0.785000
0.618433 0.706386 0.797391
0.764034 0.701534 0.807309
0.871580 0.659724 0.766537
0.252750 0.822568 0.697566
0.269627 0.822324 0.698726
0.331273 0.822477 0.705440
0.422034 0.822660 0.718532
0.527306 0.823209 0.738552
0.666835 0.821378 0.788113
0.687617 0.767086 0.785214
0.833890 0.747127 0.739345
0.449287 0.935546 0.693416
0.460578 0.935210 0.697017
0.503960 0.933379 0.711269
0.582025 0.931243 0.740902
0.684352 0.928466 0.783749
0.794308 0.924956 0.823026
0.881315 0.915312 0.818082
0.789700 0.835569 0.816434
0.000000 0.431495 0.923156
0.000000 0.424079 0.923552
0.000000 0.391943 0.926268
0.000000 0.362615 0.928801
0.342077 0.340612 0.931853
0.557885 0.300969 0.936339
0.738094 0.248020 0.939696
0.891539 0.257908 0.937194
0.000000 0.452705 0.923186
0.000000 0.445838 0.923522
0.000000 0.415290 0.925994
0.000000 0.381994 0.929015
0.347295 0.360784 0.932097
0.559503 0.323583 0.936645
0.739437 0.275364 0.940398
0.893187 0.285374 0.938079
0.000000 0.525109 0.919432
0.000000 0.519585 0.919921
0.000000 0.495460 0.922606
0.000000 0.448768 0.926238
0.363928 0.430579 0.929900
0.563348 0.399908 0.935058
0.741024 0.360601 0.939269
0.893980 0.368566 0.937072
0.030701 0.635859 0.912169
0.090974 0.631739 0.912627
0.166171 0.614588 0.915190
0.246891 0.575067 0.920012
0.396338 0.538323 0.925414
0.570428 0.513237 0.930816
0.742489 0.479072 0.936095
0.893187 0.484047 0.934112
0.301579 0.735225 0.904479
0.314153 0.734127 0.904723
0.362524 0.730282 0.906859
0.420264 0.714229 0.911070
0.457862 0.666468 0.919249
0.582300 0.636835 0.926299
0.745052 0.605402 0.933349
0.893309 0.606104 0.931456
0.316381 0.818265 0.903014
0.333104 0.817868 0.903319
0.391974 0.815549 0.904021
0.480201 0.810269 0.904662
0.557702 0.799130 0.910033
0.605798 0.754543 0.919921
0.743130 0.728847 0.927276
0.896391 0.722835 0.929381
0.152499 0.912352 0.908080
0.192294 0.911589 0.908324
0.296941 0.907988 0.909117
0.417609 0.900298 0.910246
0.542504 0.888579 0.911986
0.666926 0.873533 0.914183
0.755520 0.846616 0.923980
0.904906 0.839017 0.931823
0.365240 0.951934 0.835233
0.376928 0.951934 0.836454
0.419745 0.951385 0.840970
0.489479 0.949828 0.849058
0.579187 0.947936 0.861967
0.681514 0.946105 0.879728
0.802701 0.942412 0.908202
0.850248 0.907683 0.919646
