20 Preset/Nude style/【3】LUT video cho PR-AE-FCPX/Tone  (6).cube
# Created by Adobe Lightroom plugin Export LUT (1.24.0)
# www.johnrellis.com/lightroom/exportlut.htm
# Preset: 奶油裸色-素材江湖07
# Color profile: C:\Program Files (x86)\Common Files\Adobe\Color\Profiles\Recommended\VideoHD.icc
LUT_3D_SIZE 8
DOMAIN_MIN 0.000000 0.000000 0.000000
DOMAIN_MAX 0.903226 0.903226 0.903226
0.129183 0.110658 0.112673
0.195621 0.114778 0.114595
0.333013 0.126223 0.117311
0.462013 0.146792 0.118227
0.581384 0.177157 0.118013
0.689906 0.213291 0.119631
0.789059 0.248447 0.124361
0.898039 0.286198 0.134646
0.182071 0.165438 0.133852
0.195956 0.158511 0.139620
0.324315 0.172854 0.131228
0.456153 0.185550 0.127749
0.577173 0.208103 0.127169
0.686336 0.236820 0.127810
0.786435 0.266880 0.132174
0.896361 0.301396 0.142275
0.296269 0.288914 0.180423
0.318883 0.281590 0.191257
0.319463 0.256687 0.194003
0.429053 0.273014 0.179141
0.560754 0.292332 0.164828
0.672053 0.309300 0.161440
0.776089 0.329198 0.163088
0.889372 0.356390 0.173159
0.414954 0.436774 0.259464
0.430304 0.432471 0.267399
0.449531 0.414740 0.275700
0.436652 0.368963 0.267826
0.511620 0.371923 0.249821
0.644312 0.397864 0.222354
0.757534 0.415381 0.216281
0.876616 0.439155 0.226352
0.513207 0.580652 0.350958
0.524102 0.577996 0.356725
0.558709 0.567254 0.377569
0.554376 0.535058 0.363897
0.536217 0.478309 0.343908
0.582483 0.464302 0.323491
0.719417 0.501671 0.304326
0.859312 0.533410 0.298955
0.595148 0.699306 0.456641
0.602930 0.697841 0.460639
0.631983 0.691676 0.477455
0.652369 0.677699 0.480568
0.644892 0.641535 0.460273
0.630488 0.588586 0.431739
0.663661 0.569146 0.415595
0.817197 0.626398 0.426795
0.681880 0.807034 0.578851
0.687678 0.806149 0.581750
0.710079 0.802487 0.593744
0.745266 0.795651 0.614954
0.749752 0.781582 0.601038
0.745541 0.753170 0.583154
0.740230 0.715602 0.559747
0.776211 0.710964 0.570184
0.781582 0.901610 0.713558
0.785794 0.901183 0.715633
0.802640 0.899199 0.724086
0.832090 0.895415 0.740261
0.855344 0.891814 0.749203
0.863951 0.884825 0.746273
0.871153 0.873136 0.744839
0.882292 0.860594 0.746822
0.137850 0.127016 0.168673
0.185031 0.130831 0.166720
0.340459 0.115084 0.172000
0.472175 0.159182 0.169009
0.588037 0.188113 0.166079
0.693721 0.220340 0.163424
0.790738 0.253178 0.163180
0.898894 0.289036 0.168338
0.144717 0.177646 0.181125
0.207950 0.180179 0.181674
0.338903 0.187320 0.179477
0.466133 0.198764 0.176211
0.583734 0.218265 0.172396
0.690089 0.243503 0.169253
0.788205 0.271397 0.169070
0.897215 0.304265 0.174441
0.284764 0.305486 0.217014
0.315740 0.298253 0.226688
0.328649 0.273808 0.229435
0.441047 0.287968 0.212619
0.566522 0.301640 0.200351
0.675593 0.315587 0.194186
0.777798 0.333349 0.192905
0.890288 0.358831 0.199222
0.407233 0.446235 0.284398
0.424445 0.441932 0.291630
0.453407 0.425208 0.302464
0.440955 0.379339 0.290715
0.518364 0.381903 0.269780
0.648829 0.404303 0.243290
0.758999 0.419165 0.237766
0.877409 0.441596 0.245548
0.507073 0.585992 0.368109
0.518517 0.583459 0.373480
0.557427 0.572992 0.395605
0.556085 0.541650 0.381994
0.537987 0.484443 0.359228
0.586450 0.470771 0.336370
0.721736 0.505608 0.317449
0.859892 0.535821 0.313085
0.590631 0.702296 0.468544
0.598596 0.700801 0.472480
0.628443 0.694667 0.488716
0.652277 0.680934 0.494453
0.645197 0.645289 0.472694
0.630762 0.592157 0.442451
0.665431 0.573022 0.424170
0.818357 0.628779 0.434882
0.678553 0.808652 0.586084
0.684382 0.807797 0.588922
0.707179 0.804166 0.600549
0.744411 0.797391 0.622827
0.749783 0.783566 0.609155
0.745388 0.755123 0.590539
0.739864 0.717342 0.566186
0.777218 0.713069 0.575280
0.779110 0.902464 0.716976
0.783352 0.902037 0.719051
0.800351 0.900023 0.727321
0.830137 0.896208 0.743252
0.854917 0.892424 0.753231
0.863767 0.885618 0.749966
0.870939 0.873899 0.748043
0.882017 0.861234 0.749386
0.128634 0.159854 0.294926
0.188907 0.161959 0.293095
0.305760 0.177859 0.290501
0.454505 0.209903 0.330999
0.609491 0.153140 0.288426
0.711482 0.228489 0.264378
0.799954 0.263462 0.258824
0.904082 0.294743 0.255802
0.191318 0.222995 0.304356
0.215702 0.212406 0.304051
0.319890 0.224002 0.300786
0.467353 0.232914 0.328344
0.611872 0.198550 0.277104
0.706905 0.257084 0.270451
0.797269 0.282231 0.262364
0.902281 0.310338 0.259831
0.182101 0.325383 0.333440
0.226688 0.330602 0.336065
0.353124 0.327855 0.330297
0.477058 0.327977 0.314275
0.589532 0.328038 0.298955
0.690700 0.333928 0.286107
0.786038 0.345953 0.277867
0.894957 0.366308 0.276493
0.328954 0.482582 0.353796
0.368505 0.477760 0.361852
0.454963 0.460731 0.385534
0.454994 0.417182 0.367803
0.545098 0.418433 0.339818
0.662501 0.426276 0.318273
0.765866 0.433417 0.309636
0.881254 0.450355 0.310948
0.472389 0.607080 0.427008
0.487709 0.604517 0.431403
0.537835 0.594324 0.449683
0.562493 0.568353 0.449226
0.544549 0.509789 0.417395
0.602014 0.497322 0.387060
0.731258 0.521752 0.367498
0.862608 0.545159 0.365576
0.569360 0.714260 0.512840
0.578424 0.712795 0.516167
0.612055 0.706813 0.530419
0.652003 0.694636 0.547936
0.646632 0.660792 0.521019
0.631708 0.606653 0.484230
0.672755 0.588861 0.459052
0.823392 0.638483 0.466743
0.663447 0.815488 0.613458
0.669642 0.814633 0.615930
0.694179 0.811032 0.626215
0.734279 0.804288 0.646021
0.750332 0.792050 0.640589
0.745083 0.763272 0.619715
0.738491 0.724483 0.591852
0.781643 0.721798 0.595605
0.768002 0.906096 0.730434
0.772519 0.905577 0.732296
0.790372 0.903532 0.739986
0.821714 0.899657 0.754910
0.853300 0.895109 0.769558
0.863096 0.889006 0.764675
0.869993 0.877073 0.760922
0.880888 0.863920 0.759976
0.026917 0.208713 0.451881
0.166049 0.212741 0.450690
0.313390 0.231266 0.445899
0.434760 0.258213 0.443366
0.569177 0.314702 0.492195
0.704250 0.290745 0.479652
0.817136 0.236851 0.410956
0.919005 0.274846 0.370336
0.175143 0.265354 0.457710
0.206424 0.258762 0.457191
0.327642 0.270665 0.452522
0.440711 0.289647 0.449226
0.570520 0.340551 0.496742
0.706538 0.303044 0.473091
0.818021 0.249882 0.399969
0.915343 0.308354 0.372564
0.239994 0.376440 0.472145
0.274937 0.377874 0.472877
0.357336 0.369879 0.474220
0.459846 0.381537 0.470008
0.588525 0.393927 0.495277
0.715938 0.342931 0.433112
0.804013 0.365240 0.397101
0.905516 0.378332 0.385382
0.172335 0.487434 0.506645
0.216587 0.490303 0.507927
0.329839 0.503044 0.513756
0.477241 0.489326 0.496925
0.588098 0.478584 0.466224
0.684199 0.466499 0.441108
0.779538 0.460731 0.420783
0.889830 0.465888 0.409949
0.277317 0.644739 0.494881
0.313573 0.643153 0.493935
0.461677 0.632654 0.529595
0.567620 0.614099 0.557763
0.556420 0.558556 0.516838
0.630732 0.546593 0.479133
0.749172 0.551812 0.454932
0.868803 0.562188 0.450416
0.511406 0.736782 0.580865
0.524315 0.735286 0.583520
0.570428 0.729213 0.594202
0.634455 0.718196 0.614954
0.650690 0.690761 0.602502
0.633539 0.634852 0.557366
0.688014 0.619318 0.522301
0.834714 0.656184 0.522576
0.626276 0.828916 0.656184
0.633845 0.828031 0.658198
0.663478 0.824369 0.666804
0.711543 0.817441 0.683558
0.750423 0.806638 0.694453
0.745998 0.779110 0.669123
0.736782 0.738033 0.635615
0.791470 0.738094 0.631617
0.742123 0.913329 0.752407
0.747158 0.912810 0.754055
0.767544 0.910613 0.760952
0.803128 0.906554 0.774319
0.846494 0.900908 0.794003
0.862516 0.895659 0.790890
0.868650 0.883177 0.783902
0.879088 0.869047 0.778958
0.000000 0.279881 0.611872
0.123537 0.283452 0.611048
0.297856 0.298161 0.607446
0.435004 0.324712 0.600641
0.547265 0.351110 0.597467
0.669001 0.404974 0.633753
0.772091 0.444953 0.647913
0.897337 0.403418 0.611902
0.131533 0.321874 0.614649
0.177951 0.318822 0.614130
0.312657 0.329168 0.610712
0.440742 0.350256 0.603937
0.549493 0.372351 0.600244
0.668452 0.423682 0.635798
0.773404 0.451942 0.645991
0.898375 0.409277 0.607538
0.280461 0.438148 0.623560
0.293584 0.433173 0.623407
0.345220 0.416205 0.622309
0.457496 0.429236 0.615259
0.557549 0.444648 0.611017
0.665919 0.489876 0.644770
0.779507 0.475624 0.634150
0.903471 0.428443 0.585260
0.269169 0.525811 0.635309
0.296208 0.528008 0.635096
0.382208 0.538140 0.634241
0.479896 0.536370 0.634730
0.570672 0.547295 0.630640
0.674861 0.555657 0.644373
0.793637 0.503166 0.588891
0.906249 0.479408 0.538201
0.184909 0.632837 0.661219
0.222202 0.634577 0.661860
0.326024 0.641718 0.664607
0.447028 0.655634 0.670130
0.575891 0.631800 0.646082
0.668116 0.613092 0.609979
0.767269 0.592187 0.577020
0.881895 0.582910 0.555108
0.298009 0.766384 0.657527
0.326085 0.765499 0.656275
0.415534 0.761227 0.652338
0.560784 0.749691 0.676265
0.662287 0.735286 0.700526
0.640497 0.678035 0.650263
0.714931 0.664332 0.609613
0.856199 0.678950 0.596033
0.521324 0.850858 0.698970
0.538018 0.849760 0.704005
0.588922 0.845670 0.715175
0.659693 0.837949 0.727230
0.735012 0.827298 0.748013
0.751095 0.804166 0.734096
0.736538 0.758297 0.692226
0.808957 0.760555 0.679194
0.685145 0.925597 0.778683
0.691829 0.924987 0.780117
0.718807 0.922484 0.786221
0.765072 0.917784 0.797971
0.820768 0.911284 0.815366
0.861173 0.904845 0.826627
0.867826 0.892729 0.815549
0.876921 0.876646 0.805234
0.000000 0.361547 0.742702
0.127779 0.364508 0.742092
0.284733 0.376410 0.739712
0.419593 0.397864 0.734859
0.536767 0.427680 0.726680
0.637903 0.451972 0.723659
0.751339 0.502586 0.751308
0.837827 0.590021 0.784237
0.132692 0.390509 0.743557
0.179355 0.390600 0.743130
0.301244 0.400153 0.740810
0.425940 0.417945 0.735775
0.539544 0.444617 0.727840
0.638788 0.466896 0.724849
0.750454 0.516014 0.752438
0.837156 0.598962 0.785611
0.282780 0.485420 0.745724
0.294255 0.482155 0.745541
0.342046 0.472023 0.744442
0.446326 0.484077 0.739773
0.549828 0.503960 0.732662
0.642359 0.521538 0.729793
0.747768 0.564630 0.757473
0.840940 0.618341 0.785458
0.340490 0.584649 0.749203
0.358770 0.585962 0.749233
0.423133 0.591852 0.749386
0.476143 0.577386 0.748287
0.567376 0.589990 0.742397
0.649683 0.601373 0.739773
0.746731 0.635767 0.768185
0.855192 0.634577 0.774166
0.332464 0.657374 0.760494
0.350469 0.658839 0.760342
0.412543 0.664820 0.759640
0.501244 0.676173 0.758450
0.586053 0.676509 0.758511
0.664698 0.683742 0.757168
0.760586 0.687007 0.768582
0.883696 0.637354 0.727718
0.277165 0.748592 0.779538
0.297063 0.749538 0.779843
0.363043 0.753475 0.781155
0.454078 0.760983 0.783780
0.555505 0.772213 0.787839
0.666743 0.745296 0.762814
0.760189 0.720668 0.723384
0.876341 0.702815 0.696651
0.290410 0.873167 0.790890
0.314916 0.872618 0.789670
0.396582 0.870359 0.785000
0.510307 0.865812 0.778622
0.656123 0.856321 0.794247
0.764981 0.841489 0.815854
0.741634 0.790646 0.767025
0.836728 0.790799 0.743893
0.532433 0.944488 0.796994
0.541711 0.944060 0.797543
0.582025 0.941985 0.802060
0.681147 0.935332 0.827970
0.766110 0.927367 0.842313
0.843992 0.917998 0.861173
0.869108 0.907042 0.857420
0.874754 0.887877 0.840421
0.189975 0.461402 0.853025
0.224613 0.465309 0.853849
0.315312 0.473701 0.851591
0.425971 0.491005 0.848325
0.535576 0.514763 0.842893
0.636774 0.544701 0.835203
0.727199 0.562707 0.832151
0.833433 0.597681 0.849607
0.211490 0.472602 0.847044
0.240726 0.476448 0.848325
0.322911 0.483803 0.846311
0.426856 0.497841 0.842435
0.532830 0.518547 0.836484
0.631281 0.544701 0.827665
0.719448 0.559899 0.823514
0.823819 0.592767 0.840757
0.317388 0.549340 0.849912
0.325902 0.547387 0.849760
0.363714 0.540887 0.847837
0.450782 0.550591 0.843900
0.545373 0.564691 0.837308
0.638148 0.585168 0.829953
0.725307 0.600610 0.829343
0.829038 0.634272 0.849546
0.418433 0.651514 0.852873
0.423224 0.649104 0.852354
0.442725 0.639582 0.850614
0.485267 0.628229 0.849760
0.568139 0.636591 0.844450
0.654231 0.651270 0.839353
0.736049 0.662531 0.839048
0.832059 0.691096 0.857847
0.405371 0.711666 0.850889
0.414527 0.711421 0.849393
0.456062 0.711269 0.848020
0.526452 0.714595 0.848234
0.581109 0.702266 0.847196
0.663203 0.710414 0.841947
0.740047 0.718044 0.840757
0.835019 0.750637 0.865599
0.383978 0.764309 0.858335
0.395727 0.765225 0.858427
0.439460 0.768246 0.858183
0.510948 0.774411 0.857816
0.599451 0.783902 0.856809
0.686091 0.786313 0.858762
0.762753 0.793668 0.858091
0.852811 0.802426 0.872038
0.334203 0.844877 0.873655
0.349310 0.846128 0.874418
0.398535 0.848173 0.874815
0.478462 0.852750 0.876188
0.572747 0.858824 0.877684
0.673701 0.867704 0.880827
0.770321 0.846403 0.862486
0.872221 0.825681 0.832303
0.347875 0.955962 0.894591
0.365240 0.955840 0.893980
0.431495 0.955810 0.892210
0.529351 0.953216 0.887205
0.642664 0.947570 0.881682
0.764004 0.939208 0.887297
0.871977 0.926177 0.907469
0.872496 0.903227 0.884306
0.330968 0.566735 0.927733
0.344884 0.569207 0.927916
0.389410 0.573205 0.925719
0.464302 0.585595 0.923857
0.550835 0.602197 0.920531
0.639826 0.621881 0.915709
0.727138 0.646509 0.910674
0.807828 0.656336 0.909148
0.335088 0.572320 0.924712
0.348791 0.574853 0.925017
0.392950 0.579522 0.923522
0.464942 0.590204 0.921416
0.550103 0.605615 0.918151
0.638209 0.624262 0.913390
0.724056 0.646540 0.907744
0.803952 0.654963 0.905760
0.383429 0.617304 0.922362
0.389349 0.616236 0.922423
0.414923 0.612634 0.921324
0.482918 0.624201 0.921111
0.560082 0.634607 0.917357
0.642695 0.647852 0.912016
0.726314 0.667231 0.906920
0.804746 0.674678 0.905425
0.446693 0.685573 0.920195
0.451484 0.684901 0.920500
0.467475 0.679011 0.920134
0.503532 0.672511 0.920195
0.575586 0.680964 0.917571
0.654322 0.691707 0.913481
0.734737 0.707149 0.909209
0.810910 0.713771 0.908476
0.470100 0.746426 0.919036
0.478920 0.747524 0.919402
0.507500 0.747951 0.918608
0.548058 0.744808 0.918486
0.586206 0.731228 0.917815
0.662654 0.738338 0.914183
0.742336 0.750729 0.910918
0.819059 0.759823 0.911986
0.452186 0.796170 0.921660
0.458106 0.795926 0.920989
0.485481 0.796902 0.919249
0.539483 0.801266 0.917815
0.615503 0.803616 0.918578
0.679744 0.798947 0.921355
0.765560 0.813382 0.921508
0.841611 0.825010 0.923949
0.445594 0.853391 0.933959
0.453254 0.853635 0.933745
0.485145 0.854917 0.933104
0.544610 0.858824 0.932677
0.623255 0.865385 0.932341
0.714015 0.875792 0.932555
0.792599 0.876371 0.933043
0.860533 0.880735 0.931304
0.417182 0.923125 0.944244
0.425513 0.923125 0.944060
0.462715 0.923857 0.943786
0.529992 0.925963 0.943877
0.614343 0.928679 0.943725
0.705348 0.932921 0.944427
0.799680 0.937926 0.945830
0.877745 0.927672 0.937987
