20 Preset/Dark Style/【3】LUT video cho PR-AE-FCPX/19Tones (2)/19Tones -Denis x Villa _ d.cube
# Created by Adobe Lightroom plugin Export LUT (1.24.0)
# www.johnrellis.com/lightroom/exportlut.htm
# Preset: 19Tones -Denis x Villa / d
# Color profile: E:\lut插件\exportlut.1.24\exportlut.lrplugin\color profiles\Rec709gamma2.4.icc
LUT_3D_SIZE 32
DOMAIN_MIN 0.0 0.0 0.0
DOMAIN_MAX 1.0 1.0 1.0
0.105837 0.187747 0.211307
0.105837 0.187747 0.211307
0.105837 0.187747 0.211307
0.107607 0.187655 0.211307
0.110750 0.187625 0.211429
0.115206 0.187686 0.211521
0.121096 0.187930 0.211551
0.129335 0.188022 0.211612
0.139010 0.188235 0.211734
0.151278 0.188479 0.211826
0.166232 0.188663 0.211856
0.184268 0.188754 0.211826
0.206302 0.188724 0.211704
0.231876 0.188632 0.211582
0.261540 0.188266 0.211307
0.296391 0.187198 0.210819
0.336797 0.185306 0.210147
0.382086 0.182101 0.209293
0.445777 0.174807 0.207645
0.524590 0.161746 0.204959
0.602808 0.143679 0.201480
0.676875 0.121096 0.197086
0.741604 0.098939 0.192203
0.799893 0.074311 0.186831
0.852567 0.057984 0.180636
0.901335 0.073304 0.173770
0.946075 0.102449 0.166110
0.986999 0.129091 0.157900
1.000000 0.157198 0.149386
1.000000 0.185611 0.141207
1.000000 0.213169 0.134249
1.000000 0.240482 0.130159
0.105837 0.187747 0.211307
0.105837 0.187747 0.211307
0.105837 0.187747 0.211307
0.107607 0.187655 0.211307
0.110567 0.187808 0.211398
0.115023 0.187839 0.211490
0.120577 0.187961 0.211551
0.128176 0.188235 0.211704
0.137362 0.188357 0.211734
0.149416 0.188632 0.211826
0.163790 0.188724 0.211887
0.181308 0.188937 0.211856
0.202060 0.189090 0.211765
0.226749 0.189090 0.211643
0.256107 0.188632 0.211398
0.289525 0.188022 0.210941
0.328893 0.186252 0.210330
0.373175 0.183322 0.209567
0.434455 0.177066 0.207889
0.508537 0.165988 0.205539
0.583185 0.149813 0.202396
0.655146 0.129793 0.198489
0.718990 0.109682 0.193973
0.777768 0.090394 0.188815
0.831418 0.066987 0.183169
0.881224 0.067414 0.176669
0.928466 0.093812 0.169223
0.971862 0.118868 0.161074
1.000000 0.147433 0.152438
1.000000 0.176242 0.143893
1.000000 0.204501 0.136172
1.000000 0.232517 0.130861
0.105531 0.187900 0.211429
0.105531 0.187900 0.211429
0.105531 0.187900 0.211429
0.106813 0.188144 0.211521
0.109224 0.188296 0.211612
0.113039 0.188540 0.211673
0.118685 0.188663 0.211734
0.125765 0.188846 0.211795
0.134676 0.188998 0.211948
0.145968 0.189364 0.211917
0.160067 0.189517 0.211978
0.176944 0.189853 0.211948
0.197177 0.189975 0.211856
0.220890 0.190219 0.211765
0.248875 0.190127 0.211521
0.281804 0.189425 0.211124
0.319280 0.188418 0.210575
0.363500 0.185855 0.209689
0.423499 0.180606 0.208225
0.494881 0.171084 0.205936
0.567803 0.157198 0.203006
0.638300 0.140475 0.199374
0.703120 0.122377 0.195041
0.762539 0.104921 0.190158
0.816983 0.092897 0.184543
0.867765 0.090150 0.178317
0.916197 0.101808 0.170901
0.961456 0.122377 0.162844
1.000000 0.148287 0.154025
1.000000 0.176730 0.145174
1.000000 0.204685 0.137057
1.000000 0.232090 0.131197
0.105318 0.188663 0.211856
0.105318 0.188663 0.211856
0.106111 0.188449 0.211887
0.106508 0.188602 0.211856
0.108339 0.188785 0.211948
0.110842 0.189242 0.212009
0.115969 0.189578 0.212039
0.122286 0.189792 0.212100
0.130556 0.190158 0.212100
0.141573 0.190402 0.212222
0.154757 0.190860 0.212131
0.170962 0.191165 0.212131
0.189853 0.191714 0.212039
0.212528 0.192050 0.211978
0.239231 0.192233 0.211765
0.269932 0.192264 0.211398
0.305638 0.191623 0.210910
0.347051 0.190036 0.210117
0.404883 0.186343 0.208774
0.468757 0.179965 0.206912
0.536706 0.169924 0.204318
0.604822 0.156985 0.201053
0.671321 0.141665 0.197116
0.734066 0.127443 0.192355
0.793484 0.115785 0.186740
0.848905 0.112154 0.180240
0.902098 0.119570 0.172610
0.951354 0.137118 0.163912
0.995697 0.160189 0.154818
1.000000 0.186435 0.145541
1.000000 0.212558 0.137362
1.000000 0.237980 0.131289
0.105562 0.189670 0.212650
0.106081 0.189639 0.212772
0.106966 0.189425 0.212650
0.107759 0.189242 0.212680
0.107424 0.189578 0.212497
0.110567 0.189700 0.212345
0.114015 0.190097 0.212528
0.118074 0.190768 0.212528
0.125338 0.191226 0.212558
0.135164 0.191745 0.212528
0.146822 0.192355 0.212589
0.162020 0.192996 0.212558
0.179782 0.193637 0.212497
0.200900 0.194369 0.212314
0.225589 0.195071 0.212131
0.254917 0.195529 0.211887
0.289067 0.195743 0.211460
0.331334 0.195254 0.210605
0.386816 0.193057 0.209384
0.447211 0.188907 0.207553
0.511528 0.182254 0.205203
0.578576 0.172580 0.202182
0.645808 0.160830 0.198428
0.711391 0.149630 0.193698
0.773922 0.140566 0.188022
0.832578 0.137697 0.181552
0.887938 0.143526 0.173831
0.939757 0.157229 0.164920
0.985718 0.177371 0.155581
1.000000 0.200717 0.146120
1.000000 0.224216 0.137758
1.000000 0.248508 0.131380
0.105592 0.191379 0.213840
0.105592 0.191379 0.213840
0.106416 0.191196 0.213870
0.108095 0.190829 0.213748
0.109468 0.190616 0.213779
0.109041 0.191073 0.213474
0.113008 0.191043 0.213077
0.117311 0.191531 0.213107
0.121920 0.192294 0.213230
0.128084 0.193057 0.213199
0.139223 0.193912 0.213230
0.152865 0.194888 0.213107
0.169375 0.195926 0.213016
0.189059 0.197086 0.212955
0.212497 0.198184 0.212772
0.240177 0.199344 0.212436
0.273075 0.200198 0.212009
0.316960 0.200839 0.211215
0.369421 0.200473 0.209995
0.427985 0.198154 0.208408
0.490761 0.194156 0.206119
0.557580 0.187839 0.203128
0.738186 0.176425 0.190555
0.800473 0.176028 0.183993
0.857023 0.180758 0.176638
0.908934 0.191684 0.168154
0.955352 0.206455 0.159274
0.996277 0.224002 0.150179
1.000000 0.243107 0.141634
1.000000 0.263005 0.134127
1.000000 0.282689 0.129397
1.000000 0.301610 0.128634
0.105074 0.194522 0.216007
0.105653 0.194491 0.216007
0.106783 0.194156 0.215915
0.108675 0.193637 0.215824
0.111818 0.192905 0.215763
0.111238 0.193088 0.215488
0.111879 0.193637 0.214908
0.117189 0.193668 0.214359
0.123964 0.193851 0.214298
0.130098 0.194919 0.214237
0.137819 0.195987 0.214145
0.146700 0.197055 0.214176
0.162600 0.198734 0.214023
0.182132 0.200412 0.213931
0.205264 0.202060 0.213596
0.232303 0.203830 0.213321
0.269078 0.205844 0.212802
0.315740 0.208042 0.211856
0.370092 0.209110 0.210544
0.433173 0.208865 0.208560
0.504295 0.206638 0.205722
0.582879 0.202609 0.201724
0.663905 0.198398 0.196475
0.741115 0.197299 0.189670
0.810575 0.201053 0.181888
0.871153 0.210269 0.173068
0.924804 0.223331 0.163577
0.970794 0.239414 0.153994
1.000000 0.257542 0.144564
1.000000 0.275731 0.136141
1.000000 0.294560 0.130098
1.000000 0.313024 0.128145
0.104616 0.198154 0.218448
0.104921 0.198001 0.218326
0.105928 0.197665 0.218357
0.108522 0.197116 0.218173
0.111879 0.196262 0.218112
0.116609 0.195010 0.217990
0.113985 0.195743 0.217533
0.114900 0.196567 0.216678
0.122133 0.196902 0.215824
0.130282 0.196719 0.215671
0.138247 0.197879 0.215549
0.146883 0.199222 0.215427
0.156802 0.200565 0.215274
0.168063 0.202090 0.215183
0.187839 0.204166 0.214878
0.213443 0.206851 0.214603
0.246738 0.209995 0.214115
0.286625 0.212894 0.213291
0.334417 0.215793 0.212192
0.390814 0.217777 0.210636
0.456672 0.218784 0.208225
0.530877 0.218387 0.204837
0.610864 0.217350 0.200137
0.692409 0.217594 0.193912
0.766629 0.221744 0.186435
0.832822 0.229618 0.177798
0.891600 0.241886 0.168154
0.943603 0.257206 0.157839
0.988800 0.274815 0.147738
1.000000 0.292912 0.138430
1.000000 0.311559 0.131167
1.000000 0.329747 0.128176
0.103365 0.203189 0.221744
0.104189 0.203006 0.221775
0.105318 0.202701 0.221683
0.107515 0.202060 0.221500
0.111757 0.201022 0.221347
0.116701 0.199680 0.221225
0.120516 0.198642 0.221073
0.117494 0.199680 0.220005
0.119112 0.200717 0.218997
0.128267 0.201480 0.217838
0.138888 0.200412 0.217502
0.148348 0.201968 0.217197
0.158602 0.203494 0.217014
0.170382 0.205203 0.216892
0.184146 0.207401 0.216800
0.200595 0.209781 0.216587
0.228702 0.213107 0.215976
0.261692 0.216648 0.215244
0.301732 0.220523 0.214176
0.352605 0.224308 0.212741
0.412909 0.227787 0.210819
0.482673 0.230442 0.207889
0.560662 0.232609 0.203861
0.642817 0.235264 0.198062
0.722408 0.240330 0.190921
0.793515 0.248325 0.182589
0.857267 0.260594 0.172976
0.914885 0.276127 0.162173
0.965332 0.293919 0.151247
1.000000 0.312383 0.141085
1.000000 0.330999 0.132937
1.000000 0.349371 0.129183
0.101198 0.210239 0.226505
0.101411 0.210086 0.226535
0.103334 0.209751 0.226322
0.106691 0.208835 0.226047
0.111482 0.207584 0.225834
0.117678 0.205844 0.225498
0.124971 0.203861 0.225345
0.125978 0.203525 0.225010
0.121706 0.204898 0.223331
0.125002 0.206119 0.222080
0.135805 0.207095 0.220645
0.150027 0.205631 0.220066
0.161868 0.207645 0.219791
0.174960 0.209842 0.219455
0.189029 0.212009 0.219089
0.203983 0.214206 0.218814
0.219730 0.216709 0.218418
0.241825 0.219791 0.217899
0.278447 0.224369 0.216983
0.322484 0.229221 0.215518
0.374334 0.234134 0.213687
0.434607 0.238956 0.211185
0.505455 0.243442 0.207858
0.583581 0.247898 0.203159
0.663905 0.253483 0.196780
0.739406 0.261753 0.188937
0.808743 0.273350 0.179995
0.873564 0.288853 0.169223
0.932067 0.307744 0.157473
0.982422 0.328038 0.145846
1.000000 0.348425 0.136202
1.000000 0.368200 0.131106
0.098665 0.218906 0.232242
0.098665 0.218906 0.232242
0.101076 0.218326 0.232090
0.104280 0.217594 0.231937
0.109560 0.216281 0.231479
0.117403 0.214298 0.231113
0.125734 0.211978 0.230869
0.135653 0.209354 0.230747
0.133394 0.210422 0.230411
0.129000 0.212680 0.228336
0.133516 0.214725 0.226749
0.147677 0.216281 0.224887
0.164187 0.214511 0.223606
0.179873 0.215488 0.223148
0.194553 0.217868 0.222477
0.210269 0.220096 0.221805
0.226749 0.222599 0.221286
0.244419 0.225345 0.220523
0.263371 0.228092 0.219913
0.293278 0.232334 0.218845
0.340246 0.238254 0.217411
0.394537 0.244419 0.215213
0.456947 0.250736 0.212100
0.527855 0.257298 0.207950
0.609033 0.264958 0.202335
0.689815 0.274449 0.195071
0.765377 0.287114 0.186252
0.835691 0.303532 0.175662
0.900389 0.323644 0.163333
0.957122 0.345617 0.151064
1.000000 0.367651 0.140505
1.000000 0.389075 0.134340
0.091920 0.232395 0.240940
0.091920 0.232395 0.240940
0.095186 0.231815 0.240879
0.099672 0.231022 0.240635
0.107088 0.229618 0.240452
0.116640 0.227726 0.240208
0.127810 0.225223 0.239902
0.140139 0.222202 0.239841
0.151583 0.219181 0.239963
0.144564 0.221714 0.238773
0.139010 0.224430 0.235721
0.145571 0.226810 0.233249
0.178927 0.240482 0.235569
0.203098 0.237430 0.232395
0.227573 0.236118 0.231357
0.246952 0.238895 0.229648
0.267185 0.241581 0.228000
0.288518 0.244419 0.226444
0.310826 0.247349 0.224979
0.334447 0.250614 0.223484
0.359899 0.254063 0.221988
0.406470 0.260807 0.219608
0.472572 0.269749 0.216068
0.544640 0.279393 0.211246
0.620417 0.290318 0.204685
0.696986 0.303868 0.196414
0.771969 0.320592 0.186923
0.840940 0.339910 0.175967
0.903746 0.361639 0.163638
0.958404 0.384070 0.152010
1.000000 0.405798 0.143709
1.000000 0.426734 0.141573
0.042542 0.263401 0.261082
0.046540 0.263157 0.260929
0.058412 0.262211 0.260533
0.081270 0.260197 0.259709
0.097597 0.257450 0.258762
0.113436 0.253941 0.257694
0.130037 0.249790 0.256657
0.147951 0.244907 0.255955
0.166506 0.239628 0.255741
0.174289 0.237797 0.255863
0.164523 0.241978 0.253574
0.159060 0.246860 0.249241
0.170230 0.250950 0.245762
0.195010 0.254490 0.241855
0.222843 0.252018 0.237644
0.252720 0.248508 0.236484
0.274205 0.251438 0.234226
0.295628 0.254124 0.232029
0.317906 0.256840 0.229923
0.341131 0.259709 0.228031
0.365545 0.262882 0.226017
0.392065 0.266514 0.224094
0.420844 0.270848 0.222049
0.480903 0.280247 0.218570
0.555474 0.291997 0.213382
0.634119 0.305852 0.206180
0.709895 0.322545 0.197330
0.785946 0.343206 0.186801
0.857939 0.367407 0.174716
0.922026 0.393713 0.162081
0.976562 0.419135 0.152316
1.000000 0.443091 0.149020
0.000000 0.291661 0.279210
0.000000 0.291173 0.278935
0.000000 0.289220 0.277958
0.019257 0.286748 0.276921
0.070466 0.282994 0.275334
0.103609 0.278233 0.273472
0.126101 0.272953 0.271916
0.148562 0.267002 0.270542
0.170474 0.260838 0.269871
0.193759 0.253971 0.270024
0.193149 0.255192 0.269871
0.181399 0.260899 0.266300
0.176303 0.266575 0.260563
0.190005 0.271122 0.255833
0.217838 0.274327 0.250431
0.250431 0.272221 0.244480
0.283085 0.263371 0.242679
0.305211 0.266178 0.239628
0.328283 0.268864 0.236790
0.351537 0.271519 0.234043
0.376165 0.274510 0.231510
0.402960 0.278050 0.229099
0.431769 0.282200 0.226566
0.463661 0.287236 0.224002
0.498177 0.293278 0.221073
0.574243 0.307561 0.215427
0.655482 0.325170 0.207675
0.733272 0.346105 0.197665
0.809201 0.371405 0.186160
0.882536 0.400916 0.173495
0.945495 0.430640 0.162997
0.998108 0.458686 0.158724
0.000000 0.326055 0.301549
0.000000 0.325292 0.301091
0.000000 0.323339 0.300114
0.000000 0.320134 0.298528
0.000000 0.315312 0.296361
0.072633 0.309483 0.293950
0.115846 0.303044 0.291691
0.146090 0.295903 0.289616
0.174289 0.288731 0.288518
0.201633 0.280858 0.288182
0.230442 0.272190 0.289006
0.217838 0.278264 0.287907
0.202823 0.285222 0.282078
0.198184 0.291417 0.274571
0.214481 0.295720 0.267948
0.244907 0.297856 0.260502
0.283635 0.296727 0.252415
0.315709 0.283909 0.249668
0.341985 0.283848 0.246128
0.365850 0.286381 0.242496
0.390875 0.289128 0.239048
0.417945 0.292668 0.235874
0.446906 0.296635 0.232792
0.478523 0.301579 0.229526
0.512627 0.307439 0.226261
0.549950 0.314794 0.222477
0.597894 0.325658 0.217990
0.682948 0.348241 0.209323
0.764218 0.375372 0.198428
0.841855 0.407446 0.185946
0.915740 0.443366 0.175113
0.976532 0.477302 0.171756
0.000000 0.364019 0.327001
0.000000 0.363745 0.326970
0.000000 0.362280 0.326329
0.000000 0.359319 0.324956
0.000000 0.355200 0.323156
0.000000 0.349859 0.321141
0.095583 0.343603 0.318944
0.142031 0.336675 0.317327
0.179202 0.328862 0.316136
0.214481 0.319677 0.315312
0.247837 0.309239 0.315190
0.267826 0.301946 0.315251
0.249180 0.308263 0.310979
0.228885 0.314488 0.300847
0.224125 0.319280 0.290318
0.241276 0.321874 0.281102
0.273411 0.322881 0.271489
0.314733 0.321080 0.261631
0.348333 0.307500 0.257206
0.380591 0.303380 0.253605
0.407263 0.306493 0.249241
0.435340 0.310063 0.245029
0.465675 0.314458 0.241093
0.498238 0.319738 0.237247
0.533227 0.325963 0.233219
0.571283 0.333928 0.228916
0.613062 0.344244 0.224277
0.658228 0.357397 0.218967
0.720485 0.378973 0.211490
0.802945 0.412696 0.200504
0.879149 0.450355 0.189242
0.947906 0.488991 0.186099
0.000000 0.406531 0.356909
0.000000 0.406470 0.356847
0.000000 0.404974 0.356176
0.000000 0.402197 0.354894
0.000000 0.398322 0.353277
0.000000 0.392920 0.351141
0.031708 0.386694 0.349065
0.134188 0.379278 0.347112
0.181338 0.370642 0.345281
0.222446 0.360662 0.343877
0.261112 0.349035 0.343053
0.298192 0.335973 0.343114
0.303502 0.332952 0.341833
0.281102 0.339666 0.334722
0.256962 0.345922 0.320897
0.254093 0.350134 0.308507
0.272953 0.352026 0.297002
0.307256 0.352697 0.285344
0.351812 0.350774 0.273411
0.387610 0.336126 0.266667
0.427375 0.327733 0.263249
0.456428 0.331579 0.257847
0.487465 0.336034 0.252750
0.520745 0.341497 0.247868
0.556054 0.348058 0.242985
0.594598 0.356695 0.238132
0.636042 0.367803 0.232822
0.680110 0.381750 0.227298
0.726741 0.399542 0.221225
0.775814 0.421668 0.214969
0.845670 0.457435 0.206973
0.918791 0.500206 0.202548
0.000000 0.459022 0.395453
0.000000 0.459449 0.395911
0.000000 0.500633 0.428046
0.000000 0.497963 0.426825
0.000000 0.493477 0.424842
0.000000 0.487037 0.422004
0.000000 0.478645 0.418555
0.154116 0.469123 0.415259
0.214328 0.458839 0.412573
0.265415 0.446387 0.409949
0.311955 0.432013 0.407752
0.356207 0.415320 0.406134
0.397711 0.395819 0.404913
0.380652 0.397131 0.398779
0.350134 0.402441 0.385229
0.317510 0.407172 0.363378
0.314611 0.408362 0.345678
0.333196 0.407477 0.328618
0.369299 0.405310 0.311833
0.416480 0.400916 0.295293
0.453956 0.383368 0.284001
0.501396 0.368444 0.280278
0.531609 0.372107 0.272587
0.563287 0.376837 0.265568
0.596063 0.382422 0.258824
0.630854 0.389899 0.252354
0.667475 0.399573 0.246098
0.706722 0.412390 0.239994
0.749416 0.429511 0.234318
0.795224 0.451392 0.228916
0.843595 0.478553 0.224613
0.892027 0.510369 0.223362
0.000000 0.528466 0.449531
0.000000 0.532250 0.452674
0.000000 0.535149 0.455482
0.000000 0.536278 0.457374
0.000000 0.535088 0.457923
0.000000 0.530785 0.456397
0.000000 0.523491 0.453529
0.155734 0.514122 0.450050
0.219883 0.503807 0.446754
0.273045 0.491615 0.443671
0.321630 0.477760 0.441047
0.367376 0.461585 0.438727
0.410498 0.442267 0.436469
0.443427 0.423713 0.434363
0.413733 0.429572 0.425635
0.381445 0.434882 0.409186
0.348577 0.439673 0.385046
0.349340 0.441169 0.367071
0.370703 0.441444 0.349096
0.409125 0.440253 0.331304
0.458839 0.437171 0.313207
0.500237 0.421210 0.299107
0.554620 0.402808 0.295720
0.587274 0.406714 0.287144
0.619165 0.412299 0.278935
0.652216 0.419409 0.271183
0.686915 0.428809 0.264103
0.724208 0.441230 0.257725
0.764736 0.457710 0.252201
0.808408 0.479133 0.247929
0.854398 0.505821 0.245762
0.899901 0.536645 0.248386
0.000000 0.575921 0.488869
0.000000 0.579767 0.492226
0.000000 0.582849 0.495338
0.000000 0.584558 0.497780
0.000000 0.584070 0.498878
0.000000 0.580011 0.497505
0.097688 0.573602 0.494972
0.181674 0.565606 0.492073
0.241367 0.555688 0.488685
0.292576 0.544366 0.485512
0.340795 0.531151 0.482521
0.387030 0.515496 0.479591
0.430884 0.497658 0.477089
0.473426 0.476631 0.474861
0.486183 0.464637 0.470924
0.455207 0.470344 0.459571
0.421515 0.475563 0.440375
0.390814 0.480354 0.414618
0.393469 0.482033 0.395239
0.416419 0.482643 0.375860
0.455970 0.481758 0.356207
0.507469 0.479408 0.336278
0.553552 0.466743 0.318853
0.605798 0.447883 0.314214
0.642664 0.446296 0.306310
0.674220 0.453071 0.297063
0.707332 0.461799 0.288792
0.742550 0.473640 0.281926
0.780850 0.489631 0.276677
0.822141 0.510399 0.273655
0.865293 0.536034 0.273930
0.907500 0.565301 0.280156
0.000000 0.625086 0.531731
0.000000 0.628534 0.534966
0.000000 0.631006 0.537713
0.000000 0.632624 0.540002
0.000000 0.631952 0.540887
0.105470 0.628443 0.539910
0.177401 0.622950 0.537896
0.231388 0.615473 0.535119
0.279973 0.606897 0.532341
0.325719 0.596521 0.529351
0.370336 0.584894 0.526696
0.414069 0.570947 0.523949
0.456916 0.554498 0.521386
0.498390 0.535393 0.518883
0.538659 0.513756 0.517021
0.531609 0.510369 0.511345
0.501946 0.516991 0.498970
0.470222 0.524041 0.479011
0.445319 0.530785 0.454108
0.452491 0.535302 0.435492
0.479316 0.538689 0.416266
0.521721 0.540673 0.396185
0.574823 0.540734 0.374884
0.627863 0.534173 0.354772
0.676661 0.514763 0.349401
0.719112 0.509606 0.343450
0.751583 0.519402 0.334722
0.785885 0.532128 0.328222
0.822385 0.549004 0.324437
0.860197 0.569879 0.324926
0.897642 0.594385 0.331304
0.933410 0.621546 0.345159
0.162417 0.694484 0.596826
0.170626 0.695766 0.598169
0.182589 0.695888 0.598749
0.201785 0.694728 0.598657
0.225925 0.692195 0.597711
0.252201 0.687953 0.595819
0.281895 0.682307 0.593256
0.314977 0.675502 0.590661
0.350378 0.667689 0.588006
0.387610 0.658900 0.585779
0.425788 0.648493 0.583429
0.463844 0.636561 0.581231
0.501488 0.622370 0.578729
0.539178 0.606043 0.576501
0.576349 0.586816 0.574212
0.612909 0.564996 0.572381
0.588403 0.569177 0.564141
0.560357 0.574884 0.550072
0.530327 0.581018 0.528466
0.509270 0.586511 0.503227
0.515007 0.589776 0.482795
0.538201 0.591821 0.461097
0.575830 0.592065 0.437873
0.623926 0.590753 0.413764
0.678309 0.587884 0.390204
0.721981 0.567132 0.382818
0.768368 0.558801 0.380194
0.801328 0.571405 0.373541
0.835538 0.587366 0.370489
0.870146 0.606622 0.372473
0.903960 0.628748 0.380529
0.935851 0.653101 0.395850
0.287388 0.738094 0.640833
0.290715 0.739193 0.641932
0.297734 0.739162 0.642481
0.307988 0.738399 0.642573
0.321050 0.736416 0.641901
0.337621 0.733089 0.640558
0.357855 0.728420 0.638575
0.381537 0.722866 0.636500
0.408270 0.716518 0.634546
0.437964 0.709041 0.632654
0.469642 0.700252 0.630640
0.502678 0.690181 0.628901
0.536217 0.678187 0.626856
0.570367 0.664424 0.624964
0.604486 0.648341 0.623072
0.638605 0.630274 0.621668
0.658381 0.616571 0.619593
0.634821 0.622034 0.611078
0.609674 0.628077 0.596979
0.582910 0.634607 0.575494
0.568170 0.640375 0.553124
0.574945 0.644007 0.533623
0.596704 0.646540 0.512871
0.631525 0.647761 0.490486
0.664759 0.635492 0.454108
0.718898 0.635981 0.429725
0.760464 0.617334 0.421057
0.810269 0.607141 0.422827
0.842191 0.622004 0.420478
0.874052 0.639399 0.422766
0.905150 0.659693 0.431769
0.934752 0.682551 0.448615
0.407996 0.786038 0.693568
0.412696 0.787320 0.695186
0.416632 0.787472 0.695735
0.421424 0.786191 0.695155
0.426612 0.783597 0.693538
0.434333 0.779904 0.691188
0.444526 0.774929 0.688197
0.457801 0.769162 0.684962
0.474739 0.762661 0.681910
0.494942 0.755306 0.678950
0.517388 0.746761 0.675837
0.542962 0.737362 0.673152
0.569635 0.726741 0.670558
0.597711 0.714015 0.667597
0.626246 0.699519 0.664607
0.655756 0.682826 0.661769
0.686000 0.664118 0.659388
0.689082 0.657404 0.655543
0.667231 0.662837 0.646632
0.644800 0.669429 0.632868
0.621668 0.676692 0.612573
0.611810 0.682551 0.592859
0.619257 0.686213 0.574456
0.638788 0.687953 0.553857
0.669306 0.687648 0.530419
0.708797 0.685817 0.504967
0.758724 0.686610 0.480873
0.798550 0.671229 0.470558
0.847105 0.658259 0.476387
0.876127 0.672389 0.477790
0.904417 0.690211 0.485847
0.931609 0.710933 0.501884
0.477394 0.813535 0.726375
0.481147 0.814572 0.727810
0.485145 0.814817 0.728542
0.489143 0.814145 0.728450
0.494606 0.812619 0.727901
0.501793 0.810422 0.726894
0.511467 0.807584 0.725795
0.523583 0.803952 0.724514
0.538476 0.799680 0.723293
0.555657 0.794949 0.722255
0.574762 0.789151 0.721004
0.595727 0.782437 0.719753
0.617884 0.774319 0.718196
0.640986 0.764920 0.716426
0.664515 0.753719 0.714260
0.688899 0.740841 0.712032
0.714199 0.726406 0.710079
0.740291 0.710567 0.708766
0.730831 0.711116 0.704402
0.712612 0.716579 0.696162
0.693538 0.722744 0.683345
0.673701 0.729488 0.664363
0.667689 0.734493 0.647395
0.674678 0.738003 0.630793
0.692012 0.740047 0.612085
0.719265 0.740749 0.591241
0.754788 0.739925 0.568170
0.799710 0.741726 0.547234
0.837308 0.730495 0.537591
0.880583 0.721767 0.548272
0.909026 0.732143 0.558160
0.932860 0.750118 0.573632
0.560357 0.842924 0.764828
0.562036 0.843198 0.765438
0.564080 0.843137 0.765652
0.566735 0.842466 0.765499
0.570245 0.841154 0.764889
0.575219 0.839322 0.764065
0.581781 0.836973 0.763149
0.590387 0.834073 0.762081
0.601221 0.830655 0.761135
0.613916 0.826780 0.760220
0.628321 0.822171 0.759213
0.644617 0.817014 0.758511
0.661921 0.811002 0.757534
0.680171 0.803891 0.756405
0.698909 0.795438 0.754849
0.718532 0.785611 0.753140
0.738979 0.774746 0.751644
0.760616 0.762600 0.750546
0.779507 0.751492 0.749935
0.765438 0.756100 0.745968
0.750851 0.761349 0.738888
0.735592 0.766934 0.727687
0.719051 0.772335 0.710628
0.715572 0.776059 0.696437
0.721126 0.778592 0.681331
0.734859 0.780026 0.663874
0.757565 0.780545 0.644587
0.788266 0.780117 0.623346
0.828367 0.782315 0.605219
0.863828 0.775326 0.597894
0.901671 0.770779 0.613306
0.929046 0.778866 0.630884
0.625208 0.865354 0.795956
0.626368 0.865568 0.796414
0.628107 0.865629 0.796750
0.630549 0.865232 0.796841
0.634119 0.864591 0.796933
0.639429 0.863737 0.797177
0.647395 0.863005 0.798032
0.657221 0.861997 0.799069
0.668940 0.860960 0.800565
0.682185 0.859678 0.802274
0.696590 0.858091 0.804105
0.711574 0.855985 0.805844
0.726802 0.853117 0.807248
0.742000 0.849485 0.808286
0.757015 0.844816 0.808682
0.771786 0.838865 0.808469
0.786831 0.831937 0.807950
0.802548 0.824094 0.807462
0.819150 0.815824 0.807523
0.825925 0.811704 0.807065
0.815824 0.815488 0.803983
0.805173 0.819455 0.798306
0.793851 0.823484 0.789364
0.782132 0.827481 0.776455
0.780850 0.830076 0.766445
0.785000 0.832029 0.754910
0.795560 0.833433 0.742123
0.812833 0.834195 0.727901
0.836667 0.834470 0.712245
0.868345 0.836759 0.699611
0.897978 0.833951 0.696925
0.927520 0.833219 0.714900
0.708248 0.894072 0.837339
0.708492 0.894041 0.837339
0.708919 0.893767 0.837217
0.709865 0.893278 0.836973
0.711482 0.892515 0.836637
0.714107 0.891508 0.836332
0.717708 0.890379 0.836088
0.722683 0.888914 0.835966
0.728908 0.887327 0.835966
0.736294 0.885466 0.836057
0.744778 0.883360 0.836271
0.754208 0.880949 0.836545
0.764431 0.878019 0.836759
0.775051 0.874632 0.836820
