20 Preset/Dark Style/【3】LUT video cho PR-AE-FCPX/19Tones (2)/19Tones - Under Bridge _ d.cube
# Created by Adobe Lightroom plugin Export LUT (1.24.0)
# www.johnrellis.com/lightroom/exportlut.htm
# Preset: 19Tones - Under Bridge / d
# Color profile: E:\lut插件\exportlut.1.24\exportlut.lrplugin\color profiles\Rec709gamma2.4.icc
LUT_3D_SIZE 32
DOMAIN_MIN 0.0 0.0 0.0
DOMAIN_MAX 1.0 1.0 1.0
0.105837 0.187747 0.211307
0.105837 0.187747 0.211307
0.107607 0.187655 0.211307
0.121065 0.186893 0.211276
0.170932 0.183627 0.211215
0.281559 0.173861 0.210269
0.479652 0.120150 0.206241
0.711635 0.000000 0.196292
0.888914 0.000000 0.181003
1.000000 0.000000 0.161563
1.000000 0.000000 0.140047
1.000000 0.000000 0.117342
1.000000 0.000000 0.092287
1.000000 0.000000 0.039734
1.000000 0.107790 0.000000
1.000000 0.172213 0.000000
1.000000 0.212314 0.000000
1.000000 0.243046 0.000000
1.000000 0.269322 0.000000
1.000000 0.293248 0.000000
1.000000 0.311803 0.000000
1.000000 0.325261 0.000000
1.000000 0.335424 0.000000
1.000000 0.342809 0.000000
1.000000 0.347784 0.000000
1.000000 0.351080 0.005829
1.000000 0.353033 0.028443
1.000000 0.353765 0.051850
1.000000 0.353155 0.075044
1.000000 0.351995 0.089204
1.000000 0.349493 0.097169
1.000000 0.345800 0.103792
0.105837 0.187747 0.211307
0.105837 0.187747 0.211307
0.107607 0.187655 0.211307
0.121065 0.186893 0.211276
0.166049 0.185183 0.211215
0.267491 0.178622 0.210269
0.449805 0.141878 0.206638
0.678279 0.000000 0.197330
0.859983 0.000000 0.182193
0.983276 0.000000 0.162905
1.000000 0.000000 0.141573
1.000000 0.000000 0.118929
1.000000 0.000000 0.094026
1.000000 0.000000 0.039124
1.000000 0.124483 0.000000
1.000000 0.180728 0.000000
1.000000 0.217777 0.000000
1.000000 0.246647 0.000000
1.000000 0.272251 0.000000
1.000000 0.295140 0.000000
1.000000 0.311955 0.000000
1.000000 0.324590 0.000000
1.000000 0.334844 0.000000
1.000000 0.342016 0.000000
1.000000 0.346624 0.000000
1.000000 0.350072 0.000000
1.000000 0.352178 0.014557
1.000000 0.352972 0.038575
1.000000 0.352667 0.061921
1.000000 0.351415 0.084016
1.000000 0.348943 0.093690
1.000000 0.345495 0.100649
0.106325 0.188296 0.211887
0.106111 0.188449 0.211887
0.106508 0.188602 0.211856
0.115419 0.189761 0.211765
0.152163 0.191531 0.211460
0.240269 0.192721 0.210147
0.402594 0.181003 0.206180
0.622736 0.116884 0.196567
0.818357 0.000000 0.180209
0.954131 0.000000 0.158358
1.000000 0.000000 0.133974
1.000000 0.000000 0.107881
1.000000 0.089174 0.069764
1.000000 0.155978 0.002594
1.000000 0.196567 0.000000
1.000000 0.226993 0.000000
1.000000 0.252995 0.000000
1.000000 0.272984 0.000000
1.000000 0.293950 0.000000
1.000000 0.312535 0.000000
1.000000 0.326665 0.000000
1.000000 0.337926 0.000000
1.000000 0.345159 0.000000
1.000000 0.351263 0.000000
1.000000 0.355230 0.000000
1.000000 0.357122 0.000000
1.000000 0.358679 0.007111
1.000000 0.359014 0.030854
1.000000 0.358312 0.057191
1.000000 0.356817 0.080598
1.000000 0.354131 0.092622
1.000000 0.350347 0.100404
0.109926 0.190585 0.213901
0.109926 0.190585 0.213901
0.109926 0.190585 0.213901
0.112428 0.191928 0.213718
0.136172 0.195407 0.213230
0.204715 0.206912 0.211032
0.340002 0.215702 0.206363
0.543145 0.210910 0.195834
0.753384 0.190890 0.176242
0.907408 0.187411 0.148959
1.000000 0.201999 0.116609
1.000000 0.224887 0.070771
1.000000 0.246311 0.000000
1.000000 0.264347 0.000000
1.000000 0.279240 0.000000
1.000000 0.294499 0.000000
1.000000 0.307378 0.000000
1.000000 0.319005 0.000000
1.000000 0.332891 0.000000
1.000000 0.344274 0.000000
1.000000 0.353002 0.000000
1.000000 0.359991 0.000000
1.000000 0.365606 0.000000
1.000000 0.369268 0.000000
1.000000 0.371557 0.000000
1.000000 0.373022 0.000000
1.000000 0.373693 0.002075
1.000000 0.372900 0.031312
1.000000 0.371435 0.059205
1.000000 0.369207 0.082277
1.000000 0.365515 0.094179
1.000000 0.361151 0.101534
0.118318 0.196170 0.219059
0.118563 0.196292 0.219181
0.117556 0.195499 0.218540
0.116854 0.195285 0.217807
0.126375 0.199435 0.217136
0.164889 0.205417 0.216312
0.261753 0.224704 0.211673
0.425574 0.254765 0.200046
0.641352 0.271611 0.179385
0.822812 0.291600 0.146273
0.949554 0.314702 0.099123
1.000000 0.333471 0.000000
1.000000 0.347417 0.000000
1.000000 0.356237 0.000000
1.000000 0.363775 0.000000
1.000000 0.368994 0.000000
1.000000 0.374060 0.000000
1.000000 0.378180 0.000000
1.000000 0.384558 0.000000
1.000000 0.389441 0.000000
1.000000 0.393561 0.000000
1.000000 0.396033 0.000000
1.000000 0.397620 0.000000
1.000000 0.398474 0.000000
1.000000 0.398749 0.000000
1.000000 0.397925 0.000000
1.000000 0.396399 0.004486
1.000000 0.394049 0.035462
1.000000 0.391302 0.064485
1.000000 0.387610 0.087984
1.000000 0.382910 0.096407
1.000000 0.377752 0.104433
0.132876 0.205844 0.227970
0.132662 0.205722 0.227848
0.131167 0.204379 0.226749
0.127901 0.202335 0.224887
0.128267 0.203983 0.223850
0.149264 0.213474 0.223331
0.204959 0.222141 0.223301
0.333593 0.250492 0.213779
0.524743 0.294285 0.193698
0.725612 0.352575 0.151034
0.879393 0.392248 0.083131
0.981811 0.420325 0.000000
1.000000 0.436042 0.000000
1.000000 0.443275 0.000000
1.000000 0.446052 0.000000
1.000000 0.445350 0.000000
1.000000 0.444007 0.000000
1.000000 0.444953 0.000000
1.000000 0.445380 0.000000
1.000000 0.444343 0.000000
1.000000 0.443488 0.000000
1.000000 0.441657 0.000000
1.000000 0.457984 0.002594
1.000000 0.454383 0.044587
1.000000 0.450080 0.078950
1.000000 0.445167 0.094270
1.000000 0.440040 0.103182
1.000000 0.434150 0.109865
1.000000 0.428321 0.115694
1.000000 0.421607 0.120333
1.000000 0.414618 0.123507
1.000000 0.406470 0.126192
0.162509 0.225803 0.246403
0.162020 0.225284 0.245945
0.158450 0.223026 0.243839
0.151675 0.218570 0.239719
0.143343 0.212833 0.234440
0.152316 0.221592 0.235386
0.196262 0.242893 0.236881
0.287968 0.263584 0.237461
0.482612 0.310582 0.221897
0.692775 0.377478 0.181003
0.848783 0.453010 0.096773
0.953124 0.514122 0.000000
1.000000 0.532250 0.000000
1.000000 0.536980 0.000000
1.000000 0.534264 0.000000
1.000000 0.528252 0.000000
1.000000 0.524468 0.000000
1.000000 0.521416 0.000000
1.000000 0.516442 0.000000
1.000000 0.511437 0.000000
1.000000 0.506310 0.000000
1.000000 0.501732 0.000000
1.000000 0.497383 0.000000
1.000000 0.492592 0.057649
1.000000 0.486854 0.093782
1.000000 0.480598 0.107118
1.000000 0.473304 0.115084
1.000000 0.465919 0.121096
1.000000 0.458350 0.126497
1.000000 0.449958 0.129610
1.000000 0.441474 0.132815
1.000000 0.432685 0.134127
0.192538 0.245945 0.264897
0.191257 0.245212 0.264225
0.186679 0.242008 0.261357
0.178531 0.236576 0.256260
0.167208 0.228855 0.249180
0.156985 0.222568 0.242527
0.180697 0.241672 0.247501
0.245914 0.275059 0.251347
0.355993 0.304936 0.253239
0.576226 0.364355 0.241978
0.765164 0.439948 0.197726
0.895293 0.511101 0.124941
0.977050 0.563104 0.000000
1.000000 0.592340 0.000000
1.000000 0.594079 0.000000
1.000000 0.593896 0.000000
1.000000 0.589746 0.000000
1.000000 0.582635 0.000000
1.000000 0.574426 0.000000
1.000000 0.565972 0.000000
1.000000 0.558007 0.000000
1.000000 0.550744 0.000000
1.000000 0.543633 0.070558
1.000000 0.536461 0.104494
1.000000 0.528710 0.119966
1.000000 0.520104 0.129702
1.000000 0.511223 0.135988
1.000000 0.501701 0.140505
1.000000 0.492592 0.143832
1.000000 0.483009 0.146181
1.000000 0.473152 0.147463
1.000000 0.462959 0.148196
0.231662 0.272526 0.289525
0.230137 0.271519 0.288701
0.224613 0.267857 0.285191
0.214847 0.261051 0.278904
0.200198 0.251255 0.269810
0.183352 0.239689 0.259159
0.180850 0.240848 0.255802
0.219883 0.270054 0.264164
0.310979 0.318029 0.271397
0.448890 0.363867 0.277989
0.666529 0.431159 0.278996
0.825834 0.507591 0.242008
0.930694 0.568139 0.194125
0.997620 0.610193 0.140993
1.000000 0.641901 0.063661
1.000000 0.653590 0.000000
1.000000 0.648310 0.000000
1.000000 0.640070 0.000000
1.000000 0.630640 0.000000
1.000000 0.620172 0.000000
1.000000 0.610407 0.064729
1.000000 0.601068 0.108919
1.000000 0.591791 0.130831
1.000000 0.582635 0.146548
1.000000 0.572961 0.156924
1.000000 0.562554 0.162417
1.000000 0.551843 0.166445
1.000000 0.541039 0.167697
1.000000 0.530175 0.169039
1.000000 0.519219 0.168887
1.000000 0.508019 0.168399
1.000000 0.496620 0.167697
0.282170 0.306859 0.321904
0.280034 0.305425 0.320531
0.273472 0.300908 0.316258
0.261601 0.292851 0.308629
0.243320 0.280522 0.296941
0.221469 0.265599 0.283207
0.198367 0.249943 0.268620
0.213474 0.265415 0.272923
0.271122 0.306737 0.285374
0.386481 0.369024 0.297276
0.538537 0.428107 0.310369
0.738460 0.502800 0.337438
0.877256 0.580804 0.318090
0.961852 0.633082 0.298222
1.000000 0.664637 0.278691
1.000000 0.683040 0.254795
1.000000 0.694392 0.228550
1.000000 0.693477 0.210391
1.000000 0.684230 0.203861
1.000000 0.673487 0.191745
1.000000 0.662226 0.177432
1.000000 0.650385 0.172366
1.000000 0.638697 0.181552
1.000000 0.627375 0.189059
1.000000 0.615930 0.194034
1.000000 0.603937 0.196597
1.000000 0.592248 0.197787
1.000000 0.580194 0.197513
1.000000 0.568414 0.197116
1.000000 0.556573 0.196078
1.000000 0.544335 0.194095
1.000000 0.532067 0.192111
0.335393 0.343389 0.357000
0.333806 0.342351 0.355993
0.327581 0.337987 0.351751
0.315251 0.329503 0.343603
0.296117 0.316442 0.330999
0.271977 0.299901 0.315312
0.243839 0.280797 0.297307
0.217624 0.263401 0.280583
0.260929 0.301244 0.297307
0.349706 0.362982 0.319280
0.498054 0.448493 0.342779
0.656306 0.526848 0.372412
0.810452 0.594507 0.424079
0.912566 0.652430 0.421088
0.975799 0.687800 0.409186
1.000000 0.708186 0.393957
1.000000 0.720180 0.376043
1.000000 0.726558 0.353552
1.000000 0.729671 0.328130
1.000000 0.722896 0.312322
1.000000 0.711513 0.299535
1.000000 0.699336 0.282750
1.000000 0.686305 0.260716
1.000000 0.672511 0.241428
1.000000 0.659358 0.242191
1.000000 0.646906 0.241672
1.000000 0.634211 0.240024
1.000000 0.621363 0.237827
1.000000 0.608423 0.234409
1.000000 0.595636 0.231510
1.000000 0.582574 0.227207
1.000000 0.569299 0.222843
0.410803 0.396612 0.409033
0.409674 0.395758 0.408240
0.403845 0.391577 0.404150
0.392706 0.383612 0.396277
0.374701 0.370855 0.383764
0.350652 0.354009 0.367346
0.320317 0.332952 0.346960
0.286076 0.309483 0.324437
0.278569 0.308507 0.316960
0.349004 0.366949 0.344060
0.463783 0.447242 0.375341
0.614374 0.543938 0.408911
0.812985 0.705409 0.547814
0.893187 0.743893 0.605524
0.951202 0.771572 0.622156
0.990845 0.785275 0.611414
1.000000 0.791226 0.595300
1.000000 0.792630 0.575189
1.000000 0.791043 0.551324
1.000000 0.787503 0.524163
1.000000 0.782345 0.492775
1.000000 0.769650 0.468727
1.000000 0.754482 0.441382
1.000000 0.737575 0.406958
1.000000 0.719112 0.365576
1.000000 0.700252 0.329564
1.000000 0.684749 0.318303
1.000000 0.669825 0.307713
1.000000 0.655085 0.297704
1.000000 0.640284 0.287938
1.000000 0.625452 0.277775
1.000000 0.610712 0.268620
0.568994 0.521996 0.531762
0.567071 0.520317 0.530144
0.559991 0.514000 0.524010
0.546227 0.501976 0.512383
0.525048 0.484138 0.495033
0.495003 0.459846 0.471290
0.457923 0.431312 0.443214
0.414099 0.398932 0.411383
0.366888 0.365332 0.378393
0.397620 0.397650 0.391119
0.499794 0.484199 0.434852
0.624781 0.584466 0.486519
0.746426 0.680415 0.539300
0.832700 0.739223 0.592554
0.896910 0.770779 0.644404
0.947509 0.795621 0.674159
0.983246 0.806821 0.664607
1.000000 0.811398 0.650385
1.000000 0.812070 0.632380
1.000000 0.809934 0.610742
1.000000 0.806027 0.586084
1.000000 0.800748 0.558312
1.000000 0.793790 0.526146
1.000000 0.779568 0.499916
1.000000 0.763394 0.466804
1.000000 0.744991 0.425330
1.000000 0.724697 0.374884
1.000000 0.707546 0.354467
1.000000 0.692836 0.342931
1.000000 0.678157 0.331670
1.000000 0.663142 0.320073
1.000000 0.647974 0.308690
0.640101 0.590082 0.597040
0.638300 0.588281 0.595331
0.631067 0.580987 0.588373
0.619989 0.569970 0.577813
0.602655 0.553155 0.561730
0.577264 0.529503 0.538994
0.546380 0.502129 0.512535
0.507744 0.470008 0.481209
0.463050 0.435126 0.446967
0.414801 0.399451 0.411902
0.490425 0.472297 0.451728
0.591699 0.564294 0.502190
0.695399 0.655390 0.553338
0.789425 0.732998 0.601099
0.853696 0.775906 0.646357
0.901823 0.796078 0.683345
0.945037 0.816251 0.716609
0.976867 0.825040 0.707301
1.000000 0.829007 0.695460
1.000000 0.829404 0.680018
1.000000 0.827665 0.662257
1.000000 0.824094 0.641291
1.000000 0.818723 0.615930
1.000000 0.811978 0.586328
1.000000 0.802396 0.553185
1.000000 0.786831 0.520592
1.000000 0.769100 0.480476
1.000000 0.748653 0.429297
1.000000 0.729244 0.392737
1.000000 0.714748 0.379980
1.000000 0.699916 0.367010
1.000000 0.684749 0.353674
0.695460 0.649500 0.653529
0.694118 0.648005 0.652094
0.688991 0.642267 0.646693
0.679927 0.632227 0.637140
0.665644 0.616754 0.622461
0.646448 0.596612 0.603265
0.622644 0.572564 0.580316
0.593439 0.544457 0.553368
0.558862 0.513054 0.523125
0.518791 0.478950 0.489967
0.504234 0.472358 0.475410
0.585016 0.556390 0.523339
0.669642 0.640955 0.571466
0.750362 0.716121 0.616236
0.820737 0.773770 0.656733
0.869413 0.804318 0.691524
0.907134 0.818235 0.718166
0.943603 0.834012 0.751369
0.972137 0.841428 0.743404
0.995239 0.844724 0.732998
1.000000 0.845243 0.720302
1.000000 0.843809 0.705470
1.000000 0.840513 0.687465
1.000000 0.835447 0.665431
1.000000 0.828519 0.637934
1.000000 0.819944 0.604334
1.000000 0.807523 0.567773
1.000000 0.790463 0.528679
1.000000 0.770718 0.479194
1.000000 0.750393 0.433631
1.000000 0.735836 0.419501
1.000000 0.721187 0.405310
0.735958 0.696437 0.698085
0.735592 0.696010 0.697688
0.732845 0.692714 0.694575
0.727352 0.686213 0.688380
0.718624 0.675990 0.678676
0.706538 0.662074 0.665461
0.691737 0.645350 0.649622
0.673243 0.625025 0.630304
0.650904 0.601251 0.607691
0.623377 0.573266 0.581018
0.589624 0.540856 0.549920
0.605371 0.566339 0.557244
0.666804 0.639002 0.596826
0.729397 0.705684 0.633814
0.788083 0.759731 0.668116
0.841093 0.801053 0.697444
0.880125 0.823972 0.723690
0.911742 0.835233 0.745052
0.942840 0.847471 0.773159
0.968505 0.854459 0.770809
0.989776 0.857939 0.762783
1.000000 0.858946 0.752865
1.000000 0.857939 0.740688
1.000000 0.855192 0.725704
1.000000 0.850614 0.706844
1.000000 0.844297 0.683284
1.000000 0.836118 0.653681
1.000000 0.825772 0.615595
1.000000 0.810330 0.573938
1.000000 0.790646 0.523827
1.000000 0.769162 0.471656
1.000000 0.754543 0.455634
0.768002 0.735256 0.735042
0.767575 0.734707 0.734554
0.765774 0.732509 0.732448
0.762173 0.728084 0.728237
0.756435 0.721157 0.721614
0.748562 0.711574 0.712490
0.738369 0.699306 0.700832
0.725399 0.683955 0.686213
0.709224 0.665126 0.668360
0.689479 0.642786 0.647181
0.665156 0.616297 0.622004
0.635798 0.585748 0.592920
0.672419 0.638178 0.619013
0.721828 0.699886 0.652430
0.770199 0.751339 0.683345
0.815824 0.792203 0.710018
0.858274 0.823880 0.732784
0.890349 0.842069 0.753658
0.917082 0.851682 0.771359
0.943481 0.860929 0.792813
0.966491 0.867369 0.796048
0.985901 0.870603 0.789334
1.000000 0.871641 0.781003
1.000000 0.870817 0.770535
1.000000 0.868223 0.757412
1.000000 0.864134 0.741268
1.000000 0.858305 0.720790
1.000000 0.850492 0.694392
1.000000 0.840452 0.659968
1.000000 0.827665 0.613947
1.000000 0.807828 0.560998
1.000000 0.785885 0.506645
0.798825 0.773068 0.771420
0.798947 0.773220 0.771572
0.827420 0.807706 0.805112
0.825437 0.805325 0.802792
0.822202 0.801480 0.799008
0.817624 0.795926 0.793606
0.811460 0.788479 0.786343
0.803952 0.779355 0.777493
0.795163 0.768582 0.767086
0.784482 0.755520 0.754482
0.771542 0.739590 0.739223
0.755459 0.719966 0.720485
0.742611 0.707027 0.704494
0.769558 0.750332 0.726101
0.797787 0.786282 0.745113
0.826780 0.815579 0.761746
0.855894 0.839322 0.775906
0.884794 0.858915 0.788235
0.907652 0.870146 0.800015
0.927794 0.876127 0.810666
0.948272 0.881346 0.823606
0.967285 0.885740 0.828397
0.983917 0.887572 0.821469
0.998566 0.887572 0.813107
1.000000 0.885771 0.802487
1.000000 0.882475 0.789517
1.000000 0.877684 0.773434
1.000000 0.871397 0.753506
1.000000 0.863554 0.728908
1.000000 0.853391 0.696437
1.000000 0.840208 0.652003
1.000000 0.822080 0.590173
0.831510 0.812558 0.809873
0.833616 0.815061 0.812345
0.835233 0.816983 0.814206
0.835935 0.817807 0.815000
0.835080 0.816800 0.814054
0.832303 0.813504 0.810788
0.827756 0.808133 0.805539
0.821836 0.801022 0.798550
0.814969 0.792721 0.790463
0.806577 0.782589 0.780606
0.796689 0.770504 0.768917
0.784726 0.755764 0.754726
0.769436 0.736965 0.736721
0.769894 0.743648 0.734340
0.792630 0.778408 0.751614
0.816831 0.807614 0.767147
0.841764 0.831785 0.780941
0.867338 0.852201 0.793362
0.893034 0.869566 0.804593
0.913542 0.879850 0.815457
0.931579 0.885679 0.825315
0.949645 0.890196 0.836240
0.966827 0.894316 0.843595
0.982086 0.895903 0.837278
0.995605 0.895689 0.829343
1.000000 0.893919 0.819516
1.000000 0.890806 0.807645
1.000000 0.886412 0.793179
1.000000 0.880613 0.775387
1.000000 0.873014 0.752621
1.000000 0.863035 0.721981
1.000000 0.849454 0.678218
0.846067 0.829770 0.826841
0.847990 0.832029 0.829068
0.849668 0.833982 0.830991
0.850584 0.835050 0.832059
0.850187 0.834623 0.831632
0.848203 0.832303 0.829343
0.844846 0.828336 0.825406
0.840391 0.823117 0.820249
0.835111 0.816831 0.814084
0.828702 0.809201 0.806577
0.821256 0.800290 0.797848
0.812345 0.789548 0.787411
0.801358 0.776211 0.774472
0.788144 0.759976 0.758755
0.798001 0.779751 0.766018
0.816831 0.806790 0.779385
0.837034 0.829831 0.791562
0.858122 0.849454 0.802609
0.879942 0.866392 0.812741
0.902159 0.881071 0.822110
0.919951 0.889921 0.831205
0.935912 0.895201 0.839841
0.951598 0.898772 0.848539
0.966949 0.902312 0.857237
0.980896 0.903502 0.851102
0.993378 0.903105 0.843534
1.000000 0.901335 0.834348
1.000000 0.898375 0.823301
1.000000 0.894316 0.810269
1.000000 0.888762 0.793851
1.000000 0.881315 0.772274
1.000000 0.871031 0.742031
0.860380 0.846464 0.843351
0.861967 0.848295 0.845212
0.863279 0.849821 0.846677
0.863951 0.850645 0.847532
0.863767 0.850401 0.847288
0.862242 0.848631 0.845518
0.859739 0.845762 0.842649
0.856382 0.841855 0.838773
0.852323 0.837125 0.834073
0.847501 0.831449 0.828489
0.841947 0.824949 0.822049
0.835325 0.817075 0.814328
0.827298 0.807584 0.804959
0.817746 0.796109 0.793790
0.808347 0.785489 0.782467
0.822812 0.810208 0.794095
0.839231 0.832120 0.805386
0.856840 0.851316 0.816037
0.875517 0.868193 0.826200
0.894713 0.883024 0.835813
0.914031 0.895995 0.844724
0.929595 0.904051 0.853239
0.943206 0.908873 0.860868
0.956329 0.911864 0.867918
0.969360 0.914611 0.875517
0.981262 0.915435 0.871397
0.992126 0.914885 0.864683
1.000000 0.913146 0.856626
1.000000 0.910399 0.847074
1.000000 0.906340 0.835142
1.000000 0.900725 0.819730
1.000000 0.892760 0.798459
0.882902 0.872343 0.869200
0.883421 0.872923 0.869780
0.883574 0.873075 0.869963
0.883207 0.872648 0.869535
0.882231 0.871550 0.868437
0.880613 0.869718 0.866575
0.878508 0.867308 0.864164
0.875853 0.864317 0.861143
0.872892 0.860899 0.857755
0.869505 0.857023 0.853880
0.865599 0.852537 0.849424
0.861082 0.847288 0.844175
0.855589 0.840909 0.837858
0.849180 0.833402 0.830411
0.841489 0.824369 0.821500
0.839750 0.825071 0.818235
0.850858 0.842802 0.826322
0.863462 0.858793 0.834134
0.877287 0.873075 0.841581
0.892088 0.885924 0.848753
0.907408 0.897276 0.855406
0.923278 0.907347 0.861631
0.936095 0.913451 0.867582
0.947509 0.916930 0.872953
0.958770 0.918944 0.878019
0.970336 0.920897 0.883818
0.981018 0.921386 0.881468
0.991028 0.920775 0.875212
1.000000 0.919127 0.867674
1.000000 0.916289 0.858457
1.000000 0.912139 0.846677
1.000000 0.906157 0.830930
0.893706 0.884520 0.881468
0.894102 0.884947 0.881926
0.894194 0.885100 0.882048
0.893950 0.884825 0.881773
0.893278 0.884062 0.881010
0.892058 0.882719 0.879637
0.890410 0.880827 0.877745
0.888457 0.878599 0.875517
0.886198 0.876066 0.872953
0.883604 0.873136 0.870024
0.880705 0.869780 0.866667
0.877287 0.865965 0.862821
0.873259 0.861326 0.858183
0.868681 0.856046 0.852903
0.863249 0.849821 0.846708
0.857206 0.842771 0.839689
0.860685 0.850553 0.841703
0.870207 0.864744 0.848203
0.880919 0.877592 0.854520
0.892668 0.889311 0.860594
0.905180 0.899809 0.866361
0.918242 0.909239 0.871794
0.931640 0.917571 0.876707
0.942596 0.922606 0.881468
0.950652 0.922576 0.881193
0.960693 0.924285 0.885313
0.971160 0.925719 0.890043
0.980865 0.925933 0.889097
0.990204 0.925292 0.883116
0.999084 0.923583 0.875822
1.000000 0.920745 0.866789
1.000000 0.916381 0.854795
0.907805 0.900298 0.897459
0.908415 0.900969 0.898100
0.908537 0.901091 0.898253
0.908049 0.900603 0.897734
0.907103 0.899504 0.896635
0.905638 0.897887 0.894987
0.903807 0.895842 0.892912
0.901640 0.893431 0.890471
0.899199 0.890684 0.887724
0.896574 0.887755 0.884733
0.893523 0.884337 0.881285
0.890318 0.880735 0.877653
0.886687 0.876616 0.873503
0.882475 0.871824 0.868681
0.877531 0.866209 0.863035
0.872007 0.859892 0.856748
0.865934 0.852934 0.849760
0.872557 0.864958 0.854582
0.881102 0.876982 0.860044
0.890959 0.888334 0.865690
0.901701 0.898680 0.871214
0.912932 0.907927 0.876280
0.924437 0.915984 0.880644
0.936217 0.922972 0.884306
0.945739 0.926909 0.887602
0.954345 0.928923 0.890532
0.963165 0.930114 0.893523
0.972351 0.930755 0.896757
0.981048 0.930419 0.896452
0.989715 0.929503 0.890318
0.998047 0.927550 0.882841
1.000000 0.924437 0.873503
0.914092 0.907286 0.904509
0.914611 0.907836 0.905119
0.914794 0.908080 0.905333
0.914611 0.907866 0.905119
0.914061 0.907256 0.904479
0.913237 0.906340 0.903563
0.912230 0.905180 0.902403
0.910918 0.903777 0.900969
0.909514 0.902220 0.899382
0.907897 0.900420 0.897551
0.906004 0.898283 0.895384
0.903838 0.895872 0.892943
0.901213 0.892943 0.889982
0.898131 0.889494 0.886503
0.894469 0.885405 0.882353
0.890349 0.880735 0.877653
0.885801 0.875608 0.872496
0.883696 0.874418 0.869566
0.889647 0.884489 0.873625
0.896880 0.894102 0.877989
0.905119 0.903197 0.882353
0.914000 0.911467 0.886534
0.923339 0.918883 0.890288
0.933074 0.925475 0.893584
0.943114 0.931273 0.896361
0.951293 0.934478 0.898955
0.958740 0.936156 0.901305
0.966400 0.937072 0.903716
0.974304 0.937346 0.906035
0.981750 0.936553 0.906188
0.989441 0.935271 0.900023
0.996948 0.932891 0.892302
0.922911 0.917021 0.914458
0.923156 0.917266 0.914702
0.923156 0.917266 0.914702
0.922942 0.917021 0.914458
0.922454 0.916472 0.913909
0.921721 0.915709 0.913115
0.920806 0.914672 0.912078
0.919707 0.913481 0.910857
0.918517 0.912169 0.909483
0.917174 0.910674 0.907988
0.915587 0.908934 0.906218
0.913848 0.907012 0.904265
0.911864 0.904814 0.902007
0.909453 0.902159 0.899321
0.906615 0.898985 0.896117
0.903380 0.895354 0.892424
0.899840 0.891447 0.888457
0.896178 0.887297 0.884276
0.897063 0.890349 0.884276
0.902434 0.898802 0.887724
0.908721 0.906828 0.891264
0.915709 0.914214 0.894682
0.923156 0.920897 0.897734
0.931060 0.926940 0.900450
0.939330 0.932280 0.902739
0.947997 0.937011 0.904601
0.955108 0.939605 0.906432
0.961669 0.940826 0.908080
0.968505 0.941466 0.909880
0.975616 0.941466 0.911589
0.982055 0.940276 0.912078
0.989166 0.938720 0.905760
0.929503 0.924224 0.921813
0.929656 0.924407 0.921996
0.929747 0.924468 0.922087
0.929625 0.924376 0.921965
0.929412 0.924132 0.921721
0.929198 0.923888 0.921477
0.929107 0.923796 0.921386
0.929015 0.923705 0.921263
0.928985 0.923644 0.921233
0.928893 0.923552 0.921141
0.928771 0.923430 0.920989
0.928435 0.923064 0.920623
0.927855 0.922393 0.919951
0.926879 0.921355 0.918883
0.925475 0.919860 0.917327
0.923613 0.917723 0.915190
0.921355 0.915312 0.912718
0.919005 0.912688 0.910063
0.916686 0.910124 0.907439
0.919188 0.915038 0.908965
0.923095 0.920989 0.911254
0.927642 0.926543 0.913420
0.932616 0.931609 0.915373
0.937987 0.936217 0.917082
0.943755 0.940368 0.918517
0.950011 0.944121 0.919646
0.956664 0.947509 0.920562
0.962127 0.949157 0.921477
0.967254 0.949798 0.922271
0.972625 0.949920 0.923125
0.978149 0.949371 0.923583
0.983185 0.947478 0.922606
0.941314 0.937102 0.935027
0.941314 0.937102 0.935027
0.941192 0.936980 0.934874
0.940978 0.936736 0.934630
0.940642 0.936400 0.934264
0.940276 0.935943 0.933837
0.939788 0.935454 0.933318
0.939300 0.934905 0.932738
0.938750 0.934295 0.932158
0.938170 0.933684 0.931487
0.937499 0.932921 0.930755
0.936736 0.932128 0.929900
0.935821 0.931121 0.928862
0.934691 0.929900 0.927642
