20 Preset/Dark Style/【3】LUT video cho PR-AE-FCPX/19Tones (2)/19Tones - Under Bridge _ d.cube
# Created by Adobe Lightroom plugin Export LUT (1.24.0)
# www.johnrellis.com/lightroom/exportlut.htm
# Preset: 19Tones - Under Bridge / d
# Color profile: E:\lut插件\exportlut.1.24\exportlut.lrplugin\color profiles\Rec709gamma2.4.icc
LUT_3D_SIZE 8
DOMAIN_MIN 0.000000 0.000000 0.000000
DOMAIN_MAX 0.903226 0.903226 0.903226
0.105837 0.187747 0.211307
0.170932 0.183627 0.211215
0.888914 0.000000 0.181003
1.000000 0.000000 0.092287
1.000000 0.212314 0.000000
1.000000 0.311803 0.000000
1.000000 0.347784 0.000000
1.000000 0.353155 0.075044
0.118318 0.196170 0.219059
0.126375 0.199435 0.217136
0.641352 0.271611 0.179385
1.000000 0.347417 0.000000
1.000000 0.374060 0.000000
1.000000 0.393561 0.000000
1.000000 0.398749 0.000000
1.000000 0.391302 0.064485
0.231662 0.272526 0.289525
0.200198 0.251255 0.269810
0.310979 0.318029 0.271397
0.930694 0.568139 0.194125
1.000000 0.648310 0.000000
1.000000 0.610407 0.064729
1.000000 0.572961 0.156924
1.000000 0.530175 0.169039
0.568994 0.521996 0.531762
0.525048 0.484138 0.495033
0.366888 0.365332 0.378393
0.746426 0.680415 0.539300
0.983246 0.806821 0.664607
1.000000 0.806027 0.586084
1.000000 0.763394 0.466804
1.000000 0.692836 0.342931
0.768002 0.735256 0.735042
0.756435 0.721157 0.721614
0.709224 0.665126 0.668360
0.672419 0.638178 0.619013
0.858274 0.823880 0.732784
0.966491 0.867369 0.796048
1.000000 0.868223 0.757412
1.000000 0.840452 0.659968
0.860380 0.846464 0.843351
0.863767 0.850401 0.847288
0.852323 0.837125 0.834073
0.827298 0.807584 0.804959
0.839231 0.832120 0.805386
0.914031 0.895995 0.844724
0.969360 0.914611 0.875517
1.000000 0.910399 0.847074
0.914092 0.907286 0.904509
0.914061 0.907256 0.904479
0.909514 0.902220 0.899382
0.901213 0.892943 0.889982
0.885801 0.875608 0.872496
0.905119 0.903197 0.882353
0.943114 0.931273 0.896361
0.974304 0.937346 0.906035
0.946960 0.943206 0.941283
0.946563 0.942779 0.940856
0.945312 0.941436 0.939452
0.943206 0.939147 0.937102
0.931548 0.926452 0.924102
0.927916 0.923552 0.919585
0.942199 0.941314 0.925780
0.962219 0.953033 0.927489
0.089357 0.193271 0.224521
0.114290 0.193301 0.216587
0.790158 0.000000 0.205570
1.000000 0.152377 0.124971
1.000000 0.329870 0.000000
1.000000 0.368444 0.000000
1.000000 0.375891 0.000000
1.000000 0.367559 0.027985
0.113222 0.203464 0.220188
0.142550 0.212680 0.233555
0.623896 0.250797 0.214054
1.000000 0.356359 0.107027
1.000000 0.418555 0.000000
1.000000 0.433021 0.000000
1.000000 0.420935 0.000000
1.000000 0.402625 0.022400
0.296117 0.316442 0.330999
0.265415 0.295445 0.311040
0.336400 0.339605 0.301213
0.914183 0.573175 0.280583
1.000000 0.641352 0.223331
1.000000 0.612696 0.193301
1.000000 0.572015 0.110140
1.000000 0.529839 0.146365
0.556237 0.510704 0.520836
0.515923 0.476631 0.487709
0.364202 0.363470 0.376593
0.678309 0.610132 0.486580
0.967010 0.769436 0.608209
1.000000 0.786709 0.553094
1.000000 0.755306 0.472145
1.000000 0.686458 0.314580
0.767605 0.734737 0.734585
0.753597 0.717647 0.718288
0.697536 0.651850 0.655756
0.625330 0.586572 0.575128
0.836545 0.797360 0.698695
0.960418 0.855650 0.780026
1.000000 0.862760 0.750057
1.000000 0.840665 0.667201
0.853544 0.838560 0.835508
0.850980 0.835508 0.832517
0.838407 0.820737 0.817899
0.811398 0.788388 0.786282
0.823575 0.814359 0.787076
0.908934 0.890379 0.838376
0.967193 0.911986 0.873045
1.000000 0.909026 0.845884
0.908659 0.901274 0.898436
0.906554 0.898894 0.895995
0.901122 0.892851 0.889891
0.892668 0.883360 0.880308
0.878386 0.867185 0.864042
0.898589 0.896300 0.874723
0.938750 0.926207 0.889464
0.972351 0.933410 0.900542
0.944030 0.940032 0.938048
0.944335 0.940368 0.938384
0.942870 0.938781 0.936736
0.940703 0.936461 0.934356
0.936278 0.931609 0.929381
0.929992 0.925536 0.921996
0.942138 0.941253 0.926024
0.962127 0.953063 0.927947
0.000000 0.281865 0.447089
0.000000 0.262516 0.402991
0.330236 0.339879 0.353613
1.000000 0.295048 0.713313
1.000000 0.339635 0.440070
1.000000 0.511833 0.462806
1.000000 0.519402 0.406958
1.000000 0.446815 0.238346
0.000000 0.340551 0.501183
0.000000 0.333501 0.476783
0.445075 0.421637 0.433753
1.000000 0.318181 0.586664
1.000000 0.477302 0.477485
1.000000 0.560327 0.483558
1.000000 0.545434 0.415381
1.000000 0.476204 0.257542
0.433021 0.487098 0.436622
0.532525 0.504784 0.500847
0.528588 0.490547 0.493355
0.936645 0.687373 0.569268
1.000000 0.725734 0.611658
1.000000 0.717891 0.599695
1.000000 0.684504 0.545068
1.000000 0.606348 0.399298
0.717494 0.674708 0.677455
0.718959 0.676387 0.679072
0.642847 0.592920 0.599725
0.738491 0.692042 0.623957
0.954437 0.828611 0.747860
1.000000 0.843259 0.730983
1.000000 0.822202 0.705867
1.000000 0.769009 0.617273
0.818357 0.796750 0.794430
0.816312 0.794339 0.792050
0.781979 0.752407 0.751522
0.679530 0.631800 0.636744
0.851499 0.825040 0.762966
0.956603 0.880247 0.830014
1.000000 0.887541 0.813962
1.000000 0.874113 0.770016
0.875151 0.863493 0.860349
0.873259 0.861326 0.858183
0.861387 0.847684 0.844572
0.834501 0.816129 0.813382
0.826444 0.814908 0.796506
0.909758 0.894377 0.852720
0.965972 0.920378 0.889921
1.000000 0.920989 0.872679
0.920500 0.914366 0.911772
0.918791 0.912444 0.909789
0.913085 0.906157 0.903410
0.903868 0.895903 0.892973
0.889220 0.879484 0.876402
0.903868 0.901335 0.884123
0.942779 0.932433 0.902647
0.973480 0.941466 0.915831
0.949035 0.945464 0.943633
0.948333 0.944701 0.942809
0.946838 0.943053 0.941131
0.945647 0.941802 0.939818
0.941314 0.937102 0.934997
0.935027 0.930236 0.927977
0.946197 0.945312 0.932586
0.964385 0.956542 0.935149
0.000000 0.488777 0.793240
0.000000 0.488991 0.789731
0.503624 0.572839 0.721523
0.752285 0.716091 0.716762
0.964660 0.795743 0.896452
1.000000 0.749996 0.827573
1.000000 0.750362 0.768551
1.000000 0.727047 0.720912
0.000000 0.560571 0.820310
0.000000 0.562310 0.813779
0.581506 0.637720 0.764340
0.786374 0.757809 0.756710
0.975921 0.807004 0.897246
1.000000 0.767025 0.818814
1.000000 0.767269 0.777157
1.000000 0.742733 0.731380
0.000000 0.758877 0.804013
0.000000 0.743648 0.807004
0.601587 0.717098 0.808042
0.836637 0.818662 0.815854
1.000000 0.824918 0.855558
1.000000 0.837034 0.836942
1.000000 0.842161 0.830900
1.000000 0.812680 0.790188
0.790585 0.820096 0.778134
0.808927 0.821561 0.792081
0.846220 0.829953 0.827024
0.810391 0.789487 0.782498
0.945708 0.875700 0.843076
1.000000 0.884886 0.850370
1.000000 0.880491 0.846952
1.000000 0.860807 0.822629
0.872953 0.860960 0.857847
0.872038 0.859922 0.856748
0.870542 0.858213 0.855070
0.839994 0.822599 0.819760
0.875273 0.862058 0.836851
0.956420 0.911650 0.885588
0.996155 0.918822 0.880797
1.000000 0.909575 0.864561
0.903807 0.895842 0.892912
0.907195 0.899626 0.896757
0.906249 0.898589 0.895689
0.891814 0.882383 0.879332
0.857877 0.844327 0.840146
0.920134 0.910430 0.885954
0.967315 0.936217 0.916594
0.995819 0.938384 0.907988
0.932494 0.927489 0.925139
0.933165 0.928222 0.925902
0.934539 0.929717 0.927459
0.928099 0.922698 0.920226
0.916014 0.909422 0.906706
0.916777 0.913756 0.903624
0.948638 0.941222 0.920531
0.975067 0.951507 0.934508
0.957275 0.954345 0.952758
0.957671 0.954772 0.953216
0.957946 0.955047 0.953491
0.955657 0.952575 0.950927
0.951507 0.948119 0.946349
0.945556 0.941680 0.939727
0.952300 0.951354 0.942229
0.968200 0.962219 0.946441
0.000000 0.635462 0.916197
0.000000 0.646662 0.914031
0.492134 0.708614 0.893431
0.843107 0.834531 0.846006
0.878325 0.867124 0.863951
0.939117 0.899718 0.925017
1.000000 0.871855 0.927123
1.000000 0.870146 0.895964
0.000000 0.682368 0.918944
0.000000 0.694911 0.916899
0.587793 0.749264 0.899107
0.850706 0.845212 0.859251
0.886351 0.876249 0.873136
0.946838 0.901152 0.930205
1.000000 0.877012 0.925811
1.000000 0.876432 0.896696
0.000000 0.745235 0.922026
0.203220 0.759731 0.918761
0.690639 0.812467 0.906828
0.864988 0.868437 0.888975
0.903258 0.895262 0.892332
0.967651 0.901183 0.935912
1.000000 0.890684 0.916777
1.000000 0.887724 0.896391
0.539391 0.915862 0.893919
0.585290 0.912108 0.894469
0.718685 0.899809 0.897887
0.849302 0.881376 0.904326
0.922576 0.916625 0.914031
0.991608 0.913237 0.917601
1.000000 0.915618 0.914702
1.000000 0.909270 0.905303
0.882048 0.900664 0.876921
0.888365 0.901946 0.881834
0.907439 0.906371 0.897978
0.915251 0.908568 0.905852
0.894896 0.886839 0.881651
0.956817 0.927428 0.913298
0.988922 0.933562 0.916320
1.000000 0.929137 0.912230
0.916503 0.909941 0.907225
0.916960 0.910430 0.907744
0.916503 0.909941 0.907256
0.915984 0.909331 0.906645
0.898009 0.889342 0.886351
0.923125 0.916747 0.903563
0.968780 0.946380 0.933288
0.991516 0.949981 0.930419
0.938903 0.934478 0.932311
0.938598 0.934112 0.931975
0.938628 0.934173 0.931975
0.941375 0.937133 0.935058
0.935729 0.931060 0.928801
0.921141 0.915770 0.912078
0.951080 0.945678 0.931609
0.976196 0.957427 0.945617
0.954101 0.950927 0.949248
0.954528 0.951354 0.949676
0.956329 0.953338 0.951720
0.961700 0.959106 0.957671
0.960204 0.957519 0.956023
0.954864 0.951751 0.950103
0.956023 0.954772 0.948882
0.970367 0.965667 0.953887
0.000000 0.739162 0.957305
0.242924 0.750271 0.954986
0.599573 0.791897 0.943053
0.811948 0.855009 0.923186
0.912963 0.906035 0.903227
0.922728 0.916838 0.914275
0.943267 0.939239 0.937194
0.995483 0.923644 0.958892
0.279118 0.760464 0.953124
0.395453 0.768673 0.950744
0.633478 0.803922 0.940551
0.816861 0.858732 0.923339
0.912871 0.905913 0.903166
0.922576 0.916625 0.914031
0.944182 0.937957 0.938201
0.996246 0.923033 0.957794
0.616907 0.833890 0.952148
0.657435 0.840696 0.950347
0.752438 0.859251 0.944762
0.850370 0.885496 0.933074
0.926879 0.921355 0.918853
0.934020 0.929168 0.926879
0.956878 0.941558 0.950103
0.997528 0.931914 0.957946
0.602716 0.881163 0.951293
0.633173 0.879301 0.950896
0.746059 0.880613 0.949737
0.884001 0.915984 0.944579
0.938079 0.937255 0.941100
0.950286 0.946777 0.944976
0.975525 0.949554 0.962219
0.998993 0.946319 0.958160
0.795773 0.947631 0.923796
0.804623 0.947112 0.924834
0.836515 0.945830 0.929534
0.880217 0.944091 0.936767
0.922240 0.936339 0.941283
0.956512 0.949065 0.950561
0.988281 0.950317 0.951812
0.999481 0.951202 0.951202
0.921996 0.937224 0.920195
0.925628 0.938598 0.923278
0.933989 0.940246 0.929717
0.945617 0.943725 0.940002
0.948058 0.944396 0.942504
0.940673 0.936889 0.933715
0.974121 0.959075 0.951904
0.990204 0.961181 0.952911
0.952392 0.949065 0.947326
0.953155 0.949889 0.948180
0.954253 0.951080 0.949401
0.955993 0.952941 0.951324
0.957733 0.954833 0.953246
0.952270 0.948943 0.947204
0.960082 0.957031 0.950439
0.980224 0.968017 0.960967
0.959258 0.956481 0.954955
0.959258 0.956481 0.954986
0.960296 0.957549 0.956085
0.962982 0.960479 0.959075
0.966796 0.964569 0.963317
0.967254 0.965026 0.963806
0.962676 0.960632 0.958526
0.974182 0.971099 0.963958
0.432746 0.792142 0.971832
0.496803 0.800565 0.970306
0.648859 0.827298 0.963317
0.793301 0.866941 0.951751
0.889860 0.904448 0.936126
0.932891 0.927947 0.925628
0.940154 0.935851 0.933715
0.952819 0.949523 0.947784
0.505730 0.805844 0.969207
0.554437 0.813626 0.967956
0.673976 0.836088 0.961791
0.798703 0.869902 0.950988
0.889921 0.904723 0.936156
0.932494 0.927520 0.925170
0.939025 0.934600 0.932433
0.951598 0.948211 0.946471
0.685237 0.857053 0.966705
0.702602 0.860319 0.965698
0.759854 0.872129 0.961486
0.835904 0.892485 0.954070
0.902556 0.916594 0.943450
0.941222 0.936950 0.934874
0.947417 0.943725 0.941802
0.958282 0.955383 0.953857
0.703792 0.878782 0.969482
0.729274 0.883482 0.968048
0.811093 0.902129 0.963500
0.875212 0.919097 0.959045
0.920134 0.933471 0.953796
0.954070 0.950896 0.949218
0.958465 0.955627 0.954070
0.967498 0.961913 0.963775
0.747158 0.934325 0.960418
0.755489 0.933165 0.960235
0.793973 0.930114 0.960449
0.849729 0.925536 0.961852
0.924163 0.942443 0.959075
0.957183 0.955993 0.957427
0.964599 0.962219 0.960876
0.979126 0.965423 0.972137
0.861662 0.963836 0.942565
0.865660 0.963836 0.943481
0.879789 0.963684 0.946746
0.901610 0.963836 0.952483
0.925597 0.963897 0.959167
0.952605 0.960021 0.963714
0.971862 0.969146 0.968811
0.988159 0.969909 0.971557
0.942535 0.959472 0.944366
0.944060 0.959930 0.945525
0.948760 0.960967 0.948913
0.956939 0.963134 0.955169
0.966033 0.966003 0.962829
0.970367 0.968383 0.967254
0.968292 0.966369 0.964721
0.983276 0.974792 0.970886
0.965667 0.963317 0.962036
0.966003 0.963714 0.962432
0.967681 0.965515 0.964294
0.969970 0.967956 0.966796
0.972595 0.970794 0.969757
0.975494 0.973877 0.972930
0.976043 0.974456 0.973541
0.979095 0.977356 0.974212
0.542351 0.821012 0.981415
0.573877 0.826230 0.980346
0.664637 0.843351 0.975586
0.774716 0.871763 0.967620
0.862089 0.901274 0.956847
0.923857 0.928283 0.943145
0.945403 0.941527 0.939544
0.951171 0.947753 0.945953
0.583734 0.830900 0.979950
0.609705 0.835569 0.978973
0.687343 0.851102 0.974701
0.783902 0.876158 0.967254
0.865141 0.903349 0.957092
0.924498 0.929107 0.944060
0.945800 0.941955 0.940002
0.951171 0.947753 0.945983
0.698177 0.865293 0.977081
0.711116 0.867948 0.976349
0.754849 0.877348 0.973236
0.821683 0.895628 0.967987
0.881529 0.914946 0.960082
0.930144 0.935271 0.949706
0.950988 0.947570 0.945769
0.955657 0.952575 0.950958
0.770962 0.895781 0.976135
0.789181 0.900542 0.975280
0.821073 0.908080 0.973053
0.860685 0.918090 0.969696
0.902739 0.930846 0.964813
0.939788 0.945556 0.958618
0.959747 0.957000 0.955474
0.963317 0.960845 0.959442
0.639521 0.882353 0.982971
0.673274 0.887541 0.981964
0.761532 0.903258 0.978302
0.864134 0.928496 0.973053
0.916533 0.943664 0.969390
0.946136 0.953674 0.965972
0.967224 0.965026 0.963775
0.970459 0.968505 0.967376
0.775051 0.957794 0.970001
0.780331 0.957031 0.970031
0.804074 0.954467 0.970397
0.845365 0.950713 0.971557
0.891997 0.946563 0.973693
0.951476 0.962341 0.972656
0.973236 0.972290 0.972808
0.977630 0.976135 0.975280
0.886107 0.976959 0.957000
0.888609 0.976898 0.957580
0.898528 0.976776 0.960082
0.916045 0.976898 0.964691
0.935485 0.977417 0.970367
0.953918 0.976959 0.975006
0.972351 0.975433 0.977813
0.981140 0.979889 0.979156
0.949523 0.971435 0.955474
0.950408 0.971527 0.956054
0.954406 0.972259 0.958709
0.961547 0.973846 0.963653
0.969726 0.975982 0.969604
0.977142 0.978393 0.975525
0.981994 0.980804 0.980133
0.982910 0.981842 0.981079
