20 Preset/Dark Style/【3】LUT video cho PR-AE-FCPX/19Tones (2)/19Tones - Under Bridge _ d.cube
# Created by Adobe Lightroom plugin Export LUT (1.24.0)
# www.johnrellis.com/lightroom/exportlut.htm
# Preset: 19Tones - Under Bridge / d
# Color profile: E:\lut插件\exportlut.1.24\exportlut.lrplugin\color profiles\Rec709gamma2.4.icc
LUT_3D_SIZE 5
DOMAIN_MIN 0.000000 0.000000 0.000000
DOMAIN_MAX 0.903226 0.903226 0.903226
0.105837 0.187747 0.211307
0.711635 0.000000 0.196292
1.000000 0.107790 0.000000
1.000000 0.325261 0.000000
1.000000 0.353155 0.075044
0.192538 0.245945 0.264897
0.245914 0.275059 0.251347
1.000000 0.594079 0.000000
1.000000 0.550744 0.000000
1.000000 0.492592 0.143832
0.695460 0.649500 0.653529
0.593439 0.544457 0.553368
0.820737 0.773770 0.656733
1.000000 0.843809 0.705470
1.000000 0.770718 0.479194
0.882902 0.872343 0.869200
0.875853 0.864317 0.861143
0.841489 0.824369 0.821500
0.923278 0.907347 0.861631
1.000000 0.919127 0.867674
0.946960 0.943206 0.941283
0.945678 0.941833 0.939879
0.933989 0.929137 0.926848
0.930968 0.928557 0.921447
0.962219 0.953033 0.927489
0.000000 0.238987 0.342809
0.221592 0.265690 0.283177
1.000000 0.000000 0.324468
1.000000 0.446998 0.306798
1.000000 0.406165 0.051667
0.301579 0.377203 0.344610
0.406165 0.396033 0.402289
1.000000 0.628077 0.461769
1.000000 0.624048 0.437354
1.000000 0.527153 0.214359
0.748623 0.711696 0.712581
0.687892 0.641047 0.645502
0.789853 0.745937 0.656703
1.000000 0.854948 0.753323
1.000000 0.818723 0.668757
0.894530 0.885466 0.882444
0.888518 0.878691 0.875578
0.855253 0.840513 0.837461
0.923461 0.909819 0.871489
0.996155 0.926482 0.884154
0.950683 0.947204 0.945403
0.949248 0.945678 0.943847
0.944335 0.940368 0.938384
0.938018 0.935393 0.930114
0.965270 0.957580 0.936522
0.000000 0.572686 0.874510
0.152407 0.615930 0.851408
0.832334 0.813535 0.810819
1.000000 0.833188 0.907439
1.000000 0.818936 0.832639
0.000000 0.686519 0.889372
0.543053 0.740017 0.872801
0.872099 0.860014 0.856870
1.000000 0.855375 0.890501
1.000000 0.848295 0.849851
0.844266 0.868162 0.836637
0.876219 0.873503 0.862791
0.860166 0.847684 0.841398
0.982422 0.913512 0.889250
1.000000 0.904814 0.881102
0.919646 0.913390 0.910735
0.918029 0.911620 0.908965
0.906889 0.899290 0.896422
0.930510 0.923125 0.904845
0.988434 0.945678 0.922820
0.954528 0.951385 0.949706
0.956725 0.953735 0.952148
0.956573 0.953613 0.951995
0.946532 0.942718 0.940795
0.968322 0.962768 0.948333
0.000000 0.747402 0.959899
0.530846 0.784146 0.951171
0.864805 0.881743 0.920073
0.925841 0.920226 0.917723
0.982757 0.930083 0.960906
0.575250 0.819821 0.955200
0.688655 0.839139 0.949401
0.879850 0.896300 0.928832
0.932891 0.927947 0.925628
0.986114 0.933928 0.961456
0.661067 0.916655 0.943572
0.728786 0.911437 0.943603
0.896849 0.921263 0.942473
0.949828 0.946288 0.944457
0.995331 0.949035 0.959503
0.930480 0.945464 0.929656
0.936248 0.946014 0.933684
0.954345 0.951537 0.949493
0.948425 0.945220 0.942443
0.987640 0.964355 0.956817
0.960998 0.958343 0.956878
0.962188 0.959625 0.958190
0.966949 0.964721 0.963470
0.970397 0.968444 0.967315
0.975311 0.972625 0.966522
0.542351 0.821012 0.981415
0.637812 0.837736 0.977111
0.822019 0.886839 0.962554
0.936065 0.934813 0.939239
0.951171 0.947753 0.945953
0.672053 0.856474 0.977844
0.723140 0.867124 0.974762
0.845182 0.900481 0.963684
0.939391 0.939239 0.945006
0.954803 0.951690 0.950011
0.719661 0.888914 0.979370
0.792355 0.905150 0.975769
0.891478 0.931579 0.968841
0.949401 0.952270 0.960479
0.966674 0.964446 0.963195
0.809537 0.969360 0.968536
0.827329 0.967254 0.969024
0.885344 0.961151 0.971649
0.958526 0.966522 0.974029
0.978546 0.977111 0.976287
0.949523 0.971435 0.955474
0.953063 0.971984 0.957794
0.965667 0.974884 0.966613
0.978729 0.979004 0.976898
0.982910 0.981842 0.981079
