20 Preset/Dark Style/【3】LUT video cho PR-AE-FCPX/19Tones (2)/19Tones -Denis x Villa _ d.cube
# Created by Adobe Lightroom plugin Export LUT (1.24.0)
# www.johnrellis.com/lightroom/exportlut.htm
# Preset: 19Tones -Denis x Villa / d
# Color profile: E:\lut插件\exportlut.1.24\exportlut.lrplugin\color profiles\Rec709gamma2.4.icc
LUT_3D_SIZE 8
DOMAIN_MIN 0.000000 0.000000 0.000000
DOMAIN_MAX 0.903226 0.903226 0.903226
0.105837 0.187747 0.211307
0.110750 0.187625 0.211429
0.139010 0.188235 0.211734
0.206302 0.188724 0.211704
0.336797 0.185306 0.210147
0.602808 0.143679 0.201480
0.852567 0.057984 0.180636
1.000000 0.157198 0.149386
0.105562 0.189670 0.212650
0.107424 0.189578 0.212497
0.125338 0.191226 0.212558
0.179782 0.193637 0.212497
0.289067 0.195743 0.211460
0.511528 0.182254 0.205203
0.773922 0.140566 0.188022
0.985718 0.177371 0.155581
0.103365 0.203189 0.221744
0.111757 0.201022 0.221347
0.119112 0.200717 0.218997
0.158602 0.203494 0.217014
0.228702 0.213107 0.215976
0.412909 0.227787 0.210819
0.722408 0.240330 0.190921
0.965332 0.293919 0.151247
0.042542 0.263401 0.261082
0.097597 0.257450 0.258762
0.166506 0.239628 0.255741
0.170230 0.250950 0.245762
0.274205 0.251438 0.234226
0.365545 0.262882 0.226017
0.555474 0.291997 0.213382
0.857939 0.367407 0.174716
0.000000 0.406531 0.356909
0.000000 0.398322 0.353277
0.181338 0.370642 0.345281
0.303502 0.332952 0.341833
0.272953 0.352026 0.297002
0.427375 0.327733 0.263249
0.556054 0.348058 0.242985
0.726741 0.399542 0.221225
0.000000 0.625086 0.531731
0.000000 0.631952 0.540887
0.279973 0.606897 0.532341
0.456916 0.554498 0.521386
0.501946 0.516991 0.498970
0.479316 0.538689 0.416266
0.676661 0.514763 0.349401
0.822385 0.549004 0.324437
0.477394 0.813535 0.726375
0.494606 0.812619 0.727901
0.538476 0.799680 0.723293
0.617884 0.774319 0.718196
0.714199 0.726406 0.710079
0.693538 0.722744 0.683345
0.692012 0.740047 0.612085
0.837308 0.730495 0.537591
0.752682 0.910979 0.861387
0.755764 0.909972 0.861204
0.770260 0.906401 0.861479
0.798581 0.899779 0.863005
0.818357 0.875883 0.850065
0.869017 0.857633 0.854124
0.842741 0.871611 0.840726
0.851774 0.880308 0.810239
0.104463 0.188510 0.212528
0.106416 0.188602 0.211978
0.136141 0.188113 0.212284
0.185092 0.191043 0.212711
0.287175 0.193362 0.211398
0.492103 0.180697 0.206027
0.750118 0.129122 0.190738
0.967773 0.141421 0.160739
0.102693 0.190524 0.213321
0.109102 0.190188 0.213565
0.126650 0.191836 0.213626
0.174105 0.194583 0.213626
0.269139 0.198642 0.212436
0.452827 0.195468 0.207492
0.702846 0.163943 0.194003
0.935790 0.167605 0.165164
0.101503 0.204562 0.222690
0.110750 0.202945 0.222568
0.121096 0.201663 0.220706
0.158328 0.204379 0.218784
0.224643 0.212528 0.217533
0.378454 0.224063 0.213230
0.624353 0.230930 0.199496
0.903868 0.265385 0.164736
0.058076 0.254459 0.255436
0.097414 0.250187 0.253910
0.156497 0.236210 0.251743
0.160647 0.240146 0.242161
0.241245 0.239475 0.232425
0.319158 0.249393 0.226291
0.488594 0.272740 0.217044
0.786160 0.329564 0.185611
0.000000 0.399908 0.352331
0.000000 0.390356 0.347601
0.167361 0.361364 0.337316
0.288670 0.318151 0.329870
0.253452 0.332219 0.288975
0.394568 0.313207 0.260533
0.518090 0.332189 0.243046
0.684230 0.375708 0.223423
0.000000 0.607324 0.515801
0.000000 0.602411 0.514061
0.230381 0.579492 0.506645
0.421607 0.532708 0.498695
0.482948 0.495979 0.481971
0.464515 0.524102 0.408759
0.658930 0.499641 0.344335
0.801114 0.529442 0.315709
0.435187 0.800931 0.709987
0.442451 0.795834 0.706294
0.491890 0.781704 0.700618
0.583856 0.756710 0.696895
0.694820 0.712184 0.694057
0.679072 0.705959 0.667811
0.671565 0.719661 0.589899
0.819852 0.706355 0.510155
0.735317 0.905943 0.853361
0.741665 0.905943 0.854704
0.756527 0.902007 0.854643
0.786923 0.895171 0.856352
0.825864 0.882414 0.857237
0.870237 0.860899 0.856748
0.842008 0.870176 0.839811
0.850034 0.878538 0.808194
0.100618 0.191043 0.217319
0.104738 0.190738 0.216312
0.113069 0.192691 0.215915
0.192599 0.190280 0.218601
0.364294 0.172061 0.216983
0.579034 0.142275 0.211734
0.800900 0.100191 0.195407
0.983764 0.175357 0.161593
0.098299 0.194095 0.220310
0.105196 0.193820 0.219547
0.117556 0.195499 0.218540
0.208988 0.190005 0.219699
0.338476 0.187289 0.218479
0.535302 0.173068 0.213687
0.761959 0.144259 0.198398
0.959838 0.192508 0.165408
0.063172 0.211185 0.228153
0.082673 0.211795 0.228275
0.134707 0.207370 0.229374
0.173587 0.212131 0.226963
0.282231 0.220737 0.225711
0.462959 0.225742 0.220310
0.702419 0.226291 0.205142
0.925048 0.270115 0.171206
0.000000 0.277012 0.268284
0.000000 0.275731 0.269139
0.150851 0.262577 0.268437
0.182773 0.255528 0.259098
0.270115 0.255192 0.245792
0.353643 0.262791 0.236393
0.573816 0.289982 0.224247
0.845518 0.347723 0.192844
0.000000 0.429633 0.372137
0.000000 0.425055 0.371954
0.142275 0.400702 0.364782
0.318639 0.350805 0.357061
0.290867 0.359075 0.317296
0.429419 0.335180 0.279942
0.546014 0.347509 0.256687
0.703243 0.386816 0.234531
0.000000 0.631861 0.537774
0.000000 0.628717 0.537774
0.222904 0.606165 0.528679
0.416144 0.559075 0.516381
0.518700 0.506157 0.503288
0.483497 0.534051 0.432807
0.671717 0.509606 0.369299
0.809842 0.541314 0.337743
0.458717 0.816526 0.728054
0.465919 0.812345 0.725124
0.506218 0.797879 0.717617
0.587732 0.772519 0.710597
0.692226 0.729854 0.705409
0.701991 0.716091 0.687434
0.691371 0.734646 0.618891
0.834562 0.725002 0.548333
0.736629 0.910277 0.857786
0.738491 0.908812 0.856870
0.752834 0.904814 0.856443
0.786099 0.899443 0.859739
0.824216 0.886992 0.860258
0.869780 0.868070 0.861479
0.850553 0.874266 0.848081
0.855711 0.882383 0.817319
0.083040 0.197787 0.230594
0.091005 0.197421 0.230014
0.114199 0.198245 0.225589
0.132265 0.205234 0.227451
0.263615 0.208347 0.240513
0.663783 0.000000 0.234409
0.894896 0.000000 0.221378
1.000000 0.000000 0.200259
0.069581 0.203525 0.237613
0.086091 0.202853 0.236423
0.117403 0.202304 0.230930
0.139315 0.209995 0.231876
0.294591 0.207675 0.243595
0.690059 0.000000 0.236149
0.877043 0.000000 0.222751
1.000000 0.000000 0.201236
0.000000 0.222690 0.252445
0.000000 0.222477 0.252445
0.114168 0.220981 0.250980
0.167666 0.229129 0.249454
0.420264 0.194491 0.252903
0.644434 0.162509 0.245518
0.847013 0.167941 0.232761
1.000000 0.228275 0.208164
0.000000 0.302373 0.293095
0.000000 0.302861 0.292546
0.000000 0.304967 0.293462
0.236393 0.277348 0.293400
0.304021 0.277195 0.272160
0.456794 0.287175 0.261662
0.697353 0.305058 0.248295
0.921050 0.352728 0.223819
0.000000 0.495003 0.416083
0.000000 0.488685 0.413184
0.000000 0.470161 0.410407
0.321843 0.429877 0.409583
0.363806 0.404334 0.376654
0.490364 0.378271 0.325017
0.595789 0.376928 0.287449
0.791318 0.425666 0.261906
0.000000 0.689296 0.579126
0.000000 0.695247 0.588190
0.159945 0.676875 0.587671
0.442969 0.638117 0.580957
0.601404 0.564569 0.568200
0.545220 0.574792 0.498787
0.707973 0.539727 0.426520
0.825986 0.562707 0.378332
0.383429 0.838529 0.742306
0.418585 0.837156 0.744320
0.526818 0.828550 0.749844
0.613519 0.809689 0.747524
0.704036 0.774411 0.741054
0.748257 0.742611 0.728756
0.719478 0.754330 0.662379
0.849149 0.740871 0.595605
0.727321 0.922087 0.866819
0.734768 0.921080 0.867430
0.763058 0.917205 0.870085
0.788937 0.910216 0.869780
0.824247 0.898161 0.869017
0.867491 0.880156 0.869078
0.863523 0.879728 0.860227
0.865324 0.888975 0.832547
0.000000 0.215457 0.265537
0.000000 0.215091 0.264988
0.072389 0.213077 0.258488
0.151675 0.220676 0.245243
0.179080 0.236759 0.256443
0.357763 0.271275 0.300603
0.832700 0.000000 0.290959
1.000000 0.000000 0.282780
0.000000 0.223728 0.276188
0.000000 0.223117 0.275486
0.062318 0.219852 0.267704
0.157259 0.225620 0.251713
0.188907 0.243381 0.262577
0.389807 0.270909 0.304326
0.849271 0.000000 0.294530
1.000000 0.000000 0.286015
0.000000 0.253758 0.308476
0.000000 0.252964 0.307500
0.000000 0.248997 0.301061
0.176242 0.247288 0.280919
0.226932 0.269322 0.286656
0.498116 0.259831 0.312627
0.901305 0.000000 0.305241
1.000000 0.000000 0.289982
0.000000 0.323339 0.353918
0.000000 0.322667 0.353552
0.000000 0.321386 0.353368
0.165560 0.316533 0.352331
0.332494 0.340063 0.353979
0.704280 0.264439 0.346227
0.869688 0.274540 0.326482
1.000000 0.304509 0.303868
0.000000 0.505394 0.450355
0.000000 0.508385 0.451545
0.000000 0.515892 0.452735
0.000000 0.503349 0.451789
0.456275 0.433631 0.443915
0.520928 0.409613 0.377935
0.671901 0.406470 0.336522
0.899809 0.452125 0.320592
0.000000 0.711269 0.590753
0.000000 0.708949 0.590478
0.000000 0.691707 0.584039
0.209262 0.662074 0.582300
0.545678 0.610651 0.582910
0.587701 0.593072 0.552697
0.719265 0.564324 0.478828
0.824002 0.560021 0.406073
0.000000 0.861265 0.746883
0.000000 0.858091 0.745724
0.246708 0.847898 0.745693
0.529839 0.832517 0.755978
0.681514 0.804410 0.759060
0.780240 0.753902 0.751858
0.735683 0.760220 0.692958
0.854795 0.731777 0.621210
0.601923 0.931701 0.855467
0.615595 0.930327 0.856138
0.667689 0.925200 0.859556
0.754971 0.919371 0.870878
0.810117 0.908141 0.873686
0.855406 0.890806 0.872801
0.873289 0.879332 0.867582
0.865721 0.886870 0.836698
0.000000 0.261295 0.353979
0.000000 0.260136 0.352575
0.000000 0.253574 0.340490
0.095979 0.250889 0.319554
0.238621 0.277226 0.293950
0.283299 0.307713 0.322637
0.458015 0.429389 0.441566
0.957885 0.317662 0.449928
0.000000 0.267124 0.358587
0.000000 0.265202 0.355962
0.000000 0.258457 0.344549
0.096284 0.254856 0.324193
0.240604 0.278477 0.295140
0.285222 0.308965 0.323857
0.475624 0.419257 0.434882
0.958190 0.305730 0.443275
0.000000 0.316075 0.416114
0.000000 0.314488 0.414160
0.000000 0.304234 0.402289
0.074525 0.289494 0.371069
0.291447 0.313268 0.328099
0.341772 0.347814 0.361364
0.602808 0.426581 0.456428
0.991577 0.332830 0.464851
0.000000 0.402319 0.489662
0.000000 0.399390 0.487282
0.000000 0.393500 0.485634
0.000000 0.393500 0.482185
0.380163 0.393835 0.436988
0.476722 0.445624 0.457282
0.793515 0.462715 0.512871
1.000000 0.406561 0.516686
0.000000 0.532280 0.552575
0.000000 0.531426 0.551720
0.000000 0.528893 0.550256
0.000000 0.525170 0.549706
0.375219 0.509178 0.543725
0.628229 0.528985 0.543938
0.907683 0.492714 0.538720
1.000000 0.496803 0.512596
0.000000 0.739040 0.652277
0.000000 0.743984 0.656214
0.000000 0.745663 0.655848
0.000000 0.748013 0.655848
0.404883 0.718563 0.655207
0.694240 0.652583 0.654749
0.749874 0.608637 0.556725
0.891508 0.601068 0.493629
0.000000 0.898863 0.775204
0.000000 0.898344 0.777096
0.000000 0.891295 0.778622
0.283970 0.876616 0.782650
0.612879 0.853086 0.790860
0.770504 0.816190 0.792416
0.780758 0.790982 0.755947
0.869474 0.759396 0.681819
0.398352 0.952239 0.858427
0.418952 0.950713 0.858305
0.506004 0.945739 0.860746
0.633204 0.937682 0.868009
0.756924 0.925353 0.877623
0.841825 0.908995 0.883146
0.893370 0.885100 0.881743
0.874144 0.890745 0.851987
0.000000 0.346868 0.508232
0.000000 0.346746 0.509270
0.000000 0.335790 0.494820
0.000000 0.323430 0.469520
0.213535 0.328344 0.422461
0.376196 0.371923 0.384863
0.441688 0.419165 0.431281
0.623316 0.573236 0.580957
0.000000 0.347723 0.503502
0.000000 0.348119 0.505364
0.000000 0.337591 0.492073
0.000000 0.323125 0.464363
0.208438 0.325658 0.418128
0.366217 0.364874 0.377935
0.425391 0.407141 0.419440
0.601556 0.552148 0.560754
0.000000 0.400366 0.558618
0.000000 0.397314 0.555810
0.000000 0.383246 0.540795
0.000000 0.364294 0.513085
0.227390 0.358831 0.463661
0.418372 0.402075 0.414496
0.487770 0.454200 0.465675
0.654688 0.605188 0.611444
0.000000 0.487495 0.630579
0.000000 0.483314 0.626612
0.000000 0.473915 0.617792
0.000000 0.458412 0.601801
0.268437 0.439673 0.560021
0.529290 0.487617 0.498421
0.591211 0.542321 0.551354
0.761898 0.651057 0.661952
0.000000 0.593683 0.679744
0.000000 0.588403 0.675532
0.000000 0.577417 0.669306
0.000000 0.561395 0.664424
0.263920 0.552544 0.652064
0.587091 0.559075 0.599207
0.669093 0.620447 0.625971
0.887633 0.676539 0.697688
0.000000 0.743282 0.742092
0.000000 0.743221 0.742397
0.000000 0.740627 0.741787
0.000000 0.733974 0.740352
0.000000 0.718532 0.736110
0.600610 0.701686 0.732662
0.789090 0.739467 0.740932
0.979583 0.728298 0.749935
0.000000 0.895445 0.807797
0.000000 0.896056 0.808927
0.000000 0.894469 0.808957
0.000000 0.890959 0.810391
0.340429 0.883940 0.812558
0.681209 0.865049 0.820035
0.836149 0.820493 0.816770
0.872557 0.766598 0.717220
0.000000 0.977600 0.864439
0.000000 0.976532 0.865293
0.000000 0.972290 0.870085
0.413642 0.962860 0.876799
0.640833 0.949737 0.885252
0.788785 0.934661 0.894621
0.883604 0.913481 0.898894
0.890623 0.900511 0.877317
0.000000 0.484535 0.706325
0.000000 0.483650 0.706325
0.000000 0.469001 0.692348
0.000000 0.453407 0.673854
0.000000 0.443122 0.636469
0.452918 0.475685 0.567468
0.577844 0.530022 0.539483
0.635431 0.585382 0.592554
0.000000 0.484047 0.701289
0.000000 0.483314 0.701686
0.000000 0.471290 0.690852
0.000000 0.453956 0.670863
0.000000 0.442664 0.634241
0.446448 0.472877 0.566644
0.571557 0.524315 0.533989
0.627436 0.577295 0.584833
0.000000 0.516991 0.722530
0.000000 0.514763 0.721187
0.000000 0.501518 0.710231
0.000000 0.489754 0.699336
0.000000 0.473091 0.662348
0.459480 0.493721 0.595850
0.597894 0.548638 0.557427
0.650477 0.600793 0.607263
0.000000 0.578759 0.758602
0.000000 0.578637 0.758846
0.000000 0.569177 0.752377
0.000000 0.551720 0.740017
0.000000 0.533043 0.712825
0.492012 0.545525 0.659510
0.654810 0.605341 0.611536
0.701503 0.656336 0.659998
0.000000 0.650996 0.792966
0.000000 0.650111 0.793545
0.000000 0.639918 0.788540
0.000000 0.629786 0.782803
0.000000 0.614069 0.765988
0.500603 0.606928 0.727749
0.712947 0.669459 0.672450
0.757748 0.722683 0.723079
0.000000 0.763516 0.829770
0.000000 0.760555 0.828000
0.000000 0.750698 0.823575
0.000000 0.735103 0.819059
0.000000 0.710567 0.814420
0.511833 0.717525 0.808774
0.773190 0.758633 0.780575
0.827726 0.808042 0.805447
0.000000 0.894896 0.878538
0.000000 0.894133 0.878264
0.000000 0.890929 0.877470
0.000000 0.885069 0.877134
0.000000 0.871763 0.874174
0.454994 0.852079 0.868437
0.758999 0.832822 0.858579
0.875395 0.863767 0.860624
0.000000 0.978241 0.900175
0.000000 0.977447 0.899931
0.000000 0.974548 0.899840
0.000000 0.969024 0.900969
0.366918 0.959991 0.902861
0.659388 0.950256 0.906249
0.823545 0.941985 0.913268
0.920165 0.915343 0.912139
