20 Preset/Dark Style/【3】LUT video cho PR-AE-FCPX/19Tones (2)/19Tones - Bridge and Train _ d.cube
# Created by Adobe Lightroom plugin Export LUT (1.24.0)
# www.johnrellis.com/lightroom/exportlut.htm
# Preset: 19Tones - Bridge and Train / d
# Color profile: E:\lut插件\exportlut.1.24\exportlut.lrplugin\color profiles\Rec709gamma2.4.icc
LUT_3D_SIZE 8
DOMAIN_MIN 0.000000 0.000000 0.000000
DOMAIN_MAX 0.903226 0.903226 0.903226
0.105837 0.187747 0.211307
0.116732 0.187289 0.211398
0.190829 0.184390 0.211582
0.348760 0.169162 0.209995
0.644190 0.000000 0.200687
0.969238 0.000000 0.168734
1.000000 0.000000 0.132540
1.000000 0.000000 0.112612
0.111025 0.191379 0.214572
0.114168 0.194308 0.213169
0.255558 0.206210 0.210788
0.473976 0.183688 0.204837
0.750088 0.057740 0.189151
0.983673 0.000000 0.155337
1.000000 0.083223 0.123781
1.000000 0.137209 0.104280
0.175662 0.234440 0.254368
0.172519 0.237064 0.255192
0.241703 0.284031 0.216983
0.805661 0.393866 0.152987
1.000000 0.574640 0.000000
1.000000 0.503380 0.000000
1.000000 0.459174 0.049714
1.000000 0.415534 0.097597
0.502861 0.466102 0.477394
0.498573 0.462684 0.474037
0.341283 0.532982 0.429206
0.706416 0.659907 0.225437
1.000000 0.603998 0.234073
1.000000 0.760494 0.478309
1.000000 0.765957 0.516747
1.000000 0.678004 0.394354
0.735866 0.696345 0.697993
0.735134 0.695460 0.697139
0.720729 0.710506 0.700374
0.589990 0.784726 0.609918
0.850278 0.816800 0.420783
1.000000 0.647700 0.338506
1.000000 0.784146 0.568658
1.000000 0.856962 0.720394
0.835142 0.816892 0.814145
0.841672 0.824613 0.821714
0.843168 0.826352 0.823453
0.804868 0.846433 0.813779
0.760555 0.876249 0.745510
0.910552 0.890227 0.630732
1.000000 0.718074 0.486915
1.000000 0.829465 0.689052
0.890623 0.881041 0.877958
0.891600 0.882200 0.879118
0.891508 0.882048 0.878965
0.886778 0.885466 0.879332
0.847929 0.901488 0.860258
0.839658 0.919524 0.816800
0.939391 0.928191 0.747372
1.000000 0.820768 0.647333
0.925109 0.919402 0.916899
0.925109 0.919402 0.916899
0.925566 0.919890 0.917418
0.926879 0.921355 0.918883
0.907378 0.922210 0.910155
0.881071 0.937407 0.892485
0.891966 0.950591 0.870329
0.960601 0.956359 0.835386
0.101534 0.189609 0.215091
0.108339 0.189792 0.213107
0.169558 0.185061 0.213870
0.330114 0.177340 0.211551
0.658045 0.052979 0.198550
0.935760 0.000000 0.168856
1.000000 0.000000 0.138979
1.000000 0.000000 0.117800
0.109773 0.191287 0.215091
0.119051 0.194217 0.216434
0.222049 0.200229 0.215518
0.452674 0.191592 0.208499
0.768978 0.134768 0.185855
0.979614 0.131930 0.149630
1.000000 0.139315 0.125521
1.000000 0.140841 0.108248
0.181827 0.238651 0.258244
0.184390 0.240452 0.259922
0.244236 0.278996 0.227848
0.768307 0.386236 0.189456
1.000000 0.542351 0.089387
1.000000 0.493843 0.000000
1.000000 0.441596 0.000000
1.000000 0.399176 0.047791
0.434363 0.413764 0.425940
0.434730 0.414069 0.426215
0.332494 0.473030 0.405402
0.619348 0.570275 0.234775
0.995789 0.557305 0.224399
1.000000 0.730587 0.415106
1.000000 0.734798 0.428992
1.000000 0.651850 0.329137
0.724361 0.682704 0.685054
0.721187 0.678981 0.681514
0.711452 0.684443 0.681086
0.559075 0.754421 0.583154
0.825406 0.786343 0.386633
1.000000 0.632929 0.333135
1.000000 0.772457 0.544396
1.000000 0.846464 0.694392
0.825101 0.804929 0.802396
0.825925 0.805905 0.803342
0.828397 0.808865 0.806241
0.793088 0.831693 0.800198
0.746883 0.865843 0.731807
0.905486 0.883482 0.622797
1.000000 0.716396 0.491951
1.000000 0.821103 0.670130
0.883879 0.873442 0.870298
0.882780 0.872190 0.869078
0.882444 0.871794 0.868681
0.880278 0.875914 0.870512
0.842191 0.895262 0.854276
0.832425 0.914183 0.809110
0.934752 0.922057 0.733028
1.000000 0.803861 0.611139
0.921630 0.915587 0.912993
0.922393 0.916442 0.913848
0.922728 0.916808 0.914244
0.924254 0.918456 0.915923
0.912688 0.925566 0.914763
0.884764 0.938354 0.895720
0.890929 0.949950 0.868650
0.960601 0.955627 0.832853
0.013977 0.200046 0.250431
0.094972 0.193118 0.247135
0.143679 0.213077 0.234745
0.344457 0.202701 0.270939
0.342382 0.156924 0.220188
0.759701 0.000000 0.207767
1.000000 0.000000 0.177523
1.000000 0.000000 0.138582
0.024506 0.208255 0.256107
0.103792 0.202243 0.254643
0.167056 0.228733 0.249088
0.337499 0.189914 0.253452
0.424506 0.139254 0.218692
0.840116 0.000000 0.205020
1.000000 0.000000 0.172732
1.000000 0.127382 0.133120
0.193729 0.250309 0.271641
0.218631 0.263767 0.281376
0.306950 0.290837 0.289647
0.735317 0.393988 0.312535
0.948547 0.392126 0.265629
1.000000 0.389776 0.223514
1.000000 0.390936 0.188418
1.000000 0.391119 0.148135
0.531182 0.489235 0.499947
0.541253 0.497719 0.508263
0.546929 0.521386 0.523308
0.691279 0.615534 0.374548
0.990448 0.680262 0.497932
1.000000 0.821683 0.688960
1.000000 0.751431 0.568872
1.000000 0.667750 0.422431
0.749355 0.712520 0.713405
0.749783 0.713039 0.713893
0.755001 0.719356 0.719905
0.664210 0.772213 0.673732
0.846952 0.805020 0.527977
1.000000 0.712856 0.532097
1.000000 0.830808 0.706569
1.000000 0.873869 0.768276
0.834989 0.816739 0.813993
0.836362 0.818326 0.815549
0.838163 0.820462 0.817655
0.820096 0.833616 0.816739
0.770901 0.864775 0.762142
0.905516 0.882719 0.677882
1.000000 0.762112 0.608362
1.000000 0.848661 0.738979
0.891752 0.882322 0.879271
0.890959 0.881437 0.878386
0.889799 0.880125 0.877073
0.890593 0.881010 0.877928
0.858579 0.896757 0.866545
0.846006 0.915679 0.828824
0.937438 0.925292 0.772213
1.000000 0.815000 0.668391
0.925170 0.919463 0.916960
0.924804 0.919066 0.916533
0.925048 0.919371 0.916838
0.927459 0.921996 0.919524
0.920439 0.926970 0.919554
0.895750 0.939788 0.905028
0.897185 0.951293 0.877287
0.963806 0.956298 0.833677
0.000000 0.223392 0.365789
0.000000 0.208286 0.371679
0.247471 0.239841 0.354467
0.327398 0.337926 0.351720
0.644770 0.545342 0.570611
0.788693 0.000000 0.346654
0.670863 0.000000 0.230747
1.000000 0.000000 0.202121
0.000000 0.232639 0.388922
0.000000 0.222568 0.392645
0.286259 0.267124 0.388281
0.377813 0.373083 0.385962
0.702815 0.503471 0.564660
0.755398 0.000000 0.318456
0.616907 0.000000 0.220157
1.000000 0.000000 0.201633
0.000000 0.349950 0.405676
0.000000 0.346868 0.419715
0.304265 0.335119 0.454444
0.532372 0.490181 0.500908
0.718593 0.242435 0.401282
0.645930 0.000000 0.234012
1.000000 0.000000 0.235111
1.000000 0.000000 0.224216
0.503075 0.481331 0.505455
0.535088 0.498817 0.515038
0.618280 0.568231 0.576226
0.732784 0.610285 0.574487
0.934417 0.787625 0.728603
1.000000 0.727108 0.645808
1.000000 0.667109 0.562829
1.000000 0.607996 0.475776
0.788540 0.760525 0.759304
0.791470 0.764065 0.762722
0.795621 0.769192 0.767636
0.788632 0.792996 0.776730
0.868284 0.824491 0.691218
0.982361 0.831601 0.767575
1.000000 0.898009 0.847318
1.000000 0.884764 0.823453
0.860136 0.846189 0.843107
0.864897 0.851743 0.848600
0.865049 0.851896 0.848783
0.868772 0.856199 0.853056
0.827512 0.878050 0.825254
0.912688 0.890623 0.769070
1.000000 0.839475 0.768093
1.000000 0.897642 0.841489
0.902068 0.893889 0.890959
0.902586 0.894530 0.891600
0.903563 0.895567 0.892638
0.905425 0.897642 0.894743
0.891325 0.905791 0.891936
0.871733 0.921324 0.863249
0.941253 0.929412 0.821469
1.000000 0.845762 0.765682
0.933837 0.928985 0.926665
0.933806 0.928923 0.926635
0.933928 0.929046 0.926757
0.934752 0.929931 0.927672
0.935302 0.931060 0.928649
0.913542 0.942077 0.919768
0.909422 0.953399 0.896635
0.966735 0.958862 0.861021
0.000000 0.270268 0.604089
0.000000 0.247623 0.612787
0.209873 0.251164 0.615167
0.611627 0.494514 0.599023
0.659968 0.610803 0.616754
0.802640 0.777737 0.775937
0.962036 0.537407 0.676997
1.000000 0.000000 0.436042
0.000000 0.280217 0.622095
0.000000 0.267063 0.632654
0.240238 0.283207 0.641444
0.639368 0.527398 0.623438
0.683894 0.636561 0.641291
0.812192 0.789395 0.787228
0.967987 0.504265 0.658015
1.000000 0.000000 0.412207
0.000000 0.415930 0.644221
0.000000 0.405585 0.651637
0.176608 0.376440 0.675105
0.701961 0.608637 0.688869
0.735378 0.695796 0.697475
0.837400 0.779995 0.789425
0.969635 0.287266 0.535637
0.977691 0.000000 0.307927
0.000000 0.561456 0.635340
0.000000 0.569940 0.639796
0.000000 0.610224 0.660578
0.722072 0.677607 0.742550
0.811734 0.788785 0.786679
0.889128 0.454017 0.566217
0.865721 0.000000 0.276280
1.000000 0.000000 0.285039
0.726986 0.704494 0.719020
0.740902 0.715389 0.725704
0.780728 0.750881 0.750027
0.818753 0.797330 0.794949
0.862547 0.802426 0.777279
0.952941 0.896666 0.872343
0.989441 0.860044 0.826444
1.000000 0.810422 0.762783
0.849912 0.834287 0.831266
0.852262 0.837003 0.833982
0.858518 0.844297 0.841215
0.863828 0.850523 0.847379
0.856046 0.864225 0.849546
0.911650 0.885985 0.816739
0.983093 0.894560 0.861601
1.000000 0.932891 0.903532
0.908721 0.901335 0.898497
0.908019 0.900542 0.897673
0.907164 0.899596 0.896696
0.909667 0.902403 0.899565
0.913329 0.906401 0.903655
0.888334 0.920317 0.886137
0.941466 0.928374 0.854063
1.000000 0.887114 0.841428
0.935943 0.931243 0.929015
0.935851 0.931121 0.928893
0.935821 0.931121 0.928893
0.938781 0.934325 0.932158
0.940246 0.935943 0.933837
0.931090 0.942046 0.932372
0.919219 0.953246 0.913329
0.966735 0.958740 0.884977
0.000000 0.341833 0.811032
0.000000 0.321508 0.814237
0.000000 0.306249 0.812375
0.652766 0.486122 0.803098
0.805905 0.781704 0.779782
0.818631 0.797147 0.794827
0.871641 0.859495 0.856321
0.929992 0.848631 0.867552
0.000000 0.339788 0.799435
0.000000 0.326940 0.800748
0.000000 0.323735 0.803555
0.650385 0.498054 0.798703
0.802853 0.777646 0.776242
0.815122 0.792905 0.790677
0.870054 0.857664 0.854520
0.931884 0.837064 0.859739
0.000000 0.475196 0.815793
0.000000 0.467445 0.818021
0.138918 0.453254 0.827024
0.686397 0.594690 0.820584
0.831510 0.808591 0.810483
0.838315 0.820645 0.817807
0.885313 0.875090 0.871946
0.948882 0.810147 0.844419
0.000000 0.660456 0.806088
0.000000 0.656947 0.809232
0.301579 0.651667 0.824735
0.706203 0.705043 0.846494
0.870573 0.851377 0.857145
0.879179 0.868101 0.864958
0.910826 0.892638 0.893004
0.986389 0.726955 0.789761
0.000000 0.717678 0.787533
0.000000 0.721920 0.788907
0.330999 0.741665 0.796231
0.563226 0.783352 0.812894
0.860563 0.843656 0.857816
0.893645 0.884520 0.881437
0.940551 0.698939 0.745480
1.000000 0.000000 0.405066
0.824491 0.819272 0.826780
0.831937 0.825681 0.831601
0.848875 0.838376 0.839353
0.870603 0.858244 0.855100
0.889616 0.879911 0.876860
0.915282 0.885649 0.871672
0.971771 0.941802 0.929290
0.993561 0.916075 0.898344
0.908934 0.901549 0.898711
0.910674 0.903471 0.900664
0.914031 0.907195 0.904448
0.920470 0.914336 0.911711
0.925933 0.920348 0.917845
0.922332 0.926055 0.918791
0.947723 0.934508 0.896117
0.990936 0.935515 0.915984
0.942321 0.938170 0.936126
0.942290 0.938140 0.936095
0.943755 0.939727 0.937713
0.945739 0.941894 0.939910
0.946471 0.942687 0.940734
0.948791 0.945190 0.943328
0.934630 0.955169 0.934142
0.968658 0.960998 0.914458
0.000000 0.418097 0.893462
0.000000 0.407813 0.895415
0.000000 0.369879 0.896025
0.601007 0.502251 0.886259
0.817838 0.720089 0.864195
0.862333 0.848753 0.845640
0.869627 0.857176 0.854032
0.898222 0.889616 0.886595
0.000000 0.397009 0.887419
0.000000 0.391913 0.889738
0.000000 0.377966 0.890349
0.594659 0.507713 0.881437
0.813870 0.717739 0.860746
0.859434 0.845396 0.842283
0.865171 0.852018 0.848905
0.894347 0.885252 0.882231
0.000000 0.503990 0.890776
0.000000 0.499916 0.891325
0.000000 0.491432 0.891722
0.621576 0.583642 0.885557
0.825681 0.754818 0.869657
0.874113 0.862272 0.859129
0.880400 0.869474 0.866331
0.907622 0.900114 0.897246
0.000000 0.658289 0.886503
0.000000 0.653498 0.886259
0.327489 0.647242 0.888029
0.639582 0.679774 0.890715
0.839567 0.800931 0.884886
0.897063 0.888273 0.885283
0.901122 0.892821 0.889860
0.923095 0.917205 0.914641
0.000000 0.782132 0.852934
0.000000 0.777371 0.853696
0.000000 0.766140 0.861692
0.594720 0.773373 0.876829
0.815030 0.814755 0.889555
0.909789 0.900298 0.900145
0.915831 0.909178 0.906462
0.936950 0.932372 0.930144
0.485420 0.803403 0.860563
0.502007 0.805966 0.861326
0.559594 0.815335 0.863615
0.644678 0.833097 0.868650
0.735470 0.858732 0.877043
0.910155 0.901671 0.910582
0.934936 0.930144 0.927886
0.957153 0.855741 0.872221
0.874113 0.879759 0.887938
0.876921 0.881834 0.889372
0.885313 0.887419 0.892760
0.900816 0.898497 0.899992
0.919524 0.913329 0.910674
0.933135 0.928222 0.925902
0.948547 0.932341 0.924193
0.981994 0.961852 0.954437
0.938048 0.933562 0.931365
0.938689 0.934203 0.932036
0.941711 0.937530 0.935424
0.945922 0.942107 0.940154
0.951659 0.948302 0.946502
0.957580 0.954681 0.953094
0.957397 0.958221 0.955077
0.972076 0.964935 0.941802
0.000000 0.512413 0.942138
0.000000 0.508049 0.942626
0.000000 0.489937 0.941405
0.512718 0.537957 0.935393
0.777584 0.690333 0.917082
0.879088 0.823941 0.894072
0.894774 0.885710 0.882689
0.900237 0.891905 0.888914
0.000000 0.502953 0.939788
0.000000 0.499092 0.940368
0.000000 0.483497 0.939666
0.523766 0.537255 0.933013
0.779294 0.691554 0.914794
0.878782 0.824643 0.893919
0.894499 0.885435 0.882414
0.899351 0.890867 0.887877
0.000000 0.529839 0.937926
0.000000 0.528283 0.937987
0.000000 0.525719 0.936645
0.562737 0.587976 0.932158
0.787472 0.725032 0.916503
0.883665 0.836728 0.899413
0.901640 0.893431 0.890471
0.905669 0.897917 0.895048
0.000000 0.643977 0.932219
0.000000 0.643793 0.932555
0.292546 0.643061 0.932158
0.581598 0.668147 0.930266
0.790829 0.765042 0.920592
0.891722 0.855955 0.910185
0.914824 0.908110 0.905364
0.918120 0.911742 0.909056
0.000000 0.764218 0.920348
0.000000 0.764736 0.921080
0.190707 0.754971 0.922454
0.558556 0.754971 0.924468
0.763363 0.789761 0.923705
0.890715 0.867277 0.919310
0.927703 0.922240 0.919768
0.931579 0.926482 0.924163
0.000000 0.851896 0.905425
0.000000 0.852018 0.904692
0.000000 0.853666 0.902190
0.000000 0.841306 0.907866
0.705196 0.844968 0.917784
0.871855 0.876493 0.928923
0.944091 0.937835 0.938781
0.950317 0.946838 0.945006
0.664179 0.872160 0.918090
0.668635 0.872923 0.918120
0.687465 0.876555 0.918456
0.725032 0.885039 0.920226
0.772122 0.897642 0.923308
0.819120 0.913176 0.927337
0.941772 0.938140 0.946960
0.961517 0.958892 0.957458
0.906096 0.919829 0.930053
0.906981 0.920287 0.930236
0.911772 0.923003 0.931701
0.921721 0.929168 0.935454
0.934966 0.937835 0.940948
0.950164 0.948669 0.948455
0.962768 0.960204 0.958801
0.972656 0.965484 0.961730
