20 Preset/Dark Style/【3】LUT video cho PR-AE-FCPX/19Tones (2)/19Tones - Bar London _ d.cube
# Created by Adobe Lightroom plugin Export LUT (1.24.0)
# www.johnrellis.com/lightroom/exportlut.htm
# Preset: 19Tones - Bar London / d
# Color profile: E:\lut插件\exportlut.1.24\exportlut.lrplugin\color profiles\Rec709gamma2.4.icc
LUT_3D_SIZE 5
DOMAIN_MIN 0.000000 0.000000 0.000000
DOMAIN_MAX 0.903226 0.903226 0.903226
0.027497 0.157229 0.182712
0.193606 0.135836 0.168154
0.920897 0.000000 0.202884
1.000000 0.468574 0.394934
1.000000 0.653071 0.599756
0.093050 0.179904 0.204105
0.085389 0.175479 0.199832
0.821988 0.373785 0.093172
1.000000 0.554406 0.332494
1.000000 0.680842 0.585962
0.596918 0.547692 0.556481
0.538048 0.495033 0.505638
0.584405 0.536034 0.545251
0.966735 0.749874 0.588190
1.000000 0.770565 0.550988
0.843931 0.827237 0.824338
0.837675 0.819852 0.817044
0.808255 0.784573 0.782559
0.829343 0.809964 0.807340
0.940337 0.880919 0.846006
0.930114 0.924895 0.922515
0.929107 0.923796 0.921386
0.916503 0.909972 0.907256
0.913329 0.906462 0.903685
0.925658 0.920012 0.917510
0.000000 0.156558 0.208621
0.044068 0.162570 0.187808
0.842252 0.155001 0.370672
1.000000 0.519646 0.501640
1.000000 0.647425 0.591852
0.000000 0.222324 0.242161
0.214755 0.260960 0.278813
0.804135 0.387304 0.352636
1.000000 0.590021 0.501915
1.000000 0.684749 0.605554
0.611536 0.561669 0.569909
0.617365 0.567315 0.575341
0.581415 0.533257 0.542626
0.956909 0.750057 0.608667
1.000000 0.799008 0.667445
0.853666 0.838682 0.835630
0.852842 0.837736 0.834684
0.824918 0.804746 0.802182
0.836332 0.818265 0.815488
0.943511 0.886870 0.854063
0.933288 0.928405 0.926055
0.931975 0.926940 0.924590
0.928252 0.922881 0.920409
0.921477 0.915435 0.912840
0.933196 0.928252 0.925933
0.000000 0.424262 0.616449
0.196384 0.445197 0.605554
0.604211 0.554650 0.563195
0.909178 0.781399 0.850462
1.000000 0.836454 0.857725
0.000000 0.538750 0.693629
0.386908 0.557519 0.685969
0.687770 0.640925 0.645380
0.925933 0.798642 0.853239
1.000000 0.849790 0.859434
0.589837 0.717861 0.713680
0.649561 0.727565 0.723384
0.796414 0.770169 0.768612
0.940429 0.840085 0.821164
1.000000 0.873289 0.855467
0.873198 0.861234 0.858091
0.872099 0.860014 0.856870
0.879789 0.868803 0.865660
0.867399 0.854582 0.851438
0.957397 0.907591 0.880797
0.931518 0.926452 0.924102
0.933806 0.928954 0.926665
0.938476 0.934051 0.931853
0.929412 0.924132 0.921721
0.937255 0.932708 0.930480
0.511681 0.727352 0.875914
0.593347 0.742824 0.872648
0.774746 0.798520 0.855955
0.860868 0.847044 0.843961
0.915251 0.908568 0.905852
0.627619 0.775326 0.883238
0.672541 0.783688 0.880186
0.796536 0.819242 0.867124
0.868986 0.856413 0.853300
0.920867 0.909728 0.911833
0.649287 0.821530 0.888670
0.684871 0.824277 0.888914
0.831174 0.860014 0.889494
0.894194 0.885100 0.882048
0.950408 0.921080 0.934356
0.845701 0.895140 0.890593
0.852995 0.895689 0.891203
0.883757 0.902922 0.898833
0.920165 0.913970 0.911315
0.972534 0.936248 0.929320
0.938811 0.934386 0.932219
0.940215 0.935882 0.933776
0.946105 0.942260 0.940337
0.954040 0.950835 0.949157
0.950408 0.946899 0.945098
0.755978 0.852659 0.935454
0.771847 0.856168 0.933593
0.827115 0.871794 0.927214
0.893004 0.897154 0.914427
0.919646 0.913420 0.910765
0.779904 0.864714 0.936370
0.792752 0.867552 0.934936
0.838132 0.879637 0.929381
0.896544 0.901183 0.918059
0.922728 0.916838 0.914275
0.806790 0.887510 0.942992
0.828000 0.893462 0.941985
0.866972 0.903258 0.938659
0.909270 0.916075 0.931579
0.936736 0.932158 0.929931
0.820951 0.914427 0.944030
0.828244 0.914946 0.944213
0.860533 0.919646 0.946960
0.926726 0.938811 0.950683
0.958556 0.955718 0.954192
0.908354 0.948943 0.946319
0.912474 0.949859 0.947326
0.929625 0.954864 0.952605
0.952239 0.962341 0.960540
0.971862 0.970001 0.968933
