20 Preset/Dark Style/【3】LUT video cho PR-AE-FCPX/19Tones (2)/19Tones - Bridge x Sunset _ d.cube
# Created by Adobe Lightroom plugin Export LUT (1.24.0)
# www.johnrellis.com/lightroom/exportlut.htm
# Preset: 19Tones - Bridge x Sunset / d
# Color profile: E:\lut插件\exportlut.1.24\exportlut.lrplugin\color profiles\Rec709gamma2.4.icc
LUT_3D_SIZE 32
DOMAIN_MIN 0.0 0.0 0.0
DOMAIN_MAX 1.0 1.0 1.0
0.105837 0.187747 0.211307
0.105837 0.187747 0.211307
0.105837 0.187747 0.211307
0.105531 0.187900 0.211429
0.106630 0.188418 0.212009
0.107485 0.189120 0.212558
0.108858 0.189761 0.213230
0.110994 0.190219 0.213809
0.113649 0.190646 0.214359
0.117281 0.191012 0.214939
0.121401 0.191196 0.215518
0.125429 0.191379 0.215946
0.129427 0.191409 0.216403
0.133547 0.191562 0.216861
0.138125 0.191501 0.217197
0.142489 0.191470 0.217533
0.146670 0.191440 0.217838
0.151308 0.191501 0.218173
0.155825 0.191409 0.218601
0.160861 0.191257 0.218936
0.167575 0.191196 0.219577
0.177005 0.190982 0.220340
0.186954 0.190799 0.221317
0.198550 0.190463 0.222477
0.211337 0.190127 0.223850
0.226261 0.189670 0.225406
0.245243 0.188602 0.227604
0.269718 0.187045 0.230533
0.303227 0.183932 0.234592
0.352239 0.177310 0.240848
0.423682 0.162539 0.250492
0.527916 0.122988 0.266209
0.105837 0.187747 0.211307
0.105837 0.187747 0.211307
0.105837 0.187747 0.211307
0.105531 0.187900 0.211429
0.106630 0.188418 0.212009
0.107485 0.189120 0.212558
0.108339 0.189792 0.213107
0.111055 0.190219 0.213687
0.113649 0.190646 0.214359
0.117525 0.190860 0.214817
0.121157 0.191073 0.215396
0.125185 0.191257 0.215854
0.129488 0.191409 0.216281
0.133761 0.191379 0.216739
0.138125 0.191501 0.217197
0.142489 0.191470 0.217533
0.146670 0.191440 0.217838
0.151095 0.191379 0.218173
0.155520 0.191440 0.218479
0.160586 0.191287 0.218814
0.166842 0.191135 0.219364
0.175143 0.191043 0.220127
0.184268 0.190799 0.220981
0.193973 0.190555 0.221958
0.205264 0.190188 0.223117
0.217716 0.189853 0.224491
0.233738 0.189273 0.226230
0.254398 0.188083 0.228733
0.282780 0.186099 0.232242
0.324834 0.181430 0.237430
0.387060 0.171206 0.245670
0.480171 0.145052 0.258976
0.105837 0.187747 0.211307
0.105837 0.187747 0.211307
0.105837 0.187747 0.211307
0.105531 0.187900 0.211429
0.106630 0.188418 0.212009
0.108370 0.188907 0.212436
0.111086 0.189364 0.213016
0.113771 0.189792 0.213596
0.117037 0.190036 0.214176
0.120516 0.190402 0.214725
0.124331 0.190738 0.215274
0.128145 0.190921 0.215854
0.132326 0.191073 0.216312
0.136812 0.191196 0.216617
0.141024 0.191318 0.217044
0.145235 0.191257 0.217502
0.149660 0.191196 0.217838
0.154177 0.191257 0.218143
0.158236 0.191196 0.218601
0.163516 0.191012 0.218936
0.170108 0.190951 0.219455
0.178317 0.190707 0.220218
0.186465 0.190555 0.220981
0.195804 0.190372 0.221805
0.205814 0.190127 0.222873
0.217563 0.189578 0.224155
0.232090 0.189090 0.225834
0.251438 0.187991 0.228092
0.278141 0.186160 0.231205
0.316777 0.182101 0.235935
0.375036 0.173037 0.243534
0.460975 0.151125 0.255650
0.106111 0.188174 0.211643
0.106111 0.188174 0.211643
0.106111 0.188174 0.211643
0.106386 0.188449 0.211490
0.111360 0.188357 0.211460
0.114748 0.188296 0.211826
0.118166 0.188388 0.212436
0.121126 0.188785 0.212985
0.123873 0.189181 0.213687
0.127291 0.189700 0.214359
0.131289 0.190005 0.214908
0.135286 0.190158 0.215488
0.139773 0.190402 0.216037
0.143801 0.190524 0.216617
0.148196 0.190616 0.216922
0.152346 0.190707 0.217380
0.156802 0.190616 0.217838
0.160708 0.190707 0.218143
0.164858 0.190616 0.218601
0.169863 0.190433 0.218906
0.176089 0.190372 0.219577
0.183444 0.190188 0.220096
0.191287 0.190036 0.220829
0.199680 0.189761 0.221714
0.209445 0.189548 0.222751
0.221500 0.189059 0.223911
0.236728 0.188235 0.225589
0.256229 0.187198 0.227848
0.283421 0.184970 0.231083
0.322820 0.180423 0.235813
0.378332 0.171298 0.242802
0.458534 0.150088 0.253819
0.107179 0.188968 0.212436
0.107179 0.188968 0.212436
0.107576 0.189120 0.212436
0.107485 0.189120 0.212558
0.109163 0.190249 0.211765
0.117281 0.190402 0.211429
0.127260 0.189212 0.211490
0.132967 0.188663 0.212009
0.136507 0.188388 0.212650
0.140414 0.188388 0.213230
0.144442 0.188510 0.213809
0.148074 0.188785 0.214633
0.152346 0.188998 0.215305
0.156466 0.189212 0.216007
0.160922 0.189273 0.216556
0.165133 0.189456 0.217105
0.169650 0.189456 0.217533
0.173342 0.189517 0.218112
0.177279 0.189548 0.218540
0.181949 0.189487 0.218967
0.188693 0.189334 0.219608
0.195895 0.189059 0.220249
0.203311 0.188876 0.221012
0.211978 0.188479 0.221744
0.221622 0.188174 0.222812
0.233402 0.187594 0.224063
0.248722 0.186587 0.225742
0.268406 0.185122 0.228000
0.295628 0.182498 0.231113
0.334173 0.177462 0.235508
0.388220 0.167330 0.242130
0.464881 0.144961 0.252354
0.109102 0.190188 0.213565
0.109682 0.190158 0.213565
0.109377 0.190311 0.213687
0.109377 0.190311 0.213687
0.108888 0.191409 0.213046
0.114260 0.193362 0.211887
0.126711 0.194522 0.211124
0.140841 0.192844 0.211154
0.156832 0.190707 0.211368
0.164096 0.189151 0.211826
0.167636 0.188327 0.212650
0.171817 0.187747 0.213413
0.175906 0.187472 0.214145
0.180087 0.187289 0.214878
0.184512 0.186954 0.215488
0.188510 0.186770 0.215946
0.192050 0.186954 0.216739
0.195560 0.187106 0.217411
0.198978 0.187289 0.218082
0.204501 0.187167 0.218723
0.211734 0.186954 0.219486
0.218936 0.186526 0.220249
0.268498 0.182010 0.223606
0.287633 0.179751 0.225467
0.310002 0.176730 0.227695
0.336309 0.172610 0.230350
0.369177 0.165957 0.233860
0.410346 0.155306 0.238407
0.464271 0.135897 0.244694
0.533715 0.092378 0.253696
0.619623 0.000000 0.266575
0.717281 0.000000 0.285496
0.114107 0.193179 0.216342
0.113588 0.193210 0.216342
0.114107 0.193179 0.216342
0.114107 0.193179 0.216342
0.113802 0.193515 0.216190
0.114229 0.196414 0.214206
0.125521 0.200748 0.211887
0.149294 0.204562 0.210117
0.170047 0.201938 0.210056
0.194156 0.198306 0.210269
0.221103 0.193606 0.210330
0.230991 0.189975 0.211063
0.232456 0.187472 0.212222
0.234287 0.185763 0.213260
0.235477 0.184604 0.214267
0.236484 0.183963 0.215061
0.237613 0.183444 0.215854
0.239414 0.182956 0.216617
0.242679 0.182376 0.217227
0.252598 0.181247 0.218112
0.263828 0.179782 0.218967
0.276555 0.178317 0.220157
0.293217 0.176242 0.221714
0.313146 0.173312 0.223545
0.337011 0.169009 0.225772
0.364324 0.163180 0.228489
0.395636 0.155093 0.231693
0.432532 0.142916 0.235691
0.480262 0.121248 0.241123
0.539605 0.057282 0.248569
0.615534 0.000000 0.259159
0.704829 0.000000 0.274662
0.118807 0.196689 0.219486
0.118990 0.196536 0.219516
0.118990 0.196536 0.219516
0.118990 0.196536 0.219516
0.118990 0.196536 0.219516
0.117403 0.198367 0.218326
0.121309 0.202914 0.215366
0.138674 0.209445 0.212070
0.171084 0.216556 0.209110
0.197604 0.213413 0.208988
0.227665 0.209232 0.208835
0.261662 0.203433 0.208774
0.296330 0.195377 0.208652
0.306432 0.188998 0.209506
0.302831 0.184695 0.211154
0.299504 0.181796 0.212619
0.297093 0.179751 0.213809
0.295598 0.178439 0.214878
0.304021 0.176089 0.215976
0.311833 0.173953 0.216953
0.321294 0.171572 0.217990
0.333165 0.168338 0.219120
0.348791 0.164218 0.220279
0.368109 0.158633 0.221622
0.391028 0.150881 0.223117
0.416175 0.141604 0.225437
0.443732 0.130617 0.228702
0.476967 0.113252 0.232547
0.520867 0.063905 0.237675
0.575433 0.000000 0.244175
0.644160 0.000000 0.253758
0.723964 0.000000 0.267430
0.126619 0.201633 0.224155
0.126619 0.201633 0.224155
0.126864 0.201480 0.224063
0.126864 0.201480 0.224063
0.126375 0.201511 0.224063
0.126467 0.201511 0.223941
0.124239 0.205783 0.221042
0.131685 0.212650 0.216892
0.156558 0.222049 0.212406
0.201144 0.234134 0.207523
0.235966 0.230900 0.206912
0.273808 0.225589 0.206607
0.315618 0.217746 0.206180
0.361089 0.206119 0.205905
0.394995 0.192447 0.206149
0.400031 0.182467 0.207340
0.395758 0.175784 0.209354
0.402869 0.168673 0.210788
0.405768 0.162966 0.212497
0.408423 0.158236 0.214054
0.414252 0.153262 0.215488
0.422797 0.147707 0.216892
0.435859 0.139956 0.218448
0.452949 0.129915 0.219944
0.472694 0.116121 0.221653
0.494240 0.096834 0.223484
0.518883 0.041077 0.225589
0.549126 0.000000 0.228092
0.588373 0.000000 0.232120
0.637354 0.000000 0.238590
0.697353 0.000000 0.247532
0.766049 0.000000 0.260136
0.137331 0.208621 0.230594
0.136934 0.208652 0.230594
0.136782 0.208530 0.230381
0.136934 0.208377 0.230381
0.136538 0.208164 0.230198
0.136385 0.208042 0.229984
0.134401 0.209262 0.228916
0.133822 0.216312 0.224186
0.146822 0.226047 0.218723
0.180209 0.239048 0.212314
0.238437 0.256870 0.204776
0.282872 0.255009 0.203220
0.328191 0.248234 0.202640
0.377295 0.237888 0.202090
0.429572 0.223301 0.201511
0.494575 0.202335 0.200412
0.535058 0.178347 0.200504
0.543481 0.158694 0.202609
0.543694 0.142580 0.205264
0.544518 0.127687 0.207523
0.547875 0.112551 0.209537
0.550958 0.096101 0.211429
0.553185 0.071595 0.213748
0.559045 0.021912 0.215854
0.568109 0.000000 0.217990
0.580011 0.000000 0.220066
0.597162 0.000000 0.222446
0.621241 0.000000 0.224887
0.654414 0.000000 0.228092
0.698329 0.000000 0.231998
0.751003 0.000000 0.237675
0.811948 0.000000 0.248753
0.149691 0.216922 0.238315
0.149386 0.216953 0.238193
0.149386 0.216953 0.238193
0.149569 0.216800 0.238102
0.149020 0.216709 0.238010
0.148989 0.216495 0.237919
0.148867 0.216373 0.237736
0.145235 0.221225 0.234501
0.147921 0.231724 0.228305
0.169192 0.245731 0.220768
0.214084 0.264317 0.211582
0.290929 0.290562 0.199313
0.349004 0.291203 0.195804
0.411963 0.285252 0.193637
0.478157 0.273869 0.191775
0.546197 0.256321 0.189975
0.614160 0.229068 0.188571
0.679652 0.189029 0.187411
0.695888 0.150301 0.189578
0.692073 0.109255 0.194430
0.686122 0.028870 0.198764
0.685084 0.000000 0.202029
0.687953 0.000000 0.204807
0.694392 0.000000 0.207248
0.697871 0.000000 0.210422
0.702571 0.000000 0.213687
0.712306 0.000000 0.216678
0.727565 0.000000 0.219913
0.751186 0.000000 0.223606
0.783902 0.000000 0.227939
0.825406 0.000000 0.233646
0.875242 0.000000 0.241733
0.167819 0.229252 0.249546
0.167819 0.229252 0.249546
0.167819 0.229252 0.249546
0.167666 0.229129 0.249454
0.167514 0.229038 0.249363
0.167361 0.228946 0.249271
0.167208 0.228855 0.249180
0.166903 0.228641 0.248997
0.161776 0.239994 0.242161
0.170871 0.255436 0.233494
0.205173 0.277684 0.222965
0.273625 0.309300 0.208133
0.487129 0.419745 0.155734
0.591852 0.433783 0.129793
0.664546 0.417121 0.126223
0.728878 0.394110 0.126162
0.786130 0.364416 0.128878
0.837919 0.327611 0.133364
0.885405 0.283268 0.138155
0.918273 0.226261 0.145876
0.924315 0.159304 0.155612
0.916167 0.000000 0.168978
0.910369 0.000000 0.178897
0.908965 0.000000 0.186099
0.910216 0.000000 0.191958
0.915282 0.000000 0.196841
0.917418 0.000000 0.203037
0.920592 0.000000 0.209659
0.929473 0.000000 0.216190
0.945922 0.000000 0.223209
0.968872 0.000000 0.231571
0.998322 0.000000 0.242679
0.207004 0.255711 0.273991
0.206760 0.255528 0.273838
0.205936 0.255131 0.273442
0.205020 0.254429 0.272831
0.203403 0.253422 0.271794
0.202304 0.252628 0.271183
0.203067 0.253147 0.271550
0.204318 0.253910 0.272343
0.203006 0.260899 0.270573
0.204623 0.285405 0.260136
0.233158 0.319127 0.245975
0.302983 0.364385 0.224613
0.420417 0.421149 0.188357
0.576989 0.489082 0.108461
0.684840 0.512932 0.000000
0.746181 0.490547 0.000000
0.798734 0.462440 0.000000
0.844968 0.429389 0.025299
0.887572 0.392859 0.068482
0.926024 0.350347 0.096345
0.961669 0.301061 0.111147
0.978210 0.243198 0.127199
0.981903 0.177371 0.141146
0.977874 0.052552 0.156893
0.975769 0.000000 0.168521
0.976501 0.000000 0.177340
0.980621 0.000000 0.184176
0.987060 0.000000 0.191073
0.991608 0.000000 0.200320
1.000000 0.000000 0.209384
1.000000 0.000000 0.219242
1.000000 0.000000 0.231052
0.255741 0.288853 0.304936
0.255253 0.288426 0.304448
0.253605 0.287388 0.303441
0.252201 0.286534 0.302647
0.250340 0.285161 0.301427
0.248203 0.283726 0.300053
0.246952 0.282994 0.299290
0.246586 0.282536 0.298955
0.246952 0.282994 0.299290
0.242405 0.301793 0.291356
0.252873 0.336614 0.276188
0.298833 0.381933 0.254856
0.389075 0.436957 0.221897
0.518151 0.498787 0.164675
0.658320 0.560510 0.000000
0.757015 0.586175 0.000000
0.806332 0.557031 0.000000
0.849882 0.524590 0.000000
0.889372 0.490181 0.000000
0.925170 0.452491 0.000000
0.958618 0.412268 0.000000
0.990417 0.368078 0.009186
1.000000 0.317449 0.069154
1.000000 0.263981 0.103548
1.000000 0.203555 0.122866
1.000000 0.120150 0.142397
1.000000 0.000000 0.156008
1.000000 0.000000 0.166537
1.000000 0.000000 0.175448
1.000000 0.000000 0.188022
1.000000 0.000000 0.200900
1.000000 0.000000 0.214969
0.316197 0.330144 0.344213
0.315435 0.329686 0.343755
0.313451 0.328222 0.342351
0.310094 0.325933 0.340185
0.306188 0.323278 0.337591
0.301640 0.320226 0.334600
0.298528 0.317937 0.332555
0.296300 0.316472 0.331121
0.295811 0.316167 0.330755
0.296788 0.318029 0.331212
0.293156 0.354467 0.315557
0.316350 0.400061 0.294713
0.378576 0.454078 0.264408
0.480262 0.513024 0.217929
0.602350 0.570764 0.135439
0.722042 0.623346 0.000000
0.811704 0.649805 0.000000
0.853239 0.616693 0.000000
0.890562 0.582055 0.000000
0.924529 0.545739 0.000000
0.956298 0.508659 0.000000
0.986603 0.470222 0.000000
1.000000 0.429023 0.000000
1.000000 0.384070 0.000000
1.000000 0.333715 0.000000
1.000000 0.284642 0.054292
1.000000 0.229831 0.101259
1.000000 0.165652 0.124910
1.000000 0.000000 0.141634
1.000000 0.000000 0.154513
1.000000 0.000000 0.172305
1.000000 0.000000 0.191714
0.375647 0.371466 0.384436
0.375921 0.371740 0.384619
0.374701 0.370855 0.383764
0.372473 0.369299 0.382238
0.369757 0.367376 0.380346
0.366735 0.365270 0.378332
0.364996 0.364019 0.377142
0.364172 0.363409 0.376562
0.364324 0.363592 0.376654
0.365270 0.364172 0.377295
0.361639 0.380377 0.370825
0.363714 0.425269 0.348333
0.395422 0.475074 0.318120
0.462959 0.527703 0.276921
0.557153 0.578576 0.217838
0.661616 0.626215 0.110536
0.766140 0.670741 0.000000
0.847440 0.696132 0.000000
0.885222 0.663722 0.000000
0.919066 0.629023 0.000000
0.951110 0.594537 0.000000
0.981384 0.559197 0.000000
1.000000 0.522545 0.000000
1.000000 0.484443 0.000000
1.000000 0.443793 0.000000
1.000000 0.398901 0.000000
1.000000 0.353002 0.000000
1.000000 0.308324 0.000000
1.000000 0.261662 0.045167
1.000000 0.211643 0.102388
1.000000 0.150576 0.125551
1.000000 0.000000 0.153414
0.436011 0.414923 0.427100
0.435554 0.414649 0.426825
0.434730 0.414069 0.426215
0.433173 0.412909 0.425055
0.430793 0.411078 0.423346
0.428443 0.409400 0.421698
0.426520 0.408026 0.420294
0.425544 0.407294 0.419562
0.424781 0.406806 0.419104
0.424689 0.406714 0.419013
0.424994 0.406928 0.419226
0.417914 0.440925 0.402960
0.427710 0.489998 0.375769
0.466590 0.540673 0.339330
0.533654 0.589105 0.291936
0.619562 0.634791 0.224765
0.712764 0.676844 0.098329
0.804898 0.714900 0.000000
0.878050 0.735897 0.000000
0.914153 0.708278 0.000000
0.945647 0.674586 0.000000
0.975341 0.640986 0.000000
1.000000 0.606744 0.000000
1.000000 0.571557 0.000000
1.000000 0.535363 0.000000
1.000000 0.497597 0.000000
1.000000 0.457252 0.000000
1.000000 0.413458 0.000000
1.000000 0.372808 0.000000
1.000000 0.332830 0.000000
1.000000 0.293828 0.000000
1.000000 0.254704 0.066773
0.506340 0.468879 0.480079
0.507317 0.469612 0.480873
0.580896 0.532830 0.542199
0.579461 0.531487 0.540948
0.577356 0.529595 0.539086
0.574395 0.526940 0.536492
0.571130 0.523980 0.533654
0.568383 0.521477 0.531243
0.566369 0.519646 0.529473
0.564935 0.518425 0.528313
0.563592 0.517174 0.527062
0.559930 0.521111 0.523003
0.550195 0.568688 0.495003
0.559564 0.614557 0.458503
0.592493 0.657038 0.412329
0.647028 0.695705 0.353735
0.715358 0.728878 0.277256
0.789181 0.756802 0.161288
0.863035 0.780575 0.000000
0.923095 0.791348 0.000000
0.954437 0.765103 0.000000
0.981231 0.730587 0.000000
1.000000 0.695918 0.000000
1.000000 0.660761 0.000000
1.000000 0.624567 0.000000
1.000000 0.587854 0.000000
1.000000 0.550042 0.000000
1.000000 0.511192 0.000000
1.000000 0.470832 0.000000
1.000000 0.428382 0.000000
1.000000 0.392523 0.000000
1.000000 0.356420 0.000000
0.592126 0.543267 0.552209
0.598260 0.549004 0.557763
0.604303 0.554681 0.563226
0.609125 0.559350 0.567681
0.611658 0.561822 0.570031
0.611261 0.561425 0.569665
0.609094 0.559289 0.567620
0.606012 0.556329 0.564782
0.603601 0.554070 0.562615
0.601434 0.551995 0.560601
0.599512 0.550164 0.558862
0.597650 0.548455 0.557214
0.588403 0.567956 0.543725
0.583032 0.611627 0.514702
0.595666 0.653620 0.477241
0.629175 0.692439 0.430426
0.680446 0.726497 0.372534
0.743740 0.756069 0.299596
0.812222 0.781369 0.195956
0.880858 0.802853 0.000000
0.938476 0.813626 0.000000
0.969909 0.793149 0.000000
0.995422 0.761044 0.000000
1.000000 0.728298 0.000000
1.000000 0.694759 0.000000
1.000000 0.660395 0.000000
1.000000 0.625635 0.000000
1.000000 0.590265 0.000000
1.000000 0.554742 0.000000
1.000000 0.517998 0.000000
1.000000 0.479500 0.000000
1.000000 0.441505 0.000000
0.633051 0.582940 0.590265
0.638911 0.588891 0.595880
0.644617 0.594781 0.601526
0.649317 0.599603 0.606104
0.652125 0.602472 0.608881
0.652155 0.602564 0.608942
0.650355 0.600671 0.607141
0.647852 0.598108 0.604669
0.645533 0.595636 0.602380
0.643030 0.593133 0.599939
0.640833 0.590845 0.597803
0.638666 0.588617 0.595636
0.635676 0.585626 0.592798
0.624079 0.619928 0.571954
0.622827 0.660304 0.542351
0.637903 0.697932 0.505516
0.670161 0.731472 0.460060
0.717067 0.760616 0.403967
0.774197 0.785702 0.334478
0.836362 0.807218 0.242618
0.898924 0.825132 0.000000
0.953735 0.835264 0.000000
0.984070 0.818509 0.000000
1.000000 0.788418 0.000000
1.000000 0.757382 0.000000
1.000000 0.725490 0.000000
1.000000 0.693263 0.000000
1.000000 0.660609 0.000000
1.000000 0.627955 0.000000
1.000000 0.594995 0.000000
1.000000 0.561151 0.000000
1.000000 0.525628 0.000000
0.673579 0.625299 0.630579
0.678340 0.630518 0.635523
0.682948 0.635554 0.640284
0.686610 0.639673 0.644190
0.688991 0.642267 0.646693
0.688960 0.642206 0.646632
0.687739 0.640833 0.645350
0.685542 0.638453 0.643030
0.683589 0.636225 0.640955
0.681422 0.633845 0.638666
0.679530 0.631800 0.636744
0.677455 0.629572 0.634607
0.674800 0.626673 0.631891
0.669337 0.631647 0.625208
0.659571 0.670283 0.601617
0.662196 0.707088 0.573022
0.679744 0.740597 0.539788
0.711910 0.770596 0.499489
0.756283 0.796902 0.451698
0.808713 0.819516 0.393378
0.865751 0.838712 0.318486
0.923461 0.854643 0.210330
0.975280 0.863951 0.000000
1.000000 0.850401 0.000000
1.000000 0.822934 0.000000
1.000000 0.794430 0.000000
1.000000 0.765316 0.000000
1.000000 0.735561 0.000000
1.000000 0.705715 0.000000
1.000000 0.675410 0.000000
1.000000 0.644526 0.000000
1.000000 0.612329 0.000000
0.737331 0.698054 0.699641
0.738918 0.699977 0.701442
0.739834 0.701045 0.702480
0.740169 0.701503 0.702907
0.739528 0.700740 0.702144
0.738033 0.698939 0.700465
0.736172 0.696712 0.698360
0.734249 0.694423 0.696193
0.732448 0.692256 0.694118
0.730983 0.690547 0.692470
0.729641 0.688960 0.690974
0.728084 0.687098 0.689235
0.725948 0.684596 0.686824
0.723537 0.681758 0.684138
0.715053 0.699123 0.671809
0.708492 0.731411 0.649256
0.712398 0.760800 0.622492
0.728328 0.787228 0.591058
0.755795 0.810300 0.554070
0.793088 0.830350 0.510216
0.837552 0.847410 0.455756
0.886809 0.861906 0.387518
0.938018 0.873869 0.293828
0.986908 0.881376 0.139437
1.000000 0.869444 0.000000
1.000000 0.843351 0.000000
1.000000 0.816861 0.000000
1.000000 0.790005 0.000000
1.000000 0.762783 0.000000
1.000000 0.735134 0.000000
1.000000 0.706874 0.000000
1.000000 0.677821 0.000000
0.766781 0.733761 0.733669
0.767819 0.735012 0.734859
0.768673 0.736049 0.735866
0.768978 0.736446 0.736233
0.768704 0.736110 0.735897
0.767727 0.734920 0.734737
0.766354 0.733242 0.733150
0.764920 0.731411 0.731411
0.763577 0.729854 0.729915
0.762417 0.728450 0.728573
0.761410 0.727138 0.727321
0.760281 0.725795 0.726040
0.758877 0.724056 0.724392
0.757229 0.722072 0.722499
0.755215 0.719631 0.720150
0.746273 0.746365 0.704738
0.743679 0.773739 0.685328
0.749538 0.798367 0.662257
0.764950 0.820249 0.634577
0.789578 0.839475 0.602228
0.822171 0.856046 0.563775
0.861265 0.870298 0.516442
0.904601 0.882292 0.457221
0.951171 0.892210 0.378424
0.993988 0.893980 0.226200
1.000000 0.884276 0.165438
1.000000 0.860075 0.108949
1.000000 0.835447 0.000000
1.000000 0.810697 0.000000
1.000000 0.785580 0.000000
1.000000 0.760189 0.000000
1.000000 0.734066 0.000000
0.803677 0.779019 0.777157
0.805264 0.780941 0.779019
0.805844 0.781704 0.779782
0.805325 0.781033 0.779110
0.803952 0.779355 0.777493
0.801877 0.776852 0.775051
0.799313 0.773678 0.772000
0.796597 0.770382 0.768795
0.793942 0.767086 0.765652
0.791440 0.764034 0.762692
0.788815 0.760830 0.759609
0.786648 0.758145 0.757046
0.784329 0.755276 0.754269
0.781582 0.751949 0.751064
0.778531 0.748196 0.747433
0.772915 0.752102 0.740352
0.764828 0.776150 0.723445
0.763760 0.798917 0.704402
0.770962 0.820127 0.683192
0.786709 0.839445 0.659144
0.810117 0.856626 0.630274
0.840024 0.871305 0.595209
0.875120 0.883574 0.551049
0.914427 0.893553 0.493751
0.957000 0.901518 0.417731
1.000000 0.907561 0.310796
1.000000 0.897917 0.255039
1.000000 0.876585 0.213779
1.000000 0.853391 0.171847
1.000000 0.830106 0.130129
1.000000 0.806729 0.071351
1.000000 0.782925 0.000000
0.820127 0.798978 0.796567
0.821500 0.800595 0.798154
0.822293 0.801541 0.799100
0.822324 0.801572 0.799130
0.821805 0.800931 0.798489
0.820951 0.799985 0.797543
0.820035 0.798825 0.796445
0.818997 0.797574 0.795224
0.818051 0.796475 0.794125
0.817166 0.795346 0.793057
0.816037 0.794003 0.791745
0.814939 0.792691 0.790463
0.813474 0.790890 0.788724
0.811582 0.788663 0.786526
0.809232 0.785794 0.783719
0.806638 0.782620 0.780636
0.799954 0.794400 0.771115
0.795071 0.813840 0.756924
0.796262 0.832395 0.741390
0.803922 0.849699 0.723873
0.817960 0.865446 0.703700
0.837827 0.879362 0.679561
0.863096 0.891356 0.648981
0.893278 0.901549 0.609735
0.927916 0.909941 0.559289
0.966461 0.916808 0.493141
1.000000 0.922728 0.404852
1.000000 0.913664 0.355749
1.000000 0.895628 0.322972
1.000000 0.874449 0.292485
1.000000 0.853086 0.263951
1.000000 0.831296 0.236728
0.842679 0.825772 0.822873
0.843290 0.826505 0.823606
0.843473 0.826749 0.823850
0.843290 0.826535 0.823636
0.842771 0.825956 0.823026
0.842008 0.825010 0.822110
0.841093 0.823941 0.821073
0.840116 0.822751 0.819913
0.839109 0.821592 0.818753
0.838285 0.820584 0.817777
0.837278 0.819425 0.816648
0.836423 0.818387 0.815610
0.835386 0.817166 0.814420
0.833982 0.815488 0.812772
0.832120 0.813321 0.810636
0.830014 0.810788 0.808164
0.827939 0.808286 0.805692
0.821286 0.825315 0.794827
0.818936 0.841855 0.782986
0.821683 0.857603 0.770230
0.829343 0.872099 0.755673
0.841855 0.885161 0.738399
0.858946 0.896605 0.716884
0.880583 0.906523 0.689723
0.906767 0.914946 0.654170
0.937530 0.921965 0.607233
0.972534 0.927733 0.547051
1.000000 0.932433 0.466865
1.000000 0.924987 0.417639
1.000000 0.909667 0.390295
1.000000 0.890227 0.363134
1.000000 0.870390 0.337438
0.859525 0.845487 0.842405
0.859953 0.845975 0.842893
0.860258 0.846311 0.843229
0.860319 0.846403 0.843290
0.860380 0.846464 0.843351
0.860563 0.846708 0.843595
0.861295 0.847532 0.844419
0.862333 0.848722 0.845609
0.863615 0.850248 0.847105
0.865110 0.851926 0.848814
0.866667 0.853758 0.850614
0.868070 0.855375 0.852232
0.869200 0.856657 0.853513
0.869780 0.857359 0.854215
0.869810 0.857389 0.854246
0.869078 0.856535 0.853391
0.868132 0.855436 0.852293
0.865629 0.859342 0.849027
0.862303 0.871977 0.841642
0.861997 0.884123 0.833707
0.864927 0.895567 0.824796
0.870970 0.906065 0.814359
0.880186 0.915435 0.801541
0.892668 0.923705 0.785763
0.908629 0.930907 0.765652
0.928466 0.937133 0.739498
0.952514 0.942412 0.705562
0.981231 0.946746 0.660121
1.000000 0.950164 0.597803
1.000000 0.943786 0.552972
1.000000 0.931151 0.531701
1.000000 0.913939 0.507652
0.888182 0.878325 0.875212
0.888151 0.878294 0.875181
0.888060 0.878141 0.875059
0.887785 0.877867 0.874784
0.887449 0.877501 0.874388
0.887083 0.877073 0.873960
0.886778 0.876738 0.873625
0.886534 0.876432 0.873350
0.886442 0.876341 0.873228
0.886442 0.876341 0.873228
0.886473 0.876371 0.873289
0.886564 0.876493 0.873381
0.886625 0.876524 0.873411
