20 Preset/Dark Style/【3】LUT video cho PR-AE-FCPX/19Tones (2)/19Tones - Bridge and Train _ d.cube
# Created by Adobe Lightroom plugin Export LUT (1.24.0)
# www.johnrellis.com/lightroom/exportlut.htm
# Preset: 19Tones - Bridge and Train / d
# Color profile: E:\lut插件\exportlut.1.24\exportlut.lrplugin\color profiles\Rec709gamma2.4.icc
LUT_3D_SIZE 5
DOMAIN_MIN 0.000000 0.000000 0.000000
DOMAIN_MAX 0.903226 0.903226 0.903226
0.105837 0.187747 0.211307
0.166720 0.185275 0.211734
0.481666 0.135225 0.206943
1.000000 0.000000 0.157748
1.000000 0.000000 0.112612
0.149020 0.216709 0.238010
0.191745 0.248508 0.217166
0.959106 0.470863 0.000000
1.000000 0.405280 0.000000
1.000000 0.358465 0.079500
0.653437 0.603876 0.610193
0.615839 0.600855 0.593896
0.803555 0.763638 0.321050
1.000000 0.741024 0.461158
1.000000 0.795926 0.601617
0.858488 0.844297 0.841215
0.859739 0.845762 0.842649
0.805966 0.873228 0.820706
0.919432 0.902007 0.669184
1.000000 0.817746 0.671809
0.925109 0.919402 0.916899
0.925353 0.919677 0.917174
0.918303 0.916075 0.912047
0.876677 0.941436 0.885588
0.960601 0.956359 0.835386
0.065583 0.196201 0.234989
0.126467 0.201511 0.223941
0.292363 0.170138 0.218662
0.909300 0.000000 0.190311
1.000000 0.098268 0.114748
0.157656 0.224949 0.247288
0.227298 0.248600 0.257816
0.790494 0.290166 0.232609
1.000000 0.324804 0.164309
1.000000 0.356390 0.090181
0.640589 0.590600 0.597528
0.642725 0.592767 0.599603
0.769833 0.712917 0.382574
1.000000 0.776761 0.594598
1.000000 0.796292 0.615991
0.862974 0.849485 0.846372
0.865019 0.851835 0.848722
0.827207 0.873320 0.836088
0.918669 0.900542 0.709163
1.000000 0.830228 0.703853
0.927550 0.922087 0.919615
0.927550 0.922118 0.919677
0.929076 0.923766 0.921355
0.888884 0.944671 0.897124
0.964660 0.958404 0.840513
0.000000 0.243961 0.476997
0.134737 0.224033 0.479500
0.500633 0.464302 0.475593
0.911376 0.387945 0.578302
0.913939 0.000000 0.250187
0.000000 0.342229 0.527428
0.000000 0.303990 0.548577
0.620752 0.570672 0.578546
0.883726 0.135836 0.447486
0.973877 0.000000 0.215244
0.629694 0.598474 0.619623
0.695247 0.649226 0.653285
0.816526 0.725551 0.691920
0.979828 0.824887 0.779202
1.000000 0.726802 0.646754
0.878569 0.867399 0.864225
0.876402 0.864897 0.861753
0.882780 0.873442 0.869902
0.921263 0.901488 0.809171
1.000000 0.903716 0.857481
0.933135 0.928191 0.925872
0.933928 0.929046 0.926726
0.935943 0.931243 0.929015
0.914092 0.943816 0.919463
0.965637 0.957488 0.869108
0.000000 0.351934 0.825589
0.000000 0.298009 0.830442
0.757809 0.619013 0.813291
0.828611 0.809079 0.806485
0.903105 0.895048 0.892119
0.000000 0.433143 0.828428
0.000000 0.408728 0.834165
0.774319 0.673274 0.824521
0.839689 0.822263 0.819425
0.915831 0.877806 0.884031
0.000000 0.703944 0.780972
0.000000 0.694453 0.798123
0.761440 0.749813 0.843748
0.878965 0.867857 0.864714
0.968170 0.756374 0.805081
0.844297 0.842435 0.849363
0.855161 0.849485 0.852934
0.889189 0.879454 0.876371
0.924132 0.898375 0.886046
0.988495 0.927855 0.912749
0.941772 0.937591 0.935515
0.943542 0.939513 0.937469
0.949859 0.946349 0.944518
0.952789 0.949493 0.947784
0.969390 0.961822 0.921538
0.000000 0.512413 0.942138
0.000000 0.494301 0.941741
0.673365 0.610529 0.927550
0.888731 0.848997 0.888853
0.900237 0.891905 0.888914
0.000000 0.507500 0.939422
0.000000 0.502617 0.938842
0.691768 0.640528 0.924681
0.892851 0.856321 0.893889
0.904875 0.897063 0.894133
0.000000 0.704097 0.927733
0.127291 0.697627 0.927703
0.683009 0.730800 0.925170
0.904234 0.876768 0.911589
0.923980 0.918151 0.915618
0.000000 0.854093 0.910765
0.000000 0.856382 0.909697
0.082979 0.865415 0.910216
0.893217 0.894682 0.932616
0.953185 0.949920 0.948180
0.906096 0.919829 0.930053
0.910063 0.921996 0.931151
0.928099 0.933288 0.938048
0.954192 0.951781 0.950744
0.972656 0.965484 0.961730
