20 Preset/Dark Style/【3】LUT video cho PR-AE-FCPX/19Tones (2)/19Tones - Bridge x Sunset _ d.cube
# Created by Adobe Lightroom plugin Export LUT (1.24.0)
# www.johnrellis.com/lightroom/exportlut.htm
# Preset: 19Tones - Bridge x Sunset / d
# Color profile: E:\lut插件\exportlut.1.24\exportlut.lrplugin\color profiles\Rec709gamma2.4.icc
LUT_3D_SIZE 5
DOMAIN_MIN 0.000000 0.000000 0.000000
DOMAIN_MAX 0.903226 0.903226 0.903226
0.105837 0.187747 0.211307
0.110994 0.190219 0.213809
0.138125 0.191501 0.217197
0.177005 0.190982 0.220340
0.303227 0.183932 0.234592
0.118807 0.196689 0.219486
0.138674 0.209445 0.212070
0.302831 0.184695 0.211154
0.333165 0.168338 0.219120
0.520867 0.063905 0.237675
0.316197 0.330144 0.344213
0.296300 0.316472 0.331121
0.602350 0.570764 0.135439
0.986603 0.470222 0.000000
1.000000 0.000000 0.141634
0.737331 0.698054 0.699641
0.734249 0.694423 0.696193
0.715053 0.699123 0.671809
0.886809 0.861906 0.387518
1.000000 0.762783 0.000000
0.902495 0.894408 0.891447
0.902129 0.893980 0.891020
0.888182 0.878325 0.875212
0.887846 0.911955 0.860594
0.963806 0.956634 0.756069
0.101686 0.189670 0.217075
0.113069 0.192386 0.215702
0.121614 0.198154 0.221012
0.162753 0.194034 0.221653
0.264561 0.186709 0.228855
0.107424 0.199832 0.222477
0.134920 0.206973 0.229068
0.198001 0.197726 0.226444
0.247501 0.188327 0.224979
0.385199 0.159335 0.231083
0.313756 0.328527 0.342626
0.317479 0.331060 0.345129
0.501884 0.481697 0.233219
0.926787 0.367926 0.149233
1.000000 0.000000 0.193759
0.747646 0.710475 0.711452
0.746487 0.709010 0.710079
0.732967 0.692927 0.694728
0.878660 0.855192 0.461799
1.000000 0.751705 0.156069
0.904234 0.896330 0.893431
0.903380 0.895384 0.892454
0.902708 0.894652 0.891722
0.898253 0.917052 0.876860
0.965454 0.959991 0.793301
0.091066 0.191684 0.240299
0.122835 0.196506 0.252049
0.227268 0.269566 0.286778
0.312779 0.327886 0.342016
0.119539 0.197055 0.219791
0.075349 0.203250 0.248478
0.107454 0.205600 0.265873
0.287785 0.310674 0.325536
0.272068 0.299962 0.315373
0.122408 0.196048 0.219394
0.064912 0.308537 0.322515
0.153414 0.330907 0.343572
0.506859 0.469306 0.480537
0.490608 0.264744 0.319097
0.543633 0.146944 0.266758
0.756527 0.721218 0.721675
0.754940 0.719295 0.719844
0.774289 0.742947 0.742428
0.858610 0.840269 0.657557
1.000000 0.704768 0.458412
0.902098 0.893950 0.891020
0.905058 0.897246 0.894347
0.907347 0.899809 0.896941
0.902464 0.903014 0.890471
0.959136 0.954620 0.825956
0.000000 0.196872 0.294011
0.054719 0.201541 0.320714
0.377630 0.279026 0.470436
0.653437 0.603876 0.610193
0.832975 0.814298 0.811582
0.000000 0.204593 0.292180
0.000000 0.205936 0.318700
0.372015 0.291112 0.478859
0.670466 0.621973 0.627405
0.818448 0.796933 0.794583
0.023316 0.208011 0.243778
0.000000 0.214298 0.256718
0.195865 0.293187 0.449317
0.741390 0.702937 0.704280
0.733211 0.693202 0.695003
0.000000 0.542626 0.546380
0.135561 0.555261 0.558770
0.481636 0.635645 0.638148
0.830167 0.810971 0.808316
0.834257 0.408789 0.490089
0.904021 0.896086 0.893156
0.905791 0.898100 0.895201
0.914702 0.907927 0.905211
0.924651 0.918914 0.916411
0.955413 0.952087 0.886229
0.000000 0.213382 0.522545
0.000000 0.218143 0.554620
0.363684 0.268772 0.684077
0.810758 0.694301 0.805386
0.854520 0.839658 0.836576
0.000000 0.220706 0.485939
0.000000 0.218631 0.522148
0.304509 0.268223 0.662684
0.804776 0.685908 0.803250
0.857206 0.842832 0.839719
0.000000 0.233433 0.352789
0.000000 0.239658 0.389136
0.000000 0.251987 0.570336
0.773495 0.649470 0.799680
0.877745 0.866453 0.863310
0.000000 0.251713 0.305150
0.000000 0.244175 0.295933
0.000000 0.221561 0.268406
0.368688 0.438025 0.722560
0.917388 0.910887 0.908202
0.249516 0.820157 0.811307
0.310643 0.821134 0.812650
0.512871 0.834409 0.827634
0.748836 0.864042 0.859861
0.947173 0.943450 0.941527
