20 Preset/Dark Style/【3】LUT video cho PR-AE-FCPX/19Tones (2)/19Tones - Bridge and Train _ d.cube
# Created by Adobe Lightroom plugin Export LUT (1.24.0)
# www.johnrellis.com/lightroom/exportlut.htm
# Preset: 19Tones - Bridge and Train / d
# Color profile: E:\lut插件\exportlut.1.24\exportlut.lrplugin\color profiles\Rec709gamma2.4.icc
LUT_3D_SIZE 32
DOMAIN_MIN 0.0 0.0 0.0
DOMAIN_MAX 1.0 1.0 1.0
0.105837 0.187747 0.211307
0.105837 0.187747 0.211307
0.105837 0.187747 0.211307
0.108492 0.187747 0.211429
0.116732 0.187289 0.211398
0.129030 0.186679 0.211612
0.146334 0.185855 0.211673
0.166720 0.185275 0.211734
0.190829 0.184390 0.211582
0.219883 0.182742 0.211490
0.255009 0.180484 0.211185
0.297642 0.176181 0.210697
0.348760 0.169162 0.209995
0.410742 0.156741 0.208804
0.481666 0.135225 0.206943
0.560021 0.092958 0.204410
0.644190 0.000000 0.200687
0.727169 0.000000 0.195834
0.799405 0.000000 0.190311
0.892088 0.000000 0.180484
0.969238 0.000000 0.168734
1.000000 0.000000 0.157748
1.000000 0.000000 0.148135
1.000000 0.000000 0.139773
1.000000 0.000000 0.132540
1.000000 0.000000 0.126284
1.000000 0.000000 0.120821
1.000000 0.000000 0.116182
1.000000 0.000000 0.112612
1.000000 0.000000 0.109438
1.000000 0.000000 0.108003
1.000000 0.000000 0.107851
0.105837 0.187747 0.211307
0.105837 0.187747 0.211307
0.105837 0.187747 0.211307
0.108797 0.187594 0.211307
0.116732 0.187289 0.211398
0.129122 0.186679 0.211490
0.145693 0.186221 0.211643
0.165835 0.185672 0.211704
0.189853 0.184817 0.211551
0.218357 0.183444 0.211429
0.252140 0.181155 0.211185
0.292638 0.177310 0.210727
0.342870 0.170779 0.210056
0.404028 0.159579 0.208865
0.472267 0.140078 0.207156
0.549706 0.103761 0.204685
0.633143 0.000000 0.201114
0.715541 0.000000 0.196445
0.789181 0.000000 0.190890
0.879881 0.000000 0.181643
0.954772 0.000000 0.170901
1.000000 0.000000 0.160647
1.000000 0.000000 0.151339
1.000000 0.000000 0.143038
1.000000 0.000000 0.135958
1.000000 0.000000 0.129763
1.000000 0.000000 0.124117
1.000000 0.000000 0.119051
1.000000 0.000000 0.114748
1.000000 0.000000 0.111177
1.000000 0.000000 0.109163
1.000000 0.000000 0.108339
0.105531 0.187900 0.211429
0.105531 0.187900 0.211429
0.105531 0.187900 0.211429
0.108949 0.188174 0.211490
0.116823 0.188357 0.211551
0.131014 0.188357 0.211673
0.149508 0.188174 0.211734
0.172061 0.187503 0.211643
0.198093 0.186587 0.211582
0.228458 0.185183 0.211398
0.264683 0.182650 0.210941
0.307591 0.178561 0.210513
0.359930 0.171725 0.209537
0.421088 0.159915 0.208225
0.490059 0.140017 0.206302
0.566644 0.103517 0.203616
0.648768 0.000000 0.199771
0.726772 0.000000 0.195041
0.797696 0.000000 0.189456
0.886473 0.000000 0.179812
0.956725 0.000000 0.169192
1.000000 0.000000 0.159030
1.000000 0.000000 0.150301
1.000000 0.000000 0.142092
1.000000 0.000000 0.135103
1.000000 0.000000 0.129274
1.000000 0.000000 0.123812
1.000000 0.000000 0.118593
1.000000 0.000000 0.114229
1.000000 0.000000 0.110567
1.000000 0.000000 0.108186
1.000000 0.000000 0.107485
0.107179 0.188968 0.212436
0.107179 0.188968 0.212436
0.107485 0.189120 0.212558
0.107790 0.189853 0.212222
0.118593 0.190158 0.212100
0.136629 0.192844 0.212131
0.160952 0.193118 0.211917
0.188907 0.192996 0.211643
0.220340 0.191928 0.211337
0.256413 0.190097 0.210971
0.297581 0.186954 0.210422
0.347448 0.182010 0.209476
0.403967 0.173556 0.208133
0.467811 0.159976 0.206363
0.536370 0.138308 0.204135
0.610895 0.101228 0.200870
0.685817 0.000000 0.196597
0.756313 0.000000 0.191470
0.822110 0.000000 0.185397
0.900053 0.000000 0.175814
0.959380 0.000000 0.165835
1.000000 0.000000 0.156466
1.000000 0.000000 0.147921
1.000000 0.000000 0.139803
1.000000 0.000000 0.132906
1.000000 0.000000 0.126070
1.000000 0.000000 0.119905
1.000000 0.000000 0.114992
1.000000 0.000000 0.110536
1.000000 0.018097 0.107362
1.000000 0.057313 0.105348
1.000000 0.086854 0.105196
0.111025 0.191379 0.214572
0.110933 0.191379 0.214694
0.111208 0.191501 0.214786
0.109560 0.192325 0.214847
0.114168 0.194308 0.213169
0.136904 0.193088 0.212589
0.168521 0.199527 0.212467
0.214878 0.207187 0.211582
0.255558 0.206210 0.210788
0.301915 0.204074 0.209720
0.352544 0.200015 0.208530
0.410224 0.193423 0.206882
0.473976 0.183688 0.204837
0.542046 0.168368 0.202152
0.612482 0.147005 0.198764
0.682887 0.116640 0.194430
0.750088 0.057740 0.189151
0.810147 0.000000 0.183322
0.874266 0.000000 0.175418
0.936156 0.000000 0.165316
0.983673 0.000000 0.155337
1.000000 0.000000 0.146426
1.000000 0.000000 0.138369
1.000000 0.019287 0.130922
1.000000 0.083223 0.123781
1.000000 0.104067 0.117769
1.000000 0.117922 0.112490
1.000000 0.129152 0.107576
1.000000 0.137209 0.104280
1.000000 0.144015 0.102022
1.000000 0.149447 0.100649
1.000000 0.153170 0.101076
0.117311 0.195377 0.218418
0.117128 0.195529 0.218418
0.117403 0.195682 0.218509
0.117800 0.195926 0.218845
0.109590 0.199222 0.216922
0.126741 0.202914 0.214420
0.164218 0.197513 0.213260
0.212741 0.207523 0.212619
0.296025 0.227146 0.210056
0.394934 0.243870 0.205112
0.460700 0.238163 0.202060
0.528344 0.229770 0.198703
0.598016 0.219364 0.194614
0.665156 0.206699 0.190005
0.728756 0.194461 0.184634
0.784817 0.181125 0.178988
0.837369 0.170352 0.172610
0.886351 0.163516 0.165255
0.943816 0.168276 0.153994
0.986542 0.173983 0.144015
1.000000 0.182040 0.134493
1.000000 0.189425 0.125948
1.000000 0.259068 0.088930
1.000000 0.261234 0.084199
1.000000 0.261845 0.081605
1.000000 0.261082 0.081666
1.000000 0.260197 0.082795
1.000000 0.257939 0.085756
1.000000 0.256168 0.089509
1.000000 0.253910 0.093172
1.000000 0.251377 0.098085
1.000000 0.247684 0.103395
0.132601 0.205447 0.227787
0.132448 0.205600 0.227756
0.132876 0.205844 0.227970
0.133730 0.206302 0.228367
0.122255 0.210269 0.227298
0.114626 0.217258 0.221469
0.156497 0.224308 0.216251
0.216464 0.210819 0.213748
0.305852 0.224887 0.211765
0.448951 0.259434 0.204135
0.632288 0.319310 0.182467
0.759915 0.366796 0.153780
0.810330 0.354498 0.146609
0.853300 0.341833 0.140566
0.891234 0.330694 0.134920
0.924193 0.319982 0.129519
0.954131 0.310796 0.124392
0.996857 0.315862 0.109957
1.000000 0.318334 0.097871
1.000000 0.319463 0.087587
1.000000 0.320439 0.071351
1.000000 0.321538 0.057313
1.000000 0.323217 0.046326
1.000000 0.323857 0.043244
1.000000 0.322515 0.043977
1.000000 0.319890 0.051148
1.000000 0.315221 0.059480
1.000000 0.310430 0.069154
1.000000 0.305608 0.080842
1.000000 0.299992 0.088441
1.000000 0.295018 0.094697
1.000000 0.290105 0.101534
0.149020 0.216709 0.238010
0.149203 0.216587 0.237919
0.149386 0.216953 0.238193
0.150118 0.217380 0.238590
0.141207 0.220981 0.238437
0.118868 0.229160 0.232486
0.128115 0.238651 0.224704
0.191745 0.248508 0.217166
0.262974 0.231968 0.213504
0.380224 0.238010 0.210513
0.548272 0.281285 0.198428
0.726070 0.354803 0.168734
0.861662 0.447272 0.108766
0.932341 0.491157 0.000000
0.959106 0.470863 0.000000
0.982025 0.451850 0.000000
1.000000 0.446509 0.000000
1.000000 0.438209 0.000000
1.000000 0.428443 0.000000
1.000000 0.418952 0.000000
1.000000 0.411231 0.000000
1.000000 0.405280 0.000000
1.000000 0.400153 0.000000
1.000000 0.394903 0.001648
1.000000 0.389166 0.015564
1.000000 0.381933 0.031495
1.000000 0.374395 0.047242
1.000000 0.366033 0.061097
1.000000 0.358465 0.079500
1.000000 0.351110 0.089723
1.000000 0.344030 0.097078
1.000000 0.337072 0.104646
0.175662 0.234440 0.254368
0.175662 0.234440 0.254368
0.175814 0.234531 0.254459
0.176242 0.235050 0.254887
0.172519 0.237064 0.255192
0.145876 0.246006 0.250919
0.115358 0.257786 0.238102
0.153292 0.270481 0.228031
0.241703 0.284031 0.216983
0.326970 0.263127 0.211917
0.467903 0.253758 0.207797
0.649195 0.308965 0.190036
0.805661 0.393866 0.152987
0.915557 0.483986 0.084565
0.990997 0.565087 0.000000
1.000000 0.595148 0.000000
1.000000 0.574640 0.000000
1.000000 0.554192 0.000000
1.000000 0.534936 0.000000
1.000000 0.517815 0.000000
1.000000 0.503380 0.000000
1.000000 0.490944 0.000000
1.000000 0.479316 0.006134
1.000000 0.469306 0.028565
1.000000 0.459174 0.049714
1.000000 0.447822 0.067903
1.000000 0.436530 0.082887
1.000000 0.425910 0.090517
1.000000 0.415534 0.097597
1.000000 0.405707 0.103975
1.000000 0.396521 0.110567
1.000000 0.387366 0.117586
0.213413 0.260166 0.278080
0.213199 0.259983 0.277928
0.212985 0.259831 0.277775
0.213535 0.260227 0.278141
0.213870 0.260502 0.278386
0.189609 0.268894 0.276005
0.149111 0.282231 0.265141
0.124697 0.298222 0.247135
0.192264 0.314549 0.232670
0.306889 0.330907 0.215793
0.403815 0.305058 0.207919
0.553887 0.270878 0.203922
0.741726 0.344244 0.179080
0.883452 0.442725 0.133394
0.972747 0.531731 0.071290
1.000000 0.600458 0.092378
1.000000 0.653437 0.167422
1.000000 0.663172 0.195468
1.000000 0.639033 0.175570
1.000000 0.616358 0.159396
1.000000 0.595697 0.147555
1.000000 0.576226 0.139101
1.000000 0.559045 0.133730
1.000000 0.542443 0.130465
1.000000 0.527214 0.127810
1.000000 0.511711 0.126009
1.000000 0.497688 0.125734
1.000000 0.484169 0.126467
1.000000 0.471748 0.128878
1.000000 0.460487 0.132448
1.000000 0.449378 0.137118
1.000000 0.439063 0.142184
0.258732 0.290898 0.306798
0.258824 0.290959 0.306859
0.259251 0.291173 0.307073
0.259922 0.291752 0.307591
0.261357 0.292638 0.308446
0.249546 0.298528 0.308476
0.207797 0.314061 0.301091
0.147616 0.333501 0.280674
0.151095 0.355901 0.259098
0.259068 0.382818 0.238468
0.411688 0.408362 0.211124
0.536187 0.383276 0.196201
0.682246 0.307378 0.196048
0.837980 0.395911 0.164431
0.944244 0.489418 0.123690
1.000000 0.565759 0.117067
1.000000 0.625025 0.164767
1.000000 0.671656 0.233860
1.000000 0.709468 0.306981
1.000000 0.707759 0.316808
1.000000 0.683101 0.288212
1.000000 0.660517 0.265354
1.000000 0.639399 0.246769
1.000000 0.619318 0.230991
1.000000 0.600397 0.218235
1.000000 0.582300 0.206668
1.000000 0.564996 0.197696
1.000000 0.548760 0.190646
1.000000 0.533654 0.186038
1.000000 0.519799 0.183810
1.000000 0.506920 0.183413
1.000000 0.494697 0.184421
0.331273 0.340459 0.354223
0.331579 0.340764 0.354498
0.332769 0.341527 0.355230
0.335210 0.343206 0.356909
0.338842 0.345830 0.359350
0.344182 0.349523 0.362982
0.306249 0.369970 0.361242
0.250278 0.395850 0.346990
0.160250 0.426612 0.310277
0.224735 0.455970 0.282902
0.367681 0.484352 0.248356
0.540673 0.509209 0.202670
0.779965 0.575250 0.160403
0.894835 0.453468 0.173892
0.985260 0.519463 0.173037
1.000000 0.591943 0.203861
1.000000 0.646632 0.256748
1.000000 0.691005 0.324254
1.000000 0.728176 0.396094
1.000000 0.758968 0.463111
1.000000 0.784329 0.520958
1.000000 0.773861 0.508110
1.000000 0.749325 0.469459
1.000000 0.725246 0.433753
1.000000 0.701717 0.401129
1.000000 0.678706 0.370947
1.000000 0.656703 0.344762
1.000000 0.635676 0.321569
1.000000 0.615961 0.302495
1.000000 0.597650 0.287449
1.000000 0.580713 0.275883
1.000000 0.565240 0.267826
0.502861 0.466102 0.477394
0.502220 0.465583 0.476905
0.501091 0.464637 0.475959
0.499855 0.463691 0.475044
0.498573 0.462684 0.474037
0.498299 0.462470 0.473823
0.474098 0.474678 0.472358
0.416205 0.500694 0.459785
0.341283 0.532982 0.429206
0.280522 0.568811 0.378820
0.379126 0.602197 0.340978
0.538323 0.633173 0.292638
0.706416 0.659907 0.225437
0.822538 0.631800 0.169253
0.922606 0.523339 0.174136
1.000000 0.536980 0.193668
1.000000 0.603998 0.234073
1.000000 0.654719 0.288121
1.000000 0.695399 0.347845
1.000000 0.730831 0.415686
1.000000 0.760494 0.478309
1.000000 0.785367 0.533501
1.000000 0.806088 0.580682
1.000000 0.788693 0.553246
1.000000 0.765957 0.516747
1.000000 0.743069 0.481697
1.000000 0.720851 0.450080
1.000000 0.699001 0.420325
1.000000 0.678004 0.394354
1.000000 0.658595 0.373053
1.000000 0.640375 0.355138
1.000000 0.623285 0.341009
0.589197 0.540429 0.549523
0.587915 0.539300 0.548425
0.585199 0.536736 0.545983
0.582452 0.534264 0.543572
0.579431 0.531426 0.540887
0.576928 0.529137 0.538659
0.573266 0.530297 0.538079
0.525902 0.551629 0.530571
0.467659 0.578698 0.511681
0.395727 0.611414 0.472419
0.380041 0.644678 0.426123
0.478279 0.674678 0.386114
0.618128 0.700313 0.335027
0.762936 0.719234 0.267338
0.863615 0.690181 0.204318
0.945373 0.586633 0.190890
1.000000 0.553307 0.214908
1.000000 0.614618 0.260746
1.000000 0.662867 0.317021
1.000000 0.701381 0.374517
1.000000 0.734951 0.436866
1.000000 0.764340 0.498177
1.000000 0.788693 0.550927
1.000000 0.809384 0.596948
1.000000 0.823270 0.629541
1.000000 0.802304 0.594232
1.000000 0.781308 0.560327
1.000000 0.760189 0.528099
1.000000 0.739742 0.498817
1.000000 0.720027 0.472847
1.000000 0.701045 0.449775
1.000000 0.683131 0.430121
0.653437 0.603876 0.610193
0.652888 0.603296 0.609644
0.650813 0.601129 0.607538
0.647730 0.597955 0.604547
0.644221 0.594324 0.601099
0.640925 0.590936 0.597833
0.639796 0.589837 0.596796
0.615839 0.600855 0.593896
0.571527 0.623346 0.583673
0.519554 0.650629 0.561334
0.456794 0.682643 0.516747
0.476509 0.711391 0.479988
0.563500 0.735012 0.440009
0.680018 0.752438 0.388617
0.803555 0.763638 0.321050
0.892027 0.734951 0.253605
0.961334 0.639063 0.222446
1.000000 0.568627 0.237186
1.000000 0.626154 0.288273
1.000000 0.671962 0.346227
1.000000 0.708980 0.402899
1.000000 0.741024 0.461158
1.000000 0.769375 0.519158
1.000000 0.793515 0.570672
1.000000 0.813657 0.614435
1.000000 0.830777 0.652186
1.000000 0.833433 0.661585
1.000000 0.814572 0.630610
1.000000 0.795926 0.601617
1.000000 0.777859 0.575372
1.000000 0.760311 0.551690
1.000000 0.743496 0.530877
0.699397 0.653956 0.657740
0.699641 0.654231 0.658015
0.699092 0.653620 0.657435
0.698268 0.652674 0.656550
0.697139 0.651392 0.655329
0.696834 0.650996 0.654963
0.697902 0.652216 0.656123
0.695216 0.657313 0.658228
0.662623 0.676600 0.654688
0.623560 0.698848 0.642481
0.577966 0.722744 0.616114
0.532036 0.747005 0.570397
0.560601 0.765103 0.536126
0.629541 0.778775 0.493202
0.724605 0.787930 0.439094
0.829343 0.792844 0.370153
0.909575 0.766567 0.299931
0.970031 0.679774 0.257939
1.000000 0.580468 0.256077
1.000000 0.635615 0.311772
1.000000 0.680171 0.371160
1.000000 0.716915 0.429725
1.000000 0.748043 0.486030
1.000000 0.776272 0.543420
1.000000 0.799832 0.592981
1.000000 0.819821 0.635767
1.000000 0.836637 0.671901
1.000000 0.850858 0.702083
1.000000 0.844114 0.693568
1.000000 0.827939 0.668696
1.000000 0.811521 0.644221
1.000000 0.795193 0.620996
0.735866 0.696345 0.697993
0.735805 0.696254 0.697932
0.735592 0.696010 0.697688
0.735225 0.695613 0.697292
0.735134 0.695460 0.697139
0.735225 0.695613 0.697292
0.736202 0.696773 0.698421
0.738094 0.699001 0.700526
0.720729 0.710506 0.700374
0.691157 0.727413 0.694026
0.655695 0.746304 0.678401
0.615167 0.766171 0.649042
0.589990 0.784726 0.609918
0.618006 0.798123 0.576928
0.677150 0.807919 0.535760
0.758419 0.813931 0.484474
0.850278 0.816800 0.420783
0.924163 0.794766 0.352972
0.977813 0.717708 0.303319
1.000000 0.606897 0.283635
1.000000 0.647700 0.338506
1.000000 0.690791 0.399695
1.000000 0.726070 0.457099
1.000000 0.756710 0.513237
1.000000 0.784146 0.568658
1.000000 0.807248 0.616632
1.000000 0.826810 0.657740
1.000000 0.843198 0.691951
1.000000 0.856962 0.720394
1.000000 0.868193 0.743374
1.000000 0.854337 0.722805
1.000000 0.840238 0.702327
0.769863 0.737514 0.737270
0.770382 0.738125 0.737819
0.801846 0.776761 0.774990
0.801755 0.776669 0.774899
0.801633 0.776486 0.774716
0.801480 0.776333 0.774563
0.801541 0.776425 0.774655
0.802090 0.777096 0.775296
0.798825 0.780423 0.776211
0.779507 0.790951 0.773495
0.757107 0.802670 0.765835
0.731380 0.815122 0.750546
0.700832 0.827726 0.722896
0.689998 0.838102 0.693324
0.707027 0.845518 0.662257
0.746487 0.850431 0.622827
0.806638 0.852598 0.574090
0.880583 0.852445 0.515099
0.945251 0.832944 0.450202
0.991669 0.765682 0.389990
1.000000 0.670253 0.352819
1.000000 0.674006 0.393286
1.000000 0.712978 0.452491
1.000000 0.744320 0.503807
1.000000 0.772396 0.556023
1.000000 0.797086 0.605005
1.000000 0.817929 0.647181
1.000000 0.835660 0.682979
1.000000 0.850645 0.713100
1.000000 0.863462 0.738491
1.000000 0.874571 0.760372
1.000000 0.875456 0.764523
0.804929 0.780545 0.778622
0.807340 0.783474 0.781491
0.809873 0.786557 0.784482
0.812100 0.789273 0.787137
0.813809 0.791318 0.789120
0.814481 0.792111 0.789883
0.814755 0.792447 0.790219
0.815000 0.792752 0.790524
0.815793 0.793729 0.791470
0.803769 0.800443 0.790677
0.785489 0.809995 0.786374
0.764523 0.820310 0.777096
0.740017 0.830991 0.759731
0.711940 0.842008 0.731014
0.711299 0.850004 0.706966
0.729458 0.856260 0.678065
0.766506 0.860533 0.642115
0.821530 0.862821 0.598138
0.889494 0.863310 0.545953
0.950683 0.848051 0.488716
0.993835 0.790249 0.433967
1.000000 0.707912 0.393835
1.000000 0.683894 0.415106
1.000000 0.721157 0.473030
1.000000 0.751095 0.522393
1.000000 0.779690 0.577203
1.000000 0.803616 0.624262
1.000000 0.824063 0.665064
1.000000 0.841459 0.699580
1.000000 0.856107 0.728389
1.000000 0.868681 0.752804
1.000000 0.879423 0.773312
0.820218 0.799039 0.796658
0.822477 0.801755 0.799313
0.824765 0.804532 0.801999
0.826932 0.807095 0.804501
0.828458 0.808927 0.806302
0.829191 0.809812 0.807187
0.829435 0.810086 0.807462
0.829679 0.810361 0.807736
0.830198 0.811002 0.808347
0.826932 0.813504 0.808682
0.812070 0.821073 0.806485
0.795132 0.829496 0.800900
0.775601 0.838315 0.790158
0.753567 0.847593 0.772366
0.733028 0.856748 0.747036
0.736141 0.863371 0.725704
0.754177 0.868559 0.699397
0.788205 0.872282 0.667079
0.837522 0.874418 0.627680
0.898894 0.875059 0.580926
0.956176 0.862974 0.529290
0.996002 0.812985 0.479438
1.000000 0.741299 0.437385
1.000000 0.694331 0.437507
1.000000 0.729244 0.491951
1.000000 0.760220 0.546715
1.000000 0.787778 0.599390
1.000000 0.811185 0.645167
1.000000 0.831113 0.684199
1.000000 0.847990 0.717067
1.000000 0.862211 0.744320
1.000000 0.874296 0.767178
0.835142 0.816892 0.814145
0.836912 0.818997 0.816190
0.838743 0.821164 0.818326
0.840452 0.823148 0.820310
0.841672 0.824613 0.821714
0.842252 0.825284 0.822385
0.842527 0.825620 0.822721
0.842679 0.825834 0.822934
0.843168 0.826352 0.823453
0.843717 0.827024 0.824125
0.834287 0.832212 0.823484
0.820523 0.839078 0.820340
0.804868 0.846433 0.813779
0.787167 0.854246 0.802487
0.767300 0.862516 0.784573
0.754757 0.870146 0.763821
0.760555 0.876249 0.745510
0.779080 0.881407 0.723751
0.811185 0.885527 0.698085
0.855741 0.888487 0.667536
0.910552 0.890227 0.630732
0.963806 0.881987 0.588495
1.000000 0.840482 0.546288
1.000000 0.780362 0.506615
1.000000 0.718074 0.486915
1.000000 0.751003 0.540581
1.000000 0.781796 0.598077
1.000000 0.807736 0.647486
1.000000 0.829465 0.689052
1.000000 0.847410 0.722957
1.000000 0.862303 0.750637
1.000000 0.874754 0.773312
0.858488 0.844297 0.841215
0.859098 0.844999 0.841886
0.859556 0.845548 0.842435
0.859831 0.845884 0.842771
0.859983 0.846006 0.842924
0.859861 0.845884 0.842771
0.859739 0.845762 0.842649
0.859739 0.845762 0.842649
0.859953 0.846036 0.842924
0.860533 0.846647 0.843534
0.858061 0.848783 0.843992
0.847349 0.854337 0.842588
0.835294 0.860227 0.838834
0.821530 0.866545 0.831937
0.805966 0.873228 0.820706
0.788724 0.880247 0.803555
0.782803 0.886229 0.787533
0.789059 0.891203 0.771481
0.805539 0.895384 0.752316
0.833249 0.898680 0.729610
0.871489 0.900908 0.702388
0.919432 0.902007 0.669184
0.968231 0.895262 0.629633
1.000000 0.858274 0.587945
1.000000 0.804776 0.546593
1.000000 0.729305 0.507805
1.000000 0.762875 0.568627
1.000000 0.792660 0.624231
1.000000 0.817746 0.671809
1.000000 0.838224 0.710109
1.000000 0.855161 0.741329
1.000000 0.869078 0.766445
0.869535 0.857053 0.853910
0.870024 0.857572 0.854459
0.870390 0.858061 0.854887
0.870665 0.858366 0.855222
0.870817 0.858518 0.855375
0.870817 0.858518 0.855375
0.870756 0.858457 0.855314
0.870817 0.858488 0.855344
0.871031 0.858793 0.855619
0.871458 0.859281 0.856138
0.872068 0.859983 0.856840
0.865171 0.863859 0.856504
0.855161 0.868925 0.854429
0.844114 0.874388 0.850278
0.831632 0.880217 0.843107
0.817990 0.886351 0.832151
0.803006 0.892912 0.815946
0.802731 0.897978 0.804166
0.809903 0.902525 0.790341
0.825772 0.906432 0.774197
0.850828 0.909514 0.755001
0.885008 0.911681 0.731807
0.927642 0.912810 0.703609
0.972534 0.907988 0.669673
1.000000 0.871611 0.617487
1.000000 0.823667 0.576471
1.000000 0.759640 0.546166
1.000000 0.773007 0.592309
1.000000 0.802029 0.646509
1.000000 0.826169 0.691676
1.000000 0.845884 0.727901
1.000000 0.861906 0.756741
0.884092 0.873716 0.870573
0.884764 0.874449 0.871336
0.885100 0.874784 0.871702
0.885008 0.874693 0.871611
0.884642 0.874296 0.871183
0.884062 0.873655 0.870542
0.883391 0.872892 0.869749
0.882780 0.872190 0.869078
0.882292 0.871641 0.868498
0.882017 0.871305 0.868193
0.881804 0.871092 0.867948
0.879667 0.872099 0.867826
0.870756 0.875944 0.866239
0.860716 0.880095 0.863035
0.849485 0.884550 0.857603
0.837125 0.889403 0.849424
0.823575 0.894774 0.837491
0.812161 0.900328 0.822965
0.813321 0.904967 0.811887
0.821653 0.909361 0.799588
0.837705 0.913176 0.785245
0.861479 0.916167 0.768063
0.893126 0.918120 0.746731
0.932280 0.918914 0.720027
0.974823 0.914977 0.686976
1.000000 0.885252 0.650782
1.000000 0.843259 0.615320
1.000000 0.788937 0.590692
1.000000 0.785061 0.619623
1.000000 0.812528 0.670436
1.000000 0.835019 0.711666
1.000000 0.853391 0.744778
0.890623 0.881041 0.877958
0.891173 0.881712 0.878630
0.891569 0.882109 0.879057
0.891661 0.882261 0.879179
0.891600 0.882200 0.879118
0.891508 0.882078 0.879026
0.891447 0.881987 0.878904
0.891417 0.881956 0.878874
0.891508 0.882048 0.878965
0.891691 0.882292 0.879210
0.891905 0.882506 0.879454
0.892210 0.882841 0.879789
0.886778 0.885466 0.879332
0.878599 0.889097 0.877470
0.869322 0.892912 0.873960
0.859159 0.897002 0.868406
0.847929 0.901488 0.860258
0.836088 0.906462 0.848936
0.828916 0.911345 0.837217
0.831327 0.915618 0.827695
0.839658 0.919524 0.816800
0.854398 0.922911 0.804135
0.875822 0.925566 0.788998
0.904143 0.927367 0.770382
0.939391 0.928191 0.747372
0.978882 0.925689 0.718837
1.000000 0.900420 0.692378
1.000000 0.865568 0.668086
1.000000 0.820768 0.647333
1.000000 0.804013 0.660548
1.000000 0.828550 0.704921
1.000000 0.848325 0.740108
0.899840 0.891417 0.888426
0.900114 0.891722 0.888762
0.900267 0.891875 0.888914
0.900237 0.891905 0.888914
0.900175 0.891783 0.888823
0.899992 0.891630 0.888640
0.899870 0.891447 0.888487
0.899748 0.891295 0.888334
0.899748 0.891325 0.888334
0.899840 0.891417 0.888426
0.899962 0.891569 0.888579
0.900206 0.891814 0.888853
0.899107 0.892668 0.889006
0.892119 0.895842 0.887999
0.884276 0.899168 0.885740
0.875517 0.902708 0.881895
0.866056 0.906615 0.876188
0.855894 0.910948 0.868193
0.845304 0.915770 0.857359
0.841794 0.920195 0.848081
0.845029 0.924102 0.839536
0.853239 0.927672 0.829648
0.866972 0.930632 0.817838
0.886595 0.932921 0.803708
0.912444 0.934417 0.786496
0.944549 0.935088 0.766201
0.980865 0.934142 0.745663
1.000000 0.912108 0.725277
1.000000 0.881926 0.704799
1.000000 0.844419 0.688228
1.000000 0.817136 0.688502
1.000000 0.839506 0.728115
0.906737 0.899138 0.896269
0.906950 0.899382 0.896483
0.907134 0.899565 0.896696
0.907225 0.899687 0.896818
0.907378 0.899840 0.896971
0.907622 0.900114 0.897215
0.908141 0.900694 0.897826
0.908812 0.901457 0.898619
0.909697 0.902434 0.899596
0.910735 0.903563 0.900755
0.911833 0.904784 0.901976
0.912902 0.905974 0.903197
0.913878 0.907042 0.904265
0.910857 0.909545 0.904723
0.905180 0.912840 0.904082
0.898558 0.916075 0.902007
0.891356 0.919402 0.898589
0.883482 0.923064 0.893462
0.875273 0.927062 0.886534
0.866728 0.931426 0.877134
0.866178 0.935027 0.870603
0.869413 0.938354 0.863340
0.876555 0.941253 0.854765
0.888182 0.943694 0.844663
0.904723 0.945556 0.832670
0.926574 0.946868 0.821347
0.953521 0.947601 0.808072
0.985382 0.947631 0.792355
1.000000 0.929686 0.777523
1.000000 0.905760 0.762936
1.000000 0.876371 0.750149
1.000000 0.842161 0.738582
0.919249 0.912963 0.910338
0.919249 0.912993 0.910338
0.919188 0.912932 0.910277
0.919158 0.912840 0.910185
0.919066 0.912749 0.910094
0.918975 0.912688 0.910033
0.919005 0.912688 0.910063
0.919066 0.912779 0.910124
0.919219 0.912963 0.910307
0.919493 0.913237 0.910613
0.919799 0.913603 0.910948
0.920195 0.914000 0.911376
0.920562 0.914427 0.911803
