20 Preset/Dark Style/【3】LUT video cho PR-AE-FCPX/19Tones (2)/19Tones -Denis x Villa _ d.cube
# Created by Adobe Lightroom plugin Export LUT (1.24.0)
# www.johnrellis.com/lightroom/exportlut.htm
# Preset: 19Tones -Denis x Villa / d
# Color profile: E:\lut插件\exportlut.1.24\exportlut.lrplugin\color profiles\Rec709gamma2.4.icc
LUT_3D_SIZE 5
DOMAIN_MIN 0.000000 0.000000 0.000000
DOMAIN_MAX 0.903226 0.903226 0.903226
0.105837 0.187747 0.211307
0.129335 0.188022 0.211612
0.261540 0.188266 0.211307
0.676875 0.121096 0.197086
1.000000 0.157198 0.149386
0.104616 0.198154 0.218448
0.114900 0.196567 0.216678
0.187839 0.204166 0.214878
0.530877 0.218387 0.204837
0.988800 0.274815 0.147738
0.000000 0.326055 0.301549
0.146090 0.295903 0.289616
0.214481 0.295720 0.267948
0.417945 0.292668 0.235874
0.764218 0.375372 0.198428
0.162417 0.694484 0.596826
0.314977 0.675502 0.590661
0.576349 0.586816 0.574212
0.538201 0.591821 0.461097
0.835538 0.587366 0.370489
0.752682 0.910979 0.861387
0.765316 0.907561 0.861295
0.796170 0.883146 0.849180
0.863981 0.860746 0.853758
0.851774 0.880308 0.810239
0.102144 0.190158 0.215518
0.110475 0.191104 0.214359
0.265049 0.184573 0.215579
0.585199 0.158694 0.207095
0.958526 0.177096 0.160586
0.090120 0.202609 0.222141
0.124849 0.200412 0.222995
0.215976 0.208957 0.221225
0.508232 0.214420 0.212894
0.923369 0.253178 0.164797
0.000000 0.329046 0.302922
0.121370 0.309514 0.297398
0.212558 0.287816 0.273014
0.396063 0.287633 0.243320
0.777218 0.374975 0.208408
0.156191 0.706874 0.608972
0.312016 0.691005 0.604273
0.569879 0.608148 0.586328
0.549462 0.596124 0.480140
0.832578 0.588403 0.384649
0.750607 0.913481 0.863432
0.762173 0.909850 0.862791
0.810697 0.895872 0.863279
0.875120 0.869383 0.864073
0.861936 0.888060 0.825101
0.032776 0.204807 0.244419
0.093629 0.203403 0.240146
0.150423 0.217350 0.238682
0.643915 0.000000 0.257908
1.000000 0.000000 0.233280
0.000000 0.227939 0.270146
0.075410 0.224826 0.264897
0.181277 0.238499 0.258061
0.733211 0.000000 0.266758
1.000000 0.000000 0.239170
0.000000 0.387427 0.356481
0.000000 0.392828 0.356451
0.331182 0.342870 0.355413
0.497078 0.333227 0.296300
0.911437 0.401221 0.267613
0.000000 0.755398 0.635859
0.000000 0.736995 0.629908
0.536034 0.681910 0.631922
0.609979 0.630518 0.562585
0.830076 0.596033 0.432929
0.671778 0.923857 0.858457
0.711635 0.920562 0.862760
0.794614 0.907256 0.868894
0.871458 0.876524 0.867948
0.861326 0.884428 0.829160
0.000000 0.272862 0.376013
0.000000 0.267338 0.368048
0.163546 0.266087 0.327428
0.308446 0.324804 0.339086
0.880064 0.400183 0.484169
0.000000 0.311559 0.420600
0.000000 0.302190 0.409430
0.175723 0.290562 0.361730
0.346624 0.351171 0.364599
0.911681 0.399359 0.489540
0.000000 0.452277 0.524987
0.000000 0.444099 0.519585
0.143008 0.428779 0.508843
0.511162 0.472755 0.483925
1.000000 0.459937 0.547021
0.000000 0.795071 0.705013
0.000000 0.792721 0.701808
0.000000 0.792569 0.703120
0.736873 0.701656 0.701564
0.876097 0.627649 0.530846
0.291569 0.958221 0.860075
0.421576 0.953948 0.863066
0.674495 0.938994 0.876188
0.854643 0.911955 0.889097
0.877317 0.892485 0.857206
0.000000 0.484535 0.706325
0.000000 0.473182 0.696284
0.000000 0.446235 0.658473
0.523980 0.499184 0.543603
0.635431 0.585382 0.592554
0.000000 0.508049 0.718013
0.000000 0.497749 0.710109
0.000000 0.468086 0.673823
0.527214 0.509545 0.565637
0.649500 0.599817 0.606317
0.000000 0.611444 0.776150
0.000000 0.603296 0.770443
0.000000 0.575341 0.747616
0.554894 0.574975 0.666011
0.725887 0.684504 0.686763
0.000000 0.801541 0.845914
0.000000 0.794614 0.842802
0.000000 0.769924 0.836027
0.600122 0.751369 0.822690
0.838590 0.820951 0.818143
0.000000 0.978241 0.900175
0.000000 0.975494 0.899748
0.000000 0.964935 0.901854
0.707942 0.948211 0.907561
0.920165 0.915343 0.912139
