20 Preset/Dark Style/【3】LUT video cho PR-AE-FCPX/19Tones (2)/19Tones - Bridge x Sunset _ d.cube
# Created by Adobe Lightroom plugin Export LUT (1.24.0)
# www.johnrellis.com/lightroom/exportlut.htm
# Preset: 19Tones - Bridge x Sunset / d
# Color profile: E:\lut插件\exportlut.1.24\exportlut.lrplugin\color profiles\Rec709gamma2.4.icc
LUT_3D_SIZE 8
DOMAIN_MIN 0.000000 0.000000 0.000000
DOMAIN_MAX 0.903226 0.903226 0.903226
0.105837 0.187747 0.211307
0.106630 0.188418 0.212009
0.113649 0.190646 0.214359
0.129427 0.191409 0.216403
0.146670 0.191440 0.217838
0.167575 0.191196 0.219577
0.211337 0.190127 0.223850
0.303227 0.183932 0.234592
0.107179 0.188968 0.212436
0.109163 0.190249 0.211765
0.136507 0.188388 0.212650
0.152346 0.188998 0.215305
0.169650 0.189456 0.217533
0.188693 0.189334 0.219608
0.221622 0.188174 0.222812
0.295628 0.182498 0.231113
0.126619 0.201633 0.224155
0.126375 0.201511 0.224063
0.156558 0.222049 0.212406
0.315618 0.217746 0.206180
0.395758 0.175784 0.209354
0.414252 0.153262 0.215488
0.472694 0.116121 0.221653
0.588373 0.000000 0.232120
0.207004 0.255711 0.273991
0.203403 0.253422 0.271794
0.203006 0.260899 0.270573
0.420417 0.421149 0.188357
0.798734 0.462440 0.000000
0.961669 0.301061 0.111147
0.975769 0.000000 0.168521
0.991608 0.000000 0.200320
0.436011 0.414923 0.427100
0.430793 0.411078 0.423346
0.424781 0.406806 0.419104
0.427710 0.489998 0.375769
0.712764 0.676844 0.098329
0.945647 0.674586 0.000000
1.000000 0.535363 0.000000
1.000000 0.372808 0.000000
0.673579 0.625299 0.630579
0.688991 0.642267 0.646693
0.683589 0.636225 0.640955
0.674800 0.626673 0.631891
0.679744 0.740597 0.539788
0.865751 0.838712 0.318486
1.000000 0.822934 0.000000
1.000000 0.705715 0.000000
0.820127 0.798978 0.796567
0.821805 0.800931 0.798489
0.818051 0.796475 0.794125
0.813474 0.790890 0.788724
0.799954 0.794400 0.771115
0.817960 0.865446 0.703700
0.927916 0.909941 0.559289
1.000000 0.895628 0.322972
0.902495 0.894408 0.891447
0.902251 0.894133 0.891173
0.902220 0.894102 0.891142
0.903136 0.895109 0.892180
0.888365 0.878538 0.875425
0.886107 0.902007 0.866239
0.905303 0.936248 0.834958
0.963806 0.956634 0.756069
0.104891 0.188205 0.212558
0.106905 0.188571 0.212100
0.110658 0.191257 0.214572
0.133028 0.191440 0.216495
0.158236 0.190494 0.217685
0.178592 0.189975 0.219333
0.203433 0.189425 0.221805
0.252811 0.187625 0.227756
0.105318 0.189364 0.212802
0.109102 0.190188 0.213565
0.126711 0.190463 0.214664
0.152438 0.190005 0.216190
0.178683 0.188846 0.217472
0.202152 0.187594 0.219089
0.221561 0.187320 0.221683
0.263066 0.185245 0.226963
0.127962 0.202609 0.224979
0.129702 0.203555 0.225925
0.151003 0.218173 0.217075
0.287358 0.208438 0.211551
0.336339 0.182010 0.214145
0.356268 0.168734 0.217258
0.395270 0.152712 0.219760
0.467353 0.113191 0.226017
0.197177 0.249241 0.267887
0.196139 0.248325 0.267155
0.198123 0.249760 0.268467
0.332189 0.352758 0.212131
0.656611 0.364111 0.162081
0.846189 0.218784 0.167422
0.837583 0.000000 0.193057
0.877836 0.000000 0.205539
0.420966 0.403998 0.416327
0.412512 0.397772 0.410224
0.398779 0.387945 0.400610
0.383307 0.440162 0.359442
0.648096 0.612360 0.151034
0.904479 0.625147 0.000000
1.000000 0.497078 0.000000
1.000000 0.336950 0.000000
0.647181 0.597375 0.603998
0.646876 0.597070 0.603693
0.643214 0.593317 0.600092
0.639429 0.589441 0.596460
0.649348 0.707179 0.514672
0.851469 0.823697 0.309392
1.000000 0.810269 0.000000
1.000000 0.690883 0.000000
0.803342 0.778622 0.776791
0.799802 0.774319 0.772610
0.794980 0.768368 0.766873
0.792203 0.765011 0.763638
0.784634 0.772183 0.753628
0.802701 0.851957 0.681819
0.918639 0.898924 0.522332
1.000000 0.884581 0.265599
0.894163 0.885069 0.882017
0.895506 0.886564 0.883543
0.895140 0.886107 0.883085
0.896178 0.887327 0.884276
0.895964 0.887053 0.884031
0.889158 0.903532 0.870542
0.903899 0.934722 0.834379
0.962646 0.955413 0.755489
0.101106 0.190066 0.219394
0.107118 0.189761 0.219516
0.117556 0.195804 0.218753
0.137545 0.208988 0.230900
0.123445 0.199405 0.222171
0.141756 0.196292 0.221622
0.175265 0.194522 0.223453
0.253056 0.190311 0.230472
0.101350 0.192325 0.221469
0.107515 0.191989 0.222171
0.124147 0.200046 0.222690
0.137728 0.209110 0.230991
0.128389 0.199649 0.222934
0.155978 0.196841 0.223331
0.188296 0.194034 0.224399
0.262913 0.188327 0.229984
0.107912 0.206729 0.228855
0.114961 0.208927 0.230961
0.153750 0.219608 0.240757
0.198520 0.209812 0.236118
0.233585 0.200107 0.232120
0.260380 0.191928 0.229343
0.298589 0.183200 0.228885
0.405005 0.155550 0.233646
0.220859 0.265110 0.282658
0.230381 0.271672 0.288762
0.254551 0.288182 0.304204
0.357977 0.367926 0.259983
0.676387 0.325780 0.218418
0.768246 0.147646 0.218448
0.746273 0.000000 0.224582
0.806363 0.000000 0.227726
0.460853 0.433478 0.445380
0.466255 0.437629 0.449439
0.468940 0.439612 0.451392
0.457465 0.450843 0.438148
0.672877 0.633570 0.273106
0.912749 0.608484 0.098695
1.000000 0.457862 0.119570
1.000000 0.277928 0.145541
0.675502 0.627375 0.632563
0.676539 0.628595 0.633692
0.671229 0.622797 0.628199
0.662593 0.613519 0.619379
0.657435 0.693721 0.562921
0.843381 0.816403 0.407630
1.000000 0.798856 0.218051
1.000000 0.678584 0.123842
0.819608 0.798337 0.795926
0.816861 0.795041 0.792752
0.810452 0.787228 0.785122
0.804593 0.780117 0.778225
0.798306 0.772427 0.770809
0.809323 0.851011 0.716243
0.918608 0.902007 0.600488
1.000000 0.887419 0.424750
0.898314 0.889708 0.886717
0.897307 0.888548 0.885557
0.896605 0.887816 0.884794
0.899443 0.890990 0.887999
0.898894 0.890349 0.887358
0.895018 0.903655 0.879789
0.907805 0.935882 0.849302
0.962585 0.956603 0.783230
0.095125 0.191318 0.231357
0.102541 0.191470 0.233768
0.139406 0.199985 0.241367
0.167819 0.229252 0.249546
0.281041 0.306157 0.321141
0.176364 0.235142 0.254978
0.120974 0.197787 0.220554
0.134890 0.195926 0.220768
0.094728 0.193912 0.236118
0.099672 0.194003 0.238712
0.145174 0.204471 0.248447
0.183200 0.239811 0.259251
0.284245 0.308263 0.323278
0.171572 0.231937 0.252018
0.118746 0.196414 0.219394
0.142794 0.196750 0.222293
0.070375 0.204471 0.236851
0.077150 0.206088 0.240696
0.131655 0.214694 0.262852
0.227268 0.269566 0.286778
0.271916 0.299840 0.315251
0.151156 0.218021 0.239261
0.151308 0.201907 0.227176
0.207584 0.200137 0.232578
0.100282 0.263401 0.280858
0.113588 0.267704 0.284703
0.175448 0.291508 0.306737
0.357702 0.358923 0.372137
0.392187 0.278172 0.312139
0.391485 0.225345 0.273960
0.403296 0.192081 0.254490
0.492439 0.144381 0.251072
0.512291 0.473640 0.484779
0.515007 0.475868 0.486976
0.540826 0.497383 0.507897
0.584009 0.535668 0.544915
0.690059 0.647303 0.464729
0.914275 0.562737 0.359197
1.000000 0.363439 0.289647
1.000000 0.115572 0.261997
0.716243 0.673274 0.676081
0.730404 0.689815 0.691798
0.735988 0.696498 0.698146
0.740505 0.701930 0.703304
0.724239 0.710811 0.680079
0.844297 0.821622 0.575219
1.000000 0.786587 0.457038
1.000000 0.657710 0.358434
0.832944 0.814237 0.811521
0.834745 0.816403 0.813626
0.839048 0.821500 0.818662
0.836942 0.819028 0.816220
0.830533 0.811429 0.808774
0.829007 0.855039 0.777157
0.916320 0.904173 0.699123
1.000000 0.886473 0.583764
0.910002 0.902739 0.899931
0.910277 0.903075 0.900267
0.909728 0.902464 0.899657
0.909087 0.901762 0.898924
0.907561 0.900053 0.897185
0.905119 0.901854 0.894133
0.912779 0.936248 0.870054
0.962951 0.958526 0.823453
0.082429 0.192874 0.251408
0.090181 0.193912 0.255894
0.131960 0.200626 0.274083
0.255131 0.250919 0.319066
0.326726 0.337407 0.351202
0.549126 0.504540 0.514855
0.425879 0.407568 0.419867
0.193423 0.246555 0.265446
0.075532 0.195712 0.255558
0.081910 0.196078 0.260594
0.131563 0.203983 0.280919
0.267002 0.257450 0.329747
0.352575 0.355291 0.368627
0.567834 0.520958 0.530785
0.413458 0.398444 0.410895
0.184024 0.240146 0.259586
0.047578 0.206577 0.257511
0.055085 0.208164 0.264286
0.103853 0.211826 0.289006
0.285252 0.273136 0.356725
0.420081 0.403357 0.415686
0.598962 0.549615 0.558343
0.339788 0.346471 0.359991
0.150484 0.217594 0.238773
0.000000 0.224186 0.260166
0.000000 0.225406 0.262150
0.000000 0.230930 0.272129
0.232609 0.292393 0.384588
0.547265 0.502892 0.513237
0.566003 0.519371 0.529198
0.215610 0.261631 0.279423
0.142641 0.203738 0.227634
0.000000 0.367376 0.378241
0.060151 0.374670 0.385168
0.194186 0.404334 0.413764
0.379767 0.472847 0.481392
0.640589 0.590600 0.597528
0.625574 0.414313 0.452674
0.581964 0.266209 0.339055
0.603815 0.163516 0.290867
0.689235 0.642512 0.646906
0.692714 0.646418 0.650599
0.697902 0.652216 0.656123
0.716335 0.673304 0.676143
0.738918 0.699977 0.701472
0.817136 0.793576 0.670619
0.975830 0.738430 0.594293
1.000000 0.578119 0.478401
0.829801 0.810483 0.807828
0.828733 0.809262 0.806638
0.829435 0.810086 0.807462
0.839445 0.821988 0.819120
0.844541 0.828000 0.825071
0.834623 0.834928 0.809903
0.905333 0.894957 0.756313
1.000000 0.868193 0.669642
0.899901 0.891478 0.888487
0.900114 0.891752 0.888792
0.901884 0.893706 0.890776
0.910643 0.903441 0.900633
0.911406 0.904295 0.901488
0.909422 0.902098 0.899260
0.910979 0.928862 0.883116
0.958587 0.954559 0.844450
0.000916 0.196536 0.288151
0.012726 0.197543 0.295201
0.104891 0.203799 0.324102
0.255924 0.234470 0.399908
0.564477 0.459449 0.537346
0.624384 0.574304 0.581964
0.752743 0.716609 0.717311
0.780453 0.750546 0.749691
0.003601 0.197940 0.284886
0.010468 0.198398 0.290654
0.099550 0.204898 0.318364
0.244724 0.234928 0.390478
0.546410 0.443153 0.523827
0.611566 0.561700 0.569940
0.743862 0.705898 0.707088
0.765469 0.732113 0.732082
0.000000 0.207584 0.284367
0.000000 0.208072 0.290867
0.003571 0.211215 0.325170
0.235935 0.248692 0.409339
0.583948 0.469490 0.562676
0.661067 0.611963 0.617853
0.771695 0.739803 0.739406
0.746517 0.709071 0.710109
0.003601 0.210025 0.254368
0.000000 0.212741 0.260868
0.000000 0.228183 0.300389
0.134279 0.264286 0.420508
0.630762 0.518639 0.628290
0.748165 0.711055 0.712001
0.821103 0.800137 0.797696
0.688380 0.641535 0.645991
0.000000 0.253849 0.293828
0.000000 0.255009 0.295567
0.000000 0.260197 0.303807
0.000000 0.271611 0.324651
0.436591 0.438849 0.568353
0.769741 0.737392 0.737087
0.777584 0.747036 0.746334
0.335515 0.343511 0.357122
0.000000 0.496925 0.502678
0.000000 0.507469 0.512932
0.198062 0.530022 0.534844
0.382452 0.576959 0.581201
0.595911 0.656764 0.659449
0.805966 0.781796 0.779873
0.801663 0.586328 0.615839
0.812772 0.336248 0.438148
0.819669 0.816617 0.810636
0.826505 0.821439 0.815946
0.845243 0.832059 0.828458
0.856138 0.841581 0.838499
0.864775 0.851560 0.848447
0.870848 0.858549 0.855406
0.903349 0.894957 0.831388
0.998413 0.857481 0.779568
0.902770 0.894713 0.891752
0.902281 0.894163 0.891203
0.903319 0.895323 0.892393
0.908171 0.900725 0.897856
0.914549 0.907774 0.905028
0.918975 0.912688 0.910033
0.915984 0.920256 0.904112
0.955932 0.952483 0.877409
0.000000 0.201144 0.351965
0.000000 0.202457 0.362615
0.000000 0.208225 0.400244
0.221500 0.229862 0.489693
0.542382 0.352880 0.619165
0.759823 0.713405 0.724849
0.770474 0.738277 0.737942
0.830045 0.810819 0.808194
0.000000 0.201572 0.340826
0.000000 0.202579 0.351537
0.000000 0.208438 0.387579
0.203861 0.229282 0.470558
0.517144 0.341772 0.600244
0.746578 0.693324 0.709529
0.755550 0.720027 0.720546
0.818051 0.796475 0.794125
0.000000 0.210849 0.334234
0.000000 0.210910 0.342535
0.000000 0.211673 0.379126
0.162356 0.236210 0.467781
0.507988 0.353307 0.607172
0.764981 0.704982 0.731258
0.783474 0.754269 0.753292
0.841093 0.823911 0.821042
0.000000 0.217838 0.296880
0.000000 0.219730 0.304845
0.000000 0.226444 0.342565
0.000000 0.239292 0.441962
0.462989 0.363714 0.613703
0.791043 0.725338 0.765805
0.820951 0.799924 0.797513
0.865049 0.851865 0.848753
0.026215 0.204929 0.239933
0.030823 0.204623 0.239536
0.000000 0.210727 0.252750
0.000000 0.238987 0.321294
0.189761 0.316289 0.535241
0.767514 0.685634 0.758877
0.839506 0.822080 0.819242
0.885801 0.875608 0.872526
0.000000 0.294041 0.339635
0.000000 0.294408 0.340459
0.000000 0.294774 0.342779
0.000000 0.294804 0.347417
0.000000 0.293034 0.356664
0.593378 0.574914 0.710109
0.873411 0.861479 0.858335
0.879362 0.868284 0.865141
0.000000 0.645411 0.644068
0.000000 0.650629 0.649195
0.120302 0.662074 0.660609
0.356115 0.689082 0.687556
0.549767 0.732265 0.730495
0.744991 0.798062 0.795407
0.889891 0.880247 0.877165
0.890776 0.716457 0.734920
0.862913 0.883391 0.874907
0.866087 0.884825 0.876646
0.880156 0.892027 0.885130
0.901671 0.902708 0.898100
0.920562 0.914397 0.911772
0.927703 0.922271 0.919799
0.933440 0.928557 0.926238
0.954620 0.951476 0.913664
0.000000 0.213382 0.522545
0.000000 0.214817 0.534783
0.000000 0.220310 0.566217
0.179080 0.240085 0.639155
0.532219 0.333318 0.728115
0.778225 0.616785 0.793912
0.850248 0.834684 0.831662
0.854520 0.839658 0.836576
0.000000 0.212345 0.501335
0.000000 0.213993 0.514031
0.000000 0.219821 0.550866
0.146731 0.238987 0.623896
0.513268 0.326574 0.717037
0.771084 0.606714 0.788632
0.847196 0.831113 0.828153
0.850340 0.834806 0.831785
0.000000 0.223758 0.472267
0.000000 0.222934 0.482460
0.000000 0.220310 0.520439
0.000000 0.242618 0.610742
0.477668 0.327276 0.709957
0.763241 0.602197 0.788510
0.853758 0.838773 0.835752
0.856504 0.841978 0.838895
0.000000 0.236088 0.407172
0.000000 0.237156 0.418738
0.000000 0.238041 0.461433
0.000000 0.238926 0.559197
0.368963 0.317296 0.687861
0.746578 0.595666 0.792172
0.867582 0.849943 0.851408
0.871641 0.859495 0.856352
0.000000 0.220920 0.290837
0.000000 0.223239 0.298039
0.000000 0.231510 0.329046
0.000000 0.253178 0.427924
0.000000 0.276005 0.602167
0.661982 0.528374 0.771359
0.871733 0.841733 0.857633
0.887083 0.877073 0.873960
0.000000 0.224063 0.268711
0.000000 0.222446 0.266545
0.000000 0.217288 0.259678
0.000000 0.209537 0.249454
0.000000 0.250645 0.353582
0.253727 0.383398 0.691127
0.868040 0.828702 0.865446
0.912474 0.905486 0.902708
0.000000 0.432746 0.499275
0.000000 0.429847 0.496437
0.000000 0.418708 0.486427
0.000000 0.402502 0.473518
0.000000 0.374090 0.450965
0.000000 0.327550 0.414984
0.710597 0.701595 0.823087
0.932616 0.927642 0.925322
0.249516 0.820157 0.811307
0.264164 0.819974 0.811246
0.332830 0.822049 0.813687
0.447791 0.829374 0.821897
0.579187 0.840116 0.834073
0.715084 0.857633 0.853117
0.844266 0.889952 0.886625
0.947173 0.943450 0.941527
