20 Preset/Dark Style/【3】LUT video cho PR-AE-FCPX/19Tones (2)/19Tones - Bar London _ d.cube
# Created by Adobe Lightroom plugin Export LUT (1.24.0)
# www.johnrellis.com/lightroom/exportlut.htm
# Preset: 19Tones - Bar London / d
# Color profile: E:\lut插件\exportlut.1.24\exportlut.lrplugin\color profiles\Rec709gamma2.4.icc
LUT_3D_SIZE 32
DOMAIN_MIN 0.0 0.0 0.0
DOMAIN_MAX 1.0 1.0 1.0
0.027497 0.157229 0.182712
0.027497 0.157229 0.182712
0.027497 0.157229 0.182712
0.011597 0.157534 0.182712
0.000000 0.156741 0.180758
0.000000 0.151766 0.176516
0.109163 0.144289 0.171664
0.193606 0.135836 0.168154
0.287572 0.120912 0.165957
0.391791 0.089113 0.166506
0.503777 0.000000 0.169284
0.622705 0.000000 0.174228
0.738460 0.000000 0.181369
0.839170 0.000000 0.190829
0.920897 0.000000 0.202884
0.981689 0.089631 0.218601
1.000000 0.197818 0.237827
1.000000 0.265324 0.259342
1.000000 0.317632 0.283787
1.000000 0.362646 0.310063
1.000000 0.420600 0.352483
1.000000 0.468574 0.394934
1.000000 0.505974 0.431403
1.000000 0.537774 0.465064
1.000000 0.564782 0.494942
1.000000 0.588617 0.522515
1.000000 0.610773 0.548486
1.000000 0.632166 0.574212
1.000000 0.653071 0.599756
1.000000 0.674037 0.625391
1.000000 0.694820 0.651209
1.000000 0.715023 0.676143
0.027497 0.157229 0.182712
0.027497 0.157229 0.182712
0.027497 0.157229 0.182712
0.011597 0.157534 0.182712
0.000000 0.156680 0.180758
0.000000 0.151797 0.176852
0.100557 0.145327 0.172152
0.183200 0.138125 0.168338
0.272435 0.125978 0.165927
0.372351 0.101656 0.165835
0.481270 0.000000 0.168093
0.597620 0.000000 0.172610
0.713924 0.000000 0.179141
0.816678 0.000000 0.187411
0.902342 0.000000 0.198672
0.967742 0.035218 0.213260
1.000000 0.185763 0.231785
1.000000 0.255253 0.252567
1.000000 0.309148 0.276524
1.000000 0.354681 0.302190
1.000000 0.410620 0.342382
1.000000 0.456580 0.381964
1.000000 0.493111 0.416785
1.000000 0.524071 0.449134
1.000000 0.550805 0.478706
1.000000 0.574945 0.506157
1.000000 0.597620 0.532708
1.000000 0.619776 0.559442
1.000000 0.641596 0.585840
1.000000 0.663630 0.613001
1.000000 0.685481 0.639918
1.000000 0.706935 0.666468
0.027497 0.157229 0.182712
0.027497 0.157229 0.182712
0.027497 0.157229 0.182712
0.009216 0.156619 0.182834
0.000000 0.154452 0.181155
0.000000 0.150942 0.177249
0.094759 0.147616 0.172488
0.174655 0.143526 0.168307
0.261143 0.135012 0.165469
0.358526 0.118379 0.164462
0.464912 0.077180 0.166110
0.578973 0.000000 0.169863
0.694453 0.000000 0.175143
0.798550 0.000000 0.182773
0.886137 0.000000 0.192905
0.955077 0.099092 0.206485
1.000000 0.195010 0.224125
1.000000 0.259403 0.245212
1.000000 0.311254 0.268772
1.000000 0.355688 0.294957
1.000000 0.410803 0.335027
1.000000 0.454810 0.373327
1.000000 0.489479 0.407660
1.000000 0.519402 0.439277
1.000000 0.545525 0.468574
1.000000 0.569085 0.496468
1.000000 0.591669 0.523125
1.000000 0.614008 0.550439
1.000000 0.636194 0.577722
1.000000 0.658656 0.605493
1.000000 0.680720 0.632898
1.000000 0.702510 0.660151
0.020050 0.154177 0.179690
0.020356 0.154177 0.179538
0.020081 0.153780 0.179416
0.017762 0.153262 0.178653
0.000000 0.149264 0.178042
0.000000 0.149233 0.177890
0.092134 0.151308 0.172763
0.168460 0.152010 0.168002
0.251865 0.149447 0.164218
0.346654 0.140658 0.162203
0.449805 0.122133 0.162631
0.560784 0.084901 0.165103
0.674098 0.000000 0.168978
0.778378 0.000000 0.175174
0.867033 0.047700 0.183932
0.938048 0.154055 0.195743
0.991516 0.218601 0.212253
1.000000 0.273198 0.232120
1.000000 0.319402 0.255497
1.000000 0.362249 0.282902
1.000000 0.410773 0.320226
1.000000 0.450111 0.355810
1.000000 0.483009 0.389593
1.000000 0.512230 0.421668
1.000000 0.538994 0.453162
1.000000 0.564172 0.483589
1.000000 0.588342 0.513268
1.000000 0.611872 0.542840
1.000000 0.634913 0.572045
1.000000 0.657465 0.600641
1.000000 0.679225 0.628412
1.000000 0.700191 0.655085
0.002869 0.146365 0.172091
0.003876 0.146120 0.171939
0.002869 0.146365 0.172091
0.002869 0.146365 0.172091
0.002228 0.145754 0.171450
0.000000 0.143801 0.170474
0.050782 0.149416 0.170565
0.153597 0.162814 0.168002
0.232639 0.166873 0.162966
0.322576 0.166598 0.159274
0.421363 0.160830 0.157778
0.528923 0.149722 0.158389
0.640681 0.137026 0.160250
0.747585 0.137972 0.163882
0.839933 0.164675 0.170291
0.916960 0.208530 0.180697
0.975677 0.257145 0.196353
1.000000 0.302159 0.217411
1.000000 0.341924 0.241398
1.000000 0.383764 0.272282
1.000000 0.425147 0.308568
1.000000 0.459419 0.343542
1.000000 0.488869 0.376928
1.000000 0.516045 0.409766
1.000000 0.541711 0.442298
1.000000 0.566186 0.474281
1.000000 0.589654 0.505180
1.000000 0.612207 0.535058
1.000000 0.634546 0.564660
1.000000 0.656306 0.593500
1.000000 0.677668 0.621729
1.000000 0.698177 0.648707
0.000000 0.142916 0.168795
0.000000 0.143160 0.168765
0.000000 0.142916 0.168795
0.000000 0.142916 0.168612
0.000000 0.142916 0.168612
0.000000 0.142916 0.168795
0.000000 0.143526 0.169253
0.101198 0.153780 0.167330
0.198245 0.174502 0.162509
0.308995 0.194614 0.154940
0.405676 0.197879 0.150973
0.511315 0.198672 0.149111
0.622065 0.200443 0.148257
0.729366 0.210697 0.149172
0.823606 0.235142 0.152804
0.902892 0.269352 0.161257
0.964508 0.307866 0.176822
1.000000 0.344915 0.199405
1.000000 0.378210 0.225772
1.000000 0.417823 0.262181
1.000000 0.451850 0.298863
1.000000 0.480842 0.335119
1.000000 0.571374 0.446998
1.000000 0.594934 0.482673
1.000000 0.615869 0.514275
1.000000 0.634882 0.543053
1.000000 0.652796 0.569818
1.000000 0.669886 0.595270
1.000000 0.686641 0.619562
1.000000 0.702937 0.643091
1.000000 0.718563 0.665309
1.000000 0.733181 0.685969
0.028779 0.157412 0.182681
0.027802 0.157229 0.182559
0.026154 0.156893 0.182101
0.024292 0.155398 0.181003
0.020081 0.153780 0.179416
0.020386 0.153780 0.179263
0.024598 0.155398 0.180850
0.027497 0.157229 0.182712
0.147646 0.176181 0.181033
0.270939 0.203708 0.170413
0.409400 0.233738 0.153567
0.552636 0.263676 0.129122
0.664088 0.278447 0.121920
0.765805 0.299474 0.118593
0.852567 0.326909 0.121004
0.922881 0.356817 0.132753
0.976928 0.386328 0.155856
1.000000 0.412970 0.184604
1.000000 0.446204 0.223239
1.000000 0.479683 0.268315
1.000000 0.509270 0.313939
1.000000 0.536889 0.359350
1.000000 0.563165 0.403540
1.000000 0.588403 0.446357
1.000000 0.611353 0.485603
1.000000 0.631373 0.519219
1.000000 0.649104 0.549065
1.000000 0.665614 0.576349
1.000000 0.681758 0.602106
1.000000 0.697414 0.626703
1.000000 0.712947 0.650385
1.000000 0.727932 0.672724
0.093050 0.179904 0.204105
0.093050 0.179599 0.203861
0.091096 0.178744 0.202884
0.088319 0.176974 0.201297
0.081941 0.174289 0.198703
0.071901 0.170871 0.195407
0.076112 0.172305 0.196811
0.085389 0.175479 0.199832
0.091096 0.178744 0.202884
0.170413 0.200381 0.206821
0.308019 0.232181 0.195560
0.454871 0.265934 0.177646
0.607019 0.305669 0.145052
0.734737 0.347448 0.101198
0.821988 0.373785 0.093172
0.894865 0.401709 0.093294
0.952789 0.427771 0.109804
1.000000 0.457740 0.146059
1.000000 0.487037 0.193301
1.000000 0.510918 0.240055
1.000000 0.532830 0.286931
1.000000 0.554406 0.332494
1.000000 0.575525 0.377752
1.000000 0.596338 0.421118
1.000000 0.616175 0.461769
1.000000 0.633967 0.497505
1.000000 0.650080 0.529046
1.000000 0.665492 0.558373
1.000000 0.680842 0.585962
1.000000 0.695918 0.612146
1.000000 0.710994 0.637324
1.000000 0.725765 0.661189
0.141268 0.211368 0.233066
0.140688 0.211032 0.232761
0.138552 0.209812 0.231571
0.135286 0.207462 0.229587
0.130129 0.204044 0.226322
0.123049 0.199161 0.221836
0.115846 0.194644 0.217655
0.121614 0.198428 0.221225
0.129702 0.203555 0.225925
0.138369 0.209445 0.231266
0.197024 0.231662 0.242069
0.347143 0.267918 0.231968
0.501396 0.305730 0.214389
0.654353 0.351446 0.184329
0.785153 0.407538 0.129274
0.874296 0.449409 0.069184
0.943328 0.482979 0.101503
0.994018 0.509941 0.141268
1.000000 0.530602 0.181888
1.000000 0.547723 0.222629
1.000000 0.563561 0.262242
1.000000 0.578973 0.305760
1.000000 0.594995 0.352728
1.000000 0.611261 0.397467
1.000000 0.627283 0.439704
1.000000 0.642206 0.477485
1.000000 0.656245 0.511040
1.000000 0.670008 0.541955
1.000000 0.683955 0.571221
1.000000 0.697963 0.598993
1.000000 0.712093 0.625269
1.000000 0.726253 0.650568
0.197391 0.249241 0.267979
0.196567 0.248814 0.267491
0.194064 0.247013 0.265873
0.190097 0.244419 0.263493
0.183352 0.239689 0.259159
0.174380 0.233799 0.253666
0.163943 0.226719 0.247196
0.159609 0.223728 0.244480
0.167514 0.229038 0.249363
0.177523 0.235904 0.255680
0.189456 0.243748 0.262913
0.219516 0.263340 0.280491
0.377874 0.302861 0.272068
0.537591 0.345251 0.256748
0.697658 0.402075 0.233310
0.831876 0.469795 0.195377
0.928466 0.530968 0.137636
0.983032 0.560479 0.143343
1.000000 0.576471 0.188327
1.000000 0.588861 0.229343
1.000000 0.599786 0.268437
1.000000 0.609369 0.304845
1.000000 0.618708 0.338415
1.000000 0.627771 0.370611
1.000000 0.637934 0.408606
1.000000 0.648859 0.447669
1.000000 0.660426 0.483467
1.000000 0.672541 0.517113
1.000000 0.685542 0.549493
1.000000 0.699031 0.580163
1.000000 0.712978 0.609827
1.000000 0.726986 0.637537
0.251926 0.286320 0.302525
0.251499 0.285954 0.302098
0.249454 0.284581 0.300877
0.245579 0.282048 0.298497
0.239567 0.277836 0.294530
0.231266 0.272374 0.289403
0.220645 0.265141 0.282658
0.208865 0.257084 0.275151
0.209842 0.257664 0.275761
0.220645 0.265141 0.282658
0.233494 0.273655 0.290684
0.249790 0.284886 0.301152
0.281041 0.306157 0.321141
0.432959 0.353613 0.326909
0.608881 0.408881 0.316503
0.758633 0.471717 0.297154
0.873259 0.533806 0.269749
0.950408 0.581872 0.237552
1.000000 0.615778 0.202609
1.000000 0.626825 0.233158
1.000000 0.633875 0.272770
1.000000 0.640436 0.309270
1.000000 0.646937 0.342931
1.000000 0.653315 0.374517
1.000000 0.659419 0.402808
1.000000 0.664942 0.427710
1.000000 0.672999 0.462470
1.000000 0.682734 0.498878
1.000000 0.693629 0.532982
1.000000 0.705501 0.565698
1.000000 0.718166 0.597009
1.000000 0.731044 0.626429
0.317174 0.330755 0.344823
0.316533 0.330419 0.344427
0.314580 0.329046 0.343206
0.311070 0.326574 0.340826
0.304967 0.322423 0.336767
0.296880 0.316991 0.331548
0.286931 0.310033 0.324926
0.274479 0.301640 0.316960
0.260685 0.292210 0.308049
0.274174 0.301366 0.316716
0.293034 0.314244 0.328985
0.313939 0.328557 0.342748
0.418311 0.402014 0.414405
0.452796 0.427466 0.439429
0.598383 0.490944 0.462959
0.760983 0.559380 0.454871
0.873747 0.616846 0.440192
0.946014 0.656428 0.423102
0.994507 0.682063 0.404150
1.000000 0.698665 0.383337
1.000000 0.708827 0.361730
1.000000 0.709804 0.394873
1.000000 0.711269 0.425269
1.000000 0.712886 0.451026
1.000000 0.714534 0.473396
1.000000 0.715663 0.491676
1.000000 0.716365 0.506340
1.000000 0.716884 0.519280
1.000000 0.723049 0.550469
1.000000 0.730861 0.580041
1.000000 0.739712 0.608392
1.000000 0.749599 0.635889
0.430182 0.410712 0.422950
0.429633 0.410346 0.422583
0.427131 0.408453 0.420722
0.422370 0.405035 0.417334
0.415778 0.400153 0.412573
0.406928 0.393835 0.406317
0.396674 0.386481 0.399084
0.384863 0.378027 0.390814
0.371893 0.368841 0.381872
0.363592 0.363073 0.376196
0.387427 0.379858 0.392676
0.416785 0.400916 0.413306
0.449439 0.424903 0.436896
0.483436 0.450843 0.462379
0.512902 0.474189 0.485328
0.620600 0.535180 0.521843
0.771878 0.599481 0.515099
0.873259 0.649378 0.502770
0.939544 0.683162 0.488014
0.985229 0.704921 0.471260
1.000000 0.718807 0.452216
1.000000 0.727779 0.431312
1.000000 0.732021 0.419440
1.000000 0.732296 0.447395
1.000000 0.732570 0.470375
1.000000 0.732906 0.490455
1.000000 0.733059 0.506798
1.000000 0.733120 0.520745
1.000000 0.733181 0.532860
1.000000 0.737819 0.559777
1.000000 0.745480 0.591119
1.000000 0.754269 0.620935
0.524254 0.483497 0.494362
0.523095 0.482521 0.493416
0.518181 0.478492 0.489540
0.512108 0.473548 0.484688
0.502953 0.466194 0.477455
0.490913 0.456611 0.468086
0.478157 0.446723 0.458350
0.464179 0.435981 0.447852
0.449439 0.424903 0.436896
0.434882 0.414160 0.426368
0.435950 0.414893 0.427070
0.462593 0.434821 0.446662
0.492042 0.457527 0.469001
0.522301 0.481849 0.492775
0.550896 0.506065 0.516350
0.572015 0.524712 0.534386
0.635584 0.573541 0.574060
0.776272 0.632776 0.567529
0.869963 0.677760 0.557671
0.932006 0.707637 0.545342
0.975738 0.727199 0.531701
1.000000 0.739986 0.516167
1.000000 0.747860 0.498024
1.000000 0.752407 0.476936
1.000000 0.753445 0.473274
1.000000 0.752804 0.494301
1.000000 0.752285 0.512383
1.000000 0.751583 0.526879
1.000000 0.751095 0.539788
1.000000 0.750698 0.550988
1.000000 0.753811 0.574029
1.000000 0.761318 0.606531
0.596918 0.547692 0.556481
0.595850 0.546715 0.555535
0.592096 0.543175 0.552178
0.585473 0.537041 0.546227
0.576196 0.528527 0.538048
0.564477 0.517967 0.527886
0.551812 0.506828 0.517082
0.538048 0.495033 0.505638
0.523705 0.483070 0.493965
0.509636 0.471504 0.482704
0.495491 0.460212 0.471656
0.507500 0.469825 0.481025
0.533959 0.491554 0.502251
0.559930 0.513939 0.523949
0.584405 0.536034 0.545251
0.605707 0.556054 0.564508
0.622339 0.572229 0.580041
0.659419 0.610193 0.616205
0.779843 0.664393 0.616327
0.866361 0.704768 0.608484
0.924712 0.731868 0.598932
0.966735 0.749874 0.588190
0.998840 0.761257 0.574914
1.000000 0.768246 0.559075
1.000000 0.771725 0.539605
1.000000 0.772702 0.516564
1.000000 0.771847 0.518761
1.000000 0.771084 0.536126
1.000000 0.770565 0.550988
1.000000 0.770321 0.564233
1.000000 0.769986 0.575128
1.000000 0.772885 0.597681
0.649714 0.599969 0.606500
0.649714 0.599969 0.606500
0.647639 0.597833 0.604425
0.643580 0.593652 0.600458
0.637415 0.587335 0.594446
0.629725 0.579614 0.587060
0.621485 0.571405 0.579248
0.611933 0.562097 0.570306
0.601556 0.552056 0.560723
0.589654 0.540917 0.549981
0.575921 0.528283 0.537804
0.559686 0.513756 0.523766
0.576440 0.528710 0.538262
0.594873 0.545800 0.554681
0.612726 0.562860 0.571008
0.629572 0.579431 0.586877
0.645686 0.595819 0.602564
0.659937 0.610742 0.616693
0.688411 0.641596 0.646021
0.779934 0.689967 0.657008
0.861784 0.728511 0.652735
0.917815 0.754635 0.646998
0.958099 0.771572 0.639338
0.989319 0.782528 0.629389
1.000000 0.789120 0.616571
1.000000 0.792416 0.600214
1.000000 0.793240 0.580499
1.000000 0.792081 0.556603
1.000000 0.790890 0.565820
1.000000 0.789944 0.578973
1.000000 0.788815 0.589685
1.000000 0.787137 0.597009
0.692409 0.646052 0.650263
0.692042 0.645624 0.649897
0.690486 0.643915 0.648249
0.687739 0.640864 0.645319
0.683375 0.636072 0.640772
0.677729 0.629816 0.634852
0.671168 0.622736 0.628107
0.663416 0.614405 0.620203
0.654566 0.605097 0.611353
0.644434 0.594568 0.601312
0.632715 0.582635 0.589929
0.619165 0.569146 0.577050
0.610071 0.560266 0.568536
0.625940 0.575830 0.583490
0.641260 0.591302 0.598199
0.655787 0.606348 0.612543
0.669703 0.621149 0.626612
0.683772 0.636469 0.641169
0.696834 0.650996 0.654963
0.718196 0.675471 0.678187
0.783505 0.717800 0.697658
0.860014 0.753323 0.695277
0.912261 0.777096 0.691676
0.950652 0.792844 0.686213
0.980468 0.803098 0.678676
1.000000 0.809384 0.668544
1.000000 0.812772 0.655573
1.000000 0.813596 0.638941
1.000000 0.812436 0.618372
1.000000 0.809567 0.595575
1.000000 0.808255 0.607294
1.000000 0.806332 0.614984
0.733883 0.693996 0.695766
0.734279 0.694453 0.696193
0.771725 0.739803 0.739437
0.769924 0.737575 0.737301
0.767178 0.734249 0.734096
0.763241 0.729397 0.729488
0.758114 0.723171 0.723537
0.752346 0.716121 0.716823
0.745846 0.708248 0.709346
0.738460 0.699458 0.700984
0.729732 0.689052 0.691066
0.719173 0.676631 0.679316
0.705715 0.661067 0.664515
0.702205 0.657099 0.660761
0.711635 0.667933 0.670985
0.720363 0.678004 0.680598
0.728328 0.687404 0.689540
0.736080 0.696559 0.698207
0.744106 0.706233 0.707393
0.752224 0.715999 0.716701
0.764157 0.730556 0.730587
0.802609 0.761868 0.751675
0.867277 0.789792 0.748928
0.912657 0.808194 0.744900
0.946685 0.819913 0.738491
0.973816 0.827268 0.730251
0.996521 0.831449 0.719570
1.000000 0.833402 0.706813
1.000000 0.833707 0.692012
1.000000 0.832334 0.674006
1.000000 0.829007 0.651087
1.000000 0.824674 0.632990
0.777096 0.746395 0.745724
0.779965 0.749935 0.749111
0.782406 0.752926 0.752010
0.783871 0.754788 0.753780
0.783810 0.754635 0.753628
0.781582 0.751949 0.751064
0.777890 0.747402 0.746670
0.772976 0.741360 0.740902
0.767605 0.734737 0.734585
0.761257 0.726955 0.727169
0.754147 0.718318 0.718898
0.745724 0.708125 0.709224
0.735042 0.695369 0.697078
0.722255 0.680232 0.682734
0.724727 0.683162 0.685481
0.732845 0.692744 0.694575
0.740597 0.701991 0.703365
0.748348 0.711299 0.712215
0.756435 0.721157 0.721614
0.764981 0.731533 0.731502
0.773404 0.741848 0.741360
0.782986 0.753658 0.752712
0.806424 0.780392 0.777401
0.866789 0.806027 0.775479
0.909300 0.822751 0.771847
0.941650 0.833768 0.766598
0.967590 0.840909 0.759762
0.989502 0.845396 0.751339
1.000000 0.847959 0.741482
1.000000 0.848814 0.729671
1.000000 0.847959 0.714931
1.000000 0.844968 0.695216
0.796231 0.769894 0.768338
0.798734 0.773007 0.771359
0.801144 0.775937 0.774197
0.802731 0.777890 0.776059
0.803037 0.778256 0.776425
0.801541 0.776394 0.774655
0.798611 0.772824 0.771176
0.794766 0.768124 0.766629
0.790402 0.762753 0.761471
0.785275 0.756435 0.755398
0.779385 0.749172 0.748409
0.772671 0.740963 0.740536
0.764431 0.730922 0.730922
0.754696 0.719051 0.719600
0.743465 0.705409 0.706630
0.750454 0.713893 0.714687
0.757259 0.722103 0.722499
0.764034 0.730373 0.730404
0.771054 0.738979 0.738643
0.778500 0.748135 0.747402
0.786191 0.757595 0.756466
0.794217 0.767422 0.765957
0.801999 0.777005 0.775204
0.820279 0.799130 0.796719
0.867552 0.820951 0.798581
0.907530 0.836362 0.795499
0.938170 0.846769 0.791165
0.962982 0.853849 0.785763
0.983886 0.858701 0.779538
1.000000 0.861662 0.771939
1.000000 0.862913 0.762448
1.000000 0.862211 0.749538
0.814725 0.792447 0.790219
0.816922 0.795071 0.792752
0.818723 0.797269 0.794919
0.819974 0.798764 0.796384
0.820279 0.799130 0.796719
0.819028 0.797604 0.795254
0.816831 0.795010 0.792721
0.813840 0.791379 0.789181
0.810330 0.787167 0.785061
0.806241 0.782162 0.780209
0.801602 0.776516 0.774746
0.796384 0.770108 0.768521
0.789883 0.762173 0.760891
0.782467 0.752987 0.752071
0.773800 0.742336 0.741848
0.768795 0.736233 0.735988
0.775662 0.744625 0.744045
0.782956 0.753597 0.752651
0.790646 0.763058 0.761746
0.798795 0.773068 0.771389
0.807309 0.783413 0.781460
0.815763 0.793698 0.791440
0.823850 0.803372 0.800870
0.831662 0.812741 0.810056
0.845762 0.829404 0.826474
0.878691 0.846921 0.831968
0.913481 0.860288 0.830167
0.940581 0.869627 0.827512
0.962646 0.876310 0.824186
0.981384 0.880797 0.819883
0.997711 0.883482 0.814115
1.000000 0.884245 0.805997
0.843931 0.827237 0.824338
0.844633 0.828061 0.825162
0.844877 0.828367 0.825437
0.844663 0.828092 0.825193
0.843748 0.827054 0.824155
0.842161 0.825193 0.822293
0.840146 0.822782 0.819944
0.837675 0.819852 0.817044
0.834928 0.816678 0.813901
0.831998 0.813169 0.810483
0.828672 0.809201 0.806577
0.824796 0.804562 0.802029
0.820157 0.798978 0.796597
0.814664 0.792355 0.790127
0.808255 0.784573 0.782559
0.800748 0.775448 0.773709
0.800290 0.774868 0.773129
0.805600 0.781369 0.779446
0.811154 0.788144 0.786007
0.817044 0.795254 0.792935
0.823117 0.802518 0.800046
0.829343 0.809964 0.807340
0.835416 0.817197 0.814450
0.841184 0.824063 0.821164
0.847410 0.831357 0.828397
0.858305 0.844083 0.841001
0.882170 0.859098 0.848844
0.914733 0.871824 0.847745
0.940337 0.880919 0.846006
0.961212 0.887388 0.843412
0.978882 0.891722 0.839719
0.994415 0.894102 0.834318
0.857755 0.843473 0.840360
0.858274 0.844022 0.840940
0.858518 0.844327 0.841245
0.858366 0.844205 0.841093
0.857755 0.843473 0.840360
0.856596 0.842069 0.839017
0.854978 0.840208 0.837156
0.853117 0.838041 0.835019
0.851011 0.835599 0.832578
0.848722 0.832914 0.829892
0.846159 0.829892 0.826932
0.843229 0.826413 0.823514
0.839719 0.822293 0.819455
0.835691 0.817533 0.814755
0.831052 0.812039 0.809354
0.825772 0.805722 0.803189
0.819852 0.798642 0.796262
0.823117 0.802518 0.800046
0.828061 0.808408 0.805814
0.833188 0.814542 0.811826
0.838529 0.820890 0.818051
0.843961 0.827329 0.824399
0.849363 0.833646 0.830655
0.854612 0.839811 0.836759
0.853483 0.838468 0.835416
0.858946 0.844816 0.841733
0.868101 0.855406 0.852262
0.885008 0.868742 0.862181
0.915862 0.880919 0.861509
0.940276 0.889860 0.860319
0.960296 0.896269 0.858396
0.977173 0.900511 0.855222
0.876097 0.864561 0.861418
0.876890 0.865476 0.862333
0.877073 0.865721 0.862577
0.876616 0.865171 0.862028
0.875547 0.863920 0.860807
0.873930 0.862119 0.858976
0.871946 0.859800 0.856657
0.869627 0.857145 0.854002
0.867094 0.854246 0.851133
0.864439 0.851194 0.848051
0.861509 0.847745 0.844663
0.858457 0.844236 0.841154
0.855009 0.840238 0.837156
0.851041 0.835599 0.832578
0.846464 0.830259 0.827298
0.841398 0.824277 0.821378
0.835874 0.817746 0.815000
0.831662 0.812711 0.810025
0.835966 0.817838 0.815030
0.840879 0.823636 0.820768
0.846036 0.829740 0.826780
0.851133 0.835721 0.832700
0.855833 0.841184 0.838132
0.860105 0.846159 0.843076
0.863920 0.850584 0.847440
0.867399 0.854612 0.851499
0.871855 0.859709 0.856565
0.878813 0.867704 0.864561
0.889403 0.878874 0.875303
0.918181 0.890135 0.874662
0.941100 0.898436 0.873533
0.959991 0.904417 0.871672
0.884367 0.873991 0.870878
0.885100 0.874784 0.871702
0.885405 0.875151 0.872038
0.885222 0.874968 0.871855
0.884672 0.874327 0.871214
0.883848 0.873411 0.870298
0.882811 0.872221 0.869108
0.881529 0.870756 0.867613
0.880186 0.869230 0.866087
0.878630 0.867460 0.864347
0.876829 0.865415 0.862272
0.874846 0.863127 0.859983
0.872435 0.860349 0.857206
0.869474 0.856992 0.853849
0.866026 0.852995 0.849882
0.862119 0.848478 0.845365
0.857877 0.843565 0.840513
0.853483 0.838499 0.835416
0.852628 0.837461 0.834440
0.856535 0.842039 0.838956
0.860807 0.846983 0.843870
0.865141 0.851987 0.848844
0.869322 0.856809 0.853666
0.873289 0.861326 0.858183
0.876890 0.865537 0.862364
0.880308 0.869413 0.866239
0.883574 0.873106 0.869993
0.887663 0.877714 0.874601
0.893492 0.884276 0.881254
0.902068 0.893919 0.890959
0.924498 0.903410 0.891783
0.944976 0.910582 0.890471
0.896269 0.887419 0.884398
0.896605 0.887785 0.884764
0.896635 0.887816 0.884825
0.896391 0.887572 0.884550
0.895872 0.886992 0.883970
0.895109 0.886137 0.883116
0.894163 0.885039 0.882017
0.893065 0.883848 0.880766
0.891875 0.882475 0.879423
0.890593 0.881041 0.877958
0.889097 0.879332 0.876249
0.887510 0.877531 0.874418
0.885618 0.875425 0.872282
0.883360 0.872862 0.869749
0.880644 0.869749 0.866636
0.877531 0.866239 0.863096
0.874205 0.862425 0.859281
0.870817 0.858518 0.855375
0.867552 0.854765 0.851621
0.869139 0.856596 0.853452
0.872740 0.860716 0.857572
0.876371 0.864866 0.861723
0.879850 0.868894 0.865751
0.883177 0.872648 0.869535
0.886259 0.876158 0.873045
0.889128 0.879332 0.876249
0.891905 0.882475 0.879423
0.894560 0.885496 0.882475
0.898192 0.889555 0.886564
0.903319 0.895293 0.892363
0.911070 0.903960 0.901152
0.928466 0.912291 0.903349
0.905364 0.897581 0.894682
0.905577 0.897826 0.894957
0.905699 0.897978 0.895079
0.905669 0.897917 0.895018
0.905516 0.897734 0.894835
0.905394 0.897612 0.894682
0.905486 0.897704 0.894804
0.905669 0.897917 0.895018
0.905913 0.898222 0.895323
0.906249 0.898589 0.895689
0.906523 0.898894 0.896025
0.906645 0.899016 0.896117
0.906462 0.898802 0.895933
0.905882 0.898192 0.895262
0.904845 0.897002 0.894072
0.903166 0.895140 0.892210
0.901213 0.892973 0.890013
0.899199 0.890684 0.887694
0.897246 0.888518 0.885496
0.895598 0.886656 0.883604
0.898192 0.889555 0.886564
0.900816 0.892515 0.889525
0.903288 0.895293 0.892363
0.905669 0.897917 0.895018
0.907836 0.900328 0.897459
0.909850 0.902586 0.899748
0.911803 0.904784 0.901976
0.913787 0.906920 0.904173
0.915740 0.909087 0.906371
0.918456 0.912078 0.909422
0.922332 0.916381 0.913787
0.927916 0.922515 0.920043
0.921874 0.915862 0.913268
0.921874 0.915862 0.913268
0.921752 0.915740 0.913146
0.921508 0.915465 0.912871
0.921172 0.915099 0.912474
0.920775 0.914641 0.912016
0.920317 0.914183 0.911559
0.919890 0.913664 0.911070
0.919463 0.913207 0.910552
0.919005 0.912688 0.910063
0.918517 0.912169 0.909514
0.917998 0.911589 0.908904
0.917327 0.910857 0.908171
0.916472 0.909911 0.907195
