20 Preset/Dark Style/【3】LUT video cho PR-AE-FCPX/19Tones (2)/19Tones - Bar London _ d.cube
# Created by Adobe Lightroom plugin Export LUT (1.24.0)
# www.johnrellis.com/lightroom/exportlut.htm
# Preset: 19Tones - Bar London / d
# Color profile: E:\lut插件\exportlut.1.24\exportlut.lrplugin\color profiles\Rec709gamma2.4.icc
LUT_3D_SIZE 8
DOMAIN_MIN 0.000000 0.000000 0.000000
DOMAIN_MAX 0.903226 0.903226 0.903226
0.027497 0.157229 0.182712
0.000000 0.156741 0.180758
0.287572 0.120912 0.165957
0.738460 0.000000 0.181369
1.000000 0.197818 0.237827
1.000000 0.420600 0.352483
1.000000 0.564782 0.494942
1.000000 0.653071 0.599756
0.002869 0.146365 0.172091
0.002228 0.145754 0.171450
0.232639 0.166873 0.162966
0.640681 0.137026 0.160250
0.975677 0.257145 0.196353
1.000000 0.425147 0.308568
1.000000 0.541711 0.442298
1.000000 0.634546 0.564660
0.141268 0.211368 0.233066
0.130129 0.204044 0.226322
0.129702 0.203555 0.225925
0.501396 0.305730 0.214389
0.943328 0.482979 0.101503
1.000000 0.563561 0.262242
1.000000 0.627283 0.439704
1.000000 0.683955 0.571221
0.430182 0.410712 0.422950
0.415778 0.400153 0.412573
0.371893 0.368841 0.381872
0.449439 0.424903 0.436896
0.771878 0.599481 0.515099
1.000000 0.718807 0.452216
1.000000 0.732570 0.470375
1.000000 0.733181 0.532860
0.692409 0.646052 0.650263
0.683375 0.636072 0.640772
0.654566 0.605097 0.611353
0.610071 0.560266 0.568536
0.669703 0.621149 0.626612
0.783505 0.717800 0.697658
0.980468 0.803098 0.678676
1.000000 0.812436 0.618372
0.814725 0.792447 0.790219
0.820279 0.799130 0.796719
0.810330 0.787167 0.785061
0.789883 0.762173 0.760891
0.775662 0.744625 0.744045
0.807309 0.783413 0.781460
0.845762 0.829404 0.826474
0.962646 0.876310 0.824186
0.884367 0.873991 0.870878
0.884672 0.874327 0.871214
0.880186 0.869230 0.866087
0.872435 0.860349 0.857206
0.857877 0.843565 0.840513
0.860807 0.846983 0.843870
0.876890 0.865537 0.862364
0.893492 0.884276 0.881254
0.930114 0.924895 0.922515
0.929778 0.924498 0.922118
0.928862 0.923552 0.921111
0.927703 0.922240 0.919768
0.914855 0.908110 0.905394
0.911986 0.904936 0.902129
0.919768 0.913573 0.910918
0.925658 0.920012 0.917510
0.041291 0.150240 0.170138
0.009674 0.149081 0.174655
0.226139 0.125338 0.175875
0.611109 0.007233 0.194461
0.963439 0.208438 0.225864
1.000000 0.396857 0.298924
1.000000 0.516075 0.422858
1.000000 0.611383 0.544396
0.016480 0.143557 0.169375
0.000000 0.143343 0.169100
0.222446 0.159854 0.174960
0.592340 0.167025 0.191867
0.943420 0.275029 0.219150
1.000000 0.424140 0.291722
1.000000 0.516258 0.395514
1.000000 0.602319 0.518791
0.153902 0.219944 0.241032
0.169314 0.230228 0.250523
0.158968 0.223331 0.244114
0.508995 0.318791 0.238163
0.911040 0.459754 0.208499
1.000000 0.544244 0.302892
1.000000 0.596155 0.402411
1.000000 0.649195 0.515343
0.413092 0.398291 0.410712
0.411536 0.397192 0.409613
0.369116 0.366857 0.379919
0.398138 0.387488 0.400092
0.698299 0.524773 0.449805
0.996063 0.674800 0.392706
1.000000 0.701900 0.436805
1.000000 0.715175 0.515526
0.691859 0.645441 0.649683
0.680018 0.632380 0.637293
0.644526 0.594659 0.601404
0.579797 0.531762 0.541192
0.631098 0.581018 0.588403
0.761166 0.684565 0.662440
0.975921 0.786191 0.651484
1.000000 0.802396 0.598871
0.805936 0.781765 0.779812
0.803952 0.779385 0.777523
0.793851 0.766995 0.765560
0.773892 0.742519 0.742000
0.758022 0.723049 0.723415
0.797757 0.771786 0.770169
0.838560 0.820920 0.818112
0.960601 0.870176 0.815549
0.876860 0.865446 0.862303
0.874418 0.862669 0.859525
0.869047 0.856474 0.853330
0.861509 0.847745 0.844663
0.849027 0.833249 0.830259
0.851072 0.835630 0.832639
0.866453 0.853513 0.850370
0.883574 0.873106 0.869963
0.925566 0.919921 0.917418
0.926146 0.920592 0.918090
0.924987 0.919280 0.916747
0.923766 0.917937 0.915373
0.920592 0.914427 0.911803
0.914580 0.907805 0.905089
0.919219 0.912932 0.910307
0.925017 0.919341 0.916808
0.000000 0.175967 0.251896
0.000000 0.173159 0.240696
0.118318 0.196170 0.219059
0.498665 0.302556 0.430976
0.978607 0.328161 0.487098
1.000000 0.548821 0.569512
1.000000 0.653498 0.634791
1.000000 0.698146 0.664118
0.000000 0.201816 0.277989
0.000000 0.207828 0.274784
0.169924 0.230625 0.250889
0.537621 0.305974 0.429694
0.961975 0.360235 0.458228
1.000000 0.552331 0.554711
1.000000 0.643427 0.613886
1.000000 0.691005 0.649012
0.091646 0.280369 0.294438
0.156374 0.289677 0.302861
0.311345 0.326818 0.340978
0.636164 0.400458 0.382483
0.938323 0.530632 0.471443
1.000000 0.632288 0.562097
1.000000 0.691829 0.625391
1.000000 0.725734 0.662806
0.505974 0.468544 0.479805
0.521599 0.481270 0.492287
0.556237 0.510704 0.520836
0.530297 0.488502 0.499275
0.807675 0.641413 0.562646
0.997314 0.736294 0.565332
1.000000 0.762478 0.642756
1.000000 0.778317 0.684169
0.726650 0.685451 0.687648
0.728084 0.687129 0.689235
0.732296 0.692134 0.693996
0.680385 0.632715 0.637629
0.700862 0.655573 0.659297
0.814176 0.746975 0.721065
0.973724 0.818418 0.720180
1.000000 0.831968 0.700618
0.821195 0.800229 0.797787
0.823026 0.802365 0.799924
0.821805 0.800961 0.798520
0.801389 0.776211 0.774472
0.771572 0.739651 0.739284
0.810636 0.787503 0.785397
0.851530 0.836179 0.833158
0.963134 0.882475 0.835538
0.887724 0.877775 0.874693
0.887083 0.877073 0.873960
0.882933 0.872343 0.869230
0.874205 0.862425 0.859251
0.861021 0.847227 0.844144
0.859525 0.845487 0.842405
0.877989 0.866728 0.863584
0.896727 0.887907 0.884916
0.930358 0.925170 0.922789
0.929625 0.924376 0.921965
0.928313 0.922911 0.920470
0.928191 0.922789 0.920348
0.924865 0.919158 0.916625
0.920317 0.914183 0.911559
0.924254 0.918517 0.915953
0.930053 0.924834 0.922423
0.000000 0.312413 0.470405
0.000000 0.322698 0.473548
0.253574 0.353429 0.448615
0.434119 0.413611 0.425757
0.677699 0.629786 0.634791
0.955016 0.703395 0.806912
1.000000 0.766903 0.799893
1.000000 0.799161 0.808286
0.000000 0.374792 0.524041
0.000000 0.378058 0.520195
0.311345 0.397498 0.494362
0.487526 0.453925 0.465461
0.711086 0.647059 0.669490
0.958709 0.715450 0.804807
1.000000 0.773770 0.796933
1.000000 0.801328 0.807645
0.000000 0.452369 0.561151
0.000000 0.456245 0.566918
0.386023 0.486885 0.573541
0.581903 0.533715 0.543053
0.821317 0.692073 0.755520
0.973632 0.767453 0.795926
1.000000 0.815396 0.819242
1.000000 0.828733 0.823850
0.450263 0.592554 0.592920
0.476173 0.595758 0.596155
0.572717 0.615869 0.616266
0.707698 0.663355 0.666712
0.866728 0.739620 0.711391
0.954498 0.794858 0.767544
0.996643 0.826749 0.801419
1.000000 0.842161 0.817197
0.787686 0.759426 0.758267
0.788083 0.759915 0.758724
0.795071 0.768521 0.766995
0.807095 0.783200 0.781247
0.784390 0.755367 0.754330
0.874601 0.822660 0.798337
0.973602 0.863279 0.805997
1.000000 0.872251 0.821073
0.852354 0.837156 0.834104
0.857877 0.843595 0.840513
0.859007 0.844877 0.841825
0.862821 0.849332 0.846220
0.835721 0.817563 0.814786
0.845640 0.829252 0.826322
0.884337 0.868162 0.861753
0.968963 0.902220 0.866087
0.896849 0.888090 0.885069
0.897826 0.889128 0.886137
0.900053 0.891630 0.888670
0.901640 0.893431 0.890471
0.890288 0.880674 0.877592
0.878599 0.867430 0.864317
0.893706 0.884520 0.881498
0.911772 0.904753 0.901946
0.935576 0.930846 0.928618
0.935882 0.931212 0.928954
0.937438 0.932891 0.930663
0.938262 0.933776 0.931609
0.934569 0.929747 0.927459
0.929656 0.924376 0.921965
0.931334 0.926207 0.923857
0.938262 0.933806 0.931609
0.000000 0.536431 0.739498
0.000000 0.545159 0.742153
0.378485 0.564050 0.729976
0.633570 0.630121 0.702632
0.729732 0.689052 0.691066
0.826780 0.806912 0.804349
0.930724 0.840879 0.888151
0.990173 0.858793 0.896727
0.019104 0.579004 0.762661
0.235782 0.587243 0.765255
0.448280 0.603082 0.753811
0.654994 0.653834 0.723262
0.748226 0.711177 0.712093
0.833494 0.814969 0.812253
0.933623 0.844297 0.889586
0.990753 0.861601 0.896330
0.296757 0.645624 0.792294
0.382910 0.654170 0.792599
0.546319 0.672724 0.785855
0.702480 0.711910 0.771542
0.784298 0.755245 0.754238
0.844755 0.828214 0.825284
0.942901 0.850797 0.888975
0.993378 0.867552 0.890410
0.439033 0.729976 0.797055
0.468940 0.731685 0.798276
0.573022 0.741878 0.805570
0.729152 0.769497 0.813504
0.829191 0.809842 0.807187
0.887846 0.851469 0.865751
0.961486 0.871214 0.885344
0.994965 0.884001 0.887541
0.707179 0.801053 0.795285
0.718196 0.803494 0.797787
0.753689 0.810178 0.804562
0.803922 0.820890 0.815671
0.849943 0.834318 0.831327
0.906828 0.858854 0.844144
0.958556 0.882444 0.868772
0.989868 0.894469 0.880888
0.860533 0.846677 0.843565
0.861692 0.847990 0.844877
0.862913 0.849424 0.846311
0.867216 0.854398 0.851255
0.871763 0.859617 0.856474
0.864408 0.851164 0.848051
0.913939 0.891478 0.880156
0.976349 0.916381 0.887388
0.902678 0.894621 0.891661
0.902220 0.894102 0.891142
0.902525 0.894438 0.891508
0.906920 0.899351 0.896483
0.911040 0.903929 0.901122
0.894408 0.885313 0.882292
0.901579 0.893370 0.890410
0.920470 0.913451 0.910338
0.930968 0.925841 0.923491
0.931304 0.926207 0.923857
0.933043 0.928099 0.925780
0.939117 0.934691 0.932555
0.942321 0.938170 0.936126
0.937041 0.932464 0.930266
0.933867 0.928985 0.926696
0.941161 0.936889 0.934813
0.479500 0.713222 0.868589
0.510735 0.718807 0.868254
0.597345 0.732448 0.861112
0.717037 0.765530 0.849119
0.826535 0.818906 0.835782
0.852873 0.837736 0.834684
0.887785 0.877897 0.874784
0.931121 0.904051 0.918547
0.505638 0.719722 0.865202
0.527520 0.722408 0.863828
0.606317 0.735409 0.857969
0.717708 0.765896 0.847379
0.821958 0.814725 0.833280
0.850065 0.834501 0.831479
0.885801 0.875608 0.872526
0.931304 0.901823 0.917754
0.638209 0.779843 0.879393
0.651057 0.781918 0.878630
0.700893 0.792447 0.876005
0.765927 0.806607 0.866423
0.839872 0.837339 0.855741
0.867735 0.854978 0.851835
0.897093 0.888334 0.885344
0.942107 0.907439 0.926116
0.623407 0.805020 0.892607
0.645197 0.808194 0.891386
0.726955 0.826108 0.889799
0.819516 0.855192 0.891447
0.869596 0.872862 0.888334
0.896178 0.887327 0.884306
0.916777 0.910246 0.907530
0.957336 0.920195 0.936553
0.725551 0.852140 0.878477
0.732723 0.852934 0.878843
0.761349 0.856992 0.881163
0.805905 0.864836 0.886259
0.856077 0.874174 0.890654
0.901915 0.893736 0.890806
0.928344 0.913634 0.917815
0.971099 0.923278 0.931945
0.823209 0.879057 0.874083
0.829526 0.881590 0.876707
0.841855 0.883940 0.879149
0.862242 0.888365 0.883818
0.884886 0.893217 0.889006
0.910430 0.903227 0.900389
0.945098 0.920104 0.911955
0.975463 0.932616 0.925109
0.915862 0.912200 0.908934
0.917906 0.913695 0.910613
0.922026 0.916014 0.913420
0.924956 0.919249 0.916716
0.928038 0.922606 0.920165
0.929351 0.924041 0.921630
0.921355 0.915282 0.912688
0.949523 0.936553 0.929442
0.936767 0.932189 0.929961
0.936645 0.932006 0.929778
0.937621 0.933104 0.930907
0.940887 0.936614 0.934508
0.945037 0.941131 0.939147
0.949950 0.946441 0.944610
0.942901 0.938781 0.936767
0.948180 0.944549 0.942657
0.662318 0.799954 0.909575
0.675868 0.803861 0.909575
0.712825 0.812222 0.906371
0.771939 0.829404 0.901030
0.832547 0.851347 0.892149
0.885740 0.878202 0.880034
0.893645 0.884459 0.881407
0.912352 0.905333 0.902556
0.669886 0.802304 0.907561
0.683314 0.806394 0.907866
0.717372 0.814023 0.904936
0.771054 0.828458 0.899138
0.829892 0.849088 0.890196
0.882170 0.874693 0.877440
0.889830 0.880156 0.877073
0.908598 0.901152 0.898314
0.734585 0.834928 0.914275
0.740536 0.836088 0.913756
0.761990 0.839994 0.911009
0.800412 0.849454 0.906401
0.845335 0.863645 0.898924
0.890074 0.884886 0.889677
0.901488 0.893248 0.890288
0.919066 0.912779 0.910124
0.763149 0.858640 0.922240
0.770901 0.860166 0.921416
0.804746 0.869383 0.919860
0.835477 0.876982 0.917632
0.868406 0.886168 0.913298
0.903960 0.902098 0.908904
0.917815 0.911345 0.908690
0.931243 0.926146 0.923796
0.750210 0.869932 0.921324
0.752956 0.869474 0.920867
0.771939 0.871275 0.921141
0.820157 0.881834 0.921813
0.878477 0.899992 0.921538
0.909056 0.910857 0.919585
0.927001 0.921477 0.919036
0.941894 0.937743 0.935668
0.815244 0.901244 0.915984
0.818662 0.901915 0.916472
0.831144 0.904143 0.918090
0.852445 0.908263 0.921233
0.877562 0.913115 0.925353
0.910826 0.921508 0.930663
0.940093 0.935760 0.933654
0.955566 0.948150 0.949767
0.879271 0.922545 0.918914
0.881773 0.923400 0.919829
0.888426 0.925017 0.921508
0.900694 0.928344 0.925017
0.915373 0.932341 0.929259
0.931090 0.936919 0.934112
0.946105 0.942321 0.940368
0.968933 0.952758 0.948028
0.935973 0.939818 0.936278
0.936980 0.940337 0.936889
0.941558 0.942962 0.939971
0.948272 0.946532 0.944335
0.953887 0.950713 0.949004
0.957671 0.954742 0.953185
0.960998 0.958343 0.956878
0.958465 0.955657 0.954101
0.755978 0.852659 0.935454
0.761501 0.854276 0.935271
0.777340 0.857420 0.932891
0.808652 0.866117 0.929595
0.846036 0.877989 0.924193
0.883818 0.892760 0.916503
0.917174 0.910674 0.907988
0.919646 0.913420 0.910765
0.759731 0.854154 0.934691
0.765133 0.855802 0.934569
0.781247 0.859403 0.932647
0.810483 0.867155 0.929229
0.846677 0.878477 0.923980
0.883665 0.892790 0.916503
0.916716 0.910155 0.907439
0.918639 0.912291 0.909636
0.786374 0.868254 0.936767
0.789853 0.869108 0.936492
0.801968 0.871366 0.934691
0.828611 0.879210 0.932799
0.857908 0.887510 0.927977
0.889555 0.898863 0.921111
0.920897 0.915099 0.913146
0.923156 0.917266 0.914702
0.818143 0.887480 0.940917
0.821164 0.888304 0.940856
0.830533 0.889982 0.939635
0.849454 0.894560 0.937865
0.873747 0.901183 0.934691
0.900572 0.910369 0.930053
0.927581 0.923857 0.924712
0.932464 0.927459 0.925109
0.786923 0.886137 0.944945
0.794156 0.888090 0.944976
0.816617 0.893553 0.943969
0.858701 0.906340 0.943175
0.886046 0.913848 0.941344
0.909117 0.920623 0.938323
0.933440 0.931945 0.935454
0.942351 0.938231 0.936156
0.802731 0.905272 0.943420
0.804166 0.905119 0.943267
0.812955 0.905516 0.943389
0.832883 0.908049 0.944701
0.870085 0.916350 0.946441
0.918883 0.933654 0.948272
0.943175 0.944305 0.949371
0.955871 0.952819 0.951171
0.857725 0.931762 0.942870
0.859281 0.931975 0.943023
0.866117 0.933013 0.943786
0.880369 0.935821 0.945953
0.899199 0.939940 0.949340
0.920378 0.945251 0.954101
0.947967 0.954040 0.959442
0.964965 0.962615 0.961303
0.908354 0.948943 0.946319
0.909300 0.949126 0.946532
0.914122 0.950286 0.947784
0.923674 0.953063 0.950683
0.935851 0.956786 0.954650
0.948943 0.961151 0.959289
0.961669 0.965911 0.964355
0.971862 0.970001 0.968933
