20 Preset/City Style/【3】LUT video cho PR-AE-FCPX/TONE 3/Dubai I Armani.cube
# Created by Adobe Lightroom plugin Export LUT (1.24.0)
# www.johnrellis.com/lightroom/exportlut.htm
# Preset: Dubai I Armani
# Color profile: E:\lut插件\exportlut.1.24\exportlut.lrplugin\color profiles\Rec709gamma2.4.icc
LUT_3D_SIZE 5
DOMAIN_MIN 0.000000 0.000000 0.000000
DOMAIN_MAX 0.903226 0.903226 0.903226
0.080415 0.120516 0.129183
0.182010 0.140688 0.118349
0.898497 0.000000 0.011536
1.000000 0.000000 0.900145
1.000000 0.580041 1.000000
0.271183 0.393866 0.320653
0.498939 0.508843 0.509087
0.967559 0.529747 0.865690
0.968231 0.613214 1.000000
1.000000 0.892546 1.000000
0.000000 0.877684 1.000000
0.000000 0.898466 1.000000
0.915801 0.981140 1.000000
0.987915 0.993347 1.000000
0.993744 0.994354 1.000000
0.956023 0.988830 1.000000
0.966064 0.990295 1.000000
0.986297 0.994324 1.000000
0.995758 0.997559 1.000000
0.999023 0.999207 1.000000
0.998016 0.999542 1.000000
0.998199 0.999573 1.000000
0.998505 0.999481 1.000000
0.999390 0.999634 1.000000
0.999756 0.999725 1.000000
0.000000 0.835294 1.000000
0.000000 0.844541 1.000000
0.000000 0.840604 1.000000
0.000000 0.883909 1.000000
0.621729 0.923339 1.000000
0.000000 0.905760 1.000000
0.000000 0.913664 1.000000
0.000000 0.932677 1.000000
0.000000 0.937865 1.000000
0.844999 0.960052 1.000000
0.000000 0.991302 1.000000
0.000000 0.992035 1.000000
0.803555 0.988037 1.000000
0.971313 0.991852 1.000000
0.990356 0.994934 1.000000
0.971984 0.993774 1.000000
0.977264 0.994385 1.000000
0.988067 0.996094 1.000000
0.995087 0.997894 1.000000
0.998505 0.999115 1.000000
0.997375 0.998413 1.000000
0.997559 0.998474 1.000000
0.998260 0.998871 1.000000
0.999084 0.999329 1.000000
0.999695 0.999817 1.000000
0.000000 0.978576 1.000000
0.385748 0.981964 1.000000
0.870817 0.986633 1.000000
0.926574 0.988190 1.000000
0.972869 0.992096 1.000000
0.664973 0.985565 1.000000
0.739406 0.985779 1.000000
0.915221 0.988952 1.000000
0.961273 0.991516 1.000000
0.983856 0.994324 1.000000
0.927276 0.991302 1.000000
0.939696 0.991730 1.000000
0.973022 0.993866 1.000000
0.990204 0.996429 1.000000
0.994842 0.997620 1.000000
0.989960 0.996979 1.000000
0.989960 0.996948 1.000000
0.993256 0.997650 1.000000
0.996429 0.998535 1.000000
0.998413 0.999237 1.000000
0.997650 0.998962 1.000000
0.997833 0.999054 1.000000
0.998413 0.999268 1.000000
0.999023 0.999512 1.000000
0.999573 0.999756 1.000000
0.978210 0.994354 1.000000
0.982757 0.995026 1.000000
0.989990 0.996460 1.000000
0.994446 0.997681 1.000000
0.996124 0.998230 1.000000
0.983337 0.995178 1.000000
0.985138 0.995483 1.000000
0.990417 0.996582 1.000000
0.994781 0.997803 1.000000
0.996399 0.998352 1.000000
0.990661 0.996765 1.000000
0.991333 0.996918 1.000000
0.993683 0.997559 1.000000
0.996094 0.998322 1.000000
0.997894 0.998993 1.000000
0.996338 0.998535 1.000000
0.996399 0.998535 1.000000
0.997009 0.998749 1.000000
0.998016 0.999115 1.000000
0.998993 0.999512 1.000000
0.998810 0.999542 1.000000
0.998840 0.999542 1.000000
0.998993 0.999603 1.000000
0.999329 0.999725 1.000000
0.999695 0.999847 1.000000
0.998108 0.999145 1.000000
0.998199 0.999176 1.000000
0.998535 0.999329 1.000000
0.998962 0.999512 1.000000
0.999237 0.999603 1.000000
0.998199 0.999207 1.000000
0.998291 0.999207 1.000000
0.998566 0.999329 1.000000
0.998993 0.999512 1.000000
0.999268 0.999634 1.000000
0.998535 0.999329 1.000000
0.998596 0.999359 1.000000
0.998810 0.999451 1.000000
0.999115 0.999573 1.000000
0.999451 0.999725 1.000000
0.999054 0.999573 1.000000
0.999084 0.999603 1.000000
0.999176 0.999603 1.000000
0.999359 0.999695 1.000000
0.999634 0.999817 1.000000
0.999542 0.999817 1.000000
0.999573 0.999817 1.000000
0.999634 0.999847 1.000000
0.999725 0.999878 1.000000
0.999878 0.999939 1.000000
