20 Preset/City Style/【3】LUT video cho PR-AE-FCPX/TONE 3/Dubai I Bokeh.cube
# Created by Adobe Lightroom plugin Export LUT (1.24.0)
# www.johnrellis.com/lightroom/exportlut.htm
# Preset: Dubai I Bokeh
# Color profile: E:\lut插件\exportlut.1.24\exportlut.lrplugin\color profiles\Rec709gamma2.4.icc
LUT_3D_SIZE 5
DOMAIN_MIN 0.000000 0.000000 0.000000
DOMAIN_MAX 0.903226 0.903226 0.903226
0.094087 0.101015 0.109285
0.158267 0.097230 0.105837
0.822141 0.000000 0.000000
1.000000 0.000000 0.000000
1.000000 0.000000 0.130343
0.115267 0.178836 0.137148
0.216220 0.201419 0.179416
0.758877 0.267369 0.000000
1.000000 0.306432 0.000000
1.000000 0.510369 0.223239
0.246159 0.838651 0.446815
0.659144 0.852232 0.610681
0.963226 0.947295 0.919066
1.000000 0.879667 0.608118
1.000000 0.911040 0.550530
0.938598 0.987640 0.929107
0.959136 0.987091 0.955413
0.982025 0.988281 1.000000
0.992798 0.992523 1.000000
1.000000 0.986938 0.985016
0.992187 0.996918 1.000000
0.992950 0.996918 1.000000
0.994232 0.996399 1.000000
0.996704 0.996918 1.000000
0.998199 0.997742 1.000000
0.000000 0.127321 0.236820
0.000000 0.127840 0.283482
0.479469 0.000000 0.368414
1.000000 0.000000 0.476265
1.000000 0.244205 0.528099
0.000000 0.205844 0.310735
0.000000 0.253147 0.402136
0.693965 0.219944 0.504387
1.000000 0.000000 0.528130
1.000000 0.577508 0.594446
0.000000 0.663294 0.408484
0.000000 0.757717 0.456825
0.931395 0.932433 0.910704
1.000000 0.928618 0.841184
1.000000 0.938903 0.829862
0.789425 0.997009 0.846891
0.885954 0.991394 0.901701
0.976806 0.988891 1.000000
0.992706 0.992950 1.000000
1.000000 0.990417 1.000000
0.991241 0.997070 1.000000
0.992187 0.997040 1.000000
0.994934 0.997101 1.000000
0.997101 0.997375 1.000000
0.998383 0.998077 1.000000
0.000000 0.260899 0.801877
0.000000 0.265232 0.830747
0.000000 0.273106 0.921172
0.423194 0.000000 0.960204
1.000000 0.000000 0.915221
0.000000 0.352514 0.884733
0.000000 0.355261 0.897856
0.000000 0.368505 0.947417
0.484657 0.257572 0.985718
1.000000 0.000000 0.922423
0.000000 0.647883 0.905028
0.000000 0.680995 0.921538
0.517113 0.851743 0.973571
0.932219 0.954009 1.000000
1.000000 0.960937 1.000000
0.000000 0.998230 0.903868
0.000000 0.998108 0.902739
0.000000 1.000000 0.941344
0.985626 0.992676 1.000000
0.998016 0.994812 1.000000
0.961364 0.999115 1.000000
0.970520 0.998413 1.000000
0.989014 0.997345 1.000000
0.996643 0.997620 1.000000
0.998322 0.998260 1.000000
0.000000 0.457618 1.000000
0.000000 0.460365 1.000000
0.000000 0.456825 1.000000
0.000000 0.449958 1.000000
0.000000 0.327916 1.000000
0.000000 0.512444 1.000000
0.000000 0.511528 1.000000
0.000000 0.511498 1.000000
0.000000 0.517845 1.000000
0.000000 0.439918 1.000000
0.000000 0.729061 1.000000
0.000000 0.749905 1.000000
0.242557 0.840177 1.000000
0.563531 0.861021 1.000000
0.840452 0.889799 1.000000
0.000000 0.961486 1.000000
0.169772 0.961395 1.000000
0.760861 0.967712 1.000000
0.968353 0.984955 1.000000
0.992798 0.993683 1.000000
0.000000 1.000000 1.000000
0.303227 1.000000 1.000000
0.706203 1.000000 1.000000
0.983001 0.998138 1.000000
0.998413 0.998596 1.000000
0.000000 0.598627 1.000000
0.000000 0.599176 1.000000
0.000000 0.607385 1.000000
0.000000 0.623072 1.000000
0.000000 0.664729 1.000000
0.000000 0.653864 1.000000
0.000000 0.655207 1.000000
0.000000 0.663996 1.000000
0.000000 0.682246 1.000000
0.000000 0.732815 1.000000
0.309850 0.881804 1.000000
0.311681 0.880247 1.000000
0.429725 0.884977 1.000000
0.596735 0.896696 1.000000
0.811826 0.929656 1.000000
0.902861 0.971893 1.000000
0.911162 0.973236 1.000000
0.944121 0.979675 1.000000
0.975402 0.987671 1.000000
0.982513 0.989380 1.000000
0.935454 0.993652 1.000000
0.941924 0.993652 1.000000
0.966796 0.994202 1.000000
0.987274 0.995819 1.000000
0.997284 0.998169 1.000000
