20 Preset/City Style/【3】LUT video cho PR-AE-FCPX/TONE 3/Dubai I car.cube
# Created by Adobe Lightroom plugin Export LUT (1.24.0)
# www.johnrellis.com/lightroom/exportlut.htm
# Preset: Dubai I car
# Color profile: E:\lut插件\exportlut.1.24\exportlut.lrplugin\color profiles\Rec709gamma2.4.icc
LUT_3D_SIZE 5
DOMAIN_MIN 0.000000 0.000000 0.000000
DOMAIN_MAX 0.903226 0.903226 0.903226
0.058106 0.120394 0.142489
0.122652 0.120394 0.141695
0.610407 0.000000 0.120790
1.000000 0.000000 0.000000
1.000000 0.236698 0.000000
0.000000 0.162173 0.174014
0.098451 0.147921 0.169986
0.557519 0.159640 0.113497
1.000000 0.210056 0.000000
1.000000 0.410895 0.000000
0.000000 0.662470 0.606928
0.000000 0.635431 0.503716
0.606043 0.596033 0.595727
1.000000 0.692866 0.361364
1.000000 0.679133 0.096040
0.000000 0.925139 0.882628
0.049195 0.915343 0.863493
0.797787 0.882292 0.839658
0.900572 0.849668 0.905699
0.984771 0.887205 0.894316
0.838926 0.963714 0.944335
0.865110 0.961151 0.945037
0.915801 0.947662 0.942168
0.965667 0.935241 0.964202
0.967834 0.936034 0.972076
0.110506 0.177188 0.217380
0.046998 0.176486 0.295628
0.469520 0.000000 0.394965
1.000000 0.000000 0.470710
1.000000 0.300237 0.428138
0.000000 0.205753 0.285374
0.175021 0.254215 0.301457
0.468086 0.234501 0.463447
1.000000 0.190951 0.481483
1.000000 0.436927 0.446876
0.000000 0.354101 0.632258
0.000000 0.392554 0.646265
0.303319 0.671809 0.691707
0.959930 0.679774 0.520592
1.000000 0.708034 0.544610
0.000000 0.877745 0.946685
0.000000 0.899077 0.943511
0.666224 0.908110 0.907347
0.916014 0.866270 0.921508
0.980407 0.896086 0.914336
0.792477 0.970275 0.956786
0.827298 0.966918 0.955169
0.914824 0.958801 0.956085
0.968719 0.946990 0.968719
0.973144 0.945220 0.976898
0.619837 0.632532 0.687648
0.630915 0.652735 0.741726
0.669398 0.668421 0.884825
0.886870 0.416236 0.955779
1.000000 0.572076 0.927245
0.709133 0.696834 0.745052
0.747524 0.716945 0.750851
0.747951 0.739406 0.867826
0.852018 0.591241 0.944305
1.000000 0.659419 0.932433
0.615595 0.714687 0.869230
0.665217 0.731228 0.869413
0.809018 0.792264 0.880247
0.880186 0.833310 0.924865
1.000000 0.819974 0.939483
0.516045 0.762356 0.958251
0.558526 0.767910 0.954894
0.745876 0.816159 0.954650
0.897093 0.877409 0.956573
0.978607 0.917327 0.949737
0.254643 0.920775 0.995270
0.503624 0.932647 0.992706
0.804196 0.963287 0.985718
0.942626 0.963226 0.973388
0.977844 0.953826 0.981109
0.909483 0.867430 0.934874
0.912291 0.872038 0.941711
0.915312 0.878721 0.958404
0.916777 0.869139 0.976104
0.956420 0.820706 0.994476
0.923125 0.875242 0.930571
0.922087 0.876799 0.935546
0.920806 0.882383 0.952941
0.920836 0.877653 0.972351
0.953368 0.836667 0.991547
0.909697 0.874968 0.947112
0.915007 0.878416 0.947204
0.935363 0.893858 0.949645
0.943572 0.906615 0.964691
0.958038 0.891051 0.986236
0.897856 0.884764 0.972015
0.902068 0.886656 0.971313
0.923766 0.900084 0.971313
0.953735 0.923583 0.972717
0.969970 0.938933 0.982208
0.814023 0.875029 0.995605
0.824002 0.878355 0.995209
0.863371 0.893675 0.993927
0.932708 0.928985 0.991272
0.971283 0.968017 0.989929
0.965515 0.937072 0.977203
0.965637 0.937804 0.978271
0.966827 0.941314 0.982544
0.970153 0.946593 0.988891
0.972503 0.942138 0.994812
0.967468 0.938537 0.976165
0.967529 0.939330 0.977295
0.968261 0.942687 0.981689
0.971038 0.948028 0.988281
0.973510 0.945037 0.994415
0.969238 0.941344 0.977173
0.970489 0.942748 0.977325
0.974609 0.948638 0.979248
0.975708 0.954833 0.986755
0.977783 0.955596 0.993561
0.964294 0.942901 0.984710
0.965545 0.944060 0.984649
0.970947 0.949554 0.984680
0.980743 0.961181 0.985657
0.984741 0.970306 0.992767
0.948547 0.938323 0.993683
0.950439 0.939788 0.993591
0.958526 0.946838 0.993530
0.972107 0.960021 0.993530
0.988617 0.979278 0.994263
