20 Preset/City Style/【3】LUT video cho PR-AE-FCPX/TONE 3/Dubai I warm.cube
# Created by Adobe Lightroom plugin Export LUT (1.24.0)
# www.johnrellis.com/lightroom/exportlut.htm
# Preset: Dubai I warm
# Color profile: E:\lut插件\exportlut.1.24\exportlut.lrplugin\color profiles\Rec709gamma2.4.icc
LUT_3D_SIZE 5
DOMAIN_MIN 0.000000 0.000000 0.000000
DOMAIN_MAX 0.903226 0.903226 0.903226
0.049042 0.049317 0.032959
0.607599 0.209689 0.000000
1.000000 0.575647 0.000000
1.000000 0.634852 0.000000
1.000000 0.668055 0.000000
0.360052 0.380499 0.357061
0.663935 0.367620 0.000000
1.000000 0.557000 0.000000
1.000000 0.668299 0.000000
1.000000 0.655665 0.000000
0.788754 0.829740 0.806973
0.782986 0.813962 0.804013
0.971923 0.783749 0.568231
0.830289 0.855528 0.848386
1.000000 0.697414 0.000000
0.880308 0.909972 0.891661
0.881987 0.908507 0.893034
0.889433 0.907927 0.889921
1.000000 0.879759 0.761837
0.986450 0.889616 0.850980
0.933776 0.952667 0.939757
0.934661 0.952270 0.940337
0.931365 0.946471 0.937987
0.951171 0.953521 0.928893
1.000000 0.935546 0.859922
0.142763 0.000000 0.293584
0.513390 0.000000 0.253727
1.000000 0.000000 0.000000
1.000000 0.421057 0.000000
1.000000 0.584527 0.000000
0.314031 0.447822 0.448951
0.652796 0.400885 0.330083
1.000000 0.584131 0.000000
1.000000 0.590875 0.000000
1.000000 0.574823 0.000000
0.777218 0.822446 0.799588
0.780606 0.813077 0.801785
0.936767 0.777798 0.623529
0.870268 0.842252 0.821164
1.000000 0.729732 0.263798
0.882231 0.912261 0.894285
0.884703 0.911376 0.896056
0.889982 0.909789 0.895964
0.993835 0.886259 0.785977
0.972564 0.899779 0.868742
0.935668 0.954528 0.941863
0.936400 0.954009 0.942199
0.939300 0.952941 0.945068
0.954314 0.957641 0.936980
1.000000 0.943450 0.879149
0.712947 0.000000 0.833066
0.924895 0.000000 0.851713
1.000000 0.000000 0.669917
1.000000 0.000000 0.202457
1.000000 0.000000 0.000000
0.616632 0.531792 0.800443
0.820981 0.322240 0.827512
1.000000 0.000000 0.662196
1.000000 0.000000 0.000000
1.000000 0.000000 0.000000
0.760342 0.846464 0.827329
0.792966 0.851194 0.832029
0.896361 0.829160 0.794186
0.992645 0.846708 0.777249
1.000000 0.789548 0.559136
0.888121 0.921996 0.904204
0.888792 0.918883 0.902983
0.895445 0.916503 0.909300
0.970459 0.906493 0.850217
0.927977 0.925628 0.915007
0.937987 0.959136 0.946044
0.939757 0.959106 0.946960
0.944579 0.958434 0.949889
0.952605 0.960174 0.948547
1.000000 0.951110 0.902647
0.860227 0.000000 0.958068
0.943267 0.000000 0.962921
1.000000 0.000000 0.932921
1.000000 0.000000 0.756558
1.000000 0.000000 0.503868
0.818509 0.387610 0.939391
0.899535 0.113039 0.948577
1.000000 0.000000 0.929931
1.000000 0.000000 0.742977
1.000000 0.000000 0.496773
0.786770 0.848295 0.879789
0.804013 0.858091 0.882811
0.912535 0.823209 0.906462
1.000000 0.764523 0.835416
1.000000 0.467659 0.627741
0.871244 0.926543 0.914397
0.877531 0.926665 0.914031
0.904814 0.931823 0.920775
0.951171 0.922667 0.903563
1.000000 0.928618 0.893584
0.943603 0.969024 0.957031
0.946319 0.969696 0.958312
0.953277 0.970123 0.960876
0.959991 0.968719 0.964782
0.998932 0.964965 0.938201
0.888670 0.000000 1.000000
0.926696 0.000000 1.000000
1.000000 0.000000 1.000000
1.000000 0.000000 0.961242
1.000000 0.000000 0.798703
0.895933 0.000000 1.000000
0.936522 0.000000 1.000000
1.000000 0.000000 1.000000
1.000000 0.000000 0.956756
1.000000 0.000000 0.795499
0.845914 0.855406 0.957641
0.855955 0.842130 0.960632
0.935851 0.758999 0.975311
1.000000 0.432441 0.958556
1.000000 0.000000 0.788540
0.882322 0.924651 0.943755
0.886809 0.926879 0.944579
0.904997 0.936248 0.948852
0.962524 0.919829 0.964691
1.000000 0.880766 0.922820
0.933562 0.970428 0.967895
0.936065 0.971405 0.968505
0.947143 0.975708 0.971710
0.967193 0.980499 0.976257
0.990173 0.981262 0.975921
