20 Preset/City Style/【3】LUT video cho PR-AE-FCPX/TONE 3/Dubai I Burj Khalifa.cube
# Created by Adobe Lightroom plugin Export LUT (1.24.0)
# www.johnrellis.com/lightroom/exportlut.htm
# Preset: Dubai I Burj Khalifa
# Color profile: E:\lut插件\exportlut.1.24\exportlut.lrplugin\color profiles\Rec709gamma2.4.icc
LUT_3D_SIZE 5
DOMAIN_MIN 0.000000 0.000000 0.000000
DOMAIN_MAX 0.903226 0.903226 0.903226
0.098238 0.105013 0.113497
0.031891 0.082368 0.089174
0.239292 0.036194 0.076417
0.775021 0.000000 0.123842
1.000000 0.000000 0.265843
0.104677 0.107881 0.107240
0.157900 0.121462 0.075410
0.368658 0.198032 0.122164
0.975616 0.214817 0.169314
1.000000 0.579522 0.376837
0.761959 0.750057 0.721431
0.798245 0.738216 0.593866
1.000000 0.769253 0.288914
1.000000 0.678981 0.000000
1.000000 0.918517 0.698604
0.976745 0.973999 0.984924
0.980529 0.974670 0.979217
0.999115 0.973877 0.940856
1.000000 0.954711 0.741909
1.000000 0.825376 0.000000
0.992401 0.991272 1.000000
0.993011 0.991333 0.999634
0.996124 0.990204 0.991730
1.000000 0.988769 0.968475
1.000000 0.978393 0.848783
0.000000 0.221592 0.543175
0.000000 0.213870 0.540459
0.000000 0.200015 0.435676
0.529168 0.481636 0.526177
1.000000 0.361700 0.664942
0.000000 0.346410 0.650904
0.000000 0.380835 0.659052
0.286625 0.389990 0.593194
0.764767 0.561730 0.655787
1.000000 0.345037 0.592309
0.787869 0.925658 0.840208
0.863218 0.916808 0.885954
0.927031 0.900175 0.883757
1.000000 0.888945 0.808927
1.000000 0.948425 0.922759
0.981659 0.983459 1.000000
0.981415 0.983185 1.000000
0.985962 0.983886 0.995727
1.000000 0.975525 0.947295
1.000000 0.889403 0.561608
0.992767 0.992401 1.000000
0.993042 0.992432 1.000000
0.994781 0.992493 0.999908
1.000000 0.990936 0.986114
1.000000 0.980621 0.882261
0.000000 0.754543 1.000000
0.000000 0.774197 1.000000
0.000000 0.840543 1.000000
0.692470 0.883604 1.000000
0.943603 0.913695 1.000000
0.000000 0.893370 1.000000
0.000000 0.895293 1.000000
0.597162 0.908049 1.000000
0.826780 0.924956 1.000000
0.963012 0.942809 1.000000
0.836515 0.969146 1.000000
0.871031 0.970062 1.000000
0.951324 0.979950 1.000000
0.972442 0.982238 1.000000
0.987701 0.983246 1.000000
0.976471 0.995514 1.000000
0.977295 0.995209 1.000000
0.986419 0.995148 1.000000
0.994873 0.995453 1.000000
0.996918 0.993835 1.000000
0.996735 0.996948 1.000000
0.996826 0.996948 1.000000
0.996887 0.996918 1.000000
0.997406 0.997040 1.000000
0.999023 0.995941 1.000000
0.577752 0.937591 1.000000
0.649805 0.942657 1.000000
0.784604 0.953521 1.000000
0.891508 0.965942 1.000000
0.953185 0.977600 1.000000
0.804044 0.960571 1.000000
0.818448 0.961669 1.000000
0.867887 0.966308 1.000000
0.922362 0.973053 1.000000
0.963012 0.981140 1.000000
0.958648 0.985718 1.000000
0.963226 0.986542 1.000000
0.970367 0.987640 1.000000
0.976776 0.988434 1.000000
0.986725 0.991211 1.000000
0.988617 0.994659 1.000000
0.989044 0.994690 1.000000
0.991852 0.995392 1.000000
0.995361 0.996765 1.000000
0.996948 0.997345 1.000000
0.997681 0.999207 1.000000
0.997772 0.999207 1.000000
0.998230 0.999268 1.000000
0.999054 0.999359 1.000000
0.999390 0.999359 1.000000
0.897154 0.974273 1.000000
0.902983 0.975006 1.000000
0.925811 0.978271 1.000000
0.951873 0.982666 1.000000
0.972961 0.987335 1.000000
0.931212 0.980133 1.000000
0.934508 0.980621 1.000000
0.947051 0.982605 1.000000
0.963287 0.985565 1.000000
0.978393 0.989197 1.000000
0.980774 0.991424 1.000000
0.980957 0.991424 1.000000
0.982910 0.991882 1.000000
0.986328 0.992767 1.000000
0.991211 0.994476 1.000000
0.995514 0.997223 1.000000
0.995636 0.997253 1.000000
0.996277 0.997589 1.000000
0.996765 0.997772 1.000000
0.997528 0.998138 1.000000
0.998718 0.999237 1.000000
0.998749 0.999237 1.000000
0.998993 0.999359 1.000000
0.999329 0.999512 1.000000
0.999695 0.999725 1.000000
