20 Preset/City Style/【3】LUT video cho PR-AE-FCPX/TONE 3/Dubai I EMAAR.cube
# Created by Adobe Lightroom plugin Export LUT (1.24.0)
# www.johnrellis.com/lightroom/exportlut.htm
# Preset: Dubai I EMAAR
# Color profile: E:\lut插件\exportlut.1.24\exportlut.lrplugin\color profiles\Rec709gamma2.4.icc
LUT_3D_SIZE 5
DOMAIN_MIN 0.000000 0.000000 0.000000
DOMAIN_MAX 0.903226 0.903226 0.903226
0.000641 0.101076 0.097261
0.154788 0.085512 0.089052
0.957092 0.000000 0.014771
1.000000 0.000000 0.223423
1.000000 0.459785 0.591058
0.091951 0.163424 0.174411
0.080354 0.155673 0.164523
0.895567 0.260288 0.000000
1.000000 0.358404 0.309667
1.000000 0.582330 0.650690
0.728054 0.782254 0.825162
0.725338 0.780117 0.823514
0.633234 0.705837 0.766354
1.000000 0.786862 0.620478
1.000000 0.775998 0.741207
0.923857 0.939269 0.949462
0.925109 0.940307 0.950286
0.926146 0.941131 0.950988
0.869474 0.895842 0.913970
1.000000 0.923522 0.888426
0.976684 0.981415 0.984466
0.977203 0.981811 0.984802
0.974914 0.980041 0.983307
0.976837 0.981506 0.984558
0.972656 0.978210 0.981781
0.000000 0.096803 0.145968
0.026917 0.127901 0.129763
0.750423 0.000000 0.388098
1.000000 0.000000 0.496254
1.000000 0.532372 0.687129
0.039155 0.183139 0.229007
0.236973 0.307042 0.356115
0.915435 0.267002 0.391485
1.000000 0.424109 0.550317
1.000000 0.612055 0.710903
0.740414 0.792203 0.832731
0.749905 0.799832 0.838529
0.663386 0.730373 0.785519
1.000000 0.786862 0.692073
1.000000 0.802274 0.794400
0.929046 0.943450 0.952880
0.930816 0.944823 0.954040
0.935637 0.948669 0.957214
0.883482 0.907073 0.923064
1.000000 0.929778 0.900847
0.978088 0.982544 0.985412
0.978424 0.982788 0.985595
0.980804 0.984710 0.987213
0.981964 0.985626 0.987976
0.979370 0.983581 0.986267
0.000000 0.166995 0.766873
0.000000 0.260502 0.745632
0.496101 0.587915 0.665858
0.836606 0.785275 0.853849
1.000000 0.790219 0.885924
0.000000 0.269627 0.861173
0.000000 0.453895 0.847501
0.642634 0.713497 0.772366
0.903655 0.803098 0.875914
1.000000 0.817441 0.893431
0.667933 0.772824 0.857053
0.732662 0.809781 0.871397
0.879545 0.903899 0.920500
0.984985 0.881773 0.904234
1.000000 0.884550 0.910216
0.930144 0.944305 0.953613
0.932830 0.946441 0.955383
0.947326 0.958007 0.964965
0.927977 0.942565 0.952178
1.000000 0.948455 0.934630
0.979828 0.983917 0.986542
0.981140 0.984985 0.987427
0.983520 0.986877 0.989014
0.986358 0.989105 0.990906
0.982422 0.985992 0.988281
0.000000 0.471229 0.979919
0.000000 0.553979 0.971283
0.654047 0.765743 0.931640
0.835172 0.868345 0.891936
0.903685 0.923186 0.936217
0.271824 0.588800 0.981720
0.451606 0.660182 0.972747
0.711940 0.801663 0.939422
0.853086 0.882719 0.903380
0.910063 0.928283 0.940398
0.573022 0.736385 0.974517
0.635523 0.764370 0.973175
0.843809 0.887846 0.962280
0.910979 0.929015 0.941009
0.950835 0.947723 0.960754
0.895720 0.928954 0.955962
0.903166 0.933074 0.957183
0.933593 0.951568 0.965179
0.967834 0.974365 0.978576
0.995056 0.970428 0.975860
0.978149 0.982574 0.985443
0.979583 0.983703 0.986358
0.985351 0.988342 0.990234
0.991943 0.993561 0.994598
0.991058 0.992859 0.994049
0.613947 0.756344 1.000000
0.650599 0.777371 1.000000
0.769100 0.848112 0.988464
0.885008 0.917906 0.965179
0.928222 0.942779 0.952331
0.671931 0.788052 1.000000
0.699550 0.804776 0.999847
0.791775 0.861662 0.987701
0.890776 0.921935 0.966918
0.932128 0.945892 0.954925
0.651637 0.771908 1.000000
0.716487 0.811917 1.000000
0.856413 0.901762 0.988556
0.914580 0.938842 0.975250
0.951263 0.961151 0.967559
0.830686 0.895171 0.992676
0.839902 0.899687 0.992309
0.880156 0.920836 0.991638
0.955108 0.967590 0.989014
0.981842 0.985504 0.987884
0.969024 0.980102 0.989776
0.971130 0.981353 0.990173
0.980468 0.986938 0.992432
0.990875 0.993469 0.995483
0.997345 0.997864 0.998230
