20 Preset/City Style/【3】LUT video cho PR-AE-FCPX/TONE 3/Dubai I Burj.cube
# Created by Adobe Lightroom plugin Export LUT (1.24.0)
# www.johnrellis.com/lightroom/exportlut.htm
# Preset: Dubai I Burj
# Color profile: E:\lut插件\exportlut.1.24\exportlut.lrplugin\color profiles\Rec709gamma2.4.icc
LUT_3D_SIZE 32
DOMAIN_MIN 0.0 0.0 0.0
DOMAIN_MAX 1.0 1.0 1.0
0.049042 0.049317 0.032959
0.047059 0.049531 0.032959
0.045777 0.048554 0.033143
0.051759 0.047883 0.033112
0.088289 0.047578 0.031189
0.124178 0.045289 0.029145
0.182895 0.025116 0.025483
0.268498 0.000000 0.018524
0.378180 0.000000 0.007294
0.502800 0.000000 0.000000
0.629603 0.000000 0.000000
0.744961 0.000000 0.000000
0.838132 0.000000 0.000000
0.910246 0.000000 0.000000
0.967224 0.000000 0.000000
1.000000 0.000000 0.000000
1.000000 0.000000 0.000000
1.000000 0.000000 0.000000
1.000000 0.000000 0.000000
1.000000 0.000000 0.000000
1.000000 0.000000 0.000000
1.000000 0.000000 0.146517
1.000000 0.162814 0.222568
1.000000 0.258579 0.283177
1.000000 0.320165 0.335149
1.000000 0.368078 0.381048
1.000000 0.409796 0.423926
1.000000 0.446815 0.462806
1.000000 0.482216 0.500633
1.000000 0.517540 0.537743
1.000000 0.553002 0.573816
1.000000 0.588769 0.608881
0.047761 0.048341 0.033112
0.047761 0.048341 0.033112
0.045777 0.048554 0.033143
0.051759 0.047883 0.033112
0.086915 0.048981 0.031037
0.121096 0.047822 0.029053
0.175540 0.033112 0.025391
0.256229 0.000000 0.019135
0.359808 0.000000 0.008759
0.480018 0.000000 0.000000
0.605646 0.000000 0.000000
0.722591 0.000000 0.000000
0.819577 0.000000 0.000000
0.894682 0.000000 0.000000
0.954162 0.000000 0.000000
1.000000 0.000000 0.000000
1.000000 0.000000 0.000000
1.000000 0.000000 0.000000
1.000000 0.000000 0.000000
1.000000 0.000000 0.000000
1.000000 0.000000 0.000000
1.000000 0.000000 0.128817
1.000000 0.122621 0.202914
1.000000 0.230869 0.260472
1.000000 0.293858 0.309972
1.000000 0.343145 0.354314
1.000000 0.385351 0.396307
1.000000 0.423285 0.435584
1.000000 0.459663 0.474281
1.000000 0.495399 0.512444
1.000000 0.531884 0.550988
1.000000 0.568658 0.587976
0.047761 0.048341 0.033112
0.048066 0.048341 0.031983
0.048066 0.048341 0.031983
0.053315 0.048859 0.031800
0.084688 0.054994 0.030274
0.117250 0.060761 0.027588
0.169284 0.052308 0.023560
0.245060 0.007752 0.018189
0.345525 0.000000 0.007782
0.462806 0.000000 0.000000
0.586267 0.000000 0.000000
0.704005 0.000000 0.000000
0.803738 0.000000 0.000000
0.881346 0.000000 0.000000
0.942718 0.000000 0.000000
0.992615 0.000000 0.000000
1.000000 0.000000 0.000000
1.000000 0.000000 0.000000
1.000000 0.000000 0.000000
1.000000 0.000000 0.000000
1.000000 0.000000 0.000000
1.000000 0.000000 0.129397
1.000000 0.145632 0.198367
1.000000 0.237247 0.255955
1.000000 0.295232 0.302861
1.000000 0.339788 0.344213
1.000000 0.380529 0.385565
1.000000 0.417456 0.424414
1.000000 0.452857 0.462623
1.000000 0.488685 0.501793
1.000000 0.524407 0.540215
1.000000 0.560601 0.577691
0.044373 0.073457 0.028656
0.050324 0.072786 0.028626
0.068757 0.072969 0.028229
0.082643 0.069978 0.028321
0.092531 0.059754 0.029297
0.120150 0.072969 0.025696
0.163027 0.085023 0.021576
0.235386 0.065095 0.014618
0.332097 0.000000 0.004547
0.446113 0.000000 0.000000
0.567895 0.000000 0.000000
0.685420 0.000000 0.000000
0.786435 0.000000 0.000000
0.865965 0.000000 0.000000
0.928283 0.000000 0.000000
0.978973 0.000000 0.000000
1.000000 0.000000 0.000000
1.000000 0.000000 0.000000
1.000000 0.000000 0.000000
1.000000 0.000000 0.000000
1.000000 0.000000 0.000000
1.000000 0.000000 0.122438
1.000000 0.182467 0.190982
1.000000 0.251926 0.245579
1.000000 0.303655 0.293217
1.000000 0.347967 0.338750
1.000000 0.388312 0.382422
1.000000 0.424811 0.423346
1.000000 0.459846 0.462837
1.000000 0.494209 0.501732
1.000000 0.527611 0.538964
1.000000 0.560632 0.573877
0.033326 0.114473 0.014801
0.037873 0.114931 0.014466
0.081422 0.114473 0.013825
0.119173 0.114412 0.011688
0.129580 0.104982 0.016449
0.136019 0.090181 0.022950
0.171603 0.086091 0.022553
0.229221 0.093904 0.015351
0.306065 0.100069 0.000305
0.414679 0.025971 0.000000
0.533288 0.000000 0.000000
0.651911 0.000000 0.000000
0.757107 0.000000 0.000000
0.841672 0.000000 0.000000
0.908019 0.000000 0.000000
0.962066 0.000000 0.000000
1.000000 0.000000 0.000000
1.000000 0.000000 0.000000
1.000000 0.000000 0.000000
1.000000 0.000000 0.000000
1.000000 0.106172 0.000000
1.000000 0.195590 0.141909
1.000000 0.252018 0.202823
1.000000 0.298344 0.256046
1.000000 0.339269 0.303563
1.000000 0.375555 0.346868
1.000000 0.409796 0.388952
1.000000 0.442023 0.428595
1.000000 0.473426 0.466682
1.000000 0.504204 0.503593
1.000000 0.534661 0.538903
1.000000 0.565209 0.572564
0.000000 0.182895 0.000000
0.000000 0.183566 0.000000
0.000000 0.183566 0.000000
0.120089 0.183902 0.000000
0.199222 0.178470 0.000000
0.213504 0.156954 0.000000
0.221439 0.126040 0.002594
0.251408 0.096071 0.016754
0.326146 0.105653 0.002014
0.413977 0.119692 0.000000
0.512688 0.136660 0.000000
0.631861 0.101503 0.000000
0.738552 0.022339 0.000000
0.825162 0.000000 0.000000
0.893492 0.035889 0.000000
0.948699 0.100404 0.000000
0.995697 0.132753 0.000000
1.000000 0.161227 0.000000
1.000000 0.186740 0.000000
1.000000 0.221317 0.000000
1.000000 0.263249 0.106416
1.000000 0.298924 0.179812
1.000000 0.430976 0.365454
1.000000 0.464912 0.420935
1.000000 0.494911 0.466804
1.000000 0.521904 0.505516
1.000000 0.547875 0.540612
1.000000 0.571710 0.570123
1.000000 0.595850 0.598016
1.000000 0.618311 0.622339
1.000000 0.640223 0.644800
1.000000 0.660792 0.665034
0.000000 0.325963 0.000000
0.000000 0.325963 0.000000
0.000000 0.326543 0.000000
0.000000 0.325902 0.000000
0.245457 0.322759 0.000000
0.368231 0.306126 0.000000
0.387701 0.269596 0.000000
0.398352 0.216526 0.000000
0.403540 0.148013 0.000000
0.500114 0.146883 0.000000
0.595331 0.182498 0.000000
0.686275 0.231601 0.000000
0.767239 0.278111 0.000000
0.844633 0.290867 0.000000
0.905791 0.302770 0.000000
0.956420 0.312200 0.000000
1.000000 0.320684 0.000000
1.000000 0.328557 0.000000
1.000000 0.341894 0.000000
1.000000 0.370184 0.140902
1.000000 0.397162 0.219455
1.000000 0.425574 0.288273
1.000000 0.455940 0.353185
1.000000 0.486366 0.411841
1.000000 0.514794 0.462867
1.000000 0.540459 0.505455
1.000000 0.562493 0.539269
1.000000 0.582696 0.567285
1.000000 0.602655 0.592706
1.000000 0.621576 0.615381
1.000000 0.640589 0.636622
1.000000 0.659297 0.656458
0.000000 0.440131 0.000000
0.000000 0.439643 0.000000
0.000000 0.440375 0.000000
0.000000 0.439582 0.000000
0.166262 0.437537 0.000000
0.377905 0.431342 0.000000
0.502495 0.409918 0.000000
0.523156 0.369970 0.000000
0.540581 0.315984 0.000000
0.543084 0.241215 0.000000
0.617700 0.204654 0.000000
0.699733 0.252689 0.000000
0.768704 0.307195 0.000000
0.823728 0.362402 0.000000
0.874846 0.399390 0.000000
0.927428 0.408057 0.000000
0.973266 0.413977 0.000000
1.000000 0.423285 0.000000
1.000000 0.439399 0.124910
1.000000 0.453346 0.197757
1.000000 0.468360 0.261540
1.000000 0.486213 0.320867
1.000000 0.506401 0.377478
1.000000 0.528466 0.431708
1.000000 0.550103 0.478614
1.000000 0.569360 0.516442
1.000000 0.586572 0.546685
1.000000 0.602502 0.572229
1.000000 0.619287 0.596429
1.000000 0.635309 0.617609
1.000000 0.651575 0.637507
1.000000 0.667475 0.655695
0.000000 0.554376 0.000000
0.000000 0.554284 0.000000
0.000000 0.554131 0.000000
0.000000 0.553338 0.000000
0.000000 0.550896 0.000000
0.317418 0.545434 0.000000
0.512902 0.536950 0.000000
0.623804 0.516686 0.000000
0.645441 0.479561 0.000000
0.667414 0.430701 0.000000
0.678065 0.360632 0.000000
0.720974 0.295384 0.000000
0.784329 0.335576 0.000000
0.833524 0.386206 0.000000
0.873991 0.433387 0.000000
0.908476 0.474525 0.000000
0.953857 0.505516 0.053895
1.000000 0.515373 0.153140
1.000000 0.522393 0.209537
1.000000 0.528893 0.262425
1.000000 0.537255 0.313573
1.000000 0.547814 0.365148
1.000000 0.560815 0.415290
1.000000 0.576013 0.462531
1.000000 0.591516 0.503777
1.000000 0.605463 0.536980
1.000000 0.618372 0.563684
1.000000 0.630945 0.586999
1.000000 0.643732 0.607965
1.000000 0.656367 0.626673
1.000000 0.669642 0.644709
1.000000 0.682734 0.661097
0.000000 0.656214 0.000000
0.000000 0.655573 0.000000
0.000000 0.654444 0.000000
0.000000 0.652918 0.000000
0.000000 0.648829 0.000000
0.204013 0.642756 0.000000
0.465034 0.634363 0.000000
0.624262 0.626001 0.000000
0.711330 0.607446 0.000000
0.730861 0.574823 0.000000
0.752102 0.533349 0.000000
0.766018 0.474769 0.000000
0.783719 0.404761 0.010681
0.840604 0.408911 0.105226
0.886473 0.463355 0.131807
0.924743 0.508690 0.163546
0.958160 0.548089 0.204440
0.986847 0.581109 0.245609
1.000000 0.596429 0.290349
1.000000 0.598749 0.331304
1.000000 0.601740 0.373632
1.000000 0.605615 0.414435
1.000000 0.611444 0.452461
1.000000 0.618738 0.488869
1.000000 0.626947 0.520592
1.000000 0.634913 0.546899
1.000000 0.644129 0.571527
1.000000 0.653315 0.592584
1.000000 0.663783 0.612879
1.000000 0.674891 0.631739
1.000000 0.686397 0.649317
1.000000 0.698482 0.666133
0.000000 0.728939 0.000000
0.000000 0.728817 0.000000
0.000000 0.728359 0.000000
0.000000 0.727108 0.000000
0.000000 0.724392 0.000000
0.000000 0.719875 0.000000
0.404913 0.713191 0.000000
0.581109 0.706386 0.000000
0.707973 0.700618 0.000000
0.777890 0.683253 0.000000
0.797360 0.656458 0.000000
0.823575 0.629969 0.000000
0.841978 0.586816 0.000000
0.861662 0.535363 0.168612
0.905913 0.504570 0.233555
0.937804 0.540887 0.257206
0.965942 0.573297 0.287816
0.990570 0.601160 0.319280
1.000000 0.626429 0.355047
1.000000 0.649042 0.391394
1.000000 0.657221 0.427802
1.000000 0.657893 0.461158
1.000000 0.660182 0.493111
1.000000 0.663844 0.523369
1.000000 0.668635 0.550530
1.000000 0.673762 0.573632
1.000000 0.679286 0.593622
1.000000 0.685573 0.612024
1.000000 0.692988 0.629603
1.000000 0.701442 0.646509
1.000000 0.710475 0.662257
1.000000 0.719905 0.677089
0.000000 0.795102 0.000000
0.000000 0.795041 0.000000
0.000000 0.794430 0.000000
0.000000 0.793179 0.000000
0.000000 0.790494 0.000000
0.000000 0.786404 0.000000
0.347082 0.783688 0.000000
0.543877 0.781155 0.000000
0.678981 0.779080 0.000000
0.789700 0.777584 0.000000
0.847776 0.763058 0.000000
0.866819 0.740932 0.000000
0.931243 0.766934 0.318029
0.945403 0.733516 0.368109
0.959594 0.694423 0.410346
0.982879 0.657099 0.453223
1.000000 0.663142 0.482551
1.000000 0.681880 0.506340
1.000000 0.699306 0.530663
1.000000 0.715938 0.555596
1.000000 0.731502 0.579583
1.000000 0.746181 0.602441
1.000000 0.750423 0.621607
1.000000 0.750271 0.637476
1.000000 0.750729 0.651606
1.000000 0.751186 0.663416
1.000000 0.752010 0.673610
1.000000 0.752926 0.682429
1.000000 0.754665 0.691005
1.000000 0.757595 0.699886
1.000000 0.761532 0.709071
1.000000 0.766781 0.718868
0.000000 0.886107 0.000000
0.000000 0.885679 0.000000
0.000000 0.884215 0.000000
0.000000 0.881498 0.000000
0.000000 0.877470 0.000000
0.000000 0.872251 0.000000
0.356847 0.866819 0.031586
0.535546 0.861723 0.106691
0.662531 0.857603 0.153780
0.771389 0.854429 0.199069
0.874540 0.851835 0.244480
0.918395 0.837308 0.304479
0.935790 0.819699 0.358038
0.952728 0.798825 0.407782
0.965972 0.772335 0.450385
0.977905 0.740658 0.485054
0.990417 0.705135 0.515282
1.000000 0.693751 0.544427
1.000000 0.708705 0.561883
1.000000 0.722744 0.579553
1.000000 0.736233 0.597498
1.000000 0.749508 0.616052
1.000000 0.761929 0.633417
1.000000 0.773556 0.649622
1.000000 0.776120 0.662440
1.000000 0.775204 0.673304
1.000000 0.774655 0.682643
1.000000 0.774716 0.691402
1.000000 0.775540 0.699886
1.000000 0.777584 0.708705
1.000000 0.780362 0.717403
1.000000 0.784268 0.726680
0.000000 0.921080 0.270359
0.000000 0.920470 0.268040
0.000000 0.918486 0.263554
0.000000 0.915587 0.262150
0.000000 0.911376 0.259403
0.000000 0.906004 0.257023
0.331273 0.900572 0.261753
0.499855 0.895323 0.271366
0.622156 0.890654 0.288243
0.726162 0.886900 0.312596
0.823362 0.883574 0.342809
0.917266 0.880095 0.378027
0.944640 0.864042 0.419532
0.957885 0.847196 0.458106
0.970581 0.827451 0.491951
0.980987 0.803220 0.519188
0.990143 0.775967 0.544182
0.999573 0.745785 0.566033
1.000000 0.722774 0.592218
1.000000 0.732357 0.605921
1.000000 0.744625 0.620478
1.000000 0.756558 0.635126
1.000000 0.767727 0.649042
1.000000 0.778653 0.663050
1.000000 0.788663 0.675837
1.000000 0.797696 0.687312
1.000000 0.799710 0.696864
1.000000 0.798428 0.704372
1.000000 0.798306 0.712306
1.000000 0.799191 0.720455
1.000000 0.800809 0.728481
1.000000 0.803525 0.737087
0.000000 0.942931 0.379583
0.000000 0.942504 0.378515
0.000000 0.941009 0.375647
0.000000 0.938476 0.371893
0.000000 0.934691 0.367773
0.000000 0.930114 0.364752
0.326268 0.925322 0.365972
0.477272 0.920531 0.369940
0.591089 0.916136 0.380957
0.688502 0.912291 0.398322
0.780240 0.908629 0.420783
0.867491 0.904967 0.448646
0.950164 0.900237 0.478004
0.962280 0.883757 0.508202
0.972595 0.867613 0.534051
0.982483 0.849027 0.555474
0.991028 0.827634 0.574212
0.998749 0.804288 0.592218
1.000000 0.779538 0.609766
1.000000 0.757015 0.629206
1.000000 0.755245 0.644800
1.000000 0.765682 0.655970
1.000000 0.775723 0.667231
1.000000 0.785428 0.678401
1.000000 0.794369 0.688869
1.000000 0.802945 0.699062
1.000000 0.810941 0.708644
1.000000 0.819028 0.718776
1.000000 0.821958 0.727626
1.000000 0.822873 0.736538
1.000000 0.824796 0.745754
1.000000 0.827665 0.755306
0.000000 0.956573 0.455146
0.000000 0.956512 0.455451
0.000000 0.955657 0.455085
0.000000 0.954101 0.454383
0.000000 0.951720 0.453285
0.180514 0.948760 0.454170
0.361151 0.945586 0.458747
0.480385 0.942199 0.464668
0.578363 0.938720 0.474769
0.666407 0.935088 0.487526
0.748653 0.931060 0.503044
0.828244 0.926482 0.519036
0.903807 0.921355 0.535302
0.966125 0.911467 0.552544
0.974029 0.897276 0.568750
0.981964 0.881498 0.583642
0.990204 0.864225 0.597620
0.997711 0.845457 0.612085
1.000000 0.825742 0.627558
1.000000 0.805325 0.643091
1.000000 0.784970 0.658839
1.000000 0.775662 0.676600
1.000000 0.785122 0.686244
1.000000 0.794278 0.696101
1.000000 0.802914 0.705531
1.000000 0.811154 0.714839
1.000000 0.819028 0.723934
1.000000 0.826719 0.733120
1.000000 0.834195 0.742245
1.000000 0.841703 0.751736
1.000000 0.845579 0.760311
1.000000 0.846799 0.768185
0.000000 0.966583 0.515068
0.000000 0.966461 0.515068
0.000000 0.965850 0.514946
0.000000 0.964752 0.514641
0.114351 0.963043 0.515282
0.289586 0.960845 0.516930
0.397314 0.958282 0.520287
0.489113 0.955444 0.525414
0.571344 0.952361 0.532891
0.648524 0.949004 0.541680
0.723232 0.945251 0.552819
0.795163 0.941100 0.564538
0.864683 0.936492 0.576928
0.931182 0.931243 0.589166
0.975982 0.920623 0.601740
0.982727 0.907561 0.613519
0.989593 0.893339 0.624689
0.996674 0.878294 0.636469
1.000000 0.862333 0.648768
1.000000 0.845762 0.662104
1.000000 0.828763 0.675013
1.000000 0.811734 0.688258
1.000000 0.799588 0.703853
1.000000 0.803799 0.713771
1.000000 0.811826 0.721981
1.000000 0.819699 0.730465
1.000000 0.827268 0.738918
1.000000 0.834592 0.747311
1.000000 0.841886 0.756039
1.000000 0.849027 0.764828
1.000000 0.856016 0.773648
1.000000 0.862943 0.782681
0.154452 0.975494 0.574578
0.172885 0.975525 0.575494
0.389868 0.982818 0.637354
0.411383 0.982086 0.637690
0.442267 0.980926 0.638025
0.480507 0.979370 0.638239
0.526116 0.977386 0.639094
0.576104 0.975067 0.641413
0.629603 0.972442 0.645167
0.685634 0.969482 0.650538
0.742367 0.966155 0.656489
0.798611 0.962463 0.663294
0.854002 0.958221 0.669154
0.908354 0.953429 0.674830
0.961181 0.948180 0.679927
0.988678 0.937530 0.685603
0.993652 0.925933 0.690303
0.998962 0.913451 0.694697
1.000000 0.900420 0.700526
1.000000 0.886778 0.706996
1.000000 0.872801 0.714687
1.000000 0.858915 0.723384
1.000000 0.844877 0.732113
1.000000 0.832792 0.742275
1.000000 0.829465 0.750393
1.000000 0.834531 0.754788
1.000000 0.839445 0.759274
1.000000 0.844633 0.764431
1.000000 0.850462 0.770901
1.000000 0.856535 0.778012
1.000000 0.862821 0.785672
1.000000 0.868894 0.793271
0.390631 0.984253 0.638880
0.404242 0.984741 0.643915
0.424598 0.985046 0.649134
0.449592 0.984985 0.654108
0.479438 0.984436 0.657984
0.511284 0.983307 0.659876
0.547539 0.981689 0.660975
0.587945 0.979675 0.662257
0.632624 0.977356 0.664942
0.680354 0.974731 0.668544
0.730037 0.971801 0.673396
0.780179 0.968536 0.678676
0.830320 0.964782 0.683619
0.879698 0.960693 0.688350
0.928374 0.956146 0.693050
0.976410 0.951202 0.697353
0.992889 0.940459 0.702510
0.997589 0.930175 0.707698
1.000000 0.919402 0.713527
1.000000 0.908263 0.720089
1.000000 0.896788 0.727260
1.000000 0.885191 0.735225
1.000000 0.873381 0.743160
1.000000 0.861295 0.750820
1.000000 0.849271 0.758083
1.000000 0.841306 0.766842
1.000000 0.845640 0.770382
1.000000 0.850309 0.774777
1.000000 0.855375 0.779965
1.000000 0.860929 0.786160
1.000000 0.866789 0.793088
1.000000 0.872526 0.800076
0.457465 0.988098 0.664240
0.468788 0.988525 0.669001
0.484413 0.988800 0.674006
0.503777 0.988769 0.678828
0.526513 0.988312 0.682582
0.550927 0.987427 0.684474
0.579217 0.986084 0.685328
0.611353 0.984344 0.686519
0.647547 0.982361 0.688502
0.687037 0.980041 0.691005
0.729183 0.977478 0.694240
0.772732 0.974578 0.698451
0.816678 0.971374 0.702510
0.860838 0.967834 0.706691
0.904723 0.963958 0.710780
0.948241 0.959716 0.714534
0.991272 0.955169 0.718257
0.997589 0.944488 0.723079
1.000000 0.935332 0.728054
1.000000 0.925872 0.733669
1.000000 0.916197 0.740200
1.000000 0.906432 0.747402
1.000000 0.896452 0.754604
1.000000 0.886198 0.761563
1.000000 0.875425 0.767544
1.000000 0.864256 0.773220
1.000000 0.855894 0.780392
1.000000 0.856260 0.785214
1.000000 0.860777 0.789639
1.000000 0.865721 0.794797
1.000000 0.870970 0.800748
1.000000 0.876097 0.806760
0.517113 0.991760 0.688808
0.525109 0.992096 0.692744
0.537133 0.992248 0.696925
0.551812 0.992157 0.700923
0.568963 0.991791 0.703944
0.588159 0.990997 0.705592
0.610376 0.989868 0.706508
0.636133 0.988403 0.707424
0.666072 0.986664 0.709071
0.698787 0.984680 0.710964
0.734340 0.982452 0.713741
0.771664 0.979950 0.717159
0.810147 0.977142 0.720424
0.849058 0.974090 0.723995
0.888151 0.970764 0.727779
0.927428 0.967193 0.731716
0.966522 0.963500 0.736233
0.998535 0.956970 0.741787
1.000000 0.949706 0.748409
1.000000 0.942351 0.755642
1.000000 0.934997 0.763821
1.000000 0.927703 0.772457
1.000000 0.920317 0.780758
1.000000 0.912840 0.788479
1.000000 0.905119 0.795346
1.000000 0.896941 0.801144
1.000000 0.888579 0.806485
1.000000 0.881773 0.813046
1.000000 0.879911 0.819638
1.000000 0.884184 0.824094
1.000000 0.888579 0.828946
1.000000 0.892821 0.833768
0.607965 0.996674 0.734585
0.611231 0.996704 0.736080
0.615900 0.996612 0.737392
0.622766 0.996368 0.738186
0.632197 0.995850 0.738521
0.644007 0.995087 0.738674
0.659113 0.994079 0.738613
0.678065 0.992859 0.738827
0.700679 0.991424 0.739803
0.726864 0.989746 0.741756
0.755367 0.987884 0.744167
0.785794 0.985809 0.746944
0.817258 0.983459 0.749630
0.849790 0.980896 0.752560
0.882963 0.978058 0.755459
0.916533 0.975006 0.758328
0.950225 0.971801 0.761563
0.983917 0.968444 0.765225
1.000000 0.961761 0.769955
1.000000 0.955261 0.774899
1.000000 0.948669 0.780362
1.000000 0.941955 0.786313
1.000000 0.935149 0.792386
1.000000 0.928191 0.798306
1.000000 0.921172 0.803769
1.000000 0.914000 0.808865
1.000000 0.906767 0.813901
1.000000 0.899626 0.819120
1.000000 0.893278 0.825010
1.000000 0.889250 0.832029
1.000000 0.892638 0.836027
1.000000 0.896269 0.839902
0.648188 0.999084 0.753079
0.650446 0.999115 0.754208
0.654322 0.999054 0.755245
0.660090 0.998779 0.756191
0.667597 0.998352 0.756680
0.677089 0.997742 0.756771
0.689540 0.996887 0.756710
0.704921 0.995850 0.757107
0.723262 0.994659 0.757992
0.744961 0.993225 0.759640
0.768734 0.991608 0.761593
0.794491 0.989807 0.764096
0.821653 0.987793 0.766415
0.849851 0.985595 0.769253
0.878874 0.983185 0.772091
0.908385 0.980621 0.775021
0.938384 0.977874 0.778347
0.968353 0.975036 0.781857
0.998322 0.972107 0.785702
1.000000 0.965423 0.790646
1.000000 0.959808 0.795773
1.000000 0.954070 0.801144
1.000000 0.948302 0.806760
1.000000 0.942473 0.812314
1.000000 0.933196 0.808072
1.000000 0.926665 0.812558
1.000000 0.920134 0.817136
1.000000 0.913664 0.821866
1.000000 0.907256 0.826658
1.000000 0.901061 0.831815
1.000000 0.897276 0.838651
1.000000 0.897948 0.843168
0.701839 1.000000 0.781949
0.704952 1.000000 0.783810
0.707759 1.000000 0.784726
0.710780 1.000000 0.784512
0.714504 1.000000 0.783536
0.719753 1.000000 0.782101
0.726802 0.999725 0.780392
0.736568 0.998779 0.778836
0.749264 0.997620 0.777737
0.764889 0.996338 0.777157
0.782834 0.994842 0.776883
0.803555 0.993164 0.777401
0.825895 0.991302 0.778256
0.849699 0.989258 0.779110
0.874510 0.986999 0.779873
0.900542 0.984558 0.781003
0.927520 0.981964 0.782528
0.955138 0.979278 0.784970
0.983093 0.976593 0.788327
1.000000 0.972259 0.793149
1.000000 0.966918 0.798489
1.000000 0.961791 0.803769
1.000000 0.956451 0.808591
1.000000 0.950866 0.812955
1.000000 0.944976 0.816678
1.000000 0.938903 0.820249
1.000000 0.932647 0.823301
1.000000 0.926329 0.826230
1.000000 0.920012 0.829435
1.000000 0.913878 0.833249
1.000000 0.908049 0.837613
1.000000 0.903899 0.843626
0.721645 1.000000 0.788998
0.724300 1.000000 0.790707
0.727260 1.000000 0.791867
0.730526 1.000000 0.792233
0.734768 1.000000 0.792142
0.740444 1.000000 0.791897
0.748135 1.000000 0.791775
0.758114 1.000000 0.791745
0.770230 1.000000 0.792050
0.784512 0.999084 0.792874
0.800534 0.997833 0.793668
0.818326 0.996460 0.794858
0.837369 0.994903 0.795834
0.857603 0.993164 0.796689
0.878752 0.991211 0.797299
0.900938 0.989136 0.797971
0.924224 0.986847 0.798947
0.948302 0.984527 0.800595
0.972992 0.982147 0.803189
0.997864 0.979736 0.806699
1.000000 0.974762 0.811429
1.000000 0.970275 0.816098
1.000000 0.965667 0.820706
1.000000 0.960906 0.824979
1.000000 0.955993 0.828946
1.000000 0.950896 0.832609
1.000000 0.945647 0.836118
1.000000 0.940307 0.839139
1.000000 0.934844 0.841764
1.000000 0.929534 0.844968
1.000000 0.924437 0.848631
1.000000 0.919341 0.852323
0.751827 1.000000 0.803983
0.753292 1.000000 0.804929
0.754879 1.000000 0.805325
0.757198 1.000000 0.805325
0.760494 1.000000 0.805081
0.764981 1.000000 0.804685
0.771054 1.000000 0.804166
0.778988 1.000000 0.803922
0.788846 1.000000 0.803983
0.800717 1.000000 0.804410
0.814206 1.000000 0.804929
0.829465 0.999115 0.805692
0.845853 0.997772 0.806638
0.863462 0.996246 0.807279
0.881926 0.994537 0.807797
0.901457 0.992676 0.808042
0.921935 0.990692 0.808804
0.943511 0.988586 0.809934
0.965759 0.986450 0.811978
0.988342 0.984283 0.814969
1.000000 0.982116 0.818601
1.000000 0.976715 0.822995
1.000000 0.972534 0.826871
1.000000 0.968170 0.830533
1.000000 0.963684 0.833890
1.000000 0.958953 0.836820
1.000000 0.954162 0.839841
1.000000 0.949310 0.843015
1.000000 0.944427 0.845884
1.000000 0.939544 0.848631
1.000000 0.934691 0.851530
1.000000 0.929839 0.854551
0.771817 1.000000 0.811887
0.772915 1.000000 0.812619
0.774533 1.000000 0.813169
0.776944 1.000000 0.813504
0.780545 1.000000 0.813962
0.785702 1.000000 0.814694
0.793393 1.000000 0.816556
0.802884 1.000000 0.818936
0.814115 1.000000 0.821866
0.826810 1.000000 0.825315
0.840665 1.000000 0.829007
0.855100 1.000000 0.832486
0.870054 1.000000 0.835721
0.885161 0.999817 0.838407
0.900511 0.998535 0.840360
0.916014 0.997131 0.841428
0.932128 0.995575 0.842283
0.949096 0.993927 0.843351
0.966674 0.992248 0.845060
0.984649 0.990509 0.847379
1.000000 0.988739 0.850095
1.000000 0.985138 0.853239
1.000000 0.981811 0.856199
1.000000 0.978393 0.859007
1.000000 0.974792 0.861509
1.000000 0.971038 0.863737
1.000000 0.967254 0.866056
1.000000 0.963348 0.868406
1.000000 0.959411 0.870756
1.000000 0.955444 0.873045
1.000000 0.951415 0.874723
1.000000 0.947234 0.876310
0.814450 1.000000 0.839567
0.814694 1.000000 0.839567
0.815274 1.000000 0.839475
0.816373 1.000000 0.839200
0.818387 1.000000 0.838895
0.821469 1.000000 0.838682
0.825803 1.000000 0.838712
0.831418 1.000000 0.838834
0.838560 1.000000 0.839445
0.846983 1.000000 0.840330
0.856657 1.000000 0.841489
0.867430 1.000000 0.842741
0.879149 1.000000 0.843992
0.891478 1.000000 0.845090
