20 Preset/City Style/【3】LUT video cho PR-AE-FCPX/TONE 3/Dubai I Bokeh.cube
# Created by Adobe Lightroom plugin Export LUT (1.24.0)
# www.johnrellis.com/lightroom/exportlut.htm
# Preset: Dubai I Bokeh
# Color profile: E:\lut插件\exportlut.1.24\exportlut.lrplugin\color profiles\Rec709gamma2.4.icc
LUT_3D_SIZE 32
DOMAIN_MIN 0.0 0.0 0.0
DOMAIN_MAX 1.0 1.0 1.0
0.094087 0.101015 0.109285
0.094087 0.101015 0.109285
0.092897 0.100801 0.109346
0.088716 0.100832 0.109407
0.088808 0.100832 0.109071
0.099702 0.100465 0.108644
0.124361 0.099092 0.107271
0.158267 0.097230 0.105837
0.201724 0.093629 0.103822
0.258946 0.078279 0.100923
0.333440 0.009186 0.096895
0.428138 0.000000 0.090333
0.544427 0.000000 0.074617
0.680049 0.000000 0.037537
0.822141 0.000000 0.000000
0.954192 0.000000 0.000000
1.000000 0.000000 0.000000
1.000000 0.000000 0.000000
1.000000 0.000000 0.000000
1.000000 0.000000 0.000000
1.000000 0.000000 0.000000
1.000000 0.000000 0.000000
1.000000 0.000000 0.000000
1.000000 0.000000 0.000000
1.000000 0.000000 0.000000
1.000000 0.000000 0.000000
1.000000 0.000000 0.000000
1.000000 0.000000 0.082399
1.000000 0.000000 0.130343
1.000000 0.205051 0.171511
1.000000 0.301457 0.214237
1.000000 0.380560 0.261936
0.094087 0.101015 0.109285
0.094087 0.101015 0.109285
0.093141 0.100404 0.109377
0.088960 0.100435 0.109438
0.088350 0.100526 0.109133
0.099367 0.100160 0.108339
0.121950 0.099458 0.107301
0.154116 0.098146 0.105867
0.194858 0.095369 0.103944
0.248417 0.085878 0.101137
0.318517 0.030426 0.097505
0.407446 0.000000 0.091585
0.518120 0.000000 0.079255
0.648463 0.000000 0.045869
0.789395 0.000000 0.001068
0.924468 0.000000 0.000000
1.000000 0.000000 0.000000
1.000000 0.000000 0.000000
1.000000 0.000000 0.000000
1.000000 0.000000 0.000000
1.000000 0.000000 0.000000
1.000000 0.000000 0.000000
1.000000 0.000000 0.000000
1.000000 0.000000 0.000000
1.000000 0.000000 0.000000
1.000000 0.000000 0.000000
1.000000 0.000000 0.000000
1.000000 0.000000 0.000000
1.000000 0.000000 0.096407
1.000000 0.126894 0.141604
1.000000 0.256352 0.186160
1.000000 0.342809 0.232120
0.093538 0.099336 0.108553
0.092927 0.099397 0.108217
0.092287 0.099458 0.107881
0.089723 0.099672 0.108888
0.090211 0.099306 0.108278
0.100069 0.100465 0.107271
0.121767 0.101320 0.106050
0.151766 0.101564 0.104860
0.191165 0.100252 0.102754
0.242496 0.094331 0.100252
0.309361 0.065187 0.096834
0.394720 0.000000 0.090913
0.501457 0.000000 0.078645
0.627497 0.000000 0.047395
0.766842 0.000000 0.003815
0.902281 0.000000 0.000000
1.000000 0.000000 0.000000
1.000000 0.000000 0.000000
1.000000 0.000000 0.000000
1.000000 0.000000 0.000000
1.000000 0.000000 0.000000
1.000000 0.000000 0.000000
1.000000 0.000000 0.000000
1.000000 0.000000 0.000000
1.000000 0.000000 0.000000
1.000000 0.000000 0.000000
1.000000 0.000000 0.000000
1.000000 0.000000 0.000000
1.000000 0.000000 0.063172
1.000000 0.108034 0.126802
1.000000 0.245640 0.171298
1.000000 0.332067 0.217472
0.092042 0.097658 0.106081
0.091310 0.097749 0.106081
0.091432 0.097749 0.105745
0.091432 0.097749 0.105745
0.093721 0.099001 0.106569
0.104799 0.101045 0.105776
0.122652 0.105745 0.104433
0.151858 0.108461 0.102846
0.189914 0.109194 0.101198
0.239475 0.106752 0.098390
0.303929 0.095888 0.094606
0.386542 0.029603 0.088624
0.488472 0.000000 0.073274
0.609949 0.000000 0.042329
0.743771 0.000000 0.000000
0.877745 0.000000 0.000000
0.997436 0.000000 0.000000
1.000000 0.000000 0.000000
1.000000 0.000000 0.000000
1.000000 0.000000 0.000000
1.000000 0.000000 0.000000
1.000000 0.000000 0.000000
1.000000 0.000000 0.000000
1.000000 0.000000 0.000000
1.000000 0.000000 0.000000
1.000000 0.000000 0.000000
1.000000 0.000000 0.000000
1.000000 0.000000 0.000000
1.000000 0.000000 0.041016
1.000000 0.165499 0.121675
1.000000 0.266545 0.166506
1.000000 0.340948 0.210452
0.091524 0.100710 0.105379
0.092287 0.100618 0.105379
0.092897 0.100557 0.105715
0.093904 0.100404 0.107057
0.098024 0.102144 0.106416
0.112764 0.104707 0.104128
0.132418 0.106386 0.103395
0.155673 0.113497 0.101564
0.184482 0.122316 0.098939
0.231174 0.123690 0.096376
0.291752 0.120241 0.092134
0.369879 0.105013 0.085542
0.467140 0.011963 0.067140
0.584100 0.000000 0.035401
0.716365 0.000000 0.000000
0.852354 0.000000 0.000000
0.977295 0.000000 0.000000
1.000000 0.000000 0.000000
1.000000 0.000000 0.000000
1.000000 0.000000 0.000000
1.000000 0.000000 0.000000
1.000000 0.000000 0.000000
1.000000 0.000000 0.000000
1.000000 0.000000 0.000000
1.000000 0.000000 0.000000
1.000000 0.000000 0.000000
1.000000 0.000000 0.000000
1.000000 0.000000 0.000000
1.000000 0.104891 0.015869
1.000000 0.225742 0.114809
1.000000 0.300084 0.161318
1.000000 0.363531 0.205417
0.095216 0.112917 0.108705
0.095552 0.113191 0.108980
0.098116 0.112581 0.110292
0.102174 0.112428 0.113100
0.104952 0.111635 0.118837
0.117494 0.117372 0.114595
0.144717 0.121523 0.105196
0.175570 0.116060 0.101106
0.206241 0.125002 0.098817
0.243595 0.136629 0.095186
0.290562 0.148836 0.088869
0.368231 0.144869 0.078798
0.464240 0.127474 0.052674
0.579797 0.033997 0.017334
0.712520 0.000000 0.000000
0.847410 0.000000 0.000000
0.972747 0.000000 0.000000
1.000000 0.000000 0.000000
1.000000 0.000000 0.000000
1.000000 0.000000 0.000000
1.000000 0.000000 0.000000
1.000000 0.000000 0.000000
1.000000 0.000000 0.000000
1.000000 0.143954 0.000000
1.000000 0.231327 0.000000
1.000000 0.288762 0.102571
1.000000 0.337407 0.156527
1.000000 0.380652 0.197543
1.000000 0.423407 0.237613
1.000000 0.464820 0.276616
1.000000 0.506401 0.316258
1.000000 0.546471 0.356359
0.106722 0.144381 0.121889
0.107820 0.144289 0.122164
0.112886 0.144289 0.124575
0.121828 0.143832 0.129732
0.131380 0.143313 0.138430
0.136690 0.142763 0.152773
0.164431 0.155337 0.142824
0.213901 0.163790 0.120150
0.269688 0.153384 0.101717
0.323033 0.148714 0.095399
0.379889 0.167147 0.085664
0.446876 0.189303 0.052735
0.528679 0.207431 0.000580
0.654292 0.185794 0.000000
0.786648 0.128969 0.000000
0.913634 0.000000 0.000000
1.000000 0.000000 0.000000
1.000000 0.000000 0.000000
1.000000 0.000000 0.000000
1.000000 0.000000 0.000000
1.000000 0.000000 0.000000
1.000000 0.000000 0.000000
1.000000 0.192691 0.000000
1.000000 0.265171 0.000000
1.000000 0.318181 0.000000
1.000000 0.360174 0.053651
1.000000 0.394232 0.140169
1.000000 0.426154 0.184604
1.000000 0.458656 0.224125
1.000000 0.490150 0.261509
1.000000 0.523644 0.299016
1.000000 0.557977 0.338079
0.115267 0.178836 0.137148
0.116884 0.178561 0.137667
0.124422 0.178500 0.140322
0.136141 0.178805 0.145876
0.152560 0.179141 0.155673
0.168368 0.179599 0.170504
0.176883 0.180667 0.193179
0.216220 0.201419 0.179416
0.284398 0.218784 0.147158
0.360418 0.210147 0.115663
0.444343 0.172000 0.096620
0.512383 0.197269 0.076997
0.586328 0.223697 0.013703
0.665003 0.251591 0.000000
0.758877 0.267369 0.000000
0.883787 0.240940 0.000000
0.994415 0.204929 0.000000
1.000000 0.171511 0.000000
1.000000 0.183993 0.000000
1.000000 0.219333 0.000000
1.000000 0.262058 0.000000
1.000000 0.306432 0.000000
1.000000 0.346227 0.000000
1.000000 0.382757 0.000000
1.000000 0.414862 0.000000
1.000000 0.441199 0.014832
1.000000 0.464881 0.133944
1.000000 0.486305 0.180636
1.000000 0.510369 0.223239
1.000000 0.534783 0.260258
1.000000 0.561273 0.297795
1.000000 0.589014 0.334936
0.114260 0.226993 0.153964
0.117403 0.227543 0.154971
0.128176 0.229679 0.159792
0.145632 0.230777 0.165988
0.169314 0.232273 0.176394
0.195621 0.234379 0.192203
0.220523 0.237217 0.216312
0.235447 0.242679 0.251560
0.287480 0.274357 0.236027
0.380896 0.302831 0.189029
0.481849 0.297398 0.139498
0.587549 0.247166 0.102632
0.683680 0.235233 0.046387
0.758114 0.267430 0.000000
0.828946 0.301549 0.000000
0.894408 0.337316 0.000000
0.985595 0.366308 0.000000
1.000000 0.371740 0.000000
1.000000 0.383093 0.000000
1.000000 0.399786 0.000000
1.000000 0.422126 0.000000
1.000000 0.445624 0.000000
1.000000 0.469032 0.000000
1.000000 0.491707 0.000000
1.000000 0.511650 0.000000
1.000000 0.527855 0.043458
1.000000 0.542779 0.146487
1.000000 0.557397 0.195285
1.000000 0.573816 0.235477
1.000000 0.591516 0.272068
1.000000 0.611170 0.308873
1.000000 0.632441 0.344762
0.083925 0.290227 0.171328
0.092500 0.290806 0.172641
0.112428 0.293309 0.177981
0.142916 0.299077 0.188846
0.177127 0.300908 0.199954
0.215061 0.303593 0.217075
0.253574 0.307988 0.242222
0.288975 0.315160 0.278965
0.310643 0.326055 0.331029
0.378607 0.366674 0.313634
0.495583 0.403662 0.250675
0.615412 0.401862 0.182162
0.746151 0.357214 0.109773
0.851438 0.283116 0.025147
0.930205 0.333837 0.000000
0.997070 0.386725 0.000000
1.000000 0.441657 0.000000
1.000000 0.494392 0.000000
1.000000 0.529198 0.000000
1.000000 0.540673 0.000000
1.000000 0.552636 0.000000
1.000000 0.563287 0.000000
1.000000 0.574090 0.000000
1.000000 0.583886 0.000000
1.000000 0.592920 0.000000
1.000000 0.600214 0.010895
1.000000 0.608515 0.144381
1.000000 0.617639 0.194034
1.000000 0.629175 0.237736
1.000000 0.642878 0.277623
1.000000 0.658473 0.316197
1.000000 0.676234 0.355138
0.000000 0.357458 0.189273
0.000000 0.358312 0.190463
0.012543 0.361761 0.196445
0.115969 0.369207 0.208835
0.175387 0.377600 0.226688
0.227665 0.383337 0.246098
0.281682 0.390692 0.274266
0.334905 0.401160 0.313939
0.383246 0.414771 0.367407
0.415320 0.433631 0.437995
0.503014 0.484596 0.417609
0.655909 0.543603 0.353216
0.792874 0.553674 0.267826
0.923980 0.522759 0.172702
1.000000 0.433448 0.089357
1.000000 0.452827 0.000000
1.000000 0.504753 0.000000
1.000000 0.551873 0.000000
1.000000 0.595880 0.000000
1.000000 0.636744 0.000000
1.000000 0.660090 0.000000
1.000000 0.665400 0.000000
1.000000 0.670466 0.000000
1.000000 0.674739 0.000000
1.000000 0.678553 0.000000
1.000000 0.681514 0.125551
1.000000 0.684718 0.184268
1.000000 0.688930 0.228305
1.000000 0.695460 0.268040
1.000000 0.704219 0.306767
1.000000 0.714992 0.344244
1.000000 0.727474 0.381201
0.000000 0.443915 0.214878
0.000000 0.444953 0.216434
0.000000 0.449134 0.223239
0.000000 0.457343 0.237552
0.169589 0.470954 0.262577
0.242832 0.479835 0.286198
0.314794 0.493568 0.319524
0.391638 0.513207 0.367132
0.469947 0.537560 0.429206
0.542687 0.567102 0.507530
0.595087 0.603204 0.600977
0.703273 0.669245 0.581201
0.934478 0.839902 0.660060
1.000000 0.841703 0.576410
1.000000 0.817502 0.476112
1.000000 0.755642 0.375738
1.000000 0.712459 0.317601
1.000000 0.738369 0.299565
1.000000 0.761318 0.282994
1.000000 0.782010 0.269444
1.000000 0.800504 0.258579
1.000000 0.817044 0.251347
1.000000 0.822568 0.267796
1.000000 0.818631 0.301427
1.000000 0.814725 0.331701
1.000000 0.810636 0.357427
1.000000 0.807126 0.380652
1.000000 0.804105 0.401099
1.000000 0.802670 0.422004
1.000000 0.803464 0.445136
1.000000 0.806516 0.470802
1.000000 0.812039 0.498970
0.000000 0.636591 0.292607
0.000000 0.637293 0.294774
0.000000 0.640009 0.303471
0.000000 0.647425 0.322911
0.218387 0.659968 0.355261
0.333104 0.672511 0.392370
0.427161 0.683833 0.431128
0.524681 0.699428 0.483070
0.620386 0.720882 0.549645
0.708248 0.748684 0.630884
0.779629 0.782773 0.723018
0.826322 0.821225 0.811765
0.897765 0.867887 0.801175
0.962005 0.894011 0.763088
1.000000 0.898375 0.705959
1.000000 0.884672 0.624567
1.000000 0.848203 0.521416
1.000000 0.784146 0.438148
1.000000 0.794430 0.416663
1.000000 0.808164 0.399420
1.000000 0.820829 0.384741
1.000000 0.833249 0.374670
1.000000 0.844755 0.366491
1.000000 0.855406 0.359930
1.000000 0.857847 0.368475
1.000000 0.853147 0.391058
1.000000 0.848905 0.411475
1.000000 0.845335 0.431495
1.000000 0.843076 0.452583
1.000000 0.842679 0.475898
1.000000 0.843717 0.500481
1.000000 0.846769 0.527916
0.000000 0.753536 0.365301
0.000000 0.752743 0.366369
0.000000 0.752956 0.374945
0.175051 0.756222 0.392035
0.300328 0.762448 0.421088
0.415320 0.771817 0.462928
0.501274 0.777554 0.498116
0.590509 0.786984 0.544945
0.678126 0.800778 0.604456
0.759304 0.819303 0.675898
0.825925 0.842039 0.753628
0.871824 0.867399 0.827298
0.897734 0.892119 0.886961
0.940856 0.918791 0.873686
0.978454 0.932311 0.846250
1.000000 0.933440 0.802976
1.000000 0.924224 0.740536
1.000000 0.901518 0.655482
1.000000 0.859373 0.570855
1.000000 0.838071 0.522026
1.000000 0.846799 0.506310
1.000000 0.855497 0.493263
1.000000 0.863432 0.480232
1.000000 0.871458 0.471077
1.000000 0.878782 0.462562
1.000000 0.885435 0.454353
1.000000 0.886656 0.459876
1.000000 0.882597 0.476417
1.000000 0.879637 0.495766
1.000000 0.878111 0.517540
1.000000 0.877775 0.540307
1.000000 0.879179 0.566766
0.246159 0.838651 0.446815
0.257328 0.838468 0.448707
0.290166 0.837980 0.455604
0.346746 0.838346 0.470710
0.421454 0.840238 0.496407
0.508751 0.844541 0.534569
0.584009 0.847501 0.569329
0.659144 0.852232 0.610681
0.735195 0.860227 0.663264
0.803769 0.871397 0.723751
0.859525 0.885649 0.787472
0.899138 0.902007 0.846952
0.923980 0.918151 0.895811
0.936645 0.932464 0.933928
0.963226 0.947295 0.919066
0.986084 0.954070 0.897490
1.000000 0.954131 0.866331
1.000000 0.948180 0.823087
1.000000 0.934539 0.762570
1.000000 0.907836 0.687495
1.000000 0.874723 0.624994
1.000000 0.879667 0.608118
1.000000 0.884733 0.593286
1.000000 0.889616 0.579126
1.000000 0.894469 0.566644
1.000000 0.899260 0.556207
1.000000 0.903960 0.546899
1.000000 0.909056 0.542412
1.000000 0.911040 0.550530
1.000000 0.909941 0.574823
1.000000 0.910094 0.601953
1.000000 0.911437 0.631312
0.429358 0.891844 0.528099
0.436164 0.892241 0.530632
0.454688 0.892576 0.537804
0.495460 0.893645 0.554559
0.549218 0.895171 0.579492
0.619623 0.898283 0.617243
0.684443 0.901274 0.654536
0.745724 0.904387 0.693202
0.804227 0.909056 0.738186
0.854032 0.915129 0.785428
0.893095 0.922423 0.831693
0.921752 0.930541 0.873411
0.940642 0.938903 0.908904
0.951385 0.946746 0.938476
0.957031 0.954223 0.960357
0.973571 0.962005 0.945892
0.989044 0.965759 0.927947
1.000000 0.965698 0.904509
1.000000 0.961944 0.874113
1.000000 0.953521 0.833188
1.000000 0.937774 0.777493
1.000000 0.913024 0.725521
1.000000 0.906126 0.698238
1.000000 0.909483 0.685267
1.000000 0.912718 0.672724
1.000000 0.915953 0.661311
1.000000 0.919463 0.652491
1.000000 0.923125 0.646021
1.000000 0.927031 0.642908
1.000000 0.931212 0.643977
1.000000 0.933776 0.654444
1.000000 0.933684 0.678431
0.565881 0.925628 0.607294
0.569024 0.925628 0.608850
0.584314 0.925780 0.616327
0.611383 0.926146 0.630121
0.652125 0.926848 0.652705
0.704005 0.928222 0.684962
0.755612 0.929778 0.719142
0.799985 0.931243 0.750027
0.842191 0.933654 0.784787
0.878996 0.937072 0.821012
0.909575 0.941466 0.856718
0.932891 0.946502 0.889372
0.949248 0.951934 0.918486
0.959411 0.957214 0.943725
0.964569 0.962127 0.965515
0.968170 0.967071 0.978912
0.979339 0.971862 0.967163
0.990265 0.974273 0.953185
1.000000 0.974334 0.935851
1.000000 0.971984 0.913970
1.000000 0.966827 0.885954
1.000000 0.957336 0.848997
1.000000 0.941497 0.808896
1.000000 0.927581 0.775448
1.000000 0.929473 0.763607
1.000000 0.931640 0.753567
1.000000 0.934020 0.744869
1.000000 0.936553 0.738003
1.000000 0.939452 0.734401
1.000000 0.942565 0.733333
1.000000 0.945861 0.735592
1.000000 0.949310 0.741054
0.693111 0.950652 0.695064
0.697810 0.950988 0.698177
0.803861 0.968292 0.787015
0.815885 0.968017 0.795987
0.834165 0.967712 0.810239
0.856016 0.967437 0.828367
0.879942 0.967346 0.849119
0.899260 0.967315 0.865537
0.918395 0.967803 0.884031
0.935790 0.968841 0.903655
0.950378 0.970306 0.923430
0.961425 0.972076 0.942351
0.969024 0.973907 0.959777
0.973571 0.975799 0.975799
0.975738 0.977600 0.990356
0.976135 0.979339 1.000000
0.978912 0.981262 1.000000
0.983185 0.983062 0.999603
0.989532 0.983886 0.988342
0.996399 0.983612 0.975067
1.000000 0.982086 0.959106
1.000000 0.979095 0.940124
1.000000 0.973693 0.915892
1.000000 0.964324 0.886320
1.000000 0.951354 0.857633
1.000000 0.949462 0.842710
1.000000 0.949401 0.829984
1.000000 0.949920 0.819089
1.000000 0.951171 0.811978
1.000000 0.952911 0.807645
1.000000 0.955108 0.806790
1.000000 0.957488 0.808255
0.809751 0.969970 0.792386
0.817716 0.971069 0.799832
0.830045 0.972045 0.810697
0.844572 0.972808 0.823453
0.861845 0.973236 0.838560
0.879820 0.973236 0.854429
0.898528 0.973175 0.871763
0.912902 0.972961 0.884215
0.927398 0.973083 0.898558
0.941161 0.973571 0.914214
0.953185 0.974456 0.930541
0.962737 0.975616 0.946593
0.969635 0.976867 0.961822
0.974182 0.978241 0.976226
0.976654 0.979644 0.989624
0.977539 0.981048 1.000000
0.980102 0.982452 1.000000
0.982483 0.984161 1.000000
0.985321 0.985657 1.000000
0.988678 0.986419 0.999939
0.994141 0.986419 0.989563
1.000000 0.985534 0.977325
1.000000 0.983612 0.962554
1.000000 0.979980 0.943847
1.000000 0.973541 0.918761
1.000000 0.964508 0.896666
1.000000 0.958648 0.878660
1.000000 0.958618 0.869017
1.000000 0.959136 0.861601
1.000000 0.960174 0.856504
1.000000 0.961730 0.854490
1.000000 0.963531 0.854429
0.855436 0.976440 0.835569
0.861753 0.977264 0.841978
0.870939 0.978027 0.850797
0.881498 0.978607 0.860899
0.893706 0.978882 0.872465
0.906249 0.978851 0.884550
0.919371 0.978729 0.897612
0.929473 0.978485 0.907134
0.939818 0.978454 0.917998
0.949706 0.978607 0.929992
0.958709 0.979034 0.942901
0.966094 0.979706 0.956054
0.971679 0.980529 0.968933
0.975525 0.981445 0.981384
0.977783 0.982452 0.993286
0.979217 0.983490 1.000000
0.982116 0.984527 1.000000
0.984009 0.985626 1.000000
0.985901 0.986969 1.000000
0.988067 0.988098 1.000000
0.990173 0.988708 1.000000
0.992279 0.988769 1.000000
0.996704 0.988220 0.993164
1.000000 0.986877 0.981109
1.000000 0.984375 0.965759
1.000000 0.980011 0.945800
1.000000 0.973480 0.926268
1.000000 0.966217 0.907988
1.000000 0.966308 0.901091
1.000000 0.966827 0.895964
1.000000 0.967773 0.892912
1.000000 0.968963 0.891295
0.894377 0.981598 0.875303
0.898253 0.982147 0.879637
0.904326 0.982605 0.886107
0.911559 0.982940 0.893706
0.919493 0.983093 0.902129
0.927947 0.983001 0.911162
0.936370 0.982879 0.920439
0.943420 0.982666 0.927703
0.950683 0.982574 0.936309
0.957671 0.982605 0.945678
0.964141 0.982849 0.955993
0.969543 0.983215 0.966735
0.973816 0.983703 0.977539
0.976806 0.984314 0.988190
0.978637 0.985016 0.998596
0.981262 0.985809 1.000000
0.984100 0.986694 1.000000
0.986175 0.987610 1.000000
0.987640 0.988617 1.000000
0.989288 0.989837 1.000000
0.990967 0.990784 1.000000
0.992584 0.991363 1.000000
0.994110 0.991547 1.000000
0.995636 0.991333 1.000000
0.997284 0.990600 1.000000
1.000000 0.989197 0.995483
1.000000 0.986816 0.981903
1.000000 0.983185 0.967590
1.000000 0.979034 0.956542
1.000000 0.977966 0.951019
1.000000 0.978393 0.948516
1.000000 0.979004 0.946960
0.938598 0.987640 0.929107
0.939757 0.987793 0.930694
0.941375 0.987823 0.932769
0.943999 0.987793 0.936065
0.947356 0.987640 0.940276
0.951232 0.987488 0.945312
0.955322 0.987274 0.950469
0.959136 0.987091 0.955413
0.963287 0.986969 0.961486
0.967498 0.986938 0.968719
0.971313 0.987060 0.976623
0.974517 0.987243 0.984955
0.976959 0.987518 0.993347
0.978698 0.987854 1.000000
0.982025 0.988281 1.000000
0.984710 0.988739 1.000000
0.986786 0.989258 1.000000
0.988434 0.989837 1.000000
0.989654 0.990417 1.000000
0.990509 0.991058 1.000000
0.991638 0.991913 1.000000
0.992798 0.992523 1.000000
0.993927 0.992859 1.000000
0.995056 0.992950 1.000000
0.996246 0.992737 1.000000
0.997528 0.992157 1.000000
0.998993 0.991150 1.000000
1.000000 0.989502 0.998230
1.000000 0.986938 0.985016
1.000000 0.984100 0.976928
1.000000 0.982055 0.970245
1.000000 0.982361 0.967987
0.954833 0.989776 0.953704
0.955474 0.989837 0.954772
0.956542 0.989868 0.956512
0.958160 0.989837 0.959075
0.960204 0.989776 0.962280
0.962493 0.989654 0.966033
0.964630 0.989502 0.969116
0.967041 0.989410 0.973022
0.969635 0.989288 0.977813
0.972259 0.989288 0.983551
0.974670 0.989349 0.989868
0.976715 0.989441 0.996735
0.978851 0.989624 1.000000
0.981933 0.989868 1.000000
0.984558 0.990173 1.000000
0.986694 0.990539 1.000000
0.988495 0.990906 1.000000
0.989899 0.991333 1.000000
0.990967 0.991791 1.000000
0.991791 0.992248 1.000000
0.992462 0.992798 1.000000
0.993347 0.993439 1.000000
0.994232 0.993896 1.000000
0.995117 0.994171 1.000000
0.995697 0.993805 1.000000
0.996674 0.993652 1.000000
0.997803 0.993225 1.000000
0.998993 0.992493 1.000000
1.000000 0.991272 1.000000
1.000000 0.989380 0.998688
1.000000 0.987243 0.991089
1.000000 0.984741 0.983795
0.968719 0.992035 0.983459
0.969177 0.992126 0.984833
0.969635 0.992157 0.985992
0.970153 0.992126 0.987274
0.970764 0.992004 0.988342
0.971374 0.991852 0.989197
0.972198 0.991669 0.990387
0.973205 0.991485 0.992218
0.974395 0.991333 0.994873
0.975708 0.991211 0.998383
0.977173 0.991119 1.000000
0.979675 0.991119 1.000000
0.981994 0.991150 1.000000
0.984161 0.991241 1.000000
0.986053 0.991333 1.000000
0.987701 0.991516 1.000000
0.989105 0.991730 1.000000
0.990356 0.992004 1.000000
0.991394 0.992370 1.000000
0.992218 0.992767 1.000000
0.992859 0.993194 1.000000
0.993500 0.993713 1.000000
0.994232 0.994232 1.000000
0.994934 0.994568 1.000000
0.995636 0.994720 1.000000
0.996338 0.994690 1.000000
0.997162 0.994537 1.000000
0.998077 0.994202 1.000000
0.999115 0.993591 1.000000
1.000000 0.992676 1.000000
1.000000 0.991241 1.000000
1.000000 0.989471 1.000000
0.973083 0.992950 0.996948
0.973327 0.993011 0.998016
0.973602 0.993042 0.999023
0.973907 0.993042 0.999847
0.974304 0.992981 1.000000
0.974945 0.992950 1.000000
0.976043 0.992889 1.000000
0.977417 0.992828 1.000000
0.979004 0.992767 1.000000
0.980713 0.992767 1.000000
0.982452 0.992767 1.000000
0.984161 0.992798 1.000000
0.985809 0.992828 1.000000
0.987274 0.992889 1.000000
0.988617 0.992950 1.000000
0.989776 0.993042 1.000000
0.990845 0.993133 1.000000
0.991760 0.993317 1.000000
0.992584 0.993530 1.000000
0.993286 0.993805 1.000000
0.993835 0.994141 1.000000
0.994263 0.994446 1.000000
0.994781 0.994873 1.000000
0.995361 0.995239 1.000000
0.995911 0.995483 1.000000
0.996490 0.995636 1.000000
0.997040 0.995636 1.000000
0.997711 0.995544 1.000000
0.998444 0.995300 1.000000
0.999298 0.994903 1.000000
1.000000 0.994263 1.000000
1.000000 0.993286 1.000000
0.979736 0.994141 1.000000
0.979919 0.994171 1.000000
0.980133 0.994171 1.000000
0.980468 0.994171 1.000000
0.980804 0.994141 1.000000
0.981292 0.994079 1.000000
0.981933 0.994049 1.000000
0.982727 0.993988 1.000000
0.983703 0.993957 1.000000
0.984802 0.993927 1.000000
0.985962 0.993927 1.000000
0.987152 0.993927 1.000000
0.988312 0.993957 1.000000
0.989380 0.993988 1.000000
0.990356 0.994018 1.000000
0.991241 0.994049 1.000000
0.992035 0.994141 1.000000
0.992767 0.994232 1.000000
0.993439 0.994415 1.000000
0.994018 0.994598 1.000000
0.994507 0.994842 1.000000
0.994873 0.995056 1.000000
0.995178 0.995300 1.000000
0.995666 0.995666 1.000000
0.996094 0.995941 1.000000
0.996551 0.996124 1.000000
0.997040 0.996216 1.000000
0.997528 0.996216 1.000000
0.998077 0.996094 1.000000
0.998749 0.995941 1.000000
0.999481 0.995636 1.000000
1.000000 0.995148 1.000000
0.984375 0.994965 1.000000
0.984527 0.994995 1.000000
0.984680 0.995026 1.000000
0.984924 0.995026 1.000000
0.985229 0.995026 1.000000
0.985718 0.995026 1.000000
0.986419 0.995087 1.000000
0.987274 0.995117 1.000000
0.988190 0.995209 1.000000
0.989166 0.995300 1.000000
0.990143 0.995392 1.000000
0.991058 0.995483 1.000000
0.991913 0.995605 1.000000
0.992676 0.995697 1.000000
0.993347 0.995758 1.000000
0.993866 0.995789 1.000000
0.994385 0.995819 1.000000
0.994842 0.995911 1.000000
0.995270 0.995972 1.000000
0.995636 0.996094 1.000000
0.995972 0.996216 1.000000
0.996246 0.996368 1.000000
0.996429 0.996490 1.000000
0.996612 0.996674 1.000000
0.996948 0.996887 1.000000
0.997253 0.997070 1.000000
0.997559 0.997192 1.000000
0.997894 0.997253 1.000000
0.998260 0.997223 1.000000
0.998688 0.997162 1.000000
0.999176 0.997070 1.000000
0.999756 0.996857 1.000000
0.990082 0.996338 1.000000
0.990082 0.996338 1.000000
0.990143 0.996307 1.000000
0.990204 0.996307 1.000000
0.990295 0.996277 1.000000
0.990478 0.996277 1.000000
0.990753 0.996246 1.000000
0.991058 0.996246 1.000000
0.991455 0.996277 1.000000
0.991913 0.996277 1.000000
0.992370 0.996307 1.000000
0.992889 0.996307 1.000000
0.993378 0.996338 1.000000
0.993866 0.996368 1.000000
