20 Preset/City Style/【3】LUT video cho PR-AE-FCPX/TONE 3/Dubai I warm.cube
# Created by Adobe Lightroom plugin Export LUT (1.24.0)
# www.johnrellis.com/lightroom/exportlut.htm
# Preset: Dubai I warm
# Color profile: E:\lut插件\exportlut.1.24\exportlut.lrplugin\color profiles\Rec709gamma2.4.icc
LUT_3D_SIZE 8
DOMAIN_MIN 0.000000 0.000000 0.000000
DOMAIN_MAX 0.903226 0.903226 0.903226
0.049042 0.049317 0.032959
0.110140 0.075990 0.027161
0.754086 0.303258 0.000000
0.991852 0.531151 0.000000
1.000000 0.600031 0.000000
1.000000 0.627100 0.000000
1.000000 0.651209 0.000000
1.000000 0.668055 0.000000
0.090211 0.095583 0.076081
0.145754 0.100801 0.020142
0.714595 0.244511 0.000000
0.969726 0.518059 0.000000
1.000000 0.571405 0.000000
1.000000 0.610681 0.000000
1.000000 0.639612 0.000000
1.000000 0.661555 0.000000
0.472114 0.482643 0.468818
0.473854 0.457496 0.477974
0.761746 0.464912 0.000000
0.586633 0.557336 0.594079
1.000000 0.594629 0.000000
1.000000 0.652064 0.000000
1.000000 0.684840 0.000000
1.000000 0.650355 0.000000
0.750668 0.791409 0.770260
0.748745 0.783078 0.767971
0.758938 0.776699 0.752285
0.954650 0.740078 0.450477
0.933928 0.750301 0.685451
0.972717 0.801602 0.729397
1.000000 0.680934 0.000000
1.000000 0.691585 0.000000
0.817075 0.856107 0.833646
0.817319 0.854063 0.833646
0.818540 0.849088 0.837247
0.857450 0.861295 0.805417
0.981689 0.813504 0.636011
1.000000 0.754147 0.642176
0.859312 0.879606 0.871336
1.000000 0.833982 0.735866
0.865537 0.897856 0.878233
0.869871 0.900450 0.882048
0.871275 0.898253 0.883635
0.869688 0.894652 0.887297
0.913268 0.904265 0.845823
0.999573 0.869017 0.742702
1.000000 0.779751 0.654566
0.945556 0.903014 0.880247
0.903197 0.928588 0.912291
0.904265 0.928893 0.913146
0.904814 0.927367 0.913542
0.905425 0.925261 0.915282
0.909300 0.925414 0.911009
0.947967 0.931212 0.876951
1.000000 0.905425 0.806577
1.000000 0.787961 0.648768
0.933776 0.952667 0.939757
0.933928 0.952514 0.939849
0.935088 0.952209 0.940673
0.937224 0.951965 0.942687
0.931701 0.946105 0.939574
0.944182 0.951446 0.933471
0.975708 0.955261 0.909819
1.000000 0.935546 0.859922
0.068574 0.044892 0.067018
0.112367 0.034699 0.066468
0.674769 0.000000 0.000000
0.986572 0.223972 0.000000
1.000000 0.467628 0.000000
1.000000 0.554986 0.000000
1.000000 0.605707 0.000000
1.000000 0.640620 0.000000
0.063325 0.109438 0.099062
0.152621 0.104555 0.075319
0.674037 0.242832 0.000000
0.960693 0.431189 0.000000
1.000000 0.486275 0.000000
1.000000 0.545251 0.000000
1.000000 0.598077 0.000000
1.000000 0.635309 0.000000
0.467109 0.481147 0.473335
0.478096 0.463569 0.484871
0.740597 0.456580 0.000000
0.682399 0.555413 0.555413
1.000000 0.593744 0.000000
1.000000 0.646235 0.000000
1.000000 0.667628 0.000000
1.000000 0.632136 0.000000
0.718196 0.756497 0.739071
0.719448 0.750210 0.739254
0.732784 0.747555 0.732174
0.924163 0.706691 0.413611
0.894224 0.719905 0.663172
0.969268 0.766812 0.680262
1.000000 0.672877 0.000000
1.000000 0.687037 0.000000
0.811398 0.851469 0.828916
0.810819 0.848569 0.828031
0.810452 0.841581 0.829740
0.844907 0.850187 0.795438
0.970428 0.799344 0.618036
1.000000 0.748348 0.642359
0.858671 0.869352 0.858518
1.000000 0.821927 0.715389
0.859159 0.892882 0.872679
0.860044 0.892515 0.873320
0.862089 0.890593 0.875364
0.861845 0.887877 0.880247
0.906706 0.898680 0.839841
0.995026 0.865293 0.740139
1.000000 0.782589 0.664485
0.938720 0.900084 0.878080
0.897673 0.924437 0.907469
0.897063 0.923461 0.906798
0.897520 0.921691 0.907042
0.898985 0.920043 0.909514
0.904265 0.921416 0.907286
0.943816 0.927550 0.872343
1.000000 0.899535 0.797208
1.000000 0.780087 0.635584
0.930175 0.950164 0.936614
0.931121 0.950530 0.937377
0.932158 0.950103 0.938079
0.934478 0.949920 0.940215
0.935424 0.949096 0.942809
0.945159 0.952544 0.935546
0.975006 0.955200 0.910369
1.000000 0.935546 0.860777
0.213809 0.000000 0.438941
0.457527 0.000000 0.499672
0.685603 0.000000 0.354376
1.000000 0.000000 0.148104
1.000000 0.000000 0.000000
1.000000 0.258183 0.000000
1.000000 0.458686 0.000000
1.000000 0.557488 0.000000
0.104707 0.139101 0.418494
0.391485 0.000000 0.470344
0.724331 0.000000 0.324376
1.000000 0.000000 0.000000
1.000000 0.000000 0.000000
1.000000 0.337926 0.000000
1.000000 0.451148 0.000000
1.000000 0.553216 0.000000
0.445899 0.560601 0.565301
0.528313 0.573632 0.579004
0.740810 0.516899 0.452338
0.908263 0.624384 0.453376
1.000000 0.640375 0.000000
1.000000 0.641016 0.000000
1.000000 0.604242 0.000000
1.000000 0.576593 0.000000
0.735988 0.788235 0.765682
0.743771 0.786801 0.769345
0.748775 0.776425 0.777951
0.899687 0.748623 0.620447
0.830930 0.794461 0.775998
1.000000 0.782376 0.679500
1.000000 0.720882 0.290166
1.000000 0.710353 0.000000
0.817929 0.860014 0.837491
0.819211 0.858640 0.837919
0.822873 0.854398 0.841215
0.848356 0.861509 0.822385
0.955291 0.825650 0.705623
0.967895 0.809171 0.749874
0.901213 0.874754 0.853971
1.000000 0.826993 0.715724
0.863401 0.897459 0.877745
0.864683 0.897429 0.878630
0.866911 0.895476 0.880278
0.867002 0.892332 0.884031
0.903685 0.901213 0.851621
0.984192 0.874052 0.771267
1.000000 0.826871 0.747555
0.927337 0.910521 0.894896
0.903044 0.929320 0.912993
0.902678 0.928496 0.912505
0.902647 0.926329 0.912078
0.903563 0.924102 0.913542
0.905852 0.923827 0.913268
0.943023 0.931029 0.882963
1.000000 0.909239 0.823301
1.000000 0.832486 0.738216
0.933013 0.952850 0.939635
0.932891 0.952422 0.939391
0.933928 0.951934 0.939971
0.937316 0.952514 0.942901
0.938567 0.951690 0.945312
0.946868 0.954986 0.940978
0.974884 0.958404 0.918883
1.000000 0.941466 0.876066
0.598352 0.000000 0.761013
0.718105 0.000000 0.777584
0.908324 0.000000 0.758572
0.986877 0.000000 0.613031
1.000000 0.000000 0.435950
1.000000 0.000000 0.000000
1.000000 0.000000 0.000000
1.000000 0.339269 0.000000
0.589960 0.000000 0.764431
0.699092 0.000000 0.775113
0.906889 0.000000 0.756680
0.999786 0.000000 0.598535
1.000000 0.000000 0.378485
1.000000 0.000000 0.000000
1.000000 0.000000 0.000000
1.000000 0.332555 0.000000
0.528313 0.590875 0.702022
0.568017 0.615259 0.709071
0.795285 0.527611 0.752071
0.950011 0.419593 0.638361
1.000000 0.228916 0.339727
1.000000 0.361761 0.000000
1.000000 0.409674 0.000000
1.000000 0.407172 0.000000
0.713497 0.807797 0.789578
0.727138 0.808621 0.789670
0.771725 0.810452 0.799496
0.870573 0.781369 0.743404
0.889250 0.820462 0.786160
1.000000 0.793729 0.671595
1.000000 0.758663 0.482002
1.000000 0.705043 0.000000
0.829313 0.879057 0.855467
0.831205 0.877287 0.855314
0.839445 0.873442 0.858091
0.852903 0.875914 0.857816
0.936645 0.855772 0.788785
0.911742 0.868132 0.843381
0.958709 0.881926 0.845029
1.000000 0.836271 0.717708
0.876677 0.910857 0.892363
0.880735 0.912932 0.895506
0.882811 0.910613 0.895995
0.885435 0.908385 0.899351
0.907836 0.913848 0.881132
0.971130 0.893736 0.824857
0.993347 0.879850 0.836179
0.908934 0.926146 0.920165
0.909819 0.936309 0.920623
0.910643 0.936370 0.921141
0.912749 0.935729 0.922179
0.915465 0.934569 0.924315
0.915007 0.932647 0.927184
0.943999 0.939147 0.903532
0.994720 0.922454 0.858427
1.000000 0.885039 0.828336
0.940154 0.959350 0.947021
0.940368 0.959197 0.947051
0.941375 0.958709 0.947478
0.943572 0.958190 0.948852
0.945159 0.957244 0.950805
0.949279 0.958618 0.949798
0.974365 0.963104 0.931518
1.000000 0.950652 0.899077
0.781033 0.000000 0.883421
0.830137 0.000000 0.889006
0.981842 0.000000 0.898131
1.000000 0.000000 0.829343
1.000000 0.000000 0.705379
1.000000 0.000000 0.556878
1.000000 0.000000 0.193637
1.000000 0.000000 0.000000
0.772183 0.000000 0.882200
0.818143 0.000000 0.887846
0.972534 0.000000 0.898253
1.000000 0.000000 0.826047
1.000000 0.000000 0.698878
1.000000 0.000000 0.551934
1.000000 0.000000 0.198367
1.000000 0.000000 0.000000
0.685328 0.641474 0.845396
0.713283 0.620783 0.851072
0.858091 0.485389 0.871763
1.000000 0.231510 0.825498
1.000000 0.000000 0.706813
1.000000 0.000000 0.526024
1.000000 0.000000 0.000000
1.000000 0.000000 0.000000
0.717800 0.779263 0.814511
0.727169 0.785611 0.816464
0.764675 0.811429 0.826841
0.841764 0.809384 0.831662
0.962676 0.752193 0.772457
1.000000 0.712978 0.700008
1.000000 0.649714 0.587152
1.000000 0.514305 0.248966
0.802853 0.877379 0.859495
0.809445 0.878569 0.860533
0.832334 0.882536 0.865110
0.854551 0.882139 0.873442
0.915526 0.864897 0.834897
0.894957 0.886961 0.871427
1.000000 0.873442 0.809537
1.000000 0.845335 0.725551
0.868193 0.912657 0.892149
0.869932 0.912413 0.892668
0.874388 0.909819 0.892882
0.881743 0.907469 0.896056
0.893797 0.910246 0.891661
0.954223 0.900969 0.855863
0.946044 0.910124 0.889830
0.962921 0.923766 0.902495
0.911315 0.941405 0.925353
0.911101 0.940673 0.924834
0.912139 0.939025 0.924315
0.917144 0.938354 0.926787
0.920745 0.937438 0.930541
0.938598 0.941894 0.917388
0.984222 0.929168 0.881315
1.000000 0.914641 0.880491
0.938689 0.961486 0.948028
0.938903 0.961273 0.947997
0.940154 0.960632 0.948241
0.945251 0.961517 0.951415
0.948547 0.960906 0.953643
0.949432 0.960266 0.956664
0.971069 0.965637 0.941466
1.000000 0.955352 0.913481
0.856687 0.000000 0.952758
0.882628 0.000000 0.954742
0.980377 0.000000 0.958618
1.000000 0.000000 0.951354
1.000000 0.000000 0.864469
1.000000 0.000000 0.752102
1.000000 0.000000 0.625483
1.000000 0.000000 0.380682
0.846311 0.000000 0.944915
0.869963 0.000000 0.946258
0.965576 0.000000 0.951537
1.000000 0.000000 0.946410
1.000000 0.000000 0.857237
1.000000 0.000000 0.747036
1.000000 0.000000 0.622309
1.000000 0.000000 0.378210
0.786343 0.603662 0.920684
0.805051 0.579828 0.923247
0.895628 0.454231 0.934936
1.000000 0.000000 0.946319
1.000000 0.000000 0.856840
1.000000 0.000000 0.743252
1.000000 0.000000 0.607294
1.000000 0.000000 0.371344
0.780667 0.842924 0.884611
0.783688 0.840238 0.886564
0.812924 0.833219 0.895659
0.908568 0.788174 0.913176
0.969879 0.747646 0.873014
1.000000 0.694911 0.819516
1.000000 0.578820 0.739803
1.000000 0.000000 0.413550
0.803922 0.856382 0.870939
0.807950 0.858640 0.871733
0.824582 0.868254 0.875669
0.853178 0.885954 0.885496
0.897124 0.887816 0.886625
0.963378 0.865721 0.855558
1.000000 0.836118 0.817777
1.000000 0.769253 0.745113
0.857633 0.916472 0.902861
0.862089 0.917967 0.904356
0.872099 0.919371 0.905516
0.889525 0.922576 0.909819
0.901244 0.921538 0.914763
0.945281 0.913848 0.892912
0.936675 0.929229 0.917327
1.000000 0.920775 0.878019
0.912535 0.947906 0.933104
0.914549 0.948669 0.934203
0.919219 0.949584 0.935943
0.925536 0.949645 0.937896
0.931548 0.948211 0.940093
0.938384 0.949248 0.938659
0.976776 0.941894 0.912718
0.971313 0.945006 0.931029
0.944549 0.968658 0.956542
0.944701 0.968505 0.956451
0.945281 0.967926 0.956054
0.948333 0.967498 0.956909
0.952148 0.966430 0.958007
0.956146 0.965850 0.961120
0.968658 0.969787 0.955047
1.000000 0.962890 0.933043
0.879057 0.000000 0.986481
0.895048 0.000000 0.987457
0.959808 0.000000 0.990173
1.000000 0.000000 0.994629
1.000000 0.000000 0.963684
1.000000 0.000000 0.880461
1.000000 0.000000 0.775570
1.000000 0.000000 0.664424
0.885008 0.000000 0.984619
0.900847 0.000000 0.985870
0.965026 0.000000 0.989044
1.000000 0.000000 0.993042
1.000000 0.000000 0.959472
1.000000 0.000000 0.876616
1.000000 0.000000 0.772946
1.000000 0.000000 0.662318
0.839231 0.500420 0.963989
0.853758 0.471809 0.966003
0.919127 0.303807 0.974151
1.000000 0.000000 0.987457
1.000000 0.000000 0.959564
1.000000 0.000000 0.870848
1.000000 0.000000 0.766262
1.000000 0.000000 0.659480
0.813169 0.820951 0.930846
0.817075 0.815152 0.931701
0.842069 0.792294 0.936828
0.917479 0.731655 0.948211
1.000000 0.601190 0.949279
1.000000 0.514427 0.882811
1.000000 0.276127 0.797238
1.000000 0.000000 0.674800
0.830411 0.884581 0.911101
0.832670 0.885679 0.911284
0.843656 0.891478 0.913237
0.864714 0.892393 0.922210
0.932403 0.857328 0.935088
0.973266 0.829740 0.903563
1.000000 0.791867 0.867399
1.000000 0.703609 0.807462
0.855253 0.900145 0.911711
0.857267 0.901183 0.912139
0.864988 0.905150 0.913695
0.879118 0.912566 0.916869
0.899260 0.923919 0.923247
0.931182 0.926024 0.926757
0.980560 0.909941 0.906859
1.000000 0.885679 0.879850
0.896910 0.947539 0.939239
0.898436 0.947845 0.939422
0.904082 0.948699 0.939879
0.914824 0.950530 0.941314
0.929625 0.953552 0.944732
0.941955 0.954803 0.949828
0.969848 0.949554 0.936309
0.972564 0.957153 0.946532
0.938903 0.969726 0.959167
0.939757 0.969909 0.959442
0.943542 0.970947 0.960906
0.949859 0.972564 0.963256
0.958587 0.974914 0.967102
0.964202 0.974548 0.968994
0.968231 0.974640 0.970764
0.994934 0.972168 0.954864
0.888670 0.000000 1.000000
0.898833 0.000000 1.000000
0.940856 0.000000 1.000000
1.000000 0.000000 1.000000
1.000000 0.000000 1.000000
1.000000 0.000000 0.978393
1.000000 0.000000 0.899077
1.000000 0.000000 0.798703
0.896056 0.000000 1.000000
0.906035 0.000000 1.000000
0.947601 0.000000 1.000000
1.000000 0.000000 1.000000
1.000000 0.000000 1.000000
1.000000 0.000000 0.976776
1.000000 0.000000 0.897490
1.000000 0.000000 0.797421
0.881468 0.308843 1.000000
0.892668 0.251591 1.000000
0.940703 0.000000 1.000000
1.000000 0.000000 1.000000
1.000000 0.000000 1.000000
1.000000 0.000000 0.972351
1.000000 0.000000 0.893248
1.000000 0.000000 0.794217
0.841917 0.778622 0.969390
0.846860 0.772671 0.970489
0.869871 0.741573 0.975036
0.932891 0.652674 0.985534
1.000000 0.310460 1.000000
1.000000 0.000000 0.976806
1.000000 0.000000 0.890837
1.000000 0.000000 0.788907
0.850217 0.894133 0.948455
0.853086 0.893980 0.949340
0.865843 0.892546 0.952148
0.883635 0.872160 0.958434
0.941955 0.826017 0.968780
1.000000 0.731716 0.969909
1.000000 0.634302 0.915221
1.000000 0.294743 0.822721
0.874693 0.919890 0.942351
0.875822 0.920409 0.942473
0.880980 0.922972 0.943328
0.891630 0.928374 0.945617
0.905760 0.930053 0.952392
0.957610 0.905028 0.964050
1.000000 0.880400 0.944213
1.000000 0.846738 0.910582
0.901610 0.937316 0.949126
0.902495 0.937713 0.949248
0.906218 0.939391 0.949706
0.913848 0.942962 0.950927
0.925200 0.948516 0.953185
0.940368 0.957000 0.958648
0.965728 0.956329 0.963409
0.997986 0.943206 0.949187
0.933562 0.970428 0.967895
0.934142 0.970672 0.968048
0.937102 0.971771 0.968780
0.943084 0.974151 0.970489
0.952087 0.977020 0.972717
0.963958 0.979675 0.975311
0.976074 0.982696 0.979767
0.990173 0.981262 0.975921
