20 Preset/City Style/【3】LUT video cho PR-AE-FCPX/TONE 3/Dubai I Burj Khalifa.cube
# Created by Adobe Lightroom plugin Export LUT (1.24.0)
# www.johnrellis.com/lightroom/exportlut.htm
# Preset: Dubai I Burj Khalifa
# Color profile: E:\lut插件\exportlut.1.24\exportlut.lrplugin\color profiles\Rec709gamma2.4.icc
LUT_3D_SIZE 8
DOMAIN_MIN 0.000000 0.000000 0.000000
DOMAIN_MAX 0.903226 0.903226 0.903226
0.098238 0.105013 0.113497
0.043549 0.102754 0.108156
0.067964 0.073426 0.082856
0.168917 0.053498 0.064088
0.338262 0.000000 0.089998
0.667567 0.000000 0.116854
1.000000 0.000000 0.159396
1.000000 0.000000 0.265843
0.057465 0.067048 0.077790
0.038087 0.067597 0.087922
0.090822 0.074708 0.066835
0.170138 0.092470 0.071443
0.335546 0.071168 0.096864
0.638636 0.000000 0.122042
1.000000 0.000000 0.158267
1.000000 0.116701 0.245304
0.133303 0.137148 0.140627
0.148470 0.143252 0.130556
0.215152 0.154543 0.094240
0.354650 0.152743 0.065949
0.554864 0.281346 0.146090
0.934142 0.343694 0.180331
1.000000 0.508202 0.282322
1.000000 0.650141 0.406683
0.485542 0.490089 0.466438
0.503166 0.493294 0.434150
0.614832 0.528313 0.338567
0.871580 0.574182 0.162753
1.000000 0.423377 0.000000
1.000000 0.679347 0.167269
1.000000 0.868254 0.573053
1.000000 0.903593 0.709438
0.883787 0.873136 0.863310
0.890105 0.873320 0.848173
0.926146 0.881315 0.791867
0.994568 0.889830 0.671839
1.000000 0.859403 0.421668
1.000000 0.734646 0.000000
1.000000 0.767483 0.006744
1.000000 0.889464 0.515465
0.966705 0.962402 0.971130
0.970977 0.966278 0.973816
0.977264 0.967102 0.963378
0.991272 0.967254 0.935912
1.000000 0.962371 0.865537
1.000000 0.946044 0.700313
1.000000 0.894713 0.388708
1.000000 0.812894 0.000000
0.986481 0.984314 0.994293
0.987091 0.984649 0.994079
0.988800 0.984558 0.990723
0.992981 0.984375 0.982574
1.000000 0.982696 0.960845
1.000000 0.978668 0.911620
1.000000 0.967712 0.790494
1.000000 0.932860 0.464729
0.992401 0.991272 1.000000
0.992584 0.991272 1.000000
0.993286 0.991394 0.999329
0.994812 0.991577 0.997375
0.998108 0.990051 0.987793
1.000000 0.989197 0.973968
1.000000 0.986450 0.941100
1.000000 0.978393 0.848783
0.009674 0.090089 0.120943
0.000000 0.086732 0.120974
0.036591 0.067109 0.106630
0.123995 0.114015 0.136294
0.265934 0.130282 0.197238
0.566827 0.000000 0.226688
0.992493 0.000000 0.217319
1.000000 0.000000 0.273594
0.000000 0.096010 0.131746
0.000000 0.097993 0.135164
0.070954 0.102052 0.135439
0.136629 0.139925 0.156313
0.326299 0.114229 0.202304
0.625055 0.000000 0.208347
0.992737 0.000000 0.214572
1.000000 0.000000 0.267887
0.037964 0.225498 0.175051
0.127565 0.229801 0.188113
0.226780 0.229587 0.239139
0.374426 0.258946 0.226566
0.573510 0.273045 0.244053
0.884459 0.246128 0.264561
1.000000 0.296605 0.305882
1.000000 0.488685 0.381872
0.530602 0.551965 0.491737
0.526940 0.541283 0.501518
0.555261 0.551293 0.516503
0.757382 0.571923 0.341650
0.990692 0.391119 0.152316
1.000000 0.655390 0.340642
1.000000 0.835080 0.599573
1.000000 0.852934 0.636439
0.879850 0.883055 0.910185
0.871702 0.876432 0.909148
0.893706 0.880247 0.865965
0.955047 0.884550 0.755398
1.000000 0.849729 0.516197
1.000000 0.721370 0.212924
1.000000 0.775845 0.285130
1.000000 0.894347 0.594842
0.959289 0.959747 0.980011
0.960998 0.960479 0.978302
0.967651 0.962402 0.969665
0.981994 0.964569 0.948028
1.000000 0.961761 0.892851
1.000000 0.949096 0.768032
1.000000 0.899931 0.484077
1.000000 0.824765 0.162600
0.984131 0.983154 0.995789
0.984222 0.982818 0.994751
0.985901 0.982727 0.991363
0.990295 0.983001 0.984192
0.998566 0.982238 0.967041
1.000000 0.978515 0.923980
1.000000 0.967010 0.809262
1.000000 0.930816 0.491768
0.992004 0.990417 0.999207
0.992248 0.990600 0.999145
0.993042 0.990692 0.998077
0.994812 0.990875 0.995727
0.997955 0.990661 0.989868
1.000000 0.989349 0.974701
1.000000 0.986084 0.937804
1.000000 0.977752 0.840635
0.000000 0.322271 0.825010
0.000000 0.321019 0.827298
0.000000 0.304417 0.793973
0.000000 0.289372 0.705684
0.000000 0.301091 0.660578
0.637079 0.442237 0.656367
0.760830 0.737819 0.779171
1.000000 0.672389 0.849119
0.000000 0.356847 0.829191
0.000000 0.353460 0.823270
0.000000 0.342138 0.795743
0.000000 0.329473 0.721798
0.000000 0.340764 0.679133
0.664240 0.482948 0.674861
0.735958 0.737667 0.767422
1.000000 0.625727 0.818875
0.000000 0.502495 0.881193
0.000000 0.510674 0.882689
0.000000 0.556878 0.880674
0.000000 0.573297 0.856138
0.575158 0.611078 0.832364
0.793545 0.726680 0.800381
0.959106 0.727352 0.842832
1.000000 0.621942 0.790677
0.000000 0.888792 0.890135
0.000000 0.894713 0.900694
0.410773 0.899504 0.913146
0.795804 0.910460 0.936034
0.940276 0.903410 0.938445
1.000000 0.858305 0.894133
1.000000 0.842374 0.863249
1.000000 0.857298 0.853788
0.925994 0.971008 0.959960
0.932403 0.970245 0.963684
0.949645 0.967620 0.973968
0.959960 0.963531 0.984588
0.971984 0.959777 0.965972
1.000000 0.912627 0.859434
1.000000 0.942168 0.909178
1.000000 0.967864 0.959319
0.977630 0.981018 0.996612
0.977935 0.981079 0.997101
0.977874 0.980194 0.998138
0.976684 0.978820 0.999939
0.983551 0.979522 0.990448
0.998810 0.975738 0.966339
1.000000 0.953521 0.885588
1.000000 0.931029 0.798459
0.987671 0.988617 1.000000
0.987304 0.988342 1.000000
0.986999 0.988006 1.000000
0.987884 0.988281 1.000000
0.990723 0.988281 0.998138
0.996521 0.987121 0.988891
1.000000 0.982574 0.963592
1.000000 0.964813 0.862638
0.992523 0.992432 1.000000
0.992523 0.992370 1.000000
0.992828 0.992462 1.000000
0.993805 0.992859 1.000000
0.995178 0.992798 1.000000
0.998352 0.992065 0.994781
1.000000 0.989654 0.977478
1.000000 0.982513 0.914611
0.000000 0.645045 1.000000
0.000000 0.655573 1.000000
0.000000 0.667964 1.000000
0.000000 0.694087 1.000000
0.000000 0.734340 1.000000
0.497810 0.786252 1.000000
0.837369 0.808225 1.000000
0.963256 0.874296 0.983307
0.000000 0.711727 1.000000
0.000000 0.715358 1.000000
0.000000 0.723537 1.000000
0.000000 0.746151 1.000000
0.000000 0.784360 1.000000
0.588708 0.816678 1.000000
0.855375 0.830167 1.000000
0.964599 0.886351 0.984192
0.000000 0.842405 1.000000
0.000000 0.851499 1.000000
0.000000 0.860319 1.000000
0.382971 0.867735 1.000000
0.676783 0.888884 1.000000
0.832639 0.912322 1.000000
0.939086 0.927184 1.000000
0.975433 0.944244 0.994812
0.596979 0.941802 1.000000
0.624231 0.940795 1.000000
0.742123 0.945373 1.000000
0.873198 0.958190 1.000000
0.917784 0.961425 1.000000
0.942931 0.963409 1.000000
0.971496 0.963195 1.000000
0.974029 0.972992 0.997772
0.882017 0.988434 1.000000
0.886534 0.987823 1.000000
0.912810 0.986450 1.000000
0.950958 0.986358 1.000000
0.975982 0.987366 1.000000
0.986297 0.988403 1.000000
0.987732 0.987243 1.000000
0.998047 0.976898 0.999878
0.969818 0.994079 1.000000
0.973785 0.994263 1.000000
0.977356 0.993835 1.000000
0.983948 0.993561 1.000000
0.990845 0.993347 1.000000
0.992554 0.992859 1.000000
0.994995 0.990204 1.000000
0.997650 0.990143 1.000000
0.993744 0.995026 1.000000
0.993866 0.995026 1.000000
0.994079 0.994965 1.000000
0.994354 0.994842 1.000000
0.994385 0.994537 1.000000
0.994812 0.994568 1.000000
0.996155 0.993805 1.000000
1.000000 0.990112 0.999603
0.995819 0.995941 1.000000
0.995789 0.995911 1.000000
0.995727 0.995819 1.000000
0.995941 0.995972 1.000000
0.996307 0.996094 1.000000
0.996918 0.996033 1.000000
0.998016 0.995514 1.000000
0.999908 0.993744 1.000000
0.000000 0.838651 1.000000
0.000000 0.847684 1.000000
0.000000 0.864652 1.000000
0.000000 0.889738 1.000000
0.576318 0.909880 1.000000
0.750057 0.923278 1.000000
0.858488 0.938354 1.000000
0.926299 0.954925 1.000000
0.000000 0.881682 1.000000
0.000000 0.888884 1.000000
0.000000 0.898039 1.000000
0.436103 0.908537 1.000000
0.657435 0.921386 1.000000
0.788846 0.932128 1.000000
0.876219 0.944488 1.000000
0.933349 0.958495 1.000000
0.656886 0.941863 1.000000
0.670924 0.942687 1.000000
0.697475 0.942809 1.000000
0.747494 0.944030 1.000000
0.810513 0.947173 1.000000
0.865446 0.951019 1.000000
0.918059 0.959625 1.000000
0.950286 0.966857 1.000000
0.851438 0.967163 1.000000
0.860380 0.967987 1.000000
0.895506 0.972045 1.000000
0.925109 0.975677 1.000000
0.939544 0.976654 1.000000
0.954101 0.978088 1.000000
0.967376 0.980255 1.000000
0.976959 0.980499 1.000000
0.932769 0.982727 1.000000
0.936858 0.983032 1.000000
0.949035 0.983948 1.000000
0.965637 0.986450 1.000000
0.978424 0.988952 1.000000
0.983459 0.989685 1.000000
0.986786 0.990021 1.000000
0.990845 0.989899 1.000000
0.966949 0.992676 1.000000
0.968200 0.992676 1.000000
0.970947 0.992493 1.000000
0.977295 0.992584 1.000000
0.985016 0.993194 1.000000
0.991913 0.994598 1.000000
0.995270 0.995727 1.000000
0.996155 0.995758 1.000000
0.989654 0.997284 1.000000
0.989624 0.997192 1.000000
0.990234 0.997040 1.000000
0.992370 0.997040 1.000000
0.994629 0.997101 1.000000
0.996643 0.997192 1.000000
0.997101 0.997101 1.000000
0.997925 0.996155 1.000000
0.997528 0.997925 1.000000
0.997559 0.997925 1.000000
0.997589 0.997864 1.000000
0.997864 0.998016 1.000000
0.997955 0.998016 1.000000
0.998047 0.998047 1.000000
0.998352 0.998077 1.000000
0.998901 0.997711 1.000000
0.583276 0.938079 1.000000
0.613794 0.940307 1.000000
0.662196 0.943053 1.000000
0.746517 0.949523 1.000000
0.818814 0.956023 1.000000
0.878599 0.963073 1.000000
0.924102 0.970397 1.000000
0.955749 0.977539 1.000000
0.616449 0.940490 1.000000
0.627832 0.941131 1.000000
0.671077 0.943633 1.000000
0.743465 0.948882 1.000000
0.817258 0.955657 1.000000
0.878691 0.962982 1.000000
0.923796 0.970214 1.000000
0.955016 0.977234 1.000000
0.854520 0.967346 1.000000
0.855436 0.967315 1.000000
0.865293 0.968017 1.000000
0.873594 0.967834 1.000000
0.900755 0.970703 1.000000
0.929015 0.974640 1.000000
0.952636 0.978943 1.000000
0.969635 0.983032 1.000000
0.952087 0.984131 1.000000
0.951781 0.984009 1.000000
0.955077 0.984436 1.000000
0.963073 0.985870 1.000000
0.969390 0.986908 1.000000
0.974884 0.987793 1.000000
0.980743 0.989105 1.000000
0.985657 0.990417 1.000000
0.969574 0.988586 1.000000
0.970550 0.988769 1.000000
0.974640 0.989593 1.000000
0.981048 0.991119 1.000000
0.985229 0.992157 1.000000
0.986908 0.992370 1.000000
0.989044 0.992828 1.000000
0.991211 0.993378 1.000000
0.983215 0.992950 1.000000
0.984344 0.993225 1.000000
0.985748 0.993439 1.000000
0.988098 0.993927 1.000000
0.990753 0.994690 1.000000
0.993927 0.995880 1.000000
0.995514 0.996521 1.000000
0.996460 0.996887 1.000000
0.993408 0.997345 1.000000
0.993683 0.997406 1.000000
0.994049 0.997467 1.000000
0.994720 0.997589 1.000000
0.995697 0.997803 1.000000
0.996826 0.998047 1.000000
0.997894 0.998352 1.000000
0.998688 0.998718 1.000000
0.997467 0.999115 1.000000
0.997436 0.999084 1.000000
0.997559 0.999054 1.000000
0.997955 0.999054 1.000000
0.998413 0.999054 1.000000
0.998993 0.999145 1.000000
0.999176 0.999176 1.000000
0.999268 0.999207 1.000000
0.783627 0.958587 1.000000
0.793729 0.959625 1.000000
0.814267 0.961608 1.000000
0.849973 0.965423 1.000000
0.885252 0.969635 1.000000
0.917266 0.974151 1.000000
0.942718 0.978485 1.000000
0.961608 0.982452 1.000000
0.804593 0.961059 1.000000
0.814145 0.962158 1.000000
0.830411 0.963714 1.000000
0.857023 0.966491 1.000000
0.887755 0.970062 1.000000
0.915831 0.973816 1.000000
0.939422 0.977600 1.000000
0.958007 0.981262 1.000000
0.901518 0.974884 1.000000
0.903014 0.975036 1.000000
0.907683 0.975494 1.000000
0.918273 0.976776 1.000000
0.931060 0.978393 1.000000
0.946166 0.980713 1.000000
0.961456 0.983673 1.000000
0.973480 0.986572 1.000000
0.963836 0.986877 1.000000
0.963317 0.986725 1.000000
0.963867 0.986725 1.000000
0.967132 0.987274 1.000000
0.970794 0.987854 1.000000
0.976074 0.988952 1.000000
0.981537 0.990295 1.000000
0.985779 0.991516 1.000000
0.983307 0.992248 1.000000
0.983307 0.992218 1.000000
0.984466 0.992523 1.000000
0.985382 0.992706 1.000000
0.986450 0.992889 1.000000
0.987976 0.993256 1.000000
0.989929 0.993835 1.000000
0.992432 0.994812 1.000000
0.989929 0.994751 1.000000
0.990173 0.994842 1.000000
0.990906 0.995087 1.000000
0.992187 0.995544 1.000000
0.993744 0.996155 1.000000
0.995148 0.996735 1.000000
0.995880 0.997040 1.000000
0.996612 0.997375 1.000000
0.995148 0.997314 1.000000
0.995270 0.997375 1.000000
0.995544 0.997467 1.000000
0.996094 0.997650 1.000000
0.996735 0.997925 1.000000
0.997498 0.998260 1.000000
0.998291 0.998688 1.000000
0.998718 0.998901 1.000000
0.998169 0.999145 1.000000
0.998199 0.999176 1.000000
0.998383 0.999237 1.000000
0.998566 0.999298 1.000000
0.998779 0.999359 1.000000
0.999023 0.999451 1.000000
0.999329 0.999542 1.000000
0.999573 0.999634 1.000000
0.897154 0.974273 1.000000
0.900084 0.974670 1.000000
0.904936 0.975250 1.000000
0.918120 0.977111 1.000000
0.933257 0.979431 1.000000
0.948089 0.981964 1.000000
0.962249 0.984833 1.000000
0.972961 0.987335 1.000000
0.904540 0.975463 1.000000
0.907317 0.975891 1.000000
0.912596 0.976562 1.000000
0.923308 0.978088 1.000000
0.936736 0.980163 1.000000
0.950286 0.982483 1.000000
0.963012 0.985016 1.000000
0.973083 0.987366 1.000000
0.939574 0.981720 1.000000
0.940520 0.981872 1.000000
0.942626 0.982177 1.000000
0.950683 0.983581 1.000000
0.957214 0.984680 1.000000
0.964477 0.986023 1.000000
0.972717 0.987854 1.000000
0.979644 0.989654 1.000000
0.970886 0.988647 1.000000
0.971405 0.988769 1.000000
0.972290 0.988922 1.000000
0.974762 0.989441 1.000000
0.977722 0.990112 1.000000
0.981018 0.990906 1.000000
0.984710 0.991943 1.000000
0.988128 0.993042 1.000000
0.987976 0.993835 1.000000
0.988067 0.993866 1.000000
0.987732 0.993713 1.000000
0.988190 0.993835 1.000000
0.989166 0.994110 1.000000
0.990448 0.994507 1.000000
0.992157 0.995148 1.000000
0.993530 0.995697 1.000000
0.994659 0.996765 1.000000
0.994690 0.996765 1.000000
0.994812 0.996826 1.000000
0.995270 0.997009 1.000000
0.995483 0.997070 1.000000
0.995850 0.997253 1.000000
0.996490 0.997528 1.000000
0.997009 0.997803 1.000000
0.997101 0.998169 1.000000
0.997131 0.998169 1.000000
0.997223 0.998199 1.000000
0.997436 0.998322 1.000000
0.997772 0.998505 1.000000
0.998199 0.998749 1.000000
0.998596 0.998901 1.000000
0.998810 0.999054 1.000000
0.998718 0.999237 1.000000
0.998718 0.999237 1.000000
0.998779 0.999237 1.000000
0.998901 0.999329 1.000000
0.999084 0.999390 1.000000
0.999298 0.999481 1.000000
0.999512 0.999603 1.000000
0.999695 0.999725 1.000000
