20 Preset/City Style/【3】LUT video cho PR-AE-FCPX/TONE 3/Dubai I car.cube
# Created by Adobe Lightroom plugin Export LUT (1.24.0)
# www.johnrellis.com/lightroom/exportlut.htm
# Preset: Dubai I car
# Color profile: E:\lut插件\exportlut.1.24\exportlut.lrplugin\color profiles\Rec709gamma2.4.icc
LUT_3D_SIZE 32
DOMAIN_MIN 0.0 0.0 0.0
DOMAIN_MAX 1.0 1.0 1.0
0.058106 0.120394 0.142489
0.058106 0.120394 0.142489
0.058106 0.120394 0.142489
0.054108 0.120516 0.142489
0.054108 0.120516 0.142489
0.069306 0.120363 0.142458
0.094514 0.120577 0.142061
0.122652 0.120394 0.141695
0.160342 0.119295 0.141054
0.207797 0.115694 0.139864
0.267247 0.105074 0.138460
0.339239 0.071748 0.136019
0.422950 0.000000 0.132509
0.514946 0.000000 0.127626
0.610407 0.000000 0.120790
0.704158 0.000000 0.111666
0.792660 0.000000 0.099855
0.873594 0.000000 0.080262
0.944579 0.000000 0.029633
1.000000 0.000000 0.000000
1.000000 0.000000 0.000000
1.000000 0.000000 0.000000
1.000000 0.000000 0.000000
1.000000 0.000000 0.000000
1.000000 0.000000 0.000000
1.000000 0.000000 0.000000
1.000000 0.094057 0.000000
1.000000 0.183688 0.000000
1.000000 0.236698 0.000000
1.000000 0.279423 0.000000
1.000000 0.315770 0.000000
1.000000 0.348058 0.000000
0.058106 0.120394 0.142489
0.058106 0.120394 0.142489
0.058381 0.120394 0.142275
0.054108 0.120516 0.142489
0.054108 0.120516 0.142489
0.067628 0.120424 0.142245
0.092622 0.120455 0.142092
0.118837 0.120516 0.141726
0.153902 0.120058 0.141115
0.198947 0.117006 0.140017
0.255222 0.108156 0.138491
0.323766 0.087007 0.136477
0.403998 0.000000 0.133272
0.493355 0.000000 0.128817
0.587427 0.000000 0.122560
0.681483 0.000000 0.114137
0.771878 0.000000 0.103151
0.854673 0.000000 0.087221
0.928344 0.000000 0.042115
1.000000 0.000000 0.000000
1.000000 0.000000 0.000000
1.000000 0.000000 0.000000
1.000000 0.000000 0.000000
1.000000 0.000000 0.000000
1.000000 0.000000 0.000000
1.000000 0.000000 0.000000
1.000000 0.000000 0.000000
1.000000 0.142397 0.000000
1.000000 0.210086 0.000000
1.000000 0.258701 0.000000
1.000000 0.298772 0.000000
1.000000 0.333776 0.000000
0.058381 0.120394 0.142275
0.058381 0.120394 0.142275
0.057404 0.120150 0.142092
0.055116 0.120211 0.142306
0.055116 0.120211 0.142306
0.067628 0.120424 0.142245
0.091341 0.121126 0.142031
0.116304 0.121675 0.141421
0.150088 0.121248 0.140841
0.193210 0.118898 0.139986
0.247471 0.112215 0.138460
0.313725 0.095430 0.136477
0.391455 0.013092 0.133364
0.478462 0.000000 0.129183
0.570977 0.000000 0.123537
0.664729 0.000000 0.115450
0.755459 0.000000 0.104768
0.840208 0.000000 0.089845
0.915801 0.000000 0.048554
1.000000 0.000000 0.000000
1.000000 0.000000 0.000000
1.000000 0.000000 0.000000
1.000000 0.000000 0.000000
1.000000 0.000000 0.000000
1.000000 0.000000 0.000000
1.000000 0.000000 0.000000
1.000000 0.000000 0.000000
1.000000 0.131167 0.000000
1.000000 0.203708 0.000000
1.000000 0.254032 0.000000
1.000000 0.295018 0.000000
1.000000 0.330175 0.000000
0.060700 0.119783 0.141634
0.058717 0.119844 0.141665
0.059144 0.119539 0.141909
0.056733 0.119905 0.141665
0.056733 0.119905 0.141665
0.068482 0.120974 0.141939
0.091249 0.122255 0.141451
0.114687 0.123476 0.140993
0.147219 0.123873 0.140383
0.189059 0.122866 0.139437
0.241703 0.117708 0.137881
0.305516 0.104707 0.135927
0.380652 0.054597 0.133089
0.464973 0.000000 0.129274
0.554620 0.000000 0.123476
0.645747 0.000000 0.116152
0.735164 0.000000 0.106264
0.818906 0.000000 0.092988
0.898253 0.000000 0.056947
0.990051 0.000000 0.000000
1.000000 0.000000 0.000000
1.000000 0.000000 0.000000
1.000000 0.000000 0.000000
1.000000 0.000000 0.000000
1.000000 0.000000 0.000000
1.000000 0.000000 0.000000
1.000000 0.000000 0.000000
1.000000 0.151095 0.000000
1.000000 0.217319 0.000000
1.000000 0.264561 0.000000
1.000000 0.302434 0.000000
1.000000 0.334691 0.000000
0.054414 0.120516 0.142275
0.054414 0.120516 0.142275
0.054719 0.120516 0.142061
0.055024 0.120516 0.141817
0.057404 0.120150 0.142092
0.058381 0.120394 0.142275
0.086641 0.123110 0.141146
0.109865 0.126894 0.140444
0.140658 0.128481 0.139742
0.180117 0.128847 0.138766
0.229679 0.126101 0.137423
0.290593 0.117678 0.135470
0.362554 0.096803 0.132906
0.444739 0.000000 0.129122
0.533379 0.000000 0.124025
0.625971 0.000000 0.116854
0.717678 0.000000 0.106996
0.804379 0.000000 0.092927
0.895048 0.000000 0.049348
0.981811 0.000000 0.000000
1.000000 0.000000 0.000000
1.000000 0.000000 0.000000
1.000000 0.000000 0.000000
1.000000 0.000000 0.000000
1.000000 0.000000 0.000000
1.000000 0.000000 0.000000
1.000000 0.100130 0.000000
1.000000 0.187259 0.000000
1.000000 0.239963 0.000000
1.000000 0.281071 0.000000
1.000000 0.315343 0.000000
1.000000 0.345068 0.000000
0.040589 0.124636 0.144747
0.040589 0.124636 0.144747
0.041474 0.124636 0.144106
0.046937 0.124544 0.142977
0.058717 0.123384 0.143282
0.061341 0.122438 0.144472
0.061311 0.122988 0.144869
0.095399 0.127230 0.142397
0.138186 0.134981 0.139223
0.176181 0.138064 0.137911
0.225376 0.137331 0.136629
0.285985 0.131960 0.134707
0.357305 0.118471 0.131868
0.438819 0.083986 0.127993
0.527764 0.000000 0.122805
0.620417 0.000000 0.115175
0.713130 0.000000 0.105196
0.800870 0.000000 0.089448
0.903136 0.000000 0.027985
0.984436 0.000000 0.000000
1.000000 0.000000 0.000000
1.000000 0.000000 0.000000
1.000000 0.163210 0.000000
1.000000 0.221103 0.000000
1.000000 0.262119 0.000000
1.000000 0.294469 0.000000
1.000000 0.321996 0.000000
1.000000 0.345983 0.000000
1.000000 0.368658 0.000000
1.000000 0.389075 0.000000
1.000000 0.407965 0.000000
1.000000 0.424475 0.000000
0.000000 0.140139 0.155276
0.000000 0.140139 0.155093
0.000000 0.140078 0.153689
0.003082 0.139681 0.150393
0.029847 0.138949 0.147463
0.079042 0.134340 0.150576
0.081086 0.132387 0.154635
0.082094 0.133303 0.155520
0.110048 0.139620 0.152316
0.185733 0.152712 0.140627
0.252506 0.160128 0.134066
0.321782 0.157809 0.130739
0.400855 0.147311 0.127047
0.487434 0.124361 0.121950
0.577874 0.059968 0.114961
0.668757 0.000000 0.105074
0.757168 0.000000 0.090730
0.859648 0.000000 0.033173
0.957031 0.000000 0.000000
1.000000 0.000000 0.000000
1.000000 0.000000 0.000000
1.000000 0.059785 0.000000
1.000000 0.184176 0.000000
1.000000 0.245182 0.000000
1.000000 0.288243 0.000000
1.000000 0.320134 0.000000
1.000000 0.344762 0.000000
1.000000 0.365911 0.000000
1.000000 0.385351 0.000000
1.000000 0.402655 0.000000
1.000000 0.419165 0.000000
1.000000 0.434302 0.000000
0.000000 0.162173 0.174014
0.000000 0.161929 0.173342
0.000000 0.161685 0.170596
0.000000 0.161501 0.166873
0.000000 0.160616 0.160769
0.015351 0.159182 0.156497
0.095277 0.151492 0.162722
0.098451 0.147921 0.169986
0.100465 0.149996 0.172000
0.109010 0.154757 0.175113
0.205509 0.172213 0.154147
0.310307 0.185092 0.135348
0.384405 0.186404 0.125551
0.468879 0.177401 0.120485
0.557519 0.159640 0.113497
0.646998 0.130709 0.103517
0.748745 0.080415 0.082887
0.855924 0.000000 0.003418
0.943542 0.000000 0.000000
1.000000 0.098054 0.000000
1.000000 0.155795 0.000000
1.000000 0.210056 0.000000
1.000000 0.258000 0.000000
1.000000 0.299199 0.000000
1.000000 0.332097 0.000000
1.000000 0.357397 0.000000
1.000000 0.377661 0.000000
1.000000 0.394659 0.000000
1.000000 0.410895 0.000000
1.000000 0.425696 0.000000
1.000000 0.439796 0.000000
1.000000 0.452766 0.000000
0.000000 0.195590 0.205203
0.000000 0.195560 0.204379
0.000000 0.195041 0.201144
0.000000 0.194705 0.196201
0.000000 0.193820 0.187900
0.000000 0.192172 0.177798
0.000000 0.189548 0.171939
0.117311 0.178775 0.181888
0.123842 0.172274 0.193729
0.127321 0.175906 0.197177
0.130709 0.179141 0.200137
0.226200 0.201968 0.182589
0.356603 0.220218 0.149874
0.459052 0.226993 0.123354
0.544945 0.223606 0.108888
0.649744 0.217807 0.093233
0.758511 0.214817 0.039216
0.853819 0.216312 0.000000
0.934417 0.225498 0.000000
1.000000 0.242741 0.000000
1.000000 0.268223 0.000000
1.000000 0.297917 0.000000
1.000000 0.329076 0.000000
1.000000 0.358526 0.000000
1.000000 0.383124 0.000000
1.000000 0.402075 0.000000
1.000000 0.417639 0.000000
1.000000 0.431067 0.000000
1.000000 0.443854 0.000000
1.000000 0.455604 0.000000
1.000000 0.466926 0.000000
1.000000 0.477516 0.000000
0.000000 0.238163 0.245792
0.000000 0.238743 0.245396
0.000000 0.239689 0.242924
0.000000 0.239170 0.237095
0.000000 0.237308 0.226322
0.000000 0.235080 0.212314
0.000000 0.232242 0.198703
0.000000 0.228397 0.192142
0.148074 0.214206 0.207248
0.157626 0.204532 0.223850
0.162936 0.209354 0.228275
0.166690 0.212802 0.231357
0.239933 0.235233 0.222568
0.390234 0.261723 0.181033
0.554406 0.288182 0.128481
0.656855 0.299107 0.059876
0.758572 0.305791 0.000000
0.850278 0.314061 0.000000
0.928191 0.325322 0.000000
0.992645 0.339147 0.000000
1.000000 0.355413 0.000000
1.000000 0.372869 0.000000
1.000000 0.391638 0.000000
1.000000 0.409644 0.000000
1.000000 0.425818 0.000000
1.000000 0.439033 0.000000
1.000000 0.451148 0.000000
1.000000 0.462135 0.000000
1.000000 0.473030 0.000000
1.000000 0.483680 0.000000
1.000000 0.493629 0.000000
1.000000 0.503136 0.000000
0.000000 0.281895 0.286961
0.000000 0.282597 0.286717
0.000000 0.285985 0.285863
0.000000 0.289464 0.282902
0.000000 0.288518 0.271855
0.000000 0.287236 0.257420
0.000000 0.284977 0.239170
0.000000 0.282353 0.223728
0.059663 0.276341 0.220584
0.194430 0.258946 0.241306
0.204166 0.247227 0.262486
0.214694 0.256901 0.271214
0.225040 0.266239 0.279515
0.276341 0.292210 0.288151
0.462226 0.332525 0.235294
0.635096 0.363531 0.165530
0.756893 0.384161 0.037201
0.839567 0.397986 0.000000
0.914427 0.407202 0.000000
0.977111 0.417121 0.000000
1.000000 0.427771 0.000000
1.000000 0.439704 0.000000
1.000000 0.452766 0.000000
1.000000 0.465309 0.000000
1.000000 0.476753 0.000000
1.000000 0.486275 0.000000
1.000000 0.494789 0.000000
1.000000 0.502708 0.000000
1.000000 0.510643 0.000000
1.000000 0.518700 0.000000
1.000000 0.526482 0.000000
1.000000 0.533806 0.000000
0.000000 0.344182 0.339544
0.000000 0.345068 0.339452
0.000000 0.348333 0.338994
0.000000 0.354406 0.337224
0.000000 0.353460 0.325597
0.000000 0.352667 0.310735
0.000000 0.351415 0.291569
0.000000 0.349432 0.271153
0.000000 0.346258 0.255314
0.165957 0.341711 0.264714
0.272648 0.327184 0.296666
0.285527 0.320409 0.327733
0.390600 0.412909 0.411383
0.406989 0.427192 0.424628
0.436378 0.452552 0.448524
0.653407 0.504295 0.376867
0.822354 0.540002 0.280522
0.938933 0.563317 0.140322
0.992004 0.567956 0.000000
1.000000 0.571344 0.000000
1.000000 0.572900 0.000000
1.000000 0.574701 0.000000
1.000000 0.576501 0.000000
1.000000 0.578149 0.000000
1.000000 0.579339 0.000000
1.000000 0.579767 0.000000
1.000000 0.579919 0.000000
1.000000 0.579919 0.000000
1.000000 0.580499 0.000000
1.000000 0.581781 0.000000
1.000000 0.583673 0.000000
1.000000 0.586267 0.000000
0.000000 0.459266 0.432990
0.000000 0.459998 0.432685
0.000000 0.463447 0.431952
0.000000 0.467140 0.427710
0.000000 0.467292 0.416052
0.000000 0.467964 0.400275
0.000000 0.469673 0.380835
0.000000 0.471534 0.357458
0.000000 0.474434 0.336767
0.000000 0.477363 0.329320
0.330663 0.465461 0.360479
0.424170 0.453040 0.408942
0.439918 0.455604 0.451392
0.466072 0.478035 0.472908
0.484932 0.494209 0.488655
0.505150 0.511376 0.505669
0.671931 0.558099 0.463661
0.833616 0.589410 0.372076
0.943786 0.607660 0.263432
1.000000 0.614527 0.132204
1.000000 0.615259 0.000000
1.000000 0.615229 0.000000
1.000000 0.614862 0.000000
1.000000 0.614710 0.000000
1.000000 0.614130 0.000000
1.000000 0.613367 0.000000
1.000000 0.612573 0.000000
1.000000 0.611872 0.000000
1.000000 0.611627 0.000000
1.000000 0.612299 0.000000
1.000000 0.613153 0.000000
1.000000 0.614496 0.000000
0.000000 0.575860 0.529534
0.000000 0.575433 0.528313
0.000000 0.573388 0.522545
0.000000 0.570825 0.513725
0.000000 0.567346 0.499519
0.000000 0.563226 0.479164
0.000000 0.560510 0.456641
0.000000 0.558679 0.430701
0.000000 0.558068 0.405219
0.000000 0.558892 0.387030
0.258946 0.557305 0.389929
0.449104 0.541253 0.435859
0.518456 0.527520 0.487251
0.528008 0.530785 0.525353
0.547997 0.547570 0.542748
0.560082 0.557671 0.553491
0.568566 0.564813 0.561151
0.682216 0.603052 0.547692
0.839719 0.632288 0.461646
0.945830 0.647486 0.363928
1.000000 0.656092 0.246952
1.000000 0.656123 0.144137
1.000000 0.655879 0.000000
1.000000 0.654200 0.000000
1.000000 0.652369 0.000000
1.000000 0.650202 0.000000
1.000000 0.648096 0.000000
1.000000 0.646082 0.000000
1.000000 0.644709 0.000000
1.000000 0.644221 0.000000
1.000000 0.643977 0.000000
1.000000 0.644343 0.000000
0.000000 0.662470 0.606928
0.000000 0.661707 0.605341
0.000000 0.658930 0.599390
0.000000 0.654963 0.589319
0.000000 0.649592 0.573754
0.000000 0.643824 0.553704
0.000000 0.639277 0.530877
0.000000 0.635431 0.503716
0.000000 0.633265 0.476814
0.000000 0.632471 0.454292
0.163851 0.632227 0.444526
0.430640 0.623316 0.468177
0.559014 0.607538 0.516167
0.602350 0.593622 0.565942
0.606043 0.596033 0.595727
0.618738 0.606561 0.607782
0.626398 0.612970 0.615167
0.631830 0.617426 0.620447
0.692287 0.644770 0.629969
0.844358 0.671717 0.549950
0.946838 0.685725 0.461677
1.000000 0.692866 0.361364
1.000000 0.694240 0.253635
1.000000 0.691859 0.164553
1.000000 0.689540 0.000000
1.000000 0.686213 0.009033
1.000000 0.683223 0.052003
1.000000 0.680842 0.086976
1.000000 0.679133 0.096040
1.000000 0.678492 0.104280
1.000000 0.678401 0.108583
1.000000 0.678737 0.108156
0.000000 0.724819 0.666651
0.000000 0.725002 0.666194
0.000000 0.723873 0.662318
0.000000 0.721920 0.654566
0.000000 0.719020 0.642298
0.000000 0.716060 0.626398
0.000000 0.713985 0.608148
0.000000 0.712093 0.585504
0.000000 0.710689 0.561730
0.000000 0.708705 0.538201
0.000000 0.705623 0.521508
0.407630 0.700252 0.520653
0.568566 0.681178 0.553765
0.648524 0.662013 0.594202
0.666102 0.644556 0.635004
0.664271 0.644282 0.652430
0.671687 0.650446 0.659937
0.677424 0.655207 0.665797
0.682582 0.659449 0.671046
0.705165 0.678157 0.694392
0.845518 0.705867 0.631220
0.946197 0.720546 0.553063
1.000000 0.727321 0.464149
1.000000 0.728786 0.358038
1.000000 0.725978 0.274052
1.000000 0.722774 0.191867
1.000000 0.719753 0.131228
1.000000 0.716518 0.145205
1.000000 0.713741 0.153445
1.000000 0.711604 0.158267
1.000000 0.709804 0.159976
1.000000 0.708492 0.158145
0.000000 0.773159 0.715328
0.000000 0.773007 0.714565
0.000000 0.772244 0.711360
0.000000 0.770871 0.704952
0.000000 0.769070 0.695552
0.000000 0.766964 0.682582
0.000000 0.764920 0.666529
0.000000 0.762722 0.647028
0.000000 0.760403 0.625666
0.000000 0.757321 0.603143
0.000000 0.753201 0.584283
0.386419 0.747646 0.575311
0.549798 0.736507 0.587671
0.660487 0.718135 0.623926
0.712093 0.700771 0.660029
0.715084 0.685023 0.694850
0.715328 0.686610 0.705104
0.721462 0.691676 0.711574
0.727016 0.696284 0.717494
0.732021 0.700465 0.722835
0.747829 0.713649 0.739864
0.850919 0.739528 0.707759
0.945281 0.754360 0.642023
1.000000 0.760464 0.562737
1.000000 0.760678 0.469032
1.000000 0.757137 0.363622
1.000000 0.753170 0.299504
1.000000 0.749752 0.225895
1.000000 0.746639 0.197360
1.000000 0.743801 0.204715
1.000000 0.741268 0.207858
1.000000 0.739071 0.208103
0.000000 0.818540 0.764065
0.000000 0.819089 0.764065
0.000000 0.859892 0.812619
0.000000 0.858762 0.808194
0.000000 0.856901 0.800961
0.000000 0.854246 0.790372
0.000000 0.850828 0.776638
0.000000 0.846952 0.760983
0.000000 0.842679 0.743679
0.000000 0.837675 0.726558
0.349706 0.831693 0.711452
0.524071 0.824643 0.703944
0.641413 0.816251 0.707240
0.729671 0.800839 0.725765
0.784573 0.784909 0.749783
0.806821 0.769558 0.772763
0.797238 0.755215 0.794003
0.797482 0.755428 0.794308
0.798581 0.756374 0.795499
0.800076 0.757687 0.797177
0.801846 0.759182 0.799130
0.810056 0.766232 0.808255
0.874083 0.786160 0.796933
0.951843 0.797910 0.743984
1.000000 0.800778 0.676631
1.000000 0.797635 0.591730
1.000000 0.790524 0.486488
1.000000 0.783200 0.396460
1.000000 0.778134 0.333410
1.000000 0.774044 0.264897
1.000000 0.770657 0.249149
1.000000 0.767453 0.248875
0.000000 0.864897 0.816770
0.000000 0.867979 0.820340
0.000000 0.870756 0.822507
0.000000 0.872709 0.822751
0.000000 0.873198 0.819608
0.000000 0.871702 0.812284
0.000000 0.868803 0.801358
0.000000 0.864897 0.787808
0.000000 0.860594 0.773068
0.000000 0.855467 0.757565
0.338872 0.849760 0.743862
0.507866 0.843198 0.734554
0.622766 0.835599 0.732052
0.707881 0.825498 0.739193
0.776425 0.811002 0.760769
0.814969 0.797086 0.781735
0.828061 0.783932 0.802029
0.819577 0.774441 0.818784
0.821592 0.776211 0.821042
0.824399 0.778622 0.824125
0.827573 0.781430 0.827665
0.831235 0.784634 0.831693
0.836698 0.789456 0.837736
0.877958 0.807156 0.840604
0.947814 0.818784 0.797574
0.998901 0.822324 0.742580
1.000000 0.820157 0.672297
1.000000 0.813870 0.581872
1.000000 0.805081 0.469215
1.000000 0.799802 0.407385
1.000000 0.795560 0.347875
1.000000 0.791928 0.282109
0.000000 0.884123 0.836149
0.000000 0.886778 0.839384
0.000000 0.889220 0.841672
0.000000 0.890898 0.842283
0.000000 0.891264 0.840208
0.000000 0.889860 0.834562
0.000000 0.887053 0.825620
0.000000 0.883421 0.814847
0.000000 0.879179 0.802884
0.000000 0.874144 0.790127
0.382055 0.868528 0.778103
0.523705 0.862394 0.769284
0.627283 0.855680 0.765011
0.709010 0.848569 0.768887
0.773861 0.836912 0.781704
0.820371 0.824582 0.799924
0.845518 0.812833 0.817685
0.851011 0.801907 0.835050
0.844633 0.796506 0.846433
0.846983 0.798581 0.848966
0.849912 0.801205 0.852171
0.853544 0.804501 0.856107
0.857359 0.807980 0.860227
0.861204 0.811521 0.864378
0.883452 0.825650 0.874479
0.945647 0.837400 0.840604
0.991485 0.841550 0.797024
1.000000 0.840665 0.740475
1.000000 0.836118 0.668177
1.000000 0.828244 0.572595
1.000000 0.820035 0.475563
1.000000 0.815305 0.418250
0.000000 0.901457 0.853300
0.000000 0.903441 0.855955
0.000000 0.905089 0.857633
0.000000 0.906065 0.858030
0.000000 0.906004 0.856199
0.000000 0.904479 0.851682
0.000000 0.901915 0.844907
0.000000 0.898466 0.836362
0.000000 0.894438 0.826902
0.273014 0.889769 0.816892
0.441230 0.884581 0.807614
0.554437 0.879026 0.800198
0.644190 0.872984 0.795743
0.717220 0.866758 0.797024
0.774990 0.858762 0.803983
0.824674 0.848325 0.820218
0.856718 0.838895 0.836728
0.873350 0.830442 0.853178
0.875181 0.823514 0.869535
0.874235 0.823636 0.878233
0.878752 0.827909 0.882963
0.883421 0.832456 0.887907
0.887999 0.836912 0.892638
0.892485 0.841398 0.897307
0.896605 0.845579 0.901610
0.906828 0.856229 0.912139
0.952361 0.867399 0.891875
0.988159 0.872343 0.864744
1.000000 0.872984 0.829526
1.000000 0.870024 0.781613
1.000000 0.863615 0.715023
1.000000 0.853544 0.619165
0.000000 0.925139 0.882628
0.000000 0.925628 0.883360
0.000000 0.925628 0.883299
0.000000 0.924987 0.881895
0.000000 0.923613 0.879149
0.000000 0.921508 0.875181
0.000000 0.918730 0.869902
0.049195 0.915343 0.863493
0.327733 0.911528 0.856748
0.450477 0.907347 0.850065
0.545983 0.902861 0.843961
0.626368 0.898039 0.839048
0.694484 0.892943 0.836210
0.752926 0.887724 0.837064
0.797787 0.882292 0.839658
0.841855 0.873564 0.851835
0.872282 0.865446 0.863951
0.891264 0.858000 0.876066
0.899565 0.851194 0.887999
0.896666 0.845243 0.899748
0.897917 0.846921 0.902953
0.900572 0.849668 0.905699
0.903227 0.852415 0.908415
0.905760 0.855100 0.911040
0.908751 0.858335 0.914122
0.911864 0.861692 0.917296
0.919677 0.870420 0.925231
0.953429 0.881285 0.914000
0.984771 0.887205 0.894316
1.000000 0.888945 0.868833
1.000000 0.887175 0.833768
1.000000 0.881895 0.782528
0.000000 0.933593 0.891875
0.000000 0.933867 0.892424
0.000000 0.933745 0.892302
0.000000 0.933135 0.891417
0.000000 0.931914 0.889525
0.108492 0.930083 0.886534
0.277653 0.927550 0.882414
0.378088 0.924620 0.877897
0.462837 0.921294 0.873075
0.539788 0.917571 0.868345
0.609003 0.913634 0.864103
0.671626 0.909514 0.860990
0.727504 0.905119 0.859403
0.776303 0.900786 0.860624
0.818204 0.896483 0.865080
0.852232 0.890105 0.871702
0.881193 0.883513 0.881895
0.901061 0.877470 0.891936
0.912810 0.871824 0.901884
0.916503 0.866819 0.911589
0.913909 0.863920 0.919371
0.916045 0.866331 0.921569
0.918303 0.868864 0.923857
0.920562 0.871458 0.926116
0.916930 0.867308 0.922454
0.919371 0.870115 0.924956
0.922362 0.873503 0.927947
0.928801 0.881132 0.934447
0.954376 0.891630 0.928862
0.982605 0.898314 0.913695
1.000000 0.901122 0.894621
1.000000 0.900481 0.868437
0.354101 0.943023 0.906523
0.369665 0.943389 0.907439
0.385260 0.943267 0.907500
0.404273 0.942443 0.906401
0.426917 0.941039 0.904356
0.456092 0.939055 0.901457
0.489906 0.936522 0.897765
0.529808 0.933501 0.893523
0.574243 0.930114 0.889036
0.620996 0.926452 0.884672
0.667201 0.922454 0.880583
0.713222 0.918395 0.877592
0.755825 0.914244 0.875914
0.794583 0.910002 0.876066
0.828428 0.905669 0.878264
0.856291 0.900053 0.881773
0.882658 0.893645 0.889464
0.902312 0.887816 0.897642
0.915801 0.882689 0.906371
0.923217 0.878325 0.915312
0.923919 0.874571 0.924071
0.923156 0.874449 0.928771
0.924956 0.876555 0.930571
0.926421 0.878294 0.932036
0.927642 0.879698 0.933257
0.928618 0.880919 0.934264
0.930327 0.882963 0.935943
0.932494 0.885649 0.938140
0.937438 0.891844 0.943023
0.956481 0.901396 0.940734
0.981750 0.908263 0.928618
1.000000 0.911864 0.914092
0.485817 0.946014 0.909361
0.495125 0.946288 0.910216
0.506126 0.946227 0.910491
0.519615 0.945678 0.909972
0.537224 0.944610 0.908812
0.559411 0.943175 0.907164
0.586999 0.941314 0.905211
0.619501 0.939055 0.902892
0.654566 0.936553 0.900664
0.691279 0.933806 0.898680
0.727687 0.930816 0.896971
0.763088 0.927703 0.895964
0.796231 0.924437 0.895750
0.826383 0.921050 0.896696
0.852781 0.917571 0.898802
0.874022 0.913207 0.901061
0.895567 0.907897 0.906798
0.912444 0.902953 0.912932
0.925017 0.898558 0.919585
0.933196 0.894743 0.926513
0.936614 0.891356 0.933471
0.934752 0.888365 0.940154
0.936187 0.890257 0.941772
0.937591 0.892027 0.943175
0.938842 0.893614 0.944396
0.939940 0.895048 0.945495
0.941009 0.896452 0.946502
0.942565 0.898497 0.948058
0.944701 0.901335 0.950134
0.948669 0.906798 0.954009
0.962066 0.915496 0.954131
0.983307 0.922393 0.945342
0.613031 0.950408 0.917266
0.616693 0.950530 0.917662
0.621820 0.950317 0.917662
0.629633 0.949798 0.917205
0.640681 0.948913 0.916350
0.655024 0.947631 0.915190
0.673335 0.946014 0.913725
0.695094 0.944121 0.912200
0.719509 0.941985 0.910796
0.746120 0.939666 0.909636
0.773342 0.937133 0.908812
0.800565 0.934539 0.908629
0.826200 0.931914 0.909209
0.850034 0.929168 0.910552
0.870848 0.926360 0.912596
0.887724 0.922637 0.914214
0.905364 0.918242 0.918700
0.919982 0.914000 0.923583
0.931456 0.910185 0.928923
0.939605 0.906828 0.934569
0.944244 0.903868 0.940307
0.944945 0.901122 0.945830
0.943847 0.900237 0.949340
0.944915 0.901671 0.950378
0.945892 0.902953 0.951293
0.946685 0.904021 0.952056
0.947448 0.905150 0.952819
0.948211 0.906188 0.953582
0.949615 0.908141 0.954925
0.951873 0.911345 0.957092
0.955535 0.916655 0.960571
0.965515 0.924712 0.961944
0.692836 0.953368 0.922484
0.695033 0.953460 0.922820
0.699214 0.953338 0.922972
0.705501 0.952941 0.922881
0.714717 0.952331 0.922698
0.727718 0.951537 0.922606
0.745235 0.950652 0.922911
0.765469 0.949676 0.923552
0.787747 0.948638 0.924559
0.810697 0.947601 0.925963
0.833433 0.946563 0.927825
0.854673 0.945495 0.929931
0.874113 0.944366 0.932341
0.891356 0.943145 0.934966
0.905882 0.941772 0.937407
0.917296 0.939208 0.938994
0.929229 0.936248 0.942077
0.939452 0.933288 0.945281
0.947814 0.930571 0.948791
0.954192 0.928130 0.952453
0.958312 0.925872 0.956207
0.959991 0.923705 0.959899
0.958801 0.921477 0.963409
0.959289 0.922332 0.964141
0.959838 0.923156 0.964660
0.960327 0.923949 0.965118
0.960876 0.924773 0.965637
0.961425 0.925658 0.966125
0.962005 0.926574 0.966674
0.963012 0.928161 0.967620
0.964721 0.930907 0.969207
0.967315 0.935180 0.971618
0.795773 0.960296 0.938354
0.796292 0.960266 0.938354
0.797665 0.960082 0.938262
0.800290 0.959716 0.938079
0.804868 0.959167 0.937804
0.811246 0.958434 0.937560
0.819699 0.957580 0.937438
0.830167 0.956542 0.937438
0.842039 0.955474 0.937682
0.855009 0.954345 0.938231
0.868437 0.953185 0.939055
0.881987 0.951995 0.940276
0.895201 0.950805 0.941833
0.907378 0.949584 0.943572
