20 Preset/City Style/【3】LUT video cho PR-AE-FCPX/TONE 3/Dubai I Overpass.cube
# Created by Adobe Lightroom plugin Export LUT (1.24.0)
# www.johnrellis.com/lightroom/exportlut.htm
# Preset: Dubai I Overpass
# Color profile: E:\lut插件\exportlut.1.24\exportlut.lrplugin\color profiles\Rec709gamma2.4.icc
LUT_3D_SIZE 8
DOMAIN_MIN 0.000000 0.000000 0.000000
DOMAIN_MAX 0.903226 0.903226 0.903226
0.094087 0.101015 0.109285
0.088136 0.099825 0.109224
0.208774 0.127077 0.097108
0.546197 0.197543 0.000000
1.000000 0.358312 0.000000
1.000000 0.619928 0.000000
1.000000 0.804837 0.000000
1.000000 0.866850 0.000000
0.089265 0.101289 0.104646
0.098543 0.102449 0.106050
0.162478 0.115908 0.110475
0.470405 0.175204 0.033082
0.977478 0.314946 0.000000
1.000000 0.591730 0.000000
1.000000 0.778134 0.000000
1.000000 0.854795 0.000000
0.000000 0.242069 0.162966
0.124331 0.245365 0.178653
0.288731 0.277226 0.242496
0.678462 0.236393 0.116274
0.886931 0.427192 0.310002
1.000000 0.702693 0.267704
1.000000 0.852964 0.363958
1.000000 0.899321 0.460731
0.000000 0.632929 0.346960
0.000000 0.655909 0.359350
0.514580 0.708766 0.518151
0.883879 0.851682 0.778470
1.000000 0.838834 0.493599
1.000000 0.880186 0.706722
1.000000 0.952148 0.906859
1.000000 0.962829 0.900969
0.000000 0.937530 0.623590
0.122286 0.940154 0.641260
0.701259 0.942260 0.744869
0.936645 0.951019 0.905180
0.979736 0.971069 0.963012
1.000000 0.965789 0.871855
1.000000 0.940063 0.819455
1.000000 0.976532 0.962707
0.773281 0.993713 0.868620
0.828977 0.993225 0.891905
0.902922 0.989105 0.921141
0.964294 0.985931 0.970886
0.984009 0.987457 1.000000
0.991608 0.991363 1.000000
0.997803 0.991028 1.000000
1.000000 0.978485 0.951324
0.955749 0.996033 0.992279
0.958801 0.995911 0.995483
0.968170 0.994965 1.000000
0.981872 0.994171 1.000000
0.990387 0.993957 1.000000
0.994354 0.994659 1.000000
0.996368 0.995941 1.000000
0.998779 0.995666 1.000000
0.989746 0.997772 1.000000
0.990082 0.997742 1.000000
0.991547 0.997650 1.000000
0.993805 0.997589 1.000000
0.994873 0.997040 1.000000
0.996735 0.997223 1.000000
0.997528 0.997528 1.000000
0.998444 0.998016 1.000000
0.083375 0.100191 0.116670
0.079225 0.099855 0.121920
0.169100 0.081788 0.117861
0.421851 0.119173 0.103395
0.948302 0.355016 0.000000
1.000000 0.627070 0.000000
1.000000 0.790097 0.000000
1.000000 0.860410 0.000000
0.064973 0.105928 0.130892
0.088014 0.116243 0.140993
0.194675 0.115358 0.139162
0.477638 0.203586 0.113130
0.953765 0.381537 0.000000
1.000000 0.624384 0.000000
1.000000 0.778073 0.000000
1.000000 0.852293 0.000000
0.000000 0.217441 0.246250
0.000000 0.254765 0.261051
0.271824 0.320409 0.297642
0.600488 0.332860 0.277104
0.938506 0.483742 0.335241
1.000000 0.697841 0.272526
1.000000 0.827115 0.302281
1.000000 0.888792 0.429847
0.000000 0.528985 0.390173
0.000000 0.552758 0.390021
0.000000 0.675257 0.447913
0.765194 0.764553 0.764858
1.000000 0.769619 0.497505
1.000000 0.835233 0.680690
1.000000 0.920745 0.834897
1.000000 0.946258 0.841581
0.000000 0.910185 0.619013
0.000000 0.913573 0.622766
0.479805 0.933257 0.693874
0.893553 0.937316 0.861051
0.966430 0.958892 0.952087
1.000000 0.958556 0.861601
1.000000 0.936156 0.821317
1.000000 0.973785 0.957031
0.619593 0.994141 0.835966
0.677028 0.992645 0.845792
0.832212 0.987701 0.885801
0.945830 0.983337 0.947265
0.979278 0.985260 1.000000
0.990417 0.990478 1.000000
0.997192 0.990570 1.000000
1.000000 0.977295 0.949157
0.936492 0.996490 0.974334
0.939788 0.996033 0.975311
0.954528 0.994720 0.984710
0.974304 0.993286 1.000000
0.988251 0.993256 1.000000
0.993622 0.994079 1.000000
0.995789 0.995422 1.000000
0.998474 0.995087 1.000000
0.987366 0.997589 1.000000
0.988190 0.997589 1.000000
0.989990 0.997467 1.000000
0.992859 0.997375 1.000000
0.995270 0.997345 1.000000
0.996826 0.997345 1.000000
0.997498 0.997498 1.000000
0.998413 0.997986 1.000000
0.000000 0.137270 0.245518
0.000000 0.138949 0.255955
0.000000 0.145144 0.297734
0.197482 0.113710 0.369055
0.635645 0.000000 0.311711
1.000000 0.000000 0.200656
1.000000 0.661860 0.250126
1.000000 0.895842 0.492287
0.000000 0.168612 0.289067
0.000000 0.170840 0.298314
0.000000 0.179690 0.338506
0.167544 0.163027 0.409277
0.670497 0.000000 0.340337
1.000000 0.000000 0.239445
1.000000 0.701381 0.284184
1.000000 0.905821 0.513268
0.000000 0.216983 0.358465
0.000000 0.235630 0.379461
0.000000 0.335180 0.470527
0.338720 0.474647 0.626246
0.922454 0.337316 0.477607
1.000000 0.706294 0.510643
1.000000 0.904662 0.624201
1.000000 0.945220 0.747189
0.000000 0.277043 0.506462
0.000000 0.297673 0.532158
0.000000 0.384436 0.622431
0.411505 0.800137 0.816556
0.977783 0.922148 0.898528
1.000000 0.949157 0.926055
1.000000 0.963165 0.921019
1.000000 0.970977 0.923003
0.000000 0.775967 0.772244
0.000000 0.808164 0.784817
0.000000 0.902342 0.817746
0.632136 0.956115 0.861936
0.968444 0.972534 0.977111
0.995270 0.979492 0.976135
1.000000 0.975860 0.971923
0.997955 0.987030 1.000000
0.000000 1.000000 0.877623
0.000000 1.000000 0.880797
0.464851 0.998138 0.891569
0.861784 0.988067 0.931731
0.971344 0.986816 0.996704
0.990631 0.991180 1.000000
0.996063 0.992859 1.000000
1.000000 0.987610 1.000000
0.888151 1.000000 0.975799
0.895354 0.999908 0.976196
0.926909 0.997162 0.983581
0.964630 0.994568 1.000000
0.985748 0.993927 1.000000
0.993744 0.994720 1.000000
0.996124 0.996033 1.000000
0.998291 0.996246 1.000000
0.985321 0.997894 1.000000
0.985779 0.997833 1.000000
0.988251 0.997711 1.000000
0.992004 0.997650 1.000000
0.994965 0.997559 1.000000
0.996887 0.997620 1.000000
0.997803 0.997803 1.000000
0.998474 0.998230 1.000000
0.000000 0.201877 0.465461
0.000000 0.207492 0.485634
0.000000 0.217868 0.527184
0.000000 0.234745 0.605371
0.000000 0.201907 0.717128
0.892027 0.000000 0.803189
1.000000 0.000000 0.521233
1.000000 0.336950 0.366766
0.000000 0.242191 0.528923
0.000000 0.245457 0.539483
0.000000 0.254826 0.574395
0.000000 0.273594 0.649683
0.000000 0.274266 0.762356
0.913603 0.000000 0.828183
1.000000 0.000000 0.536828
1.000000 0.439887 0.412207
0.000000 0.337896 0.605768
0.000000 0.353460 0.625666
0.000000 0.417060 0.700038
0.000000 0.449287 0.765316
0.000000 0.515038 0.861418
0.990936 0.437598 0.923247
1.000000 0.334020 0.669154
1.000000 0.805905 0.702388
0.000000 0.423682 0.721798
0.000000 0.439124 0.731624
0.000000 0.523705 0.785275
0.396735 0.728359 0.876402
0.830228 0.889952 0.947143
0.966400 0.900542 0.976349
1.000000 0.887388 0.884672
1.000000 0.971191 0.951995
0.000000 0.482124 0.813321
0.000000 0.496986 0.820768
0.000000 0.578393 0.861723
0.347601 0.763729 0.925200
0.889799 0.937804 0.981689
0.986725 0.989319 1.000000
0.994690 0.991455 1.000000
0.998383 0.992462 1.000000
0.000000 0.664271 0.928496
0.000000 0.708919 0.942046
0.000000 0.819242 0.952422
0.000000 0.961608 0.975189
0.878935 0.991394 1.000000
0.988373 0.992920 1.000000
0.995758 0.995270 1.000000
0.998932 0.994476 1.000000
0.528099 1.000000 1.000000
0.595270 1.000000 1.000000
0.761166 1.000000 1.000000
0.909087 0.999329 1.000000
0.975402 0.995331 1.000000
0.992798 0.995727 1.000000
0.996582 0.996643 1.000000
0.998138 0.997253 1.000000
0.977569 0.998901 1.000000
0.978790 0.998779 1.000000
0.983337 0.998413 1.000000
0.989441 0.998077 1.000000
0.993957 0.997986 1.000000
0.996674 0.997986 1.000000
0.998047 0.998169 1.000000
0.998627 0.998535 1.000000
0.000000 0.342992 0.809720
0.000000 0.350225 0.822721
0.000000 0.363134 0.847654
0.000000 0.389776 0.894041
0.000000 0.411627 0.934081
0.000000 0.423560 0.963012
0.838285 0.101228 0.984405
1.000000 0.000000 0.955016
0.000000 0.386572 0.845670
0.000000 0.397101 0.861143
0.000000 0.410681 0.882933
0.000000 0.424384 0.908263
0.000000 0.442817 0.940703
0.000000 0.458564 0.968322
0.847288 0.230228 0.989075
1.000000 0.000000 0.956970
0.000000 0.529808 0.906737
0.000000 0.533593 0.910338
0.000000 0.535515 0.915648
0.000000 0.542687 0.928161
0.000000 0.559228 0.949035
0.000000 0.584009 0.971099
0.867613 0.488533 0.996490
1.000000 0.385443 0.954253
0.000000 0.633875 0.915221
0.000000 0.642969 0.918151
0.000000 0.689754 0.933440
0.293645 0.779721 0.957427
0.573388 0.828977 0.975402
0.723659 0.860655 0.992004
0.923003 0.857572 1.000000
1.000000 0.801755 0.958373
0.000000 0.668605 0.942931
0.000000 0.682856 0.946044
0.000000 0.736080 0.954833
0.446296 0.835080 0.969390
0.834287 0.928618 0.990234
0.959442 0.974243 1.000000
0.977935 0.979034 1.000000
1.000000 0.967681 0.991272
0.000000 0.665522 0.955566
0.000000 0.677333 0.957855
0.000000 0.716274 0.961944
0.141970 0.805753 0.974090
0.775479 0.916472 0.995148
0.965789 0.979522 1.000000
0.994202 0.994690 1.000000
0.997467 0.996521 1.000000
0.000000 0.684993 1.000000
0.000000 0.684535 1.000000
0.000000 0.764187 1.000000
0.000000 0.933776 1.000000
0.790921 0.990906 1.000000
0.973632 0.995361 1.000000
0.995300 0.996643 1.000000
0.997894 0.997589 1.000000
0.878416 1.000000 1.000000
0.887938 1.000000 1.000000
0.922332 1.000000 1.000000
0.967285 0.999725 1.000000
0.986755 0.998230 1.000000
0.994751 0.998108 1.000000
0.997742 0.998291 1.000000
0.998596 0.998596 1.000000
0.000000 0.611231 1.000000
0.000000 0.619898 1.000000
0.000000 0.618860 1.000000
0.000000 0.630854 1.000000
0.000000 0.638453 1.000000
0.000000 0.651240 1.000000
0.000000 0.678218 1.000000
0.883513 0.574792 1.000000
0.000000 0.597375 1.000000
0.000000 0.597681 1.000000
0.000000 0.599908 1.000000
0.000000 0.609705 1.000000
0.000000 0.624689 1.000000
0.000000 0.645686 1.000000
0.000000 0.676173 1.000000
0.870420 0.576287 1.000000
0.000000 0.730251 1.000000
0.000000 0.728206 1.000000
0.000000 0.728756 1.000000
0.000000 0.714839 1.000000
0.000000 0.726253 1.000000
0.000000 0.749111 1.000000
0.444312 0.784024 1.000000
0.901030 0.730007 1.000000
0.113924 0.851987 1.000000
0.194705 0.853025 1.000000
0.430091 0.870695 1.000000
0.599969 0.893095 1.000000
0.688624 0.902983 1.000000
0.766720 0.911681 1.000000
0.846464 0.925536 1.000000
0.951568 0.912932 1.000000
0.377630 0.880644 1.000000
0.420783 0.884703 1.000000
0.571160 0.902647 1.000000
0.748714 0.928985 1.000000
0.876188 0.953552 1.000000
0.928435 0.965911 1.000000
0.949737 0.970764 1.000000
0.979065 0.968902 1.000000
0.332952 0.883909 1.000000
0.426062 0.893370 1.000000
0.564111 0.907958 1.000000
0.740352 0.932189 1.000000
0.882322 0.959106 1.000000
0.967590 0.982849 1.000000
0.990661 0.992706 1.000000
0.994842 0.993622 1.000000
0.421607 0.908171 1.000000
0.480476 0.913542 1.000000
0.589380 0.923461 1.000000
0.741909 0.940978 1.000000
0.880613 0.963104 1.000000
0.966888 0.983795 1.000000
0.992065 0.993988 1.000000
0.998077 0.998169 1.000000
0.000000 0.864988 1.000000
0.000000 0.863920 1.000000
0.000000 0.885954 1.000000
0.434028 0.980713 1.000000
0.895354 0.997803 1.000000
0.981811 0.998413 1.000000
0.995666 0.998352 1.000000
0.998657 0.998779 1.000000
0.000000 0.772305 1.000000
0.000000 0.777768 1.000000
0.000000 0.780941 1.000000
0.000000 0.791745 1.000000
0.000000 0.801419 1.000000
0.000000 0.813199 1.000000
0.412726 0.828061 1.000000
0.615686 0.847623 1.000000
0.000000 0.771847 1.000000
0.000000 0.778408 1.000000
0.000000 0.781399 1.000000
0.000000 0.786831 1.000000
0.000000 0.794186 1.000000
0.000000 0.801511 1.000000
0.323888 0.811582 1.000000
0.554314 0.827970 1.000000
0.000000 0.846036 1.000000
0.000000 0.846525 1.000000
0.000000 0.845518 1.000000
0.000000 0.847715 1.000000
0.249973 0.849882 1.000000
0.444587 0.857572 1.000000
0.615839 0.873899 1.000000
0.754208 0.893797 1.000000
0.681666 0.926055 1.000000
0.673304 0.924193 1.000000
0.674067 0.922515 1.000000
0.705074 0.924681 1.000000
0.738247 0.926024 1.000000
0.792721 0.931823 1.000000
0.851743 0.940795 1.000000
0.897581 0.948943 1.000000
0.802152 0.950622 1.000000
0.801724 0.950103 1.000000
0.823331 0.952636 1.000000
0.871031 0.960174 1.000000
0.905058 0.965942 1.000000
0.920836 0.967987 1.000000
0.940520 0.971649 1.000000
0.962615 0.977783 1.000000
0.848814 0.962463 1.000000
0.856077 0.963561 1.000000
0.880674 0.967498 1.000000
0.918334 0.974243 1.000000
0.952392 0.981292 1.000000
0.977050 0.987884 1.000000
0.985504 0.990692 1.000000
0.988830 0.991730 1.000000
0.873198 0.968750 1.000000
0.880308 0.969848 1.000000
0.899046 0.972747 1.000000
0.929656 0.978088 1.000000
0.959594 0.984344 1.000000
0.981048 0.990204 1.000000
0.992340 0.994690 1.000000
0.996612 0.997040 1.000000
0.860014 0.970031 1.000000
0.865904 0.970764 1.000000
0.892363 0.974426 1.000000
0.922332 0.978882 1.000000
0.952331 0.984100 1.000000
0.976867 0.989685 1.000000
0.992065 0.994965 1.000000
0.997406 0.997955 1.000000
0.541650 0.910307 1.000000
0.555962 0.911803 1.000000
0.560998 0.910857 1.000000
0.608911 0.914488 1.000000
0.663386 0.918486 1.000000
0.720577 0.922911 1.000000
0.787594 0.930755 1.000000
0.844205 0.938720 1.000000
0.545922 0.910704 1.000000
0.560723 0.912291 1.000000
0.575219 0.912657 1.000000
0.614160 0.915221 1.000000
0.666133 0.918914 1.000000
0.722164 0.923247 1.000000
0.783658 0.929778 1.000000
0.840055 0.937407 1.000000
0.686213 0.930480 1.000000
0.690333 0.930846 1.000000
0.694820 0.930358 1.000000
0.736995 0.935271 1.000000
0.762295 0.936614 1.000000
0.793362 0.938537 1.000000
0.839231 0.944305 1.000000
0.882719 0.951324 1.000000
0.836728 0.956664 1.000000
0.840238 0.957244 1.000000
0.843931 0.957336 1.000000
0.858000 0.959014 1.000000
0.874510 0.960876 1.000000
0.893523 0.963134 1.000000
0.918090 0.967254 1.000000
0.941375 0.972107 1.000000
0.936065 0.978302 1.000000
0.938689 0.978820 1.000000
0.936553 0.978088 1.000000
0.939605 0.978363 1.000000
0.945586 0.979187 1.000000
0.953948 0.980621 1.000000
0.965332 0.983215 1.000000
0.973693 0.985260 1.000000
0.964019 0.986511 1.000000
0.964263 0.986542 1.000000
0.966430 0.986908 1.000000
0.971984 0.988128 1.000000
0.979675 0.990143 1.000000
0.984955 0.991730 1.000000
0.987396 0.992401 1.000000
0.989380 0.992889 1.000000
0.973297 0.989563 1.000000
0.973754 0.989685 1.000000
0.975982 0.990204 1.000000
0.980407 0.991363 1.000000
0.985779 0.992920 1.000000
0.990478 0.994568 1.000000
0.994263 0.996124 1.000000
0.995453 0.996612 1.000000
0.971984 0.989685 1.000000
0.972412 0.989776 1.000000
0.975158 0.990387 1.000000
0.980468 0.991760 1.000000
0.986114 0.993408 1.000000
0.991119 0.995148 1.000000
0.995209 0.996918 1.000000
0.997986 0.998474 1.000000
