20 Preset/City Style/【3】LUT video cho PR-AE-FCPX/TONE 3/Dubai I Armani.cube
# Created by Adobe Lightroom plugin Export LUT (1.24.0)
# www.johnrellis.com/lightroom/exportlut.htm
# Preset: Dubai I Armani
# Color profile: E:\lut插件\exportlut.1.24\exportlut.lrplugin\color profiles\Rec709gamma2.4.icc
LUT_3D_SIZE 32
DOMAIN_MIN 0.0 0.0 0.0
DOMAIN_MAX 1.0 1.0 1.0
0.080415 0.120516 0.129183
0.077974 0.119753 0.129305
0.069215 0.118868 0.129183
0.057160 0.117800 0.129122
0.056184 0.117556 0.128908
0.088624 0.120729 0.127810
0.127260 0.128786 0.124544
0.182010 0.140688 0.118349
0.251957 0.155184 0.110323
0.342412 0.174228 0.095796
0.452979 0.202090 0.046265
0.584222 0.239658 0.000000
0.710384 0.241398 0.000000
0.816922 0.198032 0.000000
0.898497 0.000000 0.011536
0.949767 0.000000 0.119142
0.972992 0.000000 0.162539
0.969665 0.000000 0.190860
1.000000 0.000000 0.279576
1.000000 0.000000 0.508659
1.000000 0.000000 0.746059
1.000000 0.000000 0.900145
1.000000 0.000000 0.982574
1.000000 0.000000 1.000000
1.000000 0.000000 1.000000
1.000000 0.243717 1.000000
1.000000 0.381964 1.000000
1.000000 0.484901 1.000000
1.000000 0.580041 1.000000
1.000000 0.674037 1.000000
1.000000 0.761959 1.000000
1.000000 0.838773 1.000000
0.078828 0.120027 0.129274
0.077974 0.119753 0.129305
0.065949 0.118685 0.129244
0.055879 0.117556 0.129152
0.056184 0.117556 0.128908
0.089479 0.120668 0.127535
0.125795 0.128450 0.124331
0.177676 0.139528 0.118685
0.244907 0.153353 0.110842
0.330755 0.171420 0.097963
0.436072 0.197635 0.058167
0.560510 0.232914 0.000000
0.688197 0.244114 0.000000
0.795773 0.205905 0.000000
0.878569 0.055207 0.019348
0.932433 0.000000 0.119509
0.958556 0.000000 0.161868
0.960998 0.000000 0.189822
0.985473 0.000000 0.269932
1.000000 0.000000 0.490608
1.000000 0.000000 0.712764
1.000000 0.000000 0.871885
1.000000 0.000000 0.961822
1.000000 0.000000 1.000000
1.000000 0.000000 1.000000
1.000000 0.000000 1.000000
1.000000 0.292485 1.000000
1.000000 0.411017 1.000000
1.000000 0.514794 1.000000
1.000000 0.613977 1.000000
1.000000 0.712032 1.000000
1.000000 0.800900 1.000000
0.065949 0.118685 0.129244
0.064668 0.118441 0.129274
0.059144 0.117739 0.129122
0.055207 0.117311 0.128695
0.066590 0.117586 0.127810
0.098421 0.121706 0.125978
0.135897 0.129641 0.122286
0.187106 0.140536 0.117037
0.253483 0.154299 0.109163
0.337713 0.172366 0.096925
0.439399 0.198306 0.061524
0.560571 0.233310 0.000000
0.694331 0.262577 0.000000
0.795834 0.221195 0.000000
0.868162 0.046906 0.083986
0.925292 0.000000 0.133333
0.942718 0.000000 0.174380
0.949676 0.000000 0.197971
0.984680 0.000000 0.289097
1.000000 0.000000 0.509514
1.000000 0.000000 0.733150
1.000000 0.000000 0.881804
1.000000 0.000000 0.959716
1.000000 0.000000 1.000000
1.000000 0.000000 1.000000
1.000000 0.000000 1.000000
1.000000 0.271824 1.000000
1.000000 0.392493 1.000000
1.000000 0.495247 1.000000
1.000000 0.596033 1.000000
1.000000 0.693660 1.000000
1.000000 0.784665 1.000000
0.068299 0.114107 0.123659
0.067994 0.114107 0.123934
0.065980 0.114748 0.124422
0.069459 0.116701 0.125521
0.091798 0.118349 0.123781
0.117769 0.123018 0.121401
0.157809 0.132357 0.117891
0.213962 0.144656 0.113008
0.281010 0.158694 0.106203
0.363989 0.178042 0.095491
0.463386 0.206180 0.069154
0.583154 0.244236 0.002502
0.722194 0.294011 0.000000
0.809873 0.239567 0.021973
0.879515 0.131502 0.116365
0.916625 0.000000 0.165225
0.932128 0.000000 0.196628
0.925597 0.000000 0.216403
0.991180 0.000000 0.356329
1.000000 0.000000 0.571130
1.000000 0.000000 0.747982
1.000000 0.000000 0.884062
1.000000 0.000000 0.960571
1.000000 0.000000 1.000000
1.000000 0.000000 1.000000
1.000000 0.107485 1.000000
1.000000 0.307378 1.000000
1.000000 0.418860 1.000000
1.000000 0.518242 1.000000
1.000000 0.613642 1.000000
1.000000 0.703883 1.000000
1.000000 0.786160 1.000000
0.086641 0.119051 0.121828
0.087953 0.119570 0.122042
0.091310 0.120760 0.121279
0.100526 0.123079 0.120241
0.117952 0.125765 0.119265
0.155856 0.128359 0.117983
0.192477 0.136873 0.115358
0.239353 0.148562 0.114015
0.308415 0.165927 0.111818
0.397314 0.190341 0.106691
0.493599 0.222507 0.100404
0.610559 0.265263 0.089448
0.744991 0.320317 0.039338
0.827573 0.268681 0.128054
0.871519 0.107942 0.182895
0.902403 0.000000 0.214572
0.906218 0.000000 0.235630
0.942992 0.000000 0.314824
1.000000 0.000000 0.496162
1.000000 0.000000 0.687068
1.000000 0.000000 0.840818
1.000000 0.000000 0.932372
1.000000 0.000000 0.985290
1.000000 0.000000 1.000000
1.000000 0.097719 1.000000
1.000000 0.281376 1.000000
1.000000 0.387335 1.000000
1.000000 0.476265 1.000000
1.000000 0.561242 1.000000
1.000000 0.644556 1.000000
1.000000 0.724727 1.000000
1.000000 0.797910 1.000000
0.113954 0.145144 0.144564
0.115785 0.146456 0.145907
0.122011 0.148562 0.143313
0.136110 0.153719 0.140505
0.160342 0.159701 0.135500
0.196963 0.163851 0.128420
0.242496 0.159640 0.123262
0.312200 0.163180 0.124392
0.371649 0.189822 0.137179
0.445106 0.229618 0.156680
0.562402 0.274449 0.160891
0.680995 0.329015 0.173373
0.807950 0.389929 0.175357
0.854704 0.284581 0.236423
0.876829 0.100923 0.270726
0.895018 0.000000 0.285252
0.929229 0.000000 0.385382
1.000000 0.000000 0.543328
1.000000 0.000000 0.723751
1.000000 0.000000 0.848997
1.000000 0.000000 0.941039
1.000000 0.000000 0.987488
1.000000 0.502953 1.000000
1.000000 0.575463 1.000000
1.000000 0.641657 1.000000
1.000000 0.703059 1.000000
1.000000 0.760128 1.000000
1.000000 0.810178 1.000000
1.000000 0.854551 1.000000
1.000000 0.888151 1.000000
1.000000 0.914488 1.000000
1.000000 0.936004 1.000000
0.209476 0.232731 0.239139
0.209659 0.232578 0.240238
0.214084 0.236545 0.247715
0.220523 0.242618 0.258183
0.251194 0.260472 0.251072
0.297215 0.282353 0.241855
0.361273 0.305608 0.235325
0.437171 0.313939 0.229679
0.539269 0.299168 0.240330
0.620325 0.369055 0.298772
0.731930 0.456123 0.362249
0.844602 0.526055 0.388647
0.892149 0.438972 0.419013
0.903288 0.309453 0.422400
0.930022 0.224247 0.485542
0.978943 0.184939 0.621668
1.000000 0.192172 0.778500
1.000000 0.233677 0.899870
1.000000 0.305760 0.956603
1.000000 0.366186 0.984527
1.000000 0.416297 1.000000
1.000000 0.476570 1.000000
1.000000 0.545495 1.000000
1.000000 0.617121 1.000000
1.000000 0.684596 1.000000
1.000000 0.743160 1.000000
1.000000 0.791043 1.000000
1.000000 0.831785 1.000000
1.000000 0.867857 1.000000
1.000000 0.896513 1.000000
1.000000 0.917815 1.000000
1.000000 0.936797 1.000000
0.271183 0.393866 0.320653
0.274510 0.393927 0.322026
0.293614 0.394812 0.330236
0.313725 0.404730 0.346136
0.349554 0.418189 0.372930
0.394812 0.437263 0.412177
0.440253 0.460945 0.466224
0.498939 0.508843 0.509087
0.589410 0.561364 0.520836
0.675380 0.591363 0.549493
0.765194 0.649683 0.620752
0.842893 0.645411 0.640528
0.875517 0.559411 0.659510
0.920500 0.529961 0.752468
0.967559 0.529747 0.865690
0.952148 0.540520 0.905730
0.944549 0.533257 0.937804
0.953613 0.531548 0.961944
0.945922 0.536675 0.984436
0.957366 0.549920 1.000000
0.958801 0.575555 1.000000
0.968231 0.613214 1.000000
0.983185 0.659663 1.000000
0.994965 0.711666 1.000000
1.000000 0.760830 1.000000
1.000000 0.802060 1.000000
1.000000 0.836423 1.000000
1.000000 0.865599 1.000000
1.000000 0.892546 1.000000
1.000000 0.915373 1.000000
1.000000 0.931640 1.000000
1.000000 0.945464 1.000000
0.000000 0.528405 0.483986
0.000000 0.530358 0.483711
0.000000 0.536858 0.484230
0.000000 0.546868 0.499947
0.000000 0.564508 0.520073
0.000000 0.590875 0.544060
0.044007 0.626886 0.574914
0.316564 0.670649 0.622187
0.483314 0.721889 0.680476
0.619867 0.773373 0.752010
0.747402 0.785397 0.810666
0.798581 0.848020 0.876371
0.767910 0.832975 0.904112
0.731044 0.816770 0.928344
0.691127 0.799588 0.948699
0.668482 0.767880 0.966033
0.681086 0.734981 0.981323
0.708980 0.720150 0.994659
0.755184 0.713191 1.000000
0.789517 0.714961 1.000000
0.827604 0.727199 1.000000
0.863310 0.748928 1.000000
0.901366 0.777218 1.000000
0.934051 0.809140 1.000000
0.962951 0.839109 1.000000
0.985779 0.864012 1.000000
1.000000 0.885405 1.000000
1.000000 0.904265 1.000000
1.000000 0.921569 1.000000
1.000000 0.936858 1.000000
1.000000 0.949004 1.000000
1.000000 0.957641 1.000000
0.000000 0.370977 0.583948
0.000000 0.371710 0.584466
0.000000 0.375677 0.587549
0.000000 0.390509 0.600916
0.000000 0.413794 0.621607
0.000000 0.446784 0.649622
0.000000 0.499336 0.690242
0.146731 0.571527 0.739742
0.380072 0.665064 0.796048
0.523064 0.751278 0.849271
0.658991 0.829801 0.893797
0.730983 0.880522 0.926360
0.803555 0.913634 0.951995
0.816373 0.913329 0.967346
0.789487 0.901396 0.977691
0.769863 0.890440 0.987396
0.752132 0.881468 0.997894
0.744625 0.874846 1.000000
0.741024 0.871916 1.000000
0.752224 0.872496 1.000000
0.768460 0.876707 1.000000
0.795499 0.868437 1.000000
0.839445 0.865934 1.000000
0.887877 0.878080 1.000000
0.930144 0.891173 1.000000
0.962799 0.903624 1.000000
0.983429 0.916442 1.000000
0.998230 0.928710 1.000000
1.000000 0.940764 1.000000
1.000000 0.951995 1.000000
1.000000 0.961791 1.000000
1.000000 0.967620 1.000000
0.000000 0.506981 0.742885
0.000000 0.508080 0.743526
0.000000 0.513298 0.746731
0.000000 0.526757 0.758145
0.000000 0.547112 0.773312
0.000000 0.575982 0.793820
0.000000 0.614557 0.817899
0.000000 0.663508 0.847166
0.000000 0.719844 0.877012
0.288548 0.781277 0.905455
0.499702 0.840665 0.930388
0.658656 0.890257 0.952941
0.749691 0.921630 0.971069
0.817960 0.943145 0.987457
0.865873 0.950317 1.000000
0.854734 0.944457 1.000000
0.843656 0.938628 1.000000
0.840696 0.934234 1.000000
0.839780 0.931060 1.000000
0.845090 0.929717 1.000000
0.852659 0.930175 1.000000
0.865324 0.932586 1.000000
0.882353 0.937011 1.000000
0.899657 0.942260 1.000000
0.919738 0.936797 1.000000
0.949584 0.942016 1.000000
0.971923 0.948119 1.000000
0.987060 0.954467 1.000000
0.996765 0.961151 1.000000
1.000000 0.967651 1.000000
1.000000 0.973602 1.000000
1.000000 0.977295 1.000000
0.000000 0.602625 0.853788
0.000000 0.603601 0.854215
0.000000 0.609705 0.858030
0.000000 0.619684 0.863371
0.000000 0.636042 0.871672
0.000000 0.659968 0.883726
0.000000 0.690852 0.897734
0.000000 0.728450 0.913359
0.000000 0.772000 0.929717
0.000000 0.818051 0.945861
0.360876 0.862882 0.961059
0.574945 0.901152 0.975433
0.838865 0.964691 1.000000
0.892210 0.974304 1.000000
0.928222 0.980621 1.000000
0.950378 0.982879 1.000000
0.958801 0.983551 1.000000
0.957244 0.982177 1.000000
0.956786 0.981140 1.000000
0.957519 0.980499 1.000000
0.959411 0.980285 1.000000
0.962005 0.980468 1.000000
0.965332 0.980987 1.000000
0.969207 0.981811 1.000000
0.972930 0.982757 1.000000
0.976349 0.983703 1.000000
0.980438 0.982330 1.000000
0.987274 0.983215 1.000000
0.992645 0.984375 1.000000
0.996735 0.985840 1.000000
0.999725 0.987427 1.000000
1.000000 0.988891 1.000000
0.000000 0.766873 0.966644
0.000000 0.766720 0.966278
0.000000 0.767361 0.965789
0.000000 0.771359 0.965911
0.000000 0.777859 0.966308
0.000000 0.789242 0.967926
0.000000 0.806821 0.971679
0.000000 0.829343 0.976562
0.000000 0.857420 0.983764
0.000000 0.887633 0.992554
0.453285 0.916411 1.000000
0.646540 0.940826 1.000000
0.783993 0.959014 1.000000
0.871244 0.971923 1.000000
0.917906 0.979828 1.000000
0.945647 0.984863 1.000000
0.962219 0.986786 1.000000
0.972503 0.988281 1.000000
0.972259 0.987579 1.000000
0.972015 0.986969 1.000000
0.972503 0.986572 1.000000
0.973693 0.986450 1.000000
0.975433 0.986572 1.000000
0.977691 0.986938 1.000000
0.980041 0.987396 1.000000
0.982300 0.987945 1.000000
0.984497 0.988586 1.000000
0.987549 0.987884 1.000000
0.992065 0.988586 1.000000
0.995605 0.989532 1.000000
0.998383 0.990570 1.000000
1.000000 0.991638 1.000000
0.000000 0.826993 0.994079
0.000000 0.825895 0.993469
0.000000 0.824857 0.992309
0.000000 0.826719 0.991943
0.000000 0.829923 0.991363
0.000000 0.836088 0.991150
0.000000 0.847745 0.992798
0.000000 0.863828 0.995880
0.000000 0.884123 1.000000
0.000000 0.906401 1.000000
0.459663 0.928038 1.000000
0.647272 0.946929 1.000000
0.776944 0.961669 1.000000
0.862119 0.972564 1.000000
0.915343 0.980102 1.000000
0.944213 0.984863 1.000000
0.961242 0.988128 1.000000
0.972045 0.989746 1.000000
0.979339 0.990875 1.000000
0.981659 0.991089 1.000000
0.981659 0.990753 1.000000
0.982300 0.990600 1.000000
0.983276 0.990631 1.000000
0.984527 0.990784 1.000000
0.985931 0.991028 1.000000
0.987335 0.991363 1.000000
0.988708 0.991699 1.000000
0.990082 0.992126 1.000000
0.992523 0.991821 1.000000
0.995331 0.992370 1.000000
0.997681 0.993011 1.000000
0.999573 0.993713 1.000000
0.000000 0.877684 1.000000
0.000000 0.877501 1.000000
0.000000 0.876738 1.000000
0.000000 0.876768 1.000000
0.000000 0.878019 1.000000
0.000000 0.881346 1.000000
0.000000 0.888609 1.000000
0.000000 0.898466 1.000000
0.000000 0.911925 1.000000
0.336461 0.927001 1.000000
0.543572 0.942046 1.000000
0.689967 0.955596 1.000000
0.795590 0.966735 1.000000
0.868254 0.975067 1.000000
0.915801 0.981140 1.000000
0.945464 0.985504 1.000000
0.962524 0.988495 1.000000
0.972808 0.990661 1.000000
0.979797 0.992035 1.000000
0.984527 0.992828 1.000000
0.987579 0.993469 1.000000
0.987915 0.993347 1.000000
0.988403 0.993317 1.000000
0.989105 0.993347 1.000000
0.989929 0.993469 1.000000
0.990784 0.993652 1.000000
0.991760 0.993896 1.000000
0.992676 0.994202 1.000000
0.993744 0.994354 1.000000
0.995697 0.994568 1.000000
0.997559 0.995056 1.000000
0.999084 0.995575 1.000000
0.000000 0.912871 1.000000
0.000000 0.913176 1.000000
0.000000 0.913725 1.000000
0.000000 0.914885 1.000000
0.000000 0.916716 1.000000
0.000000 0.920287 1.000000
0.000000 0.926146 1.000000
0.252995 0.933104 1.000000
0.435706 0.941650 1.000000
0.568505 0.950286 1.000000
0.677150 0.958648 1.000000
0.765774 0.966217 1.000000
0.834073 0.972717 1.000000
0.884276 0.978119 1.000000
0.920409 0.982483 1.000000
0.945403 0.985931 1.000000
0.962676 0.988708 1.000000
0.973327 0.990814 1.000000
0.980011 0.992401 1.000000
0.984802 0.993622 1.000000
0.988281 0.994293 1.000000
0.990967 0.994965 1.000000
0.991760 0.995117 1.000000
0.992218 0.995148 1.000000
0.992798 0.995270 1.000000
0.993408 0.995392 1.000000
0.994018 0.995575 1.000000
0.994690 0.995789 1.000000
0.995331 0.996063 1.000000
0.996277 0.996063 1.000000
0.997711 0.996368 1.000000
0.998901 0.996704 1.000000
0.108248 0.937652 1.000000
0.125093 0.937804 1.000000
0.165347 0.938231 1.000000
0.219242 0.938964 1.000000
0.288151 0.940764 1.000000
0.361517 0.943328 1.000000
0.441352 0.946960 1.000000
0.524559 0.951385 1.000000
0.607691 0.956451 1.000000
0.685542 0.961730 1.000000
0.756008 0.967224 1.000000
0.816190 0.972320 1.000000
0.865141 0.976959 1.000000
0.902556 0.980957 1.000000
0.930510 0.984314 1.000000
0.950622 0.987091 1.000000
0.964843 0.989380 1.000000
0.974853 0.991272 1.000000
0.981445 0.992767 1.000000
0.985626 0.993927 1.000000
0.988952 0.994934 1.000000
0.991394 0.995544 1.000000
0.993225 0.996094 1.000000
0.994293 0.996399 1.000000
0.994690 0.996460 1.000000
0.995117 0.996582 1.000000
0.995575 0.996704 1.000000
0.996033 0.996887 1.000000
0.996490 0.997070 1.000000
0.996979 0.997223 1.000000
0.997955 0.997345 1.000000
0.998932 0.997559 1.000000
0.564355 0.958038 1.000000
0.570153 0.958404 1.000000
0.779629 0.973968 1.000000
0.785489 0.974334 1.000000
0.794247 0.974884 1.000000
0.805936 0.975525 1.000000
0.821561 0.976501 1.000000
0.841123 0.977844 1.000000
0.863401 0.979553 1.000000
0.886656 0.981506 1.000000
0.908721 0.983520 1.000000
0.928252 0.985504 1.000000
0.944060 0.987304 1.000000
0.956725 0.988952 1.000000
0.966430 0.990387 1.000000
0.973785 0.991608 1.000000
0.979370 0.992706 1.000000
0.983703 0.993652 1.000000
0.987060 0.994507 1.000000
0.989654 0.995270 1.000000
0.991547 0.995880 1.000000
0.993164 0.996490 1.000000
0.994476 0.996948 1.000000
0.995544 0.997253 1.000000
0.996338 0.997528 1.000000
0.996551 0.997589 1.000000
0.996796 0.997620 1.000000
0.997070 0.997711 1.000000
0.997375 0.997833 1.000000
0.997711 0.997955 1.000000
0.998260 0.998016 1.000000
0.999023 0.998199 1.000000
0.787289 0.973846 1.000000
0.799985 0.974884 1.000000
0.814359 0.976013 1.000000
0.828672 0.977173 1.000000
0.842374 0.978241 1.000000
0.853422 0.979065 1.000000
0.864683 0.979858 1.000000
0.877226 0.980804 1.000000
0.892180 0.982055 1.000000
0.908080 0.983490 1.000000
0.923980 0.985107 1.000000
0.938537 0.986694 1.000000
0.950835 0.988190 1.000000
0.960998 0.989563 1.000000
0.969085 0.990845 1.000000
0.975494 0.991943 1.000000
0.980499 0.992950 1.000000
0.984436 0.993835 1.000000
0.987579 0.994659 1.000000
0.990082 0.995422 1.000000
0.992035 0.996063 1.000000
0.993530 0.996612 1.000000
0.994751 0.997101 1.000000
0.995727 0.997528 1.000000
0.996521 0.997803 1.000000
0.997162 0.998047 1.000000
0.997467 0.998138 1.000000
0.997681 0.998199 1.000000
0.997925 0.998291 1.000000
0.998199 0.998413 1.000000
0.998505 0.998474 1.000000
0.999145 0.998596 1.000000
0.852811 0.978546 1.000000
0.862089 0.979431 1.000000
0.872251 0.980377 1.000000
0.882383 0.981323 1.000000
0.891630 0.982177 1.000000
0.898985 0.982818 1.000000
0.906188 0.983429 1.000000
0.914092 0.984161 1.000000
0.923247 0.985077 1.000000
0.933104 0.986114 1.000000
0.943236 0.987243 1.000000
0.952911 0.988464 1.000000
0.961334 0.989654 1.000000
0.968627 0.990753 1.000000
0.974548 0.991791 1.000000
0.979339 0.992706 1.000000
0.983154 0.993561 1.000000
0.986267 0.994324 1.000000
0.988830 0.995026 1.000000
0.990906 0.995666 1.000000
0.992615 0.996246 1.000000
0.993957 0.996796 1.000000
0.995056 0.997253 1.000000
0.995972 0.997650 1.000000
0.996704 0.997986 1.000000
0.997314 0.998260 1.000000
0.997833 0.998444 1.000000
0.998169 0.998566 1.000000
0.998352 0.998657 1.000000
0.998566 0.998749 1.000000
0.998779 0.998840 1.000000
0.999268 0.998932 1.000000
0.902617 0.982666 1.000000
0.908141 0.983276 1.000000
0.914366 0.983978 1.000000
0.920592 0.984680 1.000000
0.926116 0.985290 1.000000
0.930755 0.985809 1.000000
0.935332 0.986267 1.000000
0.940307 0.986816 1.000000
0.946166 0.987518 1.000000
0.952300 0.988281 1.000000
0.958770 0.989197 1.000000
0.964965 0.990112 1.000000
0.970581 0.991028 1.000000
0.975494 0.991913 1.000000
0.979675 0.992767 1.000000
0.983215 0.993561 1.000000
0.986236 0.994324 1.000000
0.988769 0.995026 1.000000
0.990875 0.995666 1.000000
0.992584 0.996277 1.000000
0.993988 0.996826 1.000000
0.995117 0.997284 1.000000
0.996002 0.997681 1.000000
0.996765 0.998047 1.000000
0.997345 0.998322 1.000000
0.997833 0.998596 1.000000
0.998260 0.998810 1.000000
0.998627 0.998962 1.000000
0.998901 0.999115 1.000000
0.999054 0.999176 1.000000
0.999176 0.999268 1.000000
0.999481 0.999298 1.000000
0.956023 0.988830 1.000000
0.957122 0.989014 1.000000
0.958282 0.989197 1.000000
0.959472 0.989349 1.000000
0.960784 0.989532 1.000000
0.962158 0.989746 1.000000
0.963867 0.989990 1.000000
0.966064 0.990295 1.000000
0.968811 0.990753 1.000000
0.972015 0.991272 1.000000
0.975341 0.991913 1.000000
0.978515 0.992523 1.000000
0.981384 0.993133 1.000000
0.984009 0.993744 1.000000
0.986297 0.994324 1.000000
0.988312 0.994873 1.000000
0.990021 0.995422 1.000000
0.991547 0.995911 1.000000
0.992859 0.996368 1.000000
0.993988 0.996796 1.000000
0.994934 0.997192 1.000000
0.995758 0.997559 1.000000
0.996429 0.997894 1.000000
0.997009 0.998169 1.000000
0.997528 0.998413 1.000000
0.997955 0.998657 1.000000
0.998383 0.998840 1.000000
0.998688 0.999054 1.000000
0.999023 0.999207 1.000000
0.999237 0.999359 1.000000
0.999359 0.999420 1.000000
0.999573 0.999451 1.000000
0.970916 0.990936 1.000000
0.971496 0.991058 1.000000
0.972168 0.991180 1.000000
0.972961 0.991333 1.000000
0.973724 0.991485 1.000000
0.974578 0.991638 1.000000
0.975647 0.991821 1.000000
0.976959 0.992096 1.000000
0.978607 0.992401 1.000000
0.980499 0.992828 1.000000
0.982483 0.993286 1.000000
0.984466 0.993744 1.000000
0.986297 0.994232 1.000000
0.988006 0.994720 1.000000
0.989563 0.995209 1.000000
0.990997 0.995636 1.000000
0.992218 0.996063 1.000000
0.993286 0.996490 1.000000
0.994263 0.996887 1.000000
0.995117 0.997223 1.000000
0.995850 0.997559 1.000000
0.996490 0.997864 1.000000
0.997040 0.998138 1.000000
0.997467 0.998383 1.000000
0.997650 0.998474 1.000000
0.998047 0.998657 1.000000
0.998444 0.998871 1.000000
0.998779 0.999054 1.000000
0.999054 0.999237 1.000000
0.999298 0.999390 1.000000
0.999512 0.999542 1.000000
0.999634 0.999603 1.000000
0.983825 0.993530 1.000000
0.984314 0.993683 1.000000
0.984619 0.993744 1.000000
0.984741 0.993774 1.000000
0.984771 0.993805 1.000000
0.984863 0.993774 1.000000
0.984955 0.993805 1.000000
0.985290 0.993866 1.000000
0.985779 0.993988 1.000000
0.986511 0.994171 1.000000
0.987366 0.994385 1.000000
0.988373 0.994690 1.000000
0.989410 0.994995 1.000000
0.990417 0.995331 1.000000
0.991333 0.995666 1.000000
0.992279 0.995972 1.000000
0.993164 0.996307 1.000000
0.994018 0.996643 1.000000
0.994812 0.997009 1.000000
0.995575 0.997345 1.000000
0.996246 0.997681 1.000000
0.996796 0.997955 1.000000
0.997253 0.998199 1.000000
0.997681 0.998413 1.000000
0.997955 0.998596 1.000000
0.998260 0.998749 1.000000
0.998535 0.998932 1.000000
0.998840 0.999084 1.000000
0.999115 0.999237 1.000000
0.999329 0.999390 1.000000
0.999512 0.999542 1.000000
0.999634 0.999603 1.000000
0.987488 0.994263 1.000000
0.987793 0.994385 1.000000
0.988067 0.994507 1.000000
0.988251 0.994537 1.000000
0.988434 0.994598 1.000000
0.988647 0.994659 1.000000
0.988952 0.994751 1.000000
0.989410 0.994903 1.000000
0.989899 0.995056 1.000000
0.990509 0.995270 1.000000
0.991180 0.995483 1.000000
0.991852 0.995758 1.000000
0.992523 0.996002 1.000000
0.993164 0.996246 1.000000
0.993774 0.996490 1.000000
0.994354 0.996704 1.000000
0.994903 0.996979 1.000000
0.995453 0.997223 1.000000
0.996002 0.997498 1.000000
0.996551 0.997772 1.000000
0.997040 0.998016 1.000000
0.997436 0.998260 1.000000
0.997833 0.998474 1.000000
0.998138 0.998657 1.000000
0.998413 0.998810 1.000000
0.998596 0.998962 1.000000
0.998840 0.999084 1.000000
0.999023 0.999207 1.000000
0.999268 0.999329 1.000000
0.999390 0.999481 1.000000
0.999603 0.999634 1.000000
0.999695 0.999664 1.000000
0.990753 0.995270 1.000000
0.990906 0.995331 1.000000
0.990997 0.995361 1.000000
0.991089 0.995392 1.000000
0.991180 0.995422 1.000000
0.991302 0.995483 1.000000
0.991455 0.995514 1.000000
0.991730 0.995605 1.000000
0.992035 0.995727 1.000000
0.992462 0.995911 1.000000
0.992920 0.996063 1.000000
0.993408 0.996277 1.000000
0.993896 0.996490 1.000000
0.994354 0.996674 1.000000
0.994842 0.996887 1.000000
0.995270 0.997070 1.000000
0.995697 0.997284 1.000000
0.996124 0.997498 1.000000
0.996582 0.997711 1.000000
0.996979 0.997955 1.000000
0.997406 0.998169 1.000000
0.997742 0.998383 1.000000
0.998047 0.998566 1.000000
0.998322 0.998749 1.000000
0.998566 0.998901 1.000000
0.998749 0.999023 1.000000
0.998932 0.999115 1.000000
0.999084 0.999237 1.000000
0.999237 0.999390 1.000000
0.999451 0.999603 1.000000
0.999664 0.999664 1.000000
0.999695 0.999695 1.000000
0.992340 0.995789 1.000000
0.992432 0.995819 1.000000
0.992523 0.995850 1.000000
0.992645 0.995911 1.000000
0.992798 0.995972 1.000000
0.993011 0.996033 1.000000
0.993347 0.996216 1.000000
0.993744 0.996399 1.000000
0.994232 0.996612 1.000000
0.994751 0.996857 1.000000
0.995239 0.997101 1.000000
0.995697 0.997345 1.000000
0.996124 0.997559 1.000000
0.996490 0.997772 1.000000
0.996796 0.997925 1.000000
0.997040 0.998047 1.000000
0.997314 0.998199 1.000000
0.997559 0.998322 1.000000
0.997772 0.998474 1.000000
0.998077 0.998657 1.000000
0.998322 0.998871 1.000000
0.998535 0.999054 1.000000
0.998749 0.999207 1.000000
0.998901 0.999359 1.000000
0.999054 0.999451 1.000000
0.999207 0.999542 1.000000
0.999329 0.999634 1.000000
0.999451 0.999664 1.000000
0.999573 0.999695 1.000000
0.999664 0.999725 1.000000
0.999756 0.999756 1.000000
0.999756 0.999786 1.000000
0.996429 0.998566 1.000000
0.996429 0.998566 1.000000
0.996429 0.998566 1.000000
0.996429 0.998566 1.000000
0.996490 0.998566 1.000000
0.996521 0.998596 1.000000
0.996582 0.998627 1.000000
0.996704 0.998688 1.000000
0.996826 0.998749 1.000000
0.996979 0.998840 1.000000
0.997162 0.998871 1.000000
0.997345 0.998962 1.000000
0.997528 0.999054 1.000000
0.997711 0.999145 1.000000
