20 Preset/City Style/【3】LUT video cho PR-AE-FCPX/TONE 3/Dubai I Tron.cube
# Created by Adobe Lightroom plugin Export LUT (1.24.0)
# www.johnrellis.com/lightroom/exportlut.htm
# Preset: Dubai I Tron
# Color profile: E:\lut插件\exportlut.1.24\exportlut.lrplugin\color profiles\Rec709gamma2.4.icc
LUT_3D_SIZE 32
DOMAIN_MIN 0.0 0.0 0.0
DOMAIN_MAX 1.0 1.0 1.0
0.098238 0.105013 0.113497
0.098238 0.105013 0.113497
0.098238 0.105013 0.113497
0.095155 0.104982 0.113252
0.078401 0.104891 0.111543
0.070039 0.102846 0.109316
0.093019 0.098329 0.105989
0.119783 0.093019 0.102968
0.151980 0.086641 0.100923
0.190707 0.067964 0.099306
0.237522 0.031189 0.098238
0.292973 0.000000 0.098329
0.359380 0.000000 0.099825
0.437293 0.000000 0.102510
0.525994 0.000000 0.105776
0.625299 0.000000 0.110628
0.733455 0.000000 0.116670
0.844541 0.000000 0.124758
0.946410 0.000000 0.132906
1.000000 0.000000 0.143893
1.000000 0.000000 0.157076
1.000000 0.000000 0.172457
1.000000 0.000000 0.189212
1.000000 0.000000 0.212680
1.000000 0.000000 0.241581
1.000000 0.000000 0.269993
1.000000 0.000000 0.298955
1.000000 0.000000 0.327398
1.000000 0.000000 0.357244
1.000000 0.196536 0.389715
1.000000 0.336400 0.425666
1.000000 0.436011 0.466896
0.098238 0.105013 0.113497
0.098238 0.105013 0.113497
0.098238 0.105013 0.113497
0.093416 0.105470 0.113527
0.076265 0.104952 0.111879
0.072053 0.102083 0.108736
0.091890 0.098085 0.105684
0.117586 0.093782 0.102937
0.148196 0.088411 0.100893
0.185428 0.074617 0.099245
0.230228 0.039460 0.098360
0.282719 0.000000 0.098482
0.346288 0.000000 0.099763
0.422004 0.000000 0.102327
0.507683 0.000000 0.105898
0.604730 0.000000 0.111116
0.711421 0.000000 0.116915
0.821866 0.000000 0.124422
0.926055 0.000000 0.132570
1.000000 0.000000 0.143069
1.000000 0.000000 0.155123
1.000000 0.000000 0.169619
1.000000 0.000000 0.185580
1.000000 0.000000 0.207340
1.000000 0.000000 0.233188
1.000000 0.000000 0.258793
1.000000 0.000000 0.284916
1.000000 0.000000 0.311254
1.000000 0.000000 0.339025
1.000000 0.039094 0.369635
1.000000 0.288182 0.404211
1.000000 0.399237 0.443153
0.097353 0.103761 0.113069
0.096773 0.103822 0.112734
0.097322 0.103456 0.111818
0.094179 0.102022 0.110780
0.081575 0.099489 0.109621
0.080079 0.098177 0.106813
0.095094 0.097047 0.104067
0.119295 0.094728 0.101686
0.149905 0.091432 0.099397
0.186465 0.083833 0.098238
0.229953 0.062165 0.097688
0.282170 0.018372 0.098451
0.345220 0.000000 0.100282
0.419532 0.000000 0.103517
0.504784 0.000000 0.107790
0.599847 0.000000 0.112703
0.705867 0.000000 0.119814
0.815457 0.000000 0.126772
0.919677 0.000000 0.134432
1.000000 0.000000 0.144869
1.000000 0.000000 0.157748
1.000000 0.000000 0.171939
1.000000 0.000000 0.186526
1.000000 0.000000 0.209171
1.000000 0.000000 0.233310
1.000000 0.000000 0.256382
1.000000 0.000000 0.281254
1.000000 0.000000 0.306279
1.000000 0.000000 0.333013
1.000000 0.002045 0.363043
1.000000 0.281346 0.396185
1.000000 0.391852 0.433631
0.090333 0.096742 0.104860
0.090700 0.096315 0.104555
0.090944 0.096345 0.103883
0.089937 0.096071 0.103212
0.089326 0.095399 0.102205
0.087037 0.094484 0.101656
0.102541 0.097444 0.100649
0.125826 0.099489 0.099123
0.156405 0.099794 0.097688
0.192996 0.098054 0.097444
0.237308 0.091310 0.097993
0.290715 0.064668 0.099367
0.354437 0.000000 0.102388
0.428656 0.000000 0.106416
0.512200 0.000000 0.111086
0.606073 0.000000 0.117372
0.708156 0.000000 0.124086
0.813565 0.000000 0.131868
0.914092 0.000000 0.139803
1.000000 0.000000 0.149783
1.000000 0.000000 0.160830
1.000000 0.000000 0.174777
1.000000 0.000000 0.189700
1.000000 0.000000 0.211856
1.000000 0.000000 0.234409
1.000000 0.000000 0.258457
1.000000 0.000000 0.283726
1.000000 0.000000 0.309422
1.000000 0.000000 0.336553
1.000000 0.175418 0.366186
1.000000 0.313451 0.398260
1.000000 0.407813 0.432898
0.087984 0.094057 0.100618
0.087984 0.094057 0.100618
0.087984 0.094057 0.100618
0.088594 0.093996 0.100954
0.088228 0.094392 0.101289
0.088716 0.094728 0.101228
0.095857 0.096620 0.102327
0.122652 0.103487 0.101198
0.162112 0.115724 0.098787
0.200320 0.118593 0.099550
0.245792 0.117067 0.101106
0.301030 0.109407 0.104128
0.366674 0.088746 0.108095
0.443000 0.000000 0.113069
0.529778 0.000000 0.119875
0.625879 0.000000 0.126284
0.729427 0.000000 0.133883
0.834012 0.000000 0.140749
0.931182 0.000000 0.148989
1.000000 0.000000 0.159213
1.000000 0.000000 0.171695
1.000000 0.000000 0.184939
1.000000 0.000000 0.201328
1.000000 0.000000 0.223697
1.000000 0.000000 0.246159
1.000000 0.000000 0.269230
1.000000 0.000000 0.293492
1.000000 0.000000 0.318273
1.000000 0.055848 0.344793
1.000000 0.265263 0.372930
1.000000 0.361761 0.403418
1.000000 0.440497 0.436469
0.097200 0.103822 0.111452
0.097780 0.103761 0.111788
0.096986 0.103822 0.112093
0.097658 0.104433 0.112642
0.098116 0.105013 0.113802
0.099428 0.106172 0.114839
0.100496 0.107332 0.116487
0.104921 0.110933 0.120363
0.146365 0.120027 0.119448
0.200137 0.135164 0.117433
0.271153 0.155184 0.113527
0.332647 0.154269 0.117556
0.403418 0.146914 0.121736
0.485512 0.123995 0.127626
0.577966 0.022248 0.134798
0.676326 0.000000 0.140658
0.780728 0.000000 0.148623
0.881193 0.000000 0.155612
0.971038 0.000000 0.165408
1.000000 0.000000 0.175448
1.000000 0.000000 0.188418
1.000000 0.000000 0.202487
1.000000 0.000000 0.268254
1.000000 0.000000 0.306035
1.000000 0.168887 0.341161
1.000000 0.287205 0.374212
1.000000 0.363928 0.407172
1.000000 0.426612 0.438178
1.000000 0.483589 0.470924
1.000000 0.536156 0.503380
1.000000 0.585107 0.537316
1.000000 0.629572 0.571588
0.132998 0.140383 0.154330
0.132662 0.140200 0.154574
0.133822 0.140932 0.155642
0.134371 0.141512 0.156374
0.135317 0.142489 0.157595
0.136690 0.143832 0.158968
0.139284 0.146059 0.161715
0.140352 0.147189 0.163058
0.142672 0.149569 0.165866
0.195987 0.163180 0.170443
0.282811 0.185153 0.169345
0.394537 0.219364 0.164767
0.525597 0.257206 0.154818
0.620447 0.246738 0.158816
0.718013 0.224643 0.163210
0.814694 0.184695 0.169680
0.905028 0.116548 0.176669
0.985077 0.000000 0.185580
1.000000 0.000000 0.197177
1.000000 0.000000 0.210330
1.000000 0.000000 0.225834
1.000000 0.000000 0.254307
1.000000 0.151644 0.288548
1.000000 0.271153 0.324468
1.000000 0.348913 0.360204
1.000000 0.408881 0.394263
1.000000 0.456794 0.424689
1.000000 0.500298 0.452522
1.000000 0.541466 0.480995
1.000000 0.579370 0.509239
1.000000 0.617365 0.539055
1.000000 0.654047 0.570123
0.187778 0.192264 0.207187
0.187411 0.191836 0.207645
0.185641 0.190768 0.209903
0.185794 0.191531 0.212650
0.186893 0.192691 0.213901
0.188418 0.194217 0.215457
0.189151 0.195254 0.216464
0.191958 0.198093 0.219425
0.194339 0.200504 0.222019
0.195315 0.201480 0.222965
0.232670 0.217502 0.233158
0.344457 0.246952 0.233188
0.475959 0.284764 0.228397
0.631464 0.331914 0.217655
0.777310 0.368658 0.204868
0.864775 0.354681 0.208621
0.943999 0.336217 0.214206
1.000000 0.318914 0.221012
1.000000 0.302770 0.232456
1.000000 0.295354 0.244816
1.000000 0.324834 0.270451
1.000000 0.363806 0.299351
1.000000 0.408118 0.330846
1.000000 0.452461 0.365698
1.000000 0.493416 0.399390
1.000000 0.528069 0.429572
1.000000 0.558556 0.456092
1.000000 0.585229 0.480415
1.000000 0.613275 0.506737
1.000000 0.640955 0.532372
1.000000 0.668635 0.559197
1.000000 0.696284 0.586328
0.268101 0.278843 0.281071
0.267979 0.278569 0.281651
0.266514 0.277012 0.283940
0.265232 0.276768 0.289891
0.263127 0.276432 0.296025
0.263371 0.276646 0.296239
0.262943 0.276249 0.295872
0.264652 0.278050 0.297581
0.266697 0.280339 0.299809
0.269291 0.283146 0.302464
0.269596 0.283604 0.302892
0.280949 0.295995 0.314855
0.406653 0.325902 0.315251
0.560571 0.366094 0.312016
0.728756 0.416022 0.303990
0.879820 0.475868 0.288884
0.980560 0.516045 0.277897
1.000000 0.505852 0.283391
1.000000 0.509972 0.296300
1.000000 0.521477 0.316381
1.000000 0.537530 0.339391
1.000000 0.556664 0.366461
1.000000 0.578729 0.395758
1.000000 0.602991 0.427527
1.000000 0.625818 0.457771
1.000000 0.643519 0.483711
1.000000 0.660517 0.506584
1.000000 0.676234 0.528344
1.000000 0.693233 0.550378
1.000000 0.710567 0.572107
1.000000 0.729091 0.595422
1.000000 0.747799 0.618555
0.377264 0.394018 0.377539
0.376593 0.393011 0.377569
0.374273 0.390326 0.379034
0.373358 0.389380 0.385046
0.367926 0.385473 0.392950
0.361547 0.381170 0.396948
0.360082 0.379583 0.395483
0.359442 0.378973 0.394842
0.359869 0.379492 0.395331
0.360510 0.380072 0.395880
0.361181 0.380835 0.396643
0.360082 0.379583 0.395483
0.361822 0.381415 0.397192
0.457282 0.409186 0.406897
0.630274 0.451392 0.406043
0.796414 0.502190 0.400122
0.943481 0.575708 0.402808
1.000000 0.650111 0.404150
1.000000 0.700710 0.413428
1.000000 0.702693 0.426062
1.000000 0.705623 0.443336
1.000000 0.708888 0.461921
1.000000 0.714839 0.481392
1.000000 0.721126 0.502434
1.000000 0.728389 0.522240
1.000000 0.734432 0.539025
1.000000 0.741390 0.557427
1.000000 0.749355 0.574273
1.000000 0.759121 0.593194
1.000000 0.770199 0.613092
1.000000 0.782376 0.633082
1.000000 0.795377 0.654231
0.497780 0.511559 0.479652
0.497597 0.510918 0.480049
0.496040 0.508751 0.482368
0.496162 0.508690 0.488716
0.492897 0.505364 0.498054
0.486915 0.502403 0.511498
0.482185 0.499214 0.513054
0.480934 0.498024 0.511864
0.480232 0.497353 0.511192
0.479408 0.496559 0.510430
0.478004 0.495216 0.509087
0.480354 0.497475 0.511345
0.479835 0.496956 0.510796
0.480507 0.497597 0.511467
0.527733 0.522972 0.531945
0.718959 0.570397 0.535943
0.876432 0.626734 0.540673
0.982483 0.684443 0.544396
1.000000 0.741878 0.551873
1.000000 0.791775 0.561913
1.000000 0.823758 0.575647
1.000000 0.821012 0.584070
1.000000 0.820035 0.594537
1.000000 0.819455 0.606439
1.000000 0.819394 0.618372
1.000000 0.819303 0.628962
1.000000 0.819883 0.638636
1.000000 0.821439 0.649073
1.000000 0.824643 0.661189
1.000000 0.829557 0.675319
1.000000 0.835477 0.689815
1.000000 0.842191 0.704494
0.637537 0.643793 0.608240
0.637446 0.643641 0.608911
0.637537 0.643366 0.612085
0.636896 0.642115 0.618036
0.633753 0.639185 0.627375
0.631708 0.638788 0.642573
0.629694 0.640406 0.658900
0.633356 0.643885 0.662684
0.636805 0.647242 0.666285
0.640986 0.651331 0.670680
0.643793 0.653986 0.673579
0.644800 0.654994 0.674678
0.758206 0.765438 0.795132
0.752560 0.759915 0.789090
0.743435 0.751034 0.779416
0.747189 0.754665 0.783413
0.857359 0.782559 0.788083
0.950408 0.816617 0.790158
1.000000 0.847959 0.794156
1.000000 0.874662 0.799893
1.000000 0.895995 0.806943
1.000000 0.912596 0.815000
1.000000 0.925078 0.822843
1.000000 0.920592 0.818997
1.000000 0.916258 0.815915
1.000000 0.911742 0.812070
1.000000 0.907622 0.808621
1.000000 0.903868 0.804837
1.000000 0.900969 0.802640
1.000000 0.899260 0.802518
1.000000 0.898711 0.804471
1.000000 0.899474 0.808499
0.834531 0.836637 0.836576
0.833921 0.835996 0.836271
0.832029 0.834012 0.836210
0.829221 0.831052 0.837339
0.824949 0.827054 0.839841
0.819333 0.822843 0.844816
0.813169 0.819364 0.852750
0.810056 0.816312 0.849546
0.809110 0.815366 0.848539
0.810239 0.816464 0.849699
0.813596 0.819760 0.853147
0.819120 0.825162 0.858793
0.823178 0.829191 0.862943
0.825956 0.831907 0.865721
0.823514 0.829496 0.863249
0.816556 0.822660 0.856168
0.811124 0.817350 0.850614
0.855070 0.829618 0.854856
0.937743 0.853117 0.854490
0.985901 0.874907 0.855070
1.000000 0.894072 0.856901
1.000000 0.910216 0.860197
1.000000 0.922820 0.863401
1.000000 0.932677 0.866697
1.000000 0.940002 0.868833
1.000000 0.938628 0.864805
1.000000 0.934813 0.859037
1.000000 0.931243 0.853758
1.000000 0.928191 0.849546
1.000000 0.926024 0.847379
1.000000 0.924559 0.846220
1.000000 0.923796 0.846799
0.893034 0.895323 0.909056
0.892088 0.894438 0.908354
0.890043 0.892271 0.907134
0.887663 0.889952 0.906828
0.883970 0.886412 0.906706
0.878874 0.881956 0.907713
0.873686 0.878386 0.911040
0.870298 0.875486 0.909941
0.868589 0.873869 0.908324
0.868650 0.873930 0.908385
0.870298 0.875486 0.909941
0.872892 0.878080 0.912505
0.875242 0.880369 0.914794
0.876310 0.881437 0.915831
0.874998 0.880125 0.914549
0.869841 0.875090 0.909545
0.862669 0.868009 0.902464
0.853361 0.858854 0.893248
0.856931 0.862394 0.896818
0.927520 0.878416 0.895872
0.973083 0.895262 0.896208
0.999695 0.909972 0.897124
1.000000 0.922210 0.898039
1.000000 0.932158 0.899351
1.000000 0.939940 0.900267
1.000000 0.945830 0.900359
1.000000 0.950500 0.900267
1.000000 0.951995 0.897490
1.000000 0.949218 0.892302
1.000000 0.946899 0.888365
1.000000 0.945006 0.885191
1.000000 0.943664 0.883391
0.924620 0.927031 0.946838
0.924254 0.926726 0.946624
0.923003 0.925414 0.945892
0.921019 0.923430 0.945098
0.918212 0.920714 0.944488
0.914611 0.917479 0.944396
0.911070 0.914855 0.945892
0.907805 0.912261 0.945708
0.906310 0.910826 0.944335
0.905974 0.910491 0.944030
0.906706 0.911192 0.944701
0.908324 0.912779 0.946197
0.909789 0.914244 0.947570
0.910063 0.914458 0.947784
0.908782 0.913237 0.946624
0.905577 0.910094 0.943664
0.900359 0.904967 0.938781
0.894102 0.898894 0.932921
0.887083 0.891997 0.926238
0.886137 0.891051 0.925322
0.920897 0.899168 0.925963
0.963592 0.911620 0.925505
0.989349 0.922820 0.925353
1.000000 0.932311 0.925322
1.000000 0.939971 0.924956
1.000000 0.946166 0.924712
1.000000 0.950988 0.923949
1.000000 0.955108 0.923613
1.000000 0.958495 0.923369
1.000000 0.961456 0.923705
1.000000 0.961456 0.922454
1.000000 0.960357 0.920836
0.942535 0.944976 0.967193
0.942626 0.945037 0.967346
0.942229 0.944610 0.967346
0.941375 0.943847 0.967407
0.940124 0.942718 0.967590
0.938720 0.941497 0.968322
0.937346 0.940612 0.969848
0.936004 0.939757 0.970825
0.935454 0.939269 0.970367
0.935119 0.938933 0.970092
0.934997 0.938781 0.969940
0.934447 0.938262 0.969512
0.933745 0.937560 0.968902
0.932433 0.936278 0.967773
0.930297 0.934234 0.965942
0.927337 0.931334 0.963317
0.923491 0.927581 0.959960
0.919097 0.923339 0.956023
0.914427 0.918761 0.951812
0.909483 0.913939 0.947295
0.906981 0.911437 0.944945
0.916625 0.914855 0.946685
0.956847 0.924804 0.946410
0.981567 0.933806 0.946288
0.996735 0.941405 0.946014
1.000000 0.947692 0.945678
1.000000 0.952819 0.945373
1.000000 0.957031 0.944976
1.000000 0.960449 0.944518
1.000000 0.963317 0.944091
1.000000 0.965667 0.943511
1.000000 0.967620 0.942931
0.954406 0.956756 0.979736
0.954314 0.956725 0.979767
0.954131 0.956512 0.979797
0.953704 0.956085 0.979950
0.953094 0.955566 0.980285
0.952331 0.954986 0.980896
0.951446 0.954376 0.981872
0.950530 0.953826 0.982696
0.950103 0.953429 0.982361
0.949584 0.952941 0.981964
0.949218 0.952605 0.981659
0.948730 0.952117 0.981292
0.948150 0.951537 0.980835
0.947112 0.950530 0.980011
0.945617 0.949096 0.978790
0.943511 0.947051 0.977081
0.940826 0.944427 0.974853
0.937926 0.941619 0.972442
0.934722 0.938506 0.969726
0.931395 0.935271 0.966888
0.927703 0.931701 0.963653
0.924224 0.928283 0.960571
0.925994 0.930022 0.962158
0.952422 0.936126 0.962249
0.975830 0.943145 0.961913
0.990570 0.949371 0.961669
0.999786 0.954559 0.961425
1.000000 0.958831 0.961151
1.000000 0.962432 0.960906
1.000000 0.965362 0.960540
1.000000 0.967712 0.959960
1.000000 0.969635 0.959136
0.964172 0.966461 0.989044
0.964263 0.966552 0.989197
0.972442 0.974548 0.995850
0.972259 0.974426 0.995911
0.971984 0.974182 0.996063
0.971557 0.973785 0.996246
0.971008 0.973358 0.996521
0.970428 0.972961 0.996704
0.970092 0.972625 0.996490
0.969726 0.972290 0.996277
0.969360 0.971923 0.996033
0.968933 0.971527 0.995789
0.968200 0.970794 0.995300
0.967254 0.969909 0.994690
0.965942 0.968658 0.993866
0.964294 0.967102 0.992767
0.962188 0.965087 0.991333
0.959747 0.962707 0.989593
0.957183 0.960266 0.987732
0.954406 0.957580 0.985657
0.951598 0.954864 0.983520
0.948730 0.952117 0.981292
0.945739 0.949187 0.978882
0.945312 0.948791 0.978546
0.954040 0.950439 0.978271
0.973419 0.954559 0.977050
0.986267 0.958282 0.975738
0.994903 0.961608 0.974578
1.000000 0.964691 0.973816
1.000000 0.967376 0.973083
1.000000 0.969635 0.972381
1.000000 0.971405 0.971344
0.972869 0.974975 0.996185
0.973419 0.975494 0.996643
0.973938 0.976043 0.997070
0.974365 0.976440 0.997498
0.974578 0.976654 0.997894
0.974426 0.976562 0.998138
0.974029 0.976287 0.998383
0.973541 0.975921 0.998474
0.973236 0.975616 0.998291
0.972900 0.975280 0.998108
0.972564 0.974975 0.997925
0.972168 0.974609 0.997711
0.971618 0.974060 0.997375
0.970886 0.973358 0.996948
0.969970 0.972503 0.996399
0.968811 0.971374 0.995666
0.967407 0.970062 0.994812
0.965820 0.968566 0.993805
0.964172 0.966979 0.992706
0.962432 0.965301 0.991516
0.960601 0.963561 0.990234
0.958801 0.961791 0.988922
0.956756 0.959869 0.987457
0.954467 0.957671 0.985748
0.953063 0.956268 0.984649
0.953124 0.956359 0.984710
0.970062 0.959411 0.983642
0.982879 0.962585 0.982605
0.991424 0.965515 0.981720
0.997345 0.968200 0.981018
1.000000 0.970520 0.980377
1.000000 0.972351 0.979400
0.975830 0.977874 0.998444
0.976349 0.978363 0.998779
0.976837 0.978790 0.999115
0.977203 0.979187 0.999451
0.977386 0.979400 0.999725
0.977325 0.979370 0.999939
0.977020 0.979156 1.000000
0.976745 0.978882 1.000000
0.976471 0.978637 1.000000
0.976135 0.978332 0.999817
0.975830 0.978058 0.999664
0.975525 0.977752 0.999512
0.975097 0.977325 0.999298
0.974548 0.976837 0.999023
0.973907 0.976257 0.998657
0.973083 0.975463 0.998230
0.972076 0.974517 0.997650
0.970947 0.973449 0.996979
0.969757 0.972290 0.996277
0.968505 0.971130 0.995514
0.967315 0.969970 0.994751
0.966125 0.968811 0.993988
0.964782 0.967529 0.993072
0.963287 0.966094 0.992096
0.961395 0.964294 0.990753
0.959594 0.962554 0.989471
0.959472 0.962493 0.989441
0.967803 0.963897 0.988983
0.980224 0.966674 0.988190
0.988739 0.969238 0.987457
0.994659 0.971496 0.986816
0.998901 0.973297 0.985901
0.978454 0.980438 1.000000
0.978851 0.980774 1.000000
0.979187 0.981109 1.000000
0.979492 0.981384 1.000000
0.979644 0.981537 1.000000
0.979583 0.981506 1.000000
0.979370 0.981384 1.000000
0.979156 0.981170 1.000000
0.978943 0.980987 1.000000
0.978668 0.980743 1.000000
0.978485 0.980529 1.000000
0.978210 0.980316 1.000000
0.977844 0.979980 1.000000
0.977478 0.979614 1.000000
0.977050 0.979187 1.000000
0.976501 0.978729 1.000000
0.975982 0.978210 0.999756
0.975402 0.977691 0.999481
0.974945 0.977234 0.999207
0.974487 0.976806 0.998993
0.974151 0.976471 0.998810
0.973877 0.976226 0.998657
0.973510 0.975860 0.998444
0.973053 0.975433 0.998199
0.972442 0.974823 0.997833
0.971527 0.973999 0.997345
0.970550 0.973083 0.996765
0.970581 0.973083 0.996765
0.971923 0.973724 0.997040
0.981415 0.975586 0.996551
0.987976 0.977203 0.996033
0.992676 0.978485 0.995331
0.982605 0.984344 1.000000
0.982727 0.984466 1.000000
0.982788 0.984527 1.000000
0.982788 0.984527 1.000000
0.982727 0.984497 1.000000
0.982635 0.984375 1.000000
0.982422 0.984253 1.000000
0.982208 0.984039 1.000000
0.982025 0.983886 1.000000
0.981903 0.983764 1.000000
0.981750 0.983612 1.000000
0.981567 0.983459 1.000000
0.981353 0.983246 1.000000
0.981079 0.983001 1.000000
0.980774 0.982696 1.000000
0.980377 0.982330 1.000000
0.979980 0.981964 1.000000
0.979522 0.981537 1.000000
0.979095 0.981140 1.000000
0.978668 0.980743 1.000000
0.978271 0.980346 1.000000
0.977874 0.980011 1.000000
0.977478 0.979614 1.000000
0.977050 0.979187 1.000000
0.976501 0.978729 1.000000
0.975891 0.978149 0.999725
0.975311 0.977569 0.999420
0.974731 0.977050 0.999115
0.974701 0.976989 0.999084
0.975097 0.977356 0.999298
0.980621 0.978393 0.999054
0.986847 0.979492 0.998383
0.984192 0.985718 1.000000
0.984314 0.985809 1.000000
0.984375 0.985870 1.000000
0.984405 0.985870 1.000000
0.984375 0.985870 1.000000
0.984283 0.985779 1.000000
0.984131 0.985657 1.000000
0.983978 0.985534 1.000000
0.983856 0.985412 1.000000
0.983703 0.985290 1.000000
0.983581 0.985199 1.000000
0.983459 0.985077 1.000000
0.983246 0.984924 1.000000
0.983093 0.984802 1.000000
0.982849 0.984619 1.000000
0.982605 0.984375 1.000000
0.982330 0.984131 1.000000
0.982055 0.983917 1.000000
0.981781 0.983673 1.000000
0.981537 0.983429 1.000000
0.981323 0.983215 1.000000
0.981109 0.983001 1.000000
0.980896 0.982849 1.000000
0.980713 0.982635 1.000000
0.978943 0.980987 1.000000
0.978485 0.980560 1.000000
0.978027 0.980133 1.000000
0.977630 0.979767 1.000000
0.977295 0.979461 1.000000
0.977173 0.979339 1.000000
0.977508 0.979675 1.000000
0.979309 0.980041 1.000000
0.986450 0.987579 1.000000
0.986572 0.987701 1.000000
0.986633 0.987762 1.000000
0.986603 0.987701 1.000000
0.986481 0.987610 1.000000
0.986297 0.987457 1.000000
0.986053 0.987274 1.000000
0.985809 0.987060 1.000000
0.985534 0.986847 1.000000
0.985321 0.986633 1.000000
0.985046 0.986419 1.000000
0.984802 0.986206 1.000000
0.984588 0.986023 1.000000
0.984283 0.985779 1.000000
0.983948 0.985504 1.000000
0.983581 0.985199 1.000000
0.983246 0.984894 1.000000
0.982910 0.984619 1.000000
0.982666 0.984436 1.000000
0.982513 0.984283 1.000000
0.982361 0.984192 1.000000
0.982238 0.984100 1.000000
0.982055 0.983917 1.000000
0.981811 0.983673 1.000000
0.981476 0.983368 1.000000
0.981048 0.982971 1.000000
0.980560 0.982513 1.000000
0.980041 0.982055 1.000000
0.979614 0.981628 1.000000
0.979309 0.981353 1.000000
0.979095 0.981140 1.000000
0.979156 0.981201 1.000000
0.986847 0.987945 1.000000
0.986969 0.988037 1.000000
0.987060 0.988098 1.000000
0.987060 0.988098 1.000000
0.986999 0.988067 1.000000
0.986938 0.988006 1.000000
0.986816 0.987915 1.000000
0.986725 0.987823 1.000000
0.986633 0.987762 1.000000
0.986542 0.987671 1.000000
0.986419 0.987549 1.000000
0.986297 0.987488 1.000000
0.986145 0.987335 1.000000
0.985931 0.987182 1.000000
0.985687 0.986969 1.000000
0.985412 0.986725 1.000000
0.985107 0.986481 1.000000
0.984833 0.986267 1.000000
0.984649 0.986084 1.000000
0.984527 0.985992 1.000000
0.984466 0.985931 1.000000
0.984405 0.985840 1.000000
0.984314 0.985779 1.000000
0.984161 0.985687 1.000000
0.984009 0.985565 1.000000
0.983825 0.985382 1.000000
0.983581 0.985168 1.000000
0.983276 0.984924 1.000000
0.982849 0.984619 1.000000
0.982544 0.984314 1.000000
0.982269 0.984100 1.000000
0.982025 0.983886 1.000000
0.987701 0.988678 1.000000
0.987793 0.988708 1.000000
0.987793 0.988739 1.000000
0.987762 0.988708 1.000000
0.987701 0.988678 1.000000
0.987640 0.988586 1.000000
0.987549 0.988525 1.000000
0.987457 0.988434 1.000000
0.987366 0.988342 1.000000
0.987243 0.988281 1.000000
0.987152 0.988190 1.000000
0.987030 0.988098 1.000000
0.986938 0.988006 1.000000
0.986755 0.987854 1.000000
0.986572 0.987701 1.000000
0.986328 0.987488 1.000000
0.986084 0.987274 1.000000
0.985840 0.987121 1.000000
0.985687 0.986969 1.000000
0.985565 0.986877 1.000000
0.985534 0.986816 1.000000
0.985473 0.986755 1.000000
0.985382 0.986725 1.000000
0.985290 0.986603 1.000000
0.985138 0.986511 1.000000
0.984955 0.986358 1.000000
0.984741 0.986175 1.000000
0.984527 0.985992 1.000000
0.984253 0.985748 1.000000
0.983856 0.985443 1.000000
0.983459 0.985107 1.000000
0.983062 0.984741 1.000000
0.987915 0.988830 1.000000
0.987976 0.988861 1.000000
0.987976 0.988891 1.000000
0.987976 0.988891 1.000000
0.987976 0.988891 1.000000
0.988006 0.988922 1.000000
0.988067 0.988952 1.000000
0.988159 0.989044 1.000000
0.988251 0.989136 1.000000
0.988373 0.989227 1.000000
0.988525 0.989349 1.000000
0.988617 0.989441 1.000000
0.988678 0.989502 1.000000
0.988739 0.989563 1.000000
0.988739 0.989532 1.000000
0.988617 0.989441 1.000000
0.988525 0.989349 1.000000
0.988373 0.989227 1.000000
0.988281 0.989166 1.000000
0.988251 0.989105 1.000000
0.988220 0.989105 1.000000
0.988220 0.989075 1.000000
0.988159 0.989044 1.000000
0.988098 0.988983 1.000000
0.987976 0.988891 1.000000
0.987854 0.988800 1.000000
0.987732 0.988708 1.000000
0.987610 0.988586 1.000000
0.987488 0.988464 1.000000
0.987243 0.988281 1.000000
0.986694 0.987793 1.000000
0.985992 0.987213 1.000000
0.989014 0.989776 1.000000
0.989014 0.989776 1.000000
0.988983 0.989746 1.000000
0.988983 0.989715 1.000000
0.988922 0.989715 1.000000
0.988891 0.989654 1.000000
0.988861 0.989624 1.000000
0.988800 0.989593 1.000000
0.988769 0.989563 1.000000
0.988769 0.989532 1.000000
0.988739 0.989563 1.000000
0.988739 0.989532 1.000000
0.988708 0.989502 1.000000
0.988617 0.989471 1.000000
