20 Preset/City Style/【3】LUT video cho PR-AE-FCPX/TONE 3/Dubai I car.cube
# Created by Adobe Lightroom plugin Export LUT (1.24.0)
# www.johnrellis.com/lightroom/exportlut.htm
# Preset: Dubai I car
# Color profile: E:\lut插件\exportlut.1.24\exportlut.lrplugin\color profiles\Rec709gamma2.4.icc
LUT_3D_SIZE 8
DOMAIN_MIN 0.000000 0.000000 0.000000
DOMAIN_MAX 0.903226 0.903226 0.903226
0.058106 0.120394 0.142489
0.054108 0.120516 0.142489
0.160342 0.119295 0.141054
0.422950 0.000000 0.132509
0.792660 0.000000 0.099855
1.000000 0.000000 0.000000
1.000000 0.000000 0.000000
1.000000 0.236698 0.000000
0.054414 0.120516 0.142275
0.057404 0.120150 0.142092
0.140658 0.128481 0.139742
0.362554 0.096803 0.132906
0.717678 0.000000 0.106996
1.000000 0.000000 0.000000
1.000000 0.000000 0.000000
1.000000 0.239963 0.000000
0.000000 0.195590 0.205203
0.000000 0.193820 0.187900
0.123842 0.172274 0.193729
0.356603 0.220218 0.149874
0.758511 0.214817 0.039216
1.000000 0.268223 0.000000
1.000000 0.383124 0.000000
1.000000 0.443854 0.000000
0.000000 0.459266 0.432990
0.000000 0.467292 0.416052
0.000000 0.474434 0.336767
0.439918 0.455604 0.451392
0.671931 0.558099 0.463661
1.000000 0.615259 0.000000
1.000000 0.614130 0.000000
1.000000 0.611627 0.000000
0.000000 0.773159 0.715328
0.000000 0.769070 0.695552
0.000000 0.760403 0.625666
0.549798 0.736507 0.587671
0.715328 0.686610 0.705104
0.747829 0.713649 0.739864
1.000000 0.760678 0.469032
1.000000 0.746639 0.197360
0.000000 0.901457 0.853300
0.000000 0.906004 0.856199
0.000000 0.894438 0.826902
0.644190 0.872984 0.795743
0.856718 0.838895 0.836728
0.878752 0.827909 0.882963
0.896605 0.845579 0.901610
1.000000 0.872984 0.829526
0.485817 0.946014 0.909361
0.537224 0.944610 0.908812
0.654566 0.936553 0.900664
0.796231 0.924437 0.895750
0.895567 0.907897 0.906798
0.936614 0.891356 0.933471
0.938842 0.893614 0.944396
0.944701 0.901335 0.950134
0.838926 0.963714 0.944335
0.846098 0.962921 0.944335
0.873930 0.960418 0.945617
0.913909 0.957183 0.950561
0.936461 0.943633 0.947997
0.962860 0.936675 0.960937
0.966247 0.933440 0.970642
0.967834 0.936034 0.972076
0.057435 0.122438 0.147311
0.050263 0.122072 0.154208
0.124422 0.115450 0.168032
0.328557 0.009125 0.191409
0.693935 0.000000 0.182681
1.000000 0.000000 0.170352
1.000000 0.000000 0.142763
1.000000 0.000000 0.065675
0.048280 0.124117 0.151980
0.063325 0.128878 0.154482
0.114046 0.126406 0.182712
0.322118 0.085328 0.192721
0.675410 0.000000 0.185031
1.000000 0.000000 0.170108
1.000000 0.000000 0.136324
1.000000 0.093416 0.009522
0.000000 0.142306 0.213138
0.000000 0.147250 0.218784
0.000000 0.183688 0.247440
0.326085 0.229068 0.210300
0.689082 0.178286 0.201053
0.995514 0.147463 0.177890
1.000000 0.273594 0.147219
1.000000 0.387243 0.097963
0.000000 0.270420 0.465583
0.000000 0.301213 0.462196
0.000000 0.440742 0.456184
0.390631 0.458167 0.399023
0.548150 0.486458 0.430121
0.963073 0.530327 0.174838
1.000000 0.545403 0.169833
1.000000 0.568627 0.153140
0.000000 0.708583 0.748623
0.000000 0.717678 0.740108
0.000000 0.757015 0.714931
0.290929 0.732296 0.592767
0.680140 0.657435 0.668544
0.710353 0.682490 0.699886
1.000000 0.739101 0.458106
1.000000 0.729183 0.258762
0.000000 0.896727 0.884092
0.000000 0.895262 0.877592
0.000000 0.886564 0.846677
0.487404 0.867765 0.796597
0.817594 0.836851 0.811826
0.872374 0.821897 0.876280
0.890379 0.839261 0.895109
1.000000 0.865599 0.819059
0.214878 0.945922 0.914611
0.289921 0.943053 0.910185
0.513268 0.933959 0.897765
0.727962 0.920623 0.886198
0.870298 0.905791 0.894835
0.930724 0.886992 0.924865
0.931792 0.884733 0.937407
0.937041 0.891356 0.942626
0.803891 0.962463 0.940826
0.817288 0.962097 0.941863
0.850858 0.958953 0.942168
0.899474 0.955108 0.946349
0.938628 0.949248 0.953155
0.963500 0.940002 0.962371
0.966339 0.933593 0.970733
0.967773 0.935943 0.972015
0.156252 0.225223 0.269780
0.151736 0.231907 0.292058
0.111391 0.223148 0.379461
0.297459 0.126345 0.479866
0.698909 0.000000 0.544549
1.000000 0.000000 0.600031
1.000000 0.195621 0.589227
1.000000 0.456214 0.585748
0.191623 0.244968 0.270756
0.215518 0.258946 0.274632
0.194980 0.275212 0.358465
0.267552 0.198398 0.462379
0.665400 0.000000 0.542565
0.989776 0.000000 0.588342
1.000000 0.201480 0.569512
1.000000 0.436133 0.559564
0.006043 0.263340 0.364294
0.114992 0.277165 0.369055
0.253361 0.333318 0.385077
0.386633 0.426581 0.478187
0.674189 0.330541 0.609094
0.977050 0.348333 0.614435
1.000000 0.452186 0.603723
1.000000 0.537041 0.581140
0.000000 0.336095 0.548425
0.000000 0.353613 0.558618
0.000000 0.406317 0.576928
0.382513 0.514763 0.613306
0.664149 0.645289 0.655970
0.927916 0.633906 0.671748
1.000000 0.646357 0.649592
1.000000 0.663264 0.616449
0.000000 0.476905 0.790494
0.000000 0.485908 0.792569
0.000000 0.528832 0.805753
0.000000 0.615015 0.834409
0.577630 0.797269 0.822568
0.810208 0.766354 0.808408
1.000000 0.776272 0.666926
1.000000 0.771054 0.640589
0.000000 0.693416 0.938262
0.000000 0.712398 0.937469
0.000000 0.773922 0.930419
0.000000 0.852506 0.919188
0.663783 0.879545 0.886351
0.898863 0.855619 0.893889
0.912749 0.862669 0.918212
1.000000 0.883391 0.874510
0.000000 0.942809 0.963592
0.000000 0.943969 0.962310
0.120394 0.949493 0.958465
0.601984 0.939696 0.941497
0.818692 0.922881 0.920958
0.927001 0.908659 0.931304
0.944701 0.901396 0.950164
0.950164 0.908904 0.955444
0.744808 0.971221 0.958679
0.754910 0.969940 0.957549
0.802792 0.965850 0.955108
0.873991 0.961334 0.955047
0.927550 0.956298 0.957702
0.961303 0.949035 0.965118
0.970977 0.941222 0.974243
0.971771 0.942809 0.975677
0.444190 0.488258 0.533013
0.456306 0.504143 0.560937
0.456031 0.522423 0.634913
0.469947 0.516289 0.759854
0.623743 0.396368 0.854124
0.913085 0.180087 0.897734
1.000000 0.350103 0.877226
1.000000 0.524651 0.840635
0.532097 0.538018 0.539330
0.531945 0.544793 0.558404
0.521294 0.560357 0.629419
0.541680 0.581415 0.772366
0.633631 0.469276 0.857633
0.902647 0.275578 0.900206
1.000000 0.397101 0.879026
1.000000 0.548730 0.843259
0.502983 0.558099 0.622065
0.525963 0.570611 0.627955
0.605615 0.612940 0.643763
0.658808 0.660761 0.721279
0.671260 0.639734 0.842130
0.874418 0.517388 0.918212
1.000000 0.611139 0.912047
1.000000 0.682307 0.878080
0.444923 0.613458 0.774319
0.466072 0.618494 0.772122
0.557458 0.649195 0.775204
0.693751 0.707088 0.789822
0.807523 0.766201 0.812467
0.823728 0.736324 0.895781
0.987366 0.724178 0.908476
1.000000 0.769345 0.890623
0.310643 0.657099 0.877806
0.345739 0.661097 0.876036
0.478767 0.687587 0.877379
0.650050 0.739467 0.887266
0.789792 0.792935 0.896086
0.883665 0.839048 0.903563
0.952911 0.842130 0.923217
1.000000 0.853056 0.913939
0.000000 0.700557 0.939269
0.188693 0.714961 0.943847
0.372045 0.730068 0.941802
0.570916 0.764706 0.941375
0.736049 0.809903 0.944305
0.854032 0.856809 0.951049
0.942016 0.897826 0.947570
0.994842 0.905974 0.927245
0.000000 0.762966 0.993225
0.000000 0.767575 0.993103
0.000000 0.783536 0.992004
0.493660 0.838895 0.985473
0.749020 0.908263 0.974182
0.883574 0.937316 0.962860
0.957122 0.926818 0.960204
0.962676 0.927642 0.967315
0.610498 0.970886 0.986755
0.632563 0.971771 0.986328
0.709529 0.975311 0.984802
0.812955 0.974701 0.980011
0.896513 0.966979 0.972168
0.948730 0.961791 0.970245
0.975525 0.954925 0.976593
0.977539 0.953246 0.980835
0.760891 0.742336 0.813046
0.770291 0.751553 0.827878
0.776089 0.762051 0.857633
0.789975 0.776425 0.902129
0.790188 0.759243 0.935821
0.820493 0.689906 0.960204
0.953918 0.555047 0.984558
1.000000 0.626184 0.980926
0.800534 0.766354 0.824033
0.808682 0.775204 0.838987
0.809598 0.783230 0.865446
0.807248 0.788022 0.900511
0.804105 0.774014 0.934020
0.825376 0.712428 0.958251
0.946807 0.592157 0.982361
1.000000 0.644312 0.980224
0.818601 0.785061 0.851164
0.825467 0.789120 0.853147
0.844602 0.799008 0.853819
0.842679 0.806516 0.881682
0.836576 0.806424 0.920714
0.830533 0.763027 0.945464
0.921172 0.686397 0.972534
1.000000 0.690303 0.975341
0.783536 0.782437 0.884459
0.789517 0.785061 0.884550
0.816831 0.798581 0.887785
0.858457 0.821073 0.893431
0.891722 0.844327 0.906218
0.886442 0.843229 0.940215
0.914855 0.803799 0.964630
1.000000 0.782223 0.971130
0.748104 0.788968 0.923583
0.757382 0.792691 0.924132
0.787381 0.804532 0.924743
0.834257 0.825010 0.926299
0.880735 0.848478 0.927886
0.920470 0.873747 0.931121
0.925200 0.872313 0.956603
0.992340 0.855619 0.965026
0.677028 0.784878 0.947845
0.687312 0.787961 0.947906
0.716335 0.795499 0.946136
0.773007 0.814176 0.945861
0.839872 0.841062 0.947204
0.907347 0.878904 0.954101
0.947143 0.909270 0.959808
0.976562 0.916075 0.967132
0.594812 0.801938 0.979431
0.597162 0.801846 0.978790
0.624018 0.806394 0.977173
0.711513 0.826993 0.976013
0.812070 0.856443 0.974334
0.885740 0.887205 0.974517
0.931487 0.915007 0.976471
0.968231 0.936736 0.972473
0.000000 0.803403 1.000000
0.000000 0.806882 1.000000
0.138094 0.824735 1.000000
0.638056 0.889464 0.999207
0.826017 0.938201 0.990936
0.908293 0.968200 0.985718
0.961334 0.965454 0.978241
0.980346 0.958618 0.983307
0.910216 0.868132 0.935302
0.912139 0.870634 0.938201
0.910124 0.870665 0.942473
0.911254 0.874235 0.952605
0.912627 0.875120 0.963745
0.909514 0.861723 0.973663
0.921233 0.836301 0.984253
0.970794 0.792172 0.996979
0.903319 0.858946 0.924315
0.902953 0.859281 0.925811
0.901854 0.860868 0.932219
0.902342 0.864775 0.944244
0.905455 0.868254 0.958465
0.904814 0.858366 0.970550
0.916564 0.834012 0.982116
0.966979 0.789975 0.995605
0.921324 0.874388 0.931273
0.922332 0.874907 0.930999
0.924956 0.878019 0.933715
0.918669 0.876646 0.941344
0.918029 0.879881 0.955230
0.919127 0.877501 0.968414
0.925200 0.859770 0.979644
0.964019 0.824582 0.992584
0.915099 0.876860 0.944244
0.915770 0.877012 0.943725
0.922210 0.881621 0.944396
0.936339 0.893828 0.948272
0.943572 0.903258 0.955535
0.942657 0.906126 0.967956
0.943633 0.898222 0.978424
0.965789 0.873960 0.989593
0.894957 0.869474 0.952575
0.896788 0.870512 0.952544
0.905089 0.875639 0.952911
0.920073 0.885954 0.954376
0.936522 0.898253 0.955688
0.952087 0.911894 0.957702
0.951598 0.915618 0.972839
0.963561 0.895506 0.984710
0.875853 0.867918 0.965026
0.881102 0.871153 0.965820
0.889677 0.875578 0.965606
0.904784 0.884062 0.965515
0.923217 0.895567 0.965545
0.945769 0.913451 0.967834
0.964965 0.932341 0.970886
0.968963 0.929747 0.982147
0.863432 0.876677 0.981445
0.867735 0.878904 0.981659
0.876463 0.882811 0.981323
0.892149 0.890349 0.980743
0.912566 0.901427 0.980041
0.936950 0.916991 0.979492
0.958618 0.934173 0.979767
0.974762 0.950561 0.981140
0.740139 0.856840 0.997162
0.739925 0.856596 0.996948
0.751797 0.859556 0.996277
0.783810 0.868925 0.995361
0.841337 0.888640 0.994415
0.910704 0.918639 0.992584
0.948669 0.943206 0.992157
0.973236 0.971435 0.986389
0.941833 0.903807 0.959411
0.942290 0.904692 0.960357
0.942473 0.906004 0.962921
0.943603 0.909056 0.967926
0.945037 0.911833 0.973999
0.947753 0.913573 0.980499
0.947173 0.904814 0.986023
0.954467 0.891234 0.992126
0.942077 0.903197 0.957733
0.942596 0.904204 0.958770
0.942718 0.905547 0.961456
0.943053 0.907866 0.966308
0.944213 0.910613 0.972595
0.946715 0.912444 0.979339
0.945647 0.903380 0.984955
0.952514 0.889403 0.991272
0.949950 0.909636 0.957000
0.949889 0.909941 0.957671
0.949340 0.910918 0.960143
0.948943 0.913024 0.964965
0.948913 0.915435 0.971160
0.950683 0.917906 0.978149
0.951263 0.913451 0.984375
0.957153 0.902922 0.990692
0.950103 0.913237 0.962585
0.950317 0.913268 0.962310
0.952789 0.915435 0.962432
0.958007 0.920684 0.963409
0.957733 0.924010 0.969390
0.958221 0.927520 0.976776
0.959869 0.928222 0.983612
0.962707 0.919615 0.989624
0.944091 0.912108 0.968170
0.944427 0.912291 0.967987
0.947173 0.914427 0.967956
0.952819 0.919524 0.968444
0.960540 0.927062 0.969360
0.965393 0.934386 0.973388
0.966064 0.938354 0.981415
0.968444 0.935271 0.988556
0.937102 0.912169 0.975311
0.937987 0.912871 0.975372
0.941405 0.915526 0.975463
0.947601 0.920653 0.975708
0.956115 0.928130 0.976104
0.966369 0.938476 0.977142
0.974884 0.949187 0.979522
0.975402 0.951446 0.987854
0.929137 0.913573 0.983337
0.930205 0.914366 0.983398
0.933867 0.916930 0.983337
0.940764 0.922026 0.983337
0.950134 0.929473 0.983368
0.961181 0.939300 0.983612
0.972656 0.951141 0.984344
0.982635 0.963622 0.985931
0.908202 0.911345 0.993286
0.909453 0.912047 0.993286
0.914977 0.915435 0.993256
0.923644 0.920775 0.992981
0.935180 0.928405 0.992584
0.948913 0.938506 0.992065
0.966369 0.953216 0.991516
0.980804 0.967712 0.991485
0.965515 0.937072 0.977203
0.965698 0.937438 0.977569
0.965698 0.938079 0.978637
0.966308 0.940063 0.980987
0.967437 0.942657 0.984192
0.969390 0.945708 0.987884
0.971221 0.946563 0.991516
0.972503 0.942138 0.994812
0.965667 0.936889 0.976623
0.965820 0.937285 0.977020
0.965942 0.938109 0.978210
0.966430 0.939940 0.980560
0.967498 0.942565 0.983825
0.969421 0.945647 0.987610
0.971283 0.946807 0.991272
0.972442 0.942382 0.994629
0.968139 0.939025 0.975799
0.968170 0.939269 0.976135
0.968078 0.940002 0.977325
0.968719 0.942351 0.979950
0.969329 0.944732 0.983215
0.970764 0.947692 0.987060
0.973205 0.950378 0.991028
0.973785 0.945861 0.994263
0.970306 0.941344 0.975738
0.970733 0.941863 0.975860
0.972107 0.943542 0.976165
0.972442 0.945769 0.978607
0.972717 0.948516 0.982177
0.973754 0.951904 0.986328
0.976135 0.955657 0.990570
0.976379 0.952209 0.993835
0.967926 0.941466 0.978943
0.968353 0.941924 0.979004
0.969696 0.943359 0.979065
0.972747 0.946960 0.979583
0.977050 0.952483 0.980560
0.977508 0.956420 0.985016
0.978607 0.959899 0.989502
0.979583 0.959625 0.993347
0.965118 0.942504 0.983429
0.965393 0.942779 0.983429
0.966735 0.944060 0.983368
0.969604 0.946960 0.983398
0.973938 0.951720 0.983581
0.979919 0.959258 0.984588
0.982757 0.965606 0.988281
0.984039 0.968841 0.993042
0.959930 0.942046 0.988037
0.960296 0.942382 0.988037
0.961883 0.943786 0.987976
0.965148 0.946899 0.987976
0.969970 0.951720 0.988006
0.976196 0.958495 0.988220
0.983490 0.967559 0.988952
0.987793 0.975311 0.991943
0.948547 0.938323 0.993683
0.949004 0.938689 0.993652
0.951171 0.940429 0.993591
0.955566 0.944213 0.993561
0.961883 0.949889 0.993500
0.969818 0.957641 0.993530
0.979278 0.967895 0.993744
0.988617 0.979278 0.994263
