20 Preset/City Style/【3】LUT video cho PR-AE-FCPX/TONE 3/Dubai I Burj Khalifa.cube
# Created by Adobe Lightroom plugin Export LUT (1.24.0)
# www.johnrellis.com/lightroom/exportlut.htm
# Preset: Dubai I Burj Khalifa
# Color profile: E:\lut插件\exportlut.1.24\exportlut.lrplugin\color profiles\Rec709gamma2.4.icc
LUT_3D_SIZE 32
DOMAIN_MIN 0.0 0.0 0.0
DOMAIN_MAX 1.0 1.0 1.0
0.098238 0.105013 0.113497
0.098238 0.105013 0.113497
0.098238 0.105013 0.113497
0.089235 0.105226 0.112367
0.043549 0.102754 0.108156
0.019684 0.096162 0.101167
0.014893 0.090120 0.094789
0.031891 0.082368 0.089174
0.067964 0.073426 0.082856
0.097597 0.064485 0.074647
0.118624 0.058869 0.067231
0.142092 0.056214 0.063294
0.168917 0.053498 0.064088
0.201236 0.048188 0.069245
0.239292 0.036194 0.076417
0.284489 0.011627 0.083223
0.338262 0.000000 0.089998
0.402441 0.000000 0.096315
0.477058 0.000000 0.102785
0.565667 0.000000 0.109651
0.667567 0.000000 0.116854
0.775021 0.000000 0.123842
0.876585 0.000000 0.131563
0.984222 0.000000 0.141421
1.000000 0.000000 0.159396
1.000000 0.000000 0.181765
1.000000 0.000000 0.207065
1.000000 0.000000 0.234714
1.000000 0.000000 0.265843
1.000000 0.269810 0.302129
1.000000 0.389410 0.344060
1.000000 0.486488 0.393988
0.098238 0.105013 0.113497
0.098238 0.105013 0.113497
0.098238 0.105013 0.113497
0.083742 0.105562 0.112703
0.047395 0.100832 0.108034
0.024079 0.094850 0.100954
0.015900 0.089662 0.094453
0.031891 0.082368 0.089174
0.065980 0.073671 0.082887
0.095552 0.065156 0.074647
0.115511 0.060212 0.067292
0.137758 0.057465 0.063539
0.163638 0.056092 0.064363
0.194705 0.051820 0.068635
0.231418 0.040772 0.075105
0.274815 0.020142 0.082612
0.326879 0.000000 0.089357
0.388373 0.000000 0.095583
0.460548 0.000000 0.101747
0.545586 0.000000 0.108919
0.642573 0.000000 0.115724
0.746609 0.000000 0.122469
0.848081 0.000000 0.129702
0.956695 0.000000 0.138796
1.000000 0.000000 0.154055
1.000000 0.000000 0.172824
1.000000 0.000000 0.195071
1.000000 0.000000 0.219577
1.000000 0.000000 0.248173
1.000000 0.204196 0.281834
1.000000 0.345830 0.321996
1.000000 0.451820 0.368994
0.095583 0.101503 0.111452
0.095216 0.101564 0.110475
0.092317 0.100771 0.110933
0.074220 0.099763 0.111238
0.058198 0.092164 0.103212
0.032807 0.088014 0.097627
0.023102 0.083528 0.092103
0.037629 0.077760 0.087098
0.070588 0.071046 0.080232
0.096895 0.065919 0.072236
0.115480 0.063600 0.066835
0.137209 0.064454 0.063783
0.162875 0.063325 0.064607
0.193271 0.060914 0.068757
0.229740 0.051514 0.077363
0.272374 0.033661 0.083253
0.324132 0.000000 0.090547
0.384619 0.000000 0.096284
0.455421 0.000000 0.102724
0.539452 0.000000 0.109346
0.636103 0.000000 0.116487
0.739681 0.000000 0.123568
0.839658 0.000000 0.130068
0.952361 0.000000 0.139742
1.000000 0.000000 0.153689
1.000000 0.000000 0.170474
1.000000 0.000000 0.190921
1.000000 0.000000 0.214206
1.000000 0.000000 0.241337
1.000000 0.189151 0.273899
1.000000 0.335576 0.312413
1.000000 0.441291 0.358038
0.081392 0.088472 0.095674
0.080537 0.088563 0.094911
0.077852 0.087160 0.095460
0.056458 0.085695 0.098817
0.017151 0.091768 0.104555
0.023774 0.083253 0.096498
0.034943 0.072389 0.088106
0.053559 0.068452 0.080659
0.082795 0.068513 0.072511
0.100740 0.070375 0.066865
0.118959 0.073396 0.062959
0.140322 0.076204 0.063020
0.166018 0.078645 0.066621
0.196658 0.078706 0.072541
0.232151 0.074464 0.078920
0.274815 0.059083 0.086336
0.324926 0.026276 0.092287
0.383368 0.000000 0.098207
0.451698 0.000000 0.104768
0.531823 0.000000 0.111238
0.623285 0.000000 0.117494
0.723964 0.000000 0.124269
0.824460 0.000000 0.130983
0.944427 0.000000 0.140475
1.000000 0.000000 0.153140
1.000000 0.000000 0.170138
1.000000 0.000000 0.190677
1.000000 0.000000 0.214420
1.000000 0.000000 0.241855
1.000000 0.230167 0.274357
1.000000 0.354070 0.311986
1.000000 0.449989 0.354833
0.057465 0.067048 0.077790
0.057465 0.067048 0.077790
0.052308 0.065309 0.079530
0.046571 0.063569 0.082551
0.038087 0.067597 0.087922
0.029725 0.079500 0.093629
0.042695 0.080781 0.091768
0.073121 0.072999 0.080018
0.090822 0.074708 0.066835
0.104433 0.080903 0.063874
0.122377 0.085359 0.063874
0.143984 0.089693 0.066377
0.170138 0.092470 0.071443
0.201511 0.094362 0.078462
0.239109 0.094240 0.084840
0.283360 0.090211 0.090822
0.335546 0.071168 0.096864
0.395636 0.016083 0.102480
0.465370 0.000000 0.108980
0.546288 0.000000 0.115450
0.638636 0.000000 0.122042
0.737606 0.000000 0.128511
0.836057 0.000000 0.134493
0.961944 0.000000 0.145022
1.000000 0.000000 0.158267
1.000000 0.000000 0.174716
1.000000 0.000000 0.194553
1.000000 0.000000 0.218143
1.000000 0.116701 0.245304
1.000000 0.283604 0.276829
1.000000 0.386450 0.313207
1.000000 0.472023 0.354803
0.051209 0.060212 0.068666
0.051209 0.060212 0.068666
0.052796 0.061189 0.067384
0.055055 0.063172 0.068208
0.062531 0.065644 0.068849
0.074250 0.072053 0.072267
0.083284 0.079530 0.081361
0.098085 0.083955 0.082429
0.109743 0.084474 0.066133
0.121431 0.090333 0.060243
0.134951 0.097841 0.067506
0.155856 0.105257 0.078035
0.184360 0.109957 0.082216
0.218692 0.113558 0.088533
0.259983 0.115450 0.093477
0.307195 0.114199 0.098848
0.363348 0.106996 0.104891
0.427649 0.090059 0.110780
0.501823 0.007599 0.117037
0.585565 0.000000 0.122713
0.680354 0.000000 0.128878
0.777737 0.000000 0.134920
1.000000 0.000000 0.163119
1.000000 0.000000 0.190127
1.000000 0.000000 0.220523
1.000000 0.229740 0.252964
1.000000 0.330816 0.287663
1.000000 0.409918 0.322728
1.000000 0.478859 0.360998
1.000000 0.540887 0.401099
1.000000 0.597955 0.444495
1.000000 0.649104 0.489509
0.083742 0.087678 0.086580
0.084535 0.088106 0.086458
0.087892 0.088777 0.084138
0.091463 0.090517 0.080812
0.097261 0.092836 0.075624
0.105959 0.095399 0.067353
0.118196 0.097627 0.059968
0.132021 0.097719 0.056550
0.152041 0.096529 0.055055
0.169772 0.102602 0.051637
0.187778 0.113161 0.061219
0.211398 0.126528 0.080507
0.240177 0.143130 0.097017
0.279759 0.153964 0.106416
0.328740 0.157443 0.110780
0.384161 0.158053 0.115785
0.447944 0.155276 0.120760
0.520317 0.146944 0.125612
0.604028 0.127504 0.131228
0.699519 0.079774 0.136416
0.801328 0.000000 0.142489
0.919524 0.000000 0.152163
1.000000 0.000000 0.170962
1.000000 0.111818 0.196780
1.000000 0.245731 0.227878
1.000000 0.334936 0.261143
1.000000 0.404150 0.294347
1.000000 0.465553 0.327214
1.000000 0.520623 0.362219
1.000000 0.570977 0.398962
1.000000 0.619318 0.439094
1.000000 0.664942 0.481910
0.104677 0.107881 0.107240
0.105348 0.107820 0.106874
0.107240 0.108980 0.105348
0.111482 0.110780 0.102907
0.118135 0.113558 0.099062
0.128206 0.116640 0.093599
0.140932 0.119417 0.085969
0.157900 0.121462 0.075410
0.177401 0.120912 0.060914
0.198520 0.115267 0.050660
0.233005 0.118410 0.049744
0.258152 0.132326 0.066987
0.288518 0.148623 0.087892
0.325139 0.169986 0.103334
0.368658 0.198032 0.122164
0.423407 0.213779 0.132204
0.489265 0.216739 0.135561
0.563378 0.217563 0.138857
0.649317 0.213596 0.143313
0.741634 0.205386 0.147646
0.854093 0.200443 0.155489
0.975616 0.214817 0.169314
1.000000 0.255741 0.189425
1.000000 0.317296 0.217197
1.000000 0.382422 0.248447
1.000000 0.440314 0.280186
1.000000 0.491188 0.311437
1.000000 0.536187 0.342718
1.000000 0.579522 0.376837
1.000000 0.620172 0.411963
1.000000 0.660090 0.450538
1.000000 0.697749 0.490486
0.133303 0.137148 0.140627
0.134340 0.137057 0.139925
0.136172 0.138094 0.138155
0.140932 0.140169 0.135378
0.148470 0.143252 0.130556
0.159213 0.146456 0.123690
0.173373 0.149844 0.114870
0.191867 0.152834 0.105135
0.215152 0.154543 0.094240
0.242405 0.152346 0.080934
0.267063 0.142489 0.062837
0.321416 0.134737 0.046479
0.354650 0.152743 0.065949
0.394079 0.176028 0.088655
0.440223 0.205631 0.105501
0.492744 0.240299 0.124208
0.554864 0.281346 0.146090
0.630426 0.304692 0.158938
0.714412 0.308080 0.161440
0.827970 0.323491 0.169070
0.934142 0.343694 0.180331
1.000000 0.372808 0.197330
1.000000 0.413611 0.220829
1.000000 0.461311 0.250034
1.000000 0.508202 0.282322
1.000000 0.548363 0.313634
1.000000 0.584802 0.343633
1.000000 0.617700 0.374334
1.000000 0.650141 0.406683
1.000000 0.681147 0.440284
1.000000 0.711452 0.476570
1.000000 0.740749 0.514366
0.175296 0.176730 0.185702
0.175723 0.176883 0.184909
0.177523 0.177432 0.182132
0.182803 0.179690 0.178836
0.190311 0.182528 0.172061
0.200839 0.185672 0.162905
0.215183 0.190127 0.152590
0.234470 0.194247 0.140291
0.258579 0.197757 0.127077
0.288579 0.198581 0.111482
0.323644 0.194430 0.094972
0.354528 0.180209 0.078492
0.415167 0.159884 0.042237
0.467414 0.173983 0.045899
0.518364 0.205325 0.072419
0.575891 0.241611 0.093751
0.647486 0.286229 0.113405
0.741695 0.345159 0.138979
0.834958 0.416144 0.177157
0.919829 0.471687 0.209110
0.995972 0.495216 0.224002
1.000000 0.521233 0.243412
1.000000 0.550439 0.265965
1.000000 0.580072 0.292363
1.000000 0.608576 0.319280
1.000000 0.634760 0.345556
1.000000 0.659632 0.373907
1.000000 0.684199 0.402350
1.000000 0.709010 0.433845
1.000000 0.734066 0.467842
1.000000 0.758358 0.503502
1.000000 0.781827 0.541650
0.223453 0.227176 0.236454
0.224155 0.227481 0.235386
0.226505 0.228580 0.232853
0.231968 0.231510 0.228824
0.240818 0.235599 0.221530
0.253239 0.241123 0.212039
0.269780 0.246738 0.199069
0.291142 0.253147 0.184512
0.317876 0.259098 0.168032
0.350713 0.262974 0.148531
0.389563 0.262425 0.126345
0.434546 0.256046 0.102113
0.472419 0.235508 0.077089
0.538598 0.207248 0.021729
0.634577 0.200809 0.000000
0.708736 0.245029 0.000000
0.786679 0.298405 0.000000
0.862608 0.358862 0.052155
0.932464 0.429786 0.119814
0.990967 0.507408 0.175998
1.000000 0.589624 0.246281
1.000000 0.656428 0.313329
1.000000 0.676356 0.335363
1.000000 0.695369 0.359808
1.000000 0.713527 0.385290
1.000000 0.729946 0.410285
1.000000 0.745418 0.435004
1.000000 0.760891 0.461006
1.000000 0.776791 0.488991
1.000000 0.793393 0.520073
1.000000 0.809689 0.552575
1.000000 0.825772 0.586572
0.293431 0.302708 0.303197
0.294255 0.303014 0.302281
0.297368 0.305058 0.300603
0.303807 0.308019 0.294835
0.313634 0.312718 0.286320
0.328099 0.319371 0.275547
0.347326 0.326970 0.260716
0.371893 0.335271 0.243229
0.405402 0.345739 0.223606
0.449866 0.357488 0.200992
0.502251 0.365667 0.173495
0.562432 0.367102 0.138033
0.806851 0.458686 0.015900
0.863890 0.423285 0.000000
0.920104 0.366552 0.000000
1.000000 0.316838 0.000000
1.000000 0.399756 0.000000
1.000000 0.483253 0.000000
1.000000 0.565179 0.000000
1.000000 0.642725 0.174594
1.000000 0.712825 0.280369
1.000000 0.773831 0.383917
1.000000 0.824155 0.488746
1.000000 0.862577 0.588800
1.000000 0.867155 0.609674
1.000000 0.867948 0.620325
1.000000 0.868894 0.630579
1.000000 0.869963 0.640070
1.000000 0.872129 0.652064
1.000000 0.875669 0.666560
1.000000 0.880400 0.683955
1.000000 0.886351 0.704402
0.485542 0.490089 0.466438
0.485481 0.489631 0.464576
0.487434 0.489265 0.458717
0.493172 0.490639 0.448371
0.503166 0.493294 0.434150
0.518822 0.497871 0.414923
0.542107 0.505669 0.393835
0.573144 0.515312 0.366857
0.614832 0.528313 0.338567
0.666957 0.542657 0.305638
0.729549 0.557519 0.267796
0.800046 0.570031 0.223514
0.871580 0.574182 0.162753
0.938689 0.565332 0.008362
0.989624 0.533227 0.000000
1.000000 0.477211 0.000000
1.000000 0.423377 0.000000
1.000000 0.463081 0.000000
1.000000 0.540368 0.000000
1.000000 0.612726 0.000000
1.000000 0.679347 0.167269
1.000000 0.740047 0.279820
1.000000 0.792386 0.381231
1.000000 0.834958 0.479164
1.000000 0.868254 0.573053
1.000000 0.894102 0.659174
1.000000 0.903227 0.695827
1.000000 0.903044 0.701747
1.000000 0.903593 0.709438
1.000000 0.905394 0.720333
1.000000 0.907927 0.733364
1.000000 0.911223 0.748409
0.643915 0.636927 0.602228
0.642725 0.635218 0.599542
0.641505 0.631891 0.589227
0.643549 0.630060 0.577020
0.648676 0.628138 0.558099
0.658076 0.627314 0.532280
0.674617 0.629877 0.505394
0.699153 0.635615 0.475044
0.732265 0.644495 0.443061
0.774502 0.656245 0.408881
0.824369 0.669520 0.371984
0.879149 0.681605 0.330297
0.933532 0.687800 0.279423
0.983337 0.684871 0.215946
1.000000 0.669001 0.120150
1.000000 0.632654 0.000000
1.000000 0.578485 0.000000
1.000000 0.522087 0.000000
1.000000 0.513085 0.000000
1.000000 0.582940 0.000000
1.000000 0.648920 0.000000
1.000000 0.709316 0.159884
1.000000 0.762203 0.275090
1.000000 0.808164 0.375525
1.000000 0.845274 0.470253
1.000000 0.874418 0.559289
1.000000 0.897704 0.642695
1.000000 0.915831 0.713863
1.000000 0.929808 0.772641
1.000000 0.930114 0.778470
1.000000 0.931060 0.786069
1.000000 0.932677 0.796323
0.761959 0.750057 0.721431
0.761746 0.749264 0.719356
0.760739 0.746548 0.711269
0.760708 0.742947 0.697536
0.762631 0.739132 0.678187
0.768093 0.735897 0.653193
0.780026 0.735897 0.626001
0.798245 0.738216 0.593866
0.823636 0.744228 0.561761
0.855589 0.752987 0.528679
0.892882 0.763241 0.493050
0.932952 0.773526 0.455451
0.971283 0.779843 0.411688
1.000000 0.779171 0.357092
1.000000 0.769253 0.288914
1.000000 0.748013 0.201511
1.000000 0.712123 0.000000
1.000000 0.663081 0.000000
1.000000 0.606592 0.000000
1.000000 0.557153 0.000000
1.000000 0.619379 0.000000
1.000000 0.678981 0.000000
1.000000 0.732631 0.141726
1.000000 0.779873 0.265782
1.000000 0.819394 0.362554
1.000000 0.852171 0.454505
1.000000 0.878721 0.540887
1.000000 0.900664 0.624201
1.000000 0.918517 0.698604
1.000000 0.933349 0.765255
1.000000 0.945373 0.820706
1.000000 0.951904 0.851591
0.836545 0.824125 0.805051
0.837278 0.824430 0.804379
0.838071 0.824155 0.800595
0.840513 0.823636 0.792691
0.844205 0.822995 0.780850
0.851438 0.823453 0.764920
0.862242 0.826047 0.747738
0.877592 0.829801 0.725856
0.896361 0.835019 0.701411
0.917967 0.840513 0.673091
0.941253 0.845518 0.640711
0.965820 0.848661 0.600671
0.990509 0.849027 0.553521
1.000000 0.845518 0.497810
1.000000 0.836637 0.431525
1.000000 0.821134 0.354620
1.000000 0.798856 0.266850
1.000000 0.767086 0.157076
1.000000 0.725338 0.000000
1.000000 0.671901 0.000000
1.000000 0.629419 0.000000
1.000000 0.647913 0.000000
1.000000 0.703029 0.000000
1.000000 0.752071 0.113497
1.000000 0.794461 0.251926
1.000000 0.830289 0.351751
1.000000 0.860288 0.443336
1.000000 0.885008 0.530694
1.000000 0.905150 0.612146
1.000000 0.921843 0.687190
1.000000 0.935363 0.752621
1.000000 0.946349 0.807279
0.883787 0.873136 0.863310
0.883970 0.873136 0.862577
0.884886 0.873045 0.860044
0.886748 0.873045 0.855344
0.890105 0.873320 0.848173
0.895445 0.874205 0.838132
0.903166 0.875914 0.826078
0.913451 0.878355 0.810422
0.926146 0.881315 0.791867
0.940856 0.884489 0.769924
0.957519 0.887419 0.743862
0.975525 0.889433 0.711452
0.994568 0.889830 0.671839
1.000000 0.887846 0.623896
1.000000 0.882689 0.566522
1.000000 0.873259 0.497810
1.000000 0.859403 0.421668
1.000000 0.840330 0.337285
1.000000 0.814267 0.243931
1.000000 0.779873 0.123262
1.000000 0.734646 0.000000
1.000000 0.693111 0.000000
1.000000 0.673457 0.000000
1.000000 0.723201 0.000000
1.000000 0.767483 0.006744
1.000000 0.806149 0.233860
1.000000 0.838743 0.335973
1.000000 0.866361 0.428290
1.000000 0.889464 0.515465
1.000000 0.908415 0.596857
1.000000 0.923888 0.670741
1.000000 0.936614 0.736049
0.919646 0.911376 0.910155
0.920287 0.911894 0.910216
0.946258 0.940642 0.946868
0.947173 0.940734 0.945006
0.948669 0.940795 0.941833
0.950835 0.940887 0.937133
0.954040 0.941100 0.930724
0.958282 0.941588 0.923033
0.963958 0.942351 0.913664
0.970855 0.943267 0.902373
0.978882 0.943969 0.888060
0.988098 0.944121 0.869718
0.998505 0.943175 0.844907
1.000000 0.940948 0.811765
1.000000 0.937011 0.768551
1.000000 0.930968 0.713161
1.000000 0.921935 0.643610
1.000000 0.909514 0.562005
1.000000 0.893309 0.474372
1.000000 0.871580 0.379522
1.000000 0.843351 0.280735
1.000000 0.806882 0.153628
1.000000 0.765957 0.000000
1.000000 0.723201 0.000000
1.000000 0.753292 0.000000
1.000000 0.789181 0.012451
1.000000 0.820340 0.226413
1.000000 0.847623 0.323491
1.000000 0.871702 0.411536
1.000000 0.892485 0.494759
1.000000 0.909880 0.573327
1.000000 0.924102 0.644007
0.948272 0.942809 0.949279
0.950011 0.944701 0.951568
0.952117 0.946654 0.953307
0.954253 0.948425 0.954131
0.956481 0.949767 0.953491
0.958587 0.950378 0.950805
0.960998 0.950683 0.946471
0.964141 0.950866 0.940398
0.968170 0.951354 0.933410
0.973236 0.951843 0.924529
0.979217 0.952300 0.913909
0.986175 0.952514 0.900298
0.994232 0.951904 0.882048
1.000000 0.950530 0.858305
1.000000 0.948119 0.827420
1.000000 0.944274 0.786770
1.000000 0.938811 0.735409
1.000000 0.931243 0.672389
1.000000 0.921263 0.600214
1.000000 0.908232 0.519310
1.000000 0.890959 0.431861
1.000000 0.868193 0.338231
1.000000 0.838224 0.227878
1.000000 0.801114 0.000000
1.000000 0.762631 0.000000
1.000000 0.758968 0.000000
1.000000 0.791989 0.000000
1.000000 0.821500 0.163851
1.000000 0.847349 0.276127
1.000000 0.870268 0.365240
1.000000 0.890227 0.448096
1.000000 0.906828 0.523339
0.958312 0.953521 0.961395
0.959716 0.955047 0.963287
0.961334 0.956603 0.964782
0.962951 0.958068 0.965637
0.964660 0.959106 0.965332
0.966186 0.959655 0.963592
0.968048 0.959869 0.960296
0.970245 0.960052 0.956176
0.973083 0.960296 0.951019
0.976715 0.960510 0.944427
0.981048 0.960723 0.936339
0.986175 0.960815 0.926390
0.992065 0.960510 0.913542
0.998962 0.959686 0.897032
1.000000 0.958129 0.875181
1.000000 0.955749 0.847166
1.000000 0.952178 0.810086
1.000000 0.947326 0.763027
1.000000 0.940856 0.706081
1.000000 0.932494 0.639185
1.000000 0.921599 0.564416
1.000000 0.907408 0.481971
1.000000 0.888487 0.391241
1.000000 0.863127 0.285313
1.000000 0.829191 0.128817
1.000000 0.794827 0.000000
1.000000 0.763272 0.000000
1.000000 0.793912 0.000000
1.000000 0.821561 0.000000
1.000000 0.846067 0.207858
1.000000 0.867613 0.305486
1.000000 0.886107 0.385168
0.966705 0.962402 0.971130
0.967590 0.963439 0.972473
0.968658 0.964538 0.973510
0.969818 0.965515 0.974060
0.970977 0.966278 0.973816
0.972137 0.966613 0.972473
0.973449 0.966827 0.970306
0.975128 0.966918 0.967132
0.977264 0.967102 0.963378
0.979889 0.967254 0.958526
0.983093 0.967407 0.952636
0.986847 0.967468 0.945464
0.991272 0.967254 0.935912
0.996399 0.966735 0.924132
1.000000 0.965789 0.908965
1.000000 0.964355 0.889616
1.000000 0.962371 0.865537
1.000000 0.959686 0.834806
1.000000 0.956298 0.798093
1.000000 0.951843 0.753262
1.000000 0.946044 0.700313
1.000000 0.938476 0.639734
1.000000 0.928191 0.569177
1.000000 0.914122 0.485695
1.000000 0.894713 0.388708
1.000000 0.868070 0.270115
1.000000 0.837675 0.000000
1.000000 0.802121 0.000000
1.000000 0.812894 0.000000
1.000000 0.837308 0.000000
1.000000 0.858457 0.211795
1.000000 0.876463 0.300267
0.976745 0.973999 0.984924
0.977020 0.974273 0.985229
0.977264 0.974487 0.985290
0.977661 0.974640 0.984985
0.978119 0.974731 0.984222
0.978668 0.974701 0.983124
0.979461 0.974670 0.981384
0.980529 0.974670 0.979217
0.981903 0.974731 0.976623
0.983703 0.974853 0.973541
0.985870 0.974975 0.969757
0.988434 0.975006 0.964904
0.991394 0.974853 0.958862
0.994934 0.974517 0.950927
0.999115 0.973877 0.940856
1.000000 0.972900 0.927794
1.000000 0.971527 0.911467
1.000000 0.969696 0.890745
1.000000 0.967254 0.864652
1.000000 0.964111 0.832273
1.000000 0.959991 0.791318
1.000000 0.954711 0.741909
1.000000 0.947631 0.681514
1.000000 0.938201 0.611078
1.000000 0.925383 0.524376
1.000000 0.908171 0.423926
1.000000 0.884977 0.304906
1.000000 0.857237 0.127779
1.000000 0.825376 0.000000
1.000000 0.811002 0.000000
1.000000 0.832792 0.000000
1.000000 0.851591 0.000000
0.980621 0.978088 0.988800
0.980774 0.978271 0.989044
0.981018 0.978424 0.989014
0.981292 0.978546 0.988861
0.981628 0.978637 0.988373
0.982116 0.978637 0.987488
0.982727 0.978637 0.986206
0.983520 0.978637 0.984649
0.984558 0.978698 0.982757
0.985931 0.978790 0.980468
0.987549 0.978851 0.977569
0.989441 0.978912 0.974151
0.991730 0.978820 0.969604
0.994385 0.978637 0.964019
0.997498 0.978271 0.956970
1.000000 0.977661 0.947906
1.000000 0.976806 0.936645
1.000000 0.975647 0.922362
1.000000 0.974060 0.904356
1.000000 0.972045 0.882231
1.000000 0.969390 0.854368
1.000000 0.965942 0.819364
1.000000 0.961456 0.775662
1.000000 0.955566 0.721859
1.000000 0.943694 0.626398
1.000000 0.932036 0.538720
1.000000 0.916503 0.435401
1.000000 0.895933 0.313695
1.000000 0.869932 0.117281
1.000000 0.840421 0.000000
1.000000 0.805081 0.000000
1.000000 0.823270 0.000000
0.984771 0.982818 0.993713
0.984924 0.983032 0.993957
0.985077 0.983154 0.993988
0.985168 0.983124 0.993713
0.985321 0.983001 0.993133
0.985534 0.982849 0.992279
0.985840 0.982605 0.991119
0.986297 0.982391 0.989654
0.986969 0.982208 0.987854
0.987884 0.982025 0.985687
0.989014 0.981842 0.983062
0.990478 0.981689 0.979919
0.992248 0.981476 0.976013
0.994385 0.981140 0.970977
0.996918 0.980652 0.964660
1.000000 0.980011 0.956634
1.000000 0.979156 0.946563
1.000000 0.978180 0.934417
1.000000 0.976989 0.919982
1.000000 0.975555 0.902525
1.000000 0.973724 0.881102
1.000000 0.971283 0.854032
1.000000 0.967987 0.819089
1.000000 0.963470 0.772824
1.000000 0.957427 0.714748
1.000000 0.949371 0.644587
1.000000 0.938506 0.553368
1.000000 0.923888 0.442939
1.000000 0.904479 0.307561
1.000000 0.879728 0.000000
1.000000 0.851255 0.000000
1.000000 0.817044 0.000000
0.986481 0.984314 0.994293
0.986603 0.984497 0.994537
0.986755 0.984619 0.994598
0.986908 0.984649 0.994446
0.987091 0.984649 0.994079
0.987335 0.984619 0.993561
0.987701 0.984588 0.992828
0.988159 0.984558 0.991882
0.988800 0.984558 0.990723
0.989563 0.984588 0.989349
0.990509 0.984558 0.987579
0.991638 0.984497 0.985412
0.992981 0.984375 0.982574
0.994568 0.984161 0.979034
0.996551 0.983795 0.974243
0.998901 0.983307 0.968322
1.000000 0.982696 0.960845
1.000000 0.981933 0.951720
1.000000 0.981048 0.940673
1.000000 0.979980 0.927550
1.000000 0.978668 0.911620
1.000000 0.976959 0.891691
1.000000 0.974731 0.866270
1.000000 0.971710 0.833158
1.000000 0.967712 0.790494
1.000000 0.962493 0.736660
1.000000 0.955535 0.669825
1.000000 0.945983 0.581079
1.000000 0.932860 0.464729
1.000000 0.915190 0.321141
1.000000 0.892119 0.000000
1.000000 0.863096 0.000000
0.988556 0.986419 0.995789
0.988617 0.986481 0.995911
0.988678 0.986542 0.995880
0.988800 0.986542 0.995666
0.988922 0.986511 0.995361
0.989136 0.986450 0.994903
0.989410 0.986419 0.994263
0.989807 0.986389 0.993469
0.990295 0.986358 0.992523
0.990936 0.986328 0.991333
0.991730 0.986297 0.989837
0.992645 0.986267 0.988006
0.993744 0.986175 0.985748
0.995117 0.985992 0.982757
0.996674 0.985718 0.979004
0.998657 0.985321 0.974060
1.000000 0.984833 0.968017
1.000000 0.984222 0.960418
1.000000 0.983520 0.951476
1.000000 0.982696 0.940764
1.000000 0.981689 0.927855
1.000000 0.980377 0.911437
1.000000 0.978637 0.890562
1.000000 0.976349 0.863401
1.000000 0.973327 0.828519
1.000000 0.969329 0.782315
1.000000 0.964202 0.724666
1.000000 0.957458 0.654231
1.000000 0.948180 0.559319
1.000000 0.935149 0.428717
1.000000 0.917510 0.250767
1.000000 0.897368 0.000000
0.990051 0.987610 0.996002
0.990082 0.987671 0.996094
0.990143 0.987732 0.996063
0.990234 0.987732 0.995941
0.990387 0.987762 0.995758
0.990631 0.987823 0.995514
0.990936 0.987976 0.995239
0.991363 0.988128 0.994965
0.991852 0.988312 0.994568
0.992432 0.988556 0.994141
0.993072 0.988739 0.993530
0.993805 0.988922 0.992737
0.994659 0.989014 0.991638
0.995544 0.989075 0.990143
0.996643 0.989014 0.988098
0.997955 0.988800 0.985168
0.999481 0.988495 0.981506
1.000000 0.988128 0.976715
1.000000 0.987640 0.971069
1.000000 0.987091 0.964080
1.000000 0.986389 0.955505
1.000000 0.985473 0.944579
1.000000 0.984253 0.930297
1.000000 0.982666 0.911803
1.000000 0.980591 0.887175
1.000000 0.977844 0.854185
1.000000 0.974334 0.811948
1.000000 0.969726 0.756069
1.000000 0.963714 0.685756
1.000000 0.955200 0.587213
1.000000 0.945068 0.480812
1.000000 0.934966 0.404669
0.992004 0.989868 0.997864
0.992035 0.989868 0.997864
0.992065 0.989868 0.997803
0.992096 0.989837 0.997650
0.992218 0.989837 0.997406
0.992401 0.989807 0.997131
0.992584 0.989807 0.996765
0.992859 0.989807 0.996307
0.993225 0.989837 0.995758
0.993652 0.989868 0.995117
0.994141 0.989899 0.994324
0.994751 0.989929 0.993347
0.995422 0.989929 0.992157
0.996277 0.989899 0.990570
