20 Preset/City Style/【3】LUT video cho PR-AE-FCPX/TONE 3/Dubai I Burj.cube
# Created by Adobe Lightroom plugin Export LUT (1.24.0)
# www.johnrellis.com/lightroom/exportlut.htm
# Preset: Dubai I Burj
# Color profile: E:\lut插件\exportlut.1.24\exportlut.lrplugin\color profiles\Rec709gamma2.4.icc
LUT_3D_SIZE 8
DOMAIN_MIN 0.000000 0.000000 0.000000
DOMAIN_MAX 0.903226 0.903226 0.903226
0.049042 0.049317 0.032959
0.088289 0.047578 0.031189
0.378180 0.000000 0.007294
0.838132 0.000000 0.000000
1.000000 0.000000 0.000000
1.000000 0.000000 0.000000
1.000000 0.320165 0.335149
1.000000 0.482216 0.500633
0.033326 0.114473 0.014801
0.129580 0.104982 0.016449
0.306065 0.100069 0.000305
0.757107 0.000000 0.000000
1.000000 0.000000 0.000000
1.000000 0.106172 0.000000
1.000000 0.339269 0.303563
1.000000 0.473426 0.466682
0.000000 0.554376 0.000000
0.000000 0.550896 0.000000
0.645441 0.479561 0.000000
0.784329 0.335576 0.000000
0.953857 0.505516 0.053895
1.000000 0.537255 0.313573
1.000000 0.591516 0.503777
1.000000 0.643732 0.607965
0.000000 0.886107 0.000000
0.000000 0.877470 0.000000
0.662531 0.857603 0.153780
0.935790 0.819699 0.358038
0.990417 0.705135 0.515282
1.000000 0.736233 0.597498
1.000000 0.776120 0.662440
1.000000 0.775540 0.699886
0.000000 0.966583 0.515068
0.114351 0.963043 0.515282
0.571344 0.952361 0.532891
0.864683 0.936492 0.576928
0.989593 0.893339 0.624689
1.000000 0.828763 0.675013
1.000000 0.811826 0.721981
1.000000 0.841886 0.756039
0.517113 0.991760 0.688808
0.568963 0.991791 0.703944
0.666072 0.986664 0.709071
0.810147 0.977142 0.720424
0.966522 0.963500 0.736233
1.000000 0.934997 0.763821
1.000000 0.905119 0.795346
1.000000 0.879911 0.819638
0.721645 1.000000 0.788998
0.734768 1.000000 0.792142
0.770230 1.000000 0.792050
0.837369 0.994903 0.795834
0.924224 0.986847 0.798947
1.000000 0.974762 0.811429
1.000000 0.955993 0.828946
1.000000 0.934844 0.841764
0.830045 1.000000 0.845548
0.834104 1.000000 0.845457
0.852842 1.000000 0.847257
0.888914 1.000000 0.852354
0.926146 0.999847 0.832029
0.992248 0.993774 0.842985
1.000000 0.982483 0.855955
1.000000 0.968170 0.863127
0.000000 0.095979 0.169345
0.000000 0.088502 0.181033
0.313146 0.000000 0.109010
0.760403 0.000000 0.122408
1.000000 0.000000 0.243992
1.000000 0.000000 0.343359
1.000000 0.341680 0.455940
1.000000 0.489754 0.551385
0.000000 0.111299 0.176730
0.000000 0.132631 0.185641
0.327855 0.085573 0.140017
0.764187 0.000000 0.207034
1.000000 0.000000 0.275822
1.000000 0.185550 0.354406
1.000000 0.375189 0.445930
1.000000 0.489662 0.532616
0.000000 0.476661 0.497993
0.000000 0.504570 0.467018
0.482429 0.519921 0.260868
0.731350 0.427039 0.330053
0.932036 0.503319 0.367803
1.000000 0.534478 0.453895
1.000000 0.576837 0.543725
1.000000 0.631891 0.619684
0.000000 0.842832 0.576715
0.000000 0.842313 0.532952
0.330816 0.837125 0.398108
0.868528 0.801602 0.462409
0.925719 0.681453 0.547204
1.000000 0.719692 0.596918
1.000000 0.747433 0.645106
1.000000 0.753933 0.686122
0.000000 0.958801 0.629572
0.000000 0.955901 0.615900
0.442664 0.946380 0.592889
0.791348 0.928740 0.614496
0.964202 0.888457 0.642542
0.993378 0.824399 0.685664
1.000000 0.810361 0.726497
1.000000 0.839017 0.755489
0.459724 0.987854 0.706691
0.492134 0.986908 0.707301
0.609369 0.982025 0.713527
0.772183 0.973205 0.727657
0.938720 0.960510 0.746059
1.000000 0.935790 0.776699
1.000000 0.906249 0.803708
1.000000 0.880369 0.822385
0.695216 1.000000 0.788998
0.700343 1.000000 0.786099
0.738705 0.997955 0.785397
0.814206 0.992767 0.791531
0.909331 0.985199 0.800809
1.000000 0.973846 0.812558
1.000000 0.953918 0.825406
1.000000 0.930816 0.834775
0.816587 1.000000 0.842405
0.824094 1.000000 0.845212
0.842771 1.000000 0.846281
0.880369 1.000000 0.851682
0.929625 1.000000 0.856107
0.987793 0.994202 0.858427
1.000000 0.983307 0.864073
1.000000 0.969421 0.869902
0.000000 0.343542 0.755825
0.000000 0.333867 0.760494
0.000000 0.282536 0.764279
0.400244 0.000000 0.752499
0.978485 0.000000 0.637598
1.000000 0.331670 0.537652
1.000000 0.575616 0.681636
1.000000 0.709071 0.766232
0.000000 0.411475 0.745541
0.000000 0.403143 0.746975
0.000000 0.365362 0.752499
0.286137 0.183352 0.750240
0.957458 0.000000 0.641169
1.000000 0.415045 0.577691
1.000000 0.592187 0.689937
1.000000 0.713954 0.768612
0.000000 0.494423 0.743465
0.000000 0.513817 0.744228
0.000000 0.585718 0.745632
0.496681 0.601099 0.761990
0.915953 0.596948 0.676661
1.000000 0.671260 0.729183
1.000000 0.741299 0.781613
1.000000 0.781735 0.805020
0.000000 0.589563 0.809689
0.000000 0.607202 0.812436
0.378332 0.663478 0.816617
0.620386 0.833097 0.822934
0.855070 0.821500 0.801480
0.947265 0.831327 0.806424
1.000000 0.835874 0.817990
1.000000 0.842649 0.827451
0.000000 0.947478 0.895293
0.000000 0.945861 0.886900
0.311131 0.940887 0.855467
0.651270 0.935607 0.814572
0.895933 0.923766 0.813931
0.946014 0.885344 0.828367
0.985351 0.880308 0.838773
1.000000 0.894926 0.848692
0.456916 0.981842 0.843748
0.493507 0.981048 0.842710
0.598169 0.977173 0.835996
0.728145 0.971496 0.829984
0.867216 0.963043 0.836576
0.974548 0.950713 0.854826
0.991150 0.930510 0.870756
1.000000 0.916899 0.881743
0.728634 0.997833 0.862608
0.734463 0.997101 0.861448
0.765133 0.994385 0.860807
0.811612 0.991150 0.857877
0.886931 0.985473 0.862089
0.971862 0.978820 0.870573
1.000000 0.965759 0.881804
1.000000 0.950072 0.889189
0.834653 1.000000 0.884764
0.836576 1.000000 0.883726
0.851316 1.000000 0.884215
0.885039 1.000000 0.890349
0.925109 0.999420 0.893126
0.973785 0.995056 0.896788
1.000000 0.987640 0.901091
1.000000 0.976745 0.904479
0.000000 0.531212 0.925505
0.000000 0.531609 0.928832
0.000000 0.518822 0.929473
0.000000 0.490455 0.932464
0.000000 0.401801 0.937987
0.977752 0.334203 0.928313
1.000000 0.543694 0.782437
1.000000 0.687617 0.753231
0.000000 0.589868 0.925780
0.000000 0.588006 0.926421
0.000000 0.575494 0.927092
0.000000 0.550164 0.930907
0.000000 0.516960 0.936614
0.961883 0.444404 0.926207
1.000000 0.591577 0.789029
1.000000 0.711788 0.768063
0.000000 0.691798 0.910796
0.000000 0.696925 0.910246
0.000000 0.718227 0.910033
0.338354 0.711147 0.915648
0.520684 0.711757 0.923552
0.915160 0.701015 0.923095
1.000000 0.766384 0.836851
1.000000 0.815763 0.840421
0.000000 0.753628 0.918517
0.241703 0.760037 0.916686
0.480537 0.790707 0.912505
0.671504 0.841611 0.908782
0.775143 0.862791 0.910613
0.889799 0.848356 0.913970
0.986145 0.860777 0.870054
1.000000 0.885588 0.894865
0.512352 0.791592 0.920806
0.534173 0.796414 0.919463
0.619745 0.820951 0.917266
0.738643 0.861845 0.916960
0.840330 0.899168 0.917449
0.910765 0.929992 0.920806
0.956603 0.929107 0.920958
0.993164 0.929839 0.921324
0.609216 0.892973 0.952056
0.637690 0.902403 0.953491
0.676600 0.921202 0.950927
0.746670 0.950805 0.948882
0.832029 0.965057 0.936034
0.917510 0.963287 0.923217
0.967956 0.954070 0.929717
0.989746 0.949157 0.932433
0.717372 0.995697 0.940398
0.728756 0.995178 0.939635
0.765896 0.993072 0.935760
0.821530 0.989837 0.930358
0.877470 0.986481 0.925566
0.934783 0.982757 0.926116
0.987366 0.976715 0.930449
0.997742 0.966430 0.933898
0.852995 1.000000 0.929992
0.856687 1.000000 0.930175
0.871824 1.000000 0.931365
0.893217 1.000000 0.931914
0.922057 0.999084 0.932952
0.958526 0.996002 0.934630
0.999969 0.992462 0.937377
1.000000 0.984802 0.940429
0.000000 0.618952 0.985565
0.000000 0.620996 0.986419
0.000000 0.621363 0.986175
0.000000 0.624811 0.988067
0.000000 0.626459 0.989532
0.000000 0.624079 0.987762
0.812558 0.606744 0.981750
1.000000 0.681758 0.941772
0.000000 0.659724 0.983307
0.000000 0.661524 0.984253
0.000000 0.660822 0.984314
0.000000 0.662440 0.985718
0.000000 0.661860 0.986297
0.272160 0.663050 0.984405
0.812375 0.648066 0.979126
1.000000 0.707668 0.940764
0.000000 0.773861 0.972839
0.147127 0.774624 0.973053
0.249546 0.772732 0.972686
0.359350 0.769650 0.972168
0.465278 0.766415 0.971740
0.561547 0.763851 0.970214
0.818265 0.752804 0.968963
1.000000 0.775082 0.934142
0.476265 0.833280 0.963256
0.501610 0.836728 0.962585
0.591241 0.852110 0.960723
0.703273 0.875486 0.958160
0.743252 0.878416 0.958312
0.773556 0.876524 0.959106
0.859617 0.865019 0.960876
1.000000 0.865354 0.929412
0.603754 0.857267 0.960449
0.620844 0.861570 0.960082
0.676967 0.875853 0.958068
0.756130 0.897704 0.955230
0.829465 0.919188 0.952361
0.879210 0.930480 0.952361
0.903929 0.923888 0.955047
0.988952 0.923369 0.926635
0.678920 0.868956 0.956023
0.689143 0.871916 0.955749
0.720211 0.880278 0.953521
0.776822 0.897337 0.951263
0.840299 0.917937 0.949737
0.902251 0.941466 0.953185
0.945769 0.959197 0.957519
0.976074 0.962707 0.957397
0.762844 0.905638 0.976837
0.763760 0.908415 0.976104
0.775021 0.922728 0.973938
0.811795 0.947631 0.972168
0.856596 0.971191 0.970947
0.904234 0.980865 0.962463
0.953826 0.979706 0.954803
0.984466 0.973297 0.956390
0.800198 1.000000 0.964233
0.805295 1.000000 0.963470
0.826566 1.000000 0.960906
0.870085 1.000000 0.959930
0.908690 0.998291 0.957885
0.941100 0.996185 0.956909
0.977020 0.993530 0.958679
0.999878 0.988952 0.960327
0.000000 0.688289 1.000000
0.000000 0.691096 1.000000
0.000000 0.695613 1.000000
0.000000 0.705043 1.000000
0.000000 0.715663 1.000000
0.271611 0.731411 1.000000
0.504143 0.754025 1.000000
0.765805 0.757107 1.000000
0.000000 0.709560 1.000000
0.000000 0.710170 1.000000
0.000000 0.712398 1.000000
0.000000 0.717983 1.000000
0.000000 0.727596 1.000000
0.341436 0.742763 1.000000
0.525689 0.762875 1.000000
0.766445 0.762722 1.000000
0.366094 0.808896 0.998199
0.370825 0.808438 0.998016
0.403845 0.809506 0.997528
0.436866 0.806363 0.996124
0.512108 0.811521 0.995148
0.592096 0.820462 0.994202
0.668482 0.831846 0.993500
0.808530 0.825223 0.994446
0.665095 0.884367 0.987610
0.673213 0.885832 0.986999
0.714626 0.895262 0.985412
0.748592 0.902464 0.985534
0.769436 0.904112 0.985657
0.790799 0.904417 0.985534
0.816434 0.905608 0.986267
0.874113 0.895506 0.988373
0.715084 0.904631 0.981262
0.722744 0.906493 0.980896
0.753811 0.914275 0.979614
0.801694 0.924987 0.978515
0.849638 0.935973 0.977234
0.870237 0.938445 0.977173
0.881010 0.936706 0.978759
0.916197 0.927794 0.981018
0.763973 0.914305 0.979339
0.774044 0.917418 0.979522
0.794156 0.922881 0.978546
0.827146 0.932128 0.977020
0.865019 0.943084 0.975250
0.907225 0.956634 0.975036
0.937560 0.964599 0.976471
0.959655 0.960784 0.977813
0.823362 0.930846 0.982147
0.828794 0.932647 0.982238
0.841093 0.936217 0.981506
0.862913 0.942535 0.980102
0.891020 0.950835 0.978241
0.922606 0.960754 0.976623
0.951080 0.970611 0.976410
0.977356 0.981537 0.977600
0.843992 0.939574 0.993286
0.844297 0.940246 0.993011
0.849790 0.949432 0.991821
0.864988 0.967193 0.990204
0.888243 0.986328 0.988373
0.924071 0.995483 0.985016
0.959594 0.994079 0.977386
0.989685 0.992462 0.977142
0.000000 0.722469 1.000000
0.000000 0.724208 1.000000
0.000000 0.728664 1.000000
0.000000 0.737972 1.000000
0.000000 0.751095 1.000000
0.323705 0.768673 1.000000
0.499397 0.789303 1.000000
0.612207 0.810849 1.000000
0.000000 0.741299 1.000000
0.000000 0.743099 1.000000
0.000000 0.746822 1.000000
0.000000 0.754177 1.000000
0.000000 0.765530 1.000000
0.385748 0.779934 1.000000
0.521386 0.796689 1.000000
0.620081 0.814359 1.000000
0.382422 0.816526 1.000000
0.389807 0.817044 1.000000
0.416724 0.818875 1.000000
0.465309 0.823178 1.000000
0.523766 0.829282 1.000000
0.588678 0.837980 1.000000
0.656367 0.849577 1.000000
0.718013 0.861265 1.000000
0.703517 0.897642 0.999084
0.702296 0.896880 0.998993
0.706783 0.896757 0.998840
0.720089 0.898131 0.998657
0.737423 0.899504 0.998352
0.761929 0.902342 0.998108
0.790463 0.906218 0.997925
0.816770 0.908812 0.998322
0.778134 0.924743 0.994171
0.781338 0.925353 0.993927
0.798306 0.929198 0.993194
0.828367 0.936492 0.992157
0.848814 0.940520 0.991669
0.857633 0.940307 0.991943
0.869413 0.940459 0.992401
0.884367 0.941344 0.993988
0.817502 0.939391 0.991943
0.821073 0.940368 0.991791
0.834440 0.943999 0.991272
0.857145 0.950347 0.990387
0.884489 0.957000 0.989654
0.914763 0.964385 0.989258
0.927276 0.966247 0.989685
0.933501 0.965179 0.991180
0.851987 0.948089 0.992126
0.854826 0.948913 0.992065
0.864256 0.951629 0.991638
0.881376 0.956634 0.990936
0.903227 0.963104 0.990021
0.927459 0.970520 0.989105
0.951507 0.978149 0.988556
0.968170 0.981994 0.989105
0.879301 0.955779 0.994415
0.881193 0.956329 0.994354
0.889494 0.958923 0.994110
0.902586 0.962860 0.993439
0.919615 0.967956 0.992401
0.939361 0.973785 0.990936
0.962097 0.981384 0.990387
0.980041 0.989044 0.991272
0.000000 0.758755 1.000000
0.000000 0.760311 1.000000
0.000000 0.764034 1.000000
0.000000 0.773068 1.000000
0.231327 0.785977 1.000000
0.418067 0.801907 1.000000
0.537926 0.821012 1.000000
0.628473 0.839567 1.000000
0.000000 0.774594 1.000000
0.000000 0.775967 1.000000
0.000000 0.779629 1.000000
0.097292 0.787320 1.000000
0.340246 0.798642 1.000000
0.464973 0.812833 1.000000
0.562463 0.829160 1.000000
0.642878 0.845396 1.000000
0.450904 0.832761 1.000000
0.456397 0.833433 1.000000
0.473884 0.835233 1.000000
0.516136 0.841581 1.000000
0.560418 0.847929 1.000000
0.610163 0.855711 1.000000
0.665217 0.865873 1.000000
0.716579 0.875822 1.000000
0.696956 0.898070 1.000000
0.699184 0.898497 1.000000
0.704616 0.899107 1.000000
0.717464 0.901122 1.000000
0.734859 0.903593 1.000000
0.755917 0.906554 1.000000
0.781643 0.910613 1.000000
0.808103 0.914824 1.000000
0.830808 0.941650 1.000000
0.834012 0.942473 1.000000
0.833127 0.941650 1.000000
0.835172 0.941192 1.000000
0.841520 0.941497 1.000000
0.850340 0.942016 1.000000
0.862852 0.943359 1.000000
0.878080 0.945342 1.000000
0.858824 0.954131 0.999908
0.860227 0.954406 0.999847
0.867063 0.955932 0.999542
0.881163 0.959289 0.999054
0.901183 0.964233 0.998505
0.914916 0.967315 0.998474
0.922637 0.968170 0.998840
0.929076 0.968078 0.999176
0.886076 0.963684 0.999268
0.887449 0.964050 0.999207
0.893278 0.965698 0.998901
0.904631 0.968963 0.998383
0.920256 0.973510 0.997711
0.938140 0.978119 0.997223
0.957733 0.983093 0.996918
0.963134 0.983398 0.997253
0.904662 0.968322 0.999451
0.905730 0.968627 0.999390
0.910735 0.970092 0.999176
0.920684 0.973114 0.998779
0.934081 0.977173 0.998230
0.949645 0.981994 0.997620
0.966888 0.987427 0.997040
0.983062 0.992676 0.996643
