20 Preset/City Style/【3】LUT video cho PR-AE-FCPX/TONE 3/Dubai I Tron.cube
# Created by Adobe Lightroom plugin Export LUT (1.24.0)
# www.johnrellis.com/lightroom/exportlut.htm
# Preset: Dubai I Tron
# Color profile: E:\lut插件\exportlut.1.24\exportlut.lrplugin\color profiles\Rec709gamma2.4.icc
LUT_3D_SIZE 8
DOMAIN_MIN 0.000000 0.000000 0.000000
DOMAIN_MAX 0.903226 0.903226 0.903226
0.098238 0.105013 0.113497
0.078401 0.104891 0.111543
0.151980 0.086641 0.100923
0.359380 0.000000 0.099825
0.733455 0.000000 0.116670
1.000000 0.000000 0.157076
1.000000 0.000000 0.241581
1.000000 0.000000 0.357244
0.087984 0.094057 0.100618
0.088228 0.094392 0.101289
0.162112 0.115724 0.098787
0.366674 0.088746 0.108095
0.729427 0.000000 0.133883
1.000000 0.000000 0.171695
1.000000 0.000000 0.246159
1.000000 0.055848 0.344793
0.268101 0.278843 0.281071
0.263127 0.276432 0.296025
0.266697 0.280339 0.299809
0.406653 0.325902 0.315251
0.980560 0.516045 0.277897
1.000000 0.537530 0.339391
1.000000 0.625818 0.457771
1.000000 0.693233 0.550378
0.834531 0.836637 0.836576
0.824949 0.827054 0.839841
0.809110 0.815366 0.848539
0.823178 0.829191 0.862943
0.811124 0.817350 0.850614
1.000000 0.894072 0.856901
1.000000 0.940002 0.868833
1.000000 0.928191 0.849546
0.954406 0.956756 0.979736
0.953094 0.955566 0.980285
0.950103 0.953429 0.982361
0.948150 0.951537 0.980835
0.940826 0.944427 0.974853
0.927703 0.931701 0.963653
0.975830 0.943145 0.961913
1.000000 0.962432 0.960906
0.978454 0.980438 1.000000
0.979644 0.981537 1.000000
0.978943 0.980987 1.000000
0.977844 0.979980 1.000000
0.975982 0.978210 0.999756
0.974151 0.976471 0.998810
0.972442 0.974823 0.997833
0.971923 0.973724 0.997040
0.986847 0.987945 1.000000
0.986999 0.988067 1.000000
0.986633 0.987762 1.000000
0.986145 0.987335 1.000000
0.985107 0.986481 1.000000
0.984466 0.985931 1.000000
0.984009 0.985565 1.000000
0.982849 0.984619 1.000000
0.988373 0.989227 1.000000
0.988312 0.989166 1.000000
0.988220 0.989105 1.000000
0.988128 0.989014 1.000000
0.986419 0.987579 1.000000
0.986297 0.987488 1.000000
0.986481 0.987640 1.000000
0.986358 0.987518 1.000000
0.000000 0.149599 0.279362
0.000000 0.146090 0.279240
0.000000 0.132692 0.232578
0.248783 0.177127 0.275486
0.354528 0.367041 0.383886
0.899016 0.188174 0.387610
1.000000 0.000000 0.413886
1.000000 0.000000 0.431983
0.000000 0.172549 0.302342
0.000000 0.181338 0.310948
0.000000 0.191928 0.313909
0.303807 0.231174 0.314672
0.482124 0.364263 0.395789
0.964904 0.042817 0.385595
1.000000 0.000000 0.399329
1.000000 0.000000 0.400000
0.000000 0.486183 0.421363
0.000000 0.501823 0.434974
0.375158 0.547845 0.484382
0.725704 0.546868 0.531456
0.984314 0.402350 0.468757
1.000000 0.352117 0.467872
1.000000 0.417884 0.496315
1.000000 0.560327 0.552575
0.834379 0.889830 0.834562
0.842130 0.883970 0.839841
0.867430 0.874571 0.878813
0.855070 0.860594 0.894987
0.824552 0.830503 0.864317
1.000000 0.895903 0.858152
1.000000 0.911437 0.842557
1.000000 0.900145 0.824796
0.961883 0.966308 0.981659
0.960845 0.964721 0.981353
0.958801 0.961334 0.984039
0.953643 0.956817 0.985077
0.943297 0.946838 0.976898
0.929808 0.933745 0.965515
0.978119 0.945159 0.963165
1.000000 0.962982 0.962066
0.979828 0.981811 0.999786
0.979797 0.981750 1.000000
0.979431 0.981353 1.000000
0.978607 0.980682 1.000000
0.977142 0.979278 1.000000
0.976043 0.978271 0.999786
0.973816 0.976165 0.998627
0.973816 0.974090 0.997009
0.987182 0.988220 1.000000
0.986877 0.987945 1.000000
0.986389 0.987549 1.000000
0.986053 0.987243 1.000000
0.985504 0.986816 1.000000
0.984741 0.986145 1.000000
0.983642 0.985229 1.000000
0.981750 0.983612 1.000000
0.988952 0.989715 1.000000
0.989044 0.989807 1.000000
0.988922 0.989685 1.000000
0.988861 0.989624 1.000000
0.988556 0.989380 1.000000
0.987945 0.988861 1.000000
0.987243 0.988251 1.000000
0.986328 0.987488 1.000000
0.000000 0.567620 1.000000
0.000000 0.571374 1.000000
0.000000 0.579553 1.000000
0.000000 0.601221 1.000000
0.299870 0.679896 0.992157
0.880491 0.767880 0.976287
0.953368 0.882322 0.954498
0.953796 0.941222 0.973480
0.000000 0.638270 1.000000
0.000000 0.639765 1.000000
0.000000 0.647730 1.000000
0.000000 0.661036 1.000000
0.440925 0.722805 0.991150
0.885924 0.792569 0.975769
0.946624 0.883238 0.949279
0.963104 0.930755 0.966033
0.000000 0.802396 1.000000
0.000000 0.814298 1.000000
0.393164 0.854154 1.000000
0.682704 0.875425 1.000000
0.824582 0.893828 0.997772
0.944244 0.900603 0.983124
0.951385 0.937560 0.973236
1.000000 0.925872 0.965820
0.682063 0.970123 0.999176
0.726070 0.969635 0.999969
0.822873 0.967346 1.000000
0.921874 0.968597 1.000000
0.964477 0.972168 1.000000
0.971496 0.970886 0.996033
0.993378 0.956481 0.987884
1.000000 0.921202 0.964874
0.935027 0.989044 0.993042
0.938750 0.988678 0.993347
0.953277 0.987579 0.995178
0.972808 0.986847 0.999207
0.983734 0.985626 1.000000
0.979767 0.981781 1.000000
0.990326 0.983398 1.000000
0.997101 0.984344 0.998322
0.986023 0.990753 1.000000
0.986389 0.990753 1.000000
0.987182 0.990478 1.000000
0.988312 0.990021 1.000000
0.988739 0.989563 1.000000
0.988159 0.989044 1.000000
0.986999 0.988037 1.000000
0.988678 0.987549 1.000000
0.992370 0.993042 1.000000
0.992248 0.992920 1.000000
0.992035 0.992615 1.000000
0.991913 0.992370 1.000000
0.991608 0.992035 1.000000
0.991302 0.991791 1.000000
0.991119 0.991638 1.000000
0.990509 0.991058 1.000000
0.993072 0.993347 1.000000
0.992981 0.993286 1.000000
0.992920 0.993225 1.000000
0.993072 0.993317 1.000000
0.992859 0.993164 1.000000
0.992615 0.992950 1.000000
0.992279 0.992645 1.000000
0.991730 0.992126 1.000000
0.000000 0.819181 1.000000
0.000000 0.830106 1.000000
0.000000 0.851469 1.000000
0.368719 0.881621 1.000000
0.696620 0.908171 1.000000
0.839963 0.928740 1.000000
0.915312 0.947570 1.000000
0.978302 0.952972 1.000000
0.000000 0.876432 1.000000
0.000000 0.880095 1.000000
0.229191 0.889769 1.000000
0.605585 0.910918 1.000000
0.774105 0.925841 1.000000
0.866880 0.938476 1.000000
0.925261 0.952850 1.000000
0.979278 0.956725 1.000000
0.723232 0.943236 1.000000
0.753414 0.946105 1.000000
0.790829 0.948241 1.000000
0.840269 0.951476 1.000000
0.900328 0.959594 1.000000
0.940215 0.967590 1.000000
0.965728 0.975677 1.000000
0.986114 0.975006 1.000000
0.890288 0.971771 1.000000
0.896178 0.972168 1.000000
0.922210 0.975189 1.000000
0.954314 0.980377 1.000000
0.966918 0.982208 1.000000
0.974121 0.983093 1.000000
0.980835 0.984710 1.000000
0.989532 0.984588 1.000000
0.957275 0.989227 1.000000
0.958434 0.989105 1.000000
0.965576 0.989136 1.000000
0.976837 0.989960 1.000000
0.985504 0.991058 1.000000
0.990234 0.992157 1.000000
0.991760 0.992432 1.000000
0.992493 0.992706 1.000000
0.981537 0.994629 1.000000
0.983459 0.994842 1.000000
0.984771 0.994751 1.000000
0.987732 0.994781 1.000000
0.990845 0.994965 1.000000
0.993622 0.995331 1.000000
0.995392 0.995483 1.000000
0.996246 0.995514 1.000000
0.994232 0.996338 1.000000
0.994385 0.996368 1.000000
0.994812 0.996368 1.000000
0.995514 0.996429 1.000000
0.995941 0.996338 1.000000
0.996216 0.996307 1.000000
0.996124 0.996185 1.000000
0.995880 0.995972 1.000000
0.996765 0.996918 1.000000
0.996796 0.996918 1.000000
0.996765 0.996887 1.000000
0.996826 0.996857 1.000000
0.996765 0.996826 1.000000
0.996674 0.996704 1.000000
0.996582 0.996612 1.000000
0.996429 0.996490 1.000000
0.501213 0.924773 1.000000
0.557641 0.929015 1.000000
0.657008 0.936248 1.000000
0.773159 0.947173 1.000000
0.854917 0.956817 1.000000
0.905882 0.964172 1.000000
0.941833 0.971466 1.000000
0.965576 0.978271 1.000000
0.699001 0.943542 1.000000
0.727443 0.946471 1.000000
0.772152 0.950469 1.000000
0.825986 0.955535 1.000000
0.880156 0.962127 1.000000
0.919646 0.968048 1.000000
0.948608 0.973999 1.000000
0.968475 0.979736 1.000000
0.891264 0.970245 1.000000
0.894713 0.970672 1.000000
0.900999 0.971038 1.000000
0.913939 0.972168 1.000000
0.931456 0.974212 1.000000
0.947875 0.976532 1.000000
0.964538 0.980316 1.000000
0.975555 0.983307 1.000000
0.949981 0.982300 1.000000
0.952270 0.982696 1.000000
0.961425 0.984466 1.000000
0.969024 0.985962 1.000000
0.973297 0.986572 1.000000
0.977935 0.987396 1.000000
0.982635 0.988495 1.000000
0.986419 0.989502 1.000000
0.972961 0.988617 1.000000
0.974121 0.988861 1.000000
0.977630 0.989624 1.000000
0.982696 0.990845 1.000000
0.987243 0.992126 1.000000
0.989532 0.992737 1.000000
0.991119 0.993133 1.000000
0.992828 0.993713 1.000000
0.984009 0.993378 1.000000
0.984466 0.993439 1.000000
0.985290 0.993439 1.000000
0.987549 0.993713 1.000000
0.990600 0.994354 1.000000
0.993896 0.995453 1.000000
0.995880 0.996399 1.000000
0.996704 0.996826 1.000000
0.993194 0.997223 1.000000
0.993133 0.997162 1.000000
0.993256 0.997040 1.000000
0.994171 0.997131 1.000000
0.995300 0.997284 1.000000
0.996277 0.997467 1.000000
0.997253 0.997681 1.000000
0.997650 0.997681 1.000000
0.997589 0.998169 1.000000
0.997620 0.998169 1.000000
0.997681 0.998138 1.000000
0.997986 0.998291 1.000000
0.998138 0.998260 1.000000
0.998260 0.998291 1.000000
0.998291 0.998291 1.000000
0.998230 0.998230 1.000000
0.843717 0.963439 1.000000
0.853056 0.964691 1.000000
0.868711 0.966522 1.000000
0.897337 0.970459 1.000000
0.923308 0.974395 1.000000
0.945830 0.978485 1.000000
0.963470 0.982483 1.000000
0.976104 0.986114 1.000000
0.858366 0.965515 1.000000
0.861845 0.965911 1.000000
0.875303 0.967498 1.000000
0.898863 0.970672 1.000000
0.924407 0.974609 1.000000
0.946777 0.978698 1.000000
0.963775 0.982544 1.000000
0.976013 0.986053 1.000000
0.941894 0.980468 1.000000
0.942168 0.980438 1.000000
0.945434 0.980896 1.000000
0.948089 0.981018 1.000000
0.957305 0.982635 1.000000
0.967193 0.984741 1.000000
0.975921 0.986969 1.000000
0.982696 0.989044 1.000000
0.977111 0.989288 1.000000
0.976989 0.989227 1.000000
0.978149 0.989471 1.000000
0.981018 0.990265 1.000000
0.983398 0.990875 1.000000
0.985626 0.991455 1.000000
0.988190 0.992279 1.000000
0.990509 0.993133 1.000000
0.984710 0.992004 1.000000
0.985046 0.992096 1.000000
0.986481 0.992554 1.000000
0.988922 0.993347 1.000000
0.990600 0.993957 1.000000
0.991394 0.994171 1.000000
0.992462 0.994537 1.000000
0.993652 0.994965 1.000000
0.990417 0.994446 1.000000
0.990906 0.994629 1.000000
0.991455 0.994812 1.000000
0.992401 0.995178 1.000000
0.993622 0.995636 1.000000
0.995239 0.996429 1.000000
0.996246 0.996948 1.000000
0.996857 0.997253 1.000000
0.995361 0.997253 1.000000
0.995483 0.997314 1.000000
0.995666 0.997406 1.000000
0.996033 0.997498 1.000000
0.996521 0.997681 1.000000
0.997192 0.997925 1.000000
0.997833 0.998199 1.000000
0.998474 0.998566 1.000000
0.997681 0.998810 1.000000
0.997620 0.998810 1.000000
0.997681 0.998779 1.000000
0.997803 0.998840 1.000000
0.998077 0.998871 1.000000
0.998505 0.998962 1.000000
0.998932 0.999084 1.000000
0.999115 0.999115 1.000000
0.906981 0.973877 1.000000
0.910857 0.974517 1.000000
0.918853 0.975738 1.000000
0.932860 0.978119 1.000000
0.947051 0.980713 1.000000
0.959991 0.983398 1.000000
0.970428 0.985870 1.000000
0.978454 0.988159 1.000000
0.916533 0.975586 1.000000
0.920134 0.976196 1.000000
0.926329 0.977203 1.000000
0.936614 0.978912 1.000000
0.948669 0.981109 1.000000
0.959808 0.983337 1.000000
0.969299 0.985504 1.000000
0.977081 0.987579 1.000000
0.956298 0.983825 1.000000
0.956847 0.983948 1.000000
0.958556 0.984222 1.000000
0.962463 0.984955 1.000000
0.967193 0.985931 1.000000
0.972992 0.987243 1.000000
0.979126 0.988891 1.000000
0.984283 0.990570 1.000000
0.981018 0.990631 1.000000
0.980835 0.990539 1.000000
0.981018 0.990570 1.000000
0.982300 0.990875 1.000000
0.983764 0.991241 1.000000
0.985992 0.991913 1.000000
0.988464 0.992767 1.000000
0.990539 0.993561 1.000000
0.990265 0.994141 1.000000
0.990234 0.994110 1.000000
0.990448 0.994171 1.000000
0.990723 0.994232 1.000000
0.991241 0.994415 1.000000
0.991974 0.994659 1.000000
0.993011 0.995087 1.000000
0.994354 0.995758 1.000000
0.993530 0.995789 1.000000
0.993622 0.995850 1.000000
0.993957 0.996002 1.000000
0.994568 0.996277 1.000000
0.995361 0.996674 1.000000
0.996094 0.997040 1.000000
0.996521 0.997284 1.000000
0.996979 0.997498 1.000000
0.996277 0.997436 1.000000
0.996338 0.997467 1.000000
0.996490 0.997528 1.000000
0.996765 0.997681 1.000000
0.997162 0.997894 1.000000
0.997620 0.998169 1.000000
0.998169 0.998474 1.000000
0.998505 0.998688 1.000000
0.998108 0.998810 1.000000
0.998169 0.998810 1.000000
0.998260 0.998901 1.000000
0.998383 0.998962 1.000000
0.998566 0.999023 1.000000
0.998779 0.999145 1.000000
0.999054 0.999298 1.000000
0.999329 0.999420 1.000000
0.953155 0.983154 1.000000
0.954376 0.983429 1.000000
0.956329 0.983795 1.000000
0.961608 0.984924 1.000000
0.967742 0.986297 1.000000
0.973846 0.987823 1.000000
0.979797 0.989532 1.000000
0.984649 0.991089 1.000000
0.956603 0.983978 1.000000
0.957671 0.984192 1.000000
0.959777 0.984619 1.000000
0.964019 0.985534 1.000000
0.969421 0.986786 1.000000
0.974975 0.988190 1.000000
0.980346 0.989715 1.000000
0.984924 0.991211 1.000000
0.971435 0.987732 1.000000
0.971771 0.987823 1.000000
0.972625 0.988006 1.000000
0.975708 0.988830 1.000000
0.978332 0.989502 1.000000
0.981384 0.990326 1.000000
0.984985 0.991485 1.000000
0.988251 0.992676 1.000000
0.984527 0.991852 1.000000
0.984741 0.991913 1.000000
0.985107 0.992035 1.000000
0.986175 0.992370 1.000000
0.987457 0.992798 1.000000
0.989014 0.993347 1.000000
0.990814 0.994079 1.000000
0.992157 0.994629 1.000000
0.992615 0.995239 1.000000
0.992645 0.995239 1.000000
0.992493 0.995178 1.000000
0.992706 0.995270 1.000000
0.993256 0.995483 1.000000
0.993713 0.995666 1.000000
0.994324 0.995941 1.000000
0.994995 0.996277 1.000000
0.996033 0.997162 1.000000
0.996033 0.997162 1.000000
0.996094 0.997192 1.000000
0.996338 0.997314 1.000000
0.996277 0.997253 1.000000
0.996521 0.997375 1.000000
0.996887 0.997589 1.000000
0.997223 0.997772 1.000000
0.997467 0.998108 1.000000
0.997467 0.998108 1.000000
0.997528 0.998138 1.000000
0.997650 0.998230 1.000000
0.997864 0.998352 1.000000
0.998169 0.998535 1.000000
0.998383 0.998688 1.000000
0.998566 0.998779 1.000000
0.998535 0.998932 1.000000
0.998535 0.998962 1.000000
0.998566 0.998962 1.000000
0.998688 0.999023 1.000000
0.998840 0.999115 1.000000
0.998993 0.999237 1.000000
0.999237 0.999390 1.000000
0.999481 0.999573 1.000000
