20 Preset/City Style/【3】LUT video cho PR-AE-FCPX/TONE 3/Dubai I Tron.cube
# Created by Adobe Lightroom plugin Export LUT (1.24.0)
# www.johnrellis.com/lightroom/exportlut.htm
# Preset: Dubai I Tron
# Color profile: E:\lut插件\exportlut.1.24\exportlut.lrplugin\color profiles\Rec709gamma2.4.icc
LUT_3D_SIZE 5
DOMAIN_MIN 0.000000 0.000000 0.000000
DOMAIN_MAX 0.903226 0.903226 0.903226
0.098238 0.105013 0.113497
0.119783 0.093019 0.102968
0.525994 0.000000 0.105776
1.000000 0.000000 0.172457
1.000000 0.000000 0.357244
0.187778 0.192264 0.207187
0.191958 0.198093 0.219425
0.777310 0.368658 0.204868
1.000000 0.363806 0.299351
1.000000 0.613275 0.506737
0.924620 0.927031 0.946838
0.907805 0.912261 0.945708
0.908782 0.913237 0.946624
0.963592 0.911620 0.925505
1.000000 0.958495 0.923369
0.982605 0.984344 1.000000
0.982208 0.984039 1.000000
0.980774 0.982696 1.000000
0.977874 0.980011 1.000000
0.974701 0.976989 0.999084
0.988373 0.989227 1.000000
0.988251 0.989105 1.000000
0.986572 0.987701 1.000000
0.986358 0.987518 1.000000
0.986358 0.987518 1.000000
0.000000 0.450446 0.980133
0.000000 0.454170 0.976806
0.000000 0.501976 0.908934
0.896513 0.725399 0.868193
1.000000 0.840208 0.896910
0.000000 0.662867 0.992340
0.000000 0.721828 0.986969
0.574395 0.758663 0.961425
0.909789 0.861387 0.916533
1.000000 0.837491 0.898039
0.843992 0.982605 0.969757
0.886564 0.978637 0.972259
0.970062 0.973754 0.994812
0.987366 0.972381 0.990234
1.000000 0.967651 0.981048
0.989380 0.991150 1.000000
0.989746 0.991058 1.000000
0.989899 0.990570 1.000000
0.987884 0.988830 1.000000
0.985290 0.986603 1.000000
0.992523 0.992859 1.000000
0.992401 0.992737 1.000000
0.992187 0.992554 1.000000
0.991669 0.992096 1.000000
0.990997 0.991516 1.000000
0.000000 0.885924 1.000000
0.253880 0.901671 1.000000
0.738186 0.934173 1.000000
0.892454 0.953918 1.000000
0.960510 0.970153 1.000000
0.787686 0.953368 1.000000
0.807004 0.954345 1.000000
0.876371 0.960601 1.000000
0.936553 0.969177 1.000000
0.973205 0.978363 1.000000
0.946319 0.982330 1.000000
0.955261 0.983612 1.000000
0.977020 0.987945 1.000000
0.984558 0.989441 1.000000
0.990997 0.990692 1.000000
0.987335 0.995514 1.000000
0.987488 0.995361 1.000000
0.991180 0.995636 1.000000
0.994903 0.996216 1.000000
0.996979 0.996643 1.000000
0.997284 0.997559 1.000000
0.997345 0.997589 1.000000
0.997528 0.997620 1.000000
0.997528 0.997559 1.000000
0.997345 0.997375 1.000000
0.840513 0.962982 1.000000
0.863249 0.965942 1.000000
0.910124 0.972564 1.000000
0.950408 0.979767 1.000000
0.974914 0.985962 1.000000
0.922423 0.976532 1.000000
0.927276 0.977203 1.000000
0.944457 0.979950 1.000000
0.964019 0.983764 1.000000
0.979644 0.987945 1.000000
0.980621 0.990478 1.000000
0.981842 0.990784 1.000000
0.983978 0.991272 1.000000
0.986572 0.991852 1.000000
0.991150 0.993591 1.000000
0.992889 0.995544 1.000000
0.993042 0.995605 1.000000
0.994293 0.996124 1.000000
0.996185 0.997040 1.000000
0.997192 0.997559 1.000000
0.997864 0.998871 1.000000
0.997925 0.998901 1.000000
0.998199 0.998993 1.000000
0.998688 0.999115 1.000000
0.999207 0.999268 1.000000
0.953155 0.983154 1.000000
0.955474 0.983612 1.000000
0.964721 0.985595 1.000000
0.975402 0.988251 1.000000
0.984649 0.991089 1.000000
0.967864 0.986786 1.000000
0.969177 0.987060 1.000000
0.974090 0.988251 1.000000
0.980743 0.990051 1.000000
0.987488 0.992340 1.000000
0.989044 0.993591 1.000000
0.989136 0.993622 1.000000
0.990082 0.993957 1.000000
0.991852 0.994659 1.000000
0.993591 0.995422 1.000000
0.996521 0.997467 1.000000
0.996582 0.997498 1.000000
0.996918 0.997681 1.000000
0.997070 0.997772 1.000000
0.997589 0.998047 1.000000
0.998535 0.998932 1.000000
0.998566 0.998962 1.000000
0.998749 0.999084 1.000000
0.999054 0.999268 1.000000
0.999481 0.999573 1.000000
