20 Preset/City Style/【3】LUT video cho PR-AE-FCPX/TONE 3/Dubai I Armani.cube
# Created by Adobe Lightroom plugin Export LUT (1.24.0)
# www.johnrellis.com/lightroom/exportlut.htm
# Preset: Dubai I Armani
# Color profile: E:\lut插件\exportlut.1.24\exportlut.lrplugin\color profiles\Rec709gamma2.4.icc
LUT_3D_SIZE 8
DOMAIN_MIN 0.000000 0.000000 0.000000
DOMAIN_MAX 0.903226 0.903226 0.903226
0.080415 0.120516 0.129183
0.056184 0.117556 0.128908
0.251957 0.155184 0.110323
0.710384 0.241398 0.000000
0.972992 0.000000 0.162539
1.000000 0.000000 0.746059
1.000000 0.000000 1.000000
1.000000 0.580041 1.000000
0.086641 0.119051 0.121828
0.117952 0.125765 0.119265
0.308415 0.165927 0.111818
0.744991 0.320317 0.039338
0.906218 0.000000 0.235630
1.000000 0.000000 0.840818
1.000000 0.097719 1.000000
1.000000 0.561242 1.000000
0.000000 0.528405 0.483986
0.000000 0.564508 0.520073
0.483314 0.721889 0.680476
0.767910 0.832975 0.904112
0.681086 0.734981 0.981323
0.827604 0.727199 1.000000
0.962951 0.839109 1.000000
1.000000 0.921569 1.000000
0.000000 0.766873 0.966644
0.000000 0.777859 0.966308
0.000000 0.857420 0.983764
0.783993 0.959014 1.000000
0.962219 0.986786 1.000000
0.972503 0.986572 1.000000
0.980041 0.987396 1.000000
0.992065 0.988586 1.000000
0.108248 0.937652 1.000000
0.288151 0.940764 1.000000
0.607691 0.956451 1.000000
0.865141 0.976959 1.000000
0.964843 0.989380 1.000000
0.988952 0.994934 1.000000
0.994690 0.996460 1.000000
0.996490 0.997070 1.000000
0.902617 0.982666 1.000000
0.926116 0.985290 1.000000
0.946166 0.987518 1.000000
0.970581 0.991028 1.000000
0.986236 0.994324 1.000000
0.993988 0.996826 1.000000
0.997345 0.998322 1.000000
0.998901 0.999115 1.000000
0.987488 0.994263 1.000000
0.988434 0.994598 1.000000
0.989899 0.995056 1.000000
0.992523 0.996002 1.000000
0.994903 0.996979 1.000000
0.997040 0.998016 1.000000
0.998413 0.998810 1.000000
0.999268 0.999329 1.000000
0.998016 0.999542 1.000000
0.998047 0.999573 1.000000
0.998260 0.999573 1.000000
0.998657 0.999603 1.000000
0.998779 0.999512 1.000000
0.999298 0.999603 1.000000
0.999634 0.999695 1.000000
0.999756 0.999725 1.000000
0.000000 0.315068 0.603296
0.000000 0.322637 0.640162
0.000000 0.292699 0.643885
0.000000 0.389349 0.863645
0.000000 0.454719 0.983734
0.000000 0.518791 1.000000
0.000000 0.594232 1.000000
0.774655 0.590845 1.000000
0.000000 0.368414 0.654261
0.000000 0.387610 0.699031
0.000000 0.421637 0.795499
0.000000 0.453986 0.898375
0.000000 0.511498 0.992523
0.000000 0.561883 1.000000
0.000000 0.617426 1.000000
0.749996 0.600641 1.000000
0.000000 0.634638 0.915984
0.000000 0.661921 0.929076
0.000000 0.743923 0.966796
0.000000 0.808743 1.000000
0.000000 0.786099 1.000000
0.000000 0.807370 1.000000
0.473823 0.851743 1.000000
0.836149 0.893278 1.000000
0.000000 0.851743 1.000000
0.000000 0.857328 1.000000
0.000000 0.900572 1.000000
0.000000 0.956329 1.000000
0.788052 0.971099 1.000000
0.886442 0.972595 1.000000
0.931060 0.975036 1.000000
0.969757 0.982208 1.000000
0.000000 0.965118 1.000000
0.000000 0.965301 1.000000
0.444831 0.970611 1.000000
0.766690 0.979339 1.000000
0.923095 0.987213 1.000000
0.977447 0.992737 1.000000
0.990936 0.995117 1.000000
0.994354 0.996033 1.000000
0.878172 0.984314 1.000000
0.887755 0.984894 1.000000
0.917693 0.986877 1.000000
0.956207 0.990295 1.000000
0.980591 0.993683 1.000000
0.992218 0.996490 1.000000
0.996521 0.998077 1.000000
0.998505 0.998901 1.000000
0.983368 0.993713 1.000000
0.983154 0.993622 1.000000
0.985229 0.994110 1.000000
0.989593 0.995270 1.000000
0.993469 0.996612 1.000000
0.996185 0.997742 1.000000
0.997833 0.998566 1.000000
0.998932 0.999176 1.000000
0.997040 0.999084 1.000000
0.997223 0.999145 1.000000
0.997498 0.999237 1.000000
0.998047 0.999420 1.000000
0.998596 0.999573 1.000000
0.999115 0.999634 1.000000
0.999512 0.999695 1.000000
0.999725 0.999756 1.000000
0.000000 0.884703 1.000000
0.000000 0.888823 1.000000
0.000000 0.895079 1.000000
0.000000 0.898405 1.000000
0.000000 0.913756 1.000000
0.000000 0.934356 1.000000
0.514427 0.949401 1.000000
0.810025 0.960510 1.000000
0.000000 0.900175 1.000000
0.000000 0.901946 1.000000
0.000000 0.910430 1.000000
0.000000 0.911589 1.000000
0.000000 0.921386 1.000000
0.000000 0.938384 1.000000
0.476722 0.947967 1.000000
0.795682 0.958801 1.000000
0.000000 0.944915 1.000000
0.000000 0.947143 1.000000
0.000000 0.954864 1.000000
0.000000 0.966735 1.000000
0.325170 0.969512 1.000000
0.648127 0.969299 1.000000
0.820249 0.972412 1.000000
0.918334 0.978271 1.000000
0.000000 0.988525 1.000000
0.000000 0.989044 1.000000
0.000000 0.988617 1.000000
0.637629 0.986450 1.000000
0.877836 0.986755 1.000000
0.946227 0.989044 1.000000
0.966400 0.990295 1.000000
0.980652 0.992004 1.000000
0.728023 0.992248 1.000000
0.743862 0.992157 1.000000
0.811093 0.991821 1.000000
0.901976 0.991913 1.000000
0.957031 0.992737 1.000000
0.981109 0.994476 1.000000
0.991455 0.996277 1.000000
0.994232 0.996918 1.000000
0.940795 0.992248 1.000000
0.945342 0.992432 1.000000
0.955993 0.993011 1.000000
0.971160 0.994110 1.000000
0.983795 0.995575 1.000000
0.992218 0.997192 1.000000
0.996124 0.998230 1.000000
0.998199 0.998932 1.000000
0.989105 0.996216 1.000000
0.989044 0.996216 1.000000
0.989624 0.996307 1.000000
0.991638 0.996796 1.000000
0.994049 0.997498 1.000000
0.996246 0.998260 1.000000
0.997772 0.998871 1.000000
0.998840 0.999329 1.000000
0.997101 0.998322 1.000000
0.997101 0.998322 1.000000
0.997375 0.998444 1.000000
0.997986 0.998749 1.000000
0.998474 0.999023 1.000000
0.998932 0.999268 1.000000
0.999298 0.999481 1.000000
0.999573 0.999695 1.000000
0.000000 0.956481 1.000000
0.000000 0.963165 1.000000
0.000000 0.972259 1.000000
0.421149 0.979004 1.000000
0.640253 0.979065 1.000000
0.780514 0.980072 1.000000
0.884550 0.983246 1.000000
0.944396 0.987182 1.000000
0.000000 0.971923 1.000000
0.000000 0.973938 1.000000
0.000000 0.978332 1.000000
0.651148 0.982055 1.000000
0.760128 0.981994 1.000000
0.829526 0.982269 1.000000
0.903655 0.984833 1.000000
0.951446 0.988220 1.000000
0.000000 0.982727 1.000000
0.000000 0.983124 1.000000
0.410193 0.983825 1.000000
0.728786 0.984497 1.000000
0.907042 0.987976 1.000000
0.946777 0.989929 1.000000
0.973175 0.992493 1.000000
0.981567 0.993500 1.000000
0.762478 0.988739 1.000000
0.770840 0.988647 1.000000
0.826749 0.988647 1.000000
0.904845 0.989685 1.000000
0.955505 0.991821 1.000000
0.980560 0.994293 1.000000
0.986664 0.995239 1.000000
0.990478 0.995941 1.000000
0.939849 0.992554 1.000000
0.941100 0.992554 1.000000
0.952941 0.992950 1.000000
0.971954 0.994141 1.000000
0.984314 0.995514 1.000000
0.990875 0.996704 1.000000
0.994934 0.997742 1.000000
0.996124 0.998108 1.000000
0.982177 0.995850 1.000000
0.984710 0.996155 1.000000
0.985992 0.996307 1.000000
0.989105 0.996765 1.000000
0.992248 0.997375 1.000000
0.994934 0.998016 1.000000
0.997009 0.998657 1.000000
0.998383 0.999176 1.000000
0.993347 0.997711 1.000000
0.993561 0.997742 1.000000
0.994141 0.997925 1.000000
0.995117 0.998199 1.000000
0.996185 0.998505 1.000000
0.997223 0.998871 1.000000
0.998138 0.999207 1.000000
0.998932 0.999481 1.000000
0.997864 0.998993 1.000000
0.997864 0.999023 1.000000
0.998016 0.999054 1.000000
0.998322 0.999176 1.000000
0.998627 0.999329 1.000000
0.998993 0.999481 1.000000
0.999359 0.999634 1.000000
0.999603 0.999756 1.000000
0.699763 0.984955 1.000000
0.761685 0.985626 1.000000
0.839811 0.986816 1.000000
0.924071 0.989532 1.000000
0.962158 0.992065 1.000000
0.969879 0.992706 1.000000
0.978271 0.993683 1.000000
0.986297 0.995056 1.000000
0.809323 0.986603 1.000000
0.847318 0.987366 1.000000
0.891020 0.988464 1.000000
0.935454 0.990265 1.000000
0.968170 0.992767 1.000000
0.974334 0.993317 1.000000
0.980865 0.994171 1.000000
0.987457 0.995331 1.000000
0.901640 0.989319 1.000000
0.909087 0.989593 1.000000
0.924956 0.990143 1.000000
0.949584 0.991424 1.000000
0.971984 0.993317 1.000000
0.981140 0.994476 1.000000
0.986114 0.995270 1.000000
0.989746 0.995972 1.000000
0.945251 0.991699 1.000000
0.947662 0.991852 1.000000
0.958984 0.992554 1.000000
0.972778 0.993744 1.000000
0.983276 0.995117 1.000000
0.989990 0.996399 1.000000
0.993164 0.997192 1.000000
0.994202 0.997436 1.000000
0.977203 0.994659 1.000000
0.978302 0.994781 1.000000
0.981415 0.995148 1.000000
0.985901 0.995819 1.000000
0.989837 0.996551 1.000000
0.993072 0.997314 1.000000
0.995697 0.998138 1.000000
0.996765 0.998474 1.000000
0.987610 0.996368 1.000000
0.987976 0.996460 1.000000
0.988586 0.996551 1.000000
0.990509 0.996918 1.000000
0.992950 0.997436 1.000000
0.995758 0.998260 1.000000
0.997436 0.998840 1.000000
0.998505 0.999268 1.000000
0.995270 0.998322 1.000000
0.995178 0.998322 1.000000
0.995239 0.998322 1.000000
0.995941 0.998505 1.000000
0.996796 0.998749 1.000000
0.997589 0.999023 1.000000
0.998291 0.999268 1.000000
0.998962 0.999481 1.000000
0.997803 0.999084 1.000000
0.997833 0.999084 1.000000
0.997925 0.999145 1.000000
0.998352 0.999298 1.000000
0.998688 0.999420 1.000000
0.999023 0.999542 1.000000
0.999329 0.999664 1.000000
0.999603 0.999786 1.000000
0.979095 0.994476 1.000000
0.981140 0.994781 1.000000
0.983124 0.995087 1.000000
0.987671 0.995911 1.000000
0.991333 0.996765 1.000000
0.993561 0.997406 1.000000
0.994568 0.997681 1.000000
0.995819 0.998108 1.000000
0.972656 0.993652 1.000000
0.973663 0.993744 1.000000
0.977600 0.994232 1.000000
0.983917 0.995178 1.000000
0.989532 0.996307 1.000000
0.992950 0.997192 1.000000
0.994171 0.997559 1.000000
0.995544 0.997986 1.000000
0.984497 0.995392 1.000000
0.984710 0.995422 1.000000
0.986328 0.995727 1.000000
0.987793 0.996002 1.000000
0.991302 0.996796 1.000000
0.994202 0.997620 1.000000
0.995483 0.998016 1.000000
0.996399 0.998352 1.000000
0.989868 0.996551 1.000000
0.989868 0.996551 1.000000
0.990845 0.996765 1.000000
0.993072 0.997375 1.000000
0.994751 0.997864 1.000000
0.996124 0.998322 1.000000
0.997314 0.998779 1.000000
0.997711 0.998901 1.000000
0.991974 0.997162 1.000000
0.992096 0.997162 1.000000
0.992798 0.997345 1.000000
0.993988 0.997681 1.000000
0.995178 0.998047 1.000000
0.996338 0.998413 1.000000
0.997436 0.998840 1.000000
0.998138 0.999115 1.000000
0.994720 0.997986 1.000000
0.994995 0.998077 1.000000
0.995270 0.998138 1.000000
0.995758 0.998322 1.000000
0.996399 0.998505 1.000000
0.997375 0.998871 1.000000
0.998260 0.999207 1.000000
0.998901 0.999481 1.000000
0.997375 0.998962 1.000000
0.997467 0.998993 1.000000
0.997559 0.999023 1.000000
0.997772 0.999084 1.000000
0.998047 0.999176 1.000000
0.998413 0.999329 1.000000
0.998840 0.999481 1.000000
0.999298 0.999664 1.000000
0.998627 0.999451 1.000000
0.998596 0.999451 1.000000
0.998596 0.999451 1.000000
0.998718 0.999481 1.000000
0.998901 0.999542 1.000000
0.999176 0.999664 1.000000
0.999451 0.999756 1.000000
0.999664 0.999847 1.000000
0.993042 0.997345 1.000000
0.993286 0.997406 1.000000
0.993896 0.997589 1.000000
0.994934 0.997925 1.000000
0.996002 0.998291 1.000000
0.996979 0.998657 1.000000
0.997528 0.998871 1.000000
0.997833 0.998962 1.000000
0.993011 0.997314 1.000000
0.993286 0.997406 1.000000
0.993866 0.997589 1.000000
0.994781 0.997864 1.000000
0.995850 0.998230 1.000000
0.996857 0.998596 1.000000
0.997467 0.998810 1.000000
0.997711 0.998932 1.000000
0.994263 0.997742 1.000000
0.994354 0.997772 1.000000
0.994720 0.997894 1.000000
0.995422 0.998108 1.000000
0.996277 0.998383 1.000000
0.997131 0.998718 1.000000
0.997864 0.999023 1.000000
0.998138 0.999115 1.000000
0.995636 0.998230 1.000000
0.995666 0.998199 1.000000
0.995880 0.998291 1.000000
0.996368 0.998474 1.000000
0.996948 0.998657 1.000000
0.997620 0.998932 1.000000
0.998260 0.999176 1.000000
0.998596 0.999329 1.000000
0.996582 0.998566 1.000000
0.996582 0.998566 1.000000
0.996704 0.998627 1.000000
0.997040 0.998718 1.000000
0.997467 0.998901 1.000000
0.997986 0.999084 1.000000
0.998474 0.999298 1.000000
0.998993 0.999512 1.000000
0.997498 0.998962 1.000000
0.997528 0.998962 1.000000
0.997650 0.998993 1.000000
0.997833 0.999084 1.000000
0.998108 0.999176 1.000000
0.998505 0.999329 1.000000
0.998871 0.999481 1.000000
0.999268 0.999634 1.000000
0.998383 0.999298 1.000000
0.998383 0.999329 1.000000
0.998444 0.999329 1.000000
0.998566 0.999390 1.000000
0.998749 0.999451 1.000000
0.998962 0.999542 1.000000
0.999207 0.999634 1.000000
0.999481 0.999756 1.000000
0.999176 0.999664 1.000000
0.999176 0.999664 1.000000
0.999237 0.999664 1.000000
0.999298 0.999695 1.000000
0.999359 0.999725 1.000000
0.999451 0.999756 1.000000
0.999603 0.999817 1.000000
0.999786 0.999908 1.000000
0.998108 0.999145 1.000000
0.998138 0.999176 1.000000
0.998230 0.999176 1.000000
0.998413 0.999268 1.000000
0.998657 0.999390 1.000000
0.998901 0.999481 1.000000
0.999145 0.999573 1.000000
0.999237 0.999603 1.000000
0.998077 0.999145 1.000000
0.998138 0.999145 1.000000
0.998230 0.999176 1.000000
0.998383 0.999268 1.000000
0.998627 0.999359 1.000000
0.998901 0.999481 1.000000
0.999115 0.999573 1.000000
0.999207 0.999634 1.000000
0.998230 0.999207 1.000000
0.998260 0.999207 1.000000
0.998322 0.999237 1.000000
0.998505 0.999329 1.000000
0.998718 0.999390 1.000000
0.998932 0.999481 1.000000
0.999145 0.999603 1.000000
0.999268 0.999634 1.000000
0.998444 0.999268 1.000000
0.998444 0.999298 1.000000
0.998505 0.999329 1.000000
0.998657 0.999390 1.000000
0.998840 0.999451 1.000000
0.999054 0.999542 1.000000
0.999237 0.999634 1.000000
0.999390 0.999695 1.000000
0.998657 0.999390 1.000000
0.998688 0.999390 1.000000
0.998718 0.999420 1.000000
0.998810 0.999451 1.000000
0.998962 0.999512 1.000000
0.999115 0.999603 1.000000
0.999329 0.999664 1.000000
0.999481 0.999756 1.000000
0.998962 0.999542 1.000000
0.998962 0.999542 1.000000
0.998962 0.999542 1.000000
0.999023 0.999542 1.000000
0.999115 0.999603 1.000000
0.999268 0.999664 1.000000
0.999451 0.999725 1.000000
0.999634 0.999817 1.000000
0.999268 0.999664 1.000000
0.999268 0.999664 1.000000
0.999268 0.999664 1.000000
0.999329 0.999695 1.000000
0.999390 0.999695 1.000000
0.999451 0.999725 1.000000
0.999573 0.999786 1.000000
0.999725 0.999878 1.000000
0.999542 0.999817 1.000000
0.999542 0.999817 1.000000
0.999573 0.999817 1.000000
0.999634 0.999817 1.000000
0.999664 0.999847 1.000000
0.999695 0.999878 1.000000
0.999786 0.999908 1.000000
0.999878 0.999939 1.000000
