20 Preset/City Style/【3】LUT video cho PR-AE-FCPX/TONE 3/Dubai I Overpass.cube
# Created by Adobe Lightroom plugin Export LUT (1.24.0)
# www.johnrellis.com/lightroom/exportlut.htm
# Preset: Dubai I Overpass
# Color profile: E:\lut插件\exportlut.1.24\exportlut.lrplugin\color profiles\Rec709gamma2.4.icc
LUT_3D_SIZE 5
DOMAIN_MIN 0.000000 0.000000 0.000000
DOMAIN_MAX 0.903226 0.903226 0.903226
0.094087 0.101015 0.109285
0.162844 0.115785 0.102022
0.811490 0.255344 0.000000
1.000000 0.694667 0.000000
1.000000 0.866850 0.000000
0.008942 0.191592 0.138979
0.222110 0.207736 0.186007
0.646662 0.299657 0.225956
1.000000 0.737972 0.000000
1.000000 0.894438 0.396857
0.000000 0.839322 0.488991
0.401251 0.854643 0.566064
0.960998 0.943084 0.909392
1.000000 0.894255 0.681331
1.000000 0.977173 0.972808
0.873075 0.995727 0.923247
0.919463 0.992889 0.943114
0.979248 0.989502 1.000000
0.993408 0.993072 1.000000
1.000000 0.986999 0.982849
0.989746 0.997772 1.000000
0.991058 0.997681 1.000000
0.993591 0.997040 1.000000
0.997009 0.997314 1.000000
0.998444 0.998016 1.000000
0.000000 0.123934 0.202121
0.000000 0.127962 0.238560
0.470832 0.000000 0.252293
1.000000 0.432013 0.022461
1.000000 0.905089 0.406806
0.000000 0.181460 0.286076
0.025177 0.258427 0.361730
0.675319 0.240085 0.369116
1.000000 0.787015 0.364294
1.000000 0.925383 0.616632
0.000000 0.604791 0.634058
0.000000 0.749050 0.689265
0.918212 0.927764 0.898222
1.000000 0.943511 0.897276
1.000000 0.980896 0.982666
0.658167 1.000000 0.919677
0.806821 0.999084 0.934966
0.969055 0.990784 1.000000
0.993286 0.993469 1.000000
1.000000 0.990723 1.000000
0.988403 0.997986 1.000000
0.989654 0.997894 1.000000
0.994232 0.997650 1.000000
0.997345 0.997711 1.000000
0.998596 0.998322 1.000000
0.000000 0.261112 0.634821
0.000000 0.273442 0.671321
0.000000 0.316045 0.803738
0.627283 0.000000 0.899718
1.000000 0.000000 0.559808
0.000000 0.398840 0.762020
0.000000 0.407233 0.781613
0.000000 0.445258 0.860533
0.676997 0.375006 0.939788
1.000000 0.000000 0.590906
0.000000 0.531975 0.849485
0.000000 0.590845 0.872679
0.656367 0.853330 0.945617
0.942260 0.958770 1.000000
1.000000 0.970703 0.978515
0.000000 0.592737 0.963867
0.000000 0.615290 0.964630
0.000000 0.854307 0.994202
0.985626 0.993439 1.000000
0.998352 0.995422 1.000000
0.951446 1.000000 1.000000
0.964813 0.999786 1.000000
0.987610 0.998077 1.000000
0.996551 0.997986 1.000000
0.998535 0.998474 1.000000
0.000000 0.613703 1.000000
0.000000 0.628260 1.000000
0.000000 0.649439 1.000000
0.000000 0.678889 1.000000
0.679927 0.625422 1.000000
0.000000 0.696773 1.000000
0.000000 0.698665 1.000000
0.000000 0.711330 1.000000
0.000000 0.735897 1.000000
0.718746 0.710231 1.000000
0.223239 0.861265 1.000000
0.383673 0.870878 1.000000
0.707546 0.912261 1.000000
0.800595 0.921508 1.000000
0.920958 0.937316 1.000000
0.611658 0.923247 1.000000
0.667353 0.928771 1.000000
0.859770 0.957916 1.000000
0.977630 0.987243 1.000000
0.994202 0.994720 1.000000
0.000000 0.909880 1.000000
0.000000 0.915831 1.000000
0.568139 0.940764 1.000000
0.982544 0.996887 1.000000
0.998535 0.998810 1.000000
0.541650 0.910307 1.000000
0.556054 0.910704 1.000000
0.636988 0.916686 1.000000
0.737911 0.924773 1.000000
0.844205 0.938720 1.000000
0.654597 0.925719 1.000000
0.665980 0.926299 1.000000
0.716243 0.929931 1.000000
0.788113 0.935943 1.000000
0.875944 0.949035 1.000000
0.893889 0.968505 1.000000
0.893431 0.968048 1.000000
0.904387 0.968933 1.000000
0.925780 0.971588 1.000000
0.960906 0.979828 1.000000
0.971893 0.988861 1.000000
0.973327 0.989136 1.000000
0.980163 0.990723 1.000000
0.988464 0.993194 1.000000
0.991211 0.993957 1.000000
0.971984 0.989685 1.000000
0.974182 0.990143 1.000000
0.983398 0.992584 1.000000
0.992248 0.995605 1.000000
0.997986 0.998474 1.000000
