20 Preset/City Style/【3】LUT video cho PR-AE-FCPX/TONE 3/Dubai I EMAAR.cube
# Created by Adobe Lightroom plugin Export LUT (1.24.0)
# www.johnrellis.com/lightroom/exportlut.htm
# Preset: Dubai I EMAAR
# Color profile: E:\lut插件\exportlut.1.24\exportlut.lrplugin\color profiles\Rec709gamma2.4.icc
LUT_3D_SIZE 8
DOMAIN_MIN 0.000000 0.000000 0.000000
DOMAIN_MAX 0.903226 0.903226 0.903226
0.000641 0.101076 0.097261
0.000000 0.097902 0.093080
0.229252 0.040345 0.087800
0.731197 0.000000 0.049714
1.000000 0.000000 0.024598
1.000000 0.000000 0.169192
1.000000 0.171603 0.401038
1.000000 0.459785 0.591058
0.000000 0.096590 0.091981
0.000000 0.097322 0.092714
0.202457 0.107607 0.086854
0.642084 0.000000 0.055207
1.000000 0.000000 0.000000
1.000000 0.000000 0.155520
1.000000 0.161196 0.353796
1.000000 0.431800 0.550103
0.149813 0.213901 0.238895
0.156313 0.220188 0.246799
0.128328 0.194614 0.214298
0.676600 0.356390 0.000000
1.000000 0.377966 0.000000
1.000000 0.419959 0.275242
1.000000 0.509606 0.507897
1.000000 0.601831 0.654108
0.538628 0.626032 0.700069
0.536492 0.624109 0.698390
0.553368 0.638849 0.711177
0.479194 0.572229 0.651179
0.909575 0.710231 0.553918
1.000000 0.721187 0.539818
1.000000 0.713069 0.644312
1.000000 0.729030 0.720943
0.816648 0.853483 0.880156
0.816495 0.853361 0.880064
0.823423 0.858946 0.884459
0.810513 0.848569 0.876280
0.718715 0.774807 0.819486
0.902098 0.811948 0.756405
1.000000 0.828824 0.714290
1.000000 0.825223 0.772091
0.904936 0.924193 0.937041
0.910369 0.928527 0.940581
0.911833 0.929717 0.941558
0.915404 0.932525 0.943908
0.893065 0.914702 0.929290
0.847440 0.878172 0.899748
0.925078 0.894438 0.875486
1.000000 0.911528 0.866636
0.949157 0.959472 0.966155
0.950042 0.960174 0.966766
0.950195 0.960296 0.966857
0.951598 0.961425 0.967803
0.950317 0.960388 0.966949
0.937713 0.950347 0.958618
0.919463 0.935790 0.946563
0.949157 0.941802 0.936431
0.976684 0.981415 0.984466
0.976745 0.981476 0.984497
0.977478 0.982025 0.984985
0.979248 0.983429 0.986175
0.976318 0.981140 0.984222
0.976989 0.981689 0.984680
0.975769 0.980682 0.983856
0.972656 0.978210 0.981781
0.000000 0.096254 0.091188
0.000000 0.095583 0.090486
0.144747 0.094423 0.113710
0.611231 0.000000 0.125368
1.000000 0.000000 0.154360
1.000000 0.000000 0.238315
1.000000 0.000000 0.397650
1.000000 0.402045 0.560662
0.000000 0.098146 0.095430
0.007996 0.108461 0.105898
0.219150 0.104829 0.116732
0.636316 0.000000 0.129763
1.000000 0.000000 0.155612
1.000000 0.000000 0.243259
1.000000 0.118868 0.382452
1.000000 0.394324 0.535912
0.171328 0.235325 0.265995
0.181430 0.245823 0.279179
0.165927 0.229831 0.259068
0.666133 0.352819 0.150607
0.988861 0.357031 0.181735
1.000000 0.392981 0.315312
1.000000 0.457404 0.470558
1.000000 0.555047 0.616876
0.507561 0.598413 0.675410
0.510246 0.600824 0.677607
0.547295 0.633539 0.706600
0.440284 0.534691 0.614923
0.864225 0.656031 0.489113
1.000000 0.675868 0.477668
1.000000 0.667079 0.582849
1.000000 0.689021 0.678004
0.810147 0.848264 0.876036
0.807889 0.846464 0.874632
0.810452 0.848508 0.876219
0.793851 0.835203 0.865812
0.688716 0.750698 0.801175
0.886992 0.792111 0.734798
1.000000 0.815030 0.692317
1.000000 0.810605 0.754086
0.897459 0.918242 0.932158
0.898253 0.918822 0.932647
0.900481 0.920653 0.934142
0.906035 0.925078 0.937774
0.885374 0.908568 0.924285
0.840665 0.872770 0.895445
0.920745 0.888670 0.869108
1.000000 0.904936 0.856901
0.943969 0.955322 0.962737
0.943145 0.954711 0.962219
0.943114 0.954681 0.962188
0.945312 0.956420 0.963622
0.946258 0.957153 0.964263
0.932189 0.945922 0.954925
0.908476 0.927001 0.939330
0.940490 0.931701 0.925383
0.973754 0.979065 0.982513
0.974426 0.979614 0.982971
0.975036 0.980102 0.983368
0.976959 0.981628 0.984649
0.979156 0.983398 0.986114
0.978454 0.982849 0.985657
0.975555 0.980499 0.983734
0.972015 0.977691 0.981353
0.000000 0.099977 0.197543
0.000000 0.109133 0.187350
0.084260 0.157778 0.167330
0.322210 0.274754 0.363745
0.928862 0.000000 0.551171
1.000000 0.238743 0.613916
1.000000 0.453498 0.674006
1.000000 0.610834 0.747463
0.000000 0.112428 0.270176
0.000000 0.136233 0.266545
0.138247 0.203311 0.225406
0.428504 0.283085 0.414405
0.952087 0.000000 0.537346
1.000000 0.256352 0.591821
1.000000 0.459174 0.661006
1.000000 0.599603 0.733455
0.111696 0.251102 0.336645
0.165682 0.286870 0.372778
0.358282 0.447272 0.522789
0.769162 0.438087 0.519646
1.000000 0.457984 0.564935
1.000000 0.527977 0.635523
1.000000 0.600427 0.698817
1.000000 0.671107 0.755306
0.582177 0.663447 0.731991
0.611627 0.688045 0.752102
0.679011 0.742916 0.795193
0.628016 0.701534 0.762966
0.926787 0.754025 0.685115
1.000000 0.741695 0.707057
1.000000 0.745022 0.748959
1.000000 0.764889 0.788998
0.837980 0.870634 0.893706
0.841337 0.873289 0.895872
0.846281 0.877287 0.899016
0.853819 0.883330 0.903868
0.775845 0.820706 0.854582
0.916625 0.839445 0.802335
1.000000 0.845029 0.786709
1.000000 0.844968 0.821988
0.908293 0.926879 0.939239
0.909361 0.927733 0.939940
0.910979 0.929015 0.941009
0.914611 0.931914 0.943389
0.902281 0.922087 0.935302
0.863340 0.890959 0.910002
0.931670 0.903838 0.888487
1.000000 0.918456 0.883543
0.950622 0.960662 0.967163
0.950103 0.960204 0.966796
0.949401 0.959686 0.966369
0.950500 0.960540 0.967071
0.953185 0.962707 0.968872
0.941527 0.953399 0.961120
0.923919 0.939330 0.949493
0.953246 0.945525 0.940368
0.976074 0.980896 0.984039
0.975860 0.980743 0.983917
0.976349 0.981140 0.984253
0.978882 0.983154 0.985931
0.980896 0.984771 0.987274
0.981689 0.985382 0.987793
0.979553 0.983703 0.986358
0.976623 0.981353 0.984405
0.000000 0.129976 0.578271
0.000000 0.148592 0.581384
0.000000 0.245731 0.526604
0.331304 0.416602 0.487892
0.526238 0.615106 0.690425
0.927367 0.660578 0.815305
1.000000 0.679866 0.833463
1.000000 0.724392 0.843656
0.000000 0.170291 0.682704
0.000000 0.198123 0.677974
0.000000 0.312566 0.623438
0.396429 0.489418 0.568627
0.573297 0.655940 0.725704
0.943511 0.674678 0.822446
1.000000 0.690181 0.834501
1.000000 0.731716 0.844297
0.000000 0.281956 0.756527
0.000000 0.305821 0.769162
0.255894 0.494636 0.782101
0.570428 0.653529 0.723629
0.759121 0.750698 0.818143
0.992248 0.744076 0.849943
1.000000 0.775387 0.862028
1.000000 0.795315 0.867674
0.511772 0.662654 0.783963
0.543969 0.680507 0.791196
0.664759 0.752163 0.823026
0.809476 0.847715 0.875608
0.930205 0.829252 0.859861
1.000000 0.819974 0.857389
1.000000 0.825406 0.864469
1.000000 0.839200 0.876768
0.844724 0.876036 0.898039
0.848661 0.879179 0.900542
0.869383 0.895781 0.913909
0.897612 0.918334 0.932250
0.871794 0.897734 0.915465
0.951232 0.899107 0.885435
1.000000 0.892485 0.884642
1.000000 0.891234 0.894560
0.920836 0.936889 0.947478
0.926024 0.941039 0.950896
0.931731 0.945556 0.954650
0.936614 0.949432 0.957855
0.937377 0.950072 0.958373
0.907012 0.925841 0.938384
0.952758 0.931548 0.922515
1.000000 0.938933 0.920195
0.957733 0.966308 0.971862
0.958801 0.967163 0.972564
0.959899 0.968048 0.973327
0.961700 0.969451 0.974487
0.963958 0.971252 0.976013
0.958495 0.966918 0.972351
0.943633 0.955077 0.962524
0.967224 0.960113 0.956085
0.981506 0.985260 0.987671
0.981537 0.985290 0.987701
0.981903 0.985595 0.987945
0.983032 0.986481 0.988708
0.984558 0.987701 0.989715
0.986206 0.989014 0.990814
0.984741 0.987823 0.989837
0.983215 0.986633 0.988830
0.000000 0.227787 0.871092
0.000000 0.257084 0.871092
0.000000 0.374548 0.851102
0.427741 0.595087 0.799893
0.648463 0.718227 0.776089
0.754147 0.803281 0.841154
0.891051 0.853056 0.899138
1.000000 0.848203 0.917021
0.000000 0.295933 0.893584
0.000000 0.326787 0.893187
0.000000 0.442512 0.872923
0.481086 0.631556 0.820249
0.679011 0.742916 0.795193
0.770596 0.816464 0.851316
0.902159 0.855924 0.903075
1.000000 0.851438 0.918090
0.000000 0.372076 0.927031
0.000000 0.420630 0.924681
0.369451 0.597742 0.909850
0.623560 0.729885 0.873838
0.755428 0.804257 0.841947
0.808957 0.847318 0.875303
0.934783 0.861784 0.912047
1.000000 0.857542 0.918425
0.389105 0.648524 0.919158
0.432227 0.663569 0.920348
0.576013 0.723507 0.926513
0.774655 0.834592 0.928069
0.858366 0.886961 0.906798
0.887053 0.902159 0.921660
0.976135 0.888640 0.928344
1.000000 0.884245 0.926390
0.772427 0.844388 0.902251
0.784024 0.851194 0.904997
0.822507 0.873716 0.914000
0.875059 0.906065 0.928862
0.918486 0.934997 0.945922
0.956786 0.924498 0.936492
0.994232 0.916350 0.932341
1.000000 0.914672 0.932738
0.902708 0.922393 0.935546
0.905028 0.924285 0.937102
0.911406 0.929351 0.941253
0.925048 0.940246 0.950256
0.940551 0.952605 0.960479
0.932494 0.946197 0.955138
0.969848 0.949767 0.945129
1.000000 0.950317 0.946960
0.952880 0.962432 0.968658
0.952941 0.962493 0.968688
0.955108 0.964202 0.970123
0.962219 0.969879 0.974823
0.967376 0.973999 0.978271
0.968444 0.974853 0.979004
0.954955 0.964080 0.970031
0.975586 0.966949 0.963165
0.977966 0.982422 0.985290
0.978302 0.982727 0.985565
0.980041 0.984070 0.986694
0.984222 0.987427 0.989471
0.985931 0.988769 0.990600
0.988006 0.990448 0.992035
0.987457 0.989990 0.991638
0.985290 0.988251 0.990173
0.000000 0.445350 0.974640
0.000000 0.472572 0.972625
0.128664 0.560876 0.959350
0.545556 0.705013 0.936492
0.763424 0.824247 0.898192
0.823178 0.858732 0.884306
0.862608 0.890349 0.909514
0.909178 0.927581 0.939818
0.000000 0.476844 0.971008
0.000000 0.496925 0.968322
0.237644 0.578241 0.956695
0.547509 0.704524 0.933410
0.756252 0.819059 0.895811
0.820218 0.856352 0.882414
0.860410 0.888579 0.908110
0.907286 0.926055 0.938567
0.288853 0.590539 0.980774
0.372412 0.621363 0.977691
0.551812 0.709621 0.966796
0.671107 0.777005 0.946441
0.803220 0.854337 0.918273
0.855558 0.884703 0.904997
0.884672 0.907988 0.923796
0.921843 0.934325 0.946563
0.496437 0.686275 0.981720
0.522881 0.697017 0.980774
0.639429 0.755856 0.976654
0.814328 0.868742 0.964019
0.876493 0.908507 0.950011
0.908354 0.926909 0.939269
0.922087 0.937865 0.948272
0.958160 0.944091 0.960571
0.732601 0.833951 0.958404
0.742885 0.839017 0.958526
0.782223 0.858976 0.959686
0.840421 0.890379 0.962768
0.903471 0.928038 0.964569
0.933928 0.947326 0.956115
0.941558 0.953063 0.960998
0.983337 0.946654 0.964752
0.875029 0.914580 0.946593
0.881254 0.918486 0.948455
0.893919 0.925872 0.951263
0.914611 0.938354 0.956573
0.937713 0.952880 0.963684
0.961028 0.968933 0.974029
0.980316 0.966613 0.971862
0.997406 0.965240 0.971862
0.953368 0.962829 0.968994
0.954925 0.964080 0.970001
0.957916 0.966461 0.971984
0.963439 0.970855 0.975647
0.970947 0.976806 0.980621
0.978210 0.982635 0.985504
0.974121 0.979370 0.982757
0.989258 0.981598 0.979797
0.977874 0.982361 0.985260
0.977844 0.982330 0.985229
0.979034 0.983307 0.986023
0.982330 0.985931 0.988220
0.986664 0.989380 0.991119
0.990082 0.992096 0.993378
0.991699 0.993408 0.994476
0.989837 0.991882 0.993225
0.339391 0.623774 0.999420
0.382971 0.640589 0.997986
0.491005 0.688930 0.990631
0.637049 0.766018 0.976959
0.767178 0.840909 0.956725
0.867460 0.898558 0.930297
0.886595 0.909545 0.925078
0.904784 0.924071 0.936950
0.373632 0.634852 0.996948
0.412940 0.651423 0.995666
0.506798 0.695521 0.988769
0.636896 0.765103 0.975250
0.762600 0.837613 0.955200
0.861692 0.894347 0.928069
0.880827 0.904936 0.921324
0.898680 0.919188 0.932921
0.534630 0.706630 0.995819
0.569726 0.725612 0.993622
0.632776 0.761440 0.987304
0.713710 0.809720 0.976440
0.800687 0.862119 0.960082
0.878508 0.907683 0.938964
0.900175 0.920378 0.933928
0.916838 0.933684 0.944854
0.584924 0.730098 0.999268
0.608209 0.743557 0.997253
0.700465 0.799496 0.989685
0.807370 0.867735 0.979400
0.857023 0.899443 0.968933
0.907073 0.929961 0.955962
0.926452 0.941375 0.951202
0.937133 0.949889 0.958221
0.704860 0.812833 0.988159
0.710018 0.815030 0.987701
0.742123 0.830930 0.986511
0.800320 0.861997 0.985046
0.893614 0.923888 0.976501
0.925963 0.944671 0.968048
0.944518 0.955779 0.963104
0.955169 0.964263 0.970153
0.839994 0.900481 0.974914
0.844266 0.902770 0.975067
0.859525 0.910796 0.975708
0.884825 0.924468 0.977111
0.914427 0.940887 0.979461
0.951354 0.963653 0.981872
0.969024 0.975311 0.979370
0.973999 0.979309 0.982696
0.930144 0.953277 0.972564
0.932372 0.954650 0.973175
0.938109 0.958007 0.974395
0.948699 0.964416 0.977081
0.961303 0.972168 0.980621
0.974243 0.980591 0.985107
0.985321 0.988312 0.990234
0.993591 0.988281 0.990204
0.977935 0.982422 0.985290
0.978424 0.982818 0.985626
0.980774 0.984680 0.987182
0.983825 0.987091 0.989197
0.987427 0.989990 0.991638
0.991363 0.993133 0.994263
0.994751 0.995789 0.996490
0.994659 0.995758 0.996429
0.613947 0.756344 1.000000
0.627253 0.763912 1.000000
0.663172 0.784634 1.000000
0.731502 0.825345 0.993530
0.805234 0.870054 0.982666
0.870390 0.909270 0.968933
0.923369 0.939757 0.952697
0.928222 0.942779 0.952331
0.621485 0.759976 1.000000
0.634394 0.767453 1.000000
0.671015 0.788815 1.000000
0.734432 0.826810 0.992950
0.805722 0.870176 0.982300
0.869810 0.908812 0.968719
0.921782 0.938598 0.952209
0.926452 0.941375 0.951171
0.688441 0.797421 1.000000
0.695949 0.801968 1.000000
0.720577 0.817227 0.998016
0.775143 0.851225 0.991852
0.828885 0.884611 0.982757
0.880400 0.915984 0.970886
0.926360 0.942626 0.956695
0.932525 0.946197 0.955169
0.675715 0.787839 1.000000
0.696101 0.800381 1.000000
0.759396 0.839780 0.997803
0.822904 0.880461 0.991150
0.861784 0.905516 0.984436
0.900755 0.929931 0.975708
0.936980 0.951476 0.965393
0.945312 0.956420 0.963653
0.655177 0.775479 1.000000
0.667140 0.781765 1.000000
0.710231 0.806607 1.000000
0.812528 0.872679 0.995392
0.889799 0.923522 0.987243
0.918486 0.942199 0.980957
0.947448 0.960143 0.973938
0.959167 0.967437 0.972808
0.791684 0.870207 0.995056
0.793606 0.870970 0.994873
0.805875 0.876860 0.994293
0.833921 0.891264 0.993469
0.874205 0.913237 0.992737
0.943359 0.959442 0.987945
0.966125 0.974670 0.985290
0.978088 0.982513 0.985382
0.902739 0.940826 0.988006
0.904234 0.941558 0.988006
0.910674 0.944945 0.988159
0.924285 0.952361 0.988800
0.942290 0.962432 0.989960
0.962036 0.973938 0.991913
0.982849 0.987182 0.993744
0.990326 0.992279 0.993561
0.969024 0.980102 0.989776
0.969451 0.980346 0.989868
0.972015 0.981872 0.990387
0.977325 0.985046 0.991608
0.983551 0.988830 0.993225
0.989502 0.992584 0.995026
0.994385 0.995789 0.996796
0.997345 0.997864 0.998230
