20 Preset/City Style/【3】LUT video cho PR-AE-FCPX/TONE 3/Dubai I Burj.cube
# Created by Adobe Lightroom plugin Export LUT (1.24.0)
# www.johnrellis.com/lightroom/exportlut.htm
# Preset: Dubai I Burj
# Color profile: E:\lut插件\exportlut.1.24\exportlut.lrplugin\color profiles\Rec709gamma2.4.icc
LUT_3D_SIZE 5
DOMAIN_MIN 0.000000 0.000000 0.000000
DOMAIN_MAX 0.903226 0.903226 0.903226
0.049042 0.049317 0.032959
0.268498 0.000000 0.018524
0.967224 0.000000 0.000000
1.000000 0.000000 0.146517
1.000000 0.482216 0.500633
0.000000 0.440131 0.000000
0.523156 0.369970 0.000000
0.874846 0.399390 0.000000
1.000000 0.486213 0.320867
1.000000 0.619287 0.596429
0.000000 0.942931 0.379583
0.477272 0.920531 0.369940
0.972595 0.867613 0.534051
1.000000 0.765682 0.655970
1.000000 0.821958 0.727626
0.607965 0.996674 0.734585
0.678065 0.992859 0.738827
0.882963 0.978058 0.755459
1.000000 0.941955 0.786313
1.000000 0.893278 0.825010
0.830045 1.000000 0.845548
0.846403 1.000000 0.846494
0.896208 1.000000 0.828458
1.000000 0.992157 0.846433
1.000000 0.968170 0.863127
0.000000 0.256992 0.648005
0.000000 0.212222 0.670344
0.880613 0.000000 0.539269
1.000000 0.347234 0.546532
1.000000 0.671595 0.740749
0.000000 0.388190 0.653590
0.000000 0.476875 0.662135
0.845853 0.427893 0.569512
1.000000 0.614984 0.696162
1.000000 0.726619 0.757229
0.000000 0.903044 0.852201
0.000000 0.901915 0.810269
0.841764 0.886412 0.737697
0.966094 0.830838 0.778622
1.000000 0.863218 0.820218
0.616205 0.990936 0.833951
0.683619 0.987793 0.836088
0.842649 0.977935 0.840238
0.990295 0.954833 0.855100
1.000000 0.918700 0.875883
0.843992 1.000000 0.883574
0.856321 1.000000 0.883543
0.908659 1.000000 0.887236
0.992248 0.993988 0.893400
1.000000 0.976898 0.903593
0.000000 0.581598 0.962921
0.000000 0.579461 0.963989
0.000000 0.564263 0.969116
0.765316 0.476356 0.965606
1.000000 0.680659 0.812955
0.000000 0.714565 0.951415
0.000000 0.711910 0.952422
0.193118 0.705013 0.956420
0.754421 0.671870 0.954253
1.000000 0.770718 0.836759
0.452369 0.809476 0.943542
0.551141 0.829099 0.940398
0.763790 0.887785 0.934600
0.852140 0.901274 0.938445
1.000000 0.907836 0.913390
0.699062 0.872190 0.961242
0.721614 0.878019 0.958740
0.817166 0.924620 0.956298
0.914366 0.967529 0.944884
0.981628 0.956512 0.944579
0.824704 1.000000 0.941344
0.844450 1.000000 0.941894
0.899779 0.999481 0.944060
0.957641 0.995087 0.945159
1.000000 0.986297 0.948638
0.000000 0.690608 1.000000
0.000000 0.696681 1.000000
0.000000 0.711604 1.000000
0.316655 0.739315 1.000000
0.655756 0.751339 1.000000
0.000000 0.774685 1.000000
0.000000 0.776394 1.000000
0.343359 0.784787 1.000000
0.538293 0.800198 0.999390
0.706050 0.802335 1.000000
0.678767 0.891112 0.985992
0.709590 0.897612 0.984741
0.789059 0.915404 0.982269
0.814267 0.914336 0.982605
0.854856 0.911894 0.987243
0.798001 0.926970 0.983703
0.809689 0.929900 0.982666
0.858579 0.943877 0.980499
0.919341 0.962524 0.978759
0.949981 0.966491 0.980377
0.854459 0.943725 0.992493
0.862455 0.946227 0.992279
0.893553 0.956481 0.991943
0.935027 0.991333 0.989197
0.984741 0.992828 0.980560
0.000000 0.758755 1.000000
0.000000 0.762631 1.000000
0.000000 0.779141 1.000000
0.451850 0.806546 1.000000
0.628473 0.839567 1.000000
0.356573 0.816129 1.000000
0.385412 0.818692 1.000000
0.477211 0.829191 1.000000
0.588891 0.846494 1.000000
0.698299 0.868193 1.000000
0.773342 0.922423 1.000000
0.775204 0.922301 1.000000
0.787442 0.923369 1.000000
0.809689 0.925414 1.000000
0.844694 0.930724 1.000000
0.868742 0.958160 0.999573
0.874632 0.959472 0.999359
0.898344 0.965057 0.998596
0.928985 0.972442 0.997986
0.938415 0.972259 0.998596
0.904662 0.968322 0.999451
0.909026 0.969604 0.999237
0.927062 0.975036 0.998535
0.953887 0.983307 0.997467
0.983062 0.992676 0.996643
