20 Preset/City Style/【3】LUT video cho PR-AE-FCPX/TONE 3/Dubai I warm.cube
# Created by Adobe Lightroom plugin Export LUT (1.24.0)
# www.johnrellis.com/lightroom/exportlut.htm
# Preset: Dubai I warm
# Color profile: E:\lut插件\exportlut.1.24\exportlut.lrplugin\color profiles\Rec709gamma2.4.icc
LUT_3D_SIZE 32
DOMAIN_MIN 0.0 0.0 0.0
DOMAIN_MAX 1.0 1.0 1.0
0.049042 0.049317 0.032959
0.047761 0.048341 0.033112
0.045777 0.048554 0.033143
0.060121 0.052552 0.032319
0.110140 0.075990 0.027161
0.216922 0.102815 0.006073
0.408301 0.141299 0.000000
0.607599 0.209689 0.000000
0.754086 0.303258 0.000000
0.845823 0.388647 0.000000
0.906859 0.450996 0.000000
0.953552 0.497505 0.000000
0.991852 0.531151 0.000000
1.000000 0.556542 0.000000
1.000000 0.575647 0.000000
1.000000 0.589593 0.000000
1.000000 0.600031 0.000000
1.000000 0.608057 0.000000
1.000000 0.615442 0.000000
1.000000 0.621637 0.000000
1.000000 0.627100 0.000000
1.000000 0.634852 0.000000
1.000000 0.641199 0.000000
1.000000 0.646571 0.000000
1.000000 0.651209 0.000000
1.000000 0.655421 0.000000
1.000000 0.659449 0.000000
1.000000 0.663722 0.000000
1.000000 0.668055 0.000000
1.000000 0.672511 0.000000
1.000000 0.677150 0.000000
1.000000 0.681849 0.000000
0.047761 0.048341 0.033112
0.047761 0.048341 0.033112
0.047761 0.048341 0.033112
0.062104 0.052338 0.032288
0.109773 0.075013 0.027314
0.210941 0.101503 0.007660
0.391791 0.137179 0.000000
0.588220 0.199680 0.000000
0.738308 0.287327 0.000000
0.834226 0.373632 0.000000
0.897581 0.438727 0.000000
0.945464 0.488045 0.000000
0.984710 0.523430 0.000000
1.000000 0.549798 0.000000
1.000000 0.570092 0.000000
1.000000 0.585046 0.000000
1.000000 0.596307 0.000000
1.000000 0.605066 0.000000
1.000000 0.612696 0.000000
1.000000 0.619196 0.000000
1.000000 0.625025 0.000000
1.000000 0.632654 0.000000
1.000000 0.638911 0.000000
1.000000 0.644282 0.000000
1.000000 0.648981 0.000000
1.000000 0.653346 0.000000
1.000000 0.657527 0.000000
1.000000 0.661952 0.000000
1.000000 0.666529 0.000000
1.000000 0.671229 0.000000
1.000000 0.676020 0.000000
1.000000 0.680903 0.000000
0.046082 0.048554 0.031983
0.046082 0.048554 0.031983
0.048066 0.048341 0.031983
0.049042 0.049317 0.032959
0.114900 0.075196 0.026917
0.216587 0.101503 0.006683
0.395300 0.130007 0.000000
0.584466 0.187716 0.000000
0.733120 0.272038 0.000000
0.830014 0.359045 0.000000
0.893858 0.427497 0.000000
0.941894 0.478584 0.000000
0.981292 0.515007 0.000000
1.000000 0.542535 0.000000
1.000000 0.562982 0.000000
1.000000 0.579370 0.000000
1.000000 0.590997 0.000000
1.000000 0.600885 0.000000
1.000000 0.609216 0.000000
1.000000 0.616266 0.000000
1.000000 0.622187 0.000000
1.000000 0.629999 0.000000
1.000000 0.636713 0.000000
1.000000 0.641962 0.000000
1.000000 0.646937 0.000000
1.000000 0.651545 0.000000
1.000000 0.655940 0.000000
1.000000 0.660517 0.000000
1.000000 0.665248 0.000000
1.000000 0.670039 0.000000
1.000000 0.675013 0.000000
1.000000 0.680018 0.000000
0.056764 0.058350 0.038361
0.056764 0.058350 0.038361
0.057465 0.057130 0.038514
0.084871 0.063966 0.029053
0.093385 0.062684 0.034485
0.149783 0.087465 0.027039
0.400519 0.125612 0.000000
0.584558 0.188296 0.000000
0.731502 0.280705 0.000000
0.829587 0.359503 0.000000
0.894743 0.413031 0.000000
0.941863 0.465217 0.000000
0.980529 0.502983 0.000000
1.000000 0.531487 0.000000
1.000000 0.553765 0.000000
1.000000 0.569970 0.000000
1.000000 0.582971 0.000000
1.000000 0.593286 0.000000
1.000000 0.602319 0.000000
1.000000 0.610040 0.000000
1.000000 0.617121 0.000000
1.000000 0.625116 0.000000
1.000000 0.631983 0.000000
1.000000 0.637995 0.000000
1.000000 0.643519 0.000000
1.000000 0.648585 0.000000
1.000000 0.653529 0.000000
1.000000 0.658595 0.000000
1.000000 0.663691 0.000000
1.000000 0.668788 0.000000
1.000000 0.673823 0.000000
1.000000 0.678889 0.000000
0.090211 0.095583 0.076081
0.090578 0.095918 0.077058
0.091096 0.092683 0.078920
0.100740 0.095766 0.058503
0.145754 0.100801 0.020142
0.187625 0.088808 0.020783
0.129274 0.113039 0.100679
0.436866 0.129732 0.000000
0.714595 0.244511 0.000000
0.814023 0.341192 0.000000
0.879789 0.420478 0.000000
0.928710 0.480629 0.000000
0.969726 0.518059 0.000000
1.000000 0.521599 0.000000
1.000000 0.537316 0.000000
1.000000 0.556573 0.000000
1.000000 0.571405 0.000000
1.000000 0.584131 0.000000
1.000000 0.594537 0.000000
1.000000 0.603326 0.000000
1.000000 0.610681 0.000000
1.000000 0.619654 0.000000
1.000000 0.627161 0.000000
1.000000 0.633661 0.000000
1.000000 0.639612 0.000000
1.000000 0.645380 0.000000
1.000000 0.650813 0.000000
1.000000 0.656214 0.000000
1.000000 0.661555 0.000000
1.000000 0.666835 0.000000
1.000000 0.672114 0.000000
1.000000 0.677302 0.000000
0.131289 0.148714 0.122347
0.132662 0.148135 0.123507
0.134463 0.143404 0.124849
0.132174 0.135775 0.128725
0.178836 0.153750 0.078584
0.277928 0.153994 0.000000
0.395361 0.095277 0.000000
0.256596 0.148196 0.111513
0.417609 0.180911 0.091646
0.742763 0.261997 0.000000
0.877989 0.396185 0.000000
0.926574 0.460578 0.000000
0.966033 0.508812 0.000000
0.999329 0.545800 0.000000
1.000000 0.574670 0.000000
1.000000 0.597559 0.000000
1.000000 0.591455 0.000000
1.000000 0.586481 0.000000
1.000000 0.585138 0.000000
1.000000 0.595453 0.000000
1.000000 0.603815 0.000000
1.000000 0.613794 0.000000
1.000000 0.632624 0.000000
1.000000 0.639094 0.000000
1.000000 0.644892 0.000000
1.000000 0.650324 0.000000
1.000000 0.655146 0.000000
1.000000 0.660121 0.000000
1.000000 0.664790 0.000000
1.000000 0.669673 0.000000
1.000000 0.674495 0.000000
1.000000 0.679286 0.000000
0.247349 0.276066 0.245823
0.248234 0.274723 0.246098
0.252262 0.268650 0.248936
0.251560 0.256107 0.253513
0.258305 0.251530 0.239414
0.376898 0.285313 0.093477
0.517967 0.270329 0.000000
0.689540 0.165530 0.000000
0.547356 0.214084 0.085084
0.380407 0.325048 0.341466
0.768826 0.353704 0.000000
0.916350 0.442512 0.000000
0.986267 0.510857 0.000000
1.000000 0.546380 0.000000
1.000000 0.574182 0.000000
1.000000 0.596338 0.000000
1.000000 0.614252 0.000000
1.000000 0.628992 0.000000
1.000000 0.641474 0.000000
1.000000 0.634699 0.000000
1.000000 0.628382 0.000000
1.000000 0.623102 0.000000
1.000000 0.621576 0.000000
1.000000 0.630091 0.000000
1.000000 0.637537 0.000000
1.000000 0.643824 0.000000
1.000000 0.649653 0.000000
1.000000 0.655177 0.000000
1.000000 0.660517 0.000000
1.000000 0.665797 0.000000
1.000000 0.671015 0.000000
1.000000 0.676143 0.000000
0.360052 0.380499 0.357061
0.360601 0.379004 0.357031
0.363653 0.373663 0.359411
0.365209 0.363256 0.363195
0.357275 0.347936 0.369970
0.417182 0.369207 0.299290
0.539300 0.392401 0.112520
0.663935 0.367620 0.000000
0.801755 0.268864 0.000000
0.737606 0.284794 0.000000
0.581903 0.391424 0.369726
0.701320 0.449683 0.383948
0.893034 0.482704 0.000000
0.985321 0.519951 0.000000
1.000000 0.557000 0.000000
1.000000 0.581109 0.000000
1.000000 0.600916 0.000000
1.000000 0.617243 0.000000
1.000000 0.633448 0.000000
1.000000 0.646967 0.000000
1.000000 0.658442 0.000000
1.000000 0.668299 0.000000
1.000000 0.662959 0.000000
1.000000 0.653986 0.000000
1.000000 0.645655 0.000000
1.000000 0.637781 0.000000
1.000000 0.643458 0.000000
1.000000 0.649775 0.000000
1.000000 0.655665 0.000000
1.000000 0.661433 0.000000
1.000000 0.667170 0.000000
1.000000 0.672877 0.000000
0.472114 0.482643 0.468818
0.472694 0.481636 0.469062
0.474464 0.477485 0.470253
0.476326 0.469734 0.473213
0.473854 0.457496 0.477974
0.461891 0.443549 0.481117
0.562768 0.482002 0.361578
0.664851 0.494209 0.170474
0.761746 0.464912 0.000000
0.865293 0.371405 0.000000
0.850675 0.369268 0.000000
0.749477 0.457252 0.362737
0.586633 0.557336 0.594079
0.841489 0.559869 0.430640
0.966339 0.567010 0.135836
1.000000 0.576501 0.000000
1.000000 0.594629 0.000000
1.000000 0.612543 0.000000
1.000000 0.627649 0.000000
1.000000 0.640711 0.000000
1.000000 0.652064 0.000000
1.000000 0.662013 0.000000
1.000000 0.670741 0.000000
1.000000 0.678309 0.000000
1.000000 0.684840 0.000000
1.000000 0.676997 0.000000
1.000000 0.666560 0.000000
1.000000 0.656947 0.000000
1.000000 0.650355 0.000000
1.000000 0.656794 0.000000
1.000000 0.663050 0.000000
1.000000 0.669184 0.000000
0.563317 0.573114 0.565515
0.563348 0.572107 0.565423
0.564385 0.569207 0.566125
0.567193 0.565057 0.569207
0.567834 0.556847 0.572839
0.563867 0.547051 0.578759
0.591089 0.558679 0.547509
0.671626 0.586755 0.439734
0.754238 0.589960 0.268315
0.835019 0.555810 0.000000
0.917357 0.463203 0.000000
0.931640 0.448463 0.000000
0.854215 0.532067 0.379736
0.728603 0.626581 0.624384
0.778439 0.662593 0.643183
0.924559 0.649439 0.509880
1.000000 0.631525 0.265873
1.000000 0.619318 0.000000
1.000000 0.622766 0.000000
1.000000 0.635248 0.000000
1.000000 0.646174 0.000000
1.000000 0.655818 0.000000
1.000000 0.664240 0.000000
1.000000 0.671778 0.000000
1.000000 0.678340 0.000000
1.000000 0.684077 0.000000
1.000000 0.689174 0.000000
1.000000 0.693843 0.000000
1.000000 0.683070 0.000000
1.000000 0.672755 0.000000
1.000000 0.663325 0.000000
1.000000 0.664942 0.000000
0.641962 0.663203 0.653864
0.642206 0.662623 0.654017
0.643122 0.661128 0.654536
0.644678 0.657954 0.655848
0.645869 0.652827 0.658015
0.645167 0.646082 0.661158
0.639124 0.637476 0.665583
0.682673 0.659419 0.615717
0.742519 0.672572 0.528069
0.812161 0.664302 0.379248
0.884550 0.624475 0.000000
0.955505 0.534600 0.000000
0.988037 0.498726 0.000000
0.919463 0.579858 0.391577
0.815305 0.667994 0.634150
0.712245 0.727535 0.738033
0.869139 0.719631 0.669368
0.974090 0.697261 0.554925
1.000000 0.669581 0.339513
1.000000 0.647272 0.000000
1.000000 0.642084 0.000000
1.000000 0.651087 0.000000
1.000000 0.659236 0.000000
1.000000 0.666651 0.000000
1.000000 0.673274 0.000000
1.000000 0.679103 0.000000
1.000000 0.684321 0.000000
1.000000 0.689174 0.000000
1.000000 0.693629 0.000000
1.000000 0.697810 0.000000
1.000000 0.697932 0.000000
1.000000 0.686793 0.000000
0.690730 0.722408 0.708156
0.690913 0.722255 0.708309
0.691707 0.721218 0.708736
0.692805 0.719356 0.709651
0.694118 0.716182 0.711147
0.694575 0.712001 0.713313
0.692927 0.706874 0.716426
0.698451 0.708583 0.709743
0.738766 0.725765 0.664668
0.788907 0.730983 0.594903
0.850248 0.717494 0.476356
0.919219 0.676295 0.259281
1.000000 0.637842 0.000000
1.000000 0.576776 0.000000
0.986816 0.668788 0.512810
0.897612 0.747829 0.697810
0.817014 0.794675 0.780179
0.846159 0.806180 0.784360
0.940520 0.791165 0.730159
1.000000 0.765011 0.648493
1.000000 0.727810 0.493721
1.000000 0.690761 0.080018
1.000000 0.672175 0.000000
1.000000 0.676234 0.000000
1.000000 0.680140 0.000000
1.000000 0.683833 0.000000
1.000000 0.687312 0.000000
1.000000 0.690639 0.000000
1.000000 0.693935 0.000000
1.000000 0.697230 0.000000
1.000000 0.700435 0.000000
1.000000 0.703578 0.000000
0.750668 0.791409 0.770260
0.750454 0.790982 0.770047
0.749996 0.789395 0.769406
0.749477 0.786801 0.768673
0.748745 0.783078 0.767971
0.747585 0.778378 0.767514
0.745724 0.773404 0.768063
0.742092 0.768276 0.769680
0.758938 0.776699 0.752285
0.793118 0.787503 0.718105
0.835782 0.789914 0.670527
0.889220 0.777371 0.593988
0.954650 0.740078 0.450477
1.000000 0.663813 0.101595
1.000000 0.581781 0.000000
1.000000 0.670619 0.485512
0.933928 0.750301 0.685451
0.862394 0.798459 0.771237
0.799832 0.827024 0.821927
0.899962 0.818601 0.781888
0.972717 0.801602 0.729397
1.000000 0.774990 0.650965
1.000000 0.737850 0.503258
1.000000 0.700160 0.145754
1.000000 0.680934 0.000000
1.000000 0.683467 0.000000
1.000000 0.686030 0.000000
1.000000 0.688777 0.000000
1.000000 0.691585 0.000000
1.000000 0.694545 0.000000
1.000000 0.697475 0.000000
1.000000 0.700465 0.000000
0.770474 0.811826 0.789517
0.770108 0.811276 0.789120
0.769284 0.809628 0.788235
0.768551 0.807401 0.787381
0.767636 0.804227 0.786435
0.766537 0.800290 0.785733
0.765225 0.796353 0.785855
0.763302 0.792416 0.787045
0.761379 0.790005 0.788083
0.787472 0.802609 0.764797
0.819486 0.810971 0.735225
0.858518 0.811551 0.694575
0.905943 0.798642 0.631464
0.964294 0.763394 0.516045
1.000000 0.693477 0.272404
1.000000 0.593347 0.000000
1.000000 0.672328 0.459388
0.964202 0.751339 0.672724
0.898680 0.801144 0.763027
0.838590 0.831754 0.817533
0.863523 0.839109 0.819303
0.938506 0.828702 0.780880
0.997925 0.810880 0.730220
1.000000 0.784176 0.654353
1.000000 0.747036 0.512261
1.000000 0.707881 0.166995
1.000000 0.689326 0.000000
1.000000 0.690517 0.000000
1.000000 0.692226 0.000000
1.000000 0.694270 0.000000
1.000000 0.696468 0.000000
1.000000 0.698878 0.000000
0.788754 0.829740 0.806973
0.788540 0.829435 0.806821
0.787930 0.828214 0.806088
0.787106 0.826291 0.805203
0.786038 0.823545 0.804135
0.784939 0.820279 0.803281
0.784054 0.817075 0.803220
0.782986 0.813962 0.804013
0.781155 0.811368 0.805997
0.789090 0.815457 0.799832
0.813962 0.825772 0.779019
0.843717 0.831846 0.752712
0.878721 0.830442 0.716793
0.920073 0.817197 0.663416
0.971923 0.783749 0.568231
1.000000 0.719020 0.371801
1.000000 0.620478 0.000000
1.000000 0.673762 0.434485
0.989746 0.752834 0.662074
0.928740 0.803708 0.756130
0.874815 0.835447 0.812161
0.830289 0.855528 0.848386
0.908629 0.849393 0.818631
0.968322 0.837522 0.781094
1.000000 0.818814 0.730983
1.000000 0.791440 0.655818
1.000000 0.753628 0.513970
1.000000 0.713771 0.165469
1.000000 0.697414 0.000000
1.000000 0.698207 0.000000
1.000000 0.699397 0.000000
1.000000 0.700923 0.000000
0.803708 0.843839 0.821103
0.803830 0.843870 0.821195
0.803708 0.843290 0.821042
0.803616 0.842283 0.820859
0.803464 0.840787 0.820645
0.803464 0.839078 0.820737
0.803738 0.837400 0.821439
0.803922 0.835752 0.822751
0.803616 0.834257 0.824765
0.802121 0.832822 0.827390
0.817350 0.840330 0.814969
0.839506 0.847410 0.795315
0.865141 0.850095 0.770016
0.895232 0.845914 0.735897
0.931426 0.831235 0.686702
0.977081 0.799222 0.604730
1.000000 0.739498 0.441718
1.000000 0.645563 0.000000
1.000000 0.673152 0.405249
1.000000 0.752560 0.650324
0.953826 0.805173 0.749325
0.904326 0.838682 0.807736
0.858732 0.860807 0.847868
0.882719 0.865934 0.847745
0.943236 0.858366 0.819028
0.992828 0.845640 0.782254
1.000000 0.826688 0.733272
1.000000 0.799100 0.659327
1.000000 0.760739 0.518456
1.000000 0.720027 0.168124
1.000000 0.706294 0.000000
1.000000 0.705989 0.000000
0.817075 0.856107 0.833646
0.817075 0.856016 0.833646
0.817105 0.855650 0.833616
0.817197 0.855009 0.833585
0.817319 0.854063 0.833646
0.817624 0.852903 0.833921
0.818051 0.851652 0.834592
0.818448 0.850370 0.835660
0.818540 0.849088 0.837247
0.817868 0.847807 0.839261
0.819455 0.848478 0.838712
0.837095 0.856168 0.823972
0.857450 0.861295 0.805417
0.880827 0.862303 0.781460
0.908049 0.857206 0.749874
0.940764 0.842741 0.705440
0.981689 0.813504 0.636011
1.000000 0.759762 0.504967
1.000000 0.673671 0.224155
1.000000 0.674769 0.384192
1.000000 0.754147 0.642176
0.975586 0.807919 0.745022
0.929870 0.842130 0.804532
0.888396 0.865141 0.845609
0.859312 0.879606 0.871336
0.921599 0.875059 0.848508
0.970825 0.866545 0.820432
1.000000 0.853300 0.784451
1.000000 0.833982 0.735866
1.000000 0.806241 0.662837
1.000000 0.767178 0.522118
1.000000 0.724727 0.151431
0.831571 0.868925 0.847105
0.831815 0.869078 0.847318
0.847532 0.882292 0.861753
0.847654 0.881865 0.861814
0.847776 0.881163 0.861875
0.847929 0.880247 0.861967
0.848051 0.879118 0.862242
0.848234 0.877958 0.862821
0.848325 0.876860 0.863798
0.848051 0.875761 0.865171
0.846921 0.874632 0.866819
0.853574 0.877714 0.861326
0.868132 0.882689 0.847898
0.884825 0.885344 0.830961
0.904082 0.884428 0.809354
0.926848 0.878386 0.781094
0.954528 0.864500 0.742580
0.989319 0.838376 0.686885
1.000000 0.791501 0.591669
1.000000 0.712673 0.393225
1.000000 0.688930 0.410101
1.000000 0.767056 0.653956
0.996246 0.818448 0.751492
0.954040 0.851225 0.809018
0.916197 0.873106 0.848447
0.880644 0.888365 0.877317
0.904265 0.890532 0.874022
0.952880 0.884245 0.851133
0.993774 0.874601 0.823239
1.000000 0.860655 0.787320
1.000000 0.840726 0.738643
1.000000 0.811917 0.664393
0.848722 0.883665 0.862913
0.850034 0.884764 0.864103
0.851530 0.885740 0.865415
0.852873 0.886442 0.866606
0.853971 0.886717 0.867552
0.854551 0.886290 0.868040
0.854856 0.885496 0.868376
0.855009 0.884428 0.868803
0.855131 0.883421 0.869535
0.855039 0.882353 0.870542
0.854429 0.881315 0.871885
0.852964 0.880217 0.873411
0.864195 0.885130 0.863432
0.877989 0.889067 0.850309
0.893797 0.890745 0.833860
0.912108 0.889189 0.813107
0.933593 0.883055 0.786526
0.959686 0.870085 0.751278
0.992126 0.846494 0.701961
1.000000 0.805203 0.622705
1.000000 0.734676 0.464210
1.000000 0.688441 0.387243
1.000000 0.767086 0.645930
1.000000 0.819577 0.747189
0.971801 0.852781 0.805570
0.936339 0.875212 0.845731
0.903563 0.891051 0.875120
0.886351 0.900603 0.891814
0.936126 0.896574 0.873198
0.976959 0.889799 0.850950
1.000000 0.879728 0.823239
1.000000 0.865202 0.786984
0.856962 0.890654 0.870420
0.858244 0.891661 0.871580
0.859648 0.892668 0.872862
0.860960 0.893431 0.874022
0.862089 0.893736 0.874937
0.862699 0.893492 0.875486
0.863035 0.892851 0.875792
0.863249 0.891966 0.876158
0.863432 0.891051 0.876707
0.863401 0.890105 0.877470
0.863096 0.889128 0.878508
0.862211 0.888121 0.879759
0.864073 0.888792 0.877989
0.875608 0.893309 0.867582
0.888701 0.896422 0.854917
0.903563 0.897368 0.839261
0.920806 0.895384 0.819669
0.941039 0.889281 0.794888
0.965423 0.877134 0.762631
0.995422 0.855772 0.718776
1.000000 0.819333 0.652125
1.000000 0.756435 0.525933
1.000000 0.695094 0.403143
1.000000 0.767514 0.639063
1.000000 0.820554 0.743191
0.987518 0.854520 0.802976
0.954070 0.877409 0.843656
0.923491 0.893858 0.873747
0.894743 0.906096 0.897002
0.921447 0.907225 0.891722
0.962432 0.902586 0.873594
0.997559 0.895140 0.851347
0.865537 0.897856 0.878233
0.866636 0.898711 0.879210
0.867826 0.899504 0.880278
0.868925 0.900145 0.881285
0.869871 0.900450 0.882048
0.870451 0.900237 0.882506
0.870787 0.899718 0.882811
0.871031 0.899016 0.883146
0.871275 0.898253 0.883635
0.871427 0.897398 0.884276
0.871366 0.896574 0.885161
0.870909 0.895689 0.886198
0.869688 0.894652 0.887297
0.875456 0.897215 0.882139
0.886412 0.901030 0.872190
0.898924 0.903532 0.860197
0.913268 0.904265 0.845823
0.929778 0.902525 0.828305
0.949096 0.897276 0.806668
0.971984 0.886961 0.779141
0.999573 0.869017 0.742702
1.000000 0.838590 0.690455
1.000000 0.786221 0.600275
1.000000 0.719051 0.479591
1.000000 0.779751 0.654566
1.000000 0.831479 0.753597
1.000000 0.864347 0.811368
0.972717 0.886809 0.851041
0.945556 0.903014 0.880247
0.920226 0.915129 0.902800
0.914031 0.921691 0.912993
0.953521 0.918456 0.898283
0.880308 0.909972 0.891661
0.880735 0.910307 0.892058
0.881102 0.910460 0.892363
0.881437 0.910430 0.892576
0.881651 0.910216 0.892729
0.881743 0.909758 0.892760
0.881834 0.909178 0.892821
0.881987 0.908507 0.893034
0.882231 0.907836 0.893400
0.882506 0.907195 0.894011
0.882658 0.906554 0.894804
0.882567 0.905852 0.895689
0.881895 0.904997 0.896635
0.880522 0.904082 0.897704
0.889433 0.907927 0.889921
0.899657 0.911009 0.880491
0.911162 0.912902 0.869383
0.924407 0.913146 0.856046
0.939574 0.911131 0.839902
0.957244 0.905974 0.820005
0.978027 0.896269 0.794858
1.000000 0.879759 0.761837
1.000000 0.852354 0.715602
1.000000 0.806180 0.641474
1.000000 0.740902 0.528130
1.000000 0.780667 0.650324
1.000000 0.833036 0.751583
1.000000 0.866636 0.810605
0.986450 0.889616 0.850980
0.960845 0.906126 0.880430
0.937407 0.918517 0.903136
0.914916 0.927977 0.921202
0.887816 0.916136 0.898436
0.888151 0.916381 0.898741
0.888487 0.916533 0.899046
0.888792 0.916533 0.899260
0.889006 0.916381 0.899413
0.889189 0.916014 0.899504
0.889311 0.915557 0.899596
0.889525 0.915038 0.899779
0.889830 0.914488 0.900114
0.890135 0.913970 0.900664
0.890379 0.913420 0.901366
0.890501 0.912840 0.902159
0.890227 0.912139 0.903044
0.889494 0.911437 0.904051
0.891203 0.912139 0.902617
0.899931 0.915648 0.895201
0.909819 0.918395 0.886503
0.920867 0.920043 0.876310
0.933410 0.920165 0.864134
0.947723 0.918273 0.849577
0.964233 0.913542 0.831754
0.983551 0.904784 0.809293
1.000000 0.890135 0.780179
1.000000 0.866239 0.740414
1.000000 0.820615 0.667720
1.000000 0.757412 0.559106
1.000000 0.778592 0.640497
1.000000 0.832761 0.747158
1.000000 0.867521 0.808225
0.998505 0.891417 0.849943
0.974151 0.908568 0.880217
0.952148 0.921263 0.903197
0.898436 0.924651 0.908019
0.898955 0.925048 0.908476
0.899229 0.925200 0.908721
0.899260 0.925017 0.908690
0.899077 0.924590 0.908507
0.898833 0.923949 0.908202
0.898497 0.923186 0.907836
0.898161 0.922332 0.907561
0.897948 0.921477 0.907378
0.897795 0.920653 0.907408
0.897581 0.919738 0.907530
0.897459 0.918914 0.907897
0.897032 0.918029 0.908324
0.896208 0.917082 0.908843
0.894865 0.916014 0.909392
0.898924 0.917662 0.905303
0.907164 0.920500 0.897704
0.916503 0.922728 0.889097
0.927214 0.924071 0.879271
0.939422 0.924132 0.867918
0.953338 0.922332 0.854368
0.969116 0.917845 0.837797
0.987366 0.909483 0.816678
1.000000 0.895567 0.789090
1.000000 0.872984 0.751186
1.000000 0.836179 0.695338
1.000000 0.777584 0.599878
1.000000 0.779232 0.636164
1.000000 0.834043 0.745388
1.000000 0.869322 0.807462
1.000000 0.893431 0.849485
0.986633 0.910674 0.879759
0.903197 0.928588 0.912291
0.903685 0.928923 0.912718
0.904021 0.929107 0.913024
0.904204 0.929076 0.913146
0.904265 0.928893 0.913146
0.904326 0.928588 0.913146
0.904417 0.928222 0.913207
0.904570 0.927794 0.913298
0.904814 0.927367 0.913542
0.905089 0.926940 0.913878
0.905333 0.926421 0.914275
0.905486 0.925902 0.914794
0.905425 0.925261 0.915282
0.905028 0.924498 0.915831
0.904143 0.923644 0.916320
0.902800 0.922667 0.916899
0.909300 0.925414 0.911009
0.917174 0.928008 0.904021
0.926207 0.930022 0.896147
0.936400 0.931243 0.887266
0.947967 0.931212 0.876951
0.960876 0.929473 0.864744
0.975494 0.925322 0.849790
0.992309 0.917784 0.830991
1.000000 0.905425 0.806577
1.000000 0.885801 0.773770
1.000000 0.854429 0.727321
1.000000 0.804929 0.654719
1.000000 0.787961 0.648768
1.000000 0.841581 0.753445
1.000000 0.875639 0.813382
1.000000 0.898741 0.853635
0.910765 0.934630 0.919066
0.911009 0.934783 0.919310
0.911131 0.934813 0.919402
0.911223 0.934752 0.919463
0.911254 0.934539 0.919432
0.911254 0.934264 0.919402
0.911315 0.933867 0.919371
0.911406 0.933471 0.919432
0.911589 0.933074 0.919554
0.911864 0.932677 0.919829
0.912108 0.932219 0.920165
0.912291 0.931762 0.920592
0.912383 0.931243 0.921080
0.912200 0.930602 0.921569
0.911650 0.929839 0.922026
0.910735 0.929015 0.922545
0.911284 0.929107 0.921630
0.918090 0.931853 0.915801
0.925841 0.934295 0.909361
0.934539 0.936187 0.902190
0.944335 0.937255 0.894041
0.955138 0.937163 0.884550
0.967224 0.935363 0.873136
0.980865 0.931304 0.859190
0.996460 0.924193 0.841733
1.000000 0.912749 0.819181
1.000000 0.894987 0.789456
1.000000 0.867063 0.748074
1.000000 0.823575 0.686671
1.000000 0.793301 0.656123
1.000000 0.843198 0.752499
1.000000 0.877317 0.812619
0.916686 0.939391 0.924407
0.916899 0.939513 0.924559
0.917082 0.939574 0.924712
0.917205 0.939574 0.924834
0.917418 0.939544 0.924987
0.917784 0.939544 0.925231
0.918425 0.939696 0.925780
0.919219 0.939879 0.926452
0.920256 0.940185 0.927306
0.921324 0.940490 0.928313
0.922515 0.940826 0.929442
0.923552 0.941131 0.930541
0.924468 0.941283 0.931640
0.925109 0.941283 0.932616
0.925322 0.941100 0.933471
0.925048 0.940673 0.934142
0.924376 0.940185 0.934813
0.927031 0.941375 0.932738
0.933379 0.943908 0.927947
0.940459 0.946105 0.922606
0.948302 0.947784 0.916686
0.956939 0.948699 0.909819
0.966400 0.948486 0.901732
0.976867 0.946868 0.892149
0.988647 0.943389 0.880430
1.000000 0.937377 0.865934
1.000000 0.927916 0.847715
1.000000 0.913512 0.824033
1.000000 0.891691 0.792355
1.000000 0.858732 0.748592
1.000000 0.825406 0.714534
1.000000 0.860197 0.776761
0.928069 0.948180 0.934661
0.928099 0.948180 0.934661
0.928099 0.948119 0.934630
0.928099 0.948028 0.934600
0.928069 0.947875 0.934569
0.928191 0.947692 0.934600
0.928313 0.947539 0.934691
0.928588 0.947387 0.934874
0.928954 0.947234 0.935149
0.929412 0.947112 0.935546
0.929931 0.946990 0.936034
0.930419 0.946868 0.936584
0.930907 0.946715 0.937163
0.931212 0.946471 0.937774
