20 Preset/City Style/【3】LUT video cho PR-AE-FCPX/TONE 3/Dubai I Overpass.cube
# Created by Adobe Lightroom plugin Export LUT (1.24.0)
# www.johnrellis.com/lightroom/exportlut.htm
# Preset: Dubai I Overpass
# Color profile: E:\lut插件\exportlut.1.24\exportlut.lrplugin\color profiles\Rec709gamma2.4.icc
LUT_3D_SIZE 32
DOMAIN_MIN 0.0 0.0 0.0
DOMAIN_MAX 1.0 1.0 1.0
0.094087 0.101015 0.109285
0.094087 0.101015 0.109285
0.093141 0.100404 0.109377
0.088746 0.099763 0.109529
0.088136 0.099825 0.109224
0.100465 0.101472 0.107820
0.126741 0.106813 0.105531
0.162844 0.115785 0.102022
0.208774 0.127077 0.097108
0.267674 0.140047 0.089113
0.341955 0.155428 0.063752
0.434516 0.174563 0.010742
0.546197 0.197543 0.000000
0.676020 0.223423 0.000000
0.811490 0.255344 0.000000
0.936004 0.300206 0.000000
1.000000 0.358312 0.000000
1.000000 0.426215 0.000000
1.000000 0.495064 0.000000
1.000000 0.561212 0.000000
1.000000 0.619928 0.000000
1.000000 0.694667 0.000000
1.000000 0.745052 0.000000
1.000000 0.779782 0.000000
1.000000 0.804837 0.000000
1.000000 0.824063 0.000000
1.000000 0.840177 0.000000
1.000000 0.854032 0.000000
1.000000 0.866850 0.000000
1.000000 0.879026 0.000000
1.000000 0.890806 0.209018
1.000000 0.902464 0.318944
0.094087 0.101015 0.109285
0.094087 0.101015 0.109285
0.092897 0.100801 0.109346
0.088746 0.099763 0.109529
0.088502 0.099428 0.108919
0.100069 0.101167 0.107851
0.124910 0.106081 0.105684
0.159030 0.114382 0.102388
0.202304 0.125093 0.097871
0.257939 0.137636 0.090547
0.328008 0.152071 0.070832
0.415412 0.170169 0.023285
0.521935 0.192142 0.000000
0.646937 0.217044 0.000000
0.781064 0.247074 0.000000
0.909178 0.288273 0.000000
1.000000 0.343908 0.000000
1.000000 0.410040 0.000000
1.000000 0.479591 0.000000
1.000000 0.546166 0.000000
1.000000 0.605859 0.000000
1.000000 0.680232 0.000000
1.000000 0.731228 0.000000
1.000000 0.766964 0.000000
1.000000 0.793240 0.000000
1.000000 0.813718 0.000000
1.000000 0.830838 0.000000
1.000000 0.845762 0.000000
1.000000 0.859281 0.000000
1.000000 0.872068 0.000000
1.000000 0.884520 0.107790
1.000000 0.896513 0.262577
0.094575 0.098848 0.108248
0.093996 0.098939 0.107912
0.091920 0.099153 0.107576
0.088624 0.099428 0.108614
0.089845 0.097902 0.106081
0.098573 0.098878 0.105470
0.122133 0.104158 0.104341
0.157534 0.112856 0.101595
0.201450 0.123690 0.097414
0.255070 0.135592 0.090852
0.322850 0.149447 0.074372
0.407141 0.166537 0.031159
0.510246 0.187747 0.000000
0.631312 0.212131 0.000000
0.763882 0.240970 0.000000
0.892149 0.280003 0.000000
1.000000 0.333959 0.000000
1.000000 0.398993 0.000000
1.000000 0.468666 0.000000
1.000000 0.536431 0.000000
1.000000 0.600061 0.000000
1.000000 0.674403 0.000000
1.000000 0.724910 0.000000
1.000000 0.761349 0.000000
1.000000 0.787869 0.000000
1.000000 0.808530 0.000000
1.000000 0.826261 0.000000
1.000000 0.841642 0.000000
1.000000 0.855680 0.000000
1.000000 0.868925 0.000000
1.000000 0.881498 0.000000
1.000000 0.893645 0.237736
0.092073 0.096925 0.105470
0.091341 0.096986 0.105501
0.090700 0.097078 0.105165
0.090700 0.097078 0.105165
0.093385 0.098665 0.106264
0.103822 0.099428 0.104646
0.112734 0.100832 0.104616
0.144747 0.108064 0.102785
0.188693 0.118624 0.099367
0.244816 0.131258 0.093507
0.317082 0.145815 0.080629
0.406806 0.163180 0.037476
0.506340 0.183352 0.000000
0.623499 0.206821 0.000000
0.751156 0.233890 0.000000
0.876768 0.271702 0.000000
0.985718 0.322087 0.000000
1.000000 0.384283 0.000000
1.000000 0.452674 0.000000
1.000000 0.520134 0.000000
1.000000 0.589349 0.000000
1.000000 0.659998 0.000000
1.000000 0.711299 0.000000
1.000000 0.749996 0.000000
1.000000 0.779507 0.000000
1.000000 0.803250 0.000000
1.000000 0.823026 0.000000
1.000000 0.839963 0.000000
1.000000 0.854917 0.000000
1.000000 0.868467 0.000000
1.000000 0.880888 0.026459
1.000000 0.892546 0.237217
0.089265 0.101289 0.104646
0.089265 0.101289 0.104646
0.091524 0.100710 0.105379
0.093568 0.100099 0.106752
0.098543 0.102449 0.106050
0.115541 0.105379 0.103243
0.138857 0.106386 0.102480
0.149996 0.109407 0.103853
0.162478 0.115908 0.110475
0.214389 0.126619 0.106233
0.281041 0.139437 0.098939
0.365728 0.155276 0.085847
0.470405 0.175204 0.033082
0.596216 0.199222 0.000000
0.737850 0.227481 0.000000
0.865354 0.263981 0.000000
0.977478 0.314946 0.000000
1.000000 0.377417 0.000000
1.000000 0.446662 0.000000
1.000000 0.515007 0.000000
1.000000 0.591730 0.000000
1.000000 0.658045 0.000000
1.000000 0.708217 0.000000
1.000000 0.747555 0.000000
1.000000 0.778134 0.000000
1.000000 0.802487 0.000000
1.000000 0.822751 0.000000
1.000000 0.839750 0.000000
1.000000 0.854795 0.000000
1.000000 0.868284 0.000000
1.000000 0.880644 0.121614
1.000000 0.892149 0.251835
0.083925 0.116732 0.107607
0.085573 0.116945 0.108217
0.092500 0.115816 0.109590
0.100252 0.115023 0.113100
0.106203 0.113344 0.120027
0.121126 0.119509 0.115419
0.150515 0.124269 0.104585
0.183627 0.117678 0.100130
0.211002 0.122988 0.102541
0.225010 0.131319 0.114229
0.247257 0.144198 0.129732
0.330816 0.158297 0.121767
0.432624 0.176608 0.108431
0.557092 0.200076 0.073152
0.700923 0.227237 0.000000
0.846830 0.263066 0.000000
0.976165 0.316106 0.000000
1.000000 0.383276 0.000000
1.000000 0.454017 0.000000
1.000000 0.527367 0.000000
1.000000 0.606348 0.000000
1.000000 0.668727 0.000000
1.000000 0.796201 0.000000
1.000000 0.823026 0.000000
1.000000 0.843107 0.000000
1.000000 0.858946 0.000000
1.000000 0.872496 0.179751
1.000000 0.883970 0.264866
1.000000 0.894591 0.334173
1.000000 0.904265 0.394873
1.000000 0.913268 0.452705
1.000000 0.921569 0.507225
0.066224 0.153475 0.121523
0.071565 0.153353 0.122072
0.091188 0.153048 0.125002
0.111818 0.151583 0.130922
0.131380 0.149660 0.140963
0.141634 0.147890 0.157626
0.171206 0.160739 0.147097
0.221653 0.168734 0.122408
0.276921 0.155947 0.101991
0.336584 0.148562 0.101534
0.363134 0.162997 0.122560
0.391608 0.185885 0.150607
0.441688 0.215091 0.175113
0.579370 0.238071 0.157015
0.730220 0.264439 0.125216
0.877958 0.301518 0.005768
0.999969 0.354986 0.000000
1.000000 0.422675 0.000000
1.000000 0.497078 0.000000
1.000000 0.594507 0.000000
1.000000 0.673396 0.000000
1.000000 0.733181 0.000000
1.000000 0.778622 0.000000
1.000000 0.812680 0.000000
1.000000 0.837705 0.000000
1.000000 0.856474 0.133059
1.000000 0.870756 0.231174
1.000000 0.882475 0.295964
1.000000 0.892973 0.353124
1.000000 0.902342 0.404547
1.000000 0.911101 0.455238
1.000000 0.919402 0.505882
0.008942 0.191592 0.138979
0.013519 0.191531 0.138521
0.060151 0.191104 0.141176
0.104921 0.190738 0.147555
0.139528 0.189578 0.158419
0.168368 0.188174 0.174899
0.183261 0.187533 0.199527
0.222110 0.207736 0.186007
0.288182 0.223453 0.153384
0.360479 0.212619 0.121309
0.440497 0.173342 0.103822
0.505943 0.195804 0.122927
0.537591 0.224033 0.157443
0.574060 0.261357 0.197940
0.646662 0.299657 0.225956
0.801724 0.327794 0.201633
0.940887 0.369421 0.164462
1.000000 0.429236 0.103120
1.000000 0.521263 0.000000
1.000000 0.606134 0.000000
1.000000 0.679683 0.000000
1.000000 0.737972 0.000000
1.000000 0.782498 0.000000
1.000000 0.815366 0.000000
1.000000 0.839750 0.165682
1.000000 0.858183 0.245762
1.000000 0.872404 0.302922
1.000000 0.883909 0.349493
1.000000 0.894438 0.396857
1.000000 0.903655 0.440681
1.000000 0.912291 0.485298
1.000000 0.920256 0.529442
0.000000 0.242069 0.162966
0.000000 0.242496 0.163210
0.000000 0.244602 0.163546
0.016541 0.245274 0.167269
0.124331 0.245365 0.178653
0.175906 0.245487 0.195499
0.217594 0.245670 0.220493
0.239780 0.248173 0.256382
0.288731 0.277226 0.242496
0.375799 0.302678 0.198367
0.469276 0.295598 0.152071
0.566674 0.247074 0.118013
0.678462 0.236393 0.116274
0.723293 0.271122 0.159152
0.757961 0.315160 0.211215
0.792935 0.366796 0.270115
0.886931 0.427192 0.310002
1.000000 0.491005 0.295506
1.000000 0.564172 0.280339
1.000000 0.637140 0.268650
1.000000 0.702693 0.267704
1.000000 0.756954 0.279332
1.000000 0.799130 0.302312
1.000000 0.830381 0.333196
1.000000 0.852964 0.363958
1.000000 0.868894 0.388891
1.000000 0.880797 0.411170
1.000000 0.890257 0.431434
1.000000 0.899321 0.460731
1.000000 0.908019 0.496651
1.000000 0.916167 0.534203
1.000000 0.923644 0.571832
0.000000 0.304295 0.190768
0.000000 0.304814 0.190585
0.000000 0.307134 0.190921
0.000000 0.312535 0.192844
0.000000 0.313359 0.200931
0.156588 0.313970 0.218296
0.225895 0.315709 0.243595
0.279850 0.319005 0.279759
0.309758 0.325658 0.330175
0.371435 0.361913 0.315435
0.478492 0.395087 0.258549
0.588769 0.392798 0.197818
0.711788 0.350896 0.137606
0.821744 0.283696 0.112398
0.915770 0.339330 0.154330
0.958129 0.402869 0.229587
0.992615 0.478492 0.315435
1.000000 0.558312 0.407385
1.000000 0.631708 0.461036
1.000000 0.690120 0.457221
1.000000 0.743526 0.459022
1.000000 0.786984 0.464576
1.000000 0.820676 0.474830
1.000000 0.846464 0.488685
1.000000 0.865660 0.503624
1.000000 0.879789 0.516411
1.000000 0.891173 0.530846
1.000000 0.900450 0.545556
1.000000 0.908721 0.563409
1.000000 0.916106 0.583459
1.000000 0.922789 0.605524
1.000000 0.929015 0.629603
0.000000 0.368322 0.219516
0.000000 0.369055 0.219547
0.000000 0.372259 0.220005
0.000000 0.379248 0.222599
0.000000 0.387060 0.224887
0.019226 0.390936 0.243992
0.210819 0.395300 0.271336
0.297032 0.401801 0.309331
0.364508 0.410376 0.360266
0.404486 0.423499 0.427497
0.483375 0.468940 0.410224
0.625452 0.523156 0.352544
0.757565 0.533440 0.276768
0.889677 0.505608 0.195438
0.998657 0.421881 0.132265
1.000000 0.458350 0.167361
1.000000 0.526360 0.264683
1.000000 0.596063 0.365515
1.000000 0.667445 0.467720
1.000000 0.736416 0.569787
1.000000 0.789151 0.623194
1.000000 0.822721 0.625391
1.000000 0.849973 0.631159
1.000000 0.871305 0.638911
1.000000 0.887602 0.648127
1.000000 0.899657 0.656306
1.000000 0.909239 0.664668
1.000000 0.917174 0.673945
1.000000 0.924193 0.685878
1.000000 0.930541 0.700160
1.000000 0.936278 0.716030
1.000000 0.941497 0.733242
0.000000 0.449805 0.255894
0.000000 0.450843 0.255955
0.000000 0.454658 0.257511
0.000000 0.462287 0.259922
0.000000 0.474983 0.266300
0.000000 0.482612 0.278325
0.153079 0.493446 0.309941
0.304448 0.508629 0.354589
0.415564 0.527245 0.413062
0.508721 0.550164 0.487495
0.568811 0.579400 0.577966
0.673030 0.642237 0.560113
0.921263 0.821042 0.632654
0.997894 0.825406 0.549615
1.000000 0.802823 0.453559
1.000000 0.742275 0.360418
1.000000 0.713802 0.350652
1.000000 0.768307 0.453132
1.000000 0.815763 0.573541
1.000000 0.857603 0.682521
1.000000 0.891112 0.770657
1.000000 0.916808 0.836851
1.000000 0.931121 0.861234
1.000000 0.937713 0.859525
1.000000 0.942840 0.857969
1.000000 0.946715 0.855924
1.000000 0.949737 0.854002
1.000000 0.952178 0.852049
1.000000 0.954498 0.851438
1.000000 0.956878 0.852903
1.000000 0.959319 0.856291
1.000000 0.961883 0.862119
0.000000 0.632929 0.346960
0.000000 0.633539 0.347112
0.000000 0.636286 0.348119
0.000000 0.643549 0.351476
0.000000 0.655909 0.359350
0.000000 0.668910 0.367926
0.000000 0.678431 0.404700
0.351324 0.691279 0.454017
0.514580 0.708766 0.518151
0.645777 0.731807 0.598230
0.745571 0.762234 0.693111
0.804044 0.799863 0.789700
0.883879 0.851682 0.778470
0.956481 0.882109 0.737087
1.000000 0.888365 0.676692
1.000000 0.875181 0.593957
1.000000 0.838834 0.493599
1.000000 0.774624 0.415930
1.000000 0.811673 0.499306
1.000000 0.848020 0.606409
1.000000 0.880186 0.706722
1.000000 0.906889 0.787839
1.000000 0.927703 0.847959
1.000000 0.943755 0.891356
1.000000 0.952148 0.906859
1.000000 0.955535 0.904662
1.000000 0.958282 0.902800
1.000000 0.960632 0.901396
1.000000 0.962829 0.900969
1.000000 0.965026 0.902220
1.000000 0.967163 0.904570
1.000000 0.969268 0.908324
0.000000 0.749599 0.417273
0.000000 0.748867 0.416541
0.000000 0.749264 0.416510
0.000000 0.752834 0.419501
0.000000 0.759823 0.425635
0.000000 0.770352 0.436744
0.000000 0.775662 0.461372
0.360235 0.783078 0.507195
0.537407 0.793881 0.566033
0.676081 0.809201 0.638636
0.782315 0.829282 0.721462
0.851560 0.853758 0.803983
0.885100 0.879515 0.873320
0.934569 0.910094 0.858396
0.977569 0.925994 0.827359
1.000000 0.927916 0.779080
1.000000 0.918608 0.711818
1.000000 0.895232 0.623926
1.000000 0.851835 0.540581
1.000000 0.843656 0.551476
1.000000 0.872831 0.638727
1.000000 0.899687 0.734737
1.000000 0.921080 0.807523
1.000000 0.938354 0.862364
1.000000 0.951537 0.901640
1.000000 0.961578 0.931060
1.000000 0.966796 0.942687
1.000000 0.968688 0.941131
1.000000 0.970520 0.940551
1.000000 0.972320 0.941192
1.000000 0.974060 0.942748
1.000000 0.975799 0.945495
0.000000 0.839322 0.488991
0.000000 0.839200 0.488808
0.000000 0.838895 0.488838
0.000000 0.839811 0.490639
0.000000 0.842588 0.496254
0.000000 0.848203 0.508598
0.000000 0.851774 0.524285
0.401251 0.854643 0.566064
0.574487 0.860075 0.620203
0.707515 0.868284 0.684596
0.808957 0.879820 0.755184
0.876066 0.894713 0.823819
0.914122 0.910735 0.881559
0.930388 0.925933 0.926146
0.960998 0.943084 0.909392
0.986908 0.950988 0.884977
1.000000 0.951354 0.849760
1.000000 0.945129 0.801022
1.000000 0.930755 0.734890
1.000000 0.902617 0.656306
1.000000 0.870481 0.605035
1.000000 0.894255 0.681331
1.000000 0.915221 0.761135
1.000000 0.933043 0.827665
1.000000 0.947082 0.876005
1.000000 0.958007 0.911681
1.000000 0.966522 0.939086
1.000000 0.973297 0.961639
1.000000 0.977173 0.972808
1.000000 0.978851 0.974060
1.000000 0.980499 0.976318
1.000000 0.982055 0.979339
0.000000 0.898528 0.556939
0.000000 0.899138 0.557733
0.000000 0.899687 0.559808
0.000000 0.901518 0.564477
0.000000 0.903960 0.572747
0.000000 0.908385 0.588983
0.308385 0.912505 0.604517
0.507012 0.913359 0.645869
0.651331 0.914946 0.695155
0.762448 0.917571 0.748714
0.843168 0.921904 0.802731
0.897185 0.928130 0.852750
0.930053 0.935485 0.895232
0.947143 0.943145 0.930083
0.954345 0.951049 0.955535
0.973114 0.959960 0.939361
0.990448 0.964233 0.919219
1.000000 0.964324 0.892821
1.000000 0.960327 0.858488
1.000000 0.951324 0.812253
1.000000 0.934539 0.750881
1.000000 0.908019 0.695705
1.000000 0.912139 0.727535
1.000000 0.928313 0.787869
1.000000 0.943420 0.848295
1.000000 0.955383 0.892180
1.000000 0.964691 0.925139
1.000000 0.972015 0.951019
1.000000 0.977691 0.972290
1.000000 0.982147 0.990295
1.000000 0.984863 1.000000
1.000000 0.985931 1.000000
0.000000 0.937530 0.623590
0.000000 0.937621 0.624109
0.000000 0.938048 0.626612
0.000000 0.938811 0.631739
0.122286 0.940154 0.641260
0.341711 0.942016 0.657252
0.465034 0.943908 0.675044
0.588403 0.943267 0.705013
0.701259 0.942260 0.744869
0.791104 0.942260 0.787472
0.858518 0.943786 0.830625
0.905821 0.946807 0.870237
0.936645 0.951019 0.905180
0.954559 0.955718 0.935119
0.962951 0.960510 0.960510
0.967224 0.965698 0.976013
0.979736 0.971069 0.963012
0.991730 0.973785 0.947448
1.000000 0.973907 0.928130
1.000000 0.971374 0.903502
1.000000 0.965789 0.871855
1.000000 0.955505 0.830076
1.000000 0.938354 0.785245
1.000000 0.927306 0.770840
1.000000 0.940063 0.819455
1.000000 0.952056 0.867918
1.000000 0.962310 0.907897
1.000000 0.970306 0.938293
1.000000 0.976532 0.962707
1.000000 0.981353 0.982879
1.000000 0.985046 1.000000
1.000000 0.987915 1.000000
0.289921 0.966278 0.700282
0.305699 0.966613 0.702205
0.573785 0.984070 0.785061
0.600549 0.983490 0.789639
0.640314 0.982574 0.797452
0.687984 0.981415 0.808225
0.739010 0.980163 0.821439
0.788083 0.978180 0.836698
0.841093 0.975952 0.859770
0.885588 0.974548 0.884092
0.920287 0.973999 0.908263
0.945037 0.974365 0.931060
0.961151 0.975219 0.951812
0.970642 0.976471 0.970611
0.975158 0.977935 0.987488
0.976165 0.979492 1.000000
0.979126 0.981415 1.000000
0.983856 0.983337 0.998749
0.990631 0.984192 0.986419
0.997925 0.983886 0.971771
1.000000 0.982208 0.954101
1.000000 0.978973 0.932921
1.000000 0.973083 0.905699
1.000000 0.962890 0.872343
1.000000 0.948638 0.839902
1.000000 0.954437 0.866423
1.000000 0.961395 0.894041
1.000000 0.969055 0.926238
1.000000 0.975341 0.952483
1.000000 0.980346 0.974304
1.000000 0.984283 0.992981
1.000000 0.987335 1.000000
0.585412 0.985779 0.790677
0.603784 0.986633 0.797574
0.631373 0.987243 0.806363
0.663813 0.987457 0.815976
0.701717 0.987091 0.826627
0.740749 0.986145 0.837278
0.780972 0.984924 0.849210
0.814206 0.983429 0.858762
0.855741 0.981262 0.876768
0.892241 0.979614 0.896086
0.922087 0.978698 0.916075
0.944488 0.978454 0.935515
0.959930 0.978698 0.953704
0.969757 0.979431 0.970642
0.975219 0.980377 0.986267
0.977478 0.981537 1.000000
0.980407 0.982788 1.000000
0.982910 0.984497 1.000000
0.985901 0.986084 1.000000
0.989502 0.986877 0.999145
0.995300 0.986816 0.987762
1.000000 0.985870 0.974304
1.000000 0.983734 0.957977
1.000000 0.979828 0.937133
1.000000 0.972839 0.908965
1.000000 0.962921 0.884031
1.000000 0.960204 0.884215
1.000000 0.965972 0.907317
1.000000 0.972320 0.934539
1.000000 0.978058 0.959930
1.000000 0.982635 0.981445
1.000000 0.986114 0.999695
0.687282 0.990753 0.830838
0.701747 0.991272 0.836973
0.722255 0.991485 0.844572
0.745541 0.991455 0.852781
0.772152 0.990967 0.861540
0.799222 0.990082 0.870115
0.827481 0.988952 0.879454
0.849943 0.987823 0.886076
0.879911 0.985931 0.899596
0.907073 0.984375 0.914458
0.930358 0.983307 0.930205
0.948486 0.982788 0.946075
0.961608 0.982666 0.961425
0.970397 0.982971 0.976104
0.975677 0.983520 0.989960
0.978332 0.984222 1.000000
0.982269 0.985107 1.000000
0.984558 0.986084 1.000000
0.986481 0.987457 1.000000
0.988678 0.988647 1.000000
0.990845 0.989227 1.000000
0.992981 0.989258 1.000000
0.997711 0.988647 0.991760
1.000000 0.987213 0.978485
1.000000 0.984497 0.961547
1.000000 0.979736 0.939330
1.000000 0.972625 0.917418
1.000000 0.965332 0.900969
1.000000 0.970642 0.923064
1.000000 0.975280 0.942931
1.000000 0.980529 0.967834
1.000000 0.984558 0.988403
0.773281 0.993713 0.868620
0.782071 0.993957 0.873106
0.795621 0.993957 0.878874
0.811582 0.993744 0.885252
0.828977 0.993225 0.891905
0.847440 0.992432 0.898589
0.865751 0.991547 0.905272
0.881529 0.990600 0.910521
0.902922 0.989105 0.921141
0.922545 0.987823 0.932647
0.939818 0.986847 0.945190
0.953735 0.986236 0.958038
0.964294 0.985931 0.970886
0.971557 0.985992 0.983429
0.976135 0.986267 0.995544
0.980011 0.986755 1.000000
0.984009 0.987457 1.000000
0.986633 0.988251 1.000000
0.988251 0.989166 1.000000
0.989899 0.990387 1.000000
0.991608 0.991363 1.000000
0.993194 0.991913 1.000000
0.994690 0.992065 1.000000
0.996216 0.991821 1.000000
0.997803 0.991028 1.000000
1.000000 0.989532 0.994324
1.000000 0.986969 0.979431
1.000000 0.983062 0.963592
1.000000 0.978485 0.951324
1.000000 0.979858 0.960784
1.000000 0.982818 0.975189
1.000000 0.986023 0.992798
0.873075 0.995727 0.923247
0.875792 0.995727 0.924865
0.879332 0.995605 0.926635
0.885283 0.995270 0.929107
0.892699 0.994812 0.932189
0.901396 0.994202 0.935821
0.910063 0.993591 0.939086
0.919463 0.992889 0.943114
0.931853 0.991852 0.950530
0.943969 0.990967 0.959289
0.954528 0.990265 0.968750
0.963195 0.989807 0.978668
0.969787 0.989502 0.988586
0.974456 0.989441 0.998596
0.979248 0.989502 1.000000
0.983520 0.989746 1.000000
0.986603 0.990112 1.000000
0.988769 0.990539 1.000000
0.990234 0.991058 1.000000
0.991150 0.991608 1.000000
0.992279 0.992462 1.000000
0.993408 0.993072 1.000000
0.994507 0.993408 1.000000
0.995575 0.993439 1.000000
0.996735 0.993194 1.000000
0.998016 0.992615 1.000000
0.999481 0.991516 1.000000
1.000000 0.989776 0.997345
1.000000 0.986999 0.982849
1.000000 0.983978 0.973938
1.000000 0.982757 0.973205
1.000000 0.985229 0.986297
0.910369 0.995880 0.947875
0.911894 0.995850 0.948974
0.914427 0.995758 0.950530
0.918181 0.995544 0.952605
0.922850 0.995209 0.955077
0.928130 0.994812 0.957824
0.932555 0.994476 0.959380
0.939483 0.993866 0.963561
0.947295 0.993194 0.969329
0.955108 0.992554 0.976257
0.962005 0.992035 0.983764
0.967895 0.991669 0.991882
0.972442 0.991424 1.000000
0.977600 0.991333 1.000000
0.982086 0.991394 1.000000
0.985504 0.991547 1.000000
0.988159 0.991760 1.000000
0.990082 0.992065 1.000000
0.991455 0.992432 1.000000
0.992401 0.992859 1.000000
0.993042 0.993347 1.000000
0.993927 0.993957 1.000000
0.994781 0.994415 1.000000
0.995605 0.994659 1.000000
0.996185 0.994293 1.000000
0.997131 0.994079 1.000000
0.998199 0.993652 1.000000
0.999420 0.992859 1.000000
1.000000 0.991577 1.000000
1.000000 0.989563 0.997894
1.000000 0.987274 0.989532
1.000000 0.984619 0.981537
0.944518 0.995941 0.978851
0.945769 0.995941 0.980346
0.946960 0.995880 0.981445
0.948302 0.995758 0.982361
0.949584 0.995605 0.982818
0.950774 0.995422 0.982727
0.952697 0.995148 0.983307
0.955993 0.994690 0.985626
0.959808 0.994202 0.988830
0.963867 0.993744 0.993072
0.967712 0.993347 0.997955
0.971862 0.993011 1.000000
0.976440 0.992767 1.000000
0.980377 0.992615 1.000000
0.983673 0.992523 1.000000
0.986419 0.992523 1.000000
0.988617 0.992584 1.000000
0.990387 0.992767 1.000000
0.991730 0.993042 1.000000
0.992767 0.993378 1.000000
0.993469 0.993744 1.000000
0.994079 0.994232 1.000000
0.994781 0.994720 1.000000
0.995453 0.995056 1.000000
0.996094 0.995178 1.000000
0.996796 0.995148 1.000000
0.997559 0.994965 1.000000
0.998444 0.994598 1.000000
0.999451 0.993957 1.000000
1.000000 0.992981 1.000000
1.000000 0.991485 1.000000
1.000000 0.989593 1.000000
0.955749 0.996033 0.992279
0.956451 0.996063 0.993469
0.957214 0.996033 0.994385
0.957916 0.995972 0.994995
0.958801 0.995911 0.995483
0.960174 0.995758 0.996521
0.962219 0.995514 0.998596
0.964660 0.995239 1.000000
0.968170 0.994965 1.000000
0.971801 0.994720 1.000000
0.975402 0.994476 1.000000
0.978790 0.994324 1.000000
0.981872 0.994171 1.000000
0.984527 0.994049 1.000000
0.986816 0.993988 1.000000
0.988769 0.993957 1.000000
0.990387 0.993957 1.000000
0.991730 0.994049 1.000000
0.992859 0.994202 1.000000
0.993744 0.994415 1.000000
0.994354 0.994659 1.000000
0.994812 0.994934 1.000000
0.995270 0.995361 1.000000
0.995819 0.995727 1.000000
0.996368 0.995941 1.000000
0.996887 0.996063 1.000000
0.997436 0.996033 1.000000
0.998047 0.995911 1.000000
0.998779 0.995666 1.000000
0.999573 0.995239 1.000000
1.000000 0.994568 1.000000
1.000000 0.993561 1.000000
0.967651 0.996399 1.000000
0.968017 0.996399 1.000000
0.968475 0.996399 1.000000
0.969146 0.996338 1.000000
0.970001 0.996246 1.000000
0.971130 0.996124 1.000000
0.972625 0.995972 1.000000
0.974426 0.995819 1.000000
0.976471 0.995636 1.000000
0.978698 0.995483 1.000000
0.981018 0.995331 1.000000
0.983276 0.995209 1.000000
0.985351 0.995117 1.000000
0.987243 0.995026 1.000000
0.988922 0.994965 1.000000
0.990356 0.994903 1.000000
0.991608 0.994903 1.000000
0.992676 0.994934 1.000000
0.993652 0.995026 1.000000
0.994385 0.995178 1.000000
0.994995 0.995361 1.000000
0.995392 0.995544 1.000000
0.995666 0.995758 1.000000
0.996094 0.996124 1.000000
0.996521 0.996368 1.000000
0.996979 0.996521 1.000000
0.997375 0.996612 1.000000
0.997864 0.996582 1.000000
0.998383 0.996460 1.000000
0.998993 0.996307 1.000000
0.999695 0.995972 1.000000
1.000000 0.995453 1.000000
0.976471 0.996674 1.000000
0.976715 0.996674 1.000000
0.977050 0.996674 1.000000
0.977539 0.996643 1.000000
0.978241 0.996612 1.000000
0.979217 0.996551 1.000000
0.980591 0.996521 1.000000
0.982177 0.996460 1.000000
0.983917 0.996429 1.000000
0.985718 0.996429 1.000000
0.987396 0.996429 1.000000
0.988952 0.996429 1.000000
0.990326 0.996460 1.000000
0.991547 0.996460 1.000000
0.992584 0.996460 1.000000
0.993439 0.996460 1.000000
0.994171 0.996460 1.000000
0.994842 0.996460 1.000000
0.995422 0.996521 1.000000
0.995911 0.996582 1.000000
0.996307 0.996674 1.000000
0.996612 0.996765 1.000000
0.996826 0.996887 1.000000
0.997009 0.997040 1.000000
0.997284 0.997253 1.000000
0.997589 0.997406 1.000000
0.997894 0.997498 1.000000
0.998169 0.997559 1.000000
0.998505 0.997528 1.000000
0.998901 0.997467 1.000000
0.999359 0.997345 1.000000
0.999878 0.997131 1.000000
0.986358 0.997406 1.000000
0.986389 0.997406 1.000000
0.986481 0.997375 1.000000
0.986603 0.997375 1.000000
0.986816 0.997345 1.000000
0.987182 0.997284 1.000000
0.987640 0.997253 1.000000
0.988251 0.997223 1.000000
0.988952 0.997162 1.000000
0.989746 0.997131 1.000000
0.990570 0.997101 1.000000
0.991424 0.997070 1.000000
0.992248 0.997070 1.000000
0.993011 0.997040 1.000000
