20 Preset/City Style/【3】LUT video cho PR-AE-FCPX/TONE 3/Dubai I EMAAR.cube
# Created by Adobe Lightroom plugin Export LUT (1.24.0)
# www.johnrellis.com/lightroom/exportlut.htm
# Preset: Dubai I EMAAR
# Color profile: E:\lut插件\exportlut.1.24\exportlut.lrplugin\color profiles\Rec709gamma2.4.icc
LUT_3D_SIZE 32
DOMAIN_MIN 0.0 0.0 0.0
DOMAIN_MAX 1.0 1.0 1.0
0.000641 0.101076 0.097261
0.000000 0.101228 0.096895
0.000000 0.100435 0.096284
0.000000 0.099641 0.094881
0.000000 0.097902 0.093080
0.035096 0.095857 0.091402
0.101686 0.093233 0.089784
0.154788 0.085512 0.089052
0.229252 0.040345 0.087800
0.328527 0.000000 0.085267
0.451148 0.000000 0.080262
0.590631 0.000000 0.068696
0.731197 0.000000 0.049714
0.855375 0.000000 0.030152
0.957092 0.000000 0.014771
1.000000 0.000000 0.009705
1.000000 0.000000 0.024598
1.000000 0.000000 0.064057
1.000000 0.000000 0.102449
1.000000 0.000000 0.134707
1.000000 0.000000 0.169192
1.000000 0.000000 0.223423
1.000000 0.000000 0.286137
1.000000 0.000000 0.345495
1.000000 0.171603 0.401038
1.000000 0.276860 0.452338
1.000000 0.348089 0.501732
1.000000 0.406897 0.547631
1.000000 0.459785 0.591058
1.000000 0.509972 0.632105
1.000000 0.558038 0.671107
1.000000 0.605219 0.708248
0.000000 0.100465 0.096223
0.000000 0.100465 0.096223
0.000000 0.099672 0.095979
0.000000 0.098878 0.094606
0.000000 0.097475 0.092714
0.033112 0.095949 0.091402
0.097536 0.094148 0.089754
0.147768 0.088502 0.089052
0.217166 0.054292 0.087953
0.310399 0.000000 0.086000
0.427192 0.000000 0.081361
0.562158 0.000000 0.071717
0.702205 0.000000 0.054017
0.828977 0.000000 0.033783
0.935271 0.000000 0.017029
1.000000 0.000000 0.011231
1.000000 0.000000 0.020172
1.000000 0.000000 0.053346
1.000000 0.000000 0.096651
1.000000 0.000000 0.127810
1.000000 0.000000 0.161074
1.000000 0.000000 0.211490
1.000000 0.000000 0.268498
1.000000 0.000000 0.323461
1.000000 0.020142 0.375158
1.000000 0.229465 0.424689
1.000000 0.309911 0.472999
1.000000 0.373297 0.520104
1.000000 0.430152 0.565911
1.000000 0.483345 0.609857
1.000000 0.534386 0.651789
1.000000 0.583978 0.691524
0.000000 0.098085 0.093446
0.000000 0.098085 0.093446
0.000000 0.097658 0.093080
0.000000 0.096803 0.093263
0.000000 0.096986 0.091920
0.033570 0.097108 0.090364
0.096315 0.096223 0.089479
0.144015 0.092653 0.088624
0.211063 0.070466 0.087953
0.300786 0.000000 0.085847
0.413336 0.000000 0.082094
0.544854 0.000000 0.073396
0.683284 0.000000 0.055970
0.810422 0.000000 0.034852
0.918608 0.000000 0.017182
1.000000 0.000000 0.008698
1.000000 0.000000 0.015717
1.000000 0.000000 0.044862
1.000000 0.000000 0.092317
1.000000 0.000000 0.123507
1.000000 0.000000 0.157595
1.000000 0.000000 0.208743
1.000000 0.000000 0.262608
1.000000 0.000000 0.315862
1.000000 0.000000 0.365789
1.000000 0.216464 0.412665
1.000000 0.297520 0.460121
1.000000 0.361456 0.507134
1.000000 0.418769 0.554009
1.000000 0.472908 0.599145
1.000000 0.524132 0.641840
1.000000 0.573968 0.682460
0.000000 0.095583 0.090486
0.000000 0.095583 0.090486
0.000000 0.095583 0.090486
0.000000 0.095583 0.090486
0.000000 0.096498 0.090303
0.038849 0.099580 0.089540
0.097261 0.100984 0.088746
0.144411 0.099916 0.087953
0.209842 0.090059 0.087068
0.297063 0.022400 0.085145
0.405859 0.000000 0.081544
0.532952 0.000000 0.072724
0.668116 0.000000 0.055055
0.793606 0.000000 0.034302
0.901274 0.000000 0.014496
0.987579 0.000000 0.003784
1.000000 0.000000 0.007507
1.000000 0.000000 0.033326
1.000000 0.000000 0.084627
1.000000 0.000000 0.117311
1.000000 0.000000 0.149996
1.000000 0.000000 0.200534
1.000000 0.000000 0.251255
1.000000 0.000000 0.301915
1.000000 0.000000 0.351904
1.000000 0.218845 0.402197
1.000000 0.300877 0.452979
1.000000 0.364752 0.502373
1.000000 0.422095 0.550896
1.000000 0.475044 0.596521
1.000000 0.524407 0.638911
1.000000 0.570886 0.677546
0.000000 0.096590 0.091981
0.000000 0.096986 0.091920
0.000000 0.096986 0.092348
0.000000 0.097322 0.092714
0.000000 0.097322 0.092714
0.018616 0.101686 0.091463
0.094362 0.109773 0.088167
0.140047 0.111452 0.087861
0.202457 0.107607 0.086854
0.285039 0.089845 0.085573
0.387915 0.000000 0.082002
0.509972 0.000000 0.073091
0.642084 0.000000 0.055207
0.768460 0.000000 0.030762
0.878691 0.000000 0.008423
0.969665 0.000000 0.000000
1.000000 0.000000 0.000000
1.000000 0.000000 0.018708
1.000000 0.000000 0.076265
1.000000 0.000000 0.115938
1.000000 0.000000 0.155520
1.000000 0.000000 0.204105
1.000000 0.000000 0.253239
1.000000 0.000000 0.303655
1.000000 0.161196 0.353796
1.000000 0.255589 0.403723
1.000000 0.322759 0.453590
1.000000 0.379461 0.502525
1.000000 0.431800 0.550103
1.000000 0.480873 0.594629
1.000000 0.526970 0.635798
1.000000 0.571252 0.673823
0.004120 0.105043 0.101503
0.005798 0.104982 0.101869
0.004791 0.105348 0.102174
0.005432 0.106294 0.103487
0.005432 0.106294 0.103487
0.004761 0.105989 0.102815
0.040253 0.112642 0.100526
0.126894 0.124941 0.093233
0.205570 0.130800 0.087922
0.287968 0.123995 0.085176
0.389868 0.096834 0.080781
0.509697 0.000000 0.069123
0.638880 0.000000 0.045258
0.762875 0.000000 0.015930
0.872465 0.000000 0.000000
0.962402 0.000000 0.000000
1.000000 0.000000 0.000000
1.000000 0.000000 0.005280
1.000000 0.000000 0.077913
1.000000 0.000000 0.121157
1.000000 0.000000 0.168948
1.000000 0.000000 0.219760
1.000000 0.305303 0.389654
1.000000 0.366735 0.452583
1.000000 0.417334 0.507134
1.000000 0.461219 0.554376
1.000000 0.501061 0.595972
1.000000 0.537072 0.631525
1.000000 0.572107 0.664698
1.000000 0.605219 0.694514
1.000000 0.637507 0.722194
1.000000 0.668177 0.747463
0.030762 0.130983 0.133364
0.030488 0.130983 0.133608
0.032105 0.131930 0.134707
0.033692 0.133303 0.136202
0.035981 0.134401 0.137697
0.032105 0.131930 0.134707
0.028534 0.128878 0.130892
0.090425 0.137697 0.126467
0.197147 0.159548 0.110628
0.342809 0.179355 0.082216
0.459022 0.175082 0.061585
0.587549 0.158816 0.029236
0.712825 0.129610 0.000000
0.825101 0.065736 0.000000
0.919554 0.000000 0.000000
0.994629 0.000000 0.000000
1.000000 0.000000 0.000000
1.000000 0.000000 0.024018
1.000000 0.000000 0.108309
1.000000 0.102327 0.162417
1.000000 0.203616 0.228397
1.000000 0.271092 0.295567
1.000000 0.330388 0.364019
1.000000 0.383764 0.431220
1.000000 0.431434 0.491890
1.000000 0.472908 0.543755
1.000000 0.508568 0.586084
1.000000 0.540673 0.621637
1.000000 0.572045 0.654261
1.000000 0.601831 0.683619
1.000000 0.631525 0.711025
1.000000 0.660792 0.736660
0.091951 0.163424 0.174411
0.091829 0.163424 0.174563
0.093538 0.164218 0.175479
0.095125 0.165866 0.177584
0.098390 0.168765 0.181247
0.097047 0.167330 0.179507
0.090211 0.161746 0.172244
0.080354 0.155673 0.164523
0.115724 0.163424 0.159243
0.247837 0.195590 0.138277
0.413367 0.230533 0.102174
0.573419 0.256260 0.003601
0.693446 0.260716 0.000000
0.802121 0.261906 0.000000
0.895567 0.260288 0.000000
0.971038 0.257603 0.000000
1.000000 0.256138 0.000000
1.000000 0.258091 0.012177
1.000000 0.268437 0.117617
1.000000 0.296574 0.183322
1.000000 0.325719 0.246220
1.000000 0.358404 0.309667
1.000000 0.393561 0.373754
1.000000 0.430396 0.436866
1.000000 0.466255 0.494942
1.000000 0.498451 0.543633
1.000000 0.527886 0.584222
1.000000 0.554864 0.618738
1.000000 0.582330 0.650690
1.000000 0.608972 0.679500
1.000000 0.636194 0.706844
1.000000 0.663111 0.732082
0.149813 0.213901 0.238895
0.149630 0.214023 0.238987
0.150729 0.214786 0.239963
0.152926 0.216892 0.242588
0.156313 0.220188 0.246799
0.160830 0.224765 0.252567
0.151247 0.215702 0.241032
0.140810 0.205570 0.228153
0.128328 0.194614 0.214298
0.149172 0.198245 0.206729
0.306859 0.245640 0.180575
0.489296 0.298283 0.137362
0.676600 0.356390 0.000000
0.786435 0.370520 0.000000
0.877348 0.376287 0.000000
0.951751 0.377630 0.000000
1.000000 0.377966 0.000000
1.000000 0.382086 0.074556
1.000000 0.394385 0.154665
1.000000 0.405859 0.216037
1.000000 0.419959 0.275242
1.000000 0.437629 0.334936
1.000000 0.459266 0.395300
1.000000 0.484016 0.454108
1.000000 0.509606 0.507897
1.000000 0.534020 0.553429
1.000000 0.556878 0.591150
1.000000 0.579156 0.623896
1.000000 0.601831 0.654108
1.000000 0.624842 0.681666
1.000000 0.648615 0.707942
1.000000 0.672572 0.732235
0.220493 0.288396 0.332860
0.220249 0.288151 0.332525
0.220249 0.288151 0.332525
0.222080 0.290227 0.335149
0.224155 0.292638 0.338170
0.227695 0.296605 0.343053
0.226627 0.295384 0.341558
0.212924 0.279973 0.322332
0.197604 0.263127 0.301183
0.181430 0.245823 0.279179
0.181369 0.239475 0.266453
0.359899 0.301457 0.236606
0.549584 0.366583 0.190433
0.727749 0.430213 0.098054
0.853483 0.465461 0.000000
0.929656 0.469703 0.000000
0.999664 0.479683 0.047059
1.000000 0.486702 0.146212
1.000000 0.491737 0.206607
1.000000 0.495766 0.261509
1.000000 0.501305 0.315038
1.000000 0.508354 0.367285
1.000000 0.518700 0.418067
1.000000 0.531640 0.467781
1.000000 0.546563 0.512932
1.000000 0.562341 0.552850
1.000000 0.579522 0.588800
1.000000 0.597375 0.620874
1.000000 0.617029 0.651240
1.000000 0.637934 0.679805
1.000000 0.659785 0.706416
1.000000 0.682704 0.731899
0.293095 0.372259 0.435767
0.293156 0.372412 0.435889
0.293767 0.373083 0.436744
0.295903 0.375616 0.439734
0.298955 0.379187 0.443977
0.303685 0.384741 0.450568
0.310063 0.392035 0.459205
0.301366 0.381964 0.447272
0.284031 0.361791 0.423133
0.264317 0.338689 0.395117
0.242679 0.313603 0.364294
0.228489 0.297459 0.344182
0.416632 0.367956 0.312474
0.610468 0.442390 0.266728
0.786496 0.511559 0.210300
0.919097 0.559777 0.123140
0.987427 0.568597 0.160494
1.000000 0.570336 0.210727
1.000000 0.570184 0.259800
1.000000 0.569207 0.307256
1.000000 0.569085 0.354833
1.000000 0.571038 0.401373
1.000000 0.575555 0.447700
1.000000 0.582727 0.492012
1.000000 0.592096 0.533593
1.000000 0.602899 0.569757
1.000000 0.614862 0.602289
1.000000 0.628321 0.632136
1.000000 0.643915 0.660639
1.000000 0.661097 0.687343
1.000000 0.679713 0.712825
1.000000 0.699397 0.736843
0.386450 0.478523 0.557000
0.386481 0.478614 0.557122
0.387732 0.479988 0.558526
0.389715 0.482216 0.560937
0.393317 0.486030 0.564996
0.398627 0.491798 0.571099
0.405798 0.499397 0.579034
0.413611 0.507591 0.587518
0.393317 0.486030 0.564996
0.370062 0.460517 0.537438
0.344274 0.431434 0.504906
0.320348 0.403998 0.473243
0.371038 0.461616 0.538628
0.578515 0.547387 0.517296
0.769863 0.619928 0.485512
0.904662 0.665461 0.450813
0.996155 0.690486 0.414160
1.000000 0.695918 0.405951
1.000000 0.689784 0.444282
1.000000 0.684565 0.482277
1.000000 0.680842 0.518791
1.000000 0.679164 0.553033
1.000000 0.679500 0.584741
1.000000 0.681758 0.613275
1.000000 0.685420 0.638880
1.000000 0.689876 0.661311
1.000000 0.695338 0.681300
1.000000 0.701778 0.699641
1.000000 0.709773 0.717372
1.000000 0.719875 0.735225
1.000000 0.731807 0.753048
1.000000 0.745907 0.771359
0.538628 0.626032 0.700069
0.538231 0.625666 0.699733
0.537346 0.624933 0.699123
0.536736 0.624414 0.698604
0.536492 0.624109 0.698390
0.537285 0.624872 0.699031
0.540551 0.627741 0.701534
0.548272 0.634455 0.707393
0.553368 0.638849 0.711177
0.539757 0.627008 0.700923
0.523919 0.613062 0.688594
0.504601 0.595697 0.672938
0.479194 0.572229 0.651179
0.454658 0.548791 0.628779
0.620111 0.612604 0.610742
0.791836 0.674220 0.584192
0.909575 0.710231 0.553918
0.990234 0.728450 0.522057
1.000000 0.734524 0.489693
1.000000 0.727810 0.511070
1.000000 0.721187 0.539818
1.000000 0.716518 0.568566
1.000000 0.713436 0.595392
1.000000 0.712581 0.620966
1.000000 0.713069 0.644312
1.000000 0.714870 0.665492
1.000000 0.718105 0.684901
1.000000 0.722774 0.703243
1.000000 0.729030 0.720943
1.000000 0.737545 0.739040
1.000000 0.747768 0.756741
1.000000 0.759945 0.774624
0.642542 0.713436 0.772305
0.641779 0.712795 0.771847
0.640436 0.711666 0.770962
0.640314 0.711635 0.770901
0.640620 0.711818 0.771084
0.642115 0.713069 0.772061
0.646021 0.716243 0.774563
0.653010 0.721920 0.778958
0.663233 0.730220 0.785428
0.654261 0.722896 0.779751
0.638666 0.710231 0.769802
0.620386 0.695277 0.757931
0.596704 0.675624 0.742000
0.566094 0.649805 0.720485
0.532555 0.620661 0.695338
0.650690 0.661128 0.676112
0.803159 0.712978 0.651637
0.907561 0.742916 0.625818
0.981567 0.758328 0.600092
1.000000 0.762783 0.573632
1.000000 0.759579 0.566491
1.000000 0.753231 0.590692
1.000000 0.748348 0.613642
1.000000 0.745357 0.636378
1.000000 0.743771 0.657527
1.000000 0.743435 0.676753
1.000000 0.744533 0.695033
1.000000 0.747005 0.711910
1.000000 0.751461 0.729030
1.000000 0.758022 0.746304
1.000000 0.766384 0.763333
1.000000 0.776822 0.780850
0.728054 0.782254 0.825162
0.727810 0.782071 0.825010
0.726345 0.780880 0.824125
0.724666 0.779538 0.823117
0.722744 0.778042 0.821958
0.721462 0.776974 0.821164
0.722438 0.777768 0.821744
0.725338 0.780117 0.823514
0.731411 0.784939 0.827207
0.736690 0.789212 0.830442
0.723842 0.778897 0.822629
0.709346 0.767269 0.813779
0.690944 0.752468 0.802548
0.666194 0.732601 0.787259
0.633234 0.705837 0.766354
0.595178 0.674372 0.740993
0.674830 0.698146 0.722835
0.810544 0.743526 0.701747
0.905455 0.770260 0.680751
0.973175 0.783719 0.659846
1.000000 0.788144 0.639887
1.000000 0.786862 0.620478
1.000000 0.781247 0.634852
1.000000 0.776516 0.654139
1.000000 0.773129 0.672450
1.000000 0.771328 0.690272
1.000000 0.770962 0.707179
1.000000 0.772519 0.724300
1.000000 0.775998 0.741207
1.000000 0.782040 0.758968
1.000000 0.790219 0.777035
1.000000 0.800320 0.795071
0.780270 0.824277 0.857328
0.780484 0.824460 0.857450
0.780240 0.824247 0.857298
0.779904 0.823941 0.857084
0.779385 0.823575 0.856779
0.779843 0.823911 0.857053
0.781582 0.825315 0.858152
0.784726 0.827848 0.860105
0.789425 0.831632 0.863035
0.795285 0.836301 0.866697
0.792386 0.834012 0.864897
0.779110 0.823362 0.856626
0.762814 0.810208 0.846494
0.741451 0.793027 0.833341
0.714290 0.771206 0.816770
0.679683 0.743465 0.795621
0.640833 0.712062 0.771237
0.690547 0.723842 0.755001
0.814908 0.765927 0.737423
0.902281 0.791135 0.720760
0.965606 0.804715 0.705287
1.000000 0.810025 0.690822
1.000000 0.809873 0.676905
1.000000 0.806241 0.674678
1.000000 0.802304 0.691737
1.000000 0.799771 0.708583
1.000000 0.798642 0.724636
1.000000 0.799100 0.740627
1.000000 0.801297 0.756435
1.000000 0.805325 0.772366
1.000000 0.811185 0.788418
1.000000 0.819028 0.804868
0.816648 0.853483 0.880156
0.816648 0.853483 0.880156
0.816587 0.853422 0.880125
0.816403 0.853300 0.880003
0.816495 0.853361 0.880064
0.817044 0.853819 0.880400
0.818204 0.854765 0.881132
0.820371 0.856504 0.882536
0.823423 0.858946 0.884459
0.827115 0.861906 0.886778
0.831754 0.865599 0.889738
0.823087 0.858701 0.884245
0.810513 0.848569 0.876280
0.794736 0.835904 0.866392
0.774838 0.819883 0.853941
0.749630 0.799649 0.838376
0.718715 0.774807 0.819486
0.683009 0.746120 0.797696
0.709316 0.749355 0.783993
0.821805 0.788235 0.769467
0.902098 0.811948 0.756405
0.960571 0.825040 0.744747
1.000000 0.830564 0.734005
1.000000 0.831266 0.723842
1.000000 0.828824 0.714290
1.000000 0.825742 0.726162
1.000000 0.824033 0.741604
1.000000 0.823850 0.756893
1.000000 0.825223 0.772091
1.000000 0.828305 0.787289
1.000000 0.833097 0.802609
1.000000 0.839658 0.818204
0.848325 0.878904 0.900359
0.848753 0.879271 0.900633
0.875608 0.900755 0.917937
0.875578 0.900755 0.917906
0.875608 0.900755 0.917937
0.875669 0.900786 0.917967
0.875914 0.900999 0.918120
0.876677 0.901610 0.918608
0.878019 0.902678 0.919493
0.879942 0.904204 0.920745
0.882200 0.906035 0.922210
0.881895 0.905791 0.921996
0.873045 0.898711 0.916289
0.861723 0.889647 0.908965
0.847471 0.878233 0.899809
0.829587 0.863859 0.888365
0.807004 0.845762 0.874083
0.779751 0.823850 0.856992
0.747616 0.798001 0.837156
0.752163 0.792447 0.824521
0.844694 0.824033 0.812192
0.911925 0.843107 0.801602
0.961273 0.853300 0.792325
0.998383 0.857389 0.783688
1.000000 0.857206 0.774746
1.000000 0.854429 0.766140
1.000000 0.850584 0.764584
1.000000 0.848447 0.776120
1.000000 0.848234 0.788724
1.000000 0.849973 0.802426
1.000000 0.853513 0.816526
1.000000 0.858671 0.830991
0.879301 0.903716 0.920348
0.881315 0.905333 0.921630
0.883482 0.907073 0.923064
0.885435 0.908629 0.924285
0.886870 0.909758 0.925231
0.887541 0.910277 0.925658
0.887907 0.910582 0.925902
0.888273 0.910857 0.926146
0.889128 0.911559 0.926726
0.890349 0.912566 0.927520
0.891997 0.913817 0.928557
0.893797 0.915312 0.929747
0.889769 0.912078 0.927123
0.881193 0.905211 0.921569
0.870542 0.896696 0.914641
0.857267 0.886046 0.906065
0.841093 0.873136 0.895720
0.821683 0.857542 0.883360
0.798611 0.839017 0.868803
0.771756 0.817380 0.852018
0.764981 0.808316 0.841642
0.850401 0.838865 0.832242
0.912505 0.857389 0.823972
0.958068 0.867430 0.816556
0.992340 0.871641 0.809323
1.000000 0.872190 0.802213
1.000000 0.870451 0.795712
1.000000 0.867460 0.790219
1.000000 0.866239 0.799588
1.000000 0.867063 0.812375
1.000000 0.869749 0.826108
1.000000 0.873960 0.840085
0.892546 0.914275 0.928923
0.894377 0.915740 0.930144
0.896330 0.917296 0.931395
0.898100 0.918730 0.932586
0.899474 0.919799 0.933440
0.900084 0.920317 0.933867
0.900420 0.920562 0.934081
0.900694 0.920775 0.934264
0.901213 0.921233 0.934600
0.902037 0.921874 0.935119
0.903136 0.922759 0.935851
0.904479 0.923796 0.936736
0.905669 0.924773 0.937530
0.899229 0.919615 0.933288
0.891234 0.913268 0.928099
0.881559 0.905516 0.921782
0.869749 0.896086 0.914153
0.855619 0.884764 0.905028
0.838865 0.871336 0.894285
0.819394 0.855711 0.881895
0.796689 0.837491 0.867613
0.782437 0.826017 0.858671
0.858122 0.853727 0.851133
0.914458 0.871153 0.844572
0.955962 0.880644 0.838407
0.987640 0.885100 0.832578
1.000000 0.886320 0.827146
1.000000 0.885710 0.822690
1.000000 0.884337 0.819821
1.000000 0.883543 0.823331
1.000000 0.885405 0.836301
1.000000 0.888640 0.849516
0.904936 0.924193 0.937041
0.906432 0.925383 0.938018
0.907927 0.926574 0.938994
0.909270 0.927672 0.939879
0.910369 0.928527 0.940581
0.910887 0.928954 0.940917
0.911162 0.929198 0.941131
0.911406 0.929351 0.941253
0.911833 0.929717 0.941558
0.912444 0.930175 0.941955
0.913329 0.930877 0.942535
0.914336 0.931701 0.943206
0.915404 0.932525 0.943908
0.914000 0.931426 0.942992
0.908202 0.926787 0.939178
0.901152 0.921141 0.934569
0.893065 0.914702 0.929290
0.883726 0.907256 0.923217
0.873136 0.898802 0.916350
0.861112 0.889128 0.908537
0.847440 0.878172 0.899748
0.831662 0.865568 0.889708
0.821927 0.857725 0.883482
0.877989 0.878935 0.879057
0.925078 0.894438 0.875486
0.959808 0.903380 0.872221
0.986267 0.908080 0.869322
1.000000 0.910430 0.867369
1.000000 0.911528 0.866636
1.000000 0.912169 0.867338
1.000000 0.912688 0.869413
1.000000 0.915373 0.879942
0.923857 0.939269 0.949462
0.924346 0.939666 0.949798
0.924712 0.940002 0.950042
0.924987 0.940185 0.950195
0.925109 0.940307 0.950286
0.925078 0.940276 0.950256
0.925048 0.940246 0.950225
0.925109 0.940307 0.950286
0.925383 0.940520 0.950469
0.925933 0.940948 0.950835
0.926696 0.941558 0.951324
0.927520 0.942199 0.951873
0.928374 0.942901 0.952453
0.929290 0.943633 0.953033
0.926146 0.941131 0.950988
0.921019 0.937041 0.947601
0.915068 0.932250 0.943664
0.908232 0.926818 0.939208
0.900359 0.920531 0.934051
0.891417 0.913390 0.928222
0.881193 0.905241 0.921569
0.869474 0.895842 0.913970
0.855894 0.884947 0.905180
0.846220 0.877226 0.898985
0.887572 0.892485 0.894926
0.929259 0.906462 0.891997
0.960449 0.915068 0.889860
0.984283 0.920317 0.888640
1.000000 0.923522 0.888426
1.000000 0.925597 0.889250
1.000000 0.927092 0.891142
1.000000 0.928496 0.894133
0.932616 0.946288 0.955230
0.932982 0.946563 0.955474
0.933318 0.946838 0.955688
0.933562 0.947021 0.955871
0.933715 0.947143 0.955962
0.933715 0.947173 0.955993
0.933745 0.947173 0.955962
0.933867 0.947265 0.956054
0.934112 0.947478 0.956237
0.934569 0.947845 0.956542
0.935210 0.948363 0.956939
0.935943 0.948943 0.957427
0.936736 0.949554 0.957946
0.937621 0.950286 0.958556
0.937957 0.950530 0.958770
0.934295 0.947631 0.956359
0.930083 0.944274 0.953582
0.925322 0.940459 0.950408
0.919829 0.936095 0.946807
0.913695 0.931151 0.942779
0.906737 0.925658 0.938231
0.898924 0.919402 0.933104
0.890135 0.912352 0.927367
0.879942 0.904234 0.920745
0.863798 0.891325 0.910307
0.894865 0.902617 0.906859
0.932769 0.915984 0.904936
0.961395 0.924651 0.903929
0.982971 0.930297 0.903960
0.999481 0.934142 0.904936
1.000000 0.937011 0.907103
1.000000 0.939361 0.910124
0.944121 0.955444 0.962829
0.944640 0.955871 0.963195
0.944884 0.956085 0.963348
0.944854 0.956023 0.963317
0.944579 0.955810 0.963134
0.944213 0.955505 0.962890
0.943725 0.955138 0.962585
0.943297 0.954803 0.962310
0.943023 0.954559 0.962097
0.942901 0.954467 0.962036
0.942870 0.954467 0.962005
0.943084 0.954650 0.962158
0.943420 0.954894 0.962371
0.943755 0.955169 0.962585
0.944060 0.955413 0.962799
0.942535 0.954192 0.961791
0.938811 0.951232 0.959350
0.934813 0.948058 0.956695
0.930632 0.944671 0.953918
0.926116 0.941070 0.950958
0.921233 0.937194 0.947723
0.915648 0.932769 0.944060
0.909026 0.927459 0.939727
0.901213 0.921233 0.934600
0.891722 0.913664 0.928435
0.883909 0.907378 0.923308
0.905547 0.914946 0.920256
0.938598 0.926757 0.918639
0.963714 0.934691 0.918059
0.982971 0.940246 0.918669
0.997498 0.944274 0.920378
1.000000 0.947478 0.923064
0.949157 0.959472 0.966155
0.949615 0.959838 0.966461
0.949920 0.960082 0.966705
0.950042 0.960174 0.966766
0.950042 0.960174 0.966766
0.949981 0.960143 0.966735
0.949981 0.960143 0.966735
0.950042 0.960174 0.966766
0.950195 0.960296 0.966857
0.950500 0.960540 0.967071
0.950805 0.960784 0.967285
0.951202 0.961120 0.967559
0.951598 0.961425 0.967803
0.951995 0.961730 0.968048
0.952361 0.962005 0.968292
0.952728 0.962310 0.968536
0.950317 0.960388 0.966949
0.947356 0.958038 0.964965
0.944274 0.955596 0.962951
0.941100 0.953033 0.960845
0.937713 0.950347 0.958618
0.934081 0.947448 0.956207
0.929900 0.944121 0.953429
0.925078 0.940276 0.950286
0.919463 0.935790 0.946563
0.912902 0.930541 0.942260
0.907439 0.926177 0.938659
0.921843 0.931334 0.936797
0.949157 0.941802 0.936431
0.969787 0.949035 0.937011
0.985321 0.954192 0.938445
0.996735 0.958007 0.940642
0.956390 0.965240 0.970977
0.956603 0.965423 0.971130
0.956725 0.965515 0.971191
0.956756 0.965515 0.971221
0.956725 0.965484 0.971191
0.956634 0.965454 0.971130
0.956603 0.965393 0.971099
0.956573 0.965393 0.971099
0.956695 0.965454 0.971160
0.956878 0.965637 0.971283
0.957153 0.965820 0.971466
0.957519 0.966125 0.971710
0.957916 0.966430 0.971954
0.958251 0.966735 0.972229
0.958587 0.967010 0.972442
0.958923 0.967254 0.972656
0.958679 0.967041 0.972503
0.956481 0.965301 0.971038
0.954223 0.963500 0.969543
0.951965 0.961730 0.968048
0.949706 0.959899 0.966522
0.947173 0.957916 0.964874
0.944335 0.955627 0.962982
0.941039 0.953033 0.960815
0.937285 0.950011 0.958343
0.932891 0.946502 0.955413
0.928038 0.942626 0.952209
0.923674 0.939147 0.949340
0.933074 0.942473 0.947967
0.956573 0.951965 0.948333
0.974121 0.958679 0.949523
0.987121 0.963531 0.951415
0.961852 0.969574 0.974609
0.962005 0.969726 0.974701
0.962158 0.969818 0.974792
0.962280 0.969909 0.974884
0.962402 0.970031 0.974975
0.962676 0.970214 0.975128
0.963134 0.970642 0.975463
0.963806 0.971130 0.975891
0.964630 0.971801 0.976440
0.965606 0.972564 0.977081
0.966644 0.973419 0.977783
0.967681 0.974212 0.978454
0.968688 0.975036 0.979156
0.969574 0.975738 0.979736
0.970336 0.976379 0.980255
0.970916 0.976806 0.980621
0.971496 0.977264 0.980987
0.970947 0.976867 0.980652
0.969879 0.975982 0.979919
0.968811 0.975128 0.979217
0.967773 0.974304 0.978515
0.966674 0.973419 0.977813
0.965423 0.972412 0.976959
0.963958 0.971283 0.976013
0.962310 0.969940 0.974884
0.960388 0.968414 0.973632
0.958312 0.966766 0.972259
0.956115 0.964996 0.970794
0.953796 0.963165 0.969238
0.958007 0.964569 0.968475
0.972961 0.970916 0.969146
0.983917 0.975402 0.970245
0.971893 0.977569 0.981262
0.971893 0.977569 0.981262
0.971862 0.977569 0.981262
0.971832 0.977539 0.981231
0.971832 0.977539 0.981231
0.971832 0.977539 0.981231
0.971893 0.977600 0.981292
0.972076 0.977722 0.981384
0.972290 0.977935 0.981537
0.972656 0.978210 0.981781
0.973083 0.978546 0.982055
0.973571 0.978943 0.982391
0.974090 0.979339 0.982727
0.974609 0.979767 0.983093
