20 Preset/City Style/【3】LUT video cho PR-AE-FCPX/TONE 3/Dubai I Bokeh.cube
# Created by Adobe Lightroom plugin Export LUT (1.24.0)
# www.johnrellis.com/lightroom/exportlut.htm
# Preset: Dubai I Bokeh
# Color profile: E:\lut插件\exportlut.1.24\exportlut.lrplugin\color profiles\Rec709gamma2.4.icc
LUT_3D_SIZE 8
DOMAIN_MIN 0.000000 0.000000 0.000000
DOMAIN_MAX 0.903226 0.903226 0.903226
0.094087 0.101015 0.109285
0.088808 0.100832 0.109071
0.201724 0.093629 0.103822
0.544427 0.000000 0.074617
1.000000 0.000000 0.000000
1.000000 0.000000 0.000000
1.000000 0.000000 0.000000
1.000000 0.000000 0.130343
0.091524 0.100710 0.105379
0.098024 0.102144 0.106416
0.184482 0.122316 0.098939
0.467140 0.011963 0.067140
0.977295 0.000000 0.000000
1.000000 0.000000 0.000000
1.000000 0.000000 0.000000
1.000000 0.104891 0.015869
0.114260 0.226993 0.153964
0.169314 0.232273 0.176394
0.287480 0.274357 0.236027
0.683680 0.235233 0.046387
0.985595 0.366308 0.000000
1.000000 0.422126 0.000000
1.000000 0.511650 0.000000
1.000000 0.573816 0.235477
0.000000 0.636591 0.292607
0.218387 0.659968 0.355261
0.620386 0.720882 0.549645
0.897765 0.867887 0.801175
1.000000 0.848203 0.521416
1.000000 0.820829 0.384741
1.000000 0.857847 0.368475
1.000000 0.843076 0.452583
0.565881 0.925628 0.607294
0.652125 0.926848 0.652705
0.842191 0.933654 0.784787
0.949248 0.951934 0.918486
0.979339 0.971862 0.967163
1.000000 0.966827 0.885954
1.000000 0.929473 0.763607
1.000000 0.939452 0.734401
0.894377 0.981598 0.875303
0.919493 0.983093 0.902129
0.950683 0.982574 0.936309
0.973816 0.983703 0.977539
0.984100 0.986694 1.000000
0.990967 0.990784 1.000000
0.997284 0.990600 1.000000
1.000000 0.979034 0.956542
0.973083 0.992950 0.996948
0.974304 0.992981 1.000000
0.979004 0.992767 1.000000
0.985809 0.992828 1.000000
0.990845 0.993133 1.000000
0.993835 0.994141 1.000000
0.995911 0.995483 1.000000
0.998444 0.995300 1.000000
0.992187 0.996918 1.000000
0.992370 0.996918 1.000000
0.993225 0.996918 1.000000
0.994629 0.996979 1.000000
0.995087 0.996490 1.000000
0.996460 0.996796 1.000000
0.997192 0.997192 1.000000
0.998199 0.997742 1.000000
0.084474 0.102358 0.123262
0.076875 0.101778 0.129488
0.158785 0.084871 0.140810
0.433845 0.000000 0.178347
1.000000 0.000000 0.144015
1.000000 0.000000 0.122713
1.000000 0.000000 0.156680
1.000000 0.000000 0.212192
0.050324 0.110903 0.132692
0.071901 0.114443 0.142824
0.182223 0.112367 0.159701
0.510307 0.000000 0.160830
1.000000 0.000000 0.128634
1.000000 0.000000 0.121126
1.000000 0.000000 0.142184
1.000000 0.000000 0.188632
0.000000 0.223148 0.180697
0.000000 0.241855 0.184939
0.283452 0.317388 0.297246
0.630365 0.318364 0.221683
0.998474 0.321630 0.152651
1.000000 0.313970 0.131319
1.000000 0.400336 0.187564
1.000000 0.503593 0.276860
0.000000 0.529229 0.215030
0.000000 0.556420 0.229557
0.427497 0.682948 0.471534
0.791196 0.788968 0.787991
1.000000 0.787198 0.521050
1.000000 0.769863 0.385595
1.000000 0.803799 0.354376
1.000000 0.801114 0.420874
0.000000 0.908202 0.484169
0.272984 0.909606 0.527672
0.738521 0.922515 0.721004
0.923125 0.938109 0.880888
0.967590 0.961120 0.957275
1.000000 0.960327 0.876890
1.000000 0.923735 0.760403
1.000000 0.933898 0.721065
0.814328 0.979797 0.814389
0.842435 0.979126 0.834836
0.918425 0.978180 0.900053
0.964996 0.980102 0.957061
0.980224 0.984436 1.000000
0.989746 0.989929 1.000000
0.996612 0.990143 1.000000
1.000000 0.977874 0.954620
0.965026 0.992187 0.976654
0.966552 0.991882 0.978973
0.972625 0.991424 0.991424
0.981140 0.991547 1.000000
0.989166 0.992309 1.000000
0.993072 0.993530 1.000000
0.995270 0.994934 1.000000
0.998108 0.994690 1.000000
0.990753 0.996582 1.000000
0.991211 0.996643 1.000000
0.992187 0.996643 1.000000
0.993896 0.996735 1.000000
0.995514 0.996826 1.000000
0.996582 0.996948 1.000000
0.997162 0.997192 1.000000
0.998138 0.997742 1.000000
0.000000 0.141451 0.301366
0.000000 0.142336 0.315740
0.000000 0.142794 0.369604
0.065705 0.084260 0.428290
0.661189 0.000000 0.485847
1.000000 0.000000 0.559747
1.000000 0.000000 0.608637
1.000000 0.412146 0.662409
0.000000 0.161929 0.347692
0.000000 0.163180 0.359503
0.000000 0.167086 0.408972
0.000000 0.131350 0.472572
0.697749 0.000000 0.513207
1.000000 0.000000 0.569726
1.000000 0.000000 0.599298
1.000000 0.448768 0.655756
0.000000 0.254520 0.400855
0.000000 0.267765 0.425849
0.000000 0.333227 0.532860
0.198184 0.460853 0.693996
0.933715 0.344213 0.665370
1.000000 0.390234 0.697444
1.000000 0.600916 0.720974
1.000000 0.729397 0.745663
0.000000 0.505058 0.488136
0.000000 0.534752 0.513756
0.000000 0.637537 0.589990
0.491310 0.854551 0.760586
0.977966 0.929107 0.909392
1.000000 0.914458 0.859617
1.000000 0.903990 0.842893
1.000000 0.903441 0.837949
0.000000 0.828397 0.510948
0.000000 0.844877 0.522118
0.000000 0.905699 0.590814
0.736873 0.953368 0.806180
0.970703 0.972625 0.980774
0.993774 0.979522 0.979004
1.000000 0.966888 0.933471
1.000000 0.967163 0.903960
0.000000 0.995056 0.695155
0.327672 0.994629 0.716945
0.666407 0.989410 0.791714
0.916808 0.982025 0.920623
0.976135 0.985321 0.999573
0.989990 0.990631 1.000000
0.995514 0.992370 1.000000
1.000000 0.986908 1.000000
0.933074 0.995666 0.949401
0.937682 0.995056 0.953002
0.956054 0.993256 0.972229
0.975891 0.992309 1.000000
0.987945 0.992828 1.000000
0.993408 0.994110 1.000000
0.995636 0.995575 1.000000
0.997986 0.995880 1.000000
0.989014 0.996857 1.000000
0.989380 0.996796 1.000000
0.991180 0.996765 1.000000
0.993530 0.996918 1.000000
0.995361 0.997040 1.000000
0.996735 0.997223 1.000000
0.997467 0.997498 1.000000
0.998260 0.997955 1.000000
0.000000 0.207462 0.614038
0.000000 0.211460 0.637659
0.000000 0.214878 0.680873
0.000000 0.217746 0.757351
0.000000 0.148653 0.837827
0.797818 0.000000 0.869963
1.000000 0.000000 0.837156
1.000000 0.000000 0.816556
0.000000 0.234531 0.677058
0.000000 0.236210 0.688045
0.000000 0.239292 0.722621
0.000000 0.243961 0.792752
0.000000 0.215640 0.871611
0.822904 0.000000 0.889128
1.000000 0.000000 0.844541
1.000000 0.000000 0.827512
0.000000 0.309361 0.738888
0.000000 0.321324 0.756649
0.000000 0.373327 0.816770
0.000000 0.394354 0.868070
0.000000 0.444770 0.933562
0.935851 0.383948 0.957824
1.000000 0.350256 0.909758
1.000000 0.674556 0.905547
0.000000 0.527214 0.802792
0.000000 0.535973 0.811185
0.000000 0.590753 0.855497
0.000000 0.730617 0.923796
0.799008 0.883299 0.968902
0.955688 0.899229 0.986847
1.000000 0.882506 0.956542
1.000000 0.943786 0.976654
0.000000 0.804929 0.815824
0.000000 0.814237 0.822599
0.000000 0.863767 0.859312
0.000000 0.936126 0.919280
0.882994 0.970489 0.980591
0.986267 0.988739 1.000000
0.994812 0.987945 1.000000
1.000000 0.985901 1.000000
0.000000 0.968322 0.804593
0.000000 0.983032 0.822690
0.000000 0.996246 0.838712
0.221042 1.000000 0.888670
0.913054 0.988037 0.965881
0.989166 0.992096 1.000000
0.995300 0.994812 1.000000
0.998718 0.993256 1.000000
0.731319 1.000000 0.911528
0.762997 1.000000 0.917723
0.850370 1.000000 0.938506
0.935485 0.996246 0.975372
0.979034 0.994018 1.000000
0.993164 0.995056 1.000000
0.996185 0.996246 1.000000
0.997864 0.996918 1.000000
0.980987 0.997864 1.000000
0.982025 0.997803 1.000000
0.985931 0.997528 1.000000
0.991150 0.997345 1.000000
0.994873 0.997436 1.000000
0.996735 0.997589 1.000000
0.997803 0.997864 1.000000
0.998413 0.998291 1.000000
0.000000 0.320256 0.932799
0.000000 0.323583 0.940307
0.000000 0.326452 0.953887
0.000000 0.331670 0.979339
0.000000 0.327367 1.000000
0.000000 0.314763 1.000000
0.644709 0.000000 1.000000
1.000000 0.000000 1.000000
0.000000 0.344457 0.951293
0.000000 0.349767 0.960266
0.000000 0.353246 0.972290
0.000000 0.351904 0.986206
0.000000 0.347387 1.000000
0.000000 0.340764 1.000000
0.658686 0.000000 1.000000
1.000000 0.000000 1.000000
0.000000 0.441077 0.980591
0.000000 0.442969 0.982757
0.000000 0.441505 0.985718
0.000000 0.441199 0.993011
0.000000 0.445197 1.000000
0.000000 0.459022 1.000000
0.718441 0.342382 1.000000
1.000000 0.267308 1.000000
0.000000 0.541222 0.981384
0.000000 0.549981 0.982696
0.000000 0.597040 0.990448
0.000000 0.703029 1.000000
0.121248 0.765499 1.000000
0.540734 0.808896 1.000000
0.880613 0.813870 1.000000
1.000000 0.798062 1.000000
0.000000 0.774594 0.970916
0.000000 0.782345 0.973205
0.000000 0.810025 0.980194
0.000000 0.865263 0.991730
0.771572 0.925200 1.000000
0.951080 0.970489 1.000000
0.973144 0.975616 1.000000
1.000000 0.968109 1.000000
0.000000 0.937499 0.946166
0.000000 0.941222 0.948394
0.000000 0.949340 0.953246
0.000000 0.966033 0.967529
0.739223 0.975738 0.993194
0.960754 0.986847 1.000000
0.993378 0.994659 1.000000
0.997253 0.995270 1.000000
0.000000 1.000000 0.951720
0.000000 1.000000 0.949187
0.000000 1.000000 0.945190
0.000000 1.000000 0.956146
0.844053 1.000000 0.986084
0.975647 0.994202 1.000000
0.995270 0.996155 1.000000
0.997589 0.997253 1.000000
0.918669 1.000000 0.994141
0.923613 1.000000 0.995972
0.942687 1.000000 1.000000
0.972381 0.998444 1.000000
0.987304 0.997589 1.000000
0.995239 0.997620 1.000000
0.997589 0.997986 1.000000
0.998383 0.998383 1.000000
0.000000 0.456703 1.000000
0.000000 0.459297 1.000000
0.000000 0.455207 1.000000
0.000000 0.452857 1.000000
0.000000 0.445533 1.000000
0.000000 0.438514 1.000000
0.000000 0.447211 1.000000
0.583642 0.273045 1.000000
0.000000 0.453956 1.000000
0.000000 0.453346 1.000000
0.000000 0.450904 1.000000
0.000000 0.448615 1.000000
0.000000 0.445533 1.000000
0.000000 0.444007 1.000000
0.000000 0.455421 1.000000
0.572992 0.292912 1.000000
0.000000 0.546410 1.000000
0.000000 0.544793 1.000000
0.000000 0.543664 1.000000
0.000000 0.531792 1.000000
0.000000 0.535821 1.000000
0.000000 0.550347 1.000000
0.000000 0.584375 1.000000
0.700557 0.498939 1.000000
0.000000 0.708583 1.000000
0.000000 0.712520 1.000000
0.000000 0.746670 1.000000
0.000000 0.786893 1.000000
0.000000 0.807279 1.000000
0.403082 0.828275 1.000000
0.638392 0.857694 1.000000
0.894835 0.842679 1.000000
0.000000 0.804593 1.000000
0.000000 0.809049 1.000000
0.000000 0.830716 1.000000
0.453681 0.879301 1.000000
0.781247 0.928313 1.000000
0.882780 0.949981 1.000000
0.917540 0.957031 1.000000
0.966491 0.955596 1.000000
0.000000 0.936706 1.000000
0.000000 0.941253 1.000000
0.000000 0.945739 1.000000
0.530358 0.953124 1.000000
0.816922 0.963348 1.000000
0.954345 0.980072 1.000000
0.988373 0.991241 1.000000
0.993683 0.992462 1.000000
0.000000 1.000000 1.000000
0.000000 1.000000 1.000000
0.388708 1.000000 1.000000
0.665095 1.000000 1.000000
0.855131 0.995575 1.000000
0.959594 0.993194 1.000000
0.990265 0.995300 1.000000
0.997833 0.997894 1.000000
0.000000 1.000000 1.000000
0.000000 1.000000 1.000000
0.000000 1.000000 1.000000
0.677119 1.000000 1.000000
0.923583 1.000000 1.000000
0.983154 0.997925 1.000000
0.995422 0.998016 1.000000
0.998505 0.998566 1.000000
0.000000 0.519036 1.000000
0.000000 0.520989 1.000000
0.000000 0.520562 1.000000
0.000000 0.522271 1.000000
0.000000 0.522393 1.000000
0.000000 0.524102 1.000000
0.000000 0.530724 1.000000
0.000000 0.557916 1.000000
0.000000 0.525048 1.000000
0.000000 0.527703 1.000000
0.000000 0.527367 1.000000
0.000000 0.526787 1.000000
0.000000 0.525902 1.000000
0.000000 0.524651 1.000000
0.000000 0.526635 1.000000
0.000000 0.544976 1.000000
0.000000 0.601801 1.000000
0.000000 0.602106 1.000000
0.000000 0.600763 1.000000
0.000000 0.601740 1.000000
0.000000 0.602716 1.000000
0.000000 0.610529 1.000000
0.000000 0.633936 1.000000
0.000000 0.677607 1.000000
0.000000 0.783536 1.000000
0.000000 0.779629 1.000000
0.000000 0.777066 1.000000
0.000000 0.783993 1.000000
0.000000 0.790249 1.000000
0.000000 0.808682 1.000000
0.420569 0.836881 1.000000
0.632990 0.861540 1.000000
0.170260 0.875944 1.000000
0.200320 0.876066 1.000000
0.402441 0.887358 1.000000
0.631067 0.911986 1.000000
0.754543 0.928771 1.000000
0.799649 0.933623 1.000000
0.853086 0.941985 1.000000
0.908080 0.954528 1.000000
0.561486 0.938048 1.000000
0.589593 0.939452 1.000000
0.680354 0.944121 1.000000
0.800290 0.953033 1.000000
0.896757 0.965972 1.000000
0.958404 0.980804 1.000000
0.976226 0.986297 1.000000
0.981903 0.987854 1.000000
0.724361 0.984527 1.000000
0.742245 0.984558 1.000000
0.789639 0.984314 1.000000
0.861265 0.984649 1.000000
0.926421 0.986328 1.000000
0.969482 0.989685 1.000000
0.989380 0.993591 1.000000
0.995697 0.996399 1.000000
0.796567 1.000000 1.000000
0.806088 1.000000 1.000000
0.847044 1.000000 1.000000
0.892943 1.000000 1.000000
0.936736 0.998993 1.000000
0.970184 0.997742 1.000000
0.989593 0.997833 1.000000
0.996704 0.998444 1.000000
0.000000 0.598627 1.000000
0.000000 0.600519 1.000000
0.000000 0.599329 1.000000
0.000000 0.604120 1.000000
0.000000 0.610407 1.000000
0.000000 0.618982 1.000000
0.000000 0.638300 1.000000
0.000000 0.664729 1.000000
0.000000 0.607599 1.000000
0.000000 0.609613 1.000000
0.000000 0.610010 1.000000
0.000000 0.613519 1.000000
0.000000 0.619562 1.000000
0.000000 0.628229 1.000000
0.000000 0.644526 1.000000
0.000000 0.669276 1.000000
0.000000 0.674830 1.000000
0.000000 0.675715 1.000000
0.000000 0.675013 1.000000
0.000000 0.687343 1.000000
0.000000 0.692439 1.000000
0.000000 0.700099 1.000000
0.000000 0.721675 1.000000
0.000000 0.752071 1.000000
0.000000 0.809903 1.000000
0.000000 0.812039 1.000000
0.000000 0.813046 1.000000
0.000000 0.820859 1.000000
0.000000 0.830167 1.000000
0.000000 0.841978 1.000000
0.451209 0.862547 1.000000
0.645472 0.885863 1.000000
0.718715 0.933104 1.000000
0.733944 0.935332 1.000000
0.719295 0.932097 1.000000
0.732509 0.932586 1.000000
0.763241 0.935454 1.000000
0.804990 0.940490 1.000000
0.859678 0.949859 1.000000
0.899443 0.957336 1.000000
0.867430 0.964080 1.000000
0.869474 0.964324 1.000000
0.882231 0.966308 1.000000
0.910033 0.971313 1.000000
0.943877 0.978576 1.000000
0.963134 0.983398 1.000000
0.970672 0.985199 1.000000
0.976349 0.986481 1.000000
0.919677 0.982452 1.000000
0.921874 0.982574 1.000000
0.931151 0.983246 1.000000
0.948425 0.984985 1.000000
0.967285 0.987579 1.000000
0.981750 0.990814 1.000000
0.990814 0.994202 1.000000
0.993011 0.995056 1.000000
0.935454 0.993652 1.000000
0.936828 0.993652 1.000000
0.944640 0.993683 1.000000
0.959167 0.993927 1.000000
0.973693 0.994537 1.000000
0.984955 0.995544 1.000000
0.992767 0.996826 1.000000
0.997284 0.998169 1.000000
