20 Preset/Retro Portrait/【1】LRtemplate Lightroom bản cũ/Reto Style TONE (4).lrtemplate
s = {
	id = "487A9938-70C5-4159-8A01-CA967B2CC397",
	internalName = "法式胶片-素材江湖04",
	title = "法式胶片-素材江湖04",
	type = "Develop",
	value = {
		settings = {
			AutoLateralCA = 0,
			Blacks2012 = -42,
			BlueHue = -12,
			BlueSaturation = 64,
			CameraProfile = "Adobe Standard",
			ChromaticAberrationB = 0,
			ChromaticAberrationR = 0,
			Clarity2012 = -10,
			ColorNoiseReduction = 25,
			ColorNoiseReductionDetail = 50,
			ColorNoiseReductionSmoothness = 50,
			Contrast2012 = 55,
			ConvertToGrayscale = false,
			CropConstrainToWarp = 0,
			Defringe = 0,
			DefringeGreenAmount = 0,
			DefringeGreenHueHi = 60,
			DefringeGreenHueLo = 40,
			DefringePurpleAmount = 0,
			DefringePurpleHueHi = 70,
			DefringePurpleHueLo = 30,
			Dehaze = 0,
			EnableCalibration = true,
			EnableColorAdjustments = true,
			EnableDetail = true,
			EnableEffects = true,
			EnableLensCorrections = true,
			EnableSplitToning = true,
			Exposure2012 = 0,
			GrainAmount = 3,
			GrainFrequency = 85,
			GrainSize = 20,
			GreenHue = 67,
			GreenSaturation = -36,
			Highlights2012 = -58,
			HueAdjustmentAqua = 0,
			HueAdjustmentBlue = 0,
			HueAdjustmentGreen = -76,
			HueAdjustmentMagenta = 0,
			HueAdjustmentOrange = 0,
			HueAdjustmentPurple = 0,
			HueAdjustmentRed = 10,
			HueAdjustmentYellow = -36,
			LensManualDistortionAmount = 0,
			LuminanceAdjustmentAqua = 0,
			LuminanceAdjustmentBlue = 0,
			LuminanceAdjustmentGreen = 0,
			LuminanceAdjustmentMagenta = 0,
			LuminanceAdjustmentOrange = 18,
			LuminanceAdjustmentPurple = 0,
			LuminanceAdjustmentRed = 17,
			LuminanceAdjustmentYellow = 0,
			LuminanceNoiseReductionContrast = 0,
			LuminanceNoiseReductionDetail = 50,
			LuminanceSmoothing = 0,
			ParametricDarks = 20,
			ParametricHighlightSplit = 75,
			ParametricHighlights = -21,
			ParametricLights = -18,
			ParametricMidtoneSplit = 50,
			ParametricShadowSplit = 25,
			ParametricShadows = -22,
			PostCropVignetteAmount = 0,
			PostCropVignetteFeather = 50,
			PostCropVignetteHighlightContrast = 0,
			PostCropVignetteMidpoint = 50,
			PostCropVignetteRoundness = 0,
			PostCropVignetteStyle = 1,
			ProcessVersion = "6.7",
			RedHue = 21,
			RedSaturation = -14,
			Saturation = -24,
			SaturationAdjustmentAqua = 0,
			SaturationAdjustmentBlue = 0,
			SaturationAdjustmentGreen = -73,
			SaturationAdjustmentMagenta = 0,
			SaturationAdjustmentOrange = 31,
			SaturationAdjustmentPurple = 0,
			SaturationAdjustmentRed = -7,
			SaturationAdjustmentYellow = -42,
			ShadowTint = 0,
			Shadows2012 = 36,
			SharpenDetail = 25,
			SharpenEdgeMasking = 0,
			SharpenRadius = 1,
			Sharpness = 0,
			SplitToningBalance = 0,
			SplitToningHighlightHue = 193,
			SplitToningHighlightSaturation = 5,
			SplitToningShadowHue = 223,
			SplitToningShadowSaturation = 24,
			ToneCurveName2012 = "Custom",
			ToneCurvePV2012 = {
				0,
				20,
				42,
				39,
				124,
				125,
				174,
				168,
				255,
				219,
			},
			ToneCurvePV2012Blue = {
				0,
				0,
				38,
				29,
				255,
				255,
			},
			ToneCurvePV2012Green = {
				0,
				0,
				35,
				34,
				126,
				129,
				248,
				242,
			},
			ToneCurvePV2012Red = {
				0,
				0,
				78,
				80,
				232,
				243,
			},
			Vibrance = -31,
			VignetteAmount = 0,
			VignetteMidpoint = 50,
			WhiteBalance = "As Shot",
			Whites2012 = -60,
		},
		uuid = "30763DD3-F5F7-4345-90ED-34C9F2763C34",
	},
	version = 0,
}
