20 Preset/Retro Portrait/【1】LRtemplate Lightroom bản cũ/Reto Style TONE (2).lrtemplate
s = {
	id = "A68C8561-0526-45D9-9518-46A15D750DA2",
	internalName = "法式胶片-素材江湖02",
	title = "法式胶片-素材江湖02",
	type = "Develop",
	value = {
		settings = {
			AutoLateralCA = 0,
			Blacks2012 = -42,
			BlueHue = -11,
			BlueSaturation = 64,
			CameraProfile = "Adobe Standard",
			ChromaticAberrationB = 0,
			ChromaticAberrationR = 0,
			Clarity2012 = -10,
			ColorNoiseReduction = 25,
			ColorNoiseReductionDetail = 50,
			ColorNoiseReductionSmoothness = 50,
			Contrast2012 = -25,
			ConvertToGrayscale = false,
			CropConstrainToWarp = 0,
			Defringe = 0,
			DefringeGreenAmount = 0,
			DefringeGreenHueHi = 60,
			DefringeGreenHueLo = 40,
			DefringePurpleAmount = 0,
			DefringePurpleHueHi = 70,
			DefringePurpleHueLo = 30,
			Dehaze = 0,
			EnableCalibration = true,
			EnableColorAdjustments = true,
			EnableDetail = true,
			EnableEffects = true,
			EnableLensCorrections = true,
			EnableSplitToning = true,
			Exposure2012 = 0,
			GrainAmount = 2,
			GrainFrequency = 85,
			GrainSize = 20,
			GreenHue = 67,
			GreenSaturation = -36,
			Highlights2012 = -58,
			HueAdjustmentAqua = 0,
			HueAdjustmentBlue = 0,
			HueAdjustmentGreen = -76,
			HueAdjustmentMagenta = 0,
			HueAdjustmentOrange = -25,
			HueAdjustmentPurple = 0,
			HueAdjustmentRed = 10,
			HueAdjustmentYellow = -41,
			LensManualDistortionAmount = 0,
			LuminanceAdjustmentAqua = 0,
			LuminanceAdjustmentBlue = 0,
			LuminanceAdjustmentGreen = 0,
			LuminanceAdjustmentMagenta = 0,
			LuminanceAdjustmentOrange = 18,
			LuminanceAdjustmentPurple = 0,
			LuminanceAdjustmentRed = 17,
			LuminanceAdjustmentYellow = 0,
			LuminanceNoiseReductionContrast = 0,
			LuminanceNoiseReductionDetail = 50,
			LuminanceSmoothing = 0,
			ParametricDarks = 29,
			ParametricHighlightSplit = 75,
			ParametricHighlights = -21,
			ParametricLights = -18,
			ParametricMidtoneSplit = 50,
			ParametricShadowSplit = 25,
			ParametricShadows = -22,
			PostCropVignetteAmount = 0,
			PostCropVignetteFeather = 50,
			PostCropVignetteHighlightContrast = 0,
			PostCropVignetteMidpoint = 50,
			PostCropVignetteRoundness = 0,
			PostCropVignetteStyle = 1,
			ProcessVersion = "6.7",
			RedHue = 21,
			RedSaturation = -14,
			Saturation = -24,
			SaturationAdjustmentAqua = 0,
			SaturationAdjustmentBlue = 0,
			SaturationAdjustmentGreen = -73,
			SaturationAdjustmentMagenta = 0,
			SaturationAdjustmentOrange = 31,
			SaturationAdjustmentPurple = 0,
			SaturationAdjustmentRed = -7,
			SaturationAdjustmentYellow = -42,
			ShadowTint = 0,
			Shadows2012 = 60,
			SharpenDetail = 25,
			SharpenEdgeMasking = 0,
			SharpenRadius = 1,
			Sharpness = 0,
			SplitToningBalance = 0,
			SplitToningHighlightHue = 186,
			SplitToningHighlightSaturation = 16,
			SplitToningShadowHue = 25,
			SplitToningShadowSaturation = 11,
			ToneCurveName2012 = "Custom",
			ToneCurvePV2012 = {
				0,
				24,
				50,
				36,
				124,
				123,
				180,
				182,
				255,
				245,
			},
			ToneCurvePV2012Blue = {
				0,
				0,
				38,
				29,
				255,
				255,
			},
			ToneCurvePV2012Green = {
				0,
				0,
				35,
				34,
				127,
				124,
				248,
				242,
			},
			ToneCurvePV2012Red = {
				0,
				0,
				79,
				78,
				232,
				243,
			},
			Vibrance = -31,
			VignetteAmount = 0,
			VignetteMidpoint = 50,
			WhiteBalance = "As Shot",
			Whites2012 = -40,
		},
		uuid = "99EDF0EA-09BD-405F-9244-E8E59EF6364E",
	},
	version = 0,
}
