20 Preset/Retro Portrait/【1】LRtemplate Lightroom bản cũ/Reto Style TONE (5).lrtemplate
s = {
	id = "AEE08723-865A-4C4D-BE6A-87AA2BC4903C",
	internalName = "法式胶片-素材江湖05",
	title = "法式胶片-素材江湖05",
	type = "Develop",
	value = {
		settings = {
			AutoLateralCA = 0,
			Blacks2012 = -5,
			BlueHue = -15,
			BlueSaturation = 0,
			CameraProfile = "Embedded",
			ChromaticAberrationB = 0,
			ChromaticAberrationR = 0,
			Clarity2012 = -4,
			ColorNoiseReduction = 0,
			ColorNoiseReductionDetail = 50,
			ColorNoiseReductionSmoothness = 50,
			Contrast2012 = -53,
			ConvertToGrayscale = false,
			CropConstrainToWarp = 0,
			Defringe = 0,
			DefringeGreenAmount = 0,
			DefringeGreenHueHi = 60,
			DefringeGreenHueLo = 40,
			DefringePurpleAmount = 0,
			DefringePurpleHueHi = 70,
			DefringePurpleHueLo = 30,
			Dehaze = 0,
			EnableCalibration = true,
			EnableColorAdjustments = true,
			EnableDetail = true,
			EnableEffects = true,
			EnableLensCorrections = true,
			EnableSplitToning = true,
			Exposure2012 = -0.56,
			GrainAmount = 25,
			GrainFrequency = 40,
			GrainSize = 60,
			GreenHue = 0,
			GreenSaturation = 0,
			Highlights2012 = -54,
			HueAdjustmentAqua = -15,
			HueAdjustmentBlue = -30,
			HueAdjustmentGreen = -11,
			HueAdjustmentMagenta = 15,
			HueAdjustmentOrange = -8,
			HueAdjustmentPurple = 0,
			HueAdjustmentRed = 10,
			HueAdjustmentYellow = -10,
			LensManualDistortionAmount = 0,
			LuminanceAdjustmentAqua = -5,
			LuminanceAdjustmentBlue = -15,
			LuminanceAdjustmentGreen = -40,
			LuminanceAdjustmentMagenta = 10,
			LuminanceAdjustmentOrange = -10,
			LuminanceAdjustmentPurple = 20,
			LuminanceAdjustmentRed = -55,
			LuminanceAdjustmentYellow = -35,
			LuminanceNoiseReductionContrast = 0,
			LuminanceNoiseReductionDetail = 50,
			LuminanceSmoothing = 0,
			ParametricDarks = -9,
			ParametricHighlightSplit = 75,
			ParametricHighlights = -53,
			ParametricLights = 8,
			ParametricMidtoneSplit = 37,
			ParametricShadowSplit = 14,
			ParametricShadows = -5,
			PostCropVignetteAmount = 0,
			PostCropVignetteFeather = 50,
			PostCropVignetteHighlightContrast = 0,
			PostCropVignetteMidpoint = 50,
			PostCropVignetteRoundness = 0,
			PostCropVignetteStyle = 1,
			ProcessVersion = "6.7",
			RedHue = 10,
			RedSaturation = -20,
			Saturation = -14,
			SaturationAdjustmentAqua = -10,
			SaturationAdjustmentBlue = -93,
			SaturationAdjustmentGreen = -20,
			SaturationAdjustmentMagenta = -21,
			SaturationAdjustmentOrange = -9,
			SaturationAdjustmentPurple = -40,
			SaturationAdjustmentRed = 9,
			SaturationAdjustmentYellow = 0,
			ShadowTint = 19,
			Shadows2012 = 0,
			SharpenDetail = 25,
			SharpenEdgeMasking = 0,
			SharpenRadius = 1.2,
			Sharpness = 0,
			SplitToningBalance = -4,
			SplitToningHighlightHue = 200,
			SplitToningHighlightSaturation = 9,
			SplitToningShadowHue = 19,
			SplitToningShadowSaturation = 3,
			Temperature = 5249,
			Tint = 16,
			ToneCurveName2012 = "Linear",
			ToneCurvePV2012 = {
				0,
				0,
				255,
				255,
			},
			ToneCurvePV2012Blue = {
				0,
				0,
				255,
				255,
			},
			ToneCurvePV2012Green = {
				0,
				0,
				255,
				255,
			},
			ToneCurvePV2012Red = {
				0,
				0,
				255,
				255,
			},
			Vibrance = -10,
			VignetteAmount = 0,
			VignetteMidpoint = 50,
			WhiteBalance = "Custom",
			Whites2012 = 1,
		},
		uuid = "3F258BCA-5860-4E47-B8B1-0CE818FFA60D",
	},
	version = 0,
}
