20 Preset/Retro Portrait/【1】LRtemplate Lightroom bản cũ/Reto Style TONE (3).lrtemplate
s = {
	id = "0FEFE1EE-BF99-4C12-B977-3396F0242265",
	internalName = "法式胶片-素材江湖03",
	title = "法式胶片-素材江湖03",
	type = "Develop",
	value = {
		settings = {
			AutoLateralCA = 0,
			Blacks2012 = -40,
			BlueHue = -22,
			BlueSaturation = 29,
			CameraProfile = "Adobe Standard",
			ChromaticAberrationB = 0,
			ChromaticAberrationR = 0,
			Clarity2012 = -14,
			ColorNoiseReduction = 25,
			ColorNoiseReductionDetail = 50,
			ColorNoiseReductionSmoothness = 50,
			Contrast2012 = 15,
			ConvertToGrayscale = false,
			CropConstrainToWarp = 0,
			Defringe = 0,
			DefringeGreenAmount = 0,
			DefringeGreenHueHi = 60,
			DefringeGreenHueLo = 40,
			DefringePurpleAmount = 0,
			DefringePurpleHueHi = 70,
			DefringePurpleHueLo = 30,
			Dehaze = 0,
			EnableCalibration = true,
			EnableColorAdjustments = true,
			EnableDetail = true,
			EnableEffects = true,
			EnableLensCorrections = true,
			EnableSplitToning = true,
			Exposure2012 = 0,
			GrainAmount = 5,
			GrainFrequency = 75,
			GrainSize = 35,
			GreenHue = 19,
			GreenSaturation = -34,
			Highlights2012 = -53,
			HueAdjustmentAqua = 0,
			HueAdjustmentBlue = 0,
			HueAdjustmentGreen = -68,
			HueAdjustmentMagenta = 0,
			HueAdjustmentOrange = -10,
			HueAdjustmentPurple = 0,
			HueAdjustmentRed = 16,
			HueAdjustmentYellow = -31,
			LensManualDistortionAmount = 0,
			LuminanceAdjustmentAqua = 0,
			LuminanceAdjustmentBlue = 0,
			LuminanceAdjustmentGreen = 0,
			LuminanceAdjustmentMagenta = 0,
			LuminanceAdjustmentOrange = 12,
			LuminanceAdjustmentPurple = 0,
			LuminanceAdjustmentRed = 7,
			LuminanceAdjustmentYellow = -11,
			LuminanceNoiseReductionContrast = 0,
			LuminanceNoiseReductionDetail = 50,
			LuminanceSmoothing = 0,
			ParametricDarks = 0,
			ParametricHighlightSplit = 75,
			ParametricHighlights = -37,
			ParametricLights = -29,
			ParametricMidtoneSplit = 50,
			ParametricShadowSplit = 25,
			ParametricShadows = -55,
			PostCropVignetteAmount = 0,
			PostCropVignetteFeather = 50,
			PostCropVignetteHighlightContrast = 0,
			PostCropVignetteMidpoint = 50,
			PostCropVignetteRoundness = 0,
			PostCropVignetteStyle = 1,
			ProcessVersion = "6.7",
			RedHue = 28,
			RedSaturation = 29,
			Saturation = -13,
			SaturationAdjustmentAqua = 0,
			SaturationAdjustmentBlue = -25,
			SaturationAdjustmentGreen = -51,
			SaturationAdjustmentMagenta = 0,
			SaturationAdjustmentOrange = -30,
			SaturationAdjustmentPurple = 0,
			SaturationAdjustmentRed = 5,
			SaturationAdjustmentYellow = -35,
			ShadowTint = 0,
			Shadows2012 = 44,
			SharpenDetail = 25,
			SharpenEdgeMasking = 0,
			SharpenRadius = 1,
			Sharpness = 0,
			SplitToningBalance = 0,
			SplitToningHighlightHue = 288,
			SplitToningHighlightSaturation = 0,
			SplitToningShadowHue = 64,
			SplitToningShadowSaturation = 5,
			ToneCurveName2012 = "Custom",
			ToneCurvePV2012 = {
				0,
				15,
				39,
				40,
				74,
				75,
				119,
				129,
				182,
				183,
				255,
				232,
			},
			ToneCurvePV2012Blue = {
				0,
				0,
				121,
				116,
				255,
				255,
			},
			ToneCurvePV2012Green = {
				0,
				0,
				41,
				43,
				255,
				255,
			},
			ToneCurvePV2012Red = {
				0,
				0,
				33,
				37,
				126,
				126,
				223,
				221,
				255,
				255,
			},
			Vibrance = -6,
			VignetteAmount = 0,
			VignetteMidpoint = 50,
			WhiteBalance = "As Shot",
			Whites2012 = -60,
		},
		uuid = "38C3E2B7-B412-4E78-BE27-4C46E9064806",
	},
	version = 0,
}
