20 Preset/Human Style/【3】LUT video cho PR-AE-FCPX/Joe-Allam (2)/JA – Harsh Shade 2 (Classic Chrome).cube
# Created by Adobe Lightroom plugin Export LUT (1.24.0)
# www.johnrellis.com/lightroom/exportlut.htm
# Preset: JA – Harsh Shade 2 (Classic Chrome)
# Color profile: E:\lut插件\exportlut.1.24\exportlut.lrplugin\color profiles\Rec709gamma2.4.icc
LUT_3D_SIZE 32
DOMAIN_MIN 0.0 0.0 0.0
DOMAIN_MAX 1.0 1.0 1.0
0.033082 0.039002 0.061769
0.033082 0.039002 0.061769
0.033082 0.039002 0.061769
0.031098 0.039216 0.061769
0.026123 0.038697 0.060792
0.041352 0.035950 0.058625
0.083436 0.032013 0.057160
0.112276 0.028412 0.054902
0.151217 0.023255 0.051057
0.206271 0.015198 0.044709
0.272953 0.005432 0.034760
0.344762 0.000000 0.021057
0.414527 0.000000 0.006165
0.475685 0.000000 0.000000
0.527031 0.000000 0.000000
0.570642 0.000000 0.000000
0.608942 0.000000 0.000000
0.643671 0.000000 0.021576
0.676722 0.000000 0.077852
0.709804 0.000000 0.114412
0.753048 0.084260 0.155642
0.793668 0.134859 0.192477
0.830808 0.175998 0.224582
0.866026 0.215213 0.253178
0.897765 0.252140 0.279637
0.926482 0.286839 0.304875
0.952911 0.319188 0.330205
0.978485 0.349248 0.355901
1.000000 0.377722 0.383673
1.000000 0.405127 0.412909
1.000000 0.431861 0.442939
1.000000 0.458747 0.474037
0.033082 0.039002 0.061769
0.033082 0.039002 0.061769
0.033082 0.039002 0.061769
0.031098 0.039216 0.061769
0.026123 0.038697 0.060792
0.041352 0.035950 0.058625
0.081758 0.033417 0.057008
0.111513 0.029847 0.054780
0.149355 0.024384 0.051087
0.202945 0.018311 0.044831
0.268223 0.009705 0.035309
0.339391 0.000000 0.021759
0.409339 0.000000 0.006287
0.470832 0.000000 0.000000
0.522698 0.000000 0.000000
0.566735 0.000000 0.000000
0.605463 0.000000 0.000000
0.640497 0.000000 0.016907
0.673579 0.000000 0.071565
0.706447 0.000000 0.111330
0.748379 0.080751 0.151156
0.787442 0.130098 0.187747
0.823667 0.170199 0.219364
0.858427 0.208011 0.247349
0.890257 0.244144 0.273350
0.919402 0.278843 0.298405
0.946441 0.311467 0.323400
0.972320 0.342229 0.349126
0.997528 0.371191 0.376593
1.000000 0.399084 0.405951
1.000000 0.426337 0.436469
1.000000 0.453498 0.467659
0.033082 0.039002 0.061769
0.033082 0.039002 0.061769
0.033082 0.039002 0.061769
0.029084 0.039460 0.061769
0.026123 0.038697 0.060792
0.044617 0.036683 0.058473
0.085817 0.034943 0.056672
0.112947 0.033753 0.054139
0.151980 0.031769 0.049805
0.205570 0.031586 0.042603
0.270207 0.024933 0.033906
0.340764 0.017578 0.018158
0.409705 0.001953 0.003113
0.470405 0.000000 0.000000
0.521843 0.000000 0.000000
0.565850 0.000000 0.000000
0.604456 0.000000 0.000000
0.639551 0.000000 0.014923
0.672541 0.000000 0.069429
0.705989 0.023133 0.111574
0.747036 0.098573 0.151217
0.785458 0.138094 0.187045
0.821042 0.174258 0.217838
0.855314 0.210208 0.245792
0.887144 0.244968 0.271366
0.916197 0.278416 0.296056
0.943297 0.310765 0.320897
0.969238 0.341100 0.346563
0.994720 0.369970 0.373846
1.000000 0.397925 0.403113
1.000000 0.424994 0.433417
1.000000 0.451911 0.464515
0.035218 0.035401 0.062196
0.035218 0.035401 0.062196
0.033204 0.035615 0.062226
0.029236 0.036072 0.062226
0.030121 0.038239 0.060792
0.053681 0.040162 0.057801
0.091188 0.042542 0.055390
0.119417 0.045594 0.052033
0.159792 0.050324 0.046418
0.214664 0.055299 0.037842
0.278477 0.059297 0.027192
0.347997 0.062989 0.011810
0.415290 0.063111 0.000000
0.474220 0.054841 0.000000
0.523919 0.049104 0.000000
0.566766 0.041352 0.000000
0.604547 0.037354 0.000000
0.638849 0.042664 0.012573
0.671382 0.059571 0.069093
0.705715 0.092439 0.112917
0.744381 0.120607 0.149752
0.781003 0.150729 0.184939
0.815946 0.182773 0.215091
0.850248 0.215427 0.243137
0.882963 0.248997 0.268956
0.913054 0.282139 0.294347
0.941192 0.314641 0.319921
0.967987 0.344732 0.346044
0.993805 0.373449 0.373907
1.000000 0.400916 0.403082
1.000000 0.427192 0.432959
1.000000 0.453101 0.463386
0.032105 0.038025 0.060792
0.032105 0.038025 0.060792
0.032105 0.038025 0.060792
0.033356 0.039002 0.060609
0.035920 0.040955 0.060304
0.061219 0.049439 0.056397
0.097719 0.058442 0.052888
0.128511 0.067231 0.047242
0.171359 0.080964 0.040620
0.226413 0.091127 0.030426
0.290105 0.099763 0.017212
0.357763 0.106477 0.000122
0.422675 0.111604 0.000000
0.479469 0.112917 0.000000
0.527672 0.112367 0.000000
0.569970 0.111330 0.000000
0.607324 0.111635 0.000000
0.641382 0.112764 0.012329
0.673701 0.118166 0.077455
0.709285 0.131136 0.118990
0.746548 0.151369 0.155978
0.782132 0.175570 0.189059
0.816403 0.202121 0.218173
0.850584 0.231571 0.245274
0.882963 0.262638 0.271244
0.913085 0.293767 0.296605
0.941131 0.323980 0.321691
0.967590 0.352605 0.347570
0.993317 0.379919 0.374823
1.000000 0.405982 0.403479
1.000000 0.431220 0.433051
1.000000 0.456245 0.462776
0.026581 0.057801 0.055940
0.027863 0.058808 0.055787
0.029847 0.058564 0.055787
0.034668 0.060304 0.054322
0.047028 0.064546 0.053498
0.072847 0.068391 0.051331
0.103944 0.083467 0.046418
0.140566 0.095186 0.039826
0.192813 0.109102 0.028595
0.249699 0.121889 0.016236
0.313268 0.134249 0.000000
0.378424 0.144228 0.000000
0.439307 0.151766 0.000000
0.492287 0.154482 0.000000
0.538201 0.155001 0.000000
0.578180 0.154177 0.000000
0.614282 0.153780 0.000000
0.647639 0.155001 0.022492
0.679805 0.159548 0.091920
0.717342 0.171115 0.131106
0.753597 0.187411 0.166720
0.788602 0.207980 0.198123
0.861845 0.268193 0.258152
0.893706 0.296941 0.284947
0.922393 0.324712 0.309911
0.948547 0.350622 0.334417
0.973114 0.375067 0.359380
0.996674 0.398108 0.384985
1.000000 0.420600 0.411383
1.000000 0.442420 0.438239
1.000000 0.464302 0.465339
1.000000 0.486305 0.492470
0.013092 0.096223 0.044800
0.015076 0.096132 0.044800
0.021607 0.096651 0.044465
0.035370 0.097292 0.043946
0.059480 0.099397 0.042634
0.091859 0.103182 0.040162
0.115633 0.108370 0.037446
0.163394 0.128695 0.026642
0.222934 0.149233 0.007507
0.293584 0.170657 0.000000
0.362219 0.187320 0.000000
0.422889 0.196780 0.000000
0.475929 0.201419 0.000000
0.522179 0.202365 0.000000
0.562707 0.201602 0.000000
0.598962 0.200259 0.000000
0.632227 0.199161 0.000000
0.664057 0.200778 0.063142
0.700343 0.207218 0.119356
0.739345 0.220462 0.158999
0.777584 0.237736 0.194339
0.815457 0.259586 0.225834
0.852384 0.285069 0.255344
0.886931 0.312261 0.282872
0.917754 0.339147 0.309545
0.944976 0.363928 0.334783
0.969909 0.386511 0.359594
0.993378 0.407691 0.384497
1.000000 0.428351 0.410254
1.000000 0.448493 0.436255
1.000000 0.468879 0.462684
1.000000 0.489693 0.489204
0.000000 0.128267 0.032868
0.000000 0.128450 0.034974
0.006500 0.128939 0.034485
0.027375 0.130159 0.033326
0.067659 0.133150 0.030701
0.103029 0.138643 0.026978
0.133852 0.146639 0.022553
0.169986 0.157046 0.014252
0.237644 0.187869 0.000000
0.306645 0.211734 0.000000
0.378912 0.232059 0.000000
0.445045 0.245121 0.000000
0.493812 0.247715 0.000000
0.536248 0.247410 0.000000
0.573632 0.244968 0.000000
0.607843 0.243015 0.000000
0.639673 0.241306 0.009369
0.673487 0.243809 0.094972
0.710323 0.250706 0.138369
0.746731 0.261143 0.173800
0.782681 0.275364 0.206241
0.818814 0.293797 0.234989
0.854337 0.315496 0.262394
0.887419 0.338720 0.288762
0.917388 0.361700 0.314427
0.943999 0.383093 0.338903
0.968658 0.403052 0.363012
0.991882 0.421790 0.387335
1.000000 0.440589 0.412573
1.000000 0.459052 0.437781
1.000000 0.477790 0.463294
1.000000 0.497230 0.489326
0.000000 0.177737 0.009888
0.000000 0.177829 0.009705
0.000000 0.178500 0.008728
0.003662 0.180026 0.006592
0.068330 0.182162 0.005524
0.114046 0.188235 0.000000
0.152255 0.197635 0.000000
0.195010 0.209751 0.000000
0.243717 0.224704 0.000000
0.322423 0.258671 0.000000
0.390448 0.278508 0.000000
0.452399 0.290471 0.000000
0.507195 0.295689 0.000000
0.552331 0.295689 0.000000
0.587060 0.291844 0.000000
0.619257 0.288243 0.000000
0.652918 0.287877 0.075196
0.687892 0.290776 0.126558
0.722652 0.296574 0.162387
0.757259 0.305272 0.193423
0.791714 0.317906 0.222019
0.826078 0.333196 0.248356
0.859831 0.351263 0.273594
0.891112 0.370489 0.298955
0.919799 0.389593 0.323064
0.945525 0.407385 0.346593
0.969665 0.424262 0.369879
0.992279 0.440650 0.393713
1.000000 0.457069 0.417945
1.000000 0.473518 0.442176
1.000000 0.490455 0.466804
1.000000 0.508110 0.491737
0.000000 0.239078 0.000000
0.000000 0.239109 0.000000
0.000000 0.239445 0.000000
0.000000 0.240635 0.000000
0.044251 0.242374 0.000000
0.119051 0.246464 0.000000
0.166049 0.255863 0.000000
0.213993 0.267826 0.000000
0.265568 0.282139 0.000000
0.322911 0.298680 0.000000
0.398962 0.325750 0.000000
0.456947 0.335607 0.000000
0.508629 0.340002 0.000000
0.555230 0.340368 0.000000
0.597894 0.339849 0.000000
0.635309 0.339147 0.052583
0.669734 0.339208 0.123323
0.703853 0.341436 0.158877
0.737606 0.346288 0.189151
0.770840 0.353796 0.216434
0.803433 0.363714 0.241184
0.835294 0.375402 0.264347
0.865690 0.388891 0.286839
0.894224 0.403082 0.309087
0.920592 0.417456 0.331304
0.945220 0.431281 0.353155
0.968627 0.445441 0.375921
0.990967 0.459510 0.398901
1.000000 0.473945 0.422217
1.000000 0.488777 0.445991
1.000000 0.504204 0.470069
1.000000 0.520531 0.494697
0.000000 0.301915 0.000000
0.000000 0.301915 0.000000
0.000000 0.302708 0.000000
0.000000 0.303807 0.000000
0.000000 0.305760 0.000000
0.111299 0.308659 0.000000
0.170443 0.316045 0.000000
0.225010 0.326879 0.000000
0.278996 0.339452 0.000000
0.336278 0.353216 0.000000
0.396033 0.367803 0.000000
0.462013 0.383612 0.000000
0.512108 0.385992 0.000000
0.559503 0.387945 0.000000
0.603418 0.388678 0.031312
0.645930 0.390478 0.122164
0.686732 0.393561 0.162997
0.719936 0.394659 0.190585
0.752193 0.397925 0.216312
0.784115 0.403204 0.239139
0.815030 0.410498 0.261357
0.844846 0.419104 0.282292
0.873442 0.429023 0.302831
0.900237 0.439551 0.323766
0.925322 0.450324 0.344579
0.948852 0.461219 0.366247
0.971496 0.472419 0.387579
0.993011 0.483742 0.409461
1.000000 0.495766 0.431586
1.000000 0.508354 0.454139
1.000000 0.521782 0.476905
1.000000 0.536461 0.500542
0.000000 0.364111 0.000000
0.000000 0.364477 0.000000
0.000000 0.364874 0.000000
0.000000 0.365637 0.000000
0.000000 0.367041 0.000000
0.085145 0.369085 0.000000
0.163973 0.372869 0.000000
0.225162 0.381567 0.000000
0.282139 0.391394 0.000000
0.339117 0.402350 0.000000
0.397864 0.414801 0.000000
0.460426 0.429511 0.000000
0.542168 0.459571 0.000000
0.589288 0.459907 0.109865
0.634089 0.460975 0.157321
0.678279 0.464668 0.195224
0.721950 0.469947 0.226474
0.765103 0.476936 0.252750
0.800717 0.480934 0.274327
0.830106 0.483131 0.293400
0.857206 0.485969 0.311742
0.882383 0.489265 0.329656
0.906096 0.493507 0.348058
0.928710 0.498573 0.366766
0.950256 0.504173 0.385351
0.970672 0.510155 0.403754
0.989899 0.516716 0.422156
1.000000 0.523674 0.440131
1.000000 0.531579 0.458656
1.000000 0.540581 0.477760
1.000000 0.550927 0.497932
1.000000 0.563104 0.519310
0.000000 0.426490 0.000000
0.000000 0.426551 0.000000
0.000000 0.426520 0.000000
0.000000 0.426429 0.000000
0.000000 0.426703 0.000000
0.000000 0.427375 0.000000
0.150423 0.428504 0.000000
0.220462 0.435309 0.000000
0.282963 0.445106 0.000000
0.342779 0.456184 0.000000
0.403143 0.468544 0.000000
0.464607 0.481727 0.000000
0.527367 0.495583 0.044129
0.584619 0.504082 0.152895
0.631739 0.506493 0.186160
0.676417 0.509239 0.215763
0.719295 0.513603 0.244724
0.760952 0.518822 0.269902
0.801266 0.524559 0.293248
0.838346 0.529503 0.315282
0.863279 0.528466 0.331426
0.886778 0.528710 0.348211
0.909117 0.529870 0.365423
0.930938 0.532097 0.382574
0.951781 0.535241 0.399603
0.971557 0.538842 0.416754
0.990417 0.543206 0.433509
1.000000 0.548302 0.450507
1.000000 0.554314 0.467933
1.000000 0.561730 0.486336
1.000000 0.570428 0.505364
1.000000 0.580957 0.525872
0.000000 0.472358 0.000000
0.000000 0.472297 0.000000
0.000000 0.471992 0.000000
0.000000 0.472114 0.000000
0.000000 0.472511 0.000000
0.000000 0.472969 0.000000
0.130983 0.474220 0.000000
0.208164 0.476814 0.000000
0.273136 0.483925 0.000000
0.333227 0.492531 0.000000
0.391455 0.502464 0.000000
0.450752 0.513634 0.087312
0.510796 0.525994 0.129793
0.570947 0.539147 0.166293
0.627985 0.550011 0.216556
0.674189 0.553185 0.239384
0.717372 0.555871 0.261479
0.758022 0.559472 0.286290
0.797116 0.563409 0.309483
0.833249 0.566491 0.330907
0.865934 0.569299 0.352789
0.893065 0.569879 0.371374
0.914519 0.568444 0.386816
0.935454 0.568261 0.402441
0.955535 0.568963 0.417700
0.974517 0.570245 0.433234
0.992523 0.572473 0.448493
1.000000 0.575402 0.463935
1.000000 0.579553 0.480201
1.000000 0.585138 0.497108
1.000000 0.592187 0.515312
1.000000 0.601160 0.534844
0.000000 0.512200 0.000000
0.000000 0.512169 0.000000
0.000000 0.511772 0.000000
0.000000 0.511467 0.000000
0.000000 0.511131 0.000000
0.000000 0.510918 0.000000
0.112886 0.511345 0.000000
0.197696 0.512352 0.000000
0.263249 0.516838 0.000000
0.322850 0.524102 0.059327
0.380865 0.532891 0.111269
0.438697 0.543297 0.142733
0.496773 0.555047 0.171695
0.555077 0.568017 0.198306
0.613794 0.581720 0.224735
0.669886 0.593530 0.265202
0.715694 0.597986 0.285008
0.757015 0.599908 0.302647
0.794736 0.601862 0.325750
0.829435 0.603204 0.347723
0.861418 0.604150 0.368750
0.891295 0.605432 0.389746
0.919646 0.606989 0.409796
0.940581 0.605127 0.424353
0.959625 0.603357 0.437720
0.977691 0.602625 0.451301
0.994965 0.602930 0.465248
1.000000 0.604211 0.479652
1.000000 0.606867 0.494972
1.000000 0.611078 0.511223
1.000000 0.617029 0.528954
1.000000 0.625025 0.548302
0.000000 0.544823 0.089723
0.000000 0.544945 0.090272
0.000000 0.544854 0.089998
0.000000 0.544884 0.091951
0.000000 0.544793 0.094820
0.000000 0.545068 0.097932
0.115663 0.545830 0.104341
0.198245 0.547051 0.112490
0.259464 0.549371 0.122591
0.319280 0.556298 0.142245
0.376135 0.564446 0.163027
0.432074 0.573907 0.183719
0.487678 0.584619 0.204379
0.543175 0.596094 0.225589
0.598810 0.608515 0.247623
0.654505 0.621393 0.268925
0.708461 0.633082 0.304204
0.753567 0.637934 0.324681
0.791196 0.638117 0.342016
0.825406 0.637934 0.362768
0.857023 0.637964 0.384649
0.886992 0.638178 0.405127
0.915282 0.638758 0.424781
0.941650 0.639460 0.443732
0.964477 0.639185 0.460121
0.981750 0.636683 0.472480
0.998230 0.635218 0.485054
1.000000 0.634852 0.498116
1.000000 0.635737 0.512016
1.000000 0.638117 0.526909
1.000000 0.642237 0.543267
1.000000 0.648341 0.560998
0.000000 0.575067 0.148440
0.000000 0.575036 0.148806
0.000000 0.575067 0.149416
0.000000 0.575097 0.150423
0.000000 0.575250 0.151888
0.000000 0.575647 0.154238
0.136141 0.576410 0.157717
0.206546 0.577630 0.162966
0.262943 0.579248 0.168643
0.317388 0.584253 0.179568
0.372930 0.592248 0.195773
0.426886 0.601434 0.213077
0.480476 0.611902 0.230625
0.533898 0.623102 0.249851
0.587091 0.635096 0.268467
0.640833 0.647639 0.288701
0.694820 0.660578 0.309087
0.746334 0.671321 0.343542
0.788754 0.675105 0.365179
0.822538 0.673274 0.381476
0.854063 0.671687 0.400183
0.883696 0.670832 0.420539
0.911650 0.670344 0.439734
0.937774 0.669917 0.457954
0.961730 0.669642 0.475441
0.983551 0.669612 0.492836
1.000000 0.667781 0.506065
1.000000 0.665888 0.517937
1.000000 0.665370 0.530724
1.000000 0.666377 0.544793
1.000000 0.668940 0.559808
1.000000 0.673457 0.576379
0.000000 0.606958 0.191714
0.000000 0.607233 0.192538
0.000000 0.623346 0.212253
0.000000 0.623499 0.212802
0.031983 0.623713 0.214267
0.144350 0.624048 0.215610
0.199954 0.624659 0.217838
0.249180 0.625605 0.221073
0.295018 0.627192 0.225193
0.340673 0.629725 0.231205
0.392157 0.637751 0.244450
0.443122 0.646906 0.258579
0.493538 0.656733 0.274083
0.544366 0.667231 0.290105
0.594812 0.678187 0.307012
0.645441 0.689357 0.325536
0.696223 0.700252 0.344152
0.747219 0.711086 0.363226
0.791684 0.716548 0.395209
0.829129 0.717067 0.415534
0.859129 0.712978 0.429084
0.887846 0.709651 0.444434
0.914153 0.707057 0.462470
0.938567 0.704677 0.479622
0.960937 0.702358 0.495491
0.981353 0.700496 0.510887
0.999847 0.699123 0.526207
1.000000 0.698146 0.540734
1.000000 0.695827 0.551965
1.000000 0.695033 0.564080
1.000000 0.696010 0.577661
1.000000 0.698756 0.592432
0.000000 0.643946 0.232364
0.000000 0.645533 0.233921
0.000000 0.647211 0.236179
0.073243 0.648859 0.238102
0.137057 0.650294 0.240726
0.182284 0.651057 0.242710
0.224460 0.651789 0.244968
0.265476 0.652644 0.247349
0.305852 0.654017 0.250614
0.346502 0.655818 0.255100
0.391211 0.661097 0.263737
0.439094 0.669764 0.276768
0.486946 0.679133 0.290593
0.535027 0.689174 0.305638
0.583185 0.699489 0.322393
0.631739 0.709926 0.339666
0.680110 0.720241 0.357824
0.728969 0.730526 0.376715
0.777890 0.740688 0.396216
0.818753 0.744259 0.426886
0.854856 0.744839 0.447822
0.883513 0.740780 0.461372
0.910216 0.736782 0.475502
0.934173 0.733486 0.492622
0.956085 0.730312 0.508598
0.976104 0.727504 0.523980
0.994202 0.725277 0.539055
1.000000 0.723720 0.554101
1.000000 0.723232 0.569360
1.000000 0.722347 0.582452
1.000000 0.721828 0.594476
1.000000 0.723049 0.607996
0.101381 0.673365 0.259281
0.112032 0.675074 0.260685
0.130098 0.676844 0.262974
0.155062 0.678676 0.264988
0.184939 0.680110 0.267430
0.216251 0.681086 0.269200
0.249882 0.681849 0.270848
0.284764 0.682704 0.273411
0.320134 0.683955 0.276402
0.356786 0.685542 0.279881
0.394049 0.687831 0.284276
0.439460 0.695918 0.296605
0.484657 0.704707 0.309789
0.530114 0.713863 0.324468
0.576104 0.723323 0.340337
0.622004 0.732723 0.356909
0.668421 0.742061 0.374121
0.714687 0.751278 0.391943
0.761196 0.760433 0.410040
0.807980 0.769589 0.429053
0.845548 0.771389 0.458198
0.879332 0.771328 0.479866
0.905669 0.766659 0.493202
0.929870 0.762051 0.506798
0.951415 0.757961 0.522545
0.970977 0.754299 0.537865
0.988647 0.751217 0.552880
1.000000 0.748806 0.567498
1.000000 0.747372 0.582300
1.000000 0.746914 0.597314
1.000000 0.747463 0.612329
1.000000 0.747341 0.624506
0.166415 0.704860 0.285618
0.170169 0.706447 0.287022
0.181064 0.708125 0.288792
0.197147 0.709743 0.290867
0.218326 0.711116 0.292821
0.243198 0.712032 0.294499
0.271183 0.712825 0.296422
0.301518 0.713619 0.298558
0.334051 0.714778 0.301274
0.367346 0.716213 0.304692
0.402045 0.718013 0.308934
0.441077 0.722774 0.317205
0.483772 0.730495 0.330144
0.526970 0.738643 0.344274
0.570581 0.747066 0.359289
0.614649 0.755612 0.375036
0.659052 0.764401 0.391791
0.703975 0.773251 0.409308
0.749142 0.782315 0.427527
0.794827 0.791592 0.446815
0.840513 0.800809 0.466682
0.875181 0.801358 0.496254
0.905669 0.800504 0.519921
0.929412 0.795560 0.533867
0.950896 0.790616 0.547539
0.969818 0.786160 0.562524
0.986694 0.782437 0.577844
1.000000 0.779355 0.592493
1.000000 0.777279 0.607080
1.000000 0.776059 0.621637
1.000000 0.775875 0.636072
1.000000 0.776638 0.650629
0.218265 0.746029 0.322393
0.220645 0.746609 0.322820
0.226444 0.747158 0.323644
0.237247 0.747585 0.324681
0.253239 0.747951 0.325658
0.272923 0.748135 0.326757
0.296361 0.748470 0.328008
0.322545 0.749020 0.329961
0.351293 0.749874 0.332372
0.382452 0.751125 0.335790
0.414771 0.752682 0.339849
0.448035 0.754391 0.344701
0.488258 0.760861 0.356725
0.529290 0.767880 0.369665
0.570550 0.774990 0.383734
0.612390 0.782193 0.398505
0.654536 0.789639 0.413733
0.697139 0.797238 0.429969
0.739895 0.804929 0.446662
0.783017 0.812589 0.463905
0.825772 0.820066 0.482155
0.868162 0.827359 0.501610
0.897795 0.825315 0.530022
0.924254 0.822751 0.553216
0.944976 0.816831 0.565850
0.963928 0.811398 0.578454
0.980865 0.806699 0.592096
0.995941 0.803006 0.606989
1.000000 0.800137 0.621302
1.000000 0.798184 0.635401
1.000000 0.797177 0.649409
1.000000 0.797055 0.663264
0.247807 0.775906 0.349889
0.249058 0.776394 0.350561
0.254032 0.776913 0.351324
0.263340 0.777279 0.352056
0.276616 0.777615 0.353246
0.293797 0.777829 0.354162
0.314611 0.778103 0.355413
0.338384 0.778531 0.357153
0.364508 0.779324 0.359655
0.393408 0.780270 0.362768
0.423438 0.781521 0.366552
0.454871 0.782956 0.370703
0.490059 0.786374 0.378546
0.529046 0.792447 0.390875
0.568505 0.798764 0.404181
0.608423 0.805325 0.417945
0.649073 0.812100 0.432563
0.689937 0.818906 0.447791
0.730983 0.825681 0.463752
0.772122 0.832334 0.480751
0.812955 0.838895 0.498695
0.853208 0.845151 0.517601
0.892271 0.851102 0.537621
0.917876 0.847440 0.565362
0.938567 0.841123 0.582849
0.956878 0.834775 0.594446
0.973938 0.829313 0.606378
0.989319 0.824613 0.618952
1.000000 0.821103 0.633143
1.000000 0.818448 0.647059
1.000000 0.816800 0.660975
1.000000 0.815946 0.674311
0.279423 0.809354 0.383764
0.280949 0.810178 0.384680
0.285100 0.810544 0.385412
0.292699 0.810513 0.385718
0.303197 0.810239 0.385748
0.317327 0.809812 0.385992
0.334936 0.809293 0.386419
0.355596 0.808896 0.387213
0.379187 0.808713 0.388342
0.404913 0.808865 0.390265
0.432288 0.809140 0.392523
0.461585 0.809781 0.395697
0.491707 0.810544 0.399145
0.527977 0.815030 0.409552
0.565148 0.819913 0.420752
0.602991 0.825010 0.432959
0.641413 0.830350 0.446052
0.680110 0.835935 0.460151
0.719417 0.841764 0.475257
0.758938 0.847654 0.491890
0.798184 0.853452 0.509514
0.836698 0.858946 0.528069
0.873960 0.863920 0.546990
0.909789 0.868437 0.566064
0.931701 0.863218 0.591760
0.951476 0.858732 0.614313
0.967376 0.851957 0.624231
0.982483 0.846311 0.634821
0.996307 0.841428 0.645655
1.000000 0.837949 0.658839
1.000000 0.835416 0.671962
1.000000 0.833890 0.684810
0.299474 0.834348 0.407324
0.301091 0.835019 0.408240
0.305150 0.835508 0.409033
0.311559 0.835691 0.409552
0.321630 0.835721 0.409949
0.334630 0.835752 0.410834
0.350988 0.835813 0.411780
0.370916 0.835996 0.413123
0.392920 0.836362 0.415076
0.417212 0.836912 0.417365
0.443305 0.837522 0.420142
0.470985 0.838224 0.423285
0.499855 0.838926 0.426795
0.531731 0.840940 0.433082
0.567193 0.844877 0.443763
0.603357 0.848875 0.455116
0.639979 0.853086 0.467231
0.676875 0.857420 0.480507
0.714351 0.862028 0.495003
0.751858 0.866667 0.510979
0.789151 0.871275 0.527916
0.825681 0.875669 0.545800
0.861082 0.879728 0.564263
0.895171 0.883421 0.582818
0.927520 0.886748 0.601740
0.946044 0.880705 0.626032
0.962860 0.875853 0.648157
0.976715 0.869078 0.656977
0.990143 0.863737 0.666865
1.000000 0.859159 0.676783
1.000000 0.855833 0.688411
1.000000 0.853544 0.700374
0.324956 0.862181 0.436011
0.326055 0.862486 0.436561
0.329351 0.862669 0.436744
0.335027 0.862730 0.437049
0.343633 0.862669 0.437720
0.355291 0.862577 0.438178
0.369848 0.862516 0.438911
0.387610 0.862516 0.440070
0.407782 0.862608 0.441688
0.430213 0.862913 0.443854
0.454688 0.863218 0.446235
0.480598 0.863706 0.449195
0.507774 0.864195 0.452552
0.535973 0.864652 0.455940
0.569360 0.867338 0.465217
0.603815 0.870420 0.475746
0.638697 0.873564 0.487343
0.674098 0.876890 0.499855
0.709773 0.880339 0.513939
0.745449 0.883909 0.529137
0.780850 0.887449 0.545342
0.815488 0.890776 0.562188
0.849058 0.893828 0.579553
0.881376 0.896574 0.597223
0.912200 0.899046 0.614832
0.941192 0.901244 0.632532
0.956909 0.894560 0.654658
0.971252 0.889281 0.675196
0.983581 0.882506 0.682368
0.995850 0.877562 0.691554
1.000000 0.873442 0.701106
1.000000 0.870359 0.711788
0.350317 0.886625 0.463020
0.351354 0.886870 0.463478
0.354192 0.887083 0.463905
0.359319 0.887236 0.464454
0.367346 0.887388 0.465217
0.378393 0.887694 0.466407
0.392767 0.888334 0.468513
0.410010 0.889158 0.471015
0.429938 0.890227 0.474464
0.452064 0.891447 0.478279
0.476234 0.892760 0.482673
0.501579 0.893980 0.487343
0.528283 0.895079 0.492103
0.555474 0.895964 0.497108
0.585199 0.897215 0.504021
0.618158 0.899321 0.514794
0.651118 0.901335 0.526268
0.684504 0.903349 0.538506
0.717830 0.905486 0.551843
0.751064 0.907622 0.566278
0.783780 0.909728 0.581537
0.815824 0.911681 0.597314
0.846769 0.913420 0.613275
0.876402 0.914946 0.629511
0.904570 0.916228 0.645563
0.931182 0.917388 0.661280
0.956237 0.918425 0.676631
0.968902 0.911345 0.695094
0.980529 0.905638 0.712551
0.991058 0.899138 0.718227
1.000000 0.894560 0.726162
1.000000 0.890654 0.734310
0.396429 0.916503 0.506493
0.396918 0.916533 0.506615
0.398932 0.916472 0.506706
0.402747 0.916350 0.506828
0.409064 0.916228 0.507073
0.417914 0.916106 0.507591
0.429389 0.916045 0.508690
0.443427 0.916075 0.509941
0.459968 0.916167 0.511986
0.478553 0.916350 0.514244
0.499184 0.916564 0.517266
0.521416 0.916808 0.520500
0.545006 0.917052 0.524163
