20 Preset/Human Style/【3】LUT video cho PR-AE-FCPX/Joe-Allam (2)/JA – Night Pop 1 (Classic Chrome).cube
# Created by Adobe Lightroom plugin Export LUT (1.24.0)
# www.johnrellis.com/lightroom/exportlut.htm
# Preset: JA – Night Pop 1 (Classic Chrome)
# Color profile: E:\lut插件\exportlut.1.24\exportlut.lrplugin\color profiles\Rec709gamma2.4.icc
LUT_3D_SIZE 5
DOMAIN_MIN 0.000000 0.000000 0.000000
DOMAIN_MAX 0.903226 0.903226 0.903226
0.088197 0.098482 0.105684
0.242435 0.013031 0.109834
0.763333 0.000000 0.000000
1.000000 0.000000 0.000000
1.000000 0.000000 0.000000
0.000000 0.196231 0.085267
0.180423 0.174380 0.112856
0.680720 0.288304 0.000000
1.000000 0.273167 0.000000
1.000000 0.184512 0.000000
0.000000 0.633906 0.000000
0.273747 0.613916 0.000000
0.609674 0.545220 0.000000
0.957641 0.624964 0.392737
1.000000 0.586511 0.384924
0.000000 0.911192 0.000000
0.114168 0.906340 0.000000
0.650202 0.869352 0.000000
0.896971 0.792081 0.350713
1.000000 0.825559 0.651728
0.000000 1.000000 0.000000
0.000000 1.000000 0.000000
0.537163 1.000000 0.000000
0.868467 0.987396 0.411810
1.000000 0.955901 0.693629
0.000000 0.101961 0.206577
0.166995 0.067872 0.199130
0.670161 0.000000 0.206058
1.000000 0.000000 0.000000
1.000000 0.000000 0.000000
0.000000 0.188815 0.208072
0.160372 0.178103 0.191409
0.663722 0.182773 0.138796
1.000000 0.173312 0.000000
1.000000 0.150607 0.000000
0.000000 0.602991 0.089998
0.000000 0.592035 0.081788
0.555535 0.508659 0.227054
0.919799 0.604425 0.438209
1.000000 0.570397 0.373816
0.000000 0.906401 0.188449
0.000000 0.902403 0.191806
0.632898 0.869383 0.264195
0.883513 0.788754 0.429664
1.000000 0.824216 0.660731
0.000000 1.000000 0.260563
0.000000 1.000000 0.255253
0.545830 1.000000 0.252781
0.870176 0.991119 0.488411
1.000000 0.960662 0.706203
0.000000 0.112306 0.673762
0.000000 0.075105 0.670497
0.540459 0.000000 0.597833
1.000000 0.000000 0.591638
1.000000 0.000000 0.456062
0.000000 0.328222 0.685603
0.000000 0.251865 0.669062
0.537591 0.000000 0.593927
1.000000 0.000000 0.566644
1.000000 0.000000 0.446448
0.000000 0.622644 0.662348
0.000000 0.610254 0.647822
0.510399 0.535943 0.561273
0.954681 0.549432 0.561913
1.000000 0.504143 0.500572
0.000000 0.899931 0.608026
0.000000 0.887266 0.606348
0.572168 0.863798 0.612940
0.847105 0.788968 0.623102
1.000000 0.839719 0.753231
0.179477 1.000000 0.626123
0.325383 1.000000 0.625666
0.583429 1.000000 0.619043
0.851499 0.988891 0.644404
1.000000 0.956359 0.743526
0.000000 0.159335 0.929839
0.000000 0.159762 0.930663
0.308568 0.000000 0.913298
0.841306 0.000000 0.868589
1.000000 0.000000 0.812528
0.000000 0.321538 0.930205
0.000000 0.314824 0.928893
0.280735 0.198276 0.911742
0.831388 0.000000 0.859037
1.000000 0.202670 0.809110
0.000000 0.606683 0.923827
0.000000 0.618189 0.921050
0.500725 0.649866 0.900847
0.821286 0.501335 0.841642
1.000000 0.560082 0.802365
0.000000 0.877379 0.900114
0.000000 0.874479 0.895415
0.426947 0.865904 0.880339
0.795621 0.793210 0.803098
1.000000 0.807004 0.808774
0.000000 1.000000 0.757412
0.000000 1.000000 0.765103
0.438422 1.000000 0.801633
0.847684 0.991699 0.844877
1.000000 0.959960 0.847990
0.000000 0.303166 1.000000
0.000000 0.303075 1.000000
0.000000 0.227085 1.000000
0.565393 0.000000 1.000000
1.000000 0.000000 1.000000
0.000000 0.304234 1.000000
0.000000 0.304906 1.000000
0.000000 0.313512 1.000000
0.564904 0.000000 1.000000
1.000000 0.000000 1.000000
0.000000 0.524559 1.000000
0.000000 0.530846 1.000000
0.282780 0.625818 1.000000
0.674586 0.605341 1.000000
0.998871 0.470069 1.000000
0.000000 0.723323 1.000000
0.000000 0.721065 1.000000
0.000000 0.770352 1.000000
0.838163 0.877317 0.998383
0.991180 0.788418 0.990814
0.000000 0.971130 1.000000
0.000000 0.972595 1.000000
0.000000 0.977478 0.999634
0.788205 0.984039 0.991943
0.977661 0.972900 0.972473
