20 Preset/Human Style/【3】LUT video cho PR-AE-FCPX/Joe-Allam (2)/JA – Cine Night 1 (Classic Chrome).cube
# Created by Adobe Lightroom plugin Export LUT (1.24.0)
# www.johnrellis.com/lightroom/exportlut.htm
# Preset: JA – Cine Night 1 (Classic Chrome)
# Color profile: E:\lut插件\exportlut.1.24\exportlut.lrplugin\color profiles\Rec709gamma2.4.icc
LUT_3D_SIZE 8
DOMAIN_MIN 0.000000 0.000000 0.000000
DOMAIN_MAX 0.903226 0.903226 0.903226
0.000000 0.027771 0.056123
0.032410 0.041901 0.078248
0.121492 0.084138 0.103059
0.279606 0.078523 0.121431
0.531456 0.000000 0.143648
0.789883 0.000000 0.172976
0.970397 0.091341 0.223911
1.000000 0.289647 0.310155
0.000000 0.089418 0.100862
0.003784 0.092256 0.094972
0.127871 0.105684 0.093477
0.286870 0.111055 0.109041
0.534173 0.005402 0.127901
0.785214 0.000000 0.155276
0.963592 0.153750 0.206363
1.000000 0.303624 0.295537
0.000000 0.164645 0.158236
0.000000 0.166384 0.150851
0.066285 0.179141 0.133944
0.318181 0.210636 0.108431
0.573785 0.223087 0.102968
0.807492 0.251133 0.112642
0.978637 0.307805 0.154910
1.000000 0.388128 0.252598
0.000000 0.331426 0.246830
0.000000 0.333684 0.239963
0.000000 0.332433 0.223087
0.261814 0.370947 0.184054
0.589166 0.425605 0.113252
0.833005 0.451362 0.000000
0.986175 0.471199 0.123262
1.000000 0.509819 0.218784
0.000000 0.564050 0.359411
0.000000 0.564630 0.354955
0.000000 0.561639 0.328923
0.039124 0.553826 0.305791
0.502403 0.599695 0.243534
0.778866 0.635126 0.168582
0.968566 0.645045 0.140902
1.000000 0.650355 0.205844
0.000000 0.767361 0.505913
0.000000 0.769558 0.506157
0.000000 0.767880 0.479957
0.000000 0.757259 0.457496
0.437873 0.755917 0.423194
0.700374 0.785794 0.370886
0.919677 0.804654 0.334264
1.000000 0.797360 0.354833
0.000000 0.909209 0.700954
0.000000 0.909148 0.701625
0.000000 0.907378 0.698238
0.294591 0.902647 0.670497
0.492775 0.892851 0.641932
0.672114 0.897581 0.612909
0.855924 0.911040 0.575311
1.000000 0.908690 0.559960
0.538537 0.982483 0.868193
0.549554 0.982086 0.869078
0.593042 0.980529 0.873075
0.622644 0.979706 0.864744
0.668727 0.975799 0.849638
0.744747 0.971679 0.836149
0.835691 0.972412 0.824674
0.933135 0.970733 0.803647
0.000000 0.041108 0.111910
0.010193 0.045319 0.108003
0.107942 0.086397 0.128908
0.263096 0.092042 0.145571
0.515068 0.000000 0.161654
0.772061 0.000000 0.179416
0.955810 0.119112 0.209232
1.000000 0.285435 0.297032
0.000000 0.088655 0.123018
0.000000 0.093141 0.127321
0.110048 0.104829 0.135775
0.273198 0.112032 0.146914
0.522362 0.039429 0.161715
0.774014 0.000000 0.177310
0.953826 0.168429 0.205509
1.000000 0.302068 0.284123
0.000000 0.163363 0.183810
0.000000 0.167727 0.181338
0.035767 0.178714 0.164401
0.311894 0.204532 0.149111
0.557977 0.215305 0.157076
0.791745 0.242893 0.169711
0.962768 0.299779 0.200351
1.000000 0.383703 0.255894
0.000000 0.326909 0.267491
0.000000 0.329778 0.263188
0.000000 0.330907 0.244419
0.251408 0.361303 0.210117
0.570001 0.409400 0.164309
0.813077 0.435737 0.130037
0.970764 0.459785 0.181003
1.000000 0.503899 0.250706
0.000000 0.560662 0.376898
0.000000 0.560906 0.372564
0.000000 0.558709 0.345647
0.012116 0.546410 0.322728
0.492897 0.590478 0.266850
0.770626 0.626947 0.206485
0.962341 0.638697 0.189425
1.000000 0.647150 0.245335
0.000000 0.763272 0.516106
0.000000 0.763302 0.514031
0.000000 0.762722 0.491890
0.000000 0.753048 0.467964
0.433356 0.751095 0.435248
0.696468 0.782437 0.387152
0.916075 0.801785 0.354437
1.000000 0.795590 0.373999
0.000000 0.906401 0.703487
0.000000 0.905638 0.702876
0.000000 0.903624 0.702113
0.287510 0.899626 0.674128
0.489570 0.890684 0.647669
0.668360 0.894926 0.618738
0.851957 0.908476 0.581628
1.000000 0.906798 0.566308
0.529320 0.981842 0.867552
0.542473 0.981567 0.868925
0.586389 0.980011 0.872648
0.620752 0.979065 0.865873
0.675349 0.976196 0.856077
0.746700 0.971832 0.841062
0.835599 0.972168 0.828244
0.932738 0.970550 0.807736
0.000000 0.067323 0.184848
0.000000 0.065217 0.186801
0.051148 0.084596 0.182956
0.232303 0.101381 0.223819
0.489876 0.030701 0.274205
0.756222 0.000000 0.303960
0.945708 0.188052 0.335668
1.000000 0.328710 0.380102
0.000000 0.096132 0.200412
0.000000 0.097749 0.203281
0.035523 0.105776 0.200198
0.237858 0.124361 0.236759
0.495308 0.107332 0.277562
0.756680 0.104433 0.304936
0.943908 0.215854 0.333471
1.000000 0.342687 0.377752
0.000000 0.160433 0.238865
0.000000 0.164309 0.241978
0.000000 0.179751 0.252781
0.274632 0.200229 0.268132
0.534325 0.217258 0.285863
0.777096 0.251438 0.305455
0.952117 0.320134 0.333867
1.000000 0.411017 0.378820
0.000000 0.331487 0.338231
0.000000 0.335027 0.337804
0.000000 0.345556 0.329473
0.251469 0.364294 0.300298
0.575067 0.403662 0.286839
0.801541 0.430426 0.299504
0.962524 0.467781 0.331853
1.000000 0.521447 0.381079
0.000000 0.564233 0.445686
0.000000 0.565087 0.442908
0.000000 0.568322 0.430640
0.066987 0.559106 0.397894
0.496864 0.593744 0.357427
0.771695 0.625757 0.329534
0.961089 0.639033 0.329076
1.000000 0.654994 0.384131
0.000000 0.764828 0.572717
0.000000 0.765103 0.571313
0.000000 0.764431 0.563836
0.000000 0.757748 0.531609
0.436988 0.748623 0.498482
0.693812 0.780941 0.461555
0.912291 0.801114 0.443091
1.000000 0.797971 0.466011
0.000000 0.907927 0.737881
0.000000 0.907256 0.737209
0.025879 0.905058 0.735836
0.329564 0.901701 0.716487
0.502831 0.892546 0.690822
0.670253 0.894194 0.663752
0.850553 0.909148 0.635981
0.997589 0.908110 0.629541
0.530541 0.982025 0.877134
0.541436 0.981567 0.877653
0.586023 0.979980 0.881041
0.643915 0.978210 0.882872
0.686824 0.975860 0.871641
0.752987 0.971862 0.858000
0.837827 0.971801 0.846311
0.931914 0.970428 0.828763
0.000000 0.085756 0.294438
0.000000 0.084138 0.298619
0.000000 0.082979 0.315404
0.200290 0.092653 0.302800
0.434485 0.096040 0.348302
0.711696 0.118166 0.417365
0.908721 0.287694 0.492409
1.000000 0.410986 0.541894
0.000000 0.104738 0.310948
0.000000 0.105684 0.314519
0.000000 0.106996 0.329076
0.210636 0.113741 0.316411
0.443793 0.131960 0.359380
0.715816 0.171725 0.427192
0.909483 0.308263 0.495064
1.000000 0.424201 0.543175
0.000000 0.169223 0.335180
0.000000 0.171267 0.338872
0.000000 0.181643 0.362097
0.233005 0.196841 0.360113
0.475715 0.242741 0.404120
0.731502 0.311803 0.470130
0.920226 0.391058 0.510765
1.000000 0.481178 0.553704
0.000000 0.310979 0.408331
0.000000 0.314855 0.410315
0.000000 0.330938 0.419196
0.232425 0.359472 0.433753
0.525597 0.396460 0.457191
0.756802 0.441688 0.482551
0.929168 0.497749 0.514672
1.000000 0.563470 0.557244
0.000000 0.574701 0.553399
0.000000 0.575097 0.551720
0.000000 0.577905 0.546502
0.161532 0.580316 0.529564
0.496468 0.594537 0.493202
0.766354 0.623896 0.495613
0.939940 0.646601 0.522606
1.000000 0.677821 0.568170
0.000000 0.772457 0.668116
0.000000 0.774197 0.668910
0.000000 0.772946 0.663416
0.191775 0.769863 0.652430
0.456092 0.755367 0.611078
0.691188 0.781643 0.583215
0.905455 0.802487 0.581170
1.000000 0.804227 0.606653
0.000000 0.910399 0.791958
0.000000 0.910246 0.792142
0.181949 0.908904 0.791897
0.407263 0.906096 0.789731
0.531182 0.899016 0.763760
0.674891 0.893736 0.735622
0.847135 0.909606 0.717037
0.989288 0.909209 0.718502
0.529320 0.983154 0.894347
0.541466 0.982757 0.894987
0.587884 0.981048 0.897795
0.662287 0.978027 0.903563
0.711788 0.975525 0.898497
0.765225 0.971893 0.885557
0.841917 0.971008 0.874388
0.931304 0.970153 0.861936
0.000000 0.096101 0.433783
0.000000 0.096040 0.438605
0.000000 0.089235 0.456123
0.292638 0.000000 0.490486
0.421424 0.000000 0.454658
0.646601 0.135225 0.490700
0.870115 0.278874 0.571374
1.000000 0.476509 0.671046
0.000000 0.116060 0.446204
0.000000 0.116152 0.450568
0.000000 0.112490 0.467048
0.296483 0.053681 0.499306
0.430610 0.081636 0.464668
0.651972 0.174838 0.499550
0.870451 0.308385 0.579583
1.000000 0.495888 0.679561
0.000000 0.179355 0.472114
0.000000 0.183413 0.477790
0.000000 0.189181 0.493019
0.290990 0.193576 0.524804
0.455634 0.212192 0.499916
0.665187 0.289799 0.533043
0.868742 0.408545 0.612451
1.000000 0.563439 0.710475
0.000000 0.305852 0.506340
0.000000 0.307683 0.508019
0.000000 0.315953 0.514855
0.218723 0.350439 0.558709
0.480140 0.385199 0.562676
0.685634 0.458228 0.603967
0.864378 0.560693 0.682826
1.000000 0.640558 0.738888
0.000000 0.515465 0.605310
0.000000 0.518425 0.607111
0.000000 0.529870 0.613764
0.091646 0.550896 0.625971
0.474342 0.579339 0.641749
0.708309 0.621668 0.673548
0.884794 0.667964 0.707912
1.000000 0.712917 0.741543
0.000000 0.766690 0.757809
0.000000 0.768338 0.759548
0.000000 0.772183 0.763119
0.228611 0.769070 0.754147
0.483436 0.763516 0.737026
0.677485 0.774289 0.709255
0.889860 0.801236 0.727169
1.000000 0.812284 0.754604
0.000000 0.912627 0.854154
0.000000 0.912139 0.853391
0.166964 0.910826 0.850858
0.402869 0.908934 0.848264
0.566186 0.904051 0.841917
0.675319 0.891661 0.809232
0.840543 0.907439 0.796567
0.979980 0.907805 0.802945
0.472663 0.984833 0.911498
0.488716 0.984344 0.911955
0.547936 0.982452 0.914000
0.642329 0.979278 0.919371
0.736599 0.974701 0.925841
0.782956 0.971557 0.916716
0.845975 0.969146 0.904082
0.930938 0.969238 0.895659
0.000000 0.107759 0.599481
0.000000 0.105745 0.603815
0.000000 0.090913 0.619623
0.315129 0.000000 0.651759
0.560357 0.000000 0.687190
0.663294 0.000000 0.632685
0.832975 0.261814 0.655451
0.985809 0.462318 0.736995
0.000000 0.128450 0.604120
0.000000 0.127260 0.607599
0.000000 0.118441 0.623102
0.311528 0.044038 0.654658
0.561517 0.000000 0.691218
0.663996 0.021393 0.636805
0.830045 0.286992 0.658137
0.983032 0.477028 0.740749
0.000000 0.198764 0.625910
0.000000 0.199649 0.629328
0.000000 0.202152 0.644343
0.298955 0.201328 0.674189
0.574701 0.195651 0.719020
0.677668 0.246921 0.664942
0.827848 0.384649 0.680964
0.977447 0.546136 0.766354
0.000000 0.311986 0.631403
0.000000 0.314336 0.637201
0.000000 0.325750 0.664302
0.223728 0.354253 0.701778
0.553399 0.394110 0.748348
0.690242 0.430793 0.715694
0.826902 0.530938 0.733516
0.969757 0.652094 0.811826
0.000000 0.493172 0.700160
0.000000 0.494484 0.700893
0.000000 0.499123 0.703639
0.000000 0.507408 0.708797
0.462165 0.559228 0.758572
0.675502 0.608484 0.766964
0.825742 0.676997 0.799619
0.961151 0.758206 0.859525
0.000000 0.707088 0.794644
0.000000 0.709224 0.795987
0.000000 0.714656 0.798856
0.000000 0.725277 0.804318
0.452369 0.741512 0.812650
0.663233 0.765103 0.826230
0.853696 0.802792 0.855314
0.975677 0.833097 0.878264
0.000000 0.906218 0.904021
0.000000 0.907073 0.904936
0.192020 0.909422 0.907530
0.445716 0.914244 0.913024
0.592981 0.912932 0.909850
0.710811 0.904204 0.896666
0.838376 0.906462 0.877775
0.969970 0.910887 0.891691
0.495003 0.984863 0.944488
0.505425 0.984527 0.944274
0.549462 0.983246 0.943999
0.624353 0.980896 0.943908
0.720150 0.976776 0.945251
0.817350 0.971130 0.950317
0.857084 0.967102 0.937530
0.932891 0.968292 0.932738
0.000000 0.128878 0.790249
0.000000 0.121950 0.794644
0.000000 0.100526 0.804654
0.374090 0.000000 0.825010
0.606592 0.000000 0.852415
0.789487 0.000000 0.863951
0.862852 0.181125 0.806943
0.964965 0.428717 0.809110
0.000000 0.146334 0.786954
0.000000 0.144808 0.791409
0.000000 0.132815 0.801511
0.361822 0.089021 0.820371
0.596399 0.000000 0.847379
0.780667 0.000000 0.859190
0.853330 0.205509 0.800992
0.956207 0.429694 0.802670
0.000000 0.225772 0.800748
0.000000 0.225711 0.802853
0.000000 0.224704 0.810880
0.341039 0.221866 0.828397
0.585382 0.222629 0.854032
0.781888 0.249760 0.871275
0.857206 0.333562 0.819455
0.955108 0.509056 0.823789
0.000000 0.334142 0.810300
0.000000 0.336400 0.813077
0.000000 0.348333 0.821653
0.264225 0.364904 0.840055
0.554864 0.394812 0.865843
0.779171 0.449958 0.893370
0.855528 0.495460 0.849088
0.946380 0.615564 0.851957
0.000000 0.477577 0.803342
0.000000 0.475257 0.801419
0.000000 0.471595 0.801144
0.000000 0.489326 0.830503
0.459907 0.539269 0.864591
0.731441 0.608057 0.898772
0.835904 0.640314 0.873136
0.936858 0.721492 0.882261
0.000000 0.675624 0.867063
0.000000 0.676020 0.867216
0.000000 0.676600 0.867063
0.000000 0.677058 0.866361
0.286046 0.676020 0.863218
0.646082 0.734340 0.899840
0.829007 0.784451 0.908904
0.938354 0.836118 0.924559
0.000000 0.857969 0.923308
0.000000 0.859159 0.923919
0.000000 0.861143 0.924559
0.204257 0.865660 0.926268
0.481544 0.871977 0.928496
0.671656 0.881743 0.932341
0.830381 0.896452 0.939025
0.949004 0.919951 0.954620
0.389929 0.981659 0.969268
0.412116 0.981506 0.969421
0.494423 0.980957 0.970123
0.608942 0.979126 0.971008
0.736110 0.976074 0.973022
0.829191 0.972381 0.973663
0.891539 0.967895 0.972747
0.937011 0.967254 0.965789
0.000000 0.235935 0.944701
0.000000 0.233707 0.946136
0.282139 0.217563 0.948730
0.483375 0.181888 0.956298
0.664851 0.164340 0.965698
0.844297 0.189120 0.976562
0.970214 0.260624 0.973999
1.000000 0.396033 0.932860
0.000000 0.231815 0.943267
0.000000 0.229526 0.944793
0.292180 0.214542 0.948089
0.476539 0.201083 0.954589
0.658015 0.195743 0.963989
0.838590 0.221500 0.975097
0.965362 0.281865 0.972473
1.000000 0.404395 0.930999
0.000000 0.287846 0.944640
0.000000 0.287999 0.945495
0.245701 0.286931 0.948028
0.455756 0.292210 0.956085
0.643091 0.301213 0.964446
0.824857 0.332982 0.974426
0.957214 0.382116 0.973510
1.000000 0.471321 0.934417
0.000000 0.390387 0.945220
0.000000 0.392218 0.946349
0.000000 0.396246 0.949218
0.389471 0.408362 0.955840
0.605615 0.430640 0.964569
0.798215 0.472969 0.974395
0.942168 0.523552 0.976410
0.989410 0.577996 0.942443
0.000000 0.503960 0.938201
0.000000 0.504112 0.939818
0.000000 0.501152 0.943938
0.114382 0.522454 0.952422
0.517052 0.550958 0.960998
0.744411 0.597864 0.970977
0.916014 0.656092 0.978302
0.973266 0.686915 0.951110
0.000000 0.668605 0.948516
0.000000 0.666163 0.947631
0.000000 0.657679 0.944976
0.000000 0.642359 0.941070
0.233524 0.648005 0.950774
0.653193 0.709316 0.967346
0.877745 0.781277 0.980194
0.957092 0.807767 0.964355
0.000000 0.840269 0.971801
0.000000 0.839841 0.971588
0.000000 0.838376 0.970764
0.000000 0.836667 0.969726
0.302892 0.832792 0.967803
0.525170 0.823392 0.964294
0.808469 0.865507 0.975891
0.940215 0.906310 0.976257
0.225681 0.951232 0.985962
0.253025 0.951232 0.985870
0.347112 0.951415 0.985748
0.475349 0.952239 0.985687
0.610376 0.953491 0.985443
0.743160 0.955596 0.985077
0.860838 0.959045 0.984955
0.936675 0.963653 0.986145
