20 Preset/Human Style/【3】LUT video cho PR-AE-FCPX/Joe-Allam (2)/JA – Harsh Shade 1 (Classic Chrome).cube
# Created by Adobe Lightroom plugin Export LUT (1.24.0)
# www.johnrellis.com/lightroom/exportlut.htm
# Preset: JA – Harsh Shade 1 (Classic Chrome)
# Color profile: E:\lut插件\exportlut.1.24\exportlut.lrplugin\color profiles\Rec709gamma2.4.icc
LUT_3D_SIZE 32
DOMAIN_MIN 0.0 0.0 0.0
DOMAIN_MAX 1.0 1.0 1.0
0.034577 0.039033 0.056092
0.034577 0.039033 0.056092
0.034577 0.039033 0.056092
0.043488 0.039094 0.057038
0.082307 0.038758 0.061921
0.103365 0.038056 0.069978
0.118349 0.040955 0.071931
0.132784 0.045136 0.075837
0.148898 0.049531 0.078157
0.166415 0.054566 0.083528
0.185763 0.061830 0.089418
0.208865 0.067628 0.093690
0.236149 0.069764 0.097322
0.268467 0.071199 0.100526
0.306004 0.067872 0.103304
0.349493 0.060090 0.105989
0.399908 0.046693 0.107881
0.458412 0.022400 0.109255
0.522942 0.000000 0.108858
0.591333 0.000000 0.108034
0.678798 0.000000 0.105776
0.754269 0.000000 0.103853
0.815854 0.000000 0.105379
0.868467 0.000000 0.109163
0.913298 0.000000 0.115511
0.950866 0.000000 0.124361
0.983581 0.000000 0.135988
1.000000 0.000000 0.148928
1.000000 0.000000 0.163882
1.000000 0.000000 0.180697
1.000000 0.097536 0.199954
1.000000 0.163607 0.223209
0.034577 0.039033 0.056092
0.034577 0.039033 0.056092
0.034577 0.039033 0.056092
0.043183 0.039094 0.058167
0.082124 0.038758 0.063050
0.103243 0.039246 0.068696
0.117983 0.043366 0.071656
0.132265 0.046571 0.074556
0.148196 0.049958 0.077089
0.165377 0.056458 0.082765
0.184512 0.061738 0.089082
0.206882 0.068452 0.093355
0.233677 0.071473 0.097383
0.265354 0.073243 0.100313
0.302525 0.069093 0.103212
0.345037 0.064454 0.105928
0.394903 0.050782 0.108003
0.452338 0.028717 0.108919
0.516350 0.000000 0.109010
0.584405 0.000000 0.108156
0.669154 0.000000 0.105653
0.743313 0.000000 0.104158
0.804532 0.000000 0.105135
0.857237 0.000000 0.107881
0.902953 0.000000 0.113283
0.941772 0.000000 0.121187
0.975525 0.000000 0.132143
1.000000 0.000000 0.144717
1.000000 0.000000 0.159579
1.000000 0.000000 0.176059
1.000000 0.077394 0.195407
1.000000 0.151522 0.217777
0.034577 0.039033 0.056092
0.034577 0.039033 0.056092
0.034577 0.039033 0.056092
0.050416 0.039399 0.057984
0.088319 0.041016 0.060273
0.106142 0.043946 0.063355
0.120150 0.047059 0.065339
0.134127 0.050294 0.068238
0.149508 0.054871 0.074006
0.165774 0.061799 0.082277
0.185183 0.066865 0.088350
0.207218 0.073793 0.092653
0.233768 0.077058 0.096345
0.264866 0.078981 0.100069
0.301488 0.078431 0.102876
0.343755 0.073671 0.105348
0.392859 0.063447 0.107393
0.450172 0.042725 0.108675
0.513909 0.012879 0.108034
0.582605 0.000000 0.107362
0.665949 0.000000 0.105074
0.739162 0.000000 0.103059
0.799832 0.000000 0.103273
0.852476 0.000000 0.106203
0.898253 0.000000 0.111086
0.937316 0.000000 0.118776
0.971527 0.000000 0.129610
1.000000 0.000000 0.142306
1.000000 0.000000 0.156893
1.000000 0.000000 0.173373
1.000000 0.080354 0.192020
1.000000 0.149386 0.214450
0.027710 0.055421 0.057374
0.026978 0.056611 0.057221
0.036194 0.056703 0.057038
0.061646 0.061769 0.053590
0.093599 0.061952 0.054902
0.109773 0.060731 0.054078
0.124269 0.060060 0.055329
0.138003 0.061830 0.062928
0.152316 0.066621 0.072114
0.168673 0.072114 0.080476
0.187533 0.078309 0.087495
0.209598 0.083101 0.091859
0.235935 0.085725 0.095583
0.266819 0.087861 0.098939
0.302800 0.088167 0.101717
0.344366 0.087892 0.104463
0.392676 0.083284 0.106142
0.448371 0.072541 0.107057
0.510796 0.047089 0.106874
0.580957 0.010651 0.105684
0.659480 0.000000 0.102419
0.729946 0.000000 0.100710
0.790463 0.000000 0.100740
0.843992 0.000000 0.103029
0.891539 0.000000 0.107515
0.932708 0.000000 0.114870
0.968536 0.000000 0.126040
1.000000 0.000000 0.139498
1.000000 0.000000 0.154086
1.000000 0.000000 0.171145
1.000000 0.099825 0.189822
1.000000 0.155245 0.211307
0.028992 0.086152 0.059297
0.032258 0.086610 0.059113
0.043153 0.086519 0.060060
0.067323 0.088594 0.056764
0.093874 0.090181 0.053101
0.109590 0.087495 0.056458
0.123964 0.084932 0.061585
0.138735 0.084413 0.063783
0.155306 0.084474 0.068849
0.171908 0.087617 0.078431
0.190677 0.089540 0.085542
0.212528 0.092317 0.090700
0.238590 0.094972 0.094331
0.269352 0.097139 0.097932
0.305272 0.098756 0.100557
0.347082 0.099611 0.102754
0.395666 0.098787 0.104921
0.451911 0.096132 0.105104
0.514183 0.090028 0.104463
0.586725 0.071382 0.102205
0.662043 0.033051 0.099306
0.730373 0.000000 0.096284
0.789700 0.000000 0.096010
0.842924 0.000000 0.098085
0.890532 0.000000 0.102602
0.931914 0.000000 0.110475
0.967712 0.000000 0.122316
0.999420 0.000000 0.135622
1.000000 0.000000 0.150881
1.000000 0.059663 0.167483
1.000000 0.122286 0.186374
1.000000 0.166842 0.208011
0.037629 0.098787 0.073793
0.039612 0.098695 0.073762
0.048524 0.098726 0.074708
0.067262 0.099519 0.075166
0.090272 0.101228 0.070405
0.108827 0.102785 0.068635
0.124727 0.101656 0.071321
0.139834 0.100221 0.073976
0.156435 0.099886 0.078065
0.175387 0.100221 0.080781
0.196567 0.101778 0.083406
0.219181 0.104311 0.089296
0.245701 0.106996 0.093202
0.276738 0.109621 0.096590
0.313542 0.112184 0.098939
0.355810 0.114382 0.101076
0.405371 0.116030 0.102235
0.462287 0.116365 0.102022
0.524956 0.114717 0.100496
0.600793 0.111238 0.096925
0.673579 0.104585 0.093141
0.739590 0.094789 0.089235
0.857267 0.088441 0.089296
0.903960 0.077607 0.095949
0.942901 0.068482 0.106447
0.976074 0.078767 0.119814
1.000000 0.092653 0.134432
1.000000 0.109255 0.150179
1.000000 0.132082 0.166934
1.000000 0.158236 0.184878
1.000000 0.189334 0.205356
1.000000 0.225254 0.228824
0.050111 0.111391 0.088746
0.051392 0.111666 0.088685
0.060731 0.111330 0.089509
0.075868 0.111788 0.090181
0.091157 0.113466 0.088838
0.106966 0.116579 0.085786
0.126375 0.119051 0.084779
0.145541 0.119570 0.086336
0.163729 0.118898 0.087434
0.183017 0.119203 0.088716
0.205692 0.120668 0.090089
0.232975 0.123323 0.091096
0.264530 0.126284 0.091737
0.298985 0.129274 0.093690
0.337469 0.132723 0.095583
0.381842 0.136294 0.097505
0.433661 0.139467 0.096529
0.491890 0.142367 0.095369
0.564080 0.145174 0.090913
0.642145 0.147036 0.082948
0.716213 0.146609 0.070192
0.782345 0.144594 0.061921
0.840696 0.141482 0.065431
0.892271 0.138643 0.078492
0.935180 0.137392 0.093843
0.970428 0.138735 0.108492
1.000000 0.142061 0.124269
1.000000 0.150057 0.140963
1.000000 0.163485 0.157839
1.000000 0.181033 0.176181
1.000000 0.204318 0.196811
1.000000 0.233799 0.219699
0.061433 0.123384 0.096986
0.061433 0.123384 0.096986
0.069947 0.123690 0.096864
0.082918 0.123812 0.097536
0.093324 0.125093 0.097505
0.106142 0.127993 0.096284
0.123934 0.132174 0.093385
0.144656 0.135409 0.093202
0.167056 0.137819 0.092958
0.187655 0.138216 0.093111
0.210880 0.139193 0.093599
0.236759 0.141085 0.093874
0.268742 0.144808 0.094087
0.305638 0.149294 0.093507
0.348241 0.153811 0.091920
0.394476 0.158999 0.090669
0.446204 0.163851 0.089448
0.508965 0.170199 0.083894
0.581537 0.176455 0.071351
0.653620 0.180728 0.051850
0.722225 0.183413 0.035798
0.784787 0.184634 0.024659
0.840696 0.183932 0.025940
0.890593 0.182742 0.040589
0.932769 0.182193 0.068025
0.967773 0.181827 0.094636
0.997742 0.183719 0.112367
1.000000 0.187839 0.130037
1.000000 0.195743 0.148898
1.000000 0.208072 0.168185
1.000000 0.225711 0.188998
1.000000 0.249638 0.211704
0.065797 0.137240 0.103456
0.067781 0.137179 0.103456
0.074739 0.137240 0.103761
0.085634 0.137575 0.103944
0.095216 0.138186 0.104372
0.106905 0.141024 0.103548
0.122683 0.145052 0.101961
0.143648 0.150271 0.099092
0.167239 0.154818 0.098543
0.194644 0.159609 0.096742
0.219425 0.161288 0.096040
0.246616 0.163973 0.095796
0.277409 0.166934 0.095583
0.313573 0.171176 0.094057
0.357000 0.177768 0.091646
0.406714 0.184634 0.087160
0.468269 0.193729 0.071290
0.535729 0.202884 0.049897
0.603723 0.210727 0.027283
0.670924 0.216373 0.006439
0.734646 0.220340 0.000000
0.792782 0.222751 0.000000
0.845731 0.223117 0.000000
0.893309 0.223026 0.000000
0.933806 0.222324 0.019501
0.967834 0.221592 0.063325
0.997375 0.221988 0.097383
1.000000 0.223880 0.118746
1.000000 0.229160 0.138643
1.000000 0.237705 0.158907
1.000000 0.250919 0.180941
1.000000 0.269963 0.204196
0.070680 0.153048 0.109224
0.072663 0.152987 0.109224
0.079042 0.153048 0.109468
0.088350 0.153323 0.109651
0.096895 0.153872 0.110048
0.108064 0.155337 0.110170
0.123690 0.159457 0.108278
0.143038 0.165225 0.106355
0.167636 0.172122 0.102998
0.194644 0.178103 0.101503
0.228428 0.186069 0.098634
0.257939 0.189334 0.095796
0.290227 0.193484 0.094697
0.326390 0.198215 0.092805
0.367651 0.203952 0.088991
0.423743 0.214694 0.078126
0.488838 0.227054 0.050324
0.558099 0.238621 0.014130
0.628260 0.248356 0.000000
0.693324 0.255375 0.000000
0.751247 0.259281 0.000000
0.803464 0.260746 0.000000
0.851499 0.261540 0.000000
0.894987 0.260807 0.000000
0.932555 0.259373 0.000000
0.965301 0.258000 0.000000
0.994385 0.256718 0.056306
1.000000 0.257359 0.099062
1.000000 0.260380 0.123354
1.000000 0.266300 0.146853
1.000000 0.276371 0.169741
1.000000 0.291783 0.195254
0.071717 0.170230 0.114107
0.073701 0.170199 0.114107
0.079255 0.170443 0.114321
0.088838 0.170840 0.114748
0.098482 0.171389 0.115084
0.110048 0.172457 0.115541
0.124971 0.176181 0.114626
0.144350 0.182345 0.112276
0.168032 0.190097 0.109041
0.198276 0.199924 0.104677
0.230259 0.208072 0.101808
0.272740 0.220371 0.096071
0.308171 0.225803 0.091005
0.350286 0.233921 0.086458
0.398047 0.243015 0.075319
0.451392 0.252873 0.051270
0.510002 0.263066 0.019593
0.576898 0.275608 0.000000
0.643397 0.286137 0.000000
0.706844 0.293797 0.000000
0.764584 0.297978 0.000000
0.814878 0.299718 0.000000
0.859953 0.299962 0.000000
0.900664 0.298863 0.000000
0.936339 0.296880 0.000000
0.967712 0.294774 0.000000
0.995972 0.292851 0.000000
1.000000 0.292332 0.057740
1.000000 0.293339 0.105806
1.000000 0.297429 0.133120
1.000000 0.304875 0.159243
1.000000 0.316960 0.185977
0.068086 0.191104 0.118715
0.069337 0.191226 0.118654
0.079011 0.191379 0.118868
0.088899 0.191989 0.119173
0.099611 0.192569 0.119448
0.112093 0.193851 0.119783
0.127291 0.196262 0.119966
0.147066 0.202884 0.117952
0.171206 0.211582 0.114534
0.201175 0.222263 0.109712
0.238743 0.235935 0.102541
0.280522 0.249485 0.097108
0.372045 0.295262 0.057221
0.427405 0.308812 0.015625
0.484535 0.320745 0.000000
0.542748 0.331273 0.000000
0.601251 0.339910 0.000000
0.657923 0.345739 0.000000
0.715358 0.351568 0.000000
0.770260 0.355993 0.000000
0.819760 0.357275 0.000000
0.864134 0.356512 0.000000
0.903624 0.354101 0.000000
0.937407 0.349889 0.000000
0.966308 0.345617 0.000000
0.992493 0.341375 0.000000
1.000000 0.337865 0.000000
1.000000 0.335882 0.028717
1.000000 0.335332 0.099825
1.000000 0.337682 0.130678
1.000000 0.343267 0.158785
1.000000 0.353307 0.187503
0.056306 0.221134 0.123384
0.062287 0.221073 0.123384
0.071504 0.221073 0.123354
0.087495 0.221408 0.123690
0.099367 0.222080 0.123873
0.115145 0.222995 0.124178
0.132204 0.224399 0.124758
0.153262 0.231479 0.123354
0.180728 0.242924 0.119387
0.214542 0.257450 0.114076
0.257145 0.276402 0.104280
0.310582 0.299748 0.088350
0.370092 0.322942 0.051698
0.455055 0.359106 0.000000
0.516564 0.373907 0.000000
0.574090 0.383642 0.000000
0.628626 0.390295 0.000000
0.679896 0.393805 0.000000
0.727871 0.394751 0.000000
0.772030 0.393408 0.000000
0.818570 0.394202 0.000000
0.861326 0.393072 0.000000
0.899687 0.390417 0.000000
0.933898 0.386206 0.000000
0.964446 0.381262 0.000000
0.991485 0.375952 0.000000
1.000000 0.371740 0.000000
1.000000 0.368505 0.000000
1.000000 0.367010 0.030701
1.000000 0.367773 0.106020
1.000000 0.371283 0.140658
1.000000 0.378668 0.173037
0.037903 0.252934 0.126375
0.042603 0.252781 0.126406
0.055787 0.252750 0.126375
0.080110 0.253269 0.126589
0.098207 0.253971 0.126680
0.116548 0.255314 0.126955
0.136507 0.257298 0.127169
0.158389 0.261479 0.127230
0.186770 0.273228 0.123079
0.221347 0.288701 0.116426
0.264622 0.308659 0.105287
0.318761 0.334081 0.083864
0.384039 0.363745 0.009491
0.453742 0.391516 0.000000
0.546532 0.430823 0.000000
0.604761 0.440681 0.000000
0.656367 0.444587 0.000000
0.702632 0.445014 0.000000
0.746029 0.443183 0.000000
0.786282 0.439582 0.000000
0.824033 0.434760 0.000000
0.861997 0.430884 0.000000
0.898924 0.427771 0.000000
0.932280 0.423346 0.000000
0.962341 0.418067 0.000000
0.989899 0.412482 0.000000
1.000000 0.406928 0.000000
1.000000 0.402319 0.000000
1.000000 0.399725 0.000000
1.000000 0.398901 0.045472
1.000000 0.400671 0.117983
1.000000 0.405890 0.156497
0.005066 0.290654 0.126925
0.011017 0.290623 0.126925
0.025635 0.290410 0.126955
0.058259 0.290471 0.127047
0.093233 0.290867 0.127169
0.115724 0.291752 0.127504
0.139437 0.293584 0.127565
0.163333 0.296544 0.127749
0.192630 0.306432 0.124147
0.228550 0.322759 0.116670
0.272923 0.344060 0.103151
0.326757 0.370520 0.072053
0.391974 0.401831 0.000000
0.464820 0.434333 0.000000
0.539727 0.463142 0.000000
0.628290 0.496956 0.000000
0.682155 0.501915 0.000000
0.725795 0.499214 0.000000
0.765164 0.494270 0.000000
0.801877 0.488075 0.000000
0.836728 0.481361 0.000000
0.869566 0.474037 0.000000
0.900206 0.466224 0.000000
0.931701 0.460456 0.000000
0.960937 0.454658 0.000000
0.988128 0.448707 0.000000
1.000000 0.443305 0.000000
1.000000 0.438270 0.000000
1.000000 0.434241 0.000000
1.000000 0.431739 0.000000
1.000000 0.432410 0.086793
1.000000 0.436316 0.140444
0.000000 0.330755 0.124117
0.000000 0.330877 0.124025
0.000000 0.330999 0.124147
0.022492 0.331548 0.123934
0.079957 0.332311 0.124086
0.113069 0.333928 0.123842
0.140993 0.336614 0.123720
0.169741 0.340551 0.123781
0.200320 0.347021 0.122042
0.238590 0.364904 0.111971
0.283940 0.386450 0.094820
0.337285 0.412146 0.038605
0.399054 0.441138 0.000000
0.468940 0.472694 0.000000
0.542473 0.502373 0.000000
0.615625 0.527550 0.000000
0.693751 0.552056 0.000000
0.742947 0.552789 0.000000
0.780789 0.545525 0.000000
0.815427 0.537133 0.000000
0.847990 0.528405 0.000000
0.878752 0.519249 0.000000
0.907591 0.509911 0.000000
0.934752 0.500542 0.000000
0.961089 0.491981 0.000000
0.988251 0.485786 0.000000
1.000000 0.480140 0.000000
1.000000 0.475105 0.000000
1.000000 0.470771 0.000000
1.000000 0.467597 0.000000
1.000000 0.465461 0.028290
1.000000 0.465553 0.113832
0.000000 0.374304 0.115969
0.000000 0.374334 0.115938
0.000000 0.374731 0.115846
0.000000 0.375280 0.115816
0.033845 0.376410 0.115846
0.104799 0.378241 0.115206
0.139742 0.381079 0.114809
0.172885 0.385168 0.113863
0.206332 0.390295 0.112642
0.244266 0.403784 0.103548
0.290623 0.425391 0.078096
0.342931 0.450111 0.000000
0.402502 0.477852 0.000000
0.468391 0.507225 0.000000
0.539635 0.537163 0.000000
0.611170 0.563165 0.000000
0.681239 0.584680 0.000000
0.749874 0.601038 0.000000
0.795621 0.599023 0.000000
0.828305 0.587762 0.000000
0.858854 0.576562 0.000000
0.887388 0.565454 0.000000
0.914427 0.554528 0.000000
0.940185 0.543664 0.000000
0.964874 0.533471 0.000000
0.988952 0.523705 0.000000
1.000000 0.516960 0.000000
1.000000 0.511742 0.000000
1.000000 0.507408 0.000000
1.000000 0.504021 0.000000
1.000000 0.501793 0.052979
1.000000 0.501244 0.122164
0.000000 0.423957 0.099580
0.000000 0.424598 0.099306
0.000000 0.450629 0.086366
0.000000 0.451423 0.086061
0.000000 0.452644 0.084993
0.085145 0.454383 0.083009
0.140963 0.457038 0.081117
0.184054 0.460639 0.077668
0.224491 0.465553 0.069368
0.264897 0.472877 0.055818
0.313939 0.494057 0.000000
0.368139 0.517723 0.000000
0.427039 0.542473 0.000000
0.489937 0.567651 0.000000
0.555657 0.592187 0.000000
0.623590 0.615778 0.000000
0.690455 0.634943 0.000000
0.755489 0.651026 0.000000
0.811612 0.656489 0.000000
0.850065 0.648371 0.000000
0.877104 0.632868 0.000000
0.903075 0.618311 0.000000
0.927306 0.604578 0.000000
0.950805 0.591760 0.000000
0.973541 0.579553 0.000000
0.995911 0.568322 0.000000
1.000000 0.558099 0.000000
1.000000 0.549157 0.000000
1.000000 0.544213 0.000000
1.000000 0.540368 0.000000
1.000000 0.537957 0.088472
1.000000 0.537224 0.138064
0.000000 0.483314 0.037049
0.000000 0.485847 0.031769
0.000000 0.488930 0.027375
0.000000 0.492012 0.022248
0.000000 0.494942 0.016571
0.024109 0.497383 0.013092
0.130922 0.500053 0.008301
0.180484 0.503136 0.002960
0.224277 0.507439 0.000000
0.266056 0.512749 0.000000
0.312016 0.526452 0.000000
0.364324 0.547875 0.000000
0.420508 0.570123 0.000000
0.479133 0.592554 0.000000
0.540856 0.614893 0.000000
0.605035 0.636713 0.000000
0.670314 0.657374 0.000000
0.733852 0.673976 0.000000
0.795743 0.687892 0.000000
0.844724 0.688533 0.000000
0.880888 0.679438 0.000000
0.906340 0.663600 0.000000
0.930785 0.648463 0.000000
0.953704 0.634546 0.000000
0.975860 0.621759 0.000000
0.997711 0.609827 0.000000
1.000000 0.598901 0.000000
1.000000 0.589044 0.000000
1.000000 0.580621 0.000000
1.000000 0.575006 0.000000
1.000000 0.572381 0.102937
1.000000 0.571649 0.154330
0.000000 0.529839 0.000000
0.000000 0.532555 0.000000
0.000000 0.535607 0.000000
0.000000 0.538781 0.000000
0.000000 0.541802 0.000000
0.000000 0.544091 0.000000
0.118349 0.546563 0.000000
0.176577 0.549401 0.000000
0.224155 0.553002 0.000000
0.268772 0.557397 0.000000
0.312261 0.563073 0.000000
0.363500 0.581964 0.000000
0.417060 0.601556 0.000000
0.472908 0.621576 0.000000
0.531182 0.641657 0.000000
0.591333 0.661189 0.000000
0.652949 0.680018 0.000000
0.714595 0.697292 0.000000
0.773739 0.710323 0.000000
0.831418 0.721675 0.000000
0.874357 0.718257 0.000000
0.908385 0.708583 0.000000
0.932647 0.692714 0.000000
0.955962 0.677790 0.000000
0.977874 0.664088 0.000000
0.999084 0.651423 0.000000
1.000000 0.639918 0.000000
1.000000 0.629603 0.000000
1.000000 0.620691 0.000000
1.000000 0.613092 0.066590
1.000000 0.607111 0.124117
1.000000 0.605982 0.174899
0.000000 0.577569 0.000000
0.000000 0.579828 0.000000
0.000000 0.582422 0.000000
0.000000 0.585229 0.000000
0.000000 0.587640 0.000000
0.000000 0.589776 0.000000
0.100069 0.591852 0.000000
0.170809 0.594263 0.000000
0.223819 0.597314 0.000000
0.270268 0.600977 0.000000
0.314977 0.605524 0.000000
0.361975 0.616236 0.000000
0.414282 0.633539 0.000000
0.467750 0.651209 0.000000
0.523064 0.669032 0.000000
0.580194 0.686763 0.000000
0.638239 0.703639 0.000000
0.696925 0.719478 0.000000
0.755581 0.734279 0.000000
0.811734 0.745510 0.000000
0.866636 0.755734 0.000000
0.905913 0.750881 0.000000
0.938598 0.742031 0.000000
0.962219 0.727077 0.000000
0.984741 0.712947 0.000000
1.000000 0.699763 0.000000
1.000000 0.688075 0.000000
1.000000 0.677577 0.105196
1.000000 0.668635 0.145846
1.000000 0.661219 0.178317
1.000000 0.655482 0.209842
1.000000 0.651514 0.242588
0.000000 0.636866 0.000000
0.000000 0.637812 0.000000
0.000000 0.638697 0.000000
0.000000 0.639643 0.000000
0.000000 0.640558 0.000000
0.000000 0.641444 0.000000
0.086580 0.642725 0.000000
0.169284 0.644434 0.000000
0.225620 0.646815 0.000000
0.275700 0.649958 0.000000
0.321752 0.653712 0.000000
0.366766 0.657801 0.000000
0.416846 0.672419 0.000000
0.468879 0.687678 0.000000
0.521569 0.702571 0.000000
0.575372 0.717098 0.000000
0.629328 0.730800 0.000000
0.683955 0.743893 0.000000
0.738186 0.756130 0.000000
0.792813 0.767819 0.000000
0.844755 0.776577 0.000000
0.895750 0.785092 0.000000
0.930846 0.778683 0.000000
0.960906 0.769680 0.000000
0.982696 0.754879 0.067506
1.000000 0.740993 0.106447
1.000000 0.728450 0.139773
1.000000 0.717830 0.178103
1.000000 0.708705 0.209689
1.000000 0.701076 0.239231
1.000000 0.695155 0.269108
1.000000 0.691066 0.300847
0.000000 0.679683 0.000000
0.000000 0.680476 0.000000
0.000000 0.681239 0.000000
0.000000 0.682033 0.000000
0.000000 0.682856 0.000000
0.000000 0.683680 0.000000
0.077424 0.684779 0.000000
0.169772 0.686244 0.000000
0.228092 0.688258 0.000000
0.278325 0.690791 0.000000
0.325200 0.693843 0.000000
0.370214 0.697292 0.000000
0.417243 0.704952 0.000000
0.466926 0.717586 0.000000
0.517357 0.730159 0.000000
0.568109 0.742306 0.000000
0.619562 0.754177 0.000000
0.670863 0.765499 0.000000
0.722408 0.776394 0.000000
0.774258 0.787106 0.000000
0.825711 0.797482 0.000000
0.874907 0.805447 0.000000
0.922484 0.813230 0.000000
0.953582 0.806332 0.167086
0.978180 0.794217 0.203830
0.998383 0.779843 0.211093
1.000000 0.766934 0.222538
1.000000 0.755184 0.238224
1.000000 0.745907 0.267765
1.000000 0.738125 0.296056
1.000000 0.732204 0.325841
1.000000 0.728176 0.356695
0.000000 0.727016 0.000000
0.000000 0.728084 0.000000
0.000000 0.728695 0.000000
0.000000 0.728878 0.000000
0.000000 0.728725 0.000000
0.000000 0.728450 0.000000
0.104341 0.728237 0.000000
0.180789 0.728267 0.000000
0.236790 0.728695 0.000000
0.285496 0.729671 0.000000
0.331060 0.730892 0.000000
0.375341 0.732692 0.000000
0.418280 0.734737 0.000000
0.465126 0.743862 0.000000
0.512291 0.753445 0.000000
0.560021 0.763058 0.000000
0.608240 0.772671 0.000000
0.656672 0.782315 0.000000
0.705562 0.792203 0.000000
0.754879 0.802213 0.000000
0.804288 0.812314 0.000000
0.852842 0.821744 0.000000
0.898650 0.828733 0.101045
0.941985 0.835325 0.188174
0.968902 0.827420 0.263951
0.993011 0.818936 0.308476
1.000000 0.804990 0.310643
1.000000 0.792782 0.317815
1.000000 0.781796 0.328038
1.000000 0.773495 0.353368
1.000000 0.767117 0.380011
1.000000 0.762875 0.408637
0.000000 0.759548 0.000000
0.000000 0.760403 0.000000
0.000000 0.761074 0.000000
0.000000 0.761440 0.000000
0.000000 0.761624 0.000000
0.000000 0.761898 0.000000
0.141543 0.762295 0.000000
0.203403 0.762905 0.000000
0.253544 0.763851 0.000000
0.299657 0.765072 0.000000
0.343816 0.766384 0.000000
0.386786 0.767910 0.000000
0.428626 0.769436 0.000000
0.471321 0.773556 0.000000
0.516106 0.781216 0.000000
0.561212 0.789029 0.000000
0.606592 0.797024 0.000000
0.652216 0.805356 0.000000
0.698512 0.814054 0.000000
0.745022 0.823026 0.017700
0.791379 0.832059 0.107271
0.837247 0.840879 0.149233
0.881743 0.848722 0.193362
0.923064 0.854582 0.255924
0.961608 0.859983 0.310430
0.984405 0.851682 0.367041
1.000000 0.843900 0.406836
1.000000 0.831113 0.408301
1.000000 0.820371 0.415106
1.000000 0.810880 0.425330
1.000000 0.804074 0.445899
1.000000 0.799680 0.470375
0.000000 0.794308 0.000000
0.000000 0.794705 0.000000
0.000000 0.794980 0.000000
0.000000 0.795102 0.000000
0.084352 0.795132 0.000000
0.147494 0.795163 0.000000
0.195865 0.795315 0.000000
0.240269 0.795560 0.000000
0.282170 0.796048 0.000000
0.323156 0.796780 0.000000
0.363836 0.797635 0.000000
0.403693 0.798734 0.000000
0.443030 0.799863 0.000000
0.482094 0.800992 0.003113
0.523674 0.806790 0.053162
0.566094 0.813443 0.093874
0.608453 0.820310 0.117189
0.651453 0.827604 0.139651
0.694911 0.835264 0.163699
0.738308 0.843168 0.190005
0.781460 0.851102 0.216709
0.824094 0.858762 0.243687
0.865812 0.865995 0.270054
0.905852 0.872038 0.305089
0.942473 0.876432 0.353552
0.976379 0.880461 0.397314
0.995483 0.871733 0.441840
1.000000 0.864042 0.476143
1.000000 0.852140 0.476905
1.000000 0.842954 0.484810
1.000000 0.835386 0.496437
1.000000 0.830137 0.514702
0.146761 0.825132 0.000000
0.151217 0.825437 0.000000
0.161410 0.825772 0.000000
0.178714 0.826017 0.000000
0.202365 0.826352 0.000000
0.230838 0.826902 0.018860
0.263432 0.827970 0.058717
0.297826 0.829313 0.095552
0.333715 0.831083 0.116579
0.370855 0.833097 0.138125
0.408576 0.835294 0.159609
0.446143 0.837461 0.180484
0.483497 0.839597 0.200992
0.520287 0.841428 0.221195
0.557488 0.844633 0.239384
0.595758 0.850370 0.254612
0.634028 0.856077 0.270359
0.672602 0.861997 0.287266
0.711330 0.868101 0.305455
0.750149 0.874327 0.325628
0.788571 0.880461 0.346654
0.826352 0.886351 0.367468
0.863188 0.891722 0.387945
0.898894 0.896635 0.407813
0.932738 0.900328 0.434089
0.963470 0.902861 0.468666
0.991821 0.905150 0.500420
1.000000 0.896086 0.533593
1.000000 0.888579 0.561822
1.000000 0.878294 0.562921
1.000000 0.871153 0.571344
1.000000 0.865782 0.583154
0.300725 0.866697 0.230014
0.301488 0.866728 0.230320
0.305241 0.866697 0.230716
0.311864 0.866606 0.231968
0.322911 0.866514 0.233738
0.337407 0.866514 0.236393
0.356207 0.866636 0.240787
0.378485 0.866941 0.246891
0.403510 0.867491 0.255192
0.430945 0.868101 0.264561
0.460090 0.868925 0.276127
0.490486 0.869841 0.288426
0.521660 0.870817 0.302312
