20 Preset/Human Style/【3】LUT video cho PR-AE-FCPX/Joe-Allam (2)/JA – Night Pop 1 (Classic Chrome).cube
# Created by Adobe Lightroom plugin Export LUT (1.24.0)
# www.johnrellis.com/lightroom/exportlut.htm
# Preset: JA – Night Pop 1 (Classic Chrome)
# Color profile: E:\lut插件\exportlut.1.24\exportlut.lrplugin\color profiles\Rec709gamma2.4.icc
LUT_3D_SIZE 8
DOMAIN_MIN 0.000000 0.000000 0.000000
DOMAIN_MAX 0.903226 0.903226 0.903226
0.088197 0.098482 0.105684
0.113130 0.095460 0.105928
0.306523 0.000000 0.102876
0.618189 0.000000 0.027802
0.879118 0.000000 0.000000
1.000000 0.000000 0.000000
1.000000 0.000000 0.000000
1.000000 0.000000 0.000000
0.065064 0.114229 0.104067
0.106874 0.112398 0.108553
0.275914 0.117830 0.097963
0.574762 0.095064 0.000000
0.843626 0.000000 0.000000
1.000000 0.000000 0.000000
1.000000 0.000000 0.000000
1.000000 0.000000 0.000000
0.000000 0.236698 0.045106
0.107912 0.234165 0.049439
0.215610 0.205173 0.110079
0.467689 0.291325 0.122530
0.815000 0.349554 0.000000
1.000000 0.336278 0.000000
1.000000 0.300847 0.000000
1.000000 0.247654 0.000000
0.000000 0.489021 0.000000
0.000000 0.483253 0.000000
0.324926 0.469368 0.000000
0.487526 0.441840 0.000000
0.775906 0.531701 0.196658
0.974212 0.558953 0.302495
1.000000 0.525658 0.249363
1.000000 0.472328 0.189975
0.000000 0.728817 0.000000
0.000000 0.725521 0.000000
0.329229 0.715145 0.000000
0.561517 0.677638 0.000000
0.698085 0.619532 0.093660
0.891447 0.654627 0.326940
1.000000 0.695705 0.504051
1.000000 0.691890 0.532799
0.000000 0.873350 0.000000
0.000000 0.879240 0.000000
0.270939 0.872923 0.000000
0.551354 0.850004 0.000000
0.738430 0.808591 0.000000
0.862364 0.760769 0.303349
0.998413 0.782650 0.501610
1.000000 0.811612 0.654536
0.000000 0.973175 0.000000
0.000000 0.973175 0.000000
0.206119 0.968109 0.000000
0.501610 0.957519 0.000000
0.709895 0.932708 0.049683
0.871153 0.903807 0.318975
0.977173 0.870268 0.479805
1.000000 0.871031 0.646937
0.000000 1.000000 0.000000
0.000000 1.000000 0.000000
0.030121 1.000000 0.000000
0.435523 1.000000 0.000000
0.645899 1.000000 0.000000
0.829129 0.991424 0.351293
0.965698 0.975402 0.547906
1.000000 0.955901 0.693629
0.080659 0.099092 0.121157
0.093843 0.097261 0.120912
0.254063 0.005493 0.118593
0.530358 0.000000 0.067933
0.819944 0.000000 0.000000
1.000000 0.000000 0.000000
1.000000 0.000000 0.000000
1.000000 0.000000 0.000000
0.057527 0.109834 0.122042
0.100649 0.112001 0.120577
0.246067 0.111818 0.111330
0.524224 0.119173 0.030579
0.809873 0.125978 0.000000
1.000000 0.018128 0.000000
1.000000 0.000000 0.000000
1.000000 0.000000 0.000000
0.000000 0.223819 0.111116
0.044770 0.222171 0.110719
0.206119 0.200015 0.129641
0.440620 0.275273 0.140902
0.769528 0.330938 0.000000
0.989807 0.330388 0.000000
1.000000 0.294041 0.000000
1.000000 0.240665 0.000000
0.000000 0.457252 0.000000
0.000000 0.455024 0.000000
0.287602 0.442847 0.000000
0.433753 0.397986 0.109010
0.704799 0.483009 0.198978
0.919799 0.515190 0.252506
1.000000 0.495216 0.175143
1.000000 0.450477 0.096956
0.000000 0.714778 0.000000
0.000000 0.709682 0.000000
0.285130 0.698329 0.000000
0.530846 0.653223 0.000000
0.661067 0.590265 0.137270
0.860044 0.630945 0.321111
1.000000 0.676081 0.482734
1.000000 0.671901 0.499702
0.000000 0.858640 0.000000
0.000000 0.857603 0.000000
0.216678 0.852293 0.000000
0.526909 0.832853 0.000000
0.718776 0.793149 0.053346
0.846525 0.748898 0.313420
0.987762 0.773587 0.499245
1.000000 0.800778 0.637263
0.000000 0.964141 0.000000
0.000000 0.961761 0.000000
0.138125 0.956390 0.000000
0.481880 0.947417 0.000000
0.697627 0.924529 0.127810
0.859525 0.894621 0.320775
0.963989 0.857755 0.466072
1.000000 0.858762 0.621912
0.000000 1.000000 0.000000
0.000000 1.000000 0.000000
0.000000 1.000000 0.000000
0.425940 1.000000 0.000000
0.650599 1.000000 0.169741
0.829740 0.992432 0.383001
0.963806 0.974334 0.542107
1.000000 0.954284 0.688685
0.000000 0.103609 0.264073
0.000000 0.103609 0.264073
0.207736 0.022736 0.243900
0.501640 0.000000 0.307408
0.810575 0.000000 0.241581
1.000000 0.000000 0.126741
1.000000 0.000000 0.000000
1.000000 0.000000 0.000000
0.000000 0.127016 0.261234
0.000000 0.122805 0.258335
0.203830 0.095735 0.238895
0.489815 0.000000 0.280735
0.804715 0.000000 0.177554
1.000000 0.000000 0.119295
1.000000 0.000000 0.000000
1.000000 0.000000 0.000000
0.000000 0.234836 0.259312
0.000000 0.230869 0.254002
0.194125 0.214786 0.230503
0.498909 0.217685 0.214328
0.814542 0.222751 0.177035
1.000000 0.212070 0.089845
1.000000 0.193332 0.000000
1.000000 0.169772 0.000000
0.000000 0.469215 0.277379
0.000000 0.470497 0.259617
0.131991 0.466377 0.219150
0.441779 0.418830 0.262333
0.712520 0.500542 0.362951
0.943725 0.512474 0.346044
1.000000 0.485512 0.291875
1.000000 0.438361 0.194553
0.000000 0.713344 0.197574
0.000000 0.710658 0.196719
0.000000 0.701930 0.194156
0.508385 0.670375 0.235111
0.666987 0.606439 0.310674
0.858610 0.647120 0.442847
0.999481 0.691279 0.551629
1.000000 0.672358 0.523491
0.000000 0.856870 0.223575
0.000000 0.856443 0.225803
0.000000 0.850309 0.224216
0.491524 0.834958 0.238254
0.703182 0.792782 0.315496
0.833188 0.747097 0.410956
0.977996 0.778042 0.558007
1.000000 0.808011 0.667720
0.000000 0.965820 0.303990
0.000000 0.963806 0.298558
0.096834 0.957702 0.286809
0.468574 0.948821 0.279973
0.689662 0.926360 0.345953
0.854276 0.897185 0.430182
0.961700 0.863767 0.530724
1.000000 0.867460 0.657649
0.000000 1.000000 0.307927
0.000000 1.000000 0.302983
0.120516 1.000000 0.299657
0.440436 1.000000 0.308659
0.649500 1.000000 0.360113
0.828305 0.993408 0.472877
0.961334 0.976165 0.574426
1.000000 0.955932 0.692134
0.000000 0.108431 0.546075
0.000000 0.108553 0.551965
0.105989 0.000000 0.532738
0.421790 0.000000 0.478584
0.744625 0.000000 0.529808
0.996735 0.000000 0.483345
1.000000 0.000000 0.381598
1.000000 0.000000 0.290745
0.000000 0.152193 0.558831
0.000000 0.165469 0.558953
0.000000 0.036744 0.534386
0.425788 0.000000 0.482307
0.756252 0.000000 0.529778
0.995636 0.000000 0.471412
1.000000 0.000000 0.370031
1.000000 0.000000 0.293523
0.000000 0.331334 0.550439
0.000000 0.319158 0.546654
0.000000 0.254002 0.521630
0.411078 0.163180 0.466957
0.767056 0.000000 0.498634
0.999725 0.000000 0.428992
1.000000 0.000000 0.381048
1.000000 0.000000 0.326513
0.000000 0.501061 0.542107
0.000000 0.497566 0.538262
0.000000 0.481697 0.518944
0.405158 0.434546 0.459968
0.742397 0.445838 0.460517
0.960418 0.444099 0.447730
1.000000 0.424903 0.415290
1.000000 0.373327 0.339483
0.000000 0.728450 0.534112
0.000000 0.724208 0.526879
0.000000 0.710658 0.506523
0.436103 0.688014 0.496773
0.656886 0.627131 0.507103
0.849851 0.680476 0.600671
1.000000 0.695613 0.611139
1.000000 0.667140 0.578088
0.000000 0.867887 0.518822
0.000000 0.871061 0.529198
0.000000 0.859373 0.533165
0.472602 0.848173 0.528862
0.700343 0.814328 0.533501
0.824277 0.760037 0.556176
0.968017 0.795377 0.655512
1.000000 0.827054 0.733486
0.000000 0.964019 0.553552
0.000000 0.963531 0.554131
0.257725 0.959899 0.552392
0.497810 0.952819 0.548730
0.692348 0.937285 0.549187
0.850431 0.906828 0.574548
0.953979 0.871000 0.619471
1.000000 0.878264 0.716701
0.112154 1.000000 0.557641
0.186313 1.000000 0.556329
0.336675 1.000000 0.552819
0.498451 1.000000 0.548455
0.657496 1.000000 0.540795
0.825010 0.994995 0.589197
0.954833 0.978393 0.650050
1.000000 0.960235 0.732998
0.000000 0.119203 0.770352
0.000000 0.119570 0.773037
0.000000 0.013092 0.766659
0.371954 0.000000 0.740566
0.642420 0.000000 0.693568
0.936126 0.000000 0.706935
1.000000 0.000000 0.649714
1.000000 0.000000 0.577661
0.000000 0.149050 0.775845
0.000000 0.168490 0.779049
0.000000 0.106569 0.770474
0.359442 0.000000 0.741146
0.646296 0.000000 0.696803
0.936126 0.000000 0.704555
1.000000 0.000000 0.646693
1.000000 0.000000 0.577203
0.000000 0.380682 0.780789
0.000000 0.368963 0.778988
0.000000 0.310613 0.765774
0.306706 0.213809 0.735073
0.641260 0.000000 0.691066
0.914641 0.000000 0.683955
1.000000 0.000000 0.631403
1.000000 0.000000 0.571557
0.000000 0.537072 0.768246
0.000000 0.533989 0.767147
0.000000 0.528130 0.762020
0.358892 0.512261 0.735958
0.633539 0.406622 0.679866
0.896025 0.434455 0.669429
1.000000 0.404181 0.621424
1.000000 0.394446 0.573327
0.000000 0.715694 0.750118
0.000000 0.714504 0.748348
0.000000 0.705928 0.737484
0.277470 0.683345 0.710414
0.603204 0.621424 0.643824
0.858091 0.633448 0.649653
1.000000 0.632715 0.643153
1.000000 0.605280 0.610163
0.000000 0.853483 0.687404
0.000000 0.851957 0.686000
0.000000 0.841062 0.678126
0.250431 0.823941 0.668513
0.621790 0.797147 0.656611
0.786007 0.752041 0.661860
0.947509 0.806394 0.742092
1.000000 0.818204 0.757778
0.000000 0.967498 0.664027
0.000000 0.965118 0.664210
0.000000 0.957427 0.668940
0.455665 0.945678 0.690852
0.665431 0.934752 0.689296
0.827512 0.908263 0.685237
0.932006 0.867399 0.694667
1.000000 0.881346 0.769558
0.000000 1.000000 0.649805
0.000000 1.000000 0.657588
0.365942 1.000000 0.687648
0.534325 1.000000 0.696986
0.669429 1.000000 0.691066
0.811307 0.994598 0.692622
0.939361 0.977020 0.720516
1.000000 0.957794 0.771542
0.000000 0.151766 0.914275
0.000000 0.152041 0.915190
0.000000 0.145846 0.912535
0.000000 0.000000 0.899718
0.549798 0.000000 0.876951
0.817685 0.000000 0.848142
1.000000 0.000000 0.837339
1.000000 0.000000 0.775845
0.000000 0.149722 0.907164
0.000000 0.153414 0.907073
0.000000 0.165988 0.904692
0.000000 0.000000 0.892302
0.540612 0.000000 0.871336
0.807248 0.000000 0.838712
1.000000 0.000000 0.829282
1.000000 0.000000 0.771267
0.000000 0.381933 0.913390
0.000000 0.381537 0.912749
0.000000 0.350896 0.907897
0.000000 0.303014 0.893065
0.532708 0.169131 0.873930
0.806638 0.000000 0.836759
1.000000 0.000000 0.824399
1.000000 0.264256 0.771633
0.000000 0.547631 0.914855
0.000000 0.549248 0.913848
0.000000 0.569512 0.911254
0.348913 0.586084 0.901762
0.588220 0.522942 0.879332
0.814572 0.420203 0.838315
1.000000 0.484443 0.825010
1.000000 0.499763 0.778256
0.000000 0.697139 0.897429
0.000000 0.698238 0.896300
0.000000 0.705653 0.891997
0.384771 0.721401 0.883513
0.644251 0.712459 0.859373
0.786252 0.611231 0.806516
0.996857 0.639277 0.801724
1.000000 0.622492 0.761410
0.000000 0.848173 0.872557
0.000000 0.850034 0.873625
0.000000 0.847318 0.868711
0.140902 0.840238 0.858061
0.577996 0.820615 0.834806
0.761593 0.762692 0.775204
0.974914 0.786069 0.792203
1.000000 0.779599 0.782376
0.000000 0.976593 0.820737
0.000000 0.976104 0.821317
0.000000 0.970397 0.819089
0.000000 0.959411 0.817655
0.601221 0.943328 0.815946
0.809720 0.921447 0.812070
0.916564 0.877592 0.794766
1.000000 0.905028 0.855100
0.000000 1.000000 0.724392
0.000000 1.000000 0.725887
0.000000 1.000000 0.736080
0.231205 1.000000 0.761776
0.670680 1.000000 0.807553
0.812528 0.993256 0.813535
0.925200 0.979004 0.812680
1.000000 0.959228 0.831144
0.000000 0.206851 0.986450
0.000000 0.207004 0.986481
0.000000 0.206760 0.986328
0.000000 0.097383 0.983673
0.343664 0.000000 0.976989
0.673640 0.000000 0.962249
0.923949 0.000000 0.941924
1.000000 0.000000 0.923430
0.000000 0.206760 0.986328
0.000000 0.206760 0.986389
0.000000 0.207156 0.986267
0.000000 0.161593 0.983124
0.338384 0.000000 0.976684
0.671199 0.000000 0.961822
0.923156 0.000000 0.940917
1.000000 0.000000 0.921691
0.000000 0.342657 0.986175
0.000000 0.347082 0.986084
0.000000 0.352331 0.985657
0.000000 0.363409 0.981476
0.359197 0.291875 0.975128
0.668910 0.000000 0.961181
0.922698 0.000000 0.939178
1.000000 0.000000 0.917235
0.000000 0.514488 0.985687
0.000000 0.513817 0.985382
0.000000 0.528527 0.982971
0.000000 0.572229 0.975860
0.499763 0.561089 0.967254
0.692500 0.459907 0.955840
0.920470 0.376715 0.933165
1.000000 0.451850 0.909667
0.000000 0.646815 0.978912
0.000000 0.650507 0.978363
0.000000 0.670985 0.975769
0.346960 0.713161 0.970336
0.632990 0.740719 0.960143
0.743862 0.683406 0.946929
0.916320 0.594293 0.923033
1.000000 0.643885 0.901854
0.000000 0.786007 0.968353
0.000000 0.788083 0.967895
0.000000 0.797330 0.965850
0.252232 0.814755 0.961852
0.647425 0.838437 0.955901
0.821744 0.849882 0.943328
0.910826 0.758572 0.910460
1.000000 0.792264 0.897917
0.000000 0.930724 0.954009
0.000000 0.930999 0.953704
0.000000 0.931731 0.952148
0.000000 0.932708 0.949035
0.567132 0.932586 0.943725
0.789517 0.927184 0.932982
0.891417 0.882322 0.885161
1.000000 0.896880 0.895323
0.000000 1.000000 0.878782
0.000000 1.000000 0.878538
0.000000 1.000000 0.878538
0.000000 1.000000 0.880522
0.434150 1.000000 0.887388
0.774624 0.997375 0.902617
0.918425 0.984680 0.911376
0.991669 0.964508 0.902708
0.000000 0.303166 1.000000
0.000000 0.303166 1.000000
0.000000 0.303014 1.000000
0.000000 0.292760 1.000000
0.000000 0.093263 1.000000
0.489052 0.000000 1.000000
0.765072 0.000000 1.000000
1.000000 0.000000 1.000000
0.000000 0.303166 1.000000
0.000000 0.303288 1.000000
0.000000 0.303166 1.000000
0.000000 0.288365 1.000000
0.000000 0.118044 1.000000
0.487465 0.000000 1.000000
0.763973 0.000000 1.000000
1.000000 0.000000 1.000000
0.000000 0.315648 1.000000
0.000000 0.319402 1.000000
0.000000 0.334966 1.000000
0.000000 0.383215 1.000000
0.000000 0.340795 1.000000
0.500053 0.224491 1.000000
0.762997 0.000000 1.000000
1.000000 0.000000 1.000000
0.000000 0.458991 1.000000
0.000000 0.461189 1.000000
0.000000 0.470130 1.000000
0.000000 0.512291 1.000000
0.412207 0.580041 1.000000
0.585321 0.516747 1.000000
0.777096 0.394873 1.000000
1.000000 0.343450 1.000000
0.000000 0.597772 1.000000
0.000000 0.597528 1.000000
0.000000 0.596246 1.000000
0.000000 0.619776 1.000000
0.541375 0.714626 1.000000
0.699123 0.715969 1.000000
0.810483 0.630701 1.000000
0.997040 0.573754 1.000000
0.000000 0.695247 1.000000
0.000000 0.695064 1.000000
0.000000 0.692348 1.000000
0.000000 0.712551 1.000000
0.504936 0.782742 1.000000
0.795987 0.850675 1.000000
0.865934 0.815854 0.999176
0.992615 0.749599 0.993500
0.000000 0.816373 1.000000
0.000000 0.816068 1.000000
0.000000 0.814572 1.000000
0.000000 0.831388 1.000000
0.402686 0.868101 1.000000
0.784817 0.910063 0.997955
0.925933 0.937835 0.992370
0.986786 0.887266 0.983551
0.000000 0.971130 1.000000
0.000000 0.971557 1.000000
0.000000 0.972839 1.000000
0.000000 0.975463 1.000000
0.000000 0.979431 0.997314
0.724727 0.983185 0.992859
0.907561 0.985992 0.989624
0.977661 0.972900 0.972473
