20 Preset/Human Style/【3】LUT video cho PR-AE-FCPX/Joe-Allam (2)/JA – Cine Night 1 (Classic Chrome).cube
# Created by Adobe Lightroom plugin Export LUT (1.24.0)
# www.johnrellis.com/lightroom/exportlut.htm
# Preset: JA – Cine Night 1 (Classic Chrome)
# Color profile: E:\lut插件\exportlut.1.24\exportlut.lrplugin\color profiles\Rec709gamma2.4.icc
LUT_3D_SIZE 32
DOMAIN_MIN 0.0 0.0 0.0
DOMAIN_MAX 1.0 1.0 1.0
0.000000 0.027771 0.056123
0.000000 0.028748 0.057099
0.001343 0.031464 0.060029
0.014588 0.034241 0.066163
0.032410 0.041901 0.078248
0.053162 0.052491 0.087648
0.081422 0.065339 0.093599
0.099733 0.077852 0.098543
0.121492 0.084138 0.103059
0.150210 0.088533 0.107424
0.186069 0.090028 0.111818
0.229129 0.088594 0.116457
0.279606 0.078523 0.121431
0.336522 0.046906 0.126650
0.398627 0.000000 0.131991
0.464179 0.000000 0.137697
0.531456 0.000000 0.143648
0.598535 0.000000 0.149844
0.663661 0.000000 0.156252
0.728939 0.000000 0.164248
0.789883 0.000000 0.172976
0.842985 0.000000 0.183505
0.889158 0.000000 0.194644
0.931334 0.000000 0.208286
0.970397 0.091341 0.223911
1.000000 0.155734 0.241825
1.000000 0.204227 0.261692
1.000000 0.248020 0.284489
1.000000 0.289647 0.310155
1.000000 0.330968 0.339879
1.000000 0.371801 0.373144
1.000000 0.413458 0.411109
0.000000 0.031373 0.059083
0.000000 0.031159 0.059052
0.002930 0.032441 0.058717
0.015442 0.036439 0.064698
0.033570 0.044099 0.075715
0.054627 0.054688 0.085328
0.081147 0.066560 0.093111
0.099519 0.078706 0.098482
0.121401 0.084871 0.102663
0.149752 0.089082 0.107057
0.184909 0.090822 0.111482
0.228061 0.089479 0.116121
0.278050 0.080659 0.121126
0.334874 0.051240 0.126131
0.396857 0.001801 0.131502
0.461982 0.000000 0.136995
0.529473 0.000000 0.143008
0.596246 0.000000 0.148867
0.661555 0.000000 0.155520
0.726558 0.000000 0.163516
0.786831 0.000000 0.171969
0.839597 0.000000 0.182071
0.885679 0.000000 0.193484
0.927794 0.000000 0.206821
0.967010 0.087098 0.221836
1.000000 0.152438 0.239719
1.000000 0.201022 0.259220
1.000000 0.245090 0.281895
1.000000 0.286931 0.307866
1.000000 0.328222 0.337072
1.000000 0.369116 0.370397
1.000000 0.410620 0.407904
0.000000 0.042695 0.071168
0.000000 0.043671 0.071015
0.000000 0.045197 0.066133
0.013581 0.048981 0.063020
0.033661 0.053285 0.067689
0.055421 0.062684 0.080415
0.083284 0.074342 0.089326
0.100404 0.083558 0.095766
0.122469 0.088899 0.100496
0.150820 0.092256 0.104982
0.186160 0.094240 0.109468
0.228916 0.093385 0.114199
0.278904 0.088197 0.118898
0.335485 0.064881 0.124025
0.397192 0.018067 0.129458
0.462318 0.000000 0.134737
0.529351 0.000000 0.140352
0.596185 0.000000 0.146731
0.661189 0.000000 0.152834
0.726070 0.000000 0.160525
0.785885 0.000000 0.169162
0.838376 0.000000 0.179080
0.884306 0.000000 0.190494
0.926421 0.000000 0.203983
0.965545 0.100282 0.219333
1.000000 0.157473 0.236484
1.000000 0.204349 0.256413
1.000000 0.247288 0.279271
1.000000 0.288243 0.305180
1.000000 0.329107 0.334539
1.000000 0.369390 0.367468
1.000000 0.410681 0.405493
0.000000 0.067750 0.088350
0.000000 0.068727 0.087861
0.000000 0.069032 0.087037
0.000000 0.072297 0.082399
0.024781 0.077394 0.078828
0.055146 0.081147 0.076783
0.085115 0.086946 0.083131
0.103243 0.091371 0.090028
0.125490 0.095460 0.096193
0.153841 0.099123 0.101198
0.189395 0.100984 0.105867
0.232334 0.100923 0.110658
0.282139 0.097169 0.115145
0.338415 0.087648 0.120333
0.399664 0.050752 0.125307
0.464118 0.000000 0.130343
0.530602 0.000000 0.135836
0.596826 0.000000 0.141360
0.661158 0.000000 0.147921
0.725460 0.000000 0.155245
0.784085 0.000000 0.163455
0.835782 0.000000 0.173190
0.881712 0.000000 0.184665
0.924041 0.018799 0.197879
0.963684 0.122316 0.213565
1.000000 0.171267 0.231846
1.000000 0.213962 0.251652
1.000000 0.254612 0.275212
1.000000 0.294194 0.301274
1.000000 0.333532 0.331182
1.000000 0.372717 0.364508
1.000000 0.412634 0.401862
0.000000 0.089418 0.100862
0.000000 0.089784 0.101167
0.000000 0.090059 0.100038
0.000000 0.090455 0.099184
0.003784 0.092256 0.094972
0.036835 0.095033 0.091066
0.079377 0.098421 0.088991
0.104189 0.101961 0.089693
0.127871 0.105684 0.093477
0.157626 0.109499 0.096162
0.193912 0.111727 0.099886
0.236973 0.112886 0.104494
0.286870 0.111055 0.109041
0.343023 0.105257 0.113375
0.403815 0.093874 0.117830
0.468208 0.062287 0.122652
0.534173 0.005402 0.127901
0.600122 0.000000 0.133577
0.664179 0.000000 0.139590
0.727657 0.000000 0.146975
0.785214 0.000000 0.155276
0.836271 0.000000 0.165072
0.881773 0.024201 0.176944
0.924010 0.110964 0.190249
0.963592 0.153750 0.206363
1.000000 0.192508 0.224643
1.000000 0.229770 0.245274
1.000000 0.266667 0.269047
1.000000 0.303624 0.295537
1.000000 0.340826 0.325475
1.000000 0.378424 0.359533
1.000000 0.416785 0.396857
0.000000 0.102785 0.112856
0.000000 0.102724 0.112856
0.000000 0.103334 0.110842
0.000000 0.103365 0.110140
0.000000 0.104189 0.107973
0.008972 0.107149 0.103700
0.052522 0.111666 0.099519
0.097322 0.116030 0.097169
0.129732 0.120455 0.094423
0.161868 0.123751 0.096559
0.199710 0.126406 0.099275
0.244022 0.127993 0.101808
0.294591 0.128328 0.104677
0.350591 0.126162 0.106996
0.411658 0.121340 0.109438
0.475654 0.112825 0.111879
0.541222 0.100710 0.115908
0.606531 0.085573 0.120882
0.670893 0.062501 0.127047
0.733059 0.057038 0.133516
0.789151 0.082094 0.142184
0.839414 0.105623 0.152163
0.902953 0.147951 0.169192
0.943725 0.175937 0.185092
0.981628 0.205539 0.202792
1.000000 0.236088 0.222568
1.000000 0.267399 0.244694
1.000000 0.299535 0.269993
1.000000 0.332586 0.298100
1.000000 0.366033 0.329198
1.000000 0.400763 0.364172
1.000000 0.436347 0.402594
0.000000 0.119631 0.126131
0.000000 0.119570 0.125856
0.000000 0.120394 0.124941
0.000000 0.120424 0.122408
0.000000 0.120760 0.121157
0.000000 0.122957 0.118166
0.014405 0.126925 0.112856
0.082460 0.133089 0.107881
0.122591 0.138521 0.104768
0.164706 0.143404 0.101350
0.211032 0.147219 0.099428
0.257084 0.149508 0.102144
0.308934 0.150362 0.104524
0.365942 0.150240 0.106386
0.426734 0.148348 0.108766
0.490333 0.145022 0.110933
0.555108 0.141604 0.112337
0.619440 0.139010 0.114199
0.684840 0.140017 0.117403
0.746700 0.147707 0.119112
0.802701 0.159396 0.124178
0.852750 0.174136 0.134432
0.897978 0.191623 0.149172
0.940124 0.212924 0.166506
0.979187 0.236545 0.186160
1.000000 0.262058 0.207431
1.000000 0.288945 0.230991
1.000000 0.317388 0.256901
1.000000 0.346838 0.286015
1.000000 0.377386 0.317784
1.000000 0.409308 0.353185
1.000000 0.442695 0.392370
0.000000 0.139651 0.141146
0.000000 0.139620 0.140902
0.000000 0.140505 0.139620
0.000000 0.140810 0.136019
0.000000 0.141115 0.134676
0.000000 0.141207 0.133333
0.000000 0.144961 0.128573
0.028168 0.150149 0.122835
0.106172 0.158053 0.116121
0.153872 0.164614 0.112367
0.205325 0.170504 0.108644
0.262211 0.175357 0.103975
0.318334 0.178195 0.102358
0.375250 0.179599 0.104707
0.435767 0.180117 0.106691
0.498360 0.180575 0.108034
0.561944 0.180484 0.109133
0.627436 0.182864 0.110719
0.690700 0.187900 0.111910
0.750210 0.195071 0.114565
0.804105 0.205356 0.119783
0.853178 0.218814 0.126070
0.897856 0.234257 0.135409
0.939696 0.252354 0.146670
0.978698 0.272313 0.162997
1.000000 0.292821 0.187320
1.000000 0.315465 0.212650
1.000000 0.339513 0.241062
1.000000 0.365484 0.271031
1.000000 0.392798 0.304326
1.000000 0.421729 0.340948
1.000000 0.452308 0.380591
0.000000 0.164645 0.158236
0.000000 0.164797 0.158206
0.000000 0.165499 0.156741
0.000000 0.166201 0.151980
0.000000 0.166384 0.150851
0.000000 0.166384 0.149294
0.000000 0.167300 0.146639
0.000000 0.172824 0.141268
0.066285 0.179141 0.133944
0.137881 0.188754 0.125795
0.194491 0.196902 0.120668
0.253819 0.204288 0.115724
0.318181 0.210636 0.108431
0.386175 0.215763 0.099916
0.446693 0.217685 0.101137
0.509056 0.219638 0.102327
0.573785 0.223087 0.102968
0.636774 0.227359 0.103944
0.697810 0.233555 0.105501
0.755276 0.241367 0.107393
0.807492 0.251133 0.112642
0.854948 0.262150 0.119844
0.898772 0.274937 0.130037
0.940002 0.290532 0.141726
0.978637 0.307805 0.154910
1.000000 0.326146 0.170047
1.000000 0.345678 0.188968
1.000000 0.365972 0.219913
1.000000 0.388128 0.252598
1.000000 0.412024 0.288090
1.000000 0.437659 0.326299
1.000000 0.465248 0.367742
0.000000 0.195712 0.177676
0.000000 0.195865 0.177310
0.000000 0.196384 0.176394
0.000000 0.197726 0.174319
0.000000 0.197543 0.168917
0.000000 0.197635 0.167178
0.000000 0.197452 0.165042
0.000000 0.199771 0.161257
0.000000 0.206882 0.154452
0.108064 0.214664 0.145846
0.176303 0.225742 0.135744
0.241672 0.236057 0.128511
0.308263 0.244938 0.121309
0.378241 0.252445 0.112184
0.451881 0.259861 0.100069
0.522026 0.264805 0.090578
0.585260 0.269047 0.091463
0.646906 0.274357 0.090852
0.706264 0.281193 0.092073
0.761501 0.288731 0.095460
0.811826 0.297124 0.102693
0.857328 0.306218 0.110903
0.899687 0.316838 0.122744
0.939727 0.329351 0.135836
0.977447 0.343786 0.149416
1.000000 0.359106 0.164858
1.000000 0.376257 0.181918
1.000000 0.394171 0.200870
1.000000 0.413031 0.228367
1.000000 0.433539 0.267033
1.000000 0.455726 0.307866
1.000000 0.480171 0.351415
0.000000 0.232700 0.198306
0.000000 0.232792 0.198154
0.000000 0.233677 0.197574
0.000000 0.234684 0.195346
0.000000 0.235416 0.188510
0.000000 0.235264 0.186587
0.000000 0.234989 0.184115
0.000000 0.234775 0.181369
0.000000 0.239750 0.176120
0.019379 0.248234 0.168002
0.148379 0.257633 0.157961
0.222141 0.269932 0.145449
0.296971 0.282841 0.135195
0.370245 0.293126 0.125612
0.445045 0.302495 0.114443
0.520195 0.310979 0.098207
0.593683 0.318975 0.059693
0.656428 0.324804 0.047120
0.713893 0.330907 0.050782
0.766995 0.337591 0.060273
0.815488 0.344030 0.081361
0.859678 0.351385 0.097047
0.901274 0.360143 0.110597
0.940734 0.370336 0.126101
0.977844 0.382452 0.142428
1.000000 0.395636 0.159152
1.000000 0.410193 0.177462
1.000000 0.425757 0.197513
1.000000 0.441840 0.218936
1.000000 0.458747 0.242771
1.000000 0.477241 0.286076
1.000000 0.498177 0.332921
0.000000 0.277409 0.220981
0.000000 0.277501 0.220737
0.000000 0.277989 0.219638
0.000000 0.279026 0.217807
0.000000 0.279942 0.210880
0.000000 0.279789 0.207614
0.000000 0.279820 0.205570
0.000000 0.279179 0.202426
0.000000 0.278538 0.199130
0.000000 0.286961 0.191836
0.107881 0.297368 0.182406
0.198245 0.308690 0.170352
0.288243 0.330907 0.156405
0.372625 0.346807 0.142092
0.451453 0.358221 0.128115
0.528344 0.368688 0.113710
0.602899 0.378271 0.091737
0.673945 0.387366 0.024872
0.737545 0.394507 0.000000
0.787686 0.398688 0.000000
0.833433 0.402930 0.018250
0.875181 0.407721 0.063508
0.914977 0.413977 0.096986
0.952605 0.421942 0.117922
0.987915 0.431159 0.137819
1.000000 0.441596 0.157809
1.000000 0.453040 0.178683
1.000000 0.465492 0.199100
1.000000 0.478492 0.221927
1.000000 0.491920 0.246616
1.000000 0.505974 0.273411
1.000000 0.522240 0.315679
0.000000 0.331426 0.246830
0.000000 0.331487 0.246494
0.000000 0.331914 0.245762
0.000000 0.332616 0.244205
0.000000 0.333684 0.239963
0.000000 0.333684 0.231662
0.000000 0.333379 0.229221
0.000000 0.333104 0.226658
0.000000 0.332433 0.223087
0.000000 0.333959 0.218509
0.000000 0.345159 0.209567
0.172610 0.357580 0.198337
0.261814 0.370947 0.184054
0.345556 0.384863 0.165713
0.434302 0.403113 0.147524
0.513817 0.414801 0.130831
0.589166 0.425605 0.113252
0.660060 0.435340 0.087984
0.725551 0.443214 0.013947
0.784543 0.448676 0.000000
0.833005 0.451362 0.000000
0.874327 0.454170 0.000000
0.913695 0.458320 0.046754
0.951049 0.464057 0.098939
0.986175 0.471199 0.123262
1.000000 0.479469 0.148318
1.000000 0.488899 0.170779
1.000000 0.499153 0.193820
1.000000 0.509819 0.218784
1.000000 0.521172 0.244358
1.000000 0.532982 0.271702
1.000000 0.545190 0.301244
0.000000 0.388464 0.273259
0.000000 0.388617 0.273503
0.000000 0.388647 0.272374
0.000000 0.389227 0.270756
0.000000 0.390265 0.268040
0.000000 0.389990 0.256077
0.000000 0.388983 0.253574
0.000000 0.388006 0.250584
0.000000 0.386908 0.246891
0.000000 0.385626 0.242527
0.000000 0.390204 0.236271
0.120638 0.402289 0.226078
0.233951 0.415564 0.213260
0.322484 0.429297 0.196994
0.406897 0.442817 0.175662
0.495705 0.461341 0.153048
0.573083 0.472816 0.134585
0.644831 0.482887 0.115267
0.710811 0.490822 0.091127
0.770474 0.496101 0.031220
0.824094 0.499580 0.000000
0.873442 0.502373 0.000000
0.913024 0.504601 0.000000
0.950195 0.508354 0.046387
0.984955 0.513481 0.104707
1.000000 0.519585 0.135042
1.000000 0.526787 0.162020
1.000000 0.534630 0.188663
1.000000 0.543236 0.215122
1.000000 0.552178 0.242008
1.000000 0.561578 0.271031
1.000000 0.571466 0.301518
0.000000 0.447730 0.301274
0.000000 0.447730 0.301030
0.000000 0.447639 0.299901
0.000000 0.447822 0.298375
0.000000 0.448341 0.295750
0.000000 0.448219 0.285832
0.000000 0.447059 0.279301
0.000000 0.445655 0.275975
0.000000 0.443977 0.271885
0.000000 0.442298 0.267887
0.000000 0.440589 0.262730
0.000000 0.448737 0.254673
0.198947 0.461616 0.243290
0.297337 0.474678 0.228733
0.384588 0.488014 0.210361
0.467872 0.501091 0.186862
0.554345 0.519280 0.161563
0.628534 0.529931 0.143160
0.695277 0.537621 0.124758
0.755367 0.542718 0.107485
0.809873 0.546014 0.086030
0.860166 0.548821 0.027680
0.907286 0.551507 0.000000
0.949126 0.554009 0.000000
0.983734 0.556786 0.061006
1.000000 0.560845 0.118929
1.000000 0.565942 0.151431
1.000000 0.571618 0.182528
1.000000 0.577966 0.211185
1.000000 0.584833 0.240787
1.000000 0.592096 0.271550
1.000000 0.599756 0.303777
0.000000 0.506340 0.329686
0.000000 0.506462 0.329442
0.000000 0.506554 0.328557
0.000000 0.506859 0.327031
0.000000 0.507286 0.324559
0.000000 0.507836 0.319280
0.000000 0.507164 0.306706
0.000000 0.505760 0.303380
0.000000 0.504112 0.299901
0.000000 0.502220 0.295506
0.000000 0.499763 0.290471
0.000000 0.496864 0.284825
0.151247 0.508415 0.274418
0.269932 0.520348 0.261204
0.360754 0.532525 0.245487
0.444617 0.544793 0.225956
0.524895 0.557244 0.200626
0.608515 0.574548 0.173617
0.677150 0.582544 0.157565
0.738918 0.587579 0.142397
0.794644 0.591150 0.132815
0.846159 0.593957 0.119997
0.894347 0.596674 0.105440
0.939178 0.599207 0.084077
0.980499 0.601526 0.030976
1.000000 0.603510 0.097047
1.000000 0.606500 0.140505
1.000000 0.610010 0.176181
1.000000 0.613916 0.208621
1.000000 0.618280 0.239750
1.000000 0.623072 0.272313
1.000000 0.628260 0.305425
0.000000 0.564050 0.359411
0.000000 0.564019 0.359533
0.000000 0.564050 0.358679
0.000000 0.564355 0.357244
0.000000 0.564630 0.354955
0.000000 0.565148 0.351965
0.000000 0.564843 0.336156
0.000000 0.563348 0.332799
0.000000 0.561639 0.328923
0.000000 0.559442 0.324407
0.000000 0.556695 0.319341
0.000000 0.553582 0.313481
0.039124 0.553826 0.305791
0.239963 0.564904 0.294652
0.337652 0.576349 0.280705
0.422766 0.587945 0.264073
0.502403 0.599695 0.243534
0.579248 0.611444 0.218540
0.657435 0.626215 0.192813
0.721096 0.631678 0.180117
0.778866 0.635126 0.168582
0.831693 0.637934 0.163058
0.880705 0.640620 0.157015
0.926452 0.642939 0.149081
0.968566 0.645045 0.140902
1.000000 0.646571 0.131899
1.000000 0.647425 0.127565
1.000000 0.648646 0.169802
1.000000 0.650355 0.205844
1.000000 0.652369 0.239841
1.000000 0.654780 0.273594
1.000000 0.657465 0.308415
0.000000 0.620905 0.392248
0.000000 0.620996 0.392096
0.000000 0.631098 0.397955
0.000000 0.631159 0.396551
0.000000 0.631281 0.394385
0.000000 0.631525 0.391455
0.000000 0.631312 0.380529
0.000000 0.629786 0.369909
0.000000 0.627680 0.366033
0.000000 0.625147 0.361578
0.000000 0.622187 0.356146
0.000000 0.618708 0.349981
0.000000 0.614496 0.343023
0.220035 0.617365 0.333593
0.323735 0.627192 0.321630
0.409125 0.637232 0.307256
0.487556 0.646967 0.290013
0.561944 0.656764 0.269627
0.634302 0.666499 0.245274
0.705837 0.677546 0.222416
0.765743 0.681514 0.212467
0.819883 0.683925 0.204837
0.869596 0.685969 0.201389
0.915587 0.687739 0.199496
0.957824 0.688960 0.196414
0.996399 0.689723 0.193118
1.000000 0.689540 0.190707
1.000000 0.688411 0.187839
1.000000 0.686946 0.205203
1.000000 0.686580 0.240848
1.000000 0.686580 0.276066
1.000000 0.686915 0.311620
0.000000 0.676905 0.429419
0.000000 0.677729 0.429572
0.000000 0.678645 0.429877
0.000000 0.679500 0.429358
0.000000 0.680140 0.427771
0.000000 0.680323 0.425177
0.000000 0.680354 0.419196
0.000000 0.679347 0.403449
0.000000 0.677211 0.399329
0.000000 0.674800 0.394812
0.000000 0.671901 0.389502
0.000000 0.668574 0.383429
0.000000 0.664576 0.376135
0.185367 0.660029 0.368688
0.301213 0.665980 0.358556
0.387915 0.675044 0.346502
0.465095 0.683955 0.332708
0.538476 0.692927 0.316289
0.609277 0.701839 0.297337
0.677913 0.710658 0.274723
0.745144 0.719753 0.255009
0.802762 0.723995 0.246860
0.854246 0.726040 0.242374
0.901427 0.727596 0.240513
0.944335 0.728756 0.240757
0.983520 0.729183 0.241215
1.000000 0.728603 0.242008
1.000000 0.727016 0.242893
1.000000 0.724361 0.244938
1.000000 0.720333 0.247440
1.000000 0.717708 0.279271
1.000000 0.715816 0.315862
0.000000 0.723751 0.465705
0.000000 0.724605 0.466529
0.000000 0.725399 0.466682
0.000000 0.726223 0.466285
0.000000 0.726772 0.465370
0.000000 0.726894 0.463478
0.000000 0.726802 0.460426
0.000000 0.726284 0.443977
0.000000 0.724453 0.437354
0.000000 0.722103 0.432715
0.000000 0.719448 0.427619
0.000000 0.716274 0.421393
0.000000 0.712642 0.414618
0.151705 0.708522 0.407019
0.285924 0.704585 0.398413
0.372076 0.712520 0.388525
0.448615 0.720546 0.376532
0.519646 0.728542 0.363287
0.588220 0.736446 0.348058
0.654658 0.744259 0.330144
0.719631 0.752010 0.309606
0.782834 0.759884 0.292119
0.838254 0.764065 0.285679
0.886687 0.765530 0.283604
0.930785 0.766445 0.283116
0.970489 0.766537 0.286687
1.000000 0.765682 0.289952
1.000000 0.763729 0.293034
1.000000 0.760769 0.297704
1.000000 0.756405 0.301884
1.000000 0.750759 0.307774
1.000000 0.744442 0.320531
0.000000 0.767361 0.505913
0.000000 0.768032 0.506706
0.000000 0.768551 0.506798
0.000000 0.769192 0.507103
0.000000 0.769558 0.506157
0.000000 0.769528 0.504662
0.000000 0.769345 0.502617
0.000000 0.768978 0.492164
0.000000 0.767880 0.479957
0.000000 0.765743 0.475349
0.000000 0.763302 0.470283
0.000000 0.760433 0.464149
0.000000 0.757259 0.457496
0.134066 0.753536 0.450141
0.277989 0.749477 0.441688
0.364263 0.748745 0.432898
0.437873 0.755917 0.423194
0.506584 0.763272 0.412543
0.572503 0.770748 0.400305
0.637232 0.778256 0.386603
0.700374 0.785794 0.370886
0.762387 0.793118 0.352544
0.822110 0.799832 0.336797
0.874693 0.803769 0.332708
0.919677 0.804654 0.334264
0.960296 0.804440 0.335698
0.996216 0.803250 0.341772
1.000000 0.800870 0.347997
1.000000 0.797360 0.354833
1.000000 0.792538 0.362097
1.000000 0.786435 0.369940
1.000000 0.779141 0.377722
0.000000 0.811154 0.554498
0.000000 0.811398 0.554894
0.000000 0.811490 0.554711
0.000000 0.811460 0.554437
0.000000 0.811368 0.553796
0.000000 0.811063 0.552422
0.000000 0.810666 0.551019
0.000000 0.810208 0.546044
0.000000 0.809781 0.529290
0.000000 0.807858 0.524865
0.000000 0.805692 0.519738
0.000000 0.803250 0.514122
0.000000 0.800381 0.507469
0.162905 0.797116 0.500008
0.287541 0.793484 0.491951
0.369146 0.789395 0.482704
0.437232 0.791348 0.473854
0.501793 0.797787 0.465003
0.563867 0.804257 0.454810
0.624994 0.810666 0.443000
0.684718 0.816983 0.430274
0.743862 0.823178 0.415320
0.801633 0.829068 0.398199
0.856870 0.834073 0.383520
0.905760 0.836942 0.380713
0.946868 0.836637 0.384009
0.983490 0.835080 0.388281
1.000000 0.832456 0.395972
1.000000 0.828702 0.404822
1.000000 0.823758 0.414099
1.000000 0.817563 0.423804
1.000000 0.810330 0.434028
0.000000 0.847410 0.601343
0.000000 0.847623 0.601709
0.000000 0.847715 0.601862
0.000000 0.847684 0.601740
0.000000 0.847532 0.601251
0.000000 0.847257 0.600732
0.000000 0.846769 0.599664
0.000000 0.846281 0.598627
0.000000 0.846006 0.584344
0.000000 0.844785 0.576043
0.000000 0.842924 0.571099
0.000000 0.840787 0.565728
0.000000 0.838315 0.559503
0.214511 0.835569 0.552483
0.311254 0.832486 0.544732
0.383581 0.829068 0.535973
0.445411 0.825315 0.526452
0.503929 0.829648 0.518791
0.561639 0.835294 0.510307
0.618494 0.840970 0.501152
0.674800 0.846494 0.490547
0.730495 0.851835 0.478645
0.785214 0.856870 0.465095
0.839017 0.861723 0.449928
0.888487 0.864042 0.432441
0.933135 0.865507 0.431098
0.970062 0.864012 0.436774
1.000000 0.861143 0.443397
1.000000 0.857145 0.452338
1.000000 0.852079 0.463935
1.000000 0.845853 0.476539
1.000000 0.838804 0.488563
0.000000 0.881743 0.653681
0.000000 0.881987 0.654078
0.000000 0.882048 0.654475
0.000000 0.881926 0.654292
0.000000 0.881498 0.653803
0.000000 0.880980 0.653223
0.000000 0.880278 0.652491
0.000000 0.879454 0.651575
0.000000 0.878843 0.643275
0.000000 0.878111 0.630610
0.000000 0.876249 0.625635
0.000000 0.874205 0.620081
0.181949 0.872007 0.613916
0.278508 0.869474 0.607019
0.348150 0.866606 0.598962
0.407782 0.863493 0.590631
0.461677 0.860136 0.581262
0.512383 0.857664 0.571954
0.564569 0.862516 0.565057
0.616693 0.867399 0.557733
0.668818 0.872190 0.549126
0.720394 0.876829 0.539635
0.771389 0.881071 0.528618
0.821592 0.885039 0.515923
0.870726 0.888609 0.501579
0.917845 0.891203 0.487068
0.957488 0.890776 0.486610
0.989746 0.887785 0.494240
1.000000 0.883513 0.503471
1.000000 0.878111 0.514000
1.000000 0.871794 0.528527
1.000000 0.864591 0.541650
0.000000 0.909209 0.700954
0.000000 0.909392 0.701289
0.000000 0.909514 0.701686
0.000000 0.909361 0.701625
0.000000 0.909148 0.701625
0.000000 0.908812 0.701747
0.000000 0.908385 0.701534
0.000000 0.907805 0.701320
0.000000 0.907378 0.698238
0.000000 0.907317 0.684749
0.127657 0.906004 0.680171
0.227695 0.904448 0.675746
0.294591 0.902647 0.670497
0.350530 0.900542 0.664546
0.400793 0.898222 0.657649
0.447822 0.895628 0.650172
0.492775 0.892851 0.641932
0.535912 0.889921 0.633173
0.579736 0.889616 0.625452
0.625666 0.893614 0.619348
0.672114 0.897581 0.612909
0.718563 0.901366 0.605158
0.764858 0.904906 0.596735
0.810636 0.908141 0.586999
0.855924 0.911040 0.575311
0.900481 0.913573 0.562402
0.943938 0.915435 0.548516
0.977569 0.912963 0.550103
1.000000 0.908690 0.559960
1.000000 0.902953 0.571588
1.000000 0.896056 0.583459
1.000000 0.888823 0.598047
0.000000 0.934051 0.748013
0.000000 0.934142 0.748379
0.000000 0.934112 0.748440
0.000000 0.933989 0.748531
0.000000 0.933776 0.748592
0.103578 0.933410 0.748592
0.176455 0.933013 0.748592
0.231205 0.932464 0.748775
0.278935 0.931853 0.748806
0.279118 0.931853 0.738643
0.300603 0.931212 0.731106
0.340917 0.929900 0.727230
0.379858 0.928496 0.723049
0.417823 0.926848 0.718044
0.455299 0.924926 0.712459
0.492073 0.922850 0.706233
0.528710 0.920592 0.699458
0.565362 0.918181 0.691859
0.601862 0.915740 0.684047
0.640681 0.916960 0.678279
0.681056 0.920134 0.673243
0.721859 0.923095 0.667842
0.762692 0.925872 0.661341
0.803433 0.928374 0.653834
0.843961 0.930571 0.645319
0.884123 0.932433 0.635279
0.924041 0.933959 0.623865
0.963775 0.935119 0.610803
0.991363 0.930480 0.612879
1.000000 0.924620 0.623041
1.000000 0.917632 0.635431
1.000000 0.910216 0.648615
0.277531 0.954253 0.790494
0.279332 0.954314 0.790677
0.284367 0.954314 0.790921
0.293523 0.954223 0.791043
0.307530 0.954070 0.791379
0.325292 0.953887 0.791806
0.347814 0.953674 0.792538
0.373327 0.953399 0.793484
0.401160 0.953124 0.794705
0.412360 0.953246 0.790494
0.416144 0.953521 0.782498
0.441321 0.952789 0.780179
0.467597 0.951934 0.777523
0.494636 0.950866 0.774197
0.522026 0.949584 0.770199
0.549981 0.948089 0.765499
0.578607 0.946441 0.760372
0.608026 0.944610 0.754574
0.638025 0.942748 0.748562
0.668696 0.940795 0.742153
0.701961 0.942748 0.738491
0.736141 0.944854 0.734585
0.770535 0.946746 0.729885
0.805112 0.948394 0.724758
0.839780 0.949798 0.718654
0.874296 0.950774 0.711116
0.908843 0.951415 0.702327
0.943359 0.951690 0.692164
0.977905 0.951598 0.680751
0.999512 0.945220 0.681697
1.000000 0.938079 0.692164
1.000000 0.930571 0.705409
0.430671 0.971679 0.833677
0.431342 0.971649 0.833707
0.433783 0.971588 0.833768
0.438392 0.971466 0.833921
0.445808 0.971252 0.834226
0.456092 0.970947 0.834653
0.469245 0.970611 0.835355
0.485023 0.970184 0.836088
0.503441 0.969665 0.837186
0.516899 0.969360 0.836179
0.515129 0.969635 0.829068
0.527245 0.969177 0.825742
0.544244 0.968414 0.823301
