20 Preset/Human Style/【3】LUT video cho PR-AE-FCPX/Joe-Allam (2)/JA – Controlled Contrast 2 (Classic Chrome).cube
# Created by Adobe Lightroom plugin Export LUT (1.24.0)
# www.johnrellis.com/lightroom/exportlut.htm
# Preset: JA – Controlled Contrast 2 (Classic Chrome)
# Color profile: E:\lut插件\exportlut.1.24\exportlut.lrplugin\color profiles\Rec709gamma2.4.icc
LUT_3D_SIZE 8
DOMAIN_MIN 0.000000 0.000000 0.000000
DOMAIN_MAX 0.903226 0.903226 0.903226
0.119295 0.109499 0.104341
0.119295 0.109499 0.104341
0.143221 0.105959 0.104189
0.273136 0.021881 0.103731
0.508904 0.000000 0.089235
0.671199 0.000000 0.029114
0.823056 0.000000 0.000000
0.997803 0.000000 0.000000
0.119356 0.110109 0.104585
0.120272 0.110323 0.104189
0.144228 0.108766 0.104128
0.265263 0.087007 0.100557
0.494362 0.000000 0.075990
0.657740 0.000000 0.010254
0.803372 0.000000 0.000000
0.975677 0.000000 0.000000
0.123415 0.131044 0.102327
0.128908 0.130709 0.102266
0.157473 0.139071 0.098543
0.328527 0.186404 0.049775
0.530846 0.195010 0.000000
0.682612 0.149111 0.000000
0.847562 0.000000 0.000000
1.000000 0.000000 0.000000
0.158785 0.246983 0.061585
0.172305 0.243503 0.062776
0.224491 0.254093 0.030976
0.353185 0.303868 0.000000
0.574212 0.363378 0.000000
0.738521 0.353033 0.000000
0.884428 0.323369 0.000000
1.000000 0.277256 0.000000
0.232059 0.418891 0.000000
0.247288 0.416419 0.000000
0.302678 0.415045 0.000000
0.397559 0.437171 0.000000
0.524285 0.459266 0.000000
0.682795 0.472602 0.000000
0.882506 0.494514 0.000000
1.000000 0.478218 0.000000
0.312535 0.531853 0.114839
0.327306 0.535729 0.124056
0.364782 0.530480 0.113649
0.428168 0.538140 0.007385
0.521172 0.553735 0.000000
0.645716 0.574731 0.000000
0.830472 0.613642 0.000000
1.000000 0.642481 0.000000
0.423499 0.661433 0.280705
0.431067 0.662318 0.281529
0.454017 0.656794 0.274632
0.497719 0.656428 0.259098
0.565057 0.671168 0.216556
0.667048 0.696132 0.125277
0.801755 0.724361 0.000000
0.972808 0.751003 0.000000
0.560723 0.863737 0.425605
0.565972 0.863218 0.424964
0.588800 0.862669 0.423590
0.633570 0.863279 0.422705
0.672297 0.851560 0.381994
0.758022 0.871946 0.354864
0.867552 0.892180 0.304997
0.990723 0.900572 0.177493
0.119142 0.109499 0.105013
0.119661 0.109438 0.105013
0.139590 0.106477 0.106600
0.250584 0.054749 0.108034
0.483467 0.000000 0.095857
0.650629 0.000000 0.066865
0.789548 0.000000 0.010864
0.955932 0.000000 0.000000
0.119112 0.110445 0.104891
0.120363 0.110597 0.105165
0.144076 0.108766 0.105135
0.260227 0.084077 0.102571
0.486030 0.000000 0.088899
0.649500 0.000000 0.045350
0.782528 0.000000 0.000000
0.942870 0.000000 0.000000
0.121675 0.134310 0.106264
0.128145 0.133913 0.106172
0.158663 0.140627 0.102174
0.320623 0.175265 0.076417
0.516625 0.173342 0.000000
0.666896 0.113741 0.000000
0.805112 0.000000 0.000000
0.969635 0.000000 0.000000
0.146883 0.243961 0.088533
0.162264 0.241764 0.088228
0.216861 0.249912 0.066926
0.333104 0.286656 0.000000
0.543175 0.338170 0.000000
0.696071 0.324620 0.000000
0.832761 0.294102 0.000000
0.985657 0.252689 0.000000
0.220859 0.418219 0.000000
0.237064 0.414771 0.000000
0.293339 0.407630 0.000000
0.384741 0.425574 0.000000
0.508080 0.444556 0.000000
0.664149 0.457038 0.000000
0.858854 0.477943 0.000000
1.000000 0.463935 0.000000
0.304662 0.525628 0.139681
0.315068 0.524681 0.138033
0.353460 0.520134 0.129976
0.417792 0.527153 0.091096
0.511254 0.544121 0.000000
0.636805 0.567163 0.000000
0.818479 0.604273 0.000000
1.000000 0.634485 0.000000
0.412268 0.647974 0.280827
0.416236 0.644862 0.277501
0.438636 0.639002 0.270024
0.483101 0.638453 0.257603
0.553063 0.657710 0.223545
0.653773 0.682704 0.144961
0.783932 0.707942 0.000000
0.955169 0.736446 0.000000
0.546288 0.849119 0.417731
0.553613 0.851225 0.419440
0.576013 0.850065 0.417517
0.620752 0.850858 0.416388
0.680354 0.862242 0.400580
0.759762 0.874998 0.367559
0.864317 0.889860 0.313390
0.987732 0.898375 0.195956
0.110384 0.112001 0.134310
0.116243 0.109682 0.136172
0.153567 0.104372 0.139956
0.248142 0.072145 0.161135
0.498360 0.000000 0.214694
0.660517 0.000000 0.205325
0.807675 0.000000 0.180392
0.975311 0.000000 0.149142
0.110231 0.119417 0.135683
0.115084 0.115602 0.137697
0.155642 0.109194 0.141512
0.260136 0.079408 0.162203
0.498817 0.000000 0.199954
0.661280 0.000000 0.186069
0.799985 0.000000 0.153964
0.965026 0.000000 0.141573
0.109865 0.151034 0.140871
0.119783 0.152468 0.142794
0.169223 0.155947 0.148928
0.335668 0.127810 0.144045
0.534783 0.000000 0.137118
0.682246 0.000000 0.136782
0.817502 0.000000 0.138643
0.977356 0.000000 0.141238
0.000000 0.295781 0.154696
0.093050 0.299107 0.159457
0.222629 0.293614 0.158114
0.367071 0.320928 0.126345
0.573327 0.341070 0.130404
0.705257 0.312108 0.143526
0.845335 0.282444 0.151675
0.996033 0.241489 0.161135
0.209567 0.446082 0.195377
0.229435 0.444099 0.193179
0.295811 0.436988 0.185977
0.390997 0.444282 0.163424
0.523430 0.463569 0.091676
0.679194 0.469398 0.128817
0.866239 0.492378 0.205081
1.000000 0.475807 0.218692
0.321019 0.538933 0.259464
0.330663 0.538445 0.258824
0.364630 0.533471 0.251682
0.422797 0.530694 0.236973
0.510338 0.547509 0.203891
0.635584 0.571435 0.140749
0.820218 0.612390 0.166903
1.000000 0.647883 0.275212
0.422766 0.663386 0.346197
0.427161 0.660578 0.343511
0.447761 0.653010 0.335515
0.488716 0.643641 0.324559
0.554284 0.660212 0.301640
0.654475 0.687617 0.262577
0.789731 0.718379 0.181827
0.965362 0.750393 0.191440
0.538231 0.854948 0.446296
0.542626 0.853178 0.444373
0.565270 0.851530 0.441962
0.613733 0.855283 0.443153
0.675105 0.862211 0.431189
0.757900 0.878416 0.405921
0.864622 0.894347 0.363439
0.989075 0.902525 0.282628
0.000000 0.133883 0.301091
0.000000 0.115053 0.308202
0.182284 0.090455 0.316808
0.336980 0.000000 0.328161
0.478706 0.000000 0.336858
0.638087 0.000000 0.351415
0.789914 0.000000 0.349798
0.951568 0.000000 0.354192
0.000000 0.161746 0.312352
0.000000 0.144686 0.315892
0.173526 0.109133 0.323613
0.343816 0.000000 0.335027
0.487221 0.000000 0.339300
0.644556 0.000000 0.350286
0.790799 0.000000 0.346563
0.951293 0.000000 0.351751
0.000000 0.237491 0.314519
0.000000 0.234562 0.317235
0.138125 0.203128 0.327245
0.350134 0.165438 0.337652
0.508934 0.163180 0.345068
0.670222 0.036225 0.353063
0.814847 0.000000 0.361364
0.972015 0.000000 0.364263
0.000000 0.355657 0.333043
0.000000 0.355505 0.333928
0.223056 0.358129 0.340581
0.381506 0.363378 0.354650
0.547356 0.345647 0.351171
0.673030 0.333043 0.354284
0.817075 0.315862 0.361364
0.978027 0.282811 0.368048
0.253941 0.486152 0.367712
0.271611 0.485115 0.367895
0.335058 0.484382 0.372442
0.420905 0.476692 0.373693
0.531182 0.492409 0.358556
0.692195 0.513115 0.393866
0.854063 0.515251 0.405707
1.000000 0.497536 0.404852
0.376837 0.574914 0.410559
0.387335 0.577966 0.413764
0.411017 0.571435 0.406470
0.456153 0.561608 0.395148
0.525872 0.568566 0.380194
0.641535 0.592645 0.358953
0.832486 0.639582 0.388190
1.000000 0.669673 0.444343
0.430121 0.690303 0.435920
0.436347 0.690120 0.435554
0.460670 0.686122 0.431373
0.503929 0.678126 0.422858
0.564691 0.677333 0.408179
0.660548 0.703609 0.385931
0.794766 0.732662 0.349859
0.973785 0.765255 0.372808
0.526360 0.875578 0.508812
0.531975 0.874876 0.507683
0.555749 0.872801 0.504082
0.602289 0.870573 0.499092
0.667689 0.867277 0.489448
0.750759 0.882872 0.468238
0.860868 0.899626 0.436469
0.990814 0.909361 0.384436
0.000000 0.184237 0.494697
0.000000 0.165042 0.498360
0.000000 0.130404 0.502495
0.331731 0.037598 0.510369
0.510002 0.000000 0.518151
0.635401 0.000000 0.501518
0.734829 0.108644 0.493843
0.915892 0.000000 0.524102
0.000000 0.219394 0.498573
0.000000 0.204746 0.502312
0.000000 0.163516 0.506523
0.331273 0.123140 0.511376
0.512047 0.000000 0.519615
0.635767 0.000000 0.501946
0.733822 0.172183 0.495766
0.918029 0.000000 0.524987
0.000000 0.315618 0.499062
0.000000 0.313115 0.500816
0.132662 0.290074 0.505638
0.342138 0.263279 0.511833
0.512261 0.239719 0.515221
0.624598 0.247227 0.495338
0.737057 0.273808 0.500633
0.921691 0.161440 0.521233
0.000000 0.420905 0.498085
0.134371 0.421118 0.498390
0.274113 0.424231 0.501579
0.395178 0.418158 0.508721
0.519890 0.403754 0.514763
0.618036 0.405921 0.504417
0.770626 0.382208 0.518761
0.945678 0.324468 0.522393
0.279362 0.512474 0.495735
0.297490 0.512932 0.496864
0.357366 0.513054 0.499397
0.439673 0.513817 0.504540
0.523949 0.514214 0.510521
0.651606 0.503319 0.508476
0.808743 0.489204 0.509545
0.971832 0.468360 0.510521
0.381506 0.590509 0.503410
0.388800 0.590723 0.503777
0.415351 0.588220 0.502434
0.461738 0.587182 0.501762
0.525566 0.576501 0.495308
0.634882 0.605493 0.491493
0.843656 0.658564 0.533745
1.000000 0.661646 0.554437
0.396002 0.723110 0.525475
0.400793 0.721065 0.522911
0.437964 0.715785 0.523980
0.490486 0.707820 0.517052
0.556237 0.693111 0.502312
0.645655 0.704860 0.486152
0.785489 0.735897 0.466285
0.972564 0.768521 0.500008
0.479927 0.877592 0.577020
0.485573 0.876616 0.575311
0.510185 0.873594 0.569848
0.566552 0.876463 0.569909
0.637140 0.872007 0.558312
0.725460 0.876127 0.541070
0.840116 0.894774 0.515038
0.978546 0.905547 0.473762
0.000000 0.284062 0.646296
0.000000 0.275456 0.648585
0.000000 0.256107 0.653681
0.307347 0.254276 0.662165
0.492409 0.240360 0.669734
0.645747 0.221805 0.670741
0.761868 0.236698 0.656123
0.890684 0.289982 0.671656
0.000000 0.312322 0.638178
0.000000 0.304234 0.639185
0.000000 0.277592 0.642939
0.307286 0.272404 0.648737
0.485878 0.259678 0.657282
0.637598 0.244785 0.660822
0.753017 0.256840 0.648005
0.882719 0.301579 0.664912
0.098573 0.413672 0.648066
0.157382 0.412482 0.647944
0.236088 0.395270 0.651026
0.352605 0.369482 0.650355
0.500328 0.358984 0.657343
0.641138 0.346044 0.661402
0.753964 0.346990 0.651637
0.885557 0.365515 0.668910
0.249760 0.504997 0.649470
0.269841 0.503502 0.648463
0.339086 0.501762 0.650568
0.420569 0.491157 0.662379
0.528832 0.476173 0.672175
0.657862 0.461860 0.675593
0.769436 0.453437 0.667597
0.901976 0.453162 0.680171
0.318578 0.571832 0.636164
0.330907 0.571832 0.636408
0.376074 0.572412 0.638636
0.446632 0.574090 0.645380
0.529839 0.561089 0.654078
0.649683 0.545190 0.661097
0.764797 0.535332 0.655543
0.938445 0.505333 0.669978
0.377081 0.642542 0.630060
0.386053 0.645411 0.633295
0.416938 0.645472 0.634546
0.470466 0.646357 0.637842
0.546349 0.646937 0.642359
0.651453 0.652857 0.655116
0.824369 0.649409 0.663050
0.982116 0.639612 0.667414
0.426734 0.767056 0.668879
0.434363 0.768673 0.670253
0.459144 0.768124 0.668788
0.505119 0.766598 0.665095
0.569177 0.762875 0.656550
0.652003 0.739315 0.631830
0.793088 0.764797 0.619562
0.980713 0.805539 0.695491
0.484230 0.899901 0.700923
0.486397 0.898680 0.698390
0.503136 0.897063 0.692897
0.541497 0.897215 0.685695
0.616388 0.890898 0.678187
0.700954 0.881834 0.655055
0.816403 0.894255 0.635859
0.964752 0.908049 0.608911
0.000000 0.417548 0.797940
0.000000 0.414069 0.800381
0.000000 0.393103 0.802731
0.323033 0.391028 0.807279
0.487526 0.383001 0.812131
0.638666 0.367163 0.818570
0.778805 0.348119 0.818845
0.892515 0.337865 0.803861
0.000000 0.431830 0.789883
0.000000 0.428901 0.792844
0.062257 0.405890 0.795712
0.324804 0.399878 0.798795
0.484230 0.390631 0.803250
0.631556 0.373358 0.808499
0.768765 0.352728 0.807462
0.879606 0.340093 0.791226
0.207675 0.500847 0.793942
0.227512 0.498665 0.794553
0.261387 0.478859 0.796109
0.355200 0.455085 0.799863
0.495766 0.444495 0.802884
0.636835 0.428840 0.809354
0.775662 0.411444 0.813230
0.894499 0.396979 0.804379
0.268467 0.573449 0.799588
0.283574 0.571099 0.798459
0.340459 0.565026 0.798611
0.407233 0.544366 0.804074
0.509850 0.521904 0.809079
0.647059 0.509514 0.817288
0.787015 0.492470 0.822568
0.907927 0.474189 0.813718
0.300847 0.642939 0.792844
0.311803 0.641108 0.791562
0.355993 0.638148 0.791684
0.431830 0.632044 0.796445
0.524529 0.611719 0.803738
0.644465 0.592370 0.812406
0.787259 0.576806 0.818418
0.915892 0.567254 0.815244
0.342229 0.718807 0.789883
0.352331 0.719051 0.790616
0.391394 0.719142 0.792782
0.460487 0.719478 0.797330
0.553368 0.719265 0.804166
0.665583 0.711452 0.817136
0.802487 0.698726 0.827481
0.922087 0.685756 0.817136
0.411322 0.807370 0.794705
0.420691 0.808469 0.796048
0.452918 0.808591 0.797208
0.512566 0.809537 0.800198
0.593347 0.809567 0.803647
0.691676 0.809812 0.808927
0.801236 0.810452 0.816526
0.955016 0.809171 0.824582
0.558526 0.915587 0.829099
0.563531 0.915831 0.829374
0.586328 0.917632 0.831571
0.622065 0.918273 0.831815
0.670588 0.917693 0.829526
0.730037 0.915587 0.822202
0.805417 0.902495 0.795743
0.943969 0.916686 0.782834
0.205875 0.537530 0.927977
0.218143 0.534539 0.928985
0.252140 0.516350 0.929503
0.370092 0.507927 0.931884
0.501091 0.500572 0.934325
0.631922 0.487709 0.937194
0.766659 0.469215 0.941894
0.897215 0.447181 0.942138
0.224033 0.545251 0.924346
0.234714 0.542473 0.925475
0.266758 0.525566 0.926848
0.370214 0.513146 0.929076
0.499825 0.505547 0.931579
0.630030 0.492622 0.934569
0.763790 0.472969 0.938781
0.893828 0.449561 0.938567
0.297368 0.586816 0.922210
0.303380 0.583795 0.922789
0.324498 0.567926 0.923766
0.385046 0.546441 0.929107
0.506279 0.537499 0.930724
0.631739 0.523400 0.932830
0.764157 0.504997 0.937407
0.894347 0.482124 0.937835
0.327184 0.639155 0.920836
0.341680 0.639246 0.921477
0.392248 0.636927 0.922179
0.440223 0.617975 0.926116
0.519493 0.595178 0.930114
0.639765 0.583642 0.933227
0.769009 0.568109 0.938170
0.898894 0.547173 0.939544
0.341131 0.703975 0.918975
0.353399 0.703792 0.919738
0.392187 0.699275 0.920195
0.475898 0.696559 0.922423
0.556573 0.680903 0.926238
0.648310 0.659144 0.930755
0.773281 0.647028 0.936339
0.903563 0.631464 0.939879
0.398566 0.778439 0.918181
0.404364 0.777340 0.917723
0.432837 0.774563 0.917235
0.491127 0.772091 0.918639
0.576165 0.769039 0.922850
0.686458 0.764492 0.930968
0.793820 0.755825 0.939605
0.915831 0.747646 0.944335
0.492256 0.863767 0.923339
0.497871 0.863523 0.923339
0.522057 0.862699 0.923583
0.571099 0.862547 0.925139
0.641901 0.862882 0.927886
0.731533 0.865354 0.932616
0.828580 0.864286 0.938720
0.923888 0.854307 0.942931
0.588891 0.939757 0.925841
0.592828 0.939513 0.925750
0.612360 0.939117 0.926146
0.652918 0.939086 0.927703
0.710079 0.938537 0.929717
0.780301 0.937377 0.932128
0.858183 0.936370 0.935576
0.929290 0.935485 0.939269
