20 Preset/Human Style/【3】LUT video cho PR-AE-FCPX/Joe-Allam (2)/JA – Shaded Light 5 (Classic Chrome).cube
# Created by Adobe Lightroom plugin Export LUT (1.24.0)
# www.johnrellis.com/lightroom/exportlut.htm
# Preset: JA – Shaded Light 5 (Classic Chrome)
# Color profile: E:\lut插件\exportlut.1.24\exportlut.lrplugin\color profiles\Rec709gamma2.4.icc
LUT_3D_SIZE 8
DOMAIN_MIN 0.000000 0.000000 0.000000
DOMAIN_MAX 0.903226 0.903226 0.903226
0.056794 0.091981 0.109346
0.095399 0.090364 0.109804
0.221439 0.080842 0.109255
0.363500 0.098604 0.101778
0.620722 0.103670 0.042969
0.897276 0.095247 0.000000
1.000000 0.108400 0.000000
1.000000 0.141329 0.106081
0.012024 0.122225 0.110750
0.096223 0.125887 0.108949
0.223911 0.145235 0.103822
0.365454 0.157534 0.097505
0.619104 0.187564 0.015076
0.888182 0.203647 0.000000
1.000000 0.202853 0.000000
1.000000 0.207614 0.096376
0.000000 0.271519 0.097353
0.000000 0.273014 0.091279
0.221225 0.274601 0.089723
0.416419 0.318700 0.056580
0.732845 0.407538 0.000000
0.941100 0.410346 0.000000
1.000000 0.386999 0.001221
1.000000 0.365820 0.142214
0.000000 0.542138 0.000000
0.000000 0.540002 0.000000
0.205051 0.538048 0.000000
0.485359 0.575158 0.000000
0.763912 0.623468 0.000000
0.967285 0.632502 0.000000
1.000000 0.584253 0.183139
1.000000 0.541894 0.234287
0.000000 0.814542 0.000000
0.000000 0.812894 0.000000
0.000000 0.809628 0.000000
0.442420 0.804776 0.000000
0.696376 0.798154 0.000000
0.885649 0.761318 0.000000
1.000000 0.733333 0.215427
1.000000 0.726802 0.422736
0.000000 0.911620 0.145876
0.000000 0.913909 0.156008
0.000000 0.911009 0.093050
0.287663 0.904753 0.000000
0.576928 0.895567 0.000000
0.786221 0.886259 0.054810
0.959930 0.863035 0.201205
1.000000 0.834348 0.410163
0.000000 0.978759 0.442664
0.000000 0.979126 0.442023
0.000000 0.977813 0.419776
0.259373 0.975616 0.378149
0.507927 0.968811 0.334569
0.696956 0.962829 0.366644
0.865599 0.956023 0.411444
1.000000 0.950530 0.466743
0.490547 1.000000 0.685298
0.494575 1.000000 0.683131
0.516136 1.000000 0.676112
0.560815 1.000000 0.662470
0.590753 1.000000 0.598047
0.717433 1.000000 0.611444
0.839048 1.000000 0.646265
0.944976 1.000000 0.665034
0.035615 0.092622 0.139223
0.090547 0.093843 0.135561
0.208621 0.064698 0.157778
0.348882 0.005798 0.144289
0.586694 0.000000 0.141238
0.867094 0.000000 0.118868
1.000000 0.000000 0.122652
1.000000 0.000000 0.152651
0.026123 0.120638 0.145266
0.097627 0.125490 0.149081
0.224979 0.129427 0.149447
0.361089 0.135073 0.149508
0.605280 0.144076 0.141421
0.874662 0.146304 0.114748
1.000000 0.149996 0.119356
1.000000 0.165591 0.148989
0.000000 0.267247 0.167453
0.000000 0.269291 0.162417
0.218906 0.272404 0.156985
0.417823 0.316381 0.170413
0.706355 0.378790 0.139132
0.920439 0.383551 0.109133
1.000000 0.361089 0.134066
1.000000 0.343786 0.173434
0.000000 0.518975 0.138766
0.000000 0.519188 0.130068
0.172793 0.524163 0.088655
0.453346 0.540002 0.028870
0.723568 0.587243 0.000000
0.944488 0.611810 0.141024
1.000000 0.563836 0.205356
1.000000 0.524651 0.244724
0.000000 0.808438 0.000000
0.000000 0.805692 0.000000
0.000000 0.800290 0.000000
0.424048 0.791226 0.000000
0.681270 0.782284 0.000000
0.873808 0.748836 0.000000
1.000000 0.725154 0.254734
1.000000 0.722469 0.443702
0.000000 0.906035 0.208194
0.000000 0.905547 0.201755
0.000000 0.903044 0.166262
0.264561 0.897978 0.000000
0.569360 0.889403 0.047822
0.781857 0.881590 0.164523
0.954589 0.857267 0.240543
1.000000 0.830228 0.429847
0.000000 0.972595 0.454444
0.000000 0.971710 0.446082
0.000000 0.970245 0.424201
0.241062 0.968597 0.386847
0.502068 0.963409 0.349096
0.691859 0.957549 0.378607
0.859129 0.949798 0.413611
1.000000 0.942901 0.460487
0.480262 1.000000 0.683772
0.490181 1.000000 0.684565
0.510704 1.000000 0.677058
0.556359 1.000000 0.664027
0.619745 1.000000 0.634852
0.727687 1.000000 0.633814
0.841062 1.000000 0.657130
0.946075 1.000000 0.676234
0.010590 0.090608 0.277073
0.100710 0.091768 0.272190
0.187106 0.101076 0.260716
0.272984 0.133822 0.275212
0.534081 0.000000 0.335393
0.859525 0.000000 0.322881
1.000000 0.000000 0.270268
1.000000 0.000000 0.281407
0.000000 0.128237 0.296910
0.090089 0.131167 0.290776
0.195224 0.144503 0.274144
0.291783 0.161501 0.289006
0.571038 0.000000 0.329839
0.874632 0.000000 0.275639
1.000000 0.000000 0.269657
1.000000 0.000000 0.280369
0.000000 0.266361 0.319219
0.000000 0.268101 0.319921
0.218845 0.272801 0.318273
0.426276 0.269963 0.310887
0.702419 0.267887 0.299260
0.925292 0.266514 0.290929
1.000000 0.270024 0.294530
1.000000 0.282719 0.310887
0.000000 0.538109 0.383673
0.000000 0.543542 0.369940
0.000000 0.554833 0.301213
0.476081 0.563714 0.283268
0.784237 0.604852 0.319921
0.947509 0.599268 0.401312
1.000000 0.551812 0.397894
1.000000 0.523796 0.406989
0.000000 0.814542 0.333013
0.000000 0.813382 0.326268
0.000000 0.809567 0.299168
0.391974 0.800626 0.254307
0.692012 0.791073 0.263554
0.889799 0.752987 0.309087
0.994537 0.742275 0.495674
1.000000 0.749264 0.597375
0.000000 0.903990 0.436072
0.000000 0.903838 0.432502
0.000000 0.901610 0.411780
0.268162 0.896696 0.369329
0.571283 0.887327 0.353307
0.784176 0.879301 0.383978
0.950011 0.853178 0.423743
1.000000 0.846189 0.593744
0.196597 0.967559 0.602319
0.206363 0.967010 0.596521
0.269413 0.965698 0.576745
0.389410 0.964324 0.544976
0.542992 0.960693 0.501946
0.713436 0.955444 0.519493
0.868772 0.950103 0.551385
1.000000 0.943023 0.589624
0.557488 1.000000 0.738247
0.558892 1.000000 0.735714
0.574884 1.000000 0.730007
0.615991 1.000000 0.723598
0.667994 1.000000 0.703029
0.756863 1.000000 0.696651
0.857023 1.000000 0.713252
0.951080 1.000000 0.723293
0.002502 0.063600 0.472572
0.120638 0.072938 0.468299
0.220096 0.106600 0.433356
0.304845 0.133700 0.403754
0.419409 0.138094 0.422461
0.663325 0.000000 0.499336
0.968719 0.000000 0.533928
1.000000 0.000000 0.477150
0.000000 0.134096 0.509422
0.112276 0.136873 0.500237
0.232547 0.149142 0.459846
0.320867 0.162081 0.422431
0.436774 0.158358 0.435187
0.700221 0.000000 0.511040
0.980011 0.000000 0.525475
1.000000 0.000000 0.467201
0.000000 0.281529 0.604028
0.000000 0.267399 0.592248
0.225071 0.260227 0.542931
0.371313 0.254124 0.478645
0.506767 0.248905 0.481025
0.844572 0.000000 0.536980
1.000000 0.000000 0.499245
1.000000 0.000000 0.466957
0.000000 0.565148 0.629938
0.000000 0.564080 0.627771
0.000000 0.563958 0.622583
0.496590 0.560204 0.605707
0.759854 0.545586 0.589258
0.908659 0.536461 0.579034
1.000000 0.534752 0.576928
1.000000 0.540642 0.582116
0.000000 0.813352 0.679774
0.000000 0.811795 0.676143
0.210147 0.808225 0.665095
0.458320 0.806210 0.624445
0.716609 0.795438 0.604974
0.877897 0.779324 0.664942
0.951263 0.804898 0.751583
1.000000 0.782162 0.734707
0.409369 0.892393 0.717159
0.443824 0.893492 0.722927
0.448890 0.893431 0.701869
0.520500 0.891752 0.677119
0.646296 0.885679 0.640284
0.804746 0.878172 0.648219
0.934325 0.860166 0.671046
1.000000 0.878965 0.768795
0.536950 0.957397 0.755276
0.541955 0.957641 0.754299
0.559899 0.957763 0.747860
0.597925 0.957885 0.733913
0.660639 0.957061 0.706416
0.768093 0.952667 0.698939
0.886076 0.948760 0.709529
0.999695 0.942687 0.725246
0.646052 1.000000 0.807218
0.648646 1.000000 0.806332
0.660456 1.000000 0.802853
0.686519 1.000000 0.796353
0.727718 1.000000 0.784207
0.792416 1.000000 0.770047
0.876707 1.000000 0.778897
0.958556 1.000000 0.783536
0.207462 0.000000 0.744839
0.245090 0.000000 0.741909
0.337926 0.000000 0.715389
0.420447 0.033570 0.654231
0.516808 0.002991 0.615747
0.658595 0.000000 0.625696
0.795987 0.000000 0.640558
1.000000 0.000000 0.675471
0.192111 0.106325 0.763973
0.236118 0.104646 0.760983
0.341375 0.099123 0.735164
0.431067 0.108858 0.671015
0.531151 0.089906 0.628931
0.672419 0.000000 0.634424
0.802945 0.000000 0.643030
1.000000 0.000000 0.673365
0.000000 0.265934 0.807889
0.000000 0.263859 0.803525
0.307622 0.253910 0.781979
0.458473 0.236881 0.726467
0.575097 0.219394 0.669032
0.707668 0.190799 0.654505
0.865232 0.122957 0.663600
1.000000 0.000000 0.661677
0.000000 0.564080 0.850889
0.000000 0.565179 0.850309
0.316320 0.564141 0.835019
0.516594 0.537102 0.799100
0.657343 0.489815 0.742123
0.767330 0.457771 0.701198
0.939605 0.446082 0.696681
1.000000 0.451820 0.674250
0.381201 0.787655 0.824918
0.416510 0.788327 0.824582
0.519341 0.789395 0.822324
0.639368 0.789029 0.816983
0.736110 0.780545 0.803738
0.835294 0.770779 0.794644
0.919402 0.763180 0.787503
1.000000 0.758053 0.782681
0.592462 0.876768 0.828977
0.600641 0.876555 0.828824
0.625818 0.874235 0.825437
0.669215 0.871244 0.818753
0.717250 0.870237 0.799802
0.819669 0.868925 0.795499
0.922148 0.875059 0.819608
1.000000 0.898802 0.858640
0.664393 0.947356 0.846830
0.666255 0.946807 0.845518
0.677119 0.945922 0.841459
0.699550 0.946960 0.833738
0.732113 0.947753 0.817655
0.801205 0.944945 0.800992
0.895537 0.942596 0.803037
0.992004 0.936919 0.806821
0.705776 1.000000 0.863127
0.708919 1.000000 0.862852
0.705898 1.000000 0.854948
0.724605 1.000000 0.849912
0.760037 1.000000 0.842344
0.812131 1.000000 0.829496
0.887633 1.000000 0.828733
0.965454 1.000000 0.831754
0.306523 0.020172 0.885252
0.329534 0.016968 0.884215
0.403998 0.000000 0.875914
0.509300 0.000000 0.860838
0.608179 0.000000 0.825315
0.733669 0.000000 0.806577
0.885740 0.000000 0.810880
0.980102 0.166049 0.801205
0.292821 0.131838 0.884550
0.316289 0.130556 0.882811
0.395422 0.122896 0.875151
0.501884 0.105135 0.857939
0.602625 0.034852 0.821653
0.729061 0.000000 0.802670
0.880583 0.000000 0.806302
0.975128 0.186282 0.796597
0.257694 0.301213 0.899840
0.288426 0.299870 0.898009
0.383307 0.296757 0.890806
0.500511 0.281468 0.872129
0.613642 0.255955 0.838804
0.745388 0.229007 0.816556
0.891875 0.207828 0.813260
0.972656 0.330571 0.797665
0.420874 0.591302 0.908934
0.433967 0.589166 0.907042
0.491432 0.586938 0.900542
0.575128 0.576135 0.889036
0.660792 0.536095 0.864805
0.774136 0.499733 0.839841
0.893462 0.486946 0.823880
0.959838 0.533806 0.808743
0.593408 0.786007 0.908537
0.605371 0.787625 0.908141
0.650172 0.794034 0.906981
0.709438 0.797391 0.899565
0.744900 0.773068 0.876982
0.788968 0.732815 0.848051
0.856382 0.695552 0.825010
0.969848 0.698604 0.827787
0.688808 0.873747 0.894560
0.696773 0.874876 0.895354
0.717403 0.875029 0.894530
0.751339 0.874998 0.892943
0.791989 0.873167 0.889189
0.837461 0.867918 0.881773
0.911345 0.863615 0.877806
0.996582 0.859464 0.874113
0.750027 0.945342 0.913787
0.753170 0.946014 0.914122
0.761654 0.946288 0.912932
0.777951 0.946807 0.910002
0.801541 0.947204 0.902922
0.831907 0.946288 0.883909
0.910918 0.942931 0.876463
0.998688 0.945892 0.889891
0.762936 1.000000 0.919158
0.763607 1.000000 0.918334
0.769833 1.000000 0.916320
0.785397 1.000000 0.913207
0.812314 1.000000 0.908049
0.837583 1.000000 0.892454
0.899840 1.000000 0.882322
0.973816 1.000000 0.884306
0.371344 0.189914 0.949493
0.387304 0.195377 0.949859
0.440681 0.203647 0.946014
0.526360 0.221744 0.939300
0.624506 0.238285 0.926940
0.722133 0.240604 0.907530
0.845701 0.238163 0.900572
0.977966 0.263798 0.901305
0.363165 0.216739 0.945586
0.379980 0.222354 0.946197
0.434089 0.228489 0.942535
0.518944 0.238285 0.934783
0.616907 0.246708 0.921599
0.712154 0.236606 0.899992
0.834714 0.220432 0.891478
0.967590 0.223148 0.891417
0.379706 0.359625 0.952117
0.394079 0.360693 0.951232
0.445869 0.361975 0.946593
0.528985 0.366247 0.938262
0.622919 0.363409 0.924102
0.717403 0.346868 0.903441
0.841642 0.352697 0.896696
0.975555 0.387549 0.900938
0.526452 0.610651 0.954986
0.530632 0.607507 0.953582
0.556115 0.601709 0.948943
0.609918 0.598535 0.941405
0.673030 0.582483 0.928222
0.744686 0.553491 0.909972
0.849271 0.550866 0.900969
0.963958 0.569116 0.902525
0.677028 0.791257 0.955993
0.679713 0.789761 0.954192
0.698390 0.789425 0.949218
0.717433 0.778531 0.942443
0.746517 0.760555 0.929778
0.780301 0.727504 0.909819
0.846586 0.702052 0.895567
0.941375 0.711208 0.899290
0.729030 0.877256 0.956634
0.733272 0.877836 0.956817
0.748898 0.879210 0.957153
0.777066 0.881224 0.957916
0.812680 0.878813 0.954894
0.840116 0.857969 0.935546
0.871305 0.831785 0.910460
0.939239 0.816068 0.907042
0.776852 0.940063 0.953307
0.780575 0.940795 0.953857
0.791287 0.941314 0.953857
0.812924 0.942657 0.954162
0.843503 0.943572 0.953643
0.881773 0.943633 0.951873
0.922271 0.938109 0.944549
0.995544 0.934600 0.941497
0.832853 0.994903 0.967498
0.834775 0.995087 0.967590
0.844388 0.996185 0.968322
0.858091 0.997101 0.968048
0.876860 0.998077 0.966552
0.901457 0.999664 0.963287
0.928466 1.000000 0.952361
0.985351 0.998901 0.947692
0.467659 0.348241 1.000000
0.478889 0.354406 1.000000
0.514031 0.363745 1.000000
0.581292 0.394385 0.999603
0.664668 0.435431 0.992981
0.751583 0.479591 0.982757
0.838621 0.524346 0.972259
0.931792 0.552270 0.967620
0.465156 0.361883 1.000000
0.476600 0.367834 1.000000
0.513451 0.379065 1.000000
0.578912 0.404852 0.996979
0.661311 0.441657 0.990265
0.747372 0.481086 0.979919
0.832090 0.515984 0.968261
0.925597 0.538048 0.962890
0.493568 0.459144 1.000000
0.502953 0.462318 1.000000
0.535485 0.468666 0.998535
0.604028 0.499031 0.996033
0.677333 0.520806 0.988525
0.754025 0.540368 0.977539
0.833402 0.563195 0.965759
0.924254 0.580743 0.960998
0.581262 0.623072 0.997589
0.589258 0.625818 0.997406
0.612604 0.628473 0.995300
0.659266 0.638392 0.991974
0.717159 0.647395 0.986023
0.779721 0.652735 0.976959
0.845029 0.656947 0.965545
0.928466 0.666285 0.962188
0.693599 0.775143 0.993439
0.696559 0.774960 0.993530
0.701320 0.767849 0.992126
0.724300 0.763729 0.989532
0.760311 0.758907 0.984283
0.804929 0.750759 0.976196
0.857389 0.741360 0.965728
0.933532 0.744320 0.963592
0.753048 0.866270 0.996979
0.754269 0.865385 0.996429
0.762112 0.863218 0.994659
0.780514 0.860655 0.992035
0.800320 0.850523 0.989014
0.838041 0.842496 0.985382
0.887785 0.834134 0.979828
0.956817 0.829923 0.978058
0.798489 0.934203 0.995697
0.800412 0.934173 0.995636
0.808988 0.934417 0.995514
0.828519 0.936004 0.995758
0.859007 0.938933 0.996277
0.897795 0.942229 0.996521
0.923766 0.927825 0.993042
0.973602 0.908782 0.986542
0.853269 0.985657 0.993072
0.854643 0.985657 0.993011
0.862364 0.985992 0.993011
0.879423 0.987213 0.993408
0.903716 0.988769 0.993774
0.933440 0.990600 0.994171
0.965423 0.992828 0.994781
0.993500 0.994934 0.995453
