20 Preset/Human Style/【3】LUT video cho PR-AE-FCPX/Joe-Allam (2)/JA – Night Pop 1 (Classic Chrome).cube
# Created by Adobe Lightroom plugin Export LUT (1.24.0)
# www.johnrellis.com/lightroom/exportlut.htm
# Preset: JA – Night Pop 1 (Classic Chrome)
# Color profile: E:\lut插件\exportlut.1.24\exportlut.lrplugin\color profiles\Rec709gamma2.4.icc
LUT_3D_SIZE 32
DOMAIN_MIN 0.0 0.0 0.0
DOMAIN_MAX 1.0 1.0 1.0
0.088197 0.098482 0.105684
0.088197 0.098482 0.105684
0.088197 0.098482 0.105684
0.088197 0.098482 0.105684
0.113130 0.095460 0.105928
0.147341 0.089204 0.106752
0.189303 0.067140 0.107790
0.242435 0.013031 0.109834
0.306523 0.000000 0.102876
0.377325 0.000000 0.098543
0.454719 0.000000 0.090761
0.536553 0.000000 0.069795
0.618189 0.000000 0.027802
0.694942 0.000000 0.000000
0.763333 0.000000 0.000000
0.824002 0.000000 0.000000
0.879118 0.000000 0.000000
0.931548 0.000000 0.000000
0.997467 0.000000 0.000000
1.000000 0.000000 0.000000
1.000000 0.000000 0.000000
1.000000 0.000000 0.000000
1.000000 0.000000 0.000000
1.000000 0.000000 0.000000
1.000000 0.000000 0.000000
1.000000 0.000000 0.000000
1.000000 0.000000 0.000000
1.000000 0.000000 0.000000
1.000000 0.000000 0.000000
1.000000 0.000000 0.000000
1.000000 0.000000 0.000000
1.000000 0.000000 0.000000
0.088197 0.098482 0.105684
0.088197 0.098482 0.105684
0.088197 0.098482 0.105684
0.088197 0.098482 0.105684
0.113130 0.095460 0.105928
0.146181 0.089448 0.106783
0.186374 0.069612 0.107820
0.238163 0.018189 0.108583
0.299413 0.000000 0.102785
0.368536 0.000000 0.098573
0.444099 0.000000 0.091341
0.524620 0.000000 0.072908
0.606043 0.000000 0.032227
0.683070 0.000000 0.000000
0.752163 0.000000 0.000000
0.813870 0.000000 0.000000
0.870085 0.000000 0.000000
0.923400 0.000000 0.000000
0.987640 0.000000 0.000000
1.000000 0.000000 0.000000
1.000000 0.000000 0.000000
1.000000 0.000000 0.000000
1.000000 0.000000 0.000000
1.000000 0.000000 0.000000
1.000000 0.000000 0.000000
1.000000 0.000000 0.000000
1.000000 0.000000 0.000000
1.000000 0.000000 0.000000
1.000000 0.000000 0.000000
1.000000 0.000000 0.000000
1.000000 0.000000 0.000000
1.000000 0.000000 0.000000
0.088197 0.098482 0.105684
0.088197 0.098482 0.105684
0.088197 0.098482 0.105684
0.088197 0.098482 0.105684
0.114717 0.095247 0.105928
0.147341 0.089204 0.106752
0.186282 0.069856 0.106111
0.235691 0.036103 0.103975
0.294194 0.000000 0.101411
0.362127 0.000000 0.096925
0.436896 0.000000 0.089174
0.516533 0.000000 0.066621
0.597131 0.000000 0.025544
0.674189 0.000000 0.000000
0.743648 0.000000 0.000000
0.805905 0.000000 0.000000
0.862577 0.000000 0.000000
0.918639 0.000000 0.000000
0.980652 0.000000 0.000000
1.000000 0.000000 0.000000
1.000000 0.000000 0.000000
1.000000 0.000000 0.000000
1.000000 0.000000 0.000000
1.000000 0.000000 0.000000
1.000000 0.000000 0.000000
1.000000 0.000000 0.000000
1.000000 0.000000 0.000000
1.000000 0.000000 0.000000
1.000000 0.000000 0.000000
1.000000 0.000000 0.000000
1.000000 0.000000 0.000000
1.000000 0.000000 0.000000
0.088197 0.098482 0.105684
0.088197 0.098482 0.105684
0.087526 0.099275 0.105623
0.091096 0.100008 0.106142
0.117006 0.099855 0.105318
0.147982 0.097963 0.104402
0.185367 0.094301 0.103426
0.233158 0.088380 0.101564
0.290501 0.070680 0.098360
0.357183 0.033539 0.092958
0.430915 0.000000 0.081666
0.509209 0.000000 0.051209
0.588739 0.000000 0.008392
0.665400 0.000000 0.000000
0.734676 0.000000 0.000000
0.796353 0.000000 0.000000
0.852903 0.000000 0.000000
0.911040 0.000000 0.000000
0.969238 0.000000 0.000000
1.000000 0.000000 0.000000
1.000000 0.000000 0.000000
1.000000 0.000000 0.000000
1.000000 0.000000 0.000000
1.000000 0.000000 0.000000
1.000000 0.000000 0.000000
1.000000 0.000000 0.000000
1.000000 0.000000 0.000000
1.000000 0.000000 0.000000
1.000000 0.000000 0.000000
1.000000 0.000000 0.000000
1.000000 0.000000 0.000000
1.000000 0.000000 0.000000
0.065064 0.114229 0.104067
0.064332 0.114534 0.104036
0.062928 0.115206 0.103914
0.090181 0.114961 0.104433
0.106874 0.112398 0.108553
0.128115 0.116121 0.112703
0.165743 0.118013 0.109407
0.215427 0.118471 0.104494
0.275914 0.117830 0.097963
0.344762 0.115175 0.088411
0.418616 0.110964 0.065156
0.496040 0.103883 0.029633
0.574762 0.095064 0.000000
0.651850 0.072602 0.000000
0.721950 0.030213 0.000000
0.785641 0.000000 0.000000
0.843626 0.000000 0.000000
0.906554 0.000000 0.000000
0.962737 0.000000 0.000000
1.000000 0.000000 0.000000
1.000000 0.000000 0.000000
1.000000 0.000000 0.000000
1.000000 0.000000 0.000000
1.000000 0.000000 0.000000
1.000000 0.000000 0.000000
1.000000 0.000000 0.000000
1.000000 0.000000 0.000000
1.000000 0.000000 0.000000
1.000000 0.000000 0.000000
1.000000 0.000000 0.000000
1.000000 0.000000 0.000000
1.000000 0.000000 0.000000
0.018433 0.133883 0.101167
0.017700 0.134157 0.101137
0.039277 0.133608 0.101472
0.081910 0.133242 0.101991
0.107729 0.130220 0.104952
0.124819 0.126833 0.110780
0.151095 0.132876 0.115633
0.186252 0.139742 0.118349
0.245335 0.147707 0.110719
0.314061 0.155123 0.100740
0.390906 0.161624 0.084413
0.472999 0.166751 0.036927
0.556451 0.170199 0.000000
0.637659 0.170809 0.000000
0.711696 0.168490 0.000000
0.778408 0.163119 0.000000
0.841032 0.156222 0.000000
0.907225 0.150637 0.000000
0.961975 0.142306 0.000000
1.000000 0.131289 0.000000
1.000000 0.119936 0.000000
1.000000 0.104829 0.000000
1.000000 0.112856 0.000000
1.000000 0.094087 0.000000
1.000000 0.046906 0.000000
1.000000 0.000000 0.000000
1.000000 0.000000 0.000000
1.000000 0.000000 0.000000
1.000000 0.000000 0.000000
1.000000 0.000000 0.000000
1.000000 0.000000 0.000000
1.000000 0.000000 0.000000
0.000000 0.164218 0.095552
0.000000 0.164126 0.095552
0.013367 0.163760 0.095857
0.072938 0.163027 0.096437
0.109468 0.160250 0.098970
0.133974 0.154330 0.105165
0.151858 0.150118 0.113069
0.189944 0.161776 0.117525
0.234165 0.173709 0.121309
0.296330 0.189090 0.118715
0.378576 0.205753 0.101747
0.467231 0.220829 0.063081
0.555871 0.231937 0.000000
0.640162 0.239048 0.000000
0.715511 0.241093 0.000000
0.782132 0.239841 0.000000
0.856870 0.240269 0.000000
0.922484 0.237980 0.000000
0.978698 0.232731 0.000000
1.000000 0.225742 0.000000
1.000000 0.217716 0.000000
1.000000 0.208713 0.000000
1.000000 0.198825 0.000000
1.000000 0.187869 0.000000
1.000000 0.174166 0.000000
1.000000 0.160708 0.000000
1.000000 0.144228 0.000000
1.000000 0.125917 0.000000
1.000000 0.103151 0.000000
1.000000 0.051362 0.000000
1.000000 0.000000 0.000000
1.000000 0.000000 0.000000
0.000000 0.196231 0.085267
0.000000 0.195987 0.085328
0.000000 0.195773 0.085054
0.050690 0.194980 0.086213
0.108339 0.193027 0.088563
0.138521 0.186587 0.095827
0.161349 0.178897 0.104158
0.180423 0.174380 0.112856
0.225803 0.190829 0.116609
0.277409 0.207248 0.119295
0.338781 0.225803 0.122438
0.420203 0.247135 0.108888
0.511894 0.266239 0.062959
0.600122 0.280400 0.000000
0.680720 0.288304 0.000000
0.760250 0.294652 0.000000
0.836698 0.298405 0.000000
0.900725 0.297307 0.000000
0.956542 0.293309 0.000000
1.000000 0.287663 0.000000
1.000000 0.280705 0.000000
1.000000 0.273167 0.000000
1.000000 0.264256 0.000000
1.000000 0.254490 0.000000
1.000000 0.243320 0.000000
1.000000 0.230655 0.000000
1.000000 0.216587 0.000000
1.000000 0.200839 0.000000
1.000000 0.184512 0.000000
1.000000 0.167910 0.000000
1.000000 0.149752 0.000000
1.000000 0.129610 0.000000
0.000000 0.236698 0.045106
0.000000 0.236606 0.045045
0.000000 0.236179 0.046021
0.030701 0.235325 0.046845
0.107912 0.234165 0.049439
0.144350 0.227359 0.069093
0.172885 0.219089 0.088563
0.194644 0.209873 0.098726
0.215610 0.205173 0.110079
0.268589 0.226352 0.112093
0.327977 0.247135 0.113619
0.394812 0.269230 0.116304
0.467689 0.291325 0.122530
0.559289 0.312871 0.087953
0.654047 0.331762 0.000000
0.740505 0.344121 0.000000
0.815000 0.349554 0.000000
0.879423 0.349615 0.000000
0.935943 0.346654 0.000000
0.987945 0.341894 0.000000
1.000000 0.336278 0.000000
1.000000 0.329198 0.000000
1.000000 0.320928 0.000000
1.000000 0.311559 0.000000
1.000000 0.300847 0.000000
1.000000 0.288548 0.000000
1.000000 0.275700 0.000000
1.000000 0.261814 0.000000
1.000000 0.247654 0.000000
1.000000 0.232517 0.000000
1.000000 0.216403 0.000000
1.000000 0.199435 0.000000
0.000000 0.285679 0.000000
0.000000 0.285557 0.000000
0.000000 0.284733 0.000000
0.000000 0.283757 0.000000
0.105776 0.281834 0.000000
0.150790 0.275731 0.000732
0.185153 0.266453 0.026764
0.212467 0.256565 0.058595
0.233524 0.245701 0.088716
0.256443 0.240879 0.103120
0.315282 0.265232 0.104005
0.379614 0.289128 0.104280
0.449958 0.313359 0.107271
0.535180 0.343145 0.117006
0.622034 0.369055 0.123751
0.710536 0.385687 0.073518
0.787930 0.394751 0.000000
0.856321 0.397772 0.000000
0.915465 0.396887 0.000000
0.969207 0.393469 0.000000
1.000000 0.388464 0.000000
1.000000 0.381323 0.000000
1.000000 0.372900 0.000000
1.000000 0.363043 0.000000
1.000000 0.352300 0.000000
1.000000 0.340124 0.000000
1.000000 0.327550 0.000000
1.000000 0.314427 0.000000
1.000000 0.300816 0.000000
1.000000 0.286961 0.000000
1.000000 0.272435 0.000000
1.000000 0.257389 0.000000
0.000000 0.337987 0.000000
0.000000 0.337804 0.000000
0.000000 0.337652 0.000000
0.000000 0.336889 0.000000
0.082124 0.335668 0.000000
0.149264 0.332189 0.000000
0.194430 0.323552 0.000000
0.230014 0.313420 0.000000
0.258274 0.301946 0.009461
0.280552 0.289311 0.055207
0.305699 0.284123 0.090486
0.375463 0.315770 0.085298
0.452277 0.346715 0.082673
0.531914 0.375677 0.093324
0.610498 0.400793 0.116823
0.682155 0.420966 0.150942
0.755612 0.435126 0.151675
0.827146 0.441840 0.121248
0.888670 0.443275 0.079164
0.944121 0.441535 0.000000
0.994354 0.437171 0.000000
1.000000 0.431189 0.000000
1.000000 0.423590 0.000000
1.000000 0.414435 0.000000
1.000000 0.403876 0.000000
1.000000 0.392218 0.000000
1.000000 0.379797 0.000000
1.000000 0.366705 0.000000
1.000000 0.353002 0.000000
1.000000 0.339361 0.000000
1.000000 0.325322 0.000000
1.000000 0.310826 0.000000
0.000000 0.400916 0.000000
0.000000 0.400824 0.000000
0.000000 0.400488 0.000000
0.000000 0.399756 0.000000
0.000000 0.398718 0.000000
0.140749 0.397620 0.000000
0.200381 0.390326 0.000000
0.246128 0.380194 0.000000
0.283238 0.368627 0.000000
0.317327 0.360235 0.000000
0.346441 0.350591 0.000000
0.379736 0.348943 0.039765
0.512230 0.426184 0.008362
0.595361 0.455940 0.060487
0.670375 0.478126 0.119387
0.737789 0.495308 0.166445
0.798306 0.509667 0.214084
0.850858 0.522606 0.265599
0.910979 0.524498 0.254215
0.965820 0.522240 0.237125
1.000000 0.516686 0.219760
1.000000 0.508598 0.201877
1.000000 0.498665 0.183536
1.000000 0.487404 0.164492
1.000000 0.475044 0.143038
1.000000 0.461189 0.115328
1.000000 0.446937 0.062684
1.000000 0.431952 0.000000
1.000000 0.417060 0.000000
1.000000 0.402075 0.000000
1.000000 0.387152 0.000000
1.000000 0.372259 0.000000
0.000000 0.489021 0.000000
0.000000 0.488746 0.000000
0.000000 0.487495 0.000000
0.000000 0.485512 0.000000
0.000000 0.483253 0.000000
0.123293 0.484291 0.000000
0.210239 0.482765 0.000000
0.272740 0.476661 0.000000
0.324926 0.469368 0.000000
0.370703 0.461402 0.000000
0.411322 0.452857 0.000000
0.446754 0.443153 0.000000
0.487526 0.441840 0.000000
0.567926 0.472847 0.002441
0.646143 0.499123 0.095644
0.714778 0.517449 0.148592
0.775906 0.531701 0.196658
0.828733 0.543114 0.242893
0.875456 0.553857 0.289586
0.922423 0.561639 0.317662
0.974212 0.558953 0.302495
1.000000 0.553552 0.288365
1.000000 0.545983 0.275151
1.000000 0.536614 0.262364
1.000000 0.525658 0.249363
1.000000 0.513237 0.235538
1.000000 0.500175 0.221378
1.000000 0.486458 0.206302
1.000000 0.472328 0.189975
1.000000 0.458564 0.173922
1.000000 0.444556 0.156222
1.000000 0.430549 0.135958
0.000000 0.568078 0.000000
0.000000 0.567620 0.000000
0.000000 0.566155 0.000000
0.000000 0.564691 0.000000
0.000000 0.562799 0.000000
0.064454 0.560540 0.000000
0.204288 0.558770 0.000000
0.278447 0.550866 0.000000
0.338415 0.541802 0.000000
0.390387 0.532860 0.000000
0.436774 0.523583 0.000000
0.478279 0.513634 0.000000
0.513603 0.501701 0.000000
0.552514 0.497047 0.000000
0.623529 0.519585 0.041962
0.693111 0.539544 0.127718
0.754269 0.553735 0.179812
0.808408 0.564721 0.227787
0.855955 0.574395 0.273503
0.898863 0.584100 0.317540
0.937407 0.595178 0.363745
0.983062 0.596490 0.366217
1.000000 0.591882 0.355138
1.000000 0.585077 0.345037
1.000000 0.576349 0.335271
1.000000 0.565759 0.325170
1.000000 0.554284 0.315343
1.000000 0.541802 0.305028
1.000000 0.529168 0.295445
1.000000 0.516686 0.286656
1.000000 0.504417 0.278691
1.000000 0.492103 0.270787
0.000000 0.633906 0.000000
0.000000 0.633478 0.000000
0.000000 0.631891 0.000000
0.000000 0.629541 0.000000
0.000000 0.626398 0.000000
0.000000 0.622797 0.000000
0.184360 0.619684 0.000000
0.273747 0.613916 0.000000
0.341650 0.605219 0.000000
0.398993 0.596551 0.000000
0.451362 0.587396 0.000000
0.498299 0.577905 0.000000
0.539574 0.566857 0.000000
0.574121 0.553521 0.000000
0.609674 0.545220 0.000000
0.671565 0.560327 0.103578
0.734798 0.576196 0.162936
0.789731 0.587335 0.213199
0.838315 0.596368 0.260685
0.882078 0.604944 0.305791
0.921965 0.614313 0.348882
0.957641 0.624964 0.392737
0.991455 0.634302 0.428260
1.000000 0.630304 0.419348
1.000000 0.623926 0.410986
1.000000 0.615961 0.403418
1.000000 0.606714 0.396429
1.000000 0.596674 0.390051
1.000000 0.586511 0.384924
1.000000 0.576562 0.381079
1.000000 0.567010 0.378546
1.000000 0.557824 0.376928
0.000000 0.685206 0.000000
0.000000 0.685298 0.000000
0.000000 0.684535 0.000000
0.000000 0.683101 0.000000
0.000000 0.681025 0.000000
0.000000 0.678798 0.000000
0.155276 0.676844 0.000000
0.263127 0.674983 0.000000
0.340551 0.667689 0.000000
0.405188 0.659297 0.000000
0.461585 0.649989 0.000000
0.511955 0.639216 0.000000
0.556207 0.626978 0.000000
0.594049 0.612512 0.000000
0.624842 0.595911 0.000000
0.655573 0.583856 0.000000
0.710475 0.593866 0.139498
0.768704 0.607141 0.194522
0.818753 0.616236 0.245090
0.864042 0.624598 0.292180
0.906035 0.633814 0.337407
0.943908 0.643732 0.381201
0.976959 0.654261 0.424140
1.000000 0.666712 0.471077
1.000000 0.668818 0.481300
1.000000 0.663844 0.475898
1.000000 0.657496 0.471565
1.000000 0.649928 0.467720
1.000000 0.641840 0.464729
1.000000 0.633906 0.463020
1.000000 0.626032 0.462104
1.000000 0.618647 0.462287
0.000000 0.728817 0.000000
0.000000 0.728725 0.000000
0.000000 0.728115 0.000000
0.000000 0.727016 0.000000
0.000000 0.725521 0.000000
0.000000 0.723720 0.000000
0.100771 0.721828 0.000000
0.244022 0.719997 0.000000
0.329229 0.715145 0.000000
0.398352 0.707454 0.000000
0.459174 0.698726 0.000000
0.513176 0.688838 0.000000
0.561517 0.677638 0.000000
0.603754 0.664454 0.000000
0.639734 0.649378 0.000000
0.669306 0.632441 0.000000
0.698085 0.619532 0.093660
0.748226 0.626734 0.176425
0.801663 0.637812 0.230716
0.847990 0.645930 0.280125
0.891447 0.654627 0.326940
0.930877 0.663874 0.372503
0.965484 0.673548 0.416022
0.995453 0.683772 0.458625
1.000000 0.695705 0.504051
1.000000 0.705653 0.538048
1.000000 0.702235 0.535393
1.000000 0.697322 0.533562
1.000000 0.691890 0.532799
1.000000 0.686183 0.533074
1.000000 0.680629 0.534234
1.000000 0.675410 0.536431
0.000000 0.770596 0.000000
0.000000 0.770962 0.000000
0.000000 0.800900 0.000000
0.000000 0.799954 0.000000
0.000000 0.798550 0.000000
0.000000 0.796567 0.000000
0.011444 0.794125 0.000000
0.241276 0.791653 0.000000
0.334356 0.788632 0.000000
0.410010 0.781186 0.000000
0.475776 0.772763 0.000000
0.534447 0.763058 0.000000
0.586755 0.751675 0.000000
0.633265 0.738521 0.000000
0.673762 0.723568 0.000000
0.708095 0.706905 0.000000
0.736019 0.688472 0.019348
0.761074 0.672724 0.176883
0.802640 0.674189 0.241947
0.849760 0.681971 0.291417
0.891661 0.688594 0.337591
0.930053 0.695918 0.382727
0.963897 0.703395 0.425116
0.992981 0.711147 0.465492
1.000000 0.719326 0.504967
1.000000 0.728939 0.545464
1.000000 0.739254 0.582452
1.000000 0.740047 0.591913
1.000000 0.736080 0.591180
1.000000 0.731960 0.591913
1.000000 0.728084 0.593988
1.000000 0.724483 0.597040
0.000000 0.817075 0.000000
0.000000 0.819669 0.000000
0.000000 0.822049 0.000000
0.000000 0.823728 0.000000
0.000000 0.824430 0.000000
0.000000 0.823453 0.000000
0.000000 0.821500 0.000000
0.210575 0.819028 0.000000
0.311406 0.816526 0.000000
0.390753 0.810910 0.000000
0.458869 0.803128 0.000000
0.519371 0.794400 0.000000
0.573938 0.783932 0.000000
0.622614 0.772366 0.000000
0.666255 0.759121 0.000000
0.704677 0.744503 0.000000
0.737575 0.728817 0.000000
0.765499 0.712093 0.124361
0.790341 0.697871 0.212863
0.829862 0.699214 0.274357
0.875486 0.707546 0.324041
0.915801 0.714931 0.371069
0.951476 0.722042 0.415747
0.982208 0.729061 0.457282
1.000000 0.735866 0.495094
1.000000 0.743862 0.535637
1.000000 0.752865 0.574243
1.000000 0.762966 0.610346
1.000000 0.771267 0.637201
1.000000 0.769131 0.638666
1.000000 0.767117 0.641688
1.000000 0.765286 0.645777
0.000000 0.845457 0.000000
0.000000 0.847898 0.000000
0.000000 0.850248 0.000000
0.000000 0.852049 0.000000
0.000000 0.852781 0.000000
0.000000 0.852140 0.000000
0.000000 0.850401 0.000000
0.180301 0.848112 0.000000
0.291600 0.845670 0.000000
0.373419 0.842130 0.000000
0.443946 0.835142 0.000000
0.506645 0.827115 0.000000
0.562982 0.818051 0.000000
0.614221 0.807767 0.000000
0.660639 0.796201 0.000000
0.702083 0.783383 0.000000
0.738857 0.769253 0.000000
0.770718 0.754238 0.111147
0.798062 0.738643 0.176364
0.822202 0.725368 0.251347
0.859159 0.726314 0.310246
0.901884 0.734218 0.359930
0.939300 0.741146 0.406104
0.971588 0.747677 0.449317
0.998993 0.753689 0.488594
1.000000 0.759976 0.526574
1.000000 0.767758 0.566796
1.000000 0.776547 0.604303
1.000000 0.786831 0.639918
1.000000 0.798489 0.673548
1.000000 0.800870 0.683345
1.000000 0.800412 0.687709
0.000000 0.873350 0.000000
0.000000 0.875425 0.000000
0.000000 0.877287 0.000000
0.000000 0.878660 0.000000
0.000000 0.879240 0.000000
0.000000 0.878538 0.000000
0.000000 0.877134 0.000000
0.142245 0.875120 0.000000
0.270939 0.872923 0.000000
0.355932 0.870390 0.000000
0.428626 0.865019 0.000000
0.493141 0.858030 0.000000
0.551354 0.850004 0.000000
0.604578 0.841001 0.000000
0.653162 0.831052 0.000000
0.697780 0.820127 0.000000
0.738430 0.808591 0.000000
0.775174 0.796475 0.113680
0.808042 0.784115 0.184451
0.837247 0.771542 0.233310
0.862364 0.760769 0.303349
0.897612 0.762387 0.363287
0.936492 0.769802 0.413275
0.970153 0.776638 0.460029
0.998413 0.782650 0.501610
1.000000 0.787961 0.538659
1.000000 0.794614 0.579309
1.000000 0.802396 0.618036
1.000000 0.811612 0.654536
1.000000 0.821988 0.688136
1.000000 0.833524 0.719509
1.000000 0.842069 0.740993
0.000000 0.911192 0.000000
0.000000 0.911894 0.000000
0.000000 0.912230 0.000000
0.000000 0.912078 0.000000
0.000000 0.911345 0.000000
0.000000 0.910033 0.000000
0.000000 0.908324 0.000000
0.114168 0.906340 0.000000
0.256870 0.904265 0.000000
0.345006 0.902037 0.000000
0.418250 0.898741 0.000000
0.484688 0.892699 0.000000
0.544366 0.885863 0.000000
0.599451 0.878080 0.000000
0.650202 0.869352 0.000000
0.696986 0.859800 0.000000
0.739956 0.849516 0.000000
0.779202 0.838621 0.139620
0.814725 0.827207 0.201999
0.846586 0.815518 0.248173
0.874540 0.803494 0.286870
0.896971 0.792081 0.350713
0.926848 0.791226 0.406592
0.959991 0.795804 0.452247
0.989166 0.800656 0.494606
1.000000 0.805295 0.533013
1.000000 0.810666 0.573053
1.000000 0.817441 0.613733
1.000000 0.825559 0.651728
1.000000 0.834775 0.686458
1.000000 0.845121 0.718654
1.000000 0.856840 0.749447
0.000000 0.933379 0.000000
0.000000 0.933898 0.000000
0.000000 0.934173 0.000000
0.000000 0.933989 0.000000
0.000000 0.933440 0.000000
0.000000 0.932403 0.000000
0.000000 0.930938 0.000000
0.031037 0.929198 0.000000
0.238956 0.927398 0.000000
0.329442 0.925383 0.000000
0.402747 0.923217 0.000000
0.469886 0.918456 0.000000
0.531212 0.912596 0.000000
0.587549 0.906004 0.000000
0.640040 0.898711 0.000000
0.688441 0.890776 0.000000
0.733761 0.882200 0.000000
0.775448 0.873167 0.159487
0.813931 0.863584 0.217533
0.848997 0.853696 0.263035
0.880552 0.843595 0.302678
0.908568 0.833280 0.338048
0.929198 0.822446 0.399756
0.955108 0.820401 0.452918
0.978332 0.817075 0.483253
1.000000 0.820645 0.522850
1.000000 0.825101 0.562890
1.000000 0.830900 0.605554
1.000000 0.837919 0.645289
1.000000 0.846098 0.681727
1.000000 0.855741 0.715724
1.000000 0.866941 0.748318
0.000000 0.958618 0.000000
0.000000 0.959350 0.000000
0.000000 0.959533 0.000000
0.000000 0.958984 0.000000
0.000000 0.957946 0.000000
0.000000 0.956329 0.000000
0.000000 0.954345 0.000000
0.000000 0.952087 0.000000
0.223758 0.949615 0.000000
0.314763 0.947051 0.000000
0.387152 0.944244 0.000000
0.453559 0.940490 0.000000
0.515099 0.934813 0.000000
0.571984 0.928466 0.000000
0.624323 0.921447 0.000000
0.673335 0.913848 0.000000
0.719142 0.905791 0.000000
0.762173 0.897490 0.144808
0.802365 0.889158 0.209476
0.839872 0.880858 0.259190
0.874357 0.872404 0.301335
0.905333 0.863676 0.339147
0.932586 0.854459 0.372778
0.950896 0.843320 0.431800
0.972839 0.839445 0.481056
0.997131 0.839933 0.519005
1.000000 0.841947 0.556603
1.000000 0.846067 0.599878
1.000000 0.851469 0.640375
1.000000 0.858335 0.677699
1.000000 0.866880 0.712978
1.000000 0.877012 0.746670
0.000000 0.973175 0.000000
0.000000 0.973785 0.000000
0.000000 0.974060 0.000000
0.000000 0.973785 0.000000
0.000000 0.973175 0.000000
0.000000 0.972259 0.000000
0.000000 0.971069 0.000000
0.000000 0.969635 0.000000
0.206119 0.968109 0.000000
0.300664 0.966369 0.000000
0.374334 0.964324 0.000000
0.438819 0.962066 0.000000
0.501610 0.957519 0.000000
0.559411 0.952178 0.000000
0.612940 0.946197 0.000000
0.662837 0.939696 0.000000
0.709895 0.932708 0.049683
0.753994 0.925536 0.170962
0.795682 0.918273 0.229526
0.834775 0.911070 0.276524
0.871153 0.903807 0.318975
0.904417 0.896452 0.356542
0.934356 0.888884 0.391180
0.960937 0.881071 0.422736
0.977173 0.870268 0.479805
0.995697 0.865599 0.526116
1.000000 0.864988 0.563561
1.000000 0.866728 0.605371
1.000000 0.871031 0.646937
1.000000 0.876768 0.685115
1.000000 0.884062 0.720729
1.000000 0.892912 0.754696
0.000000 0.989960 0.000000
0.000000 0.990204 0.000000
0.000000 0.990173 0.000000
0.000000 0.989868 0.000000
0.000000 0.989258 0.000000
0.000000 0.988342 0.000000
0.000000 0.987243 0.000000
0.000000 0.985901 0.000000
0.184024 0.984436 0.000000
0.283513 0.982757 0.000000
0.358129 0.980896 0.000000
0.422797 0.978820 0.000000
0.483986 0.975677 0.000000
0.542687 0.971099 0.000000
0.597192 0.965911 0.000000
0.648157 0.960235 0.000000
0.696040 0.954223 0.069734
0.741451 0.947936 0.177401
0.784360 0.941619 0.236728
0.824735 0.935393 0.285374
0.862486 0.929137 0.328313
0.897337 0.922789 0.367315
0.929107 0.916228 0.402441
0.957794 0.909483 0.434638
0.983215 0.902586 0.464088
0.996979 0.891722 0.518791
1.000000 0.886595 0.568414
1.000000 0.885405 0.607263
1.000000 0.886778 0.646052
1.000000 0.891417 0.685389
1.000000 0.897520 0.722072
1.000000 0.905394 0.757107
0.000000 1.000000 0.000000
0.000000 1.000000 0.000000
0.000000 1.000000 0.000000
0.000000 1.000000 0.000000
0.000000 1.000000 0.000000
0.000000 1.000000 0.000000
0.000000 1.000000 0.000000
0.000000 1.000000 0.000000
0.171450 1.000000 0.000000
0.275364 1.000000 0.000000
0.351843 1.000000 0.000000
0.416693 0.999695 0.000000
0.475807 0.998413 0.000000
0.536675 0.995148 0.000000
0.592798 0.991302 0.000000
0.644923 0.986816 0.104005
0.693690 0.981903 0.193973
0.740017 0.976715 0.251194
0.783719 0.971496 0.299077
0.824887 0.966247 0.342473
0.863371 0.961059 0.382696
0.899107 0.955810 0.419348
0.931762 0.950439 0.452857
0.961395 0.945037 0.483864
0.988098 0.939666 0.512902
1.000000 0.934447 0.546990
1.000000 0.924498 0.604120
1.000000 0.919371 0.647913
1.000000 0.917266 0.679805
1.000000 0.917845 0.711879
1.000000 0.922576 0.747890
1.000000 0.922271 0.762325
0.000000 1.000000 0.000000
0.000000 1.000000 0.000000
0.000000 1.000000 0.000000
0.000000 1.000000 0.000000
0.000000 1.000000 0.000000
0.000000 1.000000 0.000000
0.000000 1.000000 0.000000
0.000000 1.000000 0.000000
0.153292 1.000000 0.000000
0.260075 1.000000 0.000000
0.335363 1.000000 0.000000
0.399176 1.000000 0.000000
0.457527 1.000000 0.000000
