20 Preset/Human Style/【3】LUT video cho PR-AE-FCPX/Joe-Allam (2)/JA – Faded Soft 2 (Classic Chrome).cube
# Created by Adobe Lightroom plugin Export LUT (1.24.0)
# www.johnrellis.com/lightroom/exportlut.htm
# Preset: JA – Faded Soft 2 (Classic Chrome)
# Color profile: E:\lut插件\exportlut.1.24\exportlut.lrplugin\color profiles\Rec709gamma2.4.icc
LUT_3D_SIZE 32
DOMAIN_MIN 0.0 0.0 0.0
DOMAIN_MAX 1.0 1.0 1.0
0.070954 0.086519 0.090669
0.070954 0.086519 0.090669
0.070954 0.086519 0.090669
0.093080 0.084627 0.090974
0.134829 0.078584 0.092866
0.170535 0.066407 0.094911
0.202548 0.071015 0.097780
0.232212 0.082490 0.100252
0.263005 0.090059 0.102937
0.299016 0.096315 0.105653
0.344488 0.102876 0.107088
0.403540 0.109133 0.106630
0.473640 0.115053 0.102876
0.547356 0.123812 0.096040
0.616632 0.133181 0.086427
0.675288 0.145907 0.066926
0.724971 0.157717 0.050202
0.768948 0.171389 0.034485
0.810788 0.184085 0.021668
0.851743 0.196933 0.010803
0.901884 0.212314 0.000000
0.946014 0.225986 0.000000
0.984161 0.238712 0.001007
1.000000 0.250370 0.013642
1.000000 0.260838 0.043824
1.000000 0.270878 0.085328
1.000000 0.281315 0.110170
1.000000 0.291783 0.135927
1.000000 0.303807 0.164401
1.000000 0.318151 0.195987
1.000000 0.336400 0.232822
1.000000 0.360418 0.275059
0.070954 0.086519 0.090669
0.070954 0.086519 0.090669
0.070954 0.086519 0.090669
0.094240 0.085115 0.090913
0.135531 0.079042 0.092805
0.170321 0.068818 0.094789
0.201297 0.078614 0.097475
0.230930 0.086183 0.100069
0.261082 0.092226 0.103548
0.296208 0.099001 0.105226
0.340520 0.104555 0.107240
0.398016 0.110658 0.106752
0.467231 0.117189 0.103243
0.540490 0.125582 0.096834
0.610193 0.135866 0.086976
0.669734 0.147738 0.069276
0.720241 0.159670 0.050874
0.764492 0.173037 0.034211
0.806546 0.185824 0.020142
0.847379 0.197604 0.010742
0.896239 0.212253 0.000000
0.939452 0.225162 0.000000
0.976959 0.237858 0.000000
1.000000 0.249027 0.009705
1.000000 0.259129 0.034791
1.000000 0.269230 0.075502
1.000000 0.279210 0.104250
1.000000 0.289586 0.129305
1.000000 0.300999 0.157656
1.000000 0.314672 0.188724
1.000000 0.332128 0.224918
1.000000 0.355200 0.266789
0.070954 0.086519 0.090669
0.070954 0.086519 0.090669
0.070954 0.086519 0.090669
0.102510 0.084047 0.091249
0.139101 0.085481 0.093416
0.170809 0.089693 0.095338
0.201175 0.093599 0.097993
0.230228 0.097261 0.100313
0.260349 0.102052 0.103426
0.295140 0.107820 0.105837
0.339361 0.113588 0.107454
0.396368 0.120089 0.106874
0.464210 0.127657 0.102602
0.536950 0.136751 0.095644
0.606348 0.147066 0.085451
0.666285 0.157839 0.065705
0.716854 0.169924 0.045472
0.761624 0.181308 0.030640
0.803616 0.192844 0.017395
0.845090 0.204349 0.007111
0.893370 0.218265 0.000000
0.935943 0.231144 0.000000
0.973297 0.242313 0.000000
1.000000 0.252873 0.005005
1.000000 0.262730 0.026856
1.000000 0.271794 0.066682
1.000000 0.281468 0.100252
1.000000 0.291264 0.126436
1.000000 0.302281 0.154086
1.000000 0.315496 0.185519
1.000000 0.332372 0.221042
1.000000 0.354589 0.262852
0.055543 0.101106 0.090455
0.062043 0.101595 0.090333
0.090028 0.102388 0.089937
0.113008 0.103304 0.092622
0.142855 0.106966 0.094759
0.172732 0.109682 0.096651
0.202518 0.111757 0.099092
0.230869 0.115114 0.101289
0.260716 0.119020 0.104372
0.295903 0.123537 0.106416
0.339727 0.129519 0.107179
0.396490 0.137209 0.105531
0.463813 0.146029 0.101045
0.535424 0.156008 0.093599
0.603815 0.165957 0.080262
0.662928 0.176974 0.057771
0.713222 0.187228 0.037140
0.757504 0.197421 0.021820
0.799130 0.207431 0.007355
0.841489 0.217868 0.000000
0.887449 0.229374 0.000000
0.928832 0.240146 0.000000
0.965972 0.250919 0.000000
1.000000 0.260319 0.000000
1.000000 0.269657 0.016205
1.000000 0.278904 0.054261
1.000000 0.287907 0.096803
1.000000 0.297307 0.123415
1.000000 0.307836 0.152529
1.000000 0.320592 0.184329
1.000000 0.336309 0.220157
1.000000 0.357183 0.260807
0.090517 0.129885 0.087404
0.093599 0.130159 0.087892
0.107729 0.130312 0.087953
0.128054 0.129763 0.091279
0.148806 0.127596 0.095888
0.175875 0.131746 0.098604
0.203433 0.134157 0.101198
0.231113 0.135958 0.103243
0.260655 0.139162 0.105531
0.295750 0.143557 0.106722
0.339696 0.149630 0.107210
0.395911 0.158389 0.104402
0.462226 0.169589 0.098939
0.533135 0.180423 0.090059
0.600916 0.192020 0.069306
0.660182 0.202335 0.042084
0.710780 0.211429 0.021973
0.755428 0.219394 0.007355
0.797147 0.227665 0.000000
0.841062 0.237247 0.000000
0.885588 0.247501 0.000000
0.926085 0.256840 0.000000
0.963012 0.265537 0.000000
0.997467 0.274327 0.000000
1.000000 0.282719 0.004303
1.000000 0.290379 0.045869
1.000000 0.298497 0.093294
1.000000 0.307103 0.121920
1.000000 0.316503 0.151858
1.000000 0.328161 0.183352
1.000000 0.342992 0.219364
1.000000 0.362737 0.259922
0.111360 0.153933 0.084138
0.113985 0.154330 0.084535
0.123934 0.154360 0.084047
0.140658 0.154391 0.087343
0.156985 0.150057 0.094759
0.181338 0.151278 0.100313
0.208316 0.155764 0.103670
0.233799 0.159060 0.105928
0.263920 0.162173 0.106966
0.299718 0.167239 0.107027
0.344854 0.174533 0.105989
0.401831 0.185183 0.102174
0.468116 0.197757 0.093904
0.537530 0.210575 0.080323
0.604211 0.222416 0.048676
0.662287 0.231418 0.022583
0.711971 0.239719 0.001007
0.756527 0.246403 0.000000
0.798245 0.253635 0.000000
0.844083 0.262028 0.000000
0.887572 0.270939 0.000000
0.927550 0.278752 0.000000
1.000000 0.299535 0.000000
1.000000 0.307012 0.000000
1.000000 0.313817 0.044343
1.000000 0.320714 0.095735
1.000000 0.327764 0.125185
1.000000 0.335668 0.154971
1.000000 0.345708 0.185824
1.000000 0.358312 0.220096
1.000000 0.374914 0.258213
1.000000 0.396429 0.300237
0.135714 0.181552 0.077882
0.136965 0.181460 0.077852
0.145113 0.181918 0.077760
0.159518 0.182040 0.080354
0.176669 0.181186 0.088777
0.190249 0.174228 0.099611
0.217014 0.178378 0.104555
0.247379 0.184298 0.106142
0.278264 0.190097 0.106996
0.317357 0.198672 0.106142
0.367498 0.209262 0.101808
0.429023 0.222812 0.094545
0.496315 0.237247 0.078431
0.563806 0.250584 0.042542
0.625727 0.261082 0.010773
0.678828 0.268650 0.000000
0.725277 0.274815 0.000000
0.767727 0.280247 0.000000
0.812528 0.286900 0.000000
0.860716 0.295323 0.000000
0.906096 0.303044 0.000000
0.948272 0.310613 0.000000
0.987274 0.318181 0.000000
1.000000 0.325322 0.000000
1.000000 0.331670 0.015839
1.000000 0.337713 0.085878
1.000000 0.343511 0.118807
1.000000 0.350042 0.149722
1.000000 0.358129 0.181674
1.000000 0.368933 0.216007
1.000000 0.383581 0.253910
1.000000 0.402960 0.295079
0.156680 0.204410 0.065370
0.157870 0.204440 0.066346
0.163821 0.204776 0.065278
0.175540 0.205081 0.067964
0.190585 0.204654 0.079927
0.208377 0.204135 0.090730
0.221469 0.196719 0.102419
0.251347 0.203342 0.105318
0.288334 0.213687 0.104463
0.328008 0.223941 0.102510
0.378119 0.238621 0.096559
0.438239 0.255100 0.085695
0.503655 0.270451 0.052857
0.568658 0.284184 0.012024
0.627924 0.294377 0.000000
0.678828 0.301335 0.000000
0.724178 0.306401 0.000000
0.767056 0.311040 0.000000
0.814420 0.317845 0.000000
0.859831 0.324224 0.000000
0.903044 0.330327 0.000000
0.943999 0.336278 0.000000
0.982300 0.342321 0.000000
1.000000 0.348211 0.000000
1.000000 0.353338 0.000000
1.000000 0.357855 0.069703
1.000000 0.362432 0.114290
1.000000 0.367468 0.147097
1.000000 0.374426 0.179995
1.000000 0.383673 0.214664
1.000000 0.396674 0.253025
1.000000 0.414221 0.294469
0.177890 0.229953 0.074159
0.179232 0.229953 0.073945
0.183932 0.230259 0.074037
0.193912 0.230777 0.073030
0.207614 0.230869 0.076387
0.224338 0.230472 0.083986
0.239994 0.227451 0.091798
0.258122 0.223362 0.101900
0.295445 0.235050 0.101564
0.344244 0.252049 0.095186
0.395697 0.268376 0.084840
0.454444 0.286870 0.054963
0.516564 0.305211 0.012238
0.578393 0.319524 0.000000
0.633875 0.329168 0.000000
0.682399 0.334997 0.000000
0.726680 0.339239 0.000000
0.773281 0.344945 0.000000
0.817960 0.349889 0.000000
0.861357 0.354986 0.000000
0.903014 0.359960 0.000000
0.942473 0.364599 0.000000
0.979858 0.369299 0.000000
1.000000 0.373754 0.000000
1.000000 0.377722 0.000000
1.000000 0.380957 0.053895
1.000000 0.384253 0.111543
1.000000 0.388190 0.146395
1.000000 0.393683 0.181125
1.000000 0.401617 0.216739
1.000000 0.413184 0.255650
1.000000 0.429267 0.297826
0.202182 0.261143 0.075685
0.203067 0.261173 0.075502
0.207675 0.261265 0.073457
0.216617 0.262242 0.070375
0.229831 0.262852 0.070344
0.245792 0.262608 0.077729
0.264439 0.262425 0.085298
0.278904 0.256992 0.094484
0.305791 0.258274 0.100862
0.354253 0.276555 0.088869
0.414496 0.299474 0.048829
0.471565 0.317845 0.009277
0.530907 0.335912 0.000000
0.588281 0.351171 0.000000
0.640101 0.363012 0.000000
0.688350 0.369055 0.000000
0.735439 0.374945 0.000000
0.779995 0.379187 0.000000
0.823178 0.383337 0.000000
0.865080 0.387366 0.000000
0.904784 0.390906 0.000000
0.942016 0.394110 0.000000
0.977325 0.397070 0.000000
1.000000 0.399786 0.000000
1.000000 0.402258 0.000000
1.000000 0.404089 0.031739
1.000000 0.406409 0.105318
1.000000 0.409216 0.143496
1.000000 0.413611 0.180148
1.000000 0.420478 0.218082
1.000000 0.430915 0.258183
1.000000 0.445624 0.301061
0.231662 0.298772 0.051637
0.232975 0.299077 0.048554
0.237186 0.299535 0.046845
0.246006 0.300542 0.045380
0.259586 0.302464 0.038605
0.275700 0.303105 0.044862
0.295445 0.303655 0.049897
0.317388 0.304692 0.059663
0.331456 0.297063 0.087190
0.372412 0.306126 0.088197
0.430304 0.329076 0.032441
0.494453 0.352789 0.000000
0.550347 0.369329 0.000000
0.602777 0.382696 0.000000
0.654566 0.394568 0.000000
0.700618 0.403479 0.000000
0.743648 0.409888 0.000000
0.786191 0.413336 0.000000
0.827604 0.416510 0.000000
0.867735 0.419318 0.000000
0.905791 0.421729 0.000000
0.941833 0.423835 0.000000
0.976196 0.425879 0.000000
1.000000 0.427558 0.000000
1.000000 0.429053 0.000000
1.000000 0.430121 0.021637
1.000000 0.431342 0.106661
1.000000 0.433082 0.147799
1.000000 0.436591 0.185458
1.000000 0.442481 0.224765
1.000000 0.451881 0.265415
1.000000 0.465370 0.308904
0.270909 0.348638 0.000000
0.271855 0.348943 0.000000
0.276341 0.349401 0.000000
0.285252 0.350896 0.000000
0.298894 0.353155 0.000000
0.316442 0.354864 0.000000
0.336889 0.356207 0.000000
0.360540 0.357794 0.000000
0.385595 0.358526 0.000000
0.400122 0.347539 0.033814
0.453925 0.363867 0.007538
0.513756 0.385931 0.000000
0.605432 0.425727 0.000000
0.656001 0.437171 0.000000
0.700801 0.445289 0.000000
0.743404 0.451850 0.000000
0.784817 0.457679 0.000000
0.825254 0.463355 0.000000
0.864683 0.466468 0.000000
0.902312 0.467811 0.000000
0.937713 0.468452 0.000000
0.970550 0.468574 0.000000
1.000000 0.468513 0.000000
1.000000 0.468208 0.000000
1.000000 0.467597 0.000000
1.000000 0.466865 0.100099
1.000000 0.466621 0.142550
1.000000 0.467231 0.180209
1.000000 0.469917 0.217197
1.000000 0.475166 0.255375
1.000000 0.483833 0.295201
1.000000 0.496681 0.337438
0.325689 0.416327 0.000000
0.326726 0.416327 0.000000
0.330541 0.416571 0.000000
0.339391 0.417182 0.000000
0.352361 0.418494 0.000000
0.370367 0.420447 0.000000
0.390845 0.420935 0.000000
0.415229 0.422065 0.000000
0.443030 0.423987 0.000000
0.470558 0.423529 0.000000
0.498939 0.419684 0.000000
0.558923 0.437201 0.000000
0.615930 0.454749 0.000000
0.667903 0.467781 0.000000
0.711452 0.475074 0.000000
0.751644 0.480568 0.000000
0.790768 0.485420 0.000000
0.828641 0.489876 0.000000
0.865354 0.493782 0.000000
0.900084 0.497353 0.000000
0.933898 0.497139 0.000000
0.965820 0.496681 0.000000
0.995697 0.495888 0.000000
1.000000 0.495094 0.000000
1.000000 0.493721 0.000000
1.000000 0.492409 0.100984
1.000000 0.491524 0.146792
1.000000 0.491646 0.186313
1.000000 0.493568 0.224674
1.000000 0.498207 0.263920
1.000000 0.505882 0.304387
1.000000 0.517479 0.346380
0.370459 0.469734 0.000000
0.371099 0.469764 0.000000
0.375189 0.469825 0.000000
0.383795 0.470985 0.000000
0.396735 0.472633 0.000000
0.414984 0.475257 0.000000
0.436591 0.477180 0.000000
0.461830 0.479316 0.000000
0.491127 0.482216 0.000000
0.523980 0.486305 0.000000
0.548577 0.481086 0.000000
0.580041 0.476661 0.000000
0.629725 0.485969 0.000000
0.676448 0.495888 0.000000
0.720668 0.504021 0.000000
0.760342 0.509056 0.000000
0.797482 0.512810 0.000000
0.833341 0.516320 0.000000
0.868070 0.519493 0.000000
0.901305 0.522087 0.000000
0.932952 0.524590 0.000000
0.963622 0.525658 0.000000
0.992798 0.524376 0.000000
1.000000 0.522881 0.000000
1.000000 0.521080 0.000000
1.000000 0.519219 0.110506
1.000000 0.517693 0.156649
1.000000 0.517205 0.197086
1.000000 0.518700 0.236240
1.000000 0.522606 0.276219
1.000000 0.529503 0.316991
1.000000 0.540276 0.359197
0.418097 0.525658 0.000000
0.418952 0.525719 0.000000
0.422766 0.525536 0.000000
0.429603 0.525628 0.000000
0.441077 0.526024 0.000000
0.457099 0.526879 0.000000
0.477394 0.528222 0.000000
0.500633 0.528771 0.000000
0.527886 0.530297 0.000000
0.558099 0.532555 0.000000
0.591760 0.535668 0.000000
0.610956 0.524376 0.000000
0.643336 0.519677 0.000000
0.686030 0.524315 0.000000
0.727474 0.530968 0.000000
0.768154 0.537011 0.000000
0.805447 0.540856 0.000000
0.839750 0.543328 0.000000
0.872618 0.545464 0.000000
0.904234 0.547417 0.000000
0.934600 0.549126 0.000000
0.963836 0.550927 0.000000
0.991302 0.552575 0.000000
1.000000 0.550958 0.000000
1.000000 0.548608 0.030945
1.000000 0.546258 0.125338
1.000000 0.544457 0.170809
1.000000 0.543816 0.212680
1.000000 0.545037 0.253147
1.000000 0.548882 0.293919
1.000000 0.555779 0.335912
1.000000 0.566217 0.378393
0.454536 0.567498 0.000000
0.455238 0.567590 0.000000
0.459113 0.567559 0.000000
0.465736 0.567956 0.000000
0.476265 0.568383 0.000000
0.491341 0.569299 0.000000
0.510613 0.570855 0.000000
0.533013 0.571771 0.000000
0.558556 0.572992 0.000000
0.587091 0.574456 0.000000
0.618158 0.576257 0.000000
0.647059 0.574517 0.000000
0.663600 0.560143 0.000000
0.696010 0.555138 0.000000
0.734524 0.557580 0.000000
0.772274 0.562066 0.000000
0.810025 0.566491 0.000000
0.844724 0.569329 0.000000
0.876341 0.570733 0.000000
0.906859 0.571984 0.000000
0.936584 0.573541 0.000000
0.965148 0.574823 0.000000
0.991974 0.576104 0.000000
1.000000 0.577111 0.000000
1.000000 0.576837 0.091005
1.000000 0.574182 0.148104
1.000000 0.572259 0.192660
1.000000 0.571435 0.234043
1.000000 0.572259 0.273716
1.000000 0.575463 0.313909
1.000000 0.581445 0.354589
1.000000 0.590661 0.395819
0.484840 0.602106 0.000000
0.485634 0.602136 0.000000
0.488746 0.602197 0.000000
0.495003 0.602441 0.000000
0.504845 0.602899 0.000000
0.518456 0.603662 0.000000
0.536278 0.604974 0.000000
0.557305 0.606012 0.000000
0.581079 0.606836 0.000000
0.607507 0.607935 0.000000
0.636744 0.609247 0.000000
0.668147 0.610834 0.000000
0.691798 0.604669 0.000000
0.707820 0.589258 0.000000
0.742733 0.586450 0.000000
0.779232 0.588464 0.000000
0.814664 0.591852 0.000000
0.849485 0.595056 0.000000
0.882139 0.597009 0.000000
0.911315 0.597559 0.000000
0.940032 0.598291 0.000000
0.967498 0.599176 0.000000
0.993286 0.599878 0.000000
1.000000 0.600397 0.000000
1.000000 0.600793 0.112764
1.000000 0.601648 0.172824
1.000000 0.600061 0.217258
1.000000 0.598993 0.257359
1.000000 0.599756 0.297429
1.000000 0.602686 0.337133
1.000000 0.608118 0.376928
1.000000 0.616297 0.416541
0.514366 0.635615 0.000000
0.515312 0.635920 0.000000
0.531823 0.651606 0.000000
0.537865 0.651789 0.000000
0.547143 0.652308 0.000000
0.559899 0.652949 0.000000
0.576684 0.653834 0.000000
0.596918 0.655116 0.000000
0.619257 0.655695 0.000000
0.644923 0.656580 0.000000
0.672908 0.657740 0.000000
0.703120 0.658930 0.000000
0.734493 0.659937 0.000000
0.752468 0.647944 0.000000
0.768582 0.631983 0.000000
0.803342 0.629206 0.000000
0.835874 0.629114 0.000000
0.867216 0.630030 0.000000
0.897704 0.630701 0.000000
0.926329 0.630732 0.000000
0.952117 0.629725 0.000000
0.977203 0.628992 0.000000
1.000000 0.628229 0.000000
1.000000 0.627405 0.042725
1.000000 0.626642 0.146273
1.000000 0.626246 0.199130
1.000000 0.626886 0.245151
1.000000 0.627222 0.286107
1.000000 0.627344 0.323735
1.000000 0.629572 0.361395
1.000000 0.634302 0.399634
1.000000 0.641291 0.437293
0.546990 0.672663 0.000000
0.548943 0.674220 0.000000
0.552941 0.675898 0.000000
0.559472 0.677516 0.000000
0.569177 0.678950 0.000000
0.581140 0.679988 0.000000
0.596490 0.680964 0.000000
0.615137 0.682094 0.000000
0.636194 0.682918 0.000000
0.659846 0.683558 0.000000
0.686000 0.684474 0.000000
0.714382 0.685481 0.000000
0.744167 0.686336 0.000000
0.773434 0.685847 0.000000
0.787533 0.670619 0.000000
0.806729 0.656977 0.000000
0.839231 0.653712 0.000000
0.869902 0.653712 0.000000
0.899474 0.654200 0.000000
0.927886 0.654383 0.000000
0.954528 0.653895 0.000000
0.978576 0.652766 0.000000
1.000000 0.651392 0.000000
1.000000 0.649805 0.094759
1.000000 0.648646 0.164614
1.000000 0.647822 0.216464
1.000000 0.647974 0.261448
1.000000 0.649470 0.304326
1.000000 0.652857 0.346471
1.000000 0.654536 0.383124
1.000000 0.658442 0.419654
1.000000 0.664088 0.454749
0.572290 0.701442 0.000000
0.574151 0.702968 0.000000
0.578058 0.704616 0.000000
0.584039 0.706416 0.000000
0.593133 0.707881 0.000000
0.604181 0.708919 0.000000
0.618372 0.709865 0.000000
0.635615 0.710811 0.000000
0.655482 0.711910 0.000000
0.677485 0.712306 0.000000
0.702052 0.713008 0.000000
0.728664 0.713771 0.000000
0.756985 0.714534 0.000000
0.786404 0.715328 0.000000
0.810300 0.710445 0.000000
0.824094 0.695094 0.000000
0.845518 0.683711 0.000000
0.876066 0.679866 0.000000
0.904265 0.679377 0.000000
0.931121 0.678920 0.000000
0.956481 0.677882 0.000000
0.980072 0.676478 0.000000
1.000000 0.674647 0.099306
1.000000 0.672419 0.137758
1.000000 0.670558 0.187259
1.000000 0.669368 0.235630
1.000000 0.668971 0.279606
1.000000 0.670069 0.322057
1.000000 0.672969 0.363195
1.000000 0.677790 0.403815
1.000000 0.681880 0.439796
1.000000 0.686336 0.472663
0.597925 0.730770 0.000000
0.599573 0.732143 0.000000
0.603113 0.733669 0.000000
0.608820 0.735195 0.000000
0.616602 0.736538 0.000000
0.627253 0.737423 0.000000
0.640314 0.738308 0.000000
0.656123 0.739223 0.000000
0.675044 0.740444 0.000000
0.695766 0.740871 0.000000
0.718563 0.741512 0.000000
0.743893 0.742123 0.000000
0.770504 0.742824 0.000000
0.798611 0.743526 0.000000
0.827726 0.744198 0.000000
0.846616 0.735134 0.000000
0.860594 0.719936 0.000000
0.884215 0.711208 0.000000
0.912749 0.707454 0.000000
0.938781 0.706935 0.050660
0.963226 0.705928 0.108675
0.985718 0.704158 0.139712
1.000000 0.701686 0.168215
1.000000 0.699306 0.197604
1.000000 0.696895 0.229618
1.000000 0.695705 0.275547
1.000000 0.695369 0.318181
1.000000 0.696376 0.359075
1.000000 0.699031 0.398718
1.000000 0.703273 0.436591
1.000000 0.708858 0.472328
1.000000 0.714382 0.504570
0.631006 0.768582 0.000000
0.631922 0.769192 0.000000
0.634272 0.769680 0.000000
0.638758 0.770138 0.000000
0.645502 0.770535 0.000000
0.654719 0.770809 0.000000
0.666468 0.771267 0.000000
0.681117 0.771847 0.000000
0.698634 0.772824 0.000000
0.718502 0.773648 0.000000
0.740200 0.774197 0.000000
0.763973 0.774716 0.000000
0.789212 0.775235 0.000000
0.815946 0.775723 0.000000
0.843534 0.776181 0.000000
0.871977 0.776577 0.000000
0.885588 0.763058 0.000000
0.898741 0.747402 0.000000
0.922118 0.739651 0.000000
0.946410 0.734737 0.150912
0.968261 0.732113 0.170504
0.988251 0.729000 0.191958
1.000000 0.725246 0.211582
1.000000 0.721157 0.232456
1.000000 0.717891 0.256626
1.000000 0.716243 0.297429
1.000000 0.715572 0.338781
1.000000 0.716182 0.378607
1.000000 0.718257 0.416938
1.000000 0.721492 0.452552
1.000000 0.726009 0.486213
1.000000 0.731746 0.518517
0.655451 0.796902 0.000000
0.656275 0.797330 0.000000
0.658473 0.797818 0.000000
0.662623 0.798215 0.000000
0.668727 0.798581 0.000000
0.677180 0.798856 0.000000
0.688350 0.799222 0.000000
0.702022 0.799741 0.000000
0.718013 0.800534 0.000000
0.736873 0.801541 0.000000
0.757168 0.801846 0.000000
0.779355 0.802274 0.000000
0.803342 0.802640 0.000000
0.828550 0.803006 0.000000
0.854978 0.803311 0.000000
0.882017 0.803647 0.000000
0.906096 0.800778 0.000000
0.918242 0.786374 0.000000
0.930663 0.770932 0.000000
0.952972 0.764034 0.161135
0.973297 0.758206 0.220890
0.991485 0.754147 0.238804
1.000000 0.749813 0.257023
1.000000 0.745144 0.275120
1.000000 0.737667 0.282109
1.000000 0.735012 0.315435
1.000000 0.734127 0.356451
1.000000 0.734279 0.395117
1.000000 0.735653 0.431556
1.000000 0.738064 0.465675
1.000000 0.741848 0.498482
1.000000 0.746883 0.530236
0.682673 0.828367 0.000000
0.683772 0.829068 0.000000
0.685817 0.829404 0.000000
0.689357 0.829404 0.000000
0.694514 0.829191 0.000000
0.701839 0.828794 0.000000
0.711330 0.828397 0.000000
0.723079 0.828092 0.000000
0.737575 0.827939 0.000000
0.754452 0.828061 0.000000
0.772793 0.827817 0.000000
0.793240 0.827481 0.000000
0.815183 0.827085 0.000000
0.838468 0.826719 0.000000
0.862547 0.826230 0.000000
0.887602 0.825742 0.000000
0.913329 0.825345 0.000000
0.931670 0.818051 0.000000
0.942992 0.803464 0.000000
0.955840 0.789364 0.142245
0.975128 0.781949 0.224063
0.992126 0.775540 0.269474
1.000000 0.770504 0.286229
1.000000 0.765194 0.301823
1.000000 0.759701 0.317479
1.000000 0.755123 0.342138
1.000000 0.752926 0.377508
1.000000 0.752224 0.413031
1.000000 0.752590 0.446723
1.000000 0.754238 0.479133
1.000000 0.757076 0.510521
1.000000 0.761440 0.541650
0.701686 0.850523 0.000000
0.702571 0.851072 0.000000
0.704463 0.851499 0.000000
0.707881 0.851621 0.000000
0.713039 0.851652 0.000000
0.719844 0.851652 0.000000
0.729152 0.851652 0.000000
0.740719 0.851743 0.000000
0.754330 0.851957 0.000000
0.770199 0.852293 0.000000
0.787900 0.852476 0.000000
0.807126 0.852140 0.000000
0.827787 0.851682 0.000000
0.849577 0.851102 0.000000
0.872374 0.850340 0.000000
0.895781 0.849546 0.000000
0.919890 0.848722 0.000000
0.944244 0.848051 0.000000
0.957366 0.836790 0.000000
0.967590 0.822141 0.156741
0.979980 0.809140 0.230503
0.995392 0.800748 0.291020
1.000000 0.793851 0.326757
1.000000 0.788144 0.341588
1.000000 0.782467 0.356970
1.000000 0.777981 0.383612
1.000000 0.773922 0.408942
1.000000 0.771878 0.438544
1.000000 0.771695 0.469947
1.000000 0.772580 0.500328
1.000000 0.774746 0.530053
1.000000 0.778683 0.560937
0.721370 0.873289 0.000000
0.722011 0.873533 0.000000
0.723568 0.873655 0.000000
0.726497 0.873686 0.000000
0.731136 0.873564 0.000000
0.737606 0.873381 0.000000
0.745937 0.873228 0.000000
0.756374 0.873075 0.000000
0.768795 0.872984 0.000000
0.783230 0.873014 0.000000
0.799680 0.872984 0.000000
0.817563 0.872526 0.000000
0.836851 0.871885 0.000000
0.857237 0.871122 0.000000
0.878538 0.870176 0.000000
0.900664 0.869108 0.000000
0.923125 0.868070 0.000000
0.946136 0.867063 0.000000
0.968231 0.865232 0.000000
0.977356 0.851286 0.171206
0.986511 0.836912 0.238407
0.997864 0.824918 0.295567
1.000000 0.815976 0.345953
1.000000 0.808835 0.373938
1.000000 0.803342 0.395178
1.000000 0.798398 0.418799
1.000000 0.793881 0.440925
1.000000 0.789761 0.461555
1.000000 0.787747 0.486458
1.000000 0.788083 0.515587
1.000000 0.789883 0.545251
1.000000 0.793515 0.576226
0.737514 0.891691 0.000000
0.737972 0.891875 0.000000
0.739437 0.891997 0.000000
0.742275 0.892027 0.000000
0.746609 0.892088 0.000000
0.752682 0.892180 0.000000
0.760952 0.892515 0.000000
0.771145 0.892882 0.000000
0.783291 0.893370 0.000000
0.797360 0.893919 0.000000
0.813260 0.894438 0.000000
0.830564 0.894652 0.000000
0.849119 0.894408 0.000000
0.868620 0.893889 0.000000
0.888853 0.893095 0.000000
0.909514 0.892027 0.000000
0.930571 0.890806 0.000000
0.951934 0.889555 0.116060
0.973297 0.888396 0.186374
0.989654 0.882902 0.241215
0.997375 0.869352 0.292882
1.000000 0.855406 0.336736
1.000000 0.844175 0.380316
1.000000 0.835477 0.425940
1.000000 0.829068 0.454353
1.000000 0.823636 0.473518
1.000000 0.818692 0.491737
1.000000 0.814298 0.509270
1.000000 0.810483 0.526482
1.000000 0.808835 0.548486
1.000000 0.810544 0.577691
1.000000 0.814176 0.608972
0.756802 0.912566 0.000000
0.757015 0.912566 0.000000
0.758358 0.912505 0.000000
0.760678 0.912352 0.000000
0.764523 0.912169 0.000000
0.769924 0.911955 0.000000
0.776883 0.911711 0.000000
0.785763 0.911467 0.000000
0.796414 0.911223 0.000000
0.808743 0.910979 0.000000
0.822629 0.910704 0.000000
0.838132 0.910369 0.000000
0.855039 0.909514 0.000000
