20 Preset/Human Style/【3】LUT video cho PR-AE-FCPX/Joe-Allam (2)/JA – Shaded Light 5 (Classic Chrome).cube
# Created by Adobe Lightroom plugin Export LUT (1.24.0)
# www.johnrellis.com/lightroom/exportlut.htm
# Preset: JA – Shaded Light 5 (Classic Chrome)
# Color profile: E:\lut插件\exportlut.1.24\exportlut.lrplugin\color profiles\Rec709gamma2.4.icc
LUT_3D_SIZE 32
DOMAIN_MIN 0.0 0.0 0.0
DOMAIN_MAX 1.0 1.0 1.0
0.056794 0.091981 0.109346
0.056794 0.091981 0.109346
0.056794 0.091981 0.109346
0.066712 0.091554 0.109316
0.095399 0.090364 0.109804
0.119326 0.088228 0.109926
0.151308 0.082094 0.110445
0.187106 0.079927 0.110262
0.221439 0.080842 0.109255
0.253025 0.083925 0.108217
0.284306 0.089540 0.106905
0.320043 0.094240 0.104402
0.363500 0.098604 0.101778
0.415717 0.100496 0.098390
0.476692 0.102968 0.091615
0.545006 0.104097 0.078737
0.620722 0.103670 0.042969
0.699519 0.103395 0.000000
0.773922 0.100221 0.000000
0.841032 0.097749 0.000000
0.897276 0.095247 0.000000
0.942504 0.095369 0.000000
0.982910 0.095979 0.000000
1.000000 0.101869 0.000000
1.000000 0.108400 0.000000
1.000000 0.116670 0.000000
1.000000 0.124147 0.018860
1.000000 0.133516 0.078645
1.000000 0.141329 0.106081
1.000000 0.150454 0.125551
1.000000 0.159121 0.143954
1.000000 0.169497 0.162783
0.056794 0.091981 0.109346
0.056794 0.091981 0.109346
0.056794 0.091981 0.109346
0.066011 0.092012 0.109285
0.096101 0.090303 0.109804
0.119234 0.088228 0.110231
0.150057 0.085359 0.110262
0.185245 0.084382 0.110048
0.219760 0.085420 0.109071
0.250706 0.089113 0.107973
0.281651 0.092653 0.106783
0.316594 0.097047 0.104372
0.359045 0.100862 0.101991
0.410681 0.104158 0.098238
0.470436 0.106020 0.092317
0.537682 0.107759 0.079896
0.612848 0.108980 0.045411
0.691554 0.108797 0.002167
0.766506 0.106661 0.000000
0.834104 0.104829 0.000000
0.891112 0.102571 0.000000
0.937102 0.101747 0.000000
0.977783 0.102876 0.000000
1.000000 0.107912 0.000000
1.000000 0.111452 0.000000
1.000000 0.119326 0.000000
1.000000 0.126253 0.002747
1.000000 0.134127 0.060395
1.000000 0.142336 0.098787
1.000000 0.150698 0.119478
1.000000 0.159060 0.138369
1.000000 0.168185 0.157473
0.056794 0.091981 0.109346
0.056794 0.091981 0.109346
0.056794 0.091981 0.109346
0.070954 0.092195 0.109560
0.096071 0.093629 0.109804
0.119905 0.094301 0.110231
0.151095 0.095186 0.109957
0.185946 0.096223 0.109255
0.219699 0.097780 0.108492
0.250523 0.100954 0.107301
0.281529 0.104005 0.105745
0.316472 0.108766 0.103151
0.358618 0.112184 0.101106
0.409583 0.115480 0.097688
0.469215 0.119112 0.091432
0.536156 0.122713 0.077699
0.610803 0.125338 0.042969
0.689479 0.127687 0.000000
0.764096 0.127443 0.000000
0.831754 0.128176 0.000000
0.889128 0.126406 0.000000
0.935210 0.127474 0.000000
0.976287 0.126711 0.000000
1.000000 0.128145 0.000000
1.000000 0.133028 0.000000
1.000000 0.137484 0.000000
1.000000 0.142123 0.000000
1.000000 0.148165 0.049928
1.000000 0.154330 0.095918
1.000000 0.161685 0.116823
1.000000 0.168887 0.135866
1.000000 0.176638 0.154940
0.042176 0.102358 0.110475
0.043153 0.102693 0.110750
0.042329 0.103456 0.110018
0.070558 0.104219 0.109773
0.095949 0.105348 0.110018
0.121675 0.109041 0.109377
0.154360 0.112276 0.109010
0.189059 0.115969 0.107820
0.222019 0.118654 0.106477
0.252445 0.121126 0.105287
0.283482 0.124178 0.103548
0.318791 0.127901 0.101869
0.361639 0.132174 0.099397
0.412787 0.136599 0.095766
0.471870 0.142000 0.088685
0.538323 0.147646 0.068421
0.611810 0.152743 0.033082
0.688380 0.157290 0.000000
0.762142 0.160800 0.000000
0.828611 0.162112 0.000000
0.885405 0.162844 0.000000
0.931456 0.161563 0.000000
0.973114 0.161593 0.000000
1.000000 0.162753 0.000000
1.000000 0.164981 0.000000
1.000000 0.166140 0.000000
1.000000 0.169619 0.000000
1.000000 0.172610 0.051118
1.000000 0.177920 0.094911
1.000000 0.182681 0.116670
1.000000 0.187533 0.135897
1.000000 0.193973 0.153994
0.012024 0.122225 0.110750
0.012879 0.122744 0.110353
0.027802 0.123720 0.109468
0.062165 0.124971 0.108766
0.096223 0.125887 0.108949
0.120424 0.126589 0.109010
0.154452 0.134798 0.107607
0.191562 0.142763 0.105623
0.223911 0.145235 0.103822
0.253910 0.147555 0.102449
0.285466 0.149447 0.101411
0.321874 0.152529 0.099916
0.365454 0.157534 0.097505
0.417731 0.164034 0.092226
0.477424 0.171389 0.082246
0.544884 0.179629 0.054597
0.619104 0.187564 0.015076
0.695766 0.194705 0.000000
0.767971 0.199741 0.000000
0.833066 0.202945 0.000000
0.888182 0.203647 0.000000
0.933165 0.202853 0.000000
0.974365 0.202945 0.000000
1.000000 0.202182 0.000000
1.000000 0.202853 0.000000
1.000000 0.203403 0.000000
1.000000 0.203555 0.000000
1.000000 0.205539 0.052552
1.000000 0.207614 0.096376
1.000000 0.210147 0.117464
1.000000 0.213596 0.136049
1.000000 0.218051 0.154269
0.000000 0.155367 0.107301
0.000000 0.155825 0.107149
0.000000 0.156649 0.106172
0.038758 0.158450 0.104799
0.096437 0.159243 0.104494
0.126467 0.160220 0.104311
0.152987 0.158877 0.104891
0.188968 0.166384 0.102602
0.223880 0.173068 0.101411
0.259007 0.178836 0.100313
0.292485 0.180819 0.099245
0.331273 0.185092 0.097017
0.377661 0.191897 0.092866
0.431830 0.199893 0.085084
0.493996 0.209812 0.063264
0.562463 0.220066 0.026856
0.637720 0.230289 0.000000
0.713100 0.239322 0.000000
0.783047 0.245457 0.000000
0.844877 0.248905 0.000000
0.896666 0.249882 0.000000
0.941650 0.249546 0.000000
1.000000 0.256474 0.000000
1.000000 0.254643 0.000000
1.000000 0.253880 0.000000
1.000000 0.252811 0.033753
1.000000 0.252293 0.091798
1.000000 0.251743 0.113558
1.000000 0.252232 0.132418
1.000000 0.253483 0.148989
1.000000 0.256016 0.165713
1.000000 0.259495 0.183383
0.000000 0.200961 0.101259
0.000000 0.201022 0.101198
0.000000 0.201572 0.100465
0.000000 0.202487 0.099001
0.086122 0.202670 0.097841
0.126864 0.203250 0.097871
0.162203 0.203738 0.098390
0.193820 0.201846 0.099580
0.225895 0.202823 0.099306
0.263737 0.209995 0.098024
0.308537 0.221195 0.095521
0.361242 0.234470 0.089113
0.414038 0.243534 0.077943
0.473396 0.254063 0.051789
0.539178 0.265629 0.014618
0.610529 0.277348 0.000000
0.684291 0.288334 0.000000
0.754086 0.296452 0.000000
0.817777 0.301305 0.000000
0.873472 0.303655 0.000000
0.921355 0.303502 0.000000
0.967010 0.303105 0.000000
1.000000 0.301701 0.000000
1.000000 0.299260 0.000000
1.000000 0.296239 0.000000
1.000000 0.293889 0.036866
1.000000 0.290959 0.092195
1.000000 0.289220 0.113741
1.000000 0.288151 0.131563
1.000000 0.287114 0.148775
1.000000 0.287694 0.165377
1.000000 0.289738 0.182467
0.000000 0.235264 0.099001
0.000000 0.235172 0.098604
0.000000 0.235691 0.097749
0.000000 0.236088 0.096345
0.012604 0.236973 0.094026
0.111788 0.236454 0.094026
0.153384 0.236576 0.093874
0.189975 0.236881 0.094423
0.223575 0.236027 0.096040
0.255650 0.235080 0.096590
0.300877 0.247196 0.092897
0.356603 0.265141 0.088136
0.425788 0.289036 0.064607
0.496193 0.307988 0.025238
0.563317 0.320806 0.000000
0.634668 0.333684 0.000000
0.704891 0.343694 0.000000
0.771054 0.351354 0.000000
0.830747 0.354955 0.000000
0.881987 0.355474 0.000000
0.930999 0.355444 0.000000
0.971038 0.353246 0.000000
1.000000 0.349706 0.000000
1.000000 0.345434 0.000000
1.000000 0.341070 0.000000
1.000000 0.336645 0.047974
1.000000 0.332525 0.095766
1.000000 0.328679 0.116732
1.000000 0.325811 0.135103
1.000000 0.323888 0.151644
1.000000 0.323095 0.168551
1.000000 0.323430 0.185885
0.000000 0.271519 0.097353
0.000000 0.271641 0.097230
0.000000 0.271794 0.096132
0.000000 0.272160 0.094697
0.000000 0.273014 0.091279
0.079042 0.273045 0.089204
0.140230 0.272862 0.089082
0.182406 0.273533 0.089326
0.221225 0.274601 0.089723
0.258030 0.274815 0.091005
0.292088 0.273442 0.092531
0.348547 0.293309 0.080385
0.416419 0.318700 0.056580
0.497169 0.349035 0.012177
0.591180 0.383032 0.000000
0.666590 0.399176 0.000000
0.732845 0.407538 0.000000
0.793576 0.411933 0.000000
0.848081 0.413489 0.000000
0.899168 0.413336 0.000000
0.941100 0.410346 0.000000
0.976135 0.405219 0.000000
1.000000 0.399420 0.000000
1.000000 0.393256 0.000000
1.000000 0.386999 0.001221
1.000000 0.380804 0.071107
1.000000 0.374975 0.104494
1.000000 0.369909 0.124758
1.000000 0.365820 0.142214
1.000000 0.362676 0.158694
1.000000 0.360540 0.175326
1.000000 0.359899 0.192782
0.000000 0.316777 0.095155
0.000000 0.316686 0.095125
0.000000 0.316655 0.093751
0.000000 0.317113 0.091157
0.000000 0.317327 0.085847
0.000000 0.318303 0.077089
0.121218 0.317113 0.073518
0.174136 0.318059 0.074006
0.218723 0.319371 0.075624
0.260502 0.321233 0.077852
0.301213 0.322942 0.079133
0.337682 0.321050 0.085298
0.402319 0.345464 0.045686
0.481880 0.377783 0.000000
0.573877 0.414343 0.000000
0.670741 0.449165 0.000000
0.761593 0.476905 0.000000
0.820523 0.479347 0.000000
0.872038 0.478462 0.000000
0.914794 0.473701 0.000000
0.950500 0.466529 0.000000
0.980713 0.457954 0.000000
1.000000 0.449592 0.000000
1.000000 0.440772 0.000000
1.000000 0.432502 0.022553
1.000000 0.424537 0.085573
1.000000 0.417334 0.111940
1.000000 0.410864 0.131380
1.000000 0.405737 0.149111
1.000000 0.401801 0.166171
1.000000 0.398840 0.183413
1.000000 0.397192 0.201846
0.000000 0.370916 0.088869
0.000000 0.370916 0.087953
0.000000 0.371160 0.085725
0.000000 0.371679 0.080232
0.000000 0.372351 0.070130
0.000000 0.373541 0.050507
0.056245 0.374243 0.030549
0.162966 0.373938 0.028870
0.217014 0.375952 0.029145
0.266026 0.378363 0.030762
0.312200 0.381109 0.028046
0.357671 0.384558 0.026459
0.395666 0.380926 0.042206
0.467536 0.407141 0.000000
0.559472 0.446448 0.000000
0.658015 0.485786 0.000000
0.751858 0.517388 0.000000
0.830747 0.537316 0.000000
0.888914 0.543267 0.000000
0.925322 0.533745 0.000000
0.956512 0.522454 0.000000
0.983612 0.511254 0.000000
1.000000 0.500267 0.000000
1.000000 0.489570 0.000000
1.000000 0.479408 0.077089
1.000000 0.470069 0.107881
1.000000 0.461677 0.128817
1.000000 0.454078 0.146883
1.000000 0.447761 0.164034
1.000000 0.442725 0.180972
1.000000 0.438880 0.198795
1.000000 0.436561 0.217227
0.000000 0.440314 0.038209
0.000000 0.440497 0.036255
0.000000 0.440620 0.032563
0.000000 0.441321 0.022644
0.000000 0.442023 0.005341
0.000000 0.443366 0.000000
0.000000 0.445014 0.000000
0.136324 0.444587 0.000000
0.213504 0.445747 0.000000
0.272343 0.448676 0.000000
0.325780 0.451820 0.000000
0.377295 0.455634 0.000000
0.462623 0.493629 0.000000
0.511192 0.492195 0.000000
0.598291 0.522271 0.000000
0.700008 0.563134 0.000000
0.787381 0.589532 0.000000
0.856321 0.601923 0.000000
0.909728 0.605127 0.000000
0.951995 0.602869 0.000000
0.982574 0.593256 0.000000
1.000000 0.577722 0.066102
1.000000 0.562860 0.109529
1.000000 0.549340 0.132357
1.000000 0.536980 0.150515
1.000000 0.525475 0.166873
1.000000 0.515312 0.181155
1.000000 0.506279 0.194034
1.000000 0.498482 0.207980
1.000000 0.492134 0.222446
1.000000 0.487251 0.238651
1.000000 0.484199 0.257023
0.000000 0.542138 0.000000
0.000000 0.541985 0.000000
0.000000 0.541497 0.000000
0.000000 0.540764 0.000000
0.000000 0.540002 0.000000
0.000000 0.539574 0.000000
0.000000 0.539696 0.000000
0.000000 0.540093 0.000000
0.205051 0.538048 0.000000
0.283543 0.545068 0.000000
0.352453 0.554070 0.000000
0.418921 0.564355 0.000000
0.485359 0.575158 0.000000
0.551568 0.585626 0.000000
0.609339 0.587396 0.000000
0.675746 0.594659 0.000000
0.763912 0.623468 0.000000
0.833982 0.637110 0.000000
0.888487 0.640528 0.000000
0.931975 0.637964 0.000000
0.967285 0.632502 0.000000
0.997070 0.626093 0.117311
1.000000 0.613214 0.153323
1.000000 0.598077 0.169467
1.000000 0.584253 0.183139
1.000000 0.571588 0.196963
1.000000 0.560388 0.209018
1.000000 0.550439 0.221256
1.000000 0.541894 0.234287
1.000000 0.534844 0.248692
1.000000 0.529351 0.264500
1.000000 0.525536 0.283085
0.000000 0.631159 0.000000
0.000000 0.630823 0.000000
0.000000 0.629847 0.000000
0.000000 0.629267 0.000000
0.000000 0.628626 0.000000
0.000000 0.628229 0.000000
0.000000 0.628412 0.000000
0.000000 0.629725 0.000000
0.159091 0.629694 0.000000
0.275303 0.631403 0.000000
0.354437 0.637476 0.000000
0.426734 0.644892 0.000000
0.496071 0.652338 0.000000
0.563134 0.659144 0.000000
0.628138 0.664454 0.000000
0.686366 0.663416 0.000000
0.738430 0.656275 0.000000
0.807645 0.668849 0.000000
0.865751 0.674006 0.000000
0.911284 0.671992 0.000000
0.948516 0.666407 0.000000
0.980041 0.659541 0.045747
1.000000 0.652766 0.159152
1.000000 0.646967 0.214725
1.000000 0.633356 0.229374
1.000000 0.619654 0.238834
1.000000 0.607355 0.249363
1.000000 0.596429 0.259037
1.000000 0.586938 0.270939
1.000000 0.579187 0.284092
1.000000 0.573114 0.298955
1.000000 0.568719 0.316686
0.000000 0.714504 0.000000
0.000000 0.714199 0.000000
0.000000 0.713191 0.000000
0.000000 0.711696 0.000000
0.000000 0.709773 0.000000
0.000000 0.707820 0.000000
0.000000 0.706538 0.000000
0.000000 0.705959 0.000000
0.000000 0.706386 0.000000
0.243656 0.704646 0.000000
0.340276 0.707424 0.000000
0.418708 0.712032 0.000000
0.490455 0.716518 0.000000
0.558282 0.720302 0.000000
0.623224 0.722683 0.000000
0.685298 0.723323 0.000000
0.742214 0.720211 0.000000
0.786618 0.706538 0.000000
0.840543 0.705440 0.000000
0.889494 0.704829 0.000000
0.929320 0.699519 0.000000
0.962676 0.692470 0.000000
0.991455 0.685054 0.126284
1.000000 0.678340 0.198184
1.000000 0.672969 0.250156
1.000000 0.668635 0.291966
1.000000 0.655543 0.299077
1.000000 0.644007 0.307500
1.000000 0.634089 0.317693
1.000000 0.626123 0.330510
1.000000 0.619928 0.345647
1.000000 0.615778 0.363897
0.000000 0.772946 0.000000
0.000000 0.773007 0.000000
0.000000 0.772519 0.000000
0.000000 0.771847 0.000000
0.000000 0.770748 0.000000
0.000000 0.769650 0.000000
0.000000 0.768978 0.000000
0.000000 0.768643 0.000000
0.000000 0.768551 0.000000
0.170779 0.767758 0.000000
0.311467 0.765774 0.000000
0.397742 0.766751 0.000000
0.471870 0.767605 0.000000
0.539757 0.767697 0.000000
0.603784 0.767117 0.000000
0.664759 0.765713 0.000000
0.723751 0.763760 0.000000
0.779141 0.759854 0.000000
0.820829 0.744869 0.000000
0.864500 0.734737 0.000000
0.907927 0.731106 0.000000
0.944579 0.724300 0.000000
0.975280 0.716670 0.006226
1.000000 0.709468 0.172946
1.000000 0.703548 0.236790
1.000000 0.699397 0.288640
1.000000 0.697292 0.334417
1.000000 0.693568 0.367071
1.000000 0.683040 0.374578
1.000000 0.674342 0.385016
1.000000 0.667323 0.397711
1.000000 0.662531 0.413947
0.000000 0.814542 0.000000
0.000000 0.814450 0.000000
0.000000 0.814115 0.000000
0.000000 0.813626 0.000000
0.000000 0.812894 0.000000
0.000000 0.811978 0.000000
0.000000 0.811124 0.000000
0.000000 0.810361 0.000000
0.000000 0.809628 0.000000
0.000000 0.808835 0.000000
0.257969 0.806516 0.000000
0.363806 0.804990 0.000000
0.442420 0.804776 0.000000
0.512261 0.803983 0.000000
0.577020 0.802640 0.000000
0.638117 0.800656 0.000000
0.696376 0.798154 0.000000
0.753079 0.795346 0.000000
0.807248 0.791470 0.000000
0.848753 0.777676 0.000000
0.885649 0.761318 0.000000
0.924712 0.755489 0.000000
0.958282 0.747768 0.000000
0.987396 0.739986 0.125795
1.000000 0.733333 0.215427
1.000000 0.728573 0.276524
1.000000 0.725826 0.329259
1.000000 0.725154 0.376837
1.000000 0.726802 0.422736
1.000000 0.724056 0.448920
1.000000 0.716823 0.459571
1.000000 0.711818 0.473854
0.000000 0.847654 0.000000
0.000000 0.847807 0.000000
0.000000 0.862181 0.000000
0.000000 0.861692 0.000000
0.000000 0.861021 0.000000
0.000000 0.860075 0.000000
0.000000 0.858915 0.000000
0.000000 0.857664 0.000000
0.000000 0.856413 0.000000
0.000000 0.855039 0.000000
0.190799 0.853208 0.000000
0.331853 0.850004 0.000000
0.418158 0.848081 0.000000
0.490761 0.845975 0.000000
0.556176 0.843320 0.000000
0.617243 0.840238 0.000000
0.675257 0.836484 0.000000
0.730770 0.832486 0.000000
0.784573 0.828275 0.000000
0.836545 0.823636 0.000000
0.880308 0.813046 0.000000
0.910948 0.792111 0.000000
0.944579 0.782315 0.000000
0.975067 0.773678 0.099275
1.000000 0.765591 0.194156
1.000000 0.759518 0.266728
1.000000 0.755367 0.323766
1.000000 0.753323 0.374701
1.000000 0.753902 0.423926
1.000000 0.756985 0.471473
1.000000 0.763058 0.518425
1.000000 0.761257 0.539147
0.000000 0.876768 0.000000
0.000000 0.877867 0.000000
0.000000 0.878843 0.000000
0.000000 0.879545 0.000000
0.000000 0.879759 0.000000
0.000000 0.879301 0.000000
0.000000 0.878355 0.000000
0.000000 0.877134 0.000000
0.000000 0.875883 0.000000
0.000000 0.874449 0.000000
0.000000 0.872862 0.000000
0.272526 0.870390 0.000000
0.378485 0.867247 0.000000
0.453254 0.865354 0.000000
0.520134 0.862943 0.000000
0.581903 0.860197 0.000000
0.639643 0.857115 0.000000
0.695247 0.853696 0.000000
0.748714 0.850187 0.000000
0.800778 0.846555 0.000000
0.851469 0.842649 0.000000
0.899687 0.837491 0.000000
0.926513 0.815152 0.000000
0.957061 0.802548 0.000000
0.986206 0.794278 0.170321
1.000000 0.786984 0.235935
1.000000 0.781857 0.302037
1.000000 0.778897 0.360906
1.000000 0.778286 0.414649
1.000000 0.780301 0.465888
1.000000 0.785336 0.517082
1.000000 0.792599 0.564508
0.000000 0.894896 0.000000
0.000000 0.895872 0.000000
0.000000 0.896788 0.000000
0.000000 0.897459 0.000000
0.000000 0.897673 0.000000
0.000000 0.897307 0.000000
0.000000 0.896513 0.000000
0.000000 0.895476 0.000000
0.000000 0.894316 0.000000
0.000000 0.892912 0.000000
0.000000 0.891417 0.000000
0.204196 0.889647 0.000000
0.333837 0.886625 0.000000
0.418708 0.884092 0.000000
0.487007 0.881987 0.000000
0.548882 0.879545 0.000000
0.606989 0.876738 0.000000
0.661891 0.873716 0.000000
0.714961 0.870542 0.000000
0.766323 0.867247 0.000000
0.816190 0.863859 0.000000
0.865232 0.860410 0.000000
0.913176 0.856840 0.000000
0.940887 0.837064 0.000000
0.969360 0.822416 0.144045
0.997864 0.814939 0.224369
1.000000 0.808713 0.282200
1.000000 0.804379 0.340032
1.000000 0.802731 0.400702
1.000000 0.803647 0.457832
1.000000 0.807370 0.512566
1.000000 0.813474 0.563745
0.000000 0.911620 0.145876
0.000000 0.912444 0.151369
0.000000 0.913146 0.156100
0.000000 0.913695 0.158206
0.000000 0.913909 0.156008
0.000000 0.913542 0.148745
0.000000 0.912932 0.136843
0.000000 0.912047 0.119326
0.000000 0.911009 0.093050
0.000000 0.909819 0.007416
0.000000 0.908507 0.000000
0.113313 0.906981 0.000000
0.287663 0.904753 0.000000
0.385138 0.901732 0.000000
0.455970 0.899779 0.000000
0.518791 0.897704 0.000000
0.576928 0.895567 0.000000
0.632044 0.893278 0.000000
0.684932 0.890959 0.000000
0.736233 0.888640 0.000000
0.786221 0.886259 0.054810
0.834989 0.883787 0.112612
0.882536 0.881102 0.141054
0.929686 0.878660 0.164889
0.959930 0.863035 0.201205
0.987823 0.847654 0.236362
1.000000 0.841825 0.300267
1.000000 0.837247 0.356634
1.000000 0.834348 0.410163
1.000000 0.834958 0.475196
1.000000 0.838163 0.534630
1.000000 0.843503 0.588525
0.000000 0.932372 0.254246
0.000000 0.932677 0.255924
0.000000 0.932799 0.255985
0.000000 0.932769 0.254978
0.000000 0.932494 0.251286
0.000000 0.931914 0.246067
0.000000 0.931212 0.238346
0.000000 0.930419 0.228611
0.000000 0.929534 0.216953
0.000000 0.928588 0.202701
0.000000 0.927550 0.186618
0.000000 0.926299 0.164004
0.251316 0.924834 0.133211
0.354894 0.922332 0.117647
0.432868 0.919646 0.105287
0.495552 0.917754 0.118227
0.553002 0.915709 0.132937
0.607446 0.913512 0.146365
0.659205 0.911192 0.159640
0.709346 0.908843 0.173190
0.757809 0.906432 0.187198
0.805234 0.903929 0.203037
0.851469 0.901305 0.217227
0.896666 0.898436 0.231510
0.942016 0.896300 0.246372
0.974243 0.884276 0.270115
1.000000 0.869291 0.293248
1.000000 0.863584 0.350805
1.000000 0.860197 0.408392
1.000000 0.858488 0.463722
1.000000 0.859709 0.525048
1.000000 0.863523 0.583886
0.000000 0.947570 0.316960
0.000000 0.947814 0.317876
0.000000 0.947967 0.318120
0.000000 0.947967 0.317021
0.000000 0.947784 0.314672
0.000000 0.947387 0.310307
0.000000 0.946838 0.303899
0.000000 0.946197 0.296574
0.000000 0.945525 0.287510
0.000000 0.944793 0.277501
0.000000 0.943969 0.265232
0.000000 0.943053 0.250645
0.227115 0.941894 0.232883
0.329961 0.940276 0.216983
0.410498 0.937835 0.208835
0.475624 0.935790 0.209415
0.532799 0.934112 0.218173
0.586114 0.932341 0.227481
0.637201 0.930480 0.236728
0.686336 0.928527 0.247288
0.733974 0.926543 0.258488
0.780392 0.924468 0.270695
0.825650 0.922301 0.283421
0.869902 0.920043 0.296239
0.910094 0.914641 0.293645
0.953735 0.913024 0.307042
0.987915 0.904509 0.327367
1.000000 0.891142 0.349920
1.000000 0.884459 0.398352
1.000000 0.882078 0.458686
1.000000 0.881437 0.516289
1.000000 0.882750 0.572503
0.000000 0.965576 0.391547
0.000000 0.965972 0.393591
0.000000 0.966094 0.394507
0.000000 0.965942 0.392157
0.000000 0.965515 0.387915
0.000000 0.964874 0.382391
0.000000 0.964050 0.374670
0.000000 0.963165 0.366094
0.000000 0.962249 0.356329
0.000000 0.961303 0.345708
0.000000 0.960266 0.332708
0.000000 0.959228 0.319036
0.222019 0.958038 0.303044
0.314946 0.956695 0.284886
0.391028 0.954406 0.273167
0.457527 0.951720 0.264103
0.513420 0.949859 0.268009
0.565515 0.948119 0.275090
0.615320 0.946471 0.283696
0.663783 0.944915 0.293584
0.710658 0.943359 0.304417
0.756100 0.941650 0.316381
0.800229 0.939727 0.327520
0.843107 0.937530 0.338415
0.884825 0.935058 0.348180
0.925628 0.932341 0.358434
0.967285 0.930938 0.370581
1.000000 0.926513 0.388495
1.000000 0.913359 0.411292
1.000000 0.905730 0.451514
1.000000 0.903899 0.512352
1.000000 0.903624 0.569268
0.000000 0.978759 0.442664
0.000000 0.979126 0.444648
0.000000 0.979309 0.445624
0.000000 0.979278 0.444587
0.000000 0.979126 0.442023
0.000000 0.978851 0.438056
0.000000 0.978546 0.433234
0.000000 0.978210 0.426520
0.000000 0.977813 0.419776
0.000000 0.977417 0.411810
0.000000 0.976928 0.401892
0.162173 0.976349 0.391241
0.259373 0.975616 0.378149
0.329686 0.974670 0.362493
0.391730 0.973297 0.346532
0.452552 0.971038 0.339452
0.507927 0.968811 0.334569
0.557397 0.967163 0.340154
0.605341 0.965667 0.347601
0.651728 0.964233 0.356481
0.696956 0.962829 0.366644
0.740902 0.961364 0.377722
0.783597 0.959777 0.388739
0.825193 0.958038 0.400122
0.865599 0.956023 0.411444
0.905028 0.953918 0.422339
0.943633 0.951659 0.433631
0.982849 0.950774 0.448249
1.000000 0.950530 0.466743
1.000000 0.938170 0.492592
1.000000 0.930083 0.525078
1.000000 0.928374 0.583978
0.000000 0.993408 0.505821
0.000000 0.993561 0.507134
0.000000 0.993622 0.506889
0.000000 0.993591 0.505486
0.000000 0.993439 0.503197
0.000000 0.993225 0.499184
0.000000 0.992981 0.494606
0.000000 0.992737 0.488838
0.000000 0.992432 0.482734
0.109377 0.992157 0.475288
0.198550 0.991852 0.466529
0.260136 0.991485 0.456550
0.312871 0.991089 0.445014
0.361730 0.990509 0.431373
0.408362 0.989685 0.415381
0.458167 0.988159 0.404364
0.508629 0.986145 0.397650
0.555871 0.984436 0.397955
0.601068 0.983032 0.404944
0.645228 0.981750 0.413428
0.688319 0.980468 0.423590
0.730251 0.979126 0.434211
0.770962 0.977630 0.444617
0.810666 0.976013 0.455695
0.849180 0.974243 0.466163
0.886687 0.972320 0.476478
0.923339 0.970306 0.487068
0.959228 0.968261 0.498207
0.995819 0.967559 0.512810
1.000000 0.968811 0.533318
1.000000 0.959014 0.560418
1.000000 0.950500 0.587762
0.140475 1.000000 0.560296
0.147280 1.000000 0.560876
0.157229 1.000000 0.561273
0.168276 1.000000 0.560357
0.184451 1.000000 0.559289
0.204898 1.000000 0.557702
0.231571 1.000000 0.556390
0.261479 1.000000 0.555230
0.292576 1.000000 0.553857
0.324956 1.000000 0.552148
0.357549 1.000000 0.549645
0.388830 1.000000 0.545617
0.420478 1.000000 0.540368
0.451026 1.000000 0.532525
0.481331 1.000000 0.521935
0.512169 1.000000 0.508721
0.551354 1.000000 0.504692
0.590692 1.000000 0.500389
0.629816 1.000000 0.506554
0.668544 1.000000 0.514855
0.706661 1.000000 0.523583
0.744106 1.000000 0.533135
0.780545 0.999634 0.542565
0.816037 0.998108 0.552178
0.850584 0.996429 0.561242
0.884215 0.994659 0.570184
0.917144 0.992828 0.579644
0.949340 0.990967 0.589471
0.980804 0.989075 0.599573
1.000000 0.988251 0.613245
1.000000 0.989075 0.631464
1.000000 0.981262 0.654078
0.395361 1.000000 0.637964
0.395941 1.000000 0.638087
0.396796 1.000000 0.637568
0.397986 1.000000 0.636439
0.400336 1.000000 0.634577
0.404425 1.000000 0.632441
0.410376 1.000000 0.629755
0.418128 1.000000 0.626520
0.428870 1.000000 0.623316
0.441444 1.000000 0.619257
0.456550 1.000000 0.615045
0.472877 1.000000 0.609705
0.490974 1.000000 0.603326
