20 Preset/Human Style/【3】LUT video cho PR-AE-FCPX/Joe-Allam (2)/JA – Faded Soft 2 (Classic Chrome).cube
# Created by Adobe Lightroom plugin Export LUT (1.24.0)
# www.johnrellis.com/lightroom/exportlut.htm
# Preset: JA – Faded Soft 2 (Classic Chrome)
# Color profile: E:\lut插件\exportlut.1.24\exportlut.lrplugin\color profiles\Rec709gamma2.4.icc
LUT_3D_SIZE 5
DOMAIN_MIN 0.000000 0.000000 0.000000
DOMAIN_MAX 0.903226 0.903226 0.903226
0.070954 0.086519 0.090669
0.232212 0.082490 0.100252
0.616632 0.133181 0.086427
0.946014 0.225986 0.000000
1.000000 0.303807 0.164401
0.156680 0.204410 0.065370
0.251347 0.203342 0.105318
0.627924 0.294377 0.000000
0.943999 0.336278 0.000000
1.000000 0.374426 0.179995
0.418097 0.525658 0.000000
0.500633 0.528771 0.000000
0.727474 0.530968 0.000000
0.963836 0.550927 0.000000
1.000000 0.545037 0.253147
0.631006 0.768582 0.000000
0.681117 0.771847 0.000000
0.843534 0.776181 0.000000
0.988251 0.729000 0.191958
1.000000 0.718257 0.416938
0.769497 0.926177 0.000000
0.796353 0.925170 0.000000
0.890013 0.916411 0.000000
1.000000 0.898131 0.376989
1.000000 0.844511 0.584314
0.045472 0.120485 0.231479
0.174594 0.133394 0.224460
0.575952 0.023987 0.203525
0.909026 0.242924 0.165591
1.000000 0.336767 0.139162
0.090547 0.214481 0.235630
0.206332 0.223636 0.231937
0.601465 0.271092 0.207340
0.913451 0.333501 0.165499
1.000000 0.390509 0.155764
0.300450 0.535027 0.134554
0.436439 0.535607 0.120394
0.693507 0.520836 0.184268
0.934386 0.544610 0.217655
1.000000 0.552850 0.268040
0.586419 0.769436 0.000000
0.644251 0.773312 0.000000
0.823331 0.779232 0.151675
0.973907 0.738216 0.348791
1.000000 0.722560 0.433173
0.751919 0.926360 0.169345
0.779446 0.925261 0.178866
0.880064 0.920806 0.255344
1.000000 0.904814 0.430213
1.000000 0.848264 0.593378
0.000000 0.202029 0.638178
0.000000 0.224399 0.631922
0.464271 0.204074 0.574731
0.826780 0.307927 0.541436
1.000000 0.465217 0.548486
0.000000 0.333196 0.638788
0.000000 0.322332 0.636683
0.488502 0.314092 0.580011
0.833921 0.409857 0.552972
1.000000 0.512047 0.558984
0.095918 0.579767 0.623529
0.325994 0.582055 0.616449
0.581445 0.578546 0.581506
0.864775 0.609674 0.585443
1.000000 0.632929 0.581415
0.456977 0.800015 0.585077
0.518791 0.792844 0.573480
0.719173 0.783291 0.538445
0.925048 0.772549 0.596246
1.000000 0.767453 0.623285
0.673671 0.927611 0.513054
0.702998 0.925750 0.501030
0.818723 0.921996 0.512566
0.967895 0.913787 0.577050
1.000000 0.862730 0.666316
0.000000 0.415930 0.881956
0.000000 0.440528 0.879698
0.551019 0.553826 0.858305
0.713802 0.481239 0.804135
0.974029 0.548821 0.777676
0.000000 0.501976 0.877989
0.283330 0.521324 0.876707
0.571221 0.586816 0.856474
0.721065 0.521263 0.799588
0.971099 0.582055 0.776333
0.406104 0.658961 0.866056
0.467842 0.665522 0.864225
0.644617 0.693507 0.858488
0.757992 0.642817 0.796689
0.972930 0.699306 0.786801
0.586999 0.819913 0.854459
0.614466 0.820462 0.851896
0.713436 0.824826 0.843626
0.825162 0.807706 0.804044
0.971527 0.831144 0.814603
0.760769 0.926360 0.844724
0.769467 0.925933 0.841947
0.800961 0.924468 0.826078
0.885435 0.919738 0.770840
0.976654 0.899992 0.824552
0.529473 0.641810 0.950530
0.529320 0.644099 0.950256
0.672236 0.709804 0.942992
0.800351 0.765316 0.932982
0.867063 0.710170 0.926421
0.530602 0.657557 0.949279
0.546319 0.663813 0.948638
0.688869 0.726528 0.941466
0.811978 0.782101 0.931334
0.870939 0.725582 0.924926
0.574945 0.717891 0.944762
0.612268 0.729488 0.943389
0.738430 0.779049 0.937835
0.851682 0.837064 0.927642
0.887907 0.784329 0.921660
0.703120 0.823758 0.935790
0.720272 0.827604 0.935149
0.785733 0.845243 0.932830
0.878447 0.880003 0.929412
0.914519 0.865110 0.920470
0.819821 0.911559 0.928771
0.828061 0.912627 0.928588
0.859678 0.917113 0.928222
0.902739 0.923766 0.927764
0.935210 0.924010 0.921202
