20 Preset/Human Style/【3】LUT video cho PR-AE-FCPX/Joe-Allam (2)/JA – Controlled Contrast 2 (Classic Chrome).cube
# Created by Adobe Lightroom plugin Export LUT (1.24.0)
# www.johnrellis.com/lightroom/exportlut.htm
# Preset: JA – Controlled Contrast 2 (Classic Chrome)
# Color profile: E:\lut插件\exportlut.1.24\exportlut.lrplugin\color profiles\Rec709gamma2.4.icc
LUT_3D_SIZE 5
DOMAIN_MIN 0.000000 0.000000 0.000000
DOMAIN_MAX 0.903226 0.903226 0.903226
0.119295 0.109499 0.104341
0.132021 0.107759 0.104280
0.394903 0.000000 0.098787
0.703883 0.000000 0.013794
0.997803 0.000000 0.000000
0.120699 0.121584 0.103792
0.140017 0.125521 0.101472
0.427161 0.163516 0.031617
0.715297 0.000000 0.000000
1.000000 0.000000 0.000000
0.195956 0.343084 0.000000
0.250004 0.335760 0.000000
0.457710 0.397650 0.000000
0.767971 0.424781 0.000000
1.000000 0.382238 0.000000
0.344030 0.565362 0.174624
0.374884 0.561273 0.167697
0.481697 0.572595 0.090730
0.681178 0.608820 0.000000
1.000000 0.671565 0.000000
0.560723 0.863737 0.425605
0.581079 0.862669 0.423865
0.639582 0.843565 0.391821
0.783658 0.877623 0.345708
0.990723 0.900572 0.177493
0.115633 0.111391 0.118685
0.136202 0.107149 0.121889
0.376074 0.000000 0.170352
0.689235 0.000000 0.151431
0.961151 0.000000 0.102815
0.116091 0.130495 0.122560
0.144839 0.133120 0.126986
0.420630 0.000000 0.118013
0.703395 0.000000 0.101595
0.971740 0.000000 0.082246
0.142763 0.366491 0.129519
0.233341 0.357183 0.123445
0.445991 0.389532 0.000000
0.744411 0.402228 0.029145
1.000000 0.372717 0.120211
0.355657 0.573053 0.270512
0.384436 0.569726 0.265934
0.483162 0.574182 0.233768
0.677882 0.610376 0.078401
1.000000 0.676661 0.221744
0.551141 0.865537 0.448524
0.571191 0.863584 0.445838
0.651270 0.862882 0.437598
0.789731 0.888487 0.393225
0.997009 0.909270 0.278721
0.000000 0.157107 0.410163
0.000000 0.109865 0.418189
0.434668 0.000000 0.433997
0.652186 0.000000 0.418433
0.944366 0.000000 0.438392
0.000000 0.254459 0.418341
0.000000 0.215793 0.424079
0.442267 0.139528 0.439155
0.658320 0.159823 0.422858
0.950500 0.000000 0.443702
0.132753 0.443885 0.423316
0.259892 0.443580 0.426154
0.461769 0.447456 0.441138
0.691127 0.427527 0.440345
0.973571 0.393317 0.447913
0.386542 0.616999 0.464240
0.419379 0.610986 0.466377
0.500237 0.593500 0.451545
0.673182 0.629938 0.426612
1.000000 0.694545 0.491493
0.498543 0.870298 0.531945
0.523033 0.870176 0.530449
0.613092 0.866392 0.520226
0.760494 0.879850 0.489631
0.981048 0.903410 0.419684
0.000000 0.309636 0.676417
0.000000 0.284001 0.682795
0.396399 0.278355 0.693294
0.673091 0.252598 0.701472
0.885100 0.294347 0.698451
0.000000 0.406043 0.673671
0.157412 0.386816 0.676539
0.415808 0.358892 0.685725
0.667506 0.333532 0.692714
0.878935 0.348669 0.693904
0.276890 0.541924 0.664546
0.329076 0.540978 0.664485
0.463478 0.523033 0.675013
0.666194 0.493751 0.683772
0.890532 0.486213 0.696010
0.380468 0.688106 0.675837
0.407874 0.685939 0.674678
0.511620 0.687648 0.680781
0.687007 0.691096 0.694728
0.973846 0.676905 0.701595
0.502495 0.904631 0.736172
0.519585 0.904387 0.733944
0.588952 0.904906 0.724788
0.728237 0.890227 0.692500
0.960174 0.909392 0.649317
0.205875 0.537530 0.927977
0.240879 0.522332 0.929107
0.436133 0.504997 0.933165
0.665187 0.483986 0.938323
0.897215 0.447181 0.942138
0.278660 0.574365 0.923583
0.301427 0.560876 0.925109
0.441871 0.531853 0.929839
0.664515 0.510246 0.934936
0.895842 0.474372 0.939635
0.329137 0.668788 0.920470
0.375402 0.666011 0.920378
0.495338 0.645533 0.924468
0.670314 0.611536 0.930449
0.900145 0.584894 0.938933
0.427039 0.802243 0.921355
0.451484 0.800259 0.921080
0.552239 0.796994 0.923583
0.722072 0.788968 0.932860
0.918151 0.775784 0.944396
0.588891 0.939757 0.925841
0.605585 0.939208 0.925933
0.679835 0.938964 0.928710
0.799466 0.937133 0.932921
0.929290 0.935485 0.939269
