20 Preset/Human Style/【3】LUT video cho PR-AE-FCPX/Joe-Allam (2)/JA – Cine Night 1 (Classic Chrome).cube
# Created by Adobe Lightroom plugin Export LUT (1.24.0)
# www.johnrellis.com/lightroom/exportlut.htm
# Preset: JA – Cine Night 1 (Classic Chrome)
# Color profile: E:\lut插件\exportlut.1.24\exportlut.lrplugin\color profiles\Rec709gamma2.4.icc
LUT_3D_SIZE 5
DOMAIN_MIN 0.000000 0.000000 0.000000
DOMAIN_MAX 0.903226 0.903226 0.903226
0.000000 0.027771 0.056123
0.099733 0.077852 0.098543
0.398627 0.000000 0.131991
0.842985 0.000000 0.183505
1.000000 0.289647 0.310155
0.000000 0.139651 0.141146
0.028168 0.150149 0.122835
0.435767 0.180117 0.106691
0.853178 0.218814 0.126070
1.000000 0.365484 0.271031
0.000000 0.447730 0.301274
0.000000 0.445655 0.275975
0.384588 0.488014 0.210361
0.860166 0.548821 0.027680
1.000000 0.577966 0.211185
0.000000 0.811154 0.554498
0.000000 0.810208 0.546044
0.287541 0.793484 0.491951
0.743862 0.823178 0.415320
1.000000 0.828702 0.404822
0.538537 0.982483 0.868193
0.579095 0.981018 0.871702
0.637385 0.977417 0.855039
0.766384 0.971374 0.833097
0.933135 0.970733 0.803647
0.000000 0.061067 0.162814
0.030457 0.076692 0.159701
0.360906 0.086152 0.229068
0.812650 0.000000 0.274876
1.000000 0.309850 0.341772
0.000000 0.136568 0.204471
0.000000 0.150607 0.215732
0.397620 0.175357 0.240574
0.825345 0.218875 0.273472
1.000000 0.378424 0.342229
0.000000 0.443793 0.367926
0.000000 0.449470 0.355993
0.373663 0.476875 0.297551
0.849546 0.534844 0.255192
1.000000 0.584070 0.345739
0.000000 0.810910 0.601343
0.000000 0.810391 0.597284
0.306462 0.796414 0.547265
0.740658 0.821622 0.480415
1.000000 0.829526 0.481147
0.538445 0.982452 0.876280
0.579034 0.980987 0.879362
0.658961 0.977813 0.873503
0.772549 0.971221 0.850584
0.932616 0.970825 0.825589
0.000000 0.090852 0.361242
0.000000 0.089357 0.377630
0.304234 0.065034 0.375586
0.742794 0.155947 0.474220
1.000000 0.477699 0.635706
0.000000 0.152895 0.397253
0.000000 0.159548 0.411872
0.334783 0.173861 0.414160
0.751797 0.287816 0.507469
1.000000 0.516686 0.643061
0.000000 0.410285 0.504204
0.000000 0.422980 0.511009
0.359136 0.469520 0.535515
0.781460 0.546410 0.586908
1.000000 0.642847 0.655116
0.000000 0.814939 0.745480
0.000000 0.812833 0.741543
0.396521 0.807248 0.727260
0.728573 0.817472 0.674006
1.000000 0.834775 0.696773
0.504479 0.983551 0.901610
0.554772 0.982025 0.904082
0.696468 0.976287 0.913664
0.786038 0.970428 0.895781
0.930602 0.969543 0.876921
0.000000 0.109834 0.643000
0.000000 0.097688 0.657771
0.455207 0.000000 0.714778
0.716609 0.000000 0.676997
0.975677 0.452766 0.749264
0.000000 0.180941 0.662165
0.000000 0.180514 0.675196
0.449287 0.157839 0.728176
0.723079 0.219242 0.696986
0.969604 0.512749 0.767727
0.000000 0.384222 0.675685
0.000000 0.385321 0.678035
0.342351 0.441810 0.752193
0.716518 0.516655 0.760189
0.956664 0.689784 0.837339
0.000000 0.750240 0.834989
0.000000 0.753567 0.836271
0.313848 0.770321 0.844419
0.706325 0.803250 0.861875
0.967468 0.856931 0.901457
0.509117 0.984619 0.953155
0.550103 0.983490 0.952941
0.679561 0.979126 0.952483
0.838651 0.970397 0.956817
0.933776 0.968078 0.941680
0.000000 0.235935 0.944701
0.225895 0.222904 0.947662
0.574945 0.168673 0.960906
0.888426 0.207523 0.979553
1.000000 0.396033 0.932860
0.000000 0.267155 0.945129
0.213230 0.265934 0.947875
0.555962 0.266606 0.959625
0.874418 0.317967 0.977874
1.000000 0.454810 0.934569
0.000000 0.436072 0.944091
0.000000 0.449439 0.946685
0.450263 0.475044 0.957397
0.818357 0.547997 0.973938
0.981140 0.630274 0.946014
0.000000 0.719051 0.957275
0.000000 0.713466 0.955474
0.000000 0.691890 0.949523
0.689204 0.749111 0.969238
0.952209 0.834348 0.967193
0.225681 0.951232 0.985962
0.319127 0.951324 0.985779
0.542870 0.952819 0.985626
0.774838 0.956329 0.984985
0.936675 0.963653 0.986145
