20 Preset/Human Style/【3】LUT video cho PR-AE-FCPX/Joe-Allam (2)/JA – Controlled Contrast 1 (Classic Chrome).cube
# Created by Adobe Lightroom plugin Export LUT (1.24.0)
# www.johnrellis.com/lightroom/exportlut.htm
# Preset: JA – Controlled Contrast 1 (Classic Chrome)
# Color profile: E:\lut插件\exportlut.1.24\exportlut.lrplugin\color profiles\Rec709gamma2.4.icc
LUT_3D_SIZE 5
DOMAIN_MIN 0.000000 0.000000 0.000000
DOMAIN_MAX 0.903226 0.903226 0.903226
0.109377 0.107362 0.107210
0.157870 0.106386 0.110964
0.384894 0.101320 0.097261
0.825376 0.160189 0.000000
1.000000 0.236667 0.000000
0.109590 0.142550 0.106600
0.151095 0.139528 0.114473
0.378790 0.179538 0.080385
0.816953 0.263798 0.000000
1.000000 0.309758 0.000000
0.194827 0.347051 0.000000
0.268315 0.357794 0.000000
0.396582 0.335119 0.000000
0.770657 0.434424 0.000000
1.000000 0.477363 0.000000
0.384527 0.724117 0.000000
0.454200 0.727779 0.000000
0.645045 0.723842 0.000000
0.847471 0.705562 0.000000
1.000000 0.696040 0.000000
0.459205 0.974090 0.000000
0.511711 0.973297 0.000000
0.683070 0.973419 0.000000
0.897673 0.957580 0.000000
1.000000 0.929473 0.582177
0.070497 0.121340 0.174594
0.163272 0.112795 0.166751
0.421515 0.047456 0.148959
0.866209 0.161563 0.000000
1.000000 0.272923 0.000000
0.090181 0.161013 0.160586
0.162356 0.158968 0.159091
0.407324 0.183169 0.143404
0.850767 0.264469 0.000000
1.000000 0.333349 0.000000
0.094423 0.366278 0.098939
0.233616 0.374884 0.082612
0.429175 0.366522 0.141634
0.797269 0.443549 0.000000
1.000000 0.484047 0.000000
0.311437 0.730282 0.000000
0.401953 0.731777 0.000000
0.631617 0.731411 0.000000
0.853056 0.714443 0.000000
1.000000 0.699367 0.000000
0.440864 0.976593 0.000000
0.496681 0.975952 0.000000
0.671565 0.971557 0.000000
0.892485 0.956939 0.000000
1.000000 0.928161 0.573327
0.000000 0.239872 0.493751
0.000000 0.156771 0.488960
0.456062 0.000000 0.479072
0.823880 0.000000 0.471870
1.000000 0.402045 0.521080
0.000000 0.285557 0.460334
0.000000 0.247288 0.464240
0.453101 0.169070 0.471839
0.854215 0.149996 0.472114
1.000000 0.432380 0.507469
0.000000 0.452949 0.455573
0.000000 0.451820 0.454932
0.488563 0.467414 0.475563
0.855497 0.492775 0.458289
1.000000 0.524865 0.434546
0.000000 0.761746 0.385931
0.000000 0.763790 0.413764
0.574426 0.763546 0.425666
0.843931 0.748623 0.535637
1.000000 0.718074 0.428870
0.288762 0.984161 0.279973
0.380194 0.983001 0.264103
0.605158 0.978882 0.173617
0.875029 0.963897 0.368139
1.000000 0.935790 0.627344
0.000000 0.393561 0.844572
0.000000 0.350500 0.844114
0.000000 0.177951 0.850004
0.817075 0.205814 0.853208
1.000000 0.419959 0.793942
0.000000 0.437690 0.837980
0.000000 0.406378 0.839872
0.000000 0.260227 0.848692
0.821134 0.337285 0.852476
1.000000 0.495308 0.797665
0.000000 0.580346 0.824979
0.000000 0.567620 0.822965
0.000000 0.527062 0.827878
0.825284 0.586389 0.837217
1.000000 0.688624 0.818631
0.000000 0.811917 0.819211
0.000000 0.811795 0.819608
0.304906 0.807614 0.817533
0.846799 0.819974 0.832639
1.000000 0.836728 0.831052
0.294347 0.986633 0.750362
0.422156 0.983825 0.758297
0.679164 0.973175 0.791318
0.868376 0.966155 0.811460
0.993500 0.955077 0.875486
0.000000 0.514763 1.000000
0.000000 0.514183 1.000000
0.000000 0.470253 1.000000
0.668879 0.542290 1.000000
0.977722 0.684291 0.998932
0.000000 0.545159 1.000000
0.000000 0.545800 1.000000
0.000000 0.532494 1.000000
0.687190 0.588037 1.000000
0.977966 0.715389 0.996704
0.000000 0.639643 1.000000
0.000000 0.640009 1.000000
0.324102 0.676387 1.000000
0.738552 0.713832 1.000000
0.978759 0.802670 0.990265
0.000000 0.796048 1.000000
0.000000 0.796139 1.000000
0.000000 0.801114 1.000000
0.786587 0.850828 0.990448
0.979736 0.896910 0.983276
0.000000 0.985748 0.986481
0.000000 0.984894 0.985931
0.554223 0.981689 0.983612
0.830900 0.977111 0.979797
0.980346 0.975006 0.977569
