20 Preset/Human Style/【3】LUT video cho PR-AE-FCPX/Joe-Allam (2)/JA – Harsh Shade 1 (Classic Chrome).cube
# Created by Adobe Lightroom plugin Export LUT (1.24.0)
# www.johnrellis.com/lightroom/exportlut.htm
# Preset: JA – Harsh Shade 1 (Classic Chrome)
# Color profile: E:\lut插件\exportlut.1.24\exportlut.lrplugin\color profiles\Rec709gamma2.4.icc
LUT_3D_SIZE 8
DOMAIN_MIN 0.000000 0.000000 0.000000
DOMAIN_MAX 0.903226 0.903226 0.903226
0.034577 0.039033 0.056092
0.082307 0.038758 0.061921
0.148898 0.049531 0.078157
0.236149 0.069764 0.097322
0.399908 0.046693 0.107881
0.678798 0.000000 0.105776
0.913298 0.000000 0.115511
1.000000 0.000000 0.163882
0.028992 0.086152 0.059297
0.093874 0.090181 0.053101
0.155306 0.084474 0.068849
0.238590 0.094972 0.094331
0.395666 0.098787 0.104921
0.662043 0.033051 0.099306
0.890532 0.000000 0.102602
1.000000 0.000000 0.150881
0.065797 0.137240 0.103456
0.095216 0.138186 0.104372
0.167239 0.154818 0.098543
0.277409 0.166934 0.095583
0.468269 0.193729 0.071290
0.734646 0.220340 0.000000
0.933806 0.222324 0.019501
1.000000 0.229160 0.138643
0.056306 0.221134 0.123384
0.099367 0.222080 0.123873
0.180728 0.242924 0.119387
0.370092 0.322942 0.051698
0.628626 0.390295 0.000000
0.818570 0.394202 0.000000
0.964446 0.381262 0.000000
1.000000 0.367010 0.030701
0.000000 0.374304 0.115969
0.033845 0.376410 0.115846
0.206332 0.390295 0.112642
0.402502 0.477852 0.000000
0.681239 0.584680 0.000000
0.858854 0.576562 0.000000
0.964874 0.533471 0.000000
1.000000 0.507408 0.000000
0.000000 0.577569 0.000000
0.000000 0.587640 0.000000
0.223819 0.597314 0.000000
0.414282 0.633539 0.000000
0.638239 0.703639 0.000000
0.866636 0.755734 0.000000
0.984741 0.712947 0.000000
1.000000 0.668635 0.145846
0.000000 0.759548 0.000000
0.000000 0.761624 0.000000
0.253544 0.763851 0.000000
0.428626 0.769436 0.000000
0.606592 0.797024 0.000000
0.791379 0.832059 0.107271
0.961608 0.859983 0.310430
1.000000 0.820371 0.415106
0.397284 0.898131 0.341131
0.412818 0.898192 0.344793
0.474067 0.899168 0.364294
0.571740 0.901762 0.403845
0.662226 0.898100 0.408118
0.789059 0.914916 0.461891
0.908934 0.927886 0.517205
1.000000 0.932372 0.598199
0.028443 0.044770 0.092927
0.076143 0.037964 0.096468
0.133669 0.074708 0.107057
0.216037 0.086122 0.122133
0.369360 0.052583 0.132845
0.628992 0.000000 0.137606
0.867369 0.000000 0.143038
1.000000 0.000000 0.175113
0.021607 0.085939 0.100465
0.083619 0.089662 0.104738
0.140658 0.094514 0.111910
0.225406 0.099031 0.121126
0.378790 0.094881 0.130220
0.634485 0.000000 0.132479
0.860685 0.000000 0.135042
1.000000 0.000000 0.166354
0.059724 0.137667 0.120089
0.092988 0.138643 0.121126
0.160769 0.151797 0.119051
0.264164 0.159457 0.118441
0.442542 0.180056 0.114443
0.692103 0.198428 0.100435
0.893675 0.196933 0.104707
1.000000 0.206882 0.153017
0.029328 0.216403 0.134890
0.089418 0.217533 0.135531
0.169131 0.233585 0.135134
0.333654 0.294133 0.110933
0.557458 0.344213 0.007080
0.763241 0.361364 0.000000
0.929900 0.358312 0.000000
1.000000 0.349706 0.091798
0.000000 0.368139 0.131716
0.000000 0.369146 0.131533
0.190799 0.379461 0.130404
0.375708 0.452461 0.034730
0.647395 0.555535 0.000000
0.834592 0.556420 0.000000
0.949004 0.519799 0.000000
1.000000 0.496651 0.000000
0.000000 0.563897 0.000000
0.000000 0.566766 0.000000
0.196170 0.577569 0.000000
0.393347 0.613428 0.000000
0.622736 0.689693 0.000000
0.858122 0.748043 0.000000
0.977630 0.705959 0.000000
1.000000 0.662104 0.156985
0.000000 0.748165 0.000000
0.000000 0.747341 0.000000
0.219394 0.749660 0.000000
0.410193 0.757290 0.000000
0.595026 0.788083 0.000000
0.782834 0.824491 0.116640
0.955016 0.852750 0.301579
1.000000 0.813138 0.401068
0.365301 0.890379 0.320531
0.387793 0.891752 0.330114
0.452735 0.892607 0.348852
0.555810 0.895628 0.389807
0.671229 0.901854 0.437140
0.790646 0.915526 0.477211
0.907561 0.926909 0.523522
1.000000 0.931640 0.602564
0.015412 0.063508 0.135561
0.044800 0.065217 0.139162
0.125399 0.078798 0.151644
0.196658 0.090761 0.163516
0.343938 0.058198 0.192386
0.622492 0.000000 0.213504
0.870756 0.000000 0.228550
1.000000 0.000000 0.257511
0.041596 0.093538 0.140505
0.067201 0.094972 0.145632
0.129641 0.097993 0.157382
0.203220 0.104646 0.168246
0.352789 0.092195 0.193057
0.623987 0.000000 0.210422
0.864500 0.000000 0.222049
1.000000 0.000000 0.249912
0.036622 0.136172 0.160800
0.073518 0.138918 0.163760
0.143160 0.148959 0.175326
0.245579 0.155550 0.184054
0.427344 0.158541 0.194034
0.687282 0.142885 0.199924
0.893278 0.139712 0.209934
1.000000 0.200351 0.241642
0.000000 0.222782 0.183230
0.000000 0.227756 0.183627
0.146120 0.241001 0.185000
0.328191 0.294255 0.181094
0.550927 0.323705 0.169711
0.774044 0.339483 0.159487
0.933532 0.338933 0.175479
1.000000 0.349279 0.220371
0.000000 0.379950 0.177920
0.000000 0.382483 0.177951
0.125643 0.395026 0.178805
0.349004 0.449531 0.165469
0.649348 0.559686 0.052338
0.833188 0.546197 0.048829
0.947906 0.508446 0.124758
1.000000 0.495766 0.188998
0.000000 0.570031 0.123568
0.000000 0.573480 0.123293
0.000000 0.583154 0.122164
0.355291 0.601923 0.121767
0.601770 0.680598 0.000000
0.850217 0.743587 0.099886
0.970642 0.703426 0.216464
1.000000 0.667262 0.289738
0.000000 0.752895 0.012299
0.000000 0.752407 0.018311
0.134218 0.753445 0.063661
0.389746 0.759152 0.123598
0.583825 0.783352 0.183597
0.778012 0.822568 0.276036
0.949676 0.854978 0.418830
1.000000 0.821439 0.487678
0.357214 0.889982 0.371466
0.373144 0.889464 0.372381
0.441749 0.890196 0.388739
0.553368 0.894804 0.430945
0.669337 0.898589 0.475288
0.791531 0.914641 0.520256
0.907012 0.927153 0.567407
1.000000 0.932586 0.636194
0.000000 0.087617 0.177523
0.022980 0.088441 0.181949
0.109865 0.090700 0.198978
0.200229 0.087739 0.223056
0.292027 0.073732 0.231937
0.516136 0.000000 0.275731
0.806668 0.000000 0.312078
0.982940 0.143221 0.368200
0.005829 0.099947 0.185153
0.025788 0.100313 0.189670
0.113497 0.102296 0.205386
0.208072 0.100343 0.229343
0.301457 0.093141 0.235813
0.534783 0.000000 0.279210
0.815427 0.000000 0.312352
0.983062 0.207675 0.377111
0.010254 0.132509 0.195193
0.035004 0.133913 0.198154
0.115175 0.141207 0.219120
0.229648 0.147768 0.244938
0.354223 0.146883 0.255344
0.624262 0.097383 0.294896
0.871580 0.181399 0.338415
0.999664 0.317174 0.398932
0.000000 0.211612 0.232700
0.000000 0.215366 0.235569
0.109346 0.232639 0.248692
0.284337 0.272496 0.276524
0.496376 0.287022 0.287541
0.728969 0.303105 0.300572
0.905119 0.338323 0.328374
1.000000 0.402808 0.388739
0.000000 0.374090 0.266361
0.000000 0.379217 0.266453
0.000000 0.405890 0.267002
0.293462 0.450568 0.269383
0.631891 0.552209 0.279179
0.816312 0.526360 0.294743
0.942168 0.513542 0.327459
1.000000 0.526268 0.387701
0.000000 0.583215 0.249485
0.000000 0.593927 0.248356
0.000000 0.609064 0.239750
0.303014 0.625971 0.254032
0.578424 0.676631 0.287694
0.837064 0.743160 0.384253
0.952392 0.709194 0.431647
1.000000 0.683436 0.460883
0.000000 0.756130 0.242344
0.000000 0.757504 0.246799
0.000000 0.761135 0.262943
0.363928 0.767758 0.297215
0.571374 0.778164 0.352453
0.771817 0.820554 0.446754
0.938567 0.856626 0.548180
1.000000 0.830350 0.584619
0.354528 0.893462 0.460243
0.373907 0.893462 0.462928
0.444190 0.894011 0.475166
0.551354 0.896056 0.501335
0.668391 0.898711 0.536980
0.789578 0.911925 0.581048
0.904112 0.926696 0.627375
0.997589 0.934203 0.685634
0.000000 0.096956 0.220310
0.000000 0.097688 0.224674
0.091615 0.098817 0.241001
0.196414 0.092012 0.276341
0.339178 0.001740 0.314214
0.462318 0.000000 0.323400
0.682338 0.000000 0.365301
0.940215 0.000000 0.434607
0.000000 0.105257 0.226413
0.000000 0.105837 0.230625
0.092164 0.106905 0.246464
0.199771 0.102510 0.280705
0.349218 0.029450 0.320287
0.472786 0.000000 0.327459
0.696864 0.000000 0.370001
0.943877 0.000000 0.438422
0.000000 0.132753 0.230930
0.000000 0.133791 0.236210
0.072694 0.135958 0.257725
0.206180 0.140871 0.293614
0.380529 0.125704 0.339940
0.501152 0.066560 0.336492
0.744686 0.000000 0.385443
0.950835 0.205661 0.456916
0.000000 0.186069 0.252781
0.000000 0.187900 0.255406
0.038483 0.195529 0.267735
0.208164 0.223453 0.316869
0.449256 0.253147 0.390967
0.591089 0.236728 0.373938
0.826596 0.315282 0.446357
0.955535 0.474067 0.543999
0.000000 0.318395 0.307805
0.000000 0.323980 0.311742
0.000000 0.347326 0.328771
0.214115 0.400641 0.373693
0.531395 0.490639 0.469795
0.730800 0.512902 0.497169
0.878325 0.545586 0.533074
0.980133 0.587701 0.575799
0.000000 0.529717 0.365789
0.000000 0.535119 0.368017
0.000000 0.553826 0.374121
0.000000 0.592950 0.393896
0.508598 0.635737 0.447425
0.795010 0.721645 0.547051
0.913664 0.703151 0.574334
1.000000 0.700649 0.595422
0.000000 0.735653 0.389532
0.000000 0.736355 0.388373
0.000000 0.742458 0.390845
0.241611 0.758022 0.431464
0.538811 0.769192 0.482277
0.743801 0.801572 0.554864
0.919280 0.850065 0.642176
0.999695 0.829770 0.657496
0.000000 0.882475 0.494514
0.016266 0.882353 0.499214
0.330755 0.882567 0.520897
0.497902 0.888518 0.553338
0.640101 0.892790 0.587793
0.769253 0.900847 0.629175
0.892149 0.921386 0.676692
0.988769 0.932189 0.729458
0.000000 0.105043 0.265202
0.000000 0.105226 0.269169
0.050263 0.104921 0.285161
0.185489 0.096834 0.322850
0.361456 0.000000 0.416114
0.555108 0.000000 0.494026
0.688869 0.000000 0.490547
0.851591 0.000000 0.504326
0.000000 0.109865 0.266148
0.000000 0.110048 0.269718
0.038117 0.110231 0.285435
0.182132 0.104677 0.322332
0.356085 0.000000 0.411536
0.551263 0.000000 0.489967
0.685176 0.000000 0.486275
0.848264 0.000000 0.500008
0.000000 0.133150 0.269688
0.000000 0.133059 0.275029
0.000000 0.132570 0.296300
0.176791 0.133364 0.335698
0.363317 0.107271 0.432105
0.579614 0.000000 0.518853
0.714260 0.000000 0.504448
0.881010 0.000000 0.517418
0.000000 0.167361 0.267277
0.000000 0.167544 0.268925
0.000000 0.177401 0.293004
0.132387 0.191409 0.359167
0.373754 0.213840 0.479164
0.639277 0.230838 0.577661
0.767300 0.189059 0.538903
0.926635 0.279576 0.561883
0.000000 0.256748 0.313359
0.000000 0.258640 0.315892
0.000000 0.266911 0.327886
0.012634 0.284337 0.358434
0.345708 0.354253 0.492988
0.676417 0.460151 0.613550
0.790188 0.421302 0.560937
0.932067 0.560388 0.636194
0.000000 0.449744 0.422492
0.000000 0.456611 0.429816
0.000000 0.476539 0.451392
0.000000 0.518517 0.497383
0.401129 0.586084 0.569146
0.734585 0.688899 0.671870
0.859190 0.710811 0.693904
0.961669 0.732662 0.715480
0.000000 0.708064 0.534417
0.000000 0.711910 0.536706
0.000000 0.721065 0.541100
0.000000 0.737362 0.554406
0.454719 0.758511 0.593530
0.718502 0.783780 0.659083
0.900298 0.846403 0.731716
0.983795 0.833219 0.738552
0.000000 0.876463 0.575830
0.000000 0.875883 0.575494
0.000000 0.876555 0.580591
0.287663 0.880491 0.599786
0.571130 0.885557 0.642664
0.737667 0.893950 0.683803
0.872740 0.914122 0.731075
0.977630 0.931487 0.788998
0.000000 0.112734 0.332738
0.000000 0.112367 0.338140
0.000000 0.109590 0.359777
0.177188 0.093629 0.415930
0.338231 0.000000 0.518883
0.557122 0.000000 0.638087
0.745724 0.000000 0.679133
0.873991 0.000000 0.660426
0.000000 0.116304 0.330877
0.000000 0.116243 0.336584
0.000000 0.114229 0.357946
0.169406 0.101198 0.411353
0.331853 0.000000 0.513268
0.551080 0.000000 0.632776
0.740597 0.000000 0.674220
0.867643 0.000000 0.654322
0.000000 0.136385 0.333074
0.000000 0.134005 0.339269
0.000000 0.130892 0.362524
0.134981 0.125368 0.417945
0.318944 0.083650 0.521050
0.551293 0.000000 0.641321
0.755550 0.000000 0.688411
0.885985 0.000000 0.666529
0.000000 0.171450 0.319707
0.000000 0.171572 0.324559
0.000000 0.172213 0.350774
0.000000 0.165499 0.422309
0.279332 0.165896 0.533623
0.549584 0.170901 0.657465
0.778195 0.205234 0.710231
0.904479 0.170779 0.678767
0.000000 0.223972 0.329137
0.000000 0.222904 0.329503
0.000000 0.219608 0.333532
0.000000 0.223087 0.365972
0.113008 0.245823 0.520775
0.526238 0.326635 0.660121
0.793240 0.434760 0.725490
0.911589 0.414038 0.688594
0.000000 0.365881 0.429633
0.000000 0.366705 0.432013
0.000000 0.368994 0.441535
0.000000 0.372351 0.462043
0.000000 0.375280 0.500908
0.492042 0.491279 0.652735
0.815457 0.654017 0.751278
0.907744 0.610407 0.708278
0.000000 0.610681 0.592187
0.000000 0.613519 0.595056
0.000000 0.622370 0.603906
0.000000 0.641840 0.623468
0.000000 0.674586 0.656458
0.590814 0.726833 0.708919
0.852476 0.815244 0.798276
0.950439 0.831540 0.815335
0.000000 0.862119 0.688106
0.000000 0.863035 0.688838
0.000000 0.867338 0.692805
0.000000 0.871824 0.699672
0.359380 0.876738 0.714534
0.650568 0.886076 0.743526
0.838590 0.902495 0.790280
0.963897 0.931334 0.857053
0.000000 0.134371 0.615259
0.000000 0.132601 0.620935
0.000000 0.122225 0.637018
0.035859 0.091035 0.672236
0.348363 0.000000 0.717891
0.540795 0.000000 0.766445
0.735927 0.000000 0.816464
0.897276 0.000000 0.828824
0.000000 0.138369 0.609125
0.000000 0.136629 0.615106
0.000000 0.127657 0.633143
0.000000 0.100435 0.668086
0.340215 0.000000 0.714687
0.536431 0.000000 0.764248
0.732998 0.000000 0.814145
0.895048 0.000000 0.826535
0.000000 0.159640 0.606592
0.000000 0.155154 0.611780
0.000000 0.149081 0.629633
0.000000 0.133303 0.669215
0.309850 0.085908 0.715145
0.524010 0.000000 0.764370
0.730465 0.000000 0.815091
0.896880 0.134707 0.828916
0.000000 0.233799 0.592157
0.000000 0.230533 0.598566
0.000000 0.210117 0.620966
0.000000 0.178012 0.663752
0.216831 0.166140 0.714595
0.497322 0.165499 0.767117
0.728176 0.257877 0.818906
0.901976 0.328923 0.835538
0.000000 0.299321 0.561120
0.000000 0.299168 0.567834
0.000000 0.292973 0.587762
0.000000 0.273899 0.634730
0.000000 0.231418 0.701839
0.430091 0.266941 0.762844
0.719844 0.395911 0.818906
0.905821 0.490791 0.842496
0.000000 0.435584 0.645991
0.000000 0.432258 0.644221
0.000000 0.419593 0.640131
0.000000 0.394415 0.637293
0.000000 0.351995 0.650629
0.202762 0.360632 0.751034
0.713252 0.542718 0.820890
0.914092 0.655024 0.857450
0.000000 0.621241 0.740444
0.000000 0.619928 0.740261
0.000000 0.614557 0.739986
0.000000 0.604761 0.741878
0.000000 0.585931 0.745266
0.000000 0.553735 0.751034
0.665705 0.655329 0.807065
0.923095 0.787228 0.876188
0.000000 0.836851 0.819944
0.000000 0.836851 0.819974
0.000000 0.837919 0.821225
0.000000 0.841337 0.825040
0.000000 0.846036 0.830472
0.413642 0.853208 0.838651
0.720302 0.869749 0.856474
0.940581 0.920714 0.911131
