20 Preset/Human Style/【3】LUT video cho PR-AE-FCPX/Joe-Allam (2)/JA – Harsh Shade 2 (Classic Chrome).cube
# Created by Adobe Lightroom plugin Export LUT (1.24.0)
# www.johnrellis.com/lightroom/exportlut.htm
# Preset: JA – Harsh Shade 2 (Classic Chrome)
# Color profile: E:\lut插件\exportlut.1.24\exportlut.lrplugin\color profiles\Rec709gamma2.4.icc
LUT_3D_SIZE 8
DOMAIN_MIN 0.000000 0.000000 0.000000
DOMAIN_MAX 0.903226 0.903226 0.903226
0.033082 0.039002 0.061769
0.026123 0.038697 0.060792
0.151217 0.023255 0.051057
0.414527 0.000000 0.006165
0.608942 0.000000 0.000000
0.753048 0.084260 0.155642
0.897765 0.252140 0.279637
1.000000 0.377722 0.383673
0.032105 0.038025 0.060792
0.035920 0.040955 0.060304
0.171359 0.080964 0.040620
0.422675 0.111604 0.000000
0.607324 0.111635 0.000000
0.746548 0.151369 0.155978
0.882963 0.262638 0.271244
0.993317 0.379919 0.374823
0.000000 0.177737 0.009888
0.068330 0.182162 0.005524
0.243717 0.224704 0.000000
0.507195 0.295689 0.000000
0.652918 0.287877 0.075196
0.791714 0.317906 0.222019
0.919799 0.389593 0.323064
1.000000 0.457069 0.417945
0.000000 0.426490 0.000000
0.000000 0.426703 0.000000
0.282963 0.445106 0.000000
0.527367 0.495583 0.044129
0.719295 0.513603 0.244724
0.863279 0.528466 0.331426
0.951781 0.535241 0.399603
1.000000 0.554314 0.467933
0.000000 0.575067 0.148440
0.000000 0.575250 0.151888
0.262943 0.579248 0.168643
0.480476 0.611902 0.230625
0.694820 0.660578 0.309087
0.854063 0.671687 0.400183
0.961730 0.669642 0.475441
1.000000 0.665370 0.530724
0.166415 0.704860 0.285618
0.218326 0.711116 0.292821
0.334051 0.714778 0.301274
0.483772 0.730495 0.330144
0.659052 0.764401 0.391791
0.840513 0.800809 0.466682
0.950896 0.790616 0.547539
1.000000 0.777279 0.607080
0.299474 0.834348 0.407324
0.321630 0.835721 0.409949
0.392920 0.836362 0.415076
0.499855 0.838926 0.426795
0.639979 0.853086 0.467231
0.789151 0.871275 0.527916
0.927520 0.886748 0.601740
0.990143 0.863737 0.666865
0.435859 0.937102 0.541314
0.446906 0.936980 0.542260
0.491554 0.936980 0.547845
0.568017 0.937346 0.560113
0.654658 0.931548 0.565332
0.774868 0.935302 0.615747
0.884245 0.937469 0.671839
0.973327 0.937346 0.720760
0.033967 0.039002 0.058350
0.030701 0.038270 0.058503
0.135195 0.012360 0.081453
0.376135 0.000000 0.088228
0.584924 0.000000 0.111910
0.721523 0.074495 0.197452
0.856870 0.240848 0.286595
0.975097 0.361547 0.377691
0.025513 0.040864 0.065034
0.036378 0.042908 0.067933
0.156466 0.050141 0.082521
0.401099 0.020325 0.082704
0.593103 0.033387 0.116365
0.725795 0.153567 0.204166
0.854276 0.262394 0.286900
0.970062 0.369329 0.374731
0.000000 0.178622 0.071962
0.000000 0.183017 0.069673
0.233616 0.217441 0.057374
0.491249 0.277653 0.087190
0.632410 0.276768 0.167758
0.759731 0.310399 0.249668
0.883391 0.372564 0.324224
0.989258 0.441321 0.410346
0.000000 0.416724 0.000000
0.000000 0.417853 0.000000
0.257664 0.433295 0.000000
0.502251 0.474037 0.148318
0.677150 0.483894 0.260777
0.819303 0.501610 0.331792
0.918761 0.513695 0.390539
1.000000 0.538628 0.458076
0.000000 0.569207 0.193301
0.000000 0.568719 0.194583
0.253391 0.570703 0.204654
0.465064 0.596216 0.251774
0.671107 0.640131 0.320562
0.833951 0.656977 0.404425
0.947723 0.660456 0.478126
1.000000 0.657893 0.529473
0.157107 0.694270 0.299748
0.203830 0.695491 0.301915
0.322271 0.699825 0.310491
0.470588 0.716091 0.337102
0.647303 0.753353 0.398260
0.831357 0.793820 0.473762
0.944427 0.786160 0.551843
1.000000 0.774105 0.609400
0.285344 0.825132 0.408942
0.305028 0.824186 0.408637
0.378729 0.824796 0.413275
0.488411 0.828763 0.425879
0.631067 0.845731 0.467689
0.781979 0.865568 0.528099
0.921477 0.881559 0.599237
0.986419 0.859434 0.662898
0.420478 0.932158 0.536645
0.434577 0.932860 0.539666
0.480232 0.932799 0.544671
0.558801 0.933440 0.557183
0.659754 0.934142 0.579889
0.775967 0.935821 0.624689
0.883146 0.936858 0.676112
0.972137 0.936889 0.724453
0.000000 0.036255 0.194308
0.000000 0.025605 0.192111
0.143282 0.000000 0.184298
0.347417 0.000000 0.241245
0.558221 0.000000 0.260166
0.685237 0.171267 0.306767
0.826719 0.300511 0.369451
0.960601 0.389471 0.443183
0.000000 0.083650 0.212375
0.000000 0.041321 0.214572
0.157992 0.024079 0.201938
0.367254 0.000000 0.243046
0.560388 0.000000 0.261479
0.687098 0.216281 0.313756
0.825132 0.315404 0.370092
0.957305 0.397406 0.441810
0.000000 0.200809 0.238346
0.000000 0.204837 0.242130
0.199863 0.215091 0.250767
0.437903 0.245121 0.275639
0.593896 0.293431 0.311040
0.721492 0.348516 0.354070
0.855283 0.400488 0.404517
0.972320 0.455604 0.467628
0.000000 0.424964 0.266056
0.000000 0.430121 0.265324
0.206577 0.440620 0.273777
0.487282 0.474556 0.321141
0.656031 0.500206 0.397192
0.789120 0.513329 0.432746
0.900542 0.527825 0.468910
0.993988 0.551171 0.514549
0.000000 0.568353 0.317876
0.000000 0.568963 0.319493
0.275731 0.572686 0.327764
0.460883 0.592950 0.359442
0.662684 0.643061 0.425208
0.823972 0.662165 0.488991
0.937407 0.670863 0.547570
1.000000 0.668238 0.579583
0.174044 0.692531 0.380713
0.214786 0.694148 0.383185
0.323644 0.698299 0.389807
0.458137 0.706935 0.403601
0.633570 0.746395 0.457038
0.820249 0.790188 0.529015
0.934905 0.788785 0.600977
1.000000 0.784787 0.656947
0.269841 0.827268 0.460395
0.291814 0.826627 0.460365
0.368719 0.826383 0.463172
0.480903 0.829129 0.473030
0.622126 0.842710 0.506584
0.777859 0.864866 0.569604
0.917571 0.883787 0.645319
0.981384 0.866178 0.702510
0.417945 0.931975 0.567071
0.428473 0.931487 0.567102
0.475044 0.931334 0.571771
0.557946 0.932982 0.586419
0.655848 0.932952 0.603906
0.776516 0.935698 0.652216
0.883024 0.937377 0.702846
0.969238 0.937804 0.748562
0.000000 0.009216 0.391608
0.000000 0.000000 0.393378
0.202914 0.000000 0.388525
0.373693 0.000000 0.379675
0.522332 0.000000 0.369024
0.649348 0.059327 0.374640
0.768124 0.280125 0.423041
0.909300 0.371496 0.487221
0.000000 0.090944 0.409827
0.000000 0.022431 0.409705
0.191775 0.000000 0.402502
0.386725 0.000000 0.390967
0.529503 0.000000 0.372045
0.650904 0.171695 0.382177
0.768887 0.306859 0.430945
0.909972 0.385351 0.491127
0.000000 0.251011 0.426032
0.000000 0.240024 0.429084
0.000000 0.189029 0.433570
0.408667 0.213657 0.414496
0.545190 0.260502 0.396277
0.658717 0.343297 0.428412
0.793362 0.401160 0.475502
0.938079 0.452613 0.526848
0.000000 0.433570 0.438636
0.000000 0.434943 0.440375
0.000000 0.441871 0.447608
0.434577 0.452796 0.459022
0.569146 0.470741 0.479896
0.704555 0.490455 0.503136
0.845426 0.514366 0.531823
0.962524 0.548394 0.570275
0.000000 0.563836 0.444099
0.000000 0.564416 0.446876
0.269780 0.570672 0.461341
0.439399 0.585962 0.482979
0.635920 0.635828 0.536034
0.799588 0.666438 0.595514
0.904692 0.673854 0.623499
0.984405 0.679561 0.644251
0.119936 0.695308 0.490822
0.175051 0.701198 0.495521
0.296880 0.706538 0.498878
0.443763 0.715908 0.510185
0.614771 0.743587 0.545464
0.806516 0.790188 0.618769
0.919036 0.798459 0.683711
0.985534 0.803616 0.727077
0.208133 0.827329 0.533959
0.241917 0.828244 0.535760
0.341466 0.830442 0.541466
0.468879 0.834684 0.552880
0.607263 0.841093 0.572381
0.772549 0.865171 0.638697
0.909514 0.885954 0.710964
0.972595 0.874144 0.754238
0.421637 0.934234 0.625086
0.433539 0.934112 0.625818
0.480476 0.933806 0.630152
0.560021 0.933745 0.640162
0.656886 0.933196 0.654627
0.774166 0.935058 0.693446
0.881437 0.937713 0.742275
0.964263 0.939391 0.787533
0.000000 0.000000 0.546258
0.000000 0.000000 0.547234
0.000000 0.000000 0.544274
0.341650 0.000000 0.537499
0.511925 0.000000 0.526543
0.627375 0.000000 0.492134
0.723384 0.214206 0.487312
0.878569 0.336492 0.551354
0.000000 0.032471 0.556176
0.000000 0.006836 0.557000
0.000000 0.000000 0.553246
0.339208 0.000000 0.543481
0.515709 0.000000 0.531945
0.627710 0.117037 0.495338
0.725216 0.248753 0.493996
0.880400 0.351934 0.554986
0.000000 0.233768 0.570703
0.000000 0.220645 0.571954
0.000000 0.182620 0.571618
0.334539 0.213230 0.560998
0.521447 0.263737 0.543969
0.620142 0.287358 0.503777
0.730495 0.345464 0.517205
0.884184 0.403937 0.564843
0.000000 0.400275 0.581476
0.000000 0.400275 0.582544
0.000000 0.406561 0.587457
0.360449 0.426368 0.589410
0.534569 0.442817 0.569909
0.625422 0.438880 0.540063
0.762875 0.464393 0.564141
0.905425 0.498848 0.595331
0.000000 0.560388 0.580774
0.000000 0.561791 0.582116
0.006531 0.566125 0.586542
0.375250 0.575036 0.595575
0.559533 0.587152 0.607538
0.695430 0.601709 0.622766
0.830137 0.621942 0.643671
0.943206 0.649836 0.671656
0.000000 0.664912 0.574945
0.000000 0.666621 0.576532
0.208530 0.671656 0.580804
0.376776 0.686183 0.590997
0.550286 0.707637 0.610101
0.766110 0.768338 0.687678
0.891722 0.798428 0.750881
0.963470 0.803006 0.769345
0.000000 0.814023 0.608515
0.000000 0.813901 0.607935
0.206027 0.815824 0.608972
0.409644 0.824002 0.623774
0.575525 0.832242 0.643885
0.745724 0.852628 0.692988
0.894499 0.882200 0.765133
0.960174 0.877745 0.800595
0.314275 0.928069 0.661158
0.340276 0.927764 0.663691
0.428870 0.926909 0.675349
0.532647 0.929198 0.690028
0.640803 0.929656 0.704768
0.754635 0.930571 0.727718
0.873014 0.935241 0.779202
0.956298 0.938750 0.824216
0.000000 0.000000 0.679683
0.000000 0.000000 0.679896
0.000000 0.000000 0.676081
0.257572 0.000000 0.669917
0.469764 0.000000 0.662806
0.618250 0.166842 0.646662
0.725643 0.223545 0.621363
0.839933 0.280278 0.620844
0.000000 0.018280 0.678248
0.000000 0.000000 0.677577
0.000000 0.000000 0.674342
0.247013 0.000000 0.668330
0.466255 0.100923 0.659480
0.614343 0.203128 0.643214
0.720516 0.245884 0.618036
0.834958 0.291905 0.617578
0.000000 0.217258 0.693629
0.000000 0.205447 0.694606
0.000000 0.191012 0.694667
0.237705 0.219059 0.684962
0.477760 0.279149 0.671077
0.620935 0.322210 0.652918
0.723873 0.332769 0.627161
0.847501 0.355383 0.631067
0.000000 0.392981 0.712978
0.000000 0.392706 0.713008
0.000000 0.400305 0.713405
0.274968 0.417243 0.714443
0.503960 0.436805 0.700557
0.643458 0.449409 0.679530
0.741360 0.436683 0.648249
0.878782 0.450629 0.657710
0.000000 0.549767 0.709163
0.000000 0.550713 0.709712
0.000000 0.554803 0.712306
0.247990 0.559838 0.719265
0.491005 0.558984 0.722499
0.659358 0.563745 0.699489
0.751980 0.534020 0.658137
0.898863 0.570397 0.684169
0.000000 0.682155 0.702327
0.000000 0.684688 0.704707
0.000000 0.687404 0.707149
0.250614 0.693507 0.712673
0.481849 0.703639 0.721767
0.698146 0.725032 0.741360
0.825711 0.743954 0.759487
0.931884 0.763607 0.778408
0.000000 0.801389 0.701137
0.000000 0.803220 0.702419
0.000000 0.806394 0.704128
0.284825 0.812863 0.709010
0.515892 0.823087 0.723812
0.706508 0.838102 0.753780
0.878447 0.879637 0.824582
0.947967 0.888548 0.858183
0.000000 0.925811 0.724392
0.000000 0.925292 0.724025
0.232395 0.924956 0.726040
0.422217 0.925841 0.735470
0.597375 0.926024 0.757626
0.733883 0.927245 0.780392
0.860014 0.932494 0.820920
0.948119 0.939513 0.867643
0.000000 0.000000 0.805264
0.000000 0.000000 0.805478
0.000000 0.000000 0.803983
0.031159 0.000000 0.801419
0.428656 0.091096 0.794034
0.608087 0.239445 0.780850
0.740505 0.287022 0.764767
0.850950 0.301488 0.745296
0.000000 0.014282 0.805295
0.000000 0.000000 0.805753
0.000000 0.000000 0.804410
0.000000 0.000000 0.800717
0.427008 0.148562 0.792813
0.606226 0.260807 0.778988
0.737514 0.301030 0.762264
0.846952 0.311070 0.742184
0.000000 0.204746 0.815091
0.000000 0.196811 0.815030
0.000000 0.199283 0.812833
0.000000 0.229801 0.807584
0.433112 0.283452 0.798093
0.611627 0.340887 0.784512
0.743648 0.363104 0.768948
0.855100 0.362951 0.749416
0.000000 0.377600 0.823514
0.000000 0.376715 0.822812
0.000000 0.379950 0.822049
0.000000 0.395819 0.818936
0.438788 0.415747 0.809689
0.619318 0.439399 0.796963
0.755032 0.446937 0.781003
0.866972 0.434821 0.758022
0.000000 0.532921 0.825132
0.000000 0.532891 0.824918
0.000000 0.533593 0.825711
0.000000 0.531762 0.827390
0.403265 0.529534 0.824796
0.616968 0.540154 0.811093
0.765621 0.544121 0.792844
0.880095 0.523217 0.765164
0.000000 0.675959 0.823697
0.000000 0.676112 0.824155
0.000000 0.676051 0.825772
0.000000 0.674586 0.829191
0.352361 0.672663 0.833829
0.620294 0.683009 0.834836
0.784756 0.687465 0.814084
0.889128 0.645075 0.774777
0.000000 0.808103 0.820188
0.000000 0.808621 0.820737
0.000000 0.809720 0.821683
0.000000 0.812253 0.823819
0.383948 0.816190 0.827268
0.631830 0.823789 0.833982
0.822080 0.841855 0.850950
0.920195 0.855161 0.864073
0.000000 0.922087 0.813260
0.000000 0.922087 0.813382
0.000000 0.922301 0.814023
0.209140 0.922606 0.816220
0.483192 0.923125 0.822385
0.675532 0.924376 0.835904
0.834501 0.927886 0.863798
0.940917 0.941375 0.910063
0.000000 0.013123 0.926665
0.000000 0.010498 0.926696
0.000000 0.028443 0.925353
0.000000 0.129458 0.923278
0.393256 0.230838 0.918669
0.600092 0.320409 0.911406
0.754177 0.387304 0.902525
0.884062 0.400031 0.894408
0.000000 0.098421 0.926360
0.000000 0.100496 0.926390
0.000000 0.114839 0.925231
0.000000 0.167727 0.922820
0.392493 0.253574 0.918090
0.599145 0.332952 0.910826
0.752804 0.394171 0.901671
0.882597 0.405463 0.893217
0.000000 0.217624 0.928862
0.000000 0.220768 0.928649
0.000000 0.238132 0.927001
0.000000 0.279271 0.924804
0.393103 0.331792 0.919554
0.597803 0.382269 0.912200
0.752529 0.427863 0.903288
0.883848 0.436255 0.894713
0.000000 0.362005 0.931212
0.000000 0.363470 0.931273
0.000000 0.373327 0.930571
0.000000 0.400519 0.927886
0.378973 0.426215 0.923247
0.591577 0.454017 0.916594
0.752529 0.486122 0.907866
0.887663 0.493965 0.899016
0.000000 0.501427 0.933104
0.000000 0.501457 0.933227
0.000000 0.500389 0.932769
0.000000 0.506645 0.931975
0.307103 0.517937 0.929046
0.569604 0.536278 0.922271
0.749111 0.564141 0.913054
0.891417 0.574945 0.903746
0.000000 0.646693 0.932036
0.000000 0.646113 0.931853
0.000000 0.643824 0.931701
0.000000 0.638636 0.932341
0.000000 0.629328 0.933806
0.542290 0.651698 0.930297
0.751247 0.678462 0.921324
0.897124 0.691005 0.911070
0.000000 0.787655 0.930388
0.000000 0.787289 0.930419
0.000000 0.785855 0.930632
0.000000 0.783688 0.931456
0.000000 0.782162 0.932647
0.519646 0.788663 0.932769
0.760464 0.808652 0.930114
0.902312 0.814359 0.917998
0.000000 0.922454 0.927489
0.000000 0.922423 0.927459
0.000000 0.922545 0.927520
0.000000 0.923033 0.927825
0.315404 0.923491 0.928099
0.584192 0.923949 0.928405
0.777523 0.925109 0.929503
0.921904 0.932128 0.936339
