20 Preset/Human Style/【3】LUT video cho PR-AE-FCPX/Joe-Allam (2)/JA – Cine Night 4 (Classic Chrome).cube
# Created by Adobe Lightroom plugin Export LUT (1.24.0)
# www.johnrellis.com/lightroom/exportlut.htm
# Preset: JA – Cine Night 4 (Classic Chrome)
# Color profile: E:\lut插件\exportlut.1.24\exportlut.lrplugin\color profiles\Rec709gamma2.4.icc
LUT_3D_SIZE 5
DOMAIN_MIN 0.000000 0.000000 0.000000
DOMAIN_MAX 0.903226 0.903226 0.903226
0.019745 0.000000 0.147036
0.111330 0.022065 0.155245
0.321508 0.149996 0.167056
0.754665 0.286687 0.128817
1.000000 0.384924 0.160433
0.000000 0.129152 0.160800
0.096834 0.136995 0.162325
0.355383 0.231662 0.161776
0.781369 0.335882 0.136141
1.000000 0.419532 0.182712
0.000000 0.413306 0.217227
0.000000 0.422614 0.201022
0.431281 0.435737 0.212741
0.860441 0.509422 0.206210
1.000000 0.550927 0.275761
0.000000 0.745266 0.329381
0.000000 0.746273 0.315770
0.495888 0.745876 0.264866
0.847745 0.744778 0.360021
1.000000 0.756069 0.481392
0.589014 0.913512 0.640162
0.614038 0.913451 0.638270
0.690913 0.913787 0.613275
0.857084 0.910735 0.616999
1.000000 0.907622 0.702907
0.000000 0.042390 0.190646
0.090394 0.036683 0.193942
0.327031 0.160311 0.212039
0.754726 0.281529 0.217075
1.000000 0.388678 0.248142
0.000000 0.145876 0.215335
0.049897 0.158846 0.222141
0.356207 0.235111 0.230045
0.779263 0.331579 0.228489
1.000000 0.424109 0.264652
0.000000 0.420691 0.295293
0.000000 0.432776 0.275395
0.443977 0.445380 0.275181
0.853849 0.509422 0.288029
1.000000 0.560906 0.345037
0.000000 0.746609 0.402441
0.000000 0.748592 0.389349
0.494942 0.749172 0.340215
0.847105 0.747494 0.420874
1.000000 0.764401 0.533013
0.597620 0.913390 0.659297
0.632715 0.912596 0.663386
0.707576 0.913359 0.645319
0.859464 0.911070 0.640162
1.000000 0.908263 0.718532
0.000000 0.174868 0.331853
0.000000 0.142763 0.340215
0.307347 0.155612 0.353887
0.742550 0.171023 0.394476
1.000000 0.430945 0.440681
0.000000 0.259098 0.356298
0.000000 0.253544 0.367681
0.342992 0.236942 0.379065
0.768399 0.267094 0.400488
1.000000 0.474067 0.460487
0.000000 0.454383 0.440284
0.000000 0.460609 0.446357
0.478920 0.476448 0.467048
0.823819 0.533257 0.488685
1.000000 0.613519 0.533379
0.000000 0.750118 0.580102
0.260014 0.750851 0.579431
0.569604 0.753079 0.574517
0.841794 0.756802 0.594507
1.000000 0.789761 0.665644
0.605585 0.914000 0.718563
0.640253 0.913359 0.721889
0.745235 0.911650 0.730495
0.858244 0.911955 0.702876
1.000000 0.909789 0.765591
0.000000 0.343023 0.558618
0.000000 0.318334 0.565728
0.321538 0.259983 0.576165
0.709590 0.245945 0.592737
0.973999 0.409430 0.635157
0.000000 0.400946 0.578515
0.000000 0.391852 0.587396
0.331975 0.325078 0.598108
0.730800 0.313237 0.611139
0.973571 0.465736 0.644831
0.000000 0.549004 0.640375
0.000000 0.549920 0.643732
0.487984 0.549798 0.661402
0.785122 0.529290 0.669612
0.971374 0.634791 0.687251
0.318608 0.751644 0.722835
0.411414 0.752346 0.724300
0.631861 0.756100 0.731136
0.833616 0.767361 0.745876
0.992218 0.800534 0.763058
0.670375 0.913756 0.819150
0.688808 0.913817 0.819181
0.755978 0.914183 0.818265
0.876249 0.912871 0.819181
1.000000 0.912871 0.837186
0.000000 0.542229 0.811276
0.218845 0.536980 0.812711
0.404669 0.478431 0.816251
0.722255 0.436805 0.814511
0.965209 0.503655 0.815702
0.178561 0.575036 0.814328
0.315740 0.574609 0.815640
0.449226 0.521355 0.820035
0.729885 0.482795 0.818173
0.963714 0.542901 0.818692
0.352239 0.673976 0.824216
0.426184 0.675105 0.825132
0.622126 0.682795 0.829160
0.760037 0.633143 0.830808
0.960693 0.656611 0.831113
0.537530 0.802121 0.857694
0.568505 0.801999 0.857420
0.670649 0.800809 0.855924
0.818601 0.798611 0.857725
0.969085 0.783597 0.859617
0.692622 0.913237 0.898253
0.709987 0.913146 0.898528
0.775937 0.912871 0.899870
0.886351 0.912902 0.902831
0.996399 0.916136 0.909758
