20 Preset/Human Style/【3】LUT video cho PR-AE-FCPX/Joe-Allam (2)/JA – Static Pop 3 (Classic Chrome).cube
# Created by Adobe Lightroom plugin Export LUT (1.24.0)
# www.johnrellis.com/lightroom/exportlut.htm
# Preset: JA – Static Pop 3 (Classic Chrome)
# Color profile: E:\lut插件\exportlut.1.24\exportlut.lrplugin\color profiles\Rec709gamma2.4.icc
LUT_3D_SIZE 5
DOMAIN_MIN 0.000000 0.000000 0.000000
DOMAIN_MAX 0.903226 0.903226 0.903226
0.089754 0.097993 0.104036
0.168124 0.087984 0.104158
0.538170 0.000000 0.033600
0.939666 0.072938 0.000000
1.000000 0.107973 0.000000
0.073915 0.150546 0.098238
0.161654 0.154360 0.095033
0.527733 0.239139 0.000000
0.922087 0.271916 0.000000
1.000000 0.268193 0.000000
0.000000 0.480629 0.000000
0.232975 0.476417 0.000000
0.539879 0.478614 0.000000
0.919890 0.523095 0.000000
1.000000 0.501305 0.000000
0.000000 0.797635 0.000000
0.200687 0.797208 0.000000
0.582208 0.781979 0.000000
0.867735 0.747280 0.000000
1.000000 0.736599 0.000000
0.173739 1.000000 0.176852
0.322118 1.000000 0.157717
0.581048 1.000000 0.000000
0.867796 0.998383 0.000000
1.000000 0.968994 0.000000
0.089113 0.107820 0.139040
0.127993 0.093477 0.147738
0.469276 0.000000 0.165103
0.877104 0.000000 0.020508
1.000000 0.000000 0.000000
0.041108 0.140627 0.150149
0.131502 0.143526 0.152346
0.479744 0.147585 0.126162
0.874937 0.158846 0.000000
1.000000 0.165713 0.000000
0.000000 0.452735 0.063966
0.000000 0.454292 0.000000
0.494301 0.442786 0.000000
0.881346 0.484627 0.000000
1.000000 0.476448 0.000000
0.000000 0.791196 0.000000
0.000000 0.791806 0.000000
0.553368 0.779507 0.000000
0.855680 0.739803 0.000000
1.000000 0.731075 0.000000
0.090791 1.000000 0.314214
0.293370 1.000000 0.303258
0.578637 1.000000 0.262638
0.863096 1.000000 0.121553
1.000000 0.973266 0.000000
0.000000 0.157626 0.392706
0.000000 0.142519 0.395026
0.370581 0.000000 0.415442
0.814023 0.000000 0.475319
1.000000 0.000000 0.414099
0.000000 0.244114 0.398383
0.000000 0.223880 0.409522
0.380194 0.000000 0.425513
0.818418 0.000000 0.453620
1.000000 0.000000 0.394171
0.000000 0.446845 0.472206
0.000000 0.444007 0.468727
0.386664 0.410651 0.431250
0.820096 0.423011 0.429541
1.000000 0.418555 0.404425
0.000000 0.775418 0.491768
0.000000 0.768154 0.481025
0.431922 0.762692 0.467384
0.810422 0.723690 0.359014
1.000000 0.726040 0.434028
0.000000 1.000000 0.541558
0.000000 1.000000 0.537987
0.508263 1.000000 0.519219
0.820859 0.998749 0.463630
1.000000 0.969177 0.357641
0.000000 0.340917 0.716579
0.000000 0.341680 0.717342
0.299565 0.232609 0.720821
0.681056 0.000000 0.721859
1.000000 0.000000 0.742428
0.000000 0.418219 0.714199
0.000000 0.412177 0.715755
0.316564 0.320745 0.723903
0.677424 0.000000 0.717983
1.000000 0.000000 0.734737
0.086061 0.565667 0.731594
0.282322 0.573114 0.731899
0.475532 0.572686 0.734585
0.684779 0.387060 0.720394
1.000000 0.354925 0.725429
0.000000 0.761501 0.775540
0.000000 0.758907 0.772885
0.368444 0.754177 0.767239
0.682399 0.690425 0.705379
1.000000 0.710689 0.714748
0.000000 1.000000 0.745632
0.000000 1.000000 0.744289
0.080812 1.000000 0.743343
0.763851 0.997436 0.760159
1.000000 0.970733 0.651789
0.432654 0.610559 0.953216
0.432532 0.610437 0.953155
0.458076 0.575830 0.958526
0.638972 0.432105 0.973236
0.972747 0.000000 0.987030
0.434882 0.611933 0.954131
0.436866 0.614984 0.953857
0.477974 0.599268 0.958923
0.647303 0.481666 0.972595
0.973541 0.000000 0.987091
0.520562 0.715541 0.947478
0.523125 0.718471 0.946868
0.573205 0.712032 0.954925
0.681178 0.631769 0.970825
0.976745 0.386450 0.986908
0.381537 0.809354 0.957855
0.401343 0.808865 0.957702
0.589654 0.818845 0.957061
0.812070 0.852811 0.963836
0.981506 0.689113 0.984680
0.000000 0.968170 0.973693
0.000000 0.968566 0.973907
0.289006 0.970367 0.974853
0.774319 0.975189 0.977539
0.978973 0.975280 0.974884
