20 Preset/Human Style/【3】LUT video cho PR-AE-FCPX/Joe-Allam (2)/JA – Faded Soft 2 (Classic Chrome).cube
# Created by Adobe Lightroom plugin Export LUT (1.24.0)
# www.johnrellis.com/lightroom/exportlut.htm
# Preset: JA – Faded Soft 2 (Classic Chrome)
# Color profile: E:\lut插件\exportlut.1.24\exportlut.lrplugin\color profiles\Rec709gamma2.4.icc
LUT_3D_SIZE 8
DOMAIN_MIN 0.000000 0.000000 0.000000
DOMAIN_MAX 0.903226 0.903226 0.903226
0.070954 0.086519 0.090669
0.134829 0.078584 0.092866
0.263005 0.090059 0.102937
0.473640 0.115053 0.102876
0.724971 0.157717 0.050202
0.901884 0.212314 0.000000
1.000000 0.260838 0.043824
1.000000 0.303807 0.164401
0.090517 0.129885 0.087404
0.148806 0.127596 0.095888
0.260655 0.139162 0.105531
0.462226 0.169589 0.098939
0.710780 0.211429 0.021973
0.885588 0.247501 0.000000
1.000000 0.282719 0.004303
1.000000 0.316503 0.151858
0.177890 0.229953 0.074159
0.207614 0.230869 0.076387
0.295445 0.235050 0.101564
0.516564 0.305211 0.012238
0.726680 0.339239 0.000000
0.903014 0.359960 0.000000
1.000000 0.377722 0.000000
1.000000 0.393683 0.181125
0.325689 0.416327 0.000000
0.352361 0.418494 0.000000
0.443030 0.423987 0.000000
0.615930 0.454749 0.000000
0.790768 0.485420 0.000000
0.933898 0.497139 0.000000
1.000000 0.493721 0.000000
1.000000 0.493568 0.224674
0.484840 0.602106 0.000000
0.504845 0.602899 0.000000
0.581079 0.606836 0.000000
0.691798 0.604669 0.000000
0.814664 0.591852 0.000000
0.940032 0.598291 0.000000
1.000000 0.600793 0.112764
1.000000 0.599756 0.297429
0.597925 0.730770 0.000000
0.616602 0.736538 0.000000
0.675044 0.740444 0.000000
0.770504 0.742824 0.000000
0.860594 0.719936 0.000000
0.963226 0.705928 0.108675
1.000000 0.696895 0.229618
1.000000 0.699031 0.398718
0.701686 0.850523 0.000000
0.713039 0.851652 0.000000
0.754330 0.851957 0.000000
0.827787 0.851682 0.000000
0.919890 0.848722 0.000000
0.979980 0.809140 0.230503
1.000000 0.782467 0.356970
1.000000 0.771695 0.469947
0.769497 0.926177 0.000000
0.776608 0.925872 0.000000
0.806027 0.924895 0.000000
0.860197 0.922911 0.000000
0.927489 0.914061 0.023499
1.000000 0.909178 0.324529
1.000000 0.865537 0.499580
1.000000 0.844511 0.584314
0.078553 0.095003 0.143832
0.110414 0.092164 0.141726
0.243961 0.107668 0.130800
0.429206 0.149477 0.124300
0.692226 0.210025 0.038300
0.869352 0.248173 0.000000
1.000000 0.278965 0.000000
1.000000 0.308171 0.138125
0.041077 0.131350 0.144656
0.126986 0.139956 0.145510
0.244388 0.151888 0.141421
0.438056 0.185397 0.124300
0.692378 0.241703 0.027344
0.866484 0.275303 0.000000
1.000000 0.298955 0.000000
1.000000 0.322393 0.130312
0.153048 0.233738 0.144472
0.190951 0.234897 0.142306
0.283268 0.236790 0.148470
0.495003 0.299016 0.117708
0.710475 0.340398 0.000000
0.876463 0.364630 0.000000
1.000000 0.378241 0.000000
1.000000 0.390600 0.150210
0.293645 0.407538 0.039490
0.324285 0.410681 0.026886
0.427222 0.420630 0.013581
0.586267 0.438270 0.003845
0.753414 0.464424 0.000000
0.896452 0.479896 0.000000
1.000000 0.484291 0.000000
1.000000 0.484291 0.184970
0.463081 0.598688 0.000000
0.483711 0.598657 0.000000
0.562951 0.601495 0.000000
0.676783 0.598077 0.000000
0.792691 0.579095 0.000000
0.920531 0.587366 0.000000
1.000000 0.593866 0.063813
1.000000 0.592981 0.271397
0.578393 0.722957 0.000000
0.593774 0.724178 0.000000
0.653773 0.728664 0.000000
0.753017 0.732998 0.000000
0.848325 0.714076 0.000000
0.954101 0.702602 0.174166
1.000000 0.695308 0.253758
1.000000 0.694331 0.382727
0.686793 0.843381 0.000000
0.696284 0.842557 0.000000
0.738521 0.842985 0.000000
0.814603 0.844327 0.000000
0.910399 0.843839 0.000000
0.972869 0.806149 0.251621
1.000000 0.779477 0.361120
1.000000 0.766384 0.452674
0.760891 0.923339 0.000000
0.768795 0.923583 0.000000
0.798611 0.922576 0.000000
0.853605 0.920897 0.000000
0.925872 0.916167 0.193729
1.000000 0.909972 0.337682
1.000000 0.865507 0.495766
1.000000 0.844022 0.581537
0.000000 0.129854 0.271946
0.000000 0.134096 0.271000
0.199741 0.146517 0.256779
0.391943 0.142947 0.269108
0.700954 0.000000 0.232456
0.877562 0.203922 0.221347
1.000000 0.284947 0.210391
1.000000 0.340917 0.209781
0.000000 0.164920 0.271580
0.062837 0.165316 0.272404
0.208164 0.175570 0.258824
0.409949 0.164858 0.267308
0.696620 0.144442 0.233890
0.871366 0.241733 0.222538
1.000000 0.303258 0.206729
1.000000 0.352392 0.205264
0.024140 0.250156 0.276555
0.118044 0.252049 0.275364
0.240879 0.259190 0.268101
0.481331 0.283085 0.260838
0.715846 0.318303 0.244541
0.881743 0.350652 0.230777
1.000000 0.382971 0.220066
1.000000 0.412329 0.227512
0.000000 0.450416 0.245884
0.000000 0.452552 0.244053
0.377691 0.455360 0.222110
0.580011 0.454597 0.245670
0.748165 0.474586 0.265354
0.896391 0.486397 0.262852
1.000000 0.497108 0.262303
1.000000 0.505791 0.278416
0.358038 0.614923 0.174716
0.393347 0.612055 0.164981
0.509483 0.614221 0.164645
0.664088 0.618708 0.204227
0.786954 0.595422 0.269627
0.911986 0.603693 0.298344
1.000000 0.614710 0.329992
1.000000 0.610895 0.354101
0.523247 0.727413 0.101320
0.542168 0.728908 0.107149
0.612421 0.732723 0.122042
0.725673 0.737942 0.170047
0.837339 0.727810 0.269505
0.937835 0.713497 0.353307
1.000000 0.711391 0.397711
1.000000 0.707668 0.441230
0.655451 0.847654 0.110445
0.666316 0.847074 0.110475
0.711666 0.846677 0.118776
0.792874 0.848051 0.158846
0.892576 0.846799 0.267582
0.961364 0.816312 0.383215
1.000000 0.791928 0.454841
1.000000 0.775845 0.491066
0.741756 0.924224 0.215396
0.748928 0.923705 0.215152
0.779965 0.922637 0.225589
0.837644 0.921752 0.256474
0.911864 0.917296 0.334691
0.988861 0.911772 0.420691
1.000000 0.870176 0.513939
1.000000 0.846281 0.584985
0.000000 0.172396 0.535485
0.000000 0.175967 0.538079
0.148562 0.203922 0.520958
0.373541 0.174044 0.474403
0.610803 0.148959 0.464179
0.831907 0.206241 0.445624
0.987793 0.332586 0.444862
1.000000 0.411994 0.451087
0.000000 0.228763 0.541924
0.000000 0.217380 0.542718
0.142794 0.228641 0.525811
0.383032 0.200381 0.481270
0.623926 0.197116 0.468666
0.834958 0.254795 0.448585
0.985473 0.358892 0.449928
1.000000 0.427100 0.454780
0.000000 0.331395 0.537530
0.000000 0.327886 0.536767
0.122683 0.313054 0.531884
0.408576 0.301579 0.486458
0.656092 0.345525 0.478614
0.846616 0.409491 0.480537
0.990875 0.462531 0.486610
1.000000 0.494850 0.482094
0.000000 0.487312 0.536370
0.000000 0.487709 0.534142
0.257115 0.491707 0.525292
0.487953 0.493996 0.500175
0.685664 0.515190 0.503593
0.847562 0.534997 0.503380
0.984161 0.554009 0.500877
1.000000 0.567651 0.497810
0.266667 0.647089 0.529198
0.299168 0.645777 0.524559
0.399420 0.643153 0.501946
0.586816 0.637629 0.475227
0.746517 0.632990 0.508934
0.875822 0.651118 0.528985
0.987457 0.660273 0.531914
1.000000 0.657099 0.530022
0.459663 0.760769 0.487282
0.481514 0.763241 0.485725
0.548455 0.754147 0.462470
0.674464 0.753475 0.456855
0.817014 0.760403 0.489906
0.912963 0.741176 0.527764
0.994781 0.742000 0.549340
1.000000 0.740108 0.567559
0.601465 0.856687 0.441321
0.613367 0.855894 0.437263
0.661372 0.852506 0.423194
0.752529 0.855467 0.439673
0.860777 0.856413 0.469276
0.946471 0.839017 0.520958
1.000000 0.810605 0.563348
1.000000 0.796811 0.585840
0.707210 0.927153 0.429389
0.715389 0.926848 0.430671
0.748440 0.925750 0.436255
0.807706 0.923888 0.448188
0.884733 0.920439 0.469947
0.965515 0.914824 0.521233
1.000000 0.881987 0.589166
1.000000 0.857267 0.635828
0.000000 0.241642 0.725307
0.000000 0.250248 0.726680
0.000000 0.282048 0.716670
0.373022 0.327062 0.690547
0.541405 0.277409 0.650202
0.747433 0.304479 0.625269
0.912078 0.420172 0.620935
1.000000 0.487678 0.618769
0.000000 0.294469 0.727291
0.000000 0.292210 0.729458
0.000000 0.315435 0.720180
0.390631 0.360845 0.690944
0.547875 0.308110 0.651148
0.749142 0.338933 0.626184
0.913970 0.438300 0.623285
1.000000 0.500084 0.620539
0.000000 0.402350 0.723384
0.000000 0.404334 0.723140
0.168521 0.417395 0.719844
0.458564 0.467659 0.692195
0.569085 0.408240 0.648066
0.747463 0.439826 0.624201
0.919005 0.494728 0.627344
1.000000 0.542046 0.623957
0.000000 0.537102 0.716579
0.140963 0.540002 0.715389
0.355474 0.552728 0.710872
0.517601 0.566705 0.700984
0.614038 0.539300 0.650019
0.771054 0.560571 0.639765
0.939696 0.584466 0.640070
1.000000 0.619471 0.641627
0.344732 0.662593 0.701534
0.369940 0.663294 0.700526
0.449561 0.664149 0.694575
0.555627 0.662470 0.680598
0.658778 0.648890 0.649104
0.814908 0.666438 0.653315
0.946960 0.682826 0.654994
1.000000 0.690913 0.651637
0.462623 0.771847 0.690242
0.473152 0.771725 0.688319
0.511284 0.768215 0.676661
0.576318 0.762905 0.647425
0.719966 0.753689 0.613123
0.865354 0.757992 0.651148
0.957763 0.771878 0.675471
1.000000 0.772213 0.680934
0.552453 0.873106 0.658808
0.567681 0.871214 0.659174
0.595911 0.867704 0.640436
0.665003 0.861387 0.604242
0.790158 0.857145 0.593378
0.915984 0.859007 0.630121
0.972381 0.830045 0.668879
1.000000 0.820706 0.683711
0.651484 0.930510 0.611505
0.657374 0.929961 0.607630
0.683986 0.927733 0.592432
0.743465 0.924529 0.568780
0.834501 0.921599 0.583307
0.927428 0.917113 0.618433
0.986511 0.897093 0.673213
1.000000 0.872618 0.710994
0.000000 0.383459 0.864866
0.000000 0.387610 0.865263
0.000000 0.425971 0.858427
0.451545 0.504326 0.846067
0.589563 0.509056 0.822965
0.688319 0.453590 0.780789
0.854490 0.455665 0.760525
0.986175 0.554833 0.753597
0.000000 0.406683 0.859312
0.000000 0.413031 0.858915
0.112581 0.444556 0.854032
0.454353 0.511192 0.840513
0.589624 0.516320 0.816617
0.685969 0.462379 0.775113
0.851194 0.464485 0.756069
0.983154 0.559655 0.750729
0.000000 0.510460 0.859983
0.139986 0.515068 0.859434
0.342626 0.533898 0.858152
0.499001 0.563378 0.843565
0.620081 0.571344 0.818021
0.702296 0.518486 0.775753
0.860105 0.520745 0.758816
0.985962 0.598413 0.755062
0.342779 0.614588 0.856138
0.367224 0.616480 0.855161
0.453040 0.626825 0.853300
0.572442 0.646815 0.852537
0.679896 0.663752 0.828031
0.736110 0.604547 0.784482
0.879576 0.613611 0.768307
0.989532 0.670649 0.767544
0.444251 0.702602 0.843168
0.459632 0.703822 0.842618
0.518303 0.709194 0.840604
0.611322 0.719814 0.837003
0.711940 0.730312 0.828336
0.760067 0.685176 0.777127
0.887602 0.703639 0.768093
0.987304 0.739590 0.774166
0.532067 0.792538 0.829099
0.545708 0.794339 0.829801
0.584649 0.795621 0.827024
0.648585 0.797177 0.820951
0.723232 0.795132 0.807462
0.797177 0.779904 0.776547
0.915190 0.801083 0.788113
0.982635 0.810788 0.790921
0.657374 0.884031 0.832181
0.666041 0.884184 0.832364
0.687678 0.882933 0.828855
0.719753 0.880613 0.819120
0.758877 0.875395 0.794919
0.844724 0.865415 0.753536
0.934813 0.859617 0.790005
0.978180 0.861173 0.803433
0.740566 0.927001 0.815824
0.741573 0.926696 0.813962
0.750027 0.925963 0.808164
0.775143 0.924315 0.799954
0.786526 0.924071 0.747463
0.873198 0.919402 0.730892
0.958404 0.916320 0.773281
0.984100 0.894530 0.803098
0.289830 0.530724 0.924926
0.292729 0.533562 0.925109
0.365881 0.549950 0.923125
0.518090 0.597162 0.917235
0.656947 0.650568 0.906676
0.717037 0.625025 0.895995
0.791531 0.573144 0.874968
0.926665 0.561028 0.860472
0.277043 0.539208 0.923339
0.283116 0.541375 0.923491
0.383246 0.560113 0.921599
0.522271 0.602472 0.915557
0.657191 0.653223 0.904967
0.717037 0.628443 0.893584
0.789456 0.574914 0.871397
0.924163 0.561761 0.856504
0.359289 0.589014 0.921294
0.380743 0.592737 0.921050
0.456092 0.607599 0.919677
0.560784 0.638025 0.914855
0.678157 0.681575 0.904448
0.736568 0.664607 0.892851
0.800412 0.610224 0.872313
0.932738 0.600977 0.860533
0.464027 0.658625 0.917967
0.476905 0.660670 0.917418
0.531823 0.672206 0.916014
0.625422 0.698299 0.913603
0.716854 0.730739 0.905058
0.773831 0.727901 0.892943
0.819699 0.670466 0.873320
0.944305 0.663081 0.863920
0.548211 0.729946 0.911589
0.557275 0.731228 0.911101
0.597864 0.739010 0.909941
0.667811 0.755245 0.908171
0.757321 0.782864 0.904723
0.814237 0.793942 0.891478
0.839109 0.734554 0.870268
0.945220 0.743740 0.859922
0.634882 0.804685 0.904753
0.642664 0.805997 0.904662
0.672480 0.811093 0.903990
0.723964 0.820706 0.902739
0.787778 0.834409 0.900633
0.851225 0.850553 0.897612
0.867369 0.812741 0.871061
0.940276 0.828397 0.863828
0.715114 0.872496 0.899046
0.720974 0.873259 0.899077
0.740810 0.875242 0.898466
0.776059 0.878965 0.897337
0.818326 0.883055 0.894957
0.858946 0.884977 0.889708
0.888884 0.873472 0.869810
0.948180 0.884459 0.875944
0.794186 0.926146 0.899870
0.797543 0.925994 0.899748
0.811521 0.925628 0.899474
0.833616 0.924681 0.898314
0.854429 0.923980 0.894377
0.873106 0.922881 0.883116
0.912261 0.919554 0.857084
0.956847 0.914305 0.878202
0.529473 0.641810 0.950530
0.529808 0.642664 0.950530
0.529229 0.644465 0.950195
0.619989 0.683955 0.945983
0.723262 0.736965 0.939483
0.793545 0.768612 0.933532
0.823789 0.750515 0.930907
0.867063 0.710170 0.926421
0.528527 0.645045 0.950011
0.529534 0.646235 0.949981
0.537835 0.650843 0.949462
0.624353 0.688167 0.945373
0.725246 0.739681 0.938964
0.795834 0.772061 0.932921
0.824552 0.752834 0.930205
0.866850 0.711330 0.925505
0.528405 0.662226 0.948821
0.528283 0.662593 0.948821
0.570428 0.676783 0.947356
0.649348 0.710231 0.943938
0.740810 0.756802 0.937774
0.810910 0.791623 0.931304
0.834501 0.771908 0.928771
0.871916 0.729946 0.924254
0.555535 0.696803 0.946319
0.566979 0.700557 0.945983
0.610468 0.715084 0.944427
0.685847 0.744991 0.941375
0.764828 0.783963 0.936217
0.834134 0.821836 0.929686
0.853239 0.806058 0.926970
0.882292 0.765103 0.922759
0.605158 0.745083 0.942473
0.613001 0.747189 0.942290
0.641321 0.754574 0.941375
0.706142 0.777310 0.938811
0.787411 0.812650 0.934722
0.847410 0.843473 0.929412
0.873686 0.842863 0.925322
0.894926 0.806699 0.920897
0.680385 0.806943 0.936919
0.684901 0.807858 0.936736
0.705257 0.812528 0.935943
0.744717 0.823087 0.934600
0.798093 0.840024 0.932738
0.863554 0.868498 0.930083
0.898100 0.882292 0.925811
0.910948 0.854612 0.920531
0.757351 0.866026 0.931945
0.760952 0.866728 0.931823
0.775631 0.869688 0.931304
0.803281 0.875853 0.930541
0.839292 0.884672 0.929595
0.877623 0.895415 0.928893
0.913695 0.908110 0.928649
0.923919 0.892912 0.920195
0.819821 0.911559 0.928771
0.821958 0.911803 0.928710
0.831144 0.913054 0.928527
0.848661 0.915496 0.928313
0.871641 0.918883 0.928069
0.896605 0.922789 0.927825
0.919799 0.926421 0.927459
0.935210 0.924010 0.921202
