20 Preset/Human Style/【3】LUT video cho PR-AE-FCPX/Joe-Allam (2)/JA – Shaded Light 5 (Classic Chrome).cube
# Created by Adobe Lightroom plugin Export LUT (1.24.0)
# www.johnrellis.com/lightroom/exportlut.htm
# Preset: JA – Shaded Light 5 (Classic Chrome)
# Color profile: E:\lut插件\exportlut.1.24\exportlut.lrplugin\color profiles\Rec709gamma2.4.icc
LUT_3D_SIZE 5
DOMAIN_MIN 0.000000 0.000000 0.000000
DOMAIN_MAX 0.903226 0.903226 0.903226
0.056794 0.091981 0.109346
0.187106 0.079927 0.110262
0.476692 0.102968 0.091615
0.942504 0.095369 0.000000
1.000000 0.141329 0.106081
0.000000 0.235264 0.099001
0.189975 0.236881 0.094423
0.563317 0.320806 0.000000
0.971038 0.353246 0.000000
1.000000 0.325811 0.135103
0.000000 0.714504 0.000000
0.000000 0.705959 0.000000
0.623224 0.722683 0.000000
0.962676 0.692470 0.000000
1.000000 0.634089 0.317693
0.000000 0.932372 0.254246
0.000000 0.930419 0.228611
0.432868 0.919646 0.105287
0.805234 0.903929 0.203037
1.000000 0.860197 0.408392
0.490547 1.000000 0.685298
0.508690 1.000000 0.678431
0.550256 1.000000 0.616083
0.749081 1.000000 0.620539
0.944976 1.000000 0.665034
0.017090 0.091279 0.240452
0.162783 0.095979 0.228702
0.416327 0.000000 0.275792
0.916747 0.000000 0.234043
1.000000 0.000000 0.243137
0.000000 0.226749 0.273075
0.185183 0.233494 0.274235
0.526665 0.232273 0.262699
0.949248 0.228428 0.241642
1.000000 0.243473 0.261601
0.000000 0.704280 0.240299
0.000000 0.700526 0.212406
0.599603 0.696773 0.167971
0.952453 0.679591 0.342290
1.000000 0.637568 0.456519
0.000000 0.927794 0.448157
0.000000 0.926696 0.432288
0.440742 0.917876 0.359258
0.806790 0.900999 0.387579
1.000000 0.865476 0.541802
0.556237 1.000000 0.733181
0.569665 1.000000 0.727443
0.633692 1.000000 0.704463
0.780484 1.000000 0.692073
0.950195 1.000000 0.715297
0.125154 0.000000 0.616510
0.250675 0.048707 0.585626
0.398444 0.123873 0.502586
0.631281 0.000000 0.536400
1.000000 0.000000 0.589288
0.000000 0.223148 0.701961
0.232700 0.215091 0.667048
0.453162 0.206241 0.557305
0.730251 0.102754 0.579431
1.000000 0.000000 0.569818
0.000000 0.704738 0.756283
0.173281 0.705013 0.752346
0.644160 0.698177 0.730220
0.887510 0.678187 0.710689
1.000000 0.674098 0.706233
0.561547 0.902739 0.791745
0.584710 0.899931 0.787259
0.651942 0.899016 0.759854
0.832547 0.891569 0.742733
1.000000 0.895476 0.801724
0.663111 1.000000 0.828946
0.674403 1.000000 0.827146
0.720790 1.000000 0.817502
0.819760 1.000000 0.796750
0.961578 1.000000 0.805722
0.319280 0.082155 0.900084
0.387976 0.080690 0.895781
0.561761 0.019379 0.870268
0.762722 0.000000 0.831296
0.979644 0.166293 0.825986
0.288670 0.255680 0.907744
0.368780 0.254246 0.902373
0.558984 0.240940 0.876463
0.766262 0.188510 0.834257
0.973114 0.285100 0.821378
0.529046 0.694423 0.916655
0.573846 0.699062 0.909453
0.652338 0.667842 0.888670
0.781186 0.583215 0.844724
0.940459 0.593988 0.823850
0.722438 0.893462 0.911711
0.735714 0.892821 0.910521
0.786252 0.893126 0.908476
0.857786 0.884977 0.897032
0.994629 0.875486 0.888518
0.781064 1.000000 0.933104
0.787564 1.000000 0.932128
0.815640 1.000000 0.927733
0.862699 1.000000 0.908995
0.976410 1.000000 0.899413
0.467659 0.348241 1.000000
0.502037 0.359625 1.000000
0.622156 0.414679 0.996826
0.773404 0.492073 0.979950
0.931792 0.552270 0.967620
0.484688 0.430549 1.000000
0.518090 0.440284 1.000000
0.631556 0.480964 0.993072
0.773312 0.531975 0.975860
0.927489 0.578180 0.963622
0.637995 0.704189 0.995422
0.650843 0.701839 0.993317
0.710140 0.701289 0.986297
0.799283 0.692287 0.970611
0.928801 0.701991 0.961334
0.768551 0.887510 0.998779
0.776272 0.886839 0.998413
0.808652 0.882902 0.994659
0.857023 0.861784 0.987060
0.961669 0.848112 0.980865
0.853269 0.985657 0.993072
0.859617 0.985840 0.992981
0.890929 0.987976 0.993622
0.941558 0.991119 0.994324
0.993500 0.994934 0.995453
