20 Preset/Human Style/【3】LUT video cho PR-AE-FCPX/Joe-Allam (2)/JA – Static Pop 3 (Classic Chrome).cube
# Created by Adobe Lightroom plugin Export LUT (1.24.0)
# www.johnrellis.com/lightroom/exportlut.htm
# Preset: JA – Static Pop 3 (Classic Chrome)
# Color profile: E:\lut插件\exportlut.1.24\exportlut.lrplugin\color profiles\Rec709gamma2.4.icc
LUT_3D_SIZE 32
DOMAIN_MIN 0.0 0.0 0.0
DOMAIN_MAX 1.0 1.0 1.0
0.089754 0.097993 0.104036
0.089754 0.097993 0.104036
0.089754 0.097993 0.104036
0.091249 0.097841 0.104036
0.104829 0.096620 0.104616
0.122591 0.094087 0.104891
0.142916 0.090669 0.104707
0.168124 0.087984 0.104158
0.200961 0.081910 0.103487
0.242008 0.072511 0.101991
0.290684 0.056916 0.099367
0.346258 0.041901 0.094697
0.407416 0.022553 0.087892
0.472480 0.004822 0.066438
0.538170 0.000000 0.033600
0.601862 0.000000 0.000000
0.660639 0.000000 0.000000
0.716518 0.000000 0.000000
0.781949 0.012909 0.000000
0.839078 0.032532 0.000000
0.890562 0.054688 0.000000
0.939666 0.072938 0.000000
0.985718 0.084749 0.000000
1.000000 0.091493 0.000000
1.000000 0.095216 0.000000
1.000000 0.099611 0.000000
1.000000 0.102602 0.000000
1.000000 0.106386 0.000000
1.000000 0.107973 0.000000
1.000000 0.111482 0.000000
1.000000 0.115206 0.000000
1.000000 0.119478 0.000000
0.089754 0.097993 0.104036
0.089754 0.097993 0.104036
0.089754 0.097993 0.104036
0.091249 0.097841 0.104036
0.104829 0.096620 0.104616
0.122103 0.094179 0.104891
0.142214 0.090822 0.104372
0.166415 0.088869 0.104128
0.198306 0.084810 0.103426
0.238132 0.078157 0.101991
0.285863 0.063081 0.099489
0.340642 0.048280 0.095033
0.400946 0.030426 0.088502
0.465126 0.018952 0.068330
0.530663 0.005341 0.035462
0.594446 0.002411 0.000000
0.654047 0.001129 0.000000
0.710567 0.012573 0.000000
0.774502 0.025635 0.000000
0.830320 0.042939 0.000000
0.880491 0.066285 0.000000
0.928252 0.080995 0.000000
0.973510 0.090333 0.000000
1.000000 0.095949 0.000000
1.000000 0.098451 0.000000
1.000000 0.102174 0.000000
1.000000 0.105013 0.000000
1.000000 0.106935 0.000000
1.000000 0.109407 0.000000
1.000000 0.112062 0.000000
1.000000 0.115328 0.000000
1.000000 0.118624 0.000000
0.089754 0.097993 0.104036
0.089754 0.097993 0.104036
0.089754 0.097993 0.104036
0.092714 0.097688 0.104036
0.106020 0.096468 0.104616
0.122805 0.094850 0.104463
0.141848 0.094209 0.104005
0.165713 0.092805 0.103700
0.196933 0.090700 0.102937
0.235966 0.088014 0.101442
0.283055 0.082551 0.098726
0.337316 0.074830 0.094179
0.396612 0.063203 0.087282
0.460243 0.055756 0.065827
0.525261 0.050202 0.033814
0.589288 0.048554 0.000000
0.648981 0.054292 0.000000
0.707271 0.065064 0.000000
0.769497 0.079591 0.000000
0.824399 0.091524 0.000000
0.874449 0.097292 0.000000
0.921691 0.104311 0.000000
0.966918 0.107668 0.000000
1.000000 0.111421 0.000000
1.000000 0.114839 0.000000
1.000000 0.117220 0.000000
1.000000 0.118654 0.000000
1.000000 0.119631 0.000000
1.000000 0.121401 0.000000
1.000000 0.123964 0.000000
1.000000 0.124819 0.000000
1.000000 0.128328 0.000000
0.088716 0.099580 0.103853
0.089326 0.099519 0.104219
0.088899 0.100282 0.103761
0.094148 0.100496 0.104005
0.107027 0.100832 0.104067
0.122927 0.100862 0.103700
0.141360 0.100710 0.103548
0.165408 0.100191 0.103151
0.196078 0.099977 0.102205
0.234867 0.100008 0.100404
0.281498 0.099275 0.096986
0.334966 0.099153 0.091951
0.393500 0.099611 0.082673
0.456123 0.100130 0.059144
0.520470 0.101320 0.025574
0.583368 0.104555 0.000000
0.642817 0.108034 0.000000
0.702266 0.112947 0.000000
0.761379 0.119234 0.000000
0.813993 0.123964 0.000000
0.862608 0.128450 0.000000
0.908659 0.131746 0.000000
0.953704 0.135012 0.000000
0.998352 0.137392 0.000000
1.000000 0.139345 0.000000
1.000000 0.140688 0.000000
1.000000 0.142519 0.000000
1.000000 0.142702 0.000000
1.000000 0.143099 0.000000
1.000000 0.143862 0.000000
1.000000 0.144289 0.000000
1.000000 0.145449 0.000000
0.081971 0.108309 0.103426
0.081544 0.108675 0.103365
0.086030 0.108766 0.103304
0.094789 0.109010 0.103151
0.105989 0.109163 0.103273
0.121767 0.109865 0.102785
0.140230 0.110079 0.102602
0.163394 0.111116 0.102022
0.194430 0.112215 0.100526
0.232364 0.114443 0.098390
0.277501 0.117342 0.094820
0.330114 0.120607 0.089143
0.387701 0.125093 0.075257
0.449897 0.129580 0.048432
0.513634 0.134646 0.012085
0.577386 0.139773 0.000000
0.637476 0.145113 0.000000
0.700099 0.150515 0.000000
0.757290 0.155032 0.000000
0.808988 0.158846 0.000000
0.856840 0.162600 0.000000
0.902434 0.165316 0.000000
0.947570 0.167269 0.000000
0.992706 0.168856 0.000000
1.000000 0.170108 0.000000
1.000000 0.170565 0.000000
1.000000 0.170413 0.000000
1.000000 0.170596 0.000000
1.000000 0.170016 0.000000
1.000000 0.169741 0.000000
1.000000 0.169100 0.000000
1.000000 0.169406 0.000000
0.076143 0.118654 0.102541
0.078920 0.118837 0.102510
0.084688 0.118868 0.102449
0.094026 0.119112 0.102266
0.105348 0.119234 0.102388
0.119570 0.119478 0.102022
0.139315 0.121828 0.101442
0.163638 0.124178 0.100191
0.194675 0.127749 0.098512
0.232547 0.132662 0.095247
0.277806 0.138247 0.090730
0.329808 0.145083 0.081300
0.387182 0.152590 0.059541
0.448981 0.160342 0.027314
0.512718 0.168368 0.000000
0.576287 0.175235 0.000000
0.637903 0.181613 0.000000
0.702113 0.188235 0.000000
0.758206 0.192721 0.000000
0.809140 0.196109 0.000000
0.856657 0.198642 0.000000
0.902251 0.200565 0.000000
1.000000 0.212100 0.000000
1.000000 0.211704 0.000000
1.000000 0.211185 0.000000
1.000000 0.210849 0.000000
1.000000 0.209964 0.000000
1.000000 0.208927 0.000000
1.000000 0.208499 0.000000
1.000000 0.207858 0.000000
1.000000 0.206302 0.000000
1.000000 0.205173 0.000000
0.076753 0.133700 0.100496
0.078523 0.133639 0.100496
0.085054 0.133883 0.100374
0.094667 0.134279 0.100160
0.107179 0.134310 0.099916
0.121614 0.134463 0.099550
0.138888 0.135531 0.099214
0.167453 0.142000 0.097078
0.201724 0.148775 0.094179
0.244572 0.157931 0.088685
0.292546 0.167605 0.077668
0.347021 0.177981 0.054108
0.406012 0.188388 0.022583
0.468269 0.198764 0.000000
0.531579 0.208164 0.000000
0.593194 0.216098 0.000000
0.661311 0.225193 0.000000
0.723384 0.231357 0.000000
0.778592 0.235080 0.000000
0.830777 0.236942 0.000000
0.881224 0.238437 0.000000
0.932372 0.239811 0.000000
0.983551 0.241337 0.000000
1.000000 0.242008 0.000000
1.000000 0.241855 0.000000
1.000000 0.241306 0.000000
1.000000 0.240146 0.000000
1.000000 0.239048 0.000000
1.000000 0.237888 0.000000
1.000000 0.236271 0.000000
1.000000 0.234928 0.000000
1.000000 0.232670 0.000000
0.073915 0.150546 0.098238
0.077180 0.150668 0.098177
0.084871 0.151064 0.097993
0.095003 0.151583 0.097719
0.108339 0.151949 0.096925
0.123934 0.151949 0.096925
0.141299 0.152193 0.096345
0.161654 0.154360 0.095033
0.198154 0.165835 0.089845
0.239292 0.177066 0.081788
0.289342 0.190372 0.060517
0.345861 0.204562 0.030396
0.404089 0.217014 0.000000
0.465461 0.228885 0.000000
0.527733 0.239139 0.000000
0.594995 0.250187 0.000000
0.661128 0.258854 0.000000
0.719203 0.264286 0.000000
0.772244 0.267308 0.000000
0.822904 0.269230 0.000000
0.871977 0.270542 0.000000
0.922087 0.271916 0.000000
0.972961 0.273167 0.000000
1.000000 0.273930 0.000000
1.000000 0.274022 0.000000
1.000000 0.273228 0.000000
1.000000 0.272190 0.000000
1.000000 0.270207 0.000000
1.000000 0.268193 0.000000
1.000000 0.266300 0.000000
1.000000 0.264225 0.000000
1.000000 0.262272 0.000000
0.064393 0.174594 0.095766
0.067659 0.174685 0.095705
0.079561 0.174807 0.095186
0.094331 0.175479 0.094789
0.109346 0.176181 0.094240
0.127504 0.176181 0.093782
0.147189 0.176272 0.093080
0.167330 0.176486 0.091707
0.191897 0.180056 0.089235
0.236393 0.196292 0.073304
0.285374 0.211368 0.047364
0.341466 0.227787 0.012482
0.403784 0.244358 0.000000
0.466712 0.258946 0.000000
0.534325 0.273228 0.000000
0.602167 0.285496 0.000000
0.663325 0.293431 0.000000
0.718227 0.297734 0.000000
0.769528 0.300572 0.000000
0.818906 0.302129 0.000000
0.867063 0.303624 0.000000
0.916167 0.304814 0.000000
0.966461 0.306126 0.000000
1.000000 0.307103 0.000000
1.000000 0.307134 0.000000
1.000000 0.306157 0.000000
1.000000 0.304631 0.000000
1.000000 0.302342 0.000000
1.000000 0.300114 0.000000
1.000000 0.297368 0.000000
1.000000 0.294652 0.000000
1.000000 0.292424 0.000000
0.041688 0.206241 0.089448
0.045655 0.206180 0.089448
0.063691 0.206332 0.088838
0.090089 0.206912 0.088319
0.109926 0.207462 0.086793
0.131228 0.207523 0.085725
0.154086 0.207187 0.083864
0.177005 0.207279 0.082063
0.200137 0.207370 0.079194
0.228794 0.211856 0.068452
0.280400 0.231846 0.032807
0.334936 0.249546 0.000000
0.395392 0.267887 0.000000
0.467842 0.289769 0.000000
0.541680 0.309026 0.000000
0.606104 0.320806 0.000000
0.665003 0.328466 0.000000
0.718990 0.332921 0.000000
0.769528 0.335393 0.000000
0.818204 0.337011 0.000000
0.864897 0.337713 0.000000
0.911894 0.338384 0.000000
0.959716 0.339147 0.000000
1.000000 0.339544 0.000000
1.000000 0.339208 0.000000
1.000000 0.338079 0.000000
1.000000 0.336370 0.000000
1.000000 0.334081 0.000000
1.000000 0.331182 0.000000
1.000000 0.328313 0.000000
1.000000 0.325170 0.000000
1.000000 0.322210 0.000000
0.002991 0.243107 0.065736
0.008240 0.243168 0.065553
0.032502 0.243412 0.064698
0.076631 0.244114 0.061707
0.107637 0.244999 0.058930
0.133852 0.245792 0.054627
0.161257 0.245518 0.051057
0.187991 0.245426 0.046571
0.214420 0.245365 0.042451
0.241215 0.245365 0.036255
0.273655 0.250797 0.019837
0.334997 0.276493 0.000000
0.399695 0.299382 0.000000
0.468513 0.321111 0.000000
0.539025 0.340276 0.000000
0.606806 0.355261 0.000000
0.666651 0.364141 0.000000
0.719051 0.368292 0.000000
0.768124 0.370306 0.000000
0.815640 0.371435 0.000000
0.861509 0.371679 0.000000
0.907713 0.372137 0.000000
0.955108 0.372992 0.000000
1.000000 0.373175 0.000000
1.000000 0.372900 0.000000
1.000000 0.371740 0.000000
1.000000 0.369848 0.000000
1.000000 0.367041 0.000000
1.000000 0.363897 0.000000
1.000000 0.360327 0.000000
1.000000 0.356542 0.000000
1.000000 0.352880 0.000000
0.000000 0.289006 0.008667
0.000000 0.289036 0.008484
0.000000 0.289342 0.007294
0.033570 0.289891 0.005219
0.100099 0.290837 0.000488
0.135164 0.292271 0.000000
0.168246 0.292241 0.000000
0.199771 0.291783 0.000000
0.230564 0.291417 0.000000
0.262913 0.293675 0.000000
0.295842 0.296391 0.000000
0.335882 0.304601 0.000000
0.439582 0.360235 0.000000
0.513024 0.384222 0.000000
0.583154 0.402350 0.000000
0.647944 0.414466 0.000000
0.707271 0.422065 0.000000
0.762936 0.426490 0.000000
0.811368 0.427070 0.000000
0.857481 0.426398 0.000000
0.903624 0.425757 0.000000
0.949340 0.425025 0.000000
0.993713 0.423926 0.000000
1.000000 0.422309 0.000000
1.000000 0.419776 0.000000
1.000000 0.416327 0.000000
1.000000 0.412207 0.000000
1.000000 0.407660 0.000000
1.000000 0.402472 0.000000
1.000000 0.397253 0.000000
1.000000 0.392096 0.000000
1.000000 0.387396 0.000000
0.000000 0.352544 0.000000
0.000000 0.352422 0.000000
0.000000 0.352239 0.000000
0.000000 0.352117 0.000000
0.080964 0.352148 0.000000
0.135561 0.354711 0.000000
0.178836 0.357000 0.000000
0.218631 0.358526 0.000000
0.257664 0.360418 0.000000
0.296269 0.362707 0.000000
0.335302 0.365698 0.000000
0.374334 0.368658 0.000000
0.421637 0.378546 0.000000
0.495155 0.406195 0.000000
0.567529 0.428046 0.000000
0.632044 0.441688 0.000000
0.691341 0.450111 0.000000
0.745998 0.455116 0.000000
0.798428 0.458259 0.000000
0.847288 0.459266 0.000000
0.892210 0.458198 0.000000
0.937591 0.457374 0.000000
0.982055 0.456153 0.000000
1.000000 0.454749 0.000000
1.000000 0.452308 0.000000
1.000000 0.449042 0.000000
1.000000 0.445045 0.000000
1.000000 0.440253 0.000000
1.000000 0.434821 0.000000
1.000000 0.429297 0.000000
1.000000 0.423743 0.000000
1.000000 0.418341 0.000000
0.000000 0.417975 0.000000
0.000000 0.417670 0.000000
0.000000 0.417121 0.000000
0.000000 0.417060 0.000000
0.002991 0.417060 0.000000
0.128939 0.417762 0.000000
0.182071 0.418982 0.000000
0.228580 0.418433 0.000000
0.271366 0.418158 0.000000
0.313024 0.418799 0.000000
0.354009 0.420294 0.000000
0.395056 0.422065 0.000000
0.435584 0.423468 0.000000
0.482918 0.430640 0.000000
0.551781 0.452735 0.000000
0.617487 0.468696 0.000000
0.676081 0.477760 0.000000
0.730404 0.483284 0.000000
0.782681 0.486946 0.000000
0.832792 0.488930 0.000000
0.882872 0.491005 0.000000
0.929992 0.491157 0.000000
0.974456 0.490028 0.000000
1.000000 0.488594 0.000000
1.000000 0.486122 0.000000
1.000000 0.482795 0.000000
1.000000 0.478492 0.000000
1.000000 0.473426 0.000000
1.000000 0.467689 0.000000
1.000000 0.461799 0.000000
1.000000 0.455726 0.000000
1.000000 0.449897 0.000000
0.000000 0.480629 0.000000
0.000000 0.480415 0.000000
0.000000 0.479744 0.000000
0.000000 0.478828 0.000000
0.000000 0.477760 0.000000
0.112215 0.477028 0.000000
0.180392 0.476875 0.000000
0.232975 0.476417 0.000000
0.280522 0.475166 0.000000
0.325200 0.474647 0.000000
0.368994 0.474891 0.000000
0.412177 0.475654 0.000000
0.454353 0.475776 0.000000
0.494759 0.475319 0.000000
0.539879 0.478614 0.000000
0.601831 0.493782 0.000000
0.662135 0.505241 0.000000
0.716426 0.511498 0.000000
0.768521 0.515557 0.000000
0.818570 0.518029 0.000000
0.868711 0.520409 0.000000
0.919890 0.523095 0.000000
0.968902 0.524651 0.000000
1.000000 0.522850 0.000000
1.000000 0.520226 0.000000
1.000000 0.516777 0.000000
1.000000 0.512444 0.000000
1.000000 0.507134 0.000000
1.000000 0.501305 0.000000
1.000000 0.495094 0.000000
1.000000 0.488716 0.000000
1.000000 0.482551 0.000000
0.000000 0.534356 0.000000
0.000000 0.534447 0.000000
0.000000 0.534142 0.000000
0.000000 0.533776 0.000000
0.000000 0.533257 0.000000
0.079500 0.532982 0.000000
0.172885 0.533318 0.000000
0.234379 0.534325 0.000000
0.287114 0.533043 0.000000
0.335546 0.531884 0.000000
0.381384 0.530541 0.000000
0.425696 0.528771 0.000000
0.468147 0.526696 0.000000
0.508537 0.523705 0.000000
0.546838 0.519707 0.000000
0.587793 0.518608 0.000000
0.643915 0.528435 0.000000
0.700618 0.537224 0.000000
0.753048 0.542168 0.000000
0.803342 0.545556 0.000000
0.854429 0.548913 0.000000
0.906676 0.552667 0.000000
0.957580 0.555627 0.000000
1.000000 0.557122 0.000000
1.000000 0.555688 0.000000
1.000000 0.552056 0.000000
1.000000 0.547448 0.000000
1.000000 0.541863 0.000000
1.000000 0.535363 0.000000
1.000000 0.528496 0.000000
1.000000 0.521386 0.000000
1.000000 0.514519 0.000000
0.000000 0.580652 0.000000
0.000000 0.580529 0.000000
0.000000 0.580346 0.000000
0.000000 0.580133 0.000000
0.000000 0.579797 0.000000
0.000000 0.579583 0.000000
0.160403 0.579644 0.000000
0.228763 0.580072 0.000000
0.285069 0.579370 0.000000
0.336095 0.577691 0.000000
0.384222 0.575738 0.000000
0.429969 0.573571 0.000000
0.473793 0.571008 0.000000
0.515740 0.567590 0.000000
0.555413 0.563470 0.000000
0.593072 0.558343 0.000000
0.631952 0.555138 0.000000
0.684169 0.561791 0.000000
0.739315 0.569421 0.000000
0.790280 0.573419 0.000000
0.841794 0.577600 0.000000
0.894652 0.582238 0.000000
0.946380 0.586114 0.000000
0.995666 0.588403 0.000000
1.000000 0.588952 0.000000
1.000000 0.587396 0.000000
1.000000 0.582544 0.000000
1.000000 0.576532 0.000000
1.000000 0.569604 0.000000
1.000000 0.562158 0.000000
1.000000 0.554559 0.000000
1.000000 0.547265 0.000000
0.000000 0.625055 0.000000
0.000000 0.625330 0.000000
0.000000 0.648249 0.000000
0.000000 0.647913 0.000000
0.000000 0.647486 0.000000
0.000000 0.646906 0.000000
0.154940 0.646387 0.000000
0.232120 0.645960 0.000000
0.293889 0.645655 0.000000
0.348943 0.643336 0.000000
0.400092 0.640742 0.000000
0.448157 0.637690 0.000000
0.493935 0.633753 0.000000
0.537346 0.629023 0.000000
0.578515 0.623377 0.000000
0.617426 0.616876 0.000000
0.654017 0.609491 0.000000
0.690364 0.602991 0.000000
0.738918 0.605951 0.000000
0.791928 0.611444 0.000000
0.843565 0.615442 0.000000
0.896208 0.620111 0.000000
0.947356 0.623651 0.000000
0.995605 0.625422 0.000000
1.000000 0.624964 0.000000
1.000000 0.622644 0.000000
1.000000 0.618433 0.000000
1.000000 0.612055 0.000000
1.000000 0.604181 0.000000
1.000000 0.595941 0.000000
1.000000 0.587732 0.000000
1.000000 0.579828 0.000000
0.000000 0.672847 0.000000
0.000000 0.674891 0.000000
0.000000 0.676997 0.000000
0.000000 0.678737 0.000000
0.000000 0.679835 0.000000
0.000000 0.679927 0.000000
0.134127 0.679561 0.000000
0.220462 0.678981 0.000000
0.284367 0.678676 0.000000
0.341009 0.676875 0.000000
0.392920 0.674250 0.000000
0.441901 0.671229 0.000000
0.488563 0.667445 0.000000
0.532647 0.663050 0.000000
0.574975 0.657862 0.000000
0.615320 0.652033 0.000000
0.653559 0.645624 0.000000
0.690333 0.638788 0.000000
0.726680 0.632624 0.000000
0.774533 0.635309 0.000000
0.829099 0.642115 0.000000
0.883024 0.648096 0.000000
0.935302 0.652705 0.000000
0.984527 0.655421 0.000000
1.000000 0.655787 0.000000
1.000000 0.653834 0.000000
1.000000 0.649897 0.000000
1.000000 0.644129 0.000000
1.000000 0.637140 0.000000
1.000000 0.628626 0.000000
1.000000 0.619959 0.000000
1.000000 0.611627 0.000000
0.000000 0.707912 0.000000
0.000000 0.709957 0.000000
0.000000 0.712154 0.000000
0.000000 0.714015 0.000000
0.000000 0.715175 0.000000
0.000000 0.715450 0.000000
0.113680 0.715114 0.000000
0.210971 0.714473 0.000000
0.277256 0.714015 0.000000
0.335302 0.713069 0.000000
0.388556 0.710384 0.000000
0.438087 0.707393 0.000000
0.485298 0.703883 0.000000
0.530632 0.699763 0.000000
0.573846 0.695125 0.000000
0.615442 0.689754 0.000000
0.655116 0.683864 0.000000
0.693324 0.677485 0.000000
0.730098 0.670985 0.000000
0.766384 0.664912 0.000000
0.814420 0.667903 0.000000
0.870176 0.675715 0.000000
0.923644 0.681666 0.000000
0.973907 0.685328 0.000000
1.000000 0.686366 0.000000
1.000000 0.684932 0.000000
1.000000 0.681239 0.000000
1.000000 0.675532 0.000000
1.000000 0.668421 0.000000
1.000000 0.660578 0.000000
1.000000 0.652186 0.000000
1.000000 0.643397 0.000000
0.000000 0.744961 0.000000
0.000000 0.746975 0.000000
0.000000 0.748898 0.000000
0.000000 0.750729 0.000000
0.000000 0.751858 0.000000
0.000000 0.752102 0.000000
0.090181 0.751827 0.000000
0.201419 0.751369 0.000000
0.271885 0.750912 0.000000
0.331060 0.750515 0.000000
0.385138 0.748470 0.000000
0.435767 0.745571 0.000000
0.484077 0.742153 0.000000
0.530022 0.738369 0.000000
0.574304 0.734127 0.000000
0.617182 0.729397 0.000000
0.658747 0.724636 0.000000
0.699306 0.719661 0.000000
0.738888 0.714748 0.000000
0.777890 0.709957 0.000000
0.817075 0.706111 0.000000
0.867796 0.710811 0.000000
0.923003 0.718227 0.000000
0.975219 0.723293 0.000000
1.000000 0.725124 0.000000
1.000000 0.723720 0.000000
1.000000 0.719570 0.000000
1.000000 0.713191 0.000000
1.000000 0.705348 0.000000
1.000000 0.696864 0.000000
1.000000 0.688228 0.000000
1.000000 0.679805 0.000000
0.000000 0.797635 0.000000
0.000000 0.798520 0.000000
0.000000 0.799100 0.000000
0.000000 0.799344 0.000000
0.000000 0.799222 0.000000
0.000000 0.798581 0.000000
0.082795 0.797848 0.000000
0.200687 0.797208 0.000000
0.272190 0.796689 0.000000
0.333196 0.796384 0.000000
0.388678 0.795468 0.000000
0.440406 0.792782 0.000000
0.489448 0.789670 0.000000
0.536614 0.786099 0.000000
0.582208 0.781979 0.000000
0.626246 0.777432 0.000000
0.668940 0.772610 0.000000
0.710536 0.767544 0.000000
0.750942 0.762417 0.000000
0.790646 0.757259 0.000000
0.829282 0.752071 0.000000
0.867735 0.747280 0.000000
0.914946 0.749294 0.000000
0.965179 0.753231 0.000000
1.000000 0.755337 0.000000
1.000000 0.754482 0.000000
1.000000 0.750729 0.000000
1.000000 0.744503 0.000000
1.000000 0.736599 0.000000
1.000000 0.727871 0.000000
1.000000 0.718929 0.000000
1.000000 0.710292 0.000000
0.000000 0.837095 0.000000
0.000000 0.837766 0.000000
0.000000 0.838315 0.000000
0.000000 0.838529 0.000000
0.000000 0.838407 0.000000
0.000000 0.838010 0.000000
0.075807 0.837430 0.000000
0.199924 0.836820 0.000000
0.271550 0.836362 0.000000
0.333135 0.835996 0.000000
0.388861 0.835782 0.000000
0.441108 0.833707 0.000000
0.490974 0.830930 0.000000
0.538781 0.827878 0.000000
0.585443 0.824369 0.000000
0.630488 0.820645 0.000000
0.674586 0.816587 0.000000
0.717494 0.812375 0.000000
0.759640 0.807980 0.000000
0.800870 0.803555 0.000000
0.841398 0.799161 0.000000
0.881163 0.794675 0.000000
0.918791 0.789181 0.000000
0.962707 0.788815 0.000000
1.000000 0.783932 0.000000
1.000000 0.783230 0.000000
1.000000 0.780056 0.000000
1.000000 0.774075 0.000000
1.000000 0.766323 0.000000
1.000000 0.757565 0.000000
1.000000 0.748592 0.000000
1.000000 0.740047 0.000000
0.000000 0.882200 0.000000
0.000000 0.883268 0.000000
0.000000 0.883665 0.000000
0.000000 0.883360 0.000000
0.000000 0.882536 0.000000
0.000000 0.881254 0.000000
0.099245 0.879667 0.000000
0.205142 0.877989 0.000000
0.275029 0.876463 0.000000
0.334630 0.875090 0.000000
0.389258 0.873716 0.000000
0.441199 0.871824 0.000000
0.490517 0.868650 0.000000
0.538140 0.865080 0.000000
0.584009 0.861082 0.000000
0.628962 0.856840 0.000000
0.672816 0.852567 0.000000
0.716030 0.848386 0.000000
0.758663 0.844480 0.000000
0.800992 0.840848 0.000000
0.842832 0.837369 0.000000
0.883726 0.833707 0.000000
0.923461 0.829679 0.000000
0.958770 0.822477 0.000000
0.997803 0.818601 0.000000
1.000000 0.815091 0.000000
1.000000 0.810544 0.000000
1.000000 0.804166 0.000000
1.000000 0.796017 0.000000
1.000000 0.787045 0.000000
1.000000 0.777981 0.000000
1.000000 0.769192 0.000000
0.000000 0.913451 0.000000
0.000000 0.914336 0.000000
0.000000 0.914855 0.000000
0.000000 0.914855 0.000000
0.000000 0.914519 0.000000
0.000000 0.914000 0.000000
0.116060 0.913420 0.000000
0.213230 0.912749 0.000000
0.280034 0.912169 0.000000
0.338598 0.911559 0.000000
0.392401 0.910857 0.000000
0.443824 0.910155 0.000000
0.493050 0.907713 0.000000
0.540703 0.904723 0.000000
0.586999 0.901305 0.000000
0.631861 0.897581 0.000000
0.676265 0.893675 0.000000
0.719722 0.889891 0.000000
0.763027 0.886320 0.000000
0.805875 0.883085 0.000000
0.848295 0.879942 0.000000
0.890074 0.876860 0.000000
0.931060 0.873625 0.000000
0.971130 0.870115 0.000000
1.000000 0.860899 0.000000
1.000000 0.853574 0.000000
1.000000 0.845975 0.000000
1.000000 0.837675 0.000000
1.000000 0.829007 0.000000
1.000000 0.819608 0.000000
1.000000 0.810178 0.000000
1.000000 0.798489 0.000000
0.000000 0.946715 0.000000
0.000000 0.947082 0.000000
0.000000 0.947173 0.000000
0.000000 0.947082 0.000000
0.000000 0.946685 0.000000
0.000000 0.946105 0.000000
0.148684 0.945464 0.000000
0.226566 0.944701 0.000000
0.288090 0.943969 0.000000
0.342931 0.943267 0.000000
0.394965 0.942473 0.000000
0.445014 0.941711 0.000000
0.493050 0.940215 0.000000
0.540032 0.937713 0.000000
0.585809 0.934783 0.000000
0.630610 0.931579 0.000000
0.674647 0.928222 0.000000
0.718318 0.924895 0.000000
0.761624 0.921752 0.000000
0.804532 0.918883 0.000000
0.847135 0.916136 0.000000
0.889097 0.913390 0.000000
0.930358 0.910430 0.000000
0.970794 0.907286 0.000000
1.000000 0.903929 0.000000
1.000000 0.891997 0.000000
1.000000 0.881132 0.000000
1.000000 0.870146 0.000000
1.000000 0.859403 0.000000
1.000000 0.849729 0.000000
1.000000 0.840024 0.000000
1.000000 0.824949 0.000000
0.000000 0.973266 0.000000
0.000000 0.973510 0.000000
0.000000 0.973663 0.000000
0.000000 0.973663 0.000000
0.000000 0.973632 0.000000
0.092775 0.973632 0.000000
0.186679 0.973907 0.000000
0.250645 0.974273 0.000000
0.306340 0.974762 0.000000
0.358404 0.975311 0.000000
0.408270 0.975830 0.000000
0.456336 0.976165 0.000000
0.503441 0.976196 0.000000
0.549401 0.975006 0.000000
0.594385 0.973327 0.000000
0.638422 0.971099 0.000000
0.681880 0.968566 0.000000
0.724941 0.965942 0.000000
0.767788 0.963378 0.000000
0.810361 0.960906 0.000000
0.852537 0.958495 0.000000
0.894377 0.955993 0.000000
0.935454 0.953307 0.000000
0.975830 0.950500 0.000000
1.000000 0.947570 0.000000
1.000000 0.944305 0.000000
1.000000 0.929168 0.000000
1.000000 0.914763 0.000000
1.000000 0.900450 0.000000
1.000000 0.887388 0.000000
1.000000 0.873747 0.000000
1.000000 0.851438 0.000000
0.000000 1.000000 0.000000
0.000000 1.000000 0.000000
0.005707 1.000000 0.000000
0.103090 1.000000 0.000000
0.154208 1.000000 0.000000
0.199893 1.000000 0.000000
0.244846 1.000000 0.000000
0.289342 1.000000 0.000000
0.333410 1.000000 0.000000
0.377020 1.000000 0.000000
0.420478 0.999786 0.000000
0.463600 0.999268 0.000000
0.506798 0.998566 0.000000
