20 Preset/Human Style/【3】LUT video cho PR-AE-FCPX/Joe-Allam (2)/JA – Harsh Shade 1 (Classic Chrome).cube
# Created by Adobe Lightroom plugin Export LUT (1.24.0)
# www.johnrellis.com/lightroom/exportlut.htm
# Preset: JA – Harsh Shade 1 (Classic Chrome)
# Color profile: E:\lut插件\exportlut.1.24\exportlut.lrplugin\color profiles\Rec709gamma2.4.icc
LUT_3D_SIZE 5
DOMAIN_MIN 0.000000 0.000000 0.000000
DOMAIN_MAX 0.903226 0.903226 0.903226
0.034577 0.039033 0.056092
0.132784 0.045136 0.075837
0.306004 0.067872 0.103304
0.754269 0.000000 0.103853
1.000000 0.000000 0.163882
0.061433 0.123384 0.096986
0.144656 0.135409 0.093202
0.348241 0.153811 0.091920
0.784787 0.184634 0.024659
1.000000 0.195743 0.148898
0.005066 0.290654 0.126925
0.163333 0.296544 0.127749
0.539727 0.463142 0.000000
0.869566 0.474037 0.000000
1.000000 0.434241 0.000000
0.000000 0.636866 0.000000
0.169284 0.644434 0.000000
0.521569 0.702571 0.000000
0.895750 0.785092 0.000000
1.000000 0.708705 0.209689
0.397284 0.898131 0.341131
0.454475 0.898772 0.357519
0.601129 0.892088 0.382513
0.820188 0.918791 0.476234
1.000000 0.932372 0.598199
0.016358 0.058198 0.125063
0.112581 0.068330 0.136446
0.263828 0.089906 0.165499
0.687587 0.000000 0.193576
1.000000 0.000000 0.229160
0.046571 0.122286 0.144778
0.125093 0.130953 0.155306
0.309941 0.139162 0.170016
0.729580 0.100801 0.179965
1.000000 0.154025 0.219303
0.000000 0.289830 0.168551
0.119173 0.297459 0.170291
0.482277 0.417762 0.125582
0.832059 0.434943 0.042847
1.000000 0.423102 0.166323
0.000000 0.636530 0.000000
0.000000 0.645045 0.000000
0.497719 0.693477 0.000000
0.888121 0.780911 0.151034
1.000000 0.710994 0.315435
0.387152 0.896239 0.380285
0.445808 0.896513 0.393652
0.619593 0.899870 0.452613
0.825345 0.920989 0.528801
1.000000 0.934783 0.636652
0.000000 0.092714 0.199313
0.079316 0.094514 0.214572
0.259403 0.071809 0.264744
0.520714 0.000000 0.301274
0.965545 0.000000 0.397864
0.000000 0.124056 0.210880
0.072236 0.126345 0.230289
0.287327 0.125643 0.281987
0.584680 0.000000 0.317327
0.972839 0.268376 0.433082
0.000000 0.260533 0.268437
0.000000 0.277745 0.280247
0.401862 0.372076 0.348760
0.778897 0.414038 0.394324
0.998016 0.503593 0.492256
0.000000 0.618524 0.315343
0.000000 0.629389 0.310704
0.415961 0.671107 0.351324
0.851682 0.768917 0.509972
1.000000 0.723598 0.544305
0.267948 0.885344 0.475410
0.368902 0.887022 0.489296
0.588190 0.892119 0.537407
0.809689 0.910277 0.612573
0.992889 0.931945 0.702144
0.000000 0.106142 0.274907
0.000000 0.106264 0.289921
0.255222 0.068605 0.371374
0.598840 0.000000 0.538018
0.849516 0.000000 0.538201
0.000000 0.125521 0.279759
0.000000 0.124453 0.296544
0.250309 0.113710 0.380682
0.611048 0.000000 0.550225
0.855406 0.000000 0.536156
0.000000 0.193240 0.284703
0.000000 0.194705 0.291539
0.177920 0.228946 0.407172
0.673243 0.315404 0.610285
0.912078 0.332921 0.580407
0.000000 0.489876 0.465644
0.000000 0.503349 0.480476
0.000000 0.573327 0.555291
0.768307 0.723751 0.706020
0.956939 0.754665 0.737148
0.000000 0.874296 0.602472
0.000000 0.875761 0.606775
0.401495 0.883207 0.638361
0.765072 0.897765 0.711818
0.974426 0.931395 0.805509
0.000000 0.134371 0.615259
0.000000 0.125795 0.631312
0.242618 0.013550 0.694545
0.588983 0.000000 0.778897
0.897276 0.000000 0.828824
0.000000 0.150851 0.609400
0.000000 0.145266 0.626520
0.192874 0.102541 0.690974
0.579461 0.000000 0.777523
0.897612 0.036774 0.829496
0.000000 0.267918 0.579339
0.000000 0.258335 0.597955
0.000000 0.199496 0.679072
0.534936 0.230259 0.776394
0.903349 0.408026 0.838102
0.000000 0.483162 0.677546
0.000000 0.473518 0.674983
0.000000 0.429938 0.671870
0.333227 0.420020 0.764096
0.915892 0.689418 0.861295
0.000000 0.836851 0.819944
0.000000 0.837461 0.820706
0.000000 0.843595 0.827634
0.509178 0.856016 0.841733
0.940581 0.920714 0.911131
