20 Preset/Human Style/【3】LUT video cho PR-AE-FCPX/Joe-Allam (2)/JA – Controlled Contrast 2 (Classic Chrome).cube
# Created by Adobe Lightroom plugin Export LUT (1.24.0)
# www.johnrellis.com/lightroom/exportlut.htm
# Preset: JA – Controlled Contrast 2 (Classic Chrome)
# Color profile: E:\lut插件\exportlut.1.24\exportlut.lrplugin\color profiles\Rec709gamma2.4.icc
LUT_3D_SIZE 32
DOMAIN_MIN 0.0 0.0 0.0
DOMAIN_MAX 1.0 1.0 1.0
0.119295 0.109499 0.104341
0.119295 0.109499 0.104341
0.119295 0.109499 0.104341
0.119295 0.109499 0.104341
0.119295 0.109499 0.104341
0.120821 0.109316 0.104341
0.124727 0.108797 0.104311
0.132021 0.107759 0.104280
0.143221 0.105959 0.104189
0.160830 0.102571 0.104402
0.187015 0.096498 0.104158
0.223667 0.081117 0.104097
0.273136 0.021881 0.103731
0.332097 0.000000 0.101503
0.394903 0.000000 0.098787
0.455207 0.000000 0.094606
0.508904 0.000000 0.089235
0.556176 0.000000 0.079744
0.598108 0.000000 0.064881
0.636255 0.000000 0.046418
0.671199 0.000000 0.029114
0.703883 0.000000 0.013794
0.735439 0.000000 0.000000
0.776577 0.000000 0.000000
0.823056 0.000000 0.000000
0.868132 0.000000 0.000000
0.911955 0.000000 0.000000
0.955169 0.000000 0.000000
0.997803 0.000000 0.000000
1.000000 0.000000 0.000000
1.000000 0.000000 0.000000
1.000000 0.000000 0.000000
0.119295 0.109499 0.104341
0.119295 0.109499 0.104341
0.119295 0.109499 0.104341
0.119295 0.109499 0.104341
0.119295 0.109499 0.104341
0.120821 0.109316 0.104341
0.124727 0.108797 0.104311
0.131594 0.107820 0.104280
0.141970 0.106142 0.104555
0.159152 0.102937 0.104433
0.183993 0.097353 0.104189
0.219181 0.084016 0.104158
0.266880 0.030610 0.103487
0.324804 0.000000 0.101595
0.387182 0.000000 0.098939
0.447791 0.000000 0.094820
0.502617 0.000000 0.089509
0.550408 0.000000 0.080629
0.593011 0.000000 0.065522
0.631403 0.000000 0.047852
0.666224 0.000000 0.030640
0.698817 0.000000 0.015534
0.730098 0.000000 0.001068
0.769558 0.000000 0.000000
0.813748 0.000000 0.000000
0.857389 0.000000 0.000000
0.900450 0.000000 0.000000
0.943389 0.000000 0.000000
0.986297 0.000000 0.000000
1.000000 0.000000 0.000000
1.000000 0.000000 0.000000
1.000000 0.000000 0.000000
0.119295 0.109499 0.104341
0.119295 0.109499 0.104341
0.119295 0.109499 0.104341
0.119295 0.109499 0.104341
0.119814 0.109438 0.104341
0.121340 0.109255 0.104311
0.124727 0.108797 0.104311
0.131594 0.107820 0.104280
0.141970 0.106142 0.104555
0.158816 0.102998 0.104433
0.183169 0.097566 0.104189
0.217685 0.084993 0.103822
0.264622 0.039307 0.102907
0.321813 0.000000 0.101137
0.383368 0.000000 0.098238
0.443793 0.000000 0.093965
0.498665 0.000000 0.088380
0.547112 0.000000 0.078523
0.589929 0.000000 0.062501
0.628595 0.000000 0.044343
0.663722 0.000000 0.027436
0.696407 0.000000 0.012970
0.727657 0.000000 0.000000
0.767086 0.000000 0.000000
0.809842 0.000000 0.000000
0.852354 0.000000 0.000000
0.894804 0.000000 0.000000
0.937407 0.000000 0.000000
0.980438 0.000000 0.000000
1.000000 0.000000 0.000000
1.000000 0.000000 0.000000
1.000000 0.000000 0.000000
0.119295 0.109499 0.104341
0.119295 0.109499 0.104341
0.119295 0.109499 0.104341
0.119295 0.109499 0.104341
0.119814 0.109438 0.104341
0.121798 0.109194 0.104311
0.125643 0.108675 0.104311
0.132479 0.107668 0.104280
0.143069 0.106294 0.104158
0.159640 0.103548 0.104005
0.184421 0.098756 0.103975
0.218875 0.089906 0.103334
0.265202 0.058717 0.102022
0.321355 0.000000 0.099825
0.381659 0.000000 0.096498
0.441077 0.000000 0.091646
0.495277 0.000000 0.084443
0.542870 0.000000 0.072694
0.585321 0.000000 0.054963
0.623804 0.000000 0.037079
0.658808 0.000000 0.020996
0.691493 0.000000 0.007202
0.722927 0.000000 0.000000
0.762387 0.000000 0.000000
0.804196 0.000000 0.000000
0.847135 0.000000 0.000000
0.890471 0.000000 0.000000
0.934112 0.000000 0.000000
0.977935 0.000000 0.000000
1.000000 0.000000 0.000000
1.000000 0.000000 0.000000
1.000000 0.000000 0.000000
0.119356 0.110109 0.104585
0.119356 0.110109 0.104585
0.119356 0.110109 0.104585
0.119356 0.110109 0.104585
0.120272 0.110323 0.104189
0.122255 0.110079 0.104189
0.126223 0.110201 0.104067
0.133272 0.109529 0.103975
0.144228 0.108766 0.104128
0.160952 0.106996 0.103822
0.185153 0.103975 0.103243
0.219425 0.098116 0.102296
0.265263 0.087007 0.100557
0.320836 0.046479 0.097688
0.380713 0.000000 0.093477
0.440009 0.000000 0.087587
0.494362 0.000000 0.075990
0.542168 0.000000 0.059052
0.584497 0.000000 0.040894
0.622919 0.000000 0.024750
0.657740 0.000000 0.010254
0.690333 0.000000 0.000000
0.723384 0.000000 0.000000
0.762203 0.000000 0.000000
0.803372 0.000000 0.000000
0.846067 0.000000 0.000000
0.889067 0.000000 0.000000
0.932311 0.000000 0.000000
0.975677 0.000000 0.000000
1.000000 0.000000 0.000000
1.000000 0.000000 0.000000
1.000000 0.000000 0.000000
0.118959 0.111757 0.104341
0.118959 0.111757 0.104341
0.118959 0.111757 0.104341
0.119478 0.111696 0.104341
0.120821 0.111849 0.104311
0.122896 0.112215 0.104189
0.127443 0.112856 0.103975
0.135225 0.113039 0.103761
0.147158 0.113039 0.103365
0.165133 0.112642 0.102785
0.190768 0.111788 0.101839
0.226200 0.109438 0.100313
0.273106 0.104860 0.097658
0.328710 0.096162 0.093568
0.388312 0.075898 0.087587
0.446540 0.020844 0.075105
0.499550 0.000000 0.056641
0.546288 0.000000 0.037415
0.588037 0.000000 0.020569
0.625696 0.000000 0.004913
0.660151 0.000000 0.000000
0.692409 0.000000 0.000000
0.762356 0.000000 0.000000
0.810361 0.000000 0.000000
0.857389 0.000000 0.000000
0.902586 0.000000 0.000000
0.946044 0.000000 0.000000
0.987854 0.000000 0.000000
1.000000 0.000000 0.000000
1.000000 0.000000 0.000000
1.000000 0.000000 0.000000
1.000000 0.000000 0.000000
0.119570 0.115663 0.104097
0.119570 0.115663 0.104097
0.119905 0.115908 0.104067
0.120912 0.115785 0.104036
0.122225 0.115938 0.103975
0.125154 0.116487 0.103456
0.129397 0.117433 0.103212
0.139559 0.119509 0.102541
0.155215 0.121431 0.101717
0.180087 0.123964 0.100282
0.211215 0.126528 0.098238
0.253666 0.129000 0.094911
0.305486 0.130495 0.089784
0.362127 0.130007 0.079866
0.419654 0.126131 0.060060
0.473121 0.118074 0.039765
0.521263 0.101534 0.020478
0.564416 0.064057 0.003479
0.603632 0.000000 0.000000
0.640101 0.000000 0.000000
0.674800 0.000000 0.000000
0.711513 0.000000 0.000000
0.755032 0.000000 0.000000
0.801907 0.000000 0.000000
0.849607 0.000000 0.000000
0.895018 0.000000 0.000000
0.938262 0.000000 0.000000
0.979492 0.000000 0.000000
1.000000 0.000000 0.000000
1.000000 0.000000 0.000000
1.000000 0.000000 0.000000
1.000000 0.000000 0.000000
0.120699 0.121584 0.103792
0.120699 0.121584 0.103792
0.121675 0.121462 0.103792
0.122652 0.121370 0.103792
0.124788 0.121675 0.103304
0.127687 0.122713 0.103059
0.133059 0.123690 0.102358
0.140017 0.125521 0.101472
0.156344 0.130007 0.100099
0.180636 0.135348 0.097993
0.216770 0.142947 0.094331
0.265507 0.151827 0.088289
0.316777 0.158297 0.077363
0.372076 0.162692 0.055177
0.427161 0.163516 0.031617
0.477699 0.160311 0.010437
0.524041 0.152346 0.000000
0.565820 0.140444 0.000000
0.604211 0.124483 0.000000
0.640009 0.100343 0.000000
0.675288 0.035767 0.000000
0.715297 0.000000 0.000000
0.756374 0.000000 0.000000
0.801175 0.000000 0.000000
0.846983 0.000000 0.000000
0.891051 0.000000 0.000000
0.933257 0.000000 0.000000
0.974029 0.000000 0.000000
1.000000 0.000000 0.000000
1.000000 0.000000 0.000000
1.000000 0.000000 0.000000
1.000000 0.000000 0.000000
0.123415 0.131044 0.102327
0.123903 0.130983 0.102327
0.124392 0.130953 0.102327
0.125826 0.130800 0.102327
0.128908 0.130709 0.102266
0.132235 0.132113 0.101900
0.138003 0.133883 0.101015
0.146365 0.136263 0.099916
0.157473 0.139071 0.098543
0.181613 0.147341 0.095552
0.217502 0.158083 0.090578
0.267308 0.172122 0.079377
0.328527 0.186404 0.049775
0.387182 0.195834 0.020325
0.439307 0.199466 0.000000
0.487068 0.199008 0.000000
0.530846 0.195010 0.000000
0.570825 0.187259 0.000000
0.607935 0.176913 0.000000
0.644343 0.164340 0.000000
0.682612 0.149111 0.000000
0.720272 0.128969 0.000000
0.760006 0.099214 0.000000
0.803372 0.007202 0.000000
0.847562 0.000000 0.000000
0.890318 0.000000 0.000000
0.931762 0.000000 0.000000
0.971893 0.000000 0.000000
1.000000 0.000000 0.000000
1.000000 0.000000 0.000000
1.000000 0.000000 0.000000
1.000000 0.000000 0.000000
0.127169 0.146395 0.100801
0.127810 0.146120 0.100862
0.128908 0.145815 0.100893
0.131136 0.145602 0.100893
0.134340 0.145052 0.100923
0.138521 0.146578 0.100099
0.145083 0.148653 0.099062
0.154635 0.151736 0.097536
0.167056 0.155276 0.095735
0.183322 0.159762 0.093385
0.216800 0.172854 0.086152
0.264408 0.189761 0.066194
0.322820 0.207828 0.030762
0.386999 0.224399 0.000000
0.451057 0.236149 0.000000
0.496773 0.237034 0.000000
0.539117 0.234958 0.000000
0.577874 0.229435 0.000000
0.617304 0.223423 0.000000
0.654719 0.214878 0.000000
0.690364 0.204532 0.000000
0.725521 0.191745 0.000000
0.762936 0.177218 0.000000
0.803220 0.159915 0.000000
0.844266 0.136263 0.000000
0.884977 0.100557 0.000000
0.925322 0.000000 0.000000
0.965240 0.000000 0.000000
1.000000 0.000000 0.000000
1.000000 0.000000 0.000000
1.000000 0.000000 0.000000
1.000000 0.000000 0.000000
0.133425 0.167086 0.097902
0.133577 0.166903 0.097963
0.134859 0.166812 0.097963
0.137545 0.166384 0.097993
0.141604 0.166018 0.097963
0.147463 0.166934 0.097505
0.155154 0.169741 0.095613
0.166201 0.173434 0.093660
0.180056 0.178073 0.090578
0.198764 0.184115 0.086336
0.221225 0.190768 0.078431
0.263188 0.208255 0.049653
0.320653 0.230014 0.007111
0.382483 0.249577 0.000000
0.444190 0.264744 0.000000
0.501335 0.273442 0.000000
0.551415 0.276097 0.000000
0.591302 0.273136 0.000000
0.627924 0.267491 0.000000
0.662562 0.260288 0.000000
0.696315 0.251499 0.000000
0.730404 0.241917 0.000000
0.767178 0.231815 0.000000
0.806607 0.220859 0.000000
0.846647 0.207462 0.000000
0.886442 0.191623 0.000000
0.926055 0.171115 0.000000
0.965393 0.143984 0.000000
1.000000 0.104097 0.000000
1.000000 0.000000 0.000000
1.000000 0.000000 0.000000
1.000000 0.000000 0.000000
0.142275 0.197360 0.091279
0.142763 0.197177 0.091768
0.144717 0.197055 0.091737
0.147951 0.196658 0.091341
0.153201 0.196109 0.091371
0.159976 0.195712 0.091249
0.169558 0.199405 0.088899
0.182284 0.203983 0.083955
0.198672 0.209781 0.076143
0.218723 0.216739 0.062165
0.243290 0.224918 0.044831
0.272007 0.233646 0.023407
0.342657 0.270939 0.000000
0.411658 0.298314 0.000000
0.474830 0.316472 0.000000
0.532708 0.327276 0.000000
0.585138 0.332097 0.000000
0.633448 0.332525 0.000000
0.669398 0.326360 0.000000
0.703334 0.318853 0.000000
0.737972 0.311162 0.000000
0.774350 0.303349 0.000000
0.812131 0.295018 0.000000
0.850278 0.285893 0.000000
0.888090 0.275395 0.000000
0.925261 0.263157 0.000000
0.961303 0.248844 0.000000
0.996399 0.232395 0.000000
1.000000 0.213138 0.000000
1.000000 0.190463 0.000000
1.000000 0.162814 0.000000
1.000000 0.126436 0.000000
0.158785 0.246983 0.061585
0.159152 0.246983 0.061585
0.161746 0.246281 0.062287
0.165957 0.245182 0.062257
0.172305 0.243503 0.062776
0.181155 0.241611 0.064363
0.191928 0.243320 0.058106
0.206332 0.247959 0.046815
0.224491 0.254093 0.030976
0.247654 0.262760 0.010468
0.277470 0.275151 0.000000
0.313115 0.289403 0.000000
0.353185 0.303868 0.000000
0.404852 0.322911 0.000000
0.468116 0.344915 0.000000
0.523766 0.357153 0.000000
0.574212 0.363378 0.000000
0.620630 0.364996 0.000000
0.664790 0.364141 0.000000
0.705318 0.360510 0.000000
0.738521 0.353033 0.000000
0.773831 0.346105 0.000000
0.810330 0.339117 0.000000
0.847410 0.331518 0.000000
0.884428 0.323369 0.000000
0.921141 0.313634 0.000000
0.957122 0.303197 0.000000
0.992432 0.290929 0.000000
1.000000 0.277256 0.000000
1.000000 0.262943 0.000000
1.000000 0.246189 0.000000
1.000000 0.227787 0.000000
0.175601 0.292210 0.012238
0.176028 0.291875 0.012848
0.178561 0.290898 0.013153
0.183597 0.289952 0.014221
0.190799 0.288670 0.014405
0.200809 0.287022 0.014771
0.212772 0.286687 0.012299
0.228489 0.291936 0.000000
0.248203 0.298833 0.000000
0.272282 0.307683 0.000000
0.300908 0.318364 0.000000
0.334478 0.330785 0.000000
0.372045 0.343999 0.000000
0.411414 0.355810 0.000000
0.455268 0.366705 0.000000
0.510643 0.382086 0.000000
0.560052 0.390021 0.000000
0.605402 0.393408 0.000000
0.648920 0.394141 0.000000
0.692164 0.393317 0.000000
0.737453 0.393011 0.000000
0.776120 0.388464 0.000000
0.811887 0.382208 0.000000
0.848417 0.375738 0.000000
0.884886 0.368872 0.000000
0.921233 0.361089 0.000000
0.956786 0.352178 0.000000
0.991730 0.342473 0.000000
1.000000 0.331853 0.000000
1.000000 0.320470 0.000000
1.000000 0.308202 0.000000
1.000000 0.295201 0.000000
0.195956 0.343084 0.000000
0.196567 0.342809 0.000000
0.199344 0.341741 0.000000
0.204044 0.340154 0.000000
0.211643 0.338018 0.000000
0.221805 0.335515 0.000000
0.234440 0.333074 0.000000
0.250004 0.335760 0.000000
0.269322 0.341375 0.000000
0.291875 0.348760 0.000000
0.318730 0.357580 0.000000
0.349645 0.367803 0.000000
0.383795 0.378515 0.000000
0.420447 0.389258 0.000000
0.457710 0.397650 0.000000
0.495033 0.402258 0.000000
0.544366 0.413184 0.000000
0.589654 0.418524 0.000000
0.632746 0.420905 0.000000
0.675196 0.421698 0.000000
0.719692 0.422675 0.000000
0.767971 0.424781 0.000000
0.815061 0.425147 0.000000
0.850675 0.419135 0.000000
0.886564 0.412970 0.000000
0.922301 0.406104 0.000000
0.957763 0.398749 0.000000
0.992798 0.390753 0.000000
1.000000 0.382238 0.000000
1.000000 0.373266 0.000000
1.000000 0.363867 0.000000
1.000000 0.354162 0.000000
0.214572 0.384344 0.000000
0.215396 0.384375 0.000000
0.217746 0.383978 0.000000
0.223056 0.382849 0.000000
0.231022 0.381231 0.000000
0.241520 0.379461 0.000000
0.254704 0.377783 0.000000
0.270298 0.378271 0.000000
0.288914 0.383032 0.000000
0.310521 0.388922 0.000000
0.335088 0.395544 0.000000
0.362585 0.402808 0.000000
0.392676 0.410407 0.000000
0.424750 0.417914 0.000000
0.459205 0.425238 0.000000
0.493111 0.430426 0.000000
0.525902 0.430854 0.000000
0.571008 0.438849 0.000000
0.614252 0.443275 0.000000
0.656580 0.445960 0.000000
0.700862 0.448798 0.000000
0.749020 0.452979 0.000000
0.799130 0.457069 0.000000
0.849546 0.459998 0.000000
0.891020 0.457496 0.000000
0.926787 0.451667 0.000000
0.962036 0.445197 0.000000
0.996674 0.438361 0.000000
1.000000 0.430762 0.000000
1.000000 0.423011 0.000000
1.000000 0.414679 0.000000
1.000000 0.406165 0.000000
0.232059 0.418891 0.000000
0.232547 0.418799 0.000000
0.235142 0.418402 0.000000
0.240269 0.417426 0.000000
0.247288 0.416419 0.000000
0.257877 0.414832 0.000000
0.270542 0.413275 0.000000
0.285527 0.411536 0.000000
0.302678 0.415045 0.000000
0.322210 0.419654 0.000000
0.344884 0.424994 0.000000
0.370062 0.430823 0.000000
0.397559 0.437171 0.000000
0.427131 0.443397 0.000000
0.458503 0.449561 0.000000
0.491585 0.455482 0.000000
0.524285 0.459266 0.000000
0.554101 0.457282 0.000000
0.596551 0.463661 0.000000
0.638819 0.468147 0.000000
0.682795 0.472602 0.000000
0.730495 0.478614 0.000000
0.780850 0.485023 0.000000
0.831937 0.490394 0.000000
0.882506 0.494514 0.000000
0.931029 0.496620 0.000000
0.966033 0.490944 0.000000
1.000000 0.484871 0.000000
1.000000 0.478218 0.000000
1.000000 0.471229 0.000000
1.000000 0.463905 0.000000
1.000000 0.456397 0.000000
0.251102 0.451423 0.000000
0.251469 0.451698 0.000000
0.266361 0.469520 0.000000
0.270909 0.468879 0.000000
0.277806 0.467811 0.000000
0.287510 0.466194 0.000000
0.299382 0.464363 0.000000
0.313451 0.462287 0.000000
0.329473 0.462745 0.000000
0.347875 0.466285 0.000000
0.368658 0.470344 0.000000
0.391730 0.474830 0.000000
0.416693 0.479316 0.000000
0.443519 0.483680 0.000000
0.472145 0.487861 0.000000
0.502190 0.491951 0.000000
0.533837 0.495644 0.000000
0.564782 0.497353 0.000000
0.591516 0.492348 0.000000
0.631769 0.497047 0.000000
0.675624 0.502739 0.000000
0.723690 0.510460 0.000000
0.773861 0.518517 0.000000
0.824369 0.525444 0.000000
0.874113 0.530602 0.000000
0.922087 0.533898 0.000000
0.967620 0.535302 0.000000
1.000000 0.532036 0.000000
1.000000 0.525261 0.000000
1.000000 0.518364 0.000000
1.000000 0.511345 0.000000
1.000000 0.504082 0.000000
0.274418 0.485542 0.000000
0.276127 0.487160 0.000000
0.279820 0.488411 0.000000
0.284672 0.489357 0.000000
0.291875 0.489570 0.000000
0.300694 0.488685 0.000000
0.311589 0.487129 0.000000
0.324407 0.485115 0.000000
0.338811 0.483314 0.000000
0.355077 0.486152 0.000000
0.373785 0.489601 0.000000
0.394446 0.493416 0.000000
0.417151 0.497292 0.000000
0.441627 0.501244 0.000000
0.467933 0.505211 0.000000
0.495979 0.509117 0.000000
0.525475 0.512902 0.000000
0.556695 0.516960 0.000000
0.587610 0.519066 0.000000
0.614099 0.514336 0.000000
0.654810 0.520012 0.000000
0.702449 0.529473 0.000000
0.753170 0.539879 0.000000
0.804471 0.549218 0.000000
0.854917 0.556909 0.000000
0.904021 0.562554 0.000000
0.950774 0.566125 0.000000
0.994934 0.567834 0.000000
1.000000 0.568017 0.000000
1.000000 0.561883 0.000000
1.000000 0.555138 0.000000
1.000000 0.548302 0.000000
0.292393 0.508537 0.038911
0.294316 0.509972 0.046143
0.297490 0.511498 0.055909
0.302190 0.512535 0.063905
0.309087 0.512779 0.065553
0.316716 0.512230 0.064393
0.326360 0.510826 0.052552
0.337713 0.509026 0.044862
0.351019 0.506981 0.032898
0.365667 0.507652 0.005798
0.382208 0.510521 0.000000
0.400855 0.513878 0.000000
0.421424 0.517357 0.000000
0.443763 0.521050 0.000000
0.468086 0.524804 0.000000
0.493843 0.528618 0.000000
0.521416 0.532403 0.000000
0.550683 0.536339 0.000000
0.581842 0.540551 0.000000
0.612696 0.543023 0.000000
0.639155 0.538689 0.000000
0.681056 0.545861 0.000000
0.732448 0.558831 0.000000
0.784482 0.570703 0.000000
0.835935 0.580835 0.000000
0.886229 0.588922 0.000000
0.934142 0.594690 0.000000
0.979675 0.598352 0.000000
1.000000 0.600458 0.000000
1.000000 0.600702 0.000000
1.000000 0.597711 0.000000
1.000000 0.590692 0.052888
0.312535 0.531853 0.114839
0.314305 0.533288 0.118410
0.317205 0.534539 0.121157
0.321721 0.535424 0.123171
0.327306 0.535729 0.124056
0.334081 0.535149 0.123079
0.342626 0.533928 0.120058
0.352728 0.532403 0.117433
0.364782 0.530480 0.113649
0.378027 0.529168 0.107759
0.392859 0.531823 0.094240
0.409491 0.534874 0.064881
0.428168 0.538140 0.007385
0.448585 0.541588 0.000000
0.470832 0.545342 0.000000
0.494972 0.549310 0.000000
0.521172 0.553735 0.000000
0.549401 0.558587 0.000000
0.579797 0.563989 0.000000
0.612665 0.570092 0.000000
0.645716 0.574731 0.000000
0.675380 0.573205 0.000000
0.720699 0.583368 0.000000
0.776150 0.599725 0.000000
0.830472 0.613642 0.000000
0.883024 0.624811 0.000000
0.932677 0.633204 0.000000
0.979156 0.638941 0.000000
1.000000 0.642481 0.000000
1.000000 0.643732 0.000000
1.000000 0.642939 0.119265
1.000000 0.640253 0.187472
0.344030 0.565362 0.174624
0.344945 0.565942 0.175357
0.346746 0.566217 0.176242
0.349462 0.566094 0.175845
0.353704 0.565484 0.174868
0.359228 0.564355 0.173007
0.366155 0.562951 0.171023
0.374884 0.561273 0.167697
0.385351 0.559503 0.164187
0.397436 0.557610 0.161288
0.410773 0.559136 0.154665
0.425910 0.562097 0.145022
0.442481 0.565332 0.132631
0.461280 0.568902 0.116060
0.481697 0.572595 0.090730
0.504021 0.576623 0.013245
0.528344 0.581048 0.000000
0.554711 0.585901 0.000000
0.583337 0.591272 0.000000
0.614435 0.597253 0.000000
0.647608 0.603906 0.000000
0.681178 0.608820 0.000000
0.710780 0.607141 0.000000
0.754849 0.616022 0.000000
0.810513 0.632776 0.000000
0.864469 0.646754 0.000000
0.916075 0.657862 0.000000
0.964538 0.666072 0.000000
1.000000 0.671565 0.000000
1.000000 0.674250 0.000000
1.000000 0.674342 0.110872
1.000000 0.672053 0.185153
0.367987 0.591699 0.211063
0.368902 0.592187 0.211887
0.370489 0.592462 0.211917
0.373022 0.592432 0.212070
0.376806 0.591943 0.211307
0.381476 0.590997 0.209689
0.387762 0.589593 0.207584
0.395392 0.588159 0.205539
0.404700 0.586511 0.202792
0.415625 0.584741 0.200107
0.427710 0.584314 0.195865
0.441444 0.587427 0.189059
0.456855 0.590906 0.179995
0.474067 0.594812 0.169345
0.493202 0.599023 0.155093
0.514244 0.603632 0.137453
0.537438 0.608759 0.112703
0.562737 0.614405 0.052125
0.590265 0.620508 0.000000
0.620142 0.627131 0.000000
0.652369 0.634302 0.000000
0.686915 0.641901 0.000000
0.721126 0.647364 0.000000
0.751308 0.645838 0.000000
0.786801 0.646845 0.000000
0.842649 0.663844 0.000000
0.896361 0.677974 0.000000
0.946899 0.688777 0.000000
0.993530 0.696498 0.000000
1.000000 0.701106 0.000000
1.000000 0.702663 0.059449
1.000000 0.701381 0.173556
0.400488 0.629847 0.254154
0.401831 0.631037 0.255711
0.403174 0.631342 0.256107
0.405005 0.630793 0.255131
0.407477 0.629480 0.253666
0.411017 0.627527 0.251255
0.415503 0.625086 0.248081
0.421363 0.622492 0.244755
0.428779 0.619715 0.241154
0.437781 0.616999 0.237583
0.447913 0.614008 0.233127
0.459846 0.615900 0.226688
0.473243 0.618799 0.218143
0.488533 0.622004 0.208530
0.505425 0.625483 0.195895
0.524285 0.629328 0.181735
0.545312 0.633753 0.163729
0.568627 0.638941 0.140597
0.594385 0.645014 0.108370
0.622827 0.652033 0.012604
0.653651 0.659602 0.000000
0.686641 0.667353 0.000000
0.721401 0.675044 0.000000
0.755215 0.679866 0.000000
0.783871 0.676844 0.000000
0.824826 0.682856 0.000000
0.879362 0.698695 0.000000
0.930999 0.711360 0.000000
0.979004 0.720760 0.000000
1.000000 0.726772 0.000000
1.000000 0.729458 0.000000
1.000000 0.728939 0.152041
0.423499 0.661433 0.280705
0.424750 0.662562 0.281712
0.426337 0.663172 0.282444
0.428290 0.663020 0.282078
0.431067 0.662318 0.281529
0.434882 0.661219 0.280064
0.439826 0.659907 0.278294
0.446265 0.658350 0.276463
0.454017 0.656794 0.274632
0.463172 0.655085 0.272374
0.473487 0.653071 0.269749
0.484901 0.653223 0.265751
0.497719 0.656428 0.259098
0.512139 0.659785 0.251499
0.527947 0.663233 0.241672
0.545434 0.666987 0.230106
0.565057 0.671168 0.216556
0.586725 0.676081 0.200961
0.610986 0.681971 0.181613
0.637842 0.688716 0.158480
0.667048 0.696132 0.125277
0.698543 0.703944 0.036347
0.732052 0.711849 0.000000
0.767514 0.719570 0.000000
0.801755 0.724361 0.000000
0.830503 0.720882 0.000000
0.871611 0.726436 0.000000
0.923339 0.739742 0.000000
0.972808 0.751003 0.000000
1.000000 0.758083 0.000000
1.000000 0.761166 0.000000
1.000000 0.760525 0.154788
0.453437 0.703944 0.313359
0.454139 0.704616 0.314031
0.455268 0.704799 0.314061
0.456947 0.704494 0.313695
0.459510 0.703670 0.312840
0.463020 0.702510 0.311589
0.467628 0.701137 0.310094
0.473640 0.699519 0.308293
0.480873 0.697841 0.306249
0.489448 0.696223 0.304540
0.499275 0.694301 0.302037
0.510277 0.692348 0.299443
0.522484 0.695521 0.293950
0.536004 0.698817 0.287297
0.550958 0.702113 0.279393
0.567437 0.705623 0.269596
0.585779 0.709560 0.258824
0.606317 0.714168 0.246464
0.629297 0.719753 0.231693
0.654627 0.726314 0.215488
0.682399 0.733516 0.195499
0.712154 0.740993 0.169497
0.743832 0.748379 0.130220
0.777340 0.755612 0.006012
0.812406 0.762539 0.000000
0.846036 0.766201 0.000000
0.873533 0.761379 0.000000
0.913207 0.765286 0.000000
0.961059 0.775082 0.000000
1.000000 0.783993 0.000000
1.000000 0.788174 0.000000
1.000000 0.788083 0.129183
0.481544 0.746914 0.342412
0.482216 0.747433 0.342779
0.483467 0.747799 0.342992
0.485298 0.747829 0.343114
0.488167 0.747768 0.342992
0.492439 0.747799 0.342565
0.498421 0.748440 0.343023
0.505974 0.749386 0.343572
0.515129 0.750698 0.344182
0.525902 0.752193 0.345006
0.538170 0.753780 0.345769
0.551293 0.755032 0.346258
0.565301 0.758511 0.344701
0.580133 0.763699 0.341100
0.595911 0.768399 0.335821
0.612726 0.772457 0.328985
0.630671 0.776455 0.320958
0.650660 0.780880 0.311467
0.672755 0.786099 0.301030
0.697139 0.792020 0.289677
0.723598 0.798428 0.276646
0.752010 0.804990 0.260838
0.781979 0.811276 0.240970
0.813535 0.817380 0.215702
0.846555 0.822995 0.181277
0.881132 0.828275 0.127077
0.914031 0.830289 0.000000
0.939300 0.822751 0.000000
0.975525 0.822904 0.000000
1.000000 0.825406 0.000000
1.000000 0.827665 0.000000
1.000000 0.825162 0.175387
0.526635 0.813870 0.389807
0.526848 0.813901 0.389807
0.527642 0.813626 0.389593
0.529046 0.813138 0.388983
0.531487 0.812467 0.388434
0.535058 0.811734 0.387579
0.539849 0.811063 0.386847
0.546075 0.810483 0.385931
0.553704 0.810056 0.385412
0.562829 0.809659 0.384527
0.573297 0.809323 0.383795
0.585046 0.809018 0.382940
0.597833 0.809018 0.381537
