20 Preset/Human Style/【3】LUT video cho PR-AE-FCPX/Joe-Allam (2)/JA – Harsh Shade 2 (Classic Chrome).cube
# Created by Adobe Lightroom plugin Export LUT (1.24.0)
# www.johnrellis.com/lightroom/exportlut.htm
# Preset: JA – Harsh Shade 2 (Classic Chrome)
# Color profile: E:\lut插件\exportlut.1.24\exportlut.lrplugin\color profiles\Rec709gamma2.4.icc
LUT_3D_SIZE 5
DOMAIN_MIN 0.000000 0.000000 0.000000
DOMAIN_MAX 0.903226 0.903226 0.903226
0.033082 0.039002 0.061769
0.112276 0.028412 0.054902
0.527031 0.000000 0.000000
0.793668 0.134859 0.192477
1.000000 0.377722 0.383673
0.000000 0.128267 0.032868
0.169986 0.157046 0.014252
0.573632 0.244968 0.000000
0.818814 0.293797 0.234989
1.000000 0.440589 0.412573
0.000000 0.512200 0.000000
0.197696 0.512352 0.000000
0.613794 0.581720 0.224735
0.891295 0.605432 0.389746
1.000000 0.606867 0.494972
0.218265 0.746029 0.322393
0.322545 0.749020 0.329961
0.570550 0.774990 0.383734
0.868162 0.827359 0.501610
1.000000 0.800137 0.621302
0.435859 0.937102 0.541314
0.476936 0.936919 0.545830
0.598322 0.930266 0.548455
0.803830 0.936095 0.629938
0.973327 0.937346 0.720760
0.000000 0.038422 0.141115
0.105165 0.017762 0.134890
0.475013 0.000000 0.216709
0.727657 0.187839 0.295567
0.960784 0.378332 0.419776
0.000000 0.142885 0.176913
0.138857 0.152712 0.188693
0.523522 0.202060 0.240818
0.754421 0.315190 0.326909
0.973449 0.433783 0.443000
0.000000 0.505119 0.243473
0.146578 0.506889 0.251499
0.575006 0.554925 0.333379
0.854704 0.595727 0.458015
1.000000 0.609216 0.534539
0.215793 0.741665 0.390417
0.318578 0.745663 0.397436
0.558526 0.768124 0.437018
0.858366 0.824277 0.549493
1.000000 0.806119 0.658900
0.432349 0.935912 0.567224
0.473396 0.935546 0.571008
0.610101 0.935210 0.590478
0.807889 0.937865 0.662226
0.971283 0.939208 0.747311
0.000000 0.000000 0.475288
0.000000 0.000000 0.473548
0.453803 0.000000 0.458228
0.655390 0.088167 0.420264
0.895079 0.355932 0.518059
0.000000 0.205386 0.501457
0.000000 0.129610 0.503471
0.469886 0.168856 0.479774
0.658656 0.286687 0.448737
0.904540 0.410315 0.535424
0.000000 0.501305 0.515404
0.000000 0.505089 0.519463
0.497353 0.521447 0.537194
0.733272 0.549493 0.568963
0.953491 0.598962 0.621881
0.000000 0.723659 0.547265
0.216434 0.725978 0.547814
0.500908 0.746578 0.569116
0.825193 0.814328 0.679652
0.972625 0.824582 0.758785
0.386603 0.929290 0.642847
0.439918 0.929747 0.648310
0.594751 0.930358 0.667750
0.794705 0.932952 0.720272
0.959869 0.938170 0.802304
0.000000 0.000000 0.705318
0.000000 0.000000 0.704494
0.356573 0.000000 0.696223
0.641810 0.198520 0.670680
0.836545 0.280766 0.647120
0.000000 0.165133 0.717311
0.000000 0.137453 0.715969
0.355291 0.194125 0.703761
0.641993 0.300023 0.672877
0.834623 0.328801 0.647303
0.000000 0.461707 0.732601
0.000000 0.465980 0.734279
0.366155 0.476570 0.734585
0.665034 0.491585 0.701320
0.868101 0.476875 0.673121
0.000000 0.717678 0.735897
0.000000 0.718166 0.736263
0.338689 0.727993 0.744961
0.730007 0.755520 0.769863
0.926574 0.784268 0.797604
0.000000 0.924926 0.744808
0.000000 0.925170 0.746639
0.487251 0.926757 0.761990
0.762295 0.928374 0.803830
0.946197 0.939818 0.878538
0.000000 0.013123 0.926665
0.000000 0.016876 0.925719
0.228122 0.179080 0.921386
0.642054 0.338933 0.909392
0.884062 0.400031 0.894408
0.000000 0.183505 0.928405
0.000000 0.198215 0.927276
0.226444 0.277836 0.921843
0.640528 0.380804 0.909880
0.884245 0.427436 0.894987
0.000000 0.428748 0.932403
0.000000 0.434821 0.931579
0.103853 0.461952 0.927733
0.627070 0.497841 0.916136
0.889128 0.530175 0.900908
0.000000 0.682948 0.932769
0.000000 0.681178 0.932677
0.000000 0.672297 0.933806
0.601404 0.692195 0.930083
0.898131 0.720882 0.912566
0.000000 0.922454 0.927489
0.000000 0.922484 0.927459
0.000000 0.923278 0.928008
0.637049 0.924163 0.928557
0.921904 0.932128 0.936339
