20 Preset/Human Style/【3】LUT video cho PR-AE-FCPX/Joe-Allam (2)/JA – Cine Night 4 (Classic Chrome).cube
# Created by Adobe Lightroom plugin Export LUT (1.24.0)
# www.johnrellis.com/lightroom/exportlut.htm
# Preset: JA – Cine Night 4 (Classic Chrome)
# Color profile: E:\lut插件\exportlut.1.24\exportlut.lrplugin\color profiles\Rec709gamma2.4.icc
LUT_3D_SIZE 8
DOMAIN_MIN 0.000000 0.000000 0.000000
DOMAIN_MAX 0.903226 0.903226 0.903226
0.019745 0.000000 0.147036
0.021729 0.000000 0.147036
0.128481 0.036255 0.158236
0.236118 0.112367 0.166751
0.431464 0.190829 0.163180
0.693629 0.268620 0.138216
0.901793 0.330938 0.120668
1.000000 0.384924 0.160433
0.016144 0.007874 0.147280
0.041627 0.022858 0.147433
0.132357 0.082429 0.156039
0.241978 0.138521 0.163210
0.440345 0.214786 0.157198
0.700679 0.285374 0.134096
0.903380 0.341436 0.124849
1.000000 0.393378 0.165225
0.000000 0.157900 0.169650
0.000000 0.162722 0.166384
0.112612 0.169711 0.170474
0.269993 0.225956 0.167483
0.486275 0.286015 0.159731
0.737118 0.340429 0.143893
0.920165 0.386725 0.146334
1.000000 0.431983 0.190707
0.000000 0.320439 0.199283
0.000000 0.324041 0.194644
0.000000 0.336675 0.181491
0.277623 0.344213 0.196231
0.563165 0.400763 0.185916
0.795651 0.439246 0.176333
0.942748 0.469245 0.192966
1.000000 0.503380 0.239933
0.000000 0.509850 0.239536
0.000000 0.511894 0.232670
0.000000 0.519158 0.216190
0.347784 0.525231 0.204654
0.590723 0.530236 0.232212
0.820981 0.573022 0.235904
0.961181 0.586267 0.269200
1.000000 0.605921 0.321416
0.000000 0.704707 0.302220
0.000000 0.706142 0.296086
0.000000 0.707942 0.281193
0.345098 0.709682 0.249058
0.621241 0.707881 0.265476
0.812284 0.711330 0.318822
0.947814 0.716396 0.374273
1.000000 0.727840 0.447547
0.000000 0.831937 0.447425
0.000000 0.831846 0.447089
0.243381 0.831815 0.436103
0.436622 0.831235 0.412634
0.619043 0.828977 0.381567
0.797574 0.824552 0.439948
0.931884 0.826078 0.513054
1.000000 0.829923 0.579034
0.589014 0.913512 0.640162
0.598932 0.913329 0.641352
0.621118 0.913573 0.636255
0.663264 0.914122 0.624353
0.726864 0.913817 0.601312
0.828305 0.911711 0.604669
0.933410 0.908324 0.654108
1.000000 0.907622 0.702907
0.018616 0.000000 0.150637
0.029938 0.000000 0.151064
0.128054 0.050507 0.160769
0.235599 0.129030 0.172549
0.433143 0.202335 0.172702
0.693172 0.270603 0.161501
0.898833 0.329900 0.156222
1.000000 0.385382 0.188968
0.000000 0.030610 0.160891
0.024933 0.048585 0.163729
0.126406 0.097292 0.170199
0.241855 0.148989 0.175814
0.442664 0.219120 0.174655
0.701106 0.284306 0.163302
0.901579 0.340581 0.159792
1.000000 0.394049 0.193362
0.000000 0.161898 0.191867
0.000000 0.168063 0.188571
0.108553 0.176913 0.189029
0.268467 0.227634 0.189151
0.486275 0.285618 0.183993
0.734768 0.338842 0.173617
0.916808 0.385443 0.178286
1.000000 0.432288 0.215396
0.000000 0.322698 0.224369
0.000000 0.327123 0.215915
0.000000 0.340398 0.201022
0.279332 0.347143 0.214328
0.560510 0.399298 0.209232
0.790402 0.436896 0.203189
0.939086 0.468177 0.217929
1.000000 0.503899 0.260044
0.000000 0.511070 0.265873
0.000000 0.513634 0.255711
0.000000 0.520989 0.237919
0.344732 0.527031 0.223911
0.591028 0.531121 0.250401
0.819455 0.572351 0.256901
0.958587 0.586664 0.289616
1.000000 0.607721 0.338750
0.000000 0.704494 0.324804
0.000000 0.705653 0.317876
0.000000 0.707942 0.301549
0.340185 0.709865 0.271519
0.620142 0.708217 0.283543
0.811948 0.711788 0.336156
0.946410 0.717128 0.390753
1.000000 0.729793 0.462104
0.000000 0.831174 0.460243
0.000000 0.830930 0.459998
0.267613 0.830716 0.451057
0.444251 0.830411 0.428992
0.619562 0.828672 0.395239
0.797665 0.824338 0.452430
0.930785 0.825864 0.523705
1.000000 0.830228 0.586969
0.589715 0.913146 0.644343
0.600183 0.912993 0.645808
0.626307 0.912993 0.643275
0.667262 0.913573 0.631769
0.731044 0.913848 0.611353
0.829252 0.911772 0.611505
0.933440 0.908324 0.659113
1.000000 0.907683 0.706813
0.000000 0.064607 0.204410
0.000000 0.040375 0.205814
0.104067 0.069245 0.210208
0.238590 0.104128 0.227085
0.440070 0.192325 0.232792
0.697719 0.262150 0.238743
0.899535 0.327337 0.246525
1.000000 0.391119 0.272801
0.000000 0.107027 0.211795
0.000000 0.107027 0.215305
0.105562 0.106813 0.219577
0.246006 0.131685 0.229526
0.448188 0.213870 0.238468
0.704341 0.278416 0.243320
0.902068 0.338659 0.249668
1.000000 0.400336 0.276432
0.000000 0.180606 0.238315
0.000000 0.184085 0.240085
0.084657 0.197482 0.246952
0.263798 0.236484 0.252506
0.489021 0.286625 0.255711
0.735775 0.336400 0.256352
0.915618 0.386145 0.265080
1.000000 0.440070 0.294774
0.000000 0.331823 0.288029
0.000000 0.336400 0.287602
0.000000 0.352422 0.276860
0.294072 0.362371 0.277531
0.573083 0.403540 0.284520
0.787869 0.437568 0.286107
0.935943 0.472847 0.300237
1.000000 0.514977 0.335241
0.000000 0.518547 0.343786
0.000000 0.521019 0.340002
0.000000 0.531456 0.316808
0.333776 0.540398 0.291142
0.603937 0.542443 0.317815
0.821622 0.577142 0.334783
0.952178 0.594476 0.366186
1.000000 0.621393 0.408911
0.000000 0.707759 0.402960
0.000000 0.708736 0.399512
0.000000 0.712367 0.381994
0.340337 0.714626 0.355230
0.620325 0.713283 0.353491
0.812558 0.715938 0.404028
0.942199 0.723323 0.456672
1.000000 0.741054 0.522423
0.158511 0.830900 0.512535
0.221805 0.830625 0.512718
0.367224 0.829557 0.514336
0.489143 0.829740 0.496498
0.632380 0.829099 0.462593
0.801144 0.825498 0.504997
0.929015 0.827787 0.569451
1.000000 0.834531 0.623560
0.598840 0.913146 0.665095
0.608362 0.912902 0.666194
0.645441 0.912108 0.670436
0.686000 0.912627 0.662745
0.743587 0.913115 0.645075
0.831846 0.911894 0.636439
0.933837 0.908782 0.679347
1.000000 0.908263 0.723110
0.000000 0.135988 0.281834
0.000000 0.127077 0.284855
0.007446 0.115023 0.291966
0.218051 0.128664 0.299413
0.427314 0.154726 0.334508
0.700526 0.131502 0.317205
0.892638 0.321782 0.346685
1.000000 0.409094 0.379553
0.000000 0.165621 0.291478
0.000000 0.163088 0.295171
0.000000 0.142580 0.301701
0.226383 0.153597 0.307500
0.438361 0.180545 0.337926
0.708095 0.177462 0.319432
0.895384 0.337346 0.352270
1.000000 0.420691 0.385077
0.000000 0.241459 0.315953
0.000000 0.243748 0.318212
0.000000 0.246647 0.328313
0.252842 0.241154 0.334051
0.483772 0.266941 0.349187
0.727230 0.337407 0.358923
0.907225 0.397223 0.376226
1.000000 0.466072 0.406317
0.000000 0.358862 0.360754
0.000000 0.361151 0.362280
0.000000 0.370123 0.368933
0.309606 0.382269 0.379706
0.559228 0.410376 0.388006
0.774044 0.445594 0.397711
0.922789 0.490242 0.414557
1.000000 0.543786 0.445533
0.000000 0.529656 0.438727
0.000000 0.531884 0.439185
0.000000 0.540978 0.438911
0.332097 0.555108 0.423651
0.619165 0.559564 0.428412
0.819547 0.590509 0.456641
0.935912 0.614771 0.480049
1.000000 0.649287 0.514000
0.000000 0.713191 0.509972
0.000000 0.714382 0.509422
0.000000 0.716793 0.504509
0.406653 0.720424 0.491615
0.623865 0.721798 0.465003
0.812253 0.723384 0.511955
0.933104 0.736751 0.560052
1.000000 0.759670 0.608576
0.325170 0.830472 0.590082
0.353460 0.830320 0.590936
0.446571 0.829496 0.593866
0.570489 0.828122 0.599023
0.667445 0.829191 0.574060
0.807065 0.827695 0.585473
0.926085 0.831022 0.635065
1.000000 0.841123 0.676204
0.608453 0.913725 0.699702
0.617700 0.913542 0.700587
0.653468 0.912810 0.704189
0.711574 0.911772 0.709407
0.761837 0.912444 0.696407
0.832914 0.912413 0.674617
0.933684 0.909636 0.711238
1.000000 0.909331 0.750149
0.000000 0.218235 0.387152
0.000000 0.212985 0.390570
0.000000 0.175875 0.397436
0.225406 0.169924 0.405035
0.415106 0.183017 0.413977
0.655970 0.206058 0.463233
0.881834 0.237369 0.460151
1.000000 0.393133 0.475746
0.000000 0.244541 0.395636
0.000000 0.241215 0.398871
0.000000 0.201480 0.406592
0.228702 0.194491 0.412848
0.426184 0.204959 0.420874
0.664576 0.228244 0.466865
0.885039 0.262425 0.462593
1.000000 0.419043 0.485573
0.000000 0.319615 0.417334
0.000000 0.319036 0.420203
0.000000 0.312261 0.432136
0.237552 0.279026 0.440711
0.467475 0.282658 0.446845
0.696590 0.305974 0.480262
0.895903 0.349859 0.474311
0.995453 0.510246 0.525658
0.000000 0.416938 0.462074
0.000000 0.418158 0.463722
0.000000 0.422461 0.471046
0.308843 0.424201 0.487953
0.541741 0.407568 0.495094
0.749508 0.434394 0.509178
0.897612 0.515435 0.529168
0.995453 0.591974 0.565850
0.000000 0.551263 0.530053
0.000000 0.552514 0.531426
0.000000 0.557519 0.537316
0.397772 0.565698 0.547967
0.625147 0.575402 0.561639
0.790555 0.605859 0.573663
0.907652 0.641138 0.591302
1.000000 0.679988 0.615167
0.000000 0.714656 0.610010
0.115114 0.715480 0.611139
0.341405 0.718624 0.616480
0.506371 0.722133 0.619257
0.652522 0.725582 0.613214
0.807950 0.730617 0.624018
0.921935 0.752804 0.659205
1.000000 0.773373 0.680079
0.440253 0.829892 0.675319
0.454963 0.829740 0.675410
0.511528 0.829374 0.675929
0.606287 0.828855 0.678706
0.709651 0.828763 0.679622
0.807706 0.830198 0.662226
0.922881 0.834684 0.699062
1.000000 0.847959 0.730648
0.598535 0.914824 0.739590
0.608759 0.914580 0.740505
0.647028 0.913848 0.743740
0.709071 0.912932 0.749142
0.780728 0.911864 0.753536
0.839597 0.912505 0.736019
0.931151 0.910765 0.748562
1.000000 0.910552 0.783627
0.000000 0.317174 0.520012
0.000000 0.313909 0.523156
0.000000 0.274510 0.529198
0.161471 0.248569 0.536034
0.453285 0.218112 0.542077
0.654231 0.230991 0.554376
0.843290 0.287327 0.599420
0.983459 0.401801 0.603662
0.000000 0.336217 0.526268
0.000000 0.333165 0.529107
0.000000 0.301946 0.536156
0.158663 0.267979 0.542290
0.457954 0.238651 0.547753
0.660822 0.250278 0.559442
0.845060 0.305913 0.602167
0.983062 0.417426 0.606409
0.000000 0.398383 0.547936
0.000000 0.396735 0.550378
0.000000 0.387640 0.560876
0.155093 0.339208 0.568811
0.479286 0.313603 0.572656
0.689601 0.322118 0.582269
0.853544 0.377844 0.615625
0.982116 0.481056 0.619898
0.000000 0.484047 0.585534
0.000000 0.484321 0.586725
0.000000 0.485359 0.592035
0.319860 0.477852 0.609277
0.523613 0.437079 0.615686
0.733547 0.443488 0.621973
0.870054 0.498054 0.638361
0.979126 0.583062 0.648524
0.000000 0.593744 0.638270
0.000000 0.594232 0.639033
0.121614 0.596277 0.642756
0.419043 0.600824 0.649256
0.617884 0.607660 0.661219
0.768643 0.598505 0.665919
0.881254 0.636927 0.672419
0.976349 0.694209 0.691402
0.177279 0.720424 0.691707
0.234897 0.720882 0.692439
0.372473 0.722286 0.694850
0.529320 0.725093 0.699336
0.678706 0.729854 0.706294
0.803433 0.738155 0.716518
0.901793 0.758114 0.725948
0.992096 0.780392 0.738064
0.513695 0.827054 0.745693
0.527886 0.827207 0.746548
0.580407 0.827848 0.749691
0.661982 0.829831 0.756100
0.741665 0.832609 0.760128
0.817807 0.834379 0.753689
0.920500 0.839750 0.762661
1.000000 0.856748 0.789334
0.652399 0.914061 0.803159
0.657588 0.914031 0.803067
0.678981 0.914000 0.802884
0.717952 0.914122 0.802121
0.777859 0.913848 0.801877
0.856138 0.912566 0.804929
0.925719 0.912413 0.792569
1.000000 0.912322 0.825711
0.000000 0.422309 0.680385
0.000000 0.419654 0.681971
0.000000 0.394568 0.685817
0.000000 0.345678 0.689937
0.447669 0.321569 0.691249
0.678126 0.273777 0.692226
0.847715 0.321477 0.701991
0.955962 0.431952 0.714992
0.000000 0.435492 0.683772
0.000000 0.433021 0.685298
0.000000 0.412818 0.689570
0.000000 0.360876 0.693751
0.450660 0.337255 0.694789
0.680690 0.290867 0.695399
0.849821 0.338415 0.704677
0.955566 0.445991 0.716945
0.000000 0.481270 0.694606
0.000000 0.479408 0.695827
0.000000 0.471778 0.701137
0.113222 0.425238 0.706813
0.466957 0.397192 0.707759
0.689754 0.359380 0.707729
0.856992 0.402960 0.714870
0.953491 0.500542 0.725002
0.000000 0.554009 0.710292
0.000000 0.553246 0.711116
0.000000 0.549889 0.715358
0.385290 0.544335 0.723476
0.515618 0.500816 0.727901
0.707485 0.473579 0.727077
0.864286 0.511131 0.731136
0.949096 0.588312 0.740658
0.000000 0.640497 0.737881
0.059022 0.640681 0.738033
0.296117 0.641505 0.738705
0.464057 0.643610 0.739467
0.630854 0.649744 0.747097
0.735714 0.617243 0.749050
0.868925 0.635889 0.751278
0.951812 0.680629 0.761746
0.360174 0.739040 0.768429
0.381201 0.739315 0.768551
0.455299 0.740200 0.769162
0.562982 0.742092 0.770047
0.678584 0.745724 0.771481
0.789029 0.751278 0.777554
0.882170 0.745418 0.780575
0.970520 0.767971 0.789090
0.537865 0.828916 0.803281
0.548333 0.829007 0.803525
0.589624 0.829313 0.804562
0.657649 0.830289 0.806821
0.738918 0.832425 0.810788
0.825467 0.836454 0.817014
0.915099 0.843229 0.826474
0.993805 0.858274 0.835386
0.668421 0.911223 0.850645
0.674464 0.911254 0.850980
0.699580 0.911559 0.852354
0.745113 0.912230 0.855314
0.807736 0.913451 0.860288
0.873533 0.914427 0.864256
0.934997 0.913542 0.862150
1.000000 0.914580 0.872007
0.000000 0.542229 0.811276
0.014923 0.541802 0.811704
0.235111 0.530785 0.813199
0.309453 0.490944 0.815976
0.504204 0.470069 0.815976
0.680354 0.445258 0.814908
0.841398 0.424079 0.813596
0.965209 0.503655 0.815702
0.000000 0.551568 0.812131
0.137819 0.551202 0.812528
0.281346 0.544305 0.814054
0.340917 0.505577 0.816770
0.511742 0.481880 0.817014
0.683101 0.457588 0.815915
0.842313 0.435828 0.814511
0.964813 0.514549 0.816526
0.213504 0.586023 0.815305
0.251774 0.585962 0.815610
0.365270 0.586023 0.817014
0.440589 0.562829 0.819608
0.542596 0.528832 0.820981
0.694667 0.506645 0.819852
0.845487 0.482368 0.818143
0.963226 0.556085 0.819791
0.317082 0.641840 0.820676
0.341558 0.641932 0.820951
0.425696 0.643061 0.822080
0.545647 0.647059 0.824338
0.598047 0.609918 0.827726
0.717220 0.590845 0.826627
0.850431 0.560296 0.824582
0.960998 0.621607 0.826291
0.400397 0.708156 0.832212
0.415106 0.708186 0.832029
0.469917 0.708339 0.831235
0.572015 0.712032 0.831540
0.685756 0.717189 0.835203
0.746029 0.684993 0.837156
0.854826 0.660029 0.834928
0.961334 0.692317 0.837186
0.512016 0.783688 0.852079
0.521355 0.783719 0.851957
0.558068 0.783536 0.851499
0.619776 0.783108 0.850492
0.695644 0.781460 0.848478
0.793027 0.782345 0.852293
0.863920 0.754513 0.852232
0.966796 0.764920 0.854246
0.607996 0.854032 0.875578
0.614160 0.854002 0.875578
0.639551 0.853849 0.875578
0.684382 0.853452 0.875639
0.744533 0.852598 0.875608
0.814786 0.850980 0.875120
0.898161 0.850065 0.877012
0.977722 0.843442 0.878508
0.692622 0.913237 0.898253
0.697261 0.913207 0.898344
0.716274 0.913115 0.898650
0.752071 0.912932 0.899351
0.803586 0.912810 0.900481
0.868650 0.912840 0.902281
0.939330 0.913481 0.905028
0.996399 0.916136 0.909758
