20 Preset/Human Style/【3】LUT video cho PR-AE-FCPX/Joe-Allam (2)/JA – Controlled Contrast 1 (Classic Chrome).cube
# Created by Adobe Lightroom plugin Export LUT (1.24.0)
# www.johnrellis.com/lightroom/exportlut.htm
# Preset: JA – Controlled Contrast 1 (Classic Chrome)
# Color profile: E:\lut插件\exportlut.1.24\exportlut.lrplugin\color profiles\Rec709gamma2.4.icc
LUT_3D_SIZE 32
DOMAIN_MIN 0.0 0.0 0.0
DOMAIN_MAX 1.0 1.0 1.0
0.109377 0.107362 0.107210
0.109377 0.107362 0.107210
0.109377 0.107362 0.107210
0.109377 0.107362 0.107210
0.113039 0.107240 0.107485
0.127108 0.107332 0.108827
0.141726 0.106996 0.110079
0.157870 0.106386 0.110964
0.176486 0.104768 0.111788
0.197604 0.104524 0.111604
0.223056 0.104128 0.111086
0.253819 0.103456 0.109743
0.290105 0.102327 0.107301
0.333593 0.101411 0.103578
0.384894 0.101320 0.097261
0.444709 0.102968 0.087343
0.510155 0.107332 0.059480
0.577966 0.115297 0.016815
0.644495 0.124636 0.000000
0.707759 0.135409 0.000000
0.768063 0.147738 0.000000
0.825376 0.160189 0.000000
0.878660 0.172793 0.000000
0.929198 0.185214 0.000000
0.977111 0.197360 0.000000
1.000000 0.208835 0.000000
1.000000 0.219516 0.000000
1.000000 0.228672 0.000000
1.000000 0.236667 0.000000
1.000000 0.243534 0.000000
1.000000 0.248997 0.000000
1.000000 0.254002 0.000000
0.109377 0.107362 0.107210
0.109377 0.107362 0.107210
0.109377 0.107362 0.107210
0.109377 0.107362 0.107210
0.113283 0.107546 0.107790
0.127779 0.107546 0.109102
0.143160 0.107088 0.110048
0.159518 0.106050 0.111269
0.178286 0.105013 0.111696
0.200290 0.104799 0.111788
0.226658 0.104677 0.110842
0.258335 0.103761 0.109407
0.295995 0.102632 0.106813
0.340490 0.102296 0.102388
0.393378 0.102602 0.095918
0.453651 0.104891 0.084077
0.519432 0.110201 0.053773
0.587304 0.118349 0.008698
0.654261 0.127779 0.000000
0.717556 0.138979 0.000000
0.778073 0.151125 0.000000
0.835355 0.163516 0.000000
0.888243 0.176333 0.000000
0.938231 0.189151 0.000000
0.985534 0.200839 0.000000
1.000000 0.212100 0.000000
1.000000 0.222507 0.000000
1.000000 0.231815 0.000000
1.000000 0.239384 0.000000
1.000000 0.246128 0.000000
1.000000 0.251530 0.000000
1.000000 0.255955 0.000000
0.109377 0.107362 0.107210
0.109377 0.107362 0.107210
0.109377 0.107362 0.107210
0.109377 0.107362 0.107210
0.115419 0.107271 0.107759
0.130068 0.107210 0.109102
0.145052 0.106752 0.110353
0.161166 0.106722 0.111116
0.179782 0.107332 0.111330
0.202029 0.107027 0.111421
0.228885 0.106966 0.110414
0.261021 0.106752 0.108858
0.299413 0.106477 0.106020
0.344854 0.106569 0.101320
0.398779 0.107942 0.094331
0.460151 0.111208 0.080934
0.526238 0.118074 0.045716
0.594141 0.126284 0.000519
0.660639 0.136172 0.000000
0.723323 0.146944 0.000000
0.783505 0.159121 0.000000
0.840024 0.171511 0.000000
0.892638 0.183139 0.000000
0.942504 0.195590 0.000000
0.989349 0.207187 0.000000
1.000000 0.217929 0.000000
1.000000 0.227756 0.000000
1.000000 0.236637 0.000000
1.000000 0.243992 0.000000
1.000000 0.250217 0.000000
1.000000 0.255344 0.000000
1.000000 0.259678 0.000000
0.109377 0.107362 0.107210
0.109377 0.107362 0.107210
0.109377 0.107362 0.107210
0.109377 0.107362 0.107210
0.118868 0.107820 0.108278
0.132174 0.108888 0.109133
0.145968 0.109895 0.109895
0.161563 0.110872 0.110872
0.180484 0.111055 0.111147
0.203037 0.111910 0.110719
0.230381 0.112276 0.109926
0.263279 0.112673 0.107881
0.302434 0.113466 0.104768
0.348882 0.114839 0.099611
0.404181 0.117952 0.091676
0.466529 0.123598 0.072908
0.534081 0.131319 0.034516
0.602899 0.141207 0.000000
0.669978 0.151644 0.000000
0.733547 0.162173 0.000000
0.794095 0.173953 0.000000
0.849943 0.185489 0.000000
0.901274 0.196719 0.000000
0.949523 0.208042 0.000000
0.994598 0.218662 0.000000
1.000000 0.228397 0.000000
1.000000 0.237491 0.000000
1.000000 0.245335 0.000000
1.000000 0.251774 0.000000
1.000000 0.257389 0.000000
1.000000 0.262089 0.000000
1.000000 0.266148 0.000000
0.108003 0.113527 0.107698
0.108003 0.113527 0.107698
0.107790 0.113863 0.107668
0.111513 0.114656 0.107454
0.118502 0.113832 0.109407
0.131655 0.115450 0.109529
0.145693 0.116060 0.110323
0.162081 0.116884 0.110658
0.181796 0.117769 0.110445
0.205173 0.118868 0.109926
0.233310 0.120027 0.108644
0.267277 0.121828 0.106172
0.307195 0.124392 0.102541
0.354620 0.127901 0.096529
0.409735 0.133333 0.087282
0.472175 0.140688 0.060578
0.538750 0.150149 0.020050
0.606958 0.160281 0.000000
0.673091 0.170138 0.000000
0.735897 0.181796 0.000000
0.796414 0.192630 0.000000
0.851987 0.203433 0.000000
0.902892 0.213626 0.000000
0.950927 0.223880 0.000000
0.995361 0.233768 0.000000
1.000000 0.242344 0.000000
1.000000 0.250431 0.000000
1.000000 0.257176 0.000000
1.000000 0.263371 0.000000
1.000000 0.268101 0.000000
1.000000 0.272251 0.000000
1.000000 0.275731 0.000000
0.104189 0.123384 0.107576
0.104799 0.123323 0.107576
0.107240 0.123659 0.107790
0.113100 0.123629 0.107698
0.121492 0.123018 0.108614
0.128878 0.122072 0.111452
0.143282 0.124300 0.111696
0.159945 0.124788 0.111116
0.179202 0.126253 0.110842
0.202548 0.128176 0.109865
0.230930 0.130526 0.108339
0.264530 0.133577 0.105653
0.304326 0.137697 0.101289
0.351202 0.143008 0.095186
0.406256 0.150515 0.083742
0.467964 0.159396 0.052399
0.533776 0.170199 0.010376
0.601678 0.181247 0.000000
0.667384 0.192142 0.000000
0.730831 0.202792 0.000000
0.791043 0.213657 0.000000
0.846860 0.223972 0.000000
0.849363 0.219608 0.000000
0.901884 0.229587 0.000000
0.951873 0.239170 0.000000
0.998291 0.248264 0.000000
1.000000 0.256474 0.000000
1.000000 0.263371 0.000000
1.000000 0.269657 0.000000
1.000000 0.274754 0.000000
1.000000 0.278874 0.000000
1.000000 0.282200 0.000000
0.106386 0.131014 0.107546
0.106966 0.130953 0.107546
0.109102 0.131044 0.107485
0.114076 0.131350 0.107332
0.121614 0.131350 0.107820
0.130251 0.130129 0.109804
0.137453 0.128939 0.113313
0.153048 0.131930 0.113008
0.171389 0.133639 0.111788
0.192508 0.134615 0.110475
0.217777 0.137911 0.108705
0.248264 0.141878 0.106477
0.284733 0.147097 0.102358
0.328222 0.153353 0.096376
0.379858 0.161898 0.087007
0.439857 0.172488 0.058625
0.505303 0.184115 0.016785
0.572900 0.196597 0.000000
0.639246 0.208255 0.000000
0.702358 0.219303 0.000000
0.761410 0.229526 0.000000
0.815763 0.238560 0.000000
0.865568 0.247074 0.000000
0.913176 0.254765 0.000000
0.959289 0.262760 0.000000
1.000000 0.270237 0.000000
1.000000 0.277195 0.000000
1.000000 0.283482 0.000000
1.000000 0.288731 0.000000
1.000000 0.292882 0.000000
1.000000 0.296178 0.000000
1.000000 0.298833 0.000000
0.109590 0.142550 0.106600
0.110170 0.142519 0.106600
0.113313 0.142489 0.106538
0.118013 0.142763 0.106386
0.125429 0.143191 0.106447
0.134188 0.142061 0.108492
0.143252 0.140780 0.111055
0.151095 0.139528 0.114473
0.169650 0.143984 0.114015
0.191348 0.147189 0.111940
0.216983 0.150515 0.108827
0.246281 0.153780 0.105379
0.283177 0.160342 0.100710
0.326665 0.169009 0.093721
0.378790 0.179538 0.080385
0.438788 0.191989 0.045930
0.504692 0.205661 0.001068
0.572839 0.219455 0.000000
0.639765 0.232609 0.000000
0.703151 0.244175 0.000000
0.762295 0.254643 0.000000
0.816953 0.263798 0.000000
0.867155 0.272129 0.000000
0.915068 0.279698 0.000000
0.961273 0.287083 0.000000
1.000000 0.293950 0.000000
1.000000 0.300084 0.000000
1.000000 0.305303 0.000000
1.000000 0.309758 0.000000
1.000000 0.313207 0.000000
1.000000 0.315587 0.000000
1.000000 0.317357 0.000000
0.115908 0.156649 0.104402
0.116243 0.156802 0.104341
0.118471 0.157046 0.104250
0.123323 0.157229 0.104433
0.130953 0.157961 0.104067
0.140383 0.157076 0.105715
0.150088 0.155825 0.108064
0.159701 0.154299 0.110994
0.168063 0.152773 0.115084
0.190158 0.159182 0.114443
0.216464 0.164675 0.110475
0.246830 0.170169 0.106050
0.281834 0.176181 0.099702
0.321660 0.182925 0.092073
0.373205 0.195346 0.074800
0.433173 0.209964 0.035462
0.498451 0.225437 0.000000
0.566979 0.240940 0.000000
0.634180 0.255283 0.000000
0.697932 0.267887 0.000000
0.757656 0.278965 0.000000
0.813199 0.288273 0.000000
0.864683 0.296635 0.000000
0.913390 0.304265 0.000000
0.960204 0.311559 0.000000
1.000000 0.318120 0.000000
1.000000 0.323888 0.000000
1.000000 0.328496 0.000000
1.000000 0.332097 0.000000
1.000000 0.334905 0.000000
1.000000 0.336431 0.000000
1.000000 0.337621 0.000000
0.122316 0.175296 0.100313
0.123598 0.175357 0.100252
0.125948 0.175692 0.100099
0.130617 0.176181 0.099825
0.138369 0.176913 0.099397
0.148470 0.176699 0.100923
0.159152 0.175662 0.103029
0.170535 0.174105 0.106142
0.181155 0.172488 0.109804
0.191226 0.170962 0.114473
0.218357 0.179843 0.112612
0.249973 0.188144 0.106538
0.286351 0.196780 0.098909
0.327581 0.205753 0.089113
0.374212 0.215732 0.063508
0.426581 0.226719 0.025574
0.490578 0.243717 0.000000
0.557366 0.260380 0.000000
0.624048 0.275822 0.000000
0.688258 0.289433 0.000000
0.749020 0.301610 0.000000
0.806973 0.312230 0.000000
0.861143 0.321477 0.000000
0.912474 0.329992 0.000000
0.960815 0.337621 0.000000
1.000000 0.344244 0.000000
1.000000 0.349828 0.000000
1.000000 0.353857 0.000000
1.000000 0.356634 0.000000
1.000000 0.358434 0.000000
1.000000 0.359228 0.000000
1.000000 0.359380 0.000000
0.132906 0.200778 0.091493
0.133608 0.200870 0.091402
0.135988 0.201266 0.091157
0.141421 0.201602 0.090852
0.149447 0.202518 0.090578
0.160128 0.202518 0.091402
0.171878 0.201205 0.093935
0.184146 0.199710 0.097017
0.196597 0.197665 0.100893
0.208164 0.195529 0.105623
0.220218 0.194034 0.111360
0.251987 0.205356 0.108309
0.289738 0.216770 0.098817
0.332403 0.228489 0.084901
0.380713 0.240970 0.049104
0.433082 0.253605 0.004700
0.487800 0.265202 0.000000
0.547295 0.278477 0.000000
0.613794 0.295567 0.000000
0.678553 0.310643 0.000000
0.740505 0.323919 0.000000
0.799374 0.335698 0.000000
0.854887 0.345830 0.000000
0.907378 0.354681 0.000000
0.956909 0.362585 0.000000
1.000000 0.369238 0.000000
1.000000 0.374731 0.000000
1.000000 0.378607 0.000000
1.000000 0.381048 0.000000
1.000000 0.382361 0.000000
1.000000 0.382452 0.000000
1.000000 0.382055 0.000000
0.145296 0.230961 0.065309
0.146029 0.230930 0.065309
0.149264 0.231174 0.064607
0.154482 0.231662 0.063416
0.163363 0.232517 0.062348
0.174319 0.232853 0.062806
0.186740 0.231632 0.069551
0.200443 0.229953 0.078523
0.214176 0.227878 0.085145
0.227665 0.225437 0.091585
0.240421 0.222538 0.097963
0.254612 0.221317 0.104738
0.270756 0.220218 0.104738
0.310887 0.233402 0.093233
0.356146 0.247410 0.066896
0.406470 0.261723 0.020752
0.459968 0.275639 0.000000
0.515007 0.288212 0.000000
0.569818 0.299077 0.000000
0.630304 0.312963 0.000000
0.693263 0.328344 0.000000
0.754788 0.342199 0.000000
0.815061 0.355200 0.000000
0.872099 0.366339 0.000000
0.926055 0.376287 0.000000
0.976532 0.384985 0.000000
1.000000 0.391913 0.000000
1.000000 0.397375 0.000000
1.000000 0.400855 0.000000
1.000000 0.402594 0.000000
1.000000 0.403113 0.000000
1.000000 0.402716 0.000000
0.155703 0.255192 0.032593
0.156374 0.255467 0.032136
0.159609 0.256260 0.030518
0.165438 0.257389 0.026947
0.174716 0.259251 0.022889
0.187045 0.261204 0.018097
0.200504 0.260655 0.022553
0.214878 0.259556 0.029847
0.229465 0.257603 0.040375
0.244022 0.254826 0.054200
0.257572 0.251377 0.072328
0.270146 0.247349 0.087007
0.284611 0.245243 0.096193
0.322972 0.259770 0.090028
0.370031 0.276371 0.048157
0.421210 0.292699 0.000000
0.475959 0.308721 0.000000
0.531823 0.323033 0.000000
0.587091 0.335119 0.000000
0.640375 0.344732 0.000000
0.691157 0.351904 0.000000
0.751461 0.365637 0.000000
0.812802 0.379736 0.000000
0.870573 0.391852 0.000000
0.925170 0.402380 0.000000
0.975891 0.411261 0.000000
1.000000 0.418280 0.000000
1.000000 0.423438 0.000000
1.000000 0.426764 0.000000
1.000000 0.428260 0.000000
1.000000 0.428290 0.000000
1.000000 0.427344 0.000000
0.173587 0.297826 0.000000
0.174044 0.298100 0.000000
0.177584 0.299046 0.000000
0.184085 0.300633 0.000000
0.194064 0.302800 0.000000
0.208255 0.305760 0.000000
0.223514 0.306310 0.000000
0.240085 0.305333 0.000000
0.257176 0.303563 0.000000
0.273991 0.301030 0.000000
0.289616 0.297246 0.000000
0.304356 0.292699 0.005280
0.318273 0.287694 0.031891
0.335973 0.286503 0.060151
0.381109 0.304479 0.037018
0.435828 0.324620 0.000000
0.491554 0.342596 0.000000
0.547784 0.358404 0.000000
0.603021 0.371466 0.000000
0.655879 0.381628 0.000000
0.706630 0.389502 0.000000
0.756435 0.396033 0.000000
0.806455 0.402106 0.000000
0.865263 0.415442 0.000000
0.920653 0.426856 0.000000
0.972137 0.436255 0.000000
1.000000 0.443580 0.000000
1.000000 0.448890 0.000000
1.000000 0.452338 0.000000
1.000000 0.453803 0.000000
1.000000 0.453437 0.000000
1.000000 0.452186 0.000000
0.194827 0.347051 0.000000
0.195651 0.347326 0.000000
0.199435 0.348363 0.000000
0.206424 0.350164 0.000000
0.217838 0.352789 0.000000
0.232486 0.356054 0.000000
0.250034 0.358373 0.000000
0.268315 0.357794 0.000000
0.287236 0.356268 0.000000
0.306554 0.353552 0.000000
0.325200 0.350103 0.000000
0.342443 0.345403 0.000000
0.358984 0.340246 0.000000
0.374762 0.335149 0.000000
0.396582 0.335119 0.000000
0.447333 0.355505 0.000000
0.506279 0.377050 0.000000
0.562921 0.394232 0.000000
0.617456 0.408026 0.000000
0.670130 0.418860 0.000000
0.720790 0.427375 0.000000
0.770657 0.434424 0.000000
0.818875 0.439948 0.000000
0.865263 0.443824 0.000000
0.914855 0.450324 0.000000
0.967132 0.460700 0.000000
1.000000 0.468513 0.000000
1.000000 0.474006 0.000000
1.000000 0.477363 0.000000
1.000000 0.478767 0.000000
1.000000 0.478187 0.000000
1.000000 0.476478 0.000000
0.221134 0.403296 0.000000
0.222171 0.403143 0.000000
0.225467 0.403754 0.000000
0.232914 0.404883 0.000000
0.244144 0.406806 0.000000
0.259190 0.409491 0.000000
0.277226 0.412116 0.000000
0.296300 0.411078 0.000000
0.316594 0.409400 0.000000
0.337407 0.406744 0.000000
0.358373 0.403723 0.000000
0.379522 0.400488 0.000000
0.400183 0.397009 0.000000
0.420111 0.392920 0.000000
0.440040 0.389441 0.000000
0.466407 0.390906 0.000000
0.520226 0.411933 0.000000
0.579522 0.432227 0.000000
0.633539 0.446387 0.000000
0.685115 0.457404 0.000000
0.735622 0.466499 0.000000
0.784512 0.473396 0.000000
0.831540 0.478767 0.000000
0.876738 0.482307 0.000000
0.920409 0.484779 0.000000
0.962127 0.485786 0.000000
1.000000 0.492226 0.000000
1.000000 0.498299 0.000000
1.000000 0.501884 0.000000
1.000000 0.503716 0.000000
1.000000 0.503197 0.000000
1.000000 0.501671 0.000000
0.250187 0.462257 0.000000
0.251041 0.462135 0.000000
0.254978 0.462776 0.000000
0.261631 0.463539 0.000000
0.272923 0.465034 0.000000
0.288304 0.467109 0.000000
0.306767 0.469306 0.000000
0.327764 0.469673 0.000000
0.349004 0.468208 0.000000
0.371527 0.466102 0.000000
0.394720 0.463416 0.000000
0.418097 0.460487 0.000000
0.441566 0.457252 0.000000
0.464485 0.453742 0.000000
0.486946 0.450294 0.000000
0.509545 0.447089 0.000000
0.537591 0.448188 0.000000
0.590509 0.466896 0.000000
0.647547 0.484321 0.000000
0.698878 0.496010 0.000000
0.749172 0.505547 0.000000
0.797208 0.512718 0.000000
0.843259 0.517937 0.000000
0.887602 0.521263 0.000000
0.930022 0.523308 0.000000
0.970092 0.523857 0.000000
1.000000 0.523003 0.000000
1.000000 0.522148 0.000000
1.000000 0.526299 0.000000
1.000000 0.528313 0.000000
1.000000 0.528038 0.000000
1.000000 0.526421 0.000000
0.277836 0.517235 0.000000
0.278996 0.517052 0.000000
0.271733 0.497353 0.000000
0.278294 0.497810 0.000000
0.289036 0.499184 0.000000
0.303593 0.501244 0.000000
0.322179 0.503563 0.000000
0.343145 0.505577 0.000000
0.364202 0.504417 0.000000
0.386877 0.502708 0.000000
0.410498 0.500511 0.000000
0.434699 0.498360 0.000000
0.459510 0.496284 0.000000
0.484901 0.494209 0.000000
0.510063 0.492287 0.000000
0.535241 0.490578 0.000000
0.560510 0.488808 0.000000
0.590753 0.490852 0.000000
0.642695 0.508721 0.000000
0.699306 0.525505 0.000000
0.750820 0.537072 0.000000
0.799588 0.545495 0.000000
0.845914 0.551568 0.000000
0.890593 0.555932 0.000000
0.933288 0.558648 0.000000
0.973571 0.559655 0.000000
1.000000 0.559045 0.000000
1.000000 0.557031 0.000000
1.000000 0.553552 0.000000
1.000000 0.552789 0.000000
1.000000 0.553002 0.000000
1.000000 0.551507 0.000000
0.302556 0.565057 0.000000
0.302617 0.563104 0.000000
0.304845 0.561425 0.000000
0.310521 0.560327 0.000000
0.320378 0.560143 0.000000
0.334447 0.561242 0.000000
0.352880 0.563226 0.000000
0.374456 0.565698 0.000000
0.396857 0.565576 0.000000
0.420691 0.564263 0.000000
0.445747 0.562646 0.000000
0.471656 0.560723 0.000000
0.498329 0.559014 0.000000
0.525505 0.557244 0.000000
0.553124 0.555596 0.000000
0.580285 0.553887 0.000000
0.607385 0.552239 0.000000
0.634211 0.550134 0.000000
0.664149 0.550378 0.000000
0.712947 0.565026 0.000000
0.765286 0.578088 0.000000
0.812619 0.586236 0.000000
0.857847 0.592096 0.000000
0.901396 0.596063 0.000000
0.942535 0.598322 0.000000
0.981323 0.598688 0.000000
1.000000 0.597436 0.000000
1.000000 0.594659 0.000000
1.000000 0.590539 0.000000
1.000000 0.585199 0.000000
1.000000 0.578668 0.000000
1.000000 0.577325 0.000000
0.333196 0.624048 0.000000
0.333227 0.622370 0.000000
0.335271 0.620356 0.000000
0.340826 0.619074 0.000000
0.350164 0.618494 0.000000
0.364172 0.619318 0.000000
0.382452 0.621057 0.000000
0.403906 0.623407 0.000000
0.427405 0.624567 0.000000
0.451789 0.623590 0.000000
0.477852 0.622400 0.000000
0.504814 0.620813 0.000000
0.532891 0.619471 0.000000
0.561364 0.617823 0.000000
0.590478 0.616297 0.000000
0.619287 0.614893 0.000000
0.648157 0.613275 0.000000
0.676814 0.611658 0.000000
0.705013 0.609674 0.000000
0.733822 0.607965 0.000000
0.777768 0.618494 0.000000
0.824735 0.627131 0.000000
0.868803 0.632746 0.000000
0.910704 0.636164 0.000000
0.950256 0.637720 0.000000
0.987579 0.637415 0.000000
1.000000 0.635645 0.000000
1.000000 0.632258 0.000000
1.000000 0.627527 0.000000
1.000000 0.621637 0.000000
1.000000 0.614588 0.000000
1.000000 0.606165 0.000000
0.362554 0.680537 0.000000
0.362280 0.679042 0.000000
0.364935 0.677455 0.000000
0.370397 0.676356 0.000000
0.379248 0.675868 0.000000
0.393133 0.676417 0.000000
0.410956 0.677821 0.000000
0.431739 0.679652 0.000000
0.455787 0.681758 0.000000
0.480415 0.680873 0.000000
0.506767 0.679927 0.000000
0.534417 0.678614 0.000000
0.563134 0.677302 0.000000
0.592706 0.675868 0.000000
0.622522 0.674403 0.000000
0.652338 0.672724 0.000000
0.681575 0.670680 0.000000
0.710628 0.668269 0.000000
0.738979 0.665522 0.000000
0.766171 0.662104 0.000000
0.791928 0.657160 0.000000
0.830106 0.663264 0.000000
0.871427 0.667475 0.000000
0.911284 0.670130 0.000000
0.949065 0.670954 0.000000
0.984985 0.670222 0.000000
1.000000 0.667903 0.000000
1.000000 0.664302 0.000000
1.000000 0.659388 0.000000
1.000000 0.653346 0.000000
1.000000 0.646418 0.000000
1.000000 0.638239 0.000000
0.384527 0.724117 0.000000
0.385016 0.723507 0.000000
0.387518 0.723171 0.000000
0.393683 0.723171 0.000000
0.403479 0.723629 0.000000
0.416632 0.724636 0.000000
0.433570 0.726131 0.000000
0.454200 0.727779 0.000000
0.477424 0.729580 0.000000
0.502342 0.729702 0.000000
0.528435 0.728695 0.000000
0.556085 0.727504 0.000000
0.584924 0.726345 0.000000
0.614649 0.725093 0.000000
0.645045 0.723842 0.000000
0.674952 0.722286 0.000000
0.705104 0.720668 0.000000
0.735439 0.718929 0.000000
0.765347 0.716915 0.000000
0.794888 0.714595 0.000000
0.822354 0.711147 0.000000
0.847471 0.705562 0.000000
0.881559 0.709071 0.000000
0.918486 0.709926 0.000000
0.954772 0.710140 0.000000
0.989044 0.708736 0.000000
1.000000 0.705776 0.000000
1.000000 0.701503 0.000000
1.000000 0.696040 0.000000
1.000000 0.689906 0.000000
1.000000 0.682887 0.000000
1.000000 0.675044 0.000000
0.410101 0.774899 0.000000
0.410346 0.774411 0.000000
0.413214 0.774105 0.000000
0.419013 0.774044 0.000000
0.427985 0.774319 0.000000
0.440528 0.774990 0.000000
0.457252 0.776120 0.000000
0.476997 0.777340 0.000000
0.499306 0.778653 0.000000
0.524285 0.779599 0.000000
0.550164 0.778561 0.000000
0.577539 0.777493 0.000000
0.606378 0.776211 0.000000
0.635889 0.774960 0.000000
0.665431 0.773465 0.000000
0.695430 0.771908 0.000000
0.725948 0.770169 0.000000
0.756649 0.768185 0.000000
0.786984 0.766140 0.000000
0.817136 0.763790 0.000000
0.846586 0.761318 0.000000
0.873075 0.756619 0.000000
0.895781 0.749355 0.000000
0.924468 0.749538 0.000000
0.960540 0.750637 0.000000
0.992493 0.748135 0.000000
1.000000 0.744533 0.000000
1.000000 0.739742 0.000000
1.000000 0.734035 0.000000
1.000000 0.727657 0.000000
1.000000 0.720760 0.000000
1.000000 0.713466 0.081880
0.430121 0.816129 0.000000
0.430335 0.815396 0.000000
0.432990 0.815183 0.000000
0.438758 0.815396 0.000000
0.447639 0.816098 0.000000
0.459754 0.817136 0.000000
0.475715 0.818631 0.000000
0.494972 0.820279 0.000000
0.517144 0.821927 0.000000
0.541741 0.823606 0.000000
0.567895 0.823697 0.000000
0.595331 0.823117 0.000000
0.622950 0.822416 0.000000
0.652094 0.821561 0.000000
0.681971 0.820706 0.000000
0.712703 0.819669 0.000000
0.744015 0.818387 0.000000
0.775143 0.816892 0.000000
0.806210 0.814817 0.000000
0.836698 0.812375 0.000000
0.866667 0.809689 0.000000
0.895872 0.806943 0.000000
0.921233 0.801633 0.000000
0.941375 0.792996 0.000000
0.964843 0.790890 0.133944
0.993011 0.785977 0.109773
1.000000 0.781491 0.108461
1.000000 0.776852 0.128695
1.000000 0.771420 0.156771
1.000000 0.765530 0.188998
1.000000 0.759152 0.223392
1.000000 0.752987 0.259861
0.451209 0.860166 0.000000
0.451240 0.859586 0.000000
0.454017 0.859251 0.000000
0.458869 0.859251 0.000000
0.467475 0.859464 0.000000
0.478462 0.859831 0.000000
0.493416 0.860441 0.000000
0.511650 0.861051 0.000000
0.531456 0.861692 0.000000
0.553704 0.862303 0.000000
0.578149 0.862577 0.000000
0.603876 0.861692 0.000000
0.631250 0.860716 0.000000
0.659937 0.859800 0.000000
0.689754 0.858885 0.000000
0.720394 0.857847 0.000000
0.751583 0.856626 0.000000
0.782925 0.855070 0.000000
0.814145 0.853208 0.000000
0.844999 0.850889 0.000000
0.875273 0.848325 0.000000
0.904906 0.845640 0.000000
0.933501 0.843015 0.000000
0.957183 0.837034 0.000000
0.974212 0.827024 0.000000
0.992187 0.823087 0.265415
1.000000 0.816159 0.257053
1.000000 0.810208 0.261204
1.000000 0.805112 0.277653
1.000000 0.799771 0.299870
1.000000 0.794247 0.326421
1.000000 0.789273 0.357580
0.461616 0.895384 0.000000
0.462135 0.895140 0.000000
0.464363 0.895018 0.000000
0.469276 0.895079 0.000000
0.477119 0.895232 0.000000
0.487556 0.895445 0.000000
0.500908 0.895781 0.000000
0.517845 0.896239 0.000000
0.537072 0.896666 0.000000
0.558831 0.897093 0.000000
0.583001 0.897520 0.000000
0.608698 0.896971 0.000000
0.635828 0.895995 0.000000
0.664393 0.894957 0.000000
0.693996 0.893950 0.000000
0.724453 0.892790 0.000000
0.755581 0.891539 0.000000
0.786801 0.889952 0.000000
0.818204 0.888029 0.000000
0.849180 0.885771 0.000000
0.879728 0.883299 0.000000
0.909636 0.880674 0.000000
0.938537 0.878080 0.000000
0.966094 0.875608 0.000000
0.987640 0.869169 0.000000
1.000000 0.858762 0.251499
1.000000 0.853910 0.374792
1.000000 0.846036 0.372045
1.000000 0.839292 0.378241
1.000000 0.834592 0.397925
1.000000 0.829953 0.421820
1.000000 0.826047 0.450263
0.465614 0.927489 0.000000
0.466072 0.927337 0.000000
0.468360 0.927153 0.000000
0.473121 0.927062 0.000000
0.480415 0.926970 0.000000
0.490455 0.926787 0.000000
0.503410 0.926299 0.000000
0.519097 0.925750 0.000000
0.537560 0.925078 0.000000
0.558373 0.924376 0.000000
0.581323 0.923613 0.000000
0.606165 0.922850 0.000000
0.632410 0.921141 0.000000
0.660243 0.919463 0.000000
0.689143 0.917845 0.000000
0.719112 0.916411 0.000000
0.749630 0.914977 0.000000
0.780728 0.913298 0.000000
0.811826 0.911345 0.000000
0.842771 0.909117 0.000000
0.873259 0.906737 0.000000
0.903227 0.904234 0.000000
0.932433 0.901701 0.000000
0.960357 0.899260 0.000000
0.986481 0.896971 0.000000
1.000000 0.890196 0.211734
1.000000 0.879942 0.348211
1.000000 0.874968 0.450996
1.000000 0.867216 0.452522
1.000000 0.860472 0.459724
1.000000 0.856687 0.482582
1.000000 0.853971 0.510735
0.462562 0.949889 0.000000
0.463325 0.949859 0.000000
0.465492 0.949920 0.000000
0.470100 0.949950 0.000000
0.477668 0.949981 0.000000
0.487617 0.950011 0.000000
0.500450 0.949950 0.000000
0.515953 0.949798 0.000000
0.534386 0.949584 0.000000
0.555169 0.949340 0.000000
0.578149 0.949065 0.000000
0.602869 0.948730 0.000000
0.629511 0.948119 0.000000
