20 Preset/Human Style/【3】LUT video cho PR-AE-FCPX/Joe-Allam (2)/JA – Cine Night 4 (Classic Chrome).cube
# Created by Adobe Lightroom plugin Export LUT (1.24.0)
# www.johnrellis.com/lightroom/exportlut.htm
# Preset: JA – Cine Night 4 (Classic Chrome)
# Color profile: E:\lut插件\exportlut.1.24\exportlut.lrplugin\color profiles\Rec709gamma2.4.icc
LUT_3D_SIZE 32
DOMAIN_MIN 0.0 0.0 0.0
DOMAIN_MAX 1.0 1.0 1.0
0.019745 0.000000 0.147036
0.019745 0.000000 0.147036
0.019745 0.000000 0.147036
0.019745 0.000000 0.147036
0.021729 0.000000 0.147036
0.071351 0.000000 0.149691
0.096010 0.008057 0.152132
0.111330 0.022065 0.155245
0.128481 0.036255 0.158236
0.148867 0.053620 0.161318
0.173037 0.078920 0.163638
0.201968 0.096132 0.165438
0.236118 0.112367 0.166751
0.275639 0.130800 0.167147
0.321508 0.149996 0.167056
0.373388 0.169955 0.165805
0.431464 0.190829 0.163180
0.494270 0.211307 0.159152
0.560784 0.231205 0.153750
0.628046 0.249973 0.146731
0.693629 0.268620 0.138216
0.754665 0.286687 0.128817
0.809262 0.302281 0.122560
0.858701 0.316899 0.119692
0.901793 0.330938 0.120668
0.939422 0.344457 0.125399
0.972595 0.357733 0.134157
1.000000 0.371130 0.146059
1.000000 0.384924 0.160433
1.000000 0.399542 0.176944
1.000000 0.415229 0.194553
1.000000 0.432197 0.215000
0.019745 0.000000 0.147036
0.019745 0.000000 0.147036
0.019745 0.000000 0.147036
0.019745 0.000000 0.147036
0.023713 0.000000 0.147036
0.071351 0.000000 0.149691
0.096010 0.008057 0.152132
0.111116 0.023285 0.155215
0.128481 0.036255 0.158236
0.149081 0.054597 0.161288
0.173129 0.080262 0.163577
0.202060 0.096864 0.165377
0.235935 0.113375 0.166690
0.275486 0.131594 0.167086
0.321477 0.150820 0.166964
0.373022 0.170962 0.165499
0.431220 0.191379 0.163119
0.494057 0.211917 0.159060
0.560815 0.231754 0.153414
0.627802 0.250675 0.146334
0.693080 0.269139 0.137911
0.753841 0.286809 0.128695
0.808530 0.302434 0.122927
0.857939 0.317174 0.119783
0.900999 0.331029 0.120607
0.938720 0.344457 0.125643
0.972045 0.357763 0.134340
1.000000 0.371099 0.145815
1.000000 0.384924 0.160006
1.000000 0.399481 0.176577
1.000000 0.415167 0.194675
1.000000 0.432166 0.214969
0.019745 0.000000 0.147036
0.019745 0.000000 0.147036
0.019745 0.000000 0.147036
0.019745 0.000000 0.147036
0.027100 0.000000 0.147463
0.078218 0.000000 0.149844
0.096681 0.010010 0.152499
0.112154 0.022827 0.155428
0.129366 0.039185 0.158145
0.149325 0.062348 0.160922
0.174014 0.086183 0.163180
0.202731 0.101137 0.164920
0.236912 0.117281 0.166140
0.276555 0.135439 0.166659
0.322423 0.154788 0.166415
0.374304 0.174960 0.164828
0.432502 0.195285 0.162173
0.495613 0.215396 0.158175
0.561944 0.235019 0.152468
0.629145 0.253849 0.144991
0.694270 0.272282 0.136599
0.754543 0.289342 0.127962
0.809018 0.304387 0.122988
0.858213 0.319066 0.120119
0.901244 0.332738 0.121279
0.938720 0.346136 0.125490
0.971984 0.359106 0.134829
1.000000 0.372412 0.146487
1.000000 0.386206 0.160555
1.000000 0.400763 0.177035
1.000000 0.416266 0.195285
1.000000 0.433295 0.215091
0.019745 0.000000 0.147036
0.019745 0.000000 0.147036
0.019745 0.000000 0.147036
0.019745 0.000000 0.147036
0.038422 0.000000 0.147890
0.082979 0.000000 0.150423
0.098756 0.014923 0.152560
0.113375 0.034730 0.154940
0.130220 0.055665 0.157351
0.150881 0.079652 0.160098
0.175509 0.094759 0.162478
0.204471 0.109224 0.164096
0.238743 0.125948 0.164950
0.278752 0.143984 0.165286
0.324895 0.162844 0.164920
0.377111 0.182528 0.163302
0.435218 0.202792 0.160403
0.498054 0.222629 0.155978
0.564935 0.242161 0.149874
0.631678 0.260380 0.142611
0.696345 0.278202 0.133516
0.756130 0.293462 0.128450
0.809995 0.308080 0.123934
0.858915 0.322606 0.120882
0.901640 0.336004 0.122377
0.939239 0.349248 0.127291
0.972412 0.362310 0.136141
1.000000 0.375311 0.148348
1.000000 0.388922 0.162417
1.000000 0.403296 0.179019
1.000000 0.418830 0.196689
1.000000 0.435676 0.216831
0.016144 0.007874 0.147280
0.016144 0.007874 0.147280
0.014038 0.011475 0.147189
0.012177 0.017273 0.147250
0.041627 0.022858 0.147433
0.081300 0.035828 0.148867
0.098238 0.047791 0.150942
0.113893 0.064973 0.153384
0.132357 0.082429 0.156039
0.152987 0.094972 0.158541
0.177615 0.107576 0.160952
0.207340 0.121950 0.162570
0.241978 0.138521 0.163210
0.282261 0.156527 0.163455
0.328740 0.175631 0.162509
0.381659 0.195041 0.160555
0.440345 0.214786 0.157198
0.503716 0.233982 0.152529
0.570123 0.252689 0.145846
0.636500 0.269505 0.139742
0.700679 0.285374 0.134096
0.759548 0.300084 0.128908
0.812650 0.314366 0.124758
0.861112 0.328130 0.123079
0.903380 0.341436 0.124849
0.940490 0.354253 0.130312
0.973358 0.366949 0.139498
1.000000 0.379950 0.150668
1.000000 0.393378 0.165225
1.000000 0.407630 0.181460
1.000000 0.422827 0.199588
1.000000 0.439704 0.219455
0.000000 0.078279 0.146670
0.000000 0.079042 0.146639
0.000000 0.079774 0.146609
0.000000 0.083040 0.145571
0.025574 0.084749 0.145357
0.064546 0.084535 0.148013
0.096132 0.089845 0.149660
0.115328 0.094514 0.151186
0.134096 0.101839 0.153841
0.155612 0.112276 0.156405
0.180941 0.124514 0.158450
0.210941 0.139590 0.159945
0.246159 0.156100 0.160220
0.287663 0.173739 0.160067
0.335363 0.192660 0.158602
0.388464 0.211521 0.156344
0.447669 0.229862 0.153811
0.511559 0.247318 0.150301
0.577752 0.264073 0.145724
0.643824 0.279759 0.140261
0.706874 0.295018 0.135348
0.764736 0.309331 0.130434
0.822385 0.324498 0.126955
0.869200 0.337926 0.126009
0.910185 0.350713 0.128176
0.946166 0.363317 0.134340
0.978027 0.375402 0.144778
1.000000 0.388128 0.156710
1.000000 0.401190 0.171511
1.000000 0.415351 0.187442
1.000000 0.430518 0.205325
1.000000 0.447028 0.225223
0.000000 0.104952 0.150607
0.000000 0.104952 0.150179
0.000000 0.105715 0.150088
0.000000 0.107485 0.148623
0.001282 0.109621 0.147066
0.043824 0.109102 0.149081
0.085786 0.109377 0.152193
0.109682 0.117556 0.153872
0.133272 0.124575 0.155062
0.158419 0.134157 0.156191
0.185153 0.146670 0.157870
0.216739 0.161196 0.159182
0.253452 0.177340 0.159579
0.295933 0.193759 0.159823
0.344854 0.211185 0.158785
0.399207 0.228702 0.157290
0.459297 0.245914 0.154788
0.523186 0.262394 0.151400
0.589075 0.278141 0.147005
0.655116 0.293400 0.142061
0.717159 0.307988 0.136782
0.774075 0.321721 0.132601
0.825742 0.335149 0.129763
0.872099 0.347967 0.129671
0.912505 0.360296 0.133120
0.947906 0.372503 0.139284
0.979400 0.384192 0.149538
1.000000 0.396429 0.161654
1.000000 0.409491 0.175998
1.000000 0.423072 0.192111
1.000000 0.437934 0.210391
1.000000 0.454261 0.229862
0.000000 0.129152 0.160800
0.000000 0.129122 0.160616
0.000000 0.130007 0.160128
0.000000 0.131380 0.159152
0.000000 0.133974 0.157443
0.004456 0.135897 0.157076
0.058991 0.135439 0.159670
0.096834 0.136995 0.162325
0.125856 0.149203 0.163394
0.154299 0.158755 0.163607
0.186954 0.171023 0.163272
0.221988 0.184665 0.163210
0.260624 0.199741 0.163058
0.305272 0.215488 0.162814
0.355383 0.231662 0.161776
0.410773 0.248203 0.159701
0.471229 0.264225 0.156893
0.535119 0.279728 0.153353
0.601678 0.294835 0.149142
0.665980 0.309209 0.143984
0.726131 0.322850 0.139834
0.781369 0.335882 0.136141
0.831724 0.348516 0.133822
0.876524 0.360723 0.134798
0.915923 0.372320 0.139010
0.950500 0.383703 0.146487
0.981292 0.395300 0.155856
1.000000 0.406989 0.168215
1.000000 0.419532 0.182712
1.000000 0.432959 0.198886
1.000000 0.447486 0.216739
1.000000 0.463416 0.236179
0.000000 0.157900 0.169650
0.000000 0.158083 0.169436
0.000000 0.159152 0.168582
0.000000 0.160586 0.168185
0.000000 0.162722 0.166384
0.000000 0.166171 0.164523
0.006256 0.167147 0.165255
0.079011 0.167178 0.167727
0.112612 0.169711 0.170474
0.148257 0.185245 0.170565
0.184176 0.197665 0.169986
0.224277 0.211398 0.169009
0.269993 0.225956 0.167483
0.316747 0.240574 0.166598
0.368444 0.255894 0.164889
0.424842 0.270909 0.163027
0.486275 0.286015 0.159731
0.550988 0.300237 0.156435
0.616358 0.314458 0.151797
0.678767 0.327642 0.147860
0.737118 0.340429 0.143893
0.790402 0.352544 0.141207
0.838987 0.364477 0.139925
0.882109 0.375952 0.141329
0.920165 0.386725 0.146334
0.953765 0.397650 0.154055
0.983764 0.408515 0.164004
1.000000 0.419776 0.177127
1.000000 0.431983 0.190707
1.000000 0.444892 0.206760
1.000000 0.459083 0.224552
1.000000 0.474800 0.244144
0.000000 0.192111 0.177493
0.000000 0.192386 0.176974
0.000000 0.193179 0.176333
0.000000 0.194705 0.175692
0.000000 0.197024 0.173892
0.000000 0.200198 0.171878
0.000000 0.203861 0.169802
0.012818 0.204532 0.172000
0.099580 0.204807 0.174685
0.134890 0.208194 0.177554
0.179568 0.226688 0.176791
0.224002 0.239902 0.175570
0.272831 0.254246 0.173892
0.327672 0.268833 0.171450
0.384039 0.282994 0.169314
0.442359 0.296788 0.166629
0.505058 0.310582 0.163821
0.569421 0.324071 0.159915
0.633265 0.336614 0.156588
0.693568 0.348913 0.152255
0.749660 0.360815 0.149386
0.800656 0.371984 0.147097
0.847074 0.382910 0.147372
0.888212 0.393256 0.150088
0.924559 0.403449 0.155367
0.957092 0.413581 0.163149
0.986206 0.423743 0.173983
1.000000 0.434516 0.186221
1.000000 0.446296 0.200381
1.000000 0.458961 0.216129
1.000000 0.472633 0.233860
1.000000 0.487861 0.253971
0.000000 0.231418 0.184756
0.000000 0.231876 0.184207
0.000000 0.232517 0.183291
0.000000 0.233982 0.182315
0.000000 0.235904 0.181064
0.000000 0.239078 0.178988
0.000000 0.243046 0.175937
0.000000 0.245853 0.175143
0.046204 0.246433 0.177584
0.125948 0.247440 0.180453
0.168124 0.251286 0.183658
0.222782 0.270909 0.182528
0.276097 0.284489 0.180423
0.333135 0.298283 0.178134
0.396612 0.312322 0.175601
0.463844 0.325994 0.171695
0.526635 0.338293 0.168795
0.590234 0.350317 0.165316
0.651698 0.361822 0.162020
0.709743 0.372961 0.158511
0.763241 0.383551 0.156497
0.811856 0.393774 0.155032
0.855894 0.403693 0.156283
0.895079 0.413184 0.159762
0.929870 0.422522 0.166049
0.961120 0.431952 0.174472
0.989319 0.441627 0.184970
1.000000 0.451911 0.197635
1.000000 0.462837 0.211582
1.000000 0.475013 0.227573
1.000000 0.488319 0.245274
1.000000 0.503136 0.264744
0.000000 0.274723 0.191531
0.000000 0.274815 0.191348
0.000000 0.275639 0.189944
0.000000 0.276738 0.189029
0.000000 0.278782 0.187381
0.000000 0.281437 0.185336
0.000000 0.285069 0.182589
0.000000 0.289433 0.178653
0.000000 0.290837 0.179843
0.108583 0.291447 0.182864
0.166476 0.292454 0.186221
0.214176 0.296727 0.189670
0.281621 0.317967 0.188388
0.344732 0.331579 0.185855
0.410498 0.344793 0.183474
0.479957 0.357794 0.180209
0.552453 0.370275 0.175723
0.617792 0.381476 0.171603
0.676600 0.391608 0.169284
0.731502 0.401770 0.166354
0.782010 0.411139 0.165286
0.827390 0.420050 0.165560
0.868376 0.428748 0.168002
0.905028 0.437232 0.172305
0.937713 0.445563 0.178958
0.967193 0.453803 0.188479
0.994232 0.462806 0.199008
1.000000 0.472206 0.211795
1.000000 0.482643 0.225803
1.000000 0.494148 0.241428
1.000000 0.506889 0.259251
1.000000 0.521172 0.279057
0.000000 0.320439 0.199283
0.000000 0.320470 0.199252
0.000000 0.321324 0.197330
0.000000 0.322179 0.196445
0.000000 0.324041 0.194644
0.000000 0.326421 0.192447
0.000000 0.329290 0.189212
0.000000 0.332891 0.185397
0.000000 0.336675 0.181491
0.057435 0.337377 0.184665
0.167025 0.338323 0.188144
0.224002 0.339391 0.192508
0.277623 0.344213 0.196231
0.351690 0.363317 0.195102
0.421637 0.376623 0.191562
0.491585 0.388891 0.189242
0.563165 0.400763 0.185916
0.632288 0.412085 0.181918
0.696651 0.422614 0.178073
0.748501 0.431067 0.176699
0.795651 0.439246 0.176333
0.838682 0.447059 0.176974
0.877104 0.454505 0.180606
0.911620 0.461860 0.185977
0.942748 0.469245 0.192966
0.971069 0.476722 0.202243
0.997284 0.484840 0.213260
1.000000 0.493629 0.225864
1.000000 0.503380 0.239933
1.000000 0.514214 0.256229
1.000000 0.526513 0.274052
1.000000 0.540215 0.294316
0.000000 0.366155 0.207645
0.000000 0.366308 0.206943
0.000000 0.366674 0.205051
0.000000 0.367834 0.204349
0.000000 0.369360 0.202335
0.000000 0.371405 0.200076
0.000000 0.374029 0.196719
0.000000 0.377356 0.192325
0.000000 0.381048 0.187076
0.000000 0.383490 0.186007
0.164950 0.384009 0.189731
0.236545 0.384680 0.194339
0.293645 0.385443 0.199100
0.351019 0.390021 0.204227
0.430640 0.408667 0.202579
0.504417 0.421668 0.198123
0.574487 0.432990 0.196536
0.641566 0.443793 0.193820
0.704768 0.454017 0.191165
0.762936 0.463172 0.188540
0.809842 0.470405 0.188907
0.849790 0.476753 0.190951
0.885710 0.483009 0.194949
0.918334 0.489296 0.200961
0.947875 0.495430 0.208682
0.974945 0.501915 0.218418
1.000000 0.509087 0.229679
1.000000 0.517052 0.242588
1.000000 0.526146 0.256748
1.000000 0.536431 0.272984
1.000000 0.548089 0.290776
1.000000 0.561120 0.311742
0.000000 0.413306 0.217227
0.000000 0.413550 0.217014
0.000000 0.414130 0.214420
0.000000 0.414832 0.213169
0.000000 0.415900 0.211734
0.000000 0.417762 0.208835
0.000000 0.419867 0.205661
0.000000 0.422614 0.201022
0.000000 0.425818 0.195804
0.000000 0.429267 0.188815
0.161257 0.430121 0.191226
0.248844 0.430610 0.195590
0.314611 0.430945 0.201266
0.371588 0.431098 0.207584
0.431281 0.435737 0.212741
0.513878 0.454566 0.211002
0.586175 0.467262 0.206607
0.651423 0.477760 0.205234
0.711940 0.487404 0.204135
0.767605 0.495979 0.203616
0.817441 0.503441 0.203922
0.860441 0.509422 0.206210
0.894041 0.514214 0.211154
0.924651 0.518853 0.218143
0.952697 0.523766 0.226322
0.978668 0.529137 0.236759
1.000000 0.535485 0.248234
1.000000 0.542626 0.260960
1.000000 0.550927 0.275761
1.000000 0.560540 0.292180
1.000000 0.571618 0.310704
1.000000 0.584192 0.331579
0.000000 0.461036 0.227878
0.000000 0.461189 0.227695
0.000000 0.461769 0.225589
0.000000 0.462562 0.223392
0.000000 0.463539 0.221958
0.000000 0.465034 0.219120
0.000000 0.467079 0.215579
0.000000 0.469368 0.211307
0.000000 0.472023 0.205356
0.000000 0.475013 0.198825
0.155367 0.477546 0.192752
0.259586 0.477668 0.197543
0.333715 0.477577 0.203006
0.396582 0.477699 0.209201
0.453407 0.477638 0.216190
0.513909 0.482307 0.222141
0.593439 0.501396 0.220829
0.660304 0.513573 0.216678
0.718532 0.522911 0.216403
0.771420 0.530846 0.217319
0.819425 0.537621 0.219791
0.861997 0.542718 0.223972
0.899840 0.547082 0.230014
0.930510 0.550530 0.237552
0.957122 0.554192 0.246708
0.982238 0.558526 0.257084
1.000000 0.563806 0.268803
1.000000 0.570062 0.281926
1.000000 0.577539 0.297246
1.000000 0.586511 0.313848
1.000000 0.596857 0.332647
1.000000 0.608789 0.354376
0.000000 0.509850 0.239536
0.000000 0.509911 0.239170
0.000000 0.510491 0.236393
0.000000 0.511009 0.234836
0.000000 0.511894 0.232670
0.000000 0.513268 0.230228
0.000000 0.514794 0.226963
0.000000 0.516777 0.222263
0.000000 0.519158 0.216190
0.000000 0.521538 0.209506
0.139345 0.524224 0.200778
0.265232 0.525292 0.199222
0.347784 0.525231 0.204654
0.416449 0.525017 0.211002
0.477089 0.524895 0.217777
0.532372 0.524834 0.225498
0.590723 0.530236 0.232212
0.663813 0.549493 0.232273
0.724025 0.560510 0.229557
0.775051 0.567529 0.231235
0.820981 0.573022 0.235904
0.861906 0.577203 0.242161
0.898558 0.580652 0.249943
0.931701 0.583490 0.258885
0.961181 0.586267 0.269200
0.985290 0.589441 0.280217
1.000000 0.593713 0.292790
1.000000 0.599176 0.306188
1.000000 0.605921 0.321416
1.000000 0.614160 0.338842
1.000000 0.623835 0.358099
1.000000 0.634821 0.380041
0.000000 0.559319 0.251987
0.000000 0.559472 0.251102
0.000000 0.561944 0.250370
0.000000 0.562585 0.247318
0.000000 0.563439 0.245090
0.000000 0.564385 0.242557
0.000000 0.565759 0.239078
0.000000 0.567346 0.234531
0.000000 0.569207 0.228519
0.000000 0.571099 0.221683
0.110628 0.573205 0.213077
0.266575 0.575402 0.202670
0.357183 0.575402 0.206790
0.430640 0.575067 0.212894
0.494759 0.574762 0.220432
0.552300 0.574731 0.228183
0.604944 0.574701 0.237400
0.660700 0.580591 0.244785
0.726192 0.598322 0.247471
0.778744 0.606317 0.247959
0.822843 0.610224 0.252873
0.862089 0.613153 0.261357
0.897520 0.615259 0.271092
0.929595 0.617182 0.281956
0.959167 0.619348 0.293584
0.986603 0.622095 0.306554
1.000000 0.625238 0.319463
1.000000 0.629755 0.333165
1.000000 0.635737 0.349096
1.000000 0.643153 0.366461
1.000000 0.651942 0.386328
1.000000 0.662074 0.408667
0.000000 0.609796 0.265263
0.000000 0.610132 0.264744
0.000000 0.610651 0.263340
0.000000 0.611383 0.260227
0.000000 0.612146 0.258701
0.000000 0.612970 0.256107
0.000000 0.614191 0.252415
0.000000 0.615442 0.247868
0.000000 0.616815 0.242252
0.000000 0.618463 0.235325
0.000000 0.620020 0.227115
0.254734 0.621698 0.217350
0.355657 0.622736 0.209751
0.434363 0.622492 0.216373
0.501854 0.622248 0.224063
0.561730 0.622187 0.232578
0.616358 0.622187 0.242100
0.666743 0.622492 0.252323
0.719905 0.628565 0.261906
0.777401 0.642817 0.268528
0.822293 0.646845 0.273198
0.860777 0.648432 0.280552
0.895140 0.649409 0.292638
0.926482 0.650416 0.305547
0.955566 0.651881 0.319158
0.982605 0.654139 0.332860
1.000000 0.657160 0.348058
1.000000 0.661250 0.363989
1.000000 0.666346 0.379583
1.000000 0.672877 0.397375
1.000000 0.680720 0.417578
1.000000 0.689754 0.439826
0.000000 0.658869 0.281865
0.000000 0.659113 0.281498
0.000000 0.659480 0.279973
0.000000 0.660304 0.276402
0.000000 0.660914 0.274815
0.000000 0.661524 0.272190
0.000000 0.662287 0.269078
0.000000 0.663111 0.264530
0.000000 0.664240 0.259190
0.000000 0.665187 0.252262
0.000000 0.666377 0.244480
0.244236 0.667384 0.234897
0.349889 0.668330 0.224125
0.433021 0.668421 0.223484
0.503471 0.668086 0.231235
0.565423 0.667659 0.240238
0.621576 0.667445 0.250431
0.673243 0.667262 0.261357
0.720821 0.667475 0.273716
0.770382 0.672633 0.285679
0.819883 0.682826 0.297124
0.858183 0.683528 0.305119
0.892332 0.683192 0.314885
0.922972 0.683406 0.330236
0.951415 0.684260 0.345617
0.978088 0.685908 0.361089
1.000000 0.688533 0.377173
1.000000 0.692348 0.394751
1.000000 0.697322 0.413245
1.000000 0.702968 0.431556
1.000000 0.709682 0.451423
1.000000 0.717586 0.473762
0.000000 0.704707 0.302220
0.000000 0.704952 0.301946
0.000000 0.705165 0.300847
0.000000 0.705653 0.298375
0.000000 0.706142 0.296086
0.000000 0.706569 0.293645
0.000000 0.707027 0.290684
0.000000 0.707424 0.286412
0.000000 0.707942 0.281193
0.000000 0.708461 0.275303
0.000000 0.708949 0.267979
0.237064 0.709377 0.259190
0.345098 0.709682 0.249058
0.427741 0.709834 0.237522
0.500267 0.709163 0.244938
0.563806 0.708492 0.254734
0.621241 0.707881 0.265476
0.673548 0.707393 0.277043
0.721828 0.707027 0.290349
0.766445 0.707027 0.303960
0.812284 0.711330 0.318822
0.855863 0.718593 0.334844
0.888914 0.716945 0.345434
0.919768 0.716121 0.357336
0.947814 0.716396 0.374273
0.973999 0.717556 0.391760
0.998749 0.719875 0.409827
1.000000 0.723354 0.427924
1.000000 0.727840 0.447547
1.000000 0.733242 0.468452
1.000000 0.739132 0.489815
1.000000 0.745693 0.511589
0.000000 0.745266 0.329381
0.000000 0.745296 0.329717
0.000000 0.745388 0.328496
0.000000 0.745693 0.326635
0.000000 0.745846 0.324865
0.000000 0.745968 0.322484
0.000000 0.746120 0.319707
0.000000 0.746273 0.315770
0.000000 0.746426 0.310918
0.000000 0.746548 0.305150
0.000000 0.746639 0.298528
0.246586 0.746639 0.290684
0.346807 0.746548 0.281468
0.425818 0.746395 0.271122
0.495888 0.745876 0.264866
0.560479 0.744778 0.275486
0.618341 0.743771 0.286534
0.670893 0.742947 0.299016
0.719265 0.742153 0.312749
0.764248 0.741543 0.327398
0.805661 0.741207 0.343114
0.847745 0.744778 0.360021
0.886229 0.749935 0.378790
0.915343 0.747372 0.390448
0.943420 0.746548 0.404211
0.969360 0.747189 0.422217
0.993835 0.749050 0.441535
1.000000 0.752132 0.461067
1.000000 0.756069 0.481392
1.000000 0.760830 0.502586
1.000000 0.766140 0.524743
1.000000 0.771847 0.548119
0.000000 0.778683 0.363348
0.000000 0.778775 0.363195
0.000000 0.778805 0.362676
0.000000 0.778927 0.361578
0.000000 0.779019 0.360021
0.000000 0.779019 0.357824
0.000000 0.779080 0.355047
0.000000 0.779080 0.351385
0.000000 0.779019 0.347051
0.000000 0.778958 0.341894
0.148409 0.778836 0.335332
0.276829 0.778683 0.328496
0.361395 0.778378 0.319921
0.431800 0.777920 0.310307
0.495613 0.777401 0.299535
0.557183 0.776425 0.301823
0.615137 0.775235 0.313909
0.667567 0.774136 0.326390
0.715938 0.773068 0.340368
0.760464 0.772274 0.355261
0.801633 0.771664 0.371771
0.839933 0.771267 0.388769
0.878477 0.774289 0.407507
0.913146 0.778683 0.428687
0.938903 0.775601 0.439704
0.964752 0.775113 0.454292
0.989136 0.776455 0.473243
1.000000 0.779080 0.493874
1.000000 0.782528 0.515190
1.000000 0.786557 0.536584
1.000000 0.791043 0.558556
1.000000 0.795773 0.580896
0.000000 0.807462 0.403418
0.000000 0.807523 0.403754
0.000000 0.807523 0.403632
0.000000 0.807523 0.402655
0.000000 0.807462 0.401526
0.000000 0.807370 0.399451
0.000000 0.807340 0.396674
0.000000 0.807218 0.393225
0.000000 0.807095 0.389197
0.144411 0.806943 0.384466
0.252537 0.806729 0.378546
0.327825 0.806516 0.371496
0.391760 0.806149 0.363897
0.449805 0.805692 0.354925
0.504814 0.805173 0.344945
0.557824 0.804410 0.333837
0.614252 0.803067 0.345068
0.665797 0.801846 0.357977
0.713436 0.800717 0.372137
0.757473 0.799741 0.387213
0.798337 0.798978 0.403357
0.836118 0.798367 0.420661
0.870817 0.798093 0.438849
0.905943 0.800870 0.458717
0.937255 0.804868 0.480781
0.960876 0.802396 0.492500
0.984619 0.802335 0.507256
1.000000 0.804196 0.526146
1.000000 0.807034 0.547692
1.000000 0.810300 0.568841
1.000000 0.813870 0.589868
1.000000 0.817502 0.611139
0.000000 0.831937 0.447425
0.000000 0.831998 0.447486
0.000000 0.832029 0.447669
0.000000 0.831937 0.447761
0.000000 0.831846 0.447089
0.000000 0.831846 0.445502
0.096468 0.831846 0.442786
0.183871 0.831785 0.439643
0.243381 0.831815 0.436103
0.295171 0.831662 0.431495
0.343694 0.831632 0.425940
0.391119 0.831418 0.419928
0.436622 0.831235 0.412634
0.482155 0.830869 0.404547
0.527153 0.830381 0.395727
0.571679 0.829831 0.385229
0.619043 0.828977 0.381567
0.668879 0.827665 0.394476
0.714900 0.826535 0.408667
0.757717 0.825498 0.423651
0.797574 0.824552 0.439948
0.834562 0.823941 0.456794
0.868620 0.823514 0.474769
0.900084 0.823362 0.493294
0.931884 0.826078 0.513054
0.960388 0.830106 0.535241
0.981689 0.828061 0.546502
1.000000 0.828061 0.560693
1.000000 0.829923 0.579034
1.000000 0.832334 0.599420
1.000000 0.834897 0.619562
1.000000 0.837430 0.639185
0.256962 0.854215 0.495460
0.259922 0.854215 0.495857
0.266331 0.854124 0.495979
0.278386 0.854063 0.496162
0.295720 0.853941 0.496437
0.310155 0.853941 0.494911
0.327886 0.854002 0.492378
0.349187 0.854002 0.489723
0.373480 0.854032 0.486305
0.399390 0.854063 0.481880
0.428443 0.854063 0.477302
0.458991 0.854002 0.471443
0.491188 0.853910 0.465156
0.524743 0.853758 0.457496
0.559655 0.853513 0.449500
0.595880 0.853117 0.439521
0.633021 0.852689 0.429358
0.676631 0.851713 0.433967
0.720790 0.850553 0.448096
0.761868 0.849546 0.462928
0.800076 0.848753 0.478828
0.835813 0.848051 0.495247
0.868864 0.847562 0.512505
0.899565 0.847318 0.530114
0.927825 0.847318 0.548058
0.956359 0.849973 0.566918
0.981842 0.853696 0.587457
1.000000 0.851469 0.597192
1.000000 0.850858 0.609705
1.000000 0.852140 0.626429
1.000000 0.853727 0.645411
1.000000 0.855222 0.664332
0.407904 0.874846 0.545342
0.408759 0.874876 0.545434
0.412146 0.874815 0.545769
0.418982 0.874723 0.546288
0.429267 0.874601 0.546929
0.436988 0.874662 0.545800
0.446418 0.874784 0.543755
0.458412 0.874937 0.541466
0.472938 0.875090 0.538689
0.489723 0.875273 0.535393
0.508263 0.875486 0.531182
0.529137 0.875669 0.526299
0.551995 0.875792 0.521050
0.576562 0.875883 0.514427
0.603052 0.875853 0.507256
0.631037 0.875792 0.498634
0.660731 0.875608 0.489479
0.692195 0.875273 0.479286
0.733211 0.874174 0.492927
0.771695 0.873167 0.507286
0.807706 0.872343 0.522148
0.841489 0.871611 0.537957
0.873014 0.871031 0.553887
0.902281 0.870665 0.570001
0.929290 0.870451 0.585992
0.954253 0.870451 0.601831
0.979706 0.872740 0.618158
1.000000 0.875547 0.635950
1.000000 0.872709 0.644465
1.000000 0.871092 0.655177
1.000000 0.871366 0.670680
1.000000 0.871763 0.688594
0.512078 0.895140 0.595422
0.512505 0.895140 0.595422
0.514794 0.895079 0.595758
0.518883 0.895018 0.596124
0.525933 0.894865 0.596887
0.531670 0.894865 0.596155
0.537865 0.894957 0.594568
0.545495 0.895079 0.592493
0.554925 0.895232 0.589960
0.566033 0.895384 0.586908
0.579248 0.895537 0.583642
0.593774 0.895720 0.579492
0.610407 0.895842 0.574823
