20 Preset/Human Style/【3】LUT video cho PR-AE-FCPX/Joe-Allam (2)/JA – Controlled Contrast 1 (Classic Chrome).cube
# Created by Adobe Lightroom plugin Export LUT (1.24.0)
# www.johnrellis.com/lightroom/exportlut.htm
# Preset: JA – Controlled Contrast 1 (Classic Chrome)
# Color profile: E:\lut插件\exportlut.1.24\exportlut.lrplugin\color profiles\Rec709gamma2.4.icc
LUT_3D_SIZE 8
DOMAIN_MIN 0.000000 0.000000 0.000000
DOMAIN_MAX 0.903226 0.903226 0.903226
0.109377 0.107362 0.107210
0.113039 0.107240 0.107485
0.176486 0.104768 0.111788
0.290105 0.102327 0.107301
0.510155 0.107332 0.059480
0.768063 0.147738 0.000000
0.977111 0.197360 0.000000
1.000000 0.236667 0.000000
0.108003 0.113527 0.107698
0.118502 0.113832 0.109407
0.181796 0.117769 0.110445
0.307195 0.124392 0.102541
0.538750 0.150149 0.020050
0.796414 0.192630 0.000000
0.995361 0.233768 0.000000
1.000000 0.263371 0.000000
0.115908 0.156649 0.104402
0.130953 0.157961 0.104067
0.168063 0.152773 0.115084
0.281834 0.176181 0.099702
0.498451 0.225437 0.000000
0.757656 0.278965 0.000000
0.960204 0.311559 0.000000
1.000000 0.332097 0.000000
0.155703 0.255192 0.032593
0.174716 0.259251 0.022889
0.229465 0.257603 0.040375
0.284611 0.245243 0.096193
0.475959 0.308721 0.000000
0.691157 0.351904 0.000000
0.925170 0.402380 0.000000
1.000000 0.426764 0.000000
0.250187 0.462257 0.000000
0.272923 0.465034 0.000000
0.349004 0.468208 0.000000
0.441566 0.457252 0.000000
0.537591 0.448188 0.000000
0.749172 0.505547 0.000000
0.930022 0.523308 0.000000
1.000000 0.526299 0.000000
0.362554 0.680537 0.000000
0.379248 0.675868 0.000000
0.455787 0.681758 0.000000
0.563134 0.677302 0.000000
0.681575 0.670680 0.000000
0.791928 0.657160 0.000000
0.949065 0.670954 0.000000
1.000000 0.659388 0.000000
0.451209 0.860166 0.000000
0.467475 0.859464 0.000000
0.531456 0.861692 0.000000
0.631250 0.860716 0.000000
0.751583 0.856626 0.000000
0.875273 0.848325 0.000000
0.974212 0.827024 0.000000
1.000000 0.805112 0.277653
0.459205 0.974090 0.000000
0.473854 0.973938 0.000000
0.529473 0.972930 0.000000
0.623041 0.970855 0.000000
0.743496 0.969879 0.000000
0.867582 0.960388 0.000000
0.979644 0.949279 0.263951
1.000000 0.929473 0.582177
0.107149 0.110964 0.122011
0.118410 0.108095 0.120760
0.185245 0.109773 0.117281
0.309911 0.119509 0.108248
0.543359 0.148684 0.018219
0.805539 0.190341 0.000000
1.000000 0.229679 0.000000
1.000000 0.259342 0.000000
0.100649 0.120577 0.120607
0.121401 0.119081 0.118990
0.182223 0.124941 0.119112
0.309728 0.137789 0.107057
0.544884 0.176303 0.000000
0.808133 0.220340 0.000000
1.000000 0.256352 0.000000
1.000000 0.281468 0.000000
0.119448 0.162570 0.117617
0.134859 0.163394 0.116793
0.173342 0.158785 0.123781
0.290929 0.184360 0.105715
0.517876 0.240146 0.000000
0.780972 0.296483 0.000000
0.988098 0.329595 0.000000
1.000000 0.345556 0.000000
0.149142 0.270420 0.078523
0.171115 0.272953 0.070802
0.237369 0.272068 0.078340
0.306523 0.264134 0.104952
0.516869 0.334844 0.000000
0.733974 0.376898 0.000000
0.957824 0.420661 0.000000
1.000000 0.437263 0.000000
0.233890 0.470283 0.000000
0.260777 0.474067 0.000000
0.348455 0.481575 0.000000
0.454475 0.474769 0.000000
0.562799 0.469123 0.000000
0.772366 0.522698 0.000000
0.947417 0.535302 0.000000
1.000000 0.533196 0.000000
0.349615 0.691859 0.000000
0.371954 0.692348 0.000000
0.453681 0.696742 0.000000
0.568322 0.691951 0.000000
0.692470 0.683742 0.000000
0.803159 0.667323 0.000000
0.957458 0.678187 0.000000
1.000000 0.664363 0.000000
0.439826 0.868681 0.000000
0.458045 0.869963 0.000000
0.526757 0.871916 0.000000
0.634607 0.870390 0.000000
0.757198 0.863859 0.000000
0.881468 0.855192 0.000000
0.980804 0.834592 0.109071
1.000000 0.811795 0.307164
0.456428 0.978088 0.000000
0.471046 0.977356 0.000000
0.527520 0.976379 0.000000
0.622156 0.974121 0.000000
0.740108 0.968261 0.000000
0.865995 0.960235 0.000000
0.979767 0.950134 0.269780
1.000000 0.930449 0.586267
0.004639 0.129519 0.197452
0.065614 0.118563 0.195071
0.183566 0.114382 0.188174
0.285252 0.109377 0.184848
0.553185 0.000000 0.165377
0.808499 0.043030 0.117800
1.000000 0.183566 0.000000
1.000000 0.251164 0.000000
0.031342 0.144320 0.190005
0.092714 0.138186 0.188571
0.181979 0.130037 0.185031
0.300145 0.122744 0.185702
0.561486 0.060456 0.165835
0.815030 0.143984 0.113832
1.000000 0.217563 0.000000
1.000000 0.273014 0.000000
0.043854 0.181277 0.180819
0.095583 0.180179 0.179965
0.184176 0.179812 0.180240
0.309026 0.188235 0.174166
0.536187 0.218051 0.152560
0.790707 0.263310 0.058930
0.991821 0.306737 0.000000
1.000000 0.340581 0.000000
0.000000 0.278538 0.159396
0.019837 0.279149 0.160403
0.211185 0.283330 0.161837
0.309880 0.275364 0.182681
0.509331 0.321172 0.139193
0.738460 0.362554 0.000000
0.959411 0.408057 0.000000
1.000000 0.433326 0.000000
0.000000 0.476997 0.000000
0.142367 0.478828 0.000000
0.292210 0.484657 0.000000
0.438697 0.481453 0.017609
0.558923 0.472389 0.152316
0.765652 0.514214 0.000000
0.945251 0.526635 0.000000
1.000000 0.532799 0.000000
0.246433 0.696498 0.000000
0.283085 0.696407 0.000000
0.395727 0.699306 0.000000
0.543877 0.701289 0.000000
0.687984 0.693294 0.000000
0.806424 0.676661 0.056733
0.959350 0.681971 0.000000
1.000000 0.665553 0.000000
0.364965 0.869444 0.000000
0.389319 0.870420 0.000000
0.474708 0.872496 0.000000
0.602502 0.874144 0.000000
0.743801 0.867704 0.000000
0.877867 0.858000 0.000000
0.979309 0.835599 0.172396
1.000000 0.810330 0.301762
0.426612 0.980163 0.000000
0.444099 0.980224 0.000000
0.508873 0.979248 0.000000
0.609491 0.976074 0.000000
0.731807 0.970397 0.000000
0.860990 0.961456 0.000000
0.977630 0.950713 0.262272
1.000000 0.930663 0.585016
0.000000 0.190951 0.372717
0.000000 0.173342 0.365332
0.098604 0.120638 0.361059
0.336370 0.089723 0.351965
0.488258 0.000000 0.343175
0.814267 0.000000 0.365393
1.000000 0.000000 0.351415
1.000000 0.249424 0.325963
0.000000 0.201389 0.352392
0.000000 0.189303 0.350530
0.053986 0.137240 0.349584
0.329229 0.119020 0.343053
0.487892 0.090578 0.339605
0.822110 0.000000 0.359106
1.000000 0.154360 0.350958
1.000000 0.273136 0.325017
0.000000 0.249912 0.339727
0.000000 0.244083 0.337713
0.000000 0.214298 0.339483
0.332982 0.197787 0.342016
0.529717 0.191012 0.342962
0.839322 0.173739 0.336919
1.000000 0.280705 0.328069
1.000000 0.329381 0.295201
0.000000 0.329686 0.330114
0.000000 0.329686 0.330175
0.000000 0.329412 0.330419
0.353552 0.341405 0.344976
0.575006 0.351354 0.330632
0.802121 0.380926 0.320439
0.992340 0.409979 0.299382
1.000000 0.427985 0.259648
0.000000 0.499702 0.311894
0.000000 0.502464 0.308690
0.000000 0.509575 0.295781
0.396155 0.510948 0.308690
0.565301 0.498909 0.358801
0.758206 0.510307 0.308965
0.943633 0.510124 0.236362
1.000000 0.530449 0.196902
0.000000 0.701625 0.276249
0.000000 0.697719 0.271550
0.248539 0.701015 0.269902
0.475044 0.704158 0.261662
0.664759 0.700374 0.314397
0.796689 0.689448 0.403632
0.949065 0.688746 0.351049
1.000000 0.663111 0.228153
0.189090 0.872953 0.170382
0.242191 0.872618 0.165988
0.380865 0.872465 0.150729
0.540398 0.872190 0.103639
0.712520 0.869291 0.201572
0.861143 0.860258 0.334691
0.962554 0.843168 0.470069
1.000000 0.818509 0.442237
0.291630 0.981659 0.000000
0.320592 0.981506 0.000000
0.415900 0.980591 0.000000
0.546441 0.978271 0.000000
0.696620 0.973999 0.000000
0.846769 0.963989 0.000000
0.972381 0.952544 0.289403
1.000000 0.931243 0.584192
0.000000 0.288579 0.609979
0.000000 0.272007 0.605615
0.000000 0.177096 0.606836
0.275700 0.090303 0.604242
0.576654 0.000000 0.605768
0.745571 0.000000 0.570733
0.966278 0.000000 0.574273
1.000000 0.364324 0.590112
0.000000 0.299870 0.596185
0.000000 0.285222 0.592065
0.000000 0.206851 0.594354
0.262547 0.124758 0.599237
0.574853 0.000000 0.603052
0.746212 0.000000 0.568994
0.969848 0.149752 0.575677
1.000000 0.396429 0.596368
0.000000 0.350347 0.576104
0.000000 0.341741 0.576349
0.000000 0.300816 0.582422
0.195529 0.212406 0.593591
0.577874 0.215030 0.601312
0.757626 0.242069 0.570672
0.986023 0.330297 0.588128
1.000000 0.513085 0.630549
0.000000 0.438239 0.574609
0.000000 0.434302 0.573785
0.000000 0.415106 0.570184
0.000000 0.373663 0.578424
0.579828 0.389532 0.589624
0.769833 0.421180 0.571710
0.995544 0.518547 0.614252
1.000000 0.608087 0.647913
0.000000 0.570001 0.575494
0.000000 0.569055 0.574701
0.000000 0.567407 0.573602
0.151492 0.567956 0.575799
0.614710 0.586114 0.598444
0.805997 0.592859 0.586542
0.972381 0.614343 0.586511
1.000000 0.630396 0.582422
0.000000 0.742458 0.550378
0.000000 0.742489 0.550072
0.000000 0.744717 0.552789
0.394446 0.745663 0.560845
0.656519 0.745174 0.583307
0.800595 0.731380 0.628534
0.938262 0.713405 0.571069
1.000000 0.678828 0.496315
0.000000 0.886259 0.513756
0.000000 0.886503 0.517449
0.324437 0.883848 0.547753
0.529778 0.880491 0.560174
0.689021 0.879240 0.553948
0.847532 0.873167 0.606592
0.944030 0.862455 0.681422
1.000000 0.845457 0.650263
0.364477 0.981872 0.513176
0.385138 0.981750 0.512444
0.457038 0.981140 0.508293
0.556970 0.978393 0.487648
0.683192 0.975586 0.462318
0.834134 0.967590 0.511833
0.955535 0.956664 0.610254
1.000000 0.940673 0.715236
0.000000 0.368048 0.790188
0.000000 0.356451 0.788846
0.000000 0.298985 0.793637
0.000000 0.171695 0.798489
0.469520 0.099977 0.803372
0.771878 0.096590 0.807919
0.935576 0.196658 0.771389
1.000000 0.390906 0.745205
0.000000 0.385565 0.797848
0.000000 0.375402 0.798520
0.000000 0.323125 0.801633
0.000000 0.195651 0.807004
0.471595 0.153414 0.809812
0.777432 0.179171 0.812345
0.939666 0.249912 0.775021
1.000000 0.420813 0.750362
0.000000 0.429694 0.781704
0.000000 0.422309 0.782925
0.000000 0.386877 0.786374
0.000000 0.272099 0.798672
0.457221 0.265385 0.803128
0.776364 0.317906 0.805936
0.934112 0.366339 0.769558
1.000000 0.500633 0.758541
0.000000 0.508171 0.768917
0.000000 0.504448 0.769284
0.000000 0.483833 0.770718
0.000000 0.438544 0.774899
0.430335 0.399207 0.783505
0.770565 0.464515 0.789120
0.920531 0.501549 0.757870
1.000000 0.615167 0.773678
0.000000 0.622492 0.777493
0.000000 0.620508 0.777218
0.000000 0.611200 0.775235
0.000000 0.593225 0.771267
0.454841 0.583856 0.778317
0.787930 0.631037 0.790005
0.921386 0.658167 0.769589
1.000000 0.761715 0.817563
0.000000 0.773404 0.781155
0.000000 0.771420 0.779232
0.000000 0.770169 0.778561
0.000000 0.768215 0.777829
0.528588 0.768826 0.780484
0.810086 0.780697 0.794461
0.935698 0.784604 0.785580
1.000000 0.798886 0.788479
0.000000 0.898222 0.734066
0.000000 0.897368 0.733608
0.000000 0.895537 0.735622
0.424475 0.891691 0.742123
0.661738 0.886656 0.759304
0.826871 0.884154 0.779782
0.925505 0.880491 0.821012
1.000000 0.866453 0.786496
0.319066 0.985168 0.710353
0.359960 0.984619 0.714015
0.476905 0.981689 0.726680
0.618952 0.975738 0.749203
0.751369 0.969665 0.774472
0.841032 0.968017 0.767056
0.941863 0.960998 0.803342
0.997955 0.952209 0.850950
0.000000 0.444465 0.942321
0.000000 0.437293 0.942535
0.000000 0.405768 0.943481
0.000000 0.303899 0.946899
0.226963 0.280217 0.947204
0.661128 0.325566 0.945342
0.908690 0.424781 0.941192
1.000000 0.480293 0.922301
0.000000 0.454994 0.941314
0.000000 0.448493 0.941466
0.000000 0.420233 0.942351
0.000000 0.328832 0.945953
0.227115 0.300694 0.946410
0.662959 0.348272 0.944457
0.908904 0.444831 0.940337
1.000000 0.497993 0.920256
0.000000 0.495735 0.937407
0.000000 0.490394 0.937560
0.000000 0.468544 0.938445
0.000000 0.415045 0.940917
0.233768 0.374517 0.942718
0.670222 0.427008 0.940459
0.909483 0.515496 0.936278
1.000000 0.560937 0.915068
0.000000 0.566003 0.930327
0.000000 0.562402 0.930907
0.000000 0.547356 0.931640
0.000000 0.528344 0.932403
0.260960 0.485267 0.935698
0.684504 0.538933 0.933196
0.910765 0.617792 0.929442
1.000000 0.653071 0.907958
0.000000 0.657984 0.925536
0.000000 0.655940 0.925292
0.000000 0.647761 0.924254
0.000000 0.633082 0.922820
0.375799 0.637415 0.922881
0.700069 0.654444 0.924071
0.913054 0.722072 0.921996
1.000000 0.748989 0.902190
0.000000 0.774228 0.921080
0.000000 0.773465 0.920806
0.000000 0.770352 0.919677
0.000000 0.764553 0.917357
0.320317 0.758022 0.913176
0.716640 0.773373 0.911162
0.916106 0.819272 0.915099
0.991058 0.837339 0.901946
0.000000 0.909422 0.914092
0.000000 0.909117 0.913848
0.000000 0.907622 0.912840
0.000000 0.904845 0.910887
0.533440 0.900999 0.908293
0.766934 0.898528 0.906889
0.923674 0.906493 0.914702
0.992584 0.913146 0.914122
0.000000 0.991302 0.864164
0.189517 0.990600 0.864836
0.390051 0.987610 0.867765
0.576318 0.982177 0.874907
0.729885 0.975219 0.885344
0.850462 0.969085 0.899840
0.932982 0.966888 0.910094
0.984070 0.963256 0.930907
0.000000 0.514763 1.000000
0.000000 0.514061 1.000000
0.000000 0.515526 1.000000
0.000000 0.492378 1.000000
0.179141 0.473152 1.000000
0.605554 0.525536 1.000000
0.826932 0.600275 1.000000
0.977722 0.684291 0.998932
0.000000 0.523461 1.000000
0.000000 0.522820 1.000000
0.000000 0.524681 1.000000
0.000000 0.508629 1.000000
0.211154 0.487098 1.000000
0.611688 0.538628 1.000000
0.829435 0.611597 1.000000
0.977783 0.693172 0.998352
0.000000 0.555383 1.000000
0.000000 0.555047 1.000000
0.000000 0.557885 1.000000
0.000000 0.568475 1.000000
0.299290 0.538964 1.000000
0.635462 0.588037 1.000000
0.838682 0.653285 1.000000
0.978027 0.725643 0.995972
0.000000 0.607813 1.000000
0.000000 0.607721 1.000000
0.000000 0.610407 1.000000
0.000000 0.629389 1.000000
0.450721 0.640101 1.000000
0.671565 0.662226 1.000000
0.853422 0.717189 0.999084
0.978454 0.775570 0.992248
0.000000 0.679164 1.000000
0.000000 0.678340 1.000000
0.000000 0.675746 1.000000
0.000000 0.684596 1.000000
0.508690 0.725978 1.000000
0.706142 0.740871 0.999969
0.868223 0.784787 0.994110
0.979034 0.830289 0.988220
0.000000 0.770535 1.000000
0.000000 0.770443 1.000000
0.000000 0.770291 1.000000
0.000000 0.771603 1.000000
0.341100 0.778836 1.000000
0.742428 0.827024 0.993042
0.880919 0.849882 0.989014
0.979614 0.884215 0.984253
0.000000 0.876951 0.997528
0.000000 0.877104 0.997375
0.000000 0.877958 0.996643
0.000000 0.880491 0.994995
0.503380 0.885985 0.992248
0.721309 0.894652 0.988403
0.890898 0.913298 0.983185
0.979980 0.932341 0.980591
0.000000 0.985748 0.986481
0.000000 0.985504 0.986358
0.000000 0.984619 0.985718
0.443091 0.982849 0.984466
0.649165 0.980407 0.982635
0.800351 0.977783 0.980377
0.907134 0.975189 0.977966
0.980346 0.975006 0.977569
