20 Preset/Human Style/【3】LUT video cho PR-AE-FCPX/Joe-Allam (2)/JA – Static Pop 3 (Classic Chrome).cube
# Created by Adobe Lightroom plugin Export LUT (1.24.0)
# www.johnrellis.com/lightroom/exportlut.htm
# Preset: JA – Static Pop 3 (Classic Chrome)
# Color profile: E:\lut插件\exportlut.1.24\exportlut.lrplugin\color profiles\Rec709gamma2.4.icc
LUT_3D_SIZE 8
DOMAIN_MIN 0.000000 0.000000 0.000000
DOMAIN_MAX 0.903226 0.903226 0.903226
0.089754 0.097993 0.104036
0.104829 0.096620 0.104616
0.200961 0.081910 0.103487
0.407416 0.022553 0.087892
0.660639 0.000000 0.000000
0.890562 0.054688 0.000000
1.000000 0.095216 0.000000
1.000000 0.107973 0.000000
0.081971 0.108309 0.103426
0.105989 0.109163 0.103273
0.194430 0.112215 0.100526
0.387701 0.125093 0.075257
0.637476 0.145113 0.000000
0.856840 0.162600 0.000000
1.000000 0.170108 0.000000
1.000000 0.170016 0.000000
0.064393 0.174594 0.095766
0.109346 0.176181 0.094240
0.191897 0.180056 0.089235
0.403784 0.244358 0.000000
0.663325 0.293431 0.000000
0.867063 0.303624 0.000000
1.000000 0.307134 0.000000
1.000000 0.300114 0.000000
0.000000 0.352544 0.000000
0.080964 0.352148 0.000000
0.257664 0.360418 0.000000
0.421637 0.378546 0.000000
0.691341 0.450111 0.000000
0.892210 0.458198 0.000000
1.000000 0.452308 0.000000
1.000000 0.434821 0.000000
0.000000 0.580652 0.000000
0.000000 0.579797 0.000000
0.285069 0.579370 0.000000
0.473793 0.571008 0.000000
0.631952 0.555138 0.000000
0.841794 0.577600 0.000000
1.000000 0.588952 0.000000
1.000000 0.569604 0.000000
0.000000 0.744961 0.000000
0.000000 0.751858 0.000000
0.271885 0.750912 0.000000
0.484077 0.742153 0.000000
0.658747 0.724636 0.000000
0.817075 0.706111 0.000000
1.000000 0.725124 0.000000
1.000000 0.705348 0.000000
0.000000 0.913451 0.000000
0.000000 0.914519 0.000000
0.280034 0.912169 0.000000
0.493050 0.907713 0.000000
0.676265 0.893675 0.000000
0.848295 0.879942 0.000000
1.000000 0.860899 0.000000
1.000000 0.829007 0.000000
0.173739 1.000000 0.176852
0.225620 1.000000 0.170626
0.358740 1.000000 0.150576
0.514305 1.000000 0.100801
0.663722 1.000000 0.000000
0.827451 0.999908 0.000000
0.985901 0.993011 0.000000
1.000000 0.968994 0.000000
0.090150 0.099916 0.111086
0.095003 0.097871 0.112825
0.178195 0.085603 0.112825
0.358709 0.030671 0.102022
0.616999 0.000000 0.013123
0.838621 0.000000 0.000000
1.000000 0.000000 0.000000
1.000000 0.000000 0.000000
0.083558 0.105562 0.113008
0.098604 0.107607 0.114382
0.176547 0.108095 0.111696
0.359228 0.112215 0.098482
0.613001 0.121828 0.000000
0.830076 0.127169 0.000000
1.000000 0.127687 0.000000
1.000000 0.130648 0.000000
0.020539 0.167819 0.114046
0.092683 0.169650 0.112856
0.181949 0.173648 0.106477
0.380865 0.224704 0.049683
0.629664 0.266148 0.000000
0.831846 0.276860 0.000000
1.000000 0.278325 0.000000
1.000000 0.276402 0.000000
0.000000 0.333074 0.000000
0.000000 0.334630 0.000000
0.231357 0.341833 0.000000
0.383764 0.346685 0.000000
0.639948 0.413916 0.000000
0.838315 0.425055 0.000000
1.000000 0.424292 0.000000
1.000000 0.416449 0.000000
0.000000 0.569421 0.000000
0.000000 0.567376 0.000000
0.252750 0.565759 0.000000
0.449958 0.552483 0.000000
0.605432 0.533562 0.000000
0.814267 0.557305 0.000000
1.000000 0.572351 0.000000
1.000000 0.558343 0.000000
0.000000 0.731075 0.000000
0.000000 0.731228 0.000000
0.231785 0.731075 0.000000
0.461280 0.725612 0.000000
0.640620 0.710353 0.000000
0.802518 0.694820 0.000000
1.000000 0.715328 0.000000
1.000000 0.698726 0.000000
0.000000 0.900999 0.000000
0.000000 0.898894 0.000000
0.240482 0.896269 0.000000
0.472328 0.893980 0.000000
0.661860 0.883268 0.000000
0.834836 0.869291 0.000000
0.988678 0.848234 0.000000
1.000000 0.820890 0.000000
0.069215 1.000000 0.185214
0.182620 1.000000 0.187503
0.337194 1.000000 0.168032
0.501366 1.000000 0.128298
0.665187 1.000000 0.000000
0.825986 1.000000 0.000000
0.983185 0.991974 0.000000
1.000000 0.967773 0.000000
0.084474 0.111482 0.155459
0.083223 0.111543 0.155459
0.146059 0.091798 0.167941
0.329839 0.000000 0.211643
0.602838 0.000000 0.194797
0.840665 0.000000 0.127352
1.000000 0.000000 0.029725
1.000000 0.000000 0.000000
0.087190 0.119234 0.152712
0.091279 0.118776 0.156527
0.147951 0.106081 0.170169
0.329442 0.000000 0.200443
0.602228 0.000000 0.156954
0.828672 0.000000 0.121553
1.000000 0.000000 0.000000
1.000000 0.000000 0.000000
0.000000 0.162325 0.173556
0.023926 0.163272 0.174502
0.151369 0.164462 0.174746
0.352544 0.164706 0.163912
0.623987 0.172824 0.139193
0.834134 0.178592 0.091341
1.000000 0.181064 0.000000
1.000000 0.186099 0.000000
0.000000 0.331060 0.196201
0.000000 0.334600 0.184756
0.117678 0.343328 0.155154
0.374640 0.343725 0.118685
0.643030 0.393347 0.084291
0.840177 0.394293 0.000000
1.000000 0.392493 0.000000
1.000000 0.384619 0.000000
0.000000 0.564263 0.107210
0.000000 0.564080 0.099794
0.000000 0.564446 0.028443
0.415991 0.558068 0.000000
0.604700 0.536156 0.000000
0.817166 0.549798 0.000000
1.000000 0.560906 0.000000
1.000000 0.544732 0.000000
0.000000 0.728023 0.079225
0.000000 0.728725 0.059205
0.000000 0.727840 0.000000
0.414679 0.724147 0.000000
0.617975 0.706783 0.000000
0.790738 0.688106 0.000000
1.000000 0.708156 0.000000
1.000000 0.694820 0.000000
0.000000 0.904112 0.182467
0.000000 0.902403 0.173373
0.094179 0.898528 0.138247
0.435340 0.895415 0.000000
0.641016 0.884337 0.000000
0.824491 0.870695 0.000000
0.988769 0.851347 0.000000
1.000000 0.823056 0.000000
0.000000 1.000000 0.330571
0.062531 1.000000 0.325566
0.304265 1.000000 0.315648
0.484688 1.000000 0.305272
0.652155 1.000000 0.269505
0.816709 1.000000 0.202914
0.977081 0.993439 0.000000
1.000000 0.969482 0.000000
0.000000 0.134554 0.287114
0.000000 0.134951 0.289372
0.115084 0.110994 0.296422
0.277104 0.000000 0.314122
0.531670 0.000000 0.383490
0.793698 0.000000 0.386389
0.993866 0.000000 0.329839
1.000000 0.000000 0.268528
0.000000 0.151583 0.290715
0.000000 0.152407 0.291569
0.109102 0.126986 0.304479
0.283085 0.007233 0.320653
0.543511 0.000000 0.384833
0.795987 0.000000 0.376806
0.992859 0.000000 0.319829
1.000000 0.000000 0.269017
0.000000 0.213321 0.304112
0.000000 0.213016 0.305028
0.111452 0.204227 0.311772
0.288182 0.138796 0.326207
0.571984 0.000000 0.368566
0.810849 0.000000 0.344152
1.000000 0.000000 0.307897
1.000000 0.000000 0.286168
0.000000 0.331518 0.353429
0.000000 0.331731 0.353338
0.000000 0.332067 0.353063
0.296361 0.318547 0.336461
0.589624 0.324102 0.330907
0.804623 0.328283 0.322820
1.000000 0.329290 0.308232
1.000000 0.326513 0.286107
0.000000 0.566369 0.401709
0.000000 0.564752 0.395972
0.000000 0.561212 0.372503
0.300481 0.557488 0.344732
0.581994 0.533288 0.284367
0.807950 0.543389 0.333654
1.000000 0.546319 0.330663
1.000000 0.529412 0.307713
0.000000 0.734585 0.385046
0.000000 0.739315 0.387488
0.000000 0.733059 0.390326
0.331670 0.731960 0.371069
0.587274 0.718135 0.324498
0.778408 0.688899 0.240513
0.999939 0.706050 0.288151
1.000000 0.696834 0.345342
0.000000 0.904326 0.428290
0.000000 0.904753 0.427100
0.000000 0.904082 0.419074
0.377783 0.902708 0.402411
0.612482 0.895842 0.366491
0.807279 0.878477 0.295750
0.981384 0.853696 0.175113
1.000000 0.824613 0.271733
0.000000 1.000000 0.487343
0.000000 1.000000 0.485512
0.259159 1.000000 0.478859
0.455085 1.000000 0.466896
0.630213 1.000000 0.446418
0.797787 1.000000 0.406470
0.963073 0.994934 0.350195
1.000000 0.972747 0.279088
0.000000 0.193606 0.504204
0.000000 0.194491 0.506645
0.000000 0.168093 0.507256
0.258976 0.069306 0.513787
0.469154 0.000000 0.517815
0.729641 0.000000 0.560967
0.942596 0.000000 0.547448
1.000000 0.000000 0.522789
0.000000 0.215976 0.508415
0.000000 0.222385 0.510674
0.000000 0.193423 0.515557
0.256016 0.114412 0.517723
0.474525 0.000000 0.523247
0.732876 0.000000 0.559777
0.944335 0.000000 0.544182
1.000000 0.000000 0.520378
0.000000 0.318181 0.511894
0.000000 0.314946 0.514488
0.000000 0.291661 0.521508
0.242374 0.221256 0.524376
0.480629 0.000000 0.529046
0.730526 0.000000 0.544182
0.942321 0.000000 0.527672
1.000000 0.000000 0.510124
0.000000 0.407263 0.540856
0.000000 0.407813 0.541405
0.000000 0.412146 0.543145
0.313085 0.405982 0.541680
0.489296 0.294591 0.536584
0.738766 0.270237 0.530571
0.949523 0.293400 0.523583
1.000000 0.276188 0.499702
0.000000 0.549432 0.574334
0.000000 0.549432 0.574273
0.000000 0.546899 0.571038
0.229679 0.536645 0.559594
0.477729 0.500053 0.521263
0.729915 0.509758 0.524926
0.958007 0.513634 0.521263
1.000000 0.505486 0.503685
0.000000 0.712367 0.565087
0.000000 0.712245 0.564111
0.000000 0.707454 0.557000
0.000000 0.700191 0.546380
0.489937 0.689326 0.526940
0.721950 0.668971 0.473579
0.969696 0.701289 0.525994
1.000000 0.691157 0.528557
0.000000 0.898680 0.578668
0.000000 0.897063 0.575860
0.000000 0.893919 0.567071
0.000000 0.892119 0.558221
0.530022 0.888945 0.551080
0.757931 0.873655 0.507073
0.950347 0.843687 0.431098
1.000000 0.820218 0.476051
0.000000 1.000000 0.571954
0.000000 1.000000 0.573114
0.000000 1.000000 0.592187
0.357885 1.000000 0.596979
0.573327 1.000000 0.581598
0.758328 1.000000 0.553826
0.934142 0.992248 0.505943
1.000000 0.970031 0.446571
0.000000 0.313634 0.688655
0.000000 0.314427 0.689540
0.000000 0.302159 0.687282
0.172976 0.240452 0.689357
0.427710 0.022461 0.688930
0.649195 0.000000 0.692592
0.897154 0.000000 0.712825
1.000000 0.000000 0.708461
0.000000 0.315953 0.681178
0.000000 0.320653 0.680598
0.000000 0.314977 0.681086
0.172580 0.259281 0.683558
0.423316 0.115938 0.685298
0.642237 0.000000 0.686000
0.889220 0.000000 0.705348
1.000000 0.000000 0.702205
0.000000 0.424598 0.683192
0.000000 0.421424 0.683955
0.000000 0.406683 0.688136
0.229496 0.354833 0.690578
0.427863 0.254307 0.693477
0.647517 0.000000 0.690120
0.897032 0.000000 0.704494
1.000000 0.000000 0.698116
0.055756 0.515465 0.700008
0.166629 0.517784 0.699794
0.324437 0.531518 0.701350
0.395941 0.521599 0.711666
0.473213 0.445411 0.711696
0.663478 0.300847 0.702632
0.913664 0.239841 0.709377
1.000000 0.262242 0.699886
0.000000 0.595911 0.715297
0.000000 0.596704 0.715084
0.218051 0.600763 0.714717
0.426795 0.610193 0.713954
0.545373 0.602380 0.705287
0.651331 0.492164 0.686854
0.902525 0.474617 0.690547
1.000000 0.489540 0.683803
0.000000 0.713222 0.730465
0.000000 0.715602 0.732692
0.000000 0.714260 0.731014
0.242741 0.710414 0.726589
0.483650 0.696834 0.712825
0.641535 0.653254 0.670222
0.928252 0.675410 0.685786
1.000000 0.674922 0.679316
0.000000 0.897581 0.746700
0.000000 0.899229 0.747311
0.000000 0.900053 0.743648
0.000000 0.898283 0.737667
0.380957 0.892943 0.722835
0.687190 0.879759 0.697688
0.915984 0.843351 0.627344
1.000000 0.832425 0.674891
0.000000 1.000000 0.709407
0.000000 1.000000 0.708125
0.000000 1.000000 0.705562
0.000000 1.000000 0.704158
0.471443 1.000000 0.716060
0.716854 0.998962 0.716426
0.894682 0.991394 0.672145
1.000000 0.970336 0.607965
0.151888 0.461311 0.829923
0.152193 0.461372 0.829984
0.150668 0.460945 0.829557
0.236057 0.415595 0.832822
0.407965 0.337591 0.838315
0.595239 0.130892 0.839139
0.810605 0.000000 0.838437
1.000000 0.000000 0.854978
0.151522 0.461097 0.829770
0.151431 0.461280 0.829892
0.160067 0.466773 0.829221
0.256138 0.432197 0.832792
0.413336 0.357610 0.838682
0.595178 0.174960 0.839078
0.810422 0.000000 0.838102
1.000000 0.000000 0.853941
0.245640 0.526970 0.828458
0.247929 0.528985 0.828275
0.264164 0.527855 0.829252
0.334630 0.500633 0.837430
0.442481 0.436530 0.842252
0.600641 0.296757 0.842283
0.814847 0.000000 0.841093
1.000000 0.000000 0.854368
0.366918 0.618982 0.829068
0.371374 0.617670 0.829648
0.394354 0.613489 0.834318
0.439673 0.600397 0.842863
0.500877 0.553765 0.848569
0.619409 0.453468 0.847654
0.821592 0.271763 0.844968
1.000000 0.099245 0.853208
0.296727 0.675074 0.845975
0.319829 0.676020 0.846036
0.399359 0.680720 0.846891
0.516381 0.691615 0.848783
0.586236 0.680690 0.856748
0.650202 0.604822 0.855436
0.828946 0.475990 0.847105
1.000000 0.431678 0.848356
0.000000 0.757595 0.865263
0.000000 0.758083 0.865537
0.258610 0.759976 0.866514
0.433326 0.764157 0.868437
0.604456 0.773495 0.870726
0.738003 0.775570 0.869444
0.838193 0.645563 0.848783
1.000000 0.633356 0.836912
0.000000 0.876310 0.883330
0.000000 0.876646 0.883604
0.000000 0.877684 0.884367
0.000000 0.879637 0.885710
0.466346 0.881498 0.886717
0.692409 0.878019 0.882200
0.829679 0.824887 0.830747
1.000000 0.848722 0.848417
0.000000 1.000000 0.860563
0.000000 1.000000 0.860105
0.000000 1.000000 0.858152
0.000000 1.000000 0.853788
0.242832 1.000000 0.850706
0.671107 0.996735 0.860746
0.879911 0.987945 0.870970
1.000000 0.974609 0.807004
0.432654 0.610559 0.953216
0.432776 0.610590 0.953246
0.432502 0.610407 0.953124
0.432013 0.601801 0.954253
0.493111 0.542107 0.962890
0.604547 0.462928 0.971069
0.761013 0.273472 0.979858
0.972747 0.000000 0.987030
0.432898 0.610681 0.953307
0.432959 0.610712 0.953338
0.432776 0.610590 0.953246
0.434241 0.600092 0.954742
0.498299 0.551385 0.962707
0.607141 0.475319 0.970764
0.761379 0.296117 0.979553
0.972747 0.000000 0.986786
0.442512 0.622400 0.953796
0.443458 0.623774 0.953704
0.447150 0.629389 0.953094
0.467231 0.628809 0.955444
0.521569 0.590784 0.962310
0.618830 0.523552 0.970184
0.764614 0.377600 0.979126
0.973663 0.000000 0.986969
0.491096 0.683406 0.950072
0.491890 0.684443 0.949950
0.495064 0.688441 0.949310
0.518120 0.684291 0.952911
0.567559 0.659724 0.961273
0.641596 0.602838 0.969451
0.771511 0.491188 0.978576
0.975586 0.288243 0.987091
0.550072 0.750393 0.944488
0.550286 0.750393 0.944518
0.551141 0.750179 0.944488
0.578058 0.749660 0.947631
0.634699 0.745113 0.957275
0.684138 0.705348 0.967559
0.781674 0.613794 0.977600
0.978149 0.471992 0.986847
0.430854 0.794339 0.955047
0.430793 0.794247 0.954986
0.448188 0.793729 0.954772
0.542626 0.798764 0.954406
0.673579 0.814511 0.953491
0.775326 0.828977 0.962280
0.818692 0.767483 0.974426
0.981262 0.641505 0.985809
0.000000 0.864195 0.965301
0.060945 0.864286 0.965301
0.268345 0.864897 0.965332
0.433783 0.867277 0.965423
0.611231 0.875303 0.965362
0.788998 0.895445 0.965270
0.910369 0.921996 0.970520
0.981079 0.837888 0.979675
0.000000 0.968170 0.973693
0.000000 0.968292 0.973754
0.000000 0.968719 0.973968
0.000000 0.969635 0.974487
0.466438 0.971283 0.975311
0.721920 0.974151 0.976867
0.896696 0.979339 0.980438
0.978973 0.975280 0.974884
