20 Preset/Movie Style Preset/【3】LUT for PR-AE-FCPX/Movie - LUT  (6).cube
# Created by Adobe Lightroom plugin Export LUT (1.24.0)
# www.johnrellis.com/lightroom/exportlut.htm
# Preset: 电影质感06（修改版）
# Color profile: C:\Program Files (x86)\Common Files\Adobe\Color\Profiles\Recommended\VideoHD.icc
LUT_3D_SIZE 8
DOMAIN_MIN 0.000000 0.000000 0.000000
DOMAIN_MAX 0.903226 0.903226 0.903226
0.080262 0.094423 0.108461
0.094301 0.096345 0.109071
0.142275 0.103365 0.110719
0.253330 0.111147 0.109590
0.441627 0.092226 0.099855
0.634913 0.000000 0.068269
0.764584 0.099031 0.000855
0.854978 0.213016 0.000000
0.086580 0.101656 0.114839
0.090547 0.102785 0.114656
0.146792 0.113649 0.111788
0.260472 0.124208 0.109133
0.449073 0.115023 0.098756
0.634730 0.079133 0.063996
0.762875 0.132174 0.000000
0.853483 0.228611 0.000000
0.101778 0.137026 0.137148
0.106783 0.141207 0.139101
0.124941 0.135866 0.132845
0.273960 0.178500 0.114900
0.493324 0.196292 0.087343
0.659388 0.197940 0.029938
0.775998 0.233829 0.000000
0.857176 0.298283 0.000000
0.158083 0.253483 0.204746
0.167086 0.260288 0.208164
0.202396 0.273045 0.210269
0.218387 0.223148 0.174960
0.443305 0.280003 0.138308
0.691432 0.348150 0.000000
0.787900 0.366217 0.000000
0.857023 0.400946 0.000000
0.326390 0.436347 0.327947
0.337530 0.441962 0.332280
0.384771 0.466011 0.351171
0.406928 0.444099 0.317113
0.372595 0.343175 0.236973
0.568505 0.384894 0.192203
0.759182 0.470832 0.135073
0.852598 0.517449 0.092988
0.518914 0.585229 0.472328
0.526207 0.589532 0.476997
0.550134 0.602594 0.491127
0.587945 0.622065 0.511681
0.574823 0.573571 0.436622
0.528283 0.467872 0.325414
0.661463 0.494179 0.281193
0.803494 0.577142 0.286381
0.642847 0.688594 0.602808
0.645655 0.690272 0.605219
0.656001 0.696468 0.613825
0.674952 0.708797 0.630030
0.684688 0.706477 0.621607
0.677455 0.669459 0.551415
0.648432 0.584497 0.436713
0.731319 0.594812 0.397803
0.720241 0.771084 0.702754
0.721645 0.772183 0.704097
0.727718 0.776822 0.709560
0.739223 0.785519 0.720027
0.754635 0.796506 0.733425
0.754299 0.782010 0.707851
0.747707 0.747890 0.654078
0.730434 0.682887 0.560784
0.080903 0.097169 0.115694
0.094392 0.097169 0.116732
0.140871 0.104036 0.118318
0.249943 0.113893 0.119203
0.436103 0.100801 0.112520
0.624445 0.012757 0.096559
0.756405 0.107942 0.057221
0.849851 0.214542 0.000000
0.086824 0.102968 0.117403
0.092470 0.106142 0.121004
0.145266 0.115389 0.121157
0.258640 0.126864 0.119814
0.445411 0.121096 0.112032
0.628748 0.095521 0.095308
0.757290 0.139742 0.053162
0.849210 0.230625 0.000000
0.106020 0.142184 0.145724
0.110323 0.146365 0.148135
0.128725 0.142153 0.141604
0.281315 0.184421 0.125307
0.485542 0.197635 0.106905
0.651728 0.200168 0.086519
0.768521 0.233982 0.030579
0.852506 0.297642 0.000000
0.162081 0.254643 0.212650
0.170901 0.260990 0.216098
0.206699 0.277348 0.221317
0.219852 0.226596 0.182773
0.443244 0.282292 0.148653
0.682704 0.344335 0.032105
0.781125 0.362676 0.000000
0.852903 0.398749 0.003754
0.328832 0.435065 0.333959
0.339391 0.440436 0.337835
0.384894 0.463844 0.356146
0.408331 0.445197 0.325719
0.372869 0.344762 0.243534
0.569818 0.387732 0.200961
0.758114 0.472358 0.152010
0.849790 0.516442 0.125185
0.517388 0.582757 0.473701
0.523491 0.586114 0.477119
0.547631 0.599359 0.491402
0.587884 0.621698 0.515435
0.574517 0.573785 0.441566
0.528618 0.469306 0.331304
0.662501 0.496651 0.287999
0.803006 0.578241 0.293980
0.641291 0.686793 0.602167
0.643671 0.688136 0.604028
0.654078 0.694331 0.612665
0.673365 0.706874 0.629236
0.684535 0.706416 0.623529
0.676936 0.669398 0.553796
0.647272 0.584039 0.438849
0.730861 0.594965 0.400305
0.719142 0.769711 0.701991
0.720729 0.771054 0.703548
0.726772 0.775631 0.708980
0.738308 0.784482 0.719570
0.755184 0.797024 0.734920
0.755001 0.783047 0.710170
0.747799 0.748440 0.655756
0.730190 0.683070 0.562249
0.079438 0.103944 0.137331
0.089906 0.102998 0.142855
0.145846 0.103029 0.150484
0.256596 0.103700 0.148379
0.433417 0.101595 0.152468
0.619379 0.085481 0.150057
0.751736 0.143709 0.143954
0.845670 0.236057 0.137789
0.089052 0.116030 0.141421
0.092622 0.115145 0.148074
0.149844 0.117128 0.155306
0.257267 0.128023 0.157137
0.441169 0.126436 0.155856
0.622919 0.122866 0.152193
0.752651 0.167361 0.144381
0.845335 0.250706 0.138186
0.100923 0.146578 0.155001
0.109468 0.152834 0.161501
0.143465 0.166323 0.175540
0.292973 0.195193 0.171237
0.480659 0.204868 0.165438
0.645838 0.213748 0.157015
0.762936 0.250217 0.148501
0.847501 0.311742 0.144320
0.164584 0.259007 0.229740
0.180606 0.268254 0.240543
0.227939 0.299382 0.263493
0.240482 0.251499 0.219333
0.482765 0.311650 0.193423
0.676143 0.351476 0.167514
0.775662 0.373419 0.160616
0.848142 0.409552 0.163668
0.340856 0.434882 0.357305
0.351263 0.440558 0.361761
0.394751 0.464363 0.380529
0.431525 0.465095 0.370367
0.393072 0.365728 0.279393
0.591608 0.413397 0.243168
0.763546 0.491463 0.217746
0.844419 0.522789 0.216098
0.520317 0.580316 0.486122
0.526299 0.583673 0.489662
0.549584 0.597223 0.503593
0.590661 0.621790 0.529931
0.582177 0.582879 0.469673
0.536492 0.481025 0.358953
0.671931 0.513024 0.320592
0.804776 0.589014 0.332647
0.641566 0.685206 0.607538
0.644007 0.686610 0.609491
0.654231 0.692897 0.617975
0.673304 0.705623 0.634302
0.688777 0.711330 0.637781
0.679347 0.674311 0.571038
0.650233 0.590539 0.457099
0.735439 0.604547 0.421820
0.718074 0.768215 0.703700
0.719509 0.769345 0.704952
0.725521 0.774014 0.710414
0.737545 0.783383 0.721553
0.754696 0.796384 0.737362
0.757412 0.786862 0.719142
0.749325 0.751766 0.663844
0.730404 0.685542 0.570886
0.039460 0.117098 0.191928
0.057923 0.116640 0.199557
0.147127 0.107881 0.232456
0.285405 0.103273 0.232486
0.461952 0.014221 0.219455
0.598962 0.101686 0.222843
0.736294 0.161044 0.223575
0.833707 0.255039 0.228855
0.060273 0.135775 0.200717
0.070253 0.132692 0.207706
0.150912 0.124544 0.238499
0.292454 0.125338 0.237888
0.462226 0.095827 0.223178
0.605158 0.134707 0.227298
0.738521 0.187045 0.227512
0.834012 0.271366 0.231998
0.098451 0.182742 0.212039
0.110994 0.186862 0.217319
0.151278 0.194217 0.248936
0.303685 0.200900 0.254307
0.462318 0.212406 0.249760
0.628870 0.229679 0.245792
0.749844 0.273899 0.245212
0.836820 0.332708 0.245731
0.140139 0.254307 0.239567
0.153201 0.261021 0.246006
0.215579 0.291966 0.281132
0.287572 0.301854 0.289677
0.518975 0.348882 0.283574
0.656733 0.362646 0.276677
0.760250 0.388251 0.270939
0.836606 0.423896 0.270451
0.311467 0.421729 0.355383
0.328008 0.428260 0.364630
0.392340 0.455421 0.402930
0.469154 0.497261 0.439704
0.425910 0.402625 0.343847
0.624811 0.460761 0.325139
0.767178 0.519524 0.319615
0.833646 0.531640 0.319829
0.510948 0.572412 0.491768
0.520256 0.576776 0.498756
0.549248 0.591028 0.519493
0.590112 0.617365 0.546258
0.598352 0.602075 0.518303
0.551568 0.503197 0.407599
0.689876 0.543664 0.380529
0.809293 0.608881 0.396582
0.635492 0.679103 0.609064
0.639490 0.681025 0.613031
0.651759 0.688441 0.623957
0.671717 0.702358 0.641199
0.697749 0.722377 0.663416
0.684688 0.684321 0.601740
0.654932 0.601709 0.488045
0.743465 0.620966 0.458717
0.714168 0.764218 0.704402
0.716213 0.765560 0.706600
0.722591 0.770657 0.712459
0.734981 0.780545 0.723995
0.753048 0.794583 0.740719
0.762478 0.794675 0.736538
0.752224 0.758358 0.679133
0.730953 0.690181 0.586236
0.000000 0.145510 0.285222
0.000000 0.145388 0.292943
0.112917 0.140627 0.325658
0.321202 0.083253 0.380438
0.505547 0.044953 0.352758
0.651484 0.062104 0.326207
0.734340 0.150973 0.307439
0.813199 0.282017 0.329900
0.000000 0.165438 0.293065
0.000000 0.164004 0.300664
0.121553 0.159274 0.331762
0.327459 0.113863 0.384771
0.509270 0.115785 0.356481
0.649226 0.127108 0.329351
0.730465 0.190646 0.315587
0.813748 0.296818 0.333654
0.103456 0.229679 0.298558
0.110994 0.232792 0.308080
0.145998 0.227787 0.342168
0.341711 0.201938 0.397223
0.516472 0.227207 0.370184
0.636683 0.232853 0.341253
0.719753 0.290593 0.342596
0.815061 0.349859 0.347356
0.132235 0.308690 0.325597
0.151339 0.312627 0.330175
0.222141 0.328740 0.349310
0.333471 0.348028 0.399695
0.506279 0.355688 0.391150
0.624262 0.372351 0.380896
0.734554 0.399664 0.375616
0.817868 0.433661 0.372198
0.262821 0.402228 0.358648
0.276982 0.407324 0.364111
0.332525 0.427680 0.386572
0.439399 0.472572 0.446204
0.475288 0.455634 0.425483
0.654749 0.510643 0.428138
0.746761 0.518334 0.417548
0.818631 0.531182 0.409827
0.465644 0.547936 0.471687
0.474983 0.551629 0.477668
0.509483 0.565850 0.500999
0.566308 0.592493 0.543084
0.615320 0.623835 0.572381
0.568750 0.530358 0.465248
0.712337 0.582300 0.458381
0.818723 0.634974 0.472480
0.608698 0.664454 0.590509
0.612757 0.666163 0.594018
0.629145 0.673640 0.608942
0.659724 0.689357 0.638697
0.690089 0.713558 0.665644
0.692012 0.698299 0.639155
0.659632 0.615137 0.525658
0.754665 0.642664 0.506462
0.692348 0.750240 0.683803
0.694881 0.751705 0.686488
0.705470 0.758053 0.698024
0.725826 0.771237 0.720760
0.746456 0.788144 0.740383
0.771054 0.807187 0.762722
0.756558 0.768551 0.702113
0.730739 0.695338 0.605158
0.000000 0.193881 0.404578
0.000000 0.193820 0.410803
0.032227 0.190646 0.435584
0.290196 0.165652 0.481666
0.545342 0.000000 0.514641
0.680049 0.158267 0.474495
0.769406 0.248783 0.449409
0.826383 0.299290 0.427344
0.000000 0.211276 0.407691
0.000000 0.211002 0.413184
0.086152 0.207584 0.436561
0.293980 0.185336 0.480964
0.545739 0.095491 0.514611
0.678157 0.191165 0.475746
0.765835 0.266026 0.450416
0.823819 0.310216 0.428473
0.103212 0.285527 0.413519
0.115541 0.285374 0.420447
0.154208 0.273167 0.443183
0.312688 0.260594 0.484443
0.553216 0.225315 0.520806
0.674525 0.291875 0.485847
0.755123 0.329686 0.458900
0.815488 0.354894 0.436683
0.211765 0.357214 0.407630
0.226780 0.359838 0.410803
0.276707 0.376440 0.434424
0.351354 0.383307 0.485481
0.554833 0.372137 0.530694
0.664332 0.416999 0.504509
0.736812 0.414649 0.472908
0.791836 0.446601 0.467567
0.274205 0.455604 0.447395
0.287846 0.457954 0.450263
0.339239 0.467536 0.462074
0.422522 0.485389 0.484565
0.526421 0.504540 0.530968
0.634333 0.504662 0.512535
0.717311 0.514153 0.502556
0.795804 0.530236 0.496864
0.417426 0.529778 0.472786
0.426307 0.532769 0.476539
0.458350 0.543450 0.490272
0.511955 0.563317 0.516014
0.590570 0.602197 0.572869
0.603326 0.576043 0.540429
0.734249 0.623774 0.552178
0.804288 0.626154 0.540490
0.567346 0.642176 0.564874
0.572351 0.644312 0.568811
0.591730 0.652461 0.584283
0.626123 0.668452 0.613703
0.669490 0.692500 0.654932
0.707240 0.722713 0.687098
0.668086 0.635950 0.575738
0.773190 0.676967 0.575860
0.667781 0.733486 0.664607
0.669856 0.734676 0.666621
0.678981 0.740169 0.675654
0.697536 0.751858 0.694728
0.727932 0.771725 0.727626
0.762264 0.799039 0.762509
0.765286 0.785916 0.738186
0.731777 0.704067 0.631922
0.000000 0.265812 0.524071
0.000000 0.267094 0.529900
0.130770 0.263859 0.545251
0.314000 0.250828 0.576013
0.539879 0.190829 0.618555
0.717128 0.177432 0.628260
0.784054 0.310948 0.582910
0.829770 0.394568 0.555810
0.000000 0.274083 0.516289
0.000000 0.275853 0.522637
0.139406 0.272984 0.538109
0.307836 0.259953 0.567498
0.527214 0.206241 0.609247
0.705257 0.187869 0.618372
0.774350 0.306889 0.573022
0.822873 0.383307 0.545434
0.169528 0.345983 0.521569
0.173526 0.342473 0.525444
0.210727 0.331365 0.539666
0.334997 0.322942 0.567651
0.528252 0.290593 0.607202
0.701381 0.285191 0.620691
0.769924 0.377111 0.582300
0.818265 0.433539 0.558526
0.282689 0.421393 0.510216
0.290929 0.423255 0.514580
0.328222 0.430976 0.533684
0.380499 0.422736 0.566705
0.527794 0.411597 0.606683
0.694270 0.411994 0.629480
0.759091 0.473121 0.597284
0.806638 0.492195 0.571221
0.336187 0.485084 0.511681
0.342168 0.484260 0.511498
0.374670 0.486885 0.516411
0.434882 0.498329 0.533959
0.510155 0.512016 0.588861
0.665614 0.510582 0.627588
0.737057 0.547662 0.604303
0.790860 0.545159 0.580133
0.395727 0.567102 0.543511
0.403265 0.568322 0.545251
0.431983 0.572198 0.551720
0.482490 0.580072 0.564691
0.548058 0.592523 0.584863
0.632105 0.614649 0.632410
0.713893 0.616449 0.618677
0.772244 0.616541 0.605554
0.515801 0.622492 0.563531
0.521416 0.624750 0.566491
0.539330 0.630396 0.574762
0.573541 0.641993 0.592096
0.618158 0.658961 0.617823
0.675593 0.690089 0.666529
0.684718 0.668818 0.639765
0.792782 0.707790 0.650965
0.627893 0.706691 0.633539
0.630823 0.708064 0.636103
0.643549 0.714870 0.647852
0.663661 0.726162 0.666835
0.692439 0.744259 0.695430
0.732998 0.772091 0.738766
0.783383 0.813535 0.790463
0.735042 0.717525 0.667170
0.191867 0.357733 0.622431
0.211612 0.358221 0.625666
0.269718 0.352331 0.633356
0.379736 0.343603 0.652613
0.530541 0.318669 0.678859
0.702571 0.263798 0.709926
0.804349 0.324132 0.706081
0.838499 0.435737 0.663600
0.194064 0.362432 0.616541
0.212863 0.363104 0.619989
0.270481 0.358953 0.629114
0.375830 0.349859 0.647974
0.524773 0.326452 0.674556
0.697108 0.274907 0.706264
0.799985 0.327672 0.702449
0.834989 0.435889 0.660121
0.262974 0.408301 0.610712
0.265873 0.405249 0.613581
0.294682 0.396094 0.622797
0.390204 0.393957 0.644831
0.522667 0.375433 0.670466
0.685634 0.337530 0.701656
0.791653 0.375891 0.701228
0.828763 0.468482 0.662776
0.335302 0.469429 0.595544
0.344823 0.471626 0.599542
0.371191 0.472267 0.612634
0.405829 0.457343 0.634821
0.515831 0.450111 0.663020
0.665522 0.432197 0.696834
0.778347 0.455116 0.703487
0.820066 0.526390 0.672541
0.372595 0.505303 0.565850
0.379706 0.506310 0.567346
0.396216 0.511467 0.579675
0.446296 0.526909 0.609522
0.503410 0.523156 0.646937
0.629084 0.519280 0.685206
0.757809 0.532860 0.705806
0.808927 0.589776 0.686030
0.412116 0.577752 0.590295
0.415259 0.576745 0.589960
0.431525 0.574914 0.590906
0.467781 0.575189 0.596582
0.522820 0.578515 0.608759
0.604273 0.606104 0.672786
0.738155 0.625116 0.720638
0.796323 0.649897 0.700740
0.483864 0.659602 0.631891
0.487160 0.659907 0.632654
0.502068 0.661250 0.636042
0.534691 0.664332 0.643549
0.578180 0.667811 0.653620
0.628931 0.672969 0.667536
0.692134 0.689784 0.710201
0.775631 0.693050 0.704128
0.580743 0.694240 0.640314
0.582757 0.694392 0.640864
0.592798 0.696040 0.644739
0.613733 0.701289 0.654475
0.642725 0.711727 0.670802
0.677119 0.727962 0.693416
0.726070 0.756039 0.734676
0.745602 0.744991 0.724514
