20 Preset/Movie Style Preset/【3】LUT for PR-AE-FCPX/Movie - LUT  (5).cube
# Created by Adobe Lightroom plugin Export LUT (1.24.0)
# www.johnrellis.com/lightroom/exportlut.htm
# Preset: 电影质感05（修改版）
# Color profile: C:\Program Files (x86)\Common Files\Adobe\Color\Profiles\Recommended\VideoHD.icc
LUT_3D_SIZE 8
DOMAIN_MIN 0.000000 0.000000 0.000000
DOMAIN_MAX 0.903226 0.903226 0.903226
0.080262 0.094423 0.108461
0.102083 0.096254 0.107942
0.207919 0.104128 0.104768
0.431189 0.053864 0.088014
0.669001 0.000000 0.000000
0.817136 0.000000 0.000000
0.894133 0.174044 0.000000
0.954192 0.271275 0.000000
0.088777 0.105592 0.117372
0.094789 0.106722 0.117159
0.216037 0.128084 0.104738
0.441077 0.117464 0.080018
0.672938 0.000000 0.000000
0.813962 0.106752 0.000000
0.890715 0.199619 0.000000
0.951537 0.284611 0.000000
0.118593 0.180819 0.160983
0.129427 0.189303 0.164523
0.162417 0.171786 0.148104
0.474006 0.239963 0.015167
0.701381 0.253056 0.000000
0.821164 0.273167 0.000000
0.893431 0.308293 0.000000
0.952911 0.359564 0.000000
0.264286 0.384070 0.285466
0.283146 0.393408 0.291386
0.340642 0.408484 0.293645
0.341222 0.319158 0.220768
0.653651 0.389593 0.000000
0.822019 0.452705 0.000000
0.887816 0.449439 0.000000
0.946563 0.467994 0.000000
0.504753 0.574426 0.459449
0.514000 0.578943 0.464088
0.551385 0.598413 0.484382
0.565179 0.576440 0.443305
0.527855 0.467018 0.322850
0.720912 0.505516 0.193149
0.861234 0.555657 0.000000
0.935210 0.584833 0.000000
0.637537 0.683162 0.595880
0.642725 0.686549 0.600641
0.657343 0.695125 0.612360
0.680568 0.708705 0.628870
0.673152 0.672023 0.559350
0.646204 0.582757 0.436713
0.764645 0.598444 0.342840
0.895140 0.651026 0.209354
0.712886 0.761349 0.692409
0.715023 0.763088 0.694331
0.722713 0.768856 0.700740
0.737667 0.780056 0.713619
0.745785 0.777218 0.705348
0.737789 0.740993 0.650019
0.719844 0.671473 0.548272
0.800229 0.678004 0.481117
0.776699 0.831998 0.778988
0.777981 0.832822 0.780056
0.783383 0.836393 0.784665
0.793851 0.843229 0.793545
0.806729 0.850645 0.803159
0.806180 0.839658 0.781430
0.801938 0.812497 0.731350
0.787655 0.758236 0.656977
0.082063 0.098512 0.118776
0.099794 0.098299 0.120882
0.195224 0.103334 0.120119
0.411109 0.080140 0.108949
0.654902 0.000000 0.047181
0.803922 0.000000 0.000000
0.885527 0.166842 0.000000
0.947448 0.264347 0.000000
0.088228 0.107851 0.121431
0.098512 0.113375 0.127962
0.212222 0.127199 0.121248
0.433234 0.118410 0.103883
0.666499 0.000000 0.020661
0.806485 0.104189 0.000000
0.884855 0.196201 0.000000
0.946075 0.279332 0.000000
0.126986 0.188785 0.177340
0.137331 0.197024 0.181674
0.170016 0.182834 0.164858
0.474281 0.244144 0.082979
0.690822 0.248264 0.000000
0.813169 0.268132 0.000000
0.886107 0.301762 0.000000
0.947051 0.352728 0.000000
0.268223 0.380346 0.295415
0.285588 0.389441 0.301427
0.344549 0.409949 0.309514
0.339757 0.320531 0.232486
0.647333 0.387884 0.083833
0.813046 0.444343 0.000000
0.880400 0.442145 0.000000
0.940795 0.462013 0.000000
0.504112 0.571405 0.463386
0.512627 0.575555 0.467567
0.548608 0.594446 0.486671
0.563104 0.574914 0.449683
0.524468 0.466041 0.330236
0.719234 0.506065 0.207309
0.857877 0.555230 0.000000
0.931456 0.582147 0.000000
0.635187 0.680262 0.595056
0.639063 0.682521 0.598108
0.654108 0.691402 0.610132
0.679316 0.707149 0.630030
0.671717 0.670985 0.561944
0.645106 0.582879 0.441657
0.764157 0.599420 0.349767
0.893767 0.650965 0.223392
0.710811 0.758663 0.690700
0.712428 0.759792 0.691920
0.720089 0.765591 0.698360
0.735378 0.777249 0.711543
0.744961 0.776394 0.705989
0.736660 0.740078 0.650752
0.718135 0.670008 0.548425
0.798917 0.676600 0.480995
0.774990 0.830259 0.777432
0.776547 0.831357 0.778866
0.781888 0.834928 0.783413
0.792569 0.841917 0.792477
0.807736 0.851499 0.805051
0.807004 0.840665 0.783749
0.801907 0.812833 0.732753
0.787320 0.758145 0.657771
0.065126 0.109529 0.161685
0.091279 0.106996 0.172396
0.202487 0.100801 0.184390
0.393622 0.057008 0.174929
0.633570 0.000000 0.165316
0.791165 0.085847 0.137636
0.877714 0.202701 0.088045
0.941772 0.286107 0.000000
0.089906 0.133272 0.168978
0.096437 0.131228 0.181735
0.211337 0.131777 0.192691
0.397894 0.136873 0.188937
0.643641 0.088014 0.166293
0.793088 0.147860 0.135439
0.877256 0.225345 0.071595
0.940826 0.299779 0.000000
0.115175 0.194308 0.193027
0.134646 0.205692 0.204257
0.202792 0.227329 0.226200
0.478157 0.254124 0.192538
0.683467 0.256718 0.163760
0.806851 0.281285 0.119753
0.880735 0.316503 0.000000
0.942596 0.363317 0.000000
0.273655 0.382788 0.320928
0.303563 0.395331 0.338231
0.381018 0.435279 0.373297
0.375860 0.358251 0.294408
0.676600 0.426062 0.191226
0.806271 0.451881 0.119265
0.874693 0.453956 0.024689
0.936431 0.472572 0.000000
0.510338 0.568414 0.484474
0.519219 0.573175 0.489143
0.553826 0.593133 0.508629
0.579858 0.591943 0.496773
0.541711 0.489448 0.380011
0.730648 0.531792 0.279606
0.855253 0.572412 0.172305
0.925933 0.588617 0.102144
0.636316 0.677638 0.603937
0.640223 0.680049 0.607111
0.654841 0.689174 0.618799
0.680171 0.706294 0.639796
0.675166 0.677028 0.586358
0.648463 0.592187 0.470222
0.767514 0.611688 0.388647
0.894682 0.660853 0.290043
0.710842 0.757382 0.695125
0.712520 0.758602 0.696468
0.720089 0.764431 0.702815
0.735256 0.776211 0.716030
0.748470 0.781125 0.718563
0.738918 0.744778 0.663416
0.718837 0.675105 0.565332
0.802731 0.685542 0.502373
0.774289 0.829191 0.779141
0.775479 0.829953 0.780087
0.780972 0.833646 0.784756
0.792172 0.841245 0.794491
0.807675 0.851255 0.807370
0.809689 0.843992 0.792050
0.803403 0.816007 0.741207
0.788113 0.760555 0.664271
0.000000 0.134951 0.260380
0.000000 0.134096 0.273167
0.206027 0.110658 0.326421
0.444587 0.035492 0.316991
0.640833 0.000000 0.287480
0.747158 0.191531 0.287877
0.850553 0.259648 0.264500
0.919219 0.333898 0.242405
0.002319 0.172122 0.274083
0.026246 0.166201 0.285801
0.215946 0.147066 0.335149
0.454536 0.132998 0.325109
0.638972 0.123598 0.294774
0.752621 0.221500 0.291600
0.851316 0.282322 0.267277
0.919310 0.348272 0.243381
0.121187 0.255619 0.288823
0.148440 0.262089 0.296910
0.227604 0.273014 0.346624
0.464637 0.280034 0.349676
0.628931 0.300999 0.334630
0.771969 0.326268 0.307317
0.855955 0.368322 0.282994
0.922210 0.406683 0.249699
0.228946 0.370886 0.332219
0.253849 0.379522 0.341527
0.355566 0.417884 0.389624
0.440253 0.424475 0.395544
0.675868 0.463447 0.354162
0.781216 0.469856 0.330297
0.854551 0.477241 0.300542
0.921782 0.491920 0.258793
0.480690 0.554101 0.478279
0.494820 0.559472 0.487648
0.546990 0.582055 0.525261
0.605310 0.618189 0.562646
0.566613 0.526085 0.455207
0.745968 0.572900 0.392035
0.846372 0.598566 0.352361
0.912566 0.600122 0.319646
0.629419 0.671412 0.606928
0.635920 0.674891 0.613245
0.654353 0.684565 0.630365
0.679652 0.703120 0.651759
0.684474 0.691035 0.628229
0.656336 0.610712 0.518853
0.774716 0.635401 0.456092
0.892485 0.679103 0.400427
0.705776 0.751553 0.695796
0.708705 0.753414 0.699001
0.718105 0.760555 0.708125
0.734218 0.773892 0.722805
0.757168 0.792203 0.743709
0.744259 0.754940 0.687190
0.719936 0.683650 0.592981
0.809995 0.700313 0.536461
0.771420 0.826566 0.780423
0.773495 0.827695 0.782559
0.779294 0.831754 0.787625
0.790707 0.839628 0.797421
0.807034 0.850462 0.811032
0.815183 0.850645 0.807584
0.806210 0.821958 0.756680
0.789609 0.765042 0.676173
0.000000 0.189944 0.400855
0.000000 0.189456 0.411139
0.169772 0.179477 0.449744
0.482002 0.000000 0.507988
0.671595 0.137545 0.465339
0.775387 0.240421 0.428870
0.826322 0.311528 0.403296
0.876646 0.410163 0.416632
0.000000 0.225132 0.409857
0.000000 0.222507 0.419501
0.192020 0.212772 0.455482
0.490394 0.127474 0.511864
0.671168 0.199680 0.470008
0.770779 0.272770 0.433143
0.820432 0.339879 0.412696
0.877226 0.420203 0.418769
0.180117 0.327398 0.411444
0.198489 0.332250 0.423102
0.257816 0.325139 0.462318
0.503807 0.289036 0.520562
0.661799 0.344244 0.484596
0.749966 0.364630 0.446479
0.802853 0.421332 0.440864
0.879240 0.457038 0.425177
0.269017 0.434333 0.439918
0.291417 0.438331 0.444526
0.372595 0.455085 0.464332
0.487404 0.475257 0.515801
0.634821 0.483345 0.504265
0.728084 0.493050 0.484047
0.812833 0.505882 0.462379
0.886412 0.520287 0.436500
0.427436 0.530785 0.475105
0.440864 0.535210 0.480720
0.490608 0.552483 0.503075
0.575219 0.590417 0.559136
0.600916 0.572198 0.534844
0.746365 0.605921 0.511284
0.819272 0.601953 0.488777
0.891966 0.603357 0.455787
0.594171 0.650019 0.583917
0.600580 0.652705 0.589227
0.624048 0.663050 0.609369
0.661646 0.682490 0.644282
0.692836 0.705165 0.667567
0.663416 0.630732 0.570703
0.786709 0.665522 0.533379
0.889006 0.699580 0.509758
0.686152 0.736812 0.680018
0.688624 0.738277 0.682521
0.699519 0.744961 0.693751
0.722805 0.760281 0.718837
0.749264 0.783200 0.744137
0.750607 0.768185 0.718196
0.720485 0.692927 0.623255
0.821530 0.718563 0.576562
0.750271 0.814084 0.760342
0.752621 0.815305 0.762875
0.762509 0.820645 0.773495
0.782345 0.832120 0.794553
0.801511 0.845640 0.811032
0.823819 0.860502 0.829282
0.809995 0.830259 0.777981
0.789334 0.768643 0.689876
0.000000 0.272160 0.529168
0.000000 0.271855 0.535180
0.215976 0.266575 0.558404
0.447364 0.232273 0.600336
0.690608 0.175113 0.627863
0.781643 0.319829 0.581048
0.833066 0.408209 0.548943
0.874510 0.449470 0.526909
0.000000 0.298680 0.529778
0.089906 0.298009 0.535149
0.240452 0.292363 0.557122
0.450874 0.262913 0.597436
0.687190 0.221469 0.625879
0.776944 0.344213 0.580987
0.828519 0.420386 0.549523
0.871214 0.456855 0.527703
0.274052 0.403235 0.531518
0.286107 0.403143 0.538048
0.320500 0.387671 0.559869
0.472328 0.372595 0.596674
0.681086 0.355749 0.628016
0.762936 0.434821 0.588830
0.813962 0.472297 0.558434
0.860899 0.491829 0.536950
0.374670 0.482765 0.521538
0.387915 0.485145 0.524193
0.436316 0.501274 0.546227
0.504601 0.509331 0.593530
0.664912 0.504570 0.633448
0.740902 0.545251 0.605737
0.791470 0.541863 0.574182
0.836088 0.561944 0.566674
0.445899 0.573968 0.557488
0.456214 0.575677 0.559930
0.495277 0.582879 0.570184
0.557641 0.597040 0.589899
0.632776 0.613855 0.630121
0.709407 0.613001 0.612879
0.772671 0.612879 0.597223
0.851438 0.616571 0.579675
0.556664 0.634180 0.581506
0.563256 0.636622 0.585046
0.585962 0.644404 0.596887
0.622827 0.658778 0.618769
0.674128 0.686488 0.663661
0.683131 0.665583 0.634852
0.796536 0.696925 0.624872
0.870481 0.694087 0.601404
0.659693 0.716762 0.660029
0.662776 0.718624 0.662989
0.674128 0.725490 0.674098
0.696315 0.739712 0.696498
0.729976 0.762875 0.732418
0.765255 0.791836 0.765133
0.725734 0.709041 0.662226
0.843687 0.747158 0.634699
0.727749 0.799954 0.741817
0.729549 0.800900 0.743679
0.737972 0.805600 0.752377
0.755398 0.815763 0.770565
0.784390 0.832639 0.800198
0.816770 0.854673 0.829496
0.818814 0.844816 0.810086
0.790433 0.775845 0.711971
0.243229 0.378241 0.631586
0.265507 0.378912 0.635737
0.341405 0.374640 0.648402
0.478492 0.361425 0.672511
0.657313 0.325078 0.704280
0.791104 0.354162 0.709560
0.833463 0.462470 0.664729
0.871946 0.527092 0.643610
0.261479 0.392218 0.627100
0.281346 0.393317 0.631464
0.349645 0.389349 0.644312
0.477394 0.376074 0.667781
0.651240 0.342626 0.699611
0.785122 0.365332 0.705043
0.827909 0.465431 0.660090
0.866941 0.524743 0.638178
0.369970 0.471168 0.625849
0.372747 0.467536 0.629267
0.399939 0.456184 0.641901
0.496468 0.448615 0.664729
0.644038 0.428931 0.695491
0.773068 0.443091 0.704463
0.817960 0.518517 0.666987
0.860258 0.559075 0.648219
0.449836 0.540490 0.611566
0.456580 0.542260 0.615351
0.487190 0.549920 0.632074
0.526970 0.543267 0.658991
0.632074 0.538140 0.690059
0.754116 0.544213 0.707057
0.802304 0.590509 0.679530
0.848356 0.601740 0.659022
0.496223 0.597162 0.614038
0.501122 0.597009 0.614405
0.524712 0.599207 0.618799
0.567468 0.607782 0.632715
0.621485 0.621118 0.676143
0.728054 0.623621 0.706661
0.783871 0.648249 0.688930
0.835416 0.640131 0.666011
0.545922 0.663508 0.642512
0.550805 0.664179 0.643793
0.569787 0.666438 0.648432
0.602869 0.671199 0.657740
0.645808 0.679133 0.672084
0.699672 0.694881 0.708980
0.765896 0.693690 0.696559
0.825040 0.689296 0.680262
0.627253 0.701534 0.657984
0.630518 0.702876 0.659937
0.641474 0.706966 0.666255
0.661372 0.715908 0.678981
0.689143 0.730312 0.698482
0.733852 0.759304 0.741421
0.741604 0.737179 0.713008
0.858671 0.767758 0.707546
0.694942 0.776913 0.714351
0.697078 0.778195 0.716518
0.706661 0.784054 0.726345
0.724208 0.794247 0.744167
0.751431 0.810300 0.772000
0.790555 0.834348 0.811002
0.837583 0.867430 0.853300
0.793545 0.788357 0.745754
0.430640 0.496590 0.710842
0.439704 0.496681 0.712917
0.471595 0.491859 0.719142
0.539818 0.484504 0.733730
0.642573 0.468452 0.755856
0.774075 0.438636 0.785214
0.852567 0.488808 0.780362
0.882475 0.566491 0.744778
0.434089 0.503288 0.707607
0.442786 0.503471 0.709773
0.474128 0.499886 0.716579
0.539055 0.492409 0.730922
0.639460 0.477394 0.753079
0.769741 0.449470 0.782620
0.849058 0.494392 0.778103
0.879698 0.569024 0.743038
0.473854 0.545220 0.701991
0.475624 0.542535 0.704036
0.492226 0.535180 0.711208
0.548241 0.532769 0.727108
0.635584 0.521141 0.748898
0.757076 0.499763 0.778256
0.839811 0.530999 0.777249
0.873716 0.593042 0.745602
0.518700 0.594873 0.689570
0.524437 0.596368 0.692195
0.541619 0.597498 0.701534
0.561944 0.586542 0.718288
0.629755 0.582391 0.741634
0.736568 0.572198 0.772885
0.825834 0.588312 0.779110
0.866300 0.632227 0.752987
0.542046 0.623804 0.667872
0.546014 0.624201 0.668696
0.557549 0.628107 0.677790
0.589899 0.639460 0.698634
0.624567 0.638453 0.728328
0.707729 0.636774 0.762936
0.808896 0.643030 0.782406
0.859739 0.674800 0.763058
0.573175 0.677699 0.686305
0.575097 0.677211 0.686244
0.584833 0.676112 0.687037
0.605646 0.675776 0.690455
0.636957 0.676661 0.697627
0.683497 0.694026 0.750973
0.793149 0.703609 0.794980
0.850340 0.723384 0.775479
0.611261 0.736629 0.718044
0.612940 0.736904 0.718654
0.620874 0.737758 0.721004
0.637354 0.739986 0.726436
0.661769 0.742397 0.733974
0.696284 0.746395 0.745785
0.751461 0.762600 0.787198
0.831693 0.766812 0.782406
0.664912 0.770199 0.728237
0.666255 0.770474 0.728756
0.672816 0.772213 0.731930
0.686854 0.776852 0.739590
0.709407 0.786526 0.753902
0.741207 0.801022 0.775357
0.788113 0.825650 0.812558
0.806607 0.816800 0.803922
