20 Preset/Movie Style Preset/【3】LUT for PR-AE-FCPX/Movie - LUT  (9).cube
# Created by Adobe Lightroom plugin Export LUT (1.24.0)
# www.johnrellis.com/lightroom/exportlut.htm
# Preset: 电影质感09（修改版）
# Color profile: C:\Program Files (x86)\Common Files\Adobe\Color\Profiles\Recommended\VideoHD.icc
LUT_3D_SIZE 5
DOMAIN_MIN 0.000000 0.000000 0.000000
DOMAIN_MAX 0.903226 0.903226 0.903226
0.080262 0.094423 0.108461
0.158877 0.101686 0.106477
0.514061 0.000000 0.064088
0.815854 0.000000 0.000000
0.938140 0.243687 0.000000
0.103273 0.140597 0.138064
0.132753 0.141299 0.133883
0.556146 0.192508 0.000000
0.819852 0.216831 0.000000
0.939300 0.312047 0.000000
0.348333 0.453285 0.338109
0.400092 0.477272 0.356023
0.450935 0.394537 0.266026
0.812497 0.480171 0.000000
0.929076 0.500008 0.000000
0.641444 0.685908 0.597284
0.653681 0.692988 0.607172
0.680293 0.698360 0.606073
0.685908 0.621149 0.484993
0.881254 0.665034 0.300389
0.764797 0.819150 0.761563
0.769711 0.822477 0.765805
0.787167 0.833463 0.779751
0.798062 0.823789 0.755795
0.800595 0.771267 0.678218
0.072877 0.102602 0.140719
0.151369 0.101320 0.149050
0.480781 0.008270 0.136110
0.795254 0.000000 0.035615
0.928435 0.241062 0.000000
0.103090 0.151400 0.156954
0.156558 0.173098 0.175631
0.540703 0.189761 0.130068
0.807187 0.212985 0.000000
0.930907 0.305699 0.000000
0.359960 0.449561 0.365240
0.408942 0.474769 0.384558
0.457740 0.407935 0.307042
0.804715 0.485359 0.000000
0.923857 0.501823 0.000000
0.642115 0.683742 0.604303
0.654414 0.691218 0.614282
0.683009 0.701411 0.621027
0.686000 0.626001 0.504173
0.880339 0.669886 0.336767
0.763943 0.817960 0.762814
0.768856 0.821317 0.767117
0.788815 0.834867 0.784329
0.800168 0.826963 0.763729
0.801968 0.774258 0.685115
0.000000 0.132998 0.302434
0.115023 0.128481 0.335393
0.528038 0.004395 0.341100
0.743008 0.185458 0.306371
0.895995 0.317266 0.278935
0.000000 0.229831 0.322301
0.145205 0.222416 0.356146
0.537774 0.230930 0.359838
0.749722 0.288487 0.326360
0.898405 0.368048 0.284184
0.292638 0.425574 0.368780
0.374945 0.450660 0.407385
0.526757 0.484047 0.435370
0.776883 0.511528 0.363622
0.902129 0.518975 0.304295
0.627344 0.669245 0.605768
0.644465 0.677028 0.621790
0.689937 0.710140 0.661097
0.687343 0.643366 0.563684
0.880980 0.685969 0.438453
0.752865 0.808347 0.757778
0.760922 0.813260 0.766506
0.783658 0.829801 0.786801
0.804013 0.834806 0.786465
0.801144 0.778103 0.700954
0.000000 0.223026 0.530785
0.000000 0.222843 0.546929
0.554376 0.139254 0.604913
0.784115 0.308293 0.555230
0.865782 0.414343 0.506798
0.000000 0.316381 0.535302
0.147768 0.304356 0.550195
0.560845 0.275914 0.604242
0.772122 0.390112 0.561486
0.855863 0.447517 0.513085
0.280919 0.503655 0.532586
0.349981 0.506249 0.539879
0.542199 0.520989 0.593530
0.727962 0.541558 0.574701
0.827878 0.560113 0.552331
0.554681 0.637934 0.574304
0.575341 0.643030 0.584649
0.648371 0.671687 0.638056
0.701991 0.677760 0.639704
0.863005 0.691890 0.589532
0.713680 0.783536 0.723720
0.721462 0.788022 0.731838
0.754177 0.807889 0.766659
0.811429 0.847349 0.821378
0.802090 0.788632 0.734157
0.224155 0.390478 0.701564
0.312749 0.388983 0.706416
0.549432 0.381415 0.728542
0.796323 0.389044 0.757717
0.876463 0.537407 0.709468
0.279454 0.438972 0.695796
0.337682 0.433783 0.701411
0.547601 0.430152 0.723445
0.786435 0.437263 0.754971
0.869780 0.560998 0.711513
0.372137 0.555962 0.671992
0.417487 0.559777 0.679408
0.536858 0.555108 0.708675
0.755245 0.563989 0.753780
0.854643 0.635431 0.727016
0.477028 0.683986 0.683803
0.494667 0.682185 0.684901
0.564172 0.677363 0.692775
0.689937 0.689021 0.744656
0.833768 0.709407 0.742519
0.641901 0.757382 0.701503
0.649195 0.759243 0.705013
0.681483 0.769802 0.723384
0.742519 0.792630 0.764614
0.809842 0.813748 0.795438
