20 Preset/Movie Style Preset/【3】LUT for PR-AE-FCPX/Movie - LUT  (5).cube
# Created by Adobe Lightroom plugin Export LUT (1.24.0)
# www.johnrellis.com/lightroom/exportlut.htm
# Preset: 电影质感05（修改版）
# Color profile: C:\Program Files (x86)\Common Files\Adobe\Color\Profiles\Recommended\VideoHD.icc
LUT_3D_SIZE 5
DOMAIN_MIN 0.000000 0.000000 0.000000
DOMAIN_MAX 0.903226 0.903226 0.903226
0.080262 0.094423 0.108461
0.170596 0.102663 0.106264
0.561059 0.000000 0.045991
0.840757 0.050111 0.000000
0.954192 0.271275 0.000000
0.106477 0.150973 0.143832
0.137850 0.147677 0.136934
0.599054 0.206180 0.000000
0.842649 0.243503 0.000000
0.954498 0.338445 0.000000
0.396368 0.492775 0.375982
0.447913 0.516594 0.396063
0.444526 0.397742 0.268772
0.819181 0.497139 0.000000
0.940887 0.525994 0.000000
0.661463 0.704524 0.626001
0.672480 0.711788 0.634974
0.697047 0.719600 0.638453
0.668544 0.607416 0.464912
0.872465 0.662104 0.310857
0.776699 0.831998 0.778988
0.781521 0.835172 0.783108
0.798550 0.845518 0.796384
0.804929 0.834134 0.771206
0.787655 0.758236 0.656977
0.076478 0.105684 0.145815
0.163821 0.101228 0.161349
0.522393 0.000000 0.148684
0.820066 0.099702 0.078950
0.943053 0.275029 0.000000
0.105013 0.162753 0.168002
0.163394 0.187869 0.193149
0.582879 0.206760 0.146212
0.829587 0.245060 0.000000
0.944701 0.336919 0.000000
0.405615 0.486824 0.403174
0.454322 0.512200 0.424231
0.456825 0.416327 0.316869
0.813535 0.509148 0.055573
0.934386 0.529900 0.000000
0.661524 0.701869 0.631891
0.672572 0.709499 0.641047
0.701137 0.724361 0.654017
0.669917 0.613977 0.487617
0.872862 0.669337 0.351110
0.775906 0.830869 0.780301
0.780758 0.834043 0.784390
0.800259 0.846830 0.800778
0.807858 0.837919 0.779965
0.789303 0.761563 0.664179
0.000000 0.158724 0.329137
0.123018 0.151156 0.373510
0.575128 0.015259 0.393988
0.775875 0.212924 0.341466
0.900786 0.370550 0.333776
0.124788 0.268193 0.345678
0.181277 0.263401 0.391119
0.581506 0.266026 0.414862
0.759823 0.340490 0.378058
0.902495 0.416083 0.341436
0.330816 0.457740 0.407019
0.399329 0.481270 0.434485
0.534966 0.507378 0.471504
0.781827 0.545006 0.423590
0.906432 0.552270 0.366888
0.641688 0.685420 0.625086
0.657313 0.692653 0.640070
0.703151 0.726619 0.682094
0.676295 0.637842 0.559167
0.879667 0.696132 0.468208
0.761868 0.820615 0.771237
0.770626 0.825467 0.780667
0.795193 0.841917 0.803159
0.815427 0.848600 0.806607
0.788724 0.765743 0.681300
0.000000 0.294896 0.554864
0.198154 0.291936 0.573724
0.574731 0.224125 0.640284
0.796719 0.356634 0.602380
0.873472 0.467842 0.556878
0.254124 0.390539 0.555901
0.290043 0.377050 0.573816
0.576440 0.342687 0.637018
0.782864 0.432532 0.606744
0.863340 0.496895 0.562432
0.419196 0.532067 0.550011
0.456947 0.537865 0.557702
0.567254 0.562188 0.620386
0.739712 0.584985 0.622583
0.827207 0.591028 0.592828
0.580224 0.654627 0.604517
0.597101 0.659968 0.613184
0.654536 0.682124 0.648768
0.697444 0.683742 0.655390
0.866239 0.712917 0.629816
0.721157 0.795560 0.736538
0.728878 0.799924 0.744472
0.761715 0.819120 0.778500
0.821897 0.857969 0.835538
0.790921 0.778286 0.719051
0.430640 0.496590 0.710842
0.460334 0.493141 0.716884
0.587152 0.478096 0.743954
0.801205 0.442359 0.787961
0.882475 0.566491 0.744778
0.461097 0.532250 0.704463
0.478614 0.526329 0.711177
0.586511 0.514916 0.738247
0.791379 0.484108 0.785122
0.876158 0.587091 0.745815
0.527550 0.609552 0.679103
0.543877 0.613519 0.687404
0.593042 0.611231 0.721401
0.752499 0.600885 0.775875
0.862516 0.652277 0.757046
0.585016 0.693751 0.694789
0.593286 0.693111 0.695674
0.628962 0.693294 0.702785
0.699763 0.710475 0.759884
0.846860 0.735866 0.778439
0.664912 0.770199 0.728237
0.670558 0.771572 0.730800
0.697139 0.781247 0.746059
0.750942 0.805814 0.782315
0.806607 0.816800 0.803922
