20 Preset/Movie Style Preset/【3】LUT for PR-AE-FCPX/Movie - LUT  (15).cube
# Created by Adobe Lightroom plugin Export LUT (1.24.0)
# www.johnrellis.com/lightroom/exportlut.htm
# Preset: 电影质感15（修改版）
# Color profile: C:\Program Files (x86)\Common Files\Adobe\Color\Profiles\Recommended\VideoHD.icc
LUT_3D_SIZE 8
DOMAIN_MIN 0.000000 0.000000 0.000000
DOMAIN_MAX 0.903226 0.903226 0.903226
0.080262 0.094423 0.108461
0.102693 0.099489 0.111421
0.236301 0.119203 0.114778
0.498329 0.123659 0.107881
0.723018 0.182498 0.103670
0.835172 0.312108 0.138705
0.887480 0.422126 0.213046
0.927550 0.525261 0.317174
0.090272 0.110994 0.118441
0.101747 0.112154 0.117861
0.311589 0.152285 0.091005
0.551019 0.149935 0.057771
0.740017 0.205173 0.018647
0.839048 0.316594 0.097475
0.889799 0.419348 0.184421
0.930114 0.521569 0.295537
0.124483 0.246098 0.169741
0.153231 0.264347 0.172305
0.218051 0.215732 0.148043
0.617273 0.305852 0.000000
0.804776 0.354681 0.000000
0.868772 0.385840 0.000000
0.912718 0.453437 0.000000
0.949340 0.535363 0.222843
0.361395 0.510552 0.325017
0.389075 0.521447 0.331762
0.471412 0.534264 0.329534
0.464485 0.401862 0.220706
0.738033 0.464729 0.000000
0.873198 0.521019 0.000000
0.937194 0.531640 0.000000
0.976104 0.564202 0.000000
0.580316 0.664149 0.509514
0.589746 0.668086 0.514214
0.626032 0.684291 0.534813
0.650263 0.662013 0.485328
0.626612 0.545556 0.334844
0.778408 0.562249 0.171481
0.906462 0.609247 0.000000
0.979644 0.642115 0.000000
0.678920 0.744015 0.634028
0.683803 0.747494 0.637964
0.699031 0.757015 0.647730
0.724605 0.771176 0.660670
0.725002 0.729671 0.592248
0.712947 0.643000 0.455146
0.808133 0.642603 0.349157
0.937011 0.693324 0.154849
0.740322 0.811948 0.718502
0.742763 0.813504 0.720394
0.751583 0.818814 0.726497
0.768734 0.828885 0.738552
0.781552 0.825315 0.727840
0.782650 0.790585 0.668360
0.769741 0.720729 0.570336
0.843961 0.721706 0.499519
0.795651 0.865232 0.794308
0.796994 0.865843 0.795163
0.802701 0.868620 0.798978
0.813596 0.873777 0.806302
0.827298 0.879393 0.813931
0.832364 0.869902 0.791714
0.838865 0.848295 0.744350
0.837644 0.803586 0.676967
0.079438 0.098238 0.119692
0.094789 0.101411 0.120363
0.181613 0.132753 0.147829
0.447913 0.157046 0.153384
0.692744 0.210178 0.162234
0.815488 0.323217 0.190311
0.873350 0.427192 0.249271
0.916838 0.526177 0.339422
0.084749 0.109316 0.122133
0.102296 0.117647 0.131533
0.257450 0.145022 0.129061
0.509331 0.166384 0.128573
0.716976 0.225589 0.134524
0.824430 0.330785 0.165316
0.878080 0.427863 0.228214
0.920317 0.524407 0.322087
0.134066 0.241398 0.191714
0.158541 0.258152 0.196597
0.221195 0.223301 0.170199
0.609613 0.304631 0.000000
0.791287 0.343114 0.000000
0.856962 0.386603 0.000000
0.900877 0.453803 0.122255
0.939452 0.535882 0.258244
0.352300 0.495094 0.334752
0.379431 0.506310 0.341650
0.465888 0.529076 0.349004
0.455360 0.398260 0.237064
0.731411 0.460731 0.000000
0.866423 0.515587 0.000000
0.929900 0.524132 0.000000
0.967926 0.562341 0.000000
0.576837 0.659022 0.512657
0.585809 0.662837 0.516991
0.621851 0.679133 0.536706
0.646662 0.659480 0.492531
0.621271 0.542596 0.343328
0.776211 0.561883 0.190097
0.903044 0.608209 0.000000
0.976043 0.639612 0.000000
0.676204 0.740261 0.633448
0.680110 0.742702 0.636042
0.695583 0.752529 0.646235
0.722896 0.769406 0.662501
0.723018 0.728237 0.595300
0.710842 0.642237 0.460243
0.807126 0.642817 0.356054
0.935576 0.692866 0.175357
0.738155 0.809262 0.717128
0.740108 0.810361 0.718318
0.748989 0.815793 0.724544
0.766476 0.826322 0.737026
0.780606 0.824582 0.729122
0.781247 0.789578 0.669459
0.767544 0.718746 0.570336
0.842374 0.719844 0.498573
0.794095 0.863859 0.793210
0.795682 0.864683 0.794400
0.801389 0.867460 0.798215
0.812497 0.872801 0.805722
0.828061 0.879850 0.815885
0.832853 0.870573 0.794125
0.838560 0.848447 0.745907
0.837064 0.803281 0.677729
0.038666 0.107088 0.167483
0.077333 0.100832 0.183871
0.164157 0.137636 0.182254
0.239689 0.283299 0.294987
0.586297 0.319738 0.321782
0.760220 0.399298 0.345251
0.835935 0.482063 0.383886
0.888609 0.561425 0.443580
0.067079 0.131991 0.176577
0.080812 0.128878 0.195071
0.165866 0.181399 0.206516
0.307988 0.280980 0.294408
0.623255 0.316503 0.306004
0.772732 0.400610 0.330541
0.841947 0.480934 0.370092
0.892729 0.559899 0.431830
0.084932 0.211765 0.199374
0.121523 0.228824 0.213962
0.240970 0.259007 0.248051
0.581598 0.309148 0.214542
0.735805 0.359503 0.231266
0.819852 0.427314 0.264805
0.869352 0.494331 0.317906
0.913024 0.566125 0.390326
0.309575 0.464973 0.346685
0.355932 0.479225 0.371038
0.470130 0.528618 0.418952
0.470161 0.423377 0.314244
0.747982 0.490669 0.171237
0.858091 0.522179 0.006256
0.910796 0.539666 0.139925
0.947417 0.585901 0.272770
0.567590 0.644526 0.527489
0.578851 0.649378 0.534691
0.615900 0.668299 0.555749
0.649928 0.666896 0.541833
0.624201 0.555566 0.398444
0.780484 0.580102 0.277379
0.899199 0.621454 0.094148
0.969635 0.643732 0.000000
0.672786 0.732876 0.640620
0.676783 0.735531 0.643397
0.692195 0.745907 0.653803
0.720058 0.765042 0.672084
0.722652 0.731502 0.619287
0.708156 0.646143 0.489296
0.808286 0.651942 0.395361
0.935698 0.699763 0.260166
0.736568 0.805997 0.721950
0.738582 0.807218 0.723323
0.747494 0.812863 0.729610
0.765072 0.823850 0.742397
0.782620 0.827909 0.743374
0.781491 0.792691 0.683223
0.766354 0.721584 0.586236
0.844938 0.726406 0.518395
0.792905 0.862333 0.795590
0.794217 0.862943 0.796414
0.800107 0.865904 0.800412
0.811826 0.871794 0.808591
0.827787 0.879271 0.819150
0.834379 0.872862 0.803006
0.838834 0.850523 0.754757
0.836851 0.804715 0.684413
0.000000 0.119570 0.275242
0.000000 0.115389 0.293400
0.200870 0.051606 0.365454
0.349859 0.239933 0.319707
0.431922 0.443610 0.440955
0.590753 0.508476 0.502007
0.753811 0.545312 0.518944
0.830777 0.603723 0.555108
0.000000 0.157656 0.292576
0.000000 0.148623 0.308324
0.210849 0.117189 0.374578
0.359503 0.283421 0.339422
0.444556 0.454078 0.450385
0.621149 0.504234 0.497047
0.763760 0.545220 0.513970
0.836606 0.603754 0.550530
0.000000 0.259037 0.304295
0.105806 0.267704 0.314672
0.228580 0.283330 0.381659
0.384039 0.404273 0.405554
0.527276 0.470893 0.467109
0.714931 0.503288 0.475013
0.800809 0.554376 0.497230
0.861143 0.609796 0.533837
0.163088 0.402747 0.341314
0.213413 0.414313 0.353460
0.371984 0.460243 0.408392
0.495705 0.467720 0.428107
0.733608 0.523400 0.390356
0.803586 0.543359 0.407111
0.853910 0.575891 0.435889
0.900908 0.620386 0.479561
0.500725 0.611414 0.497383
0.519585 0.616999 0.510002
0.585565 0.639460 0.559045
0.656214 0.678767 0.609339
0.626886 0.576043 0.478950
0.785977 0.611872 0.403357
0.889891 0.646937 0.353094
0.950958 0.654749 0.344182
0.654444 0.717769 0.634150
0.661524 0.721248 0.641169
0.683558 0.731991 0.662074
0.712551 0.754147 0.682826
0.725551 0.741421 0.659449
0.705165 0.655421 0.538689
0.812802 0.670954 0.463020
0.933349 0.713313 0.384131
0.725978 0.796353 0.719265
0.729732 0.798154 0.723323
0.742123 0.805386 0.735103
0.761166 0.818448 0.749966
0.788205 0.835660 0.770077
0.783108 0.799924 0.709682
0.764034 0.726162 0.611780
0.849882 0.737148 0.550164
0.787686 0.858640 0.796353
0.790372 0.859617 0.799039
0.797330 0.863096 0.804318
0.809506 0.869474 0.812802
0.826596 0.877928 0.824338
0.837736 0.877531 0.819486
0.839231 0.854490 0.770901
0.836393 0.807340 0.696712
0.000000 0.148287 0.423651
0.000000 0.146548 0.436011
0.000000 0.127047 0.482948
0.508507 0.000000 0.555871
0.560662 0.388067 0.472236
0.572747 0.568048 0.556207
0.626734 0.622278 0.609613
0.734432 0.658381 0.646357
0.000000 0.188144 0.432898
0.000000 0.182010 0.444678
0.019654 0.165835 0.488502
0.518395 0.000000 0.560479
0.561242 0.416449 0.481514
0.577173 0.572320 0.560296
0.628412 0.624109 0.611444
0.742580 0.657557 0.644709
0.000000 0.310185 0.428412
0.048768 0.315618 0.442847
0.193240 0.304662 0.491920
0.525780 0.249790 0.563165
0.559045 0.502525 0.514702
0.590234 0.585138 0.572778
0.663844 0.622705 0.611200
0.773373 0.654536 0.635889
0.173220 0.443030 0.456519
0.220890 0.447913 0.462104
0.354406 0.468391 0.485206
0.506249 0.496864 0.548638
0.581170 0.576165 0.564050
0.660792 0.597009 0.584131
0.755734 0.621302 0.594873
0.826230 0.657893 0.617029
0.381567 0.557671 0.481697
0.404120 0.562921 0.488777
0.481514 0.583246 0.516564
0.594568 0.624109 0.581231
0.634516 0.603906 0.561547
0.779629 0.643366 0.540337
0.839750 0.653712 0.546715
0.890166 0.676570 0.567071
0.596307 0.685359 0.592920
0.604944 0.687984 0.599939
0.636255 0.698207 0.626276
0.682460 0.719844 0.668940
0.726497 0.751919 0.701411
0.699275 0.665003 0.591730
0.821775 0.696712 0.543847
0.925841 0.730434 0.514977
0.693568 0.775326 0.692500
0.697169 0.776913 0.695949
0.712184 0.784207 0.711086
0.743038 0.800107 0.743465
0.776181 0.823514 0.771420
0.784939 0.809964 0.744625
0.759670 0.730007 0.639948
0.858610 0.750088 0.586816
0.757687 0.845914 0.769650
0.760800 0.846983 0.772763
0.773831 0.851682 0.785885
0.799100 0.861570 0.811032
0.820188 0.872984 0.826505
0.843534 0.884794 0.842496
0.839597 0.860258 0.793088
0.833433 0.808499 0.710567
0.000000 0.200931 0.554009
0.000000 0.199466 0.560784
0.000000 0.186587 0.586694
0.389563 0.071138 0.633783
0.709377 0.000000 0.656916
0.676905 0.521599 0.585901
0.658747 0.656916 0.644923
0.693904 0.697230 0.687160
0.000000 0.232609 0.554162
0.000000 0.229984 0.560357
0.000000 0.218570 0.585840
0.398566 0.148135 0.632166
0.707759 0.000000 0.655879
0.673579 0.533410 0.588342
0.659236 0.657496 0.645472
0.693751 0.697139 0.687037
0.004089 0.364569 0.551324
0.111543 0.364904 0.559411
0.190799 0.339269 0.585595
0.435737 0.312444 0.629358
0.704280 0.310216 0.659480
0.667689 0.582483 0.606043
0.665980 0.665034 0.653315
0.697078 0.701015 0.691188
0.293645 0.467689 0.530266
0.316777 0.470771 0.533196
0.389807 0.492317 0.561547
0.485359 0.501030 0.618738
0.686793 0.499733 0.666346
0.662654 0.646906 0.639399
0.677089 0.677668 0.666529
0.706172 0.707820 0.698634
0.374121 0.584161 0.570581
0.392645 0.585931 0.573297
0.457618 0.593591 0.584771
0.550591 0.609033 0.606928
0.644343 0.631586 0.654108
0.672328 0.672236 0.660822
0.719631 0.682246 0.670893
0.798337 0.704372 0.685664
0.515526 0.651942 0.583185
0.526329 0.654597 0.587488
0.563348 0.663325 0.602350
0.618891 0.679316 0.629145
0.684627 0.708919 0.679255
0.701656 0.685756 0.653529
0.828885 0.726711 0.646265
0.888304 0.734096 0.649775
0.644984 0.742397 0.655512
0.649439 0.744472 0.659510
0.666224 0.752407 0.674708
0.698085 0.768734 0.705226
0.744778 0.794766 0.752560
0.794827 0.829862 0.795834
0.757015 0.738399 0.677119
0.876890 0.772122 0.643336
0.720089 0.828000 0.739895
0.722805 0.828946 0.742458
0.734829 0.833555 0.754055
0.759060 0.843381 0.777493
0.797482 0.859159 0.813993
0.835050 0.878477 0.844724
0.843626 0.870939 0.826352
0.830228 0.811917 0.732937
0.000000 0.280400 0.660822
0.000000 0.279057 0.665156
0.000000 0.266697 0.678279
0.364294 0.224125 0.702876
0.638453 0.000000 0.736233
0.801755 0.295720 0.725765
0.738003 0.619440 0.668818
0.712978 0.720089 0.711604
0.000000 0.302312 0.655726
0.000000 0.301671 0.660273
0.000000 0.290318 0.673701
0.369879 0.252140 0.697841
0.633814 0.078553 0.731258
0.795529 0.315648 0.721401
0.733272 0.619348 0.665431
0.709712 0.716121 0.707332
0.180606 0.418036 0.650935
0.185916 0.411536 0.654505
0.239231 0.387671 0.668116
0.414862 0.366094 0.692287
0.633234 0.310918 0.725673
0.783688 0.418494 0.721950
0.729854 0.646418 0.676234
0.716823 0.724758 0.716609
0.351019 0.515984 0.627405
0.362707 0.517693 0.631586
0.413519 0.525170 0.649866
0.471870 0.509758 0.680262
0.620233 0.496193 0.715145
0.765560 0.538933 0.726955
0.727474 0.683894 0.694789
0.725551 0.735348 0.728054
0.419806 0.588434 0.622553
0.429206 0.588159 0.622827
0.469886 0.590112 0.626917
0.535485 0.600305 0.643214
0.609339 0.615137 0.693721
0.742947 0.624994 0.731777
0.721798 0.718685 0.714015
0.734096 0.745815 0.739406
0.474647 0.672084 0.651637
0.483284 0.672602 0.652888
0.516472 0.674067 0.657679
0.571588 0.677638 0.667170
0.636255 0.685023 0.682216
0.705379 0.705226 0.727810
0.731655 0.742794 0.736110
0.764309 0.755337 0.750149
0.578820 0.714687 0.655299
0.584253 0.715755 0.657374
0.603388 0.718654 0.664149
0.637263 0.728542 0.680201
0.679561 0.745937 0.704494
0.739895 0.777615 0.753170
0.758022 0.754635 0.728420
0.884428 0.792325 0.730190
0.659632 0.798215 0.696773
0.663569 0.799069 0.699306
0.679652 0.803799 0.711116
0.706081 0.814420 0.735378
0.745785 0.831205 0.772610
0.799496 0.855711 0.821988
0.854887 0.886595 0.867826
0.825620 0.817929 0.766354
0.222660 0.437781 0.738766
0.221897 0.426368 0.742275
0.288457 0.392340 0.752102
0.423438 0.347723 0.768399
0.598718 0.270024 0.791135
0.792081 0.000000 0.821530
0.856626 0.465400 0.789456
0.795071 0.685817 0.741421
0.207828 0.426307 0.738918
0.223423 0.418982 0.742123
0.296452 0.397559 0.750271
0.426459 0.365606 0.764767
0.596551 0.296605 0.787808
0.787594 0.000000 0.818662
0.853056 0.472541 0.787320
0.792721 0.686213 0.739895
0.324987 0.487587 0.731594
0.326085 0.481666 0.733852
0.349371 0.460945 0.741573
0.452583 0.441932 0.758267
0.596216 0.396338 0.781399
0.773068 0.303563 0.812558
0.843992 0.515435 0.787198
0.790646 0.698054 0.744106
0.426062 0.566888 0.712947
0.434852 0.567803 0.715694
0.461524 0.565576 0.725612
0.484260 0.537957 0.744167
0.589746 0.517205 0.769253
0.742519 0.477882 0.802731
0.831296 0.578912 0.790768
0.789303 0.721035 0.754788
0.475990 0.610986 0.682399
0.480690 0.612177 0.685084
0.495491 0.614130 0.694362
0.539544 0.622766 0.716335
0.585534 0.611780 0.748867
0.700404 0.598535 0.786313
0.817319 0.634821 0.797116
0.788205 0.750729 0.770352
0.498909 0.674769 0.696956
0.502770 0.673915 0.696712
0.521233 0.671656 0.696834
0.558068 0.669368 0.699092
0.607904 0.669001 0.706416
0.667384 0.683253 0.765377
0.804623 0.694301 0.814511
0.789334 0.788540 0.794095
0.532250 0.743679 0.724056
0.536095 0.743496 0.724331
0.552483 0.742947 0.725978
0.583734 0.743252 0.730739
0.626154 0.744869 0.739345
0.680812 0.749660 0.754299
0.752987 0.768154 0.801785
0.793576 0.815183 0.814542
0.602014 0.785306 0.727077
0.604578 0.785489 0.727687
0.615991 0.786984 0.731106
0.639368 0.790951 0.739345
0.675044 0.797574 0.752895
0.724483 0.812161 0.777493
0.788632 0.837278 0.817288
0.821927 0.832090 0.818845
