20 Preset/Movie Style Preset/【3】LUT for PR-AE-FCPX/Movie - LUT  (15).cube
# Created by Adobe Lightroom plugin Export LUT (1.24.0)
# www.johnrellis.com/lightroom/exportlut.htm
# Preset: 电影质感15（修改版）
# Color profile: C:\Program Files (x86)\Common Files\Adobe\Color\Profiles\Recommended\VideoHD.icc
LUT_3D_SIZE 5
DOMAIN_MIN 0.000000 0.000000 0.000000
DOMAIN_MAX 0.903226 0.903226 0.903226
0.080262 0.094423 0.108461
0.189792 0.114015 0.114931
0.624475 0.134188 0.103029
0.851286 0.341344 0.154391
0.927550 0.525261 0.317174
0.108949 0.195804 0.149477
0.177249 0.180240 0.137179
0.737087 0.291569 0.000000
0.873960 0.381353 0.000000
0.944213 0.533227 0.254337
0.495277 0.602228 0.425025
0.552361 0.625757 0.446754
0.560754 0.481880 0.275181
0.867430 0.555901 0.000000
0.985565 0.594324 0.000000
0.697200 0.763607 0.658350
0.709041 0.771328 0.665888
0.740627 0.778134 0.665858
0.727749 0.662654 0.484504
0.914641 0.704646 0.300938
0.795651 0.865232 0.794308
0.800778 0.867674 0.797696
0.818997 0.875669 0.808499
0.833463 0.865415 0.781888
0.837644 0.803586 0.676967
0.058015 0.104768 0.149783
0.137453 0.122438 0.158938
0.488563 0.254124 0.264256
0.800961 0.398077 0.309178
0.897368 0.549126 0.411536
0.086824 0.175113 0.172610
0.189517 0.212131 0.210086
0.658473 0.286687 0.191501
0.835935 0.417151 0.245396
0.915496 0.554284 0.370642
0.479225 0.577447 0.447456
0.538354 0.605097 0.472908
0.556481 0.489113 0.332860
0.860380 0.563836 0.000000
0.973724 0.600610 0.000000
0.694118 0.757473 0.663630
0.706203 0.765866 0.671748
0.741848 0.781155 0.682490
0.724941 0.665156 0.507103
0.914214 0.709377 0.343175
0.794522 0.863737 0.796292
0.799680 0.866300 0.799771
0.820096 0.876097 0.813382
0.835050 0.868040 0.791043
0.838254 0.805844 0.684504
0.000000 0.130282 0.349889
0.000000 0.115602 0.405676
0.466407 0.311803 0.400153
0.566735 0.562310 0.550622
0.788693 0.630121 0.605371
0.000000 0.257450 0.363287
0.115236 0.249607 0.422034
0.476539 0.428351 0.447333
0.618769 0.562371 0.552178
0.813718 0.630701 0.594720
0.276738 0.488594 0.415106
0.389746 0.517479 0.449744
0.578088 0.545190 0.501732
0.807462 0.599725 0.479469
0.894926 0.648768 0.524407
0.657313 0.726558 0.644526
0.676509 0.735012 0.662654
0.733791 0.773953 0.712459
0.716762 0.676204 0.579095
0.918029 0.727871 0.464546
0.774655 0.852781 0.784604
0.785733 0.856931 0.795834
0.814054 0.870726 0.818692
0.838834 0.875608 0.819547
0.834348 0.807034 0.701778
0.000000 0.216220 0.580346
0.000000 0.207950 0.601617
0.551659 0.000000 0.675074
0.695033 0.547082 0.607660
0.697902 0.702052 0.692287
0.000000 0.339879 0.579553
0.000000 0.315923 0.600580
0.563195 0.236912 0.670985
0.687465 0.586328 0.619623
0.699977 0.704463 0.694881
0.339361 0.524834 0.559686
0.404181 0.531853 0.567926
0.561608 0.563104 0.643305
0.672602 0.672541 0.661158
0.709133 0.715480 0.706630
0.537865 0.670008 0.604242
0.566979 0.676081 0.615412
0.651667 0.701320 0.657679
0.715511 0.702663 0.671901
0.888212 0.746853 0.667018
0.708492 0.822019 0.730983
0.719692 0.826322 0.741695
0.765774 0.845182 0.785824
0.839963 0.880552 0.850584
0.829252 0.813138 0.740108
0.222660 0.437781 0.738766
0.265751 0.404242 0.748653
0.507652 0.317205 0.778836
0.838956 0.000000 0.829099
0.795071 0.685817 0.741421
0.290501 0.465553 0.735470
0.317082 0.446845 0.742641
0.515831 0.397223 0.770840
0.825864 0.203555 0.824063
0.792142 0.695338 0.743832
0.446662 0.590478 0.699245
0.470222 0.592462 0.707698
0.536339 0.573785 0.744686
0.761715 0.531701 0.803342
0.788144 0.734218 0.761044
0.511254 0.693904 0.704799
0.527245 0.692256 0.705165
0.590173 0.688899 0.710262
0.687007 0.702083 0.772732
0.788693 0.797330 0.799741
0.602014 0.785306 0.727077
0.612024 0.786435 0.729885
0.655695 0.793912 0.745357
0.739101 0.817563 0.785977
0.821927 0.832090 0.818845
