20 Preset/Movie Style Preset/【3】LUT for PR-AE-FCPX/Movie - LUT  (7).cube
# Created by Adobe Lightroom plugin Export LUT (1.24.0)
# www.johnrellis.com/lightroom/exportlut.htm
# Preset: 电影质感07（修改版）
# Color profile: C:\Program Files (x86)\Common Files\Adobe\Color\Profiles\Recommended\VideoHD.icc
LUT_3D_SIZE 8
DOMAIN_MIN 0.000000 0.000000 0.000000
DOMAIN_MAX 0.903226 0.903226 0.903226
0.080262 0.094423 0.108461
0.108888 0.097322 0.107668
0.275669 0.102846 0.100923
0.568139 0.000000 0.040864
0.774624 0.000000 0.000000
0.882506 0.152743 0.000000
0.943725 0.257420 0.000000
0.996979 0.345495 0.000000
0.090761 0.110231 0.120546
0.100343 0.111604 0.119661
0.292149 0.144198 0.097841
0.579461 0.103395 0.012604
0.776974 0.101076 0.000000
0.879118 0.197696 0.000000
0.940032 0.277684 0.000000
0.994171 0.357275 0.000000
0.145357 0.238499 0.192844
0.166934 0.253269 0.199557
0.209262 0.213931 0.166690
0.605493 0.297551 0.000000
0.791684 0.325933 0.000000
0.877836 0.343175 0.000000
0.939117 0.379248 0.000000
0.992645 0.426215 0.000000
0.399390 0.494697 0.377905
0.420325 0.504601 0.386206
0.474830 0.516930 0.388373
0.448646 0.400610 0.271427
0.734127 0.470893 0.025055
0.867887 0.518730 0.000000
0.928435 0.514855 0.000000
0.982330 0.527337 0.000000
0.603204 0.653712 0.555413
0.610163 0.657374 0.560082
0.637659 0.672755 0.580377
0.644953 0.651942 0.537011
0.609552 0.544610 0.397742
0.771115 0.573205 0.272953
0.897917 0.614557 0.000000
0.966247 0.635645 0.000000
0.692164 0.735744 0.665309
0.696040 0.739040 0.668879
0.707698 0.747890 0.678279
0.727047 0.760922 0.691615
0.716945 0.721950 0.632624
0.696162 0.641474 0.511315
0.796689 0.651637 0.426886
0.921935 0.698390 0.326024
0.751797 0.804074 0.745998
0.753780 0.805539 0.747860
0.760922 0.810544 0.754055
0.774807 0.820127 0.766049
0.781003 0.816648 0.757046
0.772274 0.782650 0.700618
0.751217 0.715663 0.612573
0.827756 0.724636 0.555657
0.805783 0.857420 0.815366
0.806882 0.858061 0.816251
0.811551 0.860838 0.820005
0.820584 0.866087 0.827176
0.831540 0.871885 0.835050
0.829923 0.862364 0.815976
0.825925 0.839719 0.772610
0.815793 0.793820 0.704463
0.082826 0.099794 0.122347
0.107393 0.099062 0.125917
0.256352 0.100374 0.123232
0.545586 0.000000 0.101778
0.762448 0.000000 0.000000
0.872282 0.152621 0.000000
0.935058 0.254459 0.000000
0.990356 0.342504 0.000000
0.088991 0.113619 0.126497
0.106691 0.122683 0.136751
0.285740 0.141543 0.124300
0.569818 0.107332 0.091524
0.770718 0.108064 0.000000
0.872892 0.200290 0.000000
0.933837 0.277714 0.000000
0.988647 0.355718 0.000000
0.160800 0.248051 0.217197
0.181796 0.262058 0.224918
0.221622 0.230167 0.192477
0.605219 0.305852 0.008850
0.782620 0.323064 0.000000
0.870970 0.342107 0.000000
0.931640 0.375525 0.000000
0.986877 0.422675 0.000000
0.400549 0.489082 0.387518
0.420356 0.498878 0.395636
0.477882 0.517845 0.405646
0.446448 0.402625 0.287694
0.728908 0.470375 0.119265
0.859617 0.512932 0.000000
0.920958 0.509850 0.000000
0.976654 0.523980 0.000000
0.602197 0.650965 0.558068
0.608759 0.654444 0.562432
0.635554 0.669612 0.581720
0.643427 0.650782 0.542687
0.606439 0.543755 0.405310
0.769223 0.574151 0.287480
0.894041 0.615045 0.099580
0.962219 0.634424 0.000000
0.690455 0.733028 0.664698
0.693324 0.735286 0.667048
0.705165 0.744350 0.676661
0.726101 0.759701 0.692836
0.715846 0.721126 0.634821
0.695003 0.641566 0.515679
0.796017 0.652522 0.433204
0.920470 0.698543 0.336767
0.750057 0.801877 0.744533
0.751553 0.802914 0.745754
0.758724 0.807950 0.751980
0.772915 0.817960 0.764462
0.780453 0.816159 0.757900
0.771328 0.781979 0.701472
0.749508 0.714260 0.612604
0.826505 0.723354 0.555413
0.804471 0.856199 0.814298
0.805783 0.857023 0.815457
0.810452 0.859831 0.819181
0.819638 0.865232 0.826535
0.832425 0.872526 0.836606
0.830716 0.863188 0.818021
0.825925 0.840024 0.774014
0.815457 0.793759 0.705287
0.036683 0.115785 0.190249
0.091890 0.111604 0.207279
0.273075 0.093294 0.224033
0.519280 0.000000 0.206851
0.738155 0.081209 0.194919
0.856779 0.216709 0.166598
0.922759 0.302159 0.124788
0.980987 0.375769 0.000000
0.089693 0.154849 0.200778
0.102541 0.152102 0.220798
0.287327 0.151614 0.236454
0.523003 0.157595 0.226291
0.745174 0.168002 0.197574
0.856657 0.252964 0.166232
0.921813 0.320073 0.118563
0.979736 0.387121 0.000000
0.140688 0.250034 0.236545
0.174990 0.266880 0.253117
0.280369 0.294224 0.281132
0.601831 0.326513 0.236698
0.769406 0.343114 0.202579
0.860014 0.368536 0.161898
0.922210 0.400671 0.104891
0.979370 0.441657 0.000000
0.399481 0.485176 0.410224
0.430945 0.497658 0.429541
0.508415 0.538689 0.470588
0.480903 0.443793 0.365972
0.746029 0.511315 0.259037
0.847959 0.526452 0.207950
0.911162 0.527062 0.171115
0.969024 0.539574 0.104829
0.604181 0.646265 0.573266
0.611048 0.650416 0.578088
0.637446 0.666835 0.597864
0.654108 0.663600 0.584466
0.617609 0.564019 0.455573
0.773617 0.596399 0.363653
0.887633 0.633539 0.284703
0.953460 0.643610 0.250706
0.690242 0.730098 0.670588
0.693202 0.732509 0.673121
0.704921 0.741878 0.682948
0.726741 0.759274 0.701564
0.718807 0.726925 0.653712
0.695735 0.648829 0.541314
0.798001 0.663874 0.469520
0.919646 0.707485 0.393927
0.750210 0.800748 0.748592
0.751797 0.801846 0.749935
0.758877 0.807004 0.756130
0.773007 0.817227 0.768643
0.784268 0.820523 0.769894
0.773404 0.786343 0.713893
0.750362 0.718776 0.626215
0.829679 0.731167 0.574487
0.804166 0.855467 0.816007
0.805203 0.856077 0.816800
0.809995 0.858976 0.820676
0.819638 0.864897 0.828550
0.832761 0.872526 0.838895
0.833310 0.866026 0.825345
0.827329 0.842802 0.781765
0.816098 0.796078 0.712001
0.000000 0.157015 0.328374
0.000000 0.155642 0.346380
0.280552 0.113588 0.414801
0.577020 0.028717 0.394324
0.735927 0.164645 0.354528
0.809201 0.302586 0.353491
0.887449 0.369757 0.332280
0.950988 0.434852 0.315068
0.000000 0.212955 0.345800
0.002106 0.204898 0.361578
0.298375 0.176059 0.423163
0.583093 0.178195 0.404059
0.730098 0.228977 0.364233
0.811704 0.329046 0.358587
0.887114 0.388312 0.336431
0.950591 0.446448 0.317235
0.173342 0.328557 0.361700
0.214511 0.337163 0.371496
0.328374 0.353948 0.429664
0.575311 0.367651 0.430793
0.707362 0.393011 0.407843
0.818784 0.424292 0.380102
0.888090 0.461250 0.358099
0.951476 0.493965 0.329076
0.342504 0.463996 0.412696
0.368688 0.472694 0.422980
0.471473 0.510918 0.474739
0.539239 0.510674 0.473915
0.735195 0.548913 0.438819
0.816373 0.548241 0.414984
0.884581 0.553613 0.384955
0.948730 0.564385 0.347448
0.577234 0.630793 0.562310
0.588128 0.635431 0.571160
0.628199 0.654108 0.605921
0.670619 0.683009 0.639673
0.634424 0.595453 0.527001
0.779721 0.632807 0.475563
0.874632 0.658869 0.445899
0.936309 0.656428 0.416144
0.683467 0.722835 0.671046
0.688167 0.726162 0.676081
0.702571 0.736080 0.690486
0.725093 0.755367 0.710842
0.727260 0.740780 0.686641
0.698695 0.663264 0.584802
0.803861 0.686183 0.530907
0.914641 0.724147 0.491493
0.745418 0.795315 0.748806
0.748226 0.797024 0.751949
0.757015 0.803494 0.760616
0.772305 0.815183 0.774594
0.793393 0.830503 0.792813
0.778347 0.795712 0.737514
0.751888 0.726314 0.647944
0.836057 0.743862 0.603967
0.802152 0.853483 0.817624
0.803861 0.854429 0.819303
0.809049 0.857664 0.823484
0.818967 0.863828 0.831479
0.832792 0.872221 0.842496
0.838682 0.871672 0.838865
0.830045 0.847990 0.795804
0.817227 0.800351 0.724269
0.000000 0.237125 0.484108
0.000000 0.236973 0.494850
0.261997 0.224949 0.534386
0.599664 0.106874 0.590326
0.751797 0.269841 0.544366
0.820829 0.364324 0.501793
0.855772 0.420996 0.475441
0.902831 0.500359 0.489815
0.000000 0.285161 0.491493
0.088563 0.282292 0.501610
0.294133 0.271397 0.538384
0.604761 0.201297 0.592676
0.747463 0.318700 0.548180
0.814725 0.389380 0.505913
0.849027 0.442969 0.484260
0.903136 0.508568 0.492042
0.286625 0.408423 0.487526
0.307195 0.414435 0.499580
0.371710 0.409613 0.539605
0.603967 0.384131 0.596216
0.727138 0.448829 0.560021
0.790646 0.463569 0.518120
0.830442 0.506676 0.510063
0.904448 0.538598 0.499306
0.385718 0.517754 0.514641
0.405707 0.521294 0.519219
0.477913 0.536614 0.538109
0.576440 0.558129 0.588128
0.692744 0.564385 0.575097
0.763729 0.568658 0.553368
0.839078 0.578637 0.533989
0.910094 0.591333 0.512291
0.527855 0.605035 0.551049
0.538476 0.608911 0.556329
0.577478 0.623804 0.577234
0.644038 0.656367 0.629389
0.659083 0.635676 0.600977
0.776791 0.665675 0.586175
0.845823 0.662165 0.563409
0.913787 0.661250 0.534447
0.656550 0.701503 0.650050
0.661006 0.703883 0.654322
0.677638 0.713436 0.670497
0.706966 0.732753 0.700679
0.735256 0.755428 0.723140
0.701534 0.678950 0.629084
0.814939 0.714443 0.600824
0.908659 0.743099 0.587671
0.726192 0.781186 0.732113
0.728634 0.782559 0.734615
0.739101 0.788907 0.745876
0.761349 0.803037 0.770138
0.786679 0.823423 0.793668
0.785000 0.808072 0.767666
0.753079 0.734279 0.671901
0.846921 0.759030 0.637171
0.782559 0.843046 0.800229
0.784787 0.844114 0.802457
0.794186 0.848661 0.811826
0.812436 0.858213 0.829801
0.828916 0.868864 0.843259
0.847074 0.879942 0.857389
0.833860 0.855283 0.814786
0.816861 0.804013 0.738247
0.179934 0.345403 0.600885
0.218601 0.345434 0.606470
0.346075 0.340856 0.628138
0.553857 0.315740 0.665492
0.752377 0.312383 0.687129
0.815000 0.439765 0.639002
0.857603 0.507073 0.610986
0.896727 0.536492 0.591302
0.237034 0.376471 0.600183
0.263035 0.376043 0.605188
0.366522 0.371283 0.625940
0.554803 0.349828 0.662165
0.747158 0.347387 0.684840
0.809537 0.459236 0.639002
0.852934 0.516381 0.611475
0.893462 0.542168 0.591974
0.390997 0.484199 0.597467
0.402075 0.484504 0.603723
0.434455 0.471107 0.624628
0.563897 0.462409 0.658045
0.731899 0.462593 0.683742
0.792386 0.531731 0.646357
0.838041 0.556695 0.619623
0.882963 0.569726 0.600244
0.473671 0.555444 0.585534
0.484627 0.557427 0.587915
0.525383 0.572564 0.608698
0.583703 0.583368 0.651728
0.709346 0.586481 0.685359
0.769223 0.619684 0.662898
0.816098 0.610407 0.632837
0.859037 0.625299 0.625666
0.535058 0.636347 0.619898
0.543236 0.637720 0.621973
0.574609 0.643549 0.630854
0.623926 0.655055 0.647517
0.681605 0.670832 0.682063
0.741421 0.667353 0.665614
0.801358 0.666133 0.650996
0.874723 0.671290 0.638117
0.625544 0.685389 0.642603
0.630304 0.687312 0.645533
0.646632 0.693507 0.655390
0.672724 0.705989 0.673182
0.714900 0.733883 0.714961
0.718746 0.709010 0.682307
0.827054 0.741512 0.677607
0.892149 0.736904 0.658747
0.699886 0.760830 0.709926
0.702663 0.762631 0.712856
0.713558 0.769314 0.724147
0.734951 0.782895 0.746761
0.767453 0.804471 0.781369
0.800565 0.829679 0.810269
0.758114 0.748898 0.706508
0.867155 0.782895 0.687098
0.761746 0.831113 0.784054
0.763516 0.831937 0.785733
0.771511 0.835996 0.793545
0.788022 0.844602 0.809476
0.814786 0.858762 0.834928
0.842405 0.876219 0.858701
0.842405 0.867643 0.842374
0.817838 0.811124 0.760159
0.384131 0.461677 0.685512
0.400244 0.462623 0.688838
0.457130 0.459449 0.699062
0.563531 0.451881 0.719356
0.709682 0.432258 0.749630
0.820737 0.467750 0.754177
0.857176 0.553399 0.715602
0.892760 0.601251 0.696071
0.396338 0.475135 0.681178
0.411048 0.476356 0.684688
0.463081 0.473548 0.695155
0.562005 0.465553 0.714870
0.703548 0.447211 0.744839
0.814725 0.476570 0.749691
0.851957 0.555749 0.711330
0.888212 0.599512 0.691402
0.477363 0.546441 0.677485
0.479683 0.543450 0.680354
0.501030 0.534569 0.690974
0.574609 0.530846 0.710506
0.693507 0.520531 0.739986
0.801663 0.537743 0.748898
0.842435 0.597375 0.717830
0.882444 0.624964 0.699306
0.535668 0.604089 0.663294
0.541192 0.605707 0.666407
0.566552 0.613092 0.680232
0.598596 0.610315 0.703548
0.681300 0.609949 0.734066
0.783749 0.617609 0.751644
0.830228 0.651087 0.728328
0.872679 0.656336 0.706630
0.572869 0.651575 0.664637
0.576715 0.651362 0.664851
0.594568 0.653071 0.668086
0.627131 0.660060 0.679103
0.669123 0.673304 0.720363
0.762417 0.676997 0.752377
0.815518 0.696284 0.735378
0.860960 0.686885 0.711025
0.612207 0.706355 0.689296
0.615625 0.706905 0.690394
0.628840 0.708980 0.694453
0.652186 0.713497 0.702754
0.684901 0.721309 0.716548
0.735927 0.738766 0.754788
0.796231 0.736294 0.740902
0.849516 0.732509 0.726284
0.669856 0.744015 0.705623
0.672328 0.745388 0.707424
0.681422 0.749477 0.713283
0.699428 0.758206 0.725673
0.726192 0.771969 0.745357
0.769497 0.799619 0.787228
0.772915 0.776272 0.757107
0.876158 0.803677 0.758267
0.731685 0.811643 0.759548
0.733730 0.812741 0.761563
0.742855 0.817807 0.770718
0.759579 0.826658 0.786984
0.785367 0.840452 0.811460
0.820890 0.860380 0.844236
0.859709 0.886229 0.877501
0.821134 0.823117 0.791501
0.526909 0.572656 0.754604
0.533257 0.572656 0.756619
0.556207 0.568658 0.762570
0.608270 0.562951 0.776425
0.691554 0.551354 0.797024
0.804013 0.531884 0.823514
0.874449 0.573571 0.818235
0.902159 0.631495 0.783871
0.529534 0.578058 0.751308
0.535576 0.578271 0.753414
0.558068 0.575219 0.759976
0.607507 0.569543 0.773648
0.688838 0.558648 0.794430
0.800137 0.540429 0.821195
0.871183 0.577905 0.816312
0.899748 0.633417 0.782467
0.558618 0.612757 0.745388
0.559838 0.610620 0.747402
0.571832 0.604730 0.754299
0.614313 0.603143 0.769558
0.684627 0.594812 0.790158
0.788083 0.580774 0.816922
0.862791 0.605890 0.815488
0.894926 0.651240 0.784421
0.591211 0.652735 0.732815
0.595209 0.653956 0.735409
0.607263 0.654932 0.744564
0.622705 0.646113 0.760708
0.677577 0.643397 0.783017
0.769162 0.636835 0.811826
0.851133 0.648524 0.817105
0.888304 0.682918 0.790433
0.608453 0.674922 0.711635
0.611261 0.675196 0.712306
0.618769 0.678431 0.720790
0.640589 0.687678 0.741421
0.667842 0.686122 0.770321
0.742092 0.685817 0.802792
0.836149 0.692317 0.819791
0.879759 0.722774 0.799741
0.626673 0.720851 0.730129
0.628138 0.720363 0.730037
0.635187 0.719203 0.730648
0.650416 0.718410 0.733700
0.675227 0.718166 0.740078
0.719112 0.736294 0.790860
0.819699 0.749416 0.829313
0.868467 0.768032 0.811978
0.651514 0.775296 0.760616
0.653101 0.775540 0.761227
0.660151 0.776516 0.763607
0.675959 0.778470 0.768612
0.699428 0.780545 0.775479
0.732296 0.784390 0.786313
0.784085 0.800809 0.822721
0.851438 0.805142 0.819181
0.704433 0.805692 0.770657
0.705776 0.805936 0.771206
0.712184 0.807584 0.774380
0.726040 0.812070 0.782071
0.747768 0.820676 0.795468
0.777676 0.833433 0.814755
0.819669 0.854307 0.846128
0.834073 0.847898 0.839933
