20 Preset/Movie Style Preset/【3】LUT for PR-AE-FCPX/Movie - LUT  (5).cube
# Created by Adobe Lightroom plugin Export LUT (1.24.0)
# www.johnrellis.com/lightroom/exportlut.htm
# Preset: 电影质感05（修改版）
# Color profile: C:\Program Files (x86)\Common Files\Adobe\Color\Profiles\Recommended\VideoHD.icc
LUT_3D_SIZE 32
DOMAIN_MIN 0.0 0.0 0.0
DOMAIN_MAX 1.0 1.0 1.0
0.080262 0.094423 0.108461
0.081514 0.094331 0.108461
0.086091 0.094453 0.108400
0.092500 0.095399 0.108186
0.102083 0.096254 0.107942
0.117647 0.097993 0.107759
0.140810 0.100160 0.107210
0.170596 0.102663 0.106264
0.207919 0.104128 0.104768
0.251774 0.104067 0.102510
0.303777 0.100954 0.099519
0.364508 0.091737 0.094820
0.431189 0.053864 0.088014
0.497871 0.000000 0.071138
0.561059 0.000000 0.045991
0.618402 0.000000 0.017517
0.669001 0.000000 0.000000
0.714534 0.000000 0.000000
0.754696 0.000000 0.000000
0.788693 0.000000 0.000000
0.817136 0.000000 0.000000
0.840757 0.050111 0.000000
0.860655 0.114931 0.000000
0.878264 0.147219 0.000000
0.894133 0.174044 0.000000
0.909392 0.199344 0.000000
0.924437 0.223575 0.000000
0.939330 0.247471 0.000000
0.954192 0.271275 0.000000
0.969177 0.295445 0.000000
0.984283 0.319463 0.000000
0.999512 0.343420 0.000000
0.080873 0.094759 0.108736
0.081056 0.094759 0.108400
0.086458 0.095186 0.108309
0.092958 0.095735 0.108156
0.102480 0.096590 0.107881
0.118288 0.098665 0.107637
0.140932 0.100862 0.107118
0.170504 0.103059 0.106203
0.207767 0.104829 0.104677
0.251438 0.104860 0.102419
0.303014 0.102083 0.099428
0.363134 0.093629 0.094759
0.429541 0.060517 0.087922
0.496223 0.000000 0.071168
0.559228 0.000000 0.045960
0.616907 0.000000 0.017609
0.667659 0.000000 0.000000
0.713069 0.000000 0.000000
0.752987 0.000000 0.000000
0.786679 0.000000 0.000000
0.815122 0.000000 0.000000
0.838834 0.045167 0.000000
0.858793 0.113283 0.000000
0.876524 0.145937 0.000000
0.892485 0.172793 0.000000
0.907774 0.197635 0.000000
0.922911 0.221469 0.000000
0.937865 0.245670 0.000000
0.952789 0.269535 0.000000
0.967834 0.293645 0.000000
0.983001 0.317693 0.000000
0.998352 0.341772 0.000000
0.082094 0.096162 0.109865
0.082704 0.096498 0.110140
0.083955 0.096437 0.110140
0.092531 0.098085 0.108888
0.102510 0.099245 0.108583
0.118410 0.101198 0.108003
0.142061 0.103517 0.107424
0.172427 0.106050 0.106081
0.209751 0.108278 0.104463
0.253727 0.108705 0.102052
0.305791 0.106233 0.098543
0.366186 0.098390 0.093721
0.431952 0.076539 0.086580
0.498054 0.011139 0.068727
0.560693 0.000000 0.043214
0.617823 0.000000 0.014771
0.668147 0.000000 0.000000
0.713375 0.000000 0.000000
0.752682 0.000000 0.000000
0.786191 0.000000 0.000000
0.814542 0.000000 0.000000
0.838193 0.077699 0.000000
0.858152 0.121218 0.000000
0.875853 0.151064 0.000000
0.891722 0.176852 0.000000
0.907103 0.200229 0.000000
0.922148 0.224125 0.000000
0.937102 0.247776 0.000000
0.952087 0.271214 0.000000
0.967132 0.295018 0.000000
0.982330 0.318639 0.000000
0.997620 0.342596 0.000000
0.084932 0.100038 0.113222
0.084932 0.100038 0.113222
0.086793 0.100282 0.113497
0.089357 0.100435 0.113130
0.101076 0.103243 0.110994
0.119814 0.107179 0.108888
0.143923 0.110170 0.108156
0.174533 0.113008 0.106691
0.212467 0.115633 0.104952
0.256992 0.116823 0.101991
0.309361 0.115938 0.098146
0.370153 0.109621 0.093019
0.436652 0.095552 0.083345
0.502373 0.054139 0.062684
0.564385 0.000000 0.036866
0.620935 0.000000 0.006714
0.670405 0.000000 0.000000
0.714748 0.000000 0.000000
0.752865 0.000000 0.000000
0.785489 0.000000 0.000000
0.813382 0.031800 0.000000
0.836759 0.104005 0.000000
0.856809 0.135286 0.000000
0.874632 0.161440 0.000000
0.890806 0.184848 0.000000
0.906310 0.207706 0.000000
0.921599 0.230625 0.000000
0.936736 0.253513 0.000000
0.951812 0.276127 0.000000
0.966857 0.299657 0.000000
0.981964 0.322637 0.000000
0.997131 0.345830 0.000000
0.088777 0.105592 0.117372
0.089418 0.105531 0.117678
0.089509 0.106172 0.117861
0.092073 0.106630 0.117494
0.094789 0.106722 0.117159
0.112642 0.111452 0.114137
0.144350 0.119112 0.109468
0.177340 0.124788 0.107088
0.216037 0.128084 0.104738
0.261173 0.130434 0.101778
0.313817 0.130495 0.097230
0.375463 0.126650 0.091035
0.441077 0.117464 0.080018
0.506371 0.101350 0.056611
0.567742 0.071107 0.028595
0.623499 0.017487 0.000000
0.672938 0.000000 0.000000
0.716793 0.000000 0.000000
0.754238 0.005493 0.000000
0.786435 0.062776 0.000000
0.813962 0.106752 0.000000
0.837156 0.133303 0.000000
0.856962 0.157076 0.000000
0.874693 0.178988 0.000000
0.890715 0.199619 0.000000
0.906218 0.220676 0.000000
0.921477 0.241520 0.000000
0.936584 0.262852 0.000000
0.951537 0.284611 0.000000
0.966491 0.306859 0.000000
0.981537 0.329137 0.000000
0.996612 0.351446 0.000000
0.092500 0.114351 0.123110
0.092866 0.114626 0.123323
0.093721 0.115145 0.123537
0.095705 0.116457 0.123903
0.099611 0.116732 0.122988
0.104555 0.115419 0.121706
0.128420 0.122408 0.117739
0.173434 0.134768 0.109773
0.220218 0.144686 0.104372
0.268711 0.149630 0.100038
0.322759 0.150973 0.094697
0.385016 0.149294 0.087160
0.450477 0.143130 0.069001
0.514580 0.133608 0.042908
0.574792 0.121309 0.013825
0.629328 0.109804 0.000000
0.678157 0.102602 0.000000
0.720668 0.104280 0.000000
0.757015 0.114260 0.000000
0.788388 0.130495 0.000000
0.815213 0.148989 0.000000
0.837919 0.167544 0.000000
0.866941 0.197879 0.000000
0.883421 0.215152 0.000000
0.898894 0.231998 0.000000
0.913970 0.249882 0.000000
0.928832 0.268284 0.000000
0.943420 0.287388 0.000000
0.957885 0.307286 0.000000
0.972381 0.327611 0.000000
0.986969 0.347906 0.000000
1.000000 0.368414 0.000000
0.098360 0.129397 0.131868
0.098695 0.129610 0.132113
0.099641 0.130556 0.132204
0.101778 0.132357 0.133181
0.106172 0.133944 0.132906
0.113100 0.132967 0.130678
0.118471 0.129274 0.128542
0.149447 0.138338 0.122774
0.206210 0.154818 0.111482
0.273869 0.169680 0.099184
0.340948 0.180087 0.087404
0.405066 0.179599 0.071382
0.469886 0.175845 0.045472
0.532280 0.170108 0.017334
0.590143 0.163210 0.000000
0.642573 0.157931 0.000000
0.690425 0.156985 0.000000
0.730770 0.160739 0.000000
0.765438 0.168826 0.000000
0.795682 0.180667 0.000000
0.821500 0.194430 0.000000
0.843748 0.208530 0.000000
0.863127 0.223331 0.000000
0.880522 0.238102 0.000000
0.896574 0.253239 0.000000
0.911986 0.269230 0.000000
0.926970 0.285557 0.000000
0.941588 0.302861 0.000000
0.956176 0.320897 0.000000
0.970764 0.339483 0.000000
0.985443 0.358404 0.000000
1.000000 0.377417 0.000000
0.106477 0.150973 0.143832
0.106477 0.151369 0.144228
0.107607 0.152316 0.144503
0.110933 0.154452 0.145480
0.115297 0.158206 0.147005
0.122621 0.157534 0.144167
0.131868 0.155123 0.140352
0.137850 0.147677 0.136934
0.172152 0.157076 0.129885
0.239994 0.177218 0.114839
0.326818 0.196536 0.093690
0.408057 0.208469 0.057801
0.482216 0.214023 0.014282
0.542748 0.210208 0.000000
0.599054 0.206180 0.000000
0.650935 0.204044 0.000000
0.695369 0.204654 0.000000
0.733639 0.207980 0.000000
0.766903 0.214145 0.000000
0.796017 0.222660 0.000000
0.820981 0.232822 0.000000
0.842649 0.243503 0.000000
0.861753 0.254704 0.000000
0.878874 0.266361 0.000000
0.894865 0.279057 0.000000
0.910246 0.292668 0.000000
0.925261 0.306920 0.000000
0.939910 0.322271 0.000000
0.954498 0.338445 0.000000
0.969085 0.355505 0.000000
0.983764 0.372778 0.000000
0.998535 0.390570 0.000000
0.118593 0.180819 0.160983
0.118990 0.181277 0.161105
0.120272 0.182437 0.161654
0.123659 0.185153 0.162875
0.129427 0.189303 0.164523
0.137545 0.192569 0.164950
0.146975 0.188754 0.159457
0.157748 0.183871 0.153170
0.162417 0.171786 0.148104
0.199161 0.179477 0.139742
0.278935 0.203464 0.119936
0.377722 0.225193 0.090883
0.474006 0.239963 0.015167
0.550256 0.250645 0.000000
0.611627 0.253696 0.000000
0.659693 0.252384 0.000000
0.701381 0.253056 0.000000
0.737484 0.255406 0.000000
0.769284 0.259922 0.000000
0.797147 0.266056 0.000000
0.821164 0.273167 0.000000
0.842069 0.280980 0.000000
0.860655 0.289281 0.000000
0.877501 0.298161 0.000000
0.893431 0.308293 0.000000
0.908812 0.319463 0.000000
0.923674 0.331884 0.000000
0.938323 0.345190 0.000000
0.952911 0.359564 0.000000
0.967468 0.374609 0.000000
0.982147 0.390448 0.000000
0.996918 0.406561 0.000000
0.136873 0.219394 0.183261
0.137026 0.219883 0.183352
0.139193 0.221073 0.184054
0.143130 0.223880 0.185367
0.149538 0.228458 0.187381
0.159213 0.235111 0.190433
0.169528 0.233158 0.186069
0.179995 0.226627 0.178012
0.191379 0.218296 0.168978
0.193576 0.200595 0.161685
0.230198 0.204990 0.152071
0.321660 0.232212 0.127626
0.429541 0.256016 0.091218
0.533501 0.274876 0.000000
0.606287 0.288029 0.000000
0.666804 0.302770 0.000000
0.706691 0.303349 0.000000
0.741451 0.304631 0.000000
0.771969 0.307561 0.000000
0.798459 0.311315 0.000000
0.821317 0.315618 0.000000
0.841306 0.320134 0.000000
0.859190 0.325505 0.000000
0.875486 0.331823 0.000000
0.891142 0.339239 0.000000
0.906371 0.348089 0.000000
0.921294 0.358312 0.000000
0.935943 0.369696 0.000000
0.950622 0.382116 0.000000
0.965270 0.395758 0.000000
0.980041 0.409888 0.000000
0.994995 0.424445 0.000000
0.163912 0.265049 0.210208
0.164340 0.265385 0.210391
0.166537 0.267002 0.211246
0.171206 0.270176 0.212619
0.178714 0.275151 0.214878
0.190127 0.282292 0.218326
0.204318 0.289036 0.220584
0.213718 0.280522 0.210636
0.224063 0.270268 0.199435
0.234440 0.257908 0.187564
0.231876 0.234012 0.177798
0.266484 0.233982 0.167391
0.370520 0.264897 0.138796
0.479225 0.289342 0.096529
0.577264 0.309941 0.000000
0.651118 0.327489 0.000000
0.703151 0.343420 0.000000
0.744411 0.355413 0.000000
0.773495 0.356085 0.000000
0.798734 0.357153 0.000000
0.820676 0.358648 0.000000
0.839994 0.360693 0.000000
0.857481 0.363806 0.000000
0.873564 0.367590 0.000000
0.889281 0.372869 0.000000
0.904448 0.379736 0.000000
0.919310 0.388098 0.000000
0.934020 0.397467 0.000000
0.948669 0.408087 0.000000
0.963409 0.419776 0.000000
0.978180 0.432136 0.000000
0.993194 0.444923 0.000000
0.203433 0.319341 0.242466
0.203952 0.319951 0.242771
0.206546 0.321263 0.243503
0.211856 0.324590 0.245182
0.220584 0.329839 0.247745
0.233310 0.337102 0.251499
0.250706 0.347021 0.256626
0.263920 0.346014 0.252201
0.272923 0.334844 0.239170
0.282170 0.320989 0.224735
0.289311 0.303624 0.209384
0.279637 0.272801 0.197116
0.318395 0.272862 0.188022
0.432258 0.306310 0.155703
0.538293 0.333013 0.108583
0.627985 0.355901 0.000000
0.698787 0.377111 0.000000
0.742977 0.393133 0.000000
0.779812 0.408698 0.000000
0.805875 0.413123 0.000000
0.826047 0.411353 0.000000
0.843992 0.410376 0.000000
0.860380 0.410224 0.000000
0.876127 0.411841 0.000000
0.891386 0.415015 0.000000
0.906249 0.419623 0.000000
0.920775 0.425269 0.000000
0.935149 0.432227 0.000000
0.949432 0.440436 0.000000
0.963897 0.449561 0.000000
0.978454 0.459602 0.000000
0.993347 0.470283 0.000000
0.264286 0.384070 0.285466
0.264958 0.384253 0.285649
0.267948 0.385595 0.286442
0.273686 0.388769 0.288273
0.283146 0.393408 0.291386
0.296086 0.400092 0.295659
0.314092 0.409216 0.301915
0.335912 0.420020 0.309087
0.340642 0.408484 0.293645
0.346380 0.394202 0.275639
0.352911 0.377203 0.256443
0.356115 0.355535 0.237095
0.341222 0.319158 0.220768
0.358160 0.302220 0.206424
0.471717 0.337621 0.173617
0.572290 0.365637 0.127535
0.653651 0.389593 0.000000
0.717983 0.410834 0.000000
0.763302 0.427802 0.000000
0.795285 0.440986 0.000000
0.822019 0.452705 0.000000
0.840055 0.450294 0.000000
0.856474 0.448280 0.000000
0.872374 0.448066 0.000000
0.887816 0.449439 0.000000
0.902770 0.452216 0.000000
0.917510 0.456184 0.000000
0.932006 0.461494 0.000000
0.946563 0.467994 0.000000
0.961151 0.475563 0.000000
0.975860 0.483955 0.000000
0.990814 0.493233 0.000000
0.331670 0.441321 0.330846
0.331792 0.441566 0.330938
0.334295 0.442725 0.331762
0.339178 0.444984 0.333349
0.347234 0.448737 0.336095
0.358709 0.454139 0.340185
0.374334 0.461677 0.345800
0.393439 0.470924 0.352911
0.406653 0.472267 0.350744
0.408484 0.459144 0.332494
0.411536 0.443488 0.311803
0.414923 0.424445 0.288701
0.413031 0.399084 0.264591
0.394720 0.359106 0.243809
0.397742 0.332647 0.226810
0.507866 0.368902 0.194339
0.601251 0.397498 0.150423
0.674769 0.421698 0.072969
0.733669 0.442634 0.000000
0.779477 0.459083 0.000000
0.807980 0.470222 0.000000
0.832395 0.480262 0.000000
0.852689 0.486397 0.000000
0.868772 0.484596 0.000000
0.884367 0.484382 0.000000
0.899535 0.485695 0.000000
0.914366 0.488075 0.000000
0.929046 0.491737 0.000000
0.943664 0.496651 0.000000
0.958373 0.502647 0.000000
0.973205 0.509545 0.000000
0.988312 0.517296 0.000000
0.396368 0.492775 0.375982
0.396948 0.492927 0.376104
0.398871 0.493782 0.376806
0.402869 0.495521 0.378241
0.409766 0.498573 0.380682
0.419226 0.502892 0.384222
0.431861 0.508904 0.389441
0.447913 0.516594 0.396063
0.467170 0.525841 0.404334
0.470039 0.517845 0.391119
0.470130 0.504295 0.371344
0.470893 0.487770 0.348302
0.471412 0.467842 0.322637
0.465217 0.439857 0.295201
0.444526 0.397742 0.268772
0.438544 0.364569 0.248081
0.539910 0.398840 0.216831
0.625269 0.427680 0.176242
0.692805 0.451881 0.120027
0.746914 0.471870 0.000000
0.789548 0.486641 0.000000
0.819181 0.497139 0.000000
0.842039 0.506279 0.000000
0.863462 0.516136 0.000000
0.880888 0.518975 0.000000
0.896178 0.518914 0.000000
0.911162 0.519982 0.000000
0.926024 0.522362 0.000000
0.940887 0.525994 0.000000
0.955810 0.530724 0.000000
0.970855 0.536431 0.000000
0.986175 0.542962 0.000000
0.454932 0.536706 0.419013
0.455421 0.537041 0.419226
0.457160 0.537804 0.420020
0.460700 0.539391 0.421515
0.466560 0.542107 0.423957
0.474495 0.545892 0.427527
0.485298 0.551080 0.432563
0.498451 0.557580 0.438972
0.514031 0.565454 0.446845
0.526482 0.569635 0.449500
0.524956 0.558099 0.430945
0.523613 0.543999 0.409247
0.522118 0.526879 0.384344
0.520043 0.506065 0.355901
0.510399 0.476326 0.325780
0.488746 0.433600 0.295537
0.479622 0.397742 0.269902
0.566705 0.426673 0.240787
0.645014 0.455482 0.203891
0.707546 0.479377 0.156924
0.757717 0.498329 0.068116
0.797757 0.512108 0.000000
0.829252 0.522057 0.000000
0.851621 0.531273 0.000000
0.872831 0.541375 0.000000
0.892973 0.551965 0.000000
0.908110 0.552087 0.000000
0.923095 0.553216 0.000000
0.938079 0.555566 0.000000
0.953063 0.558953 0.000000
0.968231 0.563256 0.000000
0.983551 0.568383 0.000000
0.504753 0.574426 0.459449
0.505089 0.574578 0.459663
0.506554 0.575219 0.460243
0.509331 0.576684 0.461738
0.514000 0.578943 0.464088
0.520378 0.582177 0.467414
0.528740 0.586481 0.471839
0.539208 0.591943 0.477607
0.551385 0.598413 0.484382
0.565087 0.605921 0.492439
0.568902 0.602258 0.484657
0.567102 0.590600 0.465644
0.565179 0.576440 0.443305
0.562737 0.559380 0.417304
0.559655 0.538811 0.387518
0.548821 0.508843 0.355535
0.527855 0.467018 0.322850
0.517174 0.430243 0.294255
0.590112 0.453407 0.266667
0.662409 0.482033 0.233188
0.720912 0.505516 0.193149
0.767727 0.523400 0.140566
0.805264 0.536278 0.000000
0.837064 0.546014 0.000000
0.861234 0.555657 0.000000
0.882231 0.565942 0.000000
0.902342 0.576471 0.000000
0.920165 0.583520 0.000000
0.935210 0.584833 0.000000
0.950347 0.587091 0.000000
0.965606 0.590265 0.000000
0.981048 0.594293 0.000000
0.547082 0.608026 0.497688
0.547265 0.608209 0.497963
0.556359 0.615198 0.506096
0.558526 0.616388 0.507408
0.562158 0.618219 0.509422
0.567010 0.620813 0.512322
0.573327 0.624201 0.516045
0.581231 0.628504 0.520897
0.590539 0.633600 0.526818
0.601221 0.639521 0.533806
0.611963 0.645136 0.540307
0.609888 0.635798 0.523796
0.607691 0.624353 0.504173
0.605097 0.610163 0.481056
0.601831 0.592981 0.454200
0.597925 0.572503 0.423316
0.586023 0.542473 0.389593
0.566155 0.502068 0.354162
0.554803 0.464881 0.322393
0.613611 0.482002 0.296330
0.680659 0.510185 0.266972
0.735042 0.532555 0.232364
0.778012 0.549096 0.192233
0.813016 0.560876 0.135775
0.844450 0.570764 0.000000
0.871580 0.580316 0.000000
0.892302 0.590417 0.000000
0.912230 0.600732 0.000000
0.931395 0.611078 0.000000
0.947539 0.614801 0.000000
0.962890 0.616938 0.000000
0.978363 0.619928 0.000000
0.584039 0.638483 0.534691
0.584924 0.639124 0.535454
0.586419 0.640131 0.536736
0.588800 0.641566 0.538445
0.591974 0.643427 0.540734
0.596124 0.645655 0.543450
0.601282 0.648463 0.546899
0.607568 0.651881 0.551110
0.614954 0.656001 0.556329
0.623468 0.660731 0.562402
0.632898 0.666102 0.569451
0.637201 0.665675 0.566735
0.635096 0.656641 0.549889
0.632990 0.645686 0.530236
0.630793 0.632532 0.507408
0.628046 0.616297 0.480812
0.624262 0.596643 0.450172
0.612634 0.567590 0.416724
0.594537 0.529412 0.380529
0.583581 0.493690 0.347234
0.631678 0.505425 0.322576
0.694789 0.533501 0.297765
0.745357 0.554986 0.268620
0.785428 0.570794 0.236698
0.819120 0.582513 0.194705
0.850523 0.593072 0.128176
0.880003 0.602808 0.000000
0.901793 0.613062 0.000000
0.921813 0.623407 0.000000
0.941222 0.633600 0.000000
0.959747 0.642573 0.000000
0.975311 0.644709 0.000000
0.612451 0.662135 0.565942
0.613214 0.662684 0.566735
0.614527 0.663569 0.567895
0.616449 0.664698 0.569512
0.619074 0.666316 0.571649
0.622431 0.668177 0.574121
0.626520 0.670436 0.577142
0.631556 0.673243 0.580896
0.637507 0.676539 0.585412
0.644251 0.680415 0.590723
0.651789 0.684779 0.596765
0.659876 0.689631 0.603418
0.659327 0.684199 0.592309
0.657282 0.675746 0.575677
0.655360 0.665461 0.556115
0.653437 0.653101 0.533593
0.651240 0.638056 0.507347
0.648280 0.619898 0.477180
0.637201 0.591913 0.444160
0.620874 0.555962 0.407660
0.610285 0.521630 0.373114
0.648829 0.528038 0.349096
0.707912 0.555688 0.328283
0.754696 0.576196 0.304570
0.792111 0.591302 0.278202
0.825315 0.603784 0.245182
0.856687 0.615198 0.198764
0.886564 0.625483 0.118196
0.911803 0.635370 0.000000
0.932036 0.645777 0.000000
0.951720 0.655818 0.000000
0.970825 0.665492 0.000000
0.637537 0.683162 0.595880
0.638117 0.683619 0.596521
0.639063 0.684321 0.597498
0.640620 0.685267 0.598871
0.642725 0.686549 0.600641
0.645350 0.688075 0.602777
0.648585 0.689998 0.605341
0.652613 0.692287 0.608515
0.657343 0.695125 0.612360
0.662837 0.698482 0.616785
0.668971 0.702358 0.621820
0.675715 0.706783 0.627375
0.680568 0.708705 0.628870
0.678462 0.701381 0.615778
0.676417 0.692988 0.600061
0.674708 0.683406 0.581323
0.673152 0.672023 0.559350
0.671687 0.658259 0.533806
0.669825 0.641901 0.504784
0.660243 0.615991 0.472755
0.646204 0.582757 0.436713
0.636683 0.550286 0.401770
0.666957 0.552026 0.377935
0.721614 0.578759 0.361547
0.764645 0.598444 0.342840
0.800320 0.613550 0.321416
0.833433 0.627375 0.295171
0.864988 0.639948 0.259861
0.895140 0.651026 0.209354
0.924163 0.660273 0.118288
0.944701 0.670558 0.101930
0.964446 0.680385 0.081056
0.661463 0.704524 0.626001
0.661707 0.704738 0.626276
0.662226 0.705135 0.626764
0.663203 0.705776 0.627558
0.664698 0.706752 0.628748
0.666682 0.707973 0.630335
0.669276 0.709651 0.632380
0.672480 0.711788 0.634974
0.676326 0.714412 0.638056
0.680934 0.717525 0.641810
0.686030 0.721157 0.645960
0.691798 0.725246 0.650629
0.698024 0.729763 0.655634
0.699153 0.727199 0.650813
0.697047 0.719600 0.638453
0.694881 0.710964 0.623896
0.692775 0.701167 0.606409
0.691066 0.690150 0.585626
0.689906 0.677577 0.560937
0.688624 0.662379 0.532372
0.680171 0.638056 0.500786
0.668544 0.607416 0.464912
0.659937 0.576684 0.429389
0.682673 0.573510 0.404913
0.732662 0.598688 0.391974
0.772488 0.617517 0.377325
0.807767 0.633539 0.359716
0.840787 0.648524 0.338842
0.872465 0.662104 0.310857
0.902922 0.673762 0.273045
0.932403 0.683314 0.217136
0.956054 0.692012 0.180087
0.680049 0.723476 0.649744
0.680293 0.723659 0.649958
0.680751 0.724025 0.650385
0.681544 0.724666 0.651087
0.682765 0.725551 0.652064
0.684443 0.726711 0.653376
0.686610 0.728267 0.655085
0.689326 0.730251 0.657221
0.692622 0.732662 0.659876
0.696498 0.735592 0.662989
0.700893 0.738888 0.666499
0.705898 0.742641 0.670497
0.711360 0.746792 0.674861
0.717281 0.751186 0.679530
0.715511 0.744472 0.669398
0.713558 0.736782 0.657923
0.711452 0.728084 0.644434
0.709255 0.718288 0.628382
0.707210 0.707271 0.609247
0.705562 0.694881 0.586297
0.704585 0.680720 0.558831
0.697475 0.658381 0.528283
0.688014 0.630396 0.493141
0.681178 0.602045 0.458015
0.696742 0.593530 0.431312
0.742611 0.617426 0.421698
0.780423 0.636316 0.410712
0.815549 0.653529 0.396918
0.848783 0.669612 0.380560
0.880613 0.683986 0.359014
0.911070 0.695674 0.328985
0.940551 0.704921 0.286595
0.697780 0.743648 0.672480
0.698054 0.743893 0.672786
0.698451 0.744228 0.673121
0.699062 0.744686 0.673640
0.700008 0.745357 0.674311
0.701320 0.746273 0.675319
0.703059 0.747524 0.676570
0.705287 0.749081 0.678279
0.708003 0.751125 0.680446
0.711299 0.753536 0.683070
0.715053 0.756374 0.686152
0.719417 0.759640 0.689723
0.724208 0.763272 0.693690
0.729549 0.767178 0.698085
0.732265 0.767422 0.697230
0.730404 0.760494 0.686641
0.728389 0.752712 0.674800
0.726345 0.743984 0.661860
0.724117 0.734249 0.646998
0.721950 0.723323 0.629419
0.719936 0.711147 0.608423
0.717952 0.696895 0.583124
0.711757 0.676112 0.553552
0.704189 0.650568 0.519371
0.698848 0.624323 0.484871
0.710719 0.613947 0.459144
0.752529 0.636500 0.452522
0.789487 0.656214 0.445045
0.824674 0.674556 0.434699
0.857633 0.691005 0.421912
0.889097 0.705226 0.404913
0.919341 0.717098 0.382330
0.712886 0.761349 0.692409
0.713130 0.761624 0.692653
0.713497 0.761929 0.693050
0.714107 0.762387 0.693599
0.715023 0.763088 0.694331
0.716335 0.764004 0.695369
0.717983 0.765255 0.696773
0.720119 0.766873 0.698604
0.722713 0.768856 0.700740
0.725734 0.771176 0.703395
0.729274 0.773800 0.706386
0.733272 0.776791 0.709834
0.737667 0.780056 0.713619
0.742489 0.783627 0.717769
0.747646 0.787411 0.722194
0.747646 0.783993 0.716152
0.745785 0.777218 0.705348
0.743923 0.769680 0.693446
0.742000 0.761196 0.680354
0.739956 0.751675 0.666072
0.737789 0.740993 0.650019
0.735531 0.729091 0.630915
0.732723 0.714900 0.608057
0.726345 0.694942 0.580865
0.719844 0.671473 0.548272
0.716274 0.647852 0.515068
0.724605 0.635370 0.489448
0.763455 0.657282 0.485695
0.800229 0.678004 0.481117
0.834928 0.696895 0.474128
0.867643 0.713771 0.465614
0.898741 0.728115 0.454597
0.728573 0.779629 0.713741
0.728664 0.779782 0.713893
0.729000 0.779995 0.714168
0.729549 0.780392 0.714626
0.730312 0.780972 0.715297
0.731441 0.781796 0.716274
0.732967 0.782895 0.717525
0.734829 0.784298 0.719173
0.737179 0.786007 0.721157
0.739956 0.788022 0.723598
0.743099 0.790402 0.726375
0.746731 0.793057 0.729580
0.750729 0.795987 0.733120
0.755093 0.799130 0.736934
0.759854 0.802548 0.741085
0.764248 0.805295 0.744228
0.762387 0.799619 0.734646
0.760616 0.793210 0.723903
0.758877 0.786069 0.712123
0.757229 0.778012 0.699062
0.755428 0.768978 0.684810
0.753506 0.758755 0.669154
0.751308 0.747280 0.651789
0.747982 0.733303 0.631189
0.741543 0.714321 0.606806
0.734829 0.691981 0.576745
0.731594 0.669856 0.544915
0.737118 0.655634 0.518914
0.774563 0.677516 0.516991
0.811032 0.699336 0.515557
0.845335 0.718898 0.512596
0.877684 0.735958 0.508568
0.743679 0.796872 0.734615
0.743771 0.796994 0.734737
0.744076 0.797208 0.735012
0.744594 0.797604 0.735500
0.745388 0.798184 0.736202
0.746517 0.799008 0.737240
0.748104 0.800198 0.738705
0.750057 0.801694 0.740566
0.752438 0.803525 0.742763
0.755245 0.805631 0.745418
0.758450 0.808042 0.748409
0.762020 0.810666 0.751736
0.765957 0.813535 0.755306
0.770169 0.816526 0.759091
0.774655 0.819699 0.763088
0.779446 0.822965 0.767208
0.781460 0.822751 0.765896
0.779660 0.817502 0.756741
0.777951 0.811612 0.746487
0.776394 0.805051 0.735073
0.774899 0.797635 0.722408
0.773465 0.789242 0.708309
0.771786 0.779599 0.692531
0.769863 0.768673 0.675166
0.766262 0.755093 0.656336
0.759640 0.736934 0.634607
0.752804 0.715938 0.608087
0.749569 0.695674 0.579828
0.752926 0.680873 0.555138
0.789334 0.702937 0.554955
0.825315 0.725490 0.557153
0.858915 0.745205 0.558740
0.760952 0.815732 0.758267
0.760983 0.815763 0.758328
0.761196 0.815885 0.758480
0.761593 0.816190 0.758816
0.762264 0.816617 0.759396
0.763210 0.817258 0.760220
0.764523 0.818173 0.761349
0.766140 0.819303 0.762783
0.768124 0.820676 0.764523
0.770535 0.822324 0.766629
0.773251 0.824216 0.769039
0.776333 0.826352 0.771756
0.779843 0.828702 0.774777
0.783597 0.831266 0.778012
