20 Preset/Movie Style Preset/【3】LUT for PR-AE-FCPX/Movie - LUT  (14).cube
# Created by Adobe Lightroom plugin Export LUT (1.24.0)
# www.johnrellis.com/lightroom/exportlut.htm
# Preset: 电影质感14（修改版）
# Color profile: C:\Program Files (x86)\Common Files\Adobe\Color\Profiles\Recommended\VideoHD.icc
LUT_3D_SIZE 5
DOMAIN_MIN 0.000000 0.000000 0.000000
DOMAIN_MAX 0.903226 0.903226 0.903226
0.080262 0.094423 0.108461
0.135775 0.105989 0.114931
0.427100 0.123598 0.114626
0.756039 0.199710 0.093782
0.882383 0.388739 0.178805
0.101045 0.150149 0.142458
0.142763 0.153109 0.138369
0.595697 0.219303 0.000000
0.805570 0.277287 0.000000
0.907408 0.402106 0.000000
0.262486 0.409155 0.298680
0.275090 0.395392 0.282597
0.433143 0.391058 0.258091
0.813809 0.498756 0.000000
0.937377 0.531334 0.000000
0.518761 0.608148 0.484413
0.523522 0.602808 0.480232
0.500542 0.561242 0.412634
0.644160 0.580896 0.422889
0.867948 0.663386 0.326116
0.667567 0.735897 0.643336
0.671992 0.734920 0.645777
0.664088 0.718288 0.615991
0.679164 0.704280 0.574243
0.765011 0.726680 0.605097
0.078218 0.105684 0.144472
0.115419 0.127779 0.149264
0.395819 0.189151 0.195529
0.742855 0.265751 0.188479
0.880186 0.409461 0.204929
0.100618 0.172915 0.178347
0.170718 0.197513 0.202853
0.548180 0.239261 0.171969
0.781674 0.315862 0.153201
0.892302 0.432990 0.172244
0.294011 0.435035 0.335729
0.340032 0.436835 0.350164
0.461585 0.422248 0.316625
0.811276 0.515862 0.093874
0.929412 0.539117 0.000000
0.531487 0.617914 0.502678
0.547936 0.617670 0.511833
0.525719 0.578149 0.448493
0.650233 0.591943 0.452125
0.868284 0.671107 0.366033
0.669276 0.739345 0.648402
0.673732 0.738430 0.650904
0.671107 0.724331 0.629786
0.680110 0.706569 0.583612
0.765805 0.729488 0.613336
0.000000 0.159518 0.326543
0.141909 0.149691 0.368872
0.361791 0.345342 0.366491
0.530266 0.481178 0.476814
0.790311 0.533928 0.489509
0.141878 0.280644 0.356146
0.199680 0.275364 0.399145
0.403265 0.419959 0.419654
0.617304 0.483223 0.475105
0.807767 0.543725 0.484474
0.339971 0.485847 0.438514
0.408728 0.503807 0.459266
0.552300 0.527581 0.494148
0.770016 0.566155 0.455909
0.866270 0.592950 0.448554
0.568963 0.650385 0.560143
0.582055 0.650416 0.567712
0.607050 0.639307 0.568719
0.669795 0.630488 0.545495
0.873289 0.698451 0.482216
0.672114 0.752895 0.664759
0.676936 0.752438 0.667659
0.694545 0.748714 0.676875
0.680507 0.713558 0.614313
0.768032 0.738552 0.640558
0.065644 0.300511 0.555871
0.229496 0.295659 0.573541
0.604059 0.209476 0.637720
0.623133 0.576654 0.579583
0.659998 0.658350 0.646418
0.282750 0.402899 0.561242
0.318730 0.389837 0.577966
0.601099 0.349187 0.637842
0.628382 0.603235 0.597620
0.664088 0.662959 0.651179
0.446479 0.549981 0.566888
0.479500 0.553857 0.572107
0.579706 0.575097 0.627192
0.649561 0.646815 0.634516
0.717922 0.672450 0.661036
0.582940 0.670527 0.627405
0.598810 0.673274 0.632776
0.652522 0.690120 0.657893
0.703059 0.693355 0.668086
0.852537 0.722927 0.648127
0.684565 0.781186 0.703914
0.688350 0.781125 0.706142
0.703243 0.779812 0.713863
0.723201 0.764584 0.711788
0.776394 0.759945 0.692500
0.433326 0.490608 0.704707
0.462867 0.485695 0.710292
0.594171 0.464912 0.736599
0.791501 0.478523 0.758541
0.735927 0.704707 0.710964
0.459419 0.525933 0.698329
0.480110 0.521050 0.704463
0.590753 0.505180 0.730312
0.783169 0.506249 0.757717
0.734920 0.709590 0.713710
0.532189 0.609613 0.675624
0.546624 0.612665 0.683131
0.593194 0.608057 0.714412
0.758236 0.590570 0.765560
0.740291 0.736538 0.734890
0.590509 0.697139 0.700008
0.597559 0.695735 0.699855
0.630701 0.693996 0.703792
0.698909 0.709102 0.754818
0.760220 0.777340 0.773739
0.657679 0.782010 0.746426
0.662806 0.782589 0.747829
0.687953 0.788388 0.757870
0.740261 0.802243 0.781216
0.802762 0.815030 0.804074
