20 Preset/Movie Style Preset/【3】LUT for PR-AE-FCPX/Movie - LUT  (2).cube
# Created by Adobe Lightroom plugin Export LUT (1.24.0)
# www.johnrellis.com/lightroom/exportlut.htm
# Preset: 电影质感02（修改版）
# Color profile: C:\Program Files (x86)\Common Files\Adobe\Color\Profiles\Recommended\VideoHD.icc
LUT_3D_SIZE 5
DOMAIN_MIN 0.000000 0.000000 0.000000
DOMAIN_MAX 0.903226 0.903226 0.903226
0.080262 0.094423 0.108461
0.181979 0.100801 0.110994
0.598840 0.000000 0.093446
0.860685 0.000000 0.049531
0.963378 0.284154 0.128054
0.108766 0.176089 0.146792
0.161471 0.166690 0.138491
0.647425 0.139101 0.091951
0.862791 0.196445 0.089021
0.961608 0.351324 0.156863
0.458534 0.564324 0.402075
0.514946 0.587457 0.422339
0.523186 0.451270 0.279301
0.828672 0.491890 0.243503
0.946685 0.527489 0.284092
0.684321 0.742367 0.644770
0.695766 0.749905 0.652674
0.724117 0.755245 0.652125
0.708156 0.642084 0.480385
0.867185 0.676326 0.488808
0.788876 0.854368 0.787839
0.794003 0.857084 0.791562
0.812192 0.866087 0.803677
0.823606 0.854124 0.776822
0.816587 0.782528 0.665949
0.062440 0.106600 0.156741
0.188602 0.100404 0.174655
0.578790 0.000000 0.175875
0.839017 0.159548 0.189425
0.946593 0.335180 0.225498
0.103029 0.185794 0.181125
0.192538 0.213413 0.212314
0.625513 0.217380 0.206394
0.842741 0.271427 0.209201
0.944457 0.388922 0.248081
0.464210 0.552514 0.436988
0.516533 0.577569 0.458198
0.528740 0.466957 0.337255
0.822049 0.513878 0.325200
0.933745 0.547051 0.355230
0.684016 0.738674 0.652399
0.695308 0.746578 0.660426
0.726650 0.759060 0.668513
0.707210 0.646906 0.504723
0.866270 0.683528 0.515373
0.788144 0.853117 0.790036
0.793271 0.855924 0.793759
0.813718 0.866850 0.808743
0.825742 0.857237 0.786069
0.817685 0.785428 0.673884
0.000000 0.164553 0.378790
0.142702 0.158694 0.422431
0.640040 0.124239 0.435279
0.803555 0.296452 0.385077
0.902892 0.447852 0.423194
0.098085 0.297917 0.395941
0.217105 0.293858 0.439643
0.636530 0.323919 0.457160
0.785122 0.401312 0.423011
0.900725 0.485786 0.443488
0.374060 0.515404 0.444739
0.450843 0.534905 0.472969
0.584466 0.549187 0.508049
0.785061 0.577325 0.515221
0.896239 0.594049 0.509300
0.664851 0.719478 0.650996
0.679896 0.726558 0.665309
0.727016 0.761135 0.705226
0.705928 0.665644 0.579889
0.868681 0.709865 0.599390
0.774380 0.843839 0.784360
0.783810 0.847898 0.794003
0.808865 0.861997 0.814054
0.830961 0.865934 0.814054
0.815610 0.788785 0.693263
0.000000 0.308965 0.600244
0.235325 0.309575 0.616510
0.627192 0.272435 0.672297
0.811826 0.431159 0.630060
0.883848 0.522026 0.591577
0.268803 0.415534 0.599542
0.323980 0.403174 0.615381
0.623468 0.391150 0.668116
0.796872 0.495186 0.634607
0.873960 0.546227 0.596582
0.431220 0.571374 0.592981
0.475563 0.574914 0.599420
0.604486 0.596674 0.652033
0.754299 0.621607 0.649622
0.839139 0.627527 0.625116
0.604089 0.687617 0.632410
0.620691 0.691615 0.640436
0.676967 0.711727 0.676204
0.719753 0.706325 0.677302
0.868772 0.730739 0.687556
0.731258 0.821408 0.752224
0.739651 0.825162 0.760372
0.775051 0.841642 0.794430
0.836301 0.874601 0.847593
0.815152 0.799924 0.735073
0.440436 0.509667 0.741665
0.477333 0.508141 0.746883
0.616632 0.503410 0.770443
0.816922 0.501884 0.806271
0.892699 0.611231 0.765560
0.469703 0.547204 0.735103
0.493385 0.542596 0.741054
0.614466 0.539666 0.764797
0.807401 0.537438 0.803525
0.887327 0.627771 0.766567
0.527672 0.628412 0.710994
0.549248 0.632380 0.718196
0.611933 0.631495 0.748959
0.773678 0.634272 0.797513
0.875914 0.683101 0.777096
0.577783 0.721950 0.726253
0.588006 0.720607 0.726894
0.630152 0.717464 0.732937
0.718196 0.731197 0.784360
0.858152 0.761105 0.797696
0.666377 0.797299 0.747799
0.673396 0.798306 0.750423
0.705440 0.807614 0.766873
0.766293 0.828061 0.802182
0.824887 0.834897 0.823362
