20 Preset/Movie Style Preset/【3】LUT for PR-AE-FCPX/Movie - LUT  (11).cube
# Created by Adobe Lightroom plugin Export LUT (1.24.0)
# www.johnrellis.com/lightroom/exportlut.htm
# Preset: 电影质感11（修改版）
# Color profile: C:\Program Files (x86)\Common Files\Adobe\Color\Profiles\Recommended\VideoHD.icc
LUT_3D_SIZE 32
DOMAIN_MIN 0.0 0.0 0.0
DOMAIN_MAX 1.0 1.0 1.0
0.080262 0.094423 0.108461
0.081514 0.094331 0.108461
0.086915 0.094789 0.108339
0.093721 0.095674 0.108156
0.104768 0.096681 0.107820
0.124208 0.098909 0.107485
0.152560 0.102266 0.106264
0.190127 0.105257 0.104799
0.235569 0.107240 0.102052
0.289525 0.107271 0.098360
0.352941 0.102205 0.092775
0.424414 0.089113 0.082002
0.496223 0.038697 0.058106
0.564202 0.000000 0.025788
0.627039 0.000000 0.000000
0.684413 0.000000 0.000000
0.730983 0.000000 0.000000
0.769528 0.010254 0.000000
0.802090 0.098390 0.000000
0.829191 0.136965 0.000000
0.851774 0.167117 0.000000
0.870787 0.193393 0.000000
0.887022 0.216220 0.000000
0.902281 0.238285 0.000000
0.917021 0.259800 0.000000
0.931395 0.281132 0.000000
0.945556 0.302495 0.000000
0.959594 0.323674 0.000000
0.973571 0.344976 0.000000
0.987610 0.366186 0.000000
1.000000 0.386755 0.000000
1.000000 0.406928 0.000000
0.080873 0.094759 0.108736
0.080873 0.094759 0.108736
0.087709 0.095125 0.108309
0.094148 0.096010 0.108095
0.104921 0.097444 0.107729
0.124727 0.099947 0.106996
0.153017 0.102907 0.106172
0.190249 0.105898 0.104341
0.235569 0.108248 0.101900
0.288975 0.108186 0.098268
0.351812 0.104005 0.092653
0.422889 0.091402 0.081910
0.494514 0.046448 0.058015
0.562402 0.000000 0.025910
0.625116 0.000000 0.000000
0.682155 0.000000 0.000000
0.728603 0.000000 0.000000
0.767300 0.014496 0.000000
0.799985 0.099092 0.000000
0.827176 0.136233 0.000000
0.849943 0.166415 0.000000
0.869078 0.192325 0.000000
0.885405 0.215030 0.000000
0.900633 0.236851 0.000000
0.915435 0.258366 0.000000
0.929839 0.279484 0.000000
0.944030 0.300664 0.000000
0.958129 0.322087 0.000000
0.972259 0.343328 0.000000
0.986358 0.364538 0.000000
1.000000 0.385351 0.000000
1.000000 0.405615 0.000000
0.082704 0.096498 0.110140
0.082704 0.096498 0.110140
0.084779 0.096773 0.110079
0.093843 0.098329 0.108492
0.106233 0.099886 0.108095
0.126375 0.102907 0.107271
0.156039 0.106447 0.105928
0.193606 0.109682 0.104005
0.239078 0.112184 0.101442
0.292332 0.112764 0.097597
0.355383 0.109255 0.091279
0.425971 0.098482 0.080018
0.496834 0.069337 0.053620
0.564019 0.012085 0.022217
0.626734 0.000000 0.000000
0.682368 0.000000 0.000000
0.728176 0.000000 0.000000
0.766537 0.050416 0.000000
0.799161 0.110018 0.000000
0.826352 0.143557 0.000000
0.849119 0.172091 0.000000
0.868315 0.196811 0.000000
0.884642 0.218997 0.000000
0.899870 0.239994 0.000000
0.914672 0.260777 0.000000
0.929107 0.281315 0.000000
0.943236 0.302434 0.000000
0.957397 0.323461 0.000000
0.971527 0.344488 0.000000
0.985687 0.365484 0.000000
0.999939 0.386023 0.000000
1.000000 0.406195 0.000000
0.085542 0.100343 0.113497
0.086366 0.100649 0.113436
0.086976 0.100984 0.113710
0.090089 0.101076 0.113649
0.104280 0.104646 0.111116
0.128878 0.109895 0.107942
0.159518 0.114107 0.106081
0.197726 0.118135 0.103914
0.244724 0.121645 0.100587
0.299840 0.122835 0.095491
0.364538 0.120150 0.088838
0.433997 0.111849 0.072633
0.503868 0.097200 0.045106
0.569574 0.069032 0.011872
0.631220 0.030518 0.000000
0.684565 0.024292 0.000000
0.728908 0.055818 0.000000
0.766232 0.101442 0.000000
0.798215 0.130739 0.000000
0.825010 0.158358 0.000000
0.847623 0.182803 0.000000
0.866728 0.205600 0.000000
0.883207 0.226200 0.000000
0.898619 0.245975 0.000000
0.913603 0.266178 0.000000
0.928252 0.286442 0.000000
0.942626 0.307103 0.000000
0.956939 0.327764 0.000000
0.971160 0.348455 0.000000
0.985351 0.369085 0.000000
0.999542 0.389166 0.000000
1.000000 0.408820 0.000000
0.089631 0.106844 0.118074
0.089631 0.106844 0.118074
0.090455 0.107424 0.118288
0.093019 0.107881 0.117922
0.097139 0.107820 0.117281
0.120485 0.114839 0.113527
0.161074 0.124910 0.107332
0.202853 0.132753 0.103517
0.250462 0.136873 0.099458
0.306279 0.139528 0.094087
0.371405 0.138796 0.085084
0.442054 0.133455 0.062501
0.511620 0.124208 0.031037
0.577264 0.112703 0.000000
0.637995 0.104952 0.000000
0.688746 0.106996 0.000000
0.731685 0.118318 0.000000
0.768063 0.137057 0.000000
0.799405 0.158785 0.000000
0.825650 0.180514 0.000000
0.847776 0.201755 0.000000
0.866636 0.221317 0.000000
0.882933 0.239689 0.000000
0.898314 0.257847 0.000000
0.913329 0.276616 0.000000
0.927947 0.295964 0.000000
0.942321 0.315282 0.000000
0.956603 0.335210 0.000000
0.970764 0.355077 0.000000
0.984894 0.374762 0.000000
0.999054 0.394232 0.000000
1.000000 0.413245 0.000000
0.094331 0.117159 0.124392
0.094331 0.117159 0.124392
0.095552 0.117922 0.124544
0.097871 0.118868 0.124666
0.102846 0.119326 0.123140
0.108888 0.117647 0.122164
0.141512 0.128542 0.116487
0.194614 0.143069 0.107668
0.256321 0.156649 0.098085
0.317327 0.163546 0.090028
0.383490 0.164401 0.074464
0.453559 0.161929 0.045502
0.521843 0.156893 0.012085
0.587030 0.151766 0.000000
0.645258 0.149172 0.000000
0.694850 0.152285 0.000000
0.736599 0.161624 0.000000
0.772427 0.175448 0.000000
0.802762 0.192355 0.000000
0.827939 0.209812 0.000000
0.849363 0.226902 0.000000
0.867704 0.243351 0.000000
0.892058 0.270054 0.000000
0.906828 0.286442 0.000000
0.921233 0.303105 0.000000
0.935271 0.320348 0.000000
0.949157 0.337865 0.000000
0.962890 0.355871 0.000000
0.976562 0.374029 0.000000
0.990234 0.392157 0.000000
1.000000 0.409888 0.000000
1.000000 0.427253 0.000000
0.100801 0.135073 0.133791
0.101137 0.135286 0.134005
0.102571 0.136141 0.134371
0.105837 0.138430 0.135225
0.111330 0.138521 0.133181
0.119509 0.137423 0.130434
0.126131 0.132753 0.128420
0.169802 0.147890 0.120546
0.235843 0.166812 0.107149
0.321294 0.185489 0.087343
0.404242 0.197848 0.046479
0.475990 0.198703 0.011505
0.544549 0.196872 0.000000
0.608209 0.195682 0.000000
0.662867 0.196658 0.000000
0.708522 0.200992 0.000000
0.747616 0.209354 0.000000
0.781155 0.220645 0.000000
0.809689 0.233738 0.000000
0.834012 0.247288 0.000000
0.854917 0.261204 0.000000
0.873075 0.274784 0.000000
0.889158 0.288609 0.000000
0.904662 0.303441 0.000000
0.919585 0.318883 0.000000
0.933898 0.334966 0.000000
0.947814 0.351141 0.000000
0.961578 0.367681 0.000000
0.975189 0.384680 0.000000
0.988861 0.401404 0.000000
1.000000 0.418067 0.000000
1.000000 0.434455 0.000000
0.111208 0.160220 0.147189
0.111635 0.160739 0.147341
0.113344 0.161929 0.147768
0.116732 0.164614 0.148592
0.123140 0.165988 0.147860
0.131655 0.164157 0.143862
0.142153 0.161318 0.139376
0.148348 0.152377 0.136477
0.200076 0.170108 0.126223
0.278080 0.192416 0.107881
0.377386 0.213565 0.072053
0.478676 0.229801 0.000000
0.559991 0.241825 0.000000
0.618769 0.241642 0.000000
0.669520 0.243015 0.000000
0.712490 0.246677 0.000000
0.749752 0.252934 0.000000
0.782010 0.261448 0.000000
0.809537 0.271153 0.000000
0.833158 0.281346 0.000000
0.853513 0.292058 0.000000
0.871336 0.302647 0.000000
0.887572 0.313725 0.000000
0.903288 0.326146 0.000000
0.918486 0.339483 0.000000
0.932921 0.353491 0.000000
0.946838 0.367987 0.000000
0.960540 0.382879 0.000000
0.974182 0.398169 0.000000
0.987823 0.413611 0.000000
1.000000 0.429023 0.000000
1.000000 0.444373 0.000000
0.126528 0.195010 0.165591
0.127199 0.195560 0.165682
0.129397 0.196811 0.166171
0.133211 0.200046 0.167361
0.140383 0.204471 0.168795
0.149599 0.201236 0.163607
0.160128 0.196750 0.157565
0.170871 0.190005 0.150973
0.176761 0.176822 0.146670
0.236362 0.196506 0.134005
0.329900 0.223270 0.109316
0.439094 0.246220 0.047303
0.544457 0.265385 0.000000
0.620325 0.281254 0.000000
0.677394 0.293095 0.000000
0.717769 0.295476 0.000000
0.752987 0.299687 0.000000
0.783810 0.305547 0.000000
0.810147 0.311864 0.000000
0.832822 0.319127 0.000000
0.852567 0.326543 0.000000
0.869963 0.334234 0.000000
0.886046 0.342748 0.000000
0.901701 0.352758 0.000000
0.916838 0.363897 0.000000
0.931426 0.375586 0.000000
0.945586 0.388159 0.000000
0.959564 0.401251 0.000000
0.973419 0.414862 0.000000
0.987030 0.428565 0.000000
1.000000 0.442542 0.000000
1.000000 0.456550 0.000000
0.150362 0.239170 0.189517
0.151186 0.239536 0.189731
0.153445 0.240909 0.190188
0.158572 0.244144 0.191592
0.166506 0.249302 0.193576
0.175906 0.248631 0.190311
0.186435 0.242618 0.182498
0.198489 0.235874 0.174105
0.207980 0.224002 0.165438
0.212192 0.206668 0.159274
0.278599 0.226566 0.144015
0.383246 0.255283 0.113527
0.491920 0.279057 0.031708
0.589471 0.300175 0.000000
0.665736 0.320653 0.000000
0.717861 0.339269 0.000000
0.756039 0.348821 0.000000
0.785550 0.351995 0.000000
0.810849 0.355566 0.000000
0.832700 0.359533 0.000000
0.851652 0.363867 0.000000
0.868376 0.368353 0.000000
0.884184 0.374151 0.000000
0.899535 0.381476 0.000000
0.914458 0.390082 0.000000
0.928923 0.399603 0.000000
0.943145 0.410040 0.000000
0.957244 0.421332 0.000000
0.971283 0.433204 0.000000
0.985351 0.445319 0.000000
0.999512 0.457710 0.000000
1.000000 0.470375 0.000000
0.185824 0.291325 0.218692
0.186374 0.291691 0.218723
0.189364 0.293614 0.219516
0.195163 0.297398 0.221225
0.204807 0.303319 0.223697
0.217044 0.308598 0.224643
0.226749 0.301244 0.215610
0.237430 0.292302 0.205112
0.248722 0.280888 0.193484
0.253208 0.262211 0.182345
0.254093 0.239384 0.173495
0.324956 0.258396 0.156344
0.434974 0.288609 0.121370
0.539483 0.313603 0.029206
0.628534 0.336584 0.000000
0.699458 0.359533 0.000000
0.748013 0.379278 0.000000
0.785519 0.397589 0.000000
0.810544 0.400214 0.000000
0.831510 0.401038 0.000000
0.849912 0.402258 0.000000
0.866392 0.404150 0.000000
0.882170 0.407782 0.000000
0.897551 0.412696 0.000000
0.912535 0.419043 0.000000
0.927001 0.426642 0.000000
0.941314 0.435065 0.000000
0.955444 0.444465 0.000000
0.969543 0.454444 0.000000
0.983673 0.464912 0.000000
0.997894 0.475837 0.000000
1.000000 0.486946 0.000000
0.237797 0.353338 0.254856
0.238956 0.353857 0.255009
0.241672 0.355535 0.255894
0.248112 0.359075 0.257664
0.258762 0.364569 0.260472
0.273686 0.372320 0.264500
0.283360 0.368170 0.257115
0.291447 0.357763 0.244297
0.300694 0.345068 0.230198
0.309697 0.329656 0.214786
0.306981 0.303624 0.200961
0.302861 0.275731 0.189639
0.389075 0.300725 0.173892
0.499886 0.332769 0.134585
0.596429 0.359899 0.039826
0.674037 0.384466 0.000000
0.735134 0.407019 0.000000
0.781338 0.426703 0.000000
0.811765 0.441199 0.000000
0.836118 0.451514 0.000000
0.853361 0.449348 0.000000
0.869444 0.448676 0.000000
0.884947 0.449622 0.000000
0.899931 0.452277 0.000000
0.914580 0.456153 0.000000
0.928801 0.461128 0.000000
0.942840 0.467048 0.000000
0.956664 0.473884 0.000000
0.970489 0.481514 0.000000
0.984375 0.489815 0.000000
0.998413 0.498573 0.000000
1.000000 0.507836 0.000000
0.313451 0.423041 0.304479
0.313878 0.423285 0.304631
0.316747 0.424414 0.305333
0.322667 0.427161 0.307012
0.332158 0.431281 0.309667
0.345434 0.437446 0.313664
0.358129 0.440009 0.313054
0.361700 0.429389 0.298100
0.367193 0.416632 0.280980
0.373480 0.401068 0.261936
0.380224 0.382727 0.241947
0.371832 0.351354 0.224613
0.364324 0.318608 0.210178
0.431067 0.330938 0.189761
0.537896 0.364782 0.151186
0.626764 0.392859 0.088167
0.696376 0.417700 0.000000
0.751888 0.439399 0.000000
0.795041 0.456764 0.000000
0.824247 0.469306 0.000000
0.846921 0.479683 0.000000
0.865599 0.484474 0.000000
0.881254 0.483528 0.000000
0.896452 0.484199 0.000000
0.911254 0.486183 0.000000
0.925628 0.489418 0.000000
0.939818 0.493721 0.000000
0.953887 0.498939 0.000000
0.967895 0.504967 0.000000
0.981994 0.511772 0.000000
0.996185 0.519158 0.000000
1.000000 0.527123 0.000000
0.380438 0.477241 0.350042
0.380865 0.477272 0.350042
0.383154 0.478309 0.350713
0.388067 0.480201 0.352178
0.395514 0.483650 0.354650
0.406775 0.488502 0.358221
0.421973 0.495338 0.363531
0.425330 0.488380 0.352087
0.427466 0.476692 0.334905
0.430762 0.462837 0.315312
0.434913 0.446082 0.293217
0.438697 0.426246 0.268986
0.425238 0.390692 0.247623
0.414679 0.355047 0.229496
0.472419 0.362463 0.208194
0.572503 0.396796 0.171084
0.652399 0.424933 0.116304
0.715145 0.449073 0.000000
0.765438 0.469123 0.000000
0.804532 0.483803 0.000000
0.834775 0.494545 0.000000
0.856504 0.504326 0.000000
0.876921 0.515099 0.000000
0.893217 0.516930 0.000000
0.908141 0.517266 0.000000
0.922698 0.518975 0.000000
0.937041 0.521599 0.000000
0.951232 0.525261 0.000000
0.965362 0.529747 0.000000
0.979614 0.535088 0.000000
0.993957 0.541100 0.000000
1.000000 0.547814 0.000000
0.443275 0.525170 0.395453
0.443793 0.525322 0.395544
0.445411 0.526024 0.396124
0.449317 0.527581 0.397375
0.455573 0.530205 0.399542
0.464424 0.534051 0.402869
0.476478 0.539452 0.407599
0.485573 0.540703 0.406531
0.485603 0.530755 0.390478
0.486488 0.518822 0.371710
0.488167 0.504570 0.350317
0.490120 0.487160 0.325872
0.490883 0.465888 0.299016
0.474372 0.427985 0.273381
0.461646 0.390234 0.250675
0.510155 0.393103 0.228336
0.602258 0.427405 0.193576
0.674037 0.455085 0.146181
0.731411 0.478309 0.028626
0.776761 0.496040 0.000000
0.812772 0.508721 0.000000
0.842741 0.518547 0.000000
0.866148 0.528466 0.000000
0.886320 0.538933 0.000000
0.904997 0.548516 0.000000
0.919738 0.548699 0.000000
0.934203 0.550011 0.000000
0.948577 0.552392 0.000000
0.962982 0.555596 0.000000
0.977447 0.559686 0.000000
0.992096 0.564569 0.000000
1.000000 0.569909 0.000000
0.497322 0.565789 0.438483
0.497841 0.566033 0.438697
0.499367 0.566766 0.439399
0.502464 0.568200 0.440772
0.507744 0.570581 0.443091
0.514946 0.573999 0.446387
0.524590 0.578729 0.450965
0.536553 0.584619 0.456977
0.537926 0.578546 0.445655
0.537652 0.568627 0.428717
0.537621 0.556390 0.408728
0.537804 0.541650 0.385443
0.537713 0.523705 0.358801
0.534295 0.500053 0.329320
0.516747 0.462043 0.300359
0.503014 0.423316 0.273320
0.542748 0.421851 0.249668
0.626520 0.455573 0.217990
0.691920 0.482521 0.176913
0.744564 0.504295 0.119173
0.786160 0.520409 0.000000
0.820005 0.532128 0.000000
0.849546 0.542016 0.000000
0.875944 0.551904 0.000000
0.895933 0.562371 0.000000
0.914977 0.573022 0.000000
0.931579 0.578912 0.000000
0.946105 0.579980 0.000000
0.960632 0.581994 0.000000
0.975219 0.584802 0.000000
0.989899 0.588434 0.000000
1.000000 0.592126 0.000000
0.541527 0.600916 0.478553
0.541894 0.601099 0.478737
0.543206 0.601617 0.479286
0.545769 0.602899 0.480598
0.549828 0.604944 0.482765
0.555566 0.607904 0.485695
0.563165 0.611780 0.489784
0.572534 0.616663 0.495003
0.579065 0.617670 0.494301
0.578180 0.609369 0.479561
0.577661 0.599145 0.461860
0.577142 0.586938 0.441230
0.576532 0.572107 0.416999
0.575555 0.554253 0.389136
0.569818 0.529686 0.358526
0.553155 0.492622 0.327245
0.539727 0.454597 0.297551
0.571130 0.449317 0.273014
0.647517 0.482460 0.244663
0.707942 0.508324 0.208927
0.756222 0.528710 0.165469
0.795041 0.543664 0.097078
0.827115 0.554925 0.000000
0.856535 0.565270 0.000000
0.883940 0.575128 0.000000
0.905730 0.585351 0.000000
0.924773 0.595758 0.000000
0.943023 0.605921 0.000000
0.958221 0.608423 0.000000
0.972930 0.610224 0.000000
0.987549 0.612451 0.000000
1.000000 0.615015 0.000000
0.579095 0.631800 0.516045
0.579339 0.631983 0.516228
0.587304 0.638361 0.524376
0.589349 0.639338 0.525505
0.592401 0.640925 0.527306
0.596704 0.643153 0.529900
0.602289 0.646021 0.533349
0.609277 0.649683 0.537713
0.617517 0.654078 0.543084
0.617975 0.649104 0.532921
0.617090 0.641016 0.517662
0.616297 0.631128 0.499489
0.615320 0.618952 0.478035
0.614038 0.603998 0.452796
0.612085 0.586053 0.423865
0.604517 0.560815 0.392035
0.588647 0.524895 0.358129
0.575860 0.487709 0.325780
0.599298 0.478859 0.300237
0.668849 0.510765 0.275731
0.724392 0.535546 0.245731
0.768368 0.554101 0.210880
0.803952 0.567803 0.166995
0.835264 0.579034 0.091493
0.864500 0.589532 0.000000
0.891844 0.599268 0.000000
0.916350 0.608484 0.000000
0.935271 0.618341 0.000000
0.953552 0.627924 0.000000
0.970550 0.635340 0.000000
0.985016 0.636316 0.000000
0.999390 0.637873 0.000000
0.611414 0.659022 0.552239
0.612146 0.659541 0.553033
0.613489 0.660456 0.554253
0.615534 0.661707 0.555810
0.618372 0.663294 0.557885
0.622034 0.665217 0.560357
0.626551 0.667597 0.563470
0.632013 0.670527 0.567285
0.638514 0.674037 0.571954
0.642908 0.674708 0.571435
0.641840 0.668330 0.558373
0.640986 0.660578 0.542840
0.640162 0.650996 0.524407
0.639399 0.639368 0.502922
0.638453 0.625391 0.478065
0.636774 0.608301 0.449104
0.628626 0.583124 0.417487
0.614252 0.549218 0.383307
0.602777 0.514244 0.349981
0.621027 0.503044 0.324407
0.685420 0.534112 0.303777
0.736660 0.557824 0.279515
0.777310 0.575463 0.251560
0.811002 0.588769 0.218570
0.842039 0.600732 0.171206
0.871336 0.611749 0.073976
0.898894 0.621729 0.000000
0.924987 0.630457 0.000000
0.945586 0.639551 0.000000
0.963714 0.648402 0.000000
0.981048 0.656672 0.000000
0.996399 0.660182 0.000000
0.636164 0.679988 0.582696
0.636713 0.680476 0.583398
0.637873 0.681300 0.584497
0.639612 0.682277 0.585962
0.641901 0.683650 0.587854
0.644770 0.685267 0.590112
0.648310 0.687221 0.592737
0.652674 0.689570 0.596033
0.657832 0.692500 0.600000
0.663722 0.695888 0.604517
0.663935 0.692195 0.596460
0.662898 0.686000 0.583429
0.661982 0.678462 0.567681
0.661311 0.669429 0.549248
0.660700 0.658473 0.527977
0.660121 0.645411 0.503380
0.659144 0.629511 0.474861
0.651148 0.605066 0.443549
0.638270 0.573022 0.409308
0.627985 0.540154 0.375586
0.641749 0.527001 0.349432
0.701076 0.556664 0.332616
0.747890 0.579126 0.313268
0.785580 0.595819 0.290929
0.818235 0.609674 0.265080
0.849119 0.622522 0.230014
0.878416 0.634119 0.179538
0.906249 0.644312 0.063416
0.932555 0.652369 0.000000
0.955901 0.659693 0.000000
0.973999 0.668086 0.000000
0.991241 0.675837 0.000000
0.657649 0.699031 0.610925
0.658137 0.699428 0.611505
0.659052 0.700069 0.612360
0.660395 0.700954 0.613611
0.662226 0.702144 0.615137
0.664515 0.703609 0.616938
0.667475 0.705348 0.619165
0.670985 0.707546 0.621881
0.675257 0.710170 0.625177
0.680171 0.713344 0.628962
0.683803 0.714534 0.629541
0.682551 0.708949 0.619104
0.681361 0.702388 0.606561
0.680293 0.694881 0.591608
0.679591 0.686152 0.573571
0.679316 0.676051 0.552605
0.679164 0.663966 0.528649
0.678889 0.649470 0.500938
0.671809 0.626429 0.470832
0.661219 0.597131 0.437079
0.652766 0.566705 0.403571
0.663020 0.552178 0.377417
0.716854 0.580163 0.364385
0.759579 0.601465 0.350042
0.794888 0.617945 0.333013
0.827451 0.633051 0.312902
0.858152 0.646815 0.286534
0.887205 0.658595 0.250034
0.914916 0.668513 0.197452
0.941588 0.676387 0.092256
0.967163 0.682277 0.000000
0.986084 0.689540 0.000000
0.678798 0.719844 0.638849
0.679072 0.720058 0.639094
0.679530 0.720424 0.639551
0.680415 0.721004 0.640223
0.681727 0.721920 0.641260
0.683558 0.723049 0.642573
0.685878 0.724636 0.644312
0.688808 0.726589 0.646540
0.692317 0.729000 0.649195
0.696559 0.731930 0.652369
0.701289 0.735286 0.655970
0.701991 0.732662 0.651057
0.700771 0.726741 0.641138
0.699397 0.719905 0.629297
0.698177 0.712123 0.615106
0.697078 0.703334 0.598413
0.696407 0.693294 0.578393
0.696468 0.682002 0.554894
0.696773 0.668727 0.528008
0.690242 0.646845 0.498604
0.681544 0.619837 0.465156
0.674983 0.591821 0.431617
0.682063 0.575616 0.404822
0.730282 0.601312 0.395056
0.769253 0.621302 0.384497
0.803433 0.638270 0.371313
0.835508 0.653773 0.354864
0.865751 0.667750 0.333654
0.894682 0.679835 0.305638
0.922454 0.689784 0.267674
0.949248 0.697566 0.211826
0.974853 0.703212 0.098939
0.695521 0.738277 0.660914
0.695705 0.738430 0.661097
0.696101 0.738766 0.661463
0.696925 0.739345 0.662074
0.698024 0.740139 0.662898
0.699580 0.741238 0.663996
0.701534 0.742641 0.665461
0.704097 0.744472 0.667292
0.707179 0.746670 0.669612
0.710811 0.749325 0.672389
0.715023 0.752377 0.675532
0.718929 0.754696 0.677638
0.717891 0.749447 0.669337
0.716762 0.743374 0.659846
0.715541 0.736446 0.648768
0.714321 0.728603 0.635676
0.713039 0.719783 0.620203
0.712123 0.709865 0.601801
0.711696 0.698695 0.579919
0.711452 0.685695 0.554162
0.706325 0.665705 0.525780
0.699611 0.641230 0.493507
0.694881 0.615808 0.460975
0.700008 0.599084 0.434272
0.742153 0.621149 0.425177
0.778164 0.640131 0.417304
0.811887 0.657679 0.407141
0.843565 0.673732 0.394507
0.873655 0.688136 0.378180
0.902464 0.700313 0.356786
0.930205 0.710262 0.328130
0.956786 0.718044 0.288609
0.712001 0.757565 0.682765
0.712276 0.757809 0.683040
0.712612 0.758083 0.683375
0.713252 0.758511 0.683833
0.714076 0.759121 0.684474
0.715358 0.759976 0.685328
0.716976 0.761074 0.686488
0.719051 0.762509 0.688014
0.721675 0.764309 0.689937
0.724788 0.766506 0.692317
0.728420 0.769039 0.695064
0.732509 0.772000 0.698299
0.733974 0.770871 0.695644
0.732815 0.765438 0.686854
0.731624 0.759182 0.676936
0.730343 0.752163 0.665949
0.729061 0.744198 0.653559
0.727810 0.735378 0.639155
0.726741 0.725612 0.622217
0.725917 0.714717 0.602289
0.724788 0.701656 0.578729
0.719936 0.682704 0.551385
0.714626 0.660121 0.519921
0.711269 0.636866 0.488258
0.714534 0.619287 0.461250
0.753231 0.640620 0.456214
0.787900 0.659632 0.450599
0.821103 0.677790 0.443427
0.852506 0.694209 0.433967
0.882261 0.708614 0.422187
0.910796 0.720729 0.406348
0.938048 0.730617 0.385565
0.726345 0.774441 0.702571
0.726558 0.774655 0.702815
0.726925 0.774960 0.703151
0.727504 0.775387 0.703609
0.728389 0.775998 0.704311
0.729580 0.776852 0.705257
0.731136 0.777981 0.706508
0.733211 0.779416 0.708156
0.735653 0.781186 0.710109
0.738582 0.783261 0.712490
0.741878 0.785641 0.715236
0.745693 0.788327 0.718349
0.749874 0.791287 0.721767
0.749233 0.787228 0.714717
0.748104 0.781918 0.705715
0.746975 0.775875 0.695674
0.745815 0.769009 0.684474
0.744747 0.761349 0.672297
0.743526 0.752651 0.658747
0.742275 0.743008 0.643183
0.741176 0.732204 0.624811
0.738979 0.718898 0.603204
0.734066 0.700679 0.577996
0.728969 0.679377 0.548028
0.726955 0.658473 0.518090
0.729366 0.641169 0.492012
0.765072 0.661463 0.488991
0.799008 0.680903 0.485664
0.831907 0.699733 0.481697
0.862882 0.716304 0.476020
0.892180 0.730556 0.468818
0.920012 0.742580 0.459052
0.741390 0.791806 0.723720
0.741512 0.791928 0.723903
0.741787 0.792142 0.724147
0.742275 0.792508 0.724544
0.743038 0.793027 0.725185
0.744106 0.793759 0.726040
0.745541 0.794736 0.727199
0.747341 0.795987 0.728664
0.749538 0.797513 0.730465
0.752163 0.799344 0.732631
0.755215 0.801480 0.735164
0.758633 0.803861 0.738064
0.762478 0.806485 0.741238
0.765011 0.807218 0.741421
0.763790 0.802579 0.733242
0.762570 0.797360 0.724117
0.761440 0.791440 0.713863
0.760372 0.784787 0.702541
0.759365 0.777340 0.690181
0.758358 0.769070 0.676631
0.757321 0.759823 0.661891
0.756191 0.749447 0.645289
0.753506 0.736294 0.625879
0.748409 0.718929 0.603082
0.743282 0.698848 0.575738
0.741451 0.679438 0.547784
0.743374 0.662898 0.523247
0.777432 0.682643 0.521294
0.810483 0.702052 0.519493
0.842863 0.721126 0.518761
0.873289 0.737636 0.516716
0.901884 0.751858 0.514244
0.755764 0.807950 0.744198
0.755856 0.808072 0.744320
0.756100 0.808255 0.744533
0.756619 0.808591 0.744961
0.757351 0.809110 0.745571
0.758389 0.809842 0.746487
0.759884 0.810880 0.747768
0.761715 0.812161 0.749386
0.763912 0.813748 0.751339
0.766506 0.815579 0.753597
0.769528 0.817685 0.756222
0.772854 0.819944 0.759091
0.776486 0.822416 0.762173
0.780392 0.824979 0.765408
0.781155 0.823575 0.762203
0.779965 0.819272 0.754360
0.778805 0.814389 0.745449
0.777768 0.808865 0.735439
0.776883 0.802701 0.724392
0.776120 0.795834 0.712245
0.775418 0.788205 0.698878
0.774777 0.779599 0.684230
0.774014 0.769955 0.668269
0.771054 0.757290 0.651179
0.766049 0.741115 0.631342
0.761013 0.722530 0.607568
0.759396 0.705043 0.583185
0.761837 0.690913 0.561975
0.793698 0.709224 0.560418
0.825315 0.727840 0.560113
0.856901 0.746609 0.562799
0.886442 0.762692 0.564782
0.771664 0.824918 0.766232
0.771695 0.824949 0.766262
0.771878 0.825040 0.766384
0.772274 0.825284 0.766690
0.772885 0.825650 0.767178
0.773739 0.826200 0.767849
0.774929 0.826963 0.768826
0.776425 0.827939 0.770016
0.778256 0.829099 0.771511
0.780423 0.830503 0.773281
0.782956 0.832120 0.775296
0.785794 0.833921 0.777584
0.788937 0.835904 0.780117
0.792386 0.838041 0.782834
