20 Preset/Movie Style Preset/【3】LUT for PR-AE-FCPX/Movie - LUT  (14).cube
# Created by Adobe Lightroom plugin Export LUT (1.24.0)
# www.johnrellis.com/lightroom/exportlut.htm
# Preset: 电影质感14（修改版）
# Color profile: C:\Program Files (x86)\Common Files\Adobe\Color\Profiles\Recommended\VideoHD.icc
LUT_3D_SIZE 8
DOMAIN_MIN 0.000000 0.000000 0.000000
DOMAIN_MAX 0.903226 0.903226 0.903226
0.080262 0.094423 0.108461
0.095430 0.097688 0.110811
0.158694 0.109560 0.115969
0.311070 0.124025 0.117037
0.546502 0.120821 0.108766
0.725429 0.175204 0.095094
0.825254 0.279149 0.106050
0.882383 0.388739 0.178805
0.088869 0.106905 0.118074
0.096345 0.107912 0.117586
0.212497 0.129458 0.102541
0.382483 0.140291 0.093172
0.597559 0.138949 0.041230
0.747555 0.193576 0.000000
0.835355 0.286442 0.000000
0.889036 0.389288 0.140993
0.108522 0.175845 0.156893
0.117281 0.176181 0.155764
0.169131 0.178866 0.149905
0.473121 0.243748 0.014740
0.697017 0.267277 0.000000
0.797116 0.295262 0.000000
0.861357 0.345403 0.000000
0.912871 0.412360 0.000000
0.185397 0.326879 0.243412
0.195834 0.325444 0.242832
0.214084 0.308782 0.222019
0.338018 0.318639 0.216312
0.652064 0.393683 0.025299
0.813657 0.450294 0.000000
0.882231 0.456580 0.000000
0.930327 0.483528 0.000000
0.347692 0.479744 0.355932
0.356909 0.479286 0.358587
0.353521 0.462287 0.334691
0.392309 0.448890 0.306249
0.511254 0.454749 0.304936
0.725765 0.517052 0.215061
0.856291 0.557366 0.000000
0.931975 0.587427 0.000000
0.489967 0.585595 0.459846
0.496376 0.585962 0.463416
0.492500 0.575586 0.447669
0.479225 0.551354 0.409216
0.537255 0.552148 0.393652
0.622339 0.558251 0.399420
0.766415 0.606744 0.362707
0.889403 0.651057 0.225315
0.589715 0.665736 0.552972
0.592523 0.665522 0.554620
0.593988 0.660945 0.549218
0.584192 0.646265 0.521050
0.569055 0.619989 0.473426
0.639155 0.636622 0.481270
0.699580 0.643153 0.494759
0.801236 0.684108 0.495491
0.667567 0.735897 0.643336
0.668757 0.735653 0.643977
0.673487 0.734493 0.646509
0.668452 0.725429 0.629755
0.659602 0.710384 0.599268
0.666133 0.700313 0.570306
0.719783 0.717433 0.586328
0.765011 0.726680 0.605097
0.082246 0.098512 0.118502
0.090578 0.102602 0.118563
0.150088 0.116426 0.129274
0.322637 0.136385 0.127687
0.562310 0.140871 0.113558
0.732937 0.192813 0.088624
0.831144 0.284398 0.035889
0.886168 0.387091 0.152560
0.087098 0.110079 0.123934
0.099306 0.114717 0.129610
0.196078 0.131289 0.125673
0.371435 0.149508 0.119265
0.593500 0.158602 0.099855
0.745876 0.212650 0.045869
0.836332 0.296818 0.000000
0.892485 0.389075 0.108125
0.113497 0.186801 0.169955
0.128359 0.191684 0.176730
0.178866 0.192569 0.169070
0.478981 0.250828 0.083711
0.691279 0.267216 0.000000
0.790524 0.300084 0.000000
0.856016 0.352392 0.000000
0.908019 0.418921 0.000000
0.193759 0.335851 0.255161
0.213657 0.339361 0.262760
0.227909 0.321599 0.239872
0.347967 0.328740 0.233402
0.655207 0.400793 0.102907
0.812009 0.453254 0.000000
0.879545 0.456580 0.000000
0.926543 0.485603 0.000000
0.355535 0.485023 0.364721
0.368383 0.486152 0.370611
0.368261 0.470680 0.350072
0.399878 0.455024 0.319738
0.515770 0.460548 0.318212
0.727016 0.521782 0.233555
0.855009 0.560388 0.000000
0.930236 0.587945 0.000000
0.493629 0.588159 0.464973
0.499489 0.588251 0.468177
0.500114 0.579675 0.457252
0.486854 0.555901 0.419348
0.540429 0.555169 0.402319
0.624079 0.561486 0.408179
0.766751 0.609186 0.371893
0.889097 0.652888 0.242405
0.590967 0.666773 0.555566
0.593591 0.666499 0.557031
0.597345 0.662837 0.554711
0.587610 0.648341 0.526879
0.572625 0.622553 0.479896
0.639887 0.637751 0.486000
0.699702 0.644221 0.499153
0.801328 0.685145 0.499153
0.667659 0.736385 0.644221
0.668940 0.736263 0.644984
0.673793 0.735103 0.647669
0.669825 0.726589 0.632715
0.661616 0.712032 0.603296
0.666468 0.700923 0.572900
0.719753 0.717891 0.588525
0.765072 0.727169 0.607019
0.069429 0.109194 0.159426
0.094240 0.106294 0.168551
0.131044 0.145357 0.168521
0.211368 0.218326 0.234928
0.501122 0.225956 0.229618
0.698451 0.271672 0.228031
0.807187 0.346258 0.229496
0.873106 0.425391 0.247349
0.090761 0.135531 0.171389
0.097902 0.133272 0.183291
0.139559 0.175174 0.192996
0.276005 0.217990 0.232609
0.536767 0.234348 0.226627
0.712673 0.283970 0.223484
0.813077 0.354040 0.222629
0.876310 0.429999 0.240421
0.109499 0.208286 0.207370
0.132540 0.219303 0.216983
0.214267 0.240818 0.239445
0.477028 0.272190 0.208255
0.648280 0.294285 0.199039
0.762539 0.338140 0.191196
0.835538 0.392615 0.191806
0.889921 0.454047 0.210361
0.217380 0.368872 0.294041
0.241520 0.373602 0.304540
0.295689 0.375738 0.316960
0.389868 0.371191 0.301823
0.678401 0.437018 0.207431
0.804532 0.464607 0.112764
0.864836 0.473365 0.070436
0.912291 0.505913 0.117769
0.384558 0.506767 0.398138
0.396368 0.507805 0.403510
0.426490 0.505730 0.411505
0.432929 0.482033 0.373419
0.538079 0.487892 0.372808
0.734676 0.544854 0.304295
0.851804 0.576837 0.182986
0.924529 0.594293 0.000000
0.510155 0.600549 0.487282
0.515496 0.600641 0.490211
0.532830 0.599359 0.497963
0.519493 0.576776 0.461982
0.554864 0.569482 0.438239
0.632502 0.575830 0.443702
0.769131 0.620966 0.410040
0.889342 0.662348 0.304601
0.598474 0.673243 0.568811
0.600916 0.672999 0.570184
0.610773 0.671901 0.575952
0.604181 0.659419 0.553521
0.589105 0.634852 0.508110
0.644221 0.644373 0.507042
0.701930 0.650935 0.519554
0.803830 0.692287 0.517906
0.669551 0.740322 0.649866
0.670680 0.740078 0.650477
0.675563 0.739071 0.653223
0.676997 0.732967 0.646540
0.668666 0.718044 0.618311
0.667292 0.703090 0.582849
0.720150 0.720302 0.597864
0.765713 0.730007 0.615686
0.000000 0.135042 0.257328
0.010620 0.133608 0.268833
0.219730 0.105531 0.318761
0.258579 0.265354 0.289342
0.349767 0.376349 0.380377
0.580529 0.399176 0.399878
0.740688 0.436896 0.399329
0.825559 0.495979 0.415045
0.017609 0.174807 0.275578
0.049805 0.169100 0.286351
0.229740 0.146700 0.332433
0.270756 0.296147 0.311315
0.365087 0.388769 0.391638
0.604150 0.402045 0.398901
0.749508 0.442451 0.398077
0.829679 0.499519 0.412848
0.129641 0.271336 0.305516
0.159884 0.277501 0.312810
0.243229 0.287907 0.359075
0.342260 0.370184 0.374762
0.505150 0.401740 0.402289
0.679774 0.425147 0.393194
0.780667 0.469032 0.392920
0.846372 0.515618 0.402747
0.230625 0.398169 0.361364
0.258305 0.404150 0.368139
0.355962 0.435828 0.399817
0.460578 0.445258 0.417578
0.675105 0.482704 0.377874
0.761013 0.498054 0.371191
0.820645 0.518425 0.368872
0.874723 0.548516 0.373266
0.424872 0.540948 0.447578
0.435859 0.542046 0.452979
0.476783 0.546166 0.473274
0.502159 0.534752 0.468757
0.571710 0.532891 0.460029
0.745235 0.581994 0.411749
0.843992 0.604944 0.354528
0.908690 0.609094 0.313451
0.536797 0.622400 0.524468
0.541680 0.622736 0.527245
0.559289 0.622980 0.536980
0.572778 0.614527 0.534112
0.579614 0.595270 0.498665
0.647547 0.601526 0.502892
0.774411 0.642695 0.473945
0.885801 0.679316 0.408545
0.610437 0.684596 0.590997
0.612787 0.684474 0.592401
0.622004 0.683833 0.597986
0.633906 0.679988 0.601556
0.618372 0.657557 0.559136
0.651667 0.656428 0.543877
0.705837 0.663050 0.555016
0.809567 0.705318 0.549706
0.672023 0.748104 0.659663
0.673243 0.747982 0.660395
0.678279 0.747158 0.663233
0.687434 0.745052 0.667964
0.682124 0.730800 0.646082
0.670192 0.708431 0.602594
0.720699 0.724758 0.614588
0.767239 0.735378 0.631220
0.000000 0.191531 0.399451
0.000000 0.190677 0.408881
0.193057 0.178012 0.446265
0.478157 0.130465 0.476265
0.458289 0.422583 0.437385
0.510552 0.510582 0.501915
0.595911 0.550805 0.541131
0.744686 0.574395 0.553338
0.000000 0.229191 0.411658
0.000000 0.227115 0.420264
0.213382 0.215183 0.454566
0.489387 0.179049 0.485420
0.465339 0.441291 0.449195
0.517418 0.516686 0.507591
0.613245 0.550744 0.541192
0.750729 0.575769 0.552728
0.206485 0.342687 0.422553
0.223575 0.347051 0.433173
0.280461 0.339086 0.469551
0.514397 0.313664 0.514244
0.494636 0.496559 0.489021
0.541283 0.538384 0.527886
0.671992 0.553491 0.540459
0.773220 0.581781 0.549340
0.297765 0.457679 0.463447
0.319127 0.461006 0.467262
0.396185 0.474556 0.483223
0.502129 0.492622 0.527886
0.551354 0.547784 0.536767
0.649897 0.555962 0.540520
0.743435 0.572992 0.536950
0.811612 0.597650 0.539025
0.436439 0.555077 0.504814
0.449317 0.557153 0.508263
0.497108 0.570733 0.525109
0.567285 0.593072 0.556512
0.614466 0.589776 0.555657
0.744289 0.617700 0.530083
0.803922 0.621393 0.521263
0.859312 0.633112 0.513817
0.565118 0.648066 0.567102
0.569177 0.648249 0.569421
0.584405 0.648524 0.578058
0.609064 0.647974 0.591760
0.614862 0.632013 0.575006
0.664820 0.633997 0.572961
0.785031 0.672206 0.548882
0.883696 0.699947 0.510430
0.625360 0.700221 0.619409
0.627039 0.700099 0.620356
0.634089 0.699489 0.624292
0.648463 0.698268 0.632593
0.656306 0.688746 0.626673
0.660334 0.672206 0.590967
0.710903 0.679652 0.600427
0.820432 0.723659 0.590082
0.671717 0.758907 0.670588
0.673091 0.758816 0.671443
0.678767 0.758389 0.674952
0.689326 0.757229 0.681178
0.701839 0.752682 0.685847
0.689113 0.727932 0.645747
0.720577 0.731044 0.636988
0.769589 0.742977 0.652125
0.000000 0.275242 0.527764
0.012696 0.274479 0.533379
0.241001 0.266972 0.555627
0.471199 0.223178 0.595453
0.657740 0.301274 0.581262
0.597436 0.550347 0.554345
0.616510 0.611719 0.599023
0.651637 0.649104 0.636866
0.103578 0.306554 0.531853
0.145022 0.305638 0.536889
0.267765 0.298100 0.557733
0.477546 0.261692 0.596124
0.658137 0.329442 0.584588
0.599145 0.559136 0.559930
0.619043 0.614282 0.601587
0.652888 0.650477 0.638270
0.299779 0.415442 0.536492
0.309941 0.414801 0.542596
0.343999 0.399451 0.562921
0.493904 0.382879 0.598383
0.659602 0.421088 0.599176
0.607568 0.591943 0.582849
0.629755 0.625574 0.612909
0.658564 0.656703 0.644709
0.399878 0.498665 0.534081
0.412543 0.500877 0.536431
0.457313 0.515526 0.555779
0.518761 0.521660 0.598657
0.658167 0.530694 0.623072
0.630426 0.626154 0.613550
0.646296 0.643244 0.630884
0.715663 0.658320 0.646235
0.469093 0.592859 0.579309
0.478279 0.594202 0.581231
0.513512 0.599634 0.589288
0.571069 0.610346 0.604547
0.638636 0.625177 0.638544
0.654719 0.652491 0.640345
0.713802 0.655451 0.640253
0.782254 0.668299 0.641230
0.561242 0.652094 0.606561
0.566888 0.653132 0.608453
0.588159 0.657069 0.615808
0.623957 0.668910 0.632502
0.663264 0.681819 0.654566
0.689204 0.676204 0.649195
0.793088 0.702907 0.635431
0.852293 0.706233 0.624598
0.639490 0.719356 0.651637
0.643183 0.720241 0.653864
0.654627 0.722621 0.660883
0.666041 0.722591 0.667720
0.681666 0.720974 0.676020
0.682582 0.701411 0.656764
0.721675 0.704829 0.655818
0.839567 0.749081 0.643030
0.680903 0.776120 0.695827
0.681880 0.776059 0.696376
0.686030 0.775753 0.698573
0.693965 0.774868 0.702510
0.706905 0.772305 0.708583
0.718074 0.761654 0.705531
0.721187 0.741573 0.668086
0.774563 0.755612 0.682460
0.272892 0.384314 0.632074
0.294347 0.385412 0.636591
0.365942 0.379278 0.648554
0.501427 0.362402 0.671870
0.683589 0.316014 0.703059
0.739742 0.477028 0.659083
0.681910 0.644617 0.646143
0.682673 0.684138 0.673304
0.285985 0.397375 0.626093
0.305821 0.398871 0.630976
0.370886 0.393500 0.643153
0.496559 0.376440 0.665736
0.674281 0.333135 0.696712
0.733211 0.476661 0.653590
0.675563 0.639643 0.640101
0.677058 0.677638 0.666468
0.391638 0.481025 0.628748
0.393927 0.477272 0.631891
0.421302 0.465949 0.643153
0.513695 0.455970 0.664424
0.661799 0.430426 0.693477
0.729824 0.522911 0.662531
0.680354 0.658930 0.654658
0.686580 0.688685 0.678096
0.474311 0.554833 0.619654
0.480171 0.556329 0.623041
0.506859 0.562371 0.637720
0.543297 0.555444 0.662318
0.644099 0.547875 0.690791
0.727840 0.591241 0.682033
0.688167 0.687037 0.677424
0.697200 0.701167 0.691341
0.516777 0.610285 0.626612
0.520409 0.609461 0.626215
0.541009 0.610346 0.628687
0.580255 0.617243 0.639338
0.629023 0.628931 0.678706
0.718349 0.641382 0.695705
0.696284 0.700099 0.690211
0.706935 0.712856 0.703792
0.560052 0.674281 0.657496
0.564385 0.674739 0.658473
0.581109 0.676234 0.661799
0.611078 0.679408 0.668666
0.650843 0.685145 0.679530
0.701320 0.699886 0.712734
0.714992 0.722530 0.714229
0.760952 0.726223 0.716762
0.625788 0.716304 0.678370
0.628748 0.717311 0.679866
0.638514 0.719387 0.683589
0.657130 0.724453 0.691615
0.684749 0.734920 0.705928
0.721828 0.752224 0.729885
0.744900 0.744076 0.722835
0.851072 0.770413 0.714290
0.676081 0.782162 0.717433
0.678004 0.782986 0.718563
0.686641 0.787259 0.724239
0.701534 0.793454 0.732937
0.723445 0.797848 0.746426
0.738247 0.795102 0.753323
0.740383 0.773373 0.732296
0.783139 0.776577 0.730190
0.433326 0.490608 0.704707
0.442786 0.490730 0.706874
0.474159 0.483803 0.712398
0.544732 0.473823 0.726619
0.652735 0.451514 0.748165
0.782956 0.433600 0.769345
0.773739 0.590387 0.710292
0.735927 0.704707 0.710964
0.434546 0.496468 0.700679
0.443915 0.496803 0.702937
0.475349 0.491554 0.709285
0.542321 0.481392 0.723049
0.648035 0.460334 0.744594
0.779049 0.439826 0.767178
0.770962 0.590021 0.707973
0.733211 0.702968 0.708461
0.472541 0.539635 0.695796
0.474189 0.536736 0.697841
0.492958 0.529778 0.704097
0.551019 0.526421 0.719936
0.641321 0.510063 0.740536
0.770352 0.480507 0.768124
0.768673 0.607568 0.712703
0.733913 0.710445 0.713710
0.521782 0.593835 0.684962
0.527642 0.595361 0.687617
0.542504 0.595026 0.696223
0.563592 0.583856 0.711940
0.632136 0.577234 0.733913
0.744472 0.561822 0.763912
0.769589 0.638483 0.726375
0.738308 0.727260 0.727382
0.547326 0.624689 0.666163
0.551446 0.625147 0.666926
0.561242 0.628046 0.674769
0.591516 0.638331 0.694270
0.624628 0.635920 0.721584
0.708736 0.631525 0.753994
0.774228 0.667811 0.745754
0.744594 0.749477 0.746273
0.577813 0.679622 0.689204
0.579309 0.678798 0.688746
0.587518 0.676844 0.688350
0.606989 0.675441 0.690059
0.637507 0.675471 0.694881
0.682795 0.692317 0.745296
0.780545 0.711116 0.777188
0.757656 0.774319 0.770443
0.614862 0.743496 0.729061
0.616510 0.743465 0.729274
0.623804 0.743557 0.730648
0.639094 0.744533 0.734249
0.662135 0.744808 0.738857
0.695827 0.746578 0.747158
0.748501 0.760861 0.783230
0.769924 0.788724 0.786130
0.657679 0.782010 0.746426
0.658839 0.782010 0.746639
0.664881 0.782986 0.748592
0.678340 0.786099 0.753994
0.699519 0.790982 0.762539
0.730526 0.798917 0.776181
0.774075 0.817990 0.802304
0.802762 0.815030 0.804074
