20 Preset/Movie Style Preset/【3】LUT for PR-AE-FCPX/Movie - LUT  (15).cube
# Created by Adobe Lightroom plugin Export LUT (1.24.0)
# www.johnrellis.com/lightroom/exportlut.htm
# Preset: 电影质感15（修改版）
# Color profile: C:\Program Files (x86)\Common Files\Adobe\Color\Profiles\Recommended\VideoHD.icc
LUT_3D_SIZE 32
DOMAIN_MIN 0.0 0.0 0.0
DOMAIN_MAX 1.0 1.0 1.0
0.080262 0.094423 0.108461
0.081514 0.094331 0.108461
0.086061 0.095186 0.108980
0.092622 0.096498 0.109712
0.102693 0.099489 0.111421
0.121645 0.103395 0.113436
0.151278 0.108400 0.114229
0.189792 0.114015 0.114931
0.236301 0.119203 0.114778
0.291478 0.123934 0.113985
0.356023 0.126070 0.112825
0.427588 0.125551 0.110506
0.498329 0.123659 0.107881
0.565057 0.124727 0.105165
0.624475 0.134188 0.103029
0.676753 0.153414 0.102388
0.723018 0.182498 0.103670
0.760220 0.214939 0.108186
0.790768 0.248203 0.114809
0.815427 0.281102 0.125277
0.835172 0.312108 0.138705
0.851286 0.341344 0.154391
0.864286 0.368627 0.172549
0.876249 0.395392 0.191745
0.887480 0.422126 0.213046
0.898100 0.448676 0.236362
0.908232 0.474861 0.261875
0.918029 0.500420 0.288853
0.927550 0.525261 0.317174
0.936889 0.549432 0.346502
0.946014 0.572961 0.377111
0.955016 0.595789 0.408576
0.080873 0.094759 0.108736
0.082124 0.094667 0.108736
0.088319 0.095460 0.108248
0.094057 0.096742 0.109010
0.104646 0.099641 0.110414
0.124422 0.103731 0.112398
0.153536 0.108980 0.113497
0.191745 0.114504 0.113863
0.238407 0.119753 0.113985
0.293095 0.124147 0.113222
0.356909 0.126741 0.111666
0.427802 0.125948 0.109773
0.498299 0.124269 0.106783
0.564416 0.125612 0.104128
0.623743 0.134188 0.102113
0.676112 0.153414 0.101137
0.721828 0.181704 0.102113
0.758846 0.213626 0.106386
0.789395 0.246647 0.112764
0.813962 0.279088 0.123232
0.833951 0.309911 0.136385
0.850065 0.338750 0.152071
0.863218 0.366033 0.169772
0.875212 0.392645 0.188602
0.886503 0.419409 0.209476
0.897154 0.445869 0.232822
0.907347 0.472114 0.258274
0.917174 0.497902 0.285466
0.926818 0.522850 0.313695
0.936217 0.547204 0.343359
0.945403 0.570886 0.373907
0.954467 0.593957 0.405493
0.083070 0.097261 0.110048
0.082887 0.097261 0.110353
0.086213 0.097444 0.110323
0.095735 0.099275 0.108705
0.112642 0.101961 0.107698
0.134340 0.106416 0.109255
0.164828 0.112032 0.110475
0.203281 0.117525 0.111055
0.249882 0.122835 0.110964
0.303990 0.127016 0.110018
0.367864 0.129305 0.108186
0.437781 0.128450 0.105623
0.506310 0.127352 0.102388
0.571038 0.128817 0.099214
0.628901 0.137911 0.096254
0.679988 0.156771 0.094942
0.724178 0.184543 0.095583
0.760311 0.215488 0.099916
0.790280 0.248051 0.106355
0.814694 0.279728 0.117037
0.834409 0.310124 0.130739
0.850462 0.338903 0.146426
0.863554 0.365667 0.164462
0.875517 0.392065 0.183993
0.886717 0.418494 0.205142
0.897368 0.444800 0.228458
0.907561 0.471107 0.254032
0.917449 0.496712 0.281254
0.927092 0.521691 0.309636
0.936461 0.546136 0.339452
0.945586 0.569879 0.370550
0.954650 0.592889 0.402167
0.085420 0.102113 0.113893
0.086702 0.102052 0.113893
0.088197 0.102663 0.113802
0.091615 0.102693 0.113741
0.109834 0.107362 0.110658
0.144015 0.115450 0.106722
0.187716 0.122316 0.104036
0.227298 0.127382 0.104921
0.274174 0.131899 0.104463
0.328923 0.135073 0.102937
0.392615 0.136263 0.100069
0.458808 0.135134 0.096651
0.524590 0.134371 0.092317
0.585657 0.137240 0.087312
0.640162 0.146609 0.080842
0.688808 0.165591 0.077394
0.729885 0.191470 0.078248
0.764187 0.221073 0.083711
0.792844 0.251713 0.092470
0.816281 0.281895 0.103914
0.835416 0.311070 0.118349
0.851164 0.338933 0.135531
0.864195 0.365270 0.154299
0.876158 0.391455 0.174685
0.887572 0.417731 0.196384
0.898314 0.444221 0.220584
0.908598 0.470680 0.247105
0.918547 0.496437 0.275059
0.928191 0.521538 0.304204
0.937560 0.545922 0.334508
0.946624 0.569482 0.365698
0.955535 0.592279 0.397589
0.090272 0.110994 0.118441
0.090761 0.111269 0.118410
0.091707 0.112428 0.118837
0.095766 0.113344 0.118379
0.101747 0.112154 0.117861
0.131136 0.120821 0.113375
0.186587 0.136049 0.104341
0.246220 0.147982 0.097963
0.311589 0.152285 0.091005
0.368811 0.153567 0.088228
0.429053 0.152255 0.081788
0.491005 0.150546 0.070802
0.551019 0.149935 0.057771
0.607233 0.153384 0.043091
0.657191 0.163149 0.030976
0.702144 0.181247 0.021973
0.740017 0.205173 0.018647
0.771939 0.232395 0.024659
0.798856 0.260807 0.039887
0.820890 0.288884 0.071077
0.839048 0.316594 0.097475
0.854154 0.342779 0.117769
0.866758 0.368139 0.138918
0.878599 0.393591 0.161074
0.889799 0.419348 0.184421
0.900572 0.445380 0.209323
0.910765 0.471199 0.236698
0.920592 0.496773 0.265568
0.930114 0.521569 0.295537
0.939330 0.545708 0.326452
0.948302 0.569085 0.358251
0.957122 0.591669 0.390631
0.094453 0.127565 0.125185
0.094667 0.128084 0.125093
0.097078 0.129458 0.125399
0.101167 0.132876 0.125673
0.110689 0.132143 0.123995
0.119142 0.127321 0.122621
0.157198 0.138674 0.115877
0.231785 0.160311 0.101747
0.313085 0.177523 0.085878
0.398169 0.186557 0.050568
0.476204 0.184604 0.016938
0.534966 0.181064 0.000031
0.587884 0.179446 0.000000
0.637079 0.182589 0.000000
0.681575 0.191623 0.000000
0.721096 0.207370 0.000000
0.754849 0.227756 0.000000
0.783810 0.251713 0.000000
0.808072 0.276402 0.000000
0.828153 0.301640 0.000000
0.844999 0.326696 0.024872
0.859037 0.350958 0.084962
0.877928 0.388434 0.125612
0.888945 0.412573 0.152071
0.899413 0.436896 0.178561
0.909422 0.461433 0.206363
0.918883 0.485847 0.236179
0.928130 0.509850 0.266178
0.937041 0.533318 0.297246
0.945769 0.556054 0.328740
0.954223 0.578241 0.361181
0.962524 0.599664 0.393591
0.100313 0.156619 0.135409
0.100587 0.157382 0.135531
0.103609 0.159304 0.135653
0.109224 0.163973 0.136202
0.120974 0.166812 0.135256
0.135958 0.162081 0.131655
0.145022 0.150912 0.129091
0.190768 0.162570 0.119814
0.281804 0.189487 0.098299
0.393988 0.212436 0.038636
0.490364 0.226413 0.000000
0.568200 0.229770 0.000000
0.631800 0.228794 0.000000
0.676387 0.230198 0.000000
0.715389 0.237552 0.000000
0.748501 0.249210 0.000000
0.777340 0.264927 0.000000
0.801877 0.283452 0.000000
0.822599 0.303502 0.000000
0.840269 0.324773 0.000000
0.855406 0.346563 0.000000
0.868406 0.368505 0.000000
0.880369 0.391333 0.064515
0.891814 0.414984 0.115633
0.902586 0.438788 0.149386
0.912718 0.462745 0.180941
0.922271 0.486213 0.212711
0.931304 0.509667 0.245670
0.940093 0.532677 0.278416
0.948638 0.554986 0.311620
0.957000 0.576837 0.345068
0.965148 0.598047 0.378973
0.108949 0.195804 0.149477
0.109651 0.196323 0.149783
0.112795 0.198856 0.150088
0.120272 0.204349 0.150729
0.132479 0.212802 0.151431
0.152041 0.208377 0.147189
0.170321 0.199191 0.141299
0.177249 0.180240 0.137179
0.224796 0.188510 0.126711
0.331212 0.219547 0.096468
0.457954 0.245701 0.000000
0.557092 0.263462 0.000000
0.637324 0.281437 0.000000
0.692378 0.286351 0.000000
0.737087 0.291569 0.000000
0.768399 0.297215 0.000000
0.792874 0.305516 0.000000
0.813870 0.316655 0.000000
0.832029 0.330358 0.000000
0.847837 0.345983 0.000000
0.861692 0.362951 0.000000
0.873960 0.381353 0.000000
0.885527 0.401221 0.000000
0.896544 0.422400 0.000000
0.907164 0.444373 0.101869
0.917174 0.466438 0.144381
0.926574 0.488746 0.182162
0.935607 0.510948 0.218326
0.944213 0.533227 0.254337
0.952575 0.555077 0.290074
0.960815 0.576440 0.325719
0.968872 0.597314 0.361273
0.124483 0.246098 0.169741
0.125887 0.246860 0.169741
0.129793 0.249424 0.170138
0.138277 0.255222 0.171115
0.153231 0.264347 0.172305
0.174899 0.270237 0.171267
0.196811 0.258091 0.162936
0.215885 0.243473 0.153994
0.218051 0.215732 0.148043
0.263767 0.218021 0.136141
0.385260 0.252659 0.096590
0.512108 0.280919 0.000000
0.617273 0.305852 0.000000
0.686244 0.327184 0.000000
0.739773 0.346807 0.000000
0.775143 0.350408 0.000000
0.804776 0.354681 0.000000
0.825925 0.358770 0.000000
0.842008 0.365179 0.000000
0.856107 0.374426 0.000000
0.868772 0.385840 0.000000
0.880552 0.399939 0.000000
0.891630 0.416205 0.000000
0.902373 0.434180 0.000000
0.912718 0.453437 0.000000
0.922545 0.473274 0.068086
0.931884 0.493477 0.136812
0.940826 0.514275 0.181491
0.949340 0.535363 0.222843
0.957549 0.556329 0.262760
0.965606 0.577020 0.301396
0.973480 0.597375 0.339666
0.153658 0.307439 0.195407
0.155184 0.308049 0.195651
0.159731 0.310704 0.196048
0.169955 0.316716 0.197055
0.186679 0.325902 0.198703
0.210880 0.339117 0.201022
0.236454 0.332494 0.193606
0.257877 0.314855 0.181643
0.274357 0.293370 0.169039
0.267704 0.256138 0.161166
0.309209 0.250950 0.148440
0.439307 0.288212 0.101656
0.560876 0.318730 0.000000
0.658717 0.346899 0.000000
0.721645 0.370092 0.000000
0.769162 0.392187 0.000000
0.803220 0.404242 0.000000
0.827604 0.405432 0.000000
0.848508 0.406989 0.000000
0.864103 0.409644 0.000000
0.876127 0.415442 0.000000
0.887388 0.424140 0.000000
0.897978 0.435584 0.000000
0.908385 0.449348 0.000000
0.918334 0.464820 0.000000
0.927977 0.481697 0.000000
0.937224 0.499702 0.000000
0.946166 0.518395 0.121248
0.954742 0.537896 0.176913
0.962982 0.557885 0.224918
0.970977 0.577813 0.269047
0.978759 0.597650 0.311528
0.201328 0.374365 0.226993
0.202579 0.375006 0.227268
0.207919 0.377722 0.227939
0.219272 0.383154 0.229374
0.237125 0.391699 0.231662
0.262791 0.403540 0.235172
0.293980 0.413550 0.236576
0.313695 0.395819 0.220951
0.332525 0.374670 0.204440
0.346410 0.349065 0.187320
0.329870 0.301976 0.176883
0.358526 0.285588 0.163119
0.487984 0.324407 0.113375
0.600977 0.356420 0.000000
0.687800 0.385321 0.000000
0.749966 0.411017 0.000000
0.790585 0.430182 0.000000
0.822843 0.446845 0.000000
0.845151 0.450111 0.000000
0.863371 0.449531 0.000000
0.880369 0.450446 0.000000
0.893950 0.453590 0.000000
0.904540 0.460212 0.000000
0.914733 0.469490 0.000000
0.924620 0.481147 0.000000
0.934203 0.494697 0.000000
0.943450 0.509758 0.000000
0.952392 0.525963 0.000000
0.961059 0.543206 0.098268
0.969360 0.561425 0.171054
0.977295 0.580163 0.226261
0.984955 0.599054 0.275273
0.270726 0.441230 0.267826
0.272007 0.441932 0.268162
0.277348 0.444099 0.269017
0.288426 0.449012 0.271397
0.305852 0.456580 0.274876
0.329808 0.466865 0.280064
0.361334 0.480415 0.286717
0.384283 0.476753 0.278660
0.398413 0.457374 0.257176
0.411109 0.433173 0.234134
0.418982 0.403204 0.210361
0.395270 0.349584 0.195468
0.420325 0.329168 0.184054
0.545922 0.370428 0.131807
0.646540 0.404089 0.000000
0.722072 0.433234 0.000000
0.778988 0.456886 0.000000
0.814420 0.472450 0.000000
0.841489 0.484840 0.000000
0.865141 0.496956 0.000000
0.881956 0.495674 0.000000
0.897581 0.495583 0.000000
0.912657 0.496895 0.000000
0.925170 0.500633 0.000000
0.934752 0.507683 0.000000
0.943969 0.517082 0.000000
0.952911 0.528191 0.000000
0.961547 0.541009 0.000000
0.969909 0.555169 0.000000
0.978027 0.570581 0.062226
0.985718 0.587091 0.170108
0.993164 0.604303 0.232273
0.361395 0.510552 0.325017
0.362097 0.510857 0.325261
0.366430 0.512444 0.326177
0.375250 0.516106 0.328405
0.389075 0.521447 0.331762
0.408515 0.528923 0.336736
0.433326 0.538903 0.343511
0.463050 0.550256 0.351659
0.471412 0.534264 0.329534
0.479957 0.514122 0.303319
0.487617 0.489448 0.273808
0.489784 0.457527 0.243351
0.464485 0.401862 0.220706
0.459358 0.359930 0.202731
0.578149 0.402502 0.153872
0.669429 0.436622 0.021912
0.738033 0.464729 0.000000
0.789517 0.485420 0.000000
0.825620 0.499214 0.000000
0.850553 0.509941 0.000000
0.873198 0.521019 0.000000
0.892882 0.529168 0.000000
0.908049 0.528710 0.000000
0.922820 0.529595 0.000000
0.937194 0.531640 0.000000
0.949279 0.535790 0.000000
0.958465 0.543389 0.000000
0.967407 0.552911 0.000000
0.976104 0.564202 0.000000
0.984558 0.577142 0.000000
0.992645 0.591333 0.000000
1.000000 0.606897 0.153567
0.434485 0.560784 0.376257
0.435004 0.560937 0.376379
0.438331 0.562158 0.377264
0.445075 0.564599 0.379034
0.455573 0.568505 0.382055
0.469947 0.574090 0.386542
0.488960 0.581659 0.392889
0.511437 0.590906 0.400732
0.528191 0.591028 0.396796
0.533715 0.575189 0.372503
0.539422 0.555657 0.344091
0.543847 0.531670 0.311772
0.541588 0.498665 0.276768
0.516533 0.443702 0.246311
0.504448 0.396399 0.222873
0.606409 0.433661 0.178988
0.688655 0.467048 0.105348
0.751003 0.493172 0.000000
0.797940 0.511162 0.000000
0.834073 0.523217 0.000000
0.858976 0.533379 0.000000
0.881163 0.544060 0.000000
0.901762 0.555077 0.000000
0.918791 0.559991 0.000000
0.933257 0.560540 0.000000
0.947448 0.562036 0.000000
0.961364 0.564202 0.000000
0.973205 0.568536 0.000000
0.982238 0.576501 0.000000
0.991028 0.586511 0.000000
0.999420 0.598108 0.000000
1.000000 0.611261 0.000000
0.495277 0.602228 0.425025
0.495949 0.602411 0.425238
0.498177 0.603296 0.425940
0.503014 0.605188 0.427466
0.510796 0.608179 0.430182
0.521386 0.612573 0.434089
0.535241 0.618463 0.439612
0.552361 0.625757 0.446754
0.571832 0.634363 0.455512
0.578607 0.625177 0.438758
0.582788 0.609918 0.413489
0.586603 0.590875 0.383734
0.589227 0.567742 0.349371
0.584070 0.534844 0.311681
0.560754 0.481880 0.275181
0.547173 0.433326 0.245121
0.630182 0.462776 0.205600
0.704952 0.494820 0.148104
0.761990 0.518578 0.000000
0.804959 0.534447 0.000000
0.839506 0.545464 0.000000
0.867430 0.555901 0.000000
0.889311 0.566369 0.000000
0.909728 0.577020 0.000000
0.928893 0.587488 0.000000
0.943816 0.589349 0.000000
0.957855 0.590295 0.000000
0.971740 0.591974 0.000000
0.985565 0.594324 0.000000
0.997314 0.599115 0.000000
1.000000 0.607904 0.000000
1.000000 0.618494 0.000000
0.542687 0.636500 0.469490
0.543297 0.636744 0.469703
0.545220 0.637507 0.470527
0.548913 0.639033 0.472084
0.554955 0.641566 0.474739
0.563256 0.645106 0.478492
0.574029 0.649836 0.483742
0.587091 0.655604 0.490364
0.602167 0.662318 0.498360
0.615167 0.665400 0.500298
0.618250 0.653773 0.478462
0.621576 0.639277 0.452247
0.624231 0.621180 0.421241
0.625238 0.598444 0.385077
0.618097 0.565576 0.345251
0.596551 0.515618 0.304997
0.582849 0.467506 0.269596
0.649653 0.488838 0.233799
0.718471 0.519432 0.185977
0.770687 0.541009 0.113954
0.810727 0.555566 0.000000
0.844785 0.567010 0.000000
0.875731 0.577630 0.000000
0.897704 0.588128 0.000000
0.918059 0.598474 0.000000
0.937163 0.608423 0.000000
0.954711 0.616480 0.000000
0.968688 0.617060 0.000000
0.982544 0.618311 0.000000
0.996338 0.620172 0.000000
1.000000 0.622461 0.000000
1.000000 0.627680 0.000000
0.580316 0.664149 0.509514
0.580865 0.664271 0.509667
0.582177 0.664851 0.510338
0.585138 0.666133 0.511864
0.589746 0.668086 0.514214
0.596155 0.670893 0.517632
0.604364 0.674525 0.522179
0.614466 0.679011 0.527916
0.626032 0.684291 0.534813
0.638849 0.690181 0.542779
0.644923 0.686366 0.533349
0.647517 0.675532 0.511498
0.650263 0.662013 0.485328
0.652583 0.645228 0.454200
0.653712 0.624170 0.417670
0.646113 0.592248 0.377234
0.626612 0.545556 0.334844
0.613519 0.499763 0.296208
0.666621 0.513268 0.263249
0.730220 0.542138 0.223392
0.778408 0.562249 0.171481
0.816556 0.576287 0.078767
0.850370 0.588251 0.000000
0.881376 0.599054 0.000000
0.906462 0.609247 0.000000
0.926665 0.619287 0.000000
0.945769 0.628626 0.000000
0.963897 0.637385 0.000000
0.979644 0.642115 0.000000
0.993439 0.643030 0.000000
1.000000 0.644495 0.000000
1.000000 0.646357 0.000000
0.611688 0.687221 0.546441
0.611963 0.687343 0.546624
0.618921 0.692103 0.554620
0.621088 0.693050 0.555871
0.624567 0.694575 0.557946
0.629358 0.696681 0.560845
0.635431 0.699458 0.564630
0.643061 0.703059 0.569451
0.651942 0.707424 0.575219
0.662043 0.712581 0.581933
0.672419 0.717494 0.587793
0.673213 0.708248 0.569696
0.674556 0.697353 0.547692
0.676387 0.684565 0.521447
0.678370 0.668910 0.490425
0.679622 0.649531 0.453895
0.672572 0.619409 0.412665
0.655604 0.575891 0.368383
0.643061 0.532403 0.326940
0.684474 0.538750 0.295506
0.742489 0.565850 0.263249
0.786862 0.584436 0.223239
0.823545 0.598413 0.169375
0.857176 0.610773 0.006104
0.888090 0.621546 0.000000
0.916197 0.630671 0.000000
0.936156 0.639948 0.000000
0.955108 0.648615 0.000000
0.973053 0.656611 0.000000
0.990082 0.664057 0.000000
1.000000 0.666194 0.000000
1.000000 0.667201 0.000000
0.639033 0.707942 0.581506
0.639734 0.708400 0.582208
0.641077 0.709224 0.583459
0.643336 0.710445 0.585046
0.646326 0.712062 0.587243
0.650263 0.714107 0.589837
0.655360 0.716670 0.593103
0.661433 0.719905 0.597009
0.668635 0.723812 0.601709
0.676875 0.728389 0.607141
0.686091 0.733669 0.613245
0.691524 0.732784 0.609796
0.691890 0.723201 0.592432
0.692470 0.712123 0.571252
0.693477 0.699397 0.545892
0.695155 0.684627 0.515709
0.696773 0.666896 0.480262
0.690608 0.638819 0.440436
0.676722 0.599390 0.396368
0.665949 0.558862 0.354040
0.698329 0.559380 0.323980
0.751583 0.585351 0.298131
0.793088 0.603265 0.266514
0.829313 0.617975 0.225376
0.862730 0.630915 0.162448
0.893767 0.641871 0.000000
0.922515 0.650660 0.000000
0.945312 0.658900 0.000000
0.964233 0.667170 0.000000
0.982208 0.674861 0.000000
0.999176 0.681849 0.000000
1.000000 0.687190 0.000000
0.660243 0.726040 0.609277
0.660761 0.726497 0.609888
0.661952 0.727321 0.610956
0.663722 0.728420 0.612329
0.666255 0.729946 0.614191
0.669551 0.731807 0.616358
0.673548 0.734157 0.618982
0.678614 0.737026 0.622217
0.684535 0.740536 0.626062
0.691402 0.744594 0.630457
0.699062 0.749294 0.635462
0.707546 0.754513 0.640894
0.708949 0.747951 0.629877
0.709133 0.738308 0.613611
0.709255 0.727169 0.593805
0.709682 0.714443 0.569635
0.710506 0.699825 0.540520
0.712001 0.683223 0.506401
0.706600 0.657069 0.468238
0.695552 0.621424 0.424811
0.687007 0.584283 0.382147
0.711208 0.579400 0.352544
0.760311 0.603998 0.332280
0.799741 0.621881 0.306859
0.835508 0.637415 0.273838
0.868681 0.650996 0.228061
0.899657 0.662165 0.153506
0.928801 0.670710 0.000000
0.955047 0.677638 0.000000
0.974029 0.685664 0.000000
0.991669 0.692653 0.000000
1.000000 0.698726 0.000000
0.678920 0.744015 0.634028
0.679377 0.744442 0.634485
0.680293 0.745144 0.635309
0.681758 0.746151 0.636500
0.683803 0.747494 0.637964
0.686519 0.749172 0.639734
0.689937 0.751308 0.641932
0.694057 0.753841 0.644587
0.699031 0.757015 0.647730
0.704860 0.760647 0.651423
0.711421 0.764828 0.655543
0.718685 0.769467 0.660060
0.724605 0.771176 0.660670
0.724910 0.762814 0.648066
0.725032 0.753140 0.632807
0.725002 0.742153 0.614466
0.725002 0.729671 0.592248
0.725338 0.715389 0.565026
0.726253 0.699397 0.532921
0.721279 0.674830 0.496712
0.712947 0.643000 0.455146
0.706752 0.609583 0.413184
0.724605 0.600519 0.383917
0.769680 0.623926 0.368872
0.808133 0.642603 0.349157
0.843626 0.659083 0.322515
0.876555 0.673213 0.287907
0.907561 0.684627 0.238041
0.937011 0.693324 0.154849
0.964813 0.699245 0.000000
0.985321 0.705440 0.000000
1.000000 0.711666 0.000000
0.697200 0.763607 0.658350
0.697414 0.763821 0.658564
0.698024 0.764187 0.658991
0.699001 0.764858 0.659663
0.700587 0.765927 0.660639
0.702724 0.767269 0.661952
0.705531 0.769070 0.663722
0.709041 0.771328 0.665888
0.713313 0.774075 0.668605
0.718349 0.777310 0.671809
0.724086 0.780972 0.675532
0.730526 0.785061 0.679683
0.737545 0.789487 0.684291
0.740383 0.786374 0.678584
0.740627 0.778134 0.665858
0.740749 0.768673 0.651606
0.740597 0.757839 0.634577
0.740352 0.745602 0.614130
0.740169 0.731746 0.589380
0.740414 0.716030 0.558923
0.734737 0.691890 0.524468
0.727749 0.662654 0.484504
0.723384 0.632288 0.443519
0.736202 0.619715 0.413733
0.778042 0.642145 0.402502
0.815854 0.661646 0.387091
0.851072 0.678706 0.365728
0.883757 0.693294 0.338750
0.914641 0.704646 0.300938
0.943847 0.713008 0.244694
0.971435 0.718593 0.143160
0.995026 0.722652 0.000000
0.711971 0.780392 0.678279
0.712123 0.780545 0.678492
0.712673 0.780911 0.678889
0.713588 0.781521 0.679530
0.714900 0.782437 0.680446
0.716823 0.783627 0.681666
0.719265 0.785214 0.683284
0.722408 0.787167 0.685328
0.726192 0.789578 0.687861
0.730678 0.792386 0.690883
0.735775 0.795621 0.694301
0.741482 0.799191 0.698207
0.747707 0.803067 0.702480
0.754391 0.806943 0.706630
0.754635 0.800076 0.695247
0.754879 0.792142 0.682429
0.755154 0.783078 0.668177
0.755093 0.772732 0.652338
0.754849 0.760983 0.633661
0.754513 0.747646 0.611109
0.754269 0.732631 0.583642
0.748257 0.709346 0.551537
0.741604 0.681788 0.513756
0.738399 0.654139 0.475013
0.746853 0.638025 0.443336
0.786893 0.660487 0.435492
0.824216 0.680873 0.424140
0.858824 0.698238 0.407660
0.891142 0.712428 0.385657
0.921691 0.723568 0.355779
0.950652 0.731899 0.313725
0.977905 0.737362 0.250340
0.727169 0.797421 0.699611
0.727382 0.797604 0.699916
0.727779 0.797940 0.700221
0.728542 0.798398 0.700710
0.729641 0.799039 0.701411
0.731228 0.799954 0.702388
0.733242 0.801175 0.703670
0.735866 0.802731 0.705348
0.739101 0.804654 0.707454
0.742885 0.806973 0.710048
0.747280 0.809598 0.712978
0.752316 0.812650 0.716396
0.757839 0.815946 0.720180
0.763882 0.819486 0.724269
0.767788 0.819272 0.722560
0.767819 0.812528 0.710964
0.768002 0.804807 0.697932
0.768215 0.796109 0.683589
0.768338 0.786313 0.667811
0.768276 0.775204 0.650507
0.768002 0.762692 0.630121
0.767330 0.748165 0.605402
0.761257 0.726131 0.576287
0.754940 0.700252 0.540917
0.751766 0.674342 0.504509
0.757900 0.657496 0.475074
0.796780 0.680049 0.469398
0.833310 0.700435 0.460822
0.867338 0.717617 0.448157
0.899290 0.731594 0.431159
0.929290 0.742611 0.408392
0.957366 0.750790 0.377234
0.740322 0.811948 0.718502
0.740566 0.812131 0.718776
0.740993 0.812406 0.719112
0.741665 0.812863 0.719631
0.742763 0.813504 0.720394
0.744198 0.814359 0.721370
0.746151 0.815549 0.722713
0.748592 0.817014 0.724453
0.751583 0.818814 0.726497
0.755123 0.820920 0.729000
0.759121 0.823301 0.731838
0.763699 0.825956 0.735042
0.768734 0.828885 0.738552
0.774258 0.831998 0.742306
0.780209 0.835294 0.746304
0.781521 0.831724 0.739315
0.781552 0.825315 0.727840
0.781704 0.818112 0.715053
0.782040 0.810025 0.700923
0.782406 0.800900 0.685389
0.782650 0.790585 0.668360
0.782620 0.778988 0.649683
0.781643 0.765164 0.627893
0.775845 0.744717 0.602167
0.769741 0.720729 0.570336
0.766812 0.696712 0.536461
0.770016 0.678370 0.507897
0.807980 0.701045 0.504479
0.843961 0.721706 0.499519
0.877409 0.738674 0.491279
0.908629 0.752346 0.479591
0.937469 0.763119 0.464149
0.754147 0.826474 0.738216
0.754269 0.826596 0.738399
0.754635 0.826810 0.738643
0.755245 0.827146 0.739101
0.756161 0.827695 0.739712
0.757473 0.828428 0.740627
0.759213 0.829435 0.741787
0.761410 0.830655 0.743313
0.764034 0.832181 0.745144
0.767208 0.833982 0.747372
0.770840 0.836027 0.749905
0.774929 0.838346 0.752743
0.779538 0.840848 0.755917
0.784512 0.843534 0.759304
0.789853 0.846403 0.762905
0.794827 0.848386 0.765042
0.794675 0.843168 0.755245
0.794736 0.837308 0.744167
0.795041 0.830747 0.731899
0.795560 0.823331 0.718257
0.796201 0.815000 0.703182
0.796689 0.805447 0.686366
0.797024 0.794705 0.667994
0.795804 0.781491 0.648035
0.790280 0.762509 0.625269
0.784512 0.740627 0.597467
0.781888 0.718837 0.567407
0.784237 0.701259 0.541466
0.819730 0.722103 0.538933
0.854948 0.742519 0.537346
0.887572 0.759182 0.533379
0.917662 0.772610 0.526787
0.767514 0.839841 0.756924
0.767666 0.839902 0.757046
0.767941 0.840116 0.757259
0.768490 0.840421 0.757717
0.769406 0.840940 0.758358
0.770687 0.841642 0.759304
0.772396 0.842679 0.760586
0.774624 0.843931 0.762234
0.777249 0.845426 0.764218
0.780362 0.847166 0.766506
0.783871 0.849149 0.769131
0.787778 0.851316 0.772000
0.792111 0.853635 0.775082
0.796689 0.856077 0.778317
0.801602 0.858579 0.781704
0.806790 0.861204 0.785183
0.809476 0.860563 0.782986
0.809384 0.855863 0.773709
0.809567 0.850584 0.763302
0.809964 0.844663 0.751614
0.810575 0.837980 0.738582
0.811398 0.830442 0.724056
0.812375 0.821958 0.707942
0.813321 0.812375 0.690211
0.812650 0.800320 0.671138
0.807797 0.783291 0.651087
0.802701 0.763912 0.627771
0.800595 0.745052 0.603204
0.803738 0.730953 0.582971
0.835142 0.747890 0.580591
0.869322 0.767453 0.582269
0.900450 0.783383 0.582513
0.782712 0.853910 0.777401
0.782773 0.853941 0.777462
0.782986 0.854032 0.777584
0.783444 0.854276 0.777920
0.784176 0.854643 0.778408
0.785245 0.855192 0.779110
0.786679 0.855924 0.780056
0.788449 0.856870 0.781308
0.790646 0.857969 0.782803
0.793179 0.859281 0.784543
0.796109 0.860746 0.786526
0.799405 0.862394 0.788754
0.803006 0.864195 0.791196
0.806973 0.866087 0.793820
