20 Preset/Movie Style Preset/【3】LUT for PR-AE-FCPX/Movie - LUT  (2).cube
# Created by Adobe Lightroom plugin Export LUT (1.24.0)
# www.johnrellis.com/lightroom/exportlut.htm
# Preset: 电影质感02（修改版）
# Color profile: C:\Program Files (x86)\Common Files\Adobe\Color\Profiles\Recommended\VideoHD.icc
LUT_3D_SIZE 8
DOMAIN_MIN 0.000000 0.000000 0.000000
DOMAIN_MAX 0.903226 0.903226 0.903226
0.080262 0.094423 0.108461
0.103273 0.096437 0.109529
0.224216 0.098970 0.110872
0.468940 0.000000 0.102449
0.701747 0.000000 0.079774
0.839445 0.000000 0.047120
0.908721 0.133608 0.084321
0.963378 0.284154 0.128054
0.089509 0.108858 0.117861
0.098878 0.109621 0.117617
0.239536 0.118074 0.111666
0.481514 0.000244 0.101930
0.705928 0.000000 0.080354
0.835538 0.000000 0.054627
0.904784 0.165164 0.089693
0.960296 0.295689 0.131655
0.122683 0.218387 0.165499
0.142641 0.232029 0.168704
0.196201 0.198062 0.150423
0.513817 0.216556 0.115053
0.741360 0.193484 0.088685
0.845029 0.226535 0.092927
0.907836 0.289921 0.122896
0.959960 0.371069 0.167056
0.319951 0.463539 0.305028
0.344793 0.474067 0.311254
0.420081 0.485878 0.309483
0.422370 0.370947 0.226413
0.683375 0.398016 0.188937
0.848722 0.419562 0.166842
0.903532 0.434150 0.194491
0.952789 0.473915 0.235782
0.553826 0.634424 0.486946
0.563165 0.638575 0.491402
0.600214 0.655695 0.511223
0.622217 0.631434 0.465095
0.595056 0.517418 0.336614
0.742641 0.527031 0.302892
0.862699 0.559167 0.321202
0.940429 0.581384 0.340917
0.663966 0.721950 0.618036
0.668879 0.725338 0.622278
0.683803 0.734340 0.632563
0.707332 0.746365 0.644282
0.706569 0.707271 0.577905
0.691310 0.621088 0.452247
0.779446 0.619440 0.425544
0.884184 0.663844 0.466468
0.730190 0.794491 0.706966
0.732509 0.796109 0.708797
0.740902 0.801541 0.715023
0.757321 0.812039 0.727382
0.768002 0.807187 0.716030
0.766476 0.771511 0.659968
0.750393 0.699580 0.562280
0.816617 0.700465 0.540764
0.788876 0.854368 0.787839
0.790188 0.855070 0.788785
0.795895 0.858152 0.792966
0.806943 0.863981 0.801114
0.820737 0.870390 0.809873
0.823362 0.859159 0.786770
0.825498 0.834470 0.738155
0.816587 0.782528 0.665949
0.081544 0.098817 0.120760
0.103426 0.098909 0.123018
0.219791 0.102419 0.125063
0.456367 0.000000 0.125032
0.691279 0.000000 0.116640
0.826688 0.000000 0.113222
0.898863 0.162966 0.126223
0.955291 0.292180 0.157626
0.087007 0.111025 0.123842
0.102602 0.117891 0.131746
0.235386 0.127108 0.131930
0.474952 0.082124 0.127749
0.699062 0.000000 0.119356
0.827512 0.000000 0.116976
0.897429 0.192660 0.130404
0.953307 0.305364 0.161257
0.135042 0.224765 0.188693
0.153597 0.237583 0.193027
0.204654 0.210239 0.172244
0.522240 0.228946 0.146365
0.729244 0.213291 0.133852
0.835538 0.243015 0.136568
0.898558 0.297978 0.155642
0.952483 0.374243 0.190585
0.323308 0.456275 0.319768
0.346471 0.466590 0.325933
0.421576 0.485023 0.330358
0.418372 0.371435 0.242466
0.676448 0.397986 0.209537
0.838499 0.419440 0.196139
0.894591 0.433692 0.216495
0.945800 0.473304 0.252171
0.552972 0.630823 0.492348
0.561791 0.634730 0.496437
0.597681 0.651606 0.515068
0.619501 0.629541 0.473060
0.591089 0.516075 0.345861
0.740169 0.527886 0.314977
0.859556 0.559899 0.334203
0.935698 0.581598 0.353246
0.661952 0.718898 0.618097
0.665797 0.721187 0.620844
0.680903 0.730404 0.631434
0.705867 0.744656 0.646082
0.704921 0.706172 0.581262
0.689754 0.620935 0.457923
0.778470 0.620294 0.432074
0.882628 0.663874 0.471870
0.728267 0.791928 0.705745
0.730068 0.793027 0.706905
0.738491 0.798550 0.713130
0.755184 0.809415 0.725856
0.767086 0.806394 0.717098
0.765225 0.770596 0.661067
0.748501 0.697993 0.562737
0.815061 0.698939 0.540948
0.787320 0.852873 0.786648
0.788907 0.853788 0.787961
0.794614 0.856901 0.792111
0.805783 0.862913 0.800412
0.821592 0.871000 0.811856
0.823972 0.859983 0.789212
0.825315 0.834714 0.739803
0.816098 0.782406 0.666865
0.043977 0.110231 0.177554
0.091371 0.107790 0.190158
0.237644 0.099825 0.202670
0.461494 0.039521 0.193118
0.681605 0.012146 0.204044
0.814572 0.169162 0.215274
0.886412 0.266331 0.230747
0.943328 0.356481 0.255863
0.075532 0.141634 0.187320
0.096101 0.139071 0.201968
0.249363 0.142885 0.213138
0.464546 0.149905 0.211002
0.686366 0.135195 0.212894
0.814115 0.205966 0.221897
0.884947 0.283085 0.234195
0.941650 0.366888 0.259098
0.114321 0.226200 0.211185
0.149050 0.239658 0.226261
0.245396 0.260960 0.251072
0.531334 0.275456 0.249210
0.713954 0.282475 0.245975
0.820615 0.314305 0.247990
0.884184 0.360113 0.260075
0.939086 0.421088 0.284825
0.327092 0.451087 0.355688
0.363317 0.463111 0.375463
0.452583 0.505547 0.410132
0.449805 0.408362 0.318730
0.695766 0.444373 0.306889
0.821103 0.460914 0.310582
0.879454 0.474403 0.318700
0.933379 0.505699 0.338293
0.556847 0.624018 0.517662
0.565545 0.628626 0.522210
0.600000 0.646906 0.541222
0.628931 0.641535 0.524041
0.600916 0.535515 0.401617
0.745480 0.552941 0.382055
0.856168 0.582086 0.404364
0.924498 0.599329 0.418402
0.662562 0.714900 0.628931
0.666346 0.717311 0.631678
0.680781 0.726833 0.642023
0.706996 0.744778 0.660273
0.706294 0.710750 0.606622
0.689693 0.627924 0.488716
0.779294 0.631983 0.468727
0.881651 0.674128 0.507164
0.728237 0.790036 0.711788
0.730098 0.791226 0.713100
0.738338 0.796780 0.719234
0.754879 0.807889 0.731991
0.769711 0.810269 0.731014
0.766415 0.774502 0.674739
0.748287 0.702419 0.580407
0.817380 0.707057 0.562158
0.786679 0.851652 0.789273
0.787961 0.852323 0.790158
0.793759 0.855558 0.794430
0.805447 0.862089 0.803342
0.821561 0.870573 0.815030
0.825986 0.862669 0.798001
0.826139 0.837308 0.748836
0.816434 0.784482 0.674128
0.000000 0.138399 0.299657
0.000000 0.137881 0.314092
0.246067 0.109285 0.371313
0.518700 0.038209 0.354894
0.695949 0.117067 0.322454
0.782589 0.265965 0.331701
0.859678 0.343023 0.344762
0.918029 0.419318 0.368780
0.000000 0.184146 0.316167
0.000000 0.177707 0.329076
0.260777 0.158297 0.380621
0.527214 0.157839 0.363958
0.691890 0.188540 0.331456
0.783963 0.293736 0.340917
0.858549 0.361700 0.352422
0.917052 0.430854 0.374548
0.075319 0.294163 0.333989
0.141756 0.300359 0.342626
0.278721 0.311376 0.392096
0.527214 0.326848 0.390173
0.673671 0.355352 0.378882
0.788052 0.389837 0.378698
0.856168 0.434302 0.388495
0.915526 0.478004 0.401221
0.263828 0.430732 0.368475
0.295781 0.438727 0.378454
0.417121 0.476143 0.434058
0.503014 0.471656 0.434028
0.700801 0.501183 0.441627
0.787350 0.507286 0.435737
0.850980 0.519677 0.434699
0.910979 0.542809 0.440314
0.526787 0.607630 0.515160
0.540551 0.612268 0.524865
0.591455 0.631373 0.563592
0.643427 0.659937 0.593194
0.616052 0.566552 0.482368
0.752010 0.593042 0.484443
0.848112 0.615534 0.502342
0.906188 0.623072 0.501335
0.656245 0.707057 0.635157
0.662226 0.710140 0.641169
0.678920 0.719600 0.655909
0.704646 0.739315 0.674708
0.712215 0.722805 0.648280
0.691585 0.642390 0.539788
0.782803 0.654932 0.531304
0.881926 0.692256 0.563897
0.723415 0.783566 0.715694
0.726589 0.785245 0.719142
0.736049 0.792020 0.727138
0.753414 0.804623 0.741329
0.776699 0.819547 0.757961
0.769680 0.783139 0.700679
0.747890 0.709712 0.608453
0.821927 0.720089 0.595850
0.784482 0.848966 0.793179
0.785916 0.849790 0.794278
0.792081 0.853391 0.798886
0.803952 0.860227 0.807797
0.820829 0.869505 0.820157
0.830106 0.868009 0.814237
0.827665 0.842222 0.765255
0.816983 0.788357 0.687373
0.000000 0.198184 0.452888
0.000000 0.198764 0.462684
0.208896 0.191104 0.498543
0.549493 0.054780 0.549096
0.719203 0.223331 0.506065
0.801968 0.318364 0.468452
0.840391 0.387274 0.447730
0.885222 0.475135 0.474617
0.000000 0.239719 0.461524
0.000000 0.237675 0.470558
0.236088 0.231357 0.503838
0.556817 0.166293 0.552331
0.716609 0.273747 0.510521
0.796567 0.344884 0.472541
0.834012 0.410376 0.456550
0.884672 0.484382 0.479316
0.181735 0.361303 0.462440
0.213687 0.366400 0.473274
0.306310 0.360357 0.509087
0.564202 0.341588 0.558404
0.701045 0.407080 0.524224
0.773892 0.423957 0.485054
0.817136 0.476753 0.484657
0.882444 0.517205 0.495949
0.282780 0.487831 0.488258
0.312535 0.490730 0.492439
0.411353 0.503258 0.510216
0.542870 0.520592 0.556054
0.669154 0.528710 0.540368
0.746578 0.539422 0.528832
0.815946 0.553613 0.526268
0.882353 0.572107 0.526818
0.468116 0.581140 0.511345
0.482063 0.584771 0.516838
0.532372 0.598901 0.538750
0.616602 0.633448 0.598871
0.640009 0.607904 0.567895
0.754604 0.633600 0.584527
0.819303 0.632532 0.574701
0.883787 0.638148 0.568139
0.623804 0.686732 0.615106
0.629816 0.688899 0.620233
0.651606 0.697383 0.639490
0.686427 0.715236 0.672206
0.716487 0.735103 0.688045
0.692531 0.658381 0.593256
0.790188 0.683925 0.602808
0.887083 0.712001 0.625238
0.702266 0.769039 0.700435
0.705013 0.770382 0.703120
0.716854 0.776577 0.715145
0.741451 0.790616 0.740566
0.769833 0.812345 0.764706
0.773434 0.794522 0.734096
0.746548 0.717250 0.638849
0.829831 0.735225 0.634455
0.761776 0.838193 0.773709
0.764340 0.839231 0.776303
0.775204 0.843687 0.787228
0.795743 0.853178 0.807431
0.815427 0.864897 0.822324
0.836667 0.876097 0.836515
0.829496 0.849119 0.787503
0.815549 0.791287 0.702785
0.000000 0.285313 0.576379
0.000000 0.286137 0.581598
0.262089 0.284642 0.601801
0.511254 0.261814 0.638239
0.729397 0.260227 0.658289
0.801205 0.397375 0.610864
0.844572 0.470893 0.581811
0.885100 0.505821 0.563806
0.000000 0.316075 0.576440
0.100313 0.316411 0.581079
0.286198 0.314549 0.600183
0.513634 0.296239 0.635218
0.724910 0.297673 0.656153
0.796017 0.418036 0.610956
0.840055 0.480812 0.582300
0.881895 0.511742 0.564477
0.291142 0.432349 0.576379
0.307958 0.432105 0.582116
0.361303 0.417884 0.601465
0.527886 0.412543 0.633295
0.713375 0.419043 0.656550
0.779782 0.495979 0.618494
0.825559 0.524010 0.590784
0.871794 0.540948 0.572930
0.386358 0.520836 0.567041
0.402930 0.522393 0.569268
0.463935 0.536095 0.588098
0.546960 0.545464 0.629389
0.693233 0.552575 0.660090
0.755734 0.589197 0.634668
0.803433 0.583062 0.605707
0.847227 0.603052 0.602075
0.463020 0.618189 0.598505
0.474739 0.619287 0.600610
0.518639 0.623926 0.609400
0.586908 0.633204 0.626001
0.665522 0.646784 0.659693
0.726223 0.643824 0.640040
0.785275 0.646265 0.632776
0.855528 0.653101 0.629725
0.584192 0.670497 0.611688
0.590753 0.672358 0.615015
0.613031 0.678187 0.626154
0.650416 0.689082 0.647791
0.697871 0.716426 0.692164
0.705776 0.689387 0.659052
0.807187 0.716152 0.676478
0.870878 0.714626 0.667079
0.674403 0.748470 0.681300
0.677516 0.750240 0.684352
0.689723 0.756771 0.696132
0.713649 0.770108 0.719936
0.749844 0.791562 0.757137
0.784604 0.815335 0.782559
0.749569 0.731044 0.677150
0.847379 0.759060 0.688502
0.738033 0.825437 0.756863
0.740017 0.826230 0.758785
0.749233 0.830259 0.767697
0.768093 0.838956 0.785946
0.799008 0.853208 0.815396
0.831113 0.872007 0.841489
0.835355 0.861265 0.820066
0.815000 0.797604 0.727230
0.254337 0.393133 0.669429
0.283055 0.394568 0.672755
0.375799 0.393774 0.682612
0.522515 0.389868 0.701717
0.692012 0.378332 0.728542
0.808011 0.426581 0.730556
0.845151 0.522637 0.690394
0.881834 0.574517 0.671992
0.273167 0.409033 0.665095
0.299321 0.410803 0.668605
0.383612 0.409979 0.678737
0.520989 0.405463 0.697383
0.685878 0.394751 0.723903
0.801999 0.435920 0.726070
0.839780 0.524956 0.685939
0.877073 0.572351 0.666926
0.385260 0.493324 0.662470
0.390326 0.489631 0.665278
0.429084 0.480049 0.675532
0.535027 0.479530 0.693721
0.676417 0.475624 0.719600
0.789303 0.501976 0.725460
0.830137 0.570001 0.693050
0.871153 0.600519 0.675807
0.458198 0.566033 0.649439
0.467628 0.567620 0.652399
0.507012 0.575006 0.665705
0.557580 0.570947 0.687709
0.662898 0.574823 0.714565
0.770657 0.589532 0.728267
0.816861 0.629419 0.705165
0.860990 0.635126 0.684504
0.501762 0.628840 0.650813
0.507805 0.628382 0.650965
0.535851 0.628931 0.654261
0.585687 0.634089 0.664881
0.648005 0.647913 0.702022
0.747555 0.655970 0.728756
0.801205 0.675227 0.711940
0.849912 0.666804 0.689143
0.555840 0.695949 0.673732
0.561212 0.696254 0.674739
0.581933 0.697169 0.678523
0.617151 0.699733 0.686366
0.661402 0.704829 0.699275
0.722896 0.719112 0.734676
0.783047 0.715755 0.717525
0.839445 0.715145 0.708034
0.638849 0.731807 0.681270
0.641840 0.733089 0.683070
0.652766 0.736843 0.688930
0.673976 0.744930 0.701320
0.705104 0.757809 0.721218
0.754757 0.786496 0.768460
0.762142 0.758572 0.734493
0.863035 0.783871 0.755306
0.704707 0.804349 0.732143
0.706996 0.805478 0.734371
0.717342 0.810605 0.744472
0.736263 0.819516 0.762692
0.765469 0.833494 0.790372
0.806485 0.854063 0.828061
0.850736 0.881071 0.863890
0.815671 0.808713 0.763272
0.440436 0.509667 0.741665
0.451392 0.510155 0.743526
0.490730 0.507530 0.748806
0.567071 0.505364 0.761563
0.671962 0.500114 0.780697
0.795102 0.492134 0.805905
0.864714 0.543969 0.799130
0.892699 0.611231 0.765560
0.443610 0.516991 0.738369
0.454383 0.517632 0.740322
0.492805 0.516014 0.746181
0.566125 0.513512 0.758755
0.668818 0.508721 0.778042
0.791012 0.501335 0.803494
0.861357 0.548608 0.797024
0.890196 0.613275 0.764065
0.482399 0.560815 0.732570
0.485328 0.558129 0.734493
0.508110 0.552300 0.740810
0.572656 0.553674 0.754940
0.663752 0.550256 0.774044
0.778714 0.545037 0.799496
0.852567 0.579614 0.796262
0.885252 0.632624 0.766445
0.523552 0.612696 0.720516
0.530663 0.614252 0.722896
0.552697 0.615686 0.731258
0.580713 0.606348 0.746456
0.655177 0.607752 0.767239
0.758907 0.607904 0.794797
0.840299 0.626734 0.798337
0.879454 0.664851 0.773098
0.537652 0.645167 0.701503
0.542504 0.645197 0.702205
0.558923 0.647974 0.709377
0.598901 0.658534 0.728206
0.642451 0.658167 0.755245
0.730282 0.662226 0.786404
0.825620 0.672541 0.801877
0.872129 0.703975 0.782406
0.566979 0.704738 0.718196
0.569574 0.704036 0.718044
0.581598 0.702113 0.718563
0.606287 0.699855 0.721401
0.642542 0.697047 0.727535
0.701045 0.713832 0.776181
0.809842 0.730007 0.812985
0.861875 0.750301 0.795163
0.602441 0.766964 0.746853
0.604517 0.767117 0.747433
0.613428 0.768124 0.750240
0.633478 0.769528 0.755520
0.663844 0.769497 0.761837
0.706142 0.770321 0.772244
0.771756 0.784268 0.808713
0.843259 0.787472 0.800778
0.666377 0.797299 0.747799
0.668116 0.797452 0.748348
0.676204 0.798947 0.751675
0.693385 0.803983 0.760494
0.719692 0.811978 0.774594
0.755581 0.824094 0.795499
0.806699 0.846067 0.833066
0.824887 0.834897 0.823362
