20 Preset/Movie Style Preset/【3】LUT for PR-AE-FCPX/Movie - LUT  (6).cube
# Created by Adobe Lightroom plugin Export LUT (1.24.0)
# www.johnrellis.com/lightroom/exportlut.htm
# Preset: 电影质感06（修改版）
# Color profile: C:\Program Files (x86)\Common Files\Adobe\Color\Profiles\Recommended\VideoHD.icc
LUT_3D_SIZE 5
DOMAIN_MIN 0.000000 0.000000 0.000000
DOMAIN_MAX 0.903226 0.903226 0.903226
0.080262 0.094423 0.108461
0.125185 0.101198 0.110445
0.338781 0.108888 0.106020
0.672633 0.000000 0.051728
0.854978 0.213016 0.000000
0.096559 0.123018 0.128664
0.112398 0.123323 0.126528
0.380804 0.171786 0.101198
0.687434 0.172213 0.025483
0.857206 0.278233 0.000000
0.226169 0.344366 0.259556
0.271519 0.369818 0.274632
0.289982 0.281376 0.203983
0.685634 0.391150 0.101961
0.854948 0.458442 0.000000
0.557824 0.616968 0.508415
0.575921 0.627070 0.520043
0.615656 0.638331 0.526543
0.562005 0.498207 0.351507
0.786954 0.584558 0.319799
0.720241 0.771084 0.702754
0.725734 0.775296 0.707790
0.745602 0.789792 0.725154
0.752834 0.774929 0.696315
0.730434 0.682887 0.560784
0.081727 0.102022 0.129854
0.126040 0.101656 0.138125
0.333104 0.111849 0.140963
0.657557 0.081178 0.132265
0.846403 0.228580 0.113771
0.096590 0.130190 0.141573
0.123720 0.144106 0.156039
0.372168 0.177188 0.150027
0.674372 0.187076 0.133822
0.848631 0.287816 0.117159
0.240330 0.345953 0.285252
0.283726 0.371313 0.302342
0.305364 0.298985 0.234745
0.692378 0.408789 0.167941
0.848997 0.464088 0.158877
0.559045 0.614405 0.517784
0.577081 0.624903 0.529412
0.622400 0.644556 0.547814
0.567163 0.507073 0.374578
0.788418 0.593072 0.349401
0.719265 0.769650 0.704250
0.724666 0.773861 0.709194
0.746181 0.790249 0.728817
0.755276 0.778866 0.705043
0.731044 0.685756 0.569512
0.000000 0.128908 0.234592
0.101198 0.125856 0.264378
0.394171 0.087587 0.290898
0.646662 0.019379 0.257084
0.825101 0.266453 0.277897
0.095003 0.190951 0.248203
0.120302 0.188754 0.280247
0.410834 0.185336 0.306188
0.640101 0.219425 0.286107
0.826871 0.322667 0.291569
0.186069 0.326940 0.296056
0.243778 0.350591 0.320287
0.386664 0.382116 0.359747
0.682155 0.444282 0.351507
0.827512 0.480476 0.341650
0.532250 0.594446 0.515343
0.557641 0.605615 0.534752
0.629480 0.649439 0.590143
0.585229 0.538811 0.451453
0.797757 0.625544 0.447059
0.704616 0.757839 0.695216
0.713802 0.763516 0.705440
0.740017 0.783719 0.731197
0.762844 0.792172 0.735500
0.730404 0.691981 0.594232
0.000000 0.208865 0.434180
0.000000 0.207187 0.454597
0.418036 0.141878 0.530755
0.711055 0.195804 0.502953
0.828031 0.323186 0.460914
0.000000 0.276829 0.440406
0.105318 0.266300 0.459571
0.426795 0.230442 0.531487
0.705592 0.286656 0.509758
0.819364 0.360632 0.465797
0.250950 0.408942 0.439582
0.295537 0.415198 0.447517
0.432868 0.441596 0.517754
0.669978 0.462257 0.521935
0.784298 0.482826 0.496223
0.449592 0.556970 0.498970
0.474403 0.564813 0.509545
0.561120 0.596948 0.554284
0.627985 0.602075 0.566857
0.800809 0.648188 0.570764
0.660517 0.728389 0.659083
0.668971 0.733303 0.667292
0.703792 0.755337 0.702907
0.767361 0.802701 0.769436
0.732296 0.706935 0.640009
0.191867 0.357733 0.622431
0.249699 0.354009 0.630426
0.450904 0.334234 0.665187
0.736629 0.265507 0.712612
0.838499 0.435737 0.663600
0.242252 0.394018 0.613947
0.273991 0.387274 0.623072
0.449195 0.371832 0.657862
0.727382 0.316136 0.708675
0.831601 0.461677 0.663691
0.350011 0.488045 0.581292
0.374060 0.492775 0.592767
0.452216 0.486519 0.638025
0.686336 0.466804 0.698238
0.814481 0.556634 0.678157
0.433539 0.602045 0.603265
0.447669 0.600885 0.604334
0.510765 0.602441 0.615351
0.630488 0.630426 0.682582
0.792264 0.662623 0.703059
0.580743 0.694240 0.640314
0.589349 0.695369 0.643336
0.627619 0.706020 0.662043
0.687434 0.733303 0.700832
0.745602 0.744991 0.724514
