20 Preset/Movie Style Preset/【3】LUT for PR-AE-FCPX/Movie - LUT  (11).cube
# Created by Adobe Lightroom plugin Export LUT (1.24.0)
# www.johnrellis.com/lightroom/exportlut.htm
# Preset: 电影质感11（修改版）
# Color profile: C:\Program Files (x86)\Common Files\Adobe\Color\Profiles\Recommended\VideoHD.icc
LUT_3D_SIZE 8
DOMAIN_MIN 0.000000 0.000000 0.000000
DOMAIN_MAX 0.903226 0.903226 0.903226
0.080262 0.094423 0.108461
0.104768 0.096681 0.107820
0.235569 0.107240 0.102052
0.496223 0.038697 0.058106
0.730983 0.000000 0.000000
0.851774 0.167117 0.000000
0.917021 0.259800 0.000000
0.973571 0.344976 0.000000
0.089631 0.106844 0.118074
0.097139 0.107820 0.117281
0.250462 0.136873 0.099458
0.511620 0.124208 0.031037
0.731685 0.118318 0.000000
0.847776 0.201755 0.000000
0.913329 0.276616 0.000000
0.970764 0.355077 0.000000
0.126528 0.195010 0.165591
0.140383 0.204471 0.168795
0.176761 0.176822 0.146670
0.544457 0.265385 0.000000
0.752987 0.299687 0.000000
0.852567 0.326543 0.000000
0.916838 0.363897 0.000000
0.973419 0.414862 0.000000
0.313451 0.423041 0.304479
0.332158 0.431281 0.309667
0.367193 0.416632 0.280980
0.364324 0.318608 0.210178
0.696376 0.417700 0.000000
0.846921 0.479683 0.000000
0.911254 0.486183 0.000000
0.967895 0.504967 0.000000
0.541527 0.600916 0.478553
0.549828 0.604944 0.482765
0.579065 0.617670 0.494301
0.576532 0.572107 0.416999
0.539727 0.454597 0.297551
0.756222 0.528710 0.165469
0.883940 0.575128 0.000000
0.958221 0.608423 0.000000
0.657649 0.699031 0.610925
0.662226 0.702144 0.615137
0.675257 0.710170 0.625177
0.681361 0.702388 0.606561
0.679164 0.663966 0.528649
0.652766 0.566705 0.403571
0.794888 0.617945 0.333013
0.914916 0.668513 0.197452
0.726345 0.774441 0.702571
0.728389 0.775998 0.704311
0.735653 0.781186 0.710109
0.749874 0.791287 0.721767
0.745815 0.769009 0.684474
0.741176 0.732204 0.624811
0.726955 0.658473 0.518090
0.831907 0.699733 0.481697
0.785733 0.839139 0.785000
0.786893 0.839841 0.785916
0.791836 0.842863 0.789822
0.801511 0.848753 0.797421
0.807126 0.848142 0.793820
0.804349 0.831022 0.760403
0.804929 0.804166 0.708431
0.795560 0.751614 0.641474
0.080385 0.097505 0.117739
0.102846 0.098421 0.118532
0.225406 0.106508 0.114290
0.480171 0.085878 0.090944
0.715755 0.000000 0.000000
0.840940 0.165682 0.000000
0.909361 0.254856 0.000000
0.967742 0.338750 0.000000
0.089906 0.109010 0.121828
0.101808 0.114046 0.125734
0.245365 0.137881 0.113130
0.503563 0.132662 0.072450
0.723293 0.128267 0.000000
0.841855 0.203677 0.000000
0.908263 0.274784 0.000000
0.966125 0.350561 0.000000
0.136233 0.203372 0.180209
0.150057 0.212680 0.184390
0.184878 0.186343 0.159640
0.541100 0.268315 0.000000
0.743038 0.295354 0.000000
0.846128 0.322911 0.000000
0.910185 0.357519 0.000000
0.968078 0.408515 0.000000
0.312291 0.415778 0.309789
0.330449 0.424475 0.315190
0.365850 0.413642 0.290623
0.360723 0.317998 0.218357
0.687709 0.413001 0.000000
0.839841 0.474617 0.000000
0.904509 0.479408 0.000000
0.962768 0.499550 0.000000
0.541650 0.598901 0.481971
0.549248 0.602594 0.485603
0.578515 0.616114 0.498207
0.573571 0.569604 0.420996
0.536126 0.453040 0.302678
0.753567 0.527703 0.178286
0.881285 0.573846 0.000000
0.954955 0.606043 0.000000
0.656062 0.696773 0.610285
0.659419 0.698817 0.612909
0.672694 0.706996 0.623224
0.679713 0.700496 0.606622
0.677424 0.662501 0.530022
0.651423 0.566461 0.407111
0.793942 0.618067 0.338079
0.913420 0.667933 0.208530
0.724666 0.772244 0.701045
0.726162 0.773251 0.702113
0.733455 0.778439 0.707912
0.747951 0.788907 0.719875
0.744839 0.767941 0.684565
0.739895 0.731044 0.624933
0.725185 0.656641 0.517327
0.830381 0.697810 0.480446
0.784268 0.837705 0.783627
0.785672 0.838651 0.784848
0.790616 0.841672 0.788724
0.800381 0.847654 0.796475
0.808591 0.849577 0.796628
0.804959 0.831876 0.762417
0.804776 0.804318 0.709468
0.795132 0.751400 0.641901
0.064820 0.105013 0.153658
0.098970 0.103151 0.161807
0.223331 0.101350 0.163424
0.461738 0.062104 0.151492
0.707362 0.000000 0.111635
0.835782 0.183993 0.000000
0.905821 0.271977 0.000000
0.965637 0.349584 0.000000
0.085267 0.129610 0.161898
0.105531 0.128206 0.171786
0.231754 0.135805 0.169650
0.486885 0.130312 0.150820
0.713375 0.134859 0.106294
0.836057 0.220432 0.000000
0.904845 0.290013 0.000000
0.964355 0.360998 0.000000
0.142092 0.215854 0.206516
0.169223 0.232090 0.226169
0.226108 0.228092 0.205417
0.556420 0.287968 0.138888
0.739498 0.303105 0.044404
0.842618 0.333471 0.000000
0.907164 0.367346 0.000000
0.964935 0.415106 0.000000
0.342351 0.427619 0.351598
0.361761 0.437751 0.359045
0.402228 0.442298 0.351263
0.393591 0.348730 0.265232
0.705562 0.442481 0.143557
0.837186 0.487037 0.000000
0.901152 0.488930 0.000000
0.960754 0.506676 0.000000
0.551293 0.600519 0.503288
0.558862 0.604730 0.507439
0.589502 0.622004 0.524956
0.585809 0.582513 0.459663
0.551141 0.472663 0.342473
0.759152 0.545861 0.245548
0.880461 0.586633 0.000000
0.951629 0.611292 0.000000
0.659083 0.696742 0.619776
0.662318 0.698878 0.622431
0.675013 0.707088 0.632319
0.683833 0.704341 0.622675
0.679316 0.666865 0.549981
0.654261 0.574029 0.430304
0.795193 0.626825 0.371313
0.913664 0.675135 0.267094
0.725887 0.772580 0.706264
0.727474 0.773678 0.707424
0.734554 0.778775 0.713039
0.748775 0.789181 0.724880
0.747158 0.771572 0.694575
0.741115 0.734463 0.636011
0.725826 0.660883 0.531182
0.833066 0.704555 0.498329
0.784146 0.837339 0.785641
0.785183 0.837980 0.786435
0.790219 0.841093 0.790372
0.800443 0.847562 0.798672
0.810941 0.852171 0.803189
0.806668 0.834653 0.769589
0.805722 0.806851 0.716365
0.795895 0.753475 0.647364
0.000000 0.121096 0.240391
0.026551 0.120333 0.251286
0.243351 0.101015 0.283330
0.482307 0.049989 0.259251
0.665919 0.131991 0.247074
0.813718 0.200931 0.207919
0.890684 0.291386 0.166995
0.952850 0.369451 0.106172
0.000000 0.157076 0.255528
0.066712 0.152773 0.265324
0.264012 0.141848 0.292821
0.488808 0.142611 0.265934
0.679438 0.177707 0.249821
0.816678 0.237644 0.209018
0.890745 0.313542 0.167239
0.952636 0.383215 0.103700
0.084474 0.263310 0.277501
0.136080 0.269871 0.285679
0.290715 0.284489 0.310521
0.522484 0.294347 0.291081
0.716487 0.314061 0.254887
0.826017 0.354772 0.213901
0.893400 0.397253 0.172671
0.954498 0.437934 0.094759
0.325170 0.420508 0.366613
0.353735 0.431891 0.382818
0.441688 0.474372 0.428717
0.466835 0.414435 0.347753
0.723354 0.487373 0.281712
0.821225 0.500420 0.240177
0.888365 0.504631 0.191379
0.952422 0.518303 0.090517
0.557336 0.598566 0.528313
0.564904 0.603113 0.532647
0.595514 0.621942 0.551354
0.603967 0.603357 0.517113
0.572015 0.503014 0.404883
0.767239 0.576349 0.344854
0.874876 0.611780 0.269444
0.943236 0.620661 0.209812
0.663325 0.696895 0.634668
0.667353 0.699855 0.638239
0.679042 0.708095 0.647425
0.694118 0.715541 0.652705
0.685481 0.678279 0.588128
0.661219 0.589868 0.471626
0.799588 0.644617 0.428443
0.915801 0.687984 0.347539
0.725673 0.771054 0.712581
0.727596 0.772580 0.714260
0.735317 0.778622 0.720943
0.750149 0.789944 0.733761
0.753262 0.780697 0.715633
0.744594 0.742397 0.656641
0.726497 0.667872 0.554192
0.838071 0.715358 0.526116
0.783505 0.836698 0.789212
0.784726 0.837461 0.790158
0.789944 0.840818 0.794308
0.800107 0.847257 0.802426
0.814664 0.856168 0.813748
0.810208 0.840238 0.783444
0.807340 0.811643 0.729305
0.797238 0.757290 0.657130
0.000000 0.157412 0.372992
0.000000 0.157687 0.382910
0.227939 0.143893 0.420508
0.503960 0.094209 0.418067
0.697780 0.173159 0.383093
0.779965 0.266728 0.357885
0.858762 0.350927 0.341131
0.927428 0.417762 0.319860
0.000000 0.192355 0.384588
0.000000 0.192477 0.393774
0.251072 0.182528 0.429023
0.517479 0.163973 0.423407
0.694331 0.222995 0.388006
0.771939 0.308446 0.370336
0.859220 0.368322 0.344091
0.927489 0.429084 0.321782
0.118410 0.313207 0.392523
0.162600 0.318364 0.403815
0.301061 0.314916 0.440681
0.538415 0.328923 0.438575
0.675319 0.344732 0.402747
0.780636 0.391272 0.383642
0.860166 0.429664 0.354284
0.927337 0.469947 0.327367
0.278080 0.443153 0.416266
0.308415 0.447364 0.422065
0.412268 0.464912 0.446937
0.560754 0.497871 0.461585
0.701228 0.505394 0.438117
0.794125 0.514336 0.407019
0.863188 0.523919 0.375982
0.930388 0.537377 0.338018
0.522850 0.578637 0.515892
0.535454 0.584283 0.524895
0.581628 0.606348 0.559899
0.622034 0.626764 0.578302
0.617914 0.557305 0.482551
0.773892 0.609277 0.450538
0.859709 0.624353 0.418250
0.928985 0.623102 0.372320
0.651606 0.685389 0.632288
0.656367 0.687770 0.636927
0.671077 0.696895 0.650080
0.693172 0.714382 0.667933
0.689021 0.688960 0.626459
0.666102 0.605890 0.516838
0.807675 0.667201 0.493721
0.916197 0.703334 0.444007
0.719295 0.763394 0.713466
0.721645 0.764828 0.715999
0.728786 0.770718 0.722133
0.744472 0.783658 0.736202
0.760769 0.792935 0.744137
0.748257 0.752712 0.682338
0.725795 0.674922 0.580438
0.846006 0.728023 0.558129
0.773556 0.829374 0.783841
0.775814 0.830564 0.786221
0.782712 0.834806 0.792447
0.794949 0.843137 0.802670
0.811460 0.853788 0.815824
0.815579 0.848722 0.803586
0.808835 0.818173 0.747616
0.796750 0.759579 0.667140
0.000000 0.217441 0.505119
0.000000 0.218418 0.511772
0.227054 0.213657 0.535821
0.546380 0.141634 0.578973
0.709407 0.237186 0.537682
0.798856 0.343847 0.499916
0.843778 0.388220 0.461646
0.885679 0.479011 0.476478
0.000000 0.247593 0.507256
0.000000 0.247929 0.512688
0.249760 0.244266 0.535180
0.549493 0.195407 0.576532
0.705959 0.277256 0.536980
0.793149 0.363195 0.500175
0.837919 0.404669 0.465461
0.885649 0.485206 0.477028
0.188266 0.371252 0.512657
0.225589 0.373602 0.520043
0.324743 0.360388 0.541894
0.564752 0.348028 0.578668
0.699519 0.404547 0.546136
0.775662 0.436439 0.509422
0.814420 0.478645 0.493996
0.888182 0.517601 0.486213
0.316838 0.494667 0.518212
0.341375 0.496437 0.521233
0.428656 0.504082 0.535027
0.563500 0.515740 0.579187
0.682307 0.535119 0.562737
0.744167 0.538567 0.536675
0.821988 0.552697 0.518303
0.894499 0.572320 0.503258
0.479652 0.576074 0.531243
0.492348 0.578088 0.534874
0.539055 0.590082 0.552392
0.610193 0.618738 0.594446
0.673518 0.624750 0.581170
0.763027 0.631800 0.563897
0.833463 0.630488 0.540887
0.904204 0.632258 0.514672
0.627283 0.671443 0.618067
0.633112 0.674342 0.623255
0.652674 0.684047 0.641108
0.683955 0.702419 0.671565
0.702296 0.711757 0.676448
0.695674 0.651087 0.588373
0.824552 0.699825 0.575097
0.908721 0.710597 0.548516
0.702632 0.751614 0.701442
0.705440 0.753506 0.704402
0.716182 0.760342 0.715846
0.737179 0.774319 0.738643
0.760891 0.794705 0.760555
0.757565 0.772763 0.724086
0.727443 0.687587 0.616876
0.862425 0.749447 0.606806
0.757351 0.820249 0.771145
0.759060 0.821103 0.772885
0.766964 0.825376 0.780972
0.783261 0.834501 0.797574
0.803311 0.847623 0.815152
0.827237 0.863188 0.833982
0.813413 0.830289 0.777005
0.797482 0.764858 0.684108
0.000000 0.298833 0.613703
0.000000 0.300206 0.618250
0.291966 0.298558 0.632074
0.524437 0.284215 0.658289
0.731258 0.285679 0.676448
0.803006 0.405554 0.628809
0.847654 0.480568 0.595819
0.884092 0.504509 0.565270
0.000000 0.319615 0.609674
0.118318 0.321569 0.614374
0.305272 0.320470 0.628260
0.523339 0.308446 0.653590
0.725521 0.310033 0.671870
0.797024 0.416449 0.624659
0.841978 0.481819 0.590906
0.879423 0.503716 0.560815
0.267460 0.424689 0.610559
0.278874 0.419104 0.614343
0.362341 0.410101 0.627802
0.537133 0.408942 0.652003
0.717067 0.415869 0.670954
0.783932 0.488716 0.629633
0.830686 0.524132 0.599451
0.872343 0.537163 0.572808
0.365911 0.519432 0.596429
0.383185 0.521996 0.600610
0.451453 0.532586 0.619074
0.547784 0.532219 0.647974
0.700282 0.540459 0.672969
0.764614 0.581781 0.644312
0.812222 0.580896 0.612909
0.851469 0.596124 0.599908
0.448157 0.616388 0.612268
0.457832 0.615991 0.612879
0.499245 0.616938 0.618585
0.568139 0.619898 0.631678
0.667720 0.633051 0.669398
0.738338 0.641138 0.651759
0.785550 0.636500 0.629480
0.861173 0.648402 0.621546
0.572808 0.665003 0.618952
0.578790 0.665980 0.621118
0.601221 0.669734 0.629755
0.638605 0.679835 0.647944
0.683436 0.697627 0.677760
0.734737 0.707515 0.676539
0.813046 0.712703 0.662501
0.881254 0.710323 0.644312
0.674434 0.731655 0.679347
0.677211 0.733394 0.682094
0.688045 0.739834 0.692805
0.709407 0.753170 0.714656
0.741360 0.774472 0.748684
0.771511 0.796628 0.774075
0.750088 0.723445 0.673335
0.886259 0.773495 0.667933
0.735531 0.806332 0.753719
0.737514 0.807492 0.755856
0.746487 0.812802 0.765286
0.762905 0.822049 0.781979
0.788205 0.836393 0.807095
0.818631 0.856077 0.834714
0.825376 0.851316 0.821561
0.798489 0.773465 0.710414
0.272923 0.402899 0.700557
0.301946 0.403662 0.702693
0.395361 0.401404 0.708949
0.540612 0.398932 0.723659
0.703731 0.394232 0.746365
0.818387 0.438666 0.748226
0.858793 0.533440 0.709255
0.899382 0.591058 0.692256
0.282414 0.415656 0.697353
0.309575 0.416541 0.699519
0.399695 0.415412 0.706416
0.539330 0.413184 0.720882
0.699519 0.409888 0.743587
0.814511 0.450507 0.746273
0.855558 0.539513 0.708034
0.897002 0.593652 0.691402
0.353979 0.482033 0.691279
0.361730 0.477394 0.693660
0.421088 0.471290 0.701015
0.543725 0.475349 0.717006
0.688777 0.476081 0.739590
0.803037 0.503410 0.745022
0.846952 0.574395 0.712001
0.890532 0.610773 0.693904
0.408942 0.554833 0.676692
0.424445 0.556939 0.679652
0.480964 0.563500 0.690547
0.544030 0.553429 0.708278
0.668147 0.560754 0.732876
0.784909 0.579034 0.746944
0.835721 0.626368 0.722469
0.880980 0.638178 0.699031
0.432837 0.617670 0.667414
0.442267 0.617395 0.668421
0.474556 0.613336 0.670558
0.552422 0.623194 0.688228
0.639734 0.632685 0.721218
0.761715 0.646754 0.752224
0.822934 0.673457 0.733394
0.869383 0.667048 0.703243
0.512657 0.696864 0.686030
0.517510 0.696315 0.686336
0.538537 0.694759 0.688380
0.578363 0.693111 0.694179
0.631983 0.691402 0.705318
0.719631 0.707576 0.751339
0.806088 0.722744 0.747494
0.854582 0.703090 0.711147
0.615473 0.737636 0.694575
0.618006 0.737911 0.695430
0.628656 0.739223 0.699306
0.649104 0.742855 0.707912
0.680415 0.749630 0.722744
0.723323 0.761685 0.746487
0.785580 0.776333 0.765347
0.860655 0.771542 0.747036
0.694453 0.790463 0.728420
0.696132 0.790860 0.729458
0.703853 0.793240 0.734768
0.722377 0.798611 0.748592
0.748653 0.811124 0.773404
0.784848 0.831327 0.808713
0.832242 0.861692 0.852354
0.814481 0.807034 0.774289
