20 Preset/Movie Style Preset/【3】LUT for PR-AE-FCPX/Movie - LUT  (11).cube
# Created by Adobe Lightroom plugin Export LUT (1.24.0)
# www.johnrellis.com/lightroom/exportlut.htm
# Preset: 电影质感11（修改版）
# Color profile: C:\Program Files (x86)\Common Files\Adobe\Color\Profiles\Recommended\VideoHD.icc
LUT_3D_SIZE 5
DOMAIN_MIN 0.000000 0.000000 0.000000
DOMAIN_MAX 0.903226 0.903226 0.903226
0.080262 0.094423 0.108461
0.190127 0.105257 0.104799
0.627039 0.000000 0.000000
0.870787 0.193393 0.000000
0.973571 0.344976 0.000000
0.111208 0.160220 0.147189
0.148348 0.152377 0.136477
0.669520 0.243015 0.000000
0.871336 0.302647 0.000000
0.974182 0.398169 0.000000
0.443275 0.525170 0.395453
0.485573 0.540703 0.406531
0.461646 0.390234 0.250675
0.842741 0.518547 0.000000
0.962982 0.555596 0.000000
0.678798 0.719844 0.638849
0.688808 0.726589 0.646540
0.698177 0.712123 0.615106
0.674983 0.591821 0.431617
0.894682 0.679835 0.305638
0.785733 0.839139 0.785000
0.790158 0.841855 0.788479
0.805814 0.850584 0.799619
0.804166 0.825437 0.749447
0.795560 0.751614 0.641474
0.075166 0.102541 0.140505
0.179751 0.101167 0.147555
0.604150 0.000000 0.110903
0.856687 0.202029 0.000000
0.965576 0.343633 0.000000
0.120546 0.177157 0.176761
0.180911 0.189151 0.178561
0.652216 0.243565 0.074281
0.861631 0.304234 0.000000
0.966064 0.394812 0.000000
0.454231 0.523156 0.420294
0.499947 0.545617 0.439765
0.471351 0.404273 0.286564
0.838834 0.526482 0.000000
0.958434 0.558282 0.000000
0.680232 0.719203 0.645167
0.690120 0.726223 0.652888
0.700649 0.715297 0.628199
0.676051 0.596979 0.449928
0.894408 0.684749 0.338598
0.785458 0.838621 0.786557
0.789853 0.841337 0.790036
0.807645 0.852140 0.803922
0.806302 0.828702 0.757168
0.797116 0.754696 0.647944
0.000000 0.136019 0.303075
0.173709 0.127626 0.343633
0.608484 0.089174 0.320043
0.818967 0.258152 0.279911
0.942626 0.388983 0.223575
0.079011 0.256352 0.326329
0.225132 0.254765 0.368475
0.600061 0.271519 0.339391
0.825437 0.350378 0.289464
0.942931 0.435920 0.227909
0.434333 0.508751 0.445747
0.504662 0.538354 0.490761
0.556115 0.493965 0.419440
0.822080 0.570459 0.345983
0.940856 0.573754 0.260960
0.679133 0.712764 0.658900
0.688075 0.719600 0.665766
0.710506 0.729519 0.670436
0.681392 0.616846 0.510582
0.898772 0.703365 0.434363
0.779751 0.833433 0.787747
0.784970 0.836942 0.792050
0.804868 0.849821 0.808072
0.810391 0.837400 0.780514
0.796231 0.757351 0.660517
0.000000 0.234043 0.531914
0.158022 0.233494 0.551720
0.652766 0.173709 0.601160
0.812528 0.379004 0.523644
0.872618 0.489784 0.503899
0.143221 0.348547 0.537316
0.262119 0.336980 0.555505
0.655085 0.329656 0.601770
0.796201 0.439429 0.529503
0.874266 0.515709 0.510491
0.379217 0.553460 0.545983
0.442023 0.557855 0.555077
0.629725 0.575860 0.603723
0.758175 0.580407 0.560235
0.886931 0.603906 0.536767
0.644007 0.688441 0.637507
0.658717 0.695613 0.651026
0.707301 0.728054 0.698878
0.709071 0.670222 0.612329
0.903471 0.729519 0.583795
0.752987 0.817655 0.767941
0.760250 0.821592 0.775357
0.790829 0.838834 0.806363
0.827909 0.861936 0.833066
0.797757 0.766720 0.689662
0.272923 0.402899 0.700557
0.366033 0.401862 0.706691
0.621424 0.396887 0.734066
0.830655 0.459419 0.738796
0.899382 0.591058 0.692256
0.329137 0.460212 0.694087
0.391730 0.455482 0.701015
0.615564 0.456245 0.728450
0.818967 0.504051 0.736416
0.892973 0.606256 0.693812
0.410101 0.578119 0.665217
0.458289 0.584314 0.674861
0.593774 0.592432 0.712398
0.789548 0.619135 0.743282
0.875242 0.651972 0.700893
0.538262 0.716121 0.695125
0.555200 0.715358 0.697292
0.618036 0.714595 0.708980
0.739956 0.725734 0.759670
0.845090 0.717494 0.717433
0.694453 0.790463 0.728420
0.701198 0.792386 0.732906
0.734768 0.803708 0.759609
0.795956 0.837827 0.819272
0.814481 0.807034 0.774289
