20 Preset/Movie Style Preset/【3】LUT for PR-AE-FCPX/Movie - LUT  (10).cube
# Created by Adobe Lightroom plugin Export LUT (1.24.0)
# www.johnrellis.com/lightroom/exportlut.htm
# Preset: 电影质感10（修改版）
# Color profile: C:\Program Files (x86)\Common Files\Adobe\Color\Profiles\Recommended\VideoHD.icc
LUT_3D_SIZE 32
DOMAIN_MIN 0.0 0.0 0.0
DOMAIN_MAX 1.0 1.0 1.0
0.080262 0.094423 0.108461
0.082765 0.094270 0.108461
0.090059 0.094881 0.108309
0.100404 0.096071 0.107973
0.123964 0.098573 0.107179
0.170108 0.101747 0.105715
0.235874 0.103731 0.102541
0.316869 0.098207 0.097078
0.411200 0.062928 0.087892
0.505211 0.000000 0.061830
0.590784 0.000000 0.023651
0.664057 0.000000 0.000000
0.723751 0.000000 0.000000
0.772671 0.000000 0.000000
0.812955 0.000000 0.000000
0.847623 0.037751 0.000000
0.874205 0.128389 0.000000
0.895476 0.169162 0.000000
0.914366 0.201999 0.000000
0.931640 0.232486 0.000000
0.947448 0.259495 0.000000
0.961700 0.284306 0.000000
0.974517 0.306615 0.000000
0.986603 0.327153 0.000000
0.998108 0.346166 0.000000
1.000000 0.363897 0.000000
1.000000 0.380591 0.000000
1.000000 0.396094 0.000000
1.000000 0.410681 0.000000
1.000000 0.424353 0.000000
1.000000 0.437324 0.000000
1.000000 0.449531 0.000000
0.080415 0.095155 0.108705
0.081697 0.095094 0.108705
0.090639 0.095979 0.108492
0.100587 0.096803 0.107881
0.124819 0.099550 0.107393
0.171603 0.103548 0.105440
0.237034 0.105379 0.102205
0.317113 0.100313 0.096742
0.411048 0.072328 0.087129
0.504753 0.000000 0.060670
0.589837 0.000000 0.022278
0.662837 0.000000 0.000000
0.722621 0.000000 0.000000
0.771511 0.000000 0.000000
0.811948 0.000000 0.000000
0.846372 0.048646 0.000000
0.872892 0.130251 0.000000
0.894194 0.169436 0.000000
0.913024 0.202274 0.000000
0.930266 0.231754 0.000000
0.946044 0.258915 0.000000
0.960327 0.283024 0.000000
0.973144 0.305394 0.000000
0.985290 0.325963 0.000000
0.996826 0.345068 0.000000
1.000000 0.362676 0.000000
1.000000 0.379248 0.000000
1.000000 0.395026 0.000000
1.000000 0.409674 0.000000
1.000000 0.423438 0.000000
1.000000 0.436469 0.000000
1.000000 0.448676 0.000000
0.083925 0.097932 0.111238
0.084535 0.098268 0.111513
0.087861 0.098451 0.111452
0.101198 0.101167 0.109041
0.127779 0.105104 0.107942
0.176333 0.110445 0.105653
0.243076 0.113985 0.101625
0.324071 0.110872 0.095155
0.418372 0.094423 0.083192
0.510948 0.018036 0.052491
0.595026 0.000000 0.013458
0.666316 0.000000 0.000000
0.724727 0.000000 0.000000
0.772763 0.000000 0.000000
0.812924 0.000000 0.000000
0.846311 0.098573 0.000000
0.872404 0.145052 0.000000
0.893492 0.179477 0.000000
0.912261 0.209628 0.000000
0.929473 0.237827 0.000000
0.945281 0.263645 0.000000
0.959533 0.287327 0.000000
0.972412 0.308782 0.000000
0.984588 0.328649 0.000000
0.996094 0.347356 0.000000
1.000000 0.364569 0.000000
1.000000 0.381079 0.000000
1.000000 0.396521 0.000000
1.000000 0.410925 0.000000
1.000000 0.424689 0.000000
1.000000 0.437476 0.000000
1.000000 0.449561 0.000000
0.088808 0.104280 0.116335
0.088563 0.104646 0.116274
0.090883 0.105104 0.116487
0.095491 0.105348 0.116091
0.130526 0.115480 0.110353
0.185916 0.126925 0.105348
0.254459 0.132662 0.100404
0.335851 0.132998 0.092714
0.429999 0.122499 0.075685
0.520256 0.100343 0.039826
0.602167 0.040101 0.000000
0.671229 0.000000 0.000000
0.728450 0.000000 0.000000
0.775357 0.021149 0.000000
0.814878 0.100221 0.000000
0.846891 0.140108 0.000000
0.872129 0.171633 0.000000
0.892729 0.199405 0.000000
0.911223 0.225132 0.000000
0.928130 0.249760 0.000000
0.943786 0.273014 0.000000
0.958007 0.295140 0.000000
0.971008 0.315373 0.000000
0.983276 0.334447 0.000000
0.994995 0.352605 0.000000
1.000000 0.369512 0.000000
1.000000 0.385657 0.000000
1.000000 0.400549 0.000000
1.000000 0.414649 0.000000
1.000000 0.427985 0.000000
1.000000 0.440467 0.000000
1.000000 0.452247 0.000000
0.095186 0.118776 0.125246
0.095613 0.119020 0.125216
0.097597 0.120821 0.126040
0.103548 0.120943 0.124300
0.112215 0.119265 0.123018
0.176730 0.140536 0.111147
0.264927 0.160678 0.097078
0.353765 0.167391 0.083314
0.446143 0.162051 0.051270
0.533379 0.150607 0.013214
0.611292 0.135805 0.000000
0.677668 0.126192 0.000000
0.732265 0.127352 0.000000
0.777707 0.140536 0.000000
0.816251 0.162325 0.000000
0.846708 0.186282 0.000000
0.871397 0.207919 0.000000
0.891722 0.228916 0.000000
0.910124 0.249760 0.000000
0.927092 0.270481 0.000000
0.942718 0.290929 0.000000
0.956970 0.310216 0.000000
0.970031 0.328466 0.000000
0.982452 0.345892 0.000000
0.994354 0.362402 0.000000
1.000000 0.378424 0.000000
1.000000 0.393408 0.000000
1.000000 0.407568 0.000000
1.000000 0.420844 0.000000
1.000000 0.433509 0.000000
1.000000 0.445319 0.000000
1.000000 0.456611 0.000000
0.106233 0.147768 0.140017
0.106691 0.148379 0.140139
0.110231 0.151003 0.141085
0.117708 0.152102 0.139895
0.128878 0.149660 0.135134
0.140261 0.141909 0.131899
0.231205 0.172763 0.111757
0.358465 0.200381 0.070527
0.468879 0.213382 0.002960
0.552392 0.206210 0.000000
0.625635 0.198611 0.000000
0.687739 0.195163 0.000000
0.739040 0.197574 0.000000
0.782803 0.207187 0.000000
0.818845 0.221195 0.000000
0.847837 0.235874 0.000000
0.871427 0.250980 0.000000
0.891386 0.265873 0.000000
0.909606 0.281895 0.000000
0.926390 0.298619 0.000000
0.941894 0.315679 0.000000
0.956023 0.332250 0.000000
0.975647 0.358770 0.000000
0.987610 0.373419 0.000000
0.999054 0.387213 0.000000
1.000000 0.400488 0.000000
1.000000 0.413001 0.000000
1.000000 0.424933 0.000000
1.000000 0.436286 0.000000
1.000000 0.447211 0.000000
1.000000 0.457679 0.000000
1.000000 0.467597 0.000000
0.126955 0.197421 0.165194
0.128084 0.198184 0.165591
0.132601 0.201480 0.166934
0.142580 0.207126 0.168276
0.155306 0.201144 0.160311
0.170535 0.191379 0.150515
0.180209 0.173953 0.144686
0.300145 0.213504 0.113344
0.449012 0.243626 0.018097
0.566033 0.261173 0.000000
0.648188 0.269596 0.000000
0.704311 0.267491 0.000000
0.752316 0.269871 0.000000
0.793637 0.277104 0.000000
0.826383 0.285222 0.000000
0.852750 0.293645 0.000000
0.874662 0.302434 0.000000
0.893858 0.312230 0.000000
0.911589 0.323980 0.000000
0.928191 0.336767 0.000000
0.943725 0.350408 0.000000
0.958007 0.364080 0.000000
0.971344 0.377752 0.000000
0.983978 0.391089 0.000000
0.996033 0.403632 0.000000
1.000000 0.415686 0.000000
1.000000 0.426703 0.000000
1.000000 0.437385 0.000000
1.000000 0.447669 0.000000
1.000000 0.457313 0.000000
1.000000 0.466621 0.000000
1.000000 0.475471 0.000000
0.163149 0.260533 0.199039
0.164401 0.261570 0.199649
0.169955 0.265171 0.201083
0.182467 0.273198 0.204471
0.195529 0.268376 0.197024
0.209659 0.255497 0.183597
0.220218 0.235874 0.169558
0.226627 0.210269 0.160220
0.369390 0.255650 0.120119
0.518303 0.286717 0.000000
0.635279 0.311498 0.000000
0.709560 0.333806 0.000000
0.759274 0.340673 0.000000
0.796231 0.342321 0.000000
0.826413 0.344396 0.000000
0.851255 0.347021 0.000000
0.872251 0.350835 0.000000
0.891234 0.356146 0.000000
0.908873 0.363409 0.000000
0.925322 0.372351 0.000000
0.940734 0.382391 0.000000
0.954986 0.392737 0.000000
0.968353 0.403326 0.000000
0.981079 0.414069 0.000000
0.993164 0.424506 0.000000
1.000000 0.434363 0.000000
1.000000 0.443946 0.000000
1.000000 0.452918 0.000000
1.000000 0.461830 0.000000
1.000000 0.470375 0.000000
1.000000 0.478614 0.000000
1.000000 0.486610 0.000000
0.223880 0.337896 0.243381
0.225834 0.339147 0.243931
0.232273 0.342504 0.245609
0.246433 0.350347 0.249577
0.261723 0.351507 0.246738
0.271885 0.336095 0.230076
0.282322 0.316014 0.211002
0.281773 0.284154 0.192447
0.281865 0.251347 0.179110
0.439918 0.300328 0.132815
0.580896 0.335149 0.000000
0.687800 0.365606 0.000000
0.751675 0.389044 0.000000
0.797513 0.408179 0.000000
0.825650 0.404974 0.000000
0.849271 0.402655 0.000000
0.869749 0.401801 0.000000
0.888548 0.403204 0.000000
0.906035 0.406592 0.000000
0.922423 0.411719 0.000000
0.937713 0.418158 0.000000
0.951873 0.425299 0.000000
0.965270 0.432807 0.000000
0.978058 0.440742 0.000000
0.990265 0.448676 0.000000
1.000000 0.456489 0.000000
1.000000 0.464027 0.000000
1.000000 0.471534 0.000000
1.000000 0.478950 0.000000
1.000000 0.486152 0.000000
1.000000 0.493263 0.000000
1.000000 0.500114 0.000000
0.310643 0.418189 0.299779
0.312169 0.419013 0.300359
0.318303 0.421790 0.302220
0.331884 0.428290 0.306584
0.350317 0.435981 0.311254
0.353735 0.421332 0.291936
0.358770 0.401526 0.268223
0.364935 0.376989 0.242679
0.353582 0.335760 0.218967
0.347784 0.296300 0.201144
0.504997 0.346929 0.152102
0.629053 0.382605 0.010163
0.719905 0.413062 0.000000
0.779965 0.436194 0.000000
0.818479 0.452552 0.000000
0.845914 0.457618 0.000000
0.866392 0.453498 0.000000
0.885374 0.451575 0.000000
0.902922 0.451667 0.000000
0.919280 0.453468 0.000000
0.934478 0.456306 0.000000
0.948486 0.459968 0.000000
0.961700 0.464363 0.000000
0.974395 0.469337 0.000000
0.986542 0.474617 0.000000
0.998169 0.480232 0.000000
1.000000 0.485908 0.000000
1.000000 0.491737 0.000000
1.000000 0.497719 0.000000
1.000000 0.503655 0.000000
1.000000 0.509575 0.000000
1.000000 0.515465 0.000000
0.401526 0.489937 0.361975
0.402655 0.490517 0.362493
0.408423 0.493233 0.364752
0.419440 0.498634 0.369116
0.436439 0.506676 0.375891
0.442176 0.500542 0.365057
0.442939 0.484108 0.342016
0.444068 0.462623 0.313848
0.444587 0.434668 0.280430
0.423468 0.385565 0.249302
0.414008 0.341314 0.224857
0.558648 0.391485 0.177310
0.665919 0.427680 0.093294
0.744839 0.456703 0.000000
0.801389 0.476844 0.000000
0.833982 0.489265 0.000000
0.861570 0.500755 0.000000
0.881621 0.499001 0.000000
0.899138 0.496254 0.000000
0.915435 0.494942 0.000000
0.930571 0.494789 0.000000
0.944610 0.495552 0.000000
0.957916 0.497475 0.000000
0.970642 0.499886 0.000000
0.982910 0.502922 0.000000
0.994659 0.506493 0.000000
1.000000 0.510369 0.000000
1.000000 0.514580 0.000000
1.000000 0.518944 0.000000
1.000000 0.523522 0.000000
1.000000 0.528222 0.000000
1.000000 0.533013 0.000000
0.486091 0.553185 0.426123
0.487098 0.553704 0.426703
0.490822 0.555474 0.428382
0.498817 0.559380 0.432258
0.510796 0.565423 0.438148
0.520287 0.566705 0.437232
0.518822 0.554040 0.416815
0.517021 0.536736 0.390478
0.515251 0.514305 0.358618
0.511894 0.485115 0.320867
0.484901 0.431434 0.282933
0.473152 0.384955 0.251957
0.614466 0.444892 0.214054
0.705470 0.480293 0.146761
0.771817 0.504997 0.000000
0.820218 0.519677 0.000000
0.852537 0.529717 0.000000
0.878233 0.540093 0.000000
0.900145 0.547265 0.000000
0.916045 0.543267 0.000000
0.930785 0.540215 0.000000
0.944488 0.538170 0.000000
0.957549 0.537041 0.000000
0.970031 0.537011 0.000000
0.982025 0.537591 0.000000
0.993591 0.538689 0.000000
1.000000 0.540185 0.000000
1.000000 0.542290 0.000000
1.000000 0.544762 0.000000
1.000000 0.547570 0.000000
1.000000 0.550622 0.000000
1.000000 0.554009 0.000000
0.558007 0.610101 0.491524
0.558434 0.610315 0.491707
0.560784 0.611475 0.492958
0.565850 0.614160 0.495766
0.573632 0.618067 0.500114
0.584222 0.623621 0.506218
0.582513 0.613977 0.489784
0.579889 0.600214 0.467170
0.577478 0.582818 0.439277
0.574456 0.560510 0.405035
0.567254 0.529778 0.365026
0.542565 0.478340 0.322789
0.531029 0.432013 0.285801
0.643702 0.479744 0.246555
0.725246 0.513359 0.191226
0.783749 0.534813 0.104829
0.827543 0.547143 0.000000
0.862425 0.556786 0.000000
0.886687 0.566278 0.000000
0.908537 0.575402 0.000000
0.925261 0.576013 0.000000
0.939055 0.572137 0.000000
0.952239 0.569238 0.000000
0.964904 0.567346 0.000000
0.977050 0.566217 0.000000
0.988739 0.565850 0.000000
1.000000 0.566003 0.000000
1.000000 0.566735 0.000000
1.000000 0.567926 0.000000
1.000000 0.569604 0.000000
1.000000 0.571557 0.000000
1.000000 0.573968 0.000000
0.602869 0.647852 0.539300
0.603082 0.648005 0.539391
0.604913 0.648829 0.540490
0.608240 0.650477 0.542504
0.613581 0.653254 0.545892
0.620966 0.657191 0.550866
0.624170 0.655177 0.545739
0.621881 0.645045 0.527214
0.619684 0.631983 0.504112
0.617487 0.615198 0.475807
0.614405 0.593622 0.441199
0.605035 0.562158 0.400610
0.582177 0.513115 0.355688
0.571283 0.468269 0.315679
0.669337 0.512871 0.282231
0.741421 0.543114 0.236667
0.793179 0.561334 0.177371
0.833860 0.572534 0.020935
0.869932 0.581659 0.000000
0.894285 0.590112 0.000000
0.914977 0.598016 0.000000
0.933806 0.605402 0.000000
0.947082 0.601251 0.000000
0.959869 0.597925 0.000000
0.972137 0.595361 0.000000
0.983948 0.593652 0.000000
0.995392 0.592493 0.000000
1.000000 0.591913 0.000000
1.000000 0.591913 0.000000
1.000000 0.592493 0.000000
1.000000 0.593500 0.000000
1.000000 0.595026 0.000000
0.637263 0.677333 0.581201
0.637507 0.677455 0.581384
0.638636 0.678004 0.582116
0.641077 0.679225 0.583795
0.644892 0.681209 0.586572
0.650202 0.684108 0.590509
0.656214 0.686976 0.594079
0.654108 0.679438 0.579095
0.651972 0.669856 0.560113
0.650263 0.657527 0.536858
0.648585 0.642023 0.508690
0.646296 0.621759 0.474128
0.635767 0.590204 0.433692
0.614771 0.543603 0.387274
0.604791 0.501335 0.344884
0.691127 0.542138 0.316655
0.754360 0.568933 0.279728
0.800381 0.584833 0.234287
0.839506 0.596002 0.166598
0.874327 0.604669 0.000000
0.901213 0.611933 0.000000
0.921111 0.619196 0.000000
0.939422 0.625818 0.000000
0.954772 0.627802 0.000000
0.967102 0.624048 0.000000
0.979004 0.621118 0.000000
0.990539 0.618860 0.000000
1.000000 0.617365 0.000000
1.000000 0.616419 0.000000
1.000000 0.616083 0.000000
1.000000 0.616358 0.000000
1.000000 0.617121 0.000000
0.663478 0.700832 0.616052
0.663783 0.701015 0.616297
0.664729 0.701534 0.616999
0.666529 0.702663 0.618402
0.669612 0.704494 0.620722
0.673793 0.707057 0.624018
0.679255 0.710597 0.628382
0.680232 0.707912 0.622797
0.678218 0.700160 0.608515
0.676295 0.690730 0.590295
0.674647 0.679133 0.567071
0.673182 0.664271 0.538598
0.671168 0.645228 0.504051
0.660487 0.614069 0.463416
0.641260 0.569909 0.416114
0.631952 0.529961 0.372992
0.708614 0.567163 0.349279
0.764218 0.590967 0.319280
0.806455 0.605768 0.282444
0.843900 0.617182 0.232059
0.877714 0.625818 0.152712
0.907744 0.632136 0.000000
0.927001 0.639063 0.000000
0.944915 0.645136 0.000000
0.961425 0.650507 0.000000
0.974029 0.648341 0.000000
0.985565 0.645258 0.000000
0.996826 0.642786 0.000000
1.000000 0.640955 0.000000
1.000000 0.639826 0.000000
1.000000 0.639246 0.000000
1.000000 0.638972 0.000000
0.684749 0.722194 0.644343
0.684962 0.722316 0.644495
0.685634 0.722805 0.645014
0.687160 0.723812 0.646174
0.689540 0.725460 0.648005
0.692897 0.727779 0.650660
0.697322 0.730861 0.654078
0.701320 0.732784 0.655604
0.699397 0.726009 0.644800
0.697261 0.717708 0.631067
0.695033 0.707790 0.613672
0.692988 0.695949 0.591699
0.691615 0.681819 0.563775
0.690120 0.664027 0.529686
0.679744 0.633875 0.490028
0.663416 0.592889 0.442939
0.655512 0.555810 0.399969
0.722957 0.589410 0.380804
0.772366 0.610803 0.356542
0.812192 0.625177 0.325475
0.848081 0.637018 0.286137
0.881071 0.646021 0.230655
0.911223 0.652186 0.138705
0.932830 0.657893 0.019135
0.950195 0.663508 0.000000
0.966278 0.668421 0.000000
0.980377 0.670893 0.000000
0.991608 0.667720 0.000000
1.000000 0.665248 0.000000
1.000000 0.663447 0.000000
1.000000 0.662165 0.000000
1.000000 0.661067 0.000000
0.702876 0.742367 0.668177
0.703029 0.742519 0.668299
0.707149 0.747005 0.673457
0.708339 0.747890 0.674372
0.710323 0.749294 0.675837
0.713069 0.751278 0.677974
0.716579 0.753841 0.680781
0.721126 0.757107 0.684291
0.721248 0.753658 0.678584
0.719295 0.746304 0.667628
0.717128 0.737575 0.654566
0.714595 0.727138 0.638178
0.711940 0.714809 0.617487
0.709438 0.700160 0.591119
0.707332 0.682612 0.557855
0.698024 0.654200 0.518944
0.684932 0.616876 0.472786
0.678706 0.582666 0.429969
0.736568 0.611780 0.414679
0.780667 0.630976 0.394873
0.818875 0.645533 0.368688
0.853422 0.657496 0.336828
0.885252 0.666529 0.294072
0.914549 0.672572 0.234806
0.938994 0.676753 0.170687
0.955688 0.681758 0.160189
0.971130 0.686152 0.148684
0.985412 0.690028 0.137606
0.997009 0.688991 0.132387
1.000000 0.686641 0.132113
1.000000 0.684474 0.131655
1.000000 0.682918 0.133455
0.719631 0.761837 0.690761
0.720027 0.762264 0.691279
0.720912 0.762997 0.692134
0.722255 0.764126 0.693355
0.724117 0.765530 0.694972
0.726558 0.767361 0.697017
0.729702 0.769619 0.699550
0.733547 0.772427 0.702693
0.736416 0.773342 0.703090
0.734585 0.767117 0.693355
0.732631 0.759640 0.681941
0.730434 0.750759 0.668635
0.727840 0.740108 0.652827
0.724971 0.727626 0.633173
0.722133 0.713130 0.608637
0.718441 0.694850 0.577600
0.710292 0.668238 0.539910
0.700008 0.634668 0.496071
0.695338 0.603265 0.454902
0.746365 0.629206 0.442878
0.787411 0.647761 0.426856
0.824216 0.662684 0.405158
0.857603 0.674861 0.379126
0.888426 0.683955 0.344823
0.917052 0.689967 0.299290
0.943786 0.693385 0.235264
0.960418 0.697993 0.227115
0.975341 0.702205 0.223636
0.989136 0.705989 0.221073
1.000000 0.708248 0.218875
1.000000 0.705684 0.219638
1.000000 0.703639 0.221866
0.733608 0.778042 0.710262
0.734035 0.778439 0.710750
0.734798 0.779110 0.711574
0.735988 0.780056 0.712703
0.737667 0.781369 0.714199
0.739803 0.782925 0.716060
0.742458 0.784878 0.718288
0.745815 0.787259 0.721126
0.749844 0.790097 0.724514
0.749477 0.786587 0.718471
0.747585 0.780209 0.708278
0.745602 0.772671 0.696407
0.743282 0.763699 0.682551
0.740688 0.753048 0.666743
0.737728 0.740627 0.648249
0.734615 0.726253 0.625299
0.729610 0.707485 0.596612
0.721492 0.681910 0.560998
0.713527 0.651575 0.519341
0.710323 0.623163 0.480262
0.755306 0.646052 0.470771
0.794278 0.664363 0.457649
0.829801 0.679408 0.439673
0.862028 0.691554 0.418555
0.891783 0.700587 0.390936
0.919677 0.706691 0.355077
0.945769 0.710292 0.307347
0.965118 0.713741 0.282414
0.979339 0.717678 0.282506
0.992401 0.721035 0.282658
1.000000 0.723964 0.283757
1.000000 0.723598 0.286351
0.746914 0.793118 0.729152
0.747219 0.793454 0.729580
0.747860 0.794034 0.730282
0.748928 0.794827 0.731258
0.750362 0.795895 0.732601
0.752224 0.797238 0.734218
0.754604 0.798917 0.736233
0.757504 0.800931 0.738705
0.761013 0.803372 0.741695
0.763485 0.804105 0.742031
0.761685 0.798703 0.733059
0.759731 0.792386 0.722591
0.757656 0.784848 0.710445
0.755398 0.775967 0.696376
0.752865 0.765469 0.680293
0.749966 0.753353 0.662287
0.746731 0.739315 0.641077
0.740902 0.720516 0.614862
0.732845 0.696223 0.582483
0.725887 0.668269 0.543633
0.724239 0.643000 0.507256
0.764950 0.664088 0.500053
0.802182 0.682246 0.489754
0.836454 0.697383 0.475654
0.867613 0.709438 0.458869
0.896452 0.718379 0.437446
0.923461 0.724636 0.409674
0.948608 0.728237 0.373205
0.970214 0.730343 0.337652
0.983642 0.734096 0.340764
0.995850 0.737301 0.344488
1.000000 0.740169 0.349035
0.760830 0.808499 0.749081
0.761044 0.808621 0.749294
0.761440 0.808957 0.749660
0.762203 0.809445 0.750332
0.763333 0.810239 0.751308
0.764858 0.811246 0.752560
0.766903 0.812619 0.754299
0.769467 0.814328 0.756405
0.772519 0.816403 0.758999
0.776211 0.818814 0.762081
0.775875 0.816129 0.757168
0.773953 0.810788 0.748135
0.771939 0.804501 0.737514
0.769802 0.797055 0.725216
0.767575 0.788357 0.711086
0.765164 0.778256 0.695003
0.762387 0.766476 0.676875
0.759274 0.752865 0.656672
0.752651 0.734310 0.632959
0.744472 0.711055 0.603418
0.737697 0.684840 0.567712
0.736446 0.661555 0.533745
0.774350 0.681331 0.527489
0.809751 0.698878 0.518853
0.842649 0.713588 0.507469
0.872709 0.725338 0.494209
0.900481 0.733852 0.476753
0.926329 0.739864 0.454505
0.950530 0.743587 0.426184
0.973144 0.745205 0.389960
0.986847 0.748409 0.389319
0.998169 0.751614 0.395819
0.772671 0.820920 0.765621
0.772854 0.821042 0.765774
0.773220 0.821317 0.766110
0.773892 0.821775 0.766720
0.774868 0.822416 0.767575
0.776242 0.823331 0.768673
0.778042 0.824491 0.770169
0.780270 0.825956 0.772000
0.783017 0.827726 0.774289
0.786313 0.829801 0.776944
0.788876 0.830930 0.778073
0.787015 0.826474 0.770413
0.785000 0.821225 0.761440
0.782925 0.815091 0.750912
0.780819 0.807919 0.738766
0.778683 0.799557 0.724819
0.776425 0.789944 0.708980
0.773983 0.778805 0.691157
0.771237 0.765896 0.671260
0.764248 0.747707 0.649592
0.756252 0.725795 0.623041
0.749752 0.701747 0.591516
0.748653 0.680476 0.560662
0.784329 0.699306 0.555383
0.817472 0.714961 0.546502
0.848783 0.728878 0.537102
0.877775 0.739925 0.525963
0.904448 0.748348 0.512474
0.929381 0.754360 0.495033
0.952453 0.758236 0.473304
0.973938 0.760220 0.446326
0.989563 0.762356 0.435492
0.784756 0.833097 0.782040
0.784970 0.833249 0.782284
0.785275 0.833463 0.782559
0.785824 0.833768 0.782986
0.786618 0.834257 0.783566
0.787747 0.834958 0.784451
0.789212 0.835843 0.785580
0.791073 0.836973 0.787015
0.793362 0.838376 0.788815
0.796109 0.840055 0.790982
0.799222 0.841978 0.793454
0.799374 0.840391 0.790341
0.797421 0.835935 0.782712
0.795315 0.830808 0.773800
0.793179 0.824735 0.763363
0.791043 0.817777 0.751369
0.788907 0.809751 0.737606
0.786801 0.800565 0.722103
0.784665 0.790066 0.704677
0.782315 0.778012 0.685359
0.775479 0.760464 0.664637
0.767788 0.739956 0.640864
0.761593 0.717739 0.612787
0.760311 0.698299 0.585382
0.793484 0.715389 0.580102
0.825528 0.731044 0.573693
0.855375 0.744076 0.566125
0.883330 0.754665 0.557336
0.908995 0.762844 0.546807
0.932677 0.768795 0.533684
0.954467 0.772793 0.517571
0.974334 0.775113 0.498665
0.795102 0.843107 0.795712
0.795285 0.843229 0.795926
0.795621 0.843442 0.796201
0.796078 0.843778 0.796597
0.796841 0.844236 0.797208
0.797910 0.844846 0.798032
0.799283 0.845701 0.799100
0.801022 0.846769 0.800504
0.803159 0.848051 0.802182
0.805631 0.849546 0.804166
0.808469 0.851255 0.806424
0.811551 0.853025 0.808774
0.809781 0.849424 0.802457
0.807858 0.845212 0.795041
0.805844 0.840299 0.786404
0.803799 0.834592 0.776455
0.801755 0.828061 0.764981
0.799832 0.820584 0.751919
0.797910 0.812039 0.737026
0.796048 0.802213 0.720119
0.793545 0.790555 0.701289
0.787289 0.774044 0.681025
0.780179 0.754879 0.658747
0.774441 0.734707 0.634302
0.773342 0.717494 0.610834
0.804257 0.733089 0.606165
0.834623 0.747616 0.600885
0.863127 0.759792 0.595148
0.889921 0.770138 0.589044
0.914183 0.778164 0.582177
0.936217 0.784146 0.573632
0.956085 0.788388 0.563653
0.805722 0.852934 0.809384
0.805814 0.852995 0.809445
0.806058 0.853147 0.809659
0.806516 0.853391 0.809995
0.807126 0.853788 0.810513
0.808072 0.854307 0.811215
0.809232 0.855009 0.812161
0.810788 0.855894 0.813321
0.812619 0.856992 0.814786
0.814847 0.858244 0.816495
0.817319 0.859709 0.818448
0.820157 0.861357 0.820676
0.821317 0.861173 0.819883
0.819577 0.857755 0.813779
0.817624 0.853696 0.806516
0.815671 0.849058 0.798245
0.813718 0.843687 0.788724
0.811826 0.837522 0.777768
0.809995 0.830594 0.765347
0.808377 0.822629 0.751186
0.806851 0.813626 0.735164
0.804410 0.802548 0.717281
0.798856 0.787350 0.697841
0.792630 0.769650 0.676295
0.787716 0.751492 0.654566
0.786923 0.736355 0.634730
0.815549 0.750149 0.630304
0.844266 0.763455 0.625940
0.871214 0.774685 0.621485
0.896635 0.784665 0.617700
0.919249 0.792569 0.614069
0.939391 0.798672 0.609827
0.815640 0.861723 0.821836
0.815702 0.861784 0.821927
0.815946 0.861906 0.822110
0.816342 0.862150 0.822416
0.816922 0.862516 0.822904
0.817777 0.863005 0.823575
0.818967 0.863676 0.824521
0.820432 0.864561 0.825742
0.822232 0.865599 0.827176
0.824277 0.866789 0.828855
0.826658 0.868162 0.830747
0.829221 0.869657 0.832822
0.832029 0.871244 0.835080
0.831571 0.869566 0.831785
0.829984 0.866453 0.826078
0.828244 0.862791 0.819394
0.826505 0.858579 0.811704
0.824765 0.853758 0.802884
0.823178 0.848295 0.792905
0.821714 0.842069 0.781491
0.820462 0.835019 0.768551
0.819394 0.827024 0.753811
0.817136 0.816831 0.737240
0.812497 0.803159 0.719051
0.807401 0.787350 0.698817
0.803861 0.771359 0.678492
0.803861 0.758358 0.661524
0.830167 0.770230 0.657588
0.856992 0.781979 0.653986
0.881682 0.791867 0.650721
0.905150 0.801297 0.649378
0.925536 0.808896 0.648737
0.826200 0.870634 0.834867
0.826261 0.870634 0.834867
0.826383 0.870726 0.834989
0.826688 0.870878 0.835203
0.827176 0.871153 0.835569
0.827878 0.871519 0.836088
0.828794 0.872038 0.836790
0.829953 0.872679 0.837705
0.831388 0.873472 0.838773
0.833066 0.874388 0.840085
0.834989 0.875425 0.841581
0.837125 0.876585 0.843229
0.839506 0.877867 0.845029
0.841642 0.878874 0.846372
