20 Preset/Movie Style Preset/【3】LUT for PR-AE-FCPX/Movie - LUT  (4).cube
# Created by Adobe Lightroom plugin Export LUT (1.24.0)
# www.johnrellis.com/lightroom/exportlut.htm
# Preset: 电影质感04（修改版）
# Color profile: C:\Program Files (x86)\Common Files\Adobe\Color\Profiles\Recommended\VideoHD.icc
LUT_3D_SIZE 5
DOMAIN_MIN 0.000000 0.000000 0.000000
DOMAIN_MAX 0.903226 0.903226 0.903226
0.080262 0.094423 0.108461
0.192477 0.103578 0.105226
0.628656 0.000000 0.010559
0.872892 0.136751 0.000000
0.976989 0.310674 0.000000
0.112764 0.168154 0.153048
0.152071 0.161563 0.142550
0.662562 0.230350 0.000000
0.871733 0.279545 0.000000
0.976074 0.374517 0.000000
0.465492 0.544244 0.427131
0.513390 0.566949 0.449104
0.496742 0.440009 0.301091
0.841337 0.529046 0.000000
0.959106 0.555505 0.000000
0.687526 0.730922 0.659266
0.697322 0.738277 0.667079
0.719539 0.745235 0.669184
0.692042 0.635676 0.501976
0.887236 0.687495 0.360632
0.792630 0.846403 0.799100
0.797116 0.849241 0.802792
0.812985 0.858366 0.814817
0.818051 0.847410 0.790738
0.803372 0.777646 0.681453
0.068544 0.107851 0.154635
0.186007 0.100038 0.174380
0.588251 0.000000 0.157321
0.853147 0.166720 0.084443
0.964935 0.320073 0.000000
0.110658 0.181125 0.182498
0.187228 0.211490 0.212528
0.644465 0.235264 0.156313
0.858640 0.288090 0.001221
0.965515 0.377752 0.000000
0.470771 0.536736 0.451667
0.516320 0.561181 0.474495
0.507256 0.458686 0.352789
0.834165 0.542901 0.140017
0.951507 0.561456 0.000000
0.687190 0.728176 0.664118
0.697017 0.735988 0.672236
0.723262 0.750057 0.683528
0.692531 0.641413 0.523278
0.887083 0.694301 0.398566
0.791989 0.845487 0.800443
0.796536 0.848325 0.804166
0.814694 0.859556 0.818906
0.820859 0.850889 0.798978
0.804837 0.780819 0.688746
0.000000 0.174228 0.369177
0.145968 0.165377 0.417090
0.635370 0.101595 0.434913
0.804318 0.275639 0.377173
0.916594 0.421759 0.370794
0.156344 0.302983 0.384375
0.225864 0.299535 0.432929
0.632746 0.314397 0.456336
0.785458 0.389593 0.413458
0.917632 0.462531 0.379583
0.391485 0.503075 0.448280
0.456947 0.525292 0.475990
0.576593 0.546899 0.508965
0.797391 0.580346 0.465522
0.919921 0.586542 0.409644
0.668940 0.710658 0.656977
0.682216 0.718227 0.670253
0.725460 0.752773 0.711482
0.695644 0.662501 0.590661
0.892302 0.719295 0.509361
0.778958 0.836393 0.792477
0.787472 0.840879 0.801297
0.810605 0.855558 0.821683
0.828519 0.860838 0.823941
0.804135 0.784878 0.705928
0.146578 0.332189 0.590265
0.270481 0.329717 0.608515
0.619898 0.274571 0.670985
0.812253 0.417365 0.630396
0.885527 0.512200 0.588281
0.318212 0.431830 0.589258
0.352117 0.418769 0.606836
0.616510 0.392279 0.666377
0.797024 0.484901 0.634668
0.875364 0.537835 0.593469
0.468513 0.567010 0.581872
0.501915 0.572473 0.589197
0.602777 0.597314 0.648402
0.753841 0.619287 0.650385
0.840024 0.621241 0.621118
0.614405 0.679591 0.634607
0.628656 0.684352 0.642451
0.677150 0.705379 0.675013
0.715480 0.705013 0.678065
0.879240 0.734066 0.656611
0.739559 0.813291 0.759762
0.747127 0.817319 0.767391
0.779141 0.835111 0.799374
0.835996 0.870085 0.851408
0.805966 0.797177 0.743679
0.483162 0.536461 0.733211
0.508019 0.533257 0.739223
0.619043 0.520104 0.765896
0.815976 0.492378 0.807950
0.893462 0.601892 0.765835
0.509026 0.568811 0.726619
0.523674 0.563561 0.733333
0.618067 0.553704 0.760159
0.806271 0.529351 0.805142
0.887785 0.619562 0.766720
0.566522 0.638300 0.701045
0.580041 0.642115 0.709224
0.621729 0.640192 0.743221
0.769497 0.631952 0.796689
0.875547 0.676997 0.776730
0.612482 0.715663 0.717433
0.619440 0.714961 0.718257
0.649683 0.714717 0.724971
0.717739 0.731899 0.780758
0.857969 0.758480 0.797971
0.685176 0.789517 0.750668
0.690730 0.790799 0.753231
0.717128 0.800259 0.768460
0.769772 0.823392 0.803250
0.821866 0.833982 0.823575
