20 Preset/Movie Style Preset/【3】LUT for PR-AE-FCPX/Movie - LUT  (7).cube
# Created by Adobe Lightroom plugin Export LUT (1.24.0)
# www.johnrellis.com/lightroom/exportlut.htm
# Preset: 电影质感07（修改版）
# Color profile: C:\Program Files (x86)\Common Files\Adobe\Color\Profiles\Recommended\VideoHD.icc
LUT_3D_SIZE 5
DOMAIN_MIN 0.000000 0.000000 0.000000
DOMAIN_MAX 0.903226 0.903226 0.903226
0.080262 0.094423 0.108461
0.218814 0.104250 0.104189
0.688716 0.000000 0.000000
0.899382 0.182406 0.000000
0.996979 0.345495 0.000000
0.121126 0.189975 0.164706
0.170108 0.178286 0.149752
0.716182 0.261143 0.000000
0.896239 0.313512 0.000000
0.994934 0.406317 0.000000
0.524804 0.589471 0.477119
0.567041 0.611139 0.499916
0.543938 0.481270 0.336584
0.861082 0.559625 0.000000
0.974456 0.581384 0.000000
0.709285 0.755581 0.687617
0.718654 0.762753 0.695552
0.739742 0.768978 0.697383
0.711116 0.660945 0.537713
0.898558 0.709133 0.408789
0.805783 0.857420 0.815366
0.809995 0.859892 0.818723
0.824704 0.867979 0.829648
0.828611 0.857755 0.807187
0.815793 0.793820 0.704463
0.061067 0.110048 0.165743
0.213138 0.097719 0.190158
0.648157 0.000000 0.168582
0.879332 0.219394 0.098085
0.983764 0.361547 0.000000
0.118379 0.203433 0.199924
0.216037 0.239170 0.235569
0.696284 0.271427 0.170535
0.881621 0.329259 0.041199
0.983337 0.414984 0.000000
0.526909 0.580713 0.498360
0.567620 0.604425 0.521843
0.552239 0.499367 0.390234
0.852140 0.575219 0.197482
0.965454 0.589593 0.104707
0.708797 0.752834 0.692195
0.718379 0.760464 0.700557
0.743465 0.773770 0.711849
0.710842 0.665949 0.557824
0.897887 0.715633 0.444678
0.805386 0.856657 0.816800
0.809628 0.859190 0.820157
0.826352 0.869047 0.833463
0.831327 0.860899 0.814908
0.817166 0.796872 0.711910
0.000000 0.193027 0.410712
0.178225 0.183139 0.460822
0.685054 0.164248 0.476417
0.825284 0.332921 0.413153
0.929259 0.467689 0.409796
0.201083 0.341131 0.423224
0.279057 0.339178 0.473732
0.673762 0.365606 0.497017
0.803555 0.436011 0.449348
0.929656 0.504265 0.419532
0.447852 0.543847 0.488075
0.507225 0.564538 0.515251
0.611566 0.582483 0.544640
0.811215 0.612726 0.505699
0.930144 0.617029 0.453040
0.690547 0.734676 0.683864
0.703304 0.742367 0.697078
0.745754 0.776516 0.739345
0.712062 0.684749 0.619745
0.901213 0.739437 0.549645
0.793393 0.848631 0.809751
0.801602 0.852720 0.817960
0.823209 0.865812 0.836576
0.839048 0.870207 0.838376
0.816403 0.801144 0.729488
0.235691 0.372076 0.623255
0.336278 0.370062 0.640345
0.654139 0.329076 0.697047
0.825010 0.470405 0.657527
0.895140 0.552270 0.618494
0.377539 0.472053 0.620294
0.409644 0.459907 0.636957
0.646784 0.441627 0.691341
0.809537 0.530205 0.661952
0.885100 0.574975 0.623407
0.510826 0.598627 0.611566
0.540764 0.603479 0.618219
0.632044 0.628412 0.672755
0.769009 0.648096 0.676448
0.851377 0.647822 0.647272
0.641413 0.701167 0.660822
0.653223 0.705867 0.667994
0.696162 0.727382 0.698848
0.732296 0.725582 0.700252
0.888151 0.752651 0.682643
0.755734 0.827420 0.779416
0.763058 0.831144 0.786587
0.794125 0.847471 0.816434
0.846799 0.878782 0.863554
0.818296 0.813535 0.767025
0.526909 0.572656 0.754604
0.548058 0.569726 0.760403
0.646021 0.558221 0.786007
0.827451 0.536584 0.825437
0.902159 0.631495 0.783871
0.549310 0.602106 0.747921
0.561791 0.597345 0.754421
0.644892 0.588861 0.780270
0.818021 0.569787 0.822660
0.896941 0.646784 0.784604
0.597711 0.664057 0.722438
0.608881 0.667353 0.730434
0.644984 0.665126 0.763699
0.783261 0.658595 0.814633
0.884031 0.701167 0.794095
0.633326 0.735378 0.738521
0.639490 0.734676 0.739284
0.667903 0.734279 0.745663
0.734829 0.752377 0.798672
0.865019 0.779080 0.814939
0.704433 0.805692 0.770657
0.709957 0.806943 0.773251
0.735988 0.816007 0.788205
0.786618 0.837522 0.820798
0.834073 0.847898 0.839933
