20 Preset/Movie Style Preset/【3】LUT for PR-AE-FCPX/Movie - LUT  (9).cube
# Created by Adobe Lightroom plugin Export LUT (1.24.0)
# www.johnrellis.com/lightroom/exportlut.htm
# Preset: 电影质感09（修改版）
# Color profile: C:\Program Files (x86)\Common Files\Adobe\Color\Profiles\Recommended\VideoHD.icc
LUT_3D_SIZE 32
DOMAIN_MIN 0.0 0.0 0.0
DOMAIN_MAX 1.0 1.0 1.0
0.080262 0.094423 0.108461
0.081514 0.094331 0.108461
0.086091 0.094453 0.108400
0.092012 0.095064 0.108248
0.100404 0.096071 0.107973
0.113985 0.097383 0.107912
0.132845 0.099733 0.107149
0.158877 0.101686 0.106477
0.190555 0.103395 0.105348
0.228794 0.104433 0.103578
0.273838 0.103304 0.100984
0.326452 0.098512 0.097566
0.387060 0.085725 0.092378
0.451148 0.036133 0.083528
0.514061 0.000000 0.064088
0.572961 0.000000 0.039399
0.627222 0.000000 0.011475
0.678645 0.000000 0.000000
0.721462 0.000000 0.000000
0.757870 0.000000 0.000000
0.789181 0.000000 0.000000
0.815854 0.000000 0.000000
0.838315 0.042206 0.000000
0.858183 0.110445 0.000000
0.875853 0.143191 0.000000
0.891905 0.169863 0.000000
0.907439 0.194980 0.000000
0.922881 0.219486 0.000000
0.938140 0.243687 0.000000
0.953552 0.267887 0.000000
0.968933 0.292424 0.000000
0.984436 0.316808 0.000000
0.081056 0.094759 0.108400
0.081056 0.094759 0.108400
0.085206 0.095277 0.108309
0.092500 0.095399 0.108186
0.100832 0.096407 0.107942
0.114137 0.098116 0.107820
0.133120 0.100069 0.107118
0.158755 0.102083 0.106416
0.190372 0.104158 0.105257
0.228305 0.104921 0.103548
0.273075 0.104341 0.101259
0.325414 0.099519 0.097536
0.385748 0.088197 0.092378
0.449622 0.041596 0.083558
0.512230 0.000000 0.064302
0.571252 0.000000 0.039643
0.625910 0.000000 0.011536
0.676692 0.000000 0.000000
0.719203 0.000000 0.000000
0.755550 0.000000 0.000000
0.786862 0.000000 0.000000
0.813626 0.000000 0.000000
0.836210 0.038392 0.000000
0.856138 0.109041 0.000000
0.874083 0.141482 0.000000
0.890227 0.168093 0.000000
0.905821 0.193088 0.000000
0.921324 0.217472 0.000000
0.936736 0.241886 0.000000
0.952178 0.266117 0.000000
0.967651 0.290593 0.000000
0.983215 0.315129 0.000000
0.082277 0.096162 0.109529
0.082094 0.096162 0.109865
0.084169 0.096437 0.109804
0.091432 0.097810 0.108614
0.100526 0.098726 0.108339
0.114412 0.100282 0.108217
0.134066 0.102388 0.107454
0.160128 0.104616 0.106386
0.192111 0.106722 0.105165
0.230320 0.107942 0.103334
0.275395 0.107393 0.100649
0.327733 0.103578 0.096712
0.387915 0.093050 0.091402
0.451240 0.057191 0.081697
0.513787 0.000000 0.062196
0.572290 0.000000 0.036286
0.626795 0.000000 0.008026
0.676631 0.000000 0.000000
0.718837 0.000000 0.000000
0.754940 0.000000 0.000000
0.786160 0.000000 0.000000
0.812924 0.000000 0.000000
0.835447 0.064820 0.000000
0.855497 0.115297 0.000000
0.873320 0.146090 0.000000
0.889494 0.171389 0.000000
0.905058 0.195987 0.000000
0.920592 0.219669 0.000000
0.936004 0.243687 0.000000
0.951476 0.267582 0.000000
0.966979 0.291661 0.000000
0.982513 0.316014 0.000000
0.084962 0.099336 0.112673
0.084962 0.099336 0.112673
0.086366 0.099977 0.112886
0.088258 0.100191 0.112856
0.099397 0.102388 0.110506
0.115511 0.105409 0.108888
0.135500 0.107942 0.108034
0.161654 0.110536 0.106844
0.194400 0.112917 0.105531
0.232914 0.114687 0.103243
0.278447 0.114992 0.100313
0.331212 0.111910 0.096162
0.392126 0.103670 0.090425
0.455329 0.085847 0.079713
0.517205 0.028992 0.057465
0.575433 0.000000 0.030915
0.629694 0.000000 0.000885
0.677760 0.000000 0.000000
0.718746 0.000000 0.000000
0.754055 0.000000 0.000000
0.784817 0.000000 0.000000
0.811368 0.017914 0.000000
0.834073 0.095979 0.000000
0.854215 0.128328 0.000000
0.872374 0.155612 0.000000
0.888762 0.179538 0.000000
0.904601 0.202853 0.000000
0.920256 0.225803 0.000000
0.935790 0.248936 0.000000
0.951263 0.272313 0.000000
0.966674 0.295811 0.000000
0.982086 0.319310 0.000000
0.088716 0.104280 0.116640
0.088716 0.104280 0.116640
0.088808 0.104952 0.116854
0.090486 0.105470 0.116762
0.094270 0.105135 0.116457
0.110750 0.109773 0.113497
0.137118 0.115480 0.109560
0.164340 0.119936 0.107698
0.197330 0.123232 0.105806
0.236423 0.125826 0.103243
0.282017 0.126864 0.100130
0.335637 0.125368 0.095552
0.396216 0.119478 0.089052
0.459327 0.107820 0.075807
0.520745 0.089387 0.050538
0.578241 0.039704 0.023407
0.632532 0.000000 0.000000
0.679652 0.000000 0.000000
0.720027 0.000000 0.000000
0.755032 0.000000 0.000000
0.785550 0.039094 0.000000
0.811856 0.096010 0.000000
0.834379 0.124208 0.000000
0.854459 0.149111 0.000000
0.872465 0.171695 0.000000
0.888823 0.193149 0.000000
0.904570 0.214298 0.000000
0.920195 0.235569 0.000000
0.935637 0.257359 0.000000
0.951049 0.279637 0.000000
0.966339 0.302342 0.000000
0.981689 0.325017 0.000000
0.091615 0.111391 0.121248
0.092073 0.111696 0.121218
0.092439 0.111971 0.121462
0.094087 0.113069 0.121859
0.097688 0.113680 0.121187
0.102022 0.112978 0.120607
0.125795 0.119966 0.116640
0.164584 0.130007 0.109651
0.201785 0.137697 0.105684
0.242741 0.141756 0.102541
0.289525 0.143648 0.098573
0.344152 0.143862 0.092836
0.404883 0.140414 0.084535
0.467475 0.132631 0.065064
0.528099 0.121401 0.038514
0.585382 0.107637 0.009918
0.638117 0.094240 0.000000
0.683925 0.085542 0.000000
0.723323 0.089326 0.000000
0.757473 0.100862 0.000000
0.787350 0.117983 0.000000
0.813107 0.137270 0.000000
0.846159 0.170077 0.000000
0.864683 0.188479 0.000000
0.881376 0.205875 0.000000
0.896971 0.223301 0.000000
0.912261 0.241642 0.000000
0.927428 0.260685 0.000000
0.942351 0.280400 0.000000
0.957183 0.300908 0.000000
0.972015 0.321538 0.000000
0.986816 0.342504 0.000000
0.096162 0.123629 0.128328
0.096742 0.123568 0.128603
0.097292 0.124331 0.128756
0.099580 0.125734 0.129305
0.102876 0.126772 0.129122
0.109102 0.127352 0.127626
0.115053 0.124697 0.126314
0.147341 0.135348 0.120790
0.197024 0.148836 0.110933
0.251743 0.160464 0.101472
0.304967 0.168276 0.094057
0.362310 0.169162 0.086854
0.423804 0.167025 0.068818
0.485237 0.162295 0.044526
0.544091 0.155245 0.016480
0.601709 0.147982 0.000000
0.652308 0.142855 0.000000
0.695705 0.142153 0.000000
0.733211 0.146029 0.000000
0.766140 0.154696 0.000000
0.795285 0.167208 0.000000
0.820432 0.181308 0.000000
0.842313 0.196475 0.000000
0.861845 0.212131 0.000000
0.879240 0.227573 0.000000
0.895171 0.243229 0.000000
0.910613 0.259190 0.000000
0.925750 0.276371 0.000000
0.940734 0.294408 0.000000
0.955688 0.312963 0.000000
0.970611 0.332189 0.000000
0.985504 0.351751 0.000000
0.103273 0.140597 0.138064
0.103578 0.140780 0.138247
0.104372 0.141634 0.138613
0.106874 0.143435 0.139254
0.110384 0.146181 0.140200
0.117189 0.146120 0.138247
0.126284 0.146059 0.135744
0.132753 0.141299 0.133883
0.171695 0.154269 0.126741
0.231724 0.170779 0.112886
0.305730 0.186587 0.095521
0.370794 0.195529 0.078035
0.436103 0.199069 0.044526
0.496254 0.196231 0.018891
0.556146 0.192508 0.000000
0.610132 0.188449 0.000000
0.657801 0.186191 0.000000
0.699153 0.186526 0.000000
0.735286 0.190066 0.000000
0.767178 0.196841 0.000000
0.795407 0.206088 0.000000
0.819852 0.216831 0.000000
0.841367 0.228611 0.000000
0.860655 0.240787 0.000000
0.877836 0.253758 0.000000
0.893767 0.266606 0.000000
0.909178 0.280644 0.000000
0.924346 0.295720 0.000000
0.939300 0.312047 0.000000
0.954223 0.329137 0.000000
0.969116 0.346715 0.000000
0.984009 0.364996 0.000000
0.113191 0.164950 0.151705
0.113069 0.165499 0.151827
0.114565 0.166293 0.152316
0.116915 0.168399 0.153170
0.121309 0.171908 0.154574
0.128298 0.173617 0.153811
0.137911 0.172610 0.150546
0.149813 0.171328 0.146700
0.156497 0.163272 0.143954
0.201999 0.177554 0.135286
0.273655 0.197421 0.116152
0.359777 0.214817 0.091066
0.441749 0.226108 0.034363
0.510582 0.233616 0.000000
0.569329 0.233646 0.000000
0.620050 0.231235 0.000000
0.665064 0.230014 0.000000
0.704280 0.230625 0.000000
0.738766 0.233677 0.000000
0.769406 0.238987 0.000000
0.796506 0.246189 0.000000
0.820127 0.254246 0.000000
0.841001 0.263066 0.000000
0.859861 0.272618 0.000000
0.876829 0.282719 0.000000
0.892638 0.293431 0.000000
0.908019 0.305455 0.000000
0.923095 0.318761 0.000000
0.938048 0.333104 0.000000
0.952941 0.348272 0.000000
0.967742 0.364477 0.000000
0.982666 0.381018 0.000000
0.126986 0.197299 0.169863
0.127535 0.197543 0.169986
0.129152 0.198550 0.170504
0.132204 0.200961 0.171603
0.137453 0.204685 0.173159
0.145052 0.209812 0.175204
0.154849 0.208164 0.171054
0.166751 0.206149 0.166049
0.180209 0.202792 0.160647
0.186679 0.190433 0.156771
0.238254 0.205478 0.146395
0.322972 0.228397 0.121431
0.419013 0.246860 0.085969
0.511131 0.260929 0.000000
0.573754 0.268681 0.000000
0.629389 0.276890 0.000000
0.672084 0.276005 0.000000
0.709743 0.276738 0.000000
0.742885 0.278935 0.000000
0.772305 0.282689 0.000000
0.798032 0.287602 0.000000
0.820432 0.292790 0.000000
0.840452 0.298833 0.000000
0.858579 0.305791 0.000000
0.875029 0.313207 0.000000
0.890715 0.321782 0.000000
0.906004 0.331762 0.000000
0.921141 0.342962 0.000000
0.936156 0.355657 0.000000
0.951080 0.369329 0.000000
0.966033 0.383886 0.000000
0.981018 0.399145 0.000000
0.147890 0.236301 0.192325
0.148287 0.236515 0.192569
0.150149 0.237888 0.193179
0.154147 0.240452 0.194278
0.160067 0.244480 0.196201
0.168948 0.250523 0.198917
0.179660 0.252842 0.197726
0.191440 0.249821 0.191562
0.205509 0.245823 0.184756
0.219944 0.239750 0.177798
0.225803 0.224033 0.172549
0.282689 0.238651 0.161074
0.379065 0.263157 0.129915
0.475929 0.281651 0.085603
0.563409 0.296422 0.000000
0.627466 0.307530 0.000000
0.675349 0.317815 0.000000
0.714595 0.324468 0.000000
0.746212 0.325322 0.000000
0.774258 0.327214 0.000000
0.798856 0.329564 0.000000
0.820340 0.332586 0.000000
0.839750 0.336645 0.000000
0.857511 0.341070 0.000000
0.873747 0.346288 0.000000
0.889311 0.353002 0.000000
0.904631 0.361028 0.000000
0.919738 0.370520 0.000000
0.934661 0.381353 0.000000
0.949615 0.393225 0.000000
0.964538 0.406226 0.000000
0.979553 0.419745 0.000000
0.178378 0.283391 0.219760
0.179019 0.283696 0.219944
0.180850 0.284947 0.220401
0.185153 0.287907 0.221836
0.192538 0.292363 0.223972
0.202792 0.299229 0.227176
0.217624 0.308476 0.231510
0.229160 0.304814 0.224613
0.243107 0.299992 0.216678
0.258579 0.293767 0.207584
0.270939 0.282750 0.198459
0.274052 0.262821 0.191409
0.348638 0.284001 0.182284
0.451606 0.309636 0.144839
0.544457 0.328862 0.091463
0.623377 0.344854 0.000000
0.684596 0.358892 0.000000
0.723964 0.369116 0.000000
0.758267 0.380163 0.000000
0.784726 0.382269 0.000000
0.807004 0.381842 0.000000
0.826749 0.381994 0.000000
0.844694 0.382818 0.000000
0.861112 0.384771 0.000000
0.876738 0.387762 0.000000
0.891966 0.392218 0.000000
0.906859 0.397894 0.000000
0.921508 0.405219 0.000000
0.936065 0.413764 0.000000
0.950652 0.423377 0.000000
0.965240 0.433967 0.000000
0.980072 0.445258 0.000000
0.228397 0.345373 0.256779
0.228855 0.345617 0.256901
0.231113 0.346807 0.257511
0.236301 0.349554 0.259007
0.244053 0.353765 0.261295
0.255528 0.359960 0.264652
0.271458 0.368414 0.269291
0.286351 0.371466 0.268528
0.298070 0.365759 0.258885
0.312139 0.358495 0.247776
0.328130 0.349950 0.235904
0.338293 0.334966 0.224674
0.339086 0.310735 0.215457
0.397406 0.319158 0.202365
0.498573 0.345892 0.163119
0.585260 0.365728 0.109163
0.655482 0.382055 0.000000
0.712184 0.396490 0.000000
0.750393 0.406989 0.000000
0.779782 0.416175 0.000000
0.804593 0.423590 0.000000
0.823972 0.421790 0.000000
0.841672 0.420661 0.000000
0.858091 0.420508 0.000000
0.873808 0.421851 0.000000
0.889097 0.424750 0.000000
0.904143 0.428901 0.000000
0.918944 0.434607 0.000000
0.933654 0.441444 0.000000
0.948363 0.449561 0.000000
0.963104 0.458412 0.000000
0.977966 0.468391 0.000000
0.285863 0.401068 0.295781
0.286229 0.401251 0.295842
0.288792 0.402380 0.296513
0.293278 0.404395 0.297948
0.300908 0.407965 0.300298
0.311589 0.413214 0.303624
0.326726 0.420478 0.308598
0.345220 0.429541 0.314916
0.354620 0.424964 0.305791
0.365026 0.417792 0.293523
0.377783 0.409247 0.279789
0.392157 0.398993 0.265080
0.398352 0.380224 0.251194
0.396551 0.352911 0.239384
0.446509 0.356420 0.226230
0.541772 0.383032 0.185855
0.619928 0.402411 0.133455
0.682094 0.418433 0.000000
0.733120 0.432136 0.000000
0.771847 0.442481 0.000000
0.797330 0.449287 0.000000
0.819791 0.456306 0.000000
0.838712 0.458930 0.000000
0.855161 0.457069 0.000000
0.871000 0.456916 0.000000
0.886442 0.458350 0.000000
0.901579 0.461006 0.000000
0.916503 0.465064 0.000000
0.931304 0.470344 0.000000
0.946075 0.476814 0.000000
0.960876 0.484291 0.000000
0.975921 0.492653 0.000000
0.348333 0.453285 0.338109
0.348760 0.453468 0.338170
0.350652 0.454231 0.338781
0.354650 0.456031 0.339940
0.361242 0.458991 0.342107
0.370855 0.463386 0.345403
0.383520 0.469429 0.350011
0.400092 0.477272 0.356023
0.414313 0.481086 0.356970
0.421332 0.474250 0.344793
0.430335 0.466224 0.331182
0.440925 0.456611 0.315770
0.452766 0.445197 0.298558
0.454932 0.423835 0.281743
0.450935 0.394537 0.266026
0.491432 0.393317 0.252750
0.579400 0.419135 0.212284
0.648646 0.438056 0.162631
0.704646 0.453285 0.088075
0.750729 0.465400 0.000000
0.787991 0.474372 0.000000
0.812497 0.480171 0.000000
0.832944 0.485725 0.000000
0.851743 0.491798 0.000000
0.868101 0.491829 0.000000
0.883696 0.491890 0.000000
0.898955 0.493263 0.000000
0.914031 0.496010 0.000000
0.929076 0.500008 0.000000
0.943999 0.505211 0.000000
0.959045 0.511376 0.000000
0.974273 0.518578 0.000000
0.407965 0.499886 0.379706
0.408392 0.500237 0.379919
0.410376 0.500969 0.380621
0.413703 0.502708 0.381903
0.419867 0.505516 0.384314
0.428290 0.509422 0.387701
0.439734 0.514855 0.392432
0.453925 0.521660 0.398474
0.470985 0.529900 0.405890
0.478004 0.526879 0.398505
0.483375 0.519463 0.385260
0.490150 0.510521 0.369940
0.497993 0.499886 0.352575
0.506493 0.487160 0.333135
0.504356 0.463508 0.314000
0.498787 0.433509 0.295476
0.530480 0.428046 0.281559
0.609644 0.453040 0.242161
0.672053 0.470985 0.195224
0.723171 0.485298 0.135775
0.764981 0.495888 0.000000
0.799557 0.503410 0.000000
0.825711 0.508598 0.000000
0.845029 0.513542 0.000000
0.863645 0.519677 0.000000
0.881163 0.525322 0.000000
0.896544 0.525689 0.000000
0.911742 0.527214 0.000000
0.926818 0.529961 0.000000
0.941833 0.533776 0.000000
0.956909 0.538598 0.000000
0.972137 0.544335 0.000000
0.462165 0.540764 0.420142
0.462593 0.540887 0.420294
0.463813 0.541650 0.420966
0.467140 0.543053 0.422309
0.472206 0.545434 0.424506
0.479377 0.548791 0.427771
0.488502 0.553307 0.432105
0.500053 0.558953 0.437629
0.513451 0.565728 0.444404
0.525719 0.570397 0.447974
0.528954 0.564050 0.435767
0.533318 0.556420 0.421851
0.538445 0.547356 0.405737
0.544427 0.536461 0.387335
0.550988 0.523613 0.366705
0.546868 0.499458 0.346258
0.540948 0.470069 0.325841
0.564294 0.461372 0.312474
0.635431 0.485328 0.275273
0.692256 0.502098 0.231388
0.739223 0.515251 0.180728
0.777737 0.524590 0.107698
0.809842 0.530968 0.000000
0.837705 0.535546 0.000000
0.857023 0.540764 0.000000
0.875395 0.547051 0.000000
0.893217 0.554314 0.000000
0.909392 0.557977 0.000000
0.924559 0.559655 0.000000
0.939635 0.562432 0.000000
0.954833 0.566064 0.000000
0.970184 0.570703 0.000000
0.509972 0.577173 0.459632
0.510338 0.577325 0.459876
0.520531 0.584985 0.468452
0.522942 0.586267 0.469673
0.526848 0.588159 0.471748
0.532311 0.590906 0.474617
0.539269 0.594507 0.478309
0.548119 0.599054 0.483223
0.558618 0.604669 0.489082
0.570520 0.611200 0.496162
0.575891 0.609674 0.491279
0.578241 0.603021 0.478584
0.581140 0.594995 0.463813
0.584802 0.585382 0.446632
0.588830 0.574121 0.427192
0.593530 0.561028 0.405341
0.587701 0.536675 0.383398
0.581598 0.508354 0.360784
0.597223 0.496315 0.347173
0.660700 0.518669 0.312993
0.712520 0.534539 0.273381
0.754879 0.545953 0.228733
0.790005 0.553674 0.174929
0.819974 0.558770 0.083680
0.847501 0.563409 0.000000
0.869505 0.568414 0.000000
0.887541 0.574487 0.000000
0.905119 0.581353 0.000000
0.922240 0.588891 0.000000
0.937377 0.590723 0.000000
0.952605 0.593317 0.000000
0.968078 0.596887 0.000000
0.552209 0.611048 0.498451
0.553185 0.611749 0.499275
0.554986 0.612940 0.500633
0.557549 0.614496 0.502373
0.561120 0.616571 0.504631
0.565728 0.619043 0.507378
0.571557 0.622126 0.510857
0.578515 0.625940 0.515068
0.586938 0.630426 0.520256
0.596490 0.635706 0.526452
0.606134 0.640528 0.531762
0.607660 0.635187 0.520806
0.609613 0.628595 0.507897
0.612207 0.620722 0.493050
0.615290 0.611566 0.476234
0.618799 0.600641 0.456855
0.622126 0.587488 0.435340
0.616663 0.564569 0.413458
0.611292 0.538140 0.390570
0.621973 0.524498 0.377356
0.680018 0.545739 0.346593
0.727291 0.560876 0.311894
0.766171 0.571221 0.273045
0.798672 0.578332 0.229038
0.828092 0.583581 0.169375
0.855711 0.588617 0.000183
0.880827 0.593591 0.000000
0.898802 0.599786 0.000000
0.916350 0.606622 0.000000
0.933623 0.613947 0.000000
0.950072 0.619593 0.000000
0.965667 0.622309 0.000000
0.584741 0.638209 0.531456
0.585565 0.638788 0.532219
0.587121 0.639796 0.533440
0.589288 0.641108 0.535119
0.592248 0.642847 0.537255
0.596063 0.644953 0.539788
0.600641 0.647425 0.542840
0.606256 0.650507 0.546654
0.613001 0.654200 0.551263
0.620630 0.658473 0.556664
0.629297 0.663264 0.562982
0.634058 0.663355 0.561028
0.635218 0.658106 0.549828
0.636988 0.651911 0.537041
0.639368 0.644556 0.522332
0.642237 0.635950 0.505669
0.645686 0.625818 0.486702
0.647944 0.612818 0.465705
0.643305 0.591424 0.444038
0.638514 0.566888 0.421057
0.647608 0.553552 0.407416
0.697505 0.571344 0.380591
0.740200 0.585229 0.350256
0.775937 0.594781 0.316167
0.806821 0.601862 0.278660
0.835935 0.608087 0.231449
0.863645 0.613550 0.163302
0.890043 0.618647 0.000000
0.910185 0.624567 0.000000
0.927916 0.631373 0.000000
0.945464 0.638605 0.000000
0.962768 0.645960 0.000000
0.613519 0.662257 0.563378
0.614160 0.662776 0.564111
0.615320 0.663539 0.565148
0.617121 0.664607 0.566644
0.619471 0.666041 0.568475
0.622431 0.667750 0.570733
0.626246 0.669795 0.573510
0.630762 0.672297 0.576898
0.636164 0.675319 0.581018
0.642390 0.678859 0.585901
0.649287 0.682856 0.591394
0.656825 0.687251 0.597528
0.657832 0.683528 0.588983
0.658839 0.678553 0.577966
0.660395 0.672724 0.565240
0.662593 0.665980 0.550866
0.665492 0.658137 0.534783
0.668971 0.649042 0.516564
0.670985 0.636896 0.496864
0.667750 0.617700 0.475898
0.664363 0.595514 0.453590
0.672480 0.583185 0.440070
0.714076 0.597162 0.417121
0.752773 0.609979 0.391028
0.785824 0.619135 0.361822
0.816281 0.627253 0.329625
0.845274 0.634455 0.290471
0.873106 0.640864 0.239750
0.899870 0.646357 0.165133
0.923522 0.651606 0.000000
0.941527 0.658289 0.000000
0.959014 0.664820 0.000000
0.641444 0.685908 0.597284
0.641688 0.686122 0.597620
0.642329 0.686488 0.598199
0.643366 0.687129 0.599084
0.645075 0.688075 0.600366
0.647242 0.689296 0.602075
0.650141 0.690944 0.604334
0.653681 0.692988 0.607172
0.657984 0.695552 0.610559
0.662989 0.698634 0.614679
0.668605 0.702174 0.619318
0.674861 0.706233 0.624506
0.679255 0.707729 0.625330
0.679591 0.703365 0.616449
0.680293 0.698360 0.606073
0.681544 0.692714 0.594171
0.683436 0.686366 0.580316
0.686122 0.679133 0.564538
0.689418 0.670863 0.546960
0.690944 0.659113 0.527672
0.688533 0.641505 0.507073
0.685908 0.621149 0.484993
0.692988 0.609247 0.471199
0.727504 0.619471 0.450813
0.762417 0.631128 0.428016
0.794339 0.640803 0.402594
0.824613 0.649714 0.374212
0.853422 0.657832 0.341436
0.881254 0.665034 0.300389
0.908263 0.671015 0.246311
0.934417 0.675257 0.159609
0.953094 0.681178 0.119509
0.662684 0.705226 0.624537
0.662959 0.705409 0.624811
0.663386 0.705806 0.625269
0.664332 0.706386 0.626062
0.665705 0.707240 0.627100
0.667506 0.708431 0.628565
0.669886 0.709926 0.630457
0.672847 0.711879 0.632837
0.676448 0.714290 0.635737
0.680659 0.717159 0.639185
0.685389 0.720485 0.643061
0.690700 0.724239 0.647364
0.696468 0.728420 0.652064
0.698238 0.726558 0.647944
0.698573 0.722072 0.639765
0.699153 0.717006 0.630243
0.700099 0.711330 0.619287
0.701534 0.704982 0.606744
0.703578 0.697963 0.592309
0.706538 0.690150 0.575677
0.707698 0.679072 0.557305
0.706081 0.663264 0.537499
0.704463 0.644800 0.515984
0.710872 0.633753 0.502495
0.738857 0.639857 0.482795
0.771603 0.651209 0.463111
0.803006 0.661799 0.441230
0.832914 0.671565 0.417029
0.861662 0.680446 0.389288
0.889281 0.687739 0.354650
0.916320 0.693660 0.310796
0.942809 0.698207 0.250126
0.682856 0.725948 0.650538
0.683131 0.726192 0.650843
0.683528 0.726528 0.651209
0.684230 0.726986 0.651728
0.685206 0.727657 0.652461
0.686580 0.728573 0.653468
0.688350 0.729793 0.654810
0.690669 0.731411 0.656550
0.693568 0.733425 0.658747
0.696956 0.735897 0.661372
0.700862 0.738766 0.664393
0.705348 0.742092 0.667903
0.710353 0.745785 0.671839
0.715053 0.748806 0.674739
0.715206 0.744564 0.667659
0.715511 0.739803 0.659785
0.715938 0.734554 0.650813
0.716762 0.728786 0.640681
0.717891 0.722469 0.629145
0.719539 0.715572 0.616022
0.721798 0.708003 0.601068
0.722042 0.696925 0.584314
0.720546 0.682185 0.565362
0.719356 0.665339 0.544488
0.725246 0.654994 0.531151
0.749874 0.660212 0.515038
0.781582 0.671962 0.497841
0.812375 0.683192 0.479255
0.841825 0.693111 0.457771
0.870024 0.701991 0.434119
0.897459 0.709560 0.405676
0.924376 0.715846 0.370794
0.699062 0.744503 0.671443
0.699306 0.744778 0.671748
0.699702 0.745083 0.672114
0.700343 0.745571 0.672602
0.701259 0.746273 0.673335
0.702571 0.747250 0.674372
0.704280 0.748531 0.675776
0.706508 0.750149 0.677516
0.709163 0.752163 0.679683
0.712367 0.754543 0.682246
0.715969 0.757290 0.685267
0.720058 0.760372 0.688624
0.724605 0.763790 0.692439
0.729580 0.767483 0.696559
0.732174 0.767514 0.695369
0.732326 0.763272 0.688075
0.732631 0.758602 0.680049
0.733181 0.753414 0.671412
0.734005 0.747768 0.662074
0.735103 0.741573 0.651728
0.736477 0.734829 0.639887
0.738277 0.727443 0.626429
0.737667 0.716518 0.611475
0.735805 0.702632 0.594507
0.734401 0.686824 0.575189
0.739834 0.677424 0.562463
0.761776 0.681544 0.547784
0.792416 0.693355 0.532433
0.822599 0.705013 0.516747
0.851591 0.715358 0.499214
0.879332 0.724575 0.480629
0.906371 0.732509 0.459052
0.715511 0.763882 0.693355
0.715694 0.764004 0.693477
0.715938 0.764279 0.693782
0.716518 0.764645 0.694240
0.717342 0.765255 0.694911
0.718471 0.766110 0.695857
0.720027 0.767269 0.697139
0.721981 0.768704 0.698787
0.724361 0.770474 0.700771
0.727230 0.772610 0.703182
0.730495 0.775051 0.705989
0.734218 0.777798 0.709194
0.738308 0.780880 0.712764
0.742824 0.784176 0.716640
0.747707 0.787716 0.720851
0.748409 0.785061 0.715633
0.748531 0.781003 0.708339
0.748989 0.776547 0.700343
0.749660 0.771633 0.691707
0.750637 0.766262 0.682429
0.751888 0.760433 0.672389
0.753231 0.753933 0.661585
0.754818 0.746853 0.649561
0.753475 0.735897 0.635981
0.751217 0.722560 0.620569
0.749203 0.707454 0.602869
0.753994 0.698634 0.591028
0.773526 0.701808 0.577844
0.803098 0.713588 0.564416
0.832639 0.725734 0.552087
0.861051 0.736446 0.538628
0.888396 0.746120 0.525078
0.731258 0.782162 0.714961
0.731350 0.782284 0.715114
0.731655 0.782528 0.715358
0.732174 0.782925 0.715846
0.732967 0.783536 0.716579
0.734127 0.784451 0.717647
0.735775 0.785672 0.719142
0.737789 0.787228 0.721004
0.740230 0.789120 0.723293
0.743099 0.791318 0.725978
0.746395 0.793851 0.729061
0.750057 0.796597 0.732479
0.754055 0.799588 0.736172
0.758358 0.802762 0.740078
0.762966 0.806088 0.744259
0.766751 0.808103 0.746273
0.766781 0.804746 0.739895
0.767025 0.801022 0.732753
0.767575 0.796963 0.725063
0.768307 0.792386 0.716457
0.769284 0.787289 0.707118
0.770504 0.781674 0.696925
0.771878 0.775418 0.685878
0.773373 0.768490 0.673915
0.771695 0.757839 0.661585
0.769314 0.745266 0.648035
0.767025 0.731136 0.632471
0.771389 0.723201 0.622187
0.788632 0.725673 0.611139
0.816678 0.737118 0.600092
0.845365 0.749508 0.591760
0.873014 0.760616 0.583337
0.749020 0.802182 0.739834
0.749111 0.802213 0.739864
0.749294 0.802335 0.740047
0.749722 0.802609 0.740414
0.750362 0.803098 0.740993
0.751339 0.803769 0.741848
0.752651 0.804715 0.742977
0.754299 0.805905 0.744472
0.756344 0.807370 0.746304
0.758755 0.809110 0.748531
0.761593 0.811124 0.751034
0.764767 0.813382 0.753902
0.768276 0.815854 0.757046
0.772061 0.818479 0.760342
