20 Preset/Movie Style Preset/【3】LUT for PR-AE-FCPX/Movie - LUT  (4).cube
# Created by Adobe Lightroom plugin Export LUT (1.24.0)
# www.johnrellis.com/lightroom/exportlut.htm
# Preset: 电影质感04（修改版）
# Color profile: C:\Program Files (x86)\Common Files\Adobe\Color\Profiles\Recommended\VideoHD.icc
LUT_3D_SIZE 32
DOMAIN_MIN 0.0 0.0 0.0
DOMAIN_MAX 1.0 1.0 1.0
0.080262 0.094423 0.108461
0.081514 0.094331 0.108461
0.086915 0.094789 0.108339
0.093721 0.095674 0.108156
0.105348 0.096620 0.107820
0.125185 0.098756 0.107485
0.154543 0.101137 0.106691
0.192477 0.103578 0.105226
0.238834 0.104036 0.103029
0.293065 0.101747 0.099977
0.357061 0.092866 0.095216
0.428656 0.055024 0.087953
0.500145 0.000000 0.069398
0.567712 0.000000 0.041779
0.628656 0.000000 0.010559
0.681178 0.000000 0.000000
0.725917 0.000000 0.000000
0.766018 0.000000 0.000000
0.801114 0.000000 0.000000
0.829770 0.000000 0.000000
0.853269 0.096925 0.000000
0.872892 0.136751 0.000000
0.889433 0.166476 0.000000
0.904967 0.192569 0.000000
0.919921 0.217136 0.000000
0.934447 0.241306 0.000000
0.948730 0.264805 0.000000
0.962890 0.287877 0.000000
0.976989 0.310674 0.000000
0.991028 0.333318 0.000000
1.000000 0.355291 0.000000
1.000000 0.376715 0.000000
0.080873 0.094759 0.108736
0.080873 0.094759 0.108736
0.087251 0.095521 0.108248
0.094148 0.096010 0.108095
0.105440 0.097353 0.108064
0.125307 0.099489 0.107393
0.154635 0.101839 0.106600
0.192294 0.104341 0.105135
0.238437 0.105196 0.102876
0.292485 0.103090 0.099855
0.356176 0.094728 0.095064
0.427344 0.060761 0.087831
0.498665 0.000000 0.070253
0.566125 0.000000 0.041688
0.626856 0.000000 0.010712
0.679774 0.000000 0.000000
0.724666 0.000000 0.000000
0.764736 0.000000 0.000000
0.799619 0.000000 0.000000
0.828092 0.000000 0.000000
0.851621 0.097353 0.000000
0.871244 0.135897 0.000000
0.887907 0.165042 0.000000
0.903380 0.191196 0.000000
0.918334 0.216007 0.000000
0.932891 0.239567 0.000000
0.947265 0.262791 0.000000
0.961486 0.286137 0.000000
0.975616 0.309026 0.000000
0.989746 0.331609 0.000000
1.000000 0.353674 0.000000
1.000000 0.375250 0.000000
0.082704 0.096498 0.110140
0.082063 0.096925 0.110414
0.084138 0.097169 0.110353
0.093751 0.098329 0.108827
0.105928 0.100282 0.108370
0.126223 0.102907 0.107942
0.156527 0.105653 0.106691
0.194522 0.108461 0.105165
0.241306 0.109529 0.102785
0.295781 0.108003 0.099214
0.359747 0.100954 0.094148
0.430701 0.079255 0.085939
0.501183 0.011017 0.065827
0.567956 0.000000 0.037995
0.628229 0.000000 0.006744
0.680598 0.000000 0.000000
0.725154 0.000000 0.000000
0.764950 0.000000 0.000000
0.799313 0.000000 0.000000
0.827634 0.023743 0.000000
0.850980 0.108949 0.000000
0.870573 0.143526 0.000000
0.887236 0.170809 0.000000
0.902678 0.195346 0.000000
0.917571 0.219242 0.000000
0.932158 0.242161 0.000000
0.946471 0.265110 0.000000
0.960754 0.287846 0.000000
0.974914 0.310552 0.000000
0.989105 0.332891 0.000000
1.000000 0.354681 0.000000
1.000000 0.376074 0.000000
0.086152 0.100649 0.113741
0.085512 0.101045 0.114015
0.087587 0.101289 0.113954
0.089723 0.101442 0.113924
0.103944 0.104982 0.111391
0.128664 0.109895 0.108949
0.159304 0.114076 0.107424
0.197757 0.117525 0.105379
0.245243 0.119448 0.102724
0.299992 0.119326 0.098848
0.365057 0.114229 0.092866
0.435584 0.100679 0.082368
0.506249 0.064881 0.058991
0.572320 0.000000 0.030518
0.631800 0.000000 0.000000
0.683406 0.000000 0.000000
0.727077 0.000000 0.000000
0.765988 0.000000 0.000000
0.799283 0.000671 0.000000
0.826780 0.092866 0.000000
0.849821 0.128328 0.000000
0.869291 0.156863 0.000000
0.885954 0.181155 0.000000
0.901457 0.203891 0.000000
0.916594 0.226383 0.000000
0.931334 0.248722 0.000000
0.945892 0.270939 0.000000
0.960296 0.293065 0.000000
0.974548 0.315282 0.000000
0.988739 0.337133 0.000000
1.000000 0.358404 0.000000
1.000000 0.379187 0.000000
0.089967 0.107790 0.118837
0.089967 0.107790 0.118837
0.090700 0.108370 0.119326
0.092988 0.109163 0.118929
0.097353 0.108766 0.118318
0.119997 0.115175 0.114717
0.160433 0.125246 0.108644
0.202609 0.132265 0.105348
0.250462 0.135653 0.101869
0.306401 0.136873 0.097383
0.371344 0.134218 0.090761
0.441810 0.125338 0.077607
0.511192 0.110384 0.049744
0.576501 0.089296 0.019074
0.635035 0.044038 0.000000
0.685542 0.016510 0.000000
0.729183 0.020142 0.000000
0.767544 0.065187 0.000000
0.800168 0.105318 0.000000
0.827268 0.132326 0.000000
0.849973 0.156893 0.000000
0.869261 0.179080 0.000000
0.885801 0.199344 0.000000
0.901305 0.219211 0.000000
0.916381 0.239475 0.000000
0.931121 0.260288 0.000000
0.945617 0.280949 0.000000
0.959960 0.302098 0.000000
0.974182 0.323064 0.000000
0.988281 0.343969 0.000000
1.000000 0.364416 0.000000
1.000000 0.384375 0.000000
0.094636 0.119081 0.126009
0.095064 0.119326 0.125978
0.095949 0.120394 0.126375
0.097902 0.122164 0.127169
0.103212 0.122316 0.125490
0.109224 0.120119 0.124056
0.139834 0.129458 0.118441
0.197299 0.144991 0.108156
0.256321 0.157198 0.100191
0.316899 0.161776 0.093568
0.383093 0.160800 0.083497
0.453010 0.155612 0.060945
0.521080 0.146639 0.032593
0.584619 0.136416 0.000275
0.641474 0.127016 0.000000
0.690578 0.122988 0.000000
0.733364 0.127626 0.000000
0.770565 0.139132 0.000000
0.802060 0.155550 0.000000
0.828305 0.173159 0.000000
0.850553 0.190921 0.000000
0.869383 0.208042 0.000000
0.893889 0.236118 0.000000
0.909117 0.252873 0.000000
0.923827 0.270329 0.000000
0.938231 0.288365 0.000000
0.952361 0.306584 0.000000
0.966278 0.325353 0.000000
0.979980 0.344457 0.000000
0.993591 0.363409 0.000000
1.000000 0.381842 0.000000
1.000000 0.400000 0.000000
0.101625 0.139590 0.137270
0.101930 0.139803 0.137484
0.103456 0.141024 0.137972
0.106752 0.143648 0.138979
0.112520 0.145632 0.138613
0.121431 0.143893 0.135164
0.127932 0.138186 0.131960
0.166598 0.149508 0.124269
0.238132 0.169711 0.109285
0.322942 0.187045 0.090639
0.405524 0.197696 0.057404
0.474800 0.194553 0.028992
0.540917 0.189059 0.000000
0.601526 0.183505 0.000000
0.655116 0.179477 0.000000
0.701717 0.179599 0.000000
0.743526 0.184939 0.000000
0.778714 0.194278 0.000000
0.808438 0.206119 0.000000
0.833555 0.218967 0.000000
0.855009 0.232425 0.000000
0.873533 0.245823 0.000000
0.890043 0.259800 0.000000
0.906004 0.274662 0.000000
0.921294 0.290379 0.000000
0.935973 0.306798 0.000000
0.950225 0.323308 0.000000
0.964202 0.340276 0.000000
0.978058 0.357549 0.000000
0.991852 0.374762 0.000000
1.000000 0.391882 0.000000
1.000000 0.408545 0.000000
0.112764 0.168154 0.153048
0.113100 0.168643 0.153384
0.114992 0.169924 0.153994
0.118715 0.173251 0.155215
0.125277 0.178073 0.157321
0.134798 0.176486 0.153445
0.145968 0.172335 0.147677
0.152071 0.161563 0.142550
0.194827 0.172396 0.133364
0.279515 0.196841 0.112581
0.387091 0.218357 0.074861
0.477058 0.230350 0.008728
0.553124 0.236027 0.000000
0.611109 0.232547 0.000000
0.662562 0.230350 0.000000
0.708125 0.231846 0.000000
0.746944 0.236179 0.000000
0.780331 0.242527 0.000000
0.808713 0.250675 0.000000
0.832853 0.259709 0.000000
0.853635 0.269474 0.000000
0.871733 0.279545 0.000000
0.888151 0.290013 0.000000
0.903990 0.302098 0.000000
0.919219 0.315404 0.000000
0.933928 0.329320 0.000000
0.948180 0.343969 0.000000
0.962219 0.359014 0.000000
0.976074 0.374517 0.000000
0.989868 0.390234 0.000000
1.000000 0.405829 0.000000
1.000000 0.421241 0.000000
0.129488 0.206699 0.175296
0.130404 0.207309 0.175326
0.132479 0.208743 0.176242
0.137148 0.212436 0.177707
0.144869 0.218021 0.180209
0.156222 0.221988 0.180453
0.167147 0.215854 0.172732
0.179507 0.207980 0.163973
0.183536 0.191104 0.156527
0.228092 0.199252 0.145510
0.327276 0.227665 0.118471
0.442115 0.250736 0.065126
0.542504 0.267033 0.000000
0.616968 0.280308 0.000000
0.672389 0.285466 0.000000
0.714473 0.286168 0.000000
0.750820 0.288426 0.000000
0.782406 0.292424 0.000000
0.809354 0.297368 0.000000
0.832517 0.303014 0.000000
0.852567 0.309422 0.000000
0.870146 0.316197 0.000000
0.886351 0.323980 0.000000
0.902098 0.333379 0.000000
0.917296 0.344244 0.000000
0.931975 0.355779 0.000000
0.946227 0.368139 0.000000
0.960266 0.381292 0.000000
0.974151 0.394934 0.000000
0.987976 0.408759 0.000000
1.000000 0.422736 0.000000
1.000000 0.436652 0.000000
0.156710 0.254978 0.203525
0.157137 0.255344 0.203738
0.159426 0.257145 0.204440
0.165286 0.260899 0.206210
0.174380 0.266880 0.208927
0.188083 0.275395 0.213046
0.200107 0.271946 0.206851
0.211521 0.261936 0.195590
0.222934 0.249485 0.183444
0.222232 0.225498 0.173220
0.265690 0.229252 0.160342
0.377234 0.260655 0.128664
0.494331 0.285893 0.068971
0.597833 0.307317 0.000000
0.665034 0.323766 0.000000
0.718868 0.341558 0.000000
0.753841 0.342443 0.000000
0.784054 0.343816 0.000000
0.809812 0.345953 0.000000
0.831998 0.348608 0.000000
0.851225 0.351751 0.000000
0.868223 0.355169 0.000000
0.884092 0.360052 0.000000
0.899535 0.366735 0.000000
0.914519 0.374670 0.000000
0.929076 0.383886 0.000000
0.943359 0.394049 0.000000
0.957427 0.405188 0.000000
0.971496 0.416876 0.000000
0.985443 0.429053 0.000000
0.999420 0.441505 0.000000
1.000000 0.454017 0.000000
0.196231 0.310948 0.236973
0.196994 0.311406 0.237186
0.199954 0.313512 0.238163
0.206729 0.317388 0.239994
0.217044 0.323674 0.243168
0.232364 0.332677 0.247684
0.250675 0.340215 0.250309
0.259709 0.328466 0.236820
0.269200 0.313878 0.221744
0.277958 0.296391 0.205783
0.269871 0.264683 0.192752
0.309545 0.262791 0.178561
0.429114 0.296635 0.143740
0.541619 0.323583 0.088441
0.635554 0.346838 0.000000
0.702083 0.366735 0.000000
0.748562 0.384222 0.000000
0.784421 0.396185 0.000000
0.809018 0.395209 0.000000
0.830289 0.394812 0.000000
0.848966 0.394812 0.000000
0.865629 0.395666 0.000000
0.881498 0.398352 0.000000
0.896941 0.402472 0.000000
0.912016 0.408026 0.000000
0.926543 0.415198 0.000000
0.940887 0.423194 0.000000
0.955016 0.432166 0.000000
0.969085 0.441932 0.000000
0.983124 0.452186 0.000000
0.997192 0.462867 0.000000
1.000000 0.473762 0.000000
0.252689 0.373114 0.277348
0.253880 0.373602 0.277562
0.256809 0.375280 0.278569
0.263951 0.379156 0.280888
0.275303 0.384894 0.284489
0.291081 0.393103 0.289647
0.312688 0.403967 0.296666
0.325536 0.401740 0.290166
0.332311 0.387549 0.272465
0.339300 0.370031 0.252842
0.344060 0.347601 0.232242
0.328405 0.309148 0.215335
0.369360 0.305669 0.203067
0.490394 0.342199 0.165621
0.595148 0.371283 0.109804
0.677424 0.396338 0.000000
0.741390 0.418372 0.000000
0.780270 0.433753 0.000000
0.811612 0.447303 0.000000
0.833982 0.449531 0.000000
0.851499 0.446265 0.000000
0.867735 0.444587 0.000000
0.883391 0.444556 0.000000
0.898497 0.446418 0.000000
0.913207 0.449653 0.000000
0.927550 0.453956 0.000000
0.941588 0.459297 0.000000
0.955474 0.465736 0.000000
0.969207 0.472999 0.000000
0.983032 0.480781 0.000000
0.996857 0.489204 0.000000
1.000000 0.498116 0.000000
0.330571 0.440558 0.330083
0.331243 0.440864 0.330266
0.334325 0.442298 0.331365
0.340734 0.445655 0.333776
0.351202 0.450507 0.337407
0.365454 0.457496 0.342657
0.384619 0.466926 0.349798
0.407355 0.477424 0.357885
0.408881 0.464332 0.339361
0.411353 0.447883 0.317418
0.414801 0.427985 0.292515
0.414771 0.402014 0.266361
0.395087 0.359075 0.243900
0.410315 0.337560 0.224613
0.527398 0.375586 0.188266
0.623743 0.405707 0.137545
0.697841 0.430945 0.000000
0.756039 0.451881 0.000000
0.795377 0.466285 0.000000
0.823056 0.477180 0.000000
0.846403 0.486732 0.000000
0.863096 0.483772 0.000000
0.878874 0.482002 0.000000
0.894224 0.481819 0.000000
0.909117 0.483101 0.000000
0.923583 0.485664 0.000000
0.937804 0.489387 0.000000
0.951873 0.494087 0.000000
0.965850 0.499611 0.000000
0.979828 0.505913 0.000000
0.993805 0.512810 0.000000
1.000000 0.520317 0.000000
0.402258 0.496773 0.379889
0.402380 0.496925 0.379950
0.405066 0.498146 0.380926
0.410101 0.500359 0.382849
0.418311 0.504112 0.385901
0.429877 0.509483 0.390570
0.445441 0.516899 0.397040
0.464179 0.525902 0.404974
0.475349 0.526238 0.401953
0.475044 0.512291 0.381201
0.475196 0.495277 0.357153
0.475715 0.474311 0.329747
0.470649 0.445716 0.299870
0.448920 0.401007 0.271336
0.449592 0.369574 0.248386
0.560052 0.408179 0.213718
0.647272 0.438209 0.167636
0.714534 0.462867 0.097902
0.767422 0.482094 0.000000
0.807492 0.495033 0.000000
0.832456 0.503868 0.000000
0.854948 0.512902 0.000000
0.874662 0.519097 0.000000
0.890135 0.517449 0.000000
0.905180 0.517144 0.000000
0.919829 0.518181 0.000000
0.934203 0.520226 0.000000
0.948363 0.523278 0.000000
0.962463 0.527184 0.000000
0.976562 0.532036 0.000000
0.990661 0.537530 0.000000
1.000000 0.543664 0.000000
0.465492 0.544244 0.427131
0.465919 0.544488 0.427253
0.467720 0.545251 0.428046
0.471687 0.546990 0.429633
0.478004 0.549859 0.432349
0.487007 0.554009 0.436316
0.498787 0.559655 0.441840
0.513390 0.566949 0.449104
0.530327 0.575708 0.457954
0.531456 0.566918 0.443000
0.530205 0.553063 0.421180
0.529107 0.535973 0.395575
0.527550 0.515129 0.366308
0.519463 0.485328 0.334081
0.496742 0.440009 0.301091
0.487465 0.401892 0.273320
0.587793 0.438636 0.240879
0.666712 0.468238 0.199893
0.728695 0.492042 0.146548
0.776761 0.509026 0.000000
0.814542 0.520439 0.000000
0.841337 0.529046 0.000000
0.863493 0.538201 0.000000
0.884306 0.548119 0.000000
0.901152 0.550774 0.000000
0.915953 0.550378 0.000000
0.930480 0.551080 0.000000
0.944823 0.552850 0.000000
0.959106 0.555505 0.000000
0.973388 0.559075 0.000000
0.987762 0.563409 0.000000
1.000000 0.568414 0.000000
0.517235 0.583795 0.470314
0.517845 0.584039 0.470588
0.519432 0.584802 0.471473
0.522515 0.586297 0.472999
0.527642 0.588922 0.475593
0.534691 0.592523 0.479438
0.544121 0.597498 0.484535
0.555657 0.603632 0.491218
0.569177 0.611078 0.499153
0.579370 0.614343 0.501061
0.577173 0.602747 0.481880
0.575097 0.588495 0.459083
0.572717 0.571191 0.432105
0.569665 0.549950 0.400824
0.559350 0.519585 0.366461
0.537377 0.475257 0.330663
0.526146 0.435737 0.299107
0.609979 0.466468 0.269474
0.682429 0.495308 0.233036
0.739742 0.517632 0.189120
0.784237 0.533318 0.128939
0.820005 0.544060 0.000000
0.850126 0.553155 0.000000
0.872007 0.562585 0.000000
0.892699 0.572412 0.000000
0.912230 0.582361 0.000000
0.926848 0.581994 0.000000
0.941344 0.582544 0.000000
0.955779 0.583917 0.000000
0.970123 0.586175 0.000000
0.984527 0.589166 0.000000
0.998932 0.592889 0.000000
0.559228 0.617639 0.509361
0.559655 0.617792 0.509545
0.560693 0.618433 0.510216
0.563317 0.619745 0.511711
0.567315 0.621851 0.514031
0.572900 0.624903 0.517327
0.580163 0.628840 0.521843
0.589166 0.633753 0.527550
0.599573 0.639582 0.534447
0.611322 0.646143 0.542473
0.613855 0.642084 0.533867
0.611902 0.631037 0.514488
0.609674 0.617334 0.491524
0.606836 0.600275 0.464424
0.603265 0.579522 0.432654
0.592218 0.549371 0.397345
0.571801 0.507225 0.359686
0.560510 0.468116 0.325689
0.629297 0.492439 0.298589
0.696437 0.520409 0.267185
0.749386 0.541527 0.230503
0.791104 0.556359 0.186069
0.825467 0.566949 0.119020
0.856962 0.576532 0.000000
0.880644 0.586023 0.000000
0.901152 0.595880 0.000000
0.920653 0.605646 0.000000
0.937804 0.611566 0.000000
0.952331 0.611933 0.000000
0.966796 0.613153 0.000000
0.981262 0.615106 0.000000
0.995727 0.617731 0.000000
0.594232 0.646601 0.545495
0.594537 0.646723 0.545708
0.602014 0.652522 0.553491
0.603906 0.653590 0.554772
0.606867 0.655207 0.556786
0.611109 0.657465 0.559655
0.616510 0.660395 0.563439
0.623255 0.664088 0.568261
0.631098 0.668544 0.574151
0.640101 0.673671 0.581079
0.648676 0.678126 0.586755
0.646418 0.669612 0.570214
0.644190 0.659052 0.550439
0.641840 0.645960 0.527062
0.639155 0.629847 0.499580
0.635554 0.609918 0.467567
0.623987 0.580041 0.431495
0.605035 0.539788 0.392065
0.593439 0.501823 0.355596
0.649134 0.519371 0.330205
0.711238 0.546471 0.303532
0.759670 0.566033 0.273381
0.798093 0.579980 0.239048
0.831785 0.590997 0.192782
0.863157 0.600732 0.113771
0.890043 0.609796 0.000000
0.910246 0.619226 0.000000
0.929503 0.628382 0.000000
0.947967 0.637201 0.000000
0.963317 0.639673 0.000000
0.977783 0.640650 0.000000
0.992279 0.642359 0.000000
0.624720 0.671778 0.580255
0.625422 0.672297 0.580987
0.626673 0.673182 0.582177
0.628687 0.674403 0.583886
0.631434 0.675990 0.586053
0.634882 0.677913 0.588769
0.639216 0.680385 0.592096
0.644526 0.683375 0.596124
0.650690 0.686946 0.601038
0.657710 0.691096 0.606744
0.665492 0.695918 0.613184
0.668605 0.694972 0.609979
0.666377 0.686610 0.593896
0.664210 0.676631 0.574426
0.662226 0.664454 0.551507
0.660029 0.649439 0.524498
0.657191 0.631037 0.493202
0.646693 0.602869 0.458106
0.629694 0.565118 0.418952
0.618769 0.529107 0.381750
0.664607 0.541161 0.357488
0.722194 0.567529 0.335668
0.767117 0.586267 0.310460
0.803555 0.600061 0.283024
0.836851 0.611994 0.246586
0.868162 0.622492 0.194522
0.897581 0.631312 0.095888
0.918730 0.640436 0.000000
0.937987 0.649409 0.000000
0.956512 0.657984 0.000000
0.973907 0.665187 0.000000
0.988373 0.666194 0.000000
0.647730 0.691402 0.608576
0.648310 0.691859 0.609247
0.649409 0.692653 0.610346
0.650996 0.693660 0.611780
0.653193 0.695094 0.613672
0.655970 0.696773 0.615930
0.659388 0.698878 0.618677
0.663600 0.701472 0.622034
0.668605 0.704646 0.626062
0.674342 0.708431 0.630762
0.680781 0.712734 0.636042
0.687892 0.717708 0.641840
0.686671 0.711574 0.631250
0.684321 0.702937 0.616114
0.682033 0.693019 0.597833
0.680171 0.681605 0.575647
0.678462 0.667689 0.549279
0.676356 0.650752 0.518669
0.667018 0.624384 0.484657
0.652491 0.589654 0.445930
0.642420 0.555413 0.408331
0.679347 0.562249 0.384710
0.732265 0.587396 0.367254
0.773983 0.605463 0.346929
0.809293 0.619684 0.323857
0.842313 0.632502 0.294377
0.873442 0.643641 0.254398
0.902953 0.652918 0.195987
0.927611 0.661219 0.139498
0.946929 0.670039 0.124849
0.965454 0.678401 0.110842
0.983124 0.686275 0.095247
0.667811 0.710140 0.634089
0.668299 0.710567 0.634607
0.669154 0.711238 0.635462
0.670436 0.712184 0.636652
0.672206 0.713497 0.638209
0.674495 0.715023 0.640101
0.677302 0.717006 0.642359
0.680812 0.719387 0.645136
0.684932 0.722316 0.648463
0.689754 0.725734 0.652338
0.695186 0.729702 0.656733
0.701289 0.734188 0.661524
0.705379 0.735683 0.662226
0.703212 0.727993 0.650477
0.700832 0.719142 0.636286
0.698451 0.709102 0.619287
0.696284 0.697749 0.598810
0.694667 0.684718 0.573907
0.693446 0.669551 0.544671
0.685542 0.645228 0.511986
0.673884 0.613855 0.474525
0.665675 0.582330 0.437324
0.694392 0.584253 0.414069
0.742947 0.608301 0.400946
0.781796 0.625940 0.385290
0.816892 0.641291 0.366430
0.849668 0.655055 0.342779
0.880735 0.666926 0.311528
0.910307 0.676570 0.269169
0.938659 0.683986 0.207340
0.957916 0.692714 0.204166
0.976135 0.700679 0.201633
0.687526 0.730922 0.659266
0.687678 0.731167 0.659480
0.688228 0.731533 0.659907
0.689052 0.732174 0.660609
0.690364 0.733150 0.661677
0.692103 0.734432 0.663020
0.694392 0.736141 0.664820
0.697322 0.738277 0.667079
0.700801 0.740902 0.669825
0.704982 0.744076 0.673152
0.709743 0.747646 0.676997
0.715084 0.751705 0.681361
0.720912 0.756130 0.686213
0.721675 0.753048 0.680873
0.719539 0.745235 0.669184
0.717281 0.736324 0.655940
0.714778 0.726131 0.640131
0.712215 0.714656 0.621210
0.710048 0.701717 0.598383
0.708583 0.687098 0.570459
0.701595 0.664393 0.538537
0.692042 0.635676 0.501976
0.685359 0.606470 0.465187
0.707210 0.603784 0.441444
0.751583 0.626490 0.431586
0.788907 0.644404 0.419318
0.823758 0.660639 0.403815
0.856291 0.675166 0.385199
0.887236 0.687495 0.360632
0.916869 0.697505 0.327794
0.945464 0.705104 0.282170
0.967559 0.712093 0.257877
0.703212 0.749142 0.679530
0.703426 0.749325 0.679713
0.703822 0.749691 0.680110
0.704616 0.750271 0.680781
0.705684 0.751156 0.681727
0.707301 0.752316 0.682979
0.709346 0.753841 0.684627
0.711910 0.755825 0.686763
0.715053 0.758175 0.689387
0.718776 0.760983 0.692470
0.723018 0.764248 0.696071
0.727810 0.767819 0.700099
0.733059 0.771817 0.704616
0.738430 0.775631 0.708797
0.736507 0.768917 0.698299
0.734432 0.761227 0.686427
0.732265 0.752407 0.673152
0.729824 0.742397 0.658412
0.727291 0.731044 0.641047
0.724788 0.718288 0.620111
0.722408 0.703670 0.594720
0.715694 0.682216 0.564630
0.708095 0.656153 0.529198
0.703151 0.629541 0.493629
0.718685 0.622278 0.467994
0.759670 0.643824 0.461036
0.796506 0.662684 0.452033
0.831052 0.679744 0.440009
0.863493 0.694942 0.425910
0.894347 0.707698 0.406989
0.923735 0.717556 0.380896
0.951843 0.724941 0.345220
0.719356 0.768002 0.701106
0.719631 0.768215 0.701442
0.719966 0.768551 0.701778
0.720577 0.769009 0.702266
0.721492 0.769619 0.702968
0.722744 0.770535 0.704005
0.724422 0.771725 0.705318
0.726528 0.773251 0.707088
0.729213 0.775174 0.709255
0.732387 0.777523 0.711940
0.736049 0.780179 0.714992
0.740230 0.783291 0.718624
0.744808 0.786709 0.722621
0.749874 0.790372 0.726955
0.752224 0.790127 0.725551
0.750149 0.783444 0.714717
0.748013 0.775753 0.702541
0.745876 0.767086 0.689113
0.743618 0.757351 0.674311
0.741207 0.746334 0.658045
0.738613 0.734005 0.638972
0.735531 0.719448 0.615839
0.728634 0.698787 0.588251
0.721553 0.674311 0.554589
0.717891 0.649989 0.520073
0.730129 0.641108 0.495827
0.768795 0.662287 0.491249
0.805234 0.682063 0.485206
0.839597 0.699763 0.476417
0.871489 0.714809 0.465553
0.901854 0.727230 0.450996
0.930602 0.737179 0.431739
0.733394 0.784268 0.720394
0.733608 0.784482 0.720668
0.733974 0.784787 0.721035
0.734585 0.785214 0.721584
0.735470 0.785855 0.722316
0.736660 0.786740 0.723354
0.738277 0.787961 0.724758
0.740352 0.789456 0.726558
0.742824 0.791287 0.728756
0.745815 0.793454 0.731319
0.749172 0.795926 0.734310
0.752987 0.798703 0.737697
0.757259 0.801755 0.741421
0.761868 0.805020 0.745449
0.766812 0.808530 0.749752
0.766445 0.804868 0.743252
0.764309 0.798398 0.732387
0.762295 0.791104 0.720363
0.760311 0.782864 0.706966
0.758297 0.773556 0.692226
0.756100 0.762997 0.675990
0.753597 0.751125 0.658198
0.750088 0.736843 0.637446
0.743069 0.717189 0.612665
0.735958 0.694179 0.582147
0.732692 0.671656 0.549767
0.741848 0.660975 0.525750
0.779599 0.682734 0.523369
0.815549 0.703090 0.519890
0.849180 0.720790 0.514214
0.880674 0.735805 0.507164
0.910246 0.748226 0.498024
0.748043 0.800748 0.740627
0.748165 0.800870 0.740780
0.748440 0.801083 0.741054
0.748928 0.801450 0.741512
0.749722 0.801999 0.742184
0.750820 0.802762 0.743099
0.752255 0.803799 0.744350
0.754055 0.805081 0.745937
0.756313 0.806668 0.747890
0.758999 0.808530 0.750240
0.762081 0.810697 0.752926
0.765530 0.813138 0.755978
0.769406 0.815854 0.759335
0.773617 0.818723 0.762936
0.778195 0.821836 0.766873
0.782132 0.824033 0.769345
0.780056 0.818631 0.760037
0.778012 0.812497 0.749538
0.776120 0.805661 0.737819
0.774289 0.797940 0.724758
0.772519 0.789242 0.710292
0.770657 0.779355 0.694270
0.768612 0.768185 0.676661
0.764981 0.754421 0.657465
0.758145 0.735927 0.635431
0.750942 0.714229 0.608148
0.747463 0.693172 0.578759
0.753719 0.680842 0.554833
0.790463 0.702602 0.553735
0.825925 0.723445 0.553155
0.858915 0.741238 0.551110
0.889738 0.756283 0.548119
0.762112 0.816068 0.759884
0.762264 0.816159 0.760006
0.762509 0.816342 0.760281
0.762966 0.816709 0.760708
0.763790 0.817227 0.761379
0.764828 0.818021 0.762356
0.766384 0.819089 0.763760
0.768246 0.820462 0.765438
0.770565 0.822080 0.767575
0.773220 0.824002 0.770016
0.776364 0.826169 0.772763
0.779751 0.828550 0.775814
0.783536 0.831113 0.779110
0.787533 0.833799 0.782589
0.791806 0.836637 0.786252
0.796323 0.839567 0.790005
0.797818 0.839017 0.788296
0.795895 0.834104 0.779568
0.794003 0.828550 0.769802
0.792264 0.822354 0.758785
0.790646 0.815335 0.746456
0.789059 0.807370 0.732509
0.787442 0.798215 0.716793
0.785794 0.787839 0.699336
0.782467 0.774777 0.680293
0.775998 0.757412 0.659937
0.768978 0.737392 0.636225
0.765591 0.718532 0.611353
0.769589 0.705959 0.590082
0.805020 0.727199 0.590234
0.839658 0.747921 0.592554
0.871763 0.765438 0.594141
0.778195 0.832486 0.781033
0.778256 0.832517 0.781033
0.778439 0.832639 0.781216
0.778836 0.832883 0.781521
0.779477 0.833310 0.782040
0.780362 0.833890 0.782803
0.781582 0.834684 0.783841
0.783139 0.835691 0.785153
0.785092 0.836942 0.786770
0.787320 0.838407 0.788663
0.789914 0.840116 0.790829
0.792844 0.842008 0.793301
0.796109 0.844083 0.796078
0.799649 0.846342 0.798978
