20 Preset/Movie Style Preset/【3】LUT for PR-AE-FCPX/Movie - LUT  (6).cube
# Created by Adobe Lightroom plugin Export LUT (1.24.0)
# www.johnrellis.com/lightroom/exportlut.htm
# Preset: 电影质感06（修改版）
# Color profile: C:\Program Files (x86)\Common Files\Adobe\Color\Profiles\Recommended\VideoHD.icc
LUT_3D_SIZE 32
DOMAIN_MIN 0.0 0.0 0.0
DOMAIN_MAX 1.0 1.0 1.0
0.080262 0.094423 0.108461
0.081514 0.094331 0.108461
0.083589 0.094606 0.108400
0.088930 0.095369 0.108583
0.094301 0.096345 0.109071
0.102205 0.097322 0.109468
0.112062 0.099092 0.110018
0.125185 0.101198 0.110445
0.142275 0.103365 0.110719
0.162966 0.105898 0.111055
0.188357 0.108186 0.110780
0.218235 0.110170 0.110414
0.253330 0.111147 0.109590
0.293309 0.111116 0.108095
0.338781 0.108888 0.106020
0.389288 0.102876 0.103304
0.441627 0.092226 0.099855
0.494942 0.067872 0.095277
0.545586 0.026917 0.090333
0.592523 0.000000 0.081758
0.634913 0.000000 0.068269
0.672633 0.000000 0.051728
0.705898 0.000000 0.035920
0.736446 0.046448 0.018219
0.764584 0.099031 0.000855
0.790646 0.129274 0.000000
0.814359 0.158236 0.000000
0.835721 0.186099 0.000000
0.854978 0.213016 0.000000
0.872496 0.239658 0.000000
0.888731 0.266392 0.000000
0.904845 0.293858 0.000000
0.081514 0.094331 0.108461
0.081514 0.094331 0.108461
0.084382 0.094942 0.108339
0.088930 0.095369 0.108583
0.094972 0.096254 0.109041
0.101961 0.097749 0.109407
0.112428 0.099428 0.109987
0.125002 0.101564 0.110414
0.142061 0.103731 0.110994
0.162844 0.106264 0.110994
0.187991 0.108614 0.110719
0.217960 0.110567 0.110384
0.252903 0.111635 0.109560
0.292668 0.111696 0.108034
0.338048 0.109285 0.106386
0.388586 0.103761 0.103273
0.440925 0.093782 0.099794
0.493935 0.070008 0.095369
0.544335 0.030396 0.090455
0.590814 0.000000 0.082216
0.633234 0.000000 0.068849
0.670863 0.000000 0.052796
0.704189 0.000000 0.036042
0.734798 0.046662 0.019776
0.763088 0.099031 0.001282
0.789273 0.128450 0.000000
0.813077 0.157168 0.000000
0.834562 0.185183 0.000000
0.854002 0.212100 0.000000
0.871641 0.238865 0.000000
0.887968 0.265354 0.000000
0.904082 0.293065 0.000000
0.082124 0.095430 0.109316
0.081483 0.095827 0.109590
0.082734 0.095766 0.109590
0.089021 0.096864 0.109407
0.094575 0.097841 0.109194
0.102144 0.099245 0.109865
0.112551 0.100801 0.110445
0.126070 0.102815 0.110872
0.142885 0.105287 0.111086
0.163516 0.107790 0.111116
0.189059 0.109926 0.110811
0.218967 0.112154 0.110414
0.253849 0.113497 0.109560
0.293675 0.113741 0.108003
0.339178 0.111849 0.105898
0.389563 0.106447 0.103120
0.441901 0.097108 0.099580
0.494392 0.080568 0.095491
0.544366 0.044923 0.090150
0.590814 0.012207 0.081666
0.632990 0.000000 0.068055
0.670619 0.000000 0.051850
0.703792 0.016297 0.035126
0.734432 0.064393 0.018860
0.762600 0.104219 0.001831
0.788785 0.132631 0.000000
0.812558 0.160586 0.000000
0.834134 0.187686 0.000000
0.853574 0.214511 0.000000
0.871244 0.240726 0.000000
0.887572 0.266819 0.000000
0.903716 0.294163 0.000000
0.083284 0.098329 0.111513
0.083284 0.098329 0.111513
0.083894 0.098665 0.111788
0.087221 0.098848 0.111757
0.092897 0.100160 0.111513
0.102968 0.102327 0.110445
0.113313 0.103914 0.111025
0.126986 0.106111 0.111391
0.144442 0.108370 0.111604
0.165713 0.110903 0.111238
0.191409 0.113466 0.111208
0.221286 0.115755 0.110445
0.256596 0.117647 0.109438
0.296635 0.118166 0.108095
0.341985 0.116762 0.105898
0.392462 0.112276 0.102968
0.444251 0.104463 0.099336
0.496101 0.092805 0.095186
0.545220 0.072999 0.089784
0.590967 0.043000 0.081117
0.632685 0.025269 0.067384
0.669978 0.027710 0.051087
0.703273 0.050416 0.034363
0.733852 0.090394 0.017945
0.762142 0.115541 0.000275
0.788449 0.141299 0.000000
0.812436 0.168032 0.000000
0.834043 0.194156 0.000000
0.853513 0.219730 0.000000
0.871122 0.245457 0.000000
0.887358 0.271061 0.000000
0.903410 0.297765 0.000000
0.086580 0.101656 0.114839
0.086580 0.101656 0.114839
0.087190 0.101961 0.115084
0.088472 0.102602 0.115023
0.090547 0.102785 0.114656
0.098421 0.104799 0.114321
0.111910 0.108034 0.113069
0.129152 0.110994 0.111971
0.146792 0.113649 0.111788
0.168643 0.116426 0.111635
0.194705 0.119203 0.111177
0.225193 0.121889 0.110292
0.260472 0.124208 0.109133
0.300999 0.125338 0.107576
0.346715 0.124849 0.105470
0.397101 0.121492 0.102266
0.449073 0.115023 0.098756
0.500008 0.106661 0.093996
0.548486 0.096803 0.088808
0.593469 0.087495 0.079225
0.634730 0.079133 0.063996
0.671534 0.082460 0.047608
0.704341 0.094697 0.031769
0.734737 0.111543 0.014954
0.762875 0.132174 0.000000
0.789059 0.155337 0.000000
0.812772 0.179538 0.000000
0.834226 0.203922 0.000000
0.853483 0.228611 0.000000
0.870970 0.253117 0.000000
0.887114 0.277714 0.000000
0.903044 0.303746 0.000000
0.089143 0.106538 0.118135
0.089143 0.106538 0.118135
0.089509 0.106844 0.118379
0.091096 0.107362 0.118593
0.092897 0.107881 0.118196
0.096040 0.107240 0.117952
0.105989 0.110506 0.117098
0.123445 0.115328 0.115236
0.148165 0.121004 0.112886
0.172976 0.125185 0.111757
0.199985 0.128115 0.111147
0.231144 0.131380 0.110323
0.267094 0.133944 0.108980
0.308141 0.136049 0.107057
0.354559 0.136202 0.104616
0.405158 0.133883 0.101411
0.456550 0.129397 0.097475
0.506798 0.123476 0.092317
0.554467 0.116854 0.086152
0.598596 0.111513 0.075319
0.638911 0.109377 0.059052
0.674891 0.113100 0.043153
0.716457 0.127260 0.021790
0.745480 0.142123 0.004700
0.772366 0.160220 0.000000
0.797177 0.180789 0.000000
0.819577 0.202243 0.000000
0.839780 0.224765 0.000000
0.858061 0.247379 0.000000
0.874693 0.270085 0.000000
0.890318 0.293584 0.000000
0.905974 0.318425 0.000000
0.092317 0.113191 0.122683
0.092775 0.113466 0.122652
0.093141 0.113710 0.122896
0.094301 0.114504 0.123323
0.095949 0.115541 0.123445
0.099428 0.115572 0.122591
0.102937 0.114382 0.121859
0.115694 0.118135 0.120577
0.138888 0.125154 0.117952
0.169467 0.133089 0.114931
0.208438 0.142031 0.111147
0.241154 0.145510 0.110018
0.278386 0.148806 0.108553
0.320714 0.151003 0.106233
0.368261 0.151705 0.103243
0.419074 0.150637 0.099458
0.470375 0.147860 0.094759
0.519707 0.143893 0.089784
0.566064 0.140322 0.081056
0.609277 0.138155 0.066957
0.648737 0.138857 0.050324
0.683955 0.143587 0.033051
0.715877 0.152590 0.016754
0.745357 0.165682 0.000458
0.772549 0.181613 0.000000
0.797299 0.200259 0.000000
0.819455 0.219699 0.000000
0.839445 0.240146 0.000000
0.857481 0.261295 0.000000
0.873930 0.282475 0.000000
0.889525 0.304601 0.000000
0.905058 0.328313 0.000000
0.096559 0.123018 0.128664
0.096559 0.123018 0.128664
0.097230 0.123507 0.129122
0.098543 0.124758 0.129458
0.100435 0.126436 0.130220
0.103639 0.126436 0.129397
0.108309 0.126101 0.128084
0.112398 0.123323 0.126528
0.127565 0.127901 0.125124
0.156191 0.137240 0.121950
0.192996 0.147860 0.118013
0.239353 0.158816 0.112734
0.288975 0.167666 0.107332
0.332372 0.170260 0.104555
0.380804 0.171786 0.101198
0.430915 0.171542 0.096834
0.480720 0.170016 0.092134
0.528435 0.168032 0.085145
0.573480 0.166262 0.073854
0.615229 0.165469 0.057893
0.653223 0.167453 0.041962
0.687434 0.172213 0.025483
0.718471 0.180606 0.008545
0.747219 0.192172 0.000000
0.773831 0.206516 0.000000
0.798123 0.222751 0.000000
0.819852 0.240513 0.000000
0.839414 0.258976 0.000000
0.857206 0.278233 0.000000
0.873411 0.297978 0.000000
0.888914 0.318730 0.000000
0.904326 0.341192 0.000000
0.101778 0.137026 0.137148
0.102174 0.137240 0.137118
0.102571 0.137911 0.137484
0.104097 0.139162 0.138003
0.106783 0.141207 0.139101
0.110262 0.143160 0.139467
0.115450 0.142153 0.137423
0.121645 0.140749 0.134890
0.124941 0.135866 0.132845
0.142580 0.140291 0.131075
0.177096 0.152316 0.126925
0.220554 0.165255 0.121736
0.273960 0.178500 0.114900
0.338659 0.191379 0.105013
0.396155 0.196750 0.097444
0.445228 0.197086 0.092836
0.493324 0.196292 0.087343
0.539452 0.195438 0.077516
0.582818 0.194705 0.061769
0.623011 0.195346 0.046174
0.659388 0.197940 0.029938
0.692134 0.203067 0.014038
0.722133 0.210666 0.000000
0.750088 0.220951 0.000000
0.775998 0.233829 0.000000
0.799527 0.248447 0.000000
0.820645 0.264286 0.000000
0.839811 0.280827 0.000000
0.857176 0.298283 0.000000
0.873045 0.316258 0.000000
0.888396 0.335668 0.000000
0.903685 0.356817 0.000000
0.109621 0.156619 0.148623
0.109987 0.156802 0.148592
0.110689 0.157504 0.148898
0.112398 0.159091 0.149691
0.115053 0.161532 0.150759
0.119478 0.165225 0.152407
0.124727 0.165042 0.150912
0.131228 0.162783 0.147585
0.138308 0.159854 0.143771
0.141482 0.151980 0.140658
0.160220 0.155398 0.138308
0.200656 0.170230 0.132845
0.251377 0.185550 0.126680
0.312261 0.200656 0.118135
0.384314 0.214847 0.105379
0.459510 0.226841 0.087160
0.507225 0.226963 0.076600
0.551904 0.226780 0.060639
0.593561 0.226871 0.045472
0.631983 0.228122 0.029541
0.666468 0.231052 0.014374
0.697566 0.235569 0.000122
0.726162 0.242496 0.000000
0.752895 0.251743 0.000000
0.777798 0.263035 0.000000
0.800473 0.275761 0.000000
0.820981 0.289677 0.000000
0.839658 0.304479 0.000000
0.856718 0.320104 0.000000
0.872343 0.336614 0.000000
0.887663 0.354498 0.000000
0.902892 0.374334 0.000000
0.120302 0.181918 0.163058
0.120546 0.182071 0.163210
0.121584 0.183078 0.163607
0.123415 0.184817 0.164401
0.126833 0.187625 0.165927
0.132174 0.191836 0.167697
0.138521 0.195865 0.169253
0.145388 0.192599 0.164828
0.152804 0.188571 0.159945
0.160433 0.183566 0.154604
0.161746 0.171633 0.150027
0.180484 0.173190 0.146975
0.227817 0.190494 0.140658
0.285283 0.208011 0.133211
0.353887 0.224735 0.122591
0.428809 0.239750 0.108186
0.502983 0.252964 0.086824
0.564935 0.262028 0.039155
0.604669 0.262364 0.024109
0.640864 0.263767 0.009674
0.673548 0.266300 0.000000
0.703059 0.270329 0.000000
0.730587 0.276677 0.000000
0.756313 0.284611 0.000000
0.780362 0.294316 0.000000
0.802121 0.305547 0.000000
0.821927 0.317754 0.000000
0.839994 0.330755 0.000000
0.856535 0.344610 0.000000
0.871916 0.359289 0.000000
0.887053 0.375952 0.000000
0.902220 0.394141 0.000000
0.135561 0.213565 0.181430
0.135622 0.213809 0.181552
0.136660 0.214755 0.182010
0.139315 0.216800 0.182895
0.143252 0.219944 0.184482
0.149050 0.224430 0.186893
0.157382 0.230747 0.189914
0.165316 0.230961 0.187778
0.172732 0.225711 0.181582
0.180789 0.219120 0.174746
0.187930 0.210910 0.167269
0.186984 0.195132 0.161135
0.207004 0.195499 0.158053
0.262791 0.215915 0.150729
0.329625 0.235904 0.141573
0.404883 0.254368 0.129397
0.480323 0.270329 0.112856
0.551598 0.285435 0.089326
0.615198 0.300816 0.018036
0.657160 0.307439 0.000000
0.687312 0.309209 0.000000
0.714717 0.312535 0.000000
0.740352 0.317388 0.000000
0.764492 0.324254 0.000000
0.786770 0.332250 0.000000
0.806973 0.341436 0.000000
0.825437 0.351354 0.000000
0.842374 0.362188 0.000000
0.858030 0.373877 0.000000
0.872892 0.386755 0.000000
0.887724 0.401495 0.000000
0.902586 0.418128 0.000000
0.158083 0.253483 0.204746
0.157992 0.253758 0.204807
0.159579 0.254673 0.205295
0.162448 0.256809 0.206485
0.167086 0.260288 0.208164
0.174289 0.264988 0.210605
0.183841 0.271733 0.214054
0.195834 0.279759 0.217868
0.202396 0.273045 0.210269
0.209689 0.264897 0.201541
0.217014 0.255344 0.192294
0.222354 0.243351 0.182803
0.218387 0.223148 0.174960
0.231601 0.215915 0.169070
0.294133 0.239017 0.161257
0.367407 0.260655 0.150881
0.443305 0.280003 0.138308
0.516777 0.297368 0.121401
0.583856 0.314061 0.098054
0.642145 0.330846 0.036103
0.691432 0.348150 0.000000
0.718563 0.350866 0.000000
0.743252 0.354498 0.000000
0.766567 0.359777 0.000000
0.787900 0.366217 0.000000
0.807370 0.373632 0.000000
0.825284 0.381842 0.000000
0.841764 0.390845 0.000000
0.857023 0.400946 0.000000
0.871855 0.412329 0.000000
0.886625 0.425513 0.000000
0.901427 0.440620 0.000000
0.187869 0.297002 0.230625
0.187839 0.297246 0.230564
0.189578 0.298314 0.231266
0.192630 0.300389 0.232273
0.197848 0.303777 0.234012
0.205509 0.308721 0.236484
0.215824 0.315618 0.240085
0.229953 0.324041 0.244572
0.241428 0.325841 0.243351
0.246921 0.316442 0.233280
0.252811 0.305425 0.222171
0.258518 0.292668 0.210605
0.260166 0.275975 0.198978
0.251926 0.251408 0.188876
0.258824 0.237980 0.181094
0.328618 0.263371 0.172671
0.404456 0.285863 0.161593
0.479011 0.306188 0.149081
0.549340 0.324834 0.132845
0.611688 0.342901 0.111177
0.664973 0.360845 0.073854
0.710842 0.379278 0.000000
0.746242 0.393347 0.000000
0.768551 0.396979 0.000000
0.788968 0.401587 0.000000
0.807767 0.407233 0.000000
0.825101 0.413550 0.000000
0.841062 0.420935 0.000000
0.856016 0.429206 0.000000
0.870756 0.439155 0.000000
0.885466 0.450874 0.000000
0.900267 0.464363 0.026825
0.226169 0.344366 0.259556
0.226841 0.344579 0.259709
0.228519 0.345495 0.260258
0.231968 0.347509 0.261357
0.237522 0.350774 0.263157
0.245792 0.355444 0.265873
0.256901 0.361700 0.269596
0.271519 0.369818 0.274632
0.289433 0.379675 0.280827
0.295171 0.372595 0.271489
0.299107 0.361028 0.258701
0.303288 0.347295 0.244907
0.306462 0.331823 0.230381
0.303655 0.310704 0.216434
0.289982 0.281376 0.203983
0.289891 0.261814 0.194034
0.363470 0.287907 0.185306
0.439429 0.311162 0.174105
0.512108 0.332616 0.161654
0.578363 0.352514 0.146395
0.636103 0.371771 0.127321
0.685634 0.391150 0.101961
0.728603 0.410590 0.036439
0.765560 0.429450 0.000000
0.789639 0.437537 0.000000
0.807767 0.441352 0.000000
0.824491 0.446021 0.000000
0.840055 0.451637 0.000000
0.854948 0.458442 0.000000
0.869749 0.466957 0.000000
0.884489 0.477363 0.036957
0.899321 0.489479 0.084016
0.273930 0.391272 0.292424
0.274418 0.391638 0.292485
0.276127 0.392615 0.293156
0.280003 0.394415 0.294438
0.285924 0.397589 0.296605
0.294194 0.402014 0.299687
0.305760 0.408057 0.303899
0.319829 0.415564 0.309300
0.337530 0.424689 0.315953
0.352209 0.429511 0.317998
0.353094 0.418006 0.303563
0.354467 0.404425 0.287358
0.355840 0.388647 0.270024
0.356176 0.370245 0.252079
0.348760 0.345159 0.235019
0.331182 0.312230 0.219760
0.326787 0.288670 0.207340
0.396857 0.311894 0.198672
0.471473 0.336278 0.187930
0.541436 0.358618 0.175967
0.603815 0.379889 0.162600
0.657984 0.400732 0.146456
0.704494 0.421302 0.126436
0.744747 0.441291 0.099763
0.778805 0.459510 0.032959
0.807492 0.475685 0.000000
0.823789 0.478614 0.000000
0.839017 0.482490 0.000000
0.853849 0.487984 0.022248
0.868589 0.495125 0.061402
0.883330 0.503990 0.093477
0.898070 0.514641 0.113252
0.326390 0.436347 0.327947
0.326970 0.436530 0.328099
0.328527 0.437385 0.328801
0.332006 0.439124 0.330053
0.337530 0.441962 0.332280
0.345373 0.446052 0.335302
0.355871 0.451270 0.339422
0.368872 0.458045 0.344762
0.384771 0.466011 0.351171
0.402930 0.475319 0.358740
0.408606 0.471260 0.351537
0.407752 0.458900 0.335363
0.406928 0.444099 0.317113
0.405798 0.426795 0.297063
0.403845 0.406806 0.275395
0.392889 0.378820 0.255161
0.372595 0.343175 0.236973
0.365087 0.316075 0.222019
0.428534 0.336126 0.213138
0.501549 0.361303 0.203128
0.568505 0.384894 0.192203
0.627649 0.407752 0.180789
0.678096 0.429786 0.167697
0.721706 0.451148 0.152651
0.759182 0.470832 0.135073
0.790555 0.488228 0.114931
0.817258 0.503349 0.090547
0.837766 0.513146 0.065675
0.852598 0.517449 0.092988
0.867338 0.523369 0.108736
0.882078 0.531029 0.124727
0.896849 0.540459 0.141756
0.379522 0.478767 0.364477
0.379889 0.478920 0.364721
0.387549 0.484413 0.369574
0.390570 0.486000 0.370916
0.395453 0.488441 0.372961
0.402319 0.491859 0.375921
0.411627 0.496345 0.379767
0.422919 0.502068 0.384710
0.436500 0.508965 0.390845
0.452552 0.516838 0.398108
0.468269 0.524132 0.404334
0.465858 0.513054 0.388617
0.463203 0.499794 0.370520
0.460304 0.484016 0.350103
0.456825 0.465644 0.327764
0.452399 0.444373 0.303410
0.438148 0.413977 0.279332
0.415961 0.376043 0.257115
0.405219 0.345892 0.239048
0.461097 0.361761 0.229587
0.532219 0.388251 0.220890
0.595972 0.413092 0.211368
0.650690 0.437049 0.202396
0.697749 0.459876 0.192599
0.738369 0.481117 0.181827
0.772519 0.499702 0.170993
0.801297 0.515801 0.160250
0.826139 0.530083 0.149233
0.849302 0.544152 0.135866
0.866026 0.551598 0.141573
0.880705 0.558099 0.155673
0.895445 0.566400 0.171786
0.431464 0.518608 0.401953
0.432319 0.519127 0.402472
0.434272 0.520256 0.403449
0.437476 0.521935 0.405066
0.441932 0.524285 0.407355
0.448127 0.527337 0.410163
0.456092 0.531273 0.413916
0.465827 0.536095 0.418524
0.477333 0.541894 0.424140
0.490761 0.548638 0.430793
0.505516 0.556329 0.438514
0.512200 0.555749 0.435523
0.509117 0.544427 0.418738
0.505791 0.531090 0.399664
0.502220 0.515496 0.378424
0.497780 0.497139 0.354589
0.492561 0.475685 0.328740
0.476783 0.444495 0.302983
0.454139 0.406104 0.277562
0.441901 0.374090 0.256443
0.490120 0.385840 0.246281
0.558740 0.413733 0.239414
0.619043 0.439673 0.231510
0.670253 0.464424 0.225345
0.714473 0.487495 0.218784
0.752041 0.508171 0.212558
0.783505 0.525902 0.206912
0.810269 0.541344 0.202304
0.834379 0.555901 0.197330
0.857603 0.570733 0.191379
0.879057 0.584619 0.187625
0.893828 0.591974 0.202823
0.477363 0.553094 0.437201
0.478096 0.553613 0.437659
0.479835 0.554589 0.438758
0.482582 0.555993 0.440223
0.486458 0.558160 0.442359
0.491676 0.560784 0.445106
0.498146 0.564111 0.448432
0.506157 0.568292 0.452796
0.515618 0.573205 0.458015
0.526574 0.578973 0.464088
0.538720 0.585595 0.471077
0.552117 0.592950 0.479011
0.550988 0.585260 0.466499
0.547936 0.573999 0.449165
0.544366 0.560784 0.429450
0.540581 0.545434 0.407355
0.535851 0.527306 0.382544
0.530144 0.506249 0.355322
0.513848 0.474830 0.328191
0.491585 0.436561 0.300267
0.478187 0.403143 0.275853
0.518151 0.410407 0.264652
0.583764 0.439246 0.259739
0.640223 0.466224 0.254643
0.688380 0.491371 0.250889
0.729763 0.514275 0.248051
0.764340 0.533928 0.246036
0.793393 0.551110 0.244938
0.818753 0.566461 0.244633
0.842893 0.581933 0.243931
0.866209 0.597650 0.243503
0.888823 0.613428 0.242924
0.518914 0.585229 0.472328
0.519524 0.585657 0.472786
0.520745 0.586481 0.473610
0.523003 0.587732 0.474983
0.526207 0.589532 0.476997
0.530419 0.591821 0.479469
0.535821 0.594751 0.482582
0.542321 0.598322 0.486427
0.550134 0.602594 0.491127
0.559197 0.607599 0.496651
0.569299 0.613336 0.502922
0.580316 0.619593 0.510033
0.587945 0.622065 0.511681
0.585107 0.612665 0.496468
0.581994 0.601495 0.478981
0.578668 0.588586 0.459052
0.574823 0.573571 0.436622
0.570306 0.556115 0.411292
0.564904 0.536004 0.383490
0.549096 0.505150 0.355077
0.528283 0.467872 0.325414
0.514549 0.434119 0.298711
0.546502 0.436591 0.285832
0.608484 0.466621 0.283391
0.661463 0.494179 0.281193
0.706905 0.519371 0.280369
0.744900 0.541497 0.281285
0.776608 0.560510 0.283177
0.803494 0.577142 0.286381
0.828733 0.593530 0.289647
0.853025 0.610163 0.293309
0.876219 0.626184 0.296330
0.557824 0.616968 0.508415
0.558068 0.617212 0.508721
0.558923 0.617700 0.509239
0.560418 0.618585 0.510216
0.562921 0.619898 0.511803
0.566155 0.621759 0.513848
0.570520 0.624109 0.516655
0.575921 0.627070 0.520043
0.582238 0.630640 0.524193
0.589563 0.634852 0.529259
0.597803 0.639521 0.534966
0.606897 0.644739 0.541436
0.616541 0.650385 0.548547
0.618219 0.647181 0.541924
0.615656 0.638331 0.526543
0.612970 0.627924 0.509056
0.609827 0.615534 0.489143
0.606195 0.600977 0.466560
0.601923 0.584100 0.441138
0.596643 0.564508 0.412573
0.581231 0.534356 0.382940
0.562005 0.498207 0.351507
0.548455 0.464424 0.322393
0.572290 0.461891 0.307439
0.630304 0.492317 0.307317
0.680140 0.519890 0.307836
0.722774 0.544671 0.309667
0.757717 0.566033 0.314061
0.786954 0.584558 0.319799
0.813230 0.601953 0.326360
0.838407 0.619287 0.332830
0.862119 0.635523 0.337774
0.589593 0.643641 0.541009
0.589899 0.643793 0.541192
0.590661 0.644190 0.541741
0.591913 0.644953 0.542626
0.593866 0.646052 0.544030
0.596582 0.647547 0.545922
0.600092 0.649531 0.548425
0.604456 0.651972 0.551537
0.609674 0.654963 0.555352
0.615778 0.658412 0.559899
0.622492 0.662287 0.565087
0.629938 0.666621 0.570916
0.637934 0.671321 0.577356
0.645808 0.675837 0.583520
0.643610 0.668849 0.570184
0.641291 0.660609 0.554955
0.638972 0.650965 0.537560
0.636439 0.639551 0.517815
0.633539 0.626093 0.495460
0.629908 0.610193 0.470222
0.624750 0.591089 0.441779
0.610559 0.562249 0.411658
0.593011 0.527886 0.378820
0.580407 0.494942 0.347997
0.596490 0.487068 0.330022
0.650843 0.517357 0.332219
0.698085 0.545037 0.335485
0.737331 0.568994 0.340490
0.769589 0.589990 0.348638
0.797208 0.608545 0.357610
0.822995 0.626093 0.365484
0.847654 0.643275 0.373144
0.618799 0.668055 0.573632
0.619165 0.668269 0.573938
0.619684 0.668605 0.574395
0.620630 0.669184 0.575158
0.622126 0.669978 0.576257
0.624201 0.671138 0.577844
0.626917 0.672602 0.579858
0.630304 0.674495 0.582544
0.634455 0.676814 0.585748
0.639185 0.679591 0.589624
0.644556 0.682704 0.594049
0.650568 0.686244 0.599054
0.656977 0.690120 0.604486
0.663783 0.694362 0.610407
0.667109 0.694484 0.609308
0.664942 0.687770 0.596460
0.662806 0.680049 0.581415
0.660700 0.671015 0.564263
0.658656 0.660517 0.544823
0.656489 0.648188 0.522850
0.653864 0.633631 0.498085
0.649348 0.615564 0.470100
0.636652 0.588342 0.439857
0.620966 0.555688 0.406409
0.609216 0.524071 0.374212
0.620386 0.512932 0.354498
0.671351 0.542931 0.359075
0.715358 0.570214 0.365820
0.751217 0.593347 0.373968
0.780392 0.612787 0.383642
0.807156 0.631373 0.393774
0.832639 0.649622 0.404028
0.642847 0.688594 0.602808
0.643122 0.688777 0.603082
0.643580 0.689052 0.603510
0.644404 0.689540 0.604181
0.645655 0.690272 0.605219
0.647395 0.691310 0.606653
0.649622 0.692622 0.608576
0.652552 0.694362 0.610986
0.656001 0.696468 0.613825
0.659968 0.698939 0.617212
0.664485 0.701808 0.621027
0.669429 0.705104 0.625330
0.674952 0.708797 0.630030
0.680751 0.712825 0.635065
0.686976 0.717189 0.640375
0.686793 0.713405 0.633600
0.684688 0.706477 0.621607
0.682582 0.698817 0.607782
0.680659 0.690272 0.591699
0.679042 0.680690 0.572930
0.677455 0.669459 0.551415
0.675593 0.656306 0.527245
0.672053 0.639551 0.500008
0.661738 0.614710 0.470130
0.648432 0.584497 0.436713
0.638117 0.554528 0.403845
0.644709 0.540246 0.381811
0.691920 0.569329 0.388861
0.731319 0.594812 0.397803
0.763363 0.616327 0.408118
0.791287 0.636042 0.420081
0.817746 0.655543 0.432593
0.664607 0.708614 0.630182
0.664729 0.708705 0.630335
0.665095 0.708980 0.630701
0.665736 0.709407 0.631250
0.666743 0.710109 0.632105
0.668177 0.711025 0.633295
0.670039 0.712306 0.634852
0.672419 0.713924 0.636835
0.675288 0.715877 0.639277
0.678614 0.718196 0.642084
0.682460 0.720912 0.645350
0.686671 0.723995 0.648951
0.691402 0.727443 0.652979
0.696437 0.731228 0.657221
0.701869 0.735317 0.661799
0.706722 0.738399 0.664820
0.704921 0.732174 0.655390
0.702968 0.725246 0.644434
0.700984 0.717617 0.631830
0.699031 0.709102 0.617121
0.697230 0.699702 0.600031
0.695796 0.689204 0.579950
0.694789 0.677424 0.556634
0.691981 0.662074 0.530358
0.684108 0.639796 0.501457
0.673243 0.612055 0.467903
0.664515 0.583795 0.434272
0.666987 0.566003 0.409033
0.709255 0.593011 0.417639
0.744900 0.617487 0.429664
0.774533 0.638697 0.442756
0.802243 0.659541 0.456916
0.683680 0.728695 0.654627
0.683803 0.728786 0.654749
0.684108 0.729000 0.655024
0.684718 0.729458 0.655543
0.685603 0.730129 0.656306
0.686885 0.731106 0.657404
0.688655 0.732448 0.658930
0.690822 0.734096 0.660792
0.693446 0.736110 0.663050
0.696468 0.738521 0.665675
0.699886 0.741268 0.668666
0.703822 0.744320 0.672053
0.708125 0.747707 0.675807
0.712795 0.751308 0.679866
0.717769 0.755245 0.684260
0.723110 0.759365 0.688960
0.725338 0.758999 0.687465
0.723751 0.752956 0.678065
0.722164 0.746242 0.667872
0.720516 0.738796 0.656580
0.718746 0.730556 0.643580
0.716884 0.721309 0.628260
0.714870 0.710658 0.609857
0.713130 0.698817 0.588037
0.710323 0.684047 0.562371
0.703944 0.663630 0.533532
0.695613 0.638605 0.500633
0.689387 0.613092 0.467781
0.690059 0.593988 0.440742
0.726833 0.618677 0.451514
0.758724 0.642176 0.466590
0.787686 0.664485 0.482368
0.702571 0.750454 0.679042
0.702602 0.750515 0.679072
0.702876 0.750668 0.679286
0.703334 0.751034 0.679683
0.704097 0.751614 0.680323
0.705196 0.752438 0.681270
0.706661 0.753597 0.682551
0.708492 0.755001 0.684169
0.710750 0.756710 0.686122
0.713375 0.758785 0.688502
0.716426 0.761135 0.691188
0.719875 0.763851 0.694301
0.723781 0.766812 0.697780
0.727932 0.770077 0.701625
