20 Preset/Movie Style Preset/【3】LUT for PR-AE-FCPX/Movie - LUT  (2).cube
# Created by Adobe Lightroom plugin Export LUT (1.24.0)
# www.johnrellis.com/lightroom/exportlut.htm
# Preset: 电影质感02（修改版）
# Color profile: C:\Program Files (x86)\Common Files\Adobe\Color\Profiles\Recommended\VideoHD.icc
LUT_3D_SIZE 32
DOMAIN_MIN 0.0 0.0 0.0
DOMAIN_MAX 1.0 1.0 1.0
0.080262 0.094423 0.108461
0.081514 0.094331 0.108461
0.086915 0.094789 0.108339
0.093019 0.095338 0.108858
0.103273 0.096437 0.109529
0.121218 0.098116 0.110262
0.147494 0.099886 0.110994
0.181979 0.100801 0.110994
0.224216 0.098970 0.110872
0.273747 0.093690 0.110079
0.332280 0.072084 0.108400
0.399268 0.006592 0.105745
0.468940 0.000000 0.102449
0.536431 0.000000 0.098207
0.598840 0.000000 0.093446
0.654139 0.000000 0.088136
0.701747 0.000000 0.079774
0.745541 0.000000 0.068238
0.782742 0.000000 0.057130
0.813870 0.000000 0.050690
0.839445 0.000000 0.047120
0.860685 0.000000 0.049531
0.878386 0.000000 0.057160
0.894041 0.041718 0.069398
0.908721 0.133608 0.084321
0.922911 0.178347 0.094057
0.936767 0.215732 0.103731
0.950225 0.250767 0.115175
0.963378 0.284154 0.128054
0.976287 0.316777 0.143130
0.988952 0.348608 0.160128
1.000000 0.380133 0.180392
0.080873 0.094759 0.108736
0.080873 0.094759 0.108736
0.087526 0.095125 0.108644
0.093385 0.095674 0.109133
0.103700 0.096773 0.109499
0.121309 0.098878 0.110506
0.147341 0.100252 0.110933
0.181552 0.101259 0.111269
0.223667 0.099886 0.110811
0.273045 0.094423 0.110018
0.330968 0.076722 0.108675
0.397528 0.011810 0.106081
0.467140 0.000000 0.102480
0.534691 0.000000 0.098299
0.596918 0.000000 0.093507
0.652522 0.000000 0.088197
0.700374 0.000000 0.079957
0.743893 0.000000 0.069062
0.780880 0.000000 0.058167
0.811917 0.000000 0.051392
0.837583 0.000000 0.048127
0.858854 0.000000 0.050050
0.876677 0.000000 0.056947
0.892424 0.030121 0.068513
0.907195 0.130007 0.082704
0.921416 0.174807 0.093111
0.935271 0.212650 0.102693
0.948852 0.247715 0.113893
0.962158 0.281346 0.126711
0.975189 0.313939 0.141451
0.987884 0.346136 0.158480
1.000000 0.377722 0.178286
0.082246 0.096925 0.110079
0.083528 0.096834 0.110079
0.085573 0.097108 0.110048
0.092927 0.097993 0.109834
0.104555 0.098939 0.110201
0.123018 0.100771 0.110872
0.149477 0.102693 0.111543
0.183749 0.103548 0.111543
0.225834 0.102358 0.111025
0.275090 0.097688 0.110170
0.332982 0.083406 0.108431
0.399634 0.023590 0.105684
0.468635 0.000000 0.102358
0.535668 0.000000 0.098146
0.597681 0.000000 0.093294
0.652857 0.000000 0.088350
0.700465 0.000000 0.080171
0.743709 0.000000 0.069154
0.780301 0.000000 0.058808
0.811246 0.000000 0.051911
0.836790 0.000000 0.048676
0.858061 0.000000 0.050752
0.875944 0.000000 0.057649
0.891691 0.053376 0.069673
0.906401 0.135012 0.084260
0.920653 0.177646 0.093355
0.934447 0.215152 0.103517
0.948089 0.249516 0.114382
0.961395 0.282567 0.126711
0.974487 0.314855 0.141512
0.987213 0.346654 0.158450
0.999664 0.377996 0.178134
0.085908 0.101045 0.113405
0.085267 0.101411 0.113680
0.087343 0.101656 0.113619
0.090303 0.101778 0.113558
0.102266 0.104097 0.113100
0.126528 0.105806 0.112093
0.154116 0.107912 0.112337
0.188968 0.108980 0.111910
0.231601 0.108278 0.111238
0.280888 0.104036 0.110292
0.339391 0.092897 0.108309
0.405371 0.044343 0.105806
0.473945 0.000000 0.102266
0.540002 0.000000 0.098238
0.600763 0.000000 0.093294
0.655085 0.000000 0.088136
0.702022 0.000000 0.080446
0.744137 0.000000 0.069947
0.779782 0.000000 0.060975
0.809995 0.000000 0.054719
0.835294 0.000000 0.050874
0.856474 0.000000 0.053132
0.874479 0.000000 0.060182
0.890349 0.092866 0.073152
0.905241 0.146090 0.085542
0.919707 0.185794 0.095033
0.933715 0.221744 0.105135
0.947509 0.255100 0.115938
0.960937 0.287419 0.128542
0.973999 0.319158 0.143008
0.986664 0.350164 0.160067
0.999023 0.380835 0.179629
0.089509 0.108858 0.117861
0.090150 0.108797 0.118135
0.090730 0.109682 0.118318
0.094331 0.110323 0.118196
0.098878 0.109621 0.117617
0.118685 0.113466 0.116487
0.153384 0.116976 0.114534
0.196658 0.118441 0.112490
0.239536 0.118074 0.111666
0.289799 0.114992 0.110384
0.348272 0.105653 0.108553
0.414435 0.082856 0.105318
0.481514 0.000244 0.101930
0.546502 0.000000 0.097505
0.606134 0.000000 0.093050
0.659113 0.000000 0.088136
0.705928 0.000000 0.080354
0.746517 0.000000 0.070741
0.781216 0.000000 0.062623
0.810788 0.000000 0.056336
0.835538 0.000000 0.054627
0.856352 0.000000 0.057099
0.874144 0.040223 0.066468
0.889952 0.124269 0.078889
0.904784 0.165164 0.089693
0.919219 0.200900 0.098329
0.933227 0.233341 0.108186
0.946929 0.265080 0.119081
0.960296 0.295689 0.131655
0.973297 0.326116 0.146029
0.985901 0.356115 0.162905
0.998199 0.385870 0.182345
0.093721 0.121767 0.124056
0.094179 0.122011 0.124025
0.095735 0.122957 0.124422
0.098421 0.125460 0.124880
0.106142 0.125093 0.123690
0.112428 0.122072 0.122621
0.139742 0.127321 0.120790
0.186069 0.133181 0.117342
0.246464 0.134524 0.113039
0.304265 0.131502 0.110506
0.363745 0.124239 0.108156
0.429511 0.108888 0.104829
0.495277 0.075196 0.101289
0.558068 0.000000 0.097261
0.615747 0.000000 0.092775
0.666957 0.000000 0.088045
0.712459 0.000000 0.080537
0.751431 0.000000 0.072938
0.784817 0.000000 0.065278
0.813291 0.000000 0.060883
0.837217 0.000000 0.060304
0.857450 0.060975 0.066011
0.883146 0.147616 0.082002
0.897948 0.179873 0.091463
0.912200 0.209720 0.099977
0.925933 0.238590 0.109285
0.939300 0.266758 0.119905
0.952361 0.294713 0.131258
0.965087 0.322576 0.144533
0.977478 0.350561 0.159670
0.989532 0.378302 0.177096
1.000000 0.405707 0.196933
0.100130 0.144289 0.133700
0.100313 0.144717 0.133639
0.102022 0.146304 0.134127
0.106508 0.149599 0.134524
0.114626 0.151705 0.134066
0.126406 0.149142 0.131563
0.134127 0.141512 0.129549
0.169100 0.147860 0.126619
0.227298 0.156161 0.121309
0.301244 0.158633 0.115175
0.391821 0.150607 0.107240
0.456764 0.139040 0.104280
0.520195 0.121431 0.100496
0.579950 0.096864 0.096284
0.634028 0.040284 0.091737
0.683009 0.000000 0.086946
0.726070 0.000000 0.080476
0.762631 0.000000 0.074739
0.794003 0.016541 0.069093
0.820859 0.088045 0.068299
0.843656 0.121920 0.071931
0.863157 0.152010 0.079225
0.880125 0.179446 0.089113
0.895506 0.206058 0.096895
0.910216 0.231907 0.105135
0.924163 0.258000 0.115084
0.937621 0.283268 0.125185
0.950622 0.309087 0.136721
0.963287 0.335119 0.149874
0.975616 0.361212 0.164584
0.987671 0.387366 0.181582
0.999420 0.413550 0.201541
0.108766 0.176089 0.146792
0.109102 0.176547 0.147127
0.111513 0.178378 0.147402
0.116518 0.182376 0.148135
0.125002 0.188449 0.149203
0.139376 0.185702 0.146059
0.154543 0.180301 0.141909
0.161471 0.166690 0.138491
0.200748 0.172244 0.134676
0.270207 0.182986 0.127840
0.357427 0.187106 0.119478
0.455451 0.180209 0.109102
0.538994 0.164797 0.099886
0.595392 0.151522 0.096254
0.647425 0.139101 0.091951
0.693538 0.130251 0.088563
0.733028 0.128176 0.083558
0.767147 0.132845 0.080140
0.796872 0.143801 0.077607
0.822232 0.159518 0.078920
0.843961 0.177584 0.082399
0.862791 0.196445 0.089021
0.879210 0.216678 0.096193
0.894377 0.237339 0.103975
0.908873 0.259464 0.112947
0.922759 0.281529 0.122347
0.936065 0.304326 0.132662
0.949004 0.327428 0.144045
0.961608 0.351324 0.156863
0.973907 0.375555 0.171969
0.985931 0.399908 0.188724
0.997650 0.424659 0.208408
0.122683 0.218387 0.165499
0.123598 0.218936 0.165743
0.126070 0.220859 0.166232
0.132601 0.225162 0.167269
0.142641 0.232029 0.168704
0.158450 0.235874 0.168154
0.175662 0.228122 0.162020
0.192355 0.218631 0.155184
0.196201 0.198062 0.150423
0.237766 0.200961 0.145449
0.319860 0.214725 0.136690
0.416358 0.220493 0.126650
0.513817 0.216556 0.115053
0.604242 0.205936 0.101137
0.663355 0.197299 0.093935
0.704982 0.193698 0.090974
0.741360 0.193484 0.088685
0.773068 0.197177 0.087709
0.800717 0.204501 0.087465
0.824491 0.214420 0.089418
0.845029 0.226535 0.092927
0.862882 0.240360 0.098573
0.878691 0.255283 0.105745
0.893523 0.271885 0.114046
0.907836 0.289921 0.122896
0.921508 0.308873 0.132265
0.934661 0.328771 0.142458
0.947478 0.349615 0.154147
0.959960 0.371069 0.167056
0.972198 0.393072 0.181552
0.984131 0.415717 0.198611
0.995880 0.438453 0.217990
0.146487 0.270634 0.190036
0.147585 0.271031 0.190219
0.150637 0.273136 0.190616
0.158083 0.277592 0.191714
0.169863 0.284672 0.193454
0.187594 0.294926 0.195956
0.206729 0.289372 0.190127
0.224949 0.277409 0.181155
0.240848 0.262852 0.171267
0.238987 0.234043 0.164736
0.280400 0.233005 0.158297
0.373968 0.249302 0.147799
0.473701 0.257389 0.137758
0.567071 0.258335 0.125978
0.648737 0.255161 0.111910
0.715450 0.251621 0.096193
0.749264 0.251713 0.094972
0.779080 0.254459 0.095033
0.804837 0.259159 0.096529
0.826993 0.265873 0.099733
0.846189 0.274052 0.104402
0.862882 0.283513 0.110597
0.877806 0.294285 0.117983
0.892180 0.307103 0.125795
0.906065 0.321386 0.134463
0.919493 0.337285 0.143618
0.932494 0.354467 0.154086
0.945251 0.372686 0.165316
0.957763 0.392065 0.178103
0.969970 0.412177 0.192966
0.981964 0.432868 0.209903
0.993744 0.454047 0.229374
0.183993 0.330755 0.219089
0.185031 0.331243 0.219181
0.189151 0.333562 0.219791
0.197513 0.338048 0.221103
0.210544 0.345220 0.223331
0.230259 0.355261 0.226474
0.253941 0.362097 0.226780
0.271733 0.348638 0.215549
0.288457 0.331945 0.203159
0.302159 0.312535 0.189914
0.291905 0.275029 0.181521
0.330816 0.268986 0.173587
0.429664 0.286900 0.162783
0.525780 0.297276 0.152346
0.611322 0.302464 0.141024
0.682948 0.305516 0.128939
0.741726 0.307774 0.115694
0.784237 0.309422 0.106264
0.807919 0.311772 0.109560
0.828550 0.315404 0.113588
0.846525 0.320256 0.118776
0.862333 0.326390 0.125338
0.876890 0.334386 0.132937
0.890990 0.344060 0.140688
0.904631 0.355718 0.149172
0.917815 0.368963 0.158450
0.930755 0.383551 0.168704
0.943359 0.399390 0.179965
0.955749 0.416297 0.192782
0.967895 0.434241 0.207523
0.979828 0.452827 0.224430
0.991608 0.472023 0.243778
0.240421 0.395209 0.255100
0.241703 0.395666 0.255344
0.245609 0.397559 0.255985
0.254398 0.401648 0.257847
0.268101 0.408148 0.260502
0.287449 0.417090 0.264408
0.313481 0.428962 0.269780
0.333471 0.424292 0.262425
0.348577 0.408637 0.247196
0.362341 0.389288 0.230320
0.370489 0.364050 0.213107
0.353857 0.320439 0.201175
0.395697 0.313848 0.194644
0.494759 0.334447 0.184115
0.584375 0.347845 0.174411
0.659480 0.357610 0.165225
0.720760 0.364965 0.155947
0.771328 0.370642 0.146334
0.811765 0.373968 0.137636
0.835569 0.375006 0.138003
0.851652 0.376593 0.144472
0.866117 0.379583 0.150973
0.880003 0.384466 0.158022
0.893462 0.391516 0.165652
0.906584 0.400244 0.173892
0.919280 0.410376 0.182864
0.931701 0.421790 0.192538
0.943847 0.434516 0.203647
0.955779 0.448463 0.216220
0.967529 0.463325 0.230625
0.979156 0.479133 0.247135
0.990753 0.495613 0.265141
0.319951 0.463539 0.305028
0.320592 0.463905 0.305150
0.324407 0.465309 0.306126
0.332372 0.468910 0.308080
0.344793 0.474067 0.311254
0.362036 0.481514 0.315709
0.385107 0.491249 0.321935
0.410559 0.500023 0.326787
0.420081 0.485878 0.309483
0.429938 0.468177 0.289220
0.439338 0.446998 0.266423
0.442176 0.418402 0.244053
0.422370 0.370947 0.226413
0.439796 0.347448 0.212863
0.534844 0.370001 0.203922
0.616693 0.385779 0.195560
0.683375 0.398016 0.188937
0.738430 0.407538 0.182101
0.783200 0.414343 0.176120
0.819211 0.418067 0.171176
0.848722 0.419562 0.166842
0.863218 0.420356 0.172885
0.877012 0.423072 0.179629
0.890440 0.427741 0.186587
0.903532 0.434150 0.194491
0.916167 0.442176 0.203220
0.928588 0.451514 0.212802
0.940795 0.462104 0.223636
0.952789 0.473915 0.235782
0.964599 0.486885 0.249973
0.976349 0.500572 0.265446
0.987945 0.515282 0.283085
0.393317 0.518730 0.354345
0.393866 0.518791 0.354437
0.397162 0.520012 0.355200
0.403204 0.522362 0.356909
0.412879 0.526299 0.359594
0.426795 0.531823 0.363714
0.445045 0.539300 0.369543
0.467292 0.548425 0.376806
0.481819 0.546441 0.371160
0.487953 0.531792 0.351293
0.494331 0.514061 0.328405
0.500145 0.492378 0.302556
0.497566 0.461280 0.275364
0.476081 0.412696 0.251530
0.481483 0.381231 0.233188
0.569940 0.404730 0.225986
0.643091 0.421820 0.219211
0.702602 0.435615 0.215183
0.752163 0.446113 0.211368
0.791897 0.453010 0.208560
0.824491 0.456947 0.206394
0.852140 0.459419 0.204868
0.873960 0.461860 0.205661
0.887388 0.464576 0.212314
0.900420 0.468971 0.219486
0.913085 0.474922 0.227756
0.925566 0.482155 0.236881
0.937713 0.490761 0.247196
0.949706 0.500450 0.258732
0.961608 0.511315 0.271702
0.973358 0.523217 0.286564
0.985107 0.536034 0.303136
0.458534 0.564324 0.402075
0.459052 0.564599 0.402197
0.461311 0.565393 0.402869
0.465919 0.567193 0.404303
0.473548 0.570092 0.406775
0.484108 0.574334 0.410468
0.497963 0.580041 0.415564
0.514946 0.587457 0.422339
0.534661 0.596246 0.430640
0.539178 0.585016 0.413275
0.543450 0.570611 0.392157
0.547509 0.553063 0.367193
0.550591 0.531762 0.338994
0.544640 0.499947 0.308721
0.523186 0.451270 0.279301
0.518486 0.413123 0.254917
0.599268 0.437415 0.249943
0.664698 0.455329 0.245243
0.718685 0.469764 0.243534
0.762905 0.480323 0.242802
0.798703 0.487312 0.242802
0.828672 0.491890 0.243503
0.855436 0.495949 0.244236
0.880522 0.500175 0.244236
0.897063 0.503349 0.248539
0.909819 0.507378 0.255619
0.922301 0.512779 0.263767
0.934539 0.519615 0.273320
0.946685 0.527489 0.284092
0.958709 0.536675 0.296330
0.970642 0.546990 0.310491
0.982483 0.558282 0.326543
0.511437 0.602289 0.446387
0.512016 0.602594 0.446571
0.513848 0.603357 0.447425
0.517418 0.604913 0.448829
0.523552 0.607538 0.451331
0.531792 0.611170 0.454932
0.542657 0.616114 0.459876
0.555932 0.622309 0.466102
0.571496 0.629541 0.473884
0.582910 0.630671 0.472938
0.585626 0.618891 0.453834
0.588281 0.604334 0.431098
0.590173 0.586725 0.404669
0.591241 0.565209 0.374029
0.582666 0.532982 0.341192
0.562097 0.486152 0.307988
0.553246 0.444892 0.278264
0.622889 0.467018 0.274968
0.682216 0.485328 0.272709
0.731472 0.499825 0.272984
0.771389 0.510338 0.275059
0.804379 0.517784 0.277775
0.832609 0.523430 0.280797
0.858915 0.528954 0.283207
0.883635 0.534356 0.285008
0.906584 0.539544 0.286442
0.919036 0.543481 0.293858
0.931456 0.548425 0.302068
0.943603 0.554711 0.311650
0.955657 0.562036 0.322820
0.967620 0.570520 0.335576
0.979461 0.580011 0.350347
0.553826 0.634424 0.486946
0.554223 0.634607 0.487098
0.555566 0.635187 0.487770
0.558587 0.636500 0.489113
0.563165 0.638575 0.491402
0.569665 0.641505 0.494667
0.578058 0.645319 0.498970
0.588342 0.650080 0.504570
0.600214 0.655695 0.511223
0.613550 0.662074 0.519036
0.618006 0.656184 0.507591
0.620142 0.645136 0.488197
0.622217 0.631434 0.465095
0.623499 0.614527 0.437964
0.623499 0.593622 0.406409
0.613977 0.561700 0.372320
0.595056 0.517418 0.336614
0.585901 0.477180 0.303929
0.643397 0.494514 0.300633
0.697780 0.512810 0.300633
0.742641 0.527031 0.302892
0.779202 0.537682 0.307469
0.809537 0.545495 0.312413
0.836942 0.552453 0.317205
0.862699 0.559167 0.321202
0.887053 0.565667 0.324743
0.910155 0.571710 0.327672
0.928222 0.576593 0.332311
0.940429 0.581384 0.340917
0.952575 0.587243 0.351019
0.964599 0.594202 0.362707
0.976471 0.602258 0.376226
0.589105 0.661341 0.524620
0.589410 0.661494 0.524834
0.597070 0.666957 0.532982
0.599207 0.667964 0.534142
0.602655 0.669551 0.536095
0.607477 0.671748 0.538933
0.613642 0.674586 0.542596
0.621424 0.678157 0.547265
0.630365 0.682490 0.553033
0.640650 0.687434 0.559808
0.649531 0.690181 0.562768
0.650599 0.681636 0.546044
0.651911 0.671138 0.526085
0.653254 0.658137 0.502434
0.654200 0.642206 0.474739
0.654170 0.622644 0.442420
0.644129 0.591333 0.407050
0.626581 0.549371 0.368994
0.617182 0.510430 0.333501
0.664149 0.522576 0.329076
0.713863 0.540734 0.331334
0.754238 0.554284 0.335607
0.787228 0.564599 0.342168
0.815671 0.572930 0.348882
0.842344 0.580835 0.354711
0.867491 0.588281 0.359838
0.891356 0.595239 0.364385
0.913939 0.601587 0.368536
0.935454 0.607172 0.372442
0.949401 0.611933 0.380407
0.961456 0.617517 0.390814
0.973358 0.624201 0.403265
0.619654 0.684871 0.560845
0.620325 0.685359 0.561639
0.621759 0.686183 0.562829
0.623957 0.687373 0.564569
0.627100 0.688869 0.566735
0.631006 0.690791 0.569421
0.636042 0.693141 0.572747
0.642176 0.696040 0.576837
0.649348 0.699672 0.581750
0.657557 0.703944 0.587457
0.666712 0.708858 0.593988
0.670588 0.706264 0.587976
0.670954 0.697536 0.571283
0.671809 0.687404 0.551354
0.673030 0.675380 0.528161
0.674037 0.660578 0.500877
0.674434 0.642481 0.469093
0.665431 0.613153 0.434272
0.649989 0.574029 0.395941
0.641352 0.537255 0.359228
0.680385 0.545434 0.353674
0.725887 0.563287 0.358648
0.762936 0.576501 0.364446
0.793301 0.586999 0.372992
0.820981 0.596399 0.380774
0.847196 0.605310 0.387976
0.871977 0.613672 0.394537
0.895445 0.621332 0.400702
0.917784 0.628168 0.406500
0.939147 0.634333 0.412177
0.958099 0.639765 0.418738
0.970031 0.645319 0.430060
0.643122 0.703487 0.590906
0.643824 0.703914 0.591638
0.644953 0.704707 0.592767
0.646754 0.705745 0.594202
0.649317 0.707179 0.596185
0.652522 0.708919 0.598413
0.656550 0.711086 0.601160
0.661463 0.713771 0.604547
0.667384 0.717037 0.608606
0.674098 0.720882 0.613306
0.681636 0.725368 0.618585
0.689815 0.730159 0.624109
0.689723 0.722438 0.611048
0.689693 0.713497 0.595300
0.689784 0.703212 0.576226
0.690455 0.691463 0.553399
0.691585 0.677699 0.526726
0.692317 0.661067 0.495644
0.684230 0.633509 0.461646
0.671534 0.597833 0.423194
0.663844 0.563134 0.385779
0.695460 0.567163 0.378546
0.736843 0.584466 0.385687
0.770779 0.597467 0.393500
0.799710 0.608423 0.403052
0.826902 0.618891 0.412238
0.852628 0.628687 0.420569
0.877043 0.637781 0.428534
0.900237 0.646082 0.436316
0.922362 0.653468 0.443946
0.943511 0.660090 0.451514
0.963592 0.666041 0.459083
0.663966 0.721950 0.618036
0.664454 0.722377 0.618616
0.665431 0.723049 0.619440
0.666896 0.724025 0.620661
0.668879 0.725338 0.622278
0.671565 0.726925 0.624170
0.674861 0.728939 0.626429
0.678950 0.731350 0.629206
0.683803 0.734340 0.632563
0.689448 0.737881 0.636500
0.695827 0.741909 0.640864
0.702937 0.746456 0.645777
0.707332 0.746365 0.644282
0.707088 0.738460 0.631922
0.706813 0.729335 0.617060
0.706569 0.719020 0.599298
0.706569 0.707271 0.577905
0.707118 0.693965 0.552209
0.708309 0.678859 0.522545
0.701320 0.653346 0.489784
0.691310 0.621088 0.452247
0.685542 0.589349 0.414954
0.710567 0.589471 0.405829
0.748196 0.606348 0.415534
0.779446 0.619440 0.425544
0.807980 0.631647 0.436133
0.834714 0.643275 0.446754
0.860105 0.654017 0.456764
0.884184 0.663844 0.466468
0.907225 0.672633 0.476020
0.929137 0.680507 0.485389
0.949706 0.687251 0.494331
0.684321 0.742367 0.644770
0.684565 0.742611 0.645014
0.685115 0.743008 0.645441
0.686152 0.743618 0.646143
0.687617 0.744656 0.647211
0.689693 0.745937 0.648554
0.692348 0.747707 0.650385
0.695766 0.749905 0.652674
0.699855 0.752560 0.655390
0.704646 0.755764 0.658656
0.710079 0.759396 0.662318
0.716213 0.763516 0.666468
0.723018 0.768002 0.671015
0.724361 0.763272 0.663752
0.724117 0.755245 0.652125
0.723720 0.746120 0.638300
0.723171 0.735714 0.621729
0.722621 0.723995 0.601892
0.722408 0.710780 0.577966
0.722377 0.695491 0.549310
0.716213 0.671565 0.517205
0.708156 0.642084 0.480385
0.703761 0.612757 0.443061
0.723323 0.609277 0.431525
0.757443 0.625360 0.442786
0.787411 0.639124 0.453986
0.815671 0.652277 0.465400
0.842039 0.664820 0.477333
0.867185 0.676326 0.488808
0.891081 0.686641 0.500023
0.913756 0.695735 0.510857
0.935058 0.703365 0.520989
0.700313 0.760250 0.665797
0.700465 0.760433 0.665980
0.700984 0.760769 0.666377
0.701839 0.761379 0.667018
0.703151 0.762295 0.667903
0.704952 0.763485 0.669093
0.707271 0.765042 0.670680
0.710170 0.767025 0.672694
0.713771 0.769436 0.675166
0.718074 0.772274 0.678126
0.722927 0.775509 0.681544
0.728328 0.779202 0.685451
0.734401 0.783169 0.689723
0.739681 0.785519 0.691737
0.739559 0.778683 0.681331
0.739406 0.770809 0.669642
0.739040 0.761807 0.656611
0.738430 0.751644 0.641352
0.737728 0.740139 0.623133
0.737057 0.727138 0.601160
0.735866 0.711788 0.574670
0.729763 0.688960 0.543969
0.723110 0.661799 0.508202
0.720180 0.635126 0.472114
0.734798 0.627771 0.456550
0.766323 0.643580 0.469154
0.795956 0.658503 0.481697
0.823850 0.672602 0.494087
0.850126 0.685939 0.507347
0.874998 0.697871 0.520134
0.898466 0.708186 0.532189
0.920623 0.717220 0.543908
0.716304 0.778683 0.687495
0.716579 0.778897 0.687800
0.716976 0.779202 0.688136
0.717678 0.779690 0.688624
0.718715 0.780331 0.689296
0.720180 0.781247 0.690242
0.722103 0.782467 0.691524
0.724544 0.784024 0.693172
0.727657 0.785946 0.695277
0.731258 0.788296 0.697810
0.735439 0.791012 0.700801
0.740200 0.794095 0.704250
0.745541 0.797513 0.708125
0.751308 0.801205 0.712337
0.753902 0.799496 0.708797
0.753597 0.792691 0.698024
0.753262 0.784939 0.685908
0.752895 0.776150 0.672633
0.752346 0.766293 0.658076
0.751553 0.755184 0.641291
0.750698 0.742672 0.621271
0.748745 0.727382 0.597040
0.742550 0.705501 0.568353
0.736019 0.679652 0.534142
0.733852 0.654932 0.499245
0.746059 0.646540 0.483162
0.776364 0.662806 0.496559
0.805539 0.678828 0.510307
0.833249 0.693507 0.523491
0.858946 0.706874 0.537346
0.883330 0.718685 0.550896
0.906249 0.729183 0.564324
0.730190 0.794491 0.706966
0.730434 0.794705 0.707210
0.730861 0.795010 0.707576
0.731502 0.795468 0.708095
0.732509 0.796109 0.708797
0.733913 0.796994 0.709834
0.735744 0.798184 0.711177
0.738064 0.799710 0.712917
0.740902 0.801541 0.715023
0.744289 0.803708 0.717586
0.748135 0.806180 0.720455
0.752499 0.808957 0.723720
0.757321 0.812039 0.727382
0.762600 0.815305 0.731319
0.768338 0.818784 0.735531
0.768368 0.813748 0.726925
0.768002 0.807187 0.716030
0.767697 0.799802 0.703975
0.767422 0.791501 0.690669
0.767117 0.782132 0.676020
0.766476 0.771511 0.659968
0.765530 0.759579 0.641718
0.762997 0.744625 0.619959
0.756771 0.723873 0.594049
0.750393 0.699580 0.562280
0.748348 0.676478 0.529473
0.758328 0.666957 0.512047
0.787869 0.683864 0.526146
0.816617 0.700465 0.540764
0.843717 0.715480 0.554986
0.869078 0.728969 0.569909
0.892973 0.740871 0.584497
0.744686 0.810483 0.727504
0.744808 0.810605 0.727626
0.745113 0.810819 0.727901
0.745693 0.811185 0.728359
0.746578 0.811734 0.729000
0.747799 0.812528 0.729915
0.749447 0.813535 0.731136
0.751553 0.814817 0.732662
0.754055 0.816403 0.734585
0.757137 0.818265 0.736873
0.760586 0.820462 0.739528
0.764584 0.822873 0.742519
0.768948 0.825528 0.745876
0.773770 0.828428 0.749477
0.779019 0.831479 0.753323
0.782864 0.832425 0.753811
0.782345 0.826993 0.744320
0.781918 0.820829 0.733608
0.781704 0.813931 0.721798
0.781521 0.806149 0.708675
0.781338 0.797391 0.694209
0.781064 0.787533 0.678248
0.780484 0.776333 0.660792
0.777615 0.761959 0.641260
0.771450 0.742458 0.618097
0.765011 0.719631 0.589380
0.762997 0.698024 0.558831
0.770779 0.687160 0.539910
0.799527 0.704219 0.554284
0.827848 0.721462 0.570306
0.854520 0.736660 0.585687
0.879667 0.750088 0.600977
0.758602 0.825284 0.747189
0.758724 0.825376 0.747311
0.759030 0.825559 0.747555
0.759579 0.825925 0.748013
0.760433 0.826444 0.748684
0.761685 0.827207 0.749660
0.763333 0.828305 0.751034
0.765469 0.829618 0.752743
0.768032 0.831266 0.754849
0.771054 0.833158 0.757290
0.774533 0.835294 0.760098
0.778378 0.837613 0.763149
0.782620 0.840146 0.766476
0.787198 0.842802 0.769955
0.792020 0.845579 0.773648
0.797147 0.848447 0.777432
0.798795 0.846769 0.773831
0.798306 0.841825 0.764828
0.798032 0.836271 0.754757
0.797879 0.830045 0.743496
0.797879 0.823026 0.730892
0.797848 0.815000 0.716701
0.797787 0.805844 0.700862
0.797513 0.795468 0.683375
0.794766 0.781765 0.664576
0.788876 0.763699 0.644007
0.782650 0.742763 0.619043
0.780789 0.723507 0.592950
0.787045 0.712520 0.574701
0.814664 0.729183 0.588800
0.842618 0.746304 0.605280
0.868925 0.761227 0.621027
0.774594 0.841093 0.769009
0.774624 0.841093 0.769070
0.774899 0.841215 0.769223
0.775326 0.841459 0.769558
0.776028 0.841886 0.770047
0.777066 0.842435 0.770809
0.778470 0.843229 0.771847
0.780209 0.844236 0.773190
0.782345 0.845487 0.774777
0.784878 0.846921 0.776730
0.787839 0.848600 0.778958
0.791135 0.850462 0.781430
0.794827 0.852506 0.784207
0.798825 0.854704 0.787198
