20 Preset/Movie Style Preset/【3】LUT for PR-AE-FCPX/Movie - LUT  (7).cube
# Created by Adobe Lightroom plugin Export LUT (1.24.0)
# www.johnrellis.com/lightroom/exportlut.htm
# Preset: 电影质感07（修改版）
# Color profile: C:\Program Files (x86)\Common Files\Adobe\Color\Profiles\Recommended\VideoHD.icc
LUT_3D_SIZE 32
DOMAIN_MIN 0.0 0.0 0.0
DOMAIN_MAX 1.0 1.0 1.0
0.080262 0.094423 0.108461
0.081514 0.094331 0.108461
0.088106 0.094697 0.108339
0.095094 0.095521 0.108125
0.108888 0.097322 0.107668
0.134127 0.099519 0.107149
0.171267 0.102541 0.105898
0.218814 0.104250 0.104189
0.275669 0.102846 0.100923
0.342351 0.095277 0.096254
0.418616 0.062043 0.088869
0.495766 0.000000 0.071473
0.568139 0.000000 0.040864
0.633112 0.000000 0.007141
0.688716 0.000000 0.000000
0.735225 0.000000 0.000000
0.774624 0.000000 0.000000
0.809689 0.000000 0.000000
0.839109 0.022095 0.000000
0.862943 0.115145 0.000000
0.882506 0.152743 0.000000
0.899382 0.182406 0.000000
0.914763 0.208743 0.000000
0.929503 0.233707 0.000000
0.943725 0.257420 0.000000
0.957488 0.280491 0.000000
0.970855 0.302892 0.000000
0.984009 0.324498 0.000000
0.996979 0.345495 0.000000
1.000000 0.365698 0.000000
1.000000 0.385199 0.000000
1.000000 0.403845 0.000000
0.080873 0.094759 0.108736
0.080873 0.094759 0.108736
0.088319 0.095460 0.108248
0.095277 0.096254 0.108034
0.109712 0.097566 0.107973
0.134951 0.100465 0.107027
0.171603 0.103151 0.106142
0.218662 0.104952 0.104097
0.275517 0.103975 0.100771
0.341711 0.097230 0.096040
0.417517 0.069337 0.088685
0.494362 0.000000 0.071168
0.566644 0.000000 0.040497
0.631586 0.000000 0.008087
0.687160 0.000000 0.000000
0.734066 0.000000 0.000000
0.773556 0.000000 0.000000
0.808530 0.000000 0.000000
0.837827 0.026246 0.000000
0.861479 0.115175 0.000000
0.881132 0.152346 0.000000
0.897948 0.181064 0.000000
0.913268 0.207736 0.000000
0.928008 0.232303 0.000000
0.942229 0.255985 0.000000
0.955962 0.278843 0.000000
0.969451 0.301122 0.000000
0.982696 0.322942 0.000000
0.995727 0.343969 0.000000
1.000000 0.364263 0.000000
1.000000 0.383917 0.000000
1.000000 0.402625 0.000000
0.083314 0.096834 0.110414
0.082673 0.097261 0.110689
0.084749 0.097505 0.110628
0.094972 0.099336 0.109041
0.110262 0.101167 0.108522
0.136355 0.104494 0.107485
0.174319 0.107973 0.106081
0.221866 0.110262 0.103853
0.279118 0.110414 0.100252
0.346014 0.104402 0.094911
0.422034 0.087251 0.086610
0.498085 0.017914 0.065553
0.569390 0.000000 0.035737
0.633417 0.000000 0.001831
0.688380 0.000000 0.000000
0.734676 0.000000 0.000000
0.773922 0.000000 0.000000
0.808621 0.000000 0.000000
0.837491 0.074647 0.000000
0.860960 0.126528 0.000000
0.880552 0.159792 0.000000
0.897246 0.187381 0.000000
0.912566 0.212253 0.000000
0.927276 0.235966 0.000000
0.941466 0.258946 0.000000
0.955261 0.281102 0.000000
0.968719 0.303197 0.000000
0.981964 0.324590 0.000000
0.995056 0.345464 0.000000
1.000000 0.365545 0.000000
1.000000 0.384863 0.000000
1.000000 0.403449 0.000000
0.086763 0.101656 0.114534
0.086763 0.101656 0.114534
0.088106 0.102296 0.114748
0.090822 0.102388 0.114687
0.108644 0.107149 0.111666
0.139590 0.113954 0.108400
0.178347 0.118471 0.106722
0.226474 0.122286 0.103792
0.284703 0.123232 0.099855
0.352056 0.119753 0.093935
0.428107 0.107851 0.083253
0.503197 0.082521 0.057984
0.574304 0.008392 0.027008
0.637568 0.000000 0.000000
0.691493 0.000000 0.000000
0.736995 0.000000 0.000000
0.775509 0.000000 0.000000
0.809354 0.050965 0.000000
0.837186 0.114534 0.000000
0.860105 0.146975 0.000000
0.879301 0.174441 0.000000
0.895903 0.198367 0.000000
0.911223 0.221195 0.000000
0.926024 0.243290 0.000000
0.940429 0.265385 0.000000
0.954376 0.287266 0.000000
0.968048 0.308629 0.000000
0.981476 0.329625 0.000000
0.994629 0.349920 0.000000
1.000000 0.369512 0.000000
1.000000 0.388312 0.000000
1.000000 0.406439 0.000000
0.090761 0.110231 0.120546
0.091249 0.110506 0.120516
0.092470 0.111330 0.120974
0.095247 0.112032 0.120851
0.100343 0.111604 0.119661
0.128603 0.120241 0.115023
0.180392 0.133211 0.107485
0.233310 0.141482 0.102510
0.292149 0.144198 0.097841
0.360723 0.143069 0.090455
0.435706 0.135653 0.075410
0.510155 0.122286 0.045380
0.579461 0.103395 0.012604
0.641382 0.082734 0.000000
0.694118 0.061250 0.000000
0.738674 0.077974 0.000000
0.776974 0.101076 0.000000
0.810361 0.127047 0.000000
0.837552 0.153017 0.000000
0.860075 0.176394 0.000000
0.879118 0.197696 0.000000
0.895628 0.217685 0.000000
0.910918 0.237400 0.000000
0.925719 0.257420 0.000000
0.940032 0.277684 0.000000
0.954009 0.298100 0.000000
0.967620 0.318120 0.000000
0.981018 0.337926 0.000000
0.994171 0.357275 0.000000
1.000000 0.375982 0.000000
1.000000 0.394049 0.000000
1.000000 0.411444 0.000000
0.097108 0.125673 0.129335
0.096773 0.125948 0.129580
0.098665 0.127108 0.130159
0.102083 0.129641 0.131044
0.108644 0.129397 0.128939
0.115602 0.125978 0.126406
0.154086 0.137819 0.119326
0.226078 0.157473 0.105592
0.300267 0.171389 0.093965
0.374823 0.174868 0.079988
0.449195 0.170687 0.053742
0.521965 0.162844 0.021912
0.589136 0.153536 0.000000
0.648646 0.146029 0.000000
0.699428 0.144289 0.000000
0.742611 0.149386 0.000000
0.780209 0.161532 0.000000
0.812253 0.177432 0.000000
0.838560 0.194583 0.000000
0.860410 0.211582 0.000000
0.878996 0.228214 0.000000
0.895323 0.244236 0.000000
0.918334 0.272557 0.000000
0.932830 0.289738 0.000000
0.946807 0.307378 0.000000
0.960388 0.324987 0.000000
0.973632 0.342473 0.000000
0.986603 0.359930 0.000000
0.999268 0.377111 0.000000
1.000000 0.393988 0.000000
1.000000 0.410132 0.000000
1.000000 0.425727 0.000000
0.106081 0.152834 0.144228
0.106752 0.153170 0.144381
0.108644 0.154818 0.145022
0.113130 0.158572 0.146548
0.120760 0.160861 0.146090
0.131685 0.157656 0.141085
0.139620 0.149203 0.136446
0.187381 0.162539 0.126314
0.276188 0.187015 0.105623
0.381445 0.206332 0.068849
0.473671 0.216861 0.009766
0.543969 0.211795 0.000000
0.607721 0.206607 0.000000
0.663478 0.203433 0.000000
0.710780 0.204074 0.000000
0.751705 0.208957 0.000000
0.788266 0.218814 0.000000
0.818143 0.230167 0.000000
0.842893 0.242374 0.000000
0.863859 0.254856 0.000000
0.882017 0.267277 0.000000
0.898528 0.280705 0.000000
0.914244 0.295171 0.000000
0.929412 0.310735 0.000000
0.943969 0.326696 0.000000
0.957885 0.342809 0.000000
0.971283 0.358709 0.000000
0.984344 0.374365 0.000000
0.997162 0.389960 0.000000
1.000000 0.405035 0.000000
1.000000 0.419654 0.000000
1.000000 0.433936 0.000000
0.121126 0.189975 0.164706
0.121675 0.190524 0.165164
0.124147 0.192416 0.165896
0.129915 0.196597 0.167636
0.139040 0.203433 0.170413
0.150790 0.200290 0.164858
0.164004 0.193729 0.156893
0.170108 0.178286 0.149752
0.221805 0.190219 0.137453
0.326696 0.218845 0.108949
0.451057 0.241764 0.032166
0.544732 0.254978 0.000000
0.618494 0.262669 0.000000
0.670954 0.260319 0.000000
0.716182 0.261143 0.000000
0.756130 0.265110 0.000000
0.790036 0.271458 0.000000
0.818235 0.278599 0.000000
0.841886 0.286381 0.000000
0.862211 0.294713 0.000000
0.879850 0.303563 0.000000
0.896239 0.313512 0.000000
0.911864 0.324895 0.000000
0.927001 0.337407 0.000000
0.941527 0.351110 0.000000
0.955474 0.364904 0.000000
0.968933 0.378668 0.000000
0.982025 0.392584 0.000000
0.994934 0.406317 0.000000
1.000000 0.419989 0.000000
1.000000 0.433295 0.000000
1.000000 0.446418 0.000000
0.145357 0.238499 0.192844
0.146517 0.239200 0.193149
0.149630 0.241123 0.194217
0.156222 0.245853 0.196292
0.166934 0.253269 0.199557
0.181582 0.257877 0.199832
0.194095 0.248631 0.189059
0.207309 0.236973 0.177035
0.209262 0.213931 0.166690
0.261692 0.222019 0.152071
0.381994 0.254429 0.117067
0.506035 0.278721 0.020935
0.605493 0.297551 0.000000
0.674037 0.314641 0.000000
0.723018 0.321752 0.000000
0.760098 0.323217 0.000000
0.791684 0.325933 0.000000
0.818296 0.329137 0.000000
0.840909 0.333104 0.000000
0.860502 0.337804 0.000000
0.877836 0.343175 0.000000
0.894011 0.350195 0.000000
0.909514 0.358526 0.000000
0.924559 0.368322 0.000000
0.939117 0.379248 0.000000
0.953033 0.390692 0.000000
0.966552 0.402380 0.000000
0.979675 0.414343 0.000000
0.992645 0.426215 0.000000
1.000000 0.438025 0.000000
1.000000 0.449897 0.000000
1.000000 0.461524 0.000000
0.184695 0.297642 0.228122
0.185733 0.298222 0.228336
0.189120 0.300267 0.229374
0.197177 0.304997 0.231754
0.209628 0.312810 0.235264
0.228336 0.323613 0.240543
0.241306 0.318212 0.232120
0.252445 0.303777 0.217136
0.262852 0.286015 0.200626
0.257053 0.254459 0.186893
0.306950 0.256565 0.170321
0.434699 0.291112 0.130709
0.555291 0.318730 0.033173
0.653285 0.343114 0.000000
0.713863 0.362127 0.000000
0.761929 0.381476 0.000000
0.792050 0.381567 0.000000
0.817594 0.381384 0.000000
0.839445 0.382025 0.000000
0.858396 0.383215 0.000000
0.875425 0.385351 0.000000
0.891325 0.389166 0.000000
0.906584 0.394476 0.000000
0.921416 0.401465 0.000000
0.935760 0.409400 0.000000
0.949676 0.418311 0.000000
0.963226 0.427619 0.000000
0.976501 0.437385 0.000000
0.989624 0.447486 0.000000
1.000000 0.457801 0.000000
1.000000 0.468147 0.000000
1.000000 0.478523 0.000000
0.241245 0.362860 0.269444
0.242191 0.363195 0.269718
0.246830 0.365515 0.271092
0.255161 0.370092 0.273716
0.268772 0.377173 0.277958
0.288151 0.387213 0.284092
0.310063 0.395361 0.287694
0.316320 0.380652 0.269444
0.323980 0.362036 0.249027
0.330694 0.339544 0.227604
0.315984 0.299657 0.210056
0.357885 0.293889 0.191958
0.486152 0.330755 0.151125
0.597620 0.360235 0.079957
0.683925 0.385687 0.000000
0.744076 0.406928 0.000000
0.784909 0.423957 0.000000
0.815610 0.433692 0.000000
0.836698 0.431067 0.000000
0.855161 0.429053 0.000000
0.872099 0.428412 0.000000
0.888029 0.429389 0.000000
0.903349 0.432319 0.000000
0.918212 0.436591 0.000000
0.932677 0.442054 0.000000
0.946624 0.448646 0.000000
0.960235 0.455879 0.000000
0.973602 0.463600 0.000000
0.986816 0.471717 0.000000
0.999939 0.480201 0.000000
1.000000 0.488960 0.000000
1.000000 0.497841 0.000000
0.315038 0.428199 0.319493
0.316136 0.428687 0.319890
0.319615 0.430488 0.321019
0.328099 0.434394 0.324071
0.340459 0.440711 0.328588
0.358160 0.449195 0.334936
0.381079 0.460639 0.343450
0.393103 0.457404 0.335576
0.396277 0.441016 0.313573
0.400092 0.420447 0.288090
0.401587 0.393866 0.260258
0.380774 0.348119 0.237064
0.419928 0.340246 0.220981
0.543816 0.379522 0.179568
0.643000 0.410620 0.118898
0.718288 0.436652 0.000000
0.775540 0.457313 0.000000
0.809232 0.470344 0.000000
0.836576 0.481270 0.000000
0.856718 0.482429 0.000000
0.873442 0.479255 0.000000
0.889158 0.477760 0.000000
0.904234 0.477821 0.000000
0.918853 0.479561 0.000000
0.933043 0.482368 0.000000
0.946807 0.486152 0.000000
0.960174 0.490578 0.000000
0.973266 0.495705 0.000000
0.986236 0.501488 0.000000
0.999084 0.507683 0.000000
1.000000 0.514366 0.000000
1.000000 0.521386 0.000000
0.399390 0.494697 0.377905
0.399908 0.494972 0.378180
0.403235 0.496345 0.379431
0.409888 0.499702 0.382147
0.420325 0.504601 0.386206
0.434821 0.511467 0.392248
0.453712 0.520714 0.400366
0.475380 0.530846 0.409308
0.474830 0.516930 0.388373
0.474556 0.499245 0.363134
0.474952 0.477485 0.334020
0.471626 0.448615 0.301976
0.448646 0.400610 0.271427
0.460121 0.373693 0.246281
0.576593 0.414130 0.207767
0.666163 0.445624 0.155428
0.734127 0.470893 0.025055
0.785855 0.488838 0.000000
0.820462 0.500206 0.000000
0.845335 0.509209 0.000000
0.867887 0.518730 0.000000
0.884001 0.516014 0.000000
0.899229 0.514275 0.000000
0.914061 0.513970 0.000000
0.928435 0.514855 0.000000
0.942321 0.516869 0.000000
0.955871 0.519707 0.000000
0.969177 0.523156 0.000000
0.982330 0.527337 0.000000
0.995392 0.532128 0.000000
1.000000 0.537346 0.000000
1.000000 0.543114 0.000000
0.469001 0.546715 0.429908
0.469306 0.546899 0.430091
0.471778 0.547997 0.431159
0.476539 0.550164 0.433204
0.484413 0.553674 0.436622
0.495094 0.558831 0.441627
0.509148 0.565820 0.448554
0.525902 0.574395 0.457160
0.535332 0.574395 0.453803
0.533654 0.560174 0.431373
0.532250 0.542748 0.404730
0.530571 0.521050 0.373724
0.523766 0.490974 0.339025
0.500084 0.442969 0.304173
0.497475 0.406744 0.273991
0.604425 0.446967 0.238560
0.685115 0.477668 0.192447
0.746700 0.501122 0.130373
0.793668 0.516777 0.000000
0.829587 0.526574 0.000000
0.853269 0.535119 0.000000
0.875303 0.544305 0.000000
0.894438 0.550378 0.000000
0.909422 0.548516 0.000000
0.923919 0.547906 0.000000
0.937957 0.548363 0.000000
0.951690 0.549462 0.000000
0.965087 0.551476 0.000000
0.978393 0.554131 0.000000
0.991577 0.557488 0.000000
1.000000 0.561395 0.000000
1.000000 0.565881 0.000000
0.524804 0.589471 0.477119
0.525292 0.589624 0.477394
0.526787 0.590417 0.478157
0.530358 0.592065 0.479835
0.535943 0.594873 0.482673
0.543786 0.598810 0.486824
0.554101 0.604242 0.492561
0.567041 0.611139 0.499916
0.581811 0.619348 0.508843
0.581994 0.610590 0.493477
0.579980 0.596612 0.470802
0.577874 0.579339 0.443427
0.575372 0.558160 0.411475
0.566644 0.527886 0.375097
0.543938 0.481270 0.336584
0.532341 0.439399 0.302495
0.627192 0.477363 0.270603
0.700649 0.506584 0.230747
0.756832 0.527977 0.182650
0.799863 0.541772 0.110018
0.834745 0.550835 0.000000
0.861082 0.559625 0.000000
0.882780 0.568841 0.000000
0.903105 0.578271 0.000000
0.919371 0.580407 0.000000
0.933532 0.579400 0.000000
0.947356 0.579217 0.000000
0.960967 0.579919 0.000000
0.974456 0.581384 0.000000
0.987823 0.583551 0.000000
1.000000 0.586481 0.000000
1.000000 0.589899 0.000000
0.568444 0.624903 0.518547
0.568841 0.625147 0.518822
0.570245 0.625879 0.519615
0.572930 0.627283 0.521202
0.577478 0.629633 0.523919
0.583612 0.632929 0.527642
0.591730 0.637354 0.532860
0.601678 0.642847 0.539452
0.613214 0.649378 0.547448
0.621637 0.652033 0.549310
0.619409 0.641260 0.529870
0.617212 0.627771 0.506645
0.614588 0.610834 0.478920
0.611017 0.589593 0.445899
0.600732 0.559289 0.408423
0.579614 0.514824 0.367803
0.567407 0.473060 0.330510
0.645624 0.503838 0.302251
0.713008 0.531945 0.268467
0.764523 0.551415 0.229374
0.804501 0.564294 0.179965
0.838956 0.573938 0.095155
0.868925 0.582910 0.000000
0.890349 0.592187 0.000000
0.910399 0.601373 0.000000
0.929198 0.610193 0.000000
0.943145 0.608942 0.000000
0.956909 0.608392 0.000000
0.970489 0.608698 0.000000
0.983856 0.609735 0.000000
0.997131 0.611383 0.000000
1.000000 0.613672 0.000000
0.603204 0.653712 0.555413
0.603479 0.653834 0.555596
0.604517 0.654353 0.556298
0.606744 0.655543 0.557702
0.610163 0.657374 0.560082
0.614954 0.659998 0.563439
0.621180 0.663478 0.567926
0.628809 0.667750 0.573602
0.637659 0.672755 0.580377
0.647456 0.678492 0.588190
0.649256 0.674708 0.579583
0.647059 0.664607 0.560204
0.644953 0.651942 0.537011
0.642603 0.636072 0.509453
0.639460 0.616083 0.476692
0.628931 0.586389 0.439216
0.609552 0.544610 0.397742
0.597620 0.504601 0.358770
0.661891 0.528191 0.332982
0.723781 0.554803 0.304631
0.771115 0.573205 0.272953
0.809079 0.585931 0.235264
0.843198 0.596429 0.182040
0.874662 0.605615 0.065675
0.897917 0.614557 0.000000
0.917662 0.623438 0.000000
0.936339 0.631769 0.000000
0.952667 0.636255 0.000000
0.966247 0.635645 0.000000
0.979736 0.635676 0.000000
0.993042 0.636378 0.000000
1.000000 0.637751 0.000000
0.632105 0.677729 0.589258
0.632349 0.677852 0.589471
0.638453 0.682734 0.596521
0.640070 0.683650 0.597803
0.642634 0.685054 0.599725
0.646143 0.687068 0.602441
0.650660 0.689631 0.605982
0.656306 0.692927 0.610468
0.662898 0.696956 0.615839
0.670436 0.701747 0.622004
0.677699 0.705989 0.627008
0.675227 0.697627 0.611933
0.672816 0.687739 0.593194
0.670558 0.675746 0.569970
0.668330 0.660853 0.542382
0.665583 0.642329 0.509941
0.655909 0.614099 0.472633
0.638422 0.574762 0.430518
0.626795 0.536492 0.390173
0.678889 0.553216 0.365606
0.735103 0.578149 0.342565
0.778500 0.595392 0.316228
0.814817 0.608423 0.286351
0.848356 0.619654 0.246281
0.879515 0.628992 0.187564
0.906035 0.636896 0.111330
0.925353 0.645106 0.079927
0.943725 0.652766 0.000000
0.961120 0.659876 0.000000
0.975341 0.661128 0.000000
0.988647 0.660975 0.000000
1.000000 0.661494 0.000000
0.656672 0.699062 0.620020
0.657252 0.699519 0.620630
0.658350 0.700313 0.621729
0.659998 0.701472 0.623194
0.662318 0.702968 0.625147
0.665217 0.704829 0.627497
0.668910 0.707240 0.630488
0.673487 0.710170 0.634089
0.678798 0.713802 0.638392
0.684962 0.718074 0.643397
0.691920 0.722988 0.649073
0.694514 0.721920 0.646052
0.691890 0.713100 0.631586
0.689265 0.702907 0.613916
0.686854 0.691188 0.592279
0.684932 0.677333 0.565606
0.682887 0.660273 0.534020
0.674372 0.634058 0.498207
0.659663 0.598047 0.457160
0.649287 0.562249 0.416815
0.691737 0.573358 0.393530
0.743313 0.597223 0.375250
0.783932 0.613855 0.353552
0.819486 0.627741 0.328954
0.852506 0.639612 0.296666
0.883330 0.649500 0.252842
0.912261 0.656916 0.187625
0.932494 0.664607 0.167147
0.950652 0.672053 0.156161
0.967864 0.678950 0.145083
0.983764 0.684535 0.135744
0.996857 0.684474 0.133852
0.675502 0.717433 0.643946
0.675990 0.717891 0.644526
0.676905 0.718685 0.645441
0.678279 0.719722 0.646693
0.680201 0.721157 0.648310
0.682643 0.722896 0.650324
0.685634 0.725063 0.652735
0.689387 0.727718 0.655726
0.693843 0.730983 0.659236
0.699001 0.734798 0.663325
0.704860 0.739162 0.667933
0.711330 0.744106 0.673152
0.710140 0.737697 0.663478
0.707668 0.728756 0.649866
0.704921 0.718379 0.633356
0.702205 0.706508 0.613184
0.699825 0.692836 0.588312
0.698207 0.677089 0.557885
0.690700 0.652644 0.523430
0.678645 0.619989 0.483680
0.670100 0.586877 0.443915
0.703578 0.592615 0.421180
0.750973 0.615259 0.406867
0.789548 0.631891 0.389441
0.824521 0.646387 0.368872
0.856992 0.658900 0.342535
0.887449 0.669093 0.307652
0.916228 0.676814 0.260075
0.939940 0.683497 0.222507
0.957946 0.690761 0.218387
0.974884 0.697505 0.215518
0.990814 0.703700 0.213687
0.692164 0.735744 0.665309
0.692592 0.736141 0.665766
0.693324 0.736812 0.666438
0.694453 0.737758 0.667506
0.696040 0.739040 0.668879
0.698085 0.740627 0.670527
0.700679 0.742580 0.672633
0.703883 0.744961 0.675166
0.707698 0.747890 0.678279
0.712245 0.751278 0.681971
0.717403 0.755184 0.686213
0.723201 0.759518 0.690944
0.727047 0.760922 0.691615
0.724819 0.753109 0.679835
0.722408 0.744045 0.666499
0.719783 0.733700 0.651179
0.716945 0.721950 0.632624
0.714229 0.708522 0.609827
0.712245 0.693355 0.582116
0.705684 0.670771 0.549279
0.696162 0.641474 0.511315
0.689723 0.611505 0.472969
0.715816 0.612573 0.450599
0.759182 0.634241 0.440345
0.796689 0.651637 0.426886
0.831205 0.666896 0.410163
0.863218 0.679896 0.389319
0.893309 0.690364 0.362005
0.921935 0.698390 0.326024
0.949126 0.704128 0.277348
0.966766 0.711238 0.278447
0.983124 0.717647 0.280308
0.709285 0.755581 0.687617
0.709468 0.755764 0.687861
0.709926 0.756130 0.688289
0.710719 0.756771 0.688960
0.712001 0.757717 0.690028
0.713710 0.758968 0.691402
0.715908 0.760647 0.693233
0.718654 0.762753 0.695552
0.722103 0.765286 0.698390
0.726101 0.768338 0.701808
0.730678 0.771756 0.705715
0.735805 0.775631 0.710140
0.741482 0.779843 0.714961
0.742031 0.776730 0.709468
0.739742 0.768978 0.697383
0.737331 0.760067 0.683803
0.734707 0.749783 0.668574
0.731838 0.738094 0.651392
0.728847 0.724880 0.630610
0.726162 0.709865 0.605097
0.718898 0.687739 0.574426
0.711116 0.660945 0.537713
0.706142 0.633448 0.500420
0.726101 0.630457 0.477760
0.766506 0.651270 0.470161
0.803159 0.669276 0.459785
0.837217 0.685023 0.446265
0.868742 0.698390 0.430060
0.898558 0.709133 0.408789
0.926940 0.717433 0.380835
0.953948 0.723384 0.343481
0.974243 0.728786 0.326543
0.723781 0.772519 0.707332
0.723995 0.772671 0.707515
0.724453 0.772976 0.707912
0.725154 0.773617 0.708583
0.726253 0.774411 0.709560
0.727749 0.775540 0.710811
0.729732 0.777005 0.712490
0.732235 0.778836 0.714595
0.735256 0.781094 0.717250
0.738857 0.783749 0.720363
0.742916 0.786801 0.723964
0.747524 0.790188 0.727993
0.752590 0.793881 0.732418
0.757717 0.797421 0.736568
0.755550 0.790951 0.725917
0.753353 0.783413 0.713802
0.751064 0.774746 0.700191
0.748592 0.764858 0.684962
0.745907 0.753536 0.668116
0.742885 0.740658 0.649042
0.739651 0.725887 0.625910
0.732082 0.704616 0.598291
0.724422 0.679316 0.563836
0.720790 0.654353 0.528313
0.735439 0.647242 0.503746
0.774136 0.668025 0.498543
0.810208 0.686702 0.490974
0.843687 0.702846 0.480781
0.874876 0.716518 0.468727
0.904387 0.727504 0.452766
0.932158 0.735653 0.430823
0.958343 0.741421 0.401617
0.738827 0.789639 0.728023
0.739040 0.789853 0.728298
0.739437 0.790127 0.728634
0.739986 0.790555 0.729122
0.740902 0.791135 0.729854
0.742092 0.791989 0.730861
0.743709 0.793118 0.732204
0.745754 0.794553 0.733913
0.748348 0.796384 0.736080
0.751400 0.798550 0.738705
0.754879 0.801022 0.741756
0.758938 0.803891 0.745235
0.763363 0.807034 0.749111
0.768246 0.810452 0.753292
0.770352 0.810117 0.751858
0.768063 0.803677 0.741085
0.765713 0.796292 0.728878
0.763455 0.787930 0.715297
0.761166 0.778408 0.700130
0.758724 0.767605 0.683436
0.755978 0.755367 0.665003
0.752316 0.740871 0.644068
0.744747 0.720577 0.618952
0.736965 0.696590 0.587732
0.733303 0.673060 0.554131
0.745083 0.664698 0.530846
0.782803 0.685817 0.527428
0.818265 0.704982 0.522545
0.851316 0.721309 0.515221
0.881834 0.734615 0.506065
0.910521 0.745266 0.493904
0.937316 0.753506 0.478096
0.751797 0.804074 0.745998
0.752041 0.804257 0.746273
0.752377 0.804532 0.746609
0.752926 0.804959 0.747097
0.753780 0.805539 0.747860
0.754940 0.806363 0.748836
0.756497 0.807462 0.750210
0.758511 0.808865 0.751949
0.760922 0.810544 0.754055
0.763790 0.812558 0.756527
0.767025 0.814817 0.759335
0.770718 0.817380 0.762539
0.774807 0.820127 0.766049
0.779232 0.823148 0.769833
0.783993 0.826322 0.773831
0.783322 0.822812 0.767544
0.781003 0.816648 0.757046
0.778744 0.809689 0.745205
0.776547 0.801785 0.731930
0.774441 0.792813 0.717098
0.772274 0.782650 0.700618
0.769894 0.771115 0.682399
0.766323 0.757168 0.662531
0.758907 0.737972 0.640162
0.751217 0.715663 0.612573
0.747433 0.693996 0.582666
0.756252 0.684108 0.559869
0.793027 0.705440 0.558343
0.827756 0.724636 0.555657
0.859892 0.740597 0.551080
0.889769 0.753750 0.545281
0.917327 0.764370 0.537835
0.765347 0.818509 0.764370
0.765438 0.818601 0.764492
0.765743 0.818814 0.764736
0.766201 0.819150 0.765194
0.766964 0.819638 0.765805
0.768032 0.820340 0.766690
0.769436 0.821256 0.767849
0.771176 0.822446 0.769345
0.773342 0.823880 0.771176
0.775906 0.825589 0.773342
0.778866 0.827573 0.775845
0.782193 0.829801 0.778653
0.785855 0.832212 0.781765
0.789883 0.834806 0.785092
0.794217 0.837613 0.788663
0.797879 0.839536 0.790860
0.795651 0.834440 0.782101
0.793393 0.828702 0.772091
0.791257 0.822232 0.760830
0.789273 0.814878 0.748135
0.787320 0.806577 0.733913
0.785458 0.797177 0.717952
0.783536 0.786496 0.700252
0.780270 0.773312 0.680812
0.773465 0.755489 0.660029
0.765957 0.734737 0.635615
0.762020 0.714717 0.609308
0.767849 0.703395 0.587732
0.803403 0.724239 0.587060
0.837339 0.743374 0.586877
0.868742 0.759213 0.585351
0.897551 0.772244 0.583032
0.778286 0.831693 0.781338
0.778408 0.831785 0.781460
0.778683 0.831968 0.781704
0.779141 0.832273 0.782132
0.779873 0.832761 0.782742
0.780911 0.833463 0.783627
0.782345 0.834409 0.784878
0.784146 0.835630 0.786465
0.786343 0.837095 0.788357
0.788846 0.838804 0.790585
0.791745 0.840757 0.793088
0.794980 0.842863 0.795865
0.798489 0.845121 0.798886
0.802243 0.847532 0.801999
0.806271 0.850034 0.805295
0.810452 0.852598 0.808682
0.811765 0.852018 0.807034
0.809659 0.847440 0.798886
0.807675 0.842283 0.789700
0.805783 0.836484 0.779324
0.804044 0.829923 0.767605
0.802396 0.822446 0.754269
0.800748 0.813840 0.739040
0.799191 0.804105 0.721981
0.796201 0.791806 0.703151
0.790280 0.775387 0.682795
0.783597 0.756466 0.660548
0.780026 0.738766 0.638544
0.783627 0.727260 0.619898
0.817594 0.746975 0.619989
0.850553 0.765530 0.622065
0.880644 0.780850 0.623499
0.792874 0.845670 0.799741
0.792935 0.845701 0.799771
0.793149 0.845823 0.799893
0.793484 0.846036 0.800198
0.794095 0.846403 0.800687
0.794949 0.846921 0.801358
0.796078 0.847654 0.802304
0.797574 0.848539 0.803464
0.799313 0.849638 0.804959
0.801450 0.850950 0.806699
0.803861 0.852476 0.808652
0.806607 0.854154 0.810910
0.809628 0.855985 0.813382
0.812894 0.857939 0.816007
