20 Preset/Movie Style Preset/【3】LUT for PR-AE-FCPX/Movie - LUT  (10).cube
# Created by Adobe Lightroom plugin Export LUT (1.24.0)
# www.johnrellis.com/lightroom/exportlut.htm
# Preset: 电影质感10（修改版）
# Color profile: C:\Program Files (x86)\Common Files\Adobe\Color\Profiles\Recommended\VideoHD.icc
LUT_3D_SIZE 5
DOMAIN_MIN 0.000000 0.000000 0.000000
DOMAIN_MAX 0.903226 0.903226 0.903226
0.080262 0.094423 0.108461
0.316869 0.098207 0.097078
0.812955 0.000000 0.000000
0.961700 0.284306 0.000000
1.000000 0.410681 0.000000
0.163149 0.260533 0.199039
0.226627 0.210269 0.160220
0.826413 0.344396 0.000000
0.954986 0.392737 0.000000
1.000000 0.461830 0.000000
0.637263 0.677333 0.581201
0.654108 0.679438 0.579095
0.604791 0.501335 0.344884
0.921111 0.619196 0.000000
1.000000 0.616419 0.000000
0.760830 0.808499 0.749081
0.769467 0.814328 0.756405
0.767575 0.788357 0.711086
0.736446 0.661555 0.533745
0.950530 0.743587 0.426184
0.835233 0.877958 0.845762
0.838621 0.879698 0.848325
0.848692 0.884154 0.854215
0.841032 0.860472 0.808011
0.835172 0.796750 0.710506
0.043091 0.108064 0.176547
0.300420 0.077699 0.192508
0.788907 0.081575 0.134493
0.943938 0.315679 0.000000
1.000000 0.428504 0.000000
0.190280 0.279637 0.257481
0.347265 0.298039 0.239384
0.807767 0.361120 0.117800
0.940917 0.412299 0.000000
1.000000 0.473701 0.000000
0.639307 0.672663 0.596094
0.661158 0.683345 0.607507
0.628107 0.530480 0.390509
0.910979 0.631495 0.191196
1.000000 0.626734 0.101747
0.761837 0.807797 0.754147
0.770474 0.813962 0.761715
0.769375 0.791165 0.721798
0.738705 0.668360 0.550256
0.948028 0.748440 0.461646
0.835477 0.877745 0.847257
0.838804 0.879576 0.849821
0.851804 0.886503 0.859800
0.842741 0.863035 0.814572
0.836210 0.799466 0.716854
0.000000 0.181430 0.450080
0.315648 0.159182 0.503410
0.771328 0.275792 0.461250
0.879179 0.430854 0.418341
0.983673 0.522148 0.388983
0.243290 0.388067 0.472786
0.429480 0.386969 0.521477
0.740566 0.429053 0.478492
0.880888 0.496223 0.432624
0.982422 0.554162 0.398474
0.608331 0.644648 0.594293
0.652186 0.667811 0.633631
0.700404 0.627710 0.543755
0.874144 0.664424 0.502525
0.972076 0.656855 0.452247
0.758328 0.799954 0.762051
0.766934 0.806638 0.769833
0.777523 0.803861 0.760159
0.753445 0.699733 0.611048
0.938994 0.766567 0.572076
0.832303 0.874693 0.848966
0.836332 0.877073 0.852140
0.851102 0.885588 0.863706
0.846921 0.870298 0.834470
0.837797 0.805264 0.731899
0.206271 0.350317 0.655665
0.401343 0.353033 0.671931
0.764706 0.380102 0.707607
0.860929 0.544030 0.639277
0.912566 0.606195 0.618799
0.386694 0.479744 0.653559
0.477790 0.476936 0.668818
0.750820 0.502007 0.703304
0.844022 0.583703 0.643885
0.899718 0.631891 0.631434
0.556909 0.656306 0.653193
0.595544 0.659266 0.660243
0.717861 0.677424 0.700008
0.803098 0.671443 0.660853
0.912779 0.690517 0.652186
0.721187 0.767330 0.731411
0.733242 0.775021 0.744198
0.778439 0.807889 0.791653
0.787808 0.754391 0.700313
0.924010 0.780697 0.691279
0.812314 0.862974 0.835599
0.818479 0.865965 0.841276
0.842283 0.878264 0.862974
0.862272 0.888853 0.874113
0.846464 0.823362 0.768521
0.495460 0.541833 0.776913
0.545159 0.541802 0.782650
0.712886 0.546654 0.807706
0.872709 0.598199 0.811429
0.925383 0.682795 0.765530
0.520287 0.583154 0.770016
0.560693 0.584131 0.776211
0.706874 0.590356 0.802060
0.862608 0.627222 0.808957
0.919615 0.695247 0.767727
0.571740 0.672297 0.742824
0.599237 0.677668 0.751644
0.684260 0.682918 0.787076
0.839414 0.703761 0.812741
0.901213 0.734157 0.776791
0.635004 0.778622 0.768460
0.646113 0.778073 0.770321
0.692775 0.777676 0.780850
0.802670 0.793423 0.827512
0.875486 0.786557 0.794675
0.762081 0.840024 0.801572
0.767941 0.841642 0.805509
0.796048 0.850828 0.826810
0.844266 0.875975 0.868864
0.864958 0.862974 0.844511
