20 Preset/Movie Style Preset/【3】LUT for PR-AE-FCPX/Movie - LUT  (10).cube
# Created by Adobe Lightroom plugin Export LUT (1.24.0)
# www.johnrellis.com/lightroom/exportlut.htm
# Preset: 电影质感10（修改版）
# Color profile: C:\Program Files (x86)\Common Files\Adobe\Color\Profiles\Recommended\VideoHD.icc
LUT_3D_SIZE 8
DOMAIN_MIN 0.000000 0.000000 0.000000
DOMAIN_MAX 0.903226 0.903226 0.903226
0.080262 0.094423 0.108461
0.123964 0.098573 0.107179
0.411200 0.062928 0.087892
0.723751 0.000000 0.000000
0.874205 0.128389 0.000000
0.947448 0.259495 0.000000
0.998108 0.346166 0.000000
1.000000 0.410681 0.000000
0.095186 0.118776 0.125246
0.112215 0.119265 0.123018
0.446143 0.162051 0.051270
0.732265 0.127352 0.000000
0.871397 0.207919 0.000000
0.942718 0.290929 0.000000
0.994354 0.362402 0.000000
1.000000 0.420844 0.000000
0.223880 0.337896 0.243381
0.261723 0.351507 0.246738
0.281865 0.251347 0.179110
0.751675 0.389044 0.000000
0.869749 0.401801 0.000000
0.937713 0.418158 0.000000
0.990265 0.448676 0.000000
1.000000 0.478950 0.000000
0.558007 0.610101 0.491524
0.573632 0.618067 0.500114
0.577478 0.582818 0.439277
0.531029 0.432013 0.285801
0.827543 0.547143 0.000000
0.925261 0.576013 0.000000
0.977050 0.566217 0.000000
1.000000 0.567926 0.000000
0.684749 0.722194 0.644343
0.689540 0.725460 0.648005
0.699397 0.726009 0.644800
0.691615 0.681819 0.563775
0.655512 0.555810 0.399969
0.848081 0.637018 0.286137
0.950195 0.663508 0.000000
1.000000 0.665248 0.000000
0.746914 0.793118 0.729152
0.750362 0.795895 0.732601
0.761013 0.803372 0.741695
0.757656 0.784848 0.710445
0.746731 0.739315 0.641077
0.724239 0.643000 0.507256
0.867613 0.709438 0.458869
0.970214 0.730343 0.337652
0.795102 0.843107 0.795712
0.796841 0.844236 0.797208
0.803159 0.848051 0.802182
0.809781 0.849424 0.802457
0.801755 0.828061 0.764981
0.793545 0.790555 0.701289
0.773342 0.717494 0.610834
0.889921 0.770138 0.589044
0.835233 0.877958 0.845762
0.836118 0.878386 0.846433
0.839841 0.880400 0.849271
0.846921 0.884123 0.854765
0.846067 0.879332 0.844877
0.841672 0.865232 0.817319
0.839017 0.840604 0.771756
0.835172 0.796750 0.710506
0.081147 0.099092 0.124361
0.123232 0.099397 0.126955
0.385687 0.056245 0.115023
0.708553 0.000000 0.014923
0.863676 0.146120 0.000000
0.938018 0.261784 0.000000
0.990784 0.346044 0.000000
1.000000 0.410620 0.000000
0.094453 0.123842 0.133639
0.132296 0.137270 0.139467
0.435492 0.161349 0.106844
0.724239 0.143709 0.000000
0.865202 0.219211 0.000000
0.937163 0.295995 0.000000
0.989105 0.364691 0.000000
1.000000 0.421637 0.000000
0.250492 0.348150 0.273289
0.285344 0.362188 0.278660
0.318181 0.277775 0.201328
0.745907 0.394537 0.000000
0.862333 0.402777 0.000000
0.931151 0.419165 0.000000
0.983703 0.447761 0.000000
1.000000 0.478309 0.000000
0.554223 0.602686 0.494270
0.570031 0.611139 0.503105
0.574670 0.579370 0.448493
0.536858 0.438758 0.298192
0.821836 0.545373 0.000000
0.917632 0.571527 0.000000
0.970672 0.563653 0.000000
1.000000 0.566735 0.000000
0.684352 0.720516 0.646052
0.688869 0.723598 0.649439
0.698939 0.724849 0.647395
0.689570 0.680079 0.566705
0.656458 0.558007 0.405829
0.845518 0.636713 0.299840
0.946532 0.664027 0.123232
0.999145 0.665248 0.010101
0.745846 0.791348 0.728786
0.748470 0.793301 0.731106
0.759243 0.800992 0.740444
0.756497 0.783444 0.710811
0.745418 0.738125 0.642115
0.723598 0.643183 0.510124
0.866484 0.709682 0.464363
0.967926 0.730800 0.352667
0.793973 0.841825 0.794888
0.795346 0.842618 0.795926
0.801663 0.846494 0.800931
0.809049 0.848692 0.802396
0.801144 0.827512 0.765438
0.792538 0.789731 0.701595
0.771633 0.715694 0.609888
0.888762 0.768978 0.588525
0.834409 0.877226 0.845090
0.835416 0.877806 0.845945
0.839139 0.879789 0.848783
0.846342 0.883635 0.854368
0.847166 0.880278 0.846983
0.842191 0.865873 0.819028
0.838926 0.840818 0.772824
0.834806 0.796628 0.710994
0.005768 0.112642 0.205692
0.116213 0.106844 0.225742
0.392309 0.024537 0.225467
0.674800 0.000000 0.205173
0.848905 0.197024 0.158053
0.925505 0.310826 0.096040
0.980316 0.386511 0.000000
1.000000 0.440589 0.000000
0.075074 0.170291 0.224521
0.144656 0.165835 0.246891
0.406867 0.169375 0.236576
0.698329 0.176974 0.206180
0.850309 0.259068 0.155093
0.924193 0.340764 0.086885
0.978912 0.401373 0.000000
1.000000 0.450111 0.000000
0.260227 0.351873 0.315679
0.322301 0.380682 0.350591
0.437140 0.362371 0.285557
0.738552 0.417762 0.209140
0.850462 0.428077 0.161776
0.920562 0.447089 0.086122
0.974731 0.472847 0.000000
1.000000 0.498177 0.000000
0.565454 0.602960 0.525994
0.581811 0.613031 0.536339
0.595209 0.599420 0.509178
0.590692 0.494331 0.368139
0.823178 0.573266 0.245884
0.906584 0.586419 0.188998
0.961273 0.581353 0.136263
1.000000 0.583459 0.000000
0.686915 0.719387 0.657404
0.691524 0.722896 0.661097
0.705928 0.731563 0.668635
0.693446 0.687404 0.597436
0.676997 0.585870 0.450416
0.844999 0.652399 0.374426
0.938933 0.678492 0.296666
0.990417 0.675288 0.271336
0.747219 0.790860 0.735378
0.749935 0.792874 0.737819
0.760555 0.800748 0.747189
0.759396 0.786954 0.723568
0.746304 0.741451 0.655695
0.728817 0.654231 0.532921
0.865782 0.717128 0.496925
0.961700 0.738888 0.423529
0.795224 0.841978 0.799069
0.796628 0.842832 0.800168
0.802853 0.846738 0.805081
0.812589 0.851743 0.810910
0.803342 0.830533 0.774685
0.793484 0.792660 0.711116
0.772885 0.720027 0.620630
0.889952 0.774075 0.604944
0.834714 0.877104 0.846891
0.835538 0.877562 0.847471
0.839292 0.879606 0.850370
0.846830 0.883726 0.856291
0.849485 0.882322 0.852293
0.843748 0.868101 0.825132
0.839841 0.843198 0.779263
0.835172 0.798550 0.716426
0.000000 0.148318 0.364263
0.000000 0.146761 0.384253
0.434760 0.000000 0.436927
0.696864 0.152895 0.383368
0.794583 0.300359 0.366033
0.889647 0.373053 0.329992
0.951476 0.440375 0.301518
1.000000 0.492531 0.281743
0.000000 0.218540 0.388067
0.116426 0.214969 0.404944
0.472267 0.183352 0.446571
0.691981 0.253269 0.394537
0.799435 0.341924 0.373602
0.889860 0.399329 0.334203
0.950652 0.456825 0.305058
1.000000 0.502464 0.283757
0.228489 0.406806 0.414710
0.296941 0.414588 0.426184
0.500786 0.432258 0.457252
0.682795 0.440986 0.428992
0.814359 0.463294 0.389807
0.890776 0.490547 0.353399
0.949401 0.521019 0.325994
1.000000 0.543023 0.296300
0.534997 0.580224 0.524285
0.557580 0.590692 0.540978
0.621912 0.629999 0.587701
0.654322 0.568139 0.474586
0.810697 0.611719 0.434974
0.879515 0.607050 0.406134
0.938079 0.606928 0.373541
0.990845 0.608789 0.337957
0.683864 0.712062 0.666377
0.688777 0.716091 0.670466
0.708675 0.732723 0.687556
0.699886 0.699672 0.639551
0.704036 0.627405 0.520928
0.844694 0.678828 0.478828
0.924590 0.698573 0.451698
0.974487 0.689479 0.426032
0.748287 0.789120 0.744656
0.751614 0.791958 0.748013
0.762081 0.800137 0.757504
0.767117 0.796567 0.748959
0.750607 0.750668 0.681239
0.739101 0.675868 0.575036
0.866575 0.731899 0.551232
0.952056 0.752590 0.517174
0.795071 0.840482 0.803677
0.796811 0.841642 0.805142
0.803647 0.846250 0.810880
0.816434 0.854643 0.821439
0.809079 0.837858 0.793271
0.796139 0.799496 0.729946
0.778958 0.731380 0.640986
0.892485 0.782101 0.630274
0.834775 0.876707 0.849729
0.835721 0.877226 0.850462
0.839719 0.879484 0.853513
0.847227 0.883696 0.859373
0.854520 0.886748 0.862913
0.847044 0.872557 0.836667
0.841550 0.847745 0.791135
0.837247 0.803433 0.727230
0.000000 0.222782 0.523369
0.000000 0.223758 0.534417
0.416083 0.199863 0.575036
0.699855 0.225864 0.568475
0.810422 0.375219 0.523613
0.855406 0.428382 0.482765
0.902342 0.505791 0.485115
0.961883 0.551934 0.478523
0.000000 0.284581 0.532921
0.161959 0.285588 0.542992
0.454688 0.273442 0.580255
0.701045 0.310124 0.570947
0.802426 0.410437 0.527276
0.845396 0.458930 0.494362
0.902647 0.517418 0.488289
0.961700 0.559319 0.480568
0.332769 0.456214 0.534691
0.373754 0.462837 0.547021
0.511345 0.459907 0.583429
0.690303 0.488716 0.578363
0.773465 0.502098 0.537682
0.832700 0.531853 0.518669
0.903593 0.559380 0.499397
0.960967 0.586419 0.487190
0.485969 0.588128 0.558648
0.507652 0.591699 0.564385
0.581537 0.607080 0.587854
0.682551 0.620813 0.595422
0.771054 0.619440 0.572473
0.844816 0.621973 0.545434
0.906584 0.627649 0.521965
0.962280 0.633234 0.500145
0.657191 0.689235 0.647669
0.664637 0.693385 0.654841
0.691585 0.710689 0.681636
0.707881 0.715389 0.681544
0.728206 0.670771 0.599237
0.838346 0.706874 0.585595
0.900877 0.704646 0.564202
0.955138 0.697627 0.538842
0.736172 0.774472 0.738735
0.739986 0.776974 0.742916
0.752041 0.787045 0.754543
0.773465 0.804898 0.774655
0.753414 0.760647 0.710933
0.752255 0.701930 0.622889
0.870817 0.749874 0.610224
0.943053 0.767178 0.600885
0.789364 0.833677 0.803708
0.790890 0.834806 0.804959
0.797543 0.839689 0.810544
0.811643 0.849760 0.822538
0.817197 0.848417 0.817685
0.798856 0.808530 0.755184
0.786709 0.745083 0.665126
0.897185 0.791196 0.658228
0.829129 0.872251 0.847959
0.830228 0.872892 0.848844
0.834897 0.875700 0.852506
0.844114 0.881254 0.859892
0.856046 0.888243 0.869261
0.852232 0.879332 0.852781
0.843870 0.854185 0.807126
0.839780 0.809323 0.740169
0.136782 0.325109 0.635523
0.230106 0.326970 0.641352
0.445808 0.326452 0.662074
0.703883 0.315984 0.696620
0.800565 0.434241 0.653468
0.852171 0.519005 0.619532
0.888029 0.543603 0.588525
0.911131 0.606928 0.606500
0.235904 0.369299 0.635309
0.291142 0.370306 0.640223
0.467720 0.370642 0.659815
0.702144 0.366033 0.693385
0.793973 0.464179 0.652155
0.846342 0.531456 0.619715
0.883360 0.551568 0.589532
0.911376 0.610681 0.606836
0.422004 0.510491 0.634424
0.433356 0.504723 0.639826
0.523400 0.502037 0.658900
0.695705 0.508141 0.689601
0.775051 0.560418 0.657496
0.827176 0.580102 0.627100
0.863310 0.595392 0.607019
0.914031 0.631769 0.614374
0.512840 0.611444 0.631464
0.528344 0.612573 0.633967
0.588403 0.622583 0.649775
0.683986 0.636103 0.686336
0.753384 0.651362 0.670771
0.797787 0.640864 0.641444
0.859281 0.653193 0.632532
0.919921 0.668482 0.628443
0.620691 0.680476 0.649256
0.628412 0.681941 0.652186
0.656397 0.688350 0.664210
0.698360 0.709133 0.694240
0.755459 0.715206 0.682856
0.816403 0.711696 0.666773
0.873869 0.709804 0.651545
0.928801 0.709743 0.639002
0.711238 0.753750 0.717159
0.715450 0.756619 0.721614
0.730678 0.766812 0.737942
0.757961 0.786709 0.767300
0.764004 0.781521 0.755978
0.776303 0.738491 0.680903
0.876402 0.772030 0.680995
0.929717 0.766049 0.666285
0.772641 0.821378 0.790707
0.775204 0.822904 0.793332
0.785061 0.828702 0.803311
0.803037 0.840269 0.820829
0.824765 0.856779 0.839475
0.807248 0.825681 0.793332
0.800534 0.767788 0.703517
0.905791 0.806851 0.702480
0.816037 0.865110 0.838315
0.817533 0.865782 0.839658
0.824155 0.868956 0.845762
0.837125 0.875547 0.857694
0.850675 0.884184 0.868498
0.862394 0.890074 0.875120
0.847929 0.864042 0.831235
0.844785 0.819852 0.761563
0.360845 0.435889 0.711543
0.393866 0.438025 0.714748
0.501091 0.440406 0.725063
0.658259 0.446571 0.746242
0.801175 0.477638 0.760769
0.850706 0.562860 0.722469
0.888182 0.612299 0.697658
0.916289 0.626276 0.672541
0.383032 0.458045 0.707362
0.412146 0.460426 0.710689
0.509087 0.463050 0.721157
0.655879 0.467994 0.741817
0.795377 0.494423 0.756497
0.845090 0.570489 0.719020
0.883360 0.612940 0.693751
0.912596 0.625483 0.668971
0.475990 0.549187 0.703517
0.483162 0.544854 0.706600
0.544488 0.545312 0.716976
0.658991 0.552392 0.737850
0.782589 0.569909 0.754116
0.833097 0.618799 0.723445
0.873716 0.639612 0.699092
0.906096 0.647333 0.677455
0.543481 0.627710 0.690272
0.555047 0.630091 0.693507
0.600397 0.640742 0.708583
0.662593 0.643000 0.732662
0.767330 0.653712 0.755520
0.820401 0.677974 0.733761
0.859098 0.675044 0.705928
0.891936 0.681361 0.691707
0.597253 0.697261 0.698634
0.602716 0.696925 0.699123
0.626337 0.697505 0.703426
0.666346 0.699245 0.713924
0.747280 0.715236 0.756924
0.799863 0.720851 0.737423
0.835813 0.710597 0.712459
0.888182 0.722957 0.712520
0.667689 0.741207 0.710903
0.671260 0.742184 0.712642
0.685298 0.745937 0.719692
0.711452 0.753994 0.734188
0.747646 0.770321 0.760037
0.798611 0.777920 0.759579
0.853544 0.773251 0.745296
0.903685 0.769955 0.734951
0.742611 0.799557 0.764065
0.745235 0.801175 0.766812
0.755398 0.807004 0.777066
0.775082 0.818753 0.796841
0.803708 0.836667 0.824857
0.819883 0.844755 0.832486
0.820432 0.799680 0.758755
0.907073 0.826658 0.767483
0.796994 0.853971 0.823911
0.798795 0.854826 0.825528
0.806577 0.858824 0.832761
0.820401 0.865721 0.845274
0.840146 0.876066 0.862943
0.861204 0.889372 0.880613
0.857969 0.879942 0.864286
0.852903 0.836454 0.793973
0.495460 0.541833 0.776913
0.509880 0.542626 0.778866
0.562676 0.541894 0.784787
0.656153 0.544396 0.798367
0.773495 0.549767 0.818479
0.862089 0.585107 0.819059
0.895567 0.643671 0.783902
0.925383 0.682795 0.765530
0.500572 0.551995 0.773648
0.514427 0.553002 0.775631
0.565087 0.553216 0.782132
0.654871 0.555261 0.795682
0.769986 0.560754 0.816068
0.858793 0.592828 0.817441
0.893095 0.647486 0.782986
0.923583 0.685176 0.765347
0.533806 0.599542 0.767178
0.538231 0.596216 0.769375
0.578088 0.596460 0.776028
0.656306 0.602014 0.791257
0.760067 0.607202 0.811978
0.848997 0.627375 0.816007
0.886503 0.669947 0.785275
0.917449 0.698848 0.768063
0.571618 0.656428 0.753384
0.580407 0.658289 0.756069
0.606348 0.659236 0.765896
0.653223 0.656550 0.782681
0.742489 0.663447 0.805875
0.835294 0.675532 0.817136
0.876249 0.708431 0.792569
0.907286 0.721950 0.773831
0.583215 0.698268 0.741543
0.588220 0.697993 0.742275
0.606043 0.694575 0.743679
0.652766 0.705989 0.765347
0.715724 0.711940 0.795468
0.815640 0.726070 0.820005
0.862669 0.749783 0.802609
0.894713 0.747829 0.780697
0.621668 0.761715 0.760037
0.624506 0.761227 0.760281
0.637140 0.759915 0.761990
0.663111 0.758419 0.767056
0.702937 0.756283 0.776669
0.784207 0.777890 0.820737
0.847471 0.792386 0.816190
0.880522 0.778439 0.791562
0.691188 0.801236 0.772091
0.693355 0.801511 0.772946
0.702480 0.802823 0.776669
0.720638 0.806119 0.784817
0.747524 0.812039 0.797910
0.782589 0.822049 0.816953
0.827543 0.826535 0.825895
0.879179 0.824643 0.817502
0.762081 0.840024 0.801572
0.763546 0.840391 0.802518
0.770230 0.842344 0.807126
0.785641 0.846616 0.818173
0.807919 0.856626 0.837247
0.836332 0.871489 0.862028
0.868528 0.892027 0.889464
0.864958 0.862974 0.844511
