20 Preset/Movie Style Preset/【3】LUT for PR-AE-FCPX/Movie - LUT  (14).cube
# Created by Adobe Lightroom plugin Export LUT (1.24.0)
# www.johnrellis.com/lightroom/exportlut.htm
# Preset: 电影质感14（修改版）
# Color profile: C:\Program Files (x86)\Common Files\Adobe\Color\Profiles\Recommended\VideoHD.icc
LUT_3D_SIZE 32
DOMAIN_MIN 0.0 0.0 0.0
DOMAIN_MAX 1.0 1.0 1.0
0.080262 0.094423 0.108461
0.081514 0.094331 0.108461
0.084199 0.094942 0.108705
0.089815 0.095644 0.109529
0.095430 0.097688 0.110811
0.103761 0.100038 0.112612
0.117556 0.102876 0.113893
0.135775 0.105989 0.114931
0.158694 0.109560 0.115969
0.187472 0.113588 0.116579
0.222141 0.117403 0.117281
0.263249 0.121157 0.117494
0.311070 0.124025 0.117037
0.366918 0.124849 0.116213
0.427100 0.123598 0.114626
0.487953 0.121584 0.111818
0.546502 0.120821 0.108766
0.600549 0.125032 0.104738
0.648371 0.135622 0.101350
0.690028 0.153017 0.097536
0.725429 0.175204 0.095094
0.756039 0.199710 0.093782
0.782406 0.225498 0.093965
0.805417 0.252049 0.098146
0.825254 0.279149 0.106050
0.842496 0.306004 0.118227
0.857359 0.333135 0.134829
0.870329 0.360479 0.154910
0.882383 0.388739 0.178805
0.893736 0.418341 0.205997
0.904204 0.448615 0.237919
0.913939 0.479255 0.273747
0.080873 0.094759 0.108736
0.080873 0.094759 0.108736
0.086458 0.095186 0.108309
0.091249 0.095888 0.108827
0.096986 0.097536 0.110170
0.105531 0.100191 0.111940
0.119051 0.103059 0.113222
0.137179 0.106447 0.114534
0.160586 0.109865 0.115267
0.189731 0.113680 0.116182
0.224643 0.117891 0.116487
0.265415 0.121584 0.116701
0.313451 0.124178 0.116213
0.369085 0.125124 0.115053
0.429328 0.123842 0.113405
0.490089 0.121614 0.110842
0.548241 0.121187 0.107362
0.601892 0.125307 0.103304
0.649500 0.135714 0.099977
0.690608 0.153323 0.096132
0.725856 0.175387 0.092897
0.756130 0.199496 0.092134
0.782528 0.225315 0.091890
0.805447 0.251957 0.095460
0.825345 0.278691 0.103853
0.842435 0.305669 0.116365
0.857298 0.332647 0.133120
0.870298 0.359838 0.153201
0.882383 0.388281 0.177188
0.893706 0.417700 0.204623
0.904204 0.448005 0.236362
0.913939 0.478767 0.272374
0.082704 0.096498 0.110140
0.082246 0.096925 0.110079
0.084779 0.096773 0.110079
0.092531 0.098085 0.108888
0.101442 0.099397 0.107912
0.113436 0.101137 0.108461
0.127626 0.104372 0.110323
0.146304 0.108034 0.111910
0.170443 0.111788 0.112551
0.199466 0.115694 0.113405
0.234714 0.119417 0.113619
0.275853 0.123049 0.113375
0.324376 0.125582 0.112673
0.380438 0.125948 0.111269
0.439826 0.124697 0.109041
0.499428 0.122560 0.105531
0.556390 0.122591 0.101686
0.608637 0.127077 0.096895
0.654963 0.137881 0.092866
0.694972 0.155795 0.088289
0.729335 0.177432 0.083009
0.759060 0.201633 0.079500
0.784909 0.226902 0.078859
0.807370 0.253117 0.085573
0.826902 0.279515 0.094972
0.843717 0.306279 0.108736
0.858518 0.332952 0.125948
0.871336 0.360021 0.147219
0.883360 0.388128 0.171817
0.894713 0.417395 0.199496
0.905150 0.447547 0.231907
0.914855 0.478248 0.268132
0.085084 0.100740 0.113436
0.086152 0.100649 0.113741
0.086976 0.100984 0.113710
0.089357 0.101137 0.113649
0.100740 0.103639 0.111299
0.118563 0.107027 0.108583
0.141695 0.109926 0.106905
0.163668 0.113313 0.107057
0.190188 0.117464 0.107057
0.220462 0.121553 0.107301
0.256260 0.125032 0.107271
0.297948 0.128084 0.106691
0.347753 0.129854 0.105165
0.403845 0.129854 0.102358
0.461219 0.128023 0.099275
0.518761 0.126284 0.094514
0.572808 0.126864 0.089113
0.622461 0.132387 0.079194
0.666163 0.144167 0.064942
0.703822 0.161471 0.051423
0.736324 0.182620 0.041444
0.764828 0.206210 0.034272
0.789639 0.230838 0.031769
0.811246 0.256107 0.040375
0.830106 0.281804 0.060914
0.846616 0.307866 0.090181
0.860990 0.334081 0.110475
0.873655 0.360693 0.134188
0.885588 0.388373 0.160555
0.896818 0.417456 0.189670
0.907225 0.447181 0.222629
0.916808 0.477729 0.260014
0.088869 0.106905 0.118074
0.088777 0.106905 0.118379
0.089998 0.107118 0.118349
0.091798 0.107637 0.117952
0.096345 0.107912 0.117586
0.114076 0.112215 0.114626
0.143557 0.119234 0.109468
0.175601 0.125399 0.106050
0.212497 0.129458 0.102541
0.246494 0.132845 0.101625
0.284794 0.136172 0.100252
0.330205 0.138949 0.097169
0.382483 0.140291 0.093172
0.439063 0.139925 0.086488
0.494301 0.138186 0.075319
0.547814 0.137545 0.058259
0.597559 0.138949 0.041230
0.643061 0.145480 0.021088
0.682765 0.157107 0.003876
0.717220 0.173495 0.000000
0.747555 0.193576 0.000000
0.774075 0.215274 0.000000
0.797177 0.238437 0.000000
0.817472 0.262272 0.000000
0.835355 0.286442 0.000000
0.851133 0.311315 0.016144
0.864866 0.336400 0.074159
0.877256 0.362188 0.110780
0.889036 0.389288 0.140993
0.900145 0.417609 0.172946
0.910460 0.446876 0.207767
0.919921 0.477058 0.246372
0.092073 0.116152 0.123690
0.092439 0.116426 0.123934
0.093141 0.116945 0.124422
0.094545 0.117159 0.123812
0.099214 0.117952 0.123110
0.106935 0.117830 0.122744
0.131197 0.124483 0.118502
0.174319 0.135836 0.110201
0.217990 0.145357 0.104005
0.266148 0.152132 0.098116
0.318975 0.155428 0.091402
0.368292 0.156771 0.085512
0.419287 0.156619 0.077089
0.472511 0.155764 0.059937
0.525048 0.155337 0.040681
0.575372 0.155734 0.019013
0.622004 0.159182 0.000000
0.663935 0.166354 0.000000
0.700557 0.178470 0.000000
0.732845 0.193637 0.000000
0.761410 0.211704 0.000000
0.786343 0.231144 0.000000
0.809812 0.254063 0.000000
0.828153 0.275456 0.000000
0.844388 0.297551 0.000000
0.858885 0.320073 0.000000
0.871641 0.343328 0.000000
0.883635 0.367803 0.040223
0.895079 0.393835 0.108888
0.905882 0.421210 0.147951
0.915923 0.449622 0.187015
0.925261 0.478798 0.228580
0.095674 0.130373 0.131533
0.096620 0.130526 0.131991
0.097261 0.131441 0.132876
0.099580 0.131319 0.132113
0.102296 0.131380 0.131044
0.111666 0.133120 0.129915
0.122164 0.132876 0.129519
0.154055 0.141848 0.123720
0.207767 0.156710 0.111971
0.269688 0.170077 0.099763
0.333257 0.180911 0.087068
0.397925 0.184604 0.062776
0.462165 0.184329 0.032380
0.514702 0.182681 0.010773
0.562066 0.181827 0.000000
0.606714 0.182742 0.000000
0.648066 0.186923 0.000000
0.685054 0.194553 0.000000
0.717952 0.205356 0.000000
0.747189 0.219272 0.000000
0.773342 0.235477 0.000000
0.796384 0.252811 0.000000
0.816587 0.271153 0.000000
0.834897 0.289952 0.000000
0.851316 0.309209 0.000000
0.865660 0.328832 0.000000
0.877836 0.349584 0.000000
0.889555 0.372259 0.000000
0.900755 0.396735 0.000000
0.911376 0.422644 0.099184
0.921355 0.449805 0.150942
0.930663 0.477974 0.198215
0.101045 0.150149 0.142458
0.101686 0.150515 0.142855
0.103792 0.151369 0.144045
0.105440 0.151278 0.142916
0.108583 0.150912 0.141573
0.114931 0.151308 0.140047
0.128695 0.153841 0.138979
0.142763 0.153109 0.138369
0.180606 0.163302 0.132326
0.245975 0.181521 0.115846
0.327398 0.199069 0.094240
0.403388 0.210575 0.057313
0.479225 0.220035 0.002869
0.539666 0.219455 0.000000
0.595697 0.219303 0.000000
0.639063 0.219791 0.000000
0.674586 0.223056 0.000000
0.706600 0.229007 0.000000
0.735378 0.238041 0.000000
0.761440 0.249516 0.000000
0.784909 0.262852 0.000000
0.805570 0.277287 0.000000
0.823941 0.292638 0.000000
0.840757 0.308659 0.000000
0.856046 0.325628 0.000000
0.870024 0.342657 0.000000
0.883330 0.360845 0.000000
0.896422 0.380041 0.000000
0.907408 0.402106 0.000000
0.917906 0.426123 0.000000
0.927764 0.451453 0.081270
0.937102 0.478126 0.152926
0.108522 0.175845 0.156893
0.109377 0.176272 0.157412
0.111849 0.177249 0.158572
0.113771 0.176822 0.157656
0.117281 0.176181 0.155764
0.121645 0.175113 0.153445
0.133272 0.176974 0.151736
0.151949 0.180514 0.150393
0.169131 0.178866 0.149905
0.212131 0.189487 0.143465
0.290135 0.210727 0.121675
0.384009 0.230106 0.091768
0.473121 0.243748 0.014740
0.546105 0.254551 0.000000
0.608881 0.262730 0.000000
0.655940 0.264012 0.000000
0.697017 0.267277 0.000000
0.728542 0.271580 0.000000
0.753658 0.277440 0.000000
0.776577 0.285679 0.000000
0.797116 0.295262 0.000000
0.815335 0.306249 0.000000
0.831876 0.318181 0.000000
0.847227 0.331456 0.000000
0.861357 0.345403 0.000000
0.874540 0.360174 0.000000
0.887419 0.376349 0.000000
0.900206 0.393774 0.000000
0.912871 0.412360 0.000000
0.925139 0.432074 0.000000
0.935058 0.455085 0.000000
0.944366 0.479713 0.023590
0.119814 0.207279 0.174472
0.119966 0.207645 0.175082
0.123079 0.208621 0.176547
0.125551 0.208133 0.175418
0.129030 0.207065 0.173373
0.133516 0.205539 0.170626
0.139376 0.203769 0.167330
0.158267 0.207492 0.165957
0.181796 0.211795 0.164309
0.201694 0.209201 0.163760
0.249332 0.219272 0.157961
0.340246 0.243503 0.130892
0.440375 0.263584 0.093294
0.535576 0.280247 0.000000
0.602869 0.292180 0.000000
0.660883 0.306462 0.000000
0.703822 0.314122 0.000000
0.737881 0.317601 0.000000
0.768032 0.322148 0.000000
0.791257 0.327092 0.000000
0.809049 0.332647 0.000000
0.825040 0.339330 0.000000
0.839841 0.347570 0.000000
0.853758 0.357427 0.000000
0.866728 0.368170 0.000000
0.879332 0.380591 0.000000
0.891814 0.394568 0.000000
0.904234 0.409796 0.000000
0.916564 0.426520 0.000000
0.928832 0.444190 0.000000
0.941131 0.462623 0.000000
0.952087 0.483223 0.000000
0.135256 0.243168 0.195041
0.135622 0.243351 0.195438
0.139040 0.244480 0.197177
0.141665 0.243961 0.196262
0.145296 0.242435 0.194034
0.149508 0.240574 0.190921
0.154635 0.238010 0.186954
0.166354 0.237644 0.183719
0.190219 0.242130 0.182040
0.218753 0.247196 0.180026
0.241032 0.243015 0.179629
0.291173 0.251774 0.175174
0.391791 0.278233 0.144198
0.491554 0.299016 0.101381
0.581170 0.316869 0.000000
0.648615 0.332403 0.000000
0.698665 0.347051 0.000000
0.741390 0.363622 0.000000
0.770687 0.367376 0.000000
0.795438 0.370092 0.000000
0.817044 0.372839 0.000000
0.834104 0.375891 0.000000
0.847501 0.380468 0.000000
0.860136 0.386358 0.000000
0.872404 0.394324 0.000000
0.884611 0.404089 0.000000
0.896666 0.415747 0.000000
0.908721 0.428717 0.000000
0.920745 0.443091 0.000000
0.932830 0.458625 0.000000
0.944854 0.475227 0.000000
0.956939 0.492561 0.000000
0.156741 0.282994 0.218051
0.157351 0.283391 0.218326
0.160372 0.284123 0.219883
0.164096 0.283940 0.219608
0.166720 0.282231 0.217197
0.170779 0.279606 0.213748
0.175692 0.276341 0.209415
0.181369 0.272190 0.204013
0.200565 0.274449 0.201297
0.229007 0.279515 0.199313
0.262425 0.285100 0.196902
0.286473 0.279667 0.197086
0.339696 0.287541 0.195163
0.443824 0.315404 0.161868
0.539818 0.337530 0.116426
0.622278 0.356909 0.000000
0.687831 0.374914 0.000000
0.731289 0.389471 0.000000
0.768276 0.404334 0.000000
0.797604 0.415686 0.000000
0.818112 0.415778 0.000000
0.836332 0.416327 0.000000
0.853056 0.417395 0.000000
0.867338 0.420081 0.000000
0.879179 0.425055 0.000000
0.890867 0.431983 0.000000
0.902525 0.440620 0.000000
0.914153 0.451118 0.000000
0.925841 0.462959 0.000000
0.937591 0.476112 0.000000
0.949401 0.490394 0.000000
0.961273 0.505547 0.000000
0.185397 0.326879 0.243412
0.185855 0.327001 0.243809
0.189639 0.327672 0.245212
0.193393 0.327672 0.245579
0.195834 0.325444 0.242832
0.198947 0.322515 0.239078
0.202731 0.318456 0.234104
0.207370 0.313695 0.228305
0.214084 0.308782 0.222019
0.242435 0.313756 0.220218
0.275334 0.319585 0.218082
0.313237 0.325658 0.215518
0.338018 0.318639 0.216312
0.384497 0.321019 0.216403
0.487282 0.350286 0.182376
0.577813 0.373510 0.137392
0.652064 0.393683 0.025299
0.712184 0.411963 0.000000
0.754818 0.426581 0.000000
0.786862 0.439063 0.000000
0.813657 0.450294 0.000000
0.834257 0.454994 0.000000
0.850706 0.454139 0.000000
0.866636 0.454688 0.000000
0.882231 0.456580 0.000000
0.896056 0.460365 0.000000
0.907469 0.466407 0.000000
0.918883 0.474128 0.000000
0.930327 0.483528 0.000000
0.941894 0.494331 0.000000
0.953552 0.506249 0.000000
0.965301 0.519402 0.000000
0.220798 0.369238 0.269993
0.221164 0.369329 0.270329
0.225101 0.369818 0.271824
0.229618 0.370001 0.272984
0.230716 0.367773 0.269963
0.232975 0.364569 0.266056
0.235447 0.360388 0.260716
0.238407 0.355230 0.254215
0.242161 0.348852 0.246769
0.256168 0.346807 0.241428
0.287755 0.352209 0.239689
0.323674 0.358038 0.237644
0.363592 0.364111 0.235172
0.386999 0.355749 0.236576
0.428046 0.355016 0.238773
0.525902 0.384497 0.205753
0.609308 0.407996 0.162356
0.676051 0.428412 0.099977
0.730678 0.446235 0.000000
0.773129 0.460365 0.000000
0.801480 0.470222 0.000000
0.825834 0.479500 0.000000
0.847318 0.488411 0.000000
0.864195 0.489693 0.000000
0.879789 0.490242 0.000000
0.895048 0.491981 0.000000
0.910094 0.494759 0.000000
0.923644 0.499153 0.000000
0.934936 0.505974 0.000000
0.946380 0.514366 0.000000
0.957885 0.524010 0.000000
0.969574 0.534874 0.000000
0.262486 0.409155 0.298680
0.262974 0.409308 0.299046
0.266056 0.409674 0.300267
0.271763 0.410285 0.302556
0.272190 0.407904 0.299413
0.272770 0.404791 0.295018
0.273747 0.400580 0.289464
0.275090 0.395392 0.282597
0.276951 0.388983 0.274479
0.278752 0.381628 0.265415
0.302007 0.383337 0.261967
0.335363 0.388830 0.260380
0.371740 0.394659 0.258457
0.410315 0.399725 0.256321
0.433143 0.391058 0.258091
0.471138 0.389624 0.260716
0.559197 0.417060 0.231388
0.634821 0.440742 0.191165
0.695857 0.460700 0.139345
0.745754 0.477424 0.000000
0.785885 0.489876 0.000000
0.813809 0.498756 0.000000
0.836484 0.506645 0.000000
0.857603 0.515129 0.000000
0.877134 0.523491 0.000000
0.892424 0.523980 0.000000
0.907500 0.525444 0.000000
0.922454 0.527916 0.000000
0.937377 0.531334 0.000000
0.950866 0.536156 0.000000
0.962341 0.543542 0.000000
0.973999 0.552148 0.000000
0.305608 0.446052 0.327642
0.306462 0.446235 0.327947
0.308965 0.446540 0.329046
0.313848 0.446998 0.331273
0.315435 0.445258 0.329381
0.315160 0.442298 0.325109
0.314977 0.438392 0.319707
0.315160 0.433387 0.312871
0.315465 0.427222 0.304753
0.315221 0.420111 0.295140
0.318151 0.412634 0.285222
0.348302 0.417639 0.284031
0.381659 0.422950 0.282628
0.417243 0.428565 0.280919
0.452735 0.432410 0.279210
0.474556 0.424048 0.281193
0.509545 0.422217 0.284001
0.586816 0.447181 0.258946
0.655726 0.470680 0.221988
0.712062 0.490059 0.177127
0.757870 0.505425 0.112001
0.795254 0.516716 0.000000
0.824521 0.524804 0.000000
0.846555 0.532494 0.000000
0.867491 0.540978 0.000000
0.887480 0.550225 0.000000
0.904845 0.555932 0.000000
0.919799 0.557305 0.000000
0.934783 0.559442 0.000000
0.949676 0.562280 0.000000
0.964660 0.565728 0.000000
0.978363 0.570733 0.000000
0.347692 0.479744 0.355932
0.348302 0.479683 0.356176
0.350439 0.479927 0.357092
0.354559 0.480293 0.358984
0.356909 0.479286 0.358587
0.356390 0.476570 0.354559
0.355627 0.472755 0.349187
0.354711 0.468025 0.342687
0.353521 0.462287 0.334691
0.352697 0.455390 0.325353
0.351598 0.447272 0.314580
0.362219 0.443977 0.307225
0.392309 0.448890 0.306249
0.424353 0.454078 0.305150
0.458778 0.459480 0.303746
0.491066 0.462348 0.302892
0.511254 0.454749 0.304936
0.542718 0.452827 0.308019
0.609735 0.475319 0.287663
0.673243 0.498360 0.254276
0.725765 0.517052 0.215061
0.768460 0.531273 0.166751
0.803403 0.541680 0.080720
0.833585 0.549462 0.000000
0.856291 0.557366 0.000000
0.877134 0.565881 0.000000
0.897063 0.574975 0.000000
0.916167 0.584283 0.000000
0.931975 0.587427 0.000000
0.946929 0.589288 0.000000
0.962036 0.591608 0.000000
0.977264 0.594446 0.000000
0.387579 0.510033 0.383246
0.387701 0.510155 0.383368
0.391516 0.511559 0.385534
0.394965 0.511803 0.387091
0.398566 0.511376 0.388006
0.397345 0.508812 0.384192
0.396002 0.505364 0.379126
0.394598 0.500938 0.372747
0.392767 0.495583 0.365148
0.390570 0.489174 0.355901
0.388464 0.481544 0.345464
0.385931 0.472847 0.333562
0.405371 0.473701 0.329870
0.434302 0.478523 0.329168
0.464973 0.483467 0.328344
0.497108 0.488685 0.327306
0.525750 0.490669 0.326970
0.544457 0.483772 0.329137
0.572351 0.481880 0.332250
0.630152 0.501701 0.316869
0.689448 0.524651 0.287663
0.738216 0.542535 0.253910
0.777646 0.555810 0.215152
0.810605 0.565393 0.162478
0.840604 0.573510 0.012787
0.865934 0.581659 0.000000
0.886748 0.590204 0.000000
0.906737 0.599023 0.000000
0.925963 0.607874 0.000000
0.944152 0.615778 0.000000
0.959228 0.617365 0.000000
0.974517 0.619318 0.000000
0.424842 0.537591 0.409674
0.425330 0.537652 0.410071
0.426947 0.537835 0.410864
0.429938 0.538048 0.412329
0.434394 0.538293 0.414527
0.433387 0.536034 0.410986
0.431830 0.532891 0.406226
0.429725 0.528923 0.400214
0.427527 0.524132 0.392859
0.424994 0.518303 0.384283
0.422248 0.511437 0.374365
0.419348 0.503502 0.362951
0.417762 0.495247 0.350988
0.443824 0.499672 0.350835
0.471382 0.504509 0.350439
0.500359 0.509392 0.350103
0.530144 0.514519 0.349584
0.555413 0.515984 0.349981
0.572869 0.509880 0.352453
0.597742 0.508171 0.355810
0.648219 0.525597 0.344610
0.703609 0.548272 0.319860
0.748684 0.565301 0.290806
0.785336 0.578088 0.259434
0.817105 0.587732 0.218631
0.847074 0.596582 0.157473
0.875364 0.604822 0.000000
0.896239 0.613489 0.000000
0.916320 0.622156 0.000000
0.935729 0.630610 0.000000
0.954589 0.638758 0.000000
0.971649 0.643793 0.000000
0.458900 0.562341 0.435096
0.459174 0.562432 0.435309
0.460578 0.562615 0.436072
0.462959 0.562737 0.437232
0.466835 0.562860 0.439277
0.467231 0.561364 0.437385
0.465614 0.558648 0.433021
0.463661 0.555108 0.427436
0.461341 0.550744 0.420630
0.458473 0.545525 0.412451
0.455543 0.539330 0.403021
0.451972 0.532189 0.392218
0.448066 0.523827 0.379950
0.455085 0.519921 0.371740
0.479866 0.524346 0.371984
0.505913 0.528954 0.372045
0.532799 0.533806 0.372107
0.560021 0.538842 0.371893
0.582483 0.539788 0.373083
0.598505 0.534600 0.375769
0.621088 0.533165 0.379370
0.664851 0.548150 0.371954
0.716213 0.570153 0.351110
0.757900 0.586450 0.327031
0.792233 0.598688 0.300847
0.823575 0.609430 0.267796
0.853544 0.619135 0.221958
0.882170 0.627802 0.148470
0.905852 0.636194 0.000000
0.926146 0.644678 0.000000
0.945922 0.652857 0.000000
0.965087 0.660609 0.000000
0.489967 0.585595 0.459846
0.490394 0.585687 0.460029
0.491402 0.585809 0.460609
0.493294 0.585901 0.461799
0.496376 0.585962 0.463416
0.498207 0.585168 0.463264
0.496742 0.582635 0.459205
0.494850 0.579461 0.453956
0.492500 0.575586 0.447669
0.489784 0.570855 0.440070
0.486671 0.565270 0.431159
0.483192 0.558801 0.420966
0.479225 0.551354 0.409216
0.474769 0.542779 0.396155
0.489693 0.543114 0.392615
0.512932 0.547570 0.393072
0.537255 0.552148 0.393652
0.562158 0.556909 0.394110
0.587335 0.562066 0.394720
0.607355 0.562707 0.396307
0.622339 0.558251 0.399420
0.642878 0.557244 0.403357
0.680690 0.569879 0.399237
0.727871 0.590997 0.382269
0.766415 0.606744 0.362707
0.799527 0.619318 0.340459
0.830747 0.631006 0.313298
0.860655 0.641688 0.276829
0.889403 0.651057 0.225315
0.916106 0.659083 0.150790
0.936767 0.667506 0.098146
0.956878 0.675502 0.000000
0.518761 0.608148 0.484413
0.519005 0.608148 0.484627
0.519799 0.608148 0.485054
0.521233 0.608148 0.485878
0.523674 0.608118 0.487190
0.526665 0.607904 0.488716
0.525353 0.605615 0.484962
0.523522 0.602808 0.480232
0.521294 0.599176 0.474250
0.518822 0.594965 0.467201
0.515923 0.589960 0.458900
0.512627 0.584131 0.449348
0.508690 0.577386 0.438453
0.504570 0.569635 0.426032
0.500542 0.561242 0.412634
0.521538 0.565454 0.413550
0.543359 0.569879 0.414466
0.566033 0.574426 0.415503
0.588983 0.579248 0.416480
0.612299 0.584222 0.417395
0.630152 0.584649 0.419684
0.644160 0.580896 0.422889
0.662898 0.579980 0.427070
0.694850 0.590234 0.425818
0.738155 0.610224 0.412299
0.774075 0.625544 0.396612
0.806973 0.639094 0.377783
0.838010 0.651881 0.355627
0.867948 0.663386 0.326116
0.896910 0.673396 0.286229
0.925078 0.681575 0.228122
0.947478 0.689387 0.188266
0.544335 0.628748 0.507683
0.544518 0.628779 0.507744
0.545129 0.628809 0.508141
0.546380 0.628809 0.508843
0.548394 0.628656 0.509941
0.551080 0.628504 0.511498
0.551080 0.627039 0.509545
0.549432 0.624445 0.505119
0.547387 0.621332 0.499702
0.545037 0.617548 0.493263
0.542351 0.613031 0.485664
0.539239 0.607721 0.476753
0.535760 0.601678 0.466621
0.531762 0.594720 0.455055
0.527367 0.586816 0.442084
0.530877 0.582452 0.433143
0.550713 0.586694 0.434485
0.571221 0.591180 0.435767
0.592279 0.595789 0.437140
0.613733 0.600610 0.438605
0.635401 0.605646 0.440162
0.651392 0.605829 0.442817
0.664393 0.602533 0.446448
0.681147 0.601678 0.451057
0.707912 0.609461 0.452125
0.747707 0.628595 0.441688
0.782223 0.644312 0.429511
0.814939 0.659022 0.414130
0.846036 0.672816 0.396551
0.876036 0.685176 0.373480
0.904997 0.695460 0.341924
0.932891 0.703059 0.296483
0.568170 0.648096 0.530755
0.568353 0.648157 0.530846
0.568872 0.648127 0.531182
0.569818 0.648035 0.531731
0.571405 0.647913 0.532647
0.573602 0.647700 0.533867
0.575036 0.646937 0.533867
0.573449 0.644678 0.529747
0.571588 0.641901 0.524651
0.569390 0.638575 0.518730
0.566827 0.634668 0.511650
0.563989 0.630030 0.503380
0.560784 0.624659 0.493996
0.557153 0.618494 0.483284
0.553002 0.611383 0.471168
0.548577 0.603326 0.457588
0.558587 0.602869 0.453407
0.577356 0.607233 0.455116
0.596674 0.611719 0.456855
0.616419 0.616388 0.458717
0.636408 0.621118 0.460609
0.656336 0.626001 0.462715
0.670558 0.625788 0.466041
0.682521 0.622889 0.470039
0.697597 0.622156 0.474952
0.720241 0.628473 0.478737
0.756985 0.646815 0.471260
0.791196 0.663813 0.462409
0.824033 0.679683 0.450752
0.854887 0.694026 0.437079
0.884215 0.706050 0.418189
0.912566 0.715969 0.393072
0.589715 0.665736 0.552972
0.589929 0.665736 0.553124
0.590387 0.665705 0.553399
0.591211 0.665675 0.553857
0.592523 0.665522 0.554620
0.594324 0.665309 0.555657
0.596643 0.665064 0.557061
0.595636 0.663264 0.553887
0.593988 0.660945 0.549218
0.591974 0.658106 0.543694
0.589654 0.654780 0.537224
0.587091 0.650782 0.529686
0.584192 0.646265 0.521050
0.580957 0.640925 0.511192
0.577386 0.634852 0.500008
0.573419 0.627893 0.487434
0.569055 0.619989 0.473426
0.585077 0.623377 0.474525
0.602747 0.627680 0.476631
0.620783 0.632074 0.478920
0.639155 0.636622 0.481270
0.657557 0.641230 0.483833
0.675959 0.645960 0.486427
0.688594 0.645594 0.490303
0.699580 0.643153 0.494759
0.713252 0.642664 0.500389
0.732265 0.647639 0.506310
0.767361 0.666316 0.501640
0.801236 0.684108 0.495491
0.833310 0.700160 0.486549
0.863554 0.714443 0.476051
0.892424 0.726680 0.462837
0.610468 0.682551 0.575555
0.610590 0.682551 0.575647
0.610895 0.682551 0.575860
0.611566 0.682490 0.576287
0.612634 0.682307 0.576928
0.614099 0.682124 0.577783
0.615991 0.681880 0.578912
0.616602 0.680873 0.577966
0.615076 0.678859 0.573724
0.613245 0.676448 0.568688
0.611109 0.673548 0.562646
0.608759 0.670192 0.555718
0.606195 0.666285 0.547814
0.603235 0.661799 0.538720
0.600092 0.656611 0.528435
0.596643 0.650782 0.516991
0.592920 0.644099 0.504112
0.593683 0.639460 0.493965
0.609918 0.643488 0.496529
0.626551 0.647700 0.499184
0.643488 0.652033 0.501976
0.660426 0.656550 0.505028
0.677394 0.661097 0.508171
0.694362 0.665736 0.511498
0.705592 0.665339 0.516075
0.715694 0.663294 0.520897
0.727779 0.662684 0.526543
0.743801 0.666560 0.533837
0.777829 0.685206 0.530297
0.811246 0.703761 0.526879
0.842771 0.720363 0.521721
0.872557 0.734920 0.515404
0.629999 0.698817 0.598077
0.630121 0.698787 0.598108
0.630365 0.698756 0.598291
0.630945 0.698695 0.598657
0.631769 0.698604 0.599207
0.633051 0.698451 0.599908
0.634699 0.698207 0.600916
0.636652 0.697902 0.602075
0.635401 0.696223 0.598505
0.633936 0.694209 0.594110
0.632166 0.691829 0.588922
0.630121 0.689113 0.582788
0.627863 0.685908 0.575647
0.625422 0.682185 0.567498
0.622675 0.677943 0.558190
0.619684 0.673121 0.547753
0.616510 0.667659 0.536126
0.613184 0.661463 0.523156
0.619532 0.660395 0.518181
0.634821 0.664485 0.521416
0.650263 0.668696 0.524804
0.665858 0.672969 0.528344
0.681209 0.677058 0.531548
0.696529 0.681239 0.534905
0.711727 0.685359 0.538293
0.721492 0.684596 0.542840
0.730770 0.682887 0.547662
0.742275 0.683040 0.553674
0.757259 0.687312 0.562158
0.789731 0.705745 0.560662
0.822599 0.725002 0.560540
0.853361 0.742061 0.559716
0.649378 0.716670 0.621027
0.649378 0.716670 0.621027
0.649592 0.716609 0.621180
0.650080 0.716518 0.621424
0.650782 0.716426 0.621851
0.651759 0.716243 0.622431
0.653040 0.715999 0.623255
0.654719 0.715724 0.624170
0.655024 0.714687 0.622980
0.653742 0.712764 0.619226
0.652277 0.710536 0.614740
0.650568 0.708003 0.609491
0.648676 0.705104 0.603388
0.646571 0.701839 0.596399
