20 Preset/Movie Style Preset/【3】LUT for PR-AE-FCPX/Movie - LUT  (9).cube
# Created by Adobe Lightroom plugin Export LUT (1.24.0)
# www.johnrellis.com/lightroom/exportlut.htm
# Preset: 电影质感09（修改版）
# Color profile: C:\Program Files (x86)\Common Files\Adobe\Color\Profiles\Recommended\VideoHD.icc
LUT_3D_SIZE 8
DOMAIN_MIN 0.000000 0.000000 0.000000
DOMAIN_MAX 0.903226 0.903226 0.903226
0.080262 0.094423 0.108461
0.100404 0.096071 0.107973
0.190555 0.103395 0.105348
0.387060 0.085725 0.092378
0.627222 0.000000 0.011475
0.789181 0.000000 0.000000
0.875853 0.143191 0.000000
0.938140 0.243687 0.000000
0.088716 0.104280 0.116640
0.094270 0.105135 0.116457
0.197330 0.123232 0.105806
0.396216 0.119478 0.089052
0.632532 0.000000 0.000000
0.785550 0.039094 0.000000
0.872465 0.171695 0.000000
0.935637 0.257359 0.000000
0.113191 0.164950 0.151705
0.121309 0.171908 0.154574
0.156497 0.163272 0.143954
0.441749 0.226108 0.034363
0.665064 0.230014 0.000000
0.796506 0.246189 0.000000
0.876829 0.282719 0.000000
0.938048 0.333104 0.000000
0.228397 0.345373 0.256779
0.244053 0.353765 0.261295
0.298070 0.365759 0.258885
0.339086 0.310735 0.215457
0.655482 0.382055 0.000000
0.804593 0.423590 0.000000
0.873808 0.421851 0.000000
0.933654 0.441444 0.000000
0.462165 0.540764 0.420142
0.472206 0.545434 0.424506
0.513451 0.565728 0.444404
0.538445 0.547356 0.405737
0.540948 0.470069 0.325841
0.739223 0.515251 0.180728
0.857023 0.540764 0.000000
0.924559 0.559655 0.000000
0.613519 0.662257 0.563378
0.619471 0.666041 0.568475
0.636164 0.675319 0.581018
0.657832 0.683528 0.588983
0.665492 0.658137 0.534783
0.664363 0.595514 0.453590
0.785824 0.619135 0.361822
0.899870 0.646357 0.165133
0.699062 0.744503 0.671443
0.701259 0.746273 0.673335
0.709163 0.752163 0.679683
0.724605 0.763790 0.692439
0.732631 0.758602 0.680049
0.736477 0.734829 0.639887
0.734401 0.686824 0.575189
0.822599 0.705013 0.516747
0.764797 0.819150 0.761563
0.766049 0.820005 0.762631
0.771542 0.823758 0.767453
0.782345 0.831022 0.776791
0.795590 0.839017 0.786893
0.797147 0.827604 0.763577
0.802548 0.809384 0.727047
0.800595 0.771267 0.678218
0.080201 0.097505 0.118044
0.098421 0.097780 0.118654
0.180240 0.103487 0.118074
0.369787 0.095613 0.108522
0.613764 0.000000 0.057862
0.774716 0.000000 0.000000
0.866819 0.133211 0.000000
0.931609 0.235264 0.000000
0.088106 0.106233 0.119600
0.097383 0.110750 0.124575
0.193912 0.123049 0.118837
0.389166 0.121614 0.104341
0.625330 0.001465 0.034638
0.777768 0.032746 0.000000
0.866392 0.167025 0.000000
0.930388 0.251164 0.000000
0.119356 0.171725 0.164614
0.127657 0.178561 0.168032
0.162631 0.172519 0.157748
0.437293 0.227543 0.085573
0.653529 0.225498 0.000000
0.787869 0.240146 0.000000
0.869505 0.275334 0.000000
0.932341 0.325322 0.000000
0.230503 0.341253 0.264500
0.245579 0.349554 0.269169
0.298589 0.364813 0.270390
0.334600 0.309819 0.224765
0.645045 0.376440 0.013977
0.794430 0.413367 0.000000
0.866514 0.413855 0.000000
0.928069 0.434760 0.000000
0.461769 0.537896 0.424323
0.471138 0.542229 0.428290
0.510735 0.561730 0.446937
0.534813 0.544488 0.410590
0.536126 0.467720 0.331243
0.735744 0.513512 0.193210
0.853239 0.539025 0.000000
0.921019 0.556512 0.000000
0.610986 0.659205 0.562615
0.615412 0.661616 0.565789
0.632563 0.671290 0.578607
0.655787 0.681392 0.589349
0.663325 0.656397 0.536370
0.662684 0.594995 0.457282
0.784604 0.618982 0.366827
0.898253 0.645655 0.179965
0.696956 0.741756 0.669764
0.698604 0.742885 0.670924
0.706477 0.748806 0.677211
0.722255 0.760830 0.690303
0.731411 0.757321 0.680201
0.735073 0.733547 0.640101
0.732570 0.685115 0.574731
0.821103 0.703182 0.515709
0.763058 0.817319 0.759854
0.764584 0.818448 0.761318
0.770077 0.822202 0.766079
0.780972 0.829648 0.775601
0.796597 0.839933 0.788876
0.797787 0.828458 0.765682
0.802396 0.809567 0.728176
0.800259 0.771176 0.678981
0.063233 0.104707 0.153902
0.091707 0.103243 0.160708
0.183841 0.101839 0.166445
0.347234 0.097536 0.163577
0.596551 0.000000 0.146487
0.764645 0.000000 0.115084
0.861204 0.159915 0.008423
0.927977 0.249363 0.000000
0.077943 0.124178 0.160769
0.093935 0.121828 0.168765
0.191318 0.125460 0.172702
0.363653 0.127901 0.168246
0.606836 0.042206 0.146029
0.767178 0.099580 0.111330
0.861051 0.186618 0.000000
0.927123 0.264347 0.000000
0.112673 0.178286 0.177340
0.130678 0.188724 0.191257
0.192416 0.207919 0.202976
0.438117 0.231418 0.167758
0.649531 0.228794 0.138521
0.783841 0.247379 0.086519
0.866087 0.284215 0.000000
0.929625 0.330724 0.000000
0.245396 0.348913 0.295598
0.270909 0.360571 0.309911
0.334142 0.394263 0.332555
0.365667 0.341344 0.276921
0.664332 0.401892 0.157626
0.790036 0.418067 0.000000
0.862882 0.422492 0.000000
0.925383 0.442267 0.000000
0.471443 0.536980 0.447364
0.480781 0.541924 0.451850
0.518578 0.562280 0.471015
0.548516 0.558099 0.452979
0.549828 0.487587 0.375586
0.740871 0.531090 0.259525
0.849882 0.550744 0.080598
0.917174 0.561395 0.000000
0.613153 0.657252 0.573144
0.617487 0.659876 0.576379
0.634119 0.669703 0.588922
0.660700 0.685267 0.608270
0.664973 0.660609 0.557824
0.664057 0.602014 0.481666
0.784878 0.626856 0.399573
0.897948 0.652766 0.248966
0.697353 0.740902 0.674434
0.699031 0.742153 0.675746
0.706752 0.748013 0.681910
0.722255 0.760067 0.694942
0.733639 0.760739 0.690761
0.736141 0.736843 0.651362
0.733059 0.689601 0.589166
0.823178 0.709407 0.532830
0.762356 0.816220 0.761563
0.763546 0.817014 0.762539
0.769070 0.820890 0.767422
0.780545 0.828946 0.777646
0.796475 0.839597 0.791226
0.799496 0.831113 0.773037
0.803281 0.812009 0.735439
0.800870 0.773434 0.685145
0.000000 0.119417 0.240360
0.000000 0.118959 0.249485
0.193851 0.103059 0.285557
0.395941 0.070710 0.272923
0.592798 0.000000 0.247593
0.727169 0.127352 0.245792
0.838682 0.203403 0.220279
0.910430 0.284794 0.193057
0.000000 0.147524 0.252903
0.003326 0.143252 0.260868
0.203799 0.131075 0.294102
0.406989 0.127932 0.280003
0.592523 0.076844 0.253483
0.733516 0.164858 0.248081
0.840177 0.229648 0.221469
0.910765 0.300694 0.192813
0.000000 0.230747 0.267338
0.088502 0.234409 0.273838
0.208133 0.237491 0.308843
0.416785 0.245365 0.299382
0.607721 0.256992 0.285466
0.757046 0.278691 0.257298
0.848295 0.322637 0.230228
0.914855 0.363226 0.193027
0.200015 0.338506 0.296910
0.228702 0.345647 0.308171
0.329198 0.387915 0.365057
0.425177 0.396582 0.356725
0.657588 0.423560 0.296941
0.770413 0.430793 0.272465
0.847990 0.439979 0.240604
0.914733 0.455940 0.194491
0.452735 0.526452 0.452338
0.467689 0.532067 0.461891
0.519921 0.555505 0.496193
0.567651 0.578424 0.512810
0.567163 0.516411 0.440620
0.747860 0.558618 0.356481
0.841062 0.569207 0.286107
0.907073 0.571008 0.250706
0.612390 0.652766 0.584863
0.619562 0.656611 0.591760
0.635767 0.666804 0.604089
0.663630 0.685664 0.626734
0.671077 0.671595 0.596674
0.668421 0.616388 0.523278
0.787289 0.642267 0.454139
0.892180 0.665553 0.359960
0.694789 0.736294 0.678889
0.696895 0.738064 0.680751
0.705440 0.745144 0.688167
0.721798 0.758511 0.702510
0.739528 0.769406 0.712276
0.739162 0.744259 0.671565
0.733608 0.696681 0.611780
0.827146 0.718868 0.558587
0.760281 0.813901 0.764126
0.761654 0.814908 0.765347
0.767483 0.819150 0.770535
0.779019 0.827359 0.780697
0.795712 0.838773 0.794980
0.803006 0.836332 0.786709
0.804654 0.816495 0.748592
0.801999 0.777493 0.696315
0.000000 0.152193 0.371832
0.000000 0.152499 0.380011
0.145571 0.145541 0.410590
0.437354 0.000000 0.449409
0.634546 0.088991 0.408698
0.747127 0.170016 0.372961
0.804471 0.278965 0.365087
0.875547 0.358404 0.362890
0.000000 0.180087 0.381384
0.000000 0.179232 0.389014
0.161959 0.173556 0.417334
0.447181 0.110292 0.453956
0.635981 0.159640 0.413611
0.743343 0.209201 0.377508
0.799191 0.308019 0.374426
0.876219 0.369879 0.364660
0.000000 0.279698 0.388891
0.011902 0.282414 0.398138
0.198795 0.272953 0.428717
0.466651 0.253849 0.464881
0.629755 0.300786 0.428931
0.725185 0.310918 0.391882
0.801663 0.372778 0.388586
0.878447 0.411353 0.369604
0.113375 0.406836 0.411566
0.165530 0.409827 0.415839
0.294041 0.421424 0.433936
0.469581 0.431128 0.477058
0.602380 0.440711 0.452522
0.725521 0.452522 0.431037
0.813626 0.467201 0.406683
0.885466 0.482094 0.377844
0.390021 0.502373 0.437629
0.405707 0.506523 0.444038
0.469917 0.526299 0.477577
0.559197 0.569696 0.539178
0.598535 0.554650 0.504051
0.743130 0.577142 0.455055
0.817563 0.572320 0.432074
0.889372 0.573449 0.397284
0.577752 0.632013 0.563867
0.584588 0.634974 0.569360
0.609979 0.646143 0.590539
0.647974 0.667506 0.623865
0.672877 0.679286 0.631708
0.669520 0.629053 0.564874
0.792477 0.659022 0.511833
0.885740 0.676356 0.455085
0.677150 0.722744 0.665919
0.679713 0.724178 0.668421
0.690730 0.730983 0.679561
0.711666 0.746517 0.700649
0.738094 0.769284 0.725093
0.741238 0.752651 0.696132
0.732876 0.703212 0.635309
0.833433 0.728695 0.585901
0.741543 0.801724 0.746822
0.743862 0.803006 0.749386
0.753780 0.808560 0.760342
0.770962 0.819913 0.778195
0.790127 0.833890 0.795132
0.807950 0.843870 0.805539
0.805814 0.822232 0.766049
0.801511 0.780667 0.708797
0.000000 0.207248 0.503441
0.000000 0.207767 0.508507
0.105928 0.205203 0.528466
0.413794 0.168399 0.564721
0.662837 0.096315 0.578668
0.764950 0.270512 0.531029
0.823606 0.345312 0.496895
0.866575 0.395117 0.475715
0.000000 0.230900 0.504967
0.000000 0.231083 0.509422
0.137179 0.228672 0.527825
0.416968 0.199680 0.562402
0.660304 0.161898 0.576928
0.760769 0.296971 0.531456
0.819242 0.359289 0.497658
0.863340 0.403632 0.476753
0.003204 0.337102 0.510948
0.104433 0.334997 0.516258
0.220615 0.320531 0.534386
0.439826 0.310307 0.564996
0.659358 0.308293 0.580926
0.749569 0.393622 0.541894
0.805692 0.417975 0.507561
0.848844 0.456733 0.495552
0.221561 0.442542 0.506218
0.248631 0.443732 0.508690
0.340520 0.454780 0.526604
0.464698 0.459266 0.566217
0.648859 0.466285 0.589166
0.726986 0.499336 0.556451
0.783963 0.496468 0.524834
0.836606 0.528222 0.524010
0.343816 0.557488 0.532250
0.360876 0.558648 0.534569
0.422431 0.563745 0.544457
0.512963 0.573419 0.563531
0.620661 0.584161 0.591974
0.697719 0.582055 0.571252
0.777646 0.583062 0.553704
0.853544 0.586908 0.533623
0.529961 0.614740 0.549615
0.537713 0.617182 0.553674
0.564569 0.624781 0.567529
0.614191 0.644038 0.603510
0.667597 0.676112 0.651637
0.687098 0.657740 0.616175
0.795010 0.675166 0.582238
0.868467 0.671290 0.556970
0.651881 0.704952 0.647578
0.655177 0.706813 0.650752
0.667414 0.713649 0.662470
0.689845 0.727993 0.684901
0.722988 0.751797 0.719753
0.747951 0.768551 0.733547
0.734646 0.713893 0.665400
0.847288 0.744289 0.624811
0.719905 0.787808 0.728756
0.721798 0.788754 0.730648
0.730220 0.793606 0.739528
0.747616 0.804105 0.758114
0.776364 0.821622 0.788663
0.806027 0.843748 0.814847
0.809812 0.832547 0.792447
0.801907 0.786679 0.728145
0.000000 0.285039 0.613428
0.000000 0.286168 0.617304
0.196536 0.284855 0.628534
0.423377 0.273777 0.650416
0.652064 0.234867 0.679774
0.782864 0.293797 0.672450
0.826902 0.421637 0.623835
0.864744 0.476875 0.597070
0.000000 0.301183 0.609155
0.000000 0.302708 0.613275
0.211673 0.301549 0.624537
0.422614 0.291386 0.645686
0.645808 0.258213 0.674861
0.775906 0.307805 0.666926
0.821347 0.424994 0.619104
0.859739 0.474647 0.591516
0.177005 0.391791 0.610559
0.190646 0.386755 0.613581
0.275608 0.376257 0.624537
0.444465 0.372930 0.644648
0.640558 0.359899 0.672358
0.764248 0.395087 0.666163
0.811551 0.483436 0.627436
0.852873 0.513268 0.602533
0.297642 0.486336 0.599664
0.315251 0.487861 0.602869
0.383429 0.494850 0.617609
0.469673 0.485603 0.641535
0.625605 0.487312 0.669276
0.744961 0.508049 0.669306
0.795651 0.561883 0.642634
0.839963 0.562432 0.615290
0.368933 0.573754 0.601190
0.379339 0.572900 0.601495
0.424323 0.572381 0.605951
0.499367 0.574060 0.618769
0.598810 0.584863 0.657588
0.718746 0.596399 0.671504
0.772427 0.615137 0.648554
0.824796 0.608240 0.625879
0.469825 0.651881 0.619867
0.477028 0.652705 0.621485
0.504356 0.655604 0.627863
0.552758 0.660548 0.639673
0.616571 0.665095 0.654810
0.696925 0.675990 0.684932
0.748287 0.670954 0.663264
0.825010 0.671443 0.650874
0.605951 0.690639 0.633387
0.610101 0.691798 0.635645
0.624262 0.695338 0.643183
0.649622 0.703182 0.658320
0.684810 0.718441 0.685267
0.731472 0.752132 0.734707
0.747677 0.734951 0.702785
0.853574 0.750790 0.675502
0.689052 0.765469 0.702815
0.691218 0.766781 0.705013
0.700801 0.772824 0.714961
0.718379 0.783383 0.733120
0.745510 0.799954 0.761501
0.784054 0.824552 0.801236
0.820432 0.849912 0.830014
0.802335 0.795346 0.755123
0.224155 0.390478 0.701564
0.252537 0.391089 0.703334
0.339879 0.388312 0.708217
0.474098 0.384894 0.720150
0.626459 0.376471 0.738399
0.775143 0.371374 0.760220
0.838956 0.446815 0.738186
0.876463 0.537407 0.709468
0.231815 0.400427 0.698451
0.259007 0.401129 0.700343
0.343664 0.399512 0.705867
0.473121 0.395941 0.717494
0.623011 0.388464 0.735775
0.771572 0.383642 0.758206
0.835447 0.453315 0.736049
0.873716 0.540581 0.707942
0.304143 0.458106 0.693385
0.311192 0.453956 0.695277
0.365484 0.446967 0.701167
0.481941 0.448676 0.714290
0.617365 0.444831 0.732174
0.762081 0.440375 0.756558
0.826261 0.494606 0.735897
0.867308 0.567956 0.711727
0.372076 0.532189 0.681514
0.386847 0.533715 0.683894
0.430213 0.533471 0.692134
0.487373 0.519982 0.706508
0.604730 0.522606 0.725856
0.739895 0.525200 0.752621
0.812711 0.558740 0.740047
0.858824 0.612543 0.721401
0.384588 0.583581 0.663874
0.393927 0.583154 0.664729
0.428321 0.583337 0.670680
0.506554 0.594263 0.689143
0.584924 0.593103 0.714443
0.705287 0.601556 0.744259
0.797757 0.621515 0.748196
0.849821 0.657099 0.731868
0.451667 0.663813 0.676967
0.456306 0.662898 0.676967
0.477485 0.660212 0.678035
0.519554 0.656275 0.681910
0.579217 0.650721 0.689754
0.669764 0.669429 0.735500
0.785489 0.684749 0.765133
0.838529 0.700343 0.741817
0.549584 0.728328 0.698848
0.552605 0.728389 0.699489
0.564843 0.729030 0.702296
0.588464 0.731106 0.708919
0.623438 0.733181 0.718288
0.670283 0.734371 0.730892
0.749233 0.745632 0.769436
0.817136 0.738766 0.744991
0.641901 0.757382 0.701503
0.643732 0.757748 0.702327
0.652064 0.760098 0.706538
0.669368 0.765743 0.716243
0.695766 0.774716 0.732052
0.731594 0.788266 0.756283
0.784390 0.818265 0.805692
0.809842 0.813748 0.795438
