20 Preset/Movie Style Preset/【3】LUT for PR-AE-FCPX/Movie - LUT  (4).cube
# Created by Adobe Lightroom plugin Export LUT (1.24.0)
# www.johnrellis.com/lightroom/exportlut.htm
# Preset: 电影质感04（修改版）
# Color profile: C:\Program Files (x86)\Common Files\Adobe\Color\Profiles\Recommended\VideoHD.icc
LUT_3D_SIZE 8
DOMAIN_MIN 0.000000 0.000000 0.000000
DOMAIN_MAX 0.903226 0.903226 0.903226
0.080262 0.094423 0.108461
0.105348 0.096620 0.107820
0.238834 0.104036 0.103029
0.500145 0.000000 0.069398
0.725917 0.000000 0.000000
0.853269 0.096925 0.000000
0.919921 0.217136 0.000000
0.976989 0.310674 0.000000
0.089967 0.107790 0.118837
0.097353 0.108766 0.118318
0.250462 0.135653 0.101869
0.511192 0.110384 0.049744
0.729183 0.020142 0.000000
0.849973 0.156893 0.000000
0.916381 0.239475 0.000000
0.974182 0.323064 0.000000
0.129488 0.206699 0.175296
0.144869 0.218021 0.180209
0.183536 0.191104 0.156527
0.542504 0.267033 0.000000
0.750820 0.288426 0.000000
0.852567 0.309422 0.000000
0.917296 0.344244 0.000000
0.974151 0.394934 0.000000
0.330571 0.440558 0.330083
0.351202 0.450507 0.337407
0.408881 0.464332 0.339361
0.395087 0.359075 0.243900
0.697841 0.430945 0.000000
0.846403 0.486732 0.000000
0.909117 0.483101 0.000000
0.965850 0.499611 0.000000
0.559228 0.617639 0.509361
0.567315 0.621851 0.514031
0.599573 0.639582 0.534447
0.609674 0.617334 0.491524
0.571801 0.507225 0.359686
0.749386 0.541527 0.230503
0.880644 0.586023 0.000000
0.952331 0.611933 0.000000
0.667811 0.710140 0.634089
0.672206 0.713497 0.638209
0.684932 0.722316 0.648463
0.705379 0.735683 0.662226
0.696284 0.697749 0.598810
0.673884 0.613855 0.474525
0.781796 0.625940 0.385290
0.910307 0.676570 0.269169
0.733394 0.784268 0.720394
0.735470 0.785855 0.722316
0.742824 0.791287 0.728756
0.757259 0.801755 0.741421
0.764309 0.798398 0.732387
0.756100 0.762997 0.675990
0.735958 0.694179 0.582147
0.815549 0.703090 0.519890
0.792630 0.846403 0.799100
0.793790 0.847135 0.800076
0.798825 0.850278 0.804227
0.808591 0.856291 0.812192
0.820554 0.862821 0.820890
0.819303 0.852476 0.800259
0.815274 0.827665 0.753353
0.803372 0.777646 0.681453
0.082521 0.099184 0.120455
0.102998 0.098573 0.123049
0.223362 0.102449 0.121614
0.478584 0.017884 0.105531
0.712886 0.000000 0.013825
0.841794 0.092256 0.000000
0.911315 0.212222 0.000000
0.970306 0.305333 0.000000
0.088685 0.110292 0.123903
0.101564 0.117708 0.131777
0.245701 0.133974 0.122560
0.502434 0.112276 0.098421
0.722805 0.034150 0.000000
0.843320 0.156832 0.000000
0.910399 0.237827 0.000000
0.968719 0.319310 0.000000
0.140749 0.215763 0.195285
0.156191 0.226535 0.201175
0.193179 0.204593 0.177371
0.542504 0.272892 0.048371
0.741054 0.284123 0.000000
0.845487 0.306218 0.000000
0.909972 0.338903 0.000000
0.968353 0.389532 0.000000
0.333196 0.435706 0.340215
0.352514 0.445472 0.347387
0.412451 0.465553 0.356298
0.393317 0.360845 0.257725
0.692164 0.429725 0.095277
0.838254 0.479988 0.000000
0.901732 0.476875 0.000000
0.960113 0.494881 0.000000
0.558373 0.614649 0.512657
0.565881 0.618677 0.516899
0.597131 0.635889 0.536278
0.607782 0.615961 0.497597
0.568658 0.506340 0.367224
0.747555 0.542412 0.245335
0.877043 0.586084 0.000000
0.948425 0.609979 0.000000
0.665858 0.707393 0.633356
0.669184 0.709590 0.636072
0.682124 0.718624 0.646632
0.704250 0.734249 0.663355
0.695003 0.696834 0.601251
0.672663 0.613947 0.479286
0.781155 0.626886 0.391974
0.908873 0.676570 0.281224
0.731472 0.781796 0.718776
0.733028 0.782864 0.720027
0.740444 0.788357 0.726436
0.755154 0.799222 0.739528
0.763638 0.797726 0.733150
0.755032 0.762203 0.676783
0.734218 0.692683 0.582208
0.814237 0.701686 0.519615
0.791073 0.844938 0.797787
0.792508 0.845914 0.799039
0.797543 0.849058 0.803189
0.807462 0.855222 0.811337
0.821439 0.863584 0.822599
0.820096 0.853391 0.802426
0.815274 0.827970 0.754757
0.803006 0.777554 0.682216
0.052338 0.112367 0.174380
0.091768 0.109224 0.188083
0.234318 0.098512 0.202274
0.456214 0.012146 0.189487
0.690242 0.000000 0.178286
0.828031 0.159579 0.149294
0.901488 0.253666 0.103182
0.962982 0.332738 0.000000
0.090303 0.142855 0.183261
0.099123 0.140352 0.199466
0.245731 0.140688 0.212497
0.461006 0.144472 0.205875
0.698909 0.123323 0.180148
0.828916 0.202274 0.148043
0.900755 0.273381 0.095552
0.961822 0.345190 0.000000
0.125856 0.219913 0.213046
0.151980 0.234012 0.226932
0.237491 0.258488 0.251591
0.543572 0.287602 0.212131
0.730922 0.298375 0.180179
0.837003 0.325963 0.136629
0.902708 0.358984 0.044984
0.962493 0.404334 0.000000
0.336370 0.435004 0.365179
0.367895 0.447883 0.383795
0.447730 0.489357 0.422187
0.429725 0.401068 0.329229
0.715511 0.470375 0.220798
0.829343 0.490608 0.160861
0.894041 0.491524 0.117830
0.954314 0.507805 0.000000
0.561944 0.610529 0.530632
0.569635 0.615167 0.535363
0.600366 0.633692 0.555200
0.621363 0.630945 0.541955
0.582513 0.528283 0.417731
0.755093 0.566339 0.320897
0.872496 0.604242 0.230045
0.941344 0.617945 0.184421
0.666346 0.704616 0.640497
0.669612 0.706996 0.643275
0.682246 0.716213 0.653712
0.704891 0.733822 0.672175
0.697993 0.702541 0.622766
0.674556 0.622187 0.506432
0.783627 0.638605 0.429786
0.908965 0.685939 0.342199
0.731533 0.780575 0.723018
0.733181 0.781765 0.724361
0.740505 0.787259 0.730770
0.755123 0.798337 0.743893
0.767269 0.802274 0.745541
0.757198 0.766781 0.689174
0.734951 0.697505 0.597528
0.817777 0.710048 0.539727
0.790585 0.844083 0.799466
0.791684 0.844755 0.800351
0.796811 0.848020 0.804593
0.807340 0.854734 0.813352
0.821622 0.863462 0.824918
0.822782 0.856474 0.810208
0.816709 0.830930 0.762875
0.803708 0.779904 0.688777
0.000000 0.144869 0.291905
0.000000 0.143496 0.307439
0.240330 0.111147 0.369818
0.512627 0.008911 0.354437
0.692988 0.089204 0.319127
0.782650 0.247745 0.319463
0.870848 0.316594 0.296696
0.936858 0.386694 0.276371
0.000000 0.190768 0.307805
0.007691 0.183871 0.321782
0.254002 0.159640 0.378668
0.521355 0.148928 0.363409
0.689052 0.173709 0.328038
0.786648 0.275853 0.324010
0.870848 0.337133 0.300298
0.936614 0.399817 0.278111
0.141085 0.290318 0.324071
0.175387 0.297887 0.333288
0.274876 0.311864 0.388067
0.523278 0.322118 0.389807
0.672694 0.346502 0.370794
0.799283 0.376837 0.342596
0.873136 0.416602 0.319310
0.938476 0.452796 0.287510
0.284337 0.418219 0.372290
0.310643 0.427070 0.382055
0.415686 0.466163 0.433112
0.493263 0.468879 0.434943
0.709743 0.508904 0.395941
0.801266 0.511406 0.372168
0.870512 0.517144 0.342229
0.936858 0.530236 0.301701
0.533745 0.595087 0.522179
0.545922 0.600183 0.531273
0.591791 0.621393 0.567620
0.641779 0.653437 0.603632
0.603113 0.562249 0.491859
0.764736 0.604486 0.434455
0.861479 0.630152 0.399878
0.926116 0.630152 0.367803
0.659785 0.698054 0.642084
0.665156 0.701289 0.647639
0.680659 0.710964 0.662623
0.703578 0.730220 0.682216
0.706722 0.716396 0.659236
0.679744 0.638453 0.552422
0.790097 0.661707 0.494514
0.905333 0.703273 0.446509
0.726650 0.774899 0.723476
0.729519 0.776699 0.726711
0.738521 0.783597 0.735683
0.754238 0.796170 0.750271
0.776150 0.812863 0.769833
0.762325 0.776608 0.713008
0.736263 0.705562 0.621973
0.824491 0.723903 0.571832
0.788144 0.841825 0.800992
0.790005 0.842832 0.802823
0.795529 0.846464 0.807431
0.806241 0.853422 0.816281
0.821347 0.862943 0.828550
0.828214 0.862577 0.824704
0.819486 0.836454 0.777646
0.804959 0.784207 0.700832
0.000000 0.211734 0.442756
0.000000 0.211368 0.453437
0.211734 0.199985 0.493050
0.543908 0.017029 0.550561
0.716365 0.205325 0.505882
0.802060 0.304387 0.465949
0.842679 0.369329 0.439704
0.891142 0.457557 0.453040
0.000000 0.253178 0.451209
0.000000 0.250340 0.461189
0.239353 0.239780 0.498085
0.551202 0.157290 0.553765
0.713954 0.259403 0.510216
0.796597 0.332677 0.470192
0.836179 0.394293 0.448890
0.891600 0.466621 0.455299
0.232364 0.367559 0.450172
0.252018 0.373083 0.462104
0.314916 0.366949 0.502190
0.558770 0.335363 0.559808
0.698665 0.397803 0.523674
0.773678 0.415717 0.482979
0.818051 0.466194 0.475868
0.893278 0.499794 0.462257
0.328405 0.477607 0.478309
0.350011 0.481453 0.482948
0.427832 0.497658 0.502434
0.535943 0.518761 0.553307
0.667353 0.525689 0.540673
0.748959 0.532891 0.519524
0.826658 0.543969 0.498909
0.899809 0.557610 0.474495
0.482002 0.570092 0.514519
0.494057 0.574212 0.519982
0.537926 0.590326 0.541619
0.613581 0.626398 0.596765
0.633478 0.606073 0.568841
0.762264 0.637049 0.549920
0.833280 0.633509 0.527062
0.904509 0.633997 0.495521
0.629236 0.677882 0.619776
0.634607 0.680323 0.624567
0.654322 0.689601 0.642695
0.686000 0.708339 0.673945
0.714748 0.730861 0.695460
0.684230 0.656275 0.601221
0.801602 0.691127 0.568353
0.900633 0.722957 0.549584
0.707179 0.760281 0.707027
0.709621 0.761715 0.709560
0.720333 0.768338 0.720943
0.743038 0.783230 0.745907
0.769009 0.805051 0.770748
0.768673 0.789456 0.743893
0.737057 0.714076 0.648737
0.835660 0.740566 0.608362
0.767666 0.830381 0.782284
0.769955 0.831479 0.784634
0.779660 0.836484 0.794614
0.798734 0.846952 0.814054
0.816648 0.858976 0.828977
0.836728 0.871641 0.844785
0.823239 0.844236 0.797757
0.804623 0.787716 0.714565
0.000000 0.307103 0.566308
0.127291 0.307042 0.572076
0.282444 0.301823 0.594659
0.505180 0.270787 0.635218
0.726345 0.246311 0.659693
0.801266 0.383001 0.611261
0.845853 0.460914 0.580316
0.886809 0.495216 0.559564
0.155398 0.336584 0.566217
0.188876 0.336004 0.571466
0.305272 0.330663 0.592920
0.507622 0.303929 0.632074
0.721950 0.285557 0.657557
0.796078 0.404791 0.611261
0.841184 0.471534 0.580835
0.883543 0.501579 0.560357
0.334447 0.444434 0.565606
0.345983 0.444526 0.572015
0.380102 0.429938 0.593622
0.523156 0.417609 0.629541
0.710628 0.410834 0.657893
0.779660 0.486366 0.618494
0.826352 0.516930 0.589410
0.873136 0.532494 0.568963
0.426978 0.520775 0.554559
0.439246 0.523064 0.557061
0.484321 0.538689 0.578546
0.547478 0.548119 0.624628
0.690242 0.547692 0.661128
0.755398 0.585626 0.635218
0.803677 0.578515 0.604486
0.848264 0.595605 0.597223
0.493843 0.607172 0.590204
0.502892 0.608789 0.592493
0.537438 0.615503 0.602319
0.593866 0.628351 0.620630
0.660121 0.644709 0.657862
0.725368 0.642359 0.640589
0.787259 0.641413 0.625452
0.864530 0.645716 0.609918
0.594873 0.661982 0.614069
0.600549 0.664088 0.617365
0.619745 0.670985 0.628229
0.650874 0.683803 0.648035
0.695644 0.710903 0.690059
0.701411 0.688106 0.659815
0.812741 0.720729 0.652461
0.883024 0.717189 0.631189
0.680842 0.739864 0.685817
0.683742 0.741726 0.688716
0.694789 0.748592 0.699977
0.716579 0.762692 0.722744
0.749783 0.785367 0.758541
0.783871 0.812253 0.789242
0.742580 0.729213 0.683864
0.857511 0.766262 0.660761
0.745907 0.817319 0.764797
0.747646 0.818235 0.766567
0.755886 0.822599 0.774868
0.772946 0.831968 0.791928
0.801053 0.847532 0.819516
0.831174 0.867155 0.845945
0.831968 0.857694 0.827665
0.805539 0.794766 0.736599
0.317967 0.419898 0.660334
0.336889 0.420661 0.664057
0.402899 0.416938 0.675502
0.525261 0.406439 0.697261
0.686091 0.379858 0.727352
0.807095 0.414862 0.731991
0.845884 0.511254 0.690547
0.883238 0.566979 0.671077
0.332616 0.433936 0.655879
0.349859 0.434974 0.659815
0.410101 0.431617 0.671473
0.523766 0.420996 0.692805
0.679957 0.396277 0.722591
0.801022 0.424720 0.727474
0.840452 0.513848 0.686061
0.878416 0.564904 0.665980
0.426947 0.510155 0.653223
0.429603 0.506767 0.656367
0.454108 0.496620 0.668025
0.538872 0.491188 0.688838
0.670741 0.476967 0.717983
0.788144 0.493690 0.726741
0.830503 0.561089 0.692958
0.872160 0.594629 0.675044
0.495338 0.573754 0.638819
0.501427 0.575402 0.642298
0.529412 0.582940 0.657588
0.565545 0.578302 0.682307
0.658534 0.576043 0.712215
0.769192 0.584100 0.729305
0.816342 0.623682 0.704891
0.861540 0.630915 0.684016
0.536797 0.626001 0.640803
0.541070 0.625818 0.641077
0.562066 0.627802 0.644862
0.600031 0.635676 0.657221
0.647883 0.649226 0.698329
0.745510 0.652705 0.729549
0.800687 0.673274 0.712795
0.849943 0.663813 0.688746
0.582727 0.686183 0.667079
0.586877 0.686732 0.668147
0.602838 0.688685 0.672328
0.630823 0.692988 0.680751
0.667109 0.700771 0.694575
0.718654 0.717311 0.732540
0.782437 0.714961 0.718593
0.839780 0.710933 0.702876
0.650843 0.723415 0.682765
0.653437 0.724788 0.684565
0.662715 0.729000 0.690425
0.681025 0.737972 0.702815
0.708309 0.752163 0.722560
0.752743 0.781155 0.766049
0.758145 0.757412 0.735164
0.869902 0.786801 0.733150
0.714321 0.796048 0.738430
0.716396 0.797269 0.740536
0.725765 0.802701 0.750118
0.742885 0.812222 0.767300
0.769497 0.827207 0.793576
0.807309 0.849302 0.829709
0.850431 0.878599 0.867369
0.808621 0.807004 0.769650
0.483162 0.536461 0.733211
0.490669 0.536492 0.735286
0.517540 0.532067 0.741451
0.576745 0.525658 0.755886
0.669398 0.511925 0.777554
0.791165 0.487617 0.805814
0.864683 0.533989 0.800473
0.893462 0.601892 0.765835
0.486061 0.542473 0.729915
0.493355 0.542687 0.732021
0.519707 0.539300 0.738827
0.576013 0.532830 0.753017
0.666438 0.520012 0.774777
0.787015 0.497200 0.803342
0.861265 0.538933 0.798398
0.890837 0.604150 0.764218
0.519829 0.580560 0.724086
0.521294 0.578149 0.726162
0.535302 0.571649 0.733242
0.584009 0.569665 0.749050
0.662287 0.559747 0.770535
0.774563 0.542290 0.799008
0.852201 0.571557 0.797513
0.885527 0.624659 0.766506
0.558618 0.625422 0.711513
0.563561 0.626825 0.714137
0.578027 0.628107 0.723445
0.595514 0.618494 0.740078
0.656001 0.615167 0.763241
0.754604 0.606958 0.793729
0.839384 0.620966 0.799313
0.879240 0.658473 0.773007
0.578973 0.650874 0.690242
0.582361 0.651179 0.690944
0.591760 0.654688 0.699550
0.618006 0.665126 0.720485
0.648341 0.663996 0.750149
0.726558 0.662867 0.784237
0.824063 0.668299 0.802579
0.872068 0.699062 0.782528
0.603510 0.700374 0.708858
0.605158 0.699855 0.708797
0.613275 0.698787 0.709438
0.630732 0.698207 0.712642
0.657496 0.698268 0.719326
0.701686 0.715480 0.772274
0.808011 0.726955 0.813809
0.861540 0.746517 0.794919
0.632105 0.757198 0.740536
0.633722 0.757473 0.741115
0.640803 0.758480 0.743557
0.656764 0.760555 0.748775
0.680598 0.762600 0.755856
0.714412 0.766384 0.767178
0.768734 0.782956 0.806607
0.843229 0.786954 0.801938
0.685176 0.789517 0.750668
0.686519 0.789731 0.751186
0.692927 0.791440 0.754360
0.706935 0.796109 0.762142
0.729213 0.805234 0.776120
0.760311 0.818936 0.796689
0.805631 0.841978 0.831571
0.821866 0.833982 0.823575
