20 Preset/Dark Style/【3】LUT video cho PR-AE-FCPX/19Tones (5)/19 tones zack 02.cube
# Created by Adobe Lightroom plugin Export LUT (1.24.0)
# www.johnrellis.com/lightroom/exportlut.htm
# Preset: 19 tones zack 02
# Color profile: E:\lut插件\exportlut.1.24\exportlut.lrplugin\color profiles\Rec709gamma2.4.icc
LUT_3D_SIZE 32
DOMAIN_MIN 0.0 0.0 0.0
DOMAIN_MAX 1.0 1.0 1.0
0.105837 0.187747 0.211307
0.105837 0.187747 0.211307
0.105837 0.187747 0.211307
0.105837 0.187747 0.211307
0.107332 0.187808 0.211429
0.110475 0.187808 0.211521
0.114076 0.187747 0.211643
0.117830 0.187839 0.211734
0.122988 0.187655 0.211948
0.128237 0.187625 0.212039
0.135134 0.187594 0.212222
0.142824 0.187472 0.212284
0.151369 0.187228 0.212467
0.160830 0.187015 0.212650
0.171115 0.186618 0.212802
0.182040 0.186099 0.212955
0.193454 0.185702 0.213046
0.206149 0.185031 0.213169
0.219760 0.184085 0.213260
0.234897 0.183017 0.213443
0.257420 0.180880 0.213657
0.287358 0.177401 0.213687
0.318090 0.172793 0.213718
0.350927 0.166537 0.213779
0.385382 0.158236 0.213596
0.422400 0.146822 0.213443
0.464363 0.129427 0.213230
0.512963 0.098482 0.212863
0.570947 0.000000 0.212161
0.641535 0.000000 0.211124
0.723659 0.000000 0.209567
0.813657 0.000000 0.207645
0.105837 0.187747 0.211307
0.105837 0.187747 0.211307
0.105837 0.187747 0.211307
0.105837 0.187747 0.211307
0.107332 0.187808 0.211429
0.109926 0.187839 0.211521
0.113527 0.187778 0.211643
0.117494 0.187686 0.211734
0.122011 0.187716 0.211948
0.127321 0.187686 0.212039
0.133852 0.187686 0.212222
0.141360 0.187442 0.212314
0.149660 0.187228 0.212497
0.158999 0.187015 0.212528
0.168826 0.186709 0.212680
0.179507 0.186374 0.212833
0.190951 0.185855 0.213077
0.203372 0.185245 0.213199
0.216800 0.184360 0.213291
0.231510 0.183261 0.213352
0.252506 0.181460 0.213565
0.279606 0.178439 0.213687
0.307195 0.174563 0.213748
0.336431 0.169558 0.213779
0.367224 0.162905 0.213718
0.400671 0.153933 0.213535
0.439002 0.140536 0.213474
0.483955 0.118837 0.213107
0.538415 0.056214 0.212528
0.605280 0.000000 0.211643
0.686122 0.000000 0.210361
0.776791 0.000000 0.208469
0.105837 0.187747 0.211307
0.105837 0.187747 0.211307
0.105837 0.187747 0.211307
0.105837 0.187747 0.211307
0.107332 0.187808 0.211429
0.109926 0.187839 0.211521
0.113527 0.187778 0.211643
0.117311 0.187869 0.211734
0.121370 0.187900 0.211948
0.127138 0.187839 0.212039
0.133394 0.187716 0.212222
0.140414 0.187655 0.212284
0.148775 0.187442 0.212497
0.157961 0.187106 0.212528
0.167758 0.186954 0.212680
0.178317 0.186496 0.212955
0.189883 0.185977 0.213077
0.202152 0.185397 0.213199
0.215488 0.184543 0.213291
0.230045 0.183627 0.213352
0.251377 0.181827 0.213565
0.277287 0.178927 0.213718
0.303532 0.175479 0.213779
0.331243 0.170718 0.213840
0.360418 0.164675 0.213687
0.391821 0.156832 0.213687
0.428443 0.145083 0.213535
0.471229 0.126223 0.213169
0.523735 0.089235 0.212772
0.588617 0.000000 0.211948
0.667445 0.000000 0.210697
0.757076 0.000000 0.208957
0.105531 0.187900 0.211429
0.105531 0.187900 0.211429
0.105531 0.187900 0.211429
0.105531 0.187900 0.211429
0.107607 0.187930 0.211551
0.109987 0.188113 0.211612
0.113619 0.188083 0.211734
0.116793 0.188174 0.211948
0.121614 0.188052 0.212039
0.126741 0.188174 0.212131
0.133089 0.188052 0.212192
0.140475 0.187961 0.212406
0.148898 0.187747 0.212436
0.158022 0.187411 0.212619
0.167605 0.187137 0.212802
0.177829 0.186862 0.212924
0.188907 0.186374 0.213046
0.200778 0.185885 0.213169
0.213748 0.185092 0.213260
0.228092 0.184085 0.213474
0.248844 0.182254 0.213565
0.272129 0.179812 0.213748
0.296269 0.176852 0.213748
0.322820 0.172702 0.213809
0.351629 0.167208 0.213809
0.384222 0.159457 0.213687
0.422126 0.148013 0.213626
0.466651 0.129397 0.213230
0.520043 0.094362 0.212833
0.584771 0.000000 0.211978
0.661189 0.000000 0.210758
0.746242 0.000000 0.209140
0.106203 0.188449 0.211734
0.106203 0.188449 0.211734
0.106203 0.188449 0.211734
0.106630 0.188418 0.212009
0.107179 0.189181 0.211276
0.110964 0.188663 0.211429
0.112856 0.188540 0.211948
0.116670 0.188632 0.212039
0.121492 0.188510 0.212131
0.126802 0.188449 0.212222
0.133150 0.188327 0.212284
0.140108 0.188266 0.212497
0.148440 0.188235 0.212528
0.157595 0.187900 0.212711
0.167544 0.187594 0.212863
0.178073 0.187289 0.213016
0.189548 0.186923 0.213107
0.201938 0.186191 0.213230
0.215244 0.185336 0.213474
0.230228 0.184390 0.213504
0.251530 0.182589 0.213748
0.273899 0.180240 0.213779
0.297429 0.177249 0.213931
0.323583 0.173342 0.213840
0.352728 0.167727 0.213840
0.385351 0.160128 0.213809
0.422919 0.148684 0.213657
0.466773 0.130800 0.213382
0.518822 0.097749 0.212894
0.581170 0.000000 0.212100
0.654902 0.000000 0.211002
0.737484 0.000000 0.209384
0.106264 0.189334 0.212284
0.106264 0.189334 0.212284
0.106844 0.189303 0.212284
0.107576 0.189120 0.212436
0.107027 0.189609 0.212253
0.110140 0.190494 0.211337
0.114748 0.190127 0.211368
0.119875 0.189364 0.211521
0.122103 0.189059 0.212314
0.127169 0.189181 0.212528
0.133913 0.189029 0.212589
0.141695 0.188907 0.212650
0.150332 0.188663 0.212833
0.159884 0.188449 0.212985
0.170138 0.188235 0.213138
0.181369 0.187839 0.213138
0.193301 0.187381 0.213382
0.206241 0.186679 0.213474
0.220005 0.185885 0.213565
0.237980 0.184543 0.213718
0.259739 0.182650 0.213779
0.282506 0.180209 0.213931
0.382879 0.163119 0.213901
0.424231 0.151156 0.213779
0.467933 0.134218 0.213443
0.514885 0.107576 0.213046
0.566430 0.015564 0.212467
0.623316 0.000000 0.211643
0.686885 0.000000 0.210605
0.754513 0.000000 0.209262
0.825132 0.000000 0.207584
0.896788 0.000000 0.205997
0.108095 0.190677 0.213260
0.108095 0.190677 0.213260
0.108583 0.190646 0.213382
0.109255 0.190463 0.213535
0.109255 0.190463 0.213535
0.109377 0.192294 0.212039
0.114748 0.193362 0.211093
0.120607 0.192874 0.211124
0.129580 0.191867 0.211276
0.136965 0.190616 0.211978
0.141115 0.190127 0.213016
0.150027 0.190036 0.213199
0.159884 0.189944 0.213199
0.170565 0.189517 0.213352
0.182254 0.189090 0.213504
0.193912 0.188663 0.213596
0.206790 0.187991 0.213718
0.220798 0.186984 0.213809
0.236790 0.185977 0.213840
0.262852 0.183780 0.214084
0.291936 0.180728 0.214115
0.325139 0.176089 0.214145
0.363409 0.169192 0.214145
0.406744 0.158755 0.213962
0.453712 0.143252 0.213718
0.502251 0.119753 0.213321
0.552453 0.070161 0.212833
0.606256 0.000000 0.211978
0.666133 0.000000 0.211032
0.729519 0.000000 0.209781
0.797208 0.000000 0.208408
0.867277 0.000000 0.206760
0.109346 0.192355 0.214328
0.109346 0.192355 0.214328
0.110018 0.192172 0.214481
0.110506 0.192142 0.214603
0.111391 0.191806 0.214755
0.110048 0.192752 0.214023
0.112093 0.195346 0.211917
0.118929 0.196139 0.211124
0.125216 0.195651 0.210727
0.136355 0.194766 0.211002
0.150301 0.193454 0.211124
0.156863 0.191684 0.212406
0.163088 0.191104 0.213657
0.174044 0.190799 0.213687
0.185611 0.190494 0.213779
0.198093 0.189792 0.213901
0.211215 0.189212 0.213993
0.225376 0.188296 0.214084
0.247868 0.186740 0.214237
0.272313 0.184787 0.214359
0.300053 0.181613 0.214389
0.331975 0.177218 0.214420
0.368872 0.170504 0.214298
0.410468 0.160586 0.214145
0.455512 0.146151 0.213901
0.501732 0.125368 0.213504
0.549767 0.090303 0.212924
0.600916 0.000000 0.212314
0.658289 0.000000 0.211368
0.719661 0.000000 0.210208
0.785031 0.000000 0.208743
0.853208 0.000000 0.207279
0.111696 0.194491 0.215824
0.111696 0.194491 0.215824
0.111604 0.194491 0.215946
0.112276 0.194308 0.216098
0.113680 0.193942 0.216251
0.114443 0.193606 0.216556
0.112215 0.195956 0.214389
0.116670 0.199313 0.212039
0.124910 0.199863 0.211002
0.132357 0.199161 0.210483
0.144961 0.198276 0.210727
0.161135 0.197147 0.210910
0.177249 0.195071 0.211460
0.182986 0.193118 0.213260
0.191958 0.192264 0.214359
0.205051 0.191592 0.214359
0.219760 0.190707 0.214420
0.240269 0.189761 0.214603
0.262394 0.187991 0.214633
0.286778 0.185733 0.214725
0.314519 0.182467 0.214725
0.346197 0.177829 0.214725
0.382727 0.170962 0.214694
0.423590 0.160983 0.214450
0.467506 0.146487 0.214084
0.512291 0.125978 0.213657
0.558923 0.092378 0.213199
0.608881 0.000000 0.212436
0.663935 0.000000 0.211460
0.722652 0.000000 0.210361
0.784909 0.000000 0.208957
0.850126 0.000000 0.207492
0.113832 0.197574 0.217838
0.113832 0.197574 0.217838
0.114473 0.197391 0.217960
0.115114 0.197208 0.218112
0.115938 0.196872 0.218265
0.117433 0.196384 0.218540
0.116945 0.196567 0.218173
0.115114 0.200259 0.214847
0.122591 0.204593 0.211826
0.131746 0.204654 0.210697
0.140200 0.203311 0.209995
0.153933 0.202457 0.210208
0.172274 0.201450 0.210483
0.194675 0.199496 0.210758
0.206577 0.196384 0.212345
0.218235 0.194247 0.214786
0.236881 0.193179 0.215549
0.258335 0.191806 0.215427
0.281865 0.189853 0.215396
0.307347 0.187198 0.215183
0.335241 0.183505 0.215274
0.365209 0.178683 0.215152
0.398444 0.171878 0.215030
0.434668 0.162783 0.214755
0.473457 0.150027 0.214450
0.513970 0.132357 0.214023
0.557763 0.104311 0.213504
0.605859 0.007080 0.212772
0.659876 0.000000 0.211826
0.718532 0.000000 0.210666
0.780880 0.000000 0.209354
0.846494 0.000000 0.207889
0.116762 0.201236 0.220188
0.116762 0.201236 0.220188
0.117494 0.201053 0.220218
0.118013 0.200870 0.220462
0.119509 0.200381 0.220645
0.120638 0.200015 0.221042
0.122103 0.199374 0.221469
0.119326 0.201541 0.219272
0.119844 0.206241 0.215213
0.130587 0.211887 0.211429
0.141176 0.211002 0.210269
0.150637 0.209110 0.209384
0.164767 0.207889 0.209476
0.188357 0.207492 0.209689
0.217288 0.206271 0.209842
0.245975 0.202945 0.210666
0.261723 0.198581 0.213535
0.278752 0.195193 0.217014
0.302586 0.192935 0.216831
0.328588 0.189700 0.216587
0.356298 0.185641 0.216251
0.386786 0.180179 0.215824
0.420325 0.172976 0.215366
0.456397 0.163088 0.215061
0.494820 0.149844 0.214694
0.535149 0.131228 0.214298
0.578180 0.102327 0.213687
0.625055 0.001160 0.212863
0.677302 0.000000 0.211826
0.733059 0.000000 0.210758
0.792752 0.000000 0.209476
0.855283 0.000000 0.207950
0.120668 0.206699 0.223484
0.121279 0.206516 0.223606
0.121950 0.206363 0.223636
0.122438 0.206180 0.223880
0.124269 0.205661 0.224186
0.125978 0.205173 0.224582
0.127749 0.204501 0.225101
0.129519 0.203708 0.225895
0.123812 0.208713 0.220676
0.127077 0.214969 0.215366
0.142336 0.222538 0.210697
0.155489 0.221134 0.209323
0.184573 0.228519 0.206577
0.205997 0.226566 0.206210
0.244175 0.227298 0.206485
0.291936 0.226291 0.206363
0.350530 0.221256 0.206058
0.385016 0.209842 0.209659
0.414191 0.198276 0.215274
0.445350 0.188235 0.220066
0.477729 0.179263 0.219120
0.511650 0.168002 0.218021
0.547356 0.153719 0.217014
0.585473 0.134035 0.215793
0.624781 0.106355 0.214572
0.663783 0.026703 0.213382
0.701747 0.000000 0.212467
0.740505 0.000000 0.211582
0.781582 0.000000 0.210544
0.826474 0.000000 0.209384
0.874907 0.000000 0.208255
0.927337 0.000000 0.207248
0.129824 0.217899 0.230564
0.129976 0.217777 0.230564
0.130922 0.217350 0.230625
0.131533 0.216831 0.230686
0.133303 0.215976 0.230869
0.135683 0.214817 0.231235
0.138552 0.214237 0.232181
0.141482 0.213626 0.233585
0.139986 0.215640 0.232120
0.134737 0.225071 0.223606
0.144442 0.236423 0.215610
0.170748 0.248631 0.208255
0.188602 0.245121 0.206180
0.203952 0.240513 0.204532
0.223575 0.237125 0.204166
0.266209 0.238834 0.204166
0.317815 0.238376 0.203799
0.378943 0.233738 0.203250
0.434089 0.221836 0.204501
0.464576 0.206027 0.210178
0.496468 0.190127 0.217929
0.529046 0.177249 0.220645
0.562371 0.163729 0.219364
0.598077 0.146456 0.217990
0.635035 0.122927 0.216403
0.673243 0.086458 0.214939
0.711849 0.000000 0.213199
0.750362 0.000000 0.212070
0.791135 0.000000 0.211032
0.835233 0.000000 0.209873
0.882322 0.000000 0.208743
0.932464 0.000000 0.207950
0.141115 0.231785 0.239261
0.141299 0.231662 0.239170
0.141482 0.230961 0.239048
0.143130 0.230198 0.239139
0.145113 0.229038 0.239353
0.147494 0.227756 0.239719
0.150820 0.226230 0.240513
0.154208 0.224796 0.241520
0.157534 0.223575 0.243259
0.149538 0.230472 0.236393
0.146731 0.242893 0.225193
0.162905 0.257328 0.214328
0.194522 0.269932 0.205356
0.212802 0.263401 0.203311
0.226200 0.255222 0.201968
0.240726 0.248142 0.201694
0.286137 0.250431 0.201511
0.340246 0.250584 0.200900
0.404181 0.247013 0.199985
0.476387 0.236942 0.198917
0.515526 0.218173 0.203830
0.551568 0.197513 0.211551
0.589166 0.175875 0.221347
0.624231 0.158511 0.220859
0.659815 0.137545 0.218906
0.695827 0.108675 0.217136
0.732235 0.032685 0.215213
0.770077 0.000000 0.213291
0.809628 0.000000 0.211704
0.851682 0.000000 0.210575
0.896666 0.000000 0.209659
0.944121 0.000000 0.208957
0.154940 0.249729 0.250004
0.155245 0.249516 0.249943
0.155489 0.248600 0.249760
0.156924 0.247166 0.249638
0.158633 0.245212 0.249454
0.161135 0.242954 0.249516
0.164431 0.240818 0.250065
0.168246 0.238712 0.251011
0.172457 0.236820 0.252720
0.176303 0.235599 0.254826
0.160830 0.249699 0.240085
0.163149 0.265690 0.225589
0.186496 0.283177 0.211765
0.222263 0.294377 0.201144
0.239353 0.283604 0.199435
0.249760 0.271153 0.198764
0.257023 0.259403 0.199130
0.305699 0.262669 0.198489
0.363622 0.263981 0.197421
0.430121 0.261631 0.195865
0.505516 0.253452 0.194095
0.570092 0.235813 0.195377
0.609552 0.211643 0.202884
0.650477 0.184573 0.212772
0.689326 0.156558 0.222599
0.722866 0.133883 0.220401
0.757961 0.102266 0.218112
0.795132 0.008453 0.215824
0.835569 0.000000 0.213535
0.879301 0.000000 0.211551
0.924834 0.000000 0.210941
0.970947 0.000000 0.211032
0.169924 0.269078 0.261540
0.170596 0.269200 0.261601
0.171328 0.268345 0.261601
0.173007 0.267308 0.261753
0.175723 0.265385 0.261784
0.179171 0.263279 0.262242
0.183597 0.261326 0.263310
0.188937 0.259098 0.264866
0.194797 0.257023 0.267033
0.200259 0.254826 0.269810
0.193362 0.259953 0.263951
0.178500 0.277562 0.243626
0.185306 0.295598 0.224613
0.215274 0.312902 0.207095
0.250828 0.318730 0.195926
0.264408 0.302556 0.194980
0.271794 0.286351 0.195193
0.272740 0.270298 0.196445
0.322484 0.274113 0.195315
0.383398 0.277165 0.193515
0.454688 0.277012 0.191196
0.535546 0.271794 0.188144
0.622522 0.259190 0.184665
0.670008 0.234134 0.191287
0.713558 0.205112 0.201419
0.756130 0.171328 0.215335
0.793942 0.142031 0.222629
0.829191 0.114321 0.220035
0.866728 0.062470 0.217472
0.906920 0.000000 0.215030
0.948028 0.000000 0.213291
0.988128 0.000000 0.214237
0.187564 0.291264 0.274540
0.187900 0.291142 0.274632
0.188693 0.290440 0.274632
0.190707 0.289250 0.274784
0.193729 0.287480 0.275090
0.197940 0.285252 0.275731
0.203159 0.282811 0.276799
0.209079 0.280278 0.278477
0.215671 0.277623 0.280766
0.222019 0.274815 0.283635
0.228092 0.271763 0.287083
0.207828 0.285863 0.269078
0.196170 0.305913 0.244236
0.209781 0.325078 0.221317
0.245487 0.342473 0.200626
0.280217 0.343267 0.189395
0.291997 0.323735 0.189425
0.297581 0.304448 0.190463
0.296788 0.285710 0.192477
0.342321 0.287694 0.191226
0.408453 0.292851 0.188418
0.484901 0.295445 0.184695
0.570153 0.293462 0.179934
0.660151 0.285649 0.174197
0.729061 0.266209 0.174990
0.774411 0.237858 0.185763
0.818692 0.206271 0.200687
0.861540 0.173465 0.221073
0.898528 0.153689 0.224033
0.935332 0.138094 0.221683
0.972717 0.126467 0.220096
1.000000 0.123903 0.220310
0.212772 0.321752 0.292973
0.213474 0.322118 0.293309
0.252384 0.362280 0.319921
0.254917 0.360388 0.320043
0.258946 0.357794 0.320531
0.264012 0.353948 0.321080
0.270146 0.349676 0.322148
0.277592 0.344976 0.323949
0.285893 0.340032 0.326574
0.294347 0.335149 0.330144
0.302190 0.329717 0.334508
0.302678 0.327459 0.334264
0.261906 0.353826 0.290776
0.249943 0.376898 0.250065
0.271458 0.395880 0.213809
0.315251 0.410803 0.181765
0.347601 0.400885 0.169162
0.353307 0.370581 0.173007
0.352331 0.342351 0.177859
0.345129 0.315770 0.183047
0.386633 0.314000 0.182071
0.462440 0.322240 0.176761
0.546654 0.327703 0.170016
0.636133 0.329534 0.161776
0.721920 0.325383 0.153353
0.801480 0.314305 0.146181
0.843809 0.286503 0.160403
0.884642 0.257053 0.179141
0.924834 0.228641 0.203494
0.962066 0.210269 0.232883
0.994629 0.206912 0.231815
1.000000 0.208988 0.232364
0.257328 0.370245 0.324285
0.261570 0.374456 0.327184
0.267399 0.378210 0.330388
0.273960 0.380713 0.333471
0.280919 0.381384 0.336187
0.287358 0.379156 0.337713
0.293706 0.375189 0.339117
0.300725 0.369909 0.340398
0.308721 0.364752 0.342718
0.317021 0.359014 0.345892
0.325170 0.353277 0.349828
0.331945 0.346807 0.354253
0.310552 0.356176 0.334386
0.275120 0.381750 0.287633
0.270695 0.403723 0.244083
0.297795 0.421515 0.204654
0.344488 0.435401 0.169619
0.373724 0.421576 0.158541
0.379919 0.391150 0.163577
0.379370 0.362036 0.169863
0.372351 0.334447 0.176333
0.407263 0.329320 0.175937
0.487800 0.340887 0.168215
0.576715 0.350011 0.158206
0.666468 0.355627 0.146273
0.750973 0.356054 0.133822
0.828916 0.350896 0.121798
0.887510 0.333043 0.126680
0.929564 0.307958 0.149508
0.969482 0.284123 0.178927
1.000000 0.268254 0.217899
1.000000 0.270848 0.249241
0.286656 0.401007 0.345037
0.291752 0.405798 0.348486
0.298283 0.410132 0.352331
0.305760 0.413672 0.356268
0.313207 0.414740 0.359289
0.320043 0.412757 0.361181
0.326574 0.408789 0.362432
0.333532 0.403601 0.363928
0.341161 0.398047 0.365972
0.349340 0.391547 0.368658
0.357641 0.384985 0.372168
0.365301 0.378058 0.376440
0.370489 0.369909 0.380682
0.328313 0.392767 0.337987
0.298131 0.418097 0.285832
0.301061 0.439155 0.236851
0.333745 0.455970 0.191623
0.383551 0.468818 0.149416
0.408850 0.449958 0.140566
0.414221 0.417823 0.148775
0.412757 0.386633 0.157748
0.405341 0.357061 0.166629
0.430945 0.346990 0.167819
0.516777 0.361975 0.156680
0.608240 0.374975 0.142184
0.698024 0.384649 0.123995
0.781491 0.389776 0.102602
0.859190 0.390082 0.068544
0.929564 0.384192 0.018433
0.971374 0.362432 0.098573
1.000000 0.341741 0.143374
1.000000 0.327855 0.193820
0.323186 0.438331 0.371283
0.328283 0.443030 0.374884
0.335119 0.447425 0.378882
0.342443 0.450690 0.382818
0.349798 0.451911 0.385992
0.356420 0.449866 0.387793
0.362921 0.445991 0.389197
0.370001 0.440833 0.390692
0.377966 0.434882 0.392676
0.386328 0.428443 0.395300
0.394934 0.421698 0.398840
0.403113 0.414099 0.402838
0.409430 0.405646 0.407080
0.401221 0.404456 0.399512
0.351110 0.434058 0.341222
0.328313 0.459480 0.283116
0.339849 0.481270 0.227115
0.380163 0.499550 0.172183
0.436164 0.514244 0.108980
0.461646 0.493538 0.098665
0.470222 0.461891 0.113008
0.471138 0.429633 0.128511
0.464546 0.397436 0.143282
0.482795 0.381659 0.147982
0.581872 0.405066 0.124269
0.680415 0.426459 0.085878
0.771206 0.443244 0.000000
0.854948 0.455604 0.000000
0.929046 0.461646 0.000000
0.992248 0.458991 0.000000
1.000000 0.443549 0.000000
1.000000 0.424323 0.031891
0.402991 0.515099 0.429938
0.406104 0.517205 0.432013
0.409094 0.518090 0.433509
0.412543 0.517784 0.434730
0.416449 0.515465 0.435401
0.420325 0.511376 0.435645
0.425483 0.506279 0.435981
0.431861 0.500389 0.436927
0.439277 0.494301 0.438758
0.448371 0.487648 0.441718
0.457710 0.480781 0.445411
0.466621 0.473030 0.449775
0.473915 0.463996 0.454017
0.479438 0.453956 0.458625
0.446418 0.467475 0.424292
0.398749 0.497261 0.354986
0.382116 0.521721 0.284855
0.399481 0.541314 0.213687
0.442756 0.556573 0.135317
0.497993 0.567834 0.000000
0.517937 0.540673 0.000000
0.524468 0.505760 0.000000
0.521813 0.468635 0.077699
0.511681 0.431556 0.114382
0.515129 0.406470 0.129427
0.617792 0.434791 0.088197
0.716609 0.460975 0.000000
0.808164 0.483192 0.000000
0.890623 0.500450 0.000000
0.960754 0.508690 0.000000
1.000000 0.507500 0.000000
1.000000 0.496162 0.000000
0.454231 0.560174 0.468788
0.456611 0.561975 0.470619
0.459632 0.563073 0.472389
0.463050 0.562676 0.473793
0.466773 0.560998 0.474678
0.470588 0.557427 0.474922
0.475410 0.552972 0.475532
0.481300 0.547570 0.476478
0.488716 0.542046 0.478279
0.497078 0.536065 0.481117
0.506188 0.529442 0.484688
0.515343 0.522393 0.489052
0.523491 0.513756 0.493446
0.530419 0.504540 0.498329
0.535546 0.494209 0.503410
0.480995 0.523888 0.439307
0.441077 0.552636 0.362707
0.432624 0.575799 0.282689
0.455451 0.594324 0.195315
0.500816 0.608484 0.038025
0.555322 0.618769 0.000000
0.573327 0.588952 0.000000
0.581689 0.554528 0.000000
0.581628 0.517266 0.000000
0.552850 0.463294 0.046876
0.542290 0.429114 0.106508
0.648066 0.462837 0.000000
0.747768 0.494057 0.000000
0.839414 0.521386 0.000000
0.919493 0.541588 0.000000
0.986267 0.551873 0.000000
1.000000 0.551476 0.000000
0.531579 0.626642 0.532403
0.535485 0.629633 0.535607
0.537896 0.630488 0.537224
0.539086 0.628809 0.537011
0.539574 0.624903 0.535515
0.539910 0.619440 0.533318
0.540490 0.612451 0.530724
0.542107 0.604425 0.528435
0.545068 0.596155 0.526940
0.549615 0.587854 0.526757
0.554284 0.578668 0.526818
0.560204 0.569574 0.528405
0.565911 0.559747 0.530541
0.570306 0.548760 0.532647
0.573297 0.536339 0.534661
0.557214 0.535576 0.517876
0.499977 0.564874 0.441016
0.467262 0.589990 0.359136
0.465736 0.611292 0.272129
0.493629 0.629114 0.171756
0.540337 0.643275 0.000000
0.592523 0.651911 0.000000
0.608820 0.621027 0.000000
0.616876 0.586053 0.000000
0.615473 0.547082 0.000000
0.605737 0.506035 0.000000
0.597009 0.470558 0.000000
0.686976 0.498970 0.000000
0.785580 0.533959 0.000000
0.874418 0.564385 0.000000
0.949218 0.584894 0.000000
1.000000 0.594476 0.000000
0.568200 0.660700 0.565576
0.571588 0.663478 0.568536
0.574456 0.664668 0.570520
0.576501 0.664088 0.571252
0.578424 0.662165 0.571374
0.580621 0.658869 0.571069
0.583917 0.655207 0.571130
0.588128 0.650568 0.571557
0.593591 0.645533 0.572625
0.600000 0.640284 0.574487
0.606561 0.633967 0.576501
0.613519 0.627192 0.579126
0.619715 0.619104 0.581628
0.624903 0.609491 0.583917
0.628656 0.598474 0.585931
0.631067 0.586236 0.587976
0.594873 0.600122 0.544671
0.546258 0.626947 0.464515
0.520439 0.650446 0.373510
0.524346 0.670436 0.272343
0.553918 0.686580 0.140352
0.599237 0.698909 0.000000
0.646265 0.702876 0.000000
0.664240 0.674006 0.000000
0.674983 0.641077 0.000000
0.677882 0.604425 0.000000
0.673762 0.565484 0.000000
0.672419 0.532891 0.000000
0.751095 0.558740 0.000000
0.847868 0.599359 0.000000
0.928588 0.628748 0.000000
0.994293 0.645441 0.000000
0.621851 0.710384 0.616754
0.623590 0.711635 0.618311
0.624872 0.711940 0.619104
0.626184 0.711025 0.619348
0.627436 0.708858 0.618952
0.629053 0.705867 0.618433
0.631312 0.702235 0.617914
0.634577 0.698024 0.617914
0.638758 0.693385 0.618341
0.643977 0.688502 0.619623
0.649653 0.682856 0.621149
0.655970 0.676753 0.623407
0.662104 0.669642 0.625818
0.667384 0.661372 0.627985
0.671595 0.651484 0.629816
0.674647 0.640558 0.631556
0.676753 0.628992 0.633936
0.625452 0.656123 0.565759
0.585779 0.681392 0.483680
0.567376 0.703639 0.386450
0.575555 0.721828 0.272801
0.605280 0.735592 0.094636
0.648127 0.745113 0.000000
0.690150 0.744808 0.000000
0.709590 0.718685 0.000000
0.722225 0.688380 0.000000
0.727871 0.653956 0.000000
0.727077 0.616693 0.000000
0.731807 0.587945 0.000000
0.800107 0.610620 0.000000
0.892088 0.652613 0.000000
0.965972 0.679530 0.000000
0.665522 0.747982 0.659876
0.666835 0.748836 0.661067
0.668330 0.749294 0.662196
0.669947 0.749111 0.662959
0.672236 0.748409 0.663905
0.675624 0.747890 0.665644
0.681392 0.748074 0.669123
0.688472 0.748684 0.673762
0.697139 0.749477 0.679530
0.706661 0.750454 0.686183
0.716762 0.751369 0.693568
0.726406 0.751431 0.700526
0.735470 0.750423 0.707088
0.743404 0.748043 0.712734
0.749783 0.743893 0.717250
0.754177 0.737484 0.720241
0.757565 0.729946 0.723049
0.745052 0.732937 0.706874
0.705989 0.755459 0.644495
0.676356 0.775723 0.566278
0.662318 0.793210 0.467720
0.667842 0.807095 0.338628
0.692439 0.816770 0.139651
0.729610 0.822843 0.000000
0.766995 0.820066 0.000000
0.790951 0.801358 0.000000
0.810605 0.779995 0.000000
0.825528 0.755581 0.000000
0.835477 0.728145 0.000000
0.850950 0.708736 0.000000
0.904814 0.723995 0.000000
0.975830 0.750393 0.000000
0.742977 0.809079 0.738643
0.743069 0.809049 0.738705
0.743191 0.808652 0.738521
0.743374 0.807797 0.738125
0.743954 0.806577 0.737819
0.744961 0.805142 0.737636
0.746761 0.803555 0.737911
0.749355 0.801846 0.738643
0.752895 0.800137 0.740047
0.757137 0.798398 0.742092
0.761898 0.796445 0.744472
0.767056 0.794339 0.747311
0.772274 0.791592 0.750179
0.777127 0.788266 0.752956
