20 Preset/Dark Style/【3】LUT video cho PR-AE-FCPX/19Tones (5)/19 tones skin _ colours.cube
# Created by Adobe Lightroom plugin Export LUT (1.24.0)
# www.johnrellis.com/lightroom/exportlut.htm
# Preset: 19 tones skin + colours
# Color profile: E:\lut插件\exportlut.1.24\exportlut.lrplugin\color profiles\Rec709gamma2.4.icc
LUT_3D_SIZE 8
DOMAIN_MIN 0.000000 0.000000 0.000000
DOMAIN_MAX 0.903226 0.903226 0.903226
0.000000 0.095399 0.116915
0.000000 0.093080 0.114168
0.000000 0.087007 0.105989
0.146426 0.093324 0.102174
0.377935 0.089509 0.110994
0.670832 0.131655 0.141390
0.929046 0.343206 0.230655
1.000000 0.496132 0.362493
0.000000 0.087617 0.108644
0.000000 0.088869 0.108217
0.000000 0.089052 0.107851
0.122866 0.098421 0.100771
0.329595 0.108186 0.101595
0.612299 0.133577 0.122042
0.867430 0.290196 0.184573
1.000000 0.459113 0.309453
0.000000 0.112428 0.125734
0.000000 0.108278 0.124208
0.000000 0.100984 0.124239
0.125978 0.137240 0.115511
0.375189 0.169711 0.095491
0.671748 0.237034 0.117281
0.917540 0.400916 0.198917
1.000000 0.525719 0.319493
0.000000 0.287114 0.252232
0.000000 0.282048 0.253544
0.000000 0.252354 0.249363
0.218173 0.266941 0.287419
0.404669 0.364996 0.317449
0.727016 0.426337 0.191409
0.918639 0.502525 0.195102
1.000000 0.583459 0.316106
0.000000 0.529717 0.454108
0.000000 0.522210 0.452766
0.070253 0.494911 0.447272
0.373144 0.438697 0.438880
0.460365 0.449134 0.471138
0.540124 0.519951 0.542504
0.816648 0.626307 0.422980
0.981445 0.653346 0.320378
0.000000 0.740902 0.658808
0.000000 0.753109 0.676295
0.351720 0.737057 0.676539
0.488930 0.695399 0.660090
0.625299 0.620264 0.640742
0.674189 0.665766 0.688869
0.728298 0.731228 0.752071
0.872618 0.810330 0.729183
0.521233 0.868070 0.813291
0.546014 0.868040 0.816617
0.601129 0.859586 0.817777
0.645380 0.842527 0.811185
0.703273 0.809812 0.799008
0.769741 0.780880 0.799344
0.796750 0.811643 0.828428
0.825101 0.842222 0.857145
0.757778 0.929442 0.901610
0.763027 0.928710 0.902037
0.780789 0.926268 0.903593
0.800168 0.921721 0.904021
0.800290 0.899870 0.888273
0.840269 0.886931 0.889952
0.869688 0.886992 0.898772
0.881895 0.898589 0.909453
0.000000 0.091859 0.106508
0.000000 0.090028 0.110048
0.000000 0.084565 0.104829
0.111177 0.092805 0.110567
0.318120 0.104341 0.127901
0.587549 0.131960 0.158999
0.834134 0.266667 0.212284
0.986053 0.425574 0.294804
0.000000 0.087495 0.103883
0.000000 0.085481 0.104097
0.000000 0.084627 0.104433
0.115541 0.097261 0.110628
0.312840 0.114992 0.126284
0.574426 0.145815 0.154910
0.803738 0.254246 0.198734
0.965820 0.405188 0.270176
0.000000 0.117189 0.129976
0.000000 0.116182 0.129763
0.000000 0.107118 0.131441
0.133700 0.136934 0.122621
0.343175 0.164218 0.124819
0.596551 0.213840 0.153262
0.826596 0.325872 0.203677
0.982300 0.469154 0.291844
0.000000 0.266056 0.235538
0.000000 0.262608 0.236240
0.000000 0.245670 0.240208
0.164126 0.229099 0.251438
0.311955 0.297032 0.261418
0.615167 0.335027 0.168795
0.828336 0.414862 0.187350
0.972229 0.524834 0.277653
0.000000 0.516014 0.438575
0.000000 0.505638 0.434028
0.000000 0.478950 0.431067
0.320867 0.415442 0.410071
0.405554 0.404730 0.425269
0.490272 0.472023 0.488136
0.778439 0.577600 0.382055
0.961273 0.615869 0.280339
0.000000 0.716670 0.630579
0.000000 0.714321 0.632258
0.256840 0.701778 0.637964
0.441352 0.665431 0.627314
0.590112 0.596887 0.612726
0.655512 0.643793 0.667384
0.712123 0.711513 0.733181
0.864683 0.792996 0.702083
0.439918 0.856046 0.793027
0.452979 0.851865 0.790616
0.530999 0.842191 0.792081
0.601007 0.825620 0.788907
0.677668 0.795834 0.781949
0.752926 0.760983 0.780453
0.778073 0.790585 0.808530
0.806577 0.822385 0.838560
0.730251 0.923949 0.892363
0.740352 0.924285 0.894469
0.764309 0.921477 0.896880
0.785611 0.916777 0.897429
0.812345 0.907347 0.896422
0.843046 0.890715 0.893187
0.868193 0.885527 0.897429
0.880278 0.897063 0.908049
0.000000 0.089113 0.127626
0.000000 0.087892 0.122316
0.000000 0.090028 0.110353
0.103059 0.083894 0.157748
0.341924 0.079683 0.203006
0.648432 0.249943 0.316381
0.870512 0.400855 0.408087
0.987335 0.529076 0.489174
0.000000 0.091829 0.145388
0.000000 0.091310 0.141390
0.000000 0.096468 0.124483
0.106233 0.094240 0.162875
0.335210 0.114321 0.206424
0.626825 0.273777 0.320073
0.845457 0.379187 0.381567
0.977234 0.508537 0.460639
0.000000 0.133303 0.191714
0.000000 0.133486 0.192233
0.000000 0.136690 0.193332
0.158968 0.158267 0.202029
0.400336 0.242679 0.268376
0.654292 0.312688 0.319554
0.854704 0.417700 0.378943
0.977752 0.535882 0.459083
0.000000 0.339635 0.296818
0.000000 0.345159 0.299199
0.000000 0.336950 0.303044
0.248783 0.297917 0.314214
0.428138 0.353887 0.313481
0.679011 0.392096 0.303899
0.862913 0.488136 0.366674
0.975799 0.583642 0.449683
0.000000 0.568383 0.479744
0.000000 0.563500 0.478523
0.000000 0.547631 0.479774
0.335149 0.512657 0.488472
0.478614 0.464607 0.487068
0.568811 0.534417 0.531640
0.814328 0.599176 0.428962
0.964111 0.639704 0.411231
0.000000 0.747066 0.652430
0.000000 0.746456 0.654963
0.000000 0.733974 0.657191
0.435370 0.707820 0.664271
0.580041 0.644190 0.643000
0.668330 0.658869 0.682155
0.728847 0.731868 0.752682
0.875395 0.801938 0.720180
0.392462 0.873106 0.805936
0.410224 0.869810 0.804410
0.493050 0.859281 0.803403
0.617060 0.843778 0.808316
0.681727 0.816068 0.798672
0.762325 0.774868 0.792844
0.793698 0.808255 0.825223
0.824949 0.842039 0.856992
0.713100 0.929107 0.893828
0.717464 0.927764 0.893523
0.744228 0.924681 0.895811
0.789609 0.921935 0.902434
0.814328 0.912871 0.900938
0.846067 0.899168 0.899474
0.874235 0.891325 0.902770
0.886290 0.902678 0.913176
0.000000 0.109926 0.240970
0.000000 0.111635 0.241550
0.000000 0.119600 0.222232
0.018769 0.155978 0.183810
0.214267 0.131746 0.271122
0.575311 0.010101 0.369970
0.830777 0.282933 0.467872
0.953674 0.557275 0.613794
0.000000 0.126925 0.280491
0.000000 0.128542 0.276249
0.000000 0.137423 0.252934
0.044160 0.173861 0.209293
0.237858 0.153384 0.289067
0.585351 0.122683 0.380560
0.829709 0.310948 0.474556
0.947112 0.578363 0.625483
0.000000 0.160861 0.351720
0.000000 0.166384 0.348425
0.000000 0.194034 0.331579
0.109194 0.224826 0.285924
0.308507 0.237797 0.342992
0.645930 0.281743 0.442298
0.871702 0.478065 0.565332
0.938018 0.682643 0.701717
0.000000 0.336278 0.451606
0.000000 0.334874 0.448493
0.000000 0.338354 0.445686
0.168826 0.350103 0.445624
0.421180 0.378149 0.432471
0.676081 0.464424 0.512291
0.841367 0.593439 0.606195
0.940154 0.676173 0.664637
0.000000 0.622400 0.589563
0.000000 0.619196 0.585443
0.000000 0.620356 0.582208
0.000000 0.637140 0.587427
0.543297 0.587182 0.593133
0.672419 0.609216 0.588342
0.851499 0.641291 0.569085
0.944091 0.707179 0.635676
0.000000 0.820706 0.722103
0.000000 0.828214 0.732815
0.000000 0.814878 0.729458
0.263371 0.794430 0.732753
0.610864 0.759091 0.741085
0.713100 0.712673 0.734310
0.767025 0.777707 0.796353
0.895933 0.811887 0.745113
0.149203 0.897917 0.822141
0.245548 0.896910 0.823789
0.415869 0.890532 0.827543
0.584039 0.878477 0.834775
0.717220 0.859831 0.841886
0.774044 0.826688 0.831174
0.813230 0.829557 0.845304
0.843351 0.861021 0.874662
0.688838 0.942504 0.901701
0.696193 0.941650 0.902129
0.726467 0.938384 0.904234
0.777279 0.933165 0.909056
0.824094 0.925261 0.912383
0.850706 0.912596 0.909575
0.882261 0.898894 0.909728
0.896239 0.911925 0.921660
0.000000 0.178195 0.435737
0.000000 0.183474 0.437110
0.000000 0.196384 0.418585
0.000000 0.231693 0.381781
0.263828 0.300084 0.321538
0.349737 0.259953 0.410315
0.742977 0.205570 0.579522
0.945922 0.403510 0.657618
0.000000 0.203067 0.469306
0.000000 0.208774 0.471077
0.000000 0.220981 0.450355
0.000000 0.249638 0.404303
0.280217 0.315221 0.343511
0.365820 0.278843 0.422889
0.748409 0.232944 0.585962
0.944305 0.426429 0.662379
0.000000 0.267735 0.547265
0.000000 0.275486 0.544640
0.000000 0.286717 0.524102
0.000000 0.311406 0.483009
0.318029 0.355505 0.410163
0.398901 0.333074 0.447883
0.754025 0.311345 0.595026
0.931273 0.493568 0.670039
0.000000 0.356390 0.639582
0.000000 0.356451 0.638148
0.000000 0.361547 0.638392
0.149447 0.419806 0.615106
0.409644 0.452674 0.551659
0.511437 0.463874 0.541100
0.797604 0.464759 0.646143
0.919738 0.648768 0.728450
0.000000 0.570153 0.705043
0.000000 0.571588 0.705684
0.000000 0.571984 0.703731
0.000000 0.572503 0.699763
0.445136 0.571496 0.688716
0.623255 0.607263 0.638575
0.809476 0.672419 0.720058
0.895354 0.779690 0.794461
0.000000 0.753719 0.744228
0.000000 0.755154 0.745083
0.000000 0.754757 0.742153
0.000000 0.765499 0.746944
0.329870 0.773251 0.746944
0.686915 0.763607 0.765042
0.796078 0.786740 0.783566
0.909789 0.798489 0.762997
0.000000 0.923735 0.835111
0.000000 0.921111 0.833616
0.000000 0.912779 0.831785
0.321294 0.901152 0.837858
0.613977 0.883268 0.846921
0.768185 0.859525 0.853941
0.817411 0.834073 0.849516
0.849699 0.867369 0.880583
0.512200 0.953521 0.892454
0.528435 0.952270 0.892851
0.590936 0.947662 0.895232
0.699306 0.942779 0.905028
0.785733 0.934173 0.912230
0.846952 0.923613 0.916564
0.877653 0.906401 0.912902
0.896513 0.912169 0.921874
0.000000 0.319585 0.689540
0.000000 0.324834 0.689113
0.000000 0.334295 0.669123
0.000000 0.365972 0.644404
0.267308 0.416938 0.598016
0.501274 0.484596 0.508049
0.546502 0.440742 0.608484
0.875303 0.431739 0.782956
0.000000 0.323461 0.681575
0.000000 0.325628 0.677607
0.000000 0.335454 0.660975
0.000000 0.362768 0.635279
0.251377 0.406592 0.585565
0.486152 0.473396 0.501305
0.535027 0.436408 0.596094
0.865751 0.425757 0.772305
0.000000 0.408576 0.753841
0.000000 0.409613 0.750057
0.000000 0.418097 0.737270
0.000000 0.424842 0.695827
0.313329 0.457221 0.644953
0.521263 0.515618 0.566064
0.577234 0.496803 0.632563
0.872984 0.490974 0.785763
0.000000 0.475685 0.817685
0.000000 0.478950 0.813474
0.000000 0.503441 0.805478
0.240787 0.546532 0.795926
0.452735 0.576074 0.761654
0.601617 0.616663 0.695186
0.661982 0.617792 0.712642
0.889525 0.614740 0.816037
0.000000 0.575158 0.835386
0.000000 0.575006 0.834623
0.000000 0.575921 0.833097
0.000000 0.581842 0.832212
0.495705 0.636866 0.812650
0.633021 0.672328 0.767269
0.704677 0.689509 0.746670
0.893217 0.688655 0.812589
0.000000 0.736446 0.852049
0.000000 0.740566 0.854887
0.000000 0.740108 0.853025
0.000000 0.740719 0.850095
0.441840 0.743404 0.844602
0.671534 0.763119 0.843137
0.786160 0.798764 0.822080
0.893767 0.844205 0.867430
0.000000 0.894957 0.888121
0.000000 0.896269 0.889281
0.000000 0.896300 0.888121
0.196963 0.896910 0.886320
0.510033 0.903288 0.888396
0.702968 0.898650 0.883116
0.833494 0.876677 0.882597
0.881559 0.887846 0.888975
0.000000 0.978882 0.901946
0.000000 0.977417 0.901518
0.281865 0.972320 0.902525
0.517235 0.963836 0.907256
0.684871 0.951690 0.913359
0.808011 0.939117 0.921508
0.878050 0.926146 0.925750
0.903014 0.918120 0.927306
0.000000 0.452918 0.839475
0.000000 0.458656 0.840482
0.000000 0.468238 0.832639
0.000000 0.491493 0.818936
0.239567 0.524834 0.789944
0.492866 0.574121 0.739467
0.645350 0.634272 0.662715
0.664698 0.591028 0.741817
0.000000 0.451789 0.833036
0.000000 0.458198 0.834806
0.000000 0.467048 0.827298
0.000000 0.485115 0.810697
0.216342 0.514977 0.780240
0.473732 0.558190 0.725917
0.629328 0.615198 0.641749
0.644129 0.568902 0.719692
0.000000 0.504570 0.858000
0.000000 0.506310 0.856474
0.000000 0.511528 0.848173
0.000000 0.526299 0.832700
0.302251 0.550164 0.803586
0.505882 0.591272 0.757565
0.660121 0.654200 0.686702
0.684230 0.628199 0.756374
0.000000 0.574456 0.887724
0.000000 0.576593 0.885008
0.000000 0.584314 0.877897
0.256016 0.599634 0.866941
0.430396 0.621485 0.845335
0.575830 0.660243 0.812680
0.700465 0.712978 0.760220
0.729091 0.700282 0.793637
0.000000 0.583703 0.907225
0.000000 0.584955 0.904814
0.000000 0.600000 0.899199
0.294224 0.637842 0.890532
0.518273 0.684291 0.874632
0.624537 0.712123 0.848814
0.723171 0.750149 0.808133
0.770840 0.762509 0.826017
0.000000 0.707362 0.914031
0.000000 0.708217 0.914092
0.000000 0.710628 0.913420
0.225162 0.716609 0.912016
0.500603 0.729091 0.908659
0.702358 0.790921 0.895628
0.781613 0.819852 0.872007
0.822171 0.827573 0.865415
0.000000 0.839139 0.924376
0.000000 0.840391 0.924804
0.000000 0.841642 0.924071
0.367102 0.845487 0.922942
0.558495 0.851194 0.920317
0.703487 0.860014 0.916991
0.814115 0.871275 0.913481
0.877470 0.884154 0.904845
0.000000 0.947265 0.940703
0.000000 0.947417 0.940734
0.321630 0.948638 0.941466
0.482338 0.949706 0.941070
0.617731 0.953063 0.941375
0.738643 0.954559 0.939818
0.847715 0.949340 0.938903
0.912902 0.932525 0.938659
0.000000 0.577447 0.919982
0.000000 0.581262 0.919799
0.000000 0.587488 0.914733
0.107424 0.608759 0.907683
0.393194 0.640467 0.894469
0.550103 0.681971 0.872557
0.678309 0.733700 0.839841
0.759030 0.771878 0.798734
0.000000 0.576074 0.917571
0.000000 0.580011 0.917540
0.000000 0.587915 0.913390
0.092927 0.607141 0.905852
0.387152 0.637537 0.892576
0.544121 0.677974 0.870573
0.670436 0.726864 0.836301
0.753231 0.764797 0.791470
0.000000 0.599786 0.921599
0.000000 0.602136 0.920989
0.000000 0.608209 0.916655
0.264836 0.632074 0.911803
0.430243 0.657404 0.898314
0.561791 0.691402 0.876341
0.679133 0.737148 0.844816
0.764157 0.776150 0.798581
0.015290 0.641413 0.929870
0.142367 0.644434 0.929534
0.251316 0.650874 0.926085
0.378882 0.668330 0.920195
0.497322 0.693477 0.909148
0.606470 0.725887 0.891051
0.705226 0.765042 0.864836
0.786984 0.802060 0.821988
0.000000 0.658350 0.942229
0.109987 0.663722 0.941863
0.299138 0.678248 0.938079
0.471534 0.712398 0.931365
0.556329 0.732143 0.921355
0.644099 0.758511 0.905974
0.729458 0.791714 0.884703
0.805020 0.826566 0.853117
0.000000 0.677150 0.956481
0.000000 0.675929 0.955840
0.000000 0.674556 0.954040
0.325322 0.701900 0.948272
0.555261 0.753994 0.938933
0.707118 0.810575 0.928252
0.781888 0.841184 0.915862
0.842924 0.868528 0.896300
0.000000 0.804196 0.960662
0.000000 0.804532 0.960388
0.228580 0.806485 0.959411
0.423438 0.813474 0.958007
0.582971 0.826444 0.955810
0.717464 0.846036 0.953399
0.830838 0.885618 0.942992
0.872953 0.899474 0.926543
0.314519 0.903960 0.964263
0.333867 0.904082 0.964019
0.413092 0.905394 0.963531
0.530510 0.909270 0.962982
0.646479 0.914824 0.961975
0.748989 0.921874 0.960601
0.837369 0.930144 0.959197
0.906615 0.937621 0.957305
