20 Preset/Dark Style/【3】LUT video cho PR-AE-FCPX/19Tones (5)/19 tones skin _ colours.cube
# Created by Adobe Lightroom plugin Export LUT (1.24.0)
# www.johnrellis.com/lightroom/exportlut.htm
# Preset: 19 tones skin + colours
# Color profile: E:\lut插件\exportlut.1.24\exportlut.lrplugin\color profiles\Rec709gamma2.4.icc
LUT_3D_SIZE 32
DOMAIN_MIN 0.0 0.0 0.0
DOMAIN_MAX 1.0 1.0 1.0
0.000000 0.095399 0.116915
0.000000 0.095399 0.116915
0.000000 0.094972 0.116640
0.000000 0.094392 0.115816
0.000000 0.093080 0.114168
0.000000 0.091249 0.111879
0.000000 0.089265 0.110201
0.000000 0.088289 0.108003
0.000000 0.087007 0.105989
0.000458 0.087190 0.104463
0.053285 0.088624 0.102937
0.104646 0.090730 0.102144
0.146426 0.093324 0.102174
0.196963 0.094759 0.103182
0.254307 0.094179 0.104829
0.314977 0.092836 0.107362
0.377935 0.089509 0.110994
0.442664 0.086793 0.115328
0.509148 0.088167 0.121309
0.576806 0.097963 0.128450
0.670832 0.131655 0.141390
0.761563 0.187778 0.160128
0.831174 0.243839 0.181704
0.886717 0.296513 0.205142
0.929046 0.343206 0.230655
0.961761 0.384649 0.258732
0.988342 0.423011 0.289128
1.000000 0.459785 0.323674
1.000000 0.496132 0.362493
1.000000 0.533288 0.406867
1.000000 0.572137 0.457618
1.000000 0.612665 0.513237
0.000000 0.095399 0.116915
0.000000 0.095399 0.116915
0.000000 0.094972 0.116640
0.000000 0.094392 0.115816
0.000000 0.093080 0.114168
0.000000 0.091249 0.112215
0.000000 0.089723 0.110475
0.000000 0.088380 0.108339
0.000000 0.087160 0.106325
0.000000 0.087587 0.104463
0.042054 0.088685 0.102998
0.097688 0.090394 0.102327
0.137392 0.092744 0.102174
0.185336 0.094728 0.102663
0.240269 0.095094 0.104250
0.299809 0.093935 0.106203
0.362585 0.091463 0.109865
0.426978 0.088472 0.113863
0.492958 0.088960 0.118990
0.560143 0.096345 0.125978
0.650690 0.124086 0.137911
0.738216 0.172183 0.154025
0.806668 0.223484 0.172824
0.862577 0.273198 0.193606
0.907652 0.319158 0.216526
0.943389 0.360937 0.241794
0.973083 0.400458 0.270542
0.998138 0.438666 0.303593
1.000000 0.476509 0.341253
1.000000 0.515007 0.384985
1.000000 0.554681 0.434791
1.000000 0.596307 0.491005
0.000000 0.094636 0.116091
0.000000 0.094636 0.116091
0.000000 0.094636 0.116091
0.000000 0.093629 0.115908
0.000000 0.092256 0.114565
0.000000 0.090883 0.112581
0.000000 0.089265 0.110842
0.000000 0.088380 0.108675
0.000000 0.087892 0.106630
0.000000 0.088167 0.104768
0.037079 0.089296 0.103334
0.094026 0.091249 0.102266
0.131930 0.093812 0.101839
0.178042 0.095979 0.102113
0.231510 0.097047 0.103151
0.289982 0.096590 0.104982
0.351507 0.094911 0.108003
0.415961 0.092897 0.111971
0.481758 0.092287 0.116762
0.548974 0.098726 0.123171
0.640650 0.123964 0.134615
0.726009 0.167819 0.149477
0.793790 0.215732 0.166690
0.849668 0.263188 0.186191
0.895598 0.308141 0.207645
0.932677 0.349340 0.232029
0.964080 0.389044 0.259342
0.990784 0.427832 0.291234
1.000000 0.466407 0.328740
1.000000 0.505577 0.372168
1.000000 0.545403 0.421546
1.000000 0.586999 0.477058
0.000000 0.091402 0.113069
0.000000 0.091402 0.113069
0.000000 0.091920 0.113039
0.000000 0.092012 0.112703
0.000000 0.090486 0.111940
0.000000 0.089174 0.112764
0.000000 0.088808 0.111177
0.000000 0.088289 0.109316
0.000000 0.088258 0.107240
0.000000 0.088960 0.105013
0.034638 0.090639 0.103548
0.091768 0.092775 0.102144
0.128817 0.095521 0.101350
0.173098 0.098451 0.101289
0.223972 0.100221 0.101747
0.279667 0.101381 0.103120
0.339025 0.100587 0.105226
0.400488 0.099641 0.108614
0.464393 0.099825 0.112978
0.529534 0.104738 0.118257
0.619379 0.123964 0.128298
0.699947 0.158755 0.140780
0.767147 0.201175 0.155337
0.825803 0.246677 0.173587
0.876585 0.292668 0.194339
0.919524 0.337438 0.219211
0.955444 0.380682 0.247654
0.985473 0.422126 0.281590
1.000000 0.462257 0.319890
1.000000 0.501884 0.363745
1.000000 0.541161 0.412299
1.000000 0.581048 0.465980
0.000000 0.087617 0.108644
0.000000 0.087739 0.108644
0.000000 0.087739 0.108644
0.000000 0.088869 0.108553
0.000000 0.088869 0.108217
0.000000 0.088045 0.107637
0.000000 0.085725 0.108827
0.000000 0.088289 0.109621
0.000000 0.089052 0.107851
0.000000 0.090303 0.105898
0.030243 0.092073 0.103761
0.087221 0.095216 0.101900
0.122866 0.098421 0.100771
0.165225 0.102113 0.100008
0.214664 0.105074 0.099794
0.270420 0.107210 0.100496
0.329595 0.108186 0.101595
0.391730 0.108614 0.104463
0.455512 0.109926 0.108156
0.526818 0.115572 0.113436
0.612299 0.133577 0.122042
0.689204 0.163607 0.132723
0.755581 0.201785 0.146426
0.814908 0.244785 0.163577
0.867430 0.290196 0.184573
0.912474 0.335088 0.209323
0.949859 0.377996 0.237675
0.980896 0.419196 0.271031
1.000000 0.459113 0.309453
1.000000 0.497871 0.352270
1.000000 0.536248 0.400061
1.000000 0.575189 0.452705
0.000000 0.083833 0.105196
0.000000 0.083833 0.105196
0.000000 0.083955 0.105196
0.000000 0.083955 0.104860
0.000000 0.084840 0.104829
0.000000 0.084840 0.104829
0.000000 0.084230 0.104524
0.000000 0.084230 0.104860
0.000000 0.088258 0.105226
0.000000 0.092592 0.105623
0.035462 0.095460 0.103670
0.090394 0.099153 0.101717
0.124636 0.103578 0.100038
0.167056 0.107912 0.098726
0.216159 0.112490 0.097810
0.271336 0.115724 0.097566
0.330510 0.118227 0.098421
0.392554 0.120272 0.100343
0.456611 0.123354 0.103182
0.537469 0.132448 0.108248
0.618952 0.150881 0.115694
0.693446 0.179599 0.125521
0.888609 0.325658 0.181949
0.933684 0.372381 0.210636
0.967712 0.413367 0.242771
0.994202 0.449928 0.277226
1.000000 0.483467 0.314183
1.000000 0.515038 0.353307
1.000000 0.546441 0.395453
1.000000 0.578180 0.441108
1.000000 0.610346 0.489204
1.000000 0.642481 0.538018
0.000000 0.087953 0.105989
0.000000 0.087953 0.105989
0.000000 0.087953 0.105653
0.000000 0.086488 0.105074
0.000000 0.085756 0.104768
0.000000 0.084993 0.104494
0.000000 0.084840 0.104829
0.000000 0.085603 0.105104
0.000000 0.089601 0.104738
0.000732 0.095674 0.102785
0.064027 0.102968 0.101076
0.117647 0.110170 0.099245
0.157778 0.115908 0.097780
0.203891 0.121767 0.096864
0.255558 0.126864 0.096345
0.310643 0.130922 0.096864
0.369207 0.135012 0.098634
0.430152 0.139284 0.100526
0.507866 0.148501 0.104646
0.600214 0.168307 0.112032
0.688655 0.200320 0.122805
0.768948 0.244633 0.138857
0.839902 0.296422 0.160891
0.899779 0.349645 0.188144
0.945068 0.397009 0.218753
0.978058 0.436500 0.250065
1.000000 0.470466 0.283604
1.000000 0.502281 0.322606
1.000000 0.533227 0.364569
1.000000 0.563622 0.408942
1.000000 0.594903 0.456641
1.000000 0.626825 0.506523
0.000000 0.097047 0.112642
0.000000 0.096986 0.112642
0.000000 0.096559 0.112673
0.000000 0.095644 0.111788
0.000000 0.093935 0.110994
0.000000 0.091554 0.110231
0.000000 0.090028 0.110353
0.000000 0.090761 0.111238
0.000000 0.092012 0.112398
0.000000 0.096407 0.113436
0.021363 0.106264 0.108492
0.098970 0.116304 0.104067
0.151888 0.125277 0.098970
0.203708 0.132296 0.095918
0.253391 0.138308 0.095644
0.306218 0.143954 0.095949
0.362737 0.148959 0.097353
0.431189 0.156680 0.099245
0.513207 0.169436 0.103761
0.595056 0.187747 0.110170
0.675990 0.215610 0.120027
0.752041 0.253941 0.134310
0.821317 0.299992 0.153872
0.881468 0.349157 0.178286
0.929137 0.394690 0.207034
0.964477 0.433143 0.236393
0.991669 0.466041 0.266148
1.000000 0.495613 0.297185
1.000000 0.525444 0.336339
1.000000 0.555383 0.381262
1.000000 0.585870 0.429114
1.000000 0.617334 0.480507
0.000000 0.112428 0.125734
0.000000 0.112428 0.125734
0.000000 0.112032 0.125765
0.000000 0.111147 0.125582
0.000000 0.108278 0.124208
0.000000 0.104860 0.122591
0.000000 0.100740 0.121584
0.000000 0.099275 0.122225
0.000000 0.100984 0.124239
0.000000 0.102998 0.126711
0.000000 0.107698 0.131868
0.045075 0.123659 0.123659
0.125978 0.137240 0.115511
0.187747 0.147890 0.106752
0.252750 0.154879 0.097047
0.309026 0.160189 0.094209
0.375189 0.169711 0.095491
0.447547 0.180392 0.098085
0.521111 0.193637 0.102052
0.596185 0.211337 0.108034
0.671748 0.237034 0.117281
0.743343 0.271458 0.130251
0.810208 0.313176 0.148867
0.869444 0.358221 0.172183
0.917540 0.400916 0.198917
0.954101 0.437476 0.227237
0.982696 0.469398 0.256443
1.000000 0.498238 0.286931
1.000000 0.525719 0.319493
1.000000 0.552636 0.356634
1.000000 0.582086 0.405524
1.000000 0.612268 0.457221
0.000000 0.136599 0.144350
0.000000 0.136294 0.144381
0.000000 0.135683 0.144198
0.000000 0.134707 0.144717
0.000000 0.131106 0.143099
0.000000 0.126497 0.140841
0.000000 0.120577 0.138643
0.000000 0.114107 0.137575
0.000000 0.113741 0.138979
0.000000 0.116518 0.142123
0.000000 0.119814 0.145754
0.000000 0.124788 0.150729
0.077943 0.144839 0.146059
0.153811 0.162295 0.134218
0.229191 0.177981 0.123049
0.310063 0.189822 0.110170
0.391821 0.196384 0.093660
0.461707 0.207126 0.094148
0.531945 0.221134 0.098390
0.602930 0.239200 0.104524
0.672511 0.263127 0.113252
0.737148 0.292332 0.125978
0.797086 0.326787 0.141482
0.851408 0.364141 0.161990
0.897948 0.401160 0.185214
0.935790 0.434577 0.209964
0.966705 0.465614 0.237705
0.992554 0.494484 0.267430
1.000000 0.522393 0.300084
1.000000 0.549523 0.335454
1.000000 0.576532 0.374609
1.000000 0.606775 0.429084
0.000000 0.165286 0.165621
0.000000 0.165255 0.165621
0.000000 0.164736 0.165652
0.000000 0.163943 0.166293
0.000000 0.161624 0.165957
0.000000 0.156497 0.163973
0.000000 0.150118 0.161654
0.000000 0.142733 0.159731
0.000000 0.133944 0.158968
0.000000 0.135653 0.162142
0.000000 0.140047 0.166262
0.000031 0.145998 0.172305
0.013611 0.152712 0.178897
0.119112 0.180362 0.183230
0.208865 0.206851 0.168673
0.293065 0.224796 0.153017
0.376379 0.236484 0.135439
0.457954 0.243412 0.114839
0.535912 0.248600 0.091768
0.602289 0.265568 0.097932
0.667903 0.287205 0.107424
0.729397 0.313664 0.118898
0.787472 0.344915 0.134615
0.840818 0.379278 0.153841
0.887694 0.413855 0.176577
0.926177 0.445624 0.201389
0.958160 0.475074 0.228611
0.985107 0.502770 0.258335
1.000000 0.529503 0.291020
1.000000 0.555657 0.326024
1.000000 0.581415 0.363897
1.000000 0.607263 0.405737
0.000000 0.205875 0.194308
0.000000 0.206027 0.194583
0.000000 0.205478 0.194766
0.000000 0.204532 0.195163
0.000000 0.203067 0.196139
0.000000 0.198154 0.194553
0.000000 0.191287 0.192111
0.000000 0.182834 0.189883
0.000000 0.173495 0.188846
0.047089 0.164950 0.191012
0.074342 0.173098 0.198734
0.095033 0.182406 0.207431
0.183474 0.242679 0.264347
0.199771 0.254002 0.275090
0.260380 0.288304 0.290867
0.363867 0.322148 0.265476
0.460151 0.343694 0.238865
0.549676 0.357733 0.210300
0.632349 0.368383 0.178927
0.706661 0.377630 0.142214
0.769955 0.391821 0.116152
0.820890 0.419104 0.138827
0.866819 0.447395 0.163699
0.906065 0.474311 0.189883
0.938659 0.499001 0.218112
0.965667 0.521233 0.246952
0.987884 0.541497 0.275242
1.000000 0.560449 0.303990
1.000000 0.579309 0.334264
1.000000 0.598688 0.366918
1.000000 0.618647 0.401404
1.000000 0.639521 0.438575
0.000000 0.287114 0.252232
0.000000 0.286778 0.252262
0.000000 0.285924 0.252262
0.000000 0.284306 0.252628
0.000000 0.282048 0.253544
0.000000 0.277745 0.253635
0.000000 0.270726 0.251560
0.000000 0.261906 0.249729
0.000000 0.252354 0.249363
0.110475 0.241672 0.250919
0.172183 0.234623 0.256779
0.193942 0.249790 0.271061
0.218173 0.266941 0.287419
0.243931 0.285039 0.304906
0.263737 0.299229 0.318730
0.303410 0.327794 0.346685
0.404669 0.364996 0.317449
0.496651 0.388342 0.287724
0.581872 0.404547 0.257115
0.658442 0.416571 0.225559
0.727016 0.426337 0.191409
0.789700 0.435248 0.151736
0.841215 0.452888 0.141421
0.883207 0.478737 0.168276
0.918639 0.502525 0.195102
0.948669 0.524529 0.224430
0.973816 0.544976 0.253758
0.995239 0.564416 0.284306
1.000000 0.583459 0.316106
1.000000 0.602991 0.350042
1.000000 0.622675 0.385809
1.000000 0.643091 0.424353
0.000000 0.357427 0.306035
0.000000 0.356451 0.305425
0.000000 0.353796 0.304173
0.000000 0.350500 0.303349
0.000000 0.346044 0.302708
0.000000 0.340093 0.302220
0.000000 0.330724 0.298161
0.000000 0.320623 0.294743
0.000000 0.309697 0.292668
0.122011 0.298314 0.292638
0.196475 0.286564 0.295262
0.241917 0.283726 0.303593
0.264378 0.299626 0.319127
0.288090 0.316777 0.335943
0.310826 0.333288 0.352453
0.326879 0.345068 0.364355
0.356146 0.366827 0.386450
0.439826 0.403998 0.370642
0.529137 0.430640 0.338476
0.610742 0.449500 0.306126
0.683101 0.463844 0.274601
0.749538 0.475990 0.242069
0.809354 0.486519 0.207492
0.863249 0.495796 0.167422
0.903349 0.514183 0.175357
0.935393 0.535454 0.205844
0.962524 0.555200 0.236454
0.985687 0.573907 0.267796
1.000000 0.592370 0.301183
1.000000 0.611139 0.336431
1.000000 0.630182 0.373358
1.000000 0.649989 0.412879
0.000000 0.420996 0.358221
0.000000 0.420172 0.357916
0.000000 0.417273 0.356359
0.000000 0.412665 0.354253
0.000000 0.406317 0.351873
0.000000 0.399329 0.350317
0.000000 0.389776 0.346471
0.000000 0.378698 0.341588
0.000000 0.367468 0.338476
0.137758 0.356573 0.337560
0.215122 0.344671 0.338628
0.275883 0.331487 0.342321
0.312016 0.333989 0.353277
0.333349 0.349798 0.369146
0.354009 0.365209 0.384802
0.372107 0.378943 0.398810
0.386023 0.389624 0.409796
0.406287 0.405371 0.425940
0.475257 0.443549 0.427222
0.561517 0.473518 0.392981
0.638880 0.495216 0.360021
0.709041 0.512230 0.328405
0.772274 0.525994 0.296971
0.829679 0.537255 0.264225
0.879149 0.545220 0.230106
0.921782 0.550439 0.192996
0.951873 0.568383 0.218845
0.977203 0.587182 0.253391
0.999237 0.605982 0.289525
1.000000 0.625299 0.328466
1.000000 0.644953 0.370092
1.000000 0.665156 0.413886
0.000000 0.476478 0.406409
0.000000 0.476509 0.406653
0.000000 0.474952 0.406134
0.000000 0.472023 0.405402
0.000000 0.467628 0.404425
0.000000 0.462379 0.404242
0.000000 0.456458 0.403876
0.000000 0.447486 0.400366
0.000000 0.437537 0.397650
0.176120 0.426398 0.395605
0.246983 0.413703 0.394690
0.304540 0.398077 0.394171
0.355535 0.379339 0.394232
0.378210 0.383551 0.403540
0.393469 0.395300 0.415564
0.407782 0.406500 0.427131
0.422309 0.418067 0.439002
0.435096 0.428260 0.449592
0.448951 0.439643 0.461341
0.505577 0.479072 0.481453
0.589166 0.514092 0.448707
0.665553 0.540124 0.416938
0.733974 0.560204 0.386542
0.795712 0.576532 0.356847
0.849577 0.588403 0.327062
0.896086 0.596399 0.297307
0.936309 0.601526 0.267460
0.971069 0.605798 0.241947
0.993988 0.623377 0.280278
1.000000 0.640894 0.320470
1.000000 0.658473 0.361944
1.000000 0.676661 0.405921
0.000000 0.529717 0.454108
0.000000 0.529381 0.454017
0.000000 0.528130 0.453681
0.000000 0.525811 0.453223
0.000000 0.522210 0.452766
0.000000 0.518029 0.453040
0.000000 0.513298 0.454444
0.000000 0.504784 0.450721
0.070253 0.494911 0.447272
0.195987 0.483986 0.444373
0.265080 0.471321 0.442023
0.322179 0.456336 0.440223
0.373144 0.438697 0.438880
0.419348 0.417334 0.437629
0.433936 0.427344 0.448646
0.447303 0.438270 0.459907
0.460365 0.449134 0.471138
0.474311 0.460883 0.483223
0.487709 0.472419 0.495155
0.499702 0.483040 0.506035
0.540124 0.519951 0.542504
0.619837 0.558801 0.510979
0.692622 0.587793 0.480781
0.758694 0.609918 0.451331
0.816648 0.626307 0.422980
0.866667 0.637720 0.395605
0.910124 0.645441 0.369543
0.947967 0.650385 0.344610
0.981445 0.653346 0.320378
1.000000 0.658595 0.312871
1.000000 0.675135 0.356817
1.000000 0.692012 0.402716
0.000000 0.589593 0.509819
0.000000 0.590326 0.510704
0.000000 0.654688 0.573236
0.000000 0.652461 0.572900
0.000000 0.649165 0.572503
0.000000 0.644343 0.571954
0.000000 0.638605 0.572076
0.172824 0.630030 0.568811
0.247105 0.619776 0.564294
0.307164 0.608240 0.560174
0.361395 0.594842 0.556115
0.411261 0.578943 0.551995
0.456947 0.559045 0.546746
0.499214 0.535241 0.541100
0.532708 0.513512 0.537194
0.540948 0.521386 0.545190
0.548272 0.528588 0.552453
0.555688 0.535821 0.559838
0.564294 0.544457 0.568566
0.573236 0.553582 0.577752
0.582025 0.562646 0.586847
0.610620 0.593072 0.617273
0.672480 0.630854 0.601892
0.736751 0.657923 0.570733
0.792844 0.675196 0.539483
0.841733 0.685969 0.509606
0.884550 0.692287 0.480690
0.922759 0.696071 0.453590
0.956909 0.698573 0.429755
0.987854 0.700130 0.408392
1.000000 0.701167 0.389593
1.000000 0.707271 0.397040
0.000000 0.664576 0.581811
0.000000 0.670130 0.587457
0.000000 0.675288 0.593225
0.000000 0.678798 0.598352
0.000000 0.679988 0.602136
0.000000 0.677607 0.603571
0.021668 0.672938 0.604089
0.211490 0.665736 0.602533
0.268650 0.656184 0.597803
0.321050 0.645350 0.593286
0.369512 0.633295 0.589105
0.415595 0.619104 0.584771
0.458595 0.601526 0.579461
0.498939 0.581048 0.573785
0.536950 0.556573 0.567437
0.562341 0.542565 0.566644
0.570275 0.550530 0.574670
0.578607 0.559106 0.583307
0.587915 0.568750 0.592981
0.598413 0.579889 0.604150
0.609339 0.591730 0.615930
0.620722 0.604242 0.628351
0.644251 0.630793 0.654627
0.693965 0.668513 0.656886
0.752285 0.694911 0.627771
0.803708 0.711696 0.599268
0.849058 0.722377 0.572259
0.889616 0.729122 0.547051
0.925902 0.733761 0.524956
0.958648 0.737087 0.505913
0.988312 0.739345 0.489693
1.000000 0.740780 0.475593
0.000000 0.702449 0.619287
0.000000 0.707881 0.624903
0.000000 0.713100 0.630854
0.000000 0.716854 0.636194
0.000000 0.718318 0.640192
0.000000 0.716609 0.641932
0.175662 0.712459 0.642573
0.266361 0.706844 0.642634
0.308324 0.698360 0.638270
0.349615 0.688533 0.633692
0.391333 0.677333 0.629236
0.432013 0.664637 0.624781
0.471443 0.649287 0.619623
0.509300 0.631800 0.614435
0.545892 0.610773 0.608515
0.580713 0.586419 0.602350
0.598718 0.580224 0.604486
0.606439 0.588586 0.612818
0.614923 0.597864 0.622034
0.624475 0.608392 0.632502
0.634791 0.620020 0.644007
0.646387 0.633265 0.657038
0.658289 0.647089 0.670619
0.676875 0.669001 0.692042
0.714229 0.704036 0.708583
0.766537 0.729549 0.682643
0.813321 0.745815 0.657465
0.855436 0.756649 0.634089
0.893431 0.764279 0.614069
0.927764 0.769741 0.596979
0.958679 0.773739 0.582879
0.986572 0.776486 0.570764
0.000000 0.740902 0.658808
0.000000 0.745266 0.663508
0.000000 0.749203 0.668452
0.000000 0.752102 0.672908
0.000000 0.753109 0.676295
0.172457 0.751614 0.677913
0.251957 0.748257 0.678645
0.315343 0.743771 0.679408
0.351720 0.737057 0.676539
0.384436 0.728786 0.672633
0.418830 0.719387 0.668757
0.453712 0.708583 0.664759
0.488930 0.695399 0.660090
0.523644 0.680079 0.655055
0.557946 0.662440 0.649928
0.591638 0.642237 0.644770
0.625299 0.620264 0.640742
0.638972 0.624811 0.648707
0.649622 0.636988 0.660731
0.661402 0.650721 0.674159
0.674189 0.665766 0.688869
0.687495 0.681697 0.704372
0.700526 0.697444 0.719631
0.713649 0.713375 0.734951
0.728298 0.731228 0.752071
0.754696 0.761563 0.778103
0.797696 0.784573 0.760189
0.836851 0.799802 0.743618
0.872618 0.810330 0.729183
0.905211 0.817716 0.716732
0.934630 0.823026 0.706630
0.961273 0.826719 0.698024
0.212589 0.798734 0.722896
0.222995 0.800046 0.724575
0.240055 0.800595 0.725917
0.262394 0.800320 0.726894
0.291722 0.798795 0.727352
0.323156 0.796170 0.727260
0.360327 0.792691 0.727321
0.400671 0.788602 0.727749
0.428748 0.783352 0.726192
0.452308 0.777188 0.723537
0.478004 0.769924 0.720760
0.505394 0.761501 0.717800
0.532952 0.751431 0.714321
0.561608 0.739345 0.710292
0.590539 0.725216 0.706020
0.619776 0.708705 0.701350
0.649256 0.689723 0.696620
0.677821 0.670130 0.693111
0.685786 0.679683 0.702419
0.694423 0.690089 0.712520
0.703609 0.701198 0.723201
0.713344 0.713008 0.734615
0.722988 0.724788 0.745876
0.732326 0.736172 0.756771
0.742947 0.748959 0.769009
0.753719 0.761959 0.781399
0.776120 0.788296 0.806394
0.811246 0.810300 0.799252
0.846494 0.825681 0.787533
0.878660 0.836515 0.777554
0.907866 0.844358 0.769253
0.934569 0.850034 0.762356
0.335576 0.824460 0.754177
0.340520 0.825437 0.755520
0.350622 0.825834 0.756649
0.364385 0.825559 0.757626
0.382025 0.824491 0.758236
0.404273 0.822385 0.758511
0.430579 0.819638 0.758846
0.461036 0.816342 0.759548
0.485054 0.812375 0.759182
0.502983 0.807370 0.757107
0.523033 0.801572 0.755001
0.545037 0.795041 0.752956
0.568109 0.787106 0.750484
0.592096 0.777920 0.747768
0.616846 0.767178 0.744839
0.642084 0.754757 0.741695
0.667964 0.740597 0.738643
0.694301 0.724605 0.735744
0.715084 0.715084 0.736629
0.722866 0.724605 0.745724
0.731167 0.734676 0.755367
0.739712 0.745083 0.765316
0.748409 0.755550 0.775265
0.757137 0.766018 0.785214
0.754818 0.763210 0.782589
0.764340 0.774563 0.793332
0.774990 0.786954 0.805081
0.794125 0.808743 0.825650
0.822629 0.829648 0.828061
0.854704 0.845121 0.819730
0.884184 0.856596 0.813260
0.911131 0.865110 0.808103
0.466041 0.855100 0.794949
0.472572 0.856291 0.796811
0.478309 0.856535 0.797696
0.484840 0.855680 0.797696
0.492470 0.853819 0.797024
0.503044 0.851102 0.795956
0.516350 0.847684 0.794675
0.533776 0.843717 0.793729
0.549279 0.839170 0.791989
0.558618 0.833890 0.788785
0.569848 0.827878 0.785245
0.584314 0.821469 0.782254
0.600214 0.814084 0.778958
0.617456 0.805295 0.775235
0.635279 0.795285 0.771115
0.654658 0.783780 0.766903
0.675349 0.770871 0.762753
0.697719 0.757107 0.759426
0.721492 0.742489 0.757168
0.736568 0.741238 0.761654
0.744656 0.751064 0.770993
0.752743 0.760800 0.780240
0.760403 0.769924 0.788937
0.767483 0.778225 0.796841
0.773892 0.785733 0.803922
0.779904 0.792630 0.810483
0.787839 0.801663 0.818997
0.797055 0.811948 0.828733
0.812619 0.828946 0.844724
0.835264 0.847745 0.853056
0.864164 0.862699 0.846769
0.890867 0.874022 0.842283
0.521233 0.868070 0.813291
0.526421 0.869047 0.814817
0.532189 0.869383 0.815915
0.537957 0.869047 0.816434
0.546014 0.868040 0.816617
0.556176 0.866484 0.816739
0.569543 0.864561 0.817075
0.586236 0.862272 0.817685
0.601129 0.859586 0.817777
0.610437 0.856352 0.816495
0.620874 0.852445 0.814939
0.632807 0.847898 0.813230
0.645380 0.842527 0.811185
0.658839 0.836088 0.808682
0.672541 0.828489 0.805661
0.687221 0.819638 0.802304
0.703273 0.809812 0.799008
0.720790 0.799069 0.796109
0.740017 0.787900 0.794125
0.760555 0.776028 0.792966
0.769741 0.780880 0.799344
0.776822 0.789090 0.807126
0.783780 0.797055 0.814664
0.790494 0.804623 0.821805
0.796750 0.811643 0.828428
0.802731 0.818235 0.834623
0.808591 0.824582 0.840604
0.815976 0.832517 0.848051
0.825101 0.842222 0.857145
0.838102 0.855650 0.869688
0.855528 0.871641 0.881437
0.880339 0.885161 0.877195
0.592187 0.885283 0.838132
0.594659 0.885649 0.838804
0.597253 0.885679 0.839231
0.601465 0.885191 0.839445
0.606867 0.884245 0.839506
0.614252 0.882902 0.839536
0.623926 0.881193 0.839658
0.636072 0.879179 0.840055
0.646571 0.876860 0.839933
0.653407 0.874174 0.838773
0.661219 0.870878 0.837430
0.670405 0.867338 0.836179
0.680507 0.863157 0.834745
0.691127 0.858091 0.832883
0.701991 0.852079 0.830533
0.713588 0.845212 0.827939
0.726314 0.837461 0.825315
0.740536 0.829038 0.822995
0.756283 0.820371 0.821378
0.773404 0.811429 0.820554
0.789761 0.803861 0.821073
0.795926 0.810697 0.827543
0.801846 0.817258 0.833707
0.807584 0.823514 0.839597
0.812955 0.829282 0.845029
0.818051 0.834745 0.850156
0.823087 0.840085 0.855131
0.828092 0.845274 0.860014
0.834806 0.852262 0.866514
0.843839 0.861479 0.875120
0.855222 0.872862 0.885679
0.869902 0.887175 0.898924
0.642176 0.897887 0.856413
0.643793 0.898161 0.856901
0.646387 0.898253 0.857420
0.650050 0.898009 0.857816
0.655604 0.897581 0.858396
0.663416 0.897124 0.859342
0.674708 0.896849 0.861082
0.688441 0.896544 0.863279
0.700313 0.896300 0.865232
0.710170 0.895781 0.866606
0.720790 0.895171 0.868070
0.731563 0.894163 0.869352
0.742245 0.892607 0.870268
0.752468 0.890349 0.870695
0.762112 0.887236 0.870481
0.771176 0.883085 0.869535
0.780392 0.878264 0.868254
0.790433 0.872923 0.867094
0.801633 0.867369 0.866331
0.813809 0.861570 0.865965
0.826658 0.855467 0.865934
0.836179 0.853696 0.867857
0.840635 0.858213 0.872099
0.844938 0.862577 0.876158
0.848966 0.866636 0.879911
0.852811 0.870481 0.883482
0.856626 0.874235 0.886992
0.860441 0.877989 0.890440
0.864347 0.881804 0.893980
0.869688 0.886961 0.898741
0.877501 0.894408 0.905608
0.886320 0.902708 0.913207
0.721340 0.918914 0.886839
0.721675 0.918883 0.886900
0.722469 0.918669 0.886870
0.724025 0.918273 0.886870
0.726833 0.917693 0.886900
0.730953 0.916930 0.887083
0.736721 0.916075 0.887510
0.744137 0.915129 0.888182
0.749020 0.914031 0.888212
0.753628 0.912749 0.888090
0.759030 0.911315 0.887968
0.765194 0.909667 0.887907
0.771725 0.907683 0.887724
0.778500 0.905303 0.887388
