20 Preset/Dark Style/【3】LUT video cho PR-AE-FCPX/19Tones (5)/19 tones zack 02.cube
# Created by Adobe Lightroom plugin Export LUT (1.24.0)
# www.johnrellis.com/lightroom/exportlut.htm
# Preset: 19 tones zack 02
# Color profile: E:\lut插件\exportlut.1.24\exportlut.lrplugin\color profiles\Rec709gamma2.4.icc
LUT_3D_SIZE 5
DOMAIN_MIN 0.000000 0.000000 0.000000
DOMAIN_MAX 0.903226 0.903226 0.903226
0.105837 0.187747 0.211307
0.117830 0.187839 0.211734
0.171115 0.186618 0.212802
0.287358 0.177401 0.213687
0.570947 0.000000 0.212161
0.109346 0.192355 0.214328
0.118929 0.196139 0.211124
0.185611 0.190494 0.213779
0.331975 0.177218 0.214420
0.658289 0.000000 0.211368
0.154940 0.249729 0.250004
0.168246 0.238712 0.251011
0.239353 0.283604 0.199435
0.570092 0.235813 0.195377
0.835569 0.000000 0.213535
0.402991 0.515099 0.429938
0.431861 0.500389 0.436927
0.446418 0.467475 0.424292
0.524468 0.505760 0.000000
0.890623 0.500450 0.000000
0.780331 0.837827 0.777401
0.787533 0.834134 0.779873
0.783352 0.791012 0.758907
0.729763 0.836149 0.603906
0.874235 0.844755 0.000000
0.101717 0.188998 0.215274
0.114656 0.188327 0.215000
0.165438 0.187869 0.214755
0.261784 0.182223 0.215427
0.479103 0.124758 0.213443
0.102419 0.194461 0.217411
0.117556 0.195499 0.218540
0.178561 0.193118 0.217868
0.293126 0.183658 0.217258
0.532128 0.103853 0.214084
0.141726 0.251347 0.250736
0.164858 0.246586 0.253056
0.217105 0.265995 0.208865
0.484657 0.216281 0.219883
0.783169 0.000000 0.222446
0.403998 0.532158 0.442695
0.432288 0.521324 0.447242
0.496590 0.463752 0.472114
0.523064 0.504051 0.050324
0.897276 0.486152 0.000000
0.778347 0.841825 0.779538
0.783993 0.837278 0.780087
0.810758 0.823392 0.792111
0.763851 0.846647 0.676509
0.890684 0.860990 0.000000
0.062806 0.191867 0.242924
0.105715 0.189334 0.248264
0.213291 0.190372 0.261875
0.448951 0.143374 0.277073
0.423133 0.135286 0.222812
0.033570 0.203891 0.249607
0.084535 0.197665 0.255467
0.227268 0.203983 0.271916
0.418799 0.169802 0.267948
0.423560 0.147799 0.224033
0.000000 0.267735 0.282994
0.000000 0.272068 0.287022
0.267521 0.296971 0.312474
0.434241 0.234409 0.272129
0.662562 0.098604 0.244175
0.269352 0.576226 0.481239
0.332952 0.560235 0.473243
0.522271 0.544030 0.505791
0.560967 0.531823 0.176211
0.945464 0.427955 0.200961
0.740536 0.846921 0.771969
0.760769 0.847257 0.780575
0.798856 0.837827 0.791897
0.809659 0.819547 0.780758
0.869871 0.839963 0.000000
0.000000 0.197726 0.348852
0.000000 0.191379 0.367407
0.279423 0.175509 0.446967
0.643458 0.000000 0.531884
0.994263 0.000000 0.619989
0.000000 0.214908 0.351171
0.000000 0.204166 0.367834
0.257969 0.193881 0.446448
0.631312 0.134798 0.525505
0.971618 0.139681 0.598627
0.000000 0.263218 0.319158
0.000000 0.266209 0.331426
0.000000 0.261692 0.433692
0.641444 0.331395 0.548302
0.910735 0.256870 0.527825
0.000000 0.519951 0.516930
0.000000 0.520439 0.517632
0.000000 0.549462 0.547112
0.674403 0.626246 0.631464
0.845365 0.368231 0.420142
0.624842 0.877775 0.804166
0.651240 0.876310 0.804990
0.745632 0.873381 0.814603
0.844388 0.860136 0.834928
0.869505 0.839597 0.172824
0.000000 0.223239 0.656825
0.000000 0.195010 0.672175
0.121553 0.150393 0.737911
0.772580 0.000000 0.825254
0.999023 0.222538 0.848905
0.000000 0.249485 0.637568
0.000000 0.225895 0.654994
0.000000 0.176822 0.723873
0.752102 0.000000 0.817166
0.990112 0.295384 0.845121
0.000000 0.340429 0.575921
0.000000 0.333379 0.597284
0.000000 0.257908 0.683040
0.670619 0.275914 0.801785
0.967193 0.510674 0.849577
0.000000 0.464515 0.560754
0.000000 0.453101 0.551629
0.000000 0.415808 0.527031
0.154849 0.423407 0.766567
0.929961 0.764401 0.873167
0.000000 0.846860 0.818997
0.000000 0.846220 0.819150
0.000000 0.849516 0.826596
0.537041 0.852781 0.840299
0.899229 0.890715 0.887724
