20 Preset/Dark Style/【3】LUT video cho PR-AE-FCPX/19Tones (5)/19 tones skin _ colours.cube
# Created by Adobe Lightroom plugin Export LUT (1.24.0)
# www.johnrellis.com/lightroom/exportlut.htm
# Preset: 19 tones skin + colours
# Color profile: E:\lut插件\exportlut.1.24\exportlut.lrplugin\color profiles\Rec709gamma2.4.icc
LUT_3D_SIZE 5
DOMAIN_MIN 0.000000 0.000000 0.000000
DOMAIN_MAX 0.903226 0.903226 0.903226
0.000000 0.095399 0.116915
0.000000 0.088289 0.108003
0.254307 0.094179 0.104829
0.761563 0.187778 0.160128
1.000000 0.496132 0.362493
0.000000 0.097047 0.112642
0.000000 0.090761 0.111238
0.253391 0.138308 0.095644
0.752041 0.253941 0.134310
1.000000 0.525444 0.336339
0.000000 0.420996 0.358221
0.000000 0.378698 0.341588
0.354009 0.365209 0.384802
0.709041 0.512230 0.328405
0.999237 0.605982 0.289525
0.212589 0.798734 0.722896
0.400671 0.788602 0.727749
0.590539 0.725216 0.706020
0.713344 0.713008 0.734615
0.846494 0.825681 0.787533
0.757778 0.929442 0.901610
0.777523 0.927092 0.903624
0.783993 0.905272 0.888487
0.851377 0.883207 0.890867
0.881895 0.898589 0.909453
0.000000 0.088472 0.111177
0.000000 0.084230 0.104524
0.209140 0.084260 0.156252
0.680293 0.247501 0.285100
0.981720 0.476875 0.410224
0.000000 0.108278 0.151247
0.000000 0.109194 0.153231
0.245609 0.168643 0.195254
0.685115 0.281559 0.276982
0.980896 0.502831 0.407385
0.000000 0.427710 0.357641
0.000000 0.409033 0.355505
0.328283 0.345983 0.365301
0.675471 0.460853 0.320134
0.980255 0.611505 0.405219
0.000000 0.812284 0.727749
0.264561 0.804623 0.733425
0.587030 0.754391 0.728695
0.718959 0.719844 0.741176
0.851865 0.827085 0.787503
0.739895 0.932525 0.901030
0.760861 0.929747 0.902678
0.808713 0.919890 0.904692
0.860533 0.897124 0.902220
0.892241 0.908263 0.918303
0.000000 0.137606 0.331792
0.000000 0.147036 0.318547
0.148562 0.219913 0.244938
0.586114 0.127962 0.453132
0.956970 0.473121 0.618433
0.000000 0.199130 0.425055
0.000000 0.211002 0.403876
0.204593 0.273594 0.322454
0.613703 0.231724 0.479591
0.949432 0.561883 0.656916
0.000000 0.450233 0.581689
0.000000 0.449714 0.576745
0.311467 0.458717 0.571160
0.701625 0.532006 0.596765
0.915099 0.734737 0.740688
0.000000 0.868040 0.771756
0.000000 0.853880 0.763943
0.388098 0.824521 0.771939
0.748165 0.755245 0.774990
0.877226 0.824125 0.781277
0.610468 0.944823 0.893858
0.656275 0.942016 0.897398
0.774350 0.931579 0.907683
0.851835 0.911040 0.908904
0.892302 0.908263 0.918334
0.000000 0.337652 0.714565
0.000000 0.351690 0.707118
0.000000 0.403754 0.661707
0.526146 0.507805 0.532647
0.810147 0.445533 0.766171
0.000000 0.396674 0.754116
0.000000 0.403815 0.743130
0.000000 0.437659 0.691859
0.534295 0.523033 0.563500
0.810513 0.477272 0.768185
0.000000 0.480751 0.829984
0.000000 0.495613 0.821439
0.332341 0.566033 0.794125
0.593408 0.613733 0.700038
0.850706 0.630762 0.813962
0.000000 0.773831 0.879667
0.000000 0.770901 0.876310
0.328557 0.775051 0.872160
0.712398 0.795041 0.863920
0.887816 0.845243 0.871458
0.000000 0.977783 0.914427
0.129030 0.975921 0.913451
0.575921 0.965942 0.915892
0.822324 0.943145 0.927550
0.905211 0.920073 0.929076
0.000000 0.577447 0.919982
0.000000 0.584649 0.916197
0.291478 0.623651 0.902098
0.585260 0.694667 0.865721
0.759030 0.771878 0.798734
0.000000 0.594110 0.921019
0.000000 0.601465 0.917754
0.332219 0.635859 0.903868
0.590967 0.700160 0.868467
0.764523 0.777035 0.800473
0.222049 0.661769 0.935454
0.309453 0.670161 0.931701
0.465248 0.694514 0.919127
0.637079 0.741421 0.889311
0.793149 0.811429 0.835172
0.000000 0.715511 0.958831
0.000000 0.715389 0.957397
0.452613 0.736385 0.951812
0.742153 0.831113 0.931365
0.850584 0.876616 0.904448
0.314519 0.903960 0.964263
0.388281 0.904875 0.963684
0.590265 0.911925 0.962585
0.772671 0.923919 0.960266
0.906615 0.937621 0.957305
