20 Preset/Dark Style/【3】LUT video cho PR-AE-FCPX/19Tones (5)/19 tones zack 02.cube
# Created by Adobe Lightroom plugin Export LUT (1.24.0)
# www.johnrellis.com/lightroom/exportlut.htm
# Preset: 19 tones zack 02
# Color profile: E:\lut插件\exportlut.1.24\exportlut.lrplugin\color profiles\Rec709gamma2.4.icc
LUT_3D_SIZE 8
DOMAIN_MIN 0.000000 0.000000 0.000000
DOMAIN_MAX 0.903226 0.903226 0.903226
0.105837 0.187747 0.211307
0.107332 0.187808 0.211429
0.122988 0.187655 0.211948
0.151369 0.187228 0.212467
0.193454 0.185702 0.213046
0.257420 0.180880 0.213657
0.385382 0.158236 0.213596
0.570947 0.000000 0.212161
0.106203 0.188449 0.211734
0.107179 0.189181 0.211276
0.121492 0.188510 0.212131
0.148440 0.188235 0.212528
0.189548 0.186923 0.213107
0.251530 0.182589 0.213748
0.352728 0.167727 0.213840
0.518822 0.097749 0.212894
0.111696 0.194491 0.215824
0.113680 0.193942 0.216251
0.124910 0.199863 0.211002
0.177249 0.195071 0.211460
0.219760 0.190707 0.214420
0.314519 0.182467 0.214725
0.467506 0.146487 0.214084
0.663935 0.000000 0.211460
0.129824 0.217899 0.230564
0.133303 0.215976 0.230869
0.139986 0.215640 0.232120
0.188602 0.245121 0.206180
0.317815 0.238376 0.203799
0.496468 0.190127 0.217929
0.635035 0.122927 0.216403
0.791135 0.000000 0.211032
0.187564 0.291264 0.274540
0.193729 0.287480 0.275090
0.215671 0.277623 0.280766
0.196170 0.305913 0.244236
0.291997 0.323735 0.189425
0.408453 0.292851 0.188418
0.729061 0.266209 0.174990
0.898528 0.153689 0.224033
0.323186 0.438331 0.371283
0.349798 0.451911 0.385992
0.377966 0.434882 0.392676
0.409430 0.405646 0.407080
0.339849 0.481270 0.227115
0.470222 0.461891 0.113008
0.581872 0.405066 0.124269
0.929046 0.461646 0.000000
0.568200 0.660700 0.565576
0.578424 0.662165 0.571374
0.593591 0.645533 0.572625
0.619715 0.619104 0.581628
0.594873 0.600122 0.544671
0.553918 0.686580 0.140352
0.674983 0.641077 0.000000
0.751095 0.558740 0.000000
0.780331 0.837827 0.777401
0.781979 0.836606 0.777676
0.790646 0.833188 0.781430
0.807431 0.828214 0.791073
0.793515 0.784421 0.766629
0.747799 0.819150 0.677760
0.756191 0.869383 0.144625
0.874235 0.844755 0.000000
0.104891 0.188052 0.212070
0.106844 0.187961 0.211795
0.119203 0.187747 0.211978
0.143648 0.187991 0.212619
0.183841 0.186801 0.213107
0.240177 0.183261 0.213535
0.326787 0.172152 0.213870
0.466102 0.129519 0.213260
0.104219 0.188846 0.212222
0.107485 0.188815 0.212345
0.119631 0.189029 0.212589
0.145296 0.188754 0.213016
0.186069 0.187625 0.213352
0.243870 0.183902 0.213779
0.321202 0.174319 0.213962
0.446418 0.140261 0.213474
0.110536 0.195102 0.216281
0.113558 0.194949 0.216770
0.123476 0.198917 0.212406
0.166049 0.194034 0.214054
0.208743 0.191531 0.215305
0.281041 0.185946 0.215122
0.382300 0.169589 0.214450
0.543633 0.099855 0.213230
0.126223 0.215183 0.228977
0.129305 0.213993 0.229221
0.140749 0.211276 0.232853
0.170077 0.231601 0.209354
0.265263 0.222293 0.208530
0.378759 0.196658 0.221744
0.493294 0.166995 0.218265
0.661372 0.001556 0.213382
0.179080 0.285924 0.270787
0.183658 0.281071 0.270268
0.202487 0.269596 0.273350
0.184909 0.283635 0.246006
0.260746 0.299748 0.196933
0.370581 0.275486 0.194949
0.657862 0.243748 0.190555
0.829923 0.135775 0.223941
0.292241 0.413947 0.352331
0.301488 0.411414 0.354498
0.331029 0.398749 0.361761
0.367956 0.377722 0.378271
0.311284 0.446815 0.236271
0.445136 0.441932 0.133822
0.556420 0.388006 0.139681
0.900938 0.433478 0.000000
0.524865 0.627466 0.530053
0.523919 0.618585 0.525475
0.539940 0.600671 0.525994
0.573907 0.578424 0.539788
0.571344 0.564385 0.526696
0.522942 0.654963 0.161349
0.635920 0.603540 0.000000
0.701106 0.515007 0.000000
0.756069 0.822049 0.753811
0.762173 0.823789 0.758541
0.771084 0.819303 0.761654
0.790280 0.814054 0.772580
0.808255 0.801907 0.784146
0.757748 0.822293 0.694484
0.751736 0.865599 0.165621
0.868894 0.839445 0.000000
0.099580 0.189761 0.217350
0.102693 0.188418 0.217472
0.120180 0.188693 0.217044
0.158663 0.188754 0.219242
0.191318 0.186893 0.216129
0.248417 0.183780 0.216587
0.343023 0.170108 0.216373
0.503502 0.109224 0.214328
0.100618 0.190738 0.217960
0.103761 0.189670 0.218173
0.121126 0.190524 0.218082
0.155825 0.190341 0.219089
0.188449 0.188876 0.216709
0.250401 0.184817 0.217044
0.337163 0.172671 0.216587
0.486976 0.122499 0.214633
0.100191 0.198245 0.220920
0.104097 0.198642 0.221195
0.124636 0.200015 0.222690
0.162722 0.198154 0.221775
0.218021 0.194919 0.221164
0.291600 0.187564 0.220218
0.390295 0.169314 0.218753
0.550958 0.094514 0.215702
0.114626 0.225406 0.235904
0.123049 0.226719 0.237217
0.151858 0.227268 0.242222
0.182712 0.240421 0.217350
0.312566 0.222812 0.221347
0.398871 0.202029 0.231876
0.516625 0.165805 0.226230
0.680568 0.000000 0.219516
0.171237 0.305882 0.282872
0.183902 0.305272 0.284550
0.215763 0.297765 0.288151
0.234012 0.290105 0.288365
0.287877 0.319585 0.201205
0.427832 0.284642 0.197910
0.677821 0.228489 0.217533
0.832212 0.145449 0.236637
0.305791 0.442756 0.374853
0.314092 0.441810 0.375891
0.339910 0.427497 0.376867
0.382818 0.400793 0.389593
0.326207 0.441810 0.280797
0.451331 0.446174 0.144625
0.590631 0.395331 0.136599
0.927092 0.424872 0.003632
0.550286 0.662226 0.563226
0.548669 0.654902 0.558038
0.557153 0.634119 0.550866
0.588342 0.605707 0.557427
0.615229 0.568383 0.573053
0.533257 0.660365 0.240055
0.656519 0.622705 0.000000
0.750759 0.546319 0.000000
0.760159 0.830991 0.763119
0.759213 0.828305 0.760708
0.767056 0.823514 0.762173
0.791867 0.821958 0.777554
0.810452 0.809628 0.787900
0.781643 0.822477 0.737118
0.757290 0.869383 0.294926
0.875334 0.845731 0.000000
0.088167 0.191196 0.230350
0.091493 0.189212 0.231907
0.123690 0.189242 0.234409
0.165713 0.190311 0.237766
0.271824 0.186130 0.251835
0.323156 0.173709 0.237613
0.319951 0.170748 0.221164
0.413855 0.147677 0.219181
0.087190 0.192538 0.233524
0.090913 0.191196 0.234531
0.123964 0.191165 0.237430
0.171176 0.193179 0.241001
0.273838 0.189334 0.252628
0.318517 0.176822 0.236484
0.310185 0.175479 0.221408
0.423316 0.146029 0.219577
0.057282 0.204715 0.235080
0.069886 0.204501 0.236301
0.109071 0.200473 0.242100
0.176272 0.205936 0.246799
0.274784 0.203220 0.252995
0.306401 0.187320 0.232395
0.375738 0.172641 0.226719
0.518425 0.110658 0.222934
0.005859 0.234287 0.253147
0.027558 0.234897 0.253819
0.106355 0.239231 0.257847
0.197635 0.249393 0.268132
0.281407 0.232090 0.256748
0.366186 0.211582 0.246921
0.471138 0.179202 0.238437
0.627070 0.060700 0.230106
0.000000 0.346838 0.318914
0.081941 0.344640 0.317449
0.187716 0.343816 0.319554
0.299107 0.343389 0.337957
0.338720 0.354986 0.235203
0.552361 0.294621 0.242924
0.692134 0.242374 0.282475
0.818570 0.152529 0.258244
0.272496 0.507500 0.421241
0.307500 0.522515 0.435523
0.373327 0.514458 0.440711
0.454292 0.496284 0.453925
0.452125 0.475898 0.423774
0.503929 0.485634 0.165682
0.685481 0.420111 0.141604
0.960052 0.398566 0.200107
0.544579 0.701167 0.595666
0.557031 0.702296 0.600122
0.598657 0.700282 0.613153
0.632074 0.681453 0.615229
0.668177 0.643763 0.626551
0.582086 0.684993 0.399237
0.683467 0.648096 0.000000
0.810636 0.574548 0.000000
0.779995 0.854978 0.793454
0.783169 0.854368 0.794553
0.788754 0.850401 0.793759
0.801358 0.843473 0.795712
0.819883 0.830503 0.802426
0.824125 0.820005 0.800320
0.766445 0.871366 0.463355
0.885740 0.855833 0.000000
0.011414 0.192325 0.261357
0.015747 0.190036 0.264591
0.104677 0.189639 0.272648
0.197665 0.189548 0.291478
0.290318 0.186191 0.304112
0.521538 0.126253 0.354101
0.632197 0.000000 0.324498
0.618708 0.000000 0.265049
0.000000 0.195499 0.265660
0.002564 0.193668 0.269047
0.098299 0.191745 0.277867
0.199130 0.192660 0.295323
0.300847 0.189883 0.310765
0.531670 0.134951 0.358556
0.624353 0.000000 0.321202
0.604883 0.000000 0.261173
0.000000 0.211887 0.269474
0.000000 0.211124 0.272831
0.029938 0.202548 0.282322
0.192233 0.206668 0.303685
0.315404 0.210758 0.322087
0.525719 0.184604 0.356817
0.566644 0.109438 0.300511
0.529137 0.064820 0.245121
0.000000 0.239170 0.276066
0.000000 0.239536 0.276982
0.000000 0.241672 0.282017
0.143191 0.240879 0.319310
0.355047 0.268315 0.353674
0.515068 0.248112 0.352026
0.491188 0.176669 0.271489
0.492042 0.142092 0.236637
0.000000 0.318639 0.329168
0.000000 0.321080 0.331395
0.000000 0.328771 0.338598
0.158480 0.345129 0.354711
0.370916 0.368200 0.381231
0.472633 0.305394 0.332891
0.571038 0.239200 0.293675
0.698054 0.140322 0.264866
0.000000 0.502434 0.447974
0.000000 0.503044 0.448249
0.142916 0.494240 0.440650
0.325475 0.489082 0.440406
0.476387 0.480201 0.463783
0.526177 0.497902 0.272435
0.778317 0.419257 0.281041
0.922667 0.400092 0.397345
0.428931 0.719051 0.609705
0.437049 0.714473 0.606165
0.482673 0.705135 0.602808
0.581109 0.704311 0.621027
0.665095 0.688106 0.641138
0.649500 0.665980 0.588373
0.686366 0.648676 0.000000
0.852628 0.560815 0.000000
0.707607 0.851286 0.767391
0.712306 0.850278 0.767941
0.733364 0.847562 0.772549
0.784054 0.852079 0.796353
0.810239 0.842832 0.802426
0.832395 0.824857 0.811948
0.769772 0.856321 0.615290
0.871366 0.841123 0.000000
0.000000 0.197055 0.336400
0.000000 0.194003 0.342138
0.000000 0.190646 0.357458
0.187747 0.185306 0.395300
0.434119 0.154421 0.472969
0.597620 0.041382 0.498970
0.827207 0.000000 0.554284
0.976257 0.000000 0.553918
0.000000 0.200504 0.328740
0.000000 0.197726 0.332097
0.000000 0.192721 0.347601
0.175387 0.189456 0.382391
0.407294 0.169772 0.453040
0.568078 0.116091 0.479042
0.803677 0.000000 0.536950
0.957214 0.000000 0.536187
0.000000 0.221134 0.336889
0.000000 0.218906 0.340795
0.000000 0.207706 0.362585
0.144015 0.203861 0.398901
0.413214 0.200961 0.470314
0.595819 0.177798 0.501427
0.822293 0.153597 0.555901
0.943359 0.000000 0.523064
0.000000 0.255863 0.328832
0.000000 0.256413 0.333928
0.000000 0.260288 0.362646
0.000000 0.245762 0.427924
0.431922 0.276463 0.523003
0.671168 0.311803 0.568475
0.865385 0.370459 0.611322
0.923400 0.138003 0.496040
0.000000 0.312016 0.357824
0.000000 0.312383 0.358831
0.000000 0.314672 0.364050
0.000000 0.319921 0.377203
0.259556 0.337285 0.476234
0.636286 0.427192 0.558679
0.798642 0.416419 0.551659
0.769619 0.121859 0.353155
0.000000 0.460578 0.461463
0.000000 0.468574 0.468910
0.000000 0.475532 0.475715
0.000000 0.491341 0.491554
0.313481 0.516930 0.519127
0.625208 0.575128 0.582788
0.733364 0.455573 0.482368
0.837430 0.314885 0.380774
0.137331 0.760159 0.689479
0.223789 0.765286 0.695521
0.361303 0.771298 0.704616
0.499062 0.768307 0.704067
0.632898 0.758602 0.702266
0.741115 0.737301 0.714137
0.742367 0.703365 0.374762
0.957244 0.587182 0.358129
0.644617 0.871794 0.792599
0.646876 0.869993 0.790707
0.669642 0.866972 0.790158
0.720546 0.865293 0.796841
0.781918 0.860960 0.808225
0.831449 0.851102 0.821836
0.821042 0.844511 0.786709
0.868925 0.838621 0.000000
0.000000 0.204929 0.455756
0.000000 0.200656 0.464942
0.000000 0.191653 0.487739
0.000000 0.180789 0.539055
0.418311 0.121920 0.610437
0.733944 0.000000 0.694270
0.844572 0.000000 0.696132
0.969177 0.082582 0.702327
0.000000 0.209171 0.441444
0.000000 0.205447 0.451179
0.000000 0.193790 0.473793
0.000000 0.185672 0.519463
0.392065 0.142306 0.589075
0.703975 0.000000 0.670130
0.813657 0.000000 0.669154
0.947906 0.000000 0.679988
0.000000 0.233890 0.448981
0.000000 0.230594 0.454658
0.000000 0.213565 0.476265
0.000000 0.200412 0.523369
0.367559 0.176730 0.592218
0.703883 0.164706 0.679286
0.835935 0.143221 0.693782
0.964538 0.273106 0.707912
0.000000 0.279606 0.437751
0.000000 0.278233 0.442847
0.000000 0.269993 0.467536
0.000000 0.238895 0.524346
0.298833 0.234195 0.604242
0.705837 0.299901 0.703548
0.858579 0.348821 0.728664
0.965759 0.450507 0.735805
0.000000 0.300572 0.374029
0.000000 0.298589 0.372107
0.000000 0.303777 0.391547
0.000000 0.318517 0.457801
0.000000 0.297765 0.567651
0.629877 0.387396 0.684382
0.838071 0.489235 0.730892
0.952392 0.598077 0.759335
0.000000 0.423713 0.479072
0.000000 0.424170 0.480171
0.000000 0.424414 0.483009
0.000000 0.423987 0.489052
0.000000 0.419440 0.498299
0.437201 0.475624 0.661494
0.830625 0.663935 0.764034
0.930083 0.673213 0.753353
0.000000 0.659846 0.646265
0.000000 0.663416 0.649714
0.000000 0.667933 0.654322
0.000000 0.678981 0.666011
0.000000 0.693782 0.683467
0.542473 0.719753 0.714473
0.796689 0.770443 0.768887
0.884520 0.618189 0.632410
0.418433 0.877745 0.817350
0.439521 0.878355 0.818845
0.524834 0.882048 0.826902
0.631495 0.886107 0.838102
0.730251 0.887938 0.847166
0.805203 0.882567 0.847684
0.865934 0.871366 0.855467
0.873411 0.850370 0.532006
0.000000 0.223239 0.656825
0.000000 0.216373 0.663813
0.000000 0.193454 0.677424
0.000000 0.176211 0.714382
0.384375 0.080537 0.762325
0.705715 0.000000 0.812650
0.920775 0.233097 0.852842
0.999023 0.222538 0.848905
0.000000 0.228824 0.642206
0.000000 0.222751 0.649683
0.000000 0.195773 0.667079
0.000000 0.181277 0.702876
0.363592 0.106966 0.752621
0.693538 0.000000 0.805264
0.913176 0.234470 0.846372
0.991272 0.213779 0.841123
0.000000 0.258915 0.630549
0.000000 0.253819 0.635798
0.000000 0.227207 0.652888
0.000000 0.198093 0.699580
0.305852 0.155032 0.748501
0.672389 0.000000 0.800931
0.907012 0.321782 0.846159
0.985229 0.308446 0.841672
0.000000 0.312871 0.603754
0.000000 0.310399 0.610956
0.000000 0.293278 0.632197
0.000000 0.244877 0.678920
0.000000 0.213626 0.739376
0.631952 0.207767 0.801144
0.895384 0.443732 0.850584
0.976501 0.451057 0.849058
0.000000 0.355138 0.528527
0.000000 0.356939 0.537011
0.000000 0.356054 0.562982
0.000000 0.347723 0.624628
0.000000 0.280888 0.702235
0.507225 0.294835 0.783383
0.860624 0.519402 0.845426
0.957458 0.582910 0.853819
0.000000 0.411963 0.512261
0.000000 0.407874 0.508232
0.000000 0.395117 0.496956
0.000000 0.376318 0.483040
0.000000 0.403967 0.592950
0.000000 0.378271 0.750698
0.811429 0.613306 0.847745
0.935698 0.738003 0.870787
0.000000 0.618921 0.673793
0.000000 0.617029 0.672480
0.000000 0.609857 0.668025
0.000000 0.600732 0.664820
0.000000 0.584131 0.659876
0.000000 0.553979 0.653407
0.616236 0.638117 0.818235
0.917082 0.832425 0.882719
0.000000 0.846860 0.818997
0.000000 0.846372 0.818723
0.000000 0.846403 0.819608
0.000000 0.848569 0.823850
0.000000 0.849973 0.829374
0.452399 0.851682 0.837369
0.729671 0.860319 0.852934
0.899229 0.890715 0.887724
