20 Preset/Dark Style/【3】LUT video cho PR-AE-FCPX/19Tones (5)/19T-ColourfulTones.Ritz.cube
# Created by Adobe Lightroom plugin Export LUT (1.24.0)
# www.johnrellis.com/lightroom/exportlut.htm
# Preset: 19T-ColourfulTones.Ritz
# Color profile: E:\lut插件\exportlut.1.24\exportlut.lrplugin\color profiles\Rec709gamma2.4.icc
LUT_3D_SIZE 32
DOMAIN_MIN 0.0 0.0 0.0
DOMAIN_MAX 1.0 1.0 1.0
0.069520 0.105226 0.110597
0.069520 0.105226 0.110597
0.069520 0.105226 0.110597
0.069520 0.105226 0.110597
0.073182 0.105104 0.110903
0.086549 0.105135 0.110811
0.094179 0.104829 0.110750
0.102846 0.104616 0.110933
0.113954 0.104005 0.111147
0.127810 0.103090 0.110933
0.145571 0.101472 0.110994
0.169589 0.098207 0.110933
0.200870 0.091981 0.110689
0.242710 0.073060 0.110048
0.296635 0.015320 0.108949
0.363958 0.000000 0.107057
0.445258 0.000000 0.104372
0.536980 0.000000 0.099672
0.631556 0.000000 0.093477
0.721767 0.000000 0.083986
0.798734 0.000000 0.063935
0.859556 0.000000 0.043488
0.907469 0.000000 0.025910
0.947723 0.000000 0.009613
0.982513 0.000000 0.000000
1.000000 0.000000 0.000000
1.000000 0.000000 0.000000
1.000000 0.000000 0.000000
1.000000 0.000000 0.000000
1.000000 0.000000 0.000000
1.000000 0.000000 0.000000
1.000000 0.000000 0.000000
0.069520 0.105226 0.110597
0.069520 0.105226 0.110597
0.069520 0.105226 0.110597
0.069520 0.105226 0.110597
0.073182 0.105104 0.110903
0.085756 0.104860 0.110842
0.094179 0.104829 0.110750
0.102449 0.104341 0.110994
0.112581 0.103822 0.110872
0.125673 0.103059 0.110994
0.142214 0.101747 0.111055
0.164706 0.099001 0.110689
0.193729 0.093935 0.110475
0.232425 0.080995 0.110262
0.282933 0.031769 0.109346
0.347112 0.000000 0.107668
0.425360 0.000000 0.104860
0.515129 0.000000 0.101015
0.609552 0.000000 0.094881
0.700893 0.000000 0.086824
0.780484 0.000000 0.070161
0.843778 0.000000 0.049683
0.893736 0.000000 0.030732
0.935729 0.000000 0.015473
0.971710 0.000000 0.000000
1.000000 0.000000 0.000000
1.000000 0.000000 0.000000
1.000000 0.000000 0.000000
1.000000 0.000000 0.000000
1.000000 0.000000 0.000000
1.000000 0.000000 0.000000
1.000000 0.000000 0.000000
0.069520 0.105226 0.110597
0.069520 0.105226 0.110597
0.069520 0.105226 0.110597
0.069520 0.105226 0.110597
0.077150 0.104952 0.110903
0.086549 0.105135 0.110811
0.094179 0.104829 0.110750
0.102449 0.104341 0.110994
0.111940 0.103914 0.111177
0.124727 0.103212 0.110994
0.141146 0.101564 0.111086
0.162539 0.099123 0.110750
0.190707 0.094423 0.110536
0.227543 0.082979 0.110079
0.275822 0.039857 0.109224
0.337133 0.000000 0.108003
0.412848 0.000000 0.105440
0.501427 0.000000 0.101381
0.595758 0.000000 0.095949
0.688167 0.000000 0.088685
0.770230 0.000000 0.072267
0.835843 0.000000 0.051942
0.886900 0.000000 0.033692
0.929778 0.000000 0.016999
0.966430 0.000000 0.002869
0.998718 0.000000 0.000000
1.000000 0.000000 0.000000
1.000000 0.000000 0.000000
1.000000 0.000000 0.000000
1.000000 0.000000 0.000000
1.000000 0.000000 0.000000
1.000000 0.000000 0.000000
0.061738 0.108095 0.112520
0.061738 0.108095 0.112520
0.061738 0.108095 0.112520
0.061738 0.108095 0.112520
0.076997 0.106630 0.111330
0.087984 0.106752 0.110597
0.095399 0.105715 0.110933
0.103273 0.104921 0.110903
0.113405 0.104067 0.111147
0.125673 0.103059 0.110994
0.141939 0.101411 0.111086
0.162539 0.099123 0.110750
0.189639 0.094728 0.110536
0.225010 0.084657 0.110445
0.270970 0.045594 0.109316
0.329168 0.000000 0.107942
0.400366 0.000000 0.105928
0.483742 0.000000 0.102358
0.575280 0.000000 0.097505
0.666499 0.000000 0.090272
0.749355 0.000000 0.078370
0.817563 0.000000 0.057069
0.872007 0.000000 0.037385
0.917906 0.000000 0.019348
0.957580 0.000000 0.002441
0.992523 0.000000 0.000000
1.000000 0.000000 0.000000
1.000000 0.000000 0.000000
1.000000 0.000000 0.000000
1.000000 0.000000 0.000000
1.000000 0.000000 0.000000
1.000000 0.000000 0.000000
0.042390 0.115389 0.117403
0.043366 0.115663 0.117678
0.046357 0.115267 0.117403
0.054017 0.115053 0.117678
0.052430 0.115175 0.115297
0.078584 0.110018 0.115236
0.094179 0.110109 0.110689
0.101045 0.110079 0.110597
0.110628 0.109071 0.110536
0.122713 0.108217 0.110719
0.137881 0.106966 0.110506
0.158236 0.104646 0.110536
0.183688 0.101625 0.109987
0.217044 0.095216 0.109895
0.260716 0.078401 0.108736
0.316381 0.016327 0.107576
0.385199 0.000000 0.105104
0.467384 0.000000 0.101259
0.557824 0.000000 0.096010
0.649012 0.000000 0.088258
0.732631 0.000000 0.071534
0.803494 0.000000 0.048554
0.860502 0.000000 0.027588
0.908568 0.000000 0.006683
0.950103 0.000000 0.000000
0.986633 0.000000 0.000000
1.000000 0.000000 0.000000
1.000000 0.000000 0.000000
1.000000 0.000000 0.000000
1.000000 0.000000 0.000000
1.000000 0.000000 0.000000
1.000000 0.000000 0.000000
0.023865 0.125002 0.124666
0.025147 0.125246 0.124636
0.027832 0.124910 0.124666
0.035798 0.124697 0.124636
0.040070 0.124575 0.124361
0.039673 0.125032 0.118410
0.087465 0.116823 0.118715
0.102113 0.113954 0.113527
0.110994 0.115236 0.109987
0.120821 0.115328 0.109773
0.135988 0.114870 0.109499
0.155245 0.113924 0.109377
0.180056 0.112490 0.109041
0.212161 0.109529 0.108370
0.254368 0.102632 0.106844
0.308659 0.084169 0.105348
0.376501 0.000000 0.102388
0.457740 0.000000 0.097841
0.547570 0.000000 0.091554
0.639155 0.000000 0.079500
0.723507 0.000000 0.054932
0.796109 0.000000 0.029511
0.923888 0.000000 0.000000
0.961852 0.000000 0.000000
0.995270 0.000000 0.000000
1.000000 0.000000 0.000000
1.000000 0.000000 0.000000
1.000000 0.000000 0.000000
1.000000 0.000000 0.000000
1.000000 0.000000 0.000000
1.000000 0.000000 0.000000
1.000000 0.000000 0.000000
0.000000 0.147280 0.140383
0.000000 0.147280 0.140139
0.000000 0.147189 0.140139
0.000000 0.146792 0.140169
0.000000 0.146304 0.139742
0.000000 0.147707 0.138613
0.000000 0.148745 0.124636
0.098482 0.132174 0.125612
0.109194 0.123781 0.124727
0.141054 0.125154 0.111299
0.148013 0.126925 0.107576
0.164370 0.128145 0.106477
0.192691 0.128511 0.105592
0.229129 0.127504 0.104280
0.276127 0.123537 0.102083
0.334020 0.112917 0.099336
0.405493 0.082277 0.094636
0.488624 0.000000 0.088167
0.579675 0.000000 0.070008
0.671412 0.000000 0.040894
0.756985 0.000000 0.008545
0.828305 0.000000 0.000000
0.886442 0.000000 0.000000
0.935027 0.000000 0.000000
0.975494 0.000000 0.000000
1.000000 0.000000 0.000000
1.000000 0.000000 0.000000
1.000000 0.000000 0.000000
1.000000 0.000000 0.000000
1.000000 0.000000 0.000000
1.000000 0.000000 0.000000
1.000000 0.000000 0.000000
0.000000 0.171298 0.156985
0.000000 0.171084 0.156802
0.000000 0.171237 0.156771
0.000000 0.170901 0.156802
0.000000 0.170474 0.156405
0.000000 0.170565 0.155947
0.000000 0.174380 0.154818
0.000000 0.176211 0.131228
0.109194 0.153140 0.132723
0.105531 0.138186 0.144076
0.171572 0.137301 0.116640
0.183810 0.139040 0.108400
0.190768 0.141146 0.103609
0.216007 0.143404 0.101106
0.258396 0.144137 0.098543
0.311040 0.141939 0.095186
0.376440 0.132998 0.089693
0.454841 0.109895 0.078737
0.543206 0.000000 0.053376
0.635401 0.000000 0.021271
0.723568 0.000000 0.000000
0.800412 0.000000 0.000000
0.863066 0.000000 0.000000
0.914733 0.000000 0.000000
0.958007 0.000000 0.000000
1.000000 0.000000 0.000000
1.000000 0.000000 0.000000
1.000000 0.000000 0.000000
1.000000 0.000000 0.000000
1.000000 0.000000 0.000000
1.000000 0.000000 0.000000
1.000000 0.000000 0.000000
0.000000 0.205905 0.180819
0.000000 0.205875 0.180636
0.000000 0.205844 0.180484
0.000000 0.205692 0.180484
0.000000 0.205356 0.180148
0.000000 0.205020 0.179660
0.000000 0.207706 0.179232
0.000000 0.215000 0.178927
0.000000 0.219181 0.142061
0.122499 0.187503 0.142458
0.126558 0.158206 0.161501
0.194736 0.153964 0.133272
0.241245 0.157504 0.109194
0.248051 0.158755 0.100893
0.252537 0.160555 0.095155
0.293462 0.164401 0.089967
0.354467 0.164004 0.080476
0.428626 0.157259 0.059724
0.513817 0.139345 0.030396
0.605066 0.098024 0.000000
0.694545 0.000000 0.000000
0.774350 0.000000 0.000000
0.840635 0.000000 0.000000
0.895354 0.000000 0.000000
0.951324 0.000000 0.000000
0.997162 0.000000 0.000000
1.000000 0.000000 0.000000
1.000000 0.000000 0.000000
1.000000 0.000000 0.000000
1.000000 0.000000 0.000000
1.000000 0.000000 0.000000
1.000000 0.000000 0.000000
0.000000 0.255802 0.214572
0.000000 0.255375 0.214267
0.000000 0.255009 0.213931
0.000000 0.254704 0.213443
0.000000 0.253758 0.212650
0.000000 0.253300 0.212039
0.000000 0.252995 0.211215
0.000000 0.260716 0.211765
0.000000 0.273442 0.212589
0.000000 0.279850 0.154788
0.136080 0.237858 0.153628
0.165682 0.189670 0.179355
0.218387 0.180758 0.163760
0.322911 0.181857 0.111635
0.329290 0.181582 0.094911
0.332525 0.182925 0.082918
0.340734 0.185031 0.068635
0.406653 0.188846 0.038758
0.487800 0.186465 0.002869
0.577874 0.175021 0.000000
0.666163 0.154726 0.000000
0.747189 0.122072 0.000000
0.825071 0.048280 0.000000
0.888182 0.000000 0.000000
0.939391 0.000000 0.000000
0.982055 0.000000 0.000000
1.000000 0.000000 0.000000
1.000000 0.000000 0.000000
1.000000 0.000000 0.000000
1.000000 0.000000 0.000000
1.000000 0.000000 0.000000
1.000000 0.000000 0.000000
0.000000 0.313634 0.253513
0.000000 0.313603 0.253513
0.000000 0.313970 0.253635
0.000000 0.314092 0.253483
0.000000 0.314885 0.253727
0.000000 0.315892 0.254002
0.000000 0.317144 0.254093
0.000000 0.320806 0.254978
0.000000 0.337743 0.258335
0.000000 0.358862 0.261295
0.000000 0.368048 0.169284
0.152102 0.316289 0.167453
0.235203 0.249302 0.207034
0.248203 0.229038 0.220279
0.399695 0.212253 0.133364
0.450355 0.211551 0.079011
0.450050 0.211337 0.030304
0.449775 0.213169 0.004547
0.477302 0.216587 0.000000
0.562341 0.221225 0.000000
0.652979 0.221897 0.000000
0.740444 0.217746 0.000000
0.814328 0.209598 0.000000
0.875151 0.195163 0.000000
0.925139 0.174929 0.000000
0.967224 0.143221 0.000000
1.000000 0.091646 0.000000
1.000000 0.000000 0.000000
1.000000 0.000000 0.000000
1.000000 0.000000 0.000000
1.000000 0.000000 0.000000
1.000000 0.000000 0.000000
0.000000 0.396704 0.309972
0.000000 0.396704 0.309880
0.000000 0.397375 0.310216
0.000000 0.397864 0.310399
0.000000 0.400275 0.311681
0.000000 0.403479 0.313451
0.000000 0.408240 0.316014
0.000000 0.414771 0.319615
0.000000 0.429572 0.325292
0.000000 0.457435 0.333593
0.000000 0.490455 0.342016
0.000000 0.502739 0.192844
0.330694 0.551446 0.253666
0.500725 0.461707 0.333593
0.422004 0.426429 0.433173
0.660212 0.346166 0.228580
0.753262 0.322576 0.000000
0.743069 0.310857 0.000000
0.730953 0.306920 0.000000
0.717464 0.304753 0.000000
0.747097 0.308659 0.000000
0.807126 0.317296 0.000000
0.860929 0.320195 0.000000
0.910491 0.314549 0.000000
0.952300 0.304967 0.000000
0.988586 0.291325 0.000000
1.000000 0.275151 0.000000
1.000000 0.255436 0.000000
1.000000 0.233738 0.000000
1.000000 0.208011 0.000000
1.000000 0.176394 0.000000
1.000000 0.134615 0.000000
0.000000 0.588800 0.452186
0.000000 0.587945 0.451575
0.000000 0.586389 0.450263
0.000000 0.584436 0.448615
0.000000 0.582086 0.446571
0.000000 0.580468 0.445136
0.000000 0.580774 0.445228
0.000000 0.584070 0.447791
0.000000 0.590845 0.453498
0.000000 0.617731 0.465278
0.000000 0.651606 0.479652
0.000000 0.687251 0.494423
0.000000 0.697292 0.309941
0.435096 0.652033 0.344060
0.625177 0.589990 0.427253
0.579034 0.530114 0.519951
0.724666 0.472633 0.389227
0.831998 0.402686 0.131197
0.842405 0.375586 0.000000
0.830076 0.363195 0.000000
0.816129 0.357366 0.000000
0.801846 0.353155 0.000000
0.835203 0.356725 0.000000
0.879271 0.362188 0.000000
0.921202 0.360632 0.000000
0.960052 0.352148 0.000000
0.994232 0.341344 0.000000
1.000000 0.328527 0.000000
1.000000 0.314427 0.000000
1.000000 0.300023 0.000000
1.000000 0.283879 0.000000
1.000000 0.265751 0.000000
0.000000 0.676204 0.525139
0.000000 0.675074 0.524163
0.000000 0.672419 0.521813
0.000000 0.669734 0.519677
0.000000 0.666651 0.517113
0.000000 0.663722 0.514885
0.000000 0.662745 0.514397
0.000000 0.664363 0.516594
0.000000 0.668238 0.521477
0.000000 0.679438 0.530907
0.000000 0.704952 0.543908
0.000000 0.732815 0.558160
0.000000 0.760037 0.568780
0.000000 0.761501 0.411719
0.527703 0.721065 0.450782
0.687709 0.672297 0.517815
0.667567 0.610773 0.581903
0.731899 0.586633 0.546349
0.855314 0.492195 0.306188
0.900633 0.435706 0.000000
0.893309 0.412207 0.000000
0.882567 0.402228 0.000000
0.871031 0.397192 0.000000
0.859739 0.393622 0.000000
0.896757 0.397681 0.000000
0.931548 0.401007 0.000000
0.968353 0.394446 0.000000
1.000000 0.385718 0.000000
1.000000 0.376226 0.000000
1.000000 0.366247 0.000000
1.000000 0.356085 0.000000
1.000000 0.345006 0.000000
0.000000 0.735561 0.580285
0.000000 0.735042 0.579858
0.000000 0.733150 0.578149
0.000000 0.730526 0.575830
0.000000 0.727199 0.573144
0.000000 0.724056 0.570855
0.000000 0.722377 0.570459
0.000000 0.722560 0.572320
0.000000 0.725002 0.577356
0.000000 0.729641 0.586145
0.000000 0.744350 0.598016
0.000000 0.766018 0.611810
0.000000 0.787350 0.625422
0.000000 0.805295 0.622065
0.000000 0.802579 0.505943
0.598260 0.766812 0.539452
0.725704 0.728145 0.588373
0.724483 0.676295 0.631891
0.729519 0.671656 0.654719
0.851713 0.589380 0.477363
0.931548 0.504417 0.189487
0.938964 0.463050 0.000000
0.932555 0.444709 0.000000
0.923461 0.436622 0.000000
0.913756 0.432349 0.000000
0.910979 0.430426 0.000000
0.943938 0.433906 0.000000
0.977356 0.433295 0.000000
1.000000 0.427955 0.000000
1.000000 0.422736 0.000000
1.000000 0.417639 0.000000
1.000000 0.412512 0.000000
0.000000 0.775845 0.622522
0.000000 0.776150 0.622919
0.000000 0.775418 0.622431
0.000000 0.774655 0.622156
0.000000 0.773465 0.621759
0.000000 0.772610 0.622309
0.000000 0.772641 0.624475
0.000000 0.773892 0.628779
0.000000 0.775723 0.635065
0.000000 0.778073 0.643519
0.000000 0.780911 0.653895
0.000000 0.795560 0.663813
0.000000 0.810422 0.673640
0.000000 0.824979 0.682246
0.000000 0.835264 0.667109
0.367102 0.829557 0.573938
0.642969 0.798184 0.597162
0.749813 0.766171 0.634424
0.762173 0.725612 0.669184
0.734493 0.724910 0.716396
0.836728 0.671839 0.607538
0.929961 0.587610 0.386114
0.970947 0.521935 0.000000
0.971923 0.489998 0.000000
0.966888 0.476570 0.000000
0.959960 0.470924 0.000000
0.953002 0.468513 0.000000
0.959716 0.469215 0.000000
0.990234 0.473152 0.000000
1.000000 0.470527 0.000000
1.000000 0.467628 0.000000
1.000000 0.464668 0.000000
0.000000 0.806546 0.659174
0.000000 0.806485 0.659144
0.000000 0.806210 0.659174
0.000000 0.805783 0.659388
0.000000 0.805112 0.659815
0.000000 0.804715 0.661250
0.000000 0.804593 0.663752
0.000000 0.804929 0.667811
0.000000 0.805661 0.673426
0.000000 0.806729 0.680842
0.000000 0.808072 0.689845
0.186587 0.814145 0.699519
0.234440 0.826871 0.708797
0.263493 0.839567 0.717250
0.280797 0.851957 0.724788
0.354101 0.858885 0.703456
0.480201 0.853544 0.627100
0.681025 0.826749 0.645594
0.773129 0.800320 0.675807
0.793454 0.769284 0.703792
0.772641 0.756802 0.740932
0.830350 0.734249 0.693843
0.914702 0.675685 0.553735
0.990845 0.593317 0.273014
1.000000 0.544305 0.000000
1.000000 0.520043 0.000000
0.999329 0.510369 0.000000
0.994537 0.507286 0.000000
0.990173 0.506920 0.000000
1.000000 0.511345 0.000000
1.000000 0.512444 0.000000
1.000000 0.512444 0.000000
0.000000 0.835203 0.698360
0.000000 0.835508 0.699031
0.000000 0.861753 0.740902
0.000000 0.861357 0.741360
0.000000 0.860716 0.742153
0.000000 0.859922 0.743313
0.000000 0.859159 0.745144
0.000000 0.858610 0.748135
0.254490 0.858671 0.752346
0.352483 0.859251 0.757778
0.428565 0.860380 0.764065
0.491798 0.861723 0.770687
0.507378 0.869902 0.777279
0.513787 0.879118 0.783261
0.517388 0.887877 0.788296
0.517174 0.896483 0.792355
0.546929 0.899046 0.766293
0.605341 0.892882 0.704372
0.741756 0.869688 0.715114
0.812619 0.847440 0.734859
0.834348 0.823819 0.754452
0.817472 0.804471 0.780636
0.841794 0.797787 0.769924
0.910430 0.758511 0.680018
0.982483 0.695338 0.502586
1.000000 0.622644 0.223026
1.000000 0.577630 0.000000
1.000000 0.556695 0.000000
1.000000 0.549218 0.000000
1.000000 0.547997 0.000000
1.000000 0.550469 0.000000
1.000000 0.553643 0.000000
0.000000 0.865385 0.745510
0.000000 0.867491 0.749111
0.000000 0.869657 0.753048
0.000000 0.871397 0.756771
0.000000 0.872496 0.760067
0.000000 0.872618 0.762173
0.152377 0.872251 0.764096
0.252598 0.871733 0.766293
0.327947 0.871733 0.769619
0.393286 0.872068 0.773861
0.451087 0.872862 0.778866
0.503624 0.874083 0.784543
0.540673 0.877012 0.790158
0.547143 0.885252 0.795834
0.551995 0.893400 0.801022
0.554864 0.901396 0.805600
0.555779 0.909148 0.809476
0.587488 0.910948 0.781216
0.638819 0.905974 0.727047
0.761105 0.886564 0.739071
0.827634 0.868376 0.757900
0.854734 0.851225 0.776761
0.840879 0.828733 0.798276
0.844053 0.832303 0.812253
0.906035 0.800504 0.742855
0.966430 0.758206 0.628870
1.000000 0.688167 0.391669
1.000000 0.631861 0.000000
1.000000 0.599542 0.000000
1.000000 0.587488 0.000000
1.000000 0.585657 0.000000
1.000000 0.588983 0.000000
0.000000 0.880308 0.768765
0.000000 0.882292 0.772000
0.000000 0.884459 0.775784
0.157290 0.886259 0.779324
0.227176 0.887449 0.782345
0.274815 0.887755 0.784329
0.317113 0.887602 0.786007
0.358862 0.887266 0.787839
0.402045 0.887205 0.790402
0.445380 0.887358 0.793606
0.488289 0.888029 0.797696
0.529473 0.888945 0.802243
0.567987 0.890013 0.806973
0.584649 0.895262 0.812100
0.590112 0.902556 0.817166
0.594385 0.909667 0.821744
0.597436 0.916686 0.825834
0.599359 0.923674 0.829557
0.630549 0.924437 0.798947
0.674098 0.920256 0.752010
0.781918 0.903593 0.764187
0.843748 0.888365 0.781582
0.871916 0.874388 0.799130
0.864256 0.854429 0.817990
0.851560 0.860777 0.845304
0.905516 0.834684 0.791318
0.957855 0.803128 0.709010
1.000000 0.754574 0.553185
1.000000 0.692744 0.307042
1.000000 0.648859 0.000000
1.000000 0.628138 0.000000
1.000000 0.623316 0.000000
0.252689 0.895750 0.791989
0.275792 0.897398 0.794675
0.301732 0.899168 0.797635
0.328496 0.900633 0.800473
0.353338 0.901671 0.802884
0.377844 0.901946 0.804562
0.402899 0.901946 0.806088
0.429664 0.901793 0.807645
0.459815 0.901854 0.809903
0.491157 0.902037 0.812558
0.523857 0.902556 0.815854
0.556909 0.903349 0.819669
0.588983 0.904265 0.823728
0.617884 0.905852 0.828061
0.623987 0.912230 0.832853
0.629786 0.918791 0.837583
0.636042 0.925505 0.842527
0.642298 0.932403 0.847410
0.649195 0.939269 0.852445
0.682094 0.940276 0.822660
0.721340 0.937682 0.785824
0.814878 0.924987 0.800870
0.869169 0.913725 0.817563
0.896605 0.903929 0.834379
0.895109 0.889677 0.851499
0.885405 0.890684 0.873472
0.915984 0.878019 0.847044
0.961151 0.852995 0.785763
1.000000 0.823575 0.692744
1.000000 0.778988 0.524132
1.000000 0.728725 0.275639
1.000000 0.691829 0.000000
0.444282 0.919921 0.828061
0.448981 0.920531 0.829038
0.454047 0.920928 0.829831
0.461311 0.921141 0.830594
0.470619 0.921141 0.831296
0.481117 0.920867 0.831754
0.494331 0.920531 0.832456
0.511162 0.920378 0.833616
0.530999 0.920378 0.835294
0.553582 0.920653 0.837613
0.578180 0.921233 0.840482
0.603693 0.921874 0.843717
0.629145 0.922606 0.847135
0.655116 0.923461 0.850858
0.669978 0.926818 0.854887
0.676020 0.932067 0.858976
0.681941 0.937377 0.863066
0.688106 0.942748 0.867124
0.694453 0.948058 0.871153
0.701442 0.953338 0.874601
0.728481 0.953063 0.844358
0.760159 0.950042 0.813474
0.838193 0.938567 0.826749
0.884306 0.928435 0.839872
0.909606 0.919799 0.853819
0.911589 0.908232 0.868528
0.903319 0.905577 0.886687
0.918181 0.901671 0.879088
0.958862 0.880644 0.830503
0.999939 0.856229 0.759457
1.000000 0.823606 0.636683
1.000000 0.781094 0.455024
0.506279 0.932128 0.845731
0.509056 0.932494 0.846403
0.513268 0.932891 0.847166
0.518853 0.933104 0.847837
0.525505 0.933135 0.848447
0.533959 0.933013 0.849027
0.544427 0.932860 0.849729
0.557336 0.932708 0.850736
0.573022 0.932769 0.852232
0.591363 0.933013 0.854246
0.611536 0.933440 0.856748
0.632959 0.934020 0.859586
0.655421 0.934661 0.862760
0.678340 0.935424 0.866209
0.701411 0.936370 0.869993
0.708156 0.940948 0.873960
0.715297 0.945525 0.877989
0.722560 0.950134 0.881987
0.730037 0.954772 0.886015
0.737728 0.959319 0.890013
0.748318 0.962982 0.889158
0.769863 0.963012 0.863951
0.798734 0.959991 0.841184
0.861692 0.950652 0.852598
0.895109 0.938598 0.855924
0.918914 0.931121 0.868223
0.923980 0.922118 0.881651
0.916991 0.917357 0.897063
0.920226 0.919402 0.902953
0.956359 0.901946 0.864469
0.993927 0.880858 0.807858
1.000000 0.855406 0.719844
0.579919 0.947082 0.868376
0.583490 0.947662 0.869383
0.586603 0.947906 0.869963
0.588952 0.947784 0.870024
0.591821 0.947387 0.869871
0.595361 0.946807 0.869596
0.600336 0.946105 0.869291
0.607477 0.945434 0.869200
0.617304 0.944854 0.869566
0.629511 0.944488 0.870420
0.643641 0.944152 0.871580
0.660060 0.944091 0.873350
0.677913 0.944121 0.875456
0.696529 0.944244 0.877836
0.715541 0.944305 0.880369
0.727779 0.946197 0.883207
0.733089 0.949798 0.886229
0.739406 0.953643 0.889586
0.746700 0.957671 0.893309
0.755123 0.961822 0.897337
0.763912 0.965911 0.901427
0.776150 0.968505 0.897002
0.793759 0.968566 0.874662
0.820401 0.965179 0.856352
0.873472 0.956603 0.865293
0.907683 0.948760 0.873991
0.928985 0.942229 0.884123
0.935637 0.935058 0.895384
0.929534 0.928893 0.907774
0.923980 0.934203 0.922362
0.955261 0.919799 0.891783
0.988556 0.901732 0.846860
0.611536 0.954192 0.879118
0.614649 0.954681 0.879973
0.617700 0.954955 0.880613
0.620722 0.955016 0.881010
0.624262 0.954925 0.881254
0.629084 0.954742 0.881559
0.635615 0.954559 0.882078
0.643915 0.954406 0.882780
0.654414 0.954345 0.883909
0.666682 0.954376 0.885313
0.680201 0.954376 0.886961
0.695460 0.954467 0.888945
0.711482 0.954559 0.891081
0.728054 0.954559 0.893309
0.744961 0.954589 0.895689
0.762081 0.954681 0.898283
0.767086 0.957580 0.900847
0.772793 0.960601 0.903685
0.779629 0.963775 0.906859
0.787320 0.967102 0.910338
0.795529 0.970397 0.913970
0.803738 0.973541 0.917449
0.814939 0.975067 0.910246
0.827970 0.975189 0.891997
0.851743 0.971923 0.879423
0.893645 0.965087 0.886931
0.922026 0.958923 0.894377
0.940520 0.953796 0.902892
0.948425 0.948882 0.912657
0.943938 0.943084 0.922820
0.939117 0.946136 0.935119
0.957580 0.938048 0.918181
0.657099 0.963012 0.893675
0.658900 0.963226 0.894133
0.660365 0.963256 0.894377
0.662654 0.963256 0.894621
0.665278 0.963134 0.894774
0.669123 0.962921 0.894987
0.674311 0.962707 0.895384
0.681056 0.962493 0.895933
0.689387 0.962341 0.896788
0.699794 0.962219 0.897978
0.711574 0.962127 0.899413
0.724697 0.962127 0.901152
0.738888 0.962097 0.903136
0.753658 0.962097 0.905272
0.768551 0.962036 0.907439
0.783719 0.962005 0.909758
0.793393 0.963287 0.912169
0.798734 0.965728 0.914580
0.804929 0.968322 0.917357
0.812070 0.971038 0.920439
0.819669 0.973693 0.923613
0.827176 0.976287 0.926696
0.834226 0.978698 0.929595
0.843473 0.979431 0.920134
0.852781 0.979492 0.904570
0.873838 0.976226 0.895750
0.907530 0.970550 0.901732
0.931487 0.965270 0.907744
0.947814 0.960906 0.914946
0.956390 0.957458 0.923552
0.953338 0.952270 0.932555
0.949035 0.953399 0.942596
0.692866 0.969329 0.904936
0.693996 0.969451 0.905211
0.695735 0.969512 0.905547
0.697993 0.969543 0.905852
0.701411 0.969574 0.906310
0.706508 0.969635 0.907073
0.714260 0.969848 0.908354
0.723812 0.970123 0.909972
0.735348 0.970489 0.912016
0.748440 0.970916 0.914397
0.762631 0.971344 0.917052
0.777340 0.971710 0.919799
0.792172 0.972045 0.922637
0.806577 0.972259 0.925353
0.820462 0.972412 0.927977
0.833494 0.972442 0.930388
0.845396 0.972686 0.932830
0.850248 0.974365 0.934844
0.855802 0.976104 0.937102
0.861784 0.977874 0.939483
0.868132 0.979583 0.941955
0.874388 0.981201 0.944335
0.880125 0.982666 0.946532
0.885496 0.984009 0.948516
0.890532 0.984222 0.939452
0.895140 0.984344 0.928527
0.910002 0.981689 0.923949
0.931792 0.977783 0.927642
0.948180 0.974121 0.931487
0.959930 0.970947 0.936248
0.966918 0.968627 0.942199
0.965057 0.964630 0.948425
0.758602 0.977752 0.923644
0.758877 0.977722 0.923674
0.759365 0.977691 0.923705
0.760433 0.977600 0.923766
0.762203 0.977508 0.923919
0.764950 0.977386 0.924193
0.769039 0.977234 0.924681
0.774411 0.977142 0.925383
0.781247 0.977050 0.926390
0.789242 0.976928 0.927611
0.798398 0.976867 0.929076
0.808438 0.976806 0.930755
0.819059 0.976776 0.932555
0.829953 0.976684 0.934478
