20 Preset/Dark Style/【3】LUT video cho PR-AE-FCPX/19Tones (5)/19T-ColourfulTones.Radisson.cube
# Created by Adobe Lightroom plugin Export LUT (1.24.0)
# www.johnrellis.com/lightroom/exportlut.htm
# Preset: 19T-ColourfulTones.Radisson
# Color profile: E:\lut插件\exportlut.1.24\exportlut.lrplugin\color profiles\Rec709gamma2.4.icc
LUT_3D_SIZE 8
DOMAIN_MIN 0.000000 0.000000 0.000000
DOMAIN_MAX 0.903226 0.903226 0.903226
0.000000 0.115084 0.140200
0.000000 0.115877 0.141482
0.000000 0.119936 0.148226
0.115389 0.123171 0.164797
0.334112 0.081483 0.213809
0.795346 0.000000 0.360784
0.976776 0.249729 0.535454
1.000000 0.535027 0.678920
0.000000 0.117098 0.142275
0.000000 0.118166 0.141451
0.005158 0.119539 0.144991
0.110445 0.121370 0.155703
0.295476 0.094484 0.189029
0.711788 0.000000 0.291814
0.943206 0.000000 0.451911
1.000000 0.458595 0.628901
0.000000 0.130831 0.156527
0.000000 0.131044 0.156893
0.046662 0.146761 0.146792
0.188327 0.155337 0.147036
0.447333 0.127382 0.160250
0.816922 0.000000 0.221408
1.000000 0.115877 0.409277
1.000000 0.515557 0.628595
0.194553 0.247379 0.266178
0.192996 0.246281 0.265293
0.202365 0.275242 0.262364
0.550561 0.463508 0.038605
0.833005 0.464027 0.000000
0.921202 0.443458 0.186557
1.000000 0.458991 0.366552
1.000000 0.563867 0.577752
0.585138 0.536736 0.545953
0.584192 0.535821 0.545068
0.598322 0.549065 0.557824
0.624720 0.637476 0.513298
0.831235 0.728237 0.264714
0.966522 0.660700 0.165774
1.000000 0.639704 0.364294
1.000000 0.677943 0.533379
0.782895 0.753536 0.752590
0.794095 0.767300 0.765835
0.797299 0.771206 0.769619
0.804440 0.779934 0.778042
0.812161 0.822934 0.722133
0.921843 0.857115 0.606775
1.000000 0.812802 0.533959
1.000000 0.801724 0.632685
0.874815 0.863096 0.859953
0.876432 0.864988 0.861814
0.876616 0.865171 0.862028
0.878752 0.867613 0.864469
0.876402 0.875242 0.858213
0.890745 0.898711 0.825589
0.956603 0.915953 0.769802
1.000000 0.884001 0.708675
0.928862 0.923491 0.921080
0.928893 0.923552 0.921141
0.929747 0.924498 0.922118
0.932036 0.927001 0.924651
0.925719 0.920073 0.917571
0.926848 0.932158 0.912322
0.941863 0.946838 0.895445
0.982147 0.954589 0.862364
0.000000 0.115999 0.141726
0.000000 0.116274 0.141238
0.000000 0.119600 0.147219
0.091432 0.122408 0.156374
0.264591 0.104982 0.187076
0.650507 0.000000 0.277958
0.910155 0.000000 0.426032
1.000000 0.397040 0.600122
0.000000 0.116854 0.142092
0.000000 0.118471 0.143221
0.000000 0.120211 0.146242
0.102205 0.121950 0.153323
0.270756 0.100343 0.175448
0.636316 0.000000 0.251377
0.889952 0.000000 0.383093
0.999390 0.331548 0.559991
0.000000 0.131106 0.156893
0.000000 0.131807 0.157412
0.029023 0.143343 0.150057
0.161288 0.150210 0.151980
0.364202 0.134310 0.163912
0.709560 0.000000 0.197574
0.943969 0.000000 0.305760
1.000000 0.374395 0.541131
0.138369 0.209445 0.231266
0.139162 0.210147 0.231876
0.152529 0.228275 0.237980
0.374701 0.342687 0.141146
0.669154 0.346075 0.094331
0.806149 0.339055 0.159152
0.960052 0.340734 0.280308
1.000000 0.449104 0.477516
0.551293 0.506432 0.516686
0.545251 0.501183 0.511559
0.549584 0.504875 0.515221
0.560601 0.576623 0.459724
0.777798 0.668727 0.199924
0.932738 0.615259 0.103700
0.987060 0.599298 0.313695
1.000000 0.638849 0.486488
0.761990 0.727901 0.728023
0.763699 0.729976 0.730037
0.768856 0.736233 0.736049
0.780819 0.750973 0.750118
0.792508 0.802518 0.696132
0.912871 0.845365 0.584955
1.000000 0.801175 0.514092
1.000000 0.787900 0.609735
0.863157 0.849668 0.846555
0.861601 0.847898 0.844785
0.861479 0.847715 0.844633
0.865385 0.852262 0.849149
0.867033 0.864195 0.847745
0.881834 0.889830 0.813138
0.950652 0.906798 0.748226
1.000000 0.872099 0.677974
0.923095 0.917174 0.914611
0.924193 0.918425 0.915892
0.924895 0.919188 0.916686
0.927489 0.922057 0.919585
0.930114 0.924895 0.922484
0.928496 0.933379 0.914733
0.940948 0.945953 0.894926
0.981323 0.953674 0.861387
0.000000 0.119387 0.148409
0.000000 0.119203 0.147982
0.000000 0.122957 0.148409
0.081270 0.138277 0.173373
0.293065 0.142214 0.239780
0.707149 0.000000 0.365240
0.929900 0.207004 0.497719
1.000000 0.458686 0.625635
0.000000 0.122103 0.150423
0.000000 0.121950 0.150637
0.000000 0.126497 0.152407
0.093843 0.140444 0.177432
0.301122 0.138827 0.231907
0.685603 0.000000 0.336004
0.915801 0.121492 0.459876
1.000000 0.417517 0.596155
0.000000 0.132235 0.157778
0.000000 0.134859 0.160372
0.017884 0.146700 0.165805
0.169833 0.153048 0.177768
0.442084 0.112673 0.213199
0.767269 0.000000 0.290257
0.949310 0.163058 0.421515
1.000000 0.437354 0.576349
0.169345 0.230472 0.250614
0.188388 0.243229 0.262425
0.221775 0.265843 0.283421
0.410498 0.369207 0.206668
0.687861 0.364965 0.204196
0.838071 0.369879 0.275792
0.970581 0.414374 0.411780
1.000000 0.525536 0.562799
0.572564 0.525231 0.534905
0.574151 0.526665 0.536248
0.587884 0.539269 0.548363
0.608759 0.596185 0.544213
0.789456 0.690700 0.359594
0.926726 0.633387 0.313909
0.973663 0.625696 0.430152
1.000000 0.666194 0.569635
0.766690 0.733639 0.733516
0.769253 0.736782 0.736568
0.773404 0.741848 0.741360
0.782437 0.752926 0.752010
0.790433 0.796170 0.714473
0.902373 0.840818 0.623865
0.994018 0.805844 0.582910
1.000000 0.800168 0.661616
0.869444 0.856931 0.853819
0.868315 0.855650 0.852506
0.866972 0.854093 0.850950
0.869017 0.856443 0.853330
0.871855 0.864195 0.855497
0.883635 0.890929 0.826108
0.949157 0.910491 0.776638
1.000000 0.883085 0.731411
0.924743 0.919005 0.916472
0.924315 0.918517 0.915984
0.924895 0.919188 0.916655
0.928801 0.923430 0.921019
0.931334 0.926207 0.923888
0.931456 0.934691 0.919860
0.942657 0.947601 0.902281
0.980774 0.955322 0.871855
0.000000 0.124361 0.162997
0.000000 0.124392 0.163729
0.000000 0.132479 0.165225
0.011994 0.150027 0.175723
0.272648 0.231083 0.277348
0.654688 0.301244 0.467201
0.858610 0.426429 0.609796
0.955383 0.567163 0.700557
0.000000 0.129702 0.171176
0.000000 0.129458 0.172213
0.001373 0.139223 0.174197
0.041444 0.162081 0.187259
0.319890 0.248386 0.301091
0.667567 0.311986 0.478889
0.862974 0.423743 0.603021
0.957671 0.564569 0.695247
0.000000 0.150851 0.184848
0.000000 0.153140 0.187839
0.000366 0.159854 0.201419
0.135500 0.207584 0.229709
0.438392 0.284428 0.362463
0.748745 0.358801 0.511131
0.910369 0.503746 0.630793
0.974640 0.615412 0.711055
0.109682 0.228550 0.244846
0.132479 0.234958 0.251225
0.228794 0.270573 0.287724
0.367864 0.351080 0.311864
0.613458 0.351476 0.346563
0.820768 0.389075 0.437995
0.941741 0.485237 0.553948
0.995850 0.607538 0.667933
0.581201 0.533104 0.542473
0.586389 0.537865 0.547051
0.622217 0.572107 0.579889
0.666987 0.618219 0.623835
0.781765 0.704067 0.532280
0.897398 0.665919 0.522820
0.943450 0.671290 0.579278
0.993561 0.707790 0.677272
0.784878 0.755978 0.754910
0.795651 0.769192 0.767666
0.801266 0.776089 0.774319
0.809537 0.786191 0.784115
0.814450 0.811978 0.774960
0.894163 0.846952 0.707301
0.970947 0.821378 0.687648
0.994903 0.818540 0.730312
0.875181 0.863554 0.860410
0.876432 0.864958 0.861814
0.878355 0.867155 0.864012
0.882139 0.871489 0.868345
0.886656 0.876585 0.873472
0.891356 0.896880 0.852842
0.945861 0.914153 0.811643
1.000000 0.892851 0.784482
0.931121 0.925994 0.923613
0.931151 0.926024 0.923644
0.931579 0.926482 0.924163
0.933257 0.928313 0.926024
0.935332 0.930602 0.928344
0.936400 0.936187 0.928069
0.944610 0.949401 0.912963
0.979889 0.958038 0.888579
0.000000 0.136904 0.212711
0.000000 0.137179 0.217441
0.000000 0.150088 0.226505
0.157717 0.214298 0.243381
0.243931 0.280888 0.297368
0.608240 0.511406 0.538537
0.813993 0.595758 0.674739
0.901671 0.696834 0.775723
0.000000 0.147799 0.229435
0.000000 0.148135 0.235294
0.013275 0.160861 0.246128
0.185733 0.230381 0.261295
0.280644 0.305821 0.320897
0.628779 0.522148 0.552178
0.817990 0.601923 0.680323
0.902342 0.699245 0.777615
0.000000 0.190707 0.263066
0.000000 0.194003 0.271397
0.000000 0.196750 0.292607
0.280278 0.285618 0.327520
0.380102 0.374609 0.387518
0.660212 0.520653 0.564050
0.823911 0.604944 0.686549
0.905455 0.691341 0.771237
0.000000 0.279484 0.315526
0.000000 0.284276 0.320775
0.000000 0.308507 0.348150
0.357733 0.368780 0.429175
0.563622 0.517235 0.527123
0.739132 0.570886 0.628138
0.860105 0.636408 0.706569
0.932769 0.704860 0.766140
0.405066 0.463630 0.463081
0.429847 0.474159 0.474250
0.517845 0.510430 0.514275
0.625422 0.575311 0.582940
0.708583 0.642969 0.591058
0.815946 0.630182 0.601984
0.908659 0.664698 0.670893
0.966400 0.715633 0.737453
0.735439 0.695857 0.697536
0.739345 0.700526 0.701961
0.747829 0.710689 0.711635
0.770474 0.738247 0.737942
0.793423 0.766476 0.765042
0.866026 0.825254 0.733639
0.939178 0.813748 0.738369
0.969512 0.816190 0.764675
0.861936 0.848295 0.845182
0.861631 0.847959 0.844846
0.864317 0.851041 0.847929
0.876158 0.864652 0.861509
0.883696 0.873228 0.870085
0.887358 0.888792 0.864439
0.935546 0.908232 0.828275
0.986389 0.889158 0.809110
0.920897 0.914794 0.912169
0.921355 0.915312 0.912718
0.923949 0.918151 0.915618
0.931487 0.926390 0.924041
0.934569 0.929747 0.927459
0.938231 0.933745 0.931548
0.942229 0.946746 0.919310
0.975708 0.955993 0.895903
0.000000 0.182010 0.376959
0.000000 0.181643 0.385565
0.000000 0.200626 0.400946
0.341650 0.282536 0.438727
0.532067 0.489998 0.500725
0.612390 0.562493 0.570672
0.778256 0.747799 0.747097
0.878325 0.791043 0.814694
0.000000 0.191379 0.371405
0.000000 0.189975 0.375677
0.000000 0.204410 0.393469
0.334569 0.284398 0.434852
0.512108 0.473457 0.484657
0.598932 0.549584 0.558343
0.770962 0.738643 0.738369
0.874876 0.782559 0.808072
0.000000 0.274052 0.442817
0.000000 0.273381 0.448768
0.000000 0.277867 0.478035
0.407416 0.354070 0.508659
0.597894 0.548638 0.557427
0.662104 0.612970 0.618860
0.798245 0.753933 0.758389
0.883574 0.792416 0.818204
0.000000 0.376562 0.466438
0.000000 0.380041 0.474647
0.000000 0.410956 0.526024
0.477821 0.481880 0.612024
0.715602 0.663569 0.675898
0.756344 0.721004 0.721462
0.841306 0.786831 0.796628
0.901549 0.815488 0.840940
0.000000 0.527123 0.551598
0.000000 0.530510 0.555138
0.260563 0.546929 0.572747
0.446876 0.580560 0.609247
0.690608 0.650874 0.684138
0.782620 0.748531 0.749111
0.853147 0.772427 0.794186
0.913207 0.805783 0.835904
0.656123 0.680781 0.674281
0.670802 0.690974 0.684535
0.701534 0.705440 0.700221
0.751369 0.732815 0.729915
0.794553 0.767849 0.766384
0.841581 0.812100 0.780423
0.900175 0.807614 0.789731
0.952239 0.824826 0.825101
0.856016 0.841398 0.838346
0.858732 0.844572 0.841489
0.863371 0.849973 0.846830
0.872435 0.860349 0.857206
0.885832 0.875639 0.872557
0.897368 0.888670 0.885679
0.929259 0.909728 0.861967
0.971130 0.896880 0.854887
0.915953 0.909361 0.906645
0.915831 0.909209 0.906493
0.917784 0.911376 0.908690
0.923980 0.918212 0.915679
0.932860 0.927916 0.925597
0.939147 0.934722 0.932586
0.942840 0.945159 0.931029
0.971893 0.955993 0.910918
0.000000 0.272923 0.594965
0.000000 0.275547 0.603967
0.083101 0.297398 0.617060
0.477516 0.388708 0.643519
0.680354 0.564233 0.668513
0.728298 0.687373 0.689448
0.762997 0.729152 0.729244
0.842222 0.825223 0.822354
0.000000 0.279606 0.582177
0.000000 0.282994 0.592615
0.000000 0.297826 0.607141
0.454017 0.379644 0.630030
0.665217 0.548608 0.655573
0.714565 0.671321 0.674250
0.748867 0.711971 0.712856
0.832181 0.813382 0.810666
0.000000 0.364935 0.622309
0.000000 0.364904 0.626276
0.112093 0.365209 0.638361
0.483009 0.436255 0.660731
0.689479 0.586694 0.684962
0.744991 0.707240 0.708400
0.779629 0.749538 0.748745
0.852049 0.836759 0.833738
0.000000 0.476173 0.645869
0.000000 0.476844 0.648676
0.209781 0.492195 0.669612
0.497322 0.522057 0.701442
0.720089 0.646784 0.732174
0.792844 0.765774 0.764340
0.819364 0.798001 0.795651
0.874174 0.858030 0.856229
0.000000 0.563958 0.640467
0.000000 0.560479 0.638117
0.000000 0.558953 0.640650
0.295506 0.581872 0.678035
0.677729 0.659358 0.745083
0.816526 0.792142 0.792203
0.840726 0.823484 0.820615
0.894743 0.866911 0.869841
0.457771 0.704646 0.715450
0.469276 0.706661 0.717586
0.509728 0.712825 0.724361
0.576715 0.724483 0.737636
0.659236 0.740505 0.756588
0.814878 0.797696 0.813535
0.875761 0.863981 0.860899
0.915160 0.875242 0.884123
0.776028 0.811765 0.802487
0.780789 0.814389 0.805325
0.794308 0.820279 0.811887
0.819516 0.832700 0.825589
0.851835 0.850156 0.844999
0.883452 0.872984 0.869841
0.909941 0.896330 0.878325
0.945739 0.888762 0.879576
0.907469 0.899931 0.897093
0.908354 0.900908 0.898070
0.912749 0.905791 0.903014
0.918791 0.912474 0.909819
0.927031 0.921508 0.919036
0.938018 0.933471 0.931304
0.947967 0.944335 0.942412
0.967956 0.957031 0.929931
0.198703 0.443580 0.773556
0.256779 0.448005 0.776333
0.400549 0.462684 0.777005
0.602045 0.540124 0.783139
0.744991 0.649561 0.789242
0.816373 0.763790 0.796780
0.828916 0.809476 0.806851
0.846281 0.830014 0.827054
0.170108 0.444556 0.766476
0.237308 0.449195 0.769802
0.384894 0.462074 0.773312
0.591394 0.535851 0.778927
0.739284 0.644678 0.785885
0.813840 0.760067 0.794308
0.825650 0.805539 0.803006
0.842496 0.825589 0.822690
0.232517 0.495644 0.770291
0.276616 0.497353 0.772030
0.397528 0.502495 0.775570
0.594903 0.566613 0.788388
0.742336 0.663386 0.794400
0.819303 0.767636 0.802792
0.833982 0.815488 0.812741
0.850187 0.834623 0.831601
0.236820 0.573205 0.773800
0.288701 0.575586 0.776577
0.414069 0.579065 0.782437
0.574029 0.603754 0.795865
0.738766 0.688136 0.807614
0.830838 0.784970 0.821439
0.852750 0.837583 0.834562
0.867826 0.855070 0.851926
0.000000 0.619562 0.752804
0.000000 0.622126 0.757137
0.000000 0.624750 0.766842
0.501701 0.656794 0.791012
0.693355 0.695766 0.813291
0.827756 0.789425 0.833219
0.870207 0.857847 0.854704
0.886778 0.876738 0.873625
0.000000 0.723049 0.776272
0.000000 0.720516 0.774685
0.000000 0.714290 0.772122
0.169619 0.707942 0.772824
0.493263 0.713558 0.791165
0.797696 0.793332 0.845884
0.898253 0.887846 0.886656
0.915190 0.908507 0.905791
0.658412 0.831601 0.833951
0.660945 0.831632 0.834104
0.672663 0.832242 0.835325
0.699397 0.835843 0.840024
0.737789 0.841978 0.847990
0.781125 0.847776 0.857267
0.887755 0.882109 0.893278
0.932006 0.926940 0.924620
0.845182 0.889830 0.881285
0.846250 0.889952 0.881468
0.852598 0.891783 0.883696
0.866545 0.896849 0.889586
0.886900 0.905669 0.899657
0.911406 0.917876 0.913451
0.938811 0.934630 0.932433
0.955901 0.950072 0.941619
