20 Preset/Dark Style/【3】LUT video cho PR-AE-FCPX/19Tones (5)/19T-ColourfulTones.Radisson.cube
# Created by Adobe Lightroom plugin Export LUT (1.24.0)
# www.johnrellis.com/lightroom/exportlut.htm
# Preset: 19T-ColourfulTones.Radisson
# Color profile: E:\lut插件\exportlut.1.24\exportlut.lrplugin\color profiles\Rec709gamma2.4.icc
LUT_3D_SIZE 5
DOMAIN_MIN 0.000000 0.000000 0.000000
DOMAIN_MAX 0.903226 0.903226 0.903226
0.000000 0.115084 0.140200
0.000000 0.118868 0.146212
0.200290 0.119387 0.183780
0.869017 0.000000 0.409400
1.000000 0.535027 0.678920
0.000000 0.125521 0.151064
0.007355 0.134340 0.145510
0.245365 0.134188 0.155306
0.887236 0.000000 0.280247
1.000000 0.536553 0.653254
0.408270 0.394812 0.407324
0.389044 0.380926 0.393683
0.742885 0.630610 0.097658
0.960967 0.545464 0.211948
1.000000 0.606653 0.539605
0.822385 0.801633 0.799191
0.824949 0.804715 0.802213
0.828428 0.824216 0.800992
0.932799 0.876036 0.662440
1.000000 0.823850 0.650843
0.928862 0.923491 0.921080
0.929412 0.924132 0.921721
0.924010 0.918242 0.915679
0.928679 0.936217 0.909117
0.982147 0.954589 0.862364
0.000000 0.118257 0.146151
0.000000 0.120394 0.145693
0.159304 0.136080 0.189975
0.746639 0.000000 0.341558
1.000000 0.398169 0.593500
0.000000 0.126162 0.151644
0.000000 0.133577 0.156008
0.234195 0.133425 0.176761
0.789944 0.000000 0.288945
1.000000 0.387304 0.555138
0.347662 0.351904 0.365270
0.354681 0.356756 0.370062
0.625269 0.525658 0.195590
0.900542 0.489357 0.255772
1.000000 0.602686 0.562158
0.820798 0.799710 0.797330
0.824704 0.804440 0.801907
0.831937 0.820249 0.808713
0.924346 0.871733 0.685420
1.000000 0.826688 0.679957
0.929168 0.923857 0.921416
0.929442 0.924163 0.921752
0.932403 0.927428 0.925078
0.934264 0.940459 0.918151
0.982605 0.958099 0.877470
0.000000 0.128542 0.180484
0.000000 0.134798 0.185672
0.110750 0.191257 0.214450
0.702785 0.424201 0.537224
0.924590 0.637659 0.746517
0.000000 0.158267 0.210483
0.000000 0.159396 0.222080
0.209964 0.257725 0.275853
0.729702 0.450813 0.564996
0.937102 0.649561 0.744808
0.230686 0.327123 0.333074
0.322484 0.360632 0.368414
0.573754 0.505333 0.447272
0.848844 0.531731 0.542687
0.981170 0.665949 0.704067
0.806760 0.782742 0.780789
0.808499 0.784878 0.782864
0.830320 0.811154 0.808499
0.901366 0.862791 0.755123
0.985779 0.831388 0.750851
0.925170 0.919463 0.916960
0.927977 0.922576 0.920134
0.931945 0.926909 0.924559
0.934966 0.936187 0.925383
0.976928 0.955352 0.887785
0.000000 0.190463 0.404028
0.000000 0.201389 0.427558
0.486091 0.381506 0.503685
0.642786 0.592889 0.599725
0.863340 0.795285 0.810727
0.000000 0.254002 0.450202
0.000000 0.253544 0.471229
0.526909 0.424262 0.542321
0.667567 0.618891 0.624445
0.866667 0.793362 0.811063
0.000000 0.418616 0.489998
0.000000 0.424903 0.500053
0.539788 0.522484 0.622644
0.751949 0.715663 0.716396
0.891936 0.810819 0.833829
0.705287 0.731411 0.723476
0.723201 0.737301 0.730434
0.795193 0.777890 0.774533
0.860563 0.836210 0.808438
0.947814 0.836210 0.833585
0.914733 0.907958 0.905211
0.917174 0.910674 0.907988
0.928618 0.923278 0.920836
0.942931 0.938842 0.936797
0.970886 0.956146 0.915282
0.198703 0.443580 0.773556
0.347784 0.451545 0.776608
0.682246 0.592523 0.786465
0.823148 0.789914 0.800015
0.846281 0.830014 0.827054
0.230961 0.482918 0.771206
0.363622 0.489540 0.775845
0.675959 0.603906 0.788205
0.826719 0.791714 0.804746
0.850370 0.834836 0.831846
0.000000 0.594110 0.766964
0.279362 0.603998 0.774838
0.630488 0.643702 0.800565
0.841215 0.804288 0.827665
0.875608 0.864042 0.860899
0.337896 0.759884 0.795621
0.357610 0.756283 0.794186
0.458473 0.749508 0.796811
0.822843 0.817990 0.857389
0.919005 0.912688 0.910063
0.845182 0.889830 0.881285
0.850340 0.891051 0.882811
0.876158 0.900908 0.894255
0.918151 0.921630 0.917693
0.955901 0.950072 0.941619
