20 Preset/Dark Style/【3】LUT video cho PR-AE-FCPX/19Tones (5)/19T-ColourfulTones.Radisson.cube
# Created by Adobe Lightroom plugin Export LUT (1.24.0)
# www.johnrellis.com/lightroom/exportlut.htm
# Preset: 19T-ColourfulTones.Radisson
# Color profile: E:\lut插件\exportlut.1.24\exportlut.lrplugin\color profiles\Rec709gamma2.4.icc
LUT_3D_SIZE 32
DOMAIN_MIN 0.0 0.0 0.0
DOMAIN_MAX 1.0 1.0 1.0
0.000000 0.115084 0.140200
0.000000 0.115084 0.140200
0.000000 0.115084 0.140200
0.000000 0.115084 0.140414
0.000000 0.115877 0.141482
0.000000 0.116670 0.142733
0.000000 0.117617 0.144411
0.000000 0.118868 0.146212
0.000000 0.119936 0.148226
0.009674 0.121157 0.150790
0.038056 0.121859 0.154086
0.084321 0.122744 0.158541
0.115389 0.123171 0.164797
0.152560 0.122683 0.172976
0.200290 0.119387 0.183780
0.261082 0.109255 0.197543
0.334112 0.081483 0.213809
0.419806 0.000000 0.233463
0.535912 0.000000 0.262913
0.687282 0.000000 0.311254
0.795346 0.000000 0.360784
0.869017 0.000000 0.409400
0.919158 0.000000 0.453712
0.953582 0.120027 0.495796
0.976776 0.249729 0.535454
0.992309 0.336309 0.572930
1.000000 0.410071 0.609369
1.000000 0.475319 0.644648
1.000000 0.535027 0.678920
1.000000 0.591241 0.712520
1.000000 0.644373 0.745388
1.000000 0.691585 0.775723
0.000000 0.115084 0.140200
0.000000 0.115084 0.140200
0.000000 0.115084 0.140200
0.000000 0.115419 0.140383
0.000000 0.115877 0.141482
0.000000 0.116670 0.142733
0.000000 0.117678 0.144411
0.000000 0.118563 0.146029
0.000000 0.119692 0.147829
0.007294 0.120943 0.150179
0.032013 0.121798 0.153292
0.077363 0.122530 0.157443
0.108888 0.123354 0.162997
0.144198 0.122927 0.170657
0.188968 0.120089 0.180636
0.246281 0.112032 0.193301
0.316503 0.091371 0.208835
0.399298 0.000000 0.227726
0.512322 0.000000 0.255711
0.657282 0.000000 0.299138
0.766781 0.000000 0.344396
0.843381 0.000000 0.389410
0.897093 0.000000 0.431189
0.936156 0.000000 0.471992
0.963592 0.180026 0.510796
0.983032 0.281102 0.548058
0.996765 0.363592 0.585931
1.000000 0.436713 0.623529
1.000000 0.502708 0.660273
1.000000 0.564172 0.696437
1.000000 0.621698 0.731411
1.000000 0.673640 0.764218
0.000000 0.115084 0.140200
0.000000 0.115084 0.140200
0.000000 0.115084 0.140200
0.000000 0.115419 0.140383
0.000000 0.115877 0.141482
0.000000 0.116670 0.142733
0.000000 0.117617 0.143954
0.000000 0.118563 0.145602
0.000000 0.119692 0.147402
0.008911 0.120638 0.149569
0.031952 0.121553 0.152499
0.075898 0.122347 0.156283
0.107393 0.122774 0.161379
0.140658 0.122713 0.168460
0.183627 0.120272 0.177646
0.238621 0.112978 0.189456
0.306706 0.094240 0.204105
0.387640 0.002167 0.222171
0.501884 0.000000 0.249699
0.640986 0.000000 0.289281
0.751705 0.000000 0.332280
0.830442 0.000000 0.375158
0.885893 0.000000 0.416510
0.927306 0.000000 0.456397
0.956725 0.127321 0.495064
0.977905 0.248081 0.532921
0.993378 0.336217 0.571466
1.000000 0.413275 0.610040
1.000000 0.483528 0.648524
1.000000 0.548119 0.686213
1.000000 0.607782 0.722316
1.000000 0.662257 0.756558
0.000000 0.115694 0.140841
0.000000 0.115694 0.140841
0.000000 0.115694 0.140841
0.000000 0.116274 0.140749
0.000000 0.116457 0.141176
0.000000 0.116854 0.142031
0.000000 0.117250 0.143099
0.000000 0.118196 0.144747
0.000000 0.119326 0.146548
0.015106 0.120241 0.148562
0.038727 0.121157 0.151095
0.080537 0.121736 0.154543
0.108797 0.122194 0.159335
0.140902 0.122011 0.165469
0.181521 0.119478 0.173739
0.233494 0.112764 0.184237
0.297765 0.096010 0.197238
0.373724 0.018006 0.213352
0.486854 0.000000 0.238743
0.612421 0.000000 0.271977
0.719722 0.000000 0.308995
0.801083 0.000000 0.348180
0.861936 0.000000 0.387701
0.909728 0.000000 0.428809
0.945800 0.000000 0.470527
0.972290 0.201511 0.512505
0.991241 0.308019 0.555383
1.000000 0.395850 0.598413
1.000000 0.471870 0.639918
1.000000 0.539300 0.679194
1.000000 0.599542 0.715999
1.000000 0.653529 0.749966
0.000000 0.117098 0.142275
0.000000 0.117098 0.142275
0.000000 0.117098 0.142275
0.000000 0.117433 0.142245
0.000000 0.118166 0.141451
0.000000 0.118257 0.141665
0.000000 0.118685 0.142733
0.000000 0.119020 0.143771
0.005158 0.119539 0.144991
0.020783 0.119875 0.146426
0.045441 0.120485 0.148836
0.085298 0.121096 0.151736
0.110445 0.121370 0.155703
0.141543 0.120760 0.160922
0.180636 0.118532 0.167910
0.231724 0.111574 0.177279
0.295476 0.094484 0.189029
0.371862 0.012360 0.204074
0.489906 0.000000 0.228733
0.607904 0.000000 0.258091
0.711788 0.000000 0.291814
0.792630 0.000000 0.328618
0.854765 0.000000 0.367224
0.904631 0.000000 0.408789
0.943206 0.000000 0.451911
0.971435 0.169558 0.496559
0.991485 0.288182 0.541436
1.000000 0.380011 0.586023
1.000000 0.458595 0.628901
1.000000 0.527276 0.669306
1.000000 0.588769 0.707088
1.000000 0.643641 0.741909
0.000000 0.118715 0.144106
0.000000 0.118715 0.144106
0.000000 0.118715 0.144106
0.000000 0.119020 0.144289
0.000000 0.119875 0.143740
0.000000 0.121157 0.142489
0.000000 0.121157 0.142214
0.000000 0.121492 0.143282
0.006714 0.122042 0.144747
0.026612 0.122255 0.145937
0.057130 0.122438 0.147524
0.092897 0.122072 0.149294
0.119142 0.121218 0.151553
0.151431 0.118990 0.155276
0.191684 0.115633 0.161105
0.243717 0.107088 0.169223
0.308751 0.084169 0.179904
0.401038 0.000000 0.195682
0.516136 0.000000 0.217655
0.629267 0.000000 0.244968
0.727352 0.000000 0.276371
0.804715 0.000000 0.312566
0.975982 0.093751 0.462440
0.996857 0.255253 0.511131
1.000000 0.349310 0.556115
1.000000 0.424720 0.597894
1.000000 0.487984 0.635859
1.000000 0.543450 0.670741
1.000000 0.593835 0.703365
1.000000 0.640314 0.734188
1.000000 0.681147 0.761959
1.000000 0.716518 0.786648
0.000000 0.122194 0.147646
0.000000 0.122194 0.147646
0.000000 0.122194 0.147646
0.000000 0.122194 0.147860
0.000000 0.122774 0.147585
0.000000 0.124392 0.145907
0.000000 0.127047 0.144015
0.020691 0.127596 0.142733
0.036316 0.127932 0.144198
0.062470 0.128481 0.145571
0.090333 0.129976 0.147189
0.116915 0.130007 0.149203
0.149172 0.128664 0.151736
0.189364 0.125154 0.154849
0.239475 0.116579 0.158846
0.300175 0.096101 0.164004
0.382727 0.000000 0.170932
0.505638 0.000000 0.185702
0.627375 0.000000 0.209262
0.736324 0.000000 0.240940
0.824735 0.000000 0.282078
0.894957 0.000000 0.330907
0.948089 0.000000 0.387488
0.984039 0.074250 0.447395
1.000000 0.269139 0.505608
1.000000 0.370001 0.557336
1.000000 0.445960 0.602441
1.000000 0.508354 0.642237
1.000000 0.563256 0.678309
1.000000 0.613001 0.712001
1.000000 0.657862 0.742916
1.000000 0.696925 0.770443
0.000000 0.125521 0.151064
0.000000 0.125521 0.151064
0.000000 0.125521 0.151278
0.000000 0.125490 0.151278
0.000000 0.125765 0.151461
0.000000 0.127413 0.150240
0.000000 0.130129 0.148043
0.007355 0.134340 0.145510
0.065919 0.136843 0.143221
0.092073 0.136812 0.144381
0.109529 0.137819 0.145815
0.129793 0.139376 0.147250
0.154391 0.141024 0.149142
0.195499 0.139406 0.151888
0.245365 0.134188 0.155306
0.312383 0.120455 0.160037
0.412146 0.057832 0.167086
0.520012 0.000000 0.176791
0.629450 0.000000 0.190066
0.731014 0.000000 0.208896
0.817105 0.000000 0.235386
0.887236 0.000000 0.280247
0.942229 0.000000 0.335149
0.981201 0.000000 0.395850
1.000000 0.198428 0.458381
1.000000 0.320470 0.516045
1.000000 0.407233 0.567407
1.000000 0.476570 0.612512
1.000000 0.536553 0.653254
1.000000 0.590295 0.690669
1.000000 0.638880 0.725124
1.000000 0.681392 0.755734
0.000000 0.130831 0.156527
0.000000 0.130831 0.156527
0.000000 0.130831 0.156527
0.000000 0.131106 0.156710
0.000000 0.131044 0.156893
0.000000 0.131594 0.157046
0.000000 0.135134 0.154086
0.000000 0.140261 0.150576
0.046662 0.146761 0.146792
0.111788 0.151827 0.143435
0.136538 0.152743 0.144228
0.160800 0.153719 0.145571
0.188327 0.155337 0.147036
0.220066 0.157137 0.148775
0.274540 0.159609 0.150881
0.355810 0.151583 0.154543
0.447333 0.127382 0.160250
0.545006 0.020478 0.168246
0.644678 0.000000 0.179934
0.736934 0.000000 0.196780
0.816922 0.000000 0.221408
0.884825 0.000000 0.254612
0.940703 0.000000 0.296788
0.982452 0.000000 0.347082
1.000000 0.115877 0.409277
1.000000 0.277562 0.472969
1.000000 0.374609 0.531151
1.000000 0.450965 0.582605
1.000000 0.515557 0.628595
1.000000 0.572229 0.669886
1.000000 0.623407 0.707607
1.000000 0.668574 0.741360
0.000000 0.139345 0.165072
0.000000 0.139101 0.165103
0.000000 0.139162 0.165103
0.000000 0.139345 0.165255
0.000000 0.139345 0.165255
0.000000 0.139803 0.165560
0.000000 0.141939 0.163882
0.000000 0.148104 0.158999
0.030518 0.156069 0.153902
0.101747 0.166445 0.147829
0.155795 0.174075 0.142367
0.197574 0.177279 0.141817
0.241001 0.181399 0.142855
0.290379 0.185153 0.144076
0.345953 0.188205 0.145480
0.405066 0.189487 0.147402
0.482185 0.183719 0.150423
0.576501 0.160586 0.155673
0.670253 0.115572 0.165530
0.753841 0.000000 0.182254
0.824704 0.000000 0.205692
0.884215 0.000000 0.236820
0.933928 0.000000 0.274357
0.972778 0.000000 0.319341
1.000000 0.144350 0.369482
1.000000 0.239445 0.422004
1.000000 0.320043 0.476234
1.000000 0.404974 0.535210
1.000000 0.479622 0.590143
1.000000 0.544030 0.639094
1.000000 0.601495 0.683375
1.000000 0.652399 0.722866
0.011902 0.150820 0.176303
0.011902 0.150820 0.176303
0.013611 0.150790 0.176486
0.013581 0.151186 0.176761
0.013519 0.151583 0.177066
0.016175 0.152102 0.177646
0.016785 0.153079 0.178531
0.009674 0.159854 0.173068
0.032380 0.169986 0.166049
0.101869 0.185519 0.158083
0.167391 0.207462 0.147494
0.249668 0.223575 0.135805
0.332494 0.233860 0.129183
0.383520 0.233646 0.130495
0.437964 0.233127 0.132204
0.495155 0.232639 0.134066
0.554101 0.232242 0.136873
0.613977 0.232822 0.140566
0.689998 0.222385 0.148653
0.763180 0.205356 0.162387
0.827146 0.187045 0.183078
0.882628 0.173373 0.213352
0.930266 0.174533 0.251774
0.968261 0.197848 0.296269
0.997345 0.239658 0.346471
1.000000 0.291508 0.399817
1.000000 0.349157 0.454902
1.000000 0.409552 0.509941
1.000000 0.468452 0.561913
1.000000 0.527092 0.611749
1.000000 0.587396 0.661341
1.000000 0.640925 0.705348
0.069642 0.170565 0.195315
0.069947 0.170565 0.195163
0.071595 0.170871 0.195560
0.073243 0.171176 0.195956
0.077760 0.172580 0.197208
0.083131 0.174899 0.199191
0.089754 0.177859 0.202029
0.092012 0.184115 0.202792
0.093660 0.201816 0.192782
0.127810 0.224765 0.180240
0.193149 0.253513 0.163210
0.288029 0.286015 0.138521
0.582391 0.412848 0.000000
0.695064 0.425147 0.000000
0.734310 0.411353 0.000000
0.769833 0.400092 0.000000
0.801938 0.391913 0.031342
0.832151 0.387304 0.105501
0.860777 0.387518 0.140108
0.888060 0.392462 0.171664
0.927459 0.387213 0.213870
0.960388 0.385992 0.256535
0.987457 0.391089 0.301671
1.000000 0.403815 0.350408
1.000000 0.425971 0.406897
1.000000 0.454994 0.462135
1.000000 0.487800 0.513054
1.000000 0.522179 0.559289
1.000000 0.558007 0.602136
1.000000 0.595148 0.642451
1.000000 0.632746 0.680476
1.000000 0.669276 0.715602
0.194553 0.247379 0.266178
0.194278 0.247196 0.266117
0.193668 0.246738 0.265629
0.193118 0.246372 0.265385
0.192996 0.246281 0.265293
0.194430 0.247288 0.266117
0.197787 0.249699 0.268284
0.204105 0.253941 0.272251
0.202365 0.275242 0.262364
0.222385 0.311223 0.241001
0.289342 0.356329 0.212802
0.404974 0.409583 0.168429
0.550561 0.463508 0.038605
0.662593 0.477394 0.000000
0.772976 0.494331 0.000000
0.805539 0.478187 0.000000
0.833005 0.464027 0.000000
0.856901 0.452338 0.000000
0.879698 0.445136 0.104952
0.901061 0.442023 0.149508
0.921202 0.443458 0.186557
0.943389 0.446662 0.225467
0.971771 0.445045 0.271916
0.995483 0.449165 0.319463
1.000000 0.458991 0.366552
1.000000 0.476081 0.420630
1.000000 0.501396 0.476967
1.000000 0.531334 0.529656
1.000000 0.563867 0.577752
1.000000 0.598810 0.622553
1.000000 0.634699 0.664363
1.000000 0.670192 0.702663
0.297978 0.317571 0.332128
0.296452 0.316594 0.331182
0.292760 0.314153 0.328862
0.289738 0.312016 0.326879
0.286442 0.309789 0.324743
0.284398 0.308385 0.323400
0.285069 0.308843 0.323735
0.289738 0.312016 0.326879
0.298314 0.319493 0.331884
0.298009 0.357580 0.308293
0.336431 0.403449 0.280125
0.420996 0.456062 0.241855
0.540703 0.510002 0.180117
0.663355 0.555474 0.000000
0.742702 0.552087 0.000000
0.837430 0.560754 0.000000
0.860624 0.539818 0.000000
0.880735 0.521843 0.000000
0.899596 0.508354 0.000000
0.917113 0.499001 0.123537
0.933837 0.494545 0.172976
0.950103 0.495155 0.214267
0.965057 0.499886 0.253391
0.984344 0.503990 0.298711
1.000000 0.507897 0.348486
1.000000 0.516564 0.397253
1.000000 0.530755 0.446540
1.000000 0.553368 0.503868
1.000000 0.580499 0.556481
1.000000 0.610864 0.605066
1.000000 0.643336 0.649989
1.000000 0.676783 0.691402
0.408270 0.394812 0.407324
0.407538 0.394232 0.406744
0.403540 0.391363 0.403906
0.398383 0.387732 0.400336
0.392645 0.383551 0.396246
0.387396 0.379828 0.392615
0.386053 0.378882 0.391608
0.389044 0.380926 0.393683
0.397864 0.387304 0.399908
0.402655 0.410651 0.395361
0.416297 0.456641 0.367956
0.467628 0.507073 0.334539
0.549828 0.555444 0.288731
0.646509 0.597925 0.223850
0.742885 0.630610 0.097658
0.803952 0.618036 0.000000
0.884245 0.616785 0.000000
0.902037 0.593683 0.000000
0.918181 0.574853 0.000000
0.932952 0.560052 0.096101
0.947173 0.550256 0.164279
0.960967 0.545464 0.211948
0.973816 0.545037 0.254032
0.985595 0.549004 0.294743
0.996094 0.556786 0.334569
1.000000 0.561852 0.383490
1.000000 0.570581 0.433600
1.000000 0.584619 0.482918
1.000000 0.606653 0.539605
1.000000 0.633814 0.593744
1.000000 0.663996 0.643610
1.000000 0.695552 0.688960
0.505669 0.468299 0.479561
0.506249 0.468757 0.480018
0.505058 0.467842 0.479103
0.503471 0.466621 0.477882
0.501732 0.465187 0.476509
0.501396 0.464881 0.476204
0.504479 0.467384 0.478645
0.510948 0.472572 0.483711
0.520684 0.480476 0.491493
0.533257 0.491005 0.501671
0.531853 0.525811 0.482734
0.545800 0.565698 0.449805
0.584405 0.602564 0.409125
0.643854 0.635187 0.355566
0.716945 0.663233 0.285283
0.792996 0.683894 0.182132
0.842741 0.666194 0.000000
0.911986 0.657923 0.000000
0.929747 0.636042 0.000000
0.943877 0.617975 0.023041
0.957458 0.605097 0.157992
0.970245 0.596796 0.214450
0.982025 0.592920 0.261570
0.992737 0.593469 0.304692
1.000000 0.597864 0.346685
1.000000 0.606134 0.388647
1.000000 0.617334 0.432044
1.000000 0.626947 0.482765
1.000000 0.640436 0.530694
1.000000 0.659907 0.582574
1.000000 0.683833 0.633997
1.000000 0.709957 0.680293
0.585138 0.536736 0.545953
0.585138 0.536736 0.545953
0.584741 0.536278 0.545556
0.584192 0.535821 0.545068
0.584192 0.535821 0.545068
0.584894 0.536461 0.545739
0.587366 0.538750 0.547906
0.591852 0.542962 0.551965
0.598322 0.549065 0.557824
0.606622 0.556970 0.565393
0.612726 0.571099 0.568658
0.610529 0.605127 0.544182
0.624720 0.637476 0.513298
0.657160 0.666926 0.473182
0.706233 0.692561 0.420905
0.766964 0.713649 0.352819
0.831235 0.728237 0.264714
0.874327 0.709621 0.158328
0.932616 0.696834 0.000000
0.953948 0.676936 0.006775
0.966522 0.660700 0.165774
0.978180 0.649104 0.226749
0.988922 0.641718 0.276005
0.998474 0.638666 0.321141
1.000000 0.639704 0.364294
1.000000 0.644678 0.406256
1.000000 0.653437 0.448524
1.000000 0.665339 0.489723
1.000000 0.677943 0.533379
1.000000 0.690761 0.578637
1.000000 0.708400 0.627405
1.000000 0.730159 0.676020
0.656794 0.607385 0.613519
0.657710 0.608423 0.614466
0.720485 0.678187 0.680751
0.720394 0.678096 0.680690
0.720333 0.678004 0.680598
0.720302 0.677943 0.680537
0.720699 0.678401 0.680964
0.722225 0.680201 0.682673
0.724941 0.683436 0.685725
0.729061 0.688228 0.690303
0.733700 0.693782 0.695583
0.731350 0.709102 0.687892
0.729091 0.729519 0.665675
0.736934 0.747829 0.637720
0.756435 0.763455 0.602228
0.788083 0.776455 0.557244
0.830838 0.786709 0.498878
0.880034 0.792660 0.424140
0.915038 0.772366 0.338567
0.961547 0.753323 0.254582
0.983093 0.733333 0.257511
0.991974 0.717891 0.302037
1.000000 0.706477 0.341833
1.000000 0.698817 0.379614
1.000000 0.694301 0.414710
1.000000 0.693233 0.448585
1.000000 0.695277 0.481697
1.000000 0.700954 0.515435
1.000000 0.710353 0.550225
1.000000 0.722774 0.585565
1.000000 0.735103 0.625574
1.000000 0.750698 0.670588
0.727016 0.685847 0.688014
0.731746 0.691402 0.693324
0.736568 0.697200 0.698817
0.740841 0.702266 0.703639
0.743984 0.706081 0.707271
0.745418 0.707759 0.708858
0.746212 0.708705 0.709773
0.746914 0.709590 0.710567
0.748775 0.711788 0.712703
0.751217 0.714809 0.715572
0.754635 0.718898 0.719478
0.758480 0.723598 0.723934
0.752224 0.740688 0.708064
0.752285 0.757168 0.687404
0.760769 0.772091 0.660945
0.779446 0.785092 0.628107
0.808621 0.796170 0.587671
0.847959 0.805692 0.537621
0.893095 0.811643 0.476204
0.925994 0.795010 0.406531
0.968414 0.777646 0.337285
0.993225 0.760861 0.329473
1.000000 0.747738 0.367834
1.000000 0.737819 0.403082
1.000000 0.730800 0.436286
1.000000 0.726680 0.467231
1.000000 0.725734 0.497780
1.000000 0.728176 0.528893
1.000000 0.734127 0.561303
1.000000 0.743465 0.594568
1.000000 0.755550 0.628717
1.000000 0.769406 0.662959
0.756100 0.720699 0.721157
0.760067 0.725551 0.725795
0.764309 0.730739 0.730739
0.768124 0.735378 0.735195
0.770932 0.738827 0.738491
0.772244 0.740475 0.740047
0.772915 0.741299 0.740841
0.773495 0.742000 0.741512
0.774685 0.743465 0.742916
0.776364 0.745480 0.744839
0.778622 0.748257 0.747524
0.781308 0.751583 0.750729
0.780758 0.758633 0.748470
0.776608 0.773068 0.733242
0.778256 0.786343 0.714595
0.787167 0.798306 0.691279
0.804440 0.808957 0.662226
0.830777 0.818357 0.626886
0.865934 0.826596 0.584039
0.906401 0.831876 0.532830
0.936156 0.817594 0.475532
0.974121 0.801633 0.418250
1.000000 0.786465 0.399969
1.000000 0.775051 0.432868
1.000000 0.766110 0.462348
1.000000 0.759701 0.490211
1.000000 0.756100 0.517418
1.000000 0.755581 0.545464
1.000000 0.758694 0.575219
1.000000 0.765072 0.606653
1.000000 0.774228 0.638422
1.000000 0.785397 0.670008
0.782895 0.753536 0.752590
0.785946 0.757290 0.756191
0.789120 0.761196 0.759945
0.791958 0.764645 0.763272
0.794095 0.767300 0.765835
0.795193 0.768643 0.767147
0.795834 0.769436 0.767880
0.796353 0.770047 0.768490
0.797299 0.771206 0.769619
0.798489 0.772702 0.771054
0.800290 0.774868 0.773129
0.802335 0.777371 0.775570
0.804440 0.779934 0.778042
0.801175 0.789242 0.770626
0.799100 0.800992 0.756985
0.802335 0.812161 0.740871
0.812161 0.822934 0.722133
0.829252 0.833005 0.699825
0.853971 0.842405 0.673823
0.885740 0.851072 0.642817
0.921843 0.857115 0.606775
0.948821 0.846891 0.566857
0.981537 0.833768 0.526177
1.000000 0.821256 0.506676
1.000000 0.812802 0.533959
1.000000 0.806241 0.558892
1.000000 0.801999 0.582483
1.000000 0.800412 0.606897
1.000000 0.801724 0.632685
1.000000 0.805783 0.659449
1.000000 0.811948 0.685969
1.000000 0.819516 0.711299
0.822385 0.801633 0.799191
0.823392 0.802884 0.800381
0.824155 0.803799 0.801297
0.824704 0.804440 0.801907
0.824949 0.804715 0.802213
0.824826 0.804593 0.802060
0.824826 0.804562 0.802029
0.824949 0.804715 0.802213
0.825528 0.805447 0.802914
0.826627 0.806729 0.804166
0.828031 0.808408 0.805814
0.829679 0.810361 0.807736
0.831296 0.812314 0.809628
0.832486 0.814817 0.810849
0.828428 0.824216 0.800992
0.827787 0.833341 0.789425
0.831388 0.842008 0.775784
0.840238 0.850309 0.759854
0.854856 0.858091 0.741360
0.875578 0.865324 0.719570
0.902159 0.871824 0.693629
0.932799 0.876036 0.662440
0.956176 0.866331 0.626154
0.984558 0.853208 0.587579
1.000000 0.840818 0.561273
1.000000 0.832944 0.583093
1.000000 0.827481 0.605005
1.000000 0.824369 0.627405
1.000000 0.823850 0.650843
1.000000 0.825620 0.674617
1.000000 0.829404 0.698207
1.000000 0.834653 0.721035
0.840787 0.823545 0.820706
0.841489 0.824399 0.821500
0.842161 0.825162 0.822293
0.842649 0.825742 0.822873
0.842924 0.826078 0.823178
0.842985 0.826108 0.823239
0.843015 0.826169 0.823270
0.843198 0.826413 0.823484
0.843717 0.827024 0.824125
0.844602 0.828061 0.825162
0.845762 0.829435 0.826505
0.847135 0.831052 0.828092
0.848569 0.832731 0.829740
0.850126 0.834531 0.831540
0.849241 0.839200 0.829252
0.846921 0.847288 0.820829
0.847684 0.855283 0.811124
0.852110 0.862943 0.800015
0.860807 0.870237 0.787106
0.874296 0.877134 0.772244
0.892699 0.883513 0.755001
0.916106 0.889250 0.734371
0.942535 0.892882 0.710079
0.962829 0.884794 0.682124
0.986175 0.867338 0.630182
1.000000 0.855467 0.599969
1.000000 0.848722 0.620050
1.000000 0.844236 0.640742
1.000000 0.842069 0.662104
1.000000 0.842130 0.684169
1.000000 0.844327 0.706447
1.000000 0.848112 0.728176
0.864195 0.850889 0.847745
0.865232 0.852079 0.848936
0.865721 0.852659 0.849516
0.865599 0.852506 0.849363
0.865080 0.851926 0.848783
0.864286 0.851041 0.847898
0.863371 0.849973 0.846830
0.862547 0.848966 0.845853
0.861936 0.848264 0.845151
0.861631 0.847959 0.844846
0.861509 0.847807 0.844694
0.861875 0.848203 0.845060
0.862303 0.848722 0.845609
0.862821 0.849332 0.846189
0.863279 0.849851 0.846738
0.860166 0.855009 0.840635
0.858213 0.861448 0.832059
0.859281 0.868132 0.822629
0.864164 0.875029 0.812497
0.873136 0.881895 0.801450
0.886229 0.888457 0.789029
0.903410 0.894377 0.774380
0.924559 0.899413 0.756161
0.948333 0.902190 0.733852
0.966491 0.894224 0.707271
0.988220 0.882658 0.676234
1.000000 0.871702 0.648554
1.000000 0.864683 0.659144
1.000000 0.860533 0.676417
1.000000 0.858610 0.695003
1.000000 0.858854 0.714595
1.000000 0.861021 0.734554
0.874815 0.863096 0.859953
0.875700 0.864134 0.860990
0.876280 0.864775 0.861631
0.876463 0.864988 0.861845
0.876432 0.864988 0.861814
0.876341 0.864866 0.861723
0.876280 0.864805 0.861662
0.876341 0.864866 0.861723
0.876616 0.865171 0.862028
0.877073 0.865660 0.862547
0.877531 0.866209 0.863096
0.878172 0.866911 0.863798
0.878752 0.867613 0.864469
0.879271 0.868193 0.865049
0.879667 0.868650 0.865507
0.879454 0.869871 0.864958
0.876402 0.875242 0.858213
0.875547 0.880858 0.850950
0.877440 0.886748 0.843137
0.882444 0.892790 0.834836
0.890745 0.898711 0.825589
0.902403 0.904265 0.815152
0.917388 0.909239 0.802762
0.935821 0.913542 0.787900
0.956603 0.915953 0.769802
0.972351 0.909331 0.749172
0.991089 0.899413 0.724727
1.000000 0.890257 0.703761
1.000000 0.884001 0.708675
1.000000 0.880858 0.723507
1.000000 0.879576 0.739315
1.000000 0.880003 0.755520
0.889403 0.879698 0.876616
0.889830 0.880156 0.877073
0.890013 0.880400 0.877317
0.890074 0.880461 0.877379
0.889982 0.880308 0.877256
0.889799 0.880125 0.877043
0.889647 0.879973 0.876890
0.889586 0.879881 0.876799
0.889647 0.879942 0.876860
0.889921 0.880247 0.877165
0.890227 0.880644 0.877531
0.890745 0.881224 0.878141
0.891264 0.881804 0.878752
0.891752 0.882322 0.879271
0.892088 0.882719 0.879637
0.892424 0.883085 0.880034
0.891020 0.885679 0.877470
0.889097 0.890593 0.871641
0.889189 0.895811 0.865476
0.891752 0.901244 0.859037
0.896788 0.906615 0.852018
0.904509 0.911772 0.844053
0.914916 0.916442 0.834714
0.928191 0.920592 0.823667
0.944518 0.924132 0.810330
0.962860 0.925994 0.794339
0.976928 0.920043 0.776516
0.993317 0.911009 0.755489
1.000000 0.902831 0.737484
1.000000 0.897032 0.738857
1.000000 0.894682 0.752560
1.000000 0.893980 0.766995
0.900420 0.892088 0.889097
0.900755 0.892424 0.889433
0.900969 0.892729 0.889738
0.901152 0.892882 0.889921
0.901396 0.893126 0.890166
0.901793 0.893614 0.890654
0.902586 0.894499 0.891569
0.903655 0.895720 0.892790
0.905028 0.897215 0.894316
0.906584 0.898955 0.896086
0.908263 0.900847 0.898009
0.909941 0.902678 0.899840
0.911467 0.904387 0.901549
0.912749 0.905791 0.903014
0.913787 0.906920 0.904173
0.914427 0.907652 0.904906
0.915007 0.908293 0.905547
0.913420 0.911772 0.902220
0.912657 0.915984 0.898009
0.913481 0.920348 0.893553
0.916014 0.924712 0.888792
0.920348 0.928923 0.883360
0.926574 0.932769 0.877043
0.934844 0.936278 0.869657
0.945403 0.939361 0.860929
0.958495 0.942016 0.850523
0.973327 0.943359 0.838529
0.984680 0.938476 0.825315
0.997681 0.931121 0.810025
1.000000 0.924193 0.796506
1.000000 0.918975 0.794644
1.000000 0.917113 0.804318
0.919341 0.913054 0.910430
0.919310 0.913054 0.910430
0.919310 0.912993 0.910369
0.919188 0.912932 0.910277
0.919127 0.912840 0.910185
0.919066 0.912779 0.910124
0.919127 0.912840 0.910185
0.919280 0.913024 0.910369
0.919615 0.913359 0.910735
0.920073 0.913878 0.911254
0.920623 0.914519 0.911894
0.921294 0.915221 0.912596
0.921935 0.915953 0.913359
0.922576 0.916625 0.914031
