20 Preset/Dark Style/【3】LUT video cho PR-AE-FCPX/19Tones (5)/19T-ColourfulTones.Ritz.cube
# Created by Adobe Lightroom plugin Export LUT (1.24.0)
# www.johnrellis.com/lightroom/exportlut.htm
# Preset: 19T-ColourfulTones.Ritz
# Color profile: E:\lut插件\exportlut.1.24\exportlut.lrplugin\color profiles\Rec709gamma2.4.icc
LUT_3D_SIZE 8
DOMAIN_MIN 0.000000 0.000000 0.000000
DOMAIN_MAX 0.903226 0.903226 0.903226
0.069520 0.105226 0.110597
0.073182 0.105104 0.110903
0.113954 0.104005 0.111147
0.200870 0.091981 0.110689
0.445258 0.000000 0.104372
0.798734 0.000000 0.063935
0.982513 0.000000 0.000000
1.000000 0.000000 0.000000
0.042390 0.115389 0.117403
0.052430 0.115175 0.115297
0.110628 0.109071 0.110536
0.183688 0.101625 0.109987
0.385199 0.000000 0.105104
0.732631 0.000000 0.071534
0.950103 0.000000 0.000000
1.000000 0.000000 0.000000
0.000000 0.205905 0.180819
0.000000 0.205356 0.180148
0.000000 0.219181 0.142061
0.241245 0.157504 0.109194
0.354467 0.164004 0.080476
0.694545 0.000000 0.000000
0.951324 0.000000 0.000000
1.000000 0.000000 0.000000
0.000000 0.588800 0.452186
0.000000 0.582086 0.446571
0.000000 0.590845 0.453498
0.000000 0.697292 0.309941
0.724666 0.472633 0.389227
0.816129 0.357366 0.000000
0.921202 0.360632 0.000000
1.000000 0.314427 0.000000
0.000000 0.806546 0.659174
0.000000 0.805112 0.659815
0.000000 0.805661 0.673426
0.234440 0.826871 0.708797
0.480201 0.853544 0.627100
0.772641 0.756802 0.740932
1.000000 0.544305 0.000000
0.990173 0.506920 0.000000
0.252689 0.895750 0.791989
0.353338 0.901671 0.802884
0.459815 0.901854 0.809903
0.588983 0.904265 0.823728
0.636042 0.925505 0.842527
0.721340 0.937682 0.785824
0.895109 0.889677 0.851499
1.000000 0.823575 0.692744
0.611536 0.954192 0.879118
0.624262 0.954925 0.881254
0.654414 0.954345 0.883909
0.711482 0.954559 0.891081
0.767086 0.957580 0.900847
0.795529 0.970397 0.913970
0.851743 0.971923 0.879423
0.948425 0.948882 0.912657
0.791928 0.981506 0.933196
0.795682 0.981353 0.933654
0.813169 0.980987 0.936248
0.845823 0.980529 0.941924
0.862303 0.977813 0.941894
0.889708 0.981964 0.950683
0.911070 0.985687 0.958129
0.931395 0.984070 0.939940
0.070893 0.108980 0.116304
0.061585 0.106203 0.118441
0.111696 0.103212 0.111604
0.181491 0.100038 0.110262
0.377295 0.000000 0.105379
0.714687 0.000000 0.076204
0.938293 0.000000 0.000000
1.000000 0.000000 0.000000
0.070100 0.114107 0.122011
0.080201 0.114992 0.121584
0.110140 0.113222 0.119692
0.177584 0.112032 0.110811
0.356390 0.044312 0.102785
0.685695 0.000000 0.063264
0.918181 0.000000 0.000000
1.000000 0.000000 0.000000
0.000000 0.182437 0.169955
0.000000 0.183200 0.170840
0.000000 0.191806 0.172824
0.207218 0.153109 0.117708
0.337621 0.157809 0.092500
0.636164 0.091798 0.000000
0.903441 0.000000 0.000000
1.000000 0.000000 0.000000
0.000000 0.471992 0.371771
0.000000 0.471229 0.370886
0.000000 0.489876 0.384649
0.000000 0.579767 0.323949
0.597223 0.360082 0.285405
0.680568 0.288701 0.000000
0.853239 0.308049 0.000000
1.000000 0.275975 0.000000
0.000000 0.781521 0.636042
0.000000 0.778286 0.634150
0.000000 0.776242 0.641199
0.000000 0.786740 0.666316
0.364874 0.817838 0.586328
0.736263 0.715785 0.703761
0.969726 0.505943 0.000000
0.956939 0.475380 0.000000
0.000000 0.879240 0.770047
0.104433 0.879515 0.772580
0.356970 0.880156 0.781430
0.537133 0.884520 0.799496
0.609491 0.908171 0.823148
0.703578 0.927886 0.777218
0.883879 0.877775 0.839597
1.000000 0.807187 0.667018
0.570520 0.945708 0.866300
0.573754 0.944640 0.865385
0.606683 0.943908 0.867765
0.673060 0.945342 0.876493
0.745998 0.950103 0.890196
0.775845 0.965087 0.904845
0.830930 0.967346 0.864805
0.940398 0.940734 0.900877
0.767880 0.979431 0.926970
0.775845 0.979614 0.928466
0.793881 0.979217 0.930968
0.829618 0.978973 0.937041
0.871397 0.978668 0.945068
0.893217 0.981750 0.951598
0.909819 0.985351 0.957519
0.930083 0.983886 0.939208
0.051759 0.122774 0.149416
0.036011 0.121340 0.155123
0.036683 0.110719 0.170199
0.175479 0.110140 0.152346
0.430213 0.000000 0.140749
0.774380 0.000000 0.089937
0.947845 0.000000 0.000000
1.000000 0.000000 0.000000
0.091646 0.136538 0.152285
0.083467 0.135805 0.157809
0.008057 0.128084 0.179995
0.177096 0.121370 0.159426
0.423926 0.000000 0.141909
0.751125 0.000000 0.095369
0.930541 0.000000 0.000000
1.000000 0.000000 0.000000
0.061738 0.174838 0.194247
0.087465 0.175814 0.194064
0.129519 0.180941 0.192782
0.214755 0.177646 0.200931
0.468513 0.117708 0.162570
0.758358 0.000000 0.083009
0.936187 0.000000 0.000000
1.000000 0.000000 0.000000
0.000000 0.421393 0.382116
0.000000 0.426642 0.383917
0.000000 0.438453 0.377844
0.000000 0.483742 0.422858
0.626795 0.372259 0.271672
0.749020 0.278965 0.000000
0.919554 0.284825 0.000000
1.000000 0.307439 0.000000
0.000000 0.741421 0.617182
0.000000 0.741482 0.618891
0.000000 0.744778 0.630640
0.286015 0.753079 0.662135
0.499794 0.798062 0.689601
0.749111 0.730739 0.719112
0.942718 0.500008 0.000000
0.982483 0.466102 0.000000
0.000000 0.860288 0.757107
0.130312 0.861234 0.760403
0.350866 0.861662 0.768276
0.521691 0.864652 0.783871
0.640711 0.880186 0.808194
0.713466 0.915160 0.800900
0.876677 0.873747 0.843259
1.000000 0.805783 0.660273
0.577234 0.941314 0.864836
0.581384 0.940459 0.864286
0.608942 0.939055 0.865354
0.668360 0.939635 0.872282
0.746792 0.942382 0.885100
0.791745 0.958740 0.904112
0.843229 0.966857 0.880308
0.943389 0.944671 0.912474
0.761837 0.978149 0.925505
0.764126 0.977844 0.925536
0.782315 0.977447 0.927886
0.823301 0.977722 0.935241
0.865873 0.977539 0.943236
0.898283 0.980255 0.952117
0.917082 0.984314 0.959197
0.934508 0.983734 0.943999
0.000000 0.158999 0.240146
0.000000 0.160647 0.254337
0.000000 0.158450 0.296910
0.000000 0.121889 0.345159
0.386603 0.000000 0.299840
0.707851 0.000000 0.273960
0.971496 0.000000 0.185763
1.000000 0.000000 0.052583
0.007294 0.185153 0.256138
0.000000 0.184634 0.265995
0.000000 0.179294 0.306493
0.000000 0.139620 0.374334
0.406775 0.000000 0.316686
0.727413 0.000000 0.286351
0.974426 0.000000 0.194430
1.000000 0.000000 0.073518
0.188724 0.234043 0.242405
0.189761 0.238407 0.250584
0.174289 0.254643 0.301976
0.000000 0.240085 0.394202
0.475349 0.178744 0.382391
0.804105 0.000000 0.363409
0.998322 0.000000 0.334722
1.000000 0.000000 0.119692
0.091615 0.390448 0.438544
0.135653 0.387884 0.434241
0.240787 0.388952 0.428473
0.372290 0.405676 0.426551
0.524895 0.413550 0.476783
0.797665 0.442878 0.478248
0.954772 0.347662 0.337957
1.000000 0.246494 0.111696
0.000000 0.679622 0.645594
0.000000 0.678492 0.643549
0.000000 0.680476 0.642115
0.330755 0.690181 0.643366
0.593957 0.708217 0.671473
0.777951 0.686458 0.651392
0.923583 0.460975 0.005097
1.000000 0.453132 0.000000
0.143038 0.834867 0.746029
0.277684 0.840543 0.755276
0.392065 0.839719 0.760220
0.536980 0.843961 0.775570
0.665278 0.853574 0.797848
0.741970 0.892729 0.835630
0.868772 0.873167 0.854093
0.984619 0.783627 0.633265
0.564172 0.929290 0.855711
0.574945 0.929900 0.857298
0.610986 0.930846 0.861662
0.672389 0.933135 0.870390
0.747494 0.936431 0.883024
0.817136 0.947112 0.902556
0.860044 0.962890 0.901884
0.942870 0.945434 0.922179
0.759915 0.977111 0.925872
0.763790 0.976989 0.926268
0.781369 0.976532 0.928435
0.815610 0.976135 0.933593
0.858427 0.975921 0.941131
0.902647 0.976898 0.951263
0.924804 0.982361 0.960418
0.940948 0.983490 0.950988
0.000000 0.247776 0.442908
0.000000 0.251194 0.459846
0.000000 0.249180 0.504173
0.000000 0.240940 0.590173
0.000000 0.135012 0.635676
0.739254 0.000000 0.596063
0.895262 0.000000 0.475319
1.000000 0.000000 0.406409
0.000000 0.281773 0.457221
0.000000 0.285191 0.474067
0.000000 0.281254 0.517113
0.000000 0.268559 0.599512
0.000000 0.165011 0.649134
0.747250 0.000000 0.607111
0.896788 0.000000 0.487922
1.000000 0.000000 0.420539
0.296086 0.384863 0.471626
0.295628 0.390967 0.485695
0.231632 0.384192 0.520623
0.000000 0.367437 0.589105
0.000000 0.295232 0.666926
0.737392 0.095827 0.621790
0.886290 0.211215 0.526024
1.000000 0.000000 0.465431
0.419989 0.449470 0.481666
0.427863 0.451453 0.480232
0.465278 0.466285 0.479377
0.493812 0.511467 0.557763
0.430457 0.515801 0.654932
0.723598 0.456794 0.661585
0.868772 0.508751 0.617792
1.000000 0.498543 0.581384
0.439582 0.605707 0.644831
0.451972 0.607324 0.645289
0.492775 0.610040 0.643946
0.558404 0.616510 0.641810
0.628107 0.626856 0.636652
0.683253 0.644526 0.683009
0.849790 0.674556 0.685420
0.980529 0.634180 0.608270
0.427710 0.750698 0.733516
0.438422 0.751186 0.733700
0.463447 0.748653 0.729793
0.517235 0.754177 0.731289
0.594781 0.768063 0.737728
0.717952 0.796750 0.765957
0.846738 0.818112 0.792386
0.991547 0.623438 0.312322
0.520012 0.898405 0.833524
0.519890 0.897429 0.831815
0.531060 0.896666 0.828397
0.600763 0.901640 0.837613
0.692775 0.908751 0.854093
0.784939 0.918059 0.874754
0.851774 0.945342 0.907347
0.927825 0.933379 0.917449
0.688350 0.969512 0.910613
0.692988 0.969299 0.910918
0.714260 0.968750 0.912932
0.767971 0.970092 0.921630
0.822843 0.970397 0.930480
0.879423 0.971740 0.942199
0.920439 0.977478 0.955840
0.940459 0.981872 0.953368
0.000000 0.441810 0.686397
0.000000 0.445747 0.694789
0.000000 0.434821 0.710292
0.000000 0.417731 0.745785
0.000000 0.370214 0.789578
0.259922 0.205539 0.797330
0.894621 0.000000 0.777737
0.982391 0.276982 0.667842
0.083497 0.440375 0.662623
0.000000 0.438605 0.667018
0.000000 0.430854 0.685786
0.000000 0.414801 0.722713
0.000000 0.375982 0.772183
0.215640 0.228824 0.787900
0.879728 0.000000 0.768124
0.972808 0.291600 0.661585
0.460060 0.545403 0.670863
0.451087 0.542596 0.674037
0.420356 0.536950 0.691035
0.319585 0.511009 0.715908
0.000000 0.482399 0.763149
0.266697 0.372717 0.797024
0.864897 0.323613 0.773922
0.952819 0.454047 0.687587
0.605463 0.608423 0.637812
0.603632 0.608820 0.641444
0.608423 0.622065 0.665583
0.613336 0.644770 0.711299
0.584497 0.646998 0.758206
0.524285 0.629999 0.810422
0.840360 0.582361 0.789334
0.932311 0.626795 0.739620
0.627863 0.647211 0.671412
0.630732 0.647669 0.670619
0.644434 0.651637 0.668910
0.670436 0.662928 0.667506
0.690608 0.691981 0.706142
0.678401 0.708278 0.768429
0.805966 0.684291 0.780453
0.920836 0.706996 0.761440
0.634760 0.735958 0.753323
0.642359 0.739559 0.756039
0.653651 0.739742 0.754757
0.675410 0.741054 0.753140
0.705684 0.743313 0.750454
0.750820 0.757412 0.754177
0.804715 0.783322 0.795590
0.928130 0.817807 0.810391
0.655695 0.857420 0.839353
0.660426 0.859220 0.840909
0.668574 0.860197 0.840909
0.684627 0.862699 0.841184
0.707912 0.871214 0.845182
0.749111 0.879881 0.847715
0.834104 0.897002 0.869108
0.924041 0.911772 0.890410
0.674525 0.955230 0.906676
0.673426 0.954864 0.905699
0.678370 0.955138 0.904387
0.697414 0.957671 0.904265
0.758480 0.960052 0.913176
0.836027 0.962249 0.926909
0.905303 0.967254 0.944640
0.942504 0.978210 0.958923
0.412879 0.576196 0.768856
0.414374 0.578943 0.773129
0.384802 0.572992 0.782925
0.317998 0.562524 0.804135
0.000000 0.532006 0.833433
0.000000 0.467231 0.871702
0.506798 0.304417 0.871244
0.939239 0.249119 0.849729
0.429694 0.577325 0.758907
0.432898 0.581048 0.763790
0.406806 0.575830 0.774044
0.338750 0.562249 0.793759
0.052552 0.532555 0.823026
0.000000 0.469001 0.860410
0.478828 0.306767 0.860746
0.923980 0.228092 0.837461
0.563165 0.638941 0.756985
0.560113 0.638361 0.759304
0.542779 0.633204 0.767758
0.507866 0.624323 0.786435
0.430915 0.602564 0.813779
0.227634 0.559136 0.852079
0.532280 0.446418 0.866453
0.919188 0.435279 0.846342
0.674311 0.701015 0.749172
0.671626 0.699641 0.750057
0.661921 0.696925 0.757595
0.648219 0.696956 0.776883
0.619928 0.691707 0.803952
0.574853 0.681758 0.842222
0.609888 0.624292 0.872801
0.902770 0.604883 0.851896
0.717098 0.709133 0.704311
0.714992 0.708156 0.705287
0.713344 0.712062 0.716670
0.715694 0.725490 0.743374
0.713863 0.739925 0.778866
0.694179 0.743465 0.818418
0.665614 0.741604 0.866453
0.891905 0.710964 0.856260
0.726253 0.757870 0.770596
0.727962 0.758419 0.770596
0.733944 0.759518 0.769558
0.745632 0.762081 0.767300
0.762020 0.766354 0.762203
0.780270 0.793179 0.796567
0.778470 0.815000 0.854734
0.893553 0.798978 0.866789
0.737697 0.835538 0.840848
0.739834 0.836301 0.841428
0.745388 0.836698 0.841245
0.757137 0.837980 0.841276
0.774594 0.839292 0.840482
0.799252 0.841978 0.839597
0.832059 0.848539 0.838743
0.888090 0.870420 0.869078
0.753597 0.922881 0.907103
0.755184 0.923308 0.907408
0.763668 0.925872 0.909575
0.774350 0.928557 0.911101
0.788815 0.932280 0.912505
0.809049 0.941741 0.917967
0.850248 0.947326 0.918791
0.929290 0.961364 0.945769
0.611749 0.710414 0.841154
0.611170 0.711238 0.843320
0.596185 0.705196 0.847593
0.572473 0.699245 0.860258
0.520958 0.683680 0.878813
0.399237 0.647242 0.903838
0.000000 0.564111 0.937346
0.685634 0.419501 0.930785
0.615991 0.709712 0.835721
0.615625 0.710719 0.838071
0.603571 0.706813 0.843442
0.579492 0.700099 0.855619
0.530968 0.685512 0.874357
0.419837 0.651453 0.899626
0.000000 0.570214 0.932738
0.676509 0.424018 0.926604
0.658381 0.731044 0.830106
0.656794 0.730953 0.831693
0.646418 0.727169 0.836576
0.634089 0.727443 0.851377
0.597192 0.715450 0.868620
0.523827 0.689601 0.892241
0.339208 0.634211 0.924651
0.692287 0.512169 0.923888
0.714748 0.761654 0.821592
0.714290 0.762325 0.823575
0.708064 0.760952 0.829038
0.697658 0.760494 0.841855
0.676783 0.756435 0.860349
0.638788 0.745144 0.884581
0.568688 0.719844 0.915648
0.722194 0.635370 0.923400
0.762356 0.785000 0.804715
0.762936 0.786496 0.807187
0.760739 0.788052 0.813626
0.757351 0.792325 0.828031
0.743526 0.791867 0.846891
0.721462 0.789059 0.872343
0.688228 0.781582 0.904601
0.743374 0.732509 0.924254
0.802029 0.812589 0.805447
0.801816 0.811734 0.804074
0.802518 0.809964 0.799680
0.803159 0.811704 0.802914
0.801389 0.821500 0.827939
0.801602 0.837247 0.864195
0.791958 0.845731 0.901183
0.787167 0.834836 0.933593
0.814572 0.861234 0.866575
0.815030 0.860960 0.866117
0.817105 0.860044 0.864408
0.822782 0.859586 0.861997
0.831815 0.859159 0.857664
0.844877 0.860075 0.850462
0.857694 0.879545 0.880369
0.856474 0.893767 0.924987
0.822843 0.913848 0.914763
0.823087 0.913664 0.914519
0.826017 0.913878 0.914488
0.833829 0.915404 0.915435
0.844999 0.917082 0.916228
0.860044 0.918822 0.916533
0.881437 0.921294 0.916655
0.909056 0.925139 0.915618
