20 Preset/Dark Style/【3】LUT video cho PR-AE-FCPX/19Tones (5)/19T-ColourfulTones.Ritz.cube
# Created by Adobe Lightroom plugin Export LUT (1.24.0)
# www.johnrellis.com/lightroom/exportlut.htm
# Preset: 19T-ColourfulTones.Ritz
# Color profile: E:\lut插件\exportlut.1.24\exportlut.lrplugin\color profiles\Rec709gamma2.4.icc
LUT_3D_SIZE 5
DOMAIN_MIN 0.000000 0.000000 0.000000
DOMAIN_MAX 0.903226 0.903226 0.903226
0.069520 0.105226 0.110597
0.102846 0.104616 0.110933
0.296635 0.015320 0.108949
0.859556 0.000000 0.043488
1.000000 0.000000 0.000000
0.000000 0.171298 0.156985
0.000000 0.176211 0.131228
0.258396 0.144137 0.098543
0.800412 0.000000 0.000000
1.000000 0.000000 0.000000
0.000000 0.735561 0.580285
0.000000 0.722560 0.572320
0.000000 0.802579 0.505943
0.938964 0.463050 0.000000
1.000000 0.427955 0.000000
0.444282 0.919921 0.828061
0.511162 0.920378 0.833616
0.669978 0.926818 0.854887
0.760159 0.950042 0.813474
0.958862 0.880644 0.830503
0.791928 0.981506 0.933196
0.807187 0.981079 0.935302
0.838956 0.977783 0.937224
0.895689 0.983062 0.952819
0.931395 0.984070 0.939940
0.061402 0.117128 0.136110
0.047639 0.107973 0.149355
0.272313 0.044282 0.130922
0.787198 0.000000 0.005035
1.000000 0.000000 0.000000
0.070436 0.151247 0.166201
0.109529 0.155276 0.165438
0.306645 0.132906 0.148196
0.766629 0.000000 0.000000
1.000000 0.000000 0.000000
0.000000 0.623774 0.506615
0.000000 0.625666 0.511376
0.000000 0.705470 0.564111
0.842985 0.402045 0.000000
1.000000 0.409125 0.000000
0.424964 0.904204 0.814420
0.497200 0.905791 0.821317
0.666896 0.911315 0.843290
0.763760 0.941985 0.828275
0.961120 0.874449 0.818906
0.782712 0.980163 0.930877
0.797238 0.979675 0.932708
0.854215 0.978820 0.942199
0.907713 0.982330 0.955993
0.939208 0.984100 0.947387
0.000000 0.195682 0.329381
0.000000 0.196597 0.375555
0.000000 0.126925 0.491341
0.747677 0.000000 0.375891
1.000000 0.000000 0.209689
0.184939 0.282811 0.348699
0.119936 0.282872 0.389624
0.000000 0.234318 0.551476
0.775845 0.000000 0.428382
1.000000 0.000000 0.307683
0.262486 0.502281 0.551263
0.329961 0.502068 0.546563
0.518029 0.525353 0.543694
0.779416 0.566888 0.598383
1.000000 0.462470 0.399145
0.390570 0.841550 0.776638
0.411505 0.836973 0.769772
0.592615 0.846067 0.786313
0.772641 0.891630 0.844236
0.957671 0.824033 0.732876
0.719905 0.972839 0.916686
0.741817 0.972869 0.919615
0.813230 0.972778 0.930327
0.901152 0.974578 0.948913
0.937621 0.982544 0.949767
0.000000 0.447669 0.691371
0.000000 0.450019 0.711696
0.000000 0.418433 0.769406
0.308293 0.215579 0.810605
0.977722 0.221073 0.719753
0.391882 0.521874 0.681788
0.361456 0.517327 0.696193
0.130556 0.491615 0.752285
0.302770 0.330846 0.807370
0.957122 0.368536 0.723568
0.625666 0.608667 0.609125
0.624933 0.616266 0.628229
0.633600 0.654414 0.704829
0.563134 0.643915 0.792691
0.905089 0.645563 0.755245
0.672267 0.768154 0.780880
0.677119 0.765621 0.777737
0.710262 0.768185 0.775814
0.771145 0.780484 0.775143
0.916167 0.822965 0.819181
0.693874 0.949920 0.910216
0.700252 0.950713 0.910094
0.732570 0.955474 0.910857
0.845396 0.960998 0.928130
0.942168 0.976654 0.960204
0.611749 0.710414 0.841154
0.600580 0.706691 0.845884
0.552056 0.693477 0.868925
0.340429 0.632898 0.911559
0.685634 0.419501 0.930785
0.647517 0.726162 0.832853
0.639399 0.723934 0.838010
0.600977 0.713741 0.860594
0.465522 0.669398 0.902556
0.693294 0.494728 0.926390
0.743252 0.777493 0.815946
0.737514 0.775570 0.820005
0.717556 0.772732 0.841550
0.666072 0.759335 0.882597
0.730770 0.683040 0.922484
0.811521 0.830289 0.827543
0.812802 0.829191 0.824674
0.820676 0.828305 0.814237
0.819364 0.851621 0.871214
0.801297 0.856840 0.932830
0.822843 0.913848 0.914763
0.824887 0.913725 0.914397
0.839170 0.916320 0.915953
0.864775 0.919402 0.916655
0.909056 0.925139 0.915618
