20 Preset/Dark Style/【3】LUT video cho PR-AE-FCPX/19Tones (5)/19tones.pack-02.04.NikeID-Day.cube
# Created by Adobe Lightroom plugin Export LUT (1.24.0)
# www.johnrellis.com/lightroom/exportlut.htm
# Preset: 19tones.pack-02.04.NikeID-Day
# Color profile: E:\lut插件\exportlut.1.24\exportlut.lrplugin\color profiles\Rec709gamma2.4.icc
LUT_3D_SIZE 8
DOMAIN_MIN 0.000000 0.000000 0.000000
DOMAIN_MAX 0.903226 0.903226 0.903226
0.050904 0.128847 0.111696
0.000000 0.116304 0.091798
0.163882 0.101625 0.065156
0.429877 0.000000 0.085176
0.762539 0.000000 0.134463
0.975494 0.283879 0.278691
1.000000 0.466682 0.430396
1.000000 0.602960 0.577569
0.000000 0.107332 0.072053
0.000000 0.106752 0.070100
0.173190 0.112032 0.059266
0.413886 0.000000 0.068391
0.725521 0.000000 0.112459
0.935393 0.224155 0.218601
1.000000 0.411566 0.365057
1.000000 0.567926 0.531395
0.194675 0.211948 0.219760
0.191714 0.209751 0.217380
0.232975 0.245182 0.253819
0.592676 0.305119 0.153719
0.834562 0.279240 0.140688
0.962707 0.380041 0.264012
1.000000 0.522698 0.434333
1.000000 0.632197 0.578637
0.633295 0.599145 0.616327
0.623041 0.589868 0.606317
0.619715 0.586847 0.603052
0.710292 0.673640 0.695766
0.852537 0.706355 0.622705
0.972625 0.612360 0.453315
1.000000 0.633845 0.519799
1.000000 0.689937 0.620569
0.790066 0.764340 0.788632
0.787625 0.761349 0.785641
0.782864 0.755520 0.779843
0.794827 0.770169 0.794430
0.817166 0.798123 0.821988
0.871946 0.813230 0.788418
0.952300 0.778592 0.706111
1.000000 0.750942 0.667018
0.855619 0.846616 0.868650
0.859648 0.851560 0.873289
0.857359 0.848722 0.870665
0.853513 0.843931 0.866117
0.862211 0.854704 0.876280
0.875731 0.871000 0.891447
0.906950 0.886656 0.884184
0.957549 0.875547 0.846281
0.902159 0.901396 0.918883
0.902708 0.902007 0.919432
0.900877 0.899962 0.917632
0.898497 0.897246 0.915221
0.896422 0.894926 0.913146
0.904112 0.903563 0.920806
0.913512 0.913909 0.929839
0.931487 0.924437 0.927947
0.939574 0.941466 0.953338
0.939422 0.941283 0.953185
0.939208 0.941070 0.953002
0.939330 0.941222 0.953124
0.931182 0.932708 0.945983
0.934752 0.936461 0.949157
0.941283 0.943206 0.954772
0.945983 0.947997 0.958740
0.009491 0.114473 0.089326
0.000000 0.108492 0.075959
0.144594 0.104005 0.074159
0.382818 0.006165 0.095277
0.690700 0.000000 0.131868
0.910552 0.184360 0.215396
1.000000 0.374640 0.338415
1.000000 0.532280 0.495216
0.000000 0.106752 0.070100
0.000000 0.109407 0.078614
0.180575 0.115114 0.083070
0.410315 0.045624 0.099245
0.696284 0.000000 0.133150
0.900755 0.201328 0.209049
0.993622 0.362493 0.319310
1.000000 0.511528 0.465583
0.208804 0.224186 0.232517
0.208347 0.223545 0.231907
0.247349 0.258000 0.266484
0.566339 0.292912 0.175204
0.775784 0.255955 0.158999
0.922087 0.336919 0.244297
1.000000 0.451362 0.366705
1.000000 0.575891 0.513451
0.571038 0.543786 0.556664
0.564172 0.537713 0.550134
0.565179 0.538628 0.551110
0.640162 0.605402 0.623072
0.810941 0.633997 0.527153
0.941711 0.535515 0.362921
0.998749 0.565118 0.436072
1.000000 0.639521 0.556817
0.782956 0.755673 0.779995
0.778897 0.750698 0.775021
0.770565 0.740810 0.765042
0.776791 0.748257 0.772519
0.797787 0.773861 0.798093
0.859831 0.791836 0.762387
0.945861 0.754971 0.673793
1.000000 0.728359 0.636835
0.848325 0.837522 0.859983
0.848051 0.837125 0.859648
0.846189 0.834806 0.857420
0.843626 0.831571 0.854337
0.854093 0.844694 0.866819
0.870573 0.864805 0.885710
0.902556 0.880583 0.877653
0.954040 0.867552 0.836423
0.895842 0.894255 0.912566
0.894438 0.892699 0.911162
0.892271 0.890227 0.908934
0.890532 0.888273 0.907164
0.890501 0.888182 0.907103
0.898589 0.897398 0.915343
0.907195 0.906950 0.923796
0.925689 0.917357 0.920867
0.935424 0.937133 0.949737
0.936065 0.937835 0.950286
0.935637 0.937407 0.949920
0.935851 0.937591 0.950072
0.935149 0.936889 0.949523
0.936187 0.937957 0.950408
0.940764 0.942687 0.954345
0.945403 0.947417 0.958282
0.016022 0.116304 0.092287
0.025818 0.119631 0.097932
0.135866 0.168399 0.168765
0.451667 0.104463 0.193332
0.744717 0.152560 0.250401
0.920409 0.321477 0.341100
0.997467 0.469978 0.455055
1.000000 0.596216 0.578546
0.091829 0.141817 0.131502
0.106386 0.150179 0.143740
0.218723 0.187106 0.206668
0.475563 0.145113 0.204807
0.737606 0.191318 0.250553
0.909117 0.323827 0.330663
0.990387 0.455787 0.434516
1.000000 0.582513 0.559167
0.277012 0.285039 0.292729
0.305394 0.311162 0.317906
0.361059 0.361700 0.366857
0.636530 0.340398 0.287480
0.815122 0.362463 0.313634
0.927916 0.426856 0.375677
0.991608 0.519280 0.470863
1.000000 0.619867 0.585229
0.651545 0.615930 0.634394
0.663600 0.627283 0.646571
0.652186 0.616541 0.635065
0.704799 0.667933 0.689815
0.833371 0.665858 0.593622
0.942748 0.580346 0.469154
0.988128 0.622156 0.543389
1.000000 0.681483 0.631464
0.799496 0.775937 0.800137
0.797787 0.773831 0.798062
0.792691 0.767544 0.791836
0.797147 0.773068 0.797330
0.818265 0.799496 0.823301
0.868772 0.805112 0.782742
0.946136 0.763943 0.700404
1.000000 0.749233 0.684596
0.855283 0.846128 0.868193
0.855344 0.846281 0.868315
0.853025 0.843351 0.865568
0.848997 0.838315 0.860777
0.857145 0.848478 0.870420
0.873777 0.868620 0.889250
0.905119 0.882719 0.880247
0.955657 0.870329 0.843473
0.902373 0.901610 0.919097
0.901244 0.900328 0.917967
0.898344 0.897063 0.915068
0.895384 0.893736 0.912108
0.893553 0.891661 0.910216
0.902434 0.901671 0.919158
0.912902 0.913237 0.929290
0.931701 0.923674 0.926818
0.938018 0.939879 0.951995
0.937469 0.939269 0.951507
0.936950 0.938720 0.951049
0.938048 0.939879 0.951995
0.937224 0.939055 0.951293
0.938781 0.940673 0.952667
0.943786 0.945739 0.956909
0.948394 0.950408 0.960754
0.188449 0.207065 0.214389
0.207584 0.223056 0.231327
0.255161 0.265171 0.273381
0.452064 0.440955 0.447395
0.745937 0.364843 0.450996
0.885954 0.384070 0.447913
0.965209 0.502678 0.528374
1.000000 0.618067 0.628748
0.284489 0.291875 0.299290
0.295079 0.301640 0.308782
0.329747 0.333532 0.339361
0.524041 0.470832 0.491035
0.762936 0.375677 0.452644
0.889860 0.408759 0.459632
0.963958 0.513939 0.533532
1.000000 0.622889 0.630671
0.422583 0.415473 0.421118
0.442573 0.432837 0.438972
0.509178 0.490089 0.499184
0.651453 0.482216 0.516136
0.807248 0.465095 0.490791
0.908843 0.519188 0.528008
0.967834 0.609827 0.610193
1.000000 0.677790 0.677729
0.706142 0.669306 0.691249
0.709590 0.672938 0.695064
0.726040 0.690394 0.713313
0.747799 0.714443 0.738186
0.845609 0.650294 0.615045
0.912657 0.632959 0.597742
0.961028 0.664729 0.638056
0.996460 0.713405 0.696773
0.822049 0.804318 0.827970
0.822080 0.804379 0.828061
0.823789 0.806546 0.830167
0.821317 0.803372 0.827085
0.841123 0.828428 0.851316
0.881529 0.819486 0.806394
0.949676 0.773007 0.734310
0.990784 0.777859 0.746792
0.872587 0.867277 0.887999
0.876646 0.872068 0.892424
0.874540 0.869566 0.890135
0.870451 0.864683 0.885588
0.874022 0.868986 0.889555
0.886595 0.883665 0.903014
0.912993 0.890105 0.888792
0.959838 0.873960 0.854093
0.910521 0.910643 0.927031
0.911406 0.911589 0.927855
0.910674 0.910796 0.927153
0.908812 0.908721 0.925353
0.905241 0.904784 0.921904
0.911925 0.912169 0.928374
0.920745 0.921691 0.936614
0.938262 0.929717 0.932219
0.944488 0.946471 0.957488
0.944823 0.946838 0.957794
0.944579 0.946563 0.957580
0.943908 0.945861 0.957000
0.942626 0.944549 0.955901
0.942687 0.944640 0.955993
0.947936 0.949981 0.960418
0.953307 0.955383 0.964813
0.452125 0.441047 0.447517
0.468818 0.455360 0.462501
0.503105 0.484932 0.493660
0.565698 0.539117 0.551568
0.724331 0.688533 0.711391
0.847410 0.615961 0.681880
0.926024 0.580682 0.639612
0.974243 0.669215 0.707729
0.522789 0.501823 0.511650
0.536553 0.513787 0.524437
0.560845 0.534844 0.546990
0.608820 0.577081 0.592523
0.738735 0.697505 0.723049
0.851102 0.617487 0.681209
0.926329 0.592187 0.646571
0.973693 0.674678 0.710842
0.650782 0.615198 0.633661
0.663844 0.627497 0.646815
0.680873 0.643915 0.664332
0.693141 0.656092 0.677272
0.773068 0.687556 0.725948
0.856352 0.596887 0.649805
0.925231 0.623499 0.661646
0.971160 0.685695 0.712825
0.734768 0.699886 0.723201
0.738918 0.704463 0.727901
0.756588 0.724514 0.748470
0.776974 0.748440 0.772732
0.823728 0.703822 0.730800
0.878691 0.685451 0.705318
0.929229 0.699458 0.714107
0.971221 0.732601 0.744900
0.829099 0.813260 0.836667
0.830838 0.815488 0.838834
0.835080 0.820859 0.844022
0.837308 0.823636 0.846708
0.846738 0.835508 0.858061
0.883421 0.797299 0.792691
0.933074 0.769619 0.760830
0.971588 0.783108 0.777829
0.868772 0.862669 0.883726
0.869566 0.863645 0.884611
0.870115 0.864286 0.885191
0.870176 0.864347 0.885252
0.868925 0.862852 0.883879
0.888640 0.886015 0.905150
0.915831 0.885496 0.884825
0.964599 0.861021 0.847227
0.911101 0.911254 0.927550
0.910765 0.910887 0.927214
0.911192 0.911376 0.927672
0.913725 0.914122 0.930053
0.910796 0.910918 0.927276
0.913970 0.914397 0.930297
0.923156 0.924285 0.938811
0.939940 0.927794 0.929259
0.938903 0.940734 0.952728
0.939269 0.941131 0.953063
0.941070 0.942992 0.954589
0.946532 0.948547 0.959197
0.945373 0.947387 0.958251
0.943786 0.945769 0.956939
0.948882 0.950927 0.961181
0.954284 0.956329 0.965606
0.702266 0.665339 0.687068
0.707424 0.670680 0.692683
0.723659 0.687861 0.710658
0.748867 0.715663 0.739406
0.761746 0.730404 0.754513
0.820768 0.802731 0.826444
0.884855 0.768765 0.816342
0.939300 0.761196 0.809781
0.709926 0.673243 0.695369
0.712795 0.676295 0.698604
0.723323 0.687495 0.710292
0.740993 0.706783 0.730312
0.755062 0.722713 0.746639
0.817227 0.798245 0.822080
0.882597 0.759365 0.807797
0.937896 0.751827 0.800565
0.775784 0.746975 0.771267
0.775967 0.747250 0.771542
0.779751 0.751766 0.776059
0.780819 0.753079 0.777401
0.787930 0.761715 0.786007
0.835782 0.803433 0.832181
0.890074 0.763241 0.808896
0.941466 0.755917 0.799619
0.809079 0.787961 0.812009
0.809751 0.788785 0.812802
0.818082 0.799283 0.823087
0.832578 0.817624 0.840909
0.839597 0.826505 0.849454
0.865873 0.815183 0.847227
0.905394 0.776761 0.813565
0.947997 0.793027 0.825193
0.837156 0.823423 0.846525
0.838346 0.824949 0.847959
0.843809 0.831846 0.854582
0.853269 0.843687 0.865873
0.860777 0.845243 0.867887
0.880400 0.817502 0.839689
0.912932 0.805417 0.826200
0.951598 0.812924 0.832425
0.883909 0.880583 0.900206
0.886687 0.883787 0.903105
0.888701 0.886107 0.905211
0.891051 0.888792 0.907652
0.889464 0.886992 0.906035
0.900603 0.899626 0.917327
0.924804 0.874693 0.878721
0.962310 0.860868 0.864561
0.919493 0.920317 0.935424
0.920623 0.921569 0.936461
0.922118 0.923186 0.937865
0.924590 0.925811 0.940124
0.926329 0.927611 0.941650
0.922911 0.924041 0.938598
0.932891 0.934539 0.947539
0.949798 0.931914 0.932982
0.941711 0.943664 0.955169
0.941619 0.943542 0.955077
0.942718 0.944671 0.955993
0.946105 0.948119 0.958862
0.950439 0.952483 0.962432
0.949371 0.951415 0.961578
0.952117 0.954192 0.963836
0.958129 0.960143 0.968688
0.792905 0.767819 0.792111
0.795590 0.771115 0.795377
0.799374 0.775814 0.800015
0.807919 0.786496 0.810544
0.817136 0.798093 0.821927
0.827085 0.810666 0.834165
0.862760 0.855375 0.876921
0.905394 0.839261 0.876280
0.792966 0.767880 0.792172
0.795956 0.771572 0.795834
0.799435 0.775906 0.800137
0.805875 0.783902 0.808011
0.814267 0.794491 0.818418
0.822904 0.805447 0.829068
0.858030 0.849577 0.871458
0.901457 0.829862 0.868254
0.818784 0.800168 0.823972
0.819303 0.800870 0.824643
0.820615 0.802518 0.826230
0.824613 0.807553 0.831144
0.829953 0.814359 0.837736
0.837461 0.823819 0.846891
0.869505 0.862943 0.884154
0.910033 0.840208 0.876829
0.843015 0.830838 0.853635
0.843534 0.831449 0.854215
0.848814 0.838102 0.860533
0.852079 0.842161 0.864408
0.855985 0.847044 0.869047
0.862730 0.855314 0.876860
0.887968 0.870695 0.894987
0.920226 0.848234 0.882597
0.859098 0.850858 0.872679
0.858854 0.850584 0.872374
0.861295 0.853544 0.875181
0.867277 0.860838 0.882017
0.875914 0.871183 0.891600
0.880705 0.876860 0.896788
0.898863 0.866972 0.893675
0.931334 0.850858 0.881529
0.883940 0.880613 0.900237
0.884916 0.881712 0.901244
0.888121 0.885466 0.904631
0.893675 0.891814 0.910369
0.899870 0.898802 0.916625
0.906371 0.905150 0.922423
0.919066 0.882353 0.902098
0.946014 0.878080 0.897856
0.920531 0.921477 0.936400
0.921599 0.922637 0.937407
0.924498 0.925689 0.940032
0.930083 0.931609 0.945037
0.933013 0.934691 0.947631
0.933379 0.935058 0.947967
0.939086 0.940948 0.952911
0.958373 0.918914 0.923949
0.945312 0.947326 0.958190
0.945800 0.947784 0.958618
0.948211 0.950256 0.960601
0.951293 0.953368 0.963165
0.954925 0.957000 0.966125
0.958679 0.960693 0.969146
0.956909 0.958984 0.967742
0.964050 0.966003 0.973419
0.847013 0.835813 0.858396
0.848051 0.837156 0.859678
0.848722 0.838010 0.860472
0.852934 0.843259 0.865476
0.858518 0.850156 0.871977
0.864195 0.857084 0.878508
0.875425 0.870634 0.891112
0.901335 0.900450 0.918059
0.846738 0.835538 0.858122
0.847868 0.836942 0.859434
0.849241 0.838590 0.861051
0.852781 0.843076 0.865263
0.858152 0.849668 0.871550
0.863706 0.856474 0.877958
0.874205 0.869169 0.889738
0.900267 0.899260 0.917021
0.856199 0.847288 0.869291
0.856657 0.847837 0.869810
0.857328 0.848692 0.870603
0.862333 0.854826 0.876402
0.866056 0.859373 0.880644
0.870176 0.864378 0.885313
0.880156 0.876188 0.896208
0.905272 0.904814 0.921935
0.870603 0.864897 0.885771
0.872007 0.866575 0.887327
0.872831 0.867521 0.888212
0.875822 0.871061 0.891478
0.879728 0.875700 0.895750
0.884581 0.881407 0.900938
0.893309 0.891386 0.909972
0.916228 0.916838 0.932403
0.876951 0.872404 0.892729
0.878019 0.873655 0.893889
0.880797 0.876951 0.896910
0.889708 0.887327 0.906310
0.894560 0.892790 0.911254
0.899535 0.898466 0.916289
0.907866 0.907683 0.924437
0.926726 0.922210 0.938628
0.895872 0.894316 0.912627
0.895903 0.894377 0.912657
0.897215 0.895811 0.913970
0.901244 0.900359 0.917967
0.907652 0.907469 0.924254
0.920653 0.921630 0.936522
0.927062 0.928405 0.942321
0.939849 0.927977 0.945006
0.922362 0.923430 0.938079
0.922759 0.923857 0.938445
0.924498 0.925689 0.940032
0.928222 0.929656 0.943389
0.933257 0.934905 0.947845
0.938567 0.940429 0.952483
0.943267 0.945251 0.956481
0.951751 0.930816 0.946044
0.943999 0.945953 0.957061
0.944335 0.946349 0.957366
0.946380 0.948394 0.959075
0.950774 0.952850 0.962737
0.956634 0.958679 0.967498
0.962890 0.964843 0.972503
0.965820 0.967742 0.974823
0.969177 0.970977 0.977386
