20 Preset/Dark Style/【3】LUT video cho PR-AE-FCPX/19Tones (5)/19tones the sun.cube
# Created by Adobe Lightroom plugin Export LUT (1.24.0)
# www.johnrellis.com/lightroom/exportlut.htm
# Preset: 19tones the sun
# Color profile: E:\lut插件\exportlut.1.24\exportlut.lrplugin\color profiles\Rec709gamma2.4.icc
LUT_3D_SIZE 8
DOMAIN_MIN 0.000000 0.000000 0.000000
DOMAIN_MAX 0.903226 0.903226 0.903226
0.046723 0.164797 0.190585
0.039277 0.162814 0.188876
0.003235 0.149966 0.176608
0.029175 0.146304 0.169741
0.192996 0.175082 0.165835
0.402808 0.241398 0.164340
0.776059 0.428443 0.114321
0.967132 0.604639 0.045563
0.041230 0.159609 0.188296
0.031220 0.159884 0.186313
0.000000 0.152834 0.189151
0.079744 0.155276 0.175601
0.221378 0.181979 0.161624
0.422614 0.242405 0.147585
0.739040 0.394110 0.050965
0.951385 0.581262 0.000000
0.000000 0.143343 0.172915
0.000000 0.143923 0.171664
0.000000 0.143771 0.170657
0.195071 0.195224 0.174289
0.439490 0.262699 0.143130
0.789639 0.429480 0.000000
0.997131 0.609735 0.000000
1.000000 0.682521 0.000000
0.013031 0.163272 0.174350
0.021790 0.160494 0.175326
0.021332 0.156222 0.182040
0.080476 0.171511 0.191958
0.514977 0.360510 0.084871
1.000000 0.664820 0.000000
1.000000 0.716060 0.000000
1.000000 0.740963 0.000000
0.130831 0.235019 0.213443
0.136294 0.230991 0.215000
0.148196 0.219333 0.224247
0.151156 0.219089 0.239658
0.186496 0.239841 0.250645
0.592676 0.452491 0.190097
1.000000 0.761196 0.000000
1.000000 0.783017 0.000000
0.247379 0.330846 0.275151
0.264622 0.338323 0.284031
0.276616 0.323949 0.292973
0.267826 0.300938 0.310613
0.284855 0.312413 0.324865
0.340276 0.347967 0.346746
0.752865 0.631769 0.350134
1.000000 0.842069 0.000000
0.440742 0.517082 0.376318
0.450477 0.517449 0.382300
0.460182 0.494118 0.391547
0.461585 0.457496 0.413397
0.424140 0.418891 0.438025
0.484993 0.464668 0.468696
0.569970 0.534600 0.516625
0.815061 0.754849 0.602350
0.699489 0.791989 0.631373
0.702785 0.789212 0.633509
0.717739 0.780453 0.647791
0.739010 0.766232 0.680018
0.687800 0.676600 0.654414
0.699336 0.693263 0.708248
0.755764 0.756252 0.756405
0.797421 0.799710 0.788296
0.061158 0.163638 0.185489
0.018952 0.165316 0.185885
0.007416 0.152041 0.178500
0.010712 0.147433 0.172976
0.192081 0.174105 0.163638
0.374090 0.227329 0.154238
0.656489 0.345312 0.123934
0.898192 0.530846 0.000000
0.076997 0.158145 0.184054
0.025940 0.157992 0.184054
0.000000 0.149874 0.182254
0.066072 0.154574 0.175906
0.230320 0.186038 0.162356
0.419745 0.239689 0.141085
0.671901 0.348791 0.084840
0.894926 0.522240 0.000000
0.007691 0.142733 0.172793
0.000000 0.143252 0.171206
0.000000 0.143343 0.169986
0.171176 0.182284 0.172488
0.367987 0.234501 0.149599
0.667689 0.349065 0.000000
0.914641 0.527886 0.000000
1.000000 0.637110 0.000000
0.000000 0.160494 0.172885
0.009766 0.158480 0.173770
0.017792 0.153811 0.179568
0.043915 0.161257 0.183780
0.386755 0.286656 0.132082
0.896117 0.547448 0.000000
1.000000 0.651820 0.000000
1.000000 0.712306 0.000000
0.116732 0.231205 0.209903
0.123079 0.226169 0.210605
0.135927 0.212894 0.217441
0.132479 0.206638 0.228458
0.158328 0.220829 0.234653
0.514977 0.395819 0.188907
1.000000 0.730800 0.000000
1.000000 0.770047 0.000000
0.223301 0.316320 0.264591
0.229374 0.313878 0.266911
0.244907 0.302525 0.275517
0.244877 0.284581 0.293400
0.260777 0.295262 0.309117
0.318486 0.332769 0.333684
0.728511 0.604547 0.330816
1.000000 0.833249 0.000000
0.396857 0.480049 0.353735
0.395575 0.469856 0.352911
0.405310 0.448005 0.360327
0.414557 0.420264 0.381598
0.390967 0.393072 0.412055
0.447120 0.433509 0.439216
0.521447 0.489387 0.473884
0.788479 0.715938 0.544793
0.664759 0.764523 0.586542
0.674250 0.766995 0.596704
0.689723 0.756039 0.609735
0.714015 0.740871 0.643793
0.714351 0.709438 0.685084
0.707271 0.703059 0.718349
0.750912 0.750301 0.750668
0.792721 0.794186 0.782437
0.092897 0.160098 0.167330
0.080507 0.164645 0.166629
0.000000 0.164431 0.167514
0.051484 0.143587 0.171542
0.056855 0.160586 0.185092
0.259983 0.220401 0.208316
0.582483 0.338293 0.216220
0.913085 0.556725 0.140993
0.076448 0.155062 0.167880
0.054170 0.157259 0.167666
0.000000 0.154208 0.168521
0.041749 0.142580 0.169406
0.074342 0.162448 0.185763
0.287907 0.223697 0.200473
0.593042 0.336126 0.198550
0.912230 0.550927 0.088136
0.020813 0.144106 0.170199
0.004059 0.144015 0.170413
0.000000 0.144167 0.170413
0.110750 0.158663 0.172091
0.262608 0.203098 0.173922
0.498299 0.284245 0.166934
0.809476 0.455879 0.000000
0.997742 0.627680 0.000000
0.000000 0.176059 0.177371
0.000000 0.176608 0.177432
0.048981 0.172061 0.187930
0.084382 0.174746 0.197665
0.441657 0.300328 0.154116
0.843381 0.499458 0.000000
0.998993 0.639094 0.000000
1.000000 0.710780 0.000000
0.000000 0.250919 0.211032
0.067048 0.248722 0.215671
0.146578 0.237461 0.227756
0.154269 0.222324 0.244602
0.185977 0.240818 0.254765
0.620569 0.460426 0.195254
1.000000 0.731502 0.000000
1.000000 0.769162 0.000000
0.206394 0.337133 0.271397
0.218296 0.335241 0.274205
0.247349 0.321874 0.282048
0.261967 0.299718 0.297673
0.266117 0.299779 0.315129
0.324804 0.338018 0.341314
0.772549 0.641749 0.343694
1.000000 0.835080 0.147005
0.398108 0.522789 0.367742
0.401495 0.512902 0.367407
0.417487 0.484230 0.372595
0.434333 0.447120 0.390875
0.406439 0.404547 0.420966
0.462989 0.447211 0.454932
0.552911 0.519585 0.506432
0.834043 0.767941 0.598108
0.655879 0.782986 0.596887
0.658076 0.777401 0.595270
0.677333 0.765621 0.606744
0.715663 0.757168 0.649439
0.724788 0.725551 0.688716
0.716976 0.715724 0.732570
0.762539 0.765408 0.767849
0.803128 0.807401 0.798581
0.057465 0.164065 0.185611
0.049073 0.164279 0.188510
0.044984 0.159854 0.194217
0.107454 0.146670 0.198520
0.235019 0.115602 0.206485
0.250675 0.180484 0.206699
0.237583 0.264683 0.280644
0.540917 0.388922 0.343175
0.009766 0.158206 0.190951
0.003510 0.156527 0.192447
0.028565 0.151003 0.197726
0.119905 0.139498 0.202335
0.233036 0.118532 0.202426
0.240635 0.192508 0.214511
0.225467 0.267460 0.286320
0.583398 0.402258 0.338811
0.000000 0.156527 0.192508
0.000000 0.154818 0.193423
0.000000 0.143435 0.199313
0.122316 0.141238 0.203952
0.212528 0.155581 0.199680
0.203952 0.235660 0.252873
0.424140 0.334691 0.313848
0.814511 0.529686 0.338903
0.000000 0.189364 0.215091
0.000000 0.188968 0.214725
0.000000 0.189883 0.215213
0.110170 0.192355 0.216983
0.266392 0.243748 0.236637
0.491615 0.326757 0.254887
0.810452 0.500328 0.243503
0.995148 0.664057 0.234531
0.000000 0.290074 0.250950
0.000000 0.287022 0.247837
0.000000 0.279637 0.242130
0.199374 0.265721 0.266941
0.224735 0.269749 0.285435
0.757076 0.541497 0.238712
1.000000 0.717067 0.000000
1.000000 0.765896 0.206851
0.000000 0.392645 0.272251
0.000000 0.402380 0.277836
0.192111 0.387793 0.297704
0.309728 0.361913 0.328496
0.311955 0.333806 0.351598
0.367559 0.370886 0.376776
0.865660 0.726375 0.405890
1.000000 0.841917 0.431098
0.268193 0.584924 0.360723
0.302037 0.584405 0.369177
0.403510 0.572625 0.401495
0.482551 0.535943 0.429511
0.494514 0.478676 0.463233
0.511040 0.490181 0.502678
0.592157 0.560876 0.553307
0.883543 0.820554 0.661555
0.635523 0.830930 0.635737
0.646937 0.828641 0.642573
0.677577 0.818112 0.654353
0.720729 0.799496 0.677913
0.747768 0.767788 0.710109
0.729397 0.732235 0.751980
0.776242 0.783261 0.788876
0.819852 0.828061 0.823667
0.000000 0.164889 0.249638
0.000000 0.162722 0.254032
0.000000 0.155337 0.262699
0.160830 0.134646 0.281987
0.267826 0.095064 0.285924
0.426703 0.000000 0.288365
0.509911 0.086641 0.249485
0.530388 0.324102 0.331945
0.000000 0.159579 0.254887
0.000000 0.155367 0.259312
0.000000 0.148470 0.267857
0.154116 0.129549 0.283482
0.273533 0.092073 0.289342
0.429908 0.000000 0.289464
0.501884 0.122255 0.251743
0.518639 0.334051 0.339239
0.000000 0.166018 0.256199
0.000000 0.162325 0.258732
0.000000 0.142916 0.266667
0.118898 0.135683 0.283024
0.271458 0.116609 0.289921
0.410376 0.056947 0.282170
0.443702 0.216892 0.268772
0.448920 0.357488 0.361089
0.000000 0.203861 0.262303
0.000000 0.203281 0.262242
0.000000 0.201907 0.263523
0.000000 0.183383 0.284306
0.270542 0.187594 0.298528
0.374823 0.214084 0.280613
0.363775 0.318364 0.329442
0.523339 0.435920 0.427344
0.000000 0.276005 0.297185
0.000000 0.276799 0.297704
0.000000 0.277623 0.297856
0.000000 0.279088 0.298375
0.233463 0.277806 0.297917
0.448188 0.358801 0.334539
0.772335 0.526909 0.373877
0.968872 0.698329 0.439338
0.000000 0.401282 0.350896
0.000000 0.400244 0.348089
0.000000 0.388006 0.332128
0.000000 0.373022 0.314000
0.309911 0.347753 0.340032
0.366217 0.371893 0.384161
0.926665 0.759030 0.480629
1.000000 0.835325 0.579675
0.000000 0.627924 0.392523
0.000000 0.620508 0.385657
0.000000 0.602991 0.368597
0.253544 0.587640 0.389532
0.504173 0.539635 0.464942
0.507256 0.488930 0.508843
0.590478 0.562097 0.562646
0.925170 0.848508 0.686213
0.000000 0.846647 0.500145
0.215366 0.843290 0.508812
0.422980 0.831785 0.547723
0.628809 0.825772 0.646540
0.727596 0.796353 0.698360
0.747311 0.751339 0.741054
0.766964 0.774014 0.783719
0.813352 0.821897 0.819913
0.000000 0.161196 0.359564
0.000000 0.158297 0.364172
0.000000 0.150149 0.372381
0.109682 0.125154 0.396002
0.362768 0.000000 0.449409
0.511894 0.000000 0.449683
0.726802 0.000000 0.471473
0.927703 0.000000 0.451087
0.000000 0.159457 0.347143
0.000000 0.154116 0.349432
0.000000 0.146578 0.358953
0.060182 0.125948 0.380621
0.334691 0.000000 0.427100
0.482368 0.000000 0.428382
0.694575 0.000000 0.449287
0.897734 0.000000 0.429725
0.000000 0.171359 0.352544
0.000000 0.166445 0.354681
0.000000 0.142367 0.369238
0.000000 0.132204 0.387640
0.318303 0.032837 0.429633
0.488746 0.000000 0.435096
0.708858 0.000000 0.458747
0.879698 0.000000 0.413458
0.000000 0.229679 0.351629
0.000000 0.227024 0.353246
0.000000 0.219242 0.366888
0.000000 0.184024 0.405127
0.304601 0.176730 0.457618
0.531884 0.129854 0.473732
0.766934 0.000000 0.498054
0.858946 0.243565 0.413703
0.000000 0.289067 0.361273
0.000000 0.288609 0.360815
0.000000 0.287297 0.360510
0.000000 0.286473 0.362188
0.138613 0.264927 0.403052
0.467933 0.269505 0.439429
0.664576 0.287022 0.423377
0.656062 0.484627 0.489815
0.000000 0.394568 0.413001
0.000000 0.400000 0.418341
0.000000 0.399481 0.417243
0.000000 0.399756 0.416846
0.085206 0.399084 0.416175
0.411658 0.409522 0.430243
0.773526 0.629267 0.568170
0.941497 0.793515 0.698970
0.000000 0.703090 0.622583
0.000000 0.710201 0.628229
0.000000 0.716152 0.630182
0.000000 0.704585 0.595850
0.000000 0.673426 0.532250
0.587915 0.601312 0.568109
0.639490 0.619562 0.630335
0.968231 0.896208 0.811093
0.000000 0.890837 0.652155
0.000000 0.887755 0.645899
0.000000 0.880705 0.630396
0.000000 0.871885 0.617823
0.523308 0.849546 0.644892
0.753140 0.807675 0.745846
0.767575 0.777279 0.793027
0.819974 0.831174 0.833829
0.000000 0.158877 0.514946
0.000000 0.155154 0.524010
0.000000 0.145541 0.538872
0.000000 0.108797 0.575891
0.354070 0.000000 0.628687
0.679194 0.000000 0.698848
0.789029 0.000000 0.675807
0.940337 0.000000 0.668360
0.000000 0.160464 0.492988
0.000000 0.153140 0.502861
0.000000 0.143801 0.517784
0.000000 0.114443 0.548608
0.316899 0.000000 0.598199
0.637354 0.000000 0.663569
0.744961 0.000000 0.636896
0.902220 0.000000 0.633509
0.000000 0.179110 0.501915
0.000000 0.172335 0.505699
0.000000 0.140322 0.517815
0.000000 0.123018 0.547631
0.269017 0.000000 0.593317
0.624323 0.000000 0.663752
0.767300 0.000000 0.658350
0.937743 0.000000 0.664393
0.000000 0.249790 0.498543
0.000000 0.244785 0.498848
0.000000 0.223087 0.510826
0.000000 0.164797 0.547601
0.151553 0.133822 0.599115
0.611566 0.000000 0.680507
0.797665 0.000000 0.690547
0.964324 0.000000 0.685237
0.000000 0.314794 0.449165
0.000000 0.311070 0.444923
0.000000 0.305241 0.452796
0.000000 0.295842 0.489204
0.000000 0.233188 0.554376
0.496773 0.196445 0.640925
0.769406 0.062074 0.674189
0.976349 0.000000 0.689509
0.000000 0.425208 0.517693
0.000000 0.425391 0.518273
0.000000 0.423072 0.517815
0.000000 0.417823 0.516899
0.000000 0.404761 0.513115
0.215915 0.361975 0.616052
0.771572 0.402319 0.703639
0.933623 0.504295 0.670283
0.000000 0.630030 0.646571
0.000000 0.633570 0.649866
0.000000 0.633570 0.649714
0.000000 0.636469 0.652186
0.000000 0.636042 0.652094
0.091279 0.636622 0.655146
0.656550 0.644984 0.668574
0.902190 0.847654 0.825528
0.000000 0.904479 0.818265
0.000000 0.905455 0.818875
0.000000 0.910948 0.823514
0.000000 0.914244 0.826474
0.000000 0.908171 0.814878
0.533074 0.883146 0.779049
0.800839 0.837461 0.817990
0.836545 0.851316 0.859129
0.000000 0.158389 0.762264
0.000000 0.151736 0.767788
0.000000 0.137911 0.772610
0.000000 0.041169 0.795987
0.346868 0.000000 0.826352
0.680629 0.000000 0.860960
0.923125 0.000000 0.894926
1.000000 0.000000 0.880308
0.000000 0.165164 0.745174
0.000000 0.153017 0.751522
0.000000 0.137972 0.760800
0.000000 0.067750 0.783047
0.313359 0.000000 0.815000
0.664240 0.000000 0.851682
0.911620 0.000000 0.886320
1.000000 0.000000 0.869200
0.000000 0.197757 0.734401
0.000000 0.188052 0.737942
0.000000 0.138247 0.746548
0.000000 0.100435 0.779965
0.197299 0.000000 0.809201
0.631250 0.000000 0.844114
0.904540 0.000000 0.884062
1.000000 0.000000 0.867826
0.000000 0.280217 0.715053
0.000000 0.273716 0.720546
0.000000 0.238773 0.732448
0.000000 0.145174 0.762722
0.000000 0.008362 0.799619
0.572869 0.000000 0.841855
0.893980 0.000000 0.887694
1.000000 0.000000 0.875975
0.000000 0.384527 0.670192
0.000000 0.383215 0.676600
0.000000 0.366491 0.688472
0.000000 0.326848 0.722896
0.000000 0.194400 0.769497
0.407965 0.000000 0.821561
0.842466 0.000000 0.878264
1.000000 0.000000 0.880369
0.000000 0.490028 0.665126
0.000000 0.484718 0.660395
0.000000 0.469184 0.648432
0.000000 0.447883 0.636652
0.000000 0.427070 0.698482
0.000000 0.290013 0.801053
0.756497 0.261021 0.882322
1.000000 0.346807 0.899077
0.000000 0.674678 0.772213
0.000000 0.672572 0.770871
0.000000 0.664729 0.766079
0.000000 0.654994 0.762722
0.000000 0.637354 0.757870
0.000000 0.606073 0.753017
0.421576 0.531090 0.853758
0.933135 0.692073 0.894652
0.000000 0.872007 0.866178
0.000000 0.871336 0.865599
0.000000 0.870970 0.865415
0.000000 0.872679 0.867399
0.000000 0.872526 0.868833
0.000000 0.867887 0.869200
0.529503 0.860777 0.870024
0.844083 0.861723 0.875364
