20 Preset/Dark Style/【3】LUT video cho PR-AE-FCPX/19Tones (5)/19tones.pack-02.04.NikeID-Day.cube
# Created by Adobe Lightroom plugin Export LUT (1.24.0)
# www.johnrellis.com/lightroom/exportlut.htm
# Preset: 19tones.pack-02.04.NikeID-Day
# Color profile: E:\lut插件\exportlut.1.24\exportlut.lrplugin\color profiles\Rec709gamma2.4.icc
LUT_3D_SIZE 5
DOMAIN_MIN 0.000000 0.000000 0.000000
DOMAIN_MAX 0.903226 0.903226 0.903226
0.050904 0.128847 0.111696
0.115145 0.105470 0.067018
0.583673 0.000000 0.101350
0.997040 0.340459 0.319066
1.000000 0.602960 0.577569
0.125551 0.161563 0.159945
0.152773 0.179904 0.183352
0.701686 0.174716 0.089906
0.988769 0.393957 0.300572
1.000000 0.632959 0.588708
0.738827 0.704372 0.727840
0.716396 0.680079 0.702541
0.780575 0.752773 0.777096
0.936522 0.724575 0.625483
1.000000 0.715145 0.635828
0.873625 0.868467 0.889097
0.872099 0.866636 0.887419
0.869261 0.863249 0.884245
0.886778 0.883940 0.903258
0.947295 0.892058 0.871916
0.939574 0.941466 0.953338
0.939239 0.941100 0.953033
0.931334 0.932952 0.946166
0.936492 0.938293 0.950683
0.945983 0.947997 0.958740
0.000000 0.108492 0.075959
0.071229 0.134310 0.120272
0.559350 0.000000 0.172152
0.935943 0.310124 0.316472
1.000000 0.560327 0.533257
0.176303 0.197299 0.203769
0.245823 0.256535 0.265110
0.681636 0.257633 0.228061
0.942565 0.388861 0.341222
1.000000 0.594232 0.554955
0.732021 0.696895 0.720089
0.719570 0.683406 0.706050
0.758419 0.726619 0.750637
0.923735 0.690639 0.595392
1.000000 0.717678 0.655604
0.876646 0.872068 0.892424
0.875700 0.870970 0.891386
0.871672 0.866117 0.886931
0.888487 0.885863 0.905028
0.947265 0.891295 0.872770
0.940978 0.942901 0.954528
0.940337 0.942260 0.954009
0.939361 0.941222 0.953124
0.941650 0.943572 0.955077
0.950744 0.952819 0.962707
0.313329 0.318578 0.324895
0.359777 0.360418 0.365667
0.624170 0.590875 0.607416
0.890929 0.461189 0.531273
0.990051 0.641169 0.666987
0.509239 0.490150 0.499245
0.546593 0.522454 0.533715
0.709499 0.604730 0.643580
0.897520 0.526024 0.566094
0.988159 0.671077 0.687739
0.780240 0.752346 0.776669
0.787350 0.761044 0.785367
0.807309 0.785733 0.809812
0.911009 0.710353 0.689876
0.982910 0.750973 0.740810
0.885679 0.882628 0.902068
0.884916 0.881773 0.901274
0.881102 0.877287 0.897215
0.898131 0.896818 0.914855
0.950378 0.885679 0.872251
0.940246 0.942168 0.953918
0.942535 0.944518 0.955871
0.943145 0.945098 0.956359
0.942748 0.944701 0.956023
0.952056 0.954101 0.963775
0.719020 0.682856 0.705470
0.733181 0.698146 0.721370
0.762936 0.731807 0.755917
0.827848 0.811734 0.835203
0.927214 0.775570 0.823911
0.765011 0.734249 0.758419
0.768826 0.738766 0.762966
0.784115 0.757046 0.781369
0.835569 0.813870 0.839475
0.928222 0.769741 0.816098
0.816526 0.797330 0.821195
0.820645 0.802548 0.826261
0.838071 0.824613 0.847623
0.865324 0.803159 0.835630
0.939361 0.795315 0.826047
0.897002 0.895598 0.913725
0.899046 0.897887 0.915770
0.903105 0.902434 0.919799
0.910521 0.910613 0.927001
0.959503 0.870787 0.874968
0.942840 0.944823 0.956115
0.944305 0.946288 0.957336
0.950347 0.952422 0.962402
0.952361 0.954467 0.964050
0.959350 0.961395 0.969696
0.847013 0.835813 0.858396
0.848234 0.837400 0.859922
0.855680 0.846708 0.868711
0.865599 0.858824 0.880156
0.901335 0.900450 0.918059
0.853910 0.844450 0.866606
0.855192 0.846036 0.868101
0.861112 0.853330 0.874998
0.869718 0.863798 0.884794
0.904631 0.904112 0.921294
0.873136 0.867887 0.888579
0.876707 0.872099 0.892454
0.883513 0.880125 0.899779
0.890471 0.888182 0.907073
0.921233 0.920104 0.935851
0.904112 0.903563 0.920806
0.905547 0.905119 0.922179
0.913024 0.913390 0.929381
0.927947 0.929351 0.943145
0.942321 0.928130 0.945281
0.943999 0.945953 0.957061
0.945647 0.947662 0.958495
0.953613 0.955657 0.965057
0.963806 0.965759 0.973205
0.969177 0.970977 0.977386
