20 Preset/Dark Style/【3】LUT video cho PR-AE-FCPX/19Tones (5)/19tones.pack-02.04.NikeID-Day.cube
# Created by Adobe Lightroom plugin Export LUT (1.24.0)
# www.johnrellis.com/lightroom/exportlut.htm
# Preset: 19tones.pack-02.04.NikeID-Day
# Color profile: E:\lut插件\exportlut.1.24\exportlut.lrplugin\color profiles\Rec709gamma2.4.icc
LUT_3D_SIZE 32
DOMAIN_MIN 0.0 0.0 0.0
DOMAIN_MAX 1.0 1.0 1.0
0.050904 0.128847 0.111696
0.050904 0.128847 0.111696
0.029480 0.127413 0.109194
0.000000 0.123171 0.101595
0.000000 0.116304 0.091798
0.000000 0.111208 0.082399
0.056977 0.107515 0.074098
0.115145 0.105470 0.067018
0.163882 0.101625 0.065156
0.219974 0.094057 0.066651
0.284245 0.065064 0.071199
0.355047 0.000000 0.077546
0.429877 0.000000 0.085176
0.507317 0.000000 0.092836
0.583673 0.000000 0.101350
0.657588 0.000000 0.111879
0.762539 0.000000 0.134463
0.847440 0.000000 0.164736
0.904448 0.110079 0.199557
0.945586 0.214084 0.238254
0.975494 0.283879 0.278691
0.997040 0.340459 0.319066
1.000000 0.387304 0.357061
1.000000 0.429084 0.394232
1.000000 0.466682 0.430396
1.000000 0.501701 0.465888
1.000000 0.535821 0.502129
1.000000 0.569512 0.539422
1.000000 0.602960 0.577569
1.000000 0.635462 0.615412
1.000000 0.666468 0.651850
1.000000 0.695735 0.686244
0.050904 0.128847 0.111696
0.050904 0.128847 0.111696
0.027802 0.127443 0.108858
0.000000 0.122621 0.101717
0.000000 0.116304 0.092226
0.000000 0.111269 0.083101
0.050294 0.108064 0.073976
0.110689 0.105989 0.068208
0.157687 0.102602 0.065461
0.211398 0.095888 0.066285
0.273289 0.075380 0.069154
0.341680 0.009491 0.076509
0.415015 0.000000 0.082979
0.491279 0.000000 0.090852
0.567071 0.000000 0.098909
0.641260 0.000000 0.108919
0.744106 0.000000 0.129122
0.828946 0.000000 0.155886
0.888487 0.009827 0.187472
0.931670 0.184451 0.222873
0.963561 0.256748 0.260563
0.986969 0.313909 0.298344
1.000000 0.361059 0.334508
1.000000 0.403296 0.370397
1.000000 0.441444 0.405493
1.000000 0.477638 0.441077
1.000000 0.513207 0.477882
1.000000 0.548638 0.516320
1.000000 0.584253 0.556390
1.000000 0.619257 0.596735
1.000000 0.652766 0.635950
1.000000 0.684199 0.672847
0.039490 0.124880 0.105562
0.036805 0.124697 0.104921
0.035889 0.123384 0.103426
0.000000 0.119356 0.101198
0.000000 0.114809 0.092500
0.000000 0.111147 0.083101
0.053834 0.108919 0.074647
0.112306 0.106813 0.067720
0.157748 0.104372 0.064698
0.210788 0.098024 0.065553
0.271275 0.081697 0.067384
0.338354 0.021546 0.073701
0.410071 0.000000 0.080842
0.484535 0.000000 0.088960
0.559319 0.000000 0.096254
0.632624 0.000000 0.105989
0.734951 0.000000 0.124788
0.817716 0.000000 0.149691
0.877745 0.000000 0.178805
0.922576 0.170016 0.212833
0.956268 0.244511 0.249363
0.981170 0.302220 0.286625
0.999084 0.349554 0.322484
1.000000 0.391730 0.357885
1.000000 0.429999 0.392767
1.000000 0.465919 0.427893
1.000000 0.501854 0.464637
1.000000 0.538048 0.503655
1.000000 0.574517 0.544335
1.000000 0.610773 0.586114
1.000000 0.645289 0.626581
1.000000 0.677607 0.664729
0.011170 0.114412 0.089723
0.009491 0.114473 0.089326
0.009522 0.113893 0.088594
0.004639 0.112551 0.086030
0.000000 0.109163 0.083772
0.004028 0.111055 0.082246
0.071412 0.110262 0.073671
0.119203 0.109560 0.065949
0.165286 0.106874 0.062684
0.217716 0.100893 0.062013
0.277012 0.087831 0.064637
0.342504 0.033814 0.069520
0.412421 0.000000 0.076967
0.484443 0.000000 0.084779
0.556176 0.000000 0.092958
0.629938 0.000000 0.102052
0.726619 0.000000 0.119387
0.802701 0.000000 0.140169
0.860868 0.000000 0.165621
0.905943 0.147402 0.195529
0.941039 0.220615 0.228855
0.968231 0.278233 0.263859
0.988861 0.327092 0.299351
1.000000 0.371893 0.336034
1.000000 0.413794 0.373754
1.000000 0.454108 0.412634
1.000000 0.493629 0.453223
1.000000 0.532555 0.495186
1.000000 0.570794 0.538079
1.000000 0.607782 0.580957
1.000000 0.642115 0.621515
1.000000 0.673548 0.658839
0.000000 0.107332 0.072053
0.000000 0.106966 0.072206
0.000000 0.107027 0.071077
0.000000 0.107118 0.071077
0.000000 0.106752 0.070100
0.007538 0.108888 0.068818
0.079316 0.113222 0.065309
0.128603 0.113985 0.063050
0.173190 0.112032 0.059266
0.224521 0.106691 0.058259
0.282139 0.095430 0.058259
0.345769 0.059022 0.062745
0.413886 0.000000 0.068391
0.484138 0.000000 0.078553
0.555077 0.000000 0.087343
0.637446 0.000000 0.097383
0.725521 0.000000 0.112459
0.798123 0.000000 0.132418
0.855192 0.006744 0.156802
0.900145 0.158053 0.186191
0.935393 0.224155 0.218601
0.963134 0.277714 0.253269
0.984680 0.324926 0.288731
1.000000 0.369299 0.326116
1.000000 0.411566 0.365057
1.000000 0.452125 0.404883
1.000000 0.491676 0.446265
1.000000 0.530205 0.488563
1.000000 0.567926 0.531395
1.000000 0.604456 0.574304
1.000000 0.638575 0.614984
1.000000 0.669825 0.652583
0.000000 0.109682 0.079225
0.000000 0.109682 0.079927
0.000000 0.110018 0.079835
0.000000 0.110292 0.080446
0.002045 0.111116 0.082277
0.005615 0.112825 0.086641
0.058717 0.121492 0.086702
0.130312 0.126406 0.071992
0.191714 0.123262 0.058717
0.249943 0.115175 0.053590
0.306676 0.105165 0.053193
0.368872 0.084932 0.056123
0.434730 0.016968 0.058686
0.502861 0.000000 0.066316
0.571862 0.000000 0.076692
0.661677 0.000000 0.090578
0.742336 0.000000 0.106355
0.809598 0.000000 0.127016
0.863279 0.131380 0.152926
0.905486 0.195621 0.183413
0.939117 0.249699 0.217105
0.965759 0.297673 0.252598
1.000000 0.469154 0.405737
1.000000 0.503990 0.444892
1.000000 0.536309 0.482429
1.000000 0.566827 0.518975
1.000000 0.595819 0.554406
1.000000 0.623621 0.588830
1.000000 0.649958 0.621546
1.000000 0.674800 0.652583
1.000000 0.697963 0.681300
1.000000 0.719203 0.707424
0.059724 0.131533 0.115816
0.058473 0.131319 0.115877
0.059724 0.131533 0.115816
0.061433 0.131502 0.116121
0.062074 0.132204 0.117220
0.075471 0.135836 0.122560
0.090120 0.140841 0.130159
0.143008 0.160555 0.135256
0.228092 0.167575 0.108186
0.309789 0.157748 0.087648
0.386542 0.132998 0.056336
0.453040 0.111269 0.052277
0.516472 0.092256 0.059754
0.579828 0.054566 0.069825
0.668421 0.062226 0.087892
0.751308 0.112001 0.104646
0.817685 0.156771 0.126864
0.868925 0.201694 0.154055
0.910216 0.246189 0.185733
0.944518 0.291722 0.221744
0.973114 0.338781 0.262486
0.996277 0.386114 0.307378
1.000000 0.432746 0.354772
1.000000 0.476905 0.402930
1.000000 0.517266 0.450416
1.000000 0.552361 0.493233
1.000000 0.583398 0.532006
1.000000 0.612085 0.568597
1.000000 0.639185 0.603326
1.000000 0.664302 0.635584
1.000000 0.688136 0.665888
1.000000 0.710231 0.693721
0.125551 0.161563 0.159945
0.124697 0.161288 0.159426
0.125002 0.161440 0.159396
0.124514 0.161105 0.159060
0.124300 0.160952 0.158907
0.129213 0.163943 0.162936
0.138949 0.170504 0.171420
0.152773 0.179904 0.183352
0.211307 0.213413 0.198093
0.308568 0.228397 0.156832
0.397192 0.220127 0.123323
0.475868 0.196750 0.095583
0.545800 0.157900 0.053681
0.626642 0.161746 0.067720
0.701686 0.174716 0.089906
0.766781 0.193576 0.108064
0.821195 0.217014 0.129976
0.866148 0.244755 0.155673
0.904326 0.276921 0.185611
0.937133 0.312840 0.219455
0.965301 0.352270 0.258030
0.988769 0.393957 0.300572
1.000000 0.436103 0.345953
1.000000 0.476936 0.391882
1.000000 0.514458 0.435950
1.000000 0.547173 0.475746
1.000000 0.577020 0.514214
1.000000 0.605463 0.552178
1.000000 0.632959 0.588708
1.000000 0.658534 0.622614
1.000000 0.682765 0.654475
1.000000 0.705348 0.683711
0.194675 0.211948 0.219760
0.194553 0.212100 0.219852
0.194034 0.211398 0.219211
0.193210 0.210880 0.218570
0.191714 0.209751 0.217380
0.190463 0.208621 0.216159
0.200778 0.217288 0.225315
0.214725 0.229221 0.237644
0.232975 0.245182 0.253819
0.294041 0.292088 0.282444
0.397131 0.313542 0.228794
0.497261 0.314977 0.187869
0.592676 0.305119 0.153719
0.672847 0.281285 0.120516
0.739040 0.255497 0.096529
0.790280 0.265599 0.117037
0.834562 0.279240 0.140688
0.872709 0.297154 0.166049
0.906554 0.320134 0.194705
0.936522 0.347875 0.227359
0.962707 0.380041 0.264012
0.984924 0.415106 0.304417
1.000000 0.451881 0.347631
1.000000 0.488411 0.391577
1.000000 0.522698 0.434333
1.000000 0.552972 0.473213
1.000000 0.580621 0.509178
1.000000 0.606348 0.543114
1.000000 0.632197 0.578637
1.000000 0.657343 0.613611
1.000000 0.681239 0.646296
1.000000 0.703609 0.676387
0.276493 0.284672 0.292393
0.275700 0.283940 0.291661
0.274479 0.282750 0.290532
0.272770 0.281285 0.289097
0.269749 0.278416 0.286320
0.265934 0.275059 0.282994
0.268894 0.277562 0.285527
0.282322 0.289799 0.297368
0.299077 0.305333 0.312200
0.326909 0.330877 0.336828
0.402045 0.394842 0.393042
0.511070 0.424414 0.337804
0.604669 0.425238 0.287175
0.683436 0.409674 0.240604
0.749996 0.385077 0.199374
0.805142 0.354376 0.162325
0.849088 0.340673 0.155825
0.883604 0.353582 0.182834
0.914031 0.371374 0.212650
0.940673 0.392523 0.244327
0.963409 0.416785 0.278508
0.982544 0.442908 0.314153
0.998535 0.470741 0.351324
1.000000 0.499153 0.389258
1.000000 0.527001 0.426764
1.000000 0.553552 0.462806
1.000000 0.579400 0.498024
1.000000 0.604517 0.532433
1.000000 0.629480 0.566644
1.000000 0.653529 0.599481
1.000000 0.678065 0.634699
1.000000 0.701442 0.667445
0.355474 0.356725 0.362036
0.355352 0.356512 0.361822
0.354559 0.355932 0.361242
0.353338 0.354742 0.360052
0.350927 0.352728 0.358038
0.348547 0.350500 0.355901
0.345098 0.347356 0.352880
0.366339 0.366369 0.371527
0.392554 0.389410 0.394568
0.422187 0.415167 0.420813
0.454414 0.442969 0.449500
0.516991 0.496864 0.506371
0.607813 0.521630 0.449928
0.686427 0.519310 0.392279
0.751888 0.502464 0.339879
0.805875 0.478767 0.294377
0.851316 0.450629 0.254582
0.890684 0.421027 0.220645
0.919371 0.420783 0.231998
0.942504 0.435370 0.261814
0.962707 0.452979 0.293309
0.980194 0.473365 0.326452
0.995270 0.496040 0.361273
1.000000 0.520073 0.397253
1.000000 0.544396 0.433295
1.000000 0.568109 0.467994
1.000000 0.591394 0.502098
1.000000 0.614649 0.535760
1.000000 0.637903 0.569238
1.000000 0.660487 0.601251
1.000000 0.682094 0.631586
1.000000 0.703548 0.662531
0.462287 0.449805 0.456641
0.462287 0.449805 0.456641
0.462959 0.450324 0.457191
0.463569 0.450904 0.457771
0.464424 0.451606 0.458534
0.465339 0.452399 0.459388
0.466499 0.453437 0.460426
0.472602 0.458656 0.465888
0.493477 0.476600 0.484840
0.517113 0.496956 0.506432
0.543023 0.519371 0.530388
0.570489 0.543236 0.556023
0.715480 0.679164 0.701595
0.761990 0.693568 0.666194
0.806790 0.684993 0.611933
0.848386 0.665797 0.556329
0.886168 0.640131 0.502312
0.920104 0.612116 0.453986
0.950500 0.584009 0.413184
0.978027 0.556970 0.379339
0.990265 0.566552 0.406226
1.000000 0.578912 0.434760
1.000000 0.592950 0.463813
1.000000 0.608301 0.493019
1.000000 0.624109 0.521660
1.000000 0.639490 0.548577
1.000000 0.654475 0.574060
1.000000 0.669093 0.598016
1.000000 0.683803 0.621241
1.000000 0.698878 0.644251
1.000000 0.713985 0.666651
1.000000 0.729091 0.688411
0.633295 0.599145 0.616327
0.632563 0.598474 0.615595
0.630488 0.596612 0.613581
0.627466 0.593774 0.610559
0.623041 0.589868 0.606317
0.617884 0.585229 0.601343
0.613428 0.581140 0.596948
0.609644 0.577813 0.593347
0.619715 0.586847 0.603052
0.639063 0.604425 0.622004
0.662013 0.625788 0.644953
0.686641 0.649622 0.670405
0.710292 0.673640 0.695766
0.741360 0.707240 0.730770
0.779995 0.725521 0.712734
0.817166 0.720943 0.669215
0.852537 0.706355 0.622705
0.885924 0.685512 0.575067
0.917357 0.661585 0.529229
0.946227 0.636683 0.488228
0.972625 0.612360 0.453315
0.993317 0.597894 0.438819
1.000000 0.608362 0.465431
1.000000 0.620630 0.492683
1.000000 0.633845 0.519799
1.000000 0.647608 0.546410
1.000000 0.661524 0.572045
1.000000 0.675624 0.596704
1.000000 0.689937 0.620569
1.000000 0.704799 0.644312
1.000000 0.719448 0.666987
1.000000 0.734066 0.688960
0.695735 0.658686 0.680018
0.694636 0.657557 0.678859
0.691859 0.654810 0.675898
0.688502 0.651423 0.672328
0.683803 0.646784 0.667384
0.678218 0.641321 0.661585
0.673335 0.636561 0.656489
0.669184 0.632563 0.652216
0.667597 0.631067 0.650629
0.681422 0.644434 0.664881
0.698177 0.661189 0.682673
0.716457 0.680110 0.702602
0.734432 0.699519 0.722774
0.750698 0.717739 0.741573
0.771237 0.741573 0.765835
0.798428 0.756313 0.754788
0.827359 0.752010 0.716945
0.856626 0.739956 0.677058
0.885801 0.723598 0.637079
0.914061 0.704067 0.597375
0.941039 0.683650 0.560693
0.966613 0.663172 0.527886
0.990356 0.643458 0.499702
1.000000 0.640803 0.503471
1.000000 0.651545 0.529015
1.000000 0.663142 0.554223
1.000000 0.675166 0.578698
1.000000 0.687526 0.602167
1.000000 0.700526 0.625483
1.000000 0.714137 0.648524
1.000000 0.727871 0.670954
1.000000 0.741756 0.692531
0.738827 0.704372 0.727840
0.738338 0.703853 0.727260
0.736324 0.701625 0.725002
0.733242 0.698207 0.721462
0.729061 0.693690 0.716762
0.724239 0.688502 0.711299
0.720027 0.683894 0.706569
0.716396 0.680079 0.702541
0.714107 0.677638 0.700008
0.718227 0.682063 0.704616
0.730312 0.695003 0.718135
0.743893 0.710048 0.733639
0.757351 0.725368 0.749355
0.769772 0.739864 0.764096
0.780575 0.752773 0.777096
0.794003 0.769162 0.793454
0.814054 0.781796 0.787930
0.837064 0.778378 0.755795
0.861601 0.769100 0.722560
0.886687 0.755978 0.688991
0.911833 0.740749 0.656214
0.936522 0.724575 0.625483
0.960357 0.707912 0.596887
0.983093 0.691371 0.571130
1.000000 0.675074 0.548028
1.000000 0.681270 0.565911
1.000000 0.691554 0.589105
1.000000 0.702815 0.612390
1.000000 0.715145 0.635828
1.000000 0.728359 0.659388
1.000000 0.742031 0.682399
1.000000 0.755673 0.704555
0.767666 0.737392 0.761593
0.767819 0.737545 0.761746
0.767056 0.736660 0.760830
0.765774 0.735164 0.759304
0.763790 0.732845 0.756954
0.761685 0.730373 0.754421
0.759884 0.728267 0.752316
0.758389 0.726528 0.750546
0.757382 0.725399 0.749386
0.756558 0.724422 0.748409
0.762875 0.731746 0.755856
0.770932 0.741238 0.765469
0.779019 0.750912 0.775204
0.786740 0.760220 0.784543
0.793851 0.768978 0.793271
0.800381 0.777035 0.801236
0.809812 0.788846 0.812894
0.825650 0.800717 0.812039
0.844846 0.798550 0.784817
0.865934 0.791836 0.757321
0.888182 0.782315 0.730190
0.910948 0.771023 0.703975
0.933471 0.758694 0.679103
0.955535 0.745968 0.656123
0.976715 0.733272 0.635309
0.997162 0.720607 0.616297
1.000000 0.712673 0.607294
1.000000 0.722316 0.629175
1.000000 0.732692 0.650752
1.000000 0.743832 0.672114
1.000000 0.755245 0.692805
1.000000 0.766873 0.712764
0.790066 0.764340 0.788632
0.789975 0.764187 0.788510
0.789487 0.763607 0.787930
0.788754 0.762692 0.787015
0.787625 0.761349 0.785641
0.786282 0.759701 0.784024
0.785092 0.758206 0.782528
0.783902 0.756802 0.781094
0.782864 0.755520 0.779843
0.781918 0.754360 0.778683
0.782467 0.755093 0.779385
0.788510 0.762448 0.786770
0.794827 0.770169 0.794430
0.800961 0.777768 0.801999
0.806668 0.784970 0.809018
0.812039 0.791684 0.815671
0.817166 0.798123 0.821988
0.824521 0.807462 0.831052
0.837705 0.819059 0.834226
0.853727 0.817868 0.811185
0.871946 0.813230 0.788418
0.891508 0.806271 0.766354
0.911681 0.797848 0.745083
0.932128 0.788418 0.724849
0.952300 0.778592 0.706111
0.972015 0.768734 0.689204
0.991150 0.759152 0.674281
1.000000 0.750118 0.661585
1.000000 0.750942 0.667018
1.000000 0.760586 0.686976
1.000000 0.770596 0.706386
1.000000 0.780819 0.725032
0.811368 0.790829 0.814817
0.811643 0.791196 0.815183
0.831907 0.816831 0.840116
0.831418 0.816220 0.839536
0.830655 0.815244 0.838590
0.829618 0.813931 0.837308
0.828397 0.812345 0.835813
0.827176 0.810788 0.834287
0.826078 0.809445 0.832975
0.825040 0.808133 0.831693
0.824002 0.806790 0.830411
0.825742 0.808988 0.832547
0.829191 0.813352 0.836790
0.832547 0.817655 0.840909
0.835721 0.821622 0.844755
0.838621 0.825315 0.848356
0.841337 0.828733 0.851591
0.844053 0.832151 0.854826
0.848325 0.837522 0.860014
0.857511 0.846342 0.864042
0.869566 0.844846 0.844511
0.884154 0.841062 0.825742
0.900267 0.835416 0.807401
0.917235 0.828458 0.789639
0.934691 0.820218 0.772061
0.952270 0.811551 0.755489
0.969848 0.802609 0.739895
0.987213 0.793973 0.726070
1.000000 0.786252 0.714839
1.000000 0.779355 0.705837
1.000000 0.785977 0.720363
1.000000 0.794583 0.737209
0.834287 0.819852 0.843046
0.835874 0.821836 0.844968
0.837461 0.823819 0.846891
0.838621 0.825315 0.848325
0.839200 0.826047 0.848997
0.838834 0.825589 0.848569
0.837949 0.824491 0.847501
0.836820 0.823026 0.846128
0.835752 0.821714 0.844816
0.834684 0.820310 0.843503
0.833646 0.819059 0.842283
0.832517 0.817563 0.840848
0.835386 0.821195 0.844358
0.838315 0.824918 0.847929
0.841154 0.828519 0.851408
0.843992 0.832059 0.854765
0.846738 0.835508 0.858061
0.849577 0.839048 0.861479
0.852628 0.842863 0.865080
0.856901 0.848173 0.870115
0.865446 0.857511 0.876860
0.876555 0.857511 0.860746
0.889677 0.855070 0.844816
0.904173 0.850858 0.829191
0.919371 0.845212 0.813870
0.935271 0.838682 0.798947
0.951385 0.831693 0.784939
0.967742 0.824735 0.772244
0.984039 0.818296 0.761532
1.000000 0.812589 0.752926
1.000000 0.807645 0.746395
1.000000 0.806088 0.746395
0.844877 0.833188 0.855863
0.846372 0.835019 0.857664
0.847898 0.836973 0.859464
0.849088 0.838437 0.860868
0.849729 0.839231 0.861631
0.849546 0.839048 0.861448
0.848875 0.838163 0.860624
0.847868 0.836942 0.859464
0.846921 0.835752 0.858305
0.845884 0.834470 0.857084
0.844877 0.833188 0.855863
0.843809 0.831815 0.854551
0.843809 0.831846 0.854582
0.846433 0.835111 0.857725
0.848997 0.838346 0.860807
0.851530 0.841489 0.863798
0.854032 0.844633 0.866758
0.856626 0.847776 0.869780
0.859312 0.851164 0.872923
0.862333 0.854887 0.876432
0.866117 0.859464 0.880735
0.873991 0.868803 0.889311
0.883940 0.869566 0.875456
0.895659 0.867979 0.861723
0.908568 0.864714 0.848142
0.922454 0.860197 0.834867
0.936889 0.855039 0.822232
0.951904 0.849638 0.810605
0.967163 0.844541 0.800687
0.982452 0.839933 0.792477
0.997498 0.835843 0.785977
1.000000 0.831998 0.780819
0.855619 0.846616 0.868650
0.856901 0.848173 0.870115
0.858152 0.849668 0.871550
0.859098 0.850889 0.872679
0.859648 0.851560 0.873289
0.859495 0.851377 0.873136
0.858976 0.850736 0.872526
0.858183 0.849760 0.871611
0.857359 0.848722 0.870665
0.856474 0.847623 0.869596
0.855619 0.846586 0.868589
0.854643 0.845365 0.867460
0.853513 0.843931 0.866117
0.854734 0.845426 0.867521
0.857053 0.848356 0.870298
0.859495 0.851377 0.873136
0.862211 0.854704 0.876280
0.865141 0.858244 0.879606
0.868376 0.862181 0.883268
0.871916 0.866453 0.887236
0.875731 0.871000 0.891447
0.880034 0.876036 0.896056
0.887480 0.884733 0.903990
0.896452 0.886961 0.894865
0.906950 0.886656 0.884184
0.918456 0.884825 0.873686
0.930846 0.882078 0.863615
0.943969 0.878813 0.854307
0.957549 0.875547 0.846281
0.971344 0.872374 0.839414
0.985077 0.869322 0.833738
0.998566 0.866239 0.828916
0.873625 0.868467 0.889097
0.874083 0.868986 0.889616
0.874357 0.869322 0.889891
0.874357 0.869352 0.889921
0.874144 0.869078 0.889677
0.873564 0.868376 0.889036
0.872862 0.867552 0.888273
0.872099 0.866636 0.887419
0.871336 0.865751 0.886564
0.870634 0.864927 0.885832
0.869993 0.864134 0.885069
0.869230 0.863188 0.884184
0.868284 0.862058 0.883146
0.867338 0.860899 0.882078
0.869261 0.863249 0.884245
0.871275 0.865660 0.886503
0.873442 0.868223 0.888884
0.875700 0.870970 0.891417
0.878233 0.873899 0.894102
0.880888 0.877073 0.897002
0.883757 0.880400 0.900053
0.886778 0.883940 0.903258
0.889952 0.887541 0.906523
0.896056 0.894499 0.912779
0.903563 0.896910 0.906035
0.912902 0.896910 0.896605
0.923430 0.895842 0.887602
0.934997 0.894133 0.879332
0.947295 0.892058 0.871916
0.959960 0.889891 0.865476
0.972808 0.887572 0.859922
0.985565 0.885130 0.855100
0.882902 0.879393 0.899138
0.883268 0.879850 0.899535
0.883513 0.880125 0.899779
0.883604 0.880217 0.899870
0.883452 0.880034 0.899718
0.883024 0.879515 0.899260
0.882414 0.878874 0.898619
0.881804 0.878141 0.898009
0.881193 0.877440 0.897337
0.880644 0.876738 0.896727
0.880064 0.876097 0.896117
0.879484 0.875395 0.895476
0.878691 0.874510 0.894621
0.877897 0.873533 0.893767
0.878050 0.873716 0.893919
0.880003 0.876005 0.896025
0.882078 0.878447 0.898253
0.884245 0.881010 0.900603
0.886625 0.883726 0.903075
0.889128 0.886656 0.905699
0.891844 0.889708 0.908476
0.894621 0.892912 0.911315
0.897490 0.896147 0.914244
0.900389 0.899382 0.917113
0.902434 0.901671 0.919127
0.909056 0.904448 0.914549
0.917754 0.905028 0.906371
0.927703 0.904723 0.898711
0.938567 0.903899 0.891814
0.950195 0.902770 0.885771
0.962188 0.901518 0.880674
0.974243 0.900023 0.876280
0.895872 0.894316 0.912596
0.896452 0.894957 0.913176
0.896666 0.895201 0.913390
0.896452 0.894957 0.913176
0.895842 0.894316 0.912596
0.895018 0.893370 0.911742
0.894011 0.892210 0.910704
0.892882 0.890929 0.909545
0.891752 0.889647 0.908415
0.890684 0.888426 0.907317
0.889586 0.887144 0.906157
0.888579 0.886015 0.905119
0.887541 0.884764 0.904021
0.886351 0.883421 0.902800
0.884977 0.881834 0.901366
0.885466 0.882444 0.901884
0.886931 0.884092 0.903380
0.888701 0.886076 0.905211
0.890776 0.888548 0.907408
0.893309 0.891356 0.909972
0.895964 0.894408 0.912688
0.898650 0.897459 0.915404
0.901244 0.900359 0.917967
0.903593 0.903014 0.920317
0.905791 0.905425 0.922454
0.910033 0.910063 0.926543
0.915679 0.912840 0.923522
0.923400 0.913542 0.916136
0.932494 0.913603 0.909392
0.942626 0.913268 0.903471
0.953429 0.912749 0.898375
0.964508 0.912108 0.894255
0.902159 0.901396 0.918883
0.902678 0.901976 0.919402
0.902983 0.902312 0.919707
0.902983 0.902281 0.919677
0.902708 0.902007 0.919432
0.902342 0.901579 0.919066
0.901854 0.901061 0.918608
0.901396 0.900511 0.918090
0.900877 0.899962 0.917632
0.900389 0.899443 0.917144
0.899809 0.898772 0.916564
0.899229 0.898100 0.915953
0.898497 0.897246 0.915221
0.897551 0.896208 0.914275
0.896422 0.894926 0.913146
0.895293 0.893645 0.911986
0.896422 0.894926 0.913146
0.897856 0.896544 0.914611
0.899657 0.898558 0.916350
0.901762 0.900938 0.918486
0.904112 0.903563 0.920806
0.906554 0.906279 0.923186
0.908995 0.908904 0.925536
0.911315 0.911498 0.927764
0.913512 0.913909 0.929839
0.915618 0.916167 0.931853
0.919341 0.920195 0.935302
0.924285 0.923156 0.933898
0.931487 0.924437 0.927947
0.939879 0.925109 0.922576
0.949035 0.925444 0.917967
0.958679 0.925475 0.914000
0.911376 0.911559 0.927825
0.911620 0.911833 0.928069
0.911711 0.911925 0.928130
0.911620 0.911833 0.928069
0.911376 0.911528 0.927794
0.910948 0.911101 0.927428
0.910491 0.910613 0.927001
0.909972 0.910063 0.926513
0.909483 0.909514 0.926024
0.909026 0.908965 0.925566
0.908476 0.908385 0.925048
0.907958 0.907805 0.924529
0.907378 0.907164 0.923980
0.906584 0.906340 0.923247
0.905669 0.905272 0.922332
0.904601 0.904082 0.921294
0.904265 0.903716 0.920928
0.905455 0.905058 0.922118
0.907012 0.906737 0.923613
0.908873 0.908812 0.925414
0.910948 0.911101 0.927428
0.913146 0.913481 0.929503
0.915282 0.915770 0.931487
0.917327 0.917998 0.933410
0.919249 0.920104 0.935241
0.921080 0.922057 0.936919
0.922911 0.924041 0.938598
0.926024 0.927337 0.941405
0.930388 0.930266 0.941039
0.937163 0.931975 0.936126
0.944915 0.933196 0.931853
0.953368 0.934081 0.928222
0.918761 0.919554 0.934752
0.918944 0.919768 0.934936
0.919066 0.919890 0.935058
0.919097 0.919921 0.935088
0.919066 0.919921 0.935058
0.919127 0.919982 0.935088
0.919402 0.920256 0.935363
0.919799 0.920684 0.935729
0.920317 0.921233 0.936187
0.920928 0.921874 0.936767
0.921538 0.922576 0.937346
0.922087 0.923125 0.937835
0.922484 0.923583 0.938201
0.922637 0.923705 0.938323
0.922515 0.923583 0.938201
0.922026 0.923033 0.937743
0.921355 0.922393 0.937163
0.921874 0.922881 0.937621
0.923186 0.924315 0.938842
0.924743 0.925933 0.940246
0.926421 0.927733 0.941772
0.928191 0.929595 0.943359
0.929870 0.931365 0.944854
0.931518 0.933074 0.946319
0.933013 0.934691 0.947631
0.934478 0.936187 0.948913
0.935912 0.937682 0.950164
0.937377 0.939147 0.951415
0.939635 0.941497 0.953338
0.942809 0.943816 0.953552
0.948486 0.945525 0.949828
0.954894 0.946838 0.946624
0.932372 0.933989 0.947082
0.932341 0.933989 0.947051
0.932311 0.933898 0.946990
0.932158 0.933745 0.946868
0.931945 0.933532 0.946685
0.931731 0.933318 0.946502
0.931518 0.933104 0.946319
0.931334 0.932952 0.946166
0.931243 0.932799 0.946044
0.931182 0.932708 0.945983
0.931090 0.932647 0.945922
0.931029 0.932586 0.945892
0.930938 0.932494 0.945800
