20 Preset/Dark Style/【3】LUT video cho PR-AE-FCPX/19Tones (5)/19tones the sun.cube
# Created by Adobe Lightroom plugin Export LUT (1.24.0)
# www.johnrellis.com/lightroom/exportlut.htm
# Preset: 19tones the sun
# Color profile: E:\lut插件\exportlut.1.24\exportlut.lrplugin\color profiles\Rec709gamma2.4.icc
LUT_3D_SIZE 5
DOMAIN_MIN 0.000000 0.000000 0.000000
DOMAIN_MAX 0.903226 0.903226 0.903226
0.046723 0.164797 0.190585
0.014252 0.153292 0.179477
0.119173 0.156283 0.167361
0.502861 0.278721 0.161105
0.967132 0.604639 0.045563
0.006134 0.145663 0.176699
0.000000 0.146365 0.173800
0.295995 0.216648 0.167575
0.807065 0.434882 0.000000
1.000000 0.672786 0.000000
0.084840 0.198123 0.192050
0.096956 0.183780 0.196933
0.136538 0.205844 0.221164
0.970764 0.683711 0.000000
1.000000 0.761013 0.000000
0.303166 0.380713 0.304570
0.318181 0.366979 0.313634
0.303868 0.327977 0.346075
0.391211 0.385412 0.380163
1.000000 0.847654 0.169863
0.699489 0.791989 0.631373
0.712764 0.783078 0.642481
0.693050 0.693904 0.629908
0.714839 0.710567 0.721614
0.797421 0.799710 0.788296
0.090303 0.160678 0.170108
0.000000 0.166445 0.169558
0.012665 0.147799 0.173251
0.364813 0.240391 0.187625
0.918212 0.548730 0.000000
0.054505 0.143160 0.169497
0.000000 0.143099 0.169497
0.168399 0.170352 0.167056
0.550958 0.296971 0.140017
0.993957 0.616968 0.000000
0.000000 0.202792 0.187381
0.089479 0.193240 0.197330
0.118929 0.195010 0.214206
0.915190 0.603113 0.000000
1.000000 0.748653 0.000000
0.286412 0.395697 0.306828
0.314366 0.383307 0.316838
0.313054 0.334112 0.350530
0.392401 0.387121 0.384649
1.000000 0.847929 0.236332
0.686793 0.800900 0.631403
0.701747 0.790433 0.639673
0.737972 0.755215 0.687770
0.741512 0.744137 0.756374
0.817655 0.824399 0.817166
0.000000 0.165377 0.212863
0.019654 0.160220 0.221103
0.183749 0.129244 0.236393
0.364355 0.120607 0.212619
0.364752 0.348180 0.359472
0.000000 0.157534 0.220462
0.000000 0.143313 0.226566
0.191714 0.128145 0.240909
0.326940 0.188052 0.230198
0.426978 0.382605 0.385992
0.000000 0.228367 0.252415
0.000000 0.228458 0.251621
0.167453 0.231510 0.253727
0.542199 0.371099 0.299229
0.984497 0.680507 0.342718
0.000000 0.453712 0.315190
0.000000 0.434058 0.305486
0.353094 0.394385 0.360021
0.420569 0.411749 0.417762
1.000000 0.848234 0.525444
0.498482 0.826627 0.559472
0.577295 0.821530 0.598535
0.713954 0.788602 0.673121
0.725093 0.726497 0.745388
0.807645 0.814481 0.810269
0.000000 0.161105 0.375433
0.000000 0.153109 0.388434
0.212589 0.089693 0.440528
0.554406 0.000000 0.481117
0.959014 0.000000 0.546014
0.000000 0.164675 0.372656
0.000000 0.142611 0.382910
0.161471 0.105287 0.429969
0.528069 0.000000 0.462776
0.923430 0.000000 0.506004
0.000000 0.247623 0.344610
0.000000 0.242924 0.348547
0.000000 0.202243 0.397864
0.491707 0.178256 0.446296
0.837278 0.232212 0.428504
0.000000 0.452369 0.471168
0.000000 0.446448 0.464668
0.000000 0.448188 0.465492
0.467842 0.455451 0.477638
0.928618 0.798917 0.721889
0.000000 0.901884 0.709651
0.000000 0.898009 0.698421
0.141238 0.881926 0.670771
0.772244 0.821988 0.773922
0.822965 0.835050 0.838956
0.000000 0.158389 0.762264
0.000000 0.143252 0.769955
0.000000 0.000000 0.811002
0.749996 0.000000 0.870787
1.000000 0.000000 0.880308
0.000000 0.186313 0.741512
0.000000 0.141604 0.752071
0.000000 0.000000 0.794583
0.719814 0.000000 0.858915
1.000000 0.000000 0.873564
0.000000 0.335576 0.698543
0.000000 0.313298 0.707179
0.000000 0.164096 0.757534
0.604822 0.000000 0.834775
1.000000 0.000000 0.875486
0.000000 0.543633 0.704036
0.000000 0.530632 0.694789
0.000000 0.491768 0.674769
0.000000 0.326421 0.812985
0.989471 0.445472 0.898680
0.000000 0.872007 0.866178
0.000000 0.870848 0.865324
0.000000 0.873259 0.868467
0.000000 0.866209 0.869352
0.844083 0.861723 0.875364
