20 Preset/Dark Style/【3】LUT video cho PR-AE-FCPX/19Tones (5)/19tones the sun.cube
# Created by Adobe Lightroom plugin Export LUT (1.24.0)
# www.johnrellis.com/lightroom/exportlut.htm
# Preset: 19tones the sun
# Color profile: E:\lut插件\exportlut.1.24\exportlut.lrplugin\color profiles\Rec709gamma2.4.icc
LUT_3D_SIZE 32
DOMAIN_MIN 0.0 0.0 0.0
DOMAIN_MAX 1.0 1.0 1.0
0.046723 0.164797 0.190585
0.046723 0.164797 0.190585
0.046723 0.164797 0.190585
0.046723 0.164797 0.190585
0.039277 0.162814 0.188876
0.029847 0.159548 0.185733
0.021729 0.156374 0.182498
0.014252 0.153292 0.179477
0.003235 0.149966 0.176608
0.000000 0.147036 0.174777
0.000000 0.145022 0.173129
0.000000 0.144808 0.171389
0.029175 0.146304 0.169741
0.086824 0.150301 0.168399
0.119173 0.156283 0.167361
0.154086 0.164645 0.166690
0.192996 0.175082 0.165835
0.235416 0.187167 0.165347
0.279667 0.200839 0.165255
0.329534 0.216587 0.164920
0.402808 0.241398 0.164340
0.502861 0.278721 0.161105
0.605341 0.323522 0.152499
0.699611 0.375738 0.136233
0.776059 0.428443 0.114321
0.837705 0.478370 0.088624
0.890166 0.525353 0.026520
0.932128 0.566949 0.007416
0.967132 0.604639 0.045563
0.995850 0.638361 0.116365
1.000000 0.669062 0.170138
1.000000 0.697292 0.229587
0.046723 0.164797 0.190585
0.046723 0.164797 0.190585
0.046723 0.164797 0.190585
0.046723 0.164797 0.190585
0.040528 0.162966 0.188846
0.030823 0.159731 0.185855
0.022400 0.156558 0.182803
0.014954 0.153475 0.179782
0.002319 0.150362 0.177371
0.000000 0.147433 0.175418
0.000000 0.145449 0.173617
0.000000 0.144900 0.171756
0.022065 0.146029 0.170138
0.078523 0.149722 0.168673
0.114229 0.155276 0.167544
0.148104 0.163058 0.166629
0.186069 0.172946 0.165774
0.228153 0.184939 0.165011
0.272251 0.198154 0.164553
0.319646 0.213199 0.164248
0.388922 0.236179 0.163516
0.477211 0.268376 0.161898
0.571588 0.307286 0.154757
0.662715 0.353216 0.142123
0.738338 0.401190 0.126131
0.804746 0.450599 0.101656
0.860807 0.498299 0.062013
0.908690 0.543389 0.015625
0.948608 0.584466 0.022187
0.981903 0.621881 0.094911
1.000000 0.655573 0.147677
1.000000 0.686030 0.206119
0.046723 0.164797 0.190585
0.046723 0.164797 0.190585
0.046723 0.164797 0.190585
0.046723 0.164797 0.190585
0.039551 0.162814 0.188724
0.030823 0.159731 0.185855
0.022095 0.156558 0.182956
0.004913 0.153628 0.180941
0.000000 0.150607 0.179049
0.000000 0.147799 0.176913
0.000000 0.145937 0.174929
0.000000 0.145754 0.172854
0.025269 0.147005 0.170718
0.083803 0.150362 0.168948
0.117494 0.156008 0.167422
0.151308 0.163668 0.165957
0.188998 0.173465 0.164920
0.230411 0.184909 0.163851
0.274388 0.198093 0.162997
0.321416 0.212772 0.162387
0.390997 0.235874 0.161044
0.477577 0.267155 0.157809
0.565026 0.303166 0.151980
0.653010 0.346715 0.139132
0.729244 0.393530 0.120729
0.793301 0.440406 0.097017
0.849912 0.487648 0.045319
0.899748 0.533654 0.000000
0.941588 0.576074 0.000000
0.976715 0.614832 0.042908
1.000000 0.649378 0.126253
1.000000 0.680354 0.188663
0.046174 0.164096 0.190372
0.046174 0.164096 0.190372
0.045197 0.163943 0.190219
0.044831 0.163760 0.189792
0.012146 0.161776 0.190555
0.000000 0.159274 0.189700
0.000000 0.156344 0.187320
0.000000 0.153292 0.184726
0.000000 0.150637 0.182498
0.000000 0.148684 0.180117
0.000000 0.147677 0.177584
0.000000 0.147890 0.174838
0.045075 0.149660 0.172274
0.097108 0.153536 0.169711
0.128817 0.158968 0.167453
0.163241 0.166598 0.165347
0.199466 0.175814 0.163394
0.239109 0.186679 0.161593
0.280888 0.198947 0.160128
0.326757 0.213169 0.158602
0.394232 0.235203 0.156344
0.472297 0.262974 0.152132
0.555444 0.296361 0.144625
0.640864 0.337438 0.130861
0.718929 0.384283 0.110353
0.787930 0.433967 0.069184
0.849699 0.485115 0.000000
0.901976 0.533471 0.000000
0.944610 0.577111 0.000000
0.979034 0.615473 0.000000
1.000000 0.648829 0.096925
1.000000 0.678187 0.166995
0.041230 0.159609 0.188296
0.041230 0.159609 0.188296
0.039246 0.159670 0.188296
0.032258 0.160220 0.187045
0.031220 0.159884 0.186313
0.000000 0.156008 0.190036
0.000000 0.154818 0.190249
0.000000 0.153353 0.189853
0.000000 0.152834 0.189151
0.000000 0.151827 0.185702
0.000000 0.151827 0.182498
0.013336 0.152712 0.179049
0.079744 0.155276 0.175601
0.115480 0.159457 0.172122
0.148501 0.165133 0.168307
0.183566 0.172763 0.164950
0.221378 0.181979 0.161624
0.261540 0.192569 0.158633
0.304204 0.204746 0.155612
0.351080 0.219059 0.152773
0.422614 0.242405 0.147585
0.498054 0.269871 0.140566
0.580377 0.304112 0.128084
0.662959 0.346136 0.107576
0.739040 0.394110 0.050965
0.805173 0.443854 0.000000
0.863096 0.493538 0.000000
0.911711 0.539849 0.000000
0.951385 0.581262 0.000000
0.983978 0.617853 0.000000
1.000000 0.649714 0.000000
1.000000 0.677821 0.130098
0.032776 0.155245 0.185580
0.031098 0.155276 0.185428
0.027314 0.155581 0.184939
0.023285 0.156313 0.183780
0.022400 0.156558 0.182803
0.019867 0.155825 0.182559
0.000000 0.151614 0.185000
0.000000 0.150607 0.189364
0.000000 0.152712 0.189456
0.000000 0.154482 0.187991
0.000702 0.157992 0.186587
0.080507 0.162905 0.184756
0.119692 0.167453 0.181064
0.152773 0.172549 0.176211
0.188022 0.178836 0.171084
0.224155 0.186282 0.165469
0.262699 0.195102 0.159854
0.302892 0.205142 0.154391
0.347631 0.217441 0.149020
0.406104 0.235172 0.141726
0.481178 0.260594 0.130648
0.560510 0.291783 0.114900
0.838010 0.463569 0.000000
0.896971 0.516808 0.000000
0.939300 0.559319 0.000000
0.971374 0.594171 0.000000
0.996307 0.623011 0.000000
1.000000 0.647608 0.000000
1.000000 0.669459 0.000000
1.000000 0.689448 0.000000
1.000000 0.708003 0.123293
1.000000 0.725429 0.205509
0.015625 0.149538 0.180697
0.013642 0.149569 0.180697
0.011139 0.150057 0.180148
0.008515 0.150790 0.179294
0.011017 0.151797 0.178012
0.009491 0.151217 0.177920
0.005676 0.150271 0.177707
0.000000 0.146853 0.178286
0.000000 0.149844 0.186618
0.008911 0.158206 0.186709
0.102480 0.168032 0.185885
0.143008 0.175875 0.182742
0.183047 0.184695 0.178927
0.225071 0.194766 0.174777
0.268406 0.205631 0.170016
0.313176 0.217075 0.164340
0.355138 0.226688 0.155581
0.397345 0.236759 0.145144
0.450568 0.251713 0.131960
0.545922 0.284855 0.101991
0.649775 0.331609 0.000000
0.745907 0.389563 0.000000
0.830076 0.453315 0.000000
0.896880 0.512688 0.000000
0.945434 0.560815 0.000000
0.978424 0.596704 0.000000
1.000000 0.625025 0.000000
1.000000 0.647822 0.000000
1.000000 0.668391 0.000000
1.000000 0.686610 0.000000
1.000000 0.704036 0.000000
1.000000 0.720485 0.118807
0.006134 0.145663 0.176699
0.006134 0.145663 0.176699
0.004028 0.145937 0.176364
0.001831 0.146456 0.175631
0.001190 0.147158 0.174716
0.002960 0.147555 0.174014
0.001404 0.146975 0.173892
0.000000 0.146365 0.173800
0.000000 0.144808 0.173312
0.000000 0.149081 0.179690
0.088808 0.164920 0.182895
0.151888 0.180819 0.181796
0.211978 0.195956 0.178592
0.253483 0.205875 0.173251
0.295995 0.216648 0.167575
0.340917 0.228458 0.160861
0.390234 0.241794 0.152377
0.446021 0.257939 0.140658
0.539818 0.289799 0.111543
0.642237 0.333318 0.000000
0.727901 0.380102 0.000000
0.807065 0.434882 0.000000
0.874266 0.489967 0.000000
0.928161 0.539910 0.000000
0.967742 0.580102 0.000000
0.995544 0.610529 0.000000
1.000000 0.634455 0.000000
1.000000 0.654444 0.000000
1.000000 0.672786 0.000000
1.000000 0.689509 0.000000
1.000000 0.705287 0.000000
1.000000 0.720363 0.000000
0.000000 0.143343 0.172915
0.000000 0.143343 0.172915
0.000000 0.143404 0.172763
0.000000 0.143679 0.172213
0.000000 0.143923 0.171664
0.000000 0.144350 0.170932
0.000000 0.144381 0.170748
0.000000 0.143954 0.170809
0.000000 0.143771 0.170657
0.000000 0.143160 0.170199
0.028016 0.150851 0.172366
0.129732 0.175631 0.176303
0.195071 0.195224 0.174289
0.271305 0.216556 0.170352
0.336584 0.233646 0.163699
0.384924 0.246860 0.155245
0.439490 0.262699 0.143130
0.522545 0.290318 0.118105
0.614862 0.327581 0.036835
0.705837 0.374792 0.000000
0.789639 0.429480 0.000000
0.864225 0.487037 0.000000
0.925170 0.540002 0.000000
0.967559 0.579889 0.000000
0.997131 0.609735 0.000000
1.000000 0.632349 0.000000
1.000000 0.650935 0.000000
1.000000 0.667384 0.000000
1.000000 0.682521 0.000000
1.000000 0.696681 0.000000
1.000000 0.710292 0.000000
1.000000 0.723537 0.000000
0.000000 0.143313 0.170169
0.000000 0.143313 0.170169
0.000000 0.143313 0.170169
0.000000 0.143099 0.170016
0.000000 0.143099 0.169833
0.000000 0.143160 0.169680
0.000000 0.143160 0.169497
0.000000 0.143160 0.169497
0.000000 0.143160 0.169497
0.000000 0.143160 0.169314
0.000000 0.143526 0.169436
0.059846 0.154391 0.168185
0.156283 0.183841 0.167636
0.233738 0.210300 0.164797
0.315740 0.234592 0.158907
0.425544 0.266728 0.145113
0.520897 0.298466 0.118471
0.611200 0.335332 0.035920
0.699580 0.381292 0.000000
0.779446 0.432349 0.000000
0.846189 0.481727 0.000000
0.901762 0.527459 0.000000
0.947112 0.567803 0.000000
0.982940 0.601221 0.000000
1.000000 0.627985 0.000000
1.000000 0.648920 0.000000
1.000000 0.663935 0.000000
1.000000 0.677058 0.000000
1.000000 0.689937 0.000000
1.000000 0.702602 0.000000
1.000000 0.714931 0.000000
1.000000 0.727138 0.000000
0.000000 0.145571 0.169039
0.000000 0.145571 0.169039
0.000000 0.145327 0.169253
0.000000 0.145113 0.169284
0.000000 0.144869 0.169284
0.000000 0.144442 0.169528
0.000000 0.143771 0.169772
0.000000 0.143771 0.170108
0.000000 0.144198 0.170077
0.000000 0.144594 0.170199
0.000183 0.145205 0.170474
0.004669 0.146365 0.171023
0.087984 0.160311 0.168063
0.185306 0.196658 0.160098
0.292821 0.236240 0.150057
0.396948 0.269871 0.134585
0.531548 0.316197 0.096040
0.688899 0.386084 0.000000
0.763272 0.431617 0.000000
0.829953 0.479286 0.000000
0.886870 0.524773 0.000000
0.933532 0.565118 0.000000
0.971740 0.599878 0.000000
1.000000 0.626459 0.000000
1.000000 0.648005 0.000000
1.000000 0.665583 0.000000
1.000000 0.680171 0.000000
1.000000 0.692897 0.000000
1.000000 0.704158 0.000000
1.000000 0.713649 0.000000
1.000000 0.723476 0.000000
1.000000 0.733608 0.000000
0.000000 0.150546 0.169711
0.000000 0.150546 0.169711
0.000000 0.150301 0.169924
0.002136 0.149813 0.170138
0.002960 0.149386 0.170535
0.005219 0.148470 0.170962
0.004883 0.147616 0.171756
0.002655 0.146548 0.172915
0.003906 0.147158 0.173190
0.006409 0.147951 0.173434
0.009888 0.149294 0.174136
0.015564 0.151400 0.175235
0.061433 0.165103 0.185336
0.147463 0.194736 0.182895
0.291814 0.254612 0.158145
0.479042 0.330938 0.089784
0.649714 0.409796 0.000000
0.805020 0.504448 0.000000
0.919951 0.586236 0.000000
0.983886 0.633143 0.000000
1.000000 0.653590 0.000000
1.000000 0.670680 0.000000
1.000000 0.684993 0.000000
1.000000 0.697444 0.000000
1.000000 0.707820 0.000000
1.000000 0.715846 0.000000
1.000000 0.721981 0.000000
1.000000 0.727626 0.000000
1.000000 0.733181 0.000000
1.000000 0.738827 0.000000
1.000000 0.744656 0.000000
1.000000 0.750912 0.000000
0.013031 0.163272 0.174350
0.012726 0.163272 0.174533
0.014862 0.162692 0.174594
0.018128 0.161685 0.174868
0.021790 0.160494 0.175326
0.024292 0.158877 0.176181
0.027436 0.157809 0.177646
0.026825 0.156405 0.179751
0.021332 0.156222 0.182040
0.030365 0.158480 0.183658
0.041871 0.161776 0.185763
0.060517 0.166079 0.188602
0.080476 0.171511 0.191958
0.096071 0.178134 0.195895
0.161868 0.208103 0.197635
0.313939 0.273686 0.171542
0.514977 0.360510 0.084871
0.703639 0.460883 0.000000
0.841489 0.551598 0.000000
0.939178 0.621027 0.000000
1.000000 0.664820 0.000000
1.000000 0.684535 0.000000
1.000000 0.696284 0.000000
1.000000 0.706966 0.000000
1.000000 0.716060 0.000000
1.000000 0.723903 0.000000
1.000000 0.730648 0.000000
1.000000 0.735927 0.000000
1.000000 0.740963 0.000000
1.000000 0.746181 0.000000
1.000000 0.751369 0.000000
1.000000 0.756771 0.000000
0.040650 0.179385 0.182040
0.040070 0.179049 0.182071
0.043641 0.178195 0.182193
0.047608 0.177127 0.182467
0.053803 0.175357 0.183169
0.058442 0.173404 0.184024
0.064576 0.171206 0.185519
0.063966 0.168887 0.187808
0.055177 0.166812 0.190799
0.057313 0.167910 0.193027
0.073732 0.171359 0.195346
0.087770 0.176120 0.198459
0.098329 0.181643 0.202090
0.109255 0.187930 0.205875
0.121584 0.194308 0.209628
0.173556 0.220584 0.214420
0.330144 0.290166 0.189364
0.535882 0.383642 0.107149
0.745388 0.506676 0.000000
0.869291 0.592187 0.000000
0.955200 0.652766 0.000000
1.000000 0.689967 0.000000
1.000000 0.711574 0.000000
1.000000 0.720760 0.000000
1.000000 0.728298 0.000000
1.000000 0.734981 0.000000
1.000000 0.740719 0.000000
1.000000 0.745937 0.000000
1.000000 0.750546 0.000000
1.000000 0.754910 0.000000
1.000000 0.759365 0.000000
1.000000 0.764126 0.000000
0.084840 0.198123 0.192050
0.085267 0.197971 0.192081
0.086519 0.196811 0.192081
0.088594 0.195193 0.192142
0.091249 0.192752 0.192630
0.094087 0.189670 0.193301
0.095613 0.186862 0.194827
0.096956 0.183780 0.196933
0.095064 0.181094 0.199954
0.088716 0.178805 0.203983
0.095766 0.182406 0.206485
0.104067 0.187442 0.209659
0.114534 0.193118 0.213443
0.125460 0.199313 0.217380
0.136538 0.205844 0.221164
0.147494 0.212039 0.224369
0.183230 0.231724 0.232029
0.343877 0.305486 0.209262
0.556725 0.407538 0.133730
0.780484 0.549310 0.000000
0.894163 0.630793 0.000000
0.970764 0.683711 0.000000
1.000000 0.714534 0.000000
1.000000 0.732113 0.000000
1.000000 0.741482 0.000000
1.000000 0.746792 0.000000
1.000000 0.751705 0.000000
1.000000 0.756405 0.000000
1.000000 0.761013 0.000000
1.000000 0.765438 0.000000
1.000000 0.769589 0.000000
1.000000 0.773953 0.000000
0.108186 0.216403 0.202457
0.108797 0.216373 0.202457
0.109712 0.215702 0.202701
0.111940 0.214084 0.203189
0.114443 0.212192 0.203861
0.117739 0.209415 0.205020
0.120851 0.206729 0.206851
0.123384 0.203952 0.209445
0.123751 0.200961 0.213046
0.120424 0.197940 0.217350
0.117830 0.197665 0.221347
0.125582 0.201816 0.224033
0.133761 0.206607 0.226932
0.142458 0.211795 0.229923
0.151736 0.216983 0.232731
0.160952 0.222293 0.235325
0.170687 0.227726 0.237827
0.193606 0.242161 0.247379
0.351781 0.317082 0.229129
0.570855 0.426978 0.161990
0.790982 0.572290 0.000000
0.915923 0.666133 0.000000
0.984955 0.712337 0.000000
1.000000 0.738521 0.000000
1.000000 0.752865 0.000000
1.000000 0.760372 0.000000
1.000000 0.764553 0.000000
1.000000 0.768368 0.000000
1.000000 0.772061 0.000000
1.000000 0.775631 0.000000
1.000000 0.778958 0.000000
1.000000 0.782284 0.000000
0.130831 0.235019 0.213443
0.130983 0.234897 0.213443
0.132052 0.234073 0.213687
0.133883 0.232853 0.214115
0.136294 0.230991 0.215000
0.139559 0.228489 0.216342
0.143191 0.225681 0.218204
0.146456 0.222690 0.220798
0.148196 0.219333 0.224247
0.146731 0.215854 0.228458
0.140841 0.212284 0.233402
0.143557 0.214511 0.236790
0.151156 0.219089 0.239658
0.159670 0.224277 0.242618
0.168429 0.229343 0.245487
0.177218 0.234562 0.248051
0.186496 0.239841 0.250645
0.196201 0.245609 0.253300
0.219120 0.259892 0.263005
0.365454 0.332158 0.250645
0.592676 0.452491 0.190097
0.808469 0.601923 0.000000
0.937591 0.700984 0.000000
0.998779 0.739895 0.000000
1.000000 0.761196 0.000000
1.000000 0.772610 0.000000
1.000000 0.778317 0.000000
1.000000 0.780484 0.000000
1.000000 0.783017 0.000000
1.000000 0.785885 0.000000
1.000000 0.788693 0.000000
1.000000 0.791348 0.000000
0.158114 0.257267 0.227512
0.158907 0.257511 0.227939
0.193149 0.283543 0.246128
0.195041 0.282200 0.246738
0.197116 0.279881 0.247593
0.199954 0.276768 0.248997
0.203189 0.272953 0.250858
0.205814 0.268864 0.253452
0.207706 0.264530 0.257145
0.207309 0.259892 0.261570
0.203189 0.255192 0.266789
0.195651 0.251133 0.272068
0.202518 0.255467 0.274601
0.210208 0.259983 0.276982
0.217472 0.264317 0.278996
0.224735 0.268711 0.280858
0.231968 0.272831 0.282292
0.239658 0.277043 0.283604
0.248325 0.281804 0.285222
0.270695 0.295903 0.294255
0.415961 0.371710 0.285985
0.661341 0.517082 0.222599
0.856077 0.663111 0.000000
0.968780 0.746853 0.000000
1.000000 0.774350 0.000000
1.000000 0.787594 0.000000
1.000000 0.794095 0.000000
1.000000 0.796689 0.000000
1.000000 0.796963 0.000000
1.000000 0.795987 0.000000
1.000000 0.798093 0.000000
1.000000 0.800076 0.000000
0.197391 0.288884 0.248600
0.200748 0.291417 0.250370
0.205295 0.293584 0.252598
0.209873 0.294896 0.254887
0.214603 0.294804 0.257206
0.218204 0.292546 0.259007
0.221317 0.289311 0.261021
0.224063 0.284947 0.263249
0.226108 0.280430 0.266453
0.226413 0.275761 0.270268
0.224216 0.270787 0.274968
0.217716 0.265476 0.280156
0.214817 0.264378 0.284215
0.221714 0.268589 0.286564
0.228885 0.273045 0.288762
0.236210 0.277562 0.290898
0.244114 0.282048 0.292760
0.252445 0.287022 0.294926
0.262089 0.292699 0.297398
0.272953 0.299046 0.300511
0.296941 0.314305 0.310430
0.428473 0.386267 0.309453
0.678370 0.540764 0.253880
0.865354 0.684413 0.024323
0.971740 0.762387 0.000000
1.000000 0.791806 0.000000
1.000000 0.802976 0.000000
1.000000 0.808438 0.000000
1.000000 0.810575 0.000000
1.000000 0.810452 0.000000
1.000000 0.808743 0.000000
1.000000 0.807706 0.000000
0.220218 0.308019 0.260929
0.224216 0.310704 0.262913
0.228763 0.313298 0.265324
0.233799 0.314977 0.267765
0.238621 0.315221 0.270115
0.242283 0.313420 0.272099
0.245670 0.310033 0.274052
0.248173 0.305699 0.276219
0.250217 0.301122 0.279088
0.250980 0.296056 0.282689
0.250095 0.290715 0.286961
0.245548 0.285100 0.291844
0.236027 0.279088 0.297063
0.239597 0.281590 0.300053
0.246830 0.286107 0.302617
0.254002 0.290745 0.304875
0.261997 0.295506 0.307164
0.270481 0.300633 0.309545
0.280034 0.306462 0.312322
0.291264 0.313176 0.315618
0.303807 0.320623 0.319432
0.329229 0.337163 0.330266
0.445472 0.403967 0.336187
0.697139 0.566827 0.288487
0.875273 0.706233 0.170321
0.975158 0.777951 0.000000
1.000000 0.808225 0.000000
1.000000 0.817746 0.000000
1.000000 0.822477 0.000000
1.000000 0.824125 0.000000
1.000000 0.823606 0.000000
1.000000 0.821439 0.000000
0.247379 0.330846 0.275151
0.250919 0.333806 0.277073
0.255497 0.336278 0.279362
0.260197 0.338048 0.281773
0.264622 0.338323 0.284031
0.268406 0.336278 0.285954
0.271611 0.333074 0.287846
0.274235 0.328893 0.290074
0.276616 0.323949 0.292973
0.277775 0.318669 0.296361
0.277806 0.313298 0.300572
0.275059 0.307347 0.305455
0.267826 0.300938 0.310613
0.259739 0.296391 0.315557
0.267247 0.301122 0.318303
0.275395 0.306310 0.321355
0.284855 0.312413 0.324865
0.295689 0.319280 0.328923
0.308354 0.327428 0.333898
0.323003 0.336858 0.339727
0.340276 0.347967 0.346746
0.359564 0.360601 0.354620
0.391211 0.381994 0.369177
0.502129 0.452430 0.385779
0.752865 0.631769 0.350134
0.908324 0.755886 0.279637
0.993133 0.810941 0.168856
1.000000 0.834531 0.000000
1.000000 0.842069 0.000000
1.000000 0.844602 0.000000
1.000000 0.844602 0.000000
1.000000 0.842618 0.000000
0.303166 0.380713 0.304570
0.305241 0.382147 0.305486
0.307286 0.382696 0.306523
0.309483 0.382086 0.307652
0.311772 0.380011 0.308751
0.313664 0.376410 0.309880
0.315801 0.372045 0.311376
0.318181 0.366979 0.313634
0.320531 0.361578 0.316381
0.322515 0.355871 0.320256
0.323491 0.349950 0.324865
0.321599 0.343389 0.330022
0.316197 0.336248 0.335576
0.306218 0.328649 0.341558
0.303868 0.327977 0.346075
0.312291 0.333501 0.349218
0.321599 0.339574 0.352789
0.332280 0.346502 0.356847
0.344244 0.354284 0.361456
0.358038 0.363287 0.366827
0.373693 0.373632 0.373053
0.391211 0.385412 0.380163
0.410590 0.398322 0.387793
0.440864 0.419379 0.401434
0.526909 0.479103 0.425330
0.769192 0.659907 0.401801
0.914122 0.775692 0.355688
0.994537 0.826047 0.290532
1.000000 0.847654 0.169863
1.000000 0.855375 0.000000
1.000000 0.857298 0.000000
1.000000 0.856779 0.000000
0.339971 0.415290 0.323339
0.341711 0.416876 0.324285
0.343847 0.417365 0.325353
0.346258 0.416785 0.326543
0.348638 0.414740 0.327794
0.350652 0.411383 0.329137
0.353002 0.406958 0.330938
0.355749 0.401465 0.333165
0.358282 0.395819 0.336339
0.360754 0.389746 0.340398
0.362188 0.383307 0.345190
0.361700 0.376440 0.350774
0.357946 0.368597 0.356786
0.350195 0.360693 0.363348
0.337530 0.352453 0.370397
0.344488 0.357580 0.374884
0.355016 0.364813 0.379461
0.367010 0.372900 0.384649
0.380407 0.381964 0.390448
0.395666 0.392432 0.397162
0.412909 0.404395 0.404700
0.432105 0.417853 0.413214
0.453346 0.432929 0.422644
0.476692 0.449592 0.432898
0.484382 0.453681 0.431128
0.539849 0.497963 0.463264
0.778195 0.681605 0.453040
0.915587 0.791409 0.425971
0.992309 0.838621 0.383307
1.000000 0.859037 0.307103
1.000000 0.866697 0.177676
1.000000 0.868467 0.205539
0.403540 0.478523 0.356481
0.407172 0.481575 0.358373
0.409400 0.482216 0.359594
0.410285 0.480110 0.360082
0.410040 0.475410 0.360174
0.409644 0.468879 0.360235
0.408881 0.460700 0.360449
0.408270 0.451606 0.361181
0.408026 0.442298 0.362829
0.407660 0.432868 0.365454
0.406348 0.422919 0.368658
0.404242 0.413458 0.373114
0.399451 0.403296 0.378058
0.391119 0.392676 0.383520
0.378241 0.381689 0.389105
0.367468 0.375189 0.394293
0.376043 0.380987 0.397528
0.386633 0.388312 0.402014
0.399939 0.397681 0.408148
0.416052 0.409155 0.415900
0.434668 0.422461 0.424933
0.454780 0.437079 0.434638
0.475502 0.452247 0.444282
0.496376 0.467781 0.453620
0.516808 0.483040 0.462409
0.541955 0.502922 0.474952
0.593072 0.548760 0.511070
0.790829 0.709407 0.514641
0.917693 0.809476 0.501122
0.989441 0.852415 0.473884
1.000000 0.871214 0.419165
1.000000 0.877836 0.321813
0.440742 0.517082 0.376318
0.444190 0.520134 0.378363
0.446967 0.521630 0.380133
0.448890 0.520592 0.381231
0.450477 0.517449 0.382300
0.452094 0.513176 0.383459
0.454414 0.507713 0.385412
0.457038 0.500999 0.388006
0.460182 0.494118 0.391547
0.462898 0.486580 0.396063
0.464393 0.477729 0.401160
0.464515 0.468269 0.407111
0.461585 0.457496 0.413397
0.454871 0.445533 0.419776
0.443091 0.432746 0.426307
0.426184 0.419593 0.433051
0.424140 0.418891 0.438025
0.434943 0.426856 0.442908
0.448829 0.436988 0.449561
0.465736 0.449744 0.458381
0.484993 0.464668 0.468696
0.506126 0.481392 0.480354
0.527672 0.498909 0.492531
0.549035 0.516777 0.504784
0.569970 0.534600 0.516625
0.590387 0.552392 0.528222
0.613642 0.573510 0.542687
0.660822 0.621515 0.582666
0.815061 0.754849 0.602350
0.924071 0.838010 0.604761
0.986816 0.873777 0.591943
1.000000 0.889555 0.555505
0.500237 0.579767 0.414496
0.502251 0.581445 0.415991
0.503777 0.581537 0.417121
0.505211 0.580011 0.417914
0.506432 0.576837 0.418708
0.508019 0.571984 0.419684
0.510002 0.566125 0.421210
0.512352 0.559289 0.423651
0.515221 0.551934 0.426947
0.518181 0.543847 0.431403
0.520531 0.534874 0.436744
0.521752 0.525170 0.443153
0.520745 0.514458 0.450172
0.516289 0.502129 0.457435
0.507012 0.488045 0.464576
0.492256 0.473152 0.472084
0.471412 0.458412 0.480385
0.482124 0.466651 0.485664
0.496071 0.477699 0.493141
0.512871 0.491463 0.502861
0.531456 0.507103 0.514122
0.551019 0.524224 0.526452
0.570825 0.541680 0.538933
0.590234 0.559380 0.551202
0.609155 0.576928 0.563073
0.627527 0.594018 0.574395
0.645899 0.611536 0.586114
0.664637 0.629847 0.598413
0.707240 0.676722 0.638788
0.825681 0.782986 0.667964
0.923735 0.856229 0.678004
0.981140 0.888762 0.673457
0.551232 0.635035 0.455970
0.552850 0.636500 0.457527
0.554650 0.636896 0.458991
0.556634 0.636286 0.460487
0.559503 0.634882 0.462745
0.563714 0.633448 0.466224
0.570642 0.633021 0.472419
0.578912 0.632502 0.480201
0.588800 0.632715 0.490455
0.599390 0.632563 0.502342
0.609796 0.632044 0.515770
0.618982 0.630243 0.529870
0.625818 0.626459 0.543969
0.628748 0.619867 0.557336
0.627161 0.610559 0.569635
0.619013 0.597681 0.580163
0.605188 0.583337 0.590661
0.596674 0.577630 0.600549
0.609705 0.590326 0.609247
0.624475 0.605005 0.619745
0.640558 0.621546 0.631769
0.657221 0.638819 0.644373
0.673274 0.655756 0.656458
0.689143 0.672419 0.668360
0.704189 0.688319 0.679347
0.718502 0.703578 0.689967
0.732387 0.718288 0.700435
0.745937 0.732692 0.710994
0.759396 0.747158 0.721981
0.787930 0.780606 0.754543
0.858518 0.842252 0.782101
0.932189 0.892424 0.790738
0.648188 0.740078 0.562432
0.648463 0.740017 0.562615
0.648737 0.739132 0.562585
0.649348 0.737392 0.562585
0.650538 0.734890 0.563134
0.652552 0.731624 0.564111
0.655543 0.728115 0.566461
0.659571 0.724117 0.569940
0.664424 0.720027 0.575067
0.669795 0.715389 0.581506
0.675227 0.710414 0.589227
0.680262 0.704616 0.598047
0.684016 0.697810 0.607507
0.685573 0.689479 0.617212
