20 Preset/Dark Style/【3】LUT video cho PR-AE-FCPX/19Tones (5)/Hram Christa.cube
# Created by Adobe Lightroom plugin Export LUT (1.24.0)
# www.johnrellis.com/lightroom/exportlut.htm
# Preset: Hram Christa
# Color profile: E:\lut插件\exportlut.1.24\exportlut.lrplugin\color profiles\Rec709gamma2.4.icc
LUT_3D_SIZE 8
DOMAIN_MIN 0.000000 0.000000 0.000000
DOMAIN_MAX 0.903226 0.903226 0.903226
0.000000 0.143343 0.168917
0.011261 0.143038 0.169100
0.104463 0.140963 0.169802
0.180331 0.139437 0.170382
0.335821 0.117006 0.169070
0.629541 0.000000 0.158175
0.926726 0.000000 0.121370
1.000000 0.000000 0.018494
0.000000 0.146944 0.169802
0.004852 0.146609 0.170474
0.096559 0.147402 0.169894
0.166934 0.147127 0.170352
0.306096 0.137301 0.168795
0.582391 0.000000 0.158694
0.872953 0.000000 0.126467
1.000000 0.000000 0.023529
0.000000 0.166293 0.177096
0.012879 0.161776 0.180636
0.064851 0.166934 0.177737
0.169711 0.176516 0.171115
0.314946 0.182010 0.165560
0.622156 0.162142 0.143587
0.912810 0.149050 0.041474
1.000000 0.189517 0.000000
0.000000 0.218662 0.190646
0.000000 0.210483 0.194675
0.105989 0.191012 0.211704
0.180636 0.240665 0.193423
0.454170 0.309392 0.150820
0.697292 0.326757 0.081910
0.913085 0.368872 0.000000
1.000000 0.399084 0.000000
0.000000 0.374578 0.204562
0.000000 0.360418 0.213291
0.138827 0.310063 0.249241
0.226047 0.303349 0.271550
0.415473 0.417731 0.201022
0.731838 0.515312 0.000000
0.897765 0.528985 0.000000
1.000000 0.543328 0.000000
0.000000 0.617548 0.235813
0.000000 0.620905 0.258122
0.136690 0.571221 0.318517
0.434760 0.464179 0.421271
0.488685 0.535790 0.394598
0.703792 0.666712 0.273350
0.922271 0.739406 0.000000
1.000000 0.718746 0.000000
0.000000 0.819913 0.430762
0.144289 0.816159 0.446723
0.409003 0.789395 0.490608
0.593683 0.733608 0.570031
0.687800 0.660761 0.643030
0.723079 0.757717 0.594751
0.850828 0.828458 0.516594
0.989563 0.857053 0.417487
0.629084 0.919921 0.698482
0.642542 0.917571 0.703731
0.693904 0.908354 0.727016
0.767910 0.891051 0.768338
0.814176 0.845335 0.793576
0.841184 0.850156 0.814969
0.868406 0.892546 0.798154
0.928405 0.920531 0.760372
0.000000 0.144625 0.171084
0.000000 0.143923 0.170962
0.096162 0.142184 0.170626
0.159792 0.144167 0.171145
0.291966 0.136141 0.169345
0.552270 0.000000 0.160983
0.843046 0.000000 0.134127
1.000000 0.000000 0.070008
0.000000 0.147005 0.172946
0.004791 0.147158 0.172671
0.090608 0.148287 0.172427
0.158236 0.149447 0.171817
0.286992 0.145602 0.169253
0.540673 0.023529 0.159976
0.817838 0.000000 0.133730
1.000000 0.000000 0.067079
0.000000 0.169741 0.179507
0.000000 0.165927 0.180850
0.061921 0.166842 0.181491
0.161563 0.173892 0.175723
0.295598 0.178408 0.170504
0.554345 0.162692 0.153994
0.832059 0.124025 0.105715
1.000000 0.150820 0.000000
0.000000 0.218448 0.191501
0.000000 0.211490 0.193149
0.104402 0.189334 0.211002
0.156313 0.222660 0.195468
0.358434 0.264591 0.169894
0.585595 0.275792 0.137057
0.835904 0.309758 0.000000
1.000000 0.362066 0.000000
0.000000 0.373816 0.203677
0.000000 0.358221 0.210147
0.109743 0.307164 0.242252
0.209079 0.284245 0.265843
0.364111 0.378210 0.207797
0.678248 0.470558 0.018097
0.862486 0.493172 0.000000
1.000000 0.517296 0.000000
0.000000 0.601831 0.224002
0.000000 0.592035 0.238895
0.000000 0.545434 0.295232
0.395453 0.447181 0.393591
0.459358 0.507317 0.381598
0.684596 0.647028 0.273381
0.909941 0.723903 0.000000
1.000000 0.704524 0.000000
0.000000 0.808499 0.396704
0.000000 0.799954 0.403998
0.319860 0.771054 0.449409
0.553368 0.714473 0.536034
0.670558 0.637293 0.625757
0.706233 0.739925 0.576715
0.837675 0.813474 0.489967
0.982300 0.844511 0.379187
0.589105 0.915953 0.674281
0.610529 0.914549 0.684108
0.667842 0.904631 0.708278
0.750759 0.886412 0.753017
0.821897 0.855406 0.803067
0.844450 0.852140 0.819486
0.866880 0.890898 0.797452
0.927153 0.919158 0.759243
0.000000 0.151614 0.182193
0.000000 0.151095 0.182712
0.023133 0.147921 0.185428
0.164767 0.145480 0.190372
0.317754 0.112032 0.187594
0.597833 0.000000 0.177768
0.876860 0.000000 0.152041
1.000000 0.000000 0.090822
0.000000 0.153750 0.183841
0.000000 0.154238 0.184543
0.032624 0.153170 0.187472
0.162356 0.150210 0.190860
0.308721 0.123384 0.186069
0.579248 0.000000 0.178042
0.853696 0.000000 0.151675
1.000000 0.000000 0.088563
0.000000 0.170779 0.195224
0.000000 0.170871 0.195438
0.071595 0.170871 0.195560
0.170596 0.171603 0.193484
0.330755 0.166262 0.189059
0.603388 0.098054 0.174990
0.862638 0.000000 0.139254
1.000000 0.034760 0.000000
0.000000 0.241032 0.212741
0.000000 0.242039 0.211826
0.031312 0.225864 0.213901
0.173648 0.234501 0.216922
0.384497 0.263462 0.192630
0.635340 0.267887 0.162142
0.872770 0.291875 0.094911
1.000000 0.337407 0.000000
0.000000 0.435859 0.236576
0.000000 0.423896 0.234775
0.000000 0.373907 0.240574
0.256382 0.297978 0.303685
0.400427 0.402472 0.246036
0.695216 0.472267 0.142977
0.870970 0.480415 0.000000
1.000000 0.506310 0.000000
0.000000 0.647761 0.278386
0.000000 0.640589 0.275975
0.000000 0.599359 0.291783
0.381109 0.502770 0.390356
0.476753 0.505333 0.418952
0.683589 0.644495 0.331609
0.905821 0.716396 0.190066
1.000000 0.698543 0.000000
0.000000 0.833982 0.442969
0.000000 0.827543 0.440681
0.218753 0.801450 0.460426
0.533806 0.747158 0.539544
0.684565 0.649592 0.641474
0.715969 0.742885 0.609644
0.842710 0.820249 0.545922
0.981567 0.850370 0.466773
0.568200 0.924437 0.680720
0.577752 0.921904 0.681361
0.638239 0.912261 0.701411
0.737881 0.895659 0.750912
0.816678 0.865660 0.800748
0.850736 0.853178 0.829313
0.871031 0.893034 0.810880
0.928527 0.921294 0.777523
0.000000 0.161898 0.200259
0.000000 0.162020 0.202304
0.000000 0.162783 0.208652
0.095705 0.158602 0.220676
0.338994 0.118379 0.248905
0.637171 0.000000 0.259556
0.880522 0.000000 0.223148
1.000000 0.000000 0.183536
0.000000 0.165835 0.204501
0.000000 0.166445 0.206058
0.000000 0.168185 0.212650
0.103487 0.163912 0.225437
0.347509 0.123537 0.251255
0.639551 0.000000 0.256535
0.876493 0.000000 0.215396
1.000000 0.000000 0.182315
0.000000 0.175540 0.208682
0.000000 0.177188 0.210300
0.008637 0.184451 0.220493
0.125734 0.184360 0.235416
0.376654 0.149844 0.256718
0.667384 0.000000 0.243473
0.915251 0.000000 0.214603
1.000000 0.000000 0.178012
0.000000 0.238071 0.256565
0.000000 0.238071 0.256535
0.000000 0.240299 0.258457
0.189822 0.244236 0.263340
0.401709 0.234836 0.252689
0.663539 0.200565 0.234897
0.892882 0.178866 0.204166
1.000000 0.224521 0.153628
0.000000 0.470649 0.347936
0.000000 0.467170 0.340673
0.000000 0.462318 0.318791
0.222690 0.414557 0.322545
0.448127 0.432013 0.334661
0.714137 0.460578 0.258854
0.893858 0.455970 0.189120
1.000000 0.476539 0.114107
0.000000 0.719875 0.403326
0.000000 0.729152 0.406958
0.000000 0.715053 0.391516
0.284001 0.639307 0.414771
0.560662 0.536156 0.518853
0.704738 0.664332 0.450629
0.904601 0.711788 0.356176
1.000000 0.685359 0.234379
0.000000 0.874418 0.501823
0.000000 0.870726 0.507469
0.000000 0.851194 0.535790
0.479622 0.813016 0.564446
0.693935 0.735470 0.658778
0.742367 0.755032 0.674037
0.847196 0.827390 0.623896
0.976135 0.852659 0.564904
0.538170 0.943145 0.711666
0.565057 0.940520 0.718013
0.621637 0.932372 0.727291
0.709224 0.916228 0.752407
0.806027 0.887633 0.800443
0.861692 0.852598 0.844602
0.876310 0.894774 0.830198
0.931029 0.924895 0.806027
0.000000 0.181735 0.238102
0.000000 0.183078 0.241886
0.000000 0.187015 0.254978
0.000000 0.194186 0.288579
0.198398 0.170809 0.327459
0.671962 0.000000 0.438361
0.930022 0.000000 0.423438
1.000000 0.000000 0.379522
0.000000 0.187594 0.243809
0.000000 0.189151 0.247868
0.000000 0.193606 0.261326
0.000000 0.200961 0.294224
0.210391 0.177371 0.335515
0.681666 0.000000 0.439551
0.930144 0.000000 0.421637
1.000000 0.000000 0.375250
0.000000 0.202823 0.252323
0.000000 0.205875 0.256779
0.000000 0.211643 0.270634
0.000000 0.224979 0.307683
0.244877 0.207370 0.353307
0.685389 0.000000 0.420691
0.917388 0.000000 0.404486
1.000000 0.000000 0.348852
0.000000 0.232609 0.276188
0.000000 0.232578 0.275792
0.000000 0.233616 0.275029
0.124941 0.274693 0.327611
0.331304 0.289158 0.395392
0.715663 0.210941 0.424231
0.918700 0.000000 0.382483
1.000000 0.000000 0.315343
0.000000 0.398505 0.403937
0.000000 0.400458 0.405676
0.000000 0.405219 0.409674
0.000000 0.414954 0.418738
0.442084 0.419501 0.431556
0.697505 0.395026 0.400000
0.899840 0.382696 0.363561
1.000000 0.388098 0.317906
0.000000 0.695186 0.549187
0.000000 0.695308 0.545190
0.000000 0.686946 0.518639
0.000000 0.674769 0.478645
0.484749 0.610742 0.499794
0.690028 0.646723 0.540948
0.886351 0.672114 0.468635
1.000000 0.640009 0.371069
0.000000 0.887541 0.596307
0.000000 0.885100 0.591821
0.000000 0.877714 0.579370
0.000000 0.864225 0.588037
0.606836 0.805661 0.638636
0.754574 0.739162 0.715602
0.840024 0.820951 0.679835
0.965240 0.838346 0.620539
0.000000 0.968261 0.667597
0.000000 0.966461 0.670100
0.000000 0.959289 0.684077
0.600519 0.938994 0.744045
0.751400 0.912108 0.781582
0.851499 0.871397 0.836149
0.874846 0.888029 0.842832
0.927672 0.921630 0.821592
0.000000 0.231113 0.329595
0.000000 0.233951 0.336431
0.000000 0.241276 0.358709
0.000000 0.257176 0.413977
0.000000 0.280522 0.522545
0.447181 0.165988 0.580804
0.928252 0.000000 0.689631
1.000000 0.000000 0.628351
0.000000 0.231876 0.325322
0.000000 0.233738 0.330236
0.000000 0.241367 0.352270
0.000000 0.257420 0.404974
0.000000 0.280766 0.507317
0.436744 0.179873 0.566796
0.916716 0.000000 0.676478
1.000000 0.000000 0.620417
0.000000 0.252995 0.340124
0.000000 0.255222 0.345312
0.000000 0.267002 0.371923
0.000000 0.286320 0.423987
0.000000 0.321416 0.526635
0.485939 0.243809 0.589319
0.926482 0.000000 0.678584
1.000000 0.000000 0.625360
0.000000 0.266423 0.333165
0.000000 0.271489 0.340093
0.000000 0.298741 0.377874
0.000000 0.347631 0.456092
0.215061 0.415869 0.571191
0.592767 0.393256 0.642573
0.939574 0.391241 0.690822
1.000000 0.358801 0.642023
0.000000 0.366613 0.427649
0.000000 0.365698 0.426673
0.000000 0.362890 0.424201
0.000000 0.361822 0.420386
0.363806 0.462928 0.535546
0.638819 0.521141 0.640986
0.913085 0.520745 0.659510
1.000000 0.447517 0.604059
0.000000 0.618891 0.608209
0.000000 0.624323 0.613245
0.000000 0.626825 0.615290
0.000000 0.632593 0.620874
0.000000 0.638117 0.630823
0.701625 0.656428 0.660121
0.884123 0.644892 0.633112
1.000000 0.630152 0.593194
0.000000 0.896513 0.753964
0.000000 0.899321 0.754940
0.000000 0.903929 0.751461
0.000000 0.901579 0.727108
0.000000 0.875456 0.705989
0.743313 0.816709 0.741451
0.845060 0.828458 0.761105
0.959747 0.829892 0.707546
0.000000 0.986633 0.747005
0.000000 0.985168 0.744869
0.000000 0.979858 0.740841
0.000000 0.968109 0.745571
0.562646 0.948394 0.773434
0.805509 0.911101 0.821744
0.880735 0.880827 0.864256
0.927031 0.921477 0.849607
0.000000 0.323308 0.491676
0.000000 0.328985 0.503044
0.000000 0.339696 0.530144
0.000000 0.361028 0.586236
0.000000 0.387243 0.664607
0.000000 0.422187 0.755581
0.676570 0.246220 0.779385
1.000000 0.011414 0.833524
0.000000 0.316075 0.474495
0.000000 0.322240 0.486732
0.000000 0.332586 0.512871
0.000000 0.351873 0.565118
0.000000 0.377752 0.642878
0.000000 0.409674 0.733700
0.651881 0.235843 0.756497
1.000000 0.000000 0.815152
0.000000 0.339055 0.489296
0.000000 0.342016 0.495613
0.000000 0.352270 0.519554
0.000000 0.375067 0.572107
0.000000 0.406531 0.646937
0.000000 0.455756 0.740352
0.689479 0.337530 0.774624
1.000000 0.315526 0.826291
0.000000 0.363256 0.487282
0.000000 0.367529 0.493568
0.000000 0.383734 0.520928
0.000000 0.418219 0.580011
0.000000 0.467414 0.661036
0.401892 0.547601 0.758114
0.742428 0.499550 0.797116
1.000000 0.513420 0.829252
0.000000 0.337926 0.421393
0.000000 0.333989 0.416236
0.000000 0.350774 0.438697
0.000000 0.413611 0.519066
0.116182 0.500145 0.628504
0.515373 0.600488 0.739528
0.765530 0.610559 0.793851
0.984070 0.658137 0.823728
0.000000 0.555840 0.621881
0.000000 0.554925 0.621454
0.000000 0.548791 0.617395
0.000000 0.536095 0.608209
0.000000 0.516228 0.588647
0.602350 0.658869 0.722133
0.813687 0.747463 0.815305
0.968322 0.760372 0.822751
0.000000 0.810147 0.781827
0.000000 0.812192 0.783719
0.000000 0.812711 0.784482
0.000000 0.814542 0.787442
0.000000 0.812375 0.790433
0.508659 0.808927 0.797726
0.838193 0.820493 0.817685
0.951690 0.807401 0.795041
0.000000 0.984344 0.855680
0.000000 0.985046 0.855589
0.000000 0.988769 0.856107
0.000000 0.992737 0.852781
0.000000 0.987213 0.840269
0.586847 0.951293 0.843229
0.867460 0.915221 0.870573
0.928313 0.923125 0.884245
0.000000 0.471534 0.698329
0.000000 0.475441 0.704738
0.000000 0.478065 0.715846
0.000000 0.493080 0.748623
0.000000 0.511498 0.790860
0.000000 0.537133 0.836057
0.419562 0.562829 0.877440
0.809445 0.450568 0.888945
0.000000 0.463050 0.684352
0.000000 0.467262 0.691279
0.000000 0.473304 0.706264
0.000000 0.487800 0.738460
0.000000 0.507561 0.782376
0.000000 0.534386 0.829740
0.412787 0.560784 0.871733
0.802884 0.440772 0.882689
0.000000 0.470253 0.676600
0.000000 0.472847 0.681270
0.000000 0.478920 0.695583
0.000000 0.503777 0.737301
0.000000 0.524834 0.779202
0.000000 0.554589 0.825223
0.486122 0.605798 0.869352
0.809354 0.495979 0.881346
0.000000 0.482063 0.659876
0.000000 0.486458 0.666194
0.000000 0.496681 0.683803
0.000000 0.521630 0.722988
0.000000 0.554498 0.772457
0.198306 0.599603 0.823789
0.593194 0.676997 0.870359
0.827420 0.597986 0.884459
0.000000 0.458656 0.599817
0.000000 0.465400 0.608301
0.000000 0.482887 0.631037
0.000000 0.528069 0.684749
0.000000 0.572534 0.745022
0.356542 0.632532 0.808255
0.659388 0.722286 0.864225
0.845029 0.696345 0.885710
0.000000 0.510887 0.621729
0.000000 0.504753 0.615747
0.000000 0.485512 0.596948
0.000000 0.456550 0.567498
0.000000 0.542229 0.665736
0.431220 0.664881 0.785275
0.735286 0.782406 0.866300
0.877470 0.805051 0.899199
0.000000 0.757137 0.805936
0.000000 0.754940 0.804501
0.000000 0.746334 0.798886
0.000000 0.732540 0.790829
0.000000 0.708248 0.775753
0.000000 0.671443 0.747097
0.754788 0.804135 0.845945
0.903807 0.872251 0.909606
0.000000 0.934112 0.895171
0.000000 0.933654 0.894804
0.000000 0.932952 0.894713
0.000000 0.932403 0.895995
0.000000 0.927642 0.896849
0.000000 0.917357 0.897246
0.717006 0.908873 0.899962
0.921965 0.915953 0.913359
