20 Preset/Dark Style/【3】LUT video cho PR-AE-FCPX/19Tones (5)/Hram Christa.cube
# Created by Adobe Lightroom plugin Export LUT (1.24.0)
# www.johnrellis.com/lightroom/exportlut.htm
# Preset: Hram Christa
# Color profile: E:\lut插件\exportlut.1.24\exportlut.lrplugin\color profiles\Rec709gamma2.4.icc
LUT_3D_SIZE 32
DOMAIN_MIN 0.0 0.0 0.0
DOMAIN_MAX 1.0 1.0 1.0
0.000000 0.143343 0.168917
0.000000 0.143343 0.168917
0.000000 0.143343 0.168917
0.000000 0.143343 0.168917
0.011261 0.143038 0.169100
0.032136 0.142794 0.169253
0.062593 0.142336 0.169558
0.089204 0.141756 0.169680
0.104463 0.140963 0.169802
0.119844 0.140810 0.169986
0.136843 0.140719 0.170138
0.156741 0.140383 0.170199
0.180331 0.139437 0.170382
0.209262 0.137392 0.170413
0.243717 0.133974 0.170108
0.285405 0.128206 0.169680
0.335821 0.117006 0.169070
0.394781 0.095827 0.167697
0.461707 0.011810 0.165805
0.535760 0.000000 0.162966
0.629541 0.000000 0.158175
0.729061 0.000000 0.150698
0.807401 0.000000 0.142123
0.872129 0.000000 0.132570
0.926726 0.000000 0.121370
0.972259 0.000000 0.108766
1.000000 0.000000 0.093568
1.000000 0.000000 0.063050
1.000000 0.000000 0.018494
1.000000 0.000000 0.000000
1.000000 0.000000 0.000000
1.000000 0.000000 0.000000
0.000000 0.143343 0.168917
0.000000 0.143343 0.168917
0.000000 0.143343 0.168917
0.000000 0.143343 0.168917
0.011261 0.143038 0.169100
0.032136 0.142794 0.169253
0.060914 0.142367 0.169375
0.088594 0.141817 0.169497
0.103090 0.141299 0.169619
0.117647 0.141238 0.169986
0.134310 0.140993 0.170138
0.153689 0.140536 0.170230
0.176699 0.139773 0.170413
0.204196 0.138186 0.170474
0.237705 0.135286 0.170169
0.277958 0.129946 0.169802
0.326909 0.120058 0.169070
0.384161 0.101747 0.167819
0.450141 0.034974 0.166201
0.522667 0.000000 0.163546
0.613489 0.000000 0.159030
0.709621 0.000000 0.152316
0.787076 0.000000 0.144594
0.851987 0.000000 0.135744
0.907347 0.000000 0.125582
0.954925 0.000000 0.113649
0.996338 0.000000 0.099886
1.000000 0.000000 0.079927
1.000000 0.000000 0.034699
1.000000 0.000000 0.000000
1.000000 0.000000 0.000000
1.000000 0.000000 0.000000
0.000000 0.143343 0.168917
0.000000 0.143343 0.168917
0.000000 0.143343 0.168917
0.000000 0.143343 0.168917
0.013275 0.143008 0.169100
0.034119 0.142733 0.169253
0.060914 0.142367 0.169375
0.088045 0.142275 0.169467
0.101472 0.142306 0.169680
0.115846 0.142306 0.169894
0.132326 0.142092 0.170230
0.151217 0.141970 0.170321
0.173892 0.141115 0.170321
0.200687 0.139773 0.170413
0.233127 0.137331 0.170108
0.272587 0.132387 0.169772
0.320195 0.124117 0.169039
0.376898 0.108064 0.168002
0.441901 0.061372 0.166262
0.513787 0.000000 0.163668
0.605310 0.000000 0.159121
0.699367 0.000000 0.152621
0.776455 0.000000 0.145022
0.841398 0.000000 0.136477
0.896788 0.000000 0.126619
0.945098 0.000000 0.115236
0.987671 0.000000 0.101839
1.000000 0.000000 0.083772
1.000000 0.000000 0.039826
1.000000 0.000000 0.000000
1.000000 0.000000 0.000000
1.000000 0.000000 0.000000
0.000000 0.143771 0.169070
0.000000 0.143832 0.169070
0.000000 0.143771 0.169070
0.000000 0.143740 0.169406
0.012665 0.144320 0.169131
0.032502 0.144320 0.169436
0.057893 0.144411 0.169528
0.085054 0.144381 0.169589
0.099245 0.144442 0.169833
0.113985 0.144442 0.170047
0.130892 0.144228 0.170016
0.149233 0.144198 0.170291
0.171359 0.143496 0.170321
0.197543 0.142580 0.170352
0.229038 0.140322 0.170108
0.266758 0.136782 0.169741
0.312352 0.129885 0.169070
0.366583 0.117617 0.167849
0.429023 0.092958 0.166232
0.498939 0.000000 0.163760
0.588434 0.000000 0.159426
0.677729 0.000000 0.153597
0.754574 0.000000 0.146365
0.821775 0.000000 0.137789
0.880797 0.000000 0.127871
0.933288 0.000000 0.116091
0.979461 0.000000 0.101686
1.000000 0.000000 0.081514
1.000000 0.000000 0.033997
1.000000 0.000000 0.000000
1.000000 0.000000 0.000000
1.000000 0.000000 0.000000
0.000000 0.146944 0.169802
0.000000 0.146944 0.169802
0.000000 0.146944 0.169802
0.000000 0.145846 0.170748
0.004852 0.146609 0.170474
0.023346 0.147494 0.169802
0.049042 0.147585 0.169711
0.078737 0.147372 0.169833
0.096559 0.147402 0.169894
0.110872 0.147250 0.170108
0.127230 0.147372 0.170260
0.145632 0.147189 0.170352
0.166934 0.147127 0.170352
0.192935 0.146426 0.170230
0.223453 0.145083 0.170108
0.260655 0.142580 0.169558
0.306096 0.137301 0.168795
0.360235 0.127199 0.167727
0.422370 0.108370 0.165866
0.493050 0.046845 0.163210
0.582391 0.000000 0.158694
0.668421 0.000000 0.152682
0.745052 0.000000 0.145602
0.812619 0.000000 0.136843
0.872953 0.000000 0.126467
0.926940 0.000000 0.113710
0.974090 0.000000 0.098817
1.000000 0.000000 0.072450
1.000000 0.000000 0.023529
1.000000 0.000000 0.000000
1.000000 0.000000 0.000000
1.000000 0.000000 0.000000
0.000000 0.150637 0.170443
0.000000 0.150607 0.170626
0.000000 0.149844 0.170871
0.000427 0.148745 0.172183
0.004608 0.148226 0.172915
0.013214 0.150149 0.171633
0.039399 0.151705 0.170504
0.071321 0.151675 0.170230
0.093538 0.151522 0.170138
0.108278 0.151614 0.170169
0.125246 0.151492 0.170321
0.143771 0.151766 0.170230
0.165591 0.151888 0.170169
0.191135 0.151736 0.170016
0.221897 0.151308 0.169802
0.259281 0.149386 0.169192
0.305028 0.145541 0.168490
0.359472 0.137667 0.167117
0.422156 0.123354 0.165194
0.499428 0.091951 0.161898
0.586511 0.000000 0.156985
0.671290 0.000000 0.150484
0.854826 0.000000 0.123720
0.914183 0.000000 0.108583
0.963256 0.000000 0.089754
1.000000 0.000000 0.046906
1.000000 0.000000 0.000000
1.000000 0.000000 0.000000
1.000000 0.000000 0.000000
1.000000 0.000000 0.000000
1.000000 0.000000 0.000000
1.000000 0.000000 0.000000
0.000000 0.155215 0.172335
0.000000 0.154971 0.172366
0.000000 0.154208 0.173129
0.001282 0.152743 0.174441
0.013184 0.151003 0.176272
0.012879 0.152895 0.174899
0.027466 0.155459 0.173037
0.065888 0.157870 0.171420
0.093416 0.158022 0.170932
0.110994 0.158114 0.170596
0.129183 0.158267 0.170169
0.149813 0.159030 0.170138
0.173800 0.159487 0.169986
0.202060 0.159854 0.169650
0.235416 0.159731 0.169284
0.275578 0.158602 0.168368
0.323857 0.155673 0.167330
0.380896 0.149142 0.165469
0.448798 0.136507 0.162783
0.542809 0.107637 0.157504
0.640040 0.000000 0.149813
0.731960 0.000000 0.139742
0.812253 0.000000 0.126589
0.881773 0.000000 0.110231
0.940246 0.000000 0.088472
0.986694 0.000000 0.036316
1.000000 0.000000 0.000000
1.000000 0.000000 0.000000
1.000000 0.000000 0.000000
1.000000 0.000000 0.000000
1.000000 0.000000 0.000000
1.000000 0.021607 0.000000
0.000000 0.160220 0.174502
0.000000 0.159976 0.174685
0.000000 0.159243 0.175265
0.000153 0.157809 0.176394
0.015198 0.155703 0.178408
0.019379 0.155184 0.179110
0.023072 0.157717 0.177157
0.042512 0.160464 0.175113
0.088350 0.163851 0.172671
0.106477 0.164706 0.171725
0.126162 0.165377 0.170901
0.146761 0.166140 0.170321
0.170199 0.166751 0.169833
0.197818 0.167971 0.169406
0.230503 0.168826 0.168948
0.269413 0.169162 0.168093
0.316686 0.168185 0.166567
0.372320 0.164858 0.164553
0.450233 0.157504 0.160922
0.536614 0.142428 0.155337
0.627558 0.116823 0.147707
0.716091 0.072816 0.136751
0.795285 0.000000 0.123110
0.864744 0.000000 0.104982
0.924315 0.000000 0.075715
0.972412 0.000000 0.013428
1.000000 0.019623 0.000000
1.000000 0.074434 0.000000
1.000000 0.106325 0.000000
1.000000 0.125246 0.000000
1.000000 0.142000 0.000000
1.000000 0.156497 0.000000
0.000000 0.166293 0.177096
0.000000 0.166049 0.177127
0.000000 0.165377 0.177676
0.000000 0.163821 0.178836
0.012879 0.161776 0.180636
0.029541 0.158907 0.183322
0.027344 0.160494 0.182345
0.035157 0.163394 0.180209
0.064851 0.166934 0.177737
0.101839 0.171756 0.174929
0.123293 0.173678 0.173434
0.145449 0.175174 0.172427
0.169711 0.176516 0.171115
0.196689 0.177615 0.169863
0.228458 0.179080 0.168612
0.267063 0.180819 0.167239
0.314946 0.182010 0.165560
0.379828 0.182315 0.162631
0.453773 0.179538 0.158358
0.535393 0.172763 0.152193
0.622156 0.162142 0.143587
0.707393 0.150240 0.131899
0.784726 0.142489 0.116335
0.853269 0.142092 0.095064
0.912810 0.149050 0.041474
0.961639 0.158267 0.000000
1.000000 0.168795 0.000000
1.000000 0.179416 0.000000
1.000000 0.189517 0.000000
1.000000 0.199374 0.000000
1.000000 0.208316 0.000000
1.000000 0.217319 0.000000
0.000000 0.173983 0.179904
0.000000 0.173739 0.179934
0.000000 0.172915 0.180514
0.000000 0.171450 0.181613
0.009644 0.168948 0.183291
0.030335 0.165835 0.185641
0.043458 0.163699 0.187839
0.041352 0.166690 0.185824
0.055146 0.170413 0.183474
0.087800 0.174929 0.180545
0.117159 0.181338 0.177157
0.142641 0.184939 0.175296
0.168887 0.187106 0.173709
0.197574 0.189303 0.171908
0.230045 0.191440 0.170016
0.270878 0.194186 0.167636
0.324407 0.198093 0.164614
0.388006 0.201205 0.160708
0.460182 0.202792 0.155184
0.539178 0.202335 0.147494
0.621302 0.199680 0.137575
0.700618 0.197299 0.124575
0.772580 0.197574 0.107698
0.837125 0.201266 0.081971
0.894255 0.207675 0.013886
0.943633 0.216068 0.000000
0.985779 0.224521 0.000000
1.000000 0.233463 0.000000
1.000000 0.242771 0.000000
1.000000 0.250797 0.000000
1.000000 0.258793 0.000000
1.000000 0.265995 0.000000
0.000000 0.182986 0.182589
0.000000 0.182620 0.182803
0.000000 0.182071 0.183169
0.000000 0.180331 0.184298
0.000977 0.177768 0.186130
0.028016 0.174594 0.188571
0.054414 0.170626 0.191836
0.058473 0.170718 0.192416
0.061189 0.174838 0.189975
0.080964 0.179812 0.187015
0.104494 0.185733 0.183749
0.137118 0.194156 0.179629
0.170016 0.200229 0.176669
0.203830 0.205020 0.174319
0.242710 0.209842 0.171542
0.287480 0.214237 0.168215
0.338079 0.218173 0.164340
0.394812 0.221073 0.159518
0.464607 0.225162 0.152987
0.540093 0.228458 0.144533
0.618250 0.231174 0.132753
0.693843 0.235264 0.116976
0.763546 0.241855 0.094697
0.827298 0.249027 0.039277
0.884276 0.257664 0.000000
0.934020 0.266972 0.000000
0.976776 0.275883 0.000000
1.000000 0.284123 0.000000
1.000000 0.292241 0.000000
1.000000 0.299626 0.000000
1.000000 0.306188 0.000000
1.000000 0.312352 0.000000
0.000000 0.195682 0.185885
0.000000 0.195346 0.185916
0.000000 0.194461 0.186496
0.000000 0.192538 0.187625
0.000000 0.189883 0.189609
0.019898 0.186252 0.192081
0.056489 0.181857 0.195590
0.085237 0.176638 0.200259
0.082246 0.180514 0.198123
0.088136 0.185916 0.195132
0.101900 0.193210 0.191745
0.128725 0.202579 0.187411
0.199191 0.233738 0.182620
0.261967 0.251347 0.175265
0.316899 0.260472 0.168978
0.376928 0.268315 0.162020
0.440192 0.274479 0.153811
0.505882 0.279057 0.143984
0.572137 0.282475 0.131930
0.641077 0.287449 0.116304
0.712062 0.296513 0.092195
0.775784 0.305913 0.025147
0.833402 0.316258 0.000000
0.885252 0.327855 0.000000
0.930785 0.339147 0.000000
0.970336 0.347906 0.000000
1.000000 0.353399 0.000000
1.000000 0.357916 0.000000
1.000000 0.361486 0.000000
1.000000 0.364538 0.000000
1.000000 0.367132 0.000000
1.000000 0.369848 0.000000
0.000000 0.218662 0.190646
0.000000 0.218387 0.190707
0.000000 0.217105 0.191318
0.000000 0.214359 0.192721
0.000000 0.210483 0.194675
0.003265 0.205417 0.197604
0.057649 0.200198 0.201968
0.095735 0.193820 0.207645
0.105989 0.191012 0.211704
0.105959 0.198856 0.208804
0.115389 0.209262 0.205203
0.139132 0.222904 0.200320
0.180636 0.240665 0.193423
0.244541 0.264256 0.183322
0.328283 0.291295 0.170718
0.390692 0.301701 0.161227
0.454170 0.309392 0.150820
0.517235 0.315038 0.138827
0.580194 0.319554 0.124666
0.640681 0.323217 0.107271
0.697292 0.326757 0.081910
0.756008 0.334539 0.006165
0.813504 0.345464 0.000000
0.866087 0.357061 0.000000
0.913085 0.368872 0.000000
0.954009 0.379309 0.000000
0.989776 0.389166 0.000000
1.000000 0.394873 0.000000
1.000000 0.399084 0.000000
1.000000 0.402960 0.000000
1.000000 0.405982 0.000000
1.000000 0.408240 0.000000
0.000000 0.247776 0.195010
0.000000 0.247105 0.195102
0.000000 0.245090 0.195865
0.000000 0.241825 0.197513
0.000000 0.236973 0.199924
0.000000 0.230747 0.203433
0.041474 0.223331 0.208011
0.099702 0.214908 0.214206
0.122683 0.205844 0.222019
0.125612 0.208682 0.222965
0.128786 0.219944 0.219028
0.143862 0.234653 0.213870
0.176547 0.253605 0.207004
0.228885 0.276982 0.196933
0.303136 0.304356 0.182254
0.405127 0.339574 0.161105
0.468605 0.348699 0.147585
0.530632 0.355322 0.132326
0.591791 0.360845 0.114076
0.649592 0.365209 0.090517
0.703151 0.369268 0.027131
0.753719 0.373114 0.000000
0.800931 0.377691 0.000000
0.853117 0.389258 0.000000
0.900694 0.401404 0.000000
0.942535 0.412207 0.000000
0.979248 0.421973 0.000000
1.000000 0.430671 0.000000
1.000000 0.436957 0.000000
1.000000 0.440894 0.000000
1.000000 0.443915 0.000000
1.000000 0.446448 0.000000
0.000000 0.285130 0.198917
0.000000 0.284764 0.199130
0.000000 0.282017 0.200076
0.000000 0.277623 0.201877
0.000000 0.270756 0.204868
0.000000 0.262486 0.208896
0.000000 0.252659 0.214267
0.098116 0.242069 0.221195
0.131533 0.230686 0.229770
0.152834 0.219699 0.240452
0.150637 0.231998 0.236179
0.158358 0.248081 0.231144
0.181613 0.268284 0.223819
0.223697 0.292729 0.213809
0.287358 0.320958 0.199191
0.370886 0.351568 0.178317
0.486152 0.393683 0.144472
0.547814 0.401373 0.123995
0.607050 0.407568 0.098451
0.661738 0.411872 0.038849
0.712581 0.415686 0.000000
0.760739 0.419623 0.000000
0.805936 0.423407 0.000000
0.848569 0.428199 0.000000
0.889830 0.434150 0.000000
0.932158 0.445167 0.000000
0.969848 0.455116 0.000000
1.000000 0.464149 0.000000
1.000000 0.472724 0.000000
1.000000 0.479927 0.000000
1.000000 0.483925 0.000000
1.000000 0.486976 0.000000
0.000000 0.327428 0.202029
0.000000 0.327001 0.202396
0.000000 0.324895 0.203433
0.000000 0.320104 0.205966
0.000000 0.313542 0.209445
0.000000 0.304295 0.214603
0.000000 0.294011 0.221256
0.083162 0.281895 0.229679
0.139284 0.268254 0.240299
0.173007 0.252934 0.253147
0.186252 0.248722 0.260319
0.186526 0.265843 0.253849
0.199222 0.286351 0.245792
0.228824 0.310216 0.234623
0.278599 0.337255 0.220127
0.348363 0.366827 0.200229
0.436652 0.398749 0.172396
0.557427 0.446021 0.121279
0.617700 0.454475 0.082460
0.670985 0.459297 0.000000
0.721126 0.463752 0.000000
0.768460 0.467811 0.000000
0.812741 0.471962 0.000000
0.854520 0.476448 0.000000
0.893248 0.480537 0.000000
0.928710 0.484199 0.000000
0.963897 0.491218 0.000000
0.998199 0.500008 0.000000
1.000000 0.508141 0.000000
1.000000 0.515373 0.000000
1.000000 0.521202 0.000000
1.000000 0.523613 0.000000
0.000000 0.374578 0.204562
0.000000 0.374304 0.204776
0.000000 0.371832 0.206271
0.000000 0.367437 0.208988
0.000000 0.360418 0.213291
0.000000 0.350805 0.219516
0.000000 0.339269 0.227420
0.000000 0.325841 0.237278
0.138827 0.310063 0.249241
0.185763 0.292668 0.263554
0.218173 0.273014 0.280491
0.221561 0.281743 0.280034
0.226047 0.303349 0.271550
0.245029 0.328222 0.260472
0.281956 0.355627 0.245914
0.339483 0.385870 0.226688
0.415473 0.417731 0.201022
0.507622 0.452125 0.164157
0.623224 0.500328 0.087678
0.683589 0.511467 0.000000
0.731838 0.515312 0.000000
0.777432 0.519005 0.000000
0.820279 0.522515 0.000000
0.860746 0.525933 0.000000
0.897765 0.528985 0.000000
0.931914 0.531548 0.000000
0.963745 0.534173 0.000000
0.993286 0.536767 0.000000
1.000000 0.543328 0.000000
1.000000 0.550256 0.000000
1.000000 0.556207 0.000000
1.000000 0.560967 0.000000
0.000000 0.432898 0.207065
0.000000 0.432929 0.207828
0.000000 0.479103 0.213504
0.000000 0.474159 0.217746
0.000000 0.465614 0.224643
0.000000 0.454261 0.233829
0.000000 0.439582 0.245609
0.000000 0.422095 0.259739
0.162356 0.401617 0.276646
0.232853 0.378729 0.296239
0.280644 0.352636 0.318700
0.310674 0.329351 0.340063
0.307286 0.354894 0.328862
0.315953 0.382727 0.314488
0.341619 0.412390 0.296300
0.387182 0.443397 0.273381
0.450996 0.474952 0.244022
0.529259 0.507164 0.206241
0.614832 0.539086 0.151919
0.711055 0.580438 0.000000
0.766567 0.590875 0.000000
0.806851 0.590814 0.000000
0.844755 0.590784 0.000000
0.879759 0.589776 0.000000
0.911650 0.587915 0.000000
0.941466 0.586328 0.000000
0.969482 0.584741 0.000000
0.996185 0.583948 0.000000
1.000000 0.583978 0.000000
1.000000 0.585016 0.000000
1.000000 0.590234 0.000000
1.000000 0.594659 0.000000
0.000000 0.510338 0.213046
0.000000 0.514916 0.213840
0.000000 0.517174 0.217075
0.000000 0.517296 0.222293
0.000000 0.512840 0.230137
0.000000 0.503624 0.240238
0.000000 0.489876 0.252781
0.000000 0.472267 0.267887
0.146273 0.452308 0.285649
0.236362 0.429114 0.305882
0.293919 0.402991 0.328985
0.336095 0.373022 0.354620
0.349828 0.367895 0.363714
0.350011 0.395605 0.350500
0.363348 0.425391 0.333959
0.393805 0.456641 0.313420
0.442939 0.488869 0.287694
0.508568 0.521477 0.255711
0.584833 0.553918 0.214725
0.665217 0.586145 0.155825
0.753201 0.625605 0.000000
0.810697 0.640925 0.000000
0.847379 0.639612 0.000000
0.881071 0.637507 0.000000
0.911803 0.634546 0.000000
0.940673 0.631250 0.000000
0.967773 0.628321 0.000000
0.993652 0.625849 0.000000
1.000000 0.624262 0.000000
1.000000 0.623713 0.000000
1.000000 0.623713 0.000000
1.000000 0.625544 0.000000
0.000000 0.563500 0.220554
0.000000 0.567834 0.222416
0.000000 0.570459 0.226169
0.000000 0.571313 0.232059
0.000000 0.567987 0.240574
0.000000 0.559899 0.251560
0.000000 0.547387 0.265019
0.000000 0.531456 0.280766
0.129946 0.512230 0.299535
0.244602 0.489113 0.320897
0.312535 0.462806 0.344915
0.362921 0.432410 0.371466
0.399908 0.398474 0.399939
0.400671 0.416114 0.394720
0.404822 0.446387 0.379431
0.422492 0.477913 0.360479
0.457252 0.510124 0.337407
0.507469 0.541955 0.309636
0.570336 0.573541 0.275883
0.640742 0.604700 0.233066
0.714199 0.635157 0.173281
0.793515 0.671443 0.001831
0.849149 0.687861 0.000000
0.881743 0.684596 0.000000
0.911589 0.680537 0.000000
0.939483 0.675959 0.000000
0.965728 0.671565 0.000000
0.990875 0.667628 0.000000
1.000000 0.664851 0.000000
1.000000 0.662928 0.000000
1.000000 0.661585 0.000000
1.000000 0.660639 0.000000
0.000000 0.617548 0.235813
0.000000 0.621271 0.238071
0.000000 0.623621 0.242649
0.000000 0.623865 0.249271
0.000000 0.620905 0.258122
0.000000 0.613581 0.269383
0.000000 0.602991 0.282811
0.000000 0.589105 0.299016
0.136690 0.571221 0.318517
0.258793 0.550652 0.340185
0.333593 0.526696 0.364843
0.390814 0.497841 0.392096
0.434760 0.464179 0.421271
0.460243 0.439826 0.443671
0.457435 0.470649 0.430121
0.465980 0.502678 0.413764
0.488685 0.535790 0.394598
0.526085 0.568780 0.371771
0.576623 0.601740 0.344762
0.637263 0.634577 0.313024
0.703792 0.666712 0.273350
0.772427 0.697414 0.221134
0.841611 0.728573 0.149783
0.893095 0.743679 0.000702
0.922271 0.739406 0.000000
0.949279 0.734188 0.000000
0.974517 0.728603 0.000000
0.998596 0.723293 0.000000
1.000000 0.718746 0.000000
1.000000 0.714900 0.000000
1.000000 0.711727 0.000000
1.000000 0.708888 0.000000
0.000000 0.693874 0.278111
0.000000 0.694942 0.279881
0.000000 0.694667 0.283116
0.000000 0.691920 0.288579
0.000000 0.687221 0.296452
0.000000 0.679164 0.306798
0.000000 0.669001 0.319371
0.000000 0.656123 0.335515
0.199893 0.641138 0.354528
0.305669 0.622919 0.377081
0.379675 0.601495 0.402319
0.438453 0.576379 0.430030
0.485939 0.546746 0.459480
0.523613 0.512108 0.490669
0.533654 0.511070 0.498054
0.533165 0.542016 0.483192
0.542779 0.572839 0.465736
0.564752 0.603632 0.445838
0.598566 0.633906 0.422431
0.643397 0.663569 0.395178
0.696101 0.692134 0.363287
0.753231 0.718837 0.325292
0.811582 0.742641 0.278386
0.870878 0.766354 0.223148
0.918120 0.779019 0.177646
0.944305 0.773678 0.118959
0.969238 0.767941 0.000000
0.993011 0.762356 0.000000
1.000000 0.757198 0.000000
1.000000 0.752499 0.000000
1.000000 0.748318 0.000000
1.000000 0.744564 0.000000
0.000000 0.740322 0.317296
0.000000 0.741238 0.318944
0.000000 0.740688 0.322454
0.000000 0.738582 0.328008
0.000000 0.734463 0.335180
0.000000 0.728023 0.344823
0.000000 0.719326 0.357244
0.109285 0.708095 0.372778
0.261021 0.695064 0.391028
0.348852 0.679316 0.412848
0.417365 0.660670 0.437354
0.474434 0.639429 0.464240
0.522606 0.613886 0.492683
0.562005 0.584527 0.522271
0.593194 0.549615 0.552483
0.591333 0.573510 0.544793
0.593835 0.603540 0.531212
0.605402 0.633234 0.515587
0.627222 0.662501 0.497444
0.658991 0.691035 0.476326
0.699153 0.717922 0.452186
0.745266 0.742489 0.424048
0.794736 0.764614 0.391272
0.845701 0.784115 0.351751
0.892027 0.795315 0.287358
0.936278 0.806760 0.256962
0.960967 0.801480 0.220157
0.984466 0.796048 0.180758
1.000000 0.790860 0.135256
1.000000 0.785977 0.046693
1.000000 0.781765 0.000000
1.000000 0.777920 0.000000
0.000000 0.791531 0.383459
0.000000 0.792905 0.386542
0.000000 0.792538 0.389776
0.000000 0.789914 0.393591
0.000000 0.785428 0.398352
0.000000 0.779080 0.404913
0.152041 0.770596 0.413550
0.261509 0.759854 0.425208
0.337652 0.747402 0.439948
0.402747 0.732723 0.457740
0.458747 0.715450 0.477760
0.509148 0.695705 0.500664
0.553277 0.672602 0.525231
0.590723 0.645747 0.550835
0.621088 0.614801 0.576715
0.637049 0.596307 0.593103
0.632929 0.623102 0.580529
0.636347 0.650477 0.566857
0.648859 0.678340 0.552453
0.670863 0.705989 0.536339
0.700801 0.731899 0.518639
0.737087 0.755367 0.498146
0.777493 0.776028 0.473060
0.820645 0.793942 0.442908
0.865537 0.809201 0.405310
0.912444 0.824277 0.362188
0.951263 0.832242 0.339208
0.975708 0.828153 0.309575
0.997620 0.822660 0.280827
1.000000 0.817624 0.254948
1.000000 0.813138 0.232700
1.000000 0.809079 0.213230
0.000000 0.819913 0.430762
0.000000 0.820981 0.433783
0.000000 0.820768 0.437263
0.000000 0.819150 0.441291
0.144289 0.816159 0.446723
0.226017 0.811643 0.453895
0.292760 0.805692 0.463539
0.353918 0.798154 0.475959
0.409003 0.789395 0.490608
0.461463 0.778714 0.507897
0.509606 0.766018 0.527001
0.553704 0.751308 0.547936
0.593683 0.733608 0.570031
0.629053 0.712184 0.593103
0.658991 0.687098 0.616480
0.683986 0.657679 0.640528
0.687800 0.660761 0.643030
0.685939 0.685695 0.631739
0.691066 0.710567 0.620233
0.703517 0.734798 0.608057
0.723079 0.757717 0.594751
0.748775 0.778775 0.579767
0.779385 0.797604 0.562371
0.813718 0.814145 0.541558
0.850828 0.828458 0.516594
0.889830 0.840848 0.486580
0.931121 0.852842 0.452003
0.965515 0.859342 0.436744
0.989563 0.857053 0.417487
1.000000 0.852384 0.398016
1.000000 0.847868 0.381140
1.000000 0.843412 0.366766
0.270726 0.850645 0.495491
0.277256 0.850980 0.497200
0.289006 0.850431 0.499214
0.307836 0.848997 0.502342
0.332738 0.846403 0.506676
0.364172 0.842588 0.512535
0.399176 0.837766 0.520378
0.437263 0.831754 0.530388
0.476905 0.824430 0.542687
0.516930 0.815946 0.557244
0.556054 0.805814 0.573663
0.594018 0.793973 0.592187
0.628962 0.780392 0.611658
0.661067 0.763943 0.632013
0.689326 0.744472 0.652827
0.713893 0.721523 0.674220
0.734188 0.695003 0.696040
0.729641 0.716091 0.687465
0.730068 0.737819 0.678462
0.736141 0.759182 0.669123
0.747951 0.779507 0.659297
0.765103 0.798184 0.648157
0.786770 0.815000 0.635065
0.812528 0.829923 0.619532
0.841520 0.843015 0.601282
0.873136 0.854429 0.579248
0.907195 0.864591 0.553246
0.943175 0.873716 0.522667
0.974701 0.879759 0.511101
0.997833 0.878843 0.498878
1.000000 0.874754 0.484932
1.000000 0.870909 0.474067
0.401312 0.873747 0.552209
0.404608 0.873991 0.553582
0.412207 0.873594 0.555810
0.423377 0.872648 0.558953
0.440406 0.870909 0.563684
0.463020 0.868528 0.570550
0.491798 0.865812 0.580713
0.523888 0.862425 0.593133
0.558526 0.858427 0.608179
0.593988 0.853758 0.625360
0.629206 0.848142 0.644007
0.662623 0.841428 0.663539
0.693721 0.833310 0.683070
0.721340 0.823484 0.701991
0.745846 0.811612 0.720302
0.766629 0.797024 0.737606
0.784268 0.779965 0.754635
0.792660 0.773281 0.763821
0.791073 0.790005 0.758175
0.793088 0.806394 0.752468
0.798886 0.821988 0.746487
0.808438 0.836515 0.739803
0.821286 0.849699 0.731624
0.837278 0.861570 0.722164
0.856321 0.872160 0.710628
0.878233 0.881590 0.696803
0.902708 0.889952 0.680354
0.929686 0.897307 0.660121
0.958953 0.903868 0.636469
0.985260 0.908019 0.626307
1.000000 0.907744 0.619867
1.000000 0.904601 0.611627
0.552789 0.903014 0.643275
0.553491 0.902892 0.643549
0.556237 0.902373 0.644343
0.561669 0.901305 0.645991
0.570153 0.899718 0.648829
0.582391 0.897490 0.653040
0.597864 0.894743 0.658961
0.616754 0.891264 0.666651
0.637964 0.887297 0.676143
0.660670 0.882597 0.687068
0.684260 0.877287 0.699245
0.707851 0.871183 0.712490
0.730953 0.864103 0.726375
0.752682 0.855924 0.740475
