20 Preset/Dark Style/【3】LUT video cho PR-AE-FCPX/19Tones (5)/Hram Christa.cube
# Created by Adobe Lightroom plugin Export LUT (1.24.0)
# www.johnrellis.com/lightroom/exportlut.htm
# Preset: Hram Christa
# Color profile: E:\lut插件\exportlut.1.24\exportlut.lrplugin\color profiles\Rec709gamma2.4.icc
LUT_3D_SIZE 5
DOMAIN_MIN 0.000000 0.000000 0.000000
DOMAIN_MAX 0.903226 0.903226 0.903226
0.000000 0.143343 0.168917
0.089204 0.141756 0.169680
0.243717 0.133974 0.170108
0.729061 0.000000 0.150698
1.000000 0.000000 0.018494
0.000000 0.160220 0.174502
0.042512 0.160464 0.175113
0.230503 0.168826 0.168948
0.716091 0.072816 0.136751
1.000000 0.106325 0.000000
0.000000 0.285130 0.198917
0.098116 0.242069 0.221195
0.287358 0.320958 0.199191
0.760739 0.419623 0.000000
1.000000 0.472724 0.000000
0.000000 0.693874 0.278111
0.000000 0.656123 0.335515
0.533654 0.511070 0.498054
0.753231 0.718837 0.325292
1.000000 0.757198 0.000000
0.629084 0.919921 0.698482
0.677760 0.911345 0.719234
0.779629 0.863645 0.766171
0.844846 0.862181 0.811978
0.928405 0.920531 0.760372
0.000000 0.149294 0.178714
0.014984 0.145968 0.180423
0.221317 0.136904 0.181979
0.645533 0.000000 0.166873
1.000000 0.000000 0.058869
0.000000 0.162936 0.187900
0.044312 0.162936 0.187930
0.224552 0.163577 0.184512
0.650752 0.000000 0.162844
1.000000 0.000000 0.000000
0.000000 0.313146 0.214206
0.000000 0.274723 0.216312
0.251041 0.291630 0.219059
0.695857 0.359594 0.120638
1.000000 0.440223 0.000000
0.000000 0.722164 0.307500
0.000000 0.691646 0.332311
0.554162 0.520867 0.517662
0.748989 0.713802 0.376410
1.000000 0.748989 0.094026
0.601953 0.926360 0.695949
0.652369 0.917845 0.713344
0.791073 0.883360 0.784329
0.855863 0.868925 0.828824
0.932189 0.925444 0.785519
0.000000 0.170047 0.215793
0.000000 0.171939 0.224277
0.135348 0.165011 0.259464
0.738888 0.000000 0.332982
1.000000 0.000000 0.256291
0.000000 0.184848 0.226291
0.000000 0.188846 0.235233
0.163027 0.186465 0.275181
0.737270 0.000000 0.322179
1.000000 0.000000 0.235904
0.000000 0.303777 0.315984
0.000000 0.305852 0.317693
0.296941 0.316899 0.331487
0.739315 0.279728 0.293126
1.000000 0.301610 0.226810
0.000000 0.776242 0.495979
0.000000 0.763912 0.473030
0.438758 0.683436 0.496101
0.747036 0.710903 0.536614
1.000000 0.712703 0.354894
0.211063 0.955413 0.672908
0.470649 0.945190 0.701656
0.722988 0.912230 0.760830
0.860746 0.855650 0.842924
0.927184 0.920806 0.807218
0.000000 0.243168 0.351751
0.000000 0.252293 0.376074
0.000000 0.285008 0.487770
0.496468 0.166934 0.625208
1.000000 0.000000 0.668574
0.000000 0.260136 0.361486
0.000000 0.269139 0.383307
0.000000 0.307622 0.491890
0.516014 0.228244 0.624964
1.000000 0.000000 0.664424
0.000000 0.271855 0.333043
0.000000 0.283024 0.347143
0.000000 0.380285 0.483040
0.602533 0.426215 0.639673
1.000000 0.440528 0.669825
0.000000 0.681392 0.665217
0.000000 0.679347 0.663294
0.000000 0.688136 0.673396
0.743679 0.705684 0.706874
0.995056 0.673121 0.643610
0.000000 0.991485 0.776852
0.000000 0.988495 0.771633
0.000000 0.966674 0.773861
0.824918 0.913909 0.837430
0.927153 0.921721 0.857633
0.000000 0.471534 0.698329
0.000000 0.476417 0.711269
0.000000 0.502342 0.769314
0.000000 0.547967 0.847593
0.809445 0.450568 0.888945
0.000000 0.470497 0.682338
0.000000 0.477699 0.697353
0.000000 0.507805 0.757687
0.000000 0.562036 0.839902
0.811307 0.489815 0.884611
0.000000 0.479042 0.639307
0.000000 0.493141 0.657649
0.000000 0.538659 0.727382
0.379248 0.623133 0.824125
0.833890 0.642512 0.883513
0.000000 0.582483 0.684413
0.000000 0.566491 0.670527
0.000000 0.513146 0.621881
0.527276 0.696132 0.798367
0.883848 0.823392 0.901366
0.000000 0.934112 0.895171
0.000000 0.933135 0.894621
0.000000 0.930907 0.896635
0.396521 0.914580 0.897581
0.921965 0.915953 0.913359
