20 Preset/Dark Style/【3】LUT video cho PR-AE-FCPX/19Tones (5)/Krasniy Octyabr.cube
# Created by Adobe Lightroom plugin Export LUT (1.24.0)
# www.johnrellis.com/lightroom/exportlut.htm
# Preset: Krasniy Octyabr
# Color profile: E:\lut插件\exportlut.1.24\exportlut.lrplugin\color profiles\Rec709gamma2.4.icc
LUT_3D_SIZE 32
DOMAIN_MIN 0.0 0.0 0.0
DOMAIN_MAX 1.0 1.0 1.0
0.105837 0.187747 0.211307
0.105837 0.187747 0.211307
0.105837 0.187747 0.211307
0.105837 0.187747 0.211307
0.106447 0.187716 0.211307
0.108492 0.187747 0.211429
0.110475 0.187808 0.211521
0.113191 0.187655 0.211643
0.115663 0.187655 0.211643
0.118196 0.187503 0.211765
0.120363 0.187686 0.211734
0.123049 0.187655 0.211826
0.125521 0.187808 0.211917
0.128359 0.187900 0.212009
0.130739 0.188052 0.211978
0.133455 0.188174 0.212039
0.135653 0.188327 0.212131
0.138003 0.188296 0.212131
0.140108 0.188449 0.212222
0.141970 0.188449 0.212192
0.143984 0.188602 0.212284
0.145632 0.188754 0.212253
0.147402 0.188785 0.212222
0.148714 0.188815 0.212314
0.150423 0.188815 0.212314
0.152102 0.188846 0.212284
0.153780 0.188846 0.212253
0.155734 0.188846 0.212253
0.158602 0.188876 0.212192
0.162325 0.188846 0.212284
0.167758 0.188785 0.212222
0.175692 0.188754 0.212222
0.105837 0.187747 0.211307
0.105837 0.187747 0.211307
0.105837 0.187747 0.211307
0.105837 0.187747 0.211307
0.106447 0.187716 0.211307
0.108492 0.187747 0.211429
0.110475 0.187808 0.211521
0.113191 0.187655 0.211643
0.115114 0.187686 0.211643
0.117494 0.187686 0.211734
0.120363 0.187686 0.211734
0.123049 0.187655 0.211826
0.125521 0.187808 0.211917
0.128206 0.188083 0.211978
0.130678 0.188052 0.212100
0.133455 0.188174 0.212039
0.135653 0.188327 0.212131
0.138003 0.188296 0.212131
0.140108 0.188449 0.212222
0.141817 0.188602 0.212161
0.143984 0.188602 0.212284
0.145632 0.188754 0.212253
0.147402 0.188785 0.212222
0.148714 0.188815 0.212314
0.150057 0.188846 0.212314
0.151736 0.188876 0.212284
0.153414 0.188876 0.212253
0.155398 0.188876 0.212253
0.158267 0.188907 0.212192
0.161654 0.188907 0.212284
0.166934 0.188724 0.212222
0.174319 0.188754 0.212253
0.105837 0.187747 0.211307
0.105837 0.187747 0.211307
0.105837 0.187747 0.211307
0.105837 0.187747 0.211307
0.106722 0.187839 0.211429
0.109071 0.187716 0.211429
0.110475 0.187808 0.211521
0.113283 0.187655 0.211521
0.115663 0.187655 0.211643
0.117830 0.187839 0.211734
0.120119 0.187839 0.211826
0.122652 0.187991 0.211917
0.125582 0.188083 0.212009
0.128206 0.188083 0.211978
0.130953 0.188174 0.212070
0.133669 0.188296 0.212161
0.135927 0.188449 0.212131
0.138216 0.188418 0.212222
0.140352 0.188571 0.212192
0.142458 0.188724 0.212161
0.144625 0.188693 0.212253
0.146273 0.188876 0.212222
0.147951 0.188876 0.212314
0.149325 0.188907 0.212314
0.150668 0.188968 0.212284
0.152346 0.188968 0.212253
0.153994 0.188968 0.212253
0.155978 0.188968 0.212222
0.158419 0.189059 0.212314
0.161990 0.188876 0.212284
0.166812 0.188876 0.212222
0.174319 0.188754 0.212253
0.105837 0.187747 0.211307
0.105837 0.187747 0.211307
0.105837 0.187747 0.211307
0.105623 0.187900 0.211307
0.106508 0.187991 0.211398
0.108583 0.188052 0.211521
0.110567 0.188083 0.211612
0.112581 0.188113 0.211612
0.115023 0.188144 0.211704
0.117891 0.188113 0.211826
0.120668 0.188113 0.211917
0.123262 0.188235 0.211887
0.125734 0.188388 0.211978
0.128573 0.188510 0.212070
0.131472 0.188449 0.212161
0.134218 0.188571 0.212131
0.136812 0.188663 0.212222
0.139162 0.188663 0.212192
0.141604 0.188785 0.212284
0.143313 0.188937 0.212253
0.145449 0.188937 0.212345
0.147189 0.188937 0.212345
0.148928 0.188937 0.212314
0.150515 0.189120 0.212284
0.151980 0.188998 0.212253
0.153597 0.188998 0.212375
0.155093 0.189181 0.212345
0.157412 0.189151 0.212314
0.160006 0.189059 0.212284
0.163394 0.189059 0.212253
0.168490 0.189029 0.212161
0.175601 0.188907 0.212222
0.105104 0.188510 0.211612
0.105104 0.188510 0.211612
0.105104 0.188510 0.211612
0.105684 0.188479 0.211612
0.107820 0.188693 0.211307
0.109102 0.188479 0.211460
0.109590 0.188724 0.211826
0.112184 0.188754 0.211795
0.114626 0.188754 0.211917
0.117617 0.188724 0.211887
0.120211 0.188876 0.211978
0.123384 0.188815 0.212070
0.126314 0.188937 0.212161
0.129366 0.188907 0.212131
0.132540 0.188968 0.212222
0.135683 0.189059 0.212192
0.138216 0.189181 0.212284
0.140932 0.189120 0.212253
0.142977 0.189273 0.212345
0.145541 0.189212 0.212314
0.147677 0.189212 0.212284
0.149233 0.189364 0.212375
0.150942 0.189395 0.212375
0.152621 0.189395 0.212345
0.154269 0.189395 0.212314
0.155673 0.189273 0.212314
0.157626 0.189273 0.212284
0.159548 0.189242 0.212284
0.162295 0.189303 0.212222
0.165591 0.189303 0.212314
0.170901 0.189242 0.212253
0.178134 0.189090 0.212284
0.104952 0.189273 0.211917
0.105043 0.189273 0.211795
0.105043 0.189273 0.211795
0.105653 0.189242 0.211795
0.106722 0.189334 0.211643
0.109957 0.189487 0.211337
0.113252 0.188846 0.211521
0.113344 0.189425 0.211826
0.114290 0.189670 0.212192
0.117311 0.189639 0.212161
0.120485 0.189761 0.212131
0.123659 0.189700 0.212222
0.127108 0.189792 0.212192
0.130800 0.189853 0.212284
0.134127 0.189761 0.212253
0.137148 0.189853 0.212345
0.140536 0.189883 0.212284
0.143130 0.189853 0.212406
0.145968 0.189944 0.212345
0.148104 0.189914 0.212345
0.150484 0.189853 0.212436
0.152529 0.189853 0.212406
0.156344 0.189975 0.212497
0.157931 0.189975 0.212467
0.159854 0.189975 0.212436
0.161837 0.189792 0.212436
0.164034 0.189731 0.212406
0.166354 0.189822 0.212375
0.169894 0.189792 0.212314
0.174533 0.189639 0.212284
0.181033 0.189548 0.212314
0.190494 0.189395 0.212314
0.105074 0.190280 0.212070
0.105074 0.190280 0.212070
0.105074 0.190280 0.212070
0.105470 0.190433 0.212039
0.106630 0.190372 0.212039
0.109285 0.190982 0.211673
0.114260 0.190890 0.211398
0.118685 0.189578 0.211521
0.120180 0.190249 0.211673
0.120150 0.190799 0.212131
0.121401 0.191165 0.212467
0.125551 0.191073 0.212436
0.129397 0.191104 0.212406
0.133425 0.191135 0.212497
0.137362 0.191165 0.212436
0.140841 0.191043 0.212528
0.144106 0.191104 0.212497
0.147402 0.190982 0.212467
0.150240 0.190921 0.212436
0.153323 0.190799 0.212558
0.155886 0.190890 0.212497
0.158297 0.190677 0.212497
0.160494 0.190646 0.212619
0.162356 0.190616 0.212589
0.164187 0.190616 0.212558
0.166323 0.190555 0.212528
0.168551 0.190341 0.212528
0.171206 0.190249 0.212497
0.174624 0.190188 0.212467
0.178958 0.190219 0.212406
0.185672 0.189944 0.212314
0.194705 0.189975 0.212284
0.104372 0.191806 0.212406
0.104372 0.191806 0.212406
0.104982 0.191775 0.212406
0.105562 0.191745 0.212406
0.106538 0.191836 0.212375
0.107973 0.192050 0.212222
0.113039 0.192844 0.211704
0.119478 0.192477 0.211429
0.125551 0.190372 0.211490
0.129702 0.191287 0.211460
0.129244 0.191867 0.211917
0.129000 0.192599 0.212467
0.130983 0.192905 0.212802
0.135317 0.193057 0.212741
0.140078 0.192844 0.212863
0.144137 0.192844 0.212802
0.147829 0.192721 0.212772
0.151369 0.192569 0.212741
0.155184 0.192416 0.212741
0.158175 0.192294 0.212711
0.161074 0.192203 0.212680
0.163699 0.191958 0.212680
0.166171 0.191897 0.212650
0.168368 0.191684 0.212650
0.170443 0.191653 0.212619
0.172580 0.191440 0.212619
0.174868 0.191348 0.212589
0.177401 0.191257 0.212558
0.181033 0.191012 0.212528
0.185702 0.190982 0.212467
0.192203 0.190829 0.212497
0.201877 0.190738 0.212345
0.104555 0.193668 0.213077
0.104555 0.193668 0.213077
0.105135 0.193637 0.213077
0.105135 0.193637 0.213077
0.106111 0.193729 0.213046
0.107912 0.193637 0.213046
0.110719 0.194522 0.212528
0.117739 0.195621 0.211826
0.126009 0.194980 0.211460
0.134188 0.191989 0.211612
0.140017 0.192752 0.211582
0.141482 0.193790 0.211826
0.141268 0.194522 0.212375
0.141054 0.195224 0.212924
0.143282 0.195499 0.213138
0.148379 0.195407 0.213077
0.152743 0.195071 0.213077
0.157076 0.194980 0.213046
0.161471 0.194614 0.213016
0.164950 0.194461 0.212985
0.168154 0.194156 0.212863
0.170962 0.193912 0.212833
0.173678 0.193637 0.212833
0.176059 0.193423 0.212833
0.178378 0.193179 0.212833
0.180819 0.192782 0.212711
0.183322 0.192538 0.212711
0.186252 0.192386 0.212680
0.189944 0.192111 0.212497
0.194827 0.192020 0.212558
0.201907 0.191775 0.212467
0.211978 0.191684 0.212436
0.103548 0.196262 0.213779
0.104158 0.196231 0.213779
0.104158 0.196231 0.213779
0.104555 0.196353 0.213779
0.105745 0.196292 0.213779
0.107515 0.196201 0.213779
0.109499 0.196414 0.213596
0.114839 0.197696 0.212894
0.124941 0.199405 0.211948
0.135531 0.198367 0.211460
0.145205 0.194553 0.211704
0.153170 0.194949 0.211551
0.157290 0.196170 0.211612
0.156252 0.197086 0.212284
0.155306 0.197848 0.212955
0.155276 0.198642 0.213626
0.159335 0.198734 0.213687
0.164553 0.198459 0.213535
0.169345 0.198032 0.213382
0.173648 0.197635 0.213260
0.177066 0.197177 0.213138
0.180423 0.196567 0.213169
0.183108 0.196139 0.213046
0.185702 0.195743 0.212924
0.188235 0.195315 0.212924
0.190768 0.194919 0.212802
0.193179 0.194491 0.212802
0.196506 0.194125 0.212802
0.200443 0.193820 0.212650
0.205936 0.193606 0.212558
0.213321 0.193393 0.212589
0.224613 0.193057 0.212375
0.102846 0.199619 0.214664
0.102846 0.199619 0.214664
0.103487 0.199588 0.214664
0.103883 0.199710 0.214633
0.105104 0.199649 0.214633
0.106661 0.199741 0.214603
0.109010 0.199619 0.214603
0.112703 0.200565 0.214084
0.120882 0.202487 0.213138
0.135256 0.204929 0.211917
0.147890 0.203281 0.211460
0.159396 0.198093 0.211734
0.171145 0.197635 0.211612
0.178470 0.199741 0.211368
0.177279 0.200656 0.212039
0.175753 0.201602 0.212863
0.174350 0.202396 0.213657
0.173648 0.202976 0.214359
0.178988 0.202487 0.214084
0.183688 0.201907 0.213840
0.188052 0.201205 0.213596
0.191714 0.200565 0.213504
0.195071 0.199924 0.213260
0.198154 0.199161 0.213169
0.201175 0.198428 0.213077
0.203952 0.197971 0.212985
0.206943 0.197330 0.212985
0.210300 0.196780 0.212863
0.214969 0.196323 0.212833
0.220951 0.195834 0.212650
0.229343 0.195682 0.212619
0.241642 0.195193 0.212406
0.100649 0.204440 0.215702
0.100649 0.204440 0.215702
0.101289 0.204410 0.215702
0.101900 0.204410 0.215702
0.103578 0.204471 0.215671
0.105409 0.204379 0.215671
0.108156 0.204379 0.215671
0.111360 0.204379 0.215640
0.118044 0.206485 0.214572
0.129915 0.209293 0.213199
0.149416 0.212711 0.211765
0.165530 0.210391 0.211215
0.188052 0.205478 0.211276
0.207767 0.203342 0.211185
0.216587 0.206332 0.210880
0.216678 0.208011 0.211429
0.212619 0.208865 0.212436
0.208988 0.209506 0.213443
0.205447 0.210117 0.214572
0.205081 0.210117 0.215091
0.209751 0.208713 0.214664
0.213657 0.207370 0.214267
0.217472 0.206241 0.213962
0.221103 0.205295 0.213626
0.224674 0.204318 0.213291
0.227756 0.203250 0.213230
0.231174 0.202243 0.213046
0.235172 0.201297 0.212955
0.240085 0.200443 0.212802
0.247196 0.199832 0.212589
0.257359 0.199344 0.212406
0.272374 0.198917 0.212192
0.096407 0.212009 0.217258
0.096651 0.211887 0.217258
0.097322 0.211856 0.217258
0.098695 0.211795 0.217258
0.100923 0.211582 0.217166
0.103487 0.211490 0.217166
0.106050 0.211643 0.217105
0.110475 0.211582 0.217105
0.115785 0.212619 0.216678
0.126864 0.216251 0.215091
0.146059 0.220798 0.213230
0.174014 0.226474 0.211002
0.195041 0.222934 0.210269
0.213291 0.213199 0.210819
0.241550 0.208774 0.210666
0.251011 0.212222 0.210239
0.254215 0.214664 0.210330
0.247135 0.215366 0.211582
0.240543 0.215824 0.212833
0.234836 0.216281 0.214023
0.229679 0.216617 0.215366
0.231022 0.215579 0.215335
0.235294 0.213809 0.214725
0.239445 0.212284 0.214359
0.243748 0.210941 0.213779
0.248295 0.209537 0.213474
0.253117 0.208316 0.213138
0.257786 0.207126 0.212924
0.263798 0.206058 0.212802
0.272129 0.205081 0.212558
0.283879 0.204257 0.212345
0.300969 0.203647 0.211887
0.090791 0.221195 0.219150
0.090791 0.221195 0.219150
0.091890 0.221042 0.219028
0.093751 0.220859 0.218936
0.095796 0.220768 0.218936
0.099428 0.220523 0.218936
0.103334 0.220371 0.218814
0.108003 0.220310 0.218662
0.113436 0.220218 0.218631
0.122713 0.223056 0.217533
0.139284 0.228214 0.215396
0.165316 0.234531 0.212863
0.201938 0.242161 0.209628
0.225986 0.236728 0.208988
0.246250 0.223789 0.209873
0.284306 0.215427 0.209537
0.293553 0.219547 0.209049
0.300908 0.222995 0.208438
0.290227 0.223545 0.209995
0.280278 0.223758 0.211551
0.271763 0.223941 0.213046
0.264744 0.224094 0.214603
0.259068 0.224491 0.216098
0.263432 0.222354 0.215396
0.268528 0.220310 0.214664
0.273777 0.218570 0.214145
0.279850 0.216892 0.213565
0.286931 0.215610 0.213046
0.294621 0.214176 0.212619
0.304540 0.212772 0.212375
0.318364 0.211765 0.211917
0.338384 0.210819 0.211460
0.076600 0.232761 0.221225
0.078401 0.232761 0.221225
0.080537 0.232486 0.221256
0.082399 0.232334 0.221134
0.088197 0.231998 0.221042
0.092561 0.231662 0.220951
0.097993 0.231266 0.220859
0.104494 0.231022 0.220737
0.111330 0.230869 0.220584
0.118593 0.231022 0.220493
0.133272 0.236728 0.218173
0.156954 0.243931 0.215274
0.191348 0.252415 0.211704
0.237186 0.262516 0.207095
0.264500 0.254368 0.206729
0.287816 0.238010 0.207950
0.337072 0.223423 0.207736
0.345617 0.228244 0.207065
0.353094 0.232334 0.206394
0.343664 0.233616 0.207492
0.330144 0.233768 0.209445
0.319188 0.233768 0.211398
0.310430 0.234104 0.213046
0.302983 0.234379 0.214878
0.299870 0.234073 0.215915
0.306157 0.231388 0.215000
0.313268 0.229191 0.214084
0.321935 0.227207 0.213321
0.333227 0.225803 0.212497
0.347021 0.224582 0.211765
0.364416 0.223087 0.211154
0.388922 0.222110 0.210208
0.042817 0.246708 0.223636
0.042817 0.246708 0.223636
0.045808 0.246555 0.223545
0.052461 0.246403 0.223545
0.064118 0.246067 0.223453
0.079133 0.245701 0.223362
0.088685 0.245518 0.223239
0.097383 0.245274 0.223087
0.106386 0.245182 0.223056
0.115938 0.245151 0.222873
0.127443 0.247684 0.221775
0.149325 0.255436 0.218448
0.181308 0.264744 0.214511
0.224430 0.275425 0.209506
0.279515 0.286961 0.203250
0.309453 0.275547 0.203220
0.335912 0.255222 0.205020
0.394995 0.233829 0.204929
0.404700 0.238041 0.204288
0.411505 0.242985 0.203220
0.408118 0.245731 0.203586
0.392218 0.246006 0.206088
0.379095 0.246342 0.208377
0.368444 0.246677 0.210483
0.359930 0.247349 0.212528
0.354009 0.248081 0.214542
0.356664 0.247166 0.214847
0.366949 0.244297 0.213657
0.379919 0.242191 0.212284
0.397498 0.240909 0.211063
0.419409 0.239841 0.209751
0.447120 0.238651 0.208469
0.000000 0.263432 0.226230
0.000000 0.263523 0.226230
0.000000 0.263432 0.226230
0.006043 0.263249 0.226139
0.017700 0.262943 0.226047
0.035309 0.262577 0.225925
0.056214 0.262303 0.225834
0.081971 0.262028 0.225711
0.097230 0.261784 0.225559
0.109499 0.261509 0.225406
0.122194 0.261357 0.225193
0.140658 0.267735 0.222385
0.171023 0.277928 0.217960
0.212436 0.289769 0.212497
0.265873 0.303227 0.205509
0.329015 0.315801 0.197360
0.362463 0.301335 0.197604
0.392584 0.277043 0.200351
0.456275 0.250797 0.200656
0.474586 0.250156 0.199893
0.481605 0.256107 0.198428
0.486305 0.261234 0.197391
0.468605 0.261906 0.200381
0.453132 0.262455 0.203311
0.441047 0.263005 0.205936
0.432044 0.264042 0.208499
0.426307 0.265537 0.210880
0.424384 0.267857 0.213230
0.436866 0.266056 0.212009
0.456886 0.264225 0.210086
0.483680 0.263890 0.207736
0.517784 0.264103 0.205142
0.000000 0.285222 0.229191
0.000000 0.285283 0.229282
0.000000 0.294896 0.230411
0.000000 0.294469 0.230350
0.000000 0.294194 0.230259
0.000000 0.293584 0.230106
0.000000 0.292943 0.229923
0.010742 0.292454 0.229709
0.059174 0.291814 0.229496
0.095094 0.291386 0.229252
0.115389 0.290745 0.229007
0.134279 0.291264 0.228183
0.165774 0.303044 0.222751
0.208804 0.316686 0.216007
0.263828 0.331792 0.207431
0.330999 0.348058 0.196750
0.404547 0.360754 0.184726
0.441230 0.341436 0.186374
0.474250 0.310460 0.191073
0.541161 0.277043 0.192325
0.570092 0.269139 0.191440
0.576074 0.276677 0.189487
0.583276 0.283818 0.186831
0.567864 0.285374 0.189853
0.549706 0.285649 0.193881
0.534997 0.286107 0.197543
0.524132 0.287175 0.200961
0.518486 0.289403 0.203738
0.518212 0.292943 0.206485
0.525689 0.297612 0.208499
0.554192 0.297124 0.204868
0.592462 0.299565 0.200412
0.000000 0.315038 0.232822
0.000000 0.316167 0.232944
0.000000 0.317174 0.232944
0.000000 0.317937 0.233005
0.000000 0.318364 0.233097
0.000000 0.318120 0.232883
0.000000 0.317479 0.232700
0.000000 0.316625 0.232456
0.000000 0.316014 0.232242
0.049775 0.315221 0.231937
0.099489 0.314427 0.231601
0.124605 0.313542 0.231266
0.151614 0.318944 0.228153
0.192844 0.333165 0.221012
0.246189 0.349126 0.211978
0.310796 0.366552 0.200809
0.387060 0.384985 0.186252
0.466224 0.398230 0.170199
0.505882 0.376349 0.173068
0.543023 0.342504 0.179690
0.611170 0.305303 0.181979
0.653834 0.290196 0.180667
0.659693 0.299718 0.177707
0.666651 0.308507 0.173922
0.660609 0.312718 0.174746
0.643458 0.313085 0.179843
0.630182 0.314092 0.184543
0.621210 0.316167 0.188449
0.618463 0.320012 0.191867
0.622950 0.326329 0.194614
0.635645 0.335973 0.196811
0.663539 0.345708 0.195346
0.000000 0.345129 0.236027
0.000000 0.346319 0.236088
0.000000 0.347723 0.236210
0.000000 0.348760 0.236271
0.000000 0.349248 0.236240
0.000000 0.349126 0.236088
0.000000 0.348455 0.235813
0.000000 0.347570 0.235691
0.000000 0.346563 0.235355
0.000000 0.345586 0.234989
0.043244 0.344610 0.234592
0.108339 0.343420 0.234073
0.138369 0.342168 0.233585
0.178103 0.354437 0.226932
0.230777 0.371405 0.217350
0.294560 0.389960 0.205112
0.369665 0.409705 0.189456
0.455787 0.430854 0.168215
0.537774 0.443824 0.145113
0.579095 0.419471 0.150484
0.618677 0.382727 0.160800
0.683253 0.341711 0.165957
0.735134 0.318212 0.165316
0.740414 0.329656 0.160769
0.746700 0.340063 0.155062
0.749264 0.348180 0.151400
0.735439 0.349310 0.157748
0.725185 0.351263 0.163546
0.720699 0.355444 0.167849
0.722438 0.362402 0.171237
0.731960 0.372930 0.173465
0.749416 0.388281 0.174990
0.000000 0.381750 0.239475
0.000000 0.383124 0.239658
0.000000 0.384466 0.239750
0.000000 0.385565 0.239750
0.000000 0.386206 0.239750
0.000000 0.385870 0.239567
0.000000 0.385229 0.239414
0.000000 0.384283 0.239078
0.000000 0.383276 0.238773
0.000000 0.382086 0.238224
0.000000 0.380865 0.237766
0.060304 0.379644 0.237278
0.124361 0.377996 0.236545
0.161563 0.379675 0.234287
0.215457 0.397711 0.223850
0.280217 0.417456 0.210513
0.355322 0.439094 0.193423
0.441749 0.462226 0.169802
0.535943 0.486976 0.134768
0.618280 0.500450 0.090669
0.660853 0.474586 0.104555
0.702388 0.436042 0.125002
0.762112 0.391272 0.137392
0.822477 0.359319 0.138643
0.827726 0.373022 0.130739
0.834195 0.385687 0.120089
0.842313 0.398260 0.105531
0.834806 0.402350 0.112825
0.829740 0.407385 0.120241
0.830259 0.415412 0.125490
0.837308 0.427314 0.128359
0.851164 0.444312 0.130220
0.000000 0.435950 0.244907
0.000000 0.436561 0.245029
0.000000 0.436927 0.245121
0.000000 0.437018 0.245029
0.000000 0.436561 0.244785
0.000000 0.435615 0.244572
0.000000 0.434516 0.244236
0.000000 0.433234 0.243717
0.000000 0.432013 0.243259
0.000000 0.430701 0.242771
0.000000 0.429603 0.242191
0.000000 0.427985 0.241489
0.097139 0.426215 0.240574
0.151492 0.424231 0.239780
0.202884 0.433692 0.232609
0.270207 0.454658 0.217685
0.347112 0.477058 0.198245
0.433356 0.500938 0.172152
0.525444 0.525139 0.133913
0.619074 0.550011 0.019013
0.693751 0.559747 0.000000
0.733089 0.530632 0.000000
0.772305 0.489479 0.016571
0.824674 0.440711 0.092317
0.889372 0.399420 0.102052
0.893797 0.413947 0.085634
0.899962 0.427955 0.034180
0.908232 0.442206 0.000000
0.909636 0.452064 0.000000
0.908598 0.460395 0.000000
0.912352 0.472023 0.000000
0.921813 0.488106 0.000000
0.000000 0.487404 0.250919
0.000000 0.488045 0.250919
0.000000 0.488441 0.250950
0.000000 0.488441 0.250797
0.000000 0.488045 0.250645
0.000000 0.487312 0.250370
0.000000 0.486122 0.249821
0.000000 0.484810 0.249241
0.000000 0.483619 0.248783
0.000000 0.482246 0.248051
0.000000 0.480812 0.247257
0.000000 0.479316 0.246433
0.000000 0.477333 0.245426
0.138552 0.475471 0.244388
0.190249 0.472969 0.243290
0.258579 0.492683 0.228214
0.337530 0.516075 0.207187
0.423285 0.539910 0.179599
0.514000 0.563867 0.139834
0.605219 0.588159 0.026764
0.694331 0.612726 0.000000
0.761990 0.618860 0.000000
0.799069 0.588128 0.000000
0.837278 0.546319 0.000000
0.877348 0.489723 0.000000
0.943389 0.437568 0.000000
0.947692 0.452949 0.000000
0.953674 0.467933 0.000000
0.962066 0.483467 0.000000
0.969268 0.498085 0.000000
0.971313 0.509758 0.000000
0.977600 0.525078 0.000000
0.000000 0.552483 0.261448
0.000000 0.553704 0.261753
0.000000 0.554070 0.261784
0.000000 0.553613 0.261509
0.000000 0.552239 0.260960
0.000000 0.550469 0.260349
0.000000 0.548119 0.259403
0.000000 0.545769 0.258518
0.000000 0.543236 0.257511
0.000000 0.540826 0.256413
0.000000 0.538262 0.255009
0.000000 0.535607 0.253758
0.000000 0.532921 0.252354
0.123415 0.530053 0.250828
0.189883 0.526543 0.249149
0.245457 0.529564 0.242954
0.323980 0.551598 0.221530
0.408545 0.574243 0.194278
0.496895 0.597314 0.156435
0.585443 0.620844 0.089113
0.672694 0.644678 0.000000
0.756527 0.668238 0.000000
0.816373 0.669520 0.000000
0.850340 0.637110 0.000000
0.885191 0.593805 0.000000
0.925048 0.539513 0.000000
0.983124 0.486305 0.000000
0.994018 0.490974 0.000000
0.999634 0.506432 0.000000
1.000000 0.522667 0.000000
1.000000 0.540429 0.000000
1.000000 0.554833 0.000000
0.000000 0.607538 0.275334
0.000000 0.608759 0.275914
0.000000 0.609216 0.275944
0.000000 0.609094 0.275853
0.000000 0.608423 0.275303
0.000000 0.607538 0.274784
0.000000 0.606317 0.273991
0.000000 0.604852 0.272984
0.000000 0.603510 0.271946
0.000000 0.601984 0.270695
0.000000 0.600214 0.269413
0.000000 0.598199 0.267948
0.000000 0.595941 0.266209
0.131228 0.593133 0.264164
0.206271 0.589807 0.261814
0.257908 0.586297 0.259556
0.324041 0.598016 0.244541
0.406134 0.619257 0.217685
0.491554 0.641199 0.181857
0.576745 0.663294 0.126741
0.661067 0.685389 0.000000
0.741939 0.706813 0.000000
0.817716 0.726589 0.000000
0.868315 0.721096 0.000000
0.899748 0.687770 0.000000
0.932219 0.644587 0.000000
0.967834 0.589410 0.000000
1.000000 0.535515 0.000000
1.000000 0.529900 0.000000
1.000000 0.546044 0.000000
1.000000 0.562737 0.000000
1.000000 0.580163 0.000000
0.000000 0.669337 0.300603
0.000000 0.669886 0.300999
0.000000 0.669947 0.300755
0.000000 0.669673 0.300572
0.000000 0.668971 0.300023
0.000000 0.667903 0.299290
0.000000 0.666651 0.298070
0.000000 0.665217 0.296849
0.000000 0.663752 0.295445
0.000000 0.662135 0.293980
0.000000 0.660334 0.292302
0.000000 0.658595 0.290410
0.000000 0.656397 0.288334
0.167697 0.653986 0.286046
0.235630 0.650904 0.283391
0.287419 0.647547 0.280339
0.331426 0.644007 0.277043
0.408423 0.663783 0.251896
0.488167 0.684169 0.220096
0.569512 0.704768 0.176211
0.649348 0.724453 0.103914
0.726192 0.742794 0.000000
0.799252 0.759548 0.000000
0.867430 0.774716 0.000000
0.910155 0.763424 0.000000
0.938811 0.730037 0.000000
0.968841 0.687556 0.000000
1.000000 0.632441 0.000000
1.000000 0.578302 0.000000
1.000000 0.562341 0.000000
1.000000 0.578241 0.000000
1.000000 0.594903 0.000000
0.000000 0.726558 0.335546
0.000000 0.726925 0.335790
0.000000 0.727199 0.336065
0.000000 0.727108 0.335882
0.000000 0.726955 0.335637
0.000000 0.726864 0.335210
0.000000 0.727108 0.335363
0.000000 0.727443 0.335210
0.000000 0.727993 0.335485
0.000000 0.728603 0.335546
0.000000 0.729152 0.335424
0.048280 0.729488 0.335180
0.193088 0.729335 0.334203
0.257847 0.728634 0.332738
0.309483 0.727108 0.330419
0.353277 0.724910 0.327550
0.393072 0.722316 0.324010
0.441016 0.726864 0.313054
0.511223 0.744381 0.286320
0.583551 0.761074 0.253544
0.655665 0.776730 0.211856
0.726497 0.791135 0.151186
0.794278 0.803922 0.000000
0.858854 0.815305 0.000000
0.919188 0.825315 0.000000
0.954467 0.809079 0.000000
0.980041 0.776303 0.000000
1.000000 0.734615 0.000000
1.000000 0.681239 0.000000
1.000000 0.625910 0.000000
1.000000 0.599329 0.000000
1.000000 0.615351 0.000000
0.000000 0.790341 0.401160
0.000000 0.790341 0.401068
0.000000 0.790188 0.400916
0.000000 0.789761 0.400214
0.000000 0.789303 0.399451
0.000000 0.788632 0.398444
0.000000 0.788052 0.397559
0.000000 0.787320 0.396246
0.000000 0.786740 0.395392
0.120302 0.785977 0.394018
0.195773 0.785275 0.392950
0.249271 0.784421 0.391363
0.295201 0.783444 0.389685
0.335698 0.782284 0.387579
