20 Preset/Dark Style/【3】LUT video cho PR-AE-FCPX/19Tones (5)/Krasniy Octyabr.cube
# Created by Adobe Lightroom plugin Export LUT (1.24.0)
# www.johnrellis.com/lightroom/exportlut.htm
# Preset: Krasniy Octyabr
# Color profile: E:\lut插件\exportlut.1.24\exportlut.lrplugin\color profiles\Rec709gamma2.4.icc
LUT_3D_SIZE 8
DOMAIN_MIN 0.000000 0.000000 0.000000
DOMAIN_MAX 0.903226 0.903226 0.903226
0.105837 0.187747 0.211307
0.106447 0.187716 0.211307
0.115663 0.187655 0.211643
0.125521 0.187808 0.211917
0.135653 0.188327 0.212131
0.143984 0.188602 0.212284
0.150423 0.188815 0.212314
0.158602 0.188876 0.212192
0.105104 0.188510 0.211612
0.107820 0.188693 0.211307
0.114626 0.188754 0.211917
0.126314 0.188937 0.212161
0.138216 0.189181 0.212284
0.147677 0.189212 0.212284
0.154269 0.189395 0.212314
0.162295 0.189303 0.212222
0.104555 0.193668 0.213077
0.106111 0.193729 0.213046
0.126009 0.194980 0.211460
0.141268 0.194522 0.212375
0.152743 0.195071 0.213077
0.168154 0.194156 0.212863
0.178378 0.193179 0.212833
0.189944 0.192111 0.212497
0.096407 0.212009 0.217258
0.100923 0.211582 0.217166
0.115785 0.212619 0.216678
0.195041 0.222934 0.210269
0.254215 0.214664 0.210330
0.229679 0.216617 0.215366
0.243748 0.210941 0.213779
0.263798 0.206058 0.212802
0.000000 0.263432 0.226230
0.017700 0.262943 0.226047
0.097230 0.261784 0.225559
0.171023 0.277928 0.217960
0.362463 0.301335 0.197604
0.481605 0.256107 0.198428
0.441047 0.263005 0.205936
0.436866 0.266056 0.212009
0.000000 0.381750 0.239475
0.000000 0.386206 0.239750
0.000000 0.383276 0.238773
0.124361 0.377996 0.236545
0.355322 0.439094 0.193423
0.660853 0.474586 0.104555
0.827726 0.373022 0.130739
0.829740 0.407385 0.120241
0.000000 0.607538 0.275334
0.000000 0.608423 0.275303
0.000000 0.603510 0.271946
0.000000 0.595941 0.266209
0.324041 0.598016 0.244541
0.661067 0.685389 0.000000
0.899748 0.687770 0.000000
1.000000 0.529900 0.000000
0.190158 0.833799 0.469551
0.214298 0.833310 0.468544
0.294957 0.831968 0.466072
0.401404 0.830259 0.463050
0.484596 0.815000 0.431922
0.651148 0.837095 0.381292
0.875639 0.870787 0.216648
1.000000 0.829343 0.000000
0.105745 0.188022 0.211673
0.106538 0.187839 0.211673
0.115053 0.187686 0.211765
0.125185 0.188418 0.212100
0.137087 0.188815 0.212192
0.146059 0.189029 0.212345
0.152163 0.189120 0.212375
0.158755 0.189029 0.212314
0.105745 0.188327 0.211887
0.106691 0.188724 0.212100
0.114534 0.189059 0.212253
0.126131 0.189395 0.212375
0.139620 0.189670 0.212345
0.149569 0.189792 0.212345
0.155947 0.189700 0.212406
0.162661 0.189578 0.212314
0.105806 0.193698 0.214328
0.107362 0.193912 0.214054
0.124208 0.194766 0.212772
0.136782 0.194919 0.213779
0.152163 0.195071 0.213596
0.166812 0.194278 0.213107
0.176913 0.193332 0.212833
0.187106 0.192294 0.212528
0.100191 0.211185 0.219059
0.101930 0.211124 0.218448
0.115328 0.211185 0.218357
0.184085 0.218814 0.212222
0.230259 0.211490 0.212497
0.213504 0.213748 0.216587
0.229984 0.208103 0.214359
0.251987 0.204807 0.212985
0.004181 0.262333 0.228733
0.025147 0.261509 0.228000
0.098634 0.259617 0.227298
0.163638 0.270726 0.220859
0.339361 0.290623 0.202518
0.450843 0.251438 0.202518
0.413794 0.257847 0.209537
0.413062 0.258793 0.213657
0.000000 0.375097 0.242191
0.000000 0.374792 0.241947
0.000000 0.372625 0.241001
0.123110 0.369146 0.239048
0.337682 0.425544 0.201663
0.645167 0.464057 0.123873
0.811398 0.365820 0.141970
0.809781 0.396948 0.135866
0.000000 0.595544 0.277409
0.000000 0.592645 0.275944
0.000000 0.587488 0.272679
0.000000 0.581598 0.267552
0.308049 0.584131 0.251347
0.645716 0.673091 0.000000
0.888762 0.676844 0.000000
1.000000 0.521813 0.000000
0.124788 0.827481 0.463264
0.177035 0.828183 0.464729
0.270848 0.826596 0.461616
0.386328 0.824949 0.458747
0.498116 0.820829 0.450111
0.650629 0.837675 0.396826
0.872496 0.869566 0.233066
1.000000 0.828611 0.000000
0.107485 0.189548 0.213291
0.107057 0.189242 0.213687
0.115389 0.188418 0.215244
0.136446 0.188693 0.216037
0.139651 0.188113 0.213779
0.145754 0.188571 0.213169
0.151888 0.188846 0.212802
0.160281 0.189029 0.212406
0.108675 0.190066 0.213718
0.108217 0.190066 0.214359
0.116121 0.189853 0.215946
0.135470 0.189670 0.216068
0.140444 0.188510 0.213718
0.149477 0.189029 0.213321
0.155062 0.189303 0.212955
0.163546 0.189487 0.212589
0.109316 0.193301 0.216373
0.110414 0.193790 0.216800
0.117800 0.195926 0.218845
0.136690 0.194797 0.217319
0.154299 0.193820 0.215854
0.166079 0.192996 0.214542
0.173617 0.192172 0.213657
0.183780 0.191745 0.212924
0.102235 0.213138 0.226261
0.106508 0.213840 0.226505
0.118746 0.215793 0.225803
0.178958 0.220096 0.220371
0.210117 0.215091 0.221134
0.213199 0.211765 0.219944
0.225498 0.205295 0.216312
0.241886 0.201663 0.214023
0.048249 0.267033 0.243809
0.070680 0.267552 0.243595
0.097475 0.268254 0.238437
0.155886 0.269596 0.235538
0.337163 0.292912 0.214359
0.436439 0.257206 0.212497
0.386053 0.259098 0.220218
0.397223 0.250065 0.217411
0.000000 0.384924 0.271672
0.000000 0.385321 0.268467
0.000000 0.383551 0.257572
0.125978 0.378302 0.254673
0.313115 0.417121 0.227481
0.631525 0.457893 0.160098
0.793301 0.366827 0.166140
0.785122 0.392859 0.165713
0.000000 0.609613 0.328710
0.000000 0.607477 0.321813
0.000000 0.601678 0.304387
0.000000 0.593286 0.297429
0.302220 0.582238 0.287724
0.629145 0.670008 0.163516
0.888731 0.680171 0.000000
1.000000 0.531914 0.000000
0.254429 0.830167 0.508202
0.249210 0.829526 0.501823
0.294804 0.828428 0.492470
0.404211 0.828092 0.491890
0.508049 0.823606 0.482338
0.644068 0.835813 0.445350
0.864378 0.870115 0.312688
1.000000 0.831357 0.087892
0.109377 0.191531 0.216709
0.109071 0.191379 0.217472
0.115877 0.190982 0.221744
0.145174 0.190127 0.227970
0.211978 0.189395 0.235752
0.191348 0.186831 0.221439
0.147982 0.187594 0.213993
0.142092 0.187655 0.212650
0.110292 0.192599 0.217807
0.110933 0.192538 0.218540
0.116945 0.192630 0.222873
0.147402 0.191806 0.229618
0.209842 0.191165 0.235508
0.187137 0.187655 0.220676
0.144656 0.187869 0.213748
0.145510 0.187839 0.212741
0.116793 0.195132 0.218204
0.117647 0.195926 0.219089
0.120790 0.199191 0.224735
0.152163 0.199924 0.234134
0.196506 0.197208 0.232609
0.170871 0.190036 0.218448
0.159426 0.189029 0.214603
0.162142 0.188968 0.213291
0.115846 0.207889 0.229709
0.117922 0.208804 0.230503
0.129030 0.212833 0.234226
0.158450 0.223026 0.243839
0.188479 0.211978 0.232425
0.201816 0.203708 0.224155
0.205325 0.198154 0.218570
0.209964 0.194736 0.215274
0.023896 0.274235 0.267643
0.052705 0.274601 0.267552
0.114992 0.277867 0.267887
0.167605 0.283604 0.264744
0.322332 0.296117 0.247227
0.370153 0.267277 0.243137
0.341009 0.252445 0.235843
0.352544 0.230289 0.222049
0.000000 0.402350 0.315465
0.000000 0.407599 0.317418
0.000000 0.409674 0.314427
0.140871 0.411139 0.297765
0.287480 0.414893 0.283635
0.621210 0.460151 0.221530
0.762325 0.378210 0.213199
0.726436 0.384710 0.216342
0.000000 0.624659 0.406989
0.000000 0.625971 0.407050
0.000000 0.628321 0.404089
0.000000 0.625422 0.366125
0.334691 0.612238 0.351781
0.598749 0.668177 0.281987
0.883482 0.684504 0.143008
1.000000 0.548241 0.162692
0.411566 0.837675 0.598596
0.424170 0.837491 0.599176
0.427924 0.837369 0.584100
0.445899 0.837034 0.556878
0.532677 0.831724 0.544701
0.632563 0.829679 0.524193
0.845762 0.869474 0.426368
1.000000 0.837125 0.295903
0.111086 0.194797 0.223636
0.111177 0.194736 0.225071
0.117220 0.195315 0.231113
0.155367 0.194736 0.250736
0.223728 0.190311 0.267369
0.365911 0.175113 0.292546
0.354650 0.167544 0.256779
0.223697 0.182376 0.221927
0.113588 0.196475 0.224857
0.113527 0.196567 0.226261
0.118502 0.197330 0.232486
0.155673 0.197360 0.252018
0.227390 0.192874 0.269871
0.371435 0.178500 0.294804
0.345342 0.171084 0.254612
0.215824 0.183413 0.221012
0.121920 0.201541 0.226230
0.123232 0.202487 0.227970
0.124636 0.204196 0.234379
0.154665 0.207523 0.254429
0.236973 0.204959 0.277317
0.382238 0.196475 0.299382
0.300298 0.183383 0.244175
0.185245 0.186313 0.217533
0.128939 0.205783 0.228458
0.130251 0.206485 0.229068
0.138064 0.209812 0.231693
0.159731 0.227176 0.255497
0.255589 0.236362 0.293248
0.336645 0.221317 0.282780
0.225711 0.192721 0.228244
0.161227 0.188266 0.214664
0.129335 0.240360 0.259007
0.132601 0.241978 0.260441
0.148013 0.248631 0.266606
0.185580 0.264347 0.281193
0.265721 0.295750 0.311315
0.284092 0.248020 0.264866
0.271885 0.217746 0.236179
0.257664 0.202274 0.221622
0.000000 0.400732 0.365118
0.000000 0.401892 0.365423
0.000000 0.403174 0.363897
0.180728 0.407752 0.361547
0.293187 0.416480 0.351904
0.568322 0.447547 0.316564
0.644678 0.380682 0.292027
0.587182 0.343114 0.263706
0.000000 0.631220 0.483162
0.000000 0.630213 0.481147
0.000000 0.629969 0.475990
0.224796 0.635584 0.472847
0.358343 0.635737 0.442298
0.529900 0.640650 0.407568
0.859922 0.679957 0.315648
0.981842 0.563378 0.275822
0.320684 0.836790 0.633661
0.339361 0.836545 0.633875
0.407568 0.836027 0.635767
0.519158 0.838773 0.647822
0.553918 0.837858 0.616999
0.637018 0.830381 0.598199
0.809171 0.861723 0.538293
1.000000 0.840177 0.440070
0.115114 0.200961 0.236698
0.115419 0.201144 0.238651
0.120882 0.202396 0.247196
0.151308 0.204410 0.272496
0.287724 0.193240 0.347936
0.415198 0.164920 0.378546
0.640772 0.000000 0.430243
0.781369 0.000000 0.417762
0.117525 0.202579 0.237034
0.117556 0.202792 0.238682
0.122133 0.203952 0.247135
0.150515 0.206516 0.271580
0.281651 0.197818 0.344121
0.410498 0.171450 0.375952
0.634668 0.000000 0.426978
0.763210 0.000000 0.407660
0.127169 0.208804 0.238468
0.127474 0.209354 0.240269
0.129915 0.211551 0.249149
0.153323 0.216464 0.273960
0.279088 0.216709 0.347631
0.430915 0.192782 0.390784
0.658442 0.125917 0.441657
0.716915 0.000000 0.381415
0.135988 0.210025 0.232944
0.137484 0.211795 0.234958
0.147250 0.220920 0.245975
0.165164 0.235325 0.274601
0.273991 0.256535 0.353613
0.475441 0.248386 0.424720
0.707118 0.241306 0.475685
0.596735 0.088502 0.324712
0.147066 0.224949 0.247074
0.148928 0.225742 0.247776
0.157443 0.229221 0.250889
0.177615 0.237675 0.257816
0.252476 0.292515 0.327642
0.485573 0.334661 0.442390
0.621485 0.287144 0.415686
0.314702 0.186831 0.241764
0.145968 0.303319 0.315984
0.150759 0.306310 0.318853
0.172549 0.315496 0.327489
0.220310 0.335821 0.346868
0.312016 0.374853 0.385229
0.490425 0.456245 0.467750
0.447517 0.303990 0.316991
0.372381 0.225071 0.243168
0.000000 0.629480 0.566125
0.000000 0.635737 0.571527
0.000000 0.654414 0.587549
0.255467 0.663508 0.591119
0.432105 0.667140 0.585870
0.560357 0.664851 0.561578
0.823697 0.691615 0.509270
0.903349 0.589899 0.423529
0.332738 0.844602 0.714229
0.343755 0.844083 0.713161
0.396612 0.843839 0.711757
0.485664 0.844938 0.711482
0.594965 0.844663 0.712734
0.670771 0.842618 0.696559
0.765347 0.848203 0.666316
0.975433 0.850004 0.603418
0.121523 0.212406 0.261234
0.121950 0.212894 0.264530
0.126711 0.214694 0.277379
0.156374 0.219120 0.312871
0.271244 0.216983 0.400885
0.601740 0.056458 0.581231
0.719905 0.000000 0.590051
0.883482 0.000000 0.617792
0.123629 0.213016 0.259129
0.123995 0.213626 0.262333
0.127565 0.215152 0.274388
0.154177 0.219699 0.306798
0.259709 0.219486 0.388373
0.572351 0.117281 0.559197
0.690730 0.000000 0.567529
0.858244 0.000000 0.596460
0.133639 0.219547 0.259434
0.133822 0.220279 0.261967
0.136141 0.222416 0.273594
0.156954 0.228641 0.306218
0.255009 0.235355 0.386816
0.567010 0.181704 0.561578
0.717922 0.060578 0.591485
0.888029 0.065858 0.625605
0.146670 0.224643 0.252842
0.148928 0.226505 0.255589
0.154482 0.232975 0.267369
0.167605 0.244297 0.300023
0.249516 0.265537 0.383795
0.559930 0.274815 0.570336
0.754452 0.245487 0.628870
0.909636 0.303288 0.656306
0.143923 0.213535 0.235355
0.144167 0.213657 0.235325
0.151217 0.219760 0.241520
0.175845 0.242832 0.267430
0.232090 0.286809 0.344244
0.483864 0.352941 0.529076
0.749508 0.375891 0.638178
0.915862 0.468269 0.684169
0.164553 0.253025 0.274601
0.166598 0.253574 0.275151
0.174594 0.255955 0.277287
0.191775 0.261173 0.281621
0.223453 0.271183 0.289403
0.411749 0.407691 0.459602
0.761837 0.551843 0.679652
0.881895 0.504631 0.639643
0.135744 0.417426 0.422644
0.145449 0.421302 0.426307
0.182040 0.430915 0.435737
0.250217 0.453620 0.458076
0.356573 0.493263 0.497810
0.523949 0.563928 0.568811
0.729549 0.688777 0.690822
0.646296 0.365728 0.373877
0.280430 0.811826 0.748898
0.303075 0.814145 0.751522
0.389624 0.825681 0.764675
0.504112 0.842252 0.784421
0.619898 0.855497 0.800320
0.709743 0.856107 0.797940
0.782498 0.853300 0.784207
0.936126 0.863951 0.757107
0.131624 0.238468 0.321782
0.131868 0.239048 0.327184
0.134340 0.239902 0.345373
0.170626 0.246647 0.395727
0.288548 0.250095 0.496071
0.556817 0.211002 0.650507
0.862943 0.000000 0.795834
0.947936 0.000000 0.792508
0.134310 0.237949 0.315984
0.133913 0.238926 0.321233
0.135195 0.239811 0.340185
0.168612 0.246738 0.387884
0.280308 0.251743 0.486061
0.544305 0.218479 0.640772
0.854826 0.000000 0.789029
0.939025 0.000000 0.784268
0.145266 0.243168 0.308385
0.145632 0.244022 0.312535
0.146273 0.246067 0.330114
0.168978 0.254978 0.380957
0.271153 0.265843 0.476356
0.526543 0.252750 0.630945
0.852537 0.185916 0.791257
0.937682 0.121004 0.787106
0.160464 0.247196 0.291142
0.161929 0.248875 0.295201
0.165255 0.254917 0.311620
0.176211 0.266117 0.356542
0.252873 0.287602 0.452888
0.499275 0.308476 0.618280
0.843198 0.333410 0.795804
0.939727 0.315068 0.799680
0.157534 0.231083 0.256168
0.159396 0.233310 0.258915
0.166842 0.242252 0.270726
0.190555 0.267338 0.309056
0.228794 0.299413 0.393500
0.426886 0.354467 0.569024
0.795468 0.445289 0.777462
0.931151 0.468421 0.810422
0.158633 0.228824 0.250614
0.158572 0.228275 0.249973
0.159091 0.226810 0.248173
0.161044 0.224674 0.245396
0.203799 0.265843 0.291142
0.344091 0.374792 0.472023
0.734371 0.558740 0.755825
0.918486 0.651575 0.834867
0.184573 0.317815 0.339666
0.186404 0.317205 0.339178
0.194430 0.315587 0.337377
0.211917 0.314580 0.336126
0.238926 0.313115 0.333837
0.276005 0.311864 0.329198
0.608911 0.577600 0.642329
0.896757 0.782559 0.851621
0.159396 0.632654 0.626490
0.173037 0.633143 0.627039
0.230198 0.638209 0.632319
0.321721 0.653162 0.647517
0.431525 0.676326 0.671290
0.562402 0.712306 0.708034
0.721248 0.770596 0.766995
0.873106 0.861143 0.858000
