20 Preset/Dark Style/【3】LUT video cho PR-AE-FCPX/19Tones (5)/Krasniy Octyabr.cube
# Created by Adobe Lightroom plugin Export LUT (1.24.0)
# www.johnrellis.com/lightroom/exportlut.htm
# Preset: Krasniy Octyabr
# Color profile: E:\lut插件\exportlut.1.24\exportlut.lrplugin\color profiles\Rec709gamma2.4.icc
LUT_3D_SIZE 5
DOMAIN_MIN 0.000000 0.000000 0.000000
DOMAIN_MAX 0.903226 0.903226 0.903226
0.105837 0.187747 0.211307
0.113191 0.187655 0.211643
0.130739 0.188052 0.211978
0.145632 0.188754 0.212253
0.158602 0.188876 0.212192
0.104372 0.191806 0.212406
0.119478 0.192477 0.211429
0.140078 0.192844 0.212863
0.163699 0.191958 0.212680
0.181033 0.191012 0.212528
0.076600 0.232761 0.221225
0.104494 0.231022 0.220737
0.264500 0.254368 0.206729
0.319188 0.233768 0.211398
0.333227 0.225803 0.212497
0.000000 0.435950 0.244907
0.000000 0.433234 0.243717
0.202884 0.433692 0.232609
0.733089 0.530632 0.000000
0.909636 0.452064 0.000000
0.190158 0.833799 0.469551
0.271397 0.832364 0.466865
0.425574 0.817166 0.436164
0.707820 0.847135 0.353002
1.000000 0.829343 0.000000
0.106722 0.189151 0.212833
0.112001 0.188235 0.213901
0.133669 0.188113 0.213352
0.148348 0.188968 0.212833
0.162264 0.189303 0.212345
0.108003 0.191531 0.214817
0.113832 0.193057 0.216251
0.141238 0.192538 0.214908
0.162600 0.191745 0.213596
0.179721 0.191287 0.212650
0.094575 0.232975 0.230777
0.105928 0.233555 0.227970
0.240360 0.245853 0.215763
0.279942 0.231083 0.219547
0.310765 0.219120 0.214725
0.000000 0.442695 0.272648
0.000000 0.441840 0.262089
0.196384 0.429480 0.255314
0.721004 0.523766 0.090120
0.888029 0.445106 0.096468
0.250248 0.835142 0.502403
0.294591 0.833707 0.494575
0.461311 0.828672 0.484413
0.704982 0.849607 0.412207
1.000000 0.834104 0.003326
0.110109 0.192996 0.219608
0.112856 0.192966 0.223941
0.176089 0.190738 0.242771
0.267185 0.182498 0.239292
0.143648 0.187228 0.213321
0.117433 0.197665 0.221927
0.118471 0.198947 0.226535
0.183902 0.199130 0.248753
0.241642 0.188907 0.233921
0.141726 0.187533 0.212924
0.121431 0.221103 0.241642
0.132784 0.225589 0.245762
0.200046 0.250980 0.269657
0.234073 0.214450 0.233616
0.230137 0.197665 0.217655
0.000000 0.456275 0.363226
0.000000 0.455390 0.359258
0.225498 0.463569 0.338323
0.681514 0.512108 0.257603
0.776120 0.419532 0.232486
0.366369 0.834592 0.609888
0.424689 0.835172 0.613977
0.493263 0.835386 0.580896
0.663294 0.832517 0.543297
1.000000 0.836332 0.358007
0.116213 0.202792 0.240513
0.119356 0.203922 0.248508
0.192111 0.206790 0.306615
0.476844 0.144320 0.417487
0.895872 0.000000 0.526268
0.125338 0.208743 0.242069
0.126802 0.210300 0.249821
0.190677 0.217838 0.307103
0.485725 0.170657 0.424964
0.863066 0.000000 0.501030
0.137819 0.209720 0.231693
0.144320 0.214603 0.236545
0.190341 0.252628 0.293462
0.508324 0.278172 0.449500
0.681910 0.106874 0.375006
0.148470 0.328679 0.339391
0.169406 0.336095 0.346380
0.269963 0.377630 0.386847
0.557824 0.512047 0.522148
0.417487 0.238224 0.255741
0.346227 0.846891 0.736416
0.397406 0.847288 0.736263
0.549371 0.849088 0.736446
0.703700 0.846708 0.722042
0.966644 0.853452 0.645106
0.131624 0.238468 0.321782
0.130770 0.238834 0.338720
0.214542 0.249912 0.438514
0.642390 0.182010 0.693690
0.947936 0.000000 0.792508
0.142275 0.242130 0.312139
0.142702 0.244175 0.328344
0.206943 0.257450 0.423590
0.620661 0.226322 0.680140
0.942260 0.042634 0.790402
0.162844 0.242557 0.275334
0.169894 0.251133 0.289464
0.196628 0.278508 0.369512
0.545495 0.336645 0.638544
0.934997 0.386938 0.802792
0.167361 0.242161 0.264225
0.168704 0.240421 0.262119
0.175204 0.235630 0.255924
0.393103 0.408087 0.504112
0.912535 0.688136 0.838682
0.159396 0.632654 0.626490
0.212528 0.636133 0.630243
0.374884 0.663844 0.658442
0.599756 0.724392 0.720333
0.873106 0.861143 0.858000
