20 Preset/Dark Style/【1】LRtemplate Lightroom bản cũ/19Tones  (5)/BP Church.lrtemplate
s = {
	id = "53EF4D1F-D50A-4A60-BA5D-51DBECB6FCDE",
	internalName = "BP Church",
	title = "BP Church",
	type = "Develop",
	value = {
		settings = {
			AutoLateralCA = 0,
			Blacks2012 = -37,
			BlueHue = 20,
			BlueSaturation = -12,
			CameraProfile = "Adobe Standard",
			ChromaticAberrationB = 0,
			ChromaticAberrationR = 0,
			Clarity2012 = -10,
			ColorNoiseReduction = 25,
			ColorNoiseReductionDetail = 50,
			ColorNoiseReductionSmoothness = 50,
			Contrast2012 = 43,
			ConvertToGrayscale = false,
			CropConstrainToWarp = 0,
			Defringe = 0,
			DefringeGreenAmount = 0,
			DefringeGreenHueHi = 60,
			DefringeGreenHueLo = 40,
			DefringePurpleAmount = 0,
			DefringePurpleHueHi = 70,
			DefringePurpleHueLo = 30,
			Dehaze = 0,
			EnableCalibration = true,
			EnableColorAdjustments = true,
			EnableDetail = true,
			EnableEffects = true,
			EnableLensCorrections = true,
			EnableSplitToning = true,
			Exposure2012 = 1.31,
			GrainAmount = 79,
			GrainFrequency = 60,
			GrainSize = 21,
			GreenHue = 25,
			GreenSaturation = 0,
			Highlights2012 = -100,
			HueAdjustmentAqua = 100,
			HueAdjustmentBlue = 1,
			HueAdjustmentGreen = -100,
			HueAdjustmentMagenta = 100,
			HueAdjustmentOrange = 0,
			HueAdjustmentPurple = -100,
			HueAdjustmentRed = 11,
			HueAdjustmentYellow = -72,
			LensManualDistortionAmount = 0,
			LuminanceAdjustmentAqua = -3,
			LuminanceAdjustmentBlue = 3,
			LuminanceAdjustmentGreen = -32,
			LuminanceAdjustmentMagenta = 42,
			LuminanceAdjustmentOrange = -25,
			LuminanceAdjustmentPurple = -33,
			LuminanceAdjustmentRed = 7,
			LuminanceAdjustmentYellow = -5,
			LuminanceNoiseReductionContrast = 0,
			LuminanceNoiseReductionDetail = 50,
			LuminanceSmoothing = 0,
			ParametricDarks = 0,
			ParametricHighlightSplit = 75,
			ParametricHighlights = 0,
			ParametricLights = 0,
			ParametricMidtoneSplit = 60,
			ParametricShadowSplit = 14,
			ParametricShadows = 0,
			PostCropVignetteAmount = 0,
			PostCropVignetteFeather = 50,
			PostCropVignetteHighlightContrast = 0,
			PostCropVignetteMidpoint = 50,
			PostCropVignetteRoundness = 0,
			PostCropVignetteStyle = 1,
			ProcessVersion = "6.7",
			RedHue = 61,
			RedSaturation = 0,
			Saturation = -15,
			SaturationAdjustmentAqua = -61,
			SaturationAdjustmentBlue = -79,
			SaturationAdjustmentGreen = -100,
			SaturationAdjustmentMagenta = -100,
			SaturationAdjustmentOrange = -31,
			SaturationAdjustmentPurple = -50,
			SaturationAdjustmentRed = -100,
			SaturationAdjustmentYellow = -100,
			ShadowTint = 0,
			Shadows2012 = 100,
			SharpenDetail = 25,
			SharpenEdgeMasking = 0,
			SharpenRadius = 1,
			Sharpness = 63,
			SplitToningBalance = -1,
			SplitToningHighlightHue = 215,
			SplitToningHighlightSaturation = 0,
			SplitToningShadowHue = 0,
			SplitToningShadowSaturation = 0,
			Temperature = 7093,
			Tint = -4,
			ToneCurveName2012 = "Custom",
			ToneCurvePV2012 = {
				0,
				56,
				43,
				56,
				72,
				65,
				129,
				131,
				185,
				194,
				255,
				250,
			},
			ToneCurvePV2012Blue = {
				0,
				0,
				21,
				13,
				80,
				70,
				116,
				119,
				183,
				197,
				255,
				255,
			},
			ToneCurvePV2012Green = {
				0,
				0,
				27,
				11,
				119,
				118,
				181,
				196,
				255,
				255,
			},
			ToneCurvePV2012Red = {
				0,
				0,
				31,
				7,
				72,
				51,
				116,
				111,
				179,
				197,
				255,
				255,
			},
			Vibrance = 0,
			VignetteAmount = 0,
			VignetteMidpoint = 50,
			WhiteBalance = "Custom",
			Whites2012 = -45,
		},
		uuid = "AD3AB991-0F36-43BB-8948-4B62CB141DD3",
	},
	version = 0,
}
