20 Preset/Cyan-Style/【3】LUT video cho PR-AE-FCPX/Tone  (1).cube
# Created by Adobe Lightroom plugin Export LUT (1.24.0)
# www.johnrellis.com/lightroom/exportlut.htm
# Preset: - 123PRESETS Orange and Teal V3
# Color profile: E:\lut插件\exportlut.1.24\exportlut.lrplugin\color profiles\Rec709gamma2.4.icc
LUT_3D_SIZE 32
DOMAIN_MIN 0.0 0.0 0.0
DOMAIN_MAX 1.0 1.0 1.0
0.064393 0.078340 0.045624
0.064393 0.078340 0.045624
0.064393 0.078340 0.045624
0.074891 0.079011 0.045258
0.094453 0.082704 0.046021
0.108095 0.087984 0.046265
0.122133 0.092409 0.050416
0.137392 0.097536 0.053864
0.156100 0.102663 0.057740
0.177920 0.107454 0.059663
0.202762 0.112581 0.062623
0.231662 0.117830 0.063874
0.263981 0.123018 0.063203
0.299382 0.128176 0.063661
0.345647 0.134524 0.062470
0.408515 0.142367 0.058106
0.465614 0.150759 0.053498
0.517693 0.160922 0.048310
0.566125 0.173404 0.040711
0.611902 0.190066 0.033783
0.653834 0.210269 0.025879
0.690913 0.233097 0.019226
0.722377 0.256870 0.015351
0.750881 0.281712 0.013855
0.776638 0.307256 0.015930
0.800137 0.333135 0.023774
0.821805 0.359594 0.041840
0.842191 0.386786 0.075441
0.861357 0.414862 0.102113
0.879759 0.443763 0.128359
0.898070 0.473671 0.159213
0.916442 0.504265 0.195315
0.064393 0.078340 0.045624
0.064393 0.078340 0.045624
0.064393 0.078340 0.045624
0.074891 0.079011 0.045258
0.094575 0.082704 0.044892
0.107485 0.088075 0.046265
0.120638 0.092653 0.050416
0.136019 0.097017 0.054200
0.153719 0.102083 0.057099
0.174441 0.107240 0.060243
0.198581 0.112093 0.062379
0.226749 0.117220 0.062867
0.258183 0.122164 0.063874
0.292668 0.127535 0.063630
0.337072 0.133516 0.062593
0.395972 0.141024 0.059754
0.450965 0.148684 0.055604
0.501915 0.157809 0.049866
0.549706 0.169314 0.043946
0.595178 0.183932 0.037598
0.637140 0.202029 0.030823
0.674586 0.222721 0.023529
0.706752 0.244816 0.018799
0.735927 0.268559 0.015106
0.762478 0.292973 0.014252
0.787228 0.318486 0.017700
0.810483 0.345342 0.028260
0.832242 0.373114 0.055055
0.852842 0.401862 0.090639
0.872374 0.431739 0.116182
0.891386 0.462348 0.146334
0.910399 0.493690 0.181521
0.064393 0.078340 0.045624
0.064393 0.078340 0.045624
0.064393 0.078340 0.045624
0.076173 0.079622 0.045106
0.094667 0.084047 0.045716
0.107576 0.088899 0.047089
0.119875 0.093202 0.051423
0.134951 0.097597 0.055207
0.152224 0.102358 0.058289
0.172396 0.107362 0.061585
0.196262 0.112032 0.062776
0.223606 0.117220 0.064576
0.254429 0.122255 0.064668
0.288151 0.127565 0.064790
0.331914 0.133639 0.063050
0.387335 0.140780 0.061128
0.440131 0.148257 0.057740
0.490333 0.156558 0.052827
0.538048 0.167422 0.047364
0.583886 0.181064 0.040558
0.626764 0.198154 0.034180
0.665064 0.218357 0.027008
0.698054 0.239628 0.020630
0.727840 0.262455 0.017121
0.754818 0.286412 0.016144
0.780056 0.311345 0.016449
0.804044 0.338140 0.026184
0.826627 0.366186 0.049073
0.847959 0.395300 0.086152
0.868193 0.425483 0.110994
0.887541 0.456306 0.140139
0.906737 0.487953 0.174777
0.064393 0.078340 0.045624
0.064393 0.078340 0.045624
0.064973 0.079713 0.045319
0.081941 0.082551 0.045441
0.095705 0.087953 0.047028
0.107424 0.090944 0.049744
0.119753 0.095155 0.054047
0.134432 0.099550 0.057862
0.151553 0.103883 0.061067
0.171420 0.108553 0.062287
0.194736 0.113039 0.064790
0.221378 0.118105 0.065644
0.251377 0.123171 0.065949
0.284367 0.128359 0.066438
0.327489 0.134646 0.066072
0.378332 0.141482 0.064179
0.427405 0.148379 0.061341
0.474067 0.155612 0.057832
0.519554 0.165011 0.052857
0.563897 0.176822 0.046998
0.606256 0.191623 0.040925
0.645533 0.209476 0.033600
0.680598 0.229801 0.028260
0.713161 0.252384 0.023011
0.743221 0.277317 0.020172
0.771420 0.303990 0.021118
0.798123 0.332769 0.027985
0.822751 0.362219 0.048859
0.845365 0.392615 0.084352
0.866087 0.423255 0.110231
0.885374 0.453864 0.138521
0.904082 0.484382 0.171176
0.059083 0.084962 0.047669
0.058381 0.085695 0.047517
0.067292 0.085756 0.048463
0.083406 0.088289 0.048615
0.096223 0.090761 0.051637
0.106691 0.093904 0.054353
0.118868 0.097536 0.057710
0.133028 0.101534 0.060517
0.149447 0.105592 0.062776
0.168887 0.109682 0.065431
0.191196 0.114137 0.067018
0.217227 0.119173 0.068086
0.246220 0.124178 0.068757
0.278691 0.129458 0.069490
0.321263 0.136080 0.069368
0.369421 0.142885 0.067720
0.416999 0.149386 0.066377
0.463874 0.156832 0.062165
0.509697 0.165713 0.056947
0.554253 0.176822 0.053407
0.596796 0.190707 0.046571
0.636347 0.207767 0.039582
0.672602 0.227329 0.033906
0.706325 0.249943 0.029694
0.737697 0.274998 0.026184
0.767056 0.301915 0.026337
0.794553 0.330632 0.034333
0.819608 0.360143 0.050935
0.842374 0.390356 0.086305
0.863279 0.420600 0.109377
0.882628 0.450874 0.136446
0.901274 0.481117 0.168215
0.059663 0.091463 0.053620
0.060945 0.091829 0.053468
0.070863 0.092226 0.055390
0.081086 0.093782 0.055695
0.095644 0.095216 0.056764
0.106386 0.097719 0.059632
0.119142 0.101137 0.062959
0.133028 0.104646 0.064820
0.149599 0.108217 0.067231
0.168643 0.112551 0.068605
0.190890 0.117189 0.070039
0.216556 0.121859 0.072389
0.245792 0.126894 0.072908
0.277867 0.132235 0.073671
0.321996 0.139254 0.073823
0.368780 0.146181 0.073548
0.416052 0.153079 0.070832
0.463081 0.160616 0.067445
0.509361 0.169772 0.063844
0.554192 0.180850 0.058686
0.596735 0.195071 0.053315
0.636713 0.212070 0.047761
0.752712 0.294469 0.042817
0.779446 0.320714 0.049500
0.803311 0.346777 0.064454
0.824643 0.372839 0.085115
0.843870 0.398474 0.101625
0.861570 0.423987 0.119844
0.878172 0.449622 0.141939
0.894438 0.475319 0.167330
0.910369 0.501122 0.196353
0.925841 0.526696 0.229160
0.066560 0.099672 0.062684
0.068269 0.099580 0.063813
0.078157 0.099916 0.065736
0.086793 0.100130 0.067659
0.095430 0.102907 0.067170
0.107912 0.104311 0.069184
0.122225 0.106844 0.070375
0.139620 0.110750 0.072663
0.157259 0.114626 0.074556
0.178347 0.118868 0.076539
0.202792 0.123690 0.078157
0.231022 0.128786 0.078859
0.262119 0.134249 0.079011
0.298222 0.140078 0.079408
0.351049 0.148867 0.079438
0.402045 0.156588 0.079164
0.451240 0.164767 0.076753
0.498604 0.173800 0.074311
0.545190 0.184909 0.069612
0.591363 0.199557 0.064790
0.636927 0.218906 0.059571
0.680232 0.242924 0.054353
0.719905 0.270939 0.052430
0.755673 0.301518 0.056733
0.786770 0.332494 0.066773
0.812375 0.361517 0.085176
0.833982 0.388708 0.099001
0.852995 0.414557 0.115450
0.870420 0.440436 0.135622
0.886809 0.465980 0.159487
0.903075 0.491615 0.186618
0.918883 0.517357 0.217838
0.077028 0.105165 0.072511
0.078676 0.105104 0.072511
0.082551 0.105562 0.073304
0.089113 0.105806 0.075227
0.093843 0.107362 0.077668
0.106538 0.109987 0.075654
0.120211 0.112184 0.078157
0.137331 0.114748 0.079255
0.157626 0.119173 0.080018
0.178073 0.123354 0.081270
0.202335 0.127993 0.082307
0.229618 0.133059 0.083040
0.259831 0.138399 0.083314
0.299962 0.145693 0.084474
0.347478 0.153567 0.085054
0.393927 0.160983 0.084688
0.440101 0.168612 0.083497
0.485634 0.176944 0.081971
0.531121 0.187411 0.080293
0.576898 0.200717 0.077119
0.622370 0.218357 0.071656
0.666224 0.240482 0.068788
0.706844 0.266972 0.066712
0.743435 0.296300 0.071138
0.775784 0.326513 0.078828
0.802914 0.355352 0.089174
0.825772 0.382696 0.100496
0.845853 0.408881 0.115389
0.864164 0.434974 0.134585
0.881071 0.460609 0.156832
0.897612 0.486336 0.182925
0.913848 0.512078 0.212680
0.082002 0.111666 0.081086
0.081544 0.112001 0.080995
0.085451 0.112428 0.081514
0.091463 0.112612 0.083406
0.096407 0.112795 0.084596
0.103883 0.116609 0.083803
0.119631 0.118441 0.083925
0.135683 0.121004 0.084352
0.155703 0.124147 0.085512
0.179507 0.128573 0.086305
0.203372 0.133486 0.087160
0.230594 0.138491 0.088258
0.260685 0.143954 0.088289
0.304509 0.152377 0.089418
0.348608 0.160128 0.090028
0.392462 0.167330 0.090120
0.436347 0.174746 0.089784
0.480537 0.182864 0.088746
0.525292 0.192782 0.087556
0.570184 0.205783 0.085969
0.615076 0.222385 0.084260
0.658412 0.243290 0.082338
0.699062 0.268376 0.081727
0.735805 0.296483 0.085267
0.768460 0.325597 0.088991
0.796353 0.353887 0.095918
0.820005 0.381018 0.106386
0.840757 0.407263 0.119936
0.859617 0.433234 0.137179
0.876921 0.458656 0.158145
0.893645 0.484352 0.183413
0.910002 0.509789 0.212131
0.084749 0.119478 0.088197
0.085542 0.119722 0.088136
0.088319 0.119875 0.088502
0.093843 0.120272 0.089570
0.098634 0.120424 0.090272
0.104738 0.122103 0.091066
0.118166 0.126741 0.089723
0.135409 0.128206 0.089723
0.154391 0.130770 0.090120
0.177005 0.133913 0.090059
0.203861 0.138796 0.090791
0.230259 0.144137 0.091463
0.265019 0.151064 0.092348
0.305241 0.158999 0.093324
0.347326 0.166720 0.094026
0.390753 0.173922 0.094453
0.435218 0.181918 0.094545
0.480385 0.190646 0.093874
0.525353 0.201297 0.093904
0.569940 0.214084 0.092836
0.612818 0.230106 0.092256
0.653254 0.248814 0.091524
0.690974 0.270756 0.091737
0.725582 0.295171 0.093050
0.756863 0.321263 0.095857
0.784909 0.347875 0.100771
0.809659 0.374487 0.108675
0.831815 0.401099 0.121187
0.852079 0.427680 0.136904
0.870634 0.454261 0.157626
0.888273 0.480568 0.182406
0.905486 0.506920 0.211063
0.087861 0.127657 0.093172
0.087861 0.127657 0.093172
0.090181 0.127993 0.093477
0.094881 0.128420 0.094484
0.101808 0.128634 0.095460
0.107485 0.128908 0.096834
0.115816 0.133639 0.096040
0.135134 0.137667 0.095003
0.154513 0.139528 0.094697
0.176944 0.142641 0.094972
0.203098 0.145754 0.094850
0.235477 0.152010 0.095552
0.271458 0.159670 0.096986
0.309758 0.167239 0.097932
0.350378 0.174868 0.098939
0.392798 0.182437 0.099519
0.436286 0.190494 0.099550
0.480262 0.199344 0.099580
0.524102 0.209628 0.099397
0.567346 0.222141 0.099001
0.609033 0.237369 0.098878
0.648585 0.255161 0.098634
0.685908 0.276158 0.099916
0.720424 0.299596 0.101015
0.751797 0.324712 0.104005
0.780026 0.350652 0.109255
0.805264 0.376806 0.117037
0.827878 0.402899 0.128023
0.848447 0.429236 0.143221
0.867369 0.455604 0.163424
0.885252 0.481697 0.187198
0.902647 0.507805 0.214878
0.088472 0.137789 0.099184
0.089204 0.137758 0.099184
0.091249 0.138308 0.099397
0.095888 0.138705 0.100313
0.104707 0.138949 0.102235
0.109651 0.139467 0.102388
0.118013 0.141695 0.103883
0.133852 0.148287 0.101991
0.157504 0.150515 0.100710
0.179263 0.153780 0.100526
0.205539 0.156893 0.100649
0.241337 0.162722 0.100649
0.322789 0.186740 0.108034
0.371069 0.197391 0.110475
0.418982 0.207309 0.112032
0.465949 0.217197 0.113191
0.511009 0.227909 0.113771
0.554314 0.240024 0.114229
0.595727 0.253666 0.114778
0.634913 0.269291 0.115236
0.670954 0.287083 0.116487
0.703883 0.306767 0.118227
0.734249 0.328252 0.121004
0.762264 0.350958 0.125368
0.787594 0.374151 0.130983
0.809873 0.396796 0.138552
0.829496 0.418830 0.148775
0.847196 0.440436 0.161593
0.863798 0.461921 0.177249
0.879759 0.483986 0.196872
0.895506 0.506554 0.219944
0.911284 0.529900 0.247410
0.089113 0.154513 0.109071
0.089845 0.154452 0.109071
0.092164 0.154726 0.109285
0.097932 0.155184 0.109743
0.107301 0.155154 0.111513
0.115663 0.154940 0.112032
0.123720 0.155245 0.114260
0.135286 0.161379 0.112978
0.160250 0.168795 0.110842
0.188540 0.170382 0.109071
0.222354 0.178134 0.110323
0.263737 0.186130 0.111452
0.311437 0.193606 0.112459
0.362951 0.203861 0.114961
0.411933 0.215030 0.117403
0.458198 0.225345 0.118959
0.502495 0.235752 0.120241
0.544274 0.246738 0.120729
0.584283 0.259373 0.121340
0.622034 0.273381 0.122164
0.657404 0.289372 0.123201
0.690639 0.307683 0.124941
0.721492 0.327520 0.127321
0.750240 0.349371 0.131350
0.776638 0.371893 0.136263
0.800259 0.394568 0.144015
0.821286 0.416846 0.153079
0.840269 0.439094 0.165866
0.857939 0.461158 0.180972
0.874693 0.483650 0.200778
0.891051 0.506493 0.223362
0.907195 0.529961 0.250553
0.087984 0.167361 0.116182
0.088716 0.167330 0.116182
0.091798 0.167514 0.116396
0.097475 0.167941 0.117098
0.107820 0.167666 0.118441
0.119051 0.167605 0.119997
0.126070 0.167819 0.120089
0.137179 0.170382 0.122377
0.156222 0.179751 0.120058
0.192386 0.189914 0.118898
0.227573 0.194491 0.119051
0.266392 0.201968 0.119478
0.310857 0.208957 0.120516
0.359167 0.215702 0.121370
0.409339 0.224643 0.123171
0.455116 0.235233 0.125246
0.497658 0.245304 0.126650
0.538140 0.256016 0.127535
0.577234 0.267979 0.128878
0.614313 0.280949 0.129519
0.649348 0.296056 0.130770
0.682765 0.313359 0.133181
0.713893 0.332403 0.135805
0.743069 0.353521 0.139895
0.770016 0.375463 0.144686
0.794308 0.397772 0.152010
0.815915 0.419959 0.161257
0.835599 0.441779 0.172915
0.853696 0.463813 0.188327
0.870878 0.486183 0.207492
0.887602 0.508965 0.230167
0.904204 0.532341 0.256779
0.084138 0.182162 0.124727
0.085389 0.182132 0.124727
0.090181 0.182284 0.124941
0.095766 0.182803 0.125551
0.107301 0.182681 0.126711
0.121798 0.182406 0.129152
0.130312 0.182925 0.129397
0.143282 0.185000 0.133455
0.158145 0.194797 0.133883
0.189761 0.207950 0.131746
0.232364 0.214084 0.129519
0.270848 0.220096 0.129519
0.313054 0.226932 0.129824
0.359045 0.233341 0.130373
0.407202 0.238590 0.130587
0.454078 0.246433 0.131563
0.496956 0.257206 0.133639
0.536248 0.267613 0.135225
0.574304 0.278935 0.136599
0.610590 0.291295 0.137575
0.645075 0.305577 0.139406
0.678004 0.322057 0.141787
0.708888 0.340215 0.144381
0.737819 0.360296 0.148867
0.764858 0.381292 0.153902
0.789517 0.403021 0.161074
0.811856 0.425147 0.170626
0.832273 0.447425 0.183017
0.851316 0.470069 0.198764
0.869383 0.493141 0.218845
0.887022 0.516930 0.243687
0.904387 0.541314 0.272465
0.078126 0.199680 0.134737
0.079713 0.199924 0.134676
0.085603 0.200473 0.135256
0.094026 0.201694 0.136324
0.105959 0.203037 0.138216
0.123537 0.203983 0.140963
0.137545 0.205905 0.143435
0.148989 0.207736 0.145235
0.166506 0.212650 0.149935
0.190311 0.226566 0.148196
0.233188 0.240024 0.145266
0.279179 0.242954 0.141970
0.318791 0.248386 0.141329
0.361089 0.252903 0.140993
0.404822 0.257115 0.140566
0.448829 0.260441 0.139559
0.492500 0.267124 0.140291
0.532799 0.278172 0.142428
0.570214 0.289372 0.143923
0.606287 0.301701 0.145785
0.641291 0.315984 0.148043
0.674678 0.332250 0.151034
0.705959 0.350469 0.154635
0.735317 0.370306 0.159030
0.762753 0.391272 0.164736
0.787961 0.413092 0.172549
0.810636 0.435126 0.182864
0.831327 0.457191 0.195865
0.850401 0.479316 0.212314
0.868254 0.501396 0.232578
0.885618 0.524010 0.256260
0.902586 0.547204 0.283879
0.058656 0.222873 0.147463
0.061311 0.222965 0.147860
0.074037 0.223514 0.148318
0.088685 0.224521 0.149477
0.103578 0.225864 0.151095
0.123323 0.226719 0.153689
0.143862 0.227848 0.157473
0.155734 0.229282 0.158083
0.173617 0.230747 0.163272
0.191897 0.241489 0.163760
0.226688 0.256870 0.160647
0.277745 0.268589 0.156283
0.322454 0.269444 0.153658
0.363409 0.273777 0.152682
0.405585 0.277714 0.151522
0.448249 0.280888 0.150668
0.490394 0.283909 0.149386
0.531975 0.290654 0.149935
0.570733 0.302617 0.152468
0.605982 0.314763 0.154513
0.640650 0.328588 0.157321
0.673548 0.344427 0.160555
0.704585 0.362310 0.164645
0.733913 0.381689 0.169924
0.761440 0.402472 0.176547
0.786740 0.423957 0.184878
0.809720 0.445838 0.196170
0.830625 0.467597 0.209964
0.849790 0.489479 0.227420
0.867796 0.511345 0.248020
0.885344 0.533593 0.271977
0.902312 0.556420 0.300328
0.030915 0.248417 0.162448
0.033722 0.248783 0.162539
0.033265 0.268742 0.174624
0.070558 0.269841 0.175937
0.100343 0.271794 0.178073
0.127932 0.272435 0.181216
0.158328 0.273381 0.185611
0.175998 0.274601 0.187198
0.192599 0.276127 0.189578
0.216312 0.280888 0.196048
0.245396 0.298405 0.193210
0.297124 0.316564 0.188846
0.355535 0.322515 0.182925
0.401862 0.322972 0.179599
0.443061 0.325231 0.177035
0.483589 0.326726 0.174655
0.522667 0.327703 0.172152
0.560357 0.328923 0.169955
0.596307 0.334356 0.169802
0.629816 0.346258 0.172274
0.660151 0.358679 0.175265
0.689906 0.373388 0.179202
0.718074 0.389837 0.183780
0.744778 0.407324 0.189090
0.769345 0.425483 0.195804
0.791806 0.443824 0.204318
0.812497 0.462562 0.214603
0.831785 0.481575 0.227359
0.850004 0.501488 0.244297
0.867552 0.522148 0.264744
0.884916 0.543542 0.288731
0.901762 0.565606 0.316899
0.000000 0.281743 0.181827
0.000000 0.284123 0.183139
0.005066 0.286717 0.185122
0.040894 0.289616 0.187381
0.091951 0.292882 0.190463
0.123140 0.294224 0.193423
0.155123 0.295079 0.197604
0.180789 0.295384 0.200504
0.196597 0.296269 0.201389
0.219730 0.296788 0.207431
0.242466 0.308873 0.208255
0.281773 0.326543 0.204379
0.339330 0.341833 0.198672
0.396551 0.342351 0.192355
0.437690 0.344060 0.189578
0.477546 0.345617 0.186862
0.516503 0.346990 0.184176
0.554345 0.348791 0.182315
0.591302 0.351202 0.180606
0.626337 0.357702 0.181064
0.658595 0.371588 0.185092
0.688289 0.386145 0.189487
0.716487 0.402106 0.194675
0.742947 0.419135 0.200931
0.767239 0.436622 0.208225
0.789670 0.454139 0.216403
0.810117 0.472084 0.227115
0.829343 0.490333 0.240269
0.847593 0.509392 0.256748
0.865202 0.529412 0.277012
0.882597 0.550469 0.301305
0.899657 0.572351 0.329747
0.000000 0.305547 0.195621
0.000000 0.308171 0.197238
0.000000 0.311162 0.199405
0.000000 0.314458 0.201968
0.069459 0.317693 0.204929
0.114992 0.319585 0.208072
0.152377 0.320012 0.211643
0.187594 0.320195 0.217044
0.203159 0.320470 0.216739
0.222019 0.320897 0.218875
0.248478 0.323644 0.226108
0.277256 0.341100 0.222599
0.325872 0.358801 0.217868
0.387884 0.370733 0.211124
0.439734 0.368383 0.205631
0.478767 0.369909 0.202518
0.517235 0.371038 0.199771
0.554528 0.372564 0.197482
0.590692 0.374823 0.195315
0.625299 0.378180 0.194461
0.657771 0.385229 0.195621
0.687861 0.400031 0.200687
0.715877 0.415839 0.206912
0.742184 0.432410 0.213870
0.766323 0.449073 0.220981
0.788357 0.465888 0.229984
0.808560 0.482826 0.241032
0.827573 0.500206 0.253910
0.845670 0.518517 0.270665
0.863249 0.537896 0.291142
0.880613 0.558434 0.315404
0.897765 0.579797 0.343725
0.000000 0.331701 0.210910
0.000000 0.334203 0.212741
0.000000 0.337377 0.214939
0.000000 0.340612 0.217411
0.019837 0.343511 0.220188
0.102846 0.345678 0.223148
0.146242 0.345983 0.226749
0.185580 0.346044 0.231540
0.211124 0.346105 0.233616
0.228916 0.346319 0.234134
0.254673 0.346288 0.240879
0.279759 0.357031 0.242557
0.318273 0.374884 0.238163
0.375830 0.392523 0.232456
0.436164 0.398627 0.225864
0.483467 0.396918 0.220981
0.522454 0.399054 0.218784
0.560723 0.401831 0.216953
0.598199 0.405463 0.216007
0.634150 0.410498 0.216068
0.668086 0.417029 0.217288
0.699733 0.427039 0.220676
0.727901 0.443977 0.229404
0.754482 0.461921 0.239231
0.778378 0.479408 0.249973
0.799741 0.496162 0.261814
0.819272 0.512505 0.275029
0.837461 0.529381 0.290898
0.854856 0.547112 0.310063
0.872007 0.565911 0.332586
0.888884 0.585565 0.358709
0.905486 0.606409 0.389288
0.000000 0.377569 0.239445
0.000000 0.378820 0.240421
0.000000 0.379950 0.241581
0.000000 0.381323 0.243046
0.000000 0.382635 0.244877
0.088136 0.383825 0.247349
0.141848 0.383886 0.250278
0.187564 0.383429 0.254643
0.226169 0.383062 0.259556
0.245090 0.383124 0.259251
0.266880 0.383154 0.261997
0.297704 0.384344 0.271427
0.326818 0.402350 0.267704
0.375494 0.420478 0.263249
0.438178 0.435309 0.257206
0.496864 0.437201 0.250065
0.538323 0.436713 0.246189
0.574914 0.438361 0.243534
0.609644 0.440467 0.242008
0.642725 0.443915 0.241062
0.674006 0.448249 0.240818
0.703487 0.453742 0.241825
0.730678 0.461677 0.244968
0.754543 0.476448 0.253666
0.777493 0.492317 0.264622
0.798581 0.508232 0.276860
0.817990 0.524376 0.291295
0.836179 0.540734 0.307927
0.853605 0.557885 0.327245
0.870665 0.575982 0.349645
0.887419 0.595117 0.375799
0.903868 0.615198 0.405982
0.000000 0.408240 0.259281
0.000000 0.409461 0.260136
0.000000 0.410651 0.261326
0.000000 0.411810 0.262852
0.000000 0.413153 0.264805
0.034089 0.414435 0.267247
0.133516 0.415015 0.270359
0.185672 0.414435 0.274449
0.231510 0.414191 0.280797
0.257755 0.414008 0.281804
0.278355 0.414008 0.282811
0.307500 0.413428 0.290379
0.335210 0.423041 0.293767
0.374212 0.441444 0.289921
0.430671 0.459663 0.285191
0.494301 0.471870 0.279789
0.549279 0.470283 0.273655
0.584802 0.472114 0.271031
0.618860 0.474189 0.269200
0.650935 0.477150 0.268437
0.681331 0.481178 0.268589
0.709957 0.485939 0.269627
0.736721 0.491554 0.271672
0.761013 0.498878 0.275822
0.774777 0.502525 0.276493
0.795193 0.517144 0.288731
0.814755 0.532738 0.303349
0.832975 0.548730 0.320012
0.850431 0.565332 0.339513
0.867582 0.583124 0.362280
0.884672 0.602258 0.388922
0.901366 0.622339 0.419379
0.000000 0.452674 0.290562
0.000000 0.454566 0.292302
0.000000 0.455848 0.293309
0.000000 0.456153 0.294347
0.000000 0.455879 0.295140
0.000000 0.455329 0.296330
0.128481 0.454749 0.298405
0.186954 0.452277 0.300755
0.236149 0.450080 0.305211
0.273899 0.448096 0.308721
0.292882 0.445930 0.306737
0.314763 0.444312 0.308385
0.347112 0.441627 0.318700
0.374945 0.458747 0.314672
0.419959 0.475288 0.309422
0.479561 0.491402 0.303624
0.539666 0.499245 0.296696
0.584070 0.495033 0.291783
0.617273 0.496712 0.289433
0.649195 0.499733 0.288853
0.679652 0.503502 0.289097
0.708125 0.507774 0.290440
0.734249 0.512200 0.291936
0.757778 0.516258 0.293614
0.778561 0.521202 0.296910
0.795956 0.531945 0.306798
0.813687 0.544732 0.319768
0.831144 0.558953 0.335363
0.848020 0.574243 0.353857
0.864866 0.591058 0.375830
0.881773 0.609308 0.401770
0.898436 0.628840 0.431861
0.000000 0.479438 0.309972
0.000000 0.481300 0.311467
0.000000 0.482612 0.313024
0.000000 0.483436 0.314275
0.000000 0.483986 0.315831
0.000000 0.484535 0.317876
0.118685 0.485573 0.320989
0.185183 0.485359 0.324804
0.240452 0.484413 0.330114
0.289799 0.483742 0.337560
0.313420 0.482856 0.337285
0.334661 0.481819 0.337591
0.363561 0.480018 0.344549
0.391791 0.485817 0.349157
0.427588 0.502403 0.345098
0.478431 0.518334 0.340093
0.538018 0.531212 0.334813
0.591119 0.534630 0.329595
0.629908 0.533227 0.325780
0.660304 0.535058 0.324041
0.689265 0.537926 0.324224
0.716609 0.541405 0.325383
0.741604 0.544884 0.327001
0.764309 0.548363 0.329442
0.784787 0.551751 0.332433
0.803250 0.555901 0.336828
0.818601 0.565911 0.348547
0.834287 0.578119 0.363775
0.850919 0.592889 0.383185
0.867460 0.609125 0.405676
0.883848 0.626490 0.431769
0.900175 0.645167 0.461311
0.000000 0.517296 0.340063
0.000000 0.518303 0.341131
0.000000 0.518944 0.341924
0.000000 0.519280 0.343053
0.000000 0.519585 0.344305
0.000000 0.519860 0.346288
0.118746 0.520317 0.348943
0.187778 0.520470 0.352514
0.244663 0.519310 0.357275
0.296208 0.518120 0.363989
0.333227 0.516930 0.367926
0.354253 0.515831 0.367071
0.375830 0.514427 0.368505
0.409308 0.511528 0.379644
0.437079 0.525200 0.378363
0.478889 0.540826 0.374182
0.532616 0.555657 0.369970
0.588708 0.565850 0.365850
0.636561 0.566461 0.361608
0.668818 0.566796 0.359533
0.696529 0.568994 0.359106
0.722499 0.571160 0.359747
0.746120 0.573388 0.360937
0.767636 0.575647 0.362951
0.787198 0.577813 0.365332
0.805142 0.580102 0.368139
0.821469 0.583307 0.372778
0.835111 0.592401 0.385016
0.849943 0.604273 0.401343
0.866300 0.619928 0.424018
0.882567 0.636805 0.449805
0.898741 0.655207 0.479561
0.000000 0.550072 0.368261
0.000000 0.550896 0.369177
0.000000 0.551690 0.370245
0.000000 0.552331 0.371679
0.000000 0.553277 0.373571
0.000000 0.554742 0.376745
0.132509 0.557458 0.382055
0.204105 0.560784 0.388678
0.265934 0.562860 0.396704
0.321538 0.565118 0.406867
0.375219 0.567071 0.419257
0.400366 0.568902 0.421454
0.424109 0.570336 0.424811
0.453742 0.570214 0.433936
0.483772 0.574182 0.443244
0.516594 0.590021 0.441779
0.560357 0.604639 0.439826
0.612055 0.618769 0.437964
0.661433 0.627100 0.436713
0.700618 0.624994 0.435340
0.724605 0.625269 0.434760
0.746975 0.625788 0.434974
0.767514 0.626184 0.435554
0.786374 0.626856 0.437018
0.803861 0.627466 0.438636
0.820310 0.628595 0.440955
0.835874 0.630335 0.444495
0.850675 0.633234 0.449622
0.863005 0.641718 0.462806
0.876127 0.652735 0.480385
0.891478 0.668513 0.505943
0.907042 0.685878 0.535241
0.000000 0.606928 0.426734
0.000000 0.607019 0.427008
0.000000 0.606897 0.427283
0.000000 0.606744 0.427771
0.000000 0.606683 0.429084
0.129763 0.606744 0.430884
0.193912 0.607202 0.433997
0.247654 0.607996 0.438300
0.299413 0.608331 0.443763
0.350072 0.607630 0.450324
0.398718 0.606897 0.459052
0.433265 0.606134 0.463966
0.453376 0.605554 0.464088
