20 Preset/Cyan-Style/【3】LUT video cho PR-AE-FCPX/Tone  (1).cube
# Created by Adobe Lightroom plugin Export LUT (1.24.0)
# www.johnrellis.com/lightroom/exportlut.htm
# Preset: - 123PRESETS Orange and Teal V3
# Color profile: E:\lut插件\exportlut.1.24\exportlut.lrplugin\color profiles\Rec709gamma2.4.icc
LUT_3D_SIZE 5
DOMAIN_MIN 0.000000 0.000000 0.000000
DOMAIN_MAX 0.903226 0.903226 0.903226
0.064393 0.078340 0.045624
0.137392 0.097536 0.053864
0.345647 0.134524 0.062470
0.690913 0.233097 0.019226
0.861357 0.414862 0.102113
0.077028 0.105165 0.072511
0.137331 0.114748 0.079255
0.347478 0.153567 0.085054
0.666224 0.240482 0.068788
0.864164 0.434974 0.134585
0.084138 0.182162 0.124727
0.143282 0.185000 0.133455
0.407202 0.238590 0.130587
0.678004 0.322057 0.141787
0.851316 0.470069 0.198764
0.000000 0.377569 0.239445
0.187564 0.383429 0.254643
0.438178 0.435309 0.257206
0.703487 0.453742 0.241825
0.853605 0.557885 0.327245
0.000000 0.641138 0.464576
0.278721 0.643183 0.477455
0.494148 0.612787 0.479225
0.748714 0.670497 0.500572
0.866270 0.676631 0.518090
0.044038 0.091310 0.082765
0.121828 0.107912 0.091188
0.308537 0.152560 0.102602
0.606287 0.223697 0.110262
0.824186 0.386725 0.132998
0.072389 0.117159 0.098085
0.128695 0.128695 0.103365
0.315740 0.169436 0.113222
0.605097 0.237888 0.119905
0.825650 0.401129 0.148348
0.039185 0.195499 0.139651
0.146883 0.205142 0.151156
0.359930 0.233799 0.146944
0.628809 0.307225 0.160769
0.837613 0.467201 0.219821
0.000000 0.389288 0.255558
0.151675 0.400214 0.270207
0.421057 0.441230 0.286259
0.693507 0.459236 0.264683
0.846830 0.559838 0.343114
0.000000 0.644739 0.471839
0.216098 0.645991 0.482429
0.519615 0.642725 0.518181
0.751034 0.686000 0.535943
0.868559 0.691249 0.549950
0.000000 0.126986 0.145205
0.044373 0.136629 0.156100
0.308537 0.201724 0.191165
0.593225 0.292973 0.207828
0.807492 0.432685 0.247196
0.000000 0.155276 0.167361
0.047242 0.164462 0.175448
0.311498 0.225925 0.202090
0.591608 0.307439 0.218082
0.810544 0.448737 0.262699
0.000000 0.242985 0.222660
0.000000 0.258366 0.229953
0.350164 0.305943 0.248569
0.612421 0.370459 0.261784
0.816709 0.494728 0.309026
0.000000 0.428931 0.327642
0.000000 0.433112 0.324376
0.394568 0.458076 0.366949
0.668788 0.494697 0.353491
0.826810 0.572869 0.402716
0.000000 0.648676 0.487068
0.000000 0.653590 0.497353
0.448280 0.662898 0.542718
0.707179 0.693507 0.573632
0.851225 0.691798 0.569970
0.000000 0.197879 0.281651
0.000000 0.207492 0.295445
0.183566 0.245731 0.336553
0.586908 0.377966 0.375525
0.776577 0.515740 0.417548
0.000000 0.222171 0.300450
0.000000 0.229892 0.308415
0.191287 0.267979 0.342626
0.576715 0.386633 0.374182
0.772488 0.516747 0.417823
0.000000 0.298070 0.346471
0.000000 0.307378 0.351965
0.198550 0.355291 0.381201
0.566796 0.453803 0.410468
0.780911 0.551263 0.452277
0.000000 0.463447 0.448768
0.000000 0.470314 0.450477
0.151919 0.512718 0.472999
0.621149 0.561730 0.501274
0.804654 0.614771 0.516808
0.000000 0.672175 0.599023
0.000000 0.676478 0.600183
0.000000 0.693935 0.607355
0.644251 0.702663 0.653468
0.827665 0.716396 0.641718
0.000000 0.333928 0.521355
0.000000 0.340429 0.526635
0.000000 0.377661 0.552972
0.554131 0.517205 0.606439
0.772671 0.624079 0.636713
0.000000 0.348241 0.525078
0.000000 0.355291 0.530541
0.000000 0.391577 0.554833
0.548180 0.521233 0.606378
0.770779 0.628534 0.638758
0.000000 0.405921 0.552880
0.000000 0.411810 0.555657
0.000000 0.446967 0.575280
0.502098 0.527642 0.619287
0.768215 0.651789 0.655482
0.000000 0.528527 0.614282
0.000000 0.530846 0.614649
0.000000 0.550927 0.625605
0.431434 0.609705 0.665156
0.766476 0.700069 0.696407
0.000000 0.678950 0.697719
0.000000 0.683467 0.700496
0.000000 0.703334 0.713985
0.394507 0.729213 0.733181
0.780758 0.772580 0.766323
