20 Preset/Cyan-Style/【3】LUT video cho PR-AE-FCPX/Tone  (2).cube
# Created by Adobe Lightroom plugin Export LUT (1.24.0)
# www.johnrellis.com/lightroom/exportlut.htm
# Preset: - 123PRESETS Orange and Teal V1
# Color profile: E:\lut插件\exportlut.1.24\exportlut.lrplugin\color profiles\Rec709gamma2.4.icc
LUT_3D_SIZE 5
DOMAIN_MIN 0.000000 0.000000 0.000000
DOMAIN_MAX 0.903226 0.903226 0.903226
0.064393 0.078340 0.045624
0.231754 0.123873 0.072969
0.666255 0.240696 0.063935
0.876463 0.480995 0.198672
0.945220 0.610224 0.387793
0.083955 0.135653 0.098573
0.231907 0.165713 0.105409
0.646601 0.282902 0.123262
0.859861 0.485237 0.220340
0.942748 0.623957 0.417762
0.012116 0.315160 0.208499
0.256687 0.333349 0.212558
0.663142 0.453620 0.268589
0.841428 0.557671 0.345037
0.923735 0.649775 0.476753
0.212253 0.595026 0.441169
0.386572 0.599878 0.443275
0.623743 0.615900 0.469551
0.814786 0.654139 0.508568
0.904479 0.710872 0.595880
0.484230 0.763485 0.666224
0.550317 0.762570 0.668238
0.670314 0.748867 0.654688
0.785824 0.769253 0.684779
0.895293 0.787167 0.718532
0.020294 0.101442 0.108125
0.187411 0.137301 0.124056
0.581903 0.261021 0.160861
0.827481 0.456947 0.236698
0.921416 0.594110 0.383551
0.040558 0.154665 0.141024
0.202640 0.191806 0.155276
0.583276 0.302373 0.190768
0.822049 0.472114 0.257206
0.919066 0.604059 0.403052
0.000000 0.340002 0.258793
0.244266 0.359991 0.258030
0.608026 0.434607 0.288884
0.813260 0.542412 0.353094
0.912291 0.648768 0.488441
0.178439 0.604517 0.476173
0.371496 0.609857 0.476814
0.620050 0.623499 0.495521
0.805020 0.657343 0.527123
0.898070 0.712276 0.605005
0.455573 0.766049 0.676844
0.528588 0.764431 0.676905
0.676326 0.764431 0.682155
0.786740 0.777676 0.702815
0.896269 0.795773 0.734615
0.000000 0.160830 0.242710
0.000000 0.184512 0.266514
0.550774 0.334386 0.333898
0.790951 0.513176 0.390082
0.893858 0.624933 0.489784
0.000000 0.218753 0.290715
0.000000 0.243534 0.305241
0.546777 0.381811 0.354040
0.784665 0.527733 0.408301
0.892302 0.635767 0.507652
0.000000 0.384741 0.393896
0.000000 0.417792 0.405768
0.564141 0.510460 0.445838
0.776486 0.586572 0.481300
0.886290 0.667262 0.557549
0.000000 0.633082 0.575097
0.216526 0.634913 0.573053
0.592309 0.649134 0.569665
0.775631 0.676936 0.597101
0.878416 0.719997 0.639033
0.000000 0.773312 0.713619
0.344427 0.772274 0.711543
0.629847 0.770657 0.710384
0.765103 0.775570 0.720363
0.883452 0.794919 0.742123
0.000000 0.267155 0.477943
0.000000 0.288396 0.497017
0.279423 0.378759 0.545586
0.752895 0.570581 0.576806
0.849454 0.675654 0.623651
0.000000 0.312444 0.504540
0.000000 0.331884 0.514305
0.306096 0.417273 0.551476
0.743893 0.578424 0.576135
0.846098 0.676875 0.624628
0.000000 0.439094 0.557824
0.000000 0.458442 0.562493
0.375647 0.533837 0.588434
0.720974 0.634272 0.611627
0.846281 0.700099 0.652735
0.000000 0.618738 0.649226
0.000000 0.626154 0.649775
0.459846 0.662165 0.664485
0.730892 0.709163 0.687556
0.856626 0.741695 0.699672
0.000000 0.758022 0.749355
0.000000 0.763668 0.752773
0.378882 0.786374 0.769467
0.732570 0.795315 0.768063
0.865629 0.807309 0.775723
0.000000 0.423377 0.709255
0.000000 0.435401 0.712062
0.000000 0.500145 0.724239
0.675532 0.658320 0.747463
0.837522 0.732143 0.758206
0.000000 0.442908 0.711147
0.000000 0.455604 0.713954
0.000000 0.516411 0.724727
0.670954 0.661280 0.746883
0.835752 0.735195 0.759457
0.000000 0.506706 0.727657
0.000000 0.517479 0.728511
0.000000 0.569207 0.735531
0.633448 0.661646 0.752926
0.832303 0.750668 0.769192
0.000000 0.616144 0.761837
0.000000 0.621057 0.761257
0.000000 0.646021 0.764065
0.594141 0.710597 0.779446
0.827024 0.784634 0.794339
0.000000 0.730251 0.807004
0.000000 0.735073 0.807797
0.000000 0.756680 0.815824
0.585809 0.790616 0.822171
0.830472 0.836942 0.839933
