20 Preset/Cyan-Style/【3】LUT video cho PR-AE-FCPX/Tone  (1).cube
# Created by Adobe Lightroom plugin Export LUT (1.24.0)
# www.johnrellis.com/lightroom/exportlut.htm
# Preset: - 123PRESETS Orange and Teal V3
# Color profile: E:\lut插件\exportlut.1.24\exportlut.lrplugin\color profiles\Rec709gamma2.4.icc
LUT_3D_SIZE 8
DOMAIN_MIN 0.000000 0.000000 0.000000
DOMAIN_MAX 0.903226 0.903226 0.903226
0.064393 0.078340 0.045624
0.094453 0.082704 0.046021
0.156100 0.102663 0.057740
0.263981 0.123018 0.063203
0.465614 0.150759 0.053498
0.653834 0.210269 0.025879
0.776638 0.307256 0.015930
0.861357 0.414862 0.102113
0.059083 0.084962 0.047669
0.096223 0.090761 0.051637
0.149447 0.105592 0.062776
0.246220 0.124178 0.068757
0.416999 0.149386 0.066377
0.596796 0.190707 0.046571
0.737697 0.274998 0.026184
0.842374 0.390356 0.086305
0.082002 0.111666 0.081086
0.096407 0.112795 0.084596
0.155703 0.124147 0.085512
0.260685 0.143954 0.088289
0.436347 0.174746 0.089784
0.615076 0.222385 0.084260
0.768460 0.325597 0.088991
0.859617 0.433234 0.137179
0.089113 0.154513 0.109071
0.107301 0.155154 0.111513
0.160250 0.168795 0.110842
0.311437 0.193606 0.112459
0.502495 0.235752 0.120241
0.657404 0.289372 0.123201
0.776638 0.371893 0.136263
0.857939 0.461158 0.180972
0.058656 0.222873 0.147463
0.103578 0.225864 0.151095
0.173617 0.230747 0.163272
0.322454 0.269444 0.153658
0.490394 0.283909 0.149386
0.640650 0.328588 0.157321
0.761440 0.402472 0.176547
0.849790 0.489479 0.227420
0.000000 0.331701 0.210910
0.019837 0.343511 0.220188
0.211124 0.346105 0.233616
0.318273 0.374884 0.238163
0.522454 0.399054 0.218784
0.668086 0.417029 0.217288
0.778378 0.479408 0.249973
0.854856 0.547112 0.310063
0.000000 0.479438 0.309972
0.000000 0.483986 0.315831
0.240452 0.484413 0.330114
0.363561 0.480018 0.344549
0.538018 0.531212 0.334813
0.689265 0.537926 0.324224
0.784787 0.551751 0.332433
0.850919 0.592889 0.383185
0.000000 0.641138 0.464576
0.120150 0.641352 0.467414
0.325658 0.644343 0.483131
0.485451 0.641840 0.507683
0.551659 0.629023 0.491096
0.721736 0.671687 0.499153
0.805112 0.671534 0.505364
0.866270 0.676631 0.518090
0.062287 0.078340 0.053559
0.091432 0.087892 0.057435
0.142153 0.105135 0.070497
0.232395 0.126040 0.081819
0.396490 0.152346 0.084016
0.571313 0.188632 0.076814
0.715450 0.261997 0.060029
0.825742 0.371221 0.089448
0.052033 0.091249 0.062867
0.092592 0.096193 0.068971
0.140810 0.109895 0.078431
0.231449 0.129122 0.084321
0.386572 0.154665 0.087526
0.556634 0.188144 0.081636
0.698024 0.252842 0.067811
0.812192 0.357031 0.084565
0.084504 0.115694 0.088502
0.098756 0.117830 0.090791
0.150362 0.126955 0.091951
0.247898 0.146548 0.095277
0.392920 0.171756 0.097536
0.561913 0.208438 0.096681
0.711360 0.280797 0.095094
0.826108 0.390295 0.117769
0.088045 0.152956 0.110048
0.103365 0.155001 0.112245
0.152560 0.166842 0.114656
0.274205 0.181918 0.113191
0.425727 0.210269 0.117891
0.581231 0.250034 0.120089
0.718654 0.318700 0.125521
0.825132 0.416571 0.153048
0.046967 0.223331 0.149935
0.097963 0.225345 0.152499
0.168704 0.227970 0.161563
0.299046 0.256779 0.152255
0.449256 0.265171 0.146487
0.600427 0.305272 0.153445
0.732387 0.375341 0.168765
0.831357 0.464637 0.208347
0.000000 0.320043 0.205844
0.006714 0.323156 0.209171
0.200107 0.328038 0.224155
0.296147 0.353948 0.230533
0.496681 0.382513 0.213291
0.650660 0.404547 0.214542
0.764797 0.465705 0.242985
0.844358 0.532799 0.295140
0.000000 0.459205 0.295415
0.000000 0.457710 0.295903
0.204471 0.459480 0.308537
0.338323 0.458442 0.324437
0.513939 0.514122 0.323430
0.672175 0.522118 0.311559
0.769711 0.533288 0.313634
0.838621 0.573785 0.356970
0.000000 0.624750 0.444465
0.000000 0.628290 0.451362
0.286687 0.631006 0.466041
0.467842 0.630091 0.493690
0.563317 0.640040 0.510887
0.721736 0.676143 0.508659
0.802487 0.669947 0.504448
0.863951 0.674281 0.515557
0.038117 0.095369 0.091035
0.074311 0.100008 0.093019
0.137148 0.116152 0.099580
0.238132 0.144259 0.106935
0.411566 0.179507 0.116823
0.583917 0.225467 0.123934
0.727810 0.304204 0.131868
0.833585 0.408179 0.157992
0.059968 0.105348 0.095460
0.084718 0.108675 0.097078
0.137179 0.123171 0.103059
0.233402 0.147219 0.108949
0.393103 0.179355 0.117433
0.565240 0.221988 0.124025
0.711849 0.293797 0.129854
0.823667 0.396979 0.152224
0.066529 0.128267 0.108522
0.088991 0.131991 0.110597
0.147005 0.143801 0.115633
0.251286 0.167788 0.122286
0.408911 0.200381 0.130007
0.576715 0.243259 0.135653
0.718807 0.315038 0.143862
0.826474 0.414191 0.169650
0.043885 0.171572 0.131350
0.083131 0.175723 0.132601
0.158572 0.186526 0.144869
0.284184 0.206851 0.143160
0.440528 0.239475 0.151827
0.596643 0.284062 0.158785
0.731044 0.355047 0.170871
0.830503 0.445472 0.202792
0.000000 0.245701 0.171633
0.017395 0.248325 0.174075
0.177798 0.258152 0.188510
0.303166 0.287755 0.189059
0.464027 0.294469 0.180484
0.608789 0.332647 0.188571
0.734371 0.398444 0.205722
0.831327 0.482582 0.246525
0.000000 0.338506 0.225528
0.000000 0.342260 0.229068
0.177157 0.352056 0.242679
0.297154 0.359106 0.259464
0.488960 0.395575 0.241367
0.641779 0.415045 0.241123
0.758267 0.475319 0.270695
0.841703 0.543969 0.325231
0.000000 0.480537 0.319982
0.000000 0.479622 0.320592
0.163668 0.481361 0.329778
0.349065 0.479591 0.347845
0.498787 0.519890 0.352361
0.669764 0.535180 0.341588
0.771145 0.549401 0.347204
0.841428 0.591669 0.394812
0.000000 0.632776 0.457649
0.000000 0.631800 0.458320
0.220493 0.634150 0.470985
0.459388 0.640192 0.508659
0.559869 0.638148 0.527581
0.714748 0.685298 0.530938
0.800473 0.678920 0.527672
0.862821 0.682521 0.536370
0.012390 0.113771 0.121492
0.029023 0.117617 0.125063
0.110353 0.128603 0.135561
0.234043 0.164279 0.150759
0.395270 0.214817 0.165591
0.562646 0.255436 0.171603
0.703120 0.322148 0.183322
0.813107 0.416999 0.211398
0.016999 0.124453 0.130251
0.034272 0.127352 0.132570
0.114931 0.137972 0.141970
0.241947 0.174380 0.156985
0.401709 0.222171 0.171023
0.562615 0.260136 0.174929
0.701045 0.324681 0.185794
0.811765 0.418494 0.213504
0.002960 0.147982 0.144839
0.028687 0.150912 0.147158
0.121279 0.163699 0.155398
0.239872 0.202274 0.171206
0.406683 0.240024 0.182467
0.579614 0.289067 0.193820
0.726864 0.367803 0.215152
0.825895 0.452369 0.243595
0.000000 0.196567 0.176181
0.000000 0.200778 0.178225
0.118868 0.220371 0.187869
0.273960 0.244450 0.197513
0.424720 0.274662 0.203708
0.580713 0.318181 0.213107
0.718654 0.384558 0.229526
0.822507 0.468849 0.261967
0.000000 0.283940 0.225071
0.000000 0.286656 0.225467
0.102907 0.302617 0.229770
0.294621 0.321141 0.257755
0.473396 0.342748 0.243992
0.616541 0.379919 0.253361
0.737362 0.439918 0.272007
0.828946 0.510735 0.308873
0.000000 0.386603 0.278202
0.000000 0.398047 0.285313
0.059022 0.405127 0.293400
0.334722 0.416541 0.322637
0.503502 0.447822 0.316411
0.644465 0.454139 0.304784
0.755306 0.504601 0.330480
0.837675 0.565270 0.379095
0.000000 0.509911 0.359136
0.000000 0.512871 0.362585
0.000000 0.520195 0.374578
0.350683 0.530877 0.403326
0.492775 0.541436 0.420539
0.670832 0.567224 0.406012
0.768185 0.572290 0.400946
0.838987 0.611200 0.443549
0.000000 0.657618 0.494087
0.000000 0.657832 0.496071
0.000000 0.659327 0.505669
0.400824 0.662959 0.530663
0.559686 0.657221 0.553399
0.690883 0.692348 0.567102
0.794064 0.692317 0.564080
0.860075 0.697139 0.572595
0.000000 0.142611 0.174807
0.000000 0.145785 0.179110
0.000000 0.155398 0.191135
0.206973 0.198306 0.220127
0.390051 0.244175 0.236637
0.548425 0.313787 0.250187
0.690974 0.369696 0.259892
0.801907 0.453895 0.290532
0.000000 0.152712 0.184360
0.000000 0.155795 0.188510
0.000000 0.166537 0.201724
0.212314 0.206577 0.225986
0.392248 0.251286 0.240116
0.550744 0.318669 0.253788
0.691402 0.373571 0.262852
0.801633 0.456489 0.293187
0.000000 0.181186 0.207431
0.000000 0.184268 0.210727
0.000000 0.195254 0.220615
0.212558 0.223972 0.238041
0.386633 0.271946 0.246738
0.540093 0.324804 0.256809
0.685298 0.381689 0.269810
0.795926 0.458747 0.296208
0.000000 0.224887 0.235386
0.000000 0.228336 0.237552
0.000000 0.244297 0.247868
0.221805 0.276890 0.266178
0.402380 0.328405 0.281132
0.560693 0.363439 0.284825
0.697475 0.417700 0.298283
0.803555 0.487373 0.323369
0.000000 0.298924 0.278386
0.000000 0.303563 0.281102
0.000000 0.321324 0.289647
0.228305 0.357000 0.306188
0.434119 0.377020 0.311406
0.579095 0.405890 0.314366
0.708949 0.456397 0.327550
0.810269 0.519890 0.355291
0.000000 0.389868 0.324773
0.000000 0.393835 0.326452
0.000000 0.402441 0.327245
0.203098 0.424140 0.333684
0.422431 0.442420 0.365026
0.611933 0.473030 0.361242
0.734646 0.521843 0.385748
0.822812 0.575311 0.422339
0.000000 0.522148 0.410864
0.000000 0.521813 0.408728
0.000000 0.526604 0.406622
0.143404 0.544640 0.420996
0.478859 0.554528 0.462409
0.641932 0.583124 0.459846
0.748714 0.582727 0.444343
0.824369 0.615961 0.473243
0.000000 0.648035 0.503685
0.000000 0.649256 0.503807
0.000000 0.655299 0.506493
0.000000 0.668788 0.534356
0.508537 0.673335 0.570947
0.641627 0.681544 0.594263
0.774960 0.697993 0.591028
0.846677 0.698634 0.589227
0.000000 0.192935 0.272251
0.000000 0.196780 0.277928
0.000000 0.206119 0.289525
0.058473 0.228244 0.314092
0.373297 0.314153 0.349096
0.563470 0.358801 0.355688
0.679408 0.448554 0.376562
0.790127 0.514488 0.403937
0.000000 0.194827 0.266697
0.000000 0.196689 0.269017
0.000000 0.205142 0.279393
0.077089 0.225101 0.300481
0.358831 0.306065 0.335882
0.548852 0.351995 0.345586
0.670314 0.440406 0.368475
0.784482 0.507286 0.395605
0.000000 0.228794 0.298802
0.000000 0.230289 0.300359
0.000000 0.240177 0.309331
0.091981 0.257023 0.320348
0.371069 0.330419 0.350805
0.553735 0.376501 0.358740
0.676692 0.456764 0.382300
0.786526 0.519646 0.408850
0.000000 0.278325 0.333074
0.000000 0.280125 0.333562
0.000000 0.293736 0.342687
0.093782 0.326665 0.367102
0.405493 0.389593 0.396582
0.573388 0.442847 0.405219
0.696773 0.497536 0.419623
0.796567 0.550896 0.443488
0.000000 0.335729 0.359442
0.000000 0.338872 0.360967
0.000000 0.353368 0.369177
0.000000 0.384222 0.386725
0.378851 0.425971 0.409827
0.564630 0.475532 0.422400
0.694514 0.512108 0.428565
0.796384 0.560845 0.448829
0.000000 0.422126 0.404883
0.000000 0.429145 0.410285
0.000000 0.441657 0.416388
0.000000 0.466438 0.428656
0.368780 0.503593 0.449134
0.590661 0.528252 0.463233
0.718441 0.561913 0.473365
0.810788 0.602838 0.493660
0.000000 0.549065 0.491249
0.000000 0.554009 0.495064
0.000000 0.563684 0.499947
0.000000 0.584527 0.512322
0.356512 0.602655 0.520928
0.591943 0.609796 0.550500
0.734279 0.620691 0.530938
0.817166 0.650050 0.551568
0.000000 0.666072 0.578668
0.000000 0.665370 0.576684
0.000000 0.668391 0.575494
0.000000 0.678920 0.578973
0.240970 0.690242 0.585199
0.615167 0.691554 0.629908
0.749996 0.715084 0.641077
0.831937 0.711635 0.629053
0.000000 0.244846 0.372168
0.000000 0.247929 0.376776
0.000000 0.256168 0.386267
0.000000 0.276738 0.407202
0.230076 0.309850 0.435004
0.535302 0.434058 0.478920
0.682277 0.478096 0.479316
0.749203 0.556878 0.498482
0.000000 0.246677 0.368658
0.000000 0.250126 0.373632
0.000000 0.258274 0.382788
0.000000 0.276677 0.400580
0.225864 0.308598 0.427222
0.524071 0.426551 0.468147
0.671839 0.468269 0.467506
0.743435 0.548486 0.488350
0.000000 0.274693 0.392554
0.000000 0.276768 0.394385
0.000000 0.284306 0.401312
0.000000 0.303868 0.416968
0.233738 0.335698 0.439704
0.530205 0.447150 0.479713
0.676631 0.489937 0.482246
0.751064 0.565606 0.506950
0.000000 0.323186 0.427527
0.000000 0.323766 0.427008
0.000000 0.332219 0.432013
0.000000 0.354772 0.447395
0.243717 0.389105 0.468513
0.545373 0.488685 0.507164
0.683650 0.525444 0.508019
0.759609 0.587121 0.529656
0.000000 0.378454 0.454688
0.000000 0.378912 0.453803
0.000000 0.387091 0.457649
0.000000 0.407477 0.470100
0.211582 0.442542 0.490120
0.536828 0.512566 0.521172
0.675227 0.560510 0.530663
0.769039 0.611292 0.554742
0.000000 0.457435 0.495705
0.000000 0.460212 0.497322
0.000000 0.470375 0.502953
0.000000 0.490517 0.514397
0.127291 0.520348 0.531609
0.516625 0.564813 0.561517
0.685634 0.614893 0.580072
0.781003 0.643275 0.588830
0.000000 0.559350 0.555261
0.000000 0.562707 0.557733
0.000000 0.570977 0.562066
0.000000 0.587701 0.572137
0.020294 0.610437 0.586755
0.514427 0.641535 0.610071
0.700710 0.660487 0.623590
0.795926 0.679347 0.625299
0.000000 0.667628 0.634302
0.000000 0.669642 0.635767
0.000000 0.680140 0.644282
0.000000 0.692439 0.652216
0.000000 0.709163 0.664240
0.470466 0.720912 0.672084
0.697078 0.723964 0.699031
0.813413 0.736385 0.689021
0.000000 0.333928 0.521355
0.000000 0.336797 0.524163
0.000000 0.343114 0.528496
0.000000 0.362829 0.543114
0.000000 0.395331 0.563592
0.481605 0.483314 0.594812
0.684718 0.586419 0.638117
0.772671 0.624079 0.636713
0.000000 0.334386 0.517540
0.000000 0.337316 0.520592
0.000000 0.344915 0.526452
0.000000 0.363714 0.539940
0.000000 0.395453 0.560449
0.474006 0.479469 0.591669
0.681849 0.584649 0.635309
0.770962 0.622553 0.634333
0.000000 0.353002 0.526452
0.000000 0.355200 0.528191
0.000000 0.362066 0.532799
0.000000 0.384619 0.550042
0.000000 0.414984 0.567559
0.457374 0.479438 0.595056
0.681270 0.594476 0.640406
0.769711 0.629206 0.638514
0.000000 0.385748 0.542809
0.000000 0.388464 0.545006
0.000000 0.396429 0.550164
0.000000 0.417090 0.563226
0.000000 0.449134 0.581598
0.435157 0.493294 0.607019
0.682704 0.616327 0.654597
0.769253 0.644068 0.649989
0.000000 0.431586 0.564538
0.000000 0.433875 0.566461
0.000000 0.437720 0.568536
0.000000 0.455634 0.578973
0.000000 0.487129 0.595941
0.404395 0.531456 0.621729
0.679255 0.639765 0.669459
0.768093 0.662165 0.663813
0.000000 0.501488 0.597589
0.000000 0.501183 0.596918
0.000000 0.503563 0.597040
0.000000 0.514061 0.602960
0.000000 0.535424 0.616876
0.334691 0.581933 0.648280
0.670130 0.660487 0.687129
0.768368 0.692470 0.690181
0.000000 0.589166 0.644160
0.000000 0.589899 0.644404
0.000000 0.594049 0.645960
0.000000 0.605371 0.652735
0.000000 0.624231 0.665187
0.247318 0.649775 0.685176
0.627436 0.683864 0.705379
0.764553 0.727321 0.720485
0.000000 0.678950 0.697719
0.000000 0.679774 0.698146
0.000000 0.685603 0.701930
0.000000 0.697353 0.710231
0.000000 0.709499 0.718196
0.258824 0.724208 0.729397
0.623285 0.749416 0.748623
0.780758 0.772580 0.766323
