20 Preset/Cyan-Style/【3】LUT video cho PR-AE-FCPX/Tone  (2).cube
# Created by Adobe Lightroom plugin Export LUT (1.24.0)
# www.johnrellis.com/lightroom/exportlut.htm
# Preset: - 123PRESETS Orange and Teal V1
# Color profile: E:\lut插件\exportlut.1.24\exportlut.lrplugin\color profiles\Rec709gamma2.4.icc
LUT_3D_SIZE 8
DOMAIN_MIN 0.000000 0.000000 0.000000
DOMAIN_MAX 0.903226 0.903226 0.903226
0.064393 0.078340 0.045624
0.119814 0.096651 0.056855
0.282048 0.133333 0.074159
0.521294 0.178866 0.069947
0.765560 0.324559 0.088411
0.861936 0.455940 0.172305
0.909819 0.541344 0.275395
0.945220 0.610224 0.387793
0.075868 0.100008 0.066896
0.121401 0.108919 0.074006
0.264622 0.140719 0.085176
0.486366 0.182986 0.087282
0.720516 0.295598 0.096376
0.834592 0.422950 0.151797
0.893065 0.517082 0.245212
0.935882 0.595209 0.361975
0.085725 0.151858 0.108400
0.126467 0.157473 0.109316
0.277348 0.189822 0.116609
0.519799 0.246586 0.127443
0.726589 0.350774 0.149355
0.835416 0.461311 0.204623
0.899504 0.555718 0.309697
0.939422 0.623255 0.417914
0.067872 0.254429 0.170626
0.140871 0.258305 0.169711
0.271489 0.278386 0.179538
0.568933 0.368017 0.209201
0.755001 0.461555 0.250767
0.839384 0.529870 0.302159
0.892424 0.589441 0.375586
0.931334 0.642878 0.460761
0.000000 0.395941 0.262364
0.144564 0.401251 0.262821
0.331029 0.419806 0.271305
0.522728 0.471199 0.302953
0.720455 0.517906 0.325750
0.814878 0.564691 0.366278
0.872862 0.613184 0.426673
0.917754 0.663447 0.504753
0.139620 0.550042 0.392615
0.233982 0.561395 0.402625
0.387182 0.568627 0.395850
0.551659 0.577752 0.421790
0.689021 0.609766 0.443641
0.801450 0.631617 0.473335
0.863310 0.664973 0.522026
0.907988 0.703304 0.581750
0.326085 0.672969 0.536034
0.367224 0.674922 0.538415
0.477638 0.674281 0.537377
0.593103 0.673793 0.540215
0.681605 0.679347 0.556085
0.773312 0.698817 0.574884
0.847745 0.711788 0.601160
0.895140 0.734951 0.638422
0.484230 0.763485 0.666224
0.503349 0.763088 0.666377
0.570733 0.762631 0.669703
0.646387 0.764614 0.671687
0.705226 0.750881 0.662470
0.766873 0.762997 0.680720
0.839170 0.779355 0.698756
0.895293 0.787167 0.718532
0.048981 0.089509 0.078187
0.110689 0.101656 0.083680
0.243137 0.137667 0.094972
0.454810 0.186282 0.107546
0.696345 0.289830 0.123568
0.818997 0.411780 0.164981
0.882048 0.505760 0.243565
0.927398 0.583215 0.347845
0.061646 0.104128 0.089082
0.112825 0.116091 0.093294
0.239628 0.148928 0.103456
0.451942 0.195407 0.113924
0.683803 0.290410 0.129122
0.809781 0.406867 0.165927
0.874022 0.497108 0.235691
0.920958 0.574304 0.334356
0.086732 0.160464 0.123903
0.126467 0.166476 0.123445
0.261021 0.194278 0.131655
0.483833 0.247074 0.144564
0.682338 0.328618 0.160769
0.806271 0.433478 0.199252
0.874418 0.521294 0.273838
0.923064 0.596674 0.376318
0.053376 0.249546 0.177218
0.132143 0.254307 0.175937
0.261509 0.274510 0.185428
0.508812 0.335149 0.202365
0.697200 0.408087 0.225681
0.803922 0.485084 0.263890
0.868132 0.552300 0.327855
0.915709 0.615320 0.415564
0.000000 0.395300 0.271061
0.131380 0.398199 0.269291
0.314122 0.411536 0.270848
0.492866 0.450477 0.294347
0.690791 0.491096 0.308324
0.796292 0.542779 0.344976
0.860258 0.595636 0.404028
0.908476 0.648066 0.480354
0.080537 0.536309 0.385718
0.191775 0.538903 0.386023
0.368688 0.547387 0.386175
0.529534 0.560052 0.406409
0.672633 0.595575 0.430945
0.793088 0.623224 0.464698
0.856687 0.656855 0.511376
0.902403 0.694148 0.567285
0.283574 0.659663 0.521935
0.320348 0.657557 0.518456
0.442664 0.657069 0.516075
0.571221 0.659205 0.520165
0.670222 0.669184 0.542870
0.765255 0.689540 0.561852
0.840391 0.700679 0.584314
0.888457 0.723018 0.619501
0.452033 0.755154 0.653956
0.478157 0.756283 0.656764
0.551202 0.755489 0.659205
0.634730 0.757748 0.662043
0.710597 0.758083 0.675105
0.767117 0.765072 0.685908
0.837156 0.778164 0.697932
0.893645 0.785672 0.716854
0.004089 0.107362 0.121736
0.061402 0.116854 0.127382
0.226749 0.155459 0.143587
0.455909 0.229374 0.166384
0.695460 0.342107 0.203464
0.812375 0.453620 0.253147
0.876432 0.538506 0.324956
0.922850 0.608118 0.414618
0.023865 0.127321 0.133608
0.083833 0.135561 0.138277
0.227298 0.173312 0.151431
0.446876 0.238346 0.172885
0.675624 0.336248 0.203220
0.801480 0.445991 0.249454
0.869383 0.530053 0.314977
0.918059 0.601251 0.403388
0.000000 0.178256 0.166232
0.094026 0.189334 0.170748
0.246067 0.227970 0.185031
0.473060 0.290684 0.208499
0.682368 0.379309 0.237156
0.801480 0.472419 0.278599
0.867643 0.547417 0.342138
0.915953 0.613092 0.425940
0.000000 0.288090 0.237095
0.024567 0.297002 0.240085
0.276432 0.323766 0.243503
0.510643 0.378119 0.268223
0.695247 0.448707 0.295995
0.799924 0.517845 0.334295
0.863951 0.578576 0.392462
0.911528 0.634272 0.465888
0.000000 0.430823 0.334020
0.000000 0.434699 0.332647
0.315587 0.450233 0.331670
0.496986 0.477668 0.353735
0.689662 0.522179 0.370092
0.790219 0.564782 0.399603
0.853391 0.610986 0.447822
0.903044 0.659968 0.513909
0.000000 0.555383 0.432990
0.157595 0.558251 0.433326
0.360632 0.564630 0.431617
0.529503 0.572534 0.440528
0.661402 0.602411 0.462104
0.782376 0.629328 0.491402
0.848142 0.662959 0.534447
0.897154 0.701564 0.588739
0.266728 0.673823 0.559228
0.308202 0.672236 0.555810
0.432898 0.669734 0.549706
0.564477 0.670466 0.545647
0.667689 0.675990 0.565087
0.759670 0.696223 0.584192
0.837064 0.710292 0.608820
0.887327 0.734096 0.643732
0.421180 0.760128 0.669734
0.443641 0.758907 0.668208
0.526482 0.757626 0.668818
0.633509 0.760983 0.680232
0.707149 0.760952 0.684810
0.764401 0.768521 0.697444
0.835111 0.782895 0.709377
0.892363 0.790402 0.727138
0.000000 0.138796 0.191714
0.000000 0.146395 0.200320
0.132967 0.174472 0.225559
0.435554 0.259281 0.256352
0.657923 0.384466 0.294896
0.785031 0.475319 0.329625
0.853147 0.549523 0.383734
0.903075 0.614771 0.456764
0.000000 0.160769 0.212131
0.000000 0.167300 0.218265
0.147463 0.196292 0.239322
0.448096 0.282078 0.269383
0.661646 0.397681 0.306126
0.783322 0.480659 0.336004
0.851072 0.551629 0.387396
0.901671 0.615961 0.459083
0.000000 0.210361 0.245640
0.000000 0.219089 0.250858
0.173892 0.255161 0.267613
0.437720 0.343694 0.298436
0.658717 0.428626 0.332067
0.784360 0.513115 0.374273
0.855009 0.584619 0.436957
0.904265 0.638178 0.496681
0.000000 0.306554 0.308507
0.000000 0.317479 0.313603
0.209689 0.364477 0.332555
0.477760 0.426215 0.359777
0.661280 0.482612 0.380652
0.774075 0.542901 0.411963
0.844663 0.598016 0.457771
0.897734 0.649928 0.516777
0.000000 0.466560 0.414862
0.000000 0.475257 0.419318
0.256901 0.505821 0.436286
0.510338 0.528313 0.442390
0.677485 0.563409 0.461219
0.776608 0.598627 0.482490
0.841459 0.637324 0.516808
0.893217 0.678340 0.564324
0.000000 0.600061 0.524590
0.000000 0.609369 0.534112
0.345892 0.611261 0.527428
0.538781 0.619226 0.524163
0.659724 0.634546 0.538994
0.770565 0.652827 0.553307
0.836637 0.680873 0.583368
0.889006 0.715023 0.624353
0.151034 0.692866 0.614649
0.236332 0.693599 0.614588
0.403845 0.694026 0.610925
0.565881 0.695766 0.610407
0.671534 0.697536 0.616815
0.752499 0.712428 0.628534
0.829526 0.723384 0.643061
0.882383 0.745632 0.671107
0.341009 0.775204 0.706783
0.376165 0.774502 0.705806
0.484138 0.772457 0.703853
0.606806 0.771542 0.704738
0.696407 0.771420 0.705287
0.759670 0.775540 0.715480
0.829496 0.789517 0.726497
0.889891 0.798611 0.744472
0.000000 0.186160 0.302373
0.000000 0.192813 0.310918
0.000000 0.216892 0.333379
0.350378 0.317021 0.388190
0.636164 0.410376 0.411017
0.752010 0.521721 0.440223
0.828641 0.580804 0.473396
0.883421 0.638483 0.528283
0.000000 0.205509 0.321447
0.000000 0.212070 0.329656
0.000000 0.237186 0.350134
0.360204 0.333776 0.398047
0.636072 0.421607 0.416205
0.751522 0.526909 0.445533
0.827634 0.584039 0.477821
0.882628 0.640284 0.531090
0.000000 0.258824 0.360510
0.000000 0.267002 0.367071
0.000000 0.298314 0.386877
0.357885 0.366888 0.417090
0.622889 0.453285 0.426551
0.740902 0.534051 0.452186
0.821164 0.590784 0.487190
0.877836 0.642329 0.534173
0.000000 0.344274 0.412909
0.000000 0.352575 0.416358
0.000000 0.390051 0.432624
0.389502 0.454322 0.458656
0.618738 0.528008 0.479164
0.742092 0.573114 0.494942
0.818662 0.618067 0.523766
0.877012 0.661616 0.562585
0.000000 0.463874 0.477729
0.000000 0.471626 0.481270
0.000000 0.499947 0.491676
0.439734 0.547570 0.512016
0.630915 0.582483 0.527398
0.740719 0.611536 0.537407
0.815488 0.646357 0.560082
0.874998 0.683925 0.594415
0.000000 0.570184 0.535943
0.000000 0.575952 0.539818
0.154818 0.593835 0.550286
0.446693 0.620661 0.569085
0.622583 0.632227 0.570245
0.741909 0.661707 0.594934
0.816434 0.690211 0.619562
0.874937 0.720363 0.648035
0.000000 0.695918 0.650874
0.000000 0.696803 0.650813
0.168765 0.699672 0.651148
0.475715 0.704524 0.651728
0.645014 0.708339 0.649683
0.729732 0.717067 0.658289
0.812833 0.728237 0.666407
0.870207 0.747463 0.684840
0.000000 0.776699 0.726558
0.000000 0.776211 0.726131
0.177005 0.775113 0.725978
0.506218 0.776181 0.726436
0.659907 0.776242 0.725307
0.744015 0.777707 0.729030
0.813901 0.790249 0.737453
0.879973 0.798489 0.751064
0.000000 0.256443 0.456611
0.000000 0.263859 0.466194
0.000000 0.290288 0.487678
0.000000 0.346807 0.520165
0.576318 0.494575 0.559564
0.742977 0.553185 0.558099
0.799466 0.630945 0.582452
0.859983 0.675685 0.616236
0.000000 0.265476 0.455879
0.000000 0.270603 0.460212
0.000000 0.293492 0.475990
0.000000 0.344823 0.503838
0.562951 0.485420 0.545342
0.735134 0.546502 0.548272
0.795438 0.625422 0.574792
0.856962 0.671351 0.609979
0.000000 0.325963 0.501305
0.000000 0.331121 0.503502
0.000000 0.356573 0.515099
0.120058 0.399969 0.527214
0.571069 0.516136 0.560143
0.731563 0.569726 0.561364
0.794095 0.637690 0.589288
0.856107 0.679591 0.620905
0.000000 0.410498 0.542992
0.000000 0.415564 0.543572
0.000000 0.443427 0.552911
0.243259 0.497261 0.575952
0.593225 0.576745 0.603357
0.727962 0.625666 0.606744
0.796567 0.666133 0.623987
0.858396 0.699947 0.647883
0.000000 0.494514 0.570520
0.000000 0.499550 0.571832
0.000000 0.521843 0.579156
0.295506 0.561639 0.594476
0.573053 0.609247 0.614069
0.712367 0.652247 0.624842
0.791257 0.677699 0.634638
0.856413 0.707454 0.654139
0.000000 0.588434 0.613153
0.000000 0.594903 0.617762
0.000000 0.607813 0.622126
0.358770 0.630640 0.631525
0.583734 0.663661 0.647333
0.716609 0.689754 0.662684
0.797208 0.710780 0.672084
0.862516 0.734890 0.686732
0.000000 0.682124 0.679988
0.000000 0.685359 0.682490
0.000000 0.692073 0.685206
0.384375 0.709987 0.696925
0.587732 0.732509 0.713191
0.715816 0.736263 0.708614
0.798367 0.747463 0.712093
0.862791 0.765560 0.724300
0.000000 0.764431 0.745724
0.000000 0.764858 0.745357
0.000000 0.769650 0.748074
0.172702 0.781430 0.757443
0.553796 0.786709 0.760525
0.715724 0.787991 0.755398
0.793179 0.795773 0.760311
0.868864 0.804868 0.769558
0.000000 0.330053 0.585626
0.000000 0.335607 0.590143
0.000000 0.354559 0.598749
0.000000 0.400092 0.616693
0.364599 0.460853 0.637751
0.690761 0.609888 0.669398
0.788907 0.646632 0.660609
0.826383 0.697749 0.673671
0.000000 0.335210 0.581994
0.000000 0.341039 0.586816
0.000000 0.359869 0.595483
0.000000 0.401953 0.610681
0.360418 0.460975 0.631281
0.684443 0.604211 0.661738
0.784207 0.640375 0.652430
0.823301 0.693263 0.667659
0.000000 0.379339 0.604974
0.000000 0.383581 0.606714
0.000000 0.401984 0.612329
0.000000 0.442115 0.624628
0.382605 0.496590 0.640620
0.685023 0.621607 0.669581
0.783230 0.655085 0.663478
0.825559 0.703822 0.680323
0.000000 0.448890 0.635798
0.000000 0.451575 0.635096
0.000000 0.468757 0.638331
0.000000 0.506340 0.648585
0.419074 0.554589 0.661433
0.688716 0.653040 0.687617
0.781552 0.678218 0.681270
0.827878 0.717433 0.695766
0.000000 0.519005 0.656245
0.000000 0.520989 0.655512
0.000000 0.534569 0.657527
0.000000 0.562066 0.664881
0.425330 0.602258 0.676173
0.678431 0.669215 0.695491
0.771206 0.700984 0.697017
0.831479 0.733028 0.712490
0.000000 0.597406 0.684810
0.000000 0.600397 0.685756
0.000000 0.611292 0.688746
0.000000 0.630610 0.694697
0.438178 0.658137 0.703426
0.663813 0.700801 0.719448
0.769833 0.735286 0.728450
0.838376 0.754055 0.734463
0.000000 0.673945 0.722286
0.000000 0.676478 0.723629
0.000000 0.683192 0.725490
0.000000 0.696254 0.729915
0.484382 0.716060 0.736324
0.669276 0.744839 0.748257
0.773465 0.765927 0.757717
0.846677 0.779263 0.759213
0.000000 0.743587 0.768765
0.000000 0.745113 0.769467
0.000000 0.752346 0.773800
0.000000 0.761196 0.777005
0.433051 0.775753 0.782376
0.636408 0.802976 0.798764
0.773251 0.808316 0.795102
0.854765 0.818051 0.799649
0.000000 0.423377 0.709255
0.000000 0.427344 0.711086
0.000000 0.440558 0.712886
0.000000 0.475776 0.719936
0.000000 0.527398 0.728206
0.619959 0.628992 0.741207
0.769314 0.709255 0.765499
0.837522 0.732143 0.758206
0.000000 0.425971 0.706538
0.000000 0.429969 0.708400
0.000000 0.444129 0.711360
0.000000 0.478065 0.717769
0.000000 0.528435 0.726162
0.614313 0.625818 0.739193
0.767330 0.708309 0.763729
0.836179 0.731319 0.756710
0.000000 0.449348 0.711910
0.000000 0.452735 0.712795
0.000000 0.466163 0.714870
0.000000 0.501884 0.723354
0.086427 0.547814 0.729763
0.600275 0.624323 0.740841
0.765927 0.714504 0.766476
0.834836 0.735714 0.759274
0.000000 0.486305 0.721767
0.000000 0.490120 0.722896
0.000000 0.504143 0.725032
0.000000 0.535180 0.730556
0.097871 0.577874 0.737362
0.581079 0.631952 0.747127
0.764767 0.728328 0.774441
0.833555 0.745480 0.765957
0.000000 0.532708 0.734188
0.000000 0.535363 0.735134
0.000000 0.543023 0.735653
0.000000 0.568627 0.739590
0.000000 0.606775 0.745327
0.566674 0.657557 0.755093
0.760250 0.744442 0.783719
0.831449 0.757717 0.774197
0.000000 0.595361 0.752346
0.000000 0.596094 0.751705
0.000000 0.601617 0.750942
0.000000 0.615930 0.752499
0.000000 0.639063 0.757473
0.532616 0.687800 0.770626
0.749447 0.756863 0.793210
0.829221 0.778988 0.790372
0.000000 0.663386 0.777798
0.000000 0.664576 0.777646
0.000000 0.670100 0.777707
0.000000 0.682673 0.779812
0.000000 0.700801 0.784085
0.507530 0.731289 0.793362
0.717952 0.770565 0.803586
0.822568 0.804776 0.809903
0.000000 0.730251 0.807004
0.000000 0.731167 0.807034
0.000000 0.737118 0.808438
0.000000 0.749172 0.812833
0.000000 0.763638 0.817288
0.525963 0.783902 0.820645
0.718807 0.813596 0.829435
0.830472 0.836942 0.839933
