20 Preset/Cyan-Style/【3】LUT video cho PR-AE-FCPX/Tone  (3).cube
# Created by Adobe Lightroom plugin Export LUT (1.24.0)
# www.johnrellis.com/lightroom/exportlut.htm
# Preset: - 123PRESETS Orange and Teal V2
# Color profile: E:\lut插件\exportlut.1.24\exportlut.lrplugin\color profiles\Rec709gamma2.4.icc
LUT_3D_SIZE 5
DOMAIN_MIN 0.000000 0.000000 0.000000
DOMAIN_MAX 0.903226 0.903226 0.903226
0.064393 0.078340 0.045624
0.209812 0.115877 0.066560
0.614923 0.185336 0.017090
0.864500 0.414038 0.085756
0.947875 0.559655 0.274662
0.083253 0.128359 0.093080
0.208927 0.147677 0.094820
0.595575 0.224338 0.088472
0.846860 0.417548 0.122499
0.946593 0.574640 0.306981
0.041169 0.278264 0.182071
0.239689 0.271611 0.214023
0.631250 0.378363 0.188449
0.834867 0.495186 0.240635
0.929717 0.602472 0.371832
0.091798 0.552880 0.383368
0.366430 0.546258 0.410620
0.603449 0.591608 0.439124
0.820493 0.603449 0.400305
0.914977 0.669123 0.505058
0.413458 0.748562 0.621088
0.517082 0.742672 0.635370
0.662745 0.708583 0.661128
0.806455 0.765194 0.674678
0.905943 0.759854 0.665370
0.024720 0.101167 0.101564
0.169192 0.129702 0.114992
0.530327 0.214328 0.131441
0.809049 0.387579 0.161257
0.922393 0.542168 0.279362
0.031434 0.148470 0.128206
0.183169 0.172519 0.138521
0.533135 0.248692 0.153109
0.804562 0.403082 0.179324
0.920897 0.552880 0.298955
0.000000 0.301946 0.207004
0.228061 0.312230 0.233127
0.571466 0.364874 0.217075
0.802762 0.478004 0.258000
0.917937 0.601740 0.388769
0.000000 0.566522 0.403143
0.319982 0.567010 0.425666
0.586053 0.592096 0.469856
0.810269 0.607782 0.425574
0.908171 0.671290 0.518334
0.357366 0.752285 0.623743
0.474678 0.748836 0.636286
0.673121 0.730495 0.683711
0.806729 0.775570 0.696925
0.906218 0.770291 0.686641
0.000000 0.157321 0.213596
0.000000 0.173068 0.234257
0.494545 0.294713 0.293675
0.774777 0.456092 0.323766
0.896391 0.578820 0.406989
0.000000 0.208072 0.253910
0.000000 0.223972 0.267094
0.493141 0.338323 0.311437
0.769253 0.471199 0.339696
0.895567 0.590723 0.426093
0.000000 0.362982 0.344732
0.000000 0.389990 0.356420
0.526299 0.457282 0.385809
0.766964 0.533288 0.404700
0.891783 0.624720 0.478218
0.000000 0.598596 0.486854
0.000000 0.601099 0.483589
0.568872 0.604181 0.541009
0.778256 0.634180 0.519066
0.886320 0.683101 0.568750
0.000000 0.761837 0.625910
0.000000 0.760708 0.636042
0.608026 0.752926 0.683894
0.768856 0.774624 0.716884
0.891752 0.770687 0.698390
0.000000 0.261540 0.424414
0.000000 0.275822 0.443671
0.237369 0.338140 0.496468
0.730892 0.529473 0.534142
0.848661 0.644007 0.577111
0.000000 0.301884 0.450874
0.000000 0.314000 0.461555
0.253422 0.374731 0.503349
0.721370 0.538140 0.533227
0.845426 0.644892 0.577417
0.000000 0.421302 0.506493
0.000000 0.435462 0.512200
0.280613 0.496254 0.543175
0.699519 0.600244 0.570764
0.846372 0.670314 0.607874
0.000000 0.612512 0.606165
0.000000 0.618494 0.607721
0.310582 0.649561 0.627497
0.720546 0.682918 0.650660
0.858579 0.715236 0.658473
0.000000 0.777523 0.719295
0.000000 0.778988 0.718593
0.000000 0.782589 0.718868
0.728511 0.777676 0.759335
0.869963 0.787961 0.744900
0.000000 0.430457 0.669734
0.000000 0.436591 0.673701
0.000000 0.478706 0.692164
0.653010 0.630030 0.724147
0.827970 0.716121 0.740627
0.000000 0.448920 0.672297
0.000000 0.456001 0.676448
0.000000 0.496071 0.692988
0.648096 0.633509 0.723507
0.826230 0.719417 0.742153
0.000000 0.516594 0.691859
0.000000 0.522057 0.693751
0.000000 0.556481 0.706050
0.606836 0.634943 0.730770
0.822843 0.736477 0.753445
0.000000 0.631556 0.731930
0.000000 0.633478 0.731868
0.000000 0.648798 0.737819
0.538872 0.695094 0.760830
0.817868 0.773465 0.781888
0.000000 0.754055 0.784329
0.000000 0.757656 0.785763
0.000000 0.775662 0.797391
0.499397 0.794064 0.808469
0.825742 0.827573 0.829160
