20 Preset/Cyan-Style/【3】LUT video cho PR-AE-FCPX/Tone  (3).cube
# Created by Adobe Lightroom plugin Export LUT (1.24.0)
# www.johnrellis.com/lightroom/exportlut.htm
# Preset: - 123PRESETS Orange and Teal V2
# Color profile: E:\lut插件\exportlut.1.24\exportlut.lrplugin\color profiles\Rec709gamma2.4.icc
LUT_3D_SIZE 8
DOMAIN_MIN 0.000000 0.000000 0.000000
DOMAIN_MAX 0.903226 0.903226 0.903226
0.064393 0.078340 0.045624
0.115511 0.093843 0.054902
0.252659 0.122499 0.067170
0.467689 0.149233 0.047883
0.727169 0.252354 0.000000
0.846159 0.385901 0.030304
0.904845 0.482063 0.162905
0.947875 0.559655 0.274662
0.070680 0.098390 0.063142
0.115816 0.104677 0.070710
0.237339 0.128695 0.076997
0.434821 0.154910 0.065431
0.676631 0.229099 0.022461
0.812833 0.350378 0.022736
0.885405 0.454963 0.136995
0.937072 0.542962 0.248722
0.086671 0.141512 0.100954
0.122560 0.139559 0.109560
0.248753 0.165469 0.101228
0.466682 0.202090 0.100557
0.686732 0.279698 0.097230
0.817350 0.390173 0.116335
0.895506 0.497414 0.202121
0.943236 0.573816 0.307500
0.079438 0.226658 0.151522
0.145602 0.224094 0.159060
0.245701 0.250828 0.162692
0.524437 0.300877 0.151553
0.727016 0.384558 0.169406
0.829099 0.464057 0.202426
0.891539 0.533989 0.267796
0.936767 0.595148 0.354406
0.000000 0.350866 0.226169
0.148806 0.350622 0.233951
0.306462 0.344091 0.272557
0.514549 0.428016 0.254917
0.699763 0.444831 0.229038
0.806973 0.500053 0.258091
0.874113 0.558801 0.317571
0.924804 0.617304 0.402991
0.000000 0.503441 0.337560
0.187015 0.512200 0.353277
0.386481 0.503380 0.384375
0.496620 0.528862 0.406683
0.693996 0.572839 0.379980
0.803922 0.577295 0.362371
0.869993 0.615290 0.414954
0.918059 0.660761 0.488899
0.225986 0.641779 0.478706
0.295933 0.641993 0.485878
0.455818 0.632319 0.506615
0.571923 0.613855 0.540887
0.670619 0.664515 0.535058
0.787839 0.672450 0.518029
0.859403 0.670283 0.508476
0.906432 0.696254 0.555627
0.413458 0.748562 0.621088
0.444923 0.746822 0.624353
0.546746 0.740932 0.641596
0.650721 0.732723 0.672419
0.684627 0.720272 0.671534
0.784024 0.764096 0.674556
0.853544 0.762753 0.667597
0.905943 0.759854 0.665370
0.048188 0.089601 0.073701
0.106020 0.099428 0.079561
0.219425 0.127138 0.088685
0.405829 0.160037 0.092836
0.650538 0.227146 0.085512
0.794644 0.338903 0.089021
0.873320 0.442298 0.142214
0.927428 0.529808 0.237522
0.058228 0.103273 0.084535
0.108248 0.111513 0.089235
0.215946 0.135988 0.095583
0.403021 0.166964 0.097139
0.637201 0.228885 0.092988
0.783810 0.333806 0.093874
0.864042 0.432593 0.137209
0.919982 0.519860 0.224918
0.084382 0.148775 0.110018
0.122591 0.151705 0.116518
0.234745 0.170321 0.114443
0.433143 0.205081 0.116487
0.637812 0.262791 0.116274
0.782284 0.360662 0.126253
0.866606 0.458961 0.174472
0.924193 0.544549 0.267704
0.045716 0.224338 0.152987
0.127932 0.224979 0.158541
0.230228 0.244236 0.170352
0.463752 0.275486 0.152621
0.660273 0.334203 0.160128
0.785183 0.413672 0.178286
0.862882 0.492317 0.225925
0.918517 0.564599 0.308080
0.000000 0.353582 0.229526
0.120912 0.351537 0.234531
0.293187 0.341711 0.265293
0.481971 0.408270 0.250736
0.665705 0.417182 0.219425
0.783810 0.474952 0.243137
0.859342 0.539086 0.296971
0.914244 0.600214 0.376562
0.000000 0.491859 0.328191
0.126558 0.491188 0.334386
0.360418 0.484840 0.366155
0.472206 0.506584 0.392126
0.675013 0.557275 0.368505
0.793820 0.567742 0.355047
0.862394 0.606134 0.403967
0.911772 0.650660 0.472724
0.143160 0.628016 0.460761
0.230930 0.623529 0.461433
0.415534 0.613703 0.480079
0.549096 0.597894 0.517357
0.654719 0.651362 0.521172
0.778836 0.662226 0.503868
0.851286 0.657588 0.488502
0.899657 0.682307 0.530999
0.366186 0.740108 0.604974
0.407263 0.740475 0.611170
0.519951 0.734096 0.627131
0.639002 0.725734 0.661006
0.692073 0.727230 0.684657
0.783291 0.766629 0.680262
0.851499 0.761624 0.666926
0.904234 0.758206 0.663325
0.010498 0.106813 0.112947
0.062806 0.113558 0.117830
0.201541 0.144564 0.131075
0.407813 0.198093 0.143252
0.653773 0.278813 0.159335
0.792020 0.384131 0.182315
0.870603 0.479377 0.232303
0.925170 0.557824 0.312657
0.028107 0.124147 0.122835
0.081147 0.129641 0.126680
0.201663 0.159213 0.137484
0.399664 0.205081 0.147646
0.631983 0.274846 0.160433
0.778958 0.375982 0.180850
0.862516 0.469825 0.223697
0.919707 0.550072 0.301152
0.000000 0.169375 0.148959
0.066255 0.177554 0.152712
0.220188 0.201633 0.162020
0.424872 0.245060 0.172488
0.642542 0.313207 0.184695
0.781643 0.403265 0.203830
0.862303 0.488533 0.248020
0.918578 0.563012 0.324559
0.000000 0.256107 0.191348
0.000000 0.263951 0.193545
0.250950 0.277226 0.224277
0.467720 0.317449 0.210666
0.662623 0.376898 0.224582
0.785000 0.451209 0.248356
0.861357 0.522271 0.294957
0.915892 0.586145 0.366369
0.000000 0.385504 0.263035
0.000000 0.389563 0.268559
0.290440 0.395697 0.298466
0.473884 0.442145 0.311528
0.667994 0.452796 0.280064
0.780392 0.501122 0.300389
0.853819 0.556970 0.346838
0.909514 0.613916 0.417670
0.000000 0.512352 0.355779
0.000000 0.515953 0.362158
0.320378 0.515770 0.385473
0.482551 0.508110 0.428595
0.661707 0.567254 0.406500
0.782773 0.575647 0.388861
0.853910 0.613672 0.433967
0.906493 0.659602 0.500664
0.000000 0.644984 0.486183
0.138705 0.643336 0.487739
0.378363 0.636255 0.500023
0.549706 0.619745 0.532799
0.642206 0.652796 0.546899
0.772335 0.671260 0.532738
0.847715 0.669429 0.520745
0.897795 0.696132 0.564752
0.297154 0.745968 0.611902
0.339879 0.744472 0.613428
0.473518 0.741054 0.627893
0.627924 0.734524 0.666682
0.694911 0.724239 0.694484
0.775906 0.770809 0.693141
0.848692 0.767910 0.682246
0.902312 0.764157 0.677272
0.000000 0.136141 0.170535
0.000000 0.142092 0.177859
0.125399 0.160464 0.199435
0.382330 0.230869 0.226169
0.616754 0.330510 0.249516
0.764126 0.411810 0.263645
0.847471 0.493477 0.300633
0.905394 0.566400 0.366125
0.000000 0.155428 0.187533
0.000000 0.160067 0.192813
0.135195 0.178561 0.211185
0.394415 0.249912 0.237064
0.621546 0.342504 0.258488
0.762692 0.417578 0.269596
0.845487 0.495583 0.304295
0.904112 0.567590 0.368658
0.000000 0.199374 0.215763
0.000000 0.205570 0.219974
0.144839 0.230350 0.234897
0.386419 0.304204 0.261784
0.620905 0.370092 0.277928
0.767269 0.451759 0.302068
0.852506 0.531975 0.351904
0.908324 0.592279 0.408850
0.000000 0.287999 0.268315
0.000000 0.296452 0.272679
0.117281 0.333928 0.290288
0.434241 0.373571 0.306310
0.629389 0.419593 0.313359
0.759457 0.482704 0.333074
0.842954 0.545953 0.371344
0.902678 0.604761 0.429725
0.000000 0.434577 0.349920
0.000000 0.438849 0.350530
0.071290 0.460822 0.356878
0.464729 0.469184 0.411109
0.656916 0.504234 0.379644
0.769314 0.542718 0.394842
0.843320 0.588403 0.429480
0.900114 0.635676 0.480720
0.000000 0.560815 0.426154
0.000000 0.571710 0.435737
0.208682 0.574975 0.448920
0.513573 0.571313 0.491829
0.657527 0.608301 0.498482
0.771450 0.605066 0.466011
0.842588 0.635584 0.496468
0.897581 0.676478 0.548730
0.000000 0.667628 0.522484
0.000000 0.668788 0.526604
0.273777 0.669795 0.541344
0.534844 0.664942 0.573754
0.641779 0.664210 0.605402
0.762661 0.693111 0.591302
0.838621 0.686641 0.569024
0.891264 0.711421 0.604669
0.000000 0.763577 0.633722
0.000000 0.762692 0.635920
0.380102 0.759945 0.647486
0.578637 0.754757 0.674586
0.691890 0.740627 0.704677
0.756558 0.771420 0.714260
0.842069 0.777127 0.705409
0.898680 0.774441 0.700679
0.000000 0.181857 0.264164
0.000000 0.186526 0.271763
0.000000 0.201785 0.291752
0.307805 0.280827 0.341924
0.588220 0.363836 0.364111
0.729427 0.471992 0.385046
0.823270 0.532860 0.404822
0.885954 0.595453 0.454719
0.000000 0.198825 0.280400
0.000000 0.203586 0.287877
0.000000 0.218906 0.306615
0.316686 0.295506 0.350988
0.588952 0.374762 0.369696
0.729885 0.477577 0.390295
0.822416 0.536248 0.409247
0.885252 0.597375 0.457679
0.000000 0.245884 0.314885
0.000000 0.251560 0.321019
0.000000 0.272557 0.339849
0.314244 0.325414 0.369055
0.577478 0.405921 0.379492
0.719234 0.483619 0.394202
0.816220 0.542992 0.417731
0.880491 0.599359 0.460365
0.000000 0.324468 0.362737
0.000000 0.330358 0.366247
0.000000 0.359289 0.382361
0.326818 0.410376 0.409430
0.581018 0.481636 0.429206
0.725002 0.523796 0.432746
0.815854 0.572259 0.454017
0.881010 0.620294 0.490303
0.000000 0.442329 0.424811
0.000000 0.449012 0.428443
0.000000 0.473579 0.439857
0.342901 0.516442 0.462135
0.602045 0.535637 0.468635
0.728573 0.563073 0.469459
0.815305 0.601862 0.488258
0.880491 0.644312 0.523186
0.000000 0.557580 0.483986
0.000000 0.561730 0.486275
0.000000 0.569543 0.486793
0.331060 0.586664 0.494240
0.585809 0.589929 0.539239
0.738003 0.619196 0.524956
0.819913 0.649500 0.548516
0.881407 0.685451 0.584894
0.000000 0.675166 0.572107
0.000000 0.674525 0.570184
0.000000 0.676326 0.567590
0.356176 0.683101 0.581842
0.630243 0.677089 0.627344
0.735592 0.703609 0.634516
0.818845 0.695155 0.605066
0.877165 0.715694 0.626947
0.000000 0.764034 0.639796
0.000000 0.764034 0.639612
0.000000 0.764401 0.640925
0.392889 0.764706 0.667170
0.644923 0.758297 0.703792
0.728969 0.759396 0.730007
0.825528 0.781155 0.722805
0.887449 0.775418 0.710628
0.000000 0.250889 0.403357
0.000000 0.256443 0.412818
0.000000 0.273442 0.434363
0.000000 0.311833 0.469032
0.533013 0.448249 0.512108
0.717769 0.510246 0.513329
0.789639 0.595941 0.536706
0.860624 0.642267 0.565301
0.000000 0.258122 0.402869
0.000000 0.261357 0.407202
0.000000 0.275731 0.423316
0.000000 0.309819 0.452888
0.518273 0.439216 0.497230
0.708156 0.503227 0.502953
0.785214 0.589624 0.528374
0.857572 0.637079 0.557855
0.000000 0.313024 0.447395
0.000000 0.316075 0.449897
0.000000 0.332616 0.462440
0.000000 0.362097 0.477180
0.528588 0.470802 0.513420
0.706081 0.528588 0.516960
0.786191 0.602289 0.542199
0.856870 0.646326 0.570031
0.000000 0.392096 0.490578
0.000000 0.395392 0.491554
0.000000 0.416419 0.502220
0.000000 0.459937 0.528801
0.555047 0.536004 0.559350
0.706783 0.590173 0.565118
0.791073 0.633204 0.578607
0.859525 0.669276 0.600671
0.000000 0.475959 0.520073
0.000000 0.479988 0.521843
0.000000 0.498421 0.530388
0.000000 0.532555 0.548577
0.523674 0.573297 0.571710
0.694026 0.618860 0.583032
0.786923 0.644160 0.586786
0.858427 0.676478 0.605219
0.000000 0.576806 0.565942
0.000000 0.583337 0.571069
0.000000 0.594842 0.576837
0.000000 0.615167 0.588830
0.512596 0.643549 0.608484
0.704189 0.659907 0.620294
0.795315 0.679805 0.625208
0.865324 0.706630 0.641444
0.000000 0.687160 0.642115
0.000000 0.690517 0.645167
0.000000 0.696773 0.649042
0.000000 0.709102 0.658289
0.508263 0.715816 0.662593
0.698909 0.711238 0.694026
0.799222 0.721950 0.670863
0.866361 0.740078 0.683192
0.000000 0.774228 0.702663
0.000000 0.773465 0.700923
0.000000 0.773831 0.698360
0.000000 0.776089 0.698268
0.444495 0.776913 0.703151
0.709499 0.769924 0.743526
0.803647 0.792721 0.755673
0.873991 0.784573 0.736416
0.000000 0.326421 0.533654
0.000000 0.330297 0.538262
0.000000 0.341588 0.548363
0.000000 0.371771 0.569390
0.314733 0.418036 0.595270
0.665919 0.572625 0.633997
0.776089 0.616083 0.627497
0.816922 0.675471 0.644831
0.000000 0.330297 0.529992
0.000000 0.334478 0.535119
0.000000 0.345830 0.545037
0.000000 0.373419 0.563073
0.308293 0.417853 0.588251
0.658167 0.566308 0.625299
0.771023 0.608545 0.618067
0.813901 0.670008 0.637415
0.000000 0.371435 0.554376
0.000000 0.374060 0.556542
0.000000 0.385168 0.563378
0.000000 0.412879 0.578515
0.322362 0.454780 0.599176
0.659785 0.585657 0.634485
0.770138 0.625727 0.630884
0.817441 0.681605 0.651240
0.000000 0.439033 0.587945
0.000000 0.440009 0.587640
0.000000 0.451362 0.592187
0.000000 0.479683 0.605829
0.341833 0.518486 0.623743
0.665400 0.621729 0.655940
0.768582 0.652705 0.651667
0.821775 0.696223 0.667872
0.000000 0.510704 0.611963
0.000000 0.511192 0.611231
0.000000 0.520867 0.614557
0.000000 0.542596 0.625025
0.317967 0.575067 0.640955
0.654536 0.640772 0.665614
0.757626 0.678645 0.670039
0.827420 0.712673 0.685389
0.000000 0.595422 0.645686
0.000000 0.597711 0.647028
0.000000 0.606653 0.651392
0.000000 0.622492 0.660060
0.288792 0.643336 0.672694
0.631739 0.678859 0.693751
0.759457 0.716152 0.704829
0.835691 0.734463 0.708064
0.000000 0.681666 0.690242
0.000000 0.683925 0.692012
0.000000 0.689540 0.694881
0.000000 0.700069 0.701472
0.322545 0.713191 0.710689
0.625879 0.734951 0.726192
0.767147 0.748409 0.734615
0.846036 0.759945 0.732357
0.000000 0.763363 0.742885
0.000000 0.764858 0.743801
0.000000 0.772061 0.749447
0.000000 0.779568 0.754452
0.000000 0.789059 0.762234
0.581079 0.794675 0.766201
0.766171 0.790890 0.790982
0.856016 0.802335 0.776944
0.000000 0.430457 0.669734
0.000000 0.433021 0.671901
0.000000 0.439216 0.675074
0.000000 0.461494 0.685573
0.000000 0.498482 0.698787
0.590143 0.597101 0.716762
0.756222 0.688777 0.745357
0.827970 0.716121 0.740627
0.000000 0.432136 0.666590
0.000000 0.434852 0.668940
0.000000 0.442359 0.673365
0.000000 0.463691 0.683040
0.000000 0.500053 0.696345
0.583581 0.593439 0.714565
0.754086 0.687648 0.743343
0.826658 0.715145 0.739101
0.000000 0.455146 0.673121
0.000000 0.457252 0.674464
0.000000 0.464363 0.677821
0.000000 0.488594 0.689967
0.000000 0.521569 0.700862
0.567681 0.592218 0.716579
0.752743 0.694606 0.746578
0.825284 0.719966 0.741970
0.000000 0.493935 0.684962
0.000000 0.496529 0.686549
0.000000 0.504479 0.690028
0.000000 0.525505 0.698634
0.000000 0.556695 0.709834
0.545556 0.601801 0.723842
0.752010 0.709895 0.755978
0.824063 0.730800 0.749783
0.000000 0.544121 0.699672
0.000000 0.545739 0.701076
0.000000 0.548882 0.702388
0.000000 0.565515 0.708888
0.000000 0.592828 0.718654
0.516381 0.632502 0.732876
0.747860 0.727657 0.766690
0.822080 0.744259 0.759213
0.000000 0.609674 0.721096
0.000000 0.609583 0.720455
0.000000 0.611505 0.720302
0.000000 0.619776 0.723537
0.000000 0.635065 0.731594
0.453254 0.671382 0.750179
0.737331 0.741878 0.777859
0.820066 0.767453 0.777493
0.000000 0.681697 0.750362
0.000000 0.682307 0.750362
0.000000 0.685542 0.751095
0.000000 0.694179 0.754910
0.000000 0.706905 0.762081
0.387366 0.726650 0.775631
0.697993 0.758663 0.789700
0.814511 0.794553 0.798642
0.000000 0.754055 0.784329
0.000000 0.754757 0.784421
0.000000 0.759335 0.786648
0.000000 0.769497 0.793027
0.000000 0.779751 0.800137
0.394690 0.789822 0.806302
0.687648 0.811063 0.818082
0.825742 0.827573 0.829160
