20 Preset/Cyan-Style/【3】LUT video cho PR-AE-FCPX/Tone  (3).cube
# Created by Adobe Lightroom plugin Export LUT (1.24.0)
# www.johnrellis.com/lightroom/exportlut.htm
# Preset: - 123PRESETS Orange and Teal V2
# Color profile: E:\lut插件\exportlut.1.24\exportlut.lrplugin\color profiles\Rec709gamma2.4.icc
LUT_3D_SIZE 32
DOMAIN_MIN 0.0 0.0 0.0
DOMAIN_MAX 1.0 1.0 1.0
0.064393 0.078340 0.045624
0.068940 0.079438 0.045289
0.082979 0.082399 0.046571
0.097993 0.088045 0.049134
0.115511 0.093843 0.054902
0.140475 0.101320 0.061036
0.172244 0.108370 0.064515
0.209812 0.115877 0.066560
0.252659 0.122499 0.067170
0.300450 0.129335 0.064942
0.352697 0.135622 0.061616
0.409155 0.142061 0.056916
0.467689 0.149233 0.047883
0.529290 0.160189 0.037385
0.614923 0.185336 0.017090
0.679011 0.217380 0.000000
0.727169 0.252354 0.000000
0.765377 0.287297 0.000000
0.797269 0.321599 0.000000
0.824002 0.354772 0.000000
0.846159 0.385901 0.030304
0.864500 0.414038 0.085756
0.879393 0.438605 0.113283
0.892729 0.461189 0.138521
0.904845 0.482063 0.162905
0.916075 0.501793 0.188540
0.927001 0.521050 0.215030
0.937530 0.540276 0.243320
0.947875 0.559655 0.274662
0.958129 0.579614 0.309148
0.968200 0.600183 0.347539
0.977905 0.621668 0.390173
0.062684 0.079835 0.046448
0.067933 0.080171 0.046296
0.082368 0.083131 0.047578
0.097658 0.088502 0.050111
0.114992 0.093904 0.054902
0.139010 0.101228 0.061219
0.170016 0.108186 0.064881
0.205844 0.115389 0.066346
0.247196 0.122255 0.067353
0.293309 0.128847 0.066072
0.344274 0.135103 0.062593
0.399603 0.141329 0.058045
0.457374 0.148409 0.050355
0.518425 0.158450 0.040833
0.600427 0.180423 0.022492
0.664057 0.209415 0.004791
0.713466 0.242161 0.000000
0.752865 0.276036 0.000000
0.786160 0.309819 0.000000
0.814115 0.342718 0.000000
0.837278 0.373632 0.017395
0.856382 0.401770 0.062226
0.871977 0.426520 0.100465
0.885618 0.449348 0.125124
0.898131 0.470588 0.149355
0.909850 0.490791 0.173861
0.921233 0.510765 0.200137
0.932403 0.530663 0.228367
0.943267 0.550744 0.259861
0.954040 0.571221 0.293980
0.964599 0.592340 0.332586
0.974884 0.614099 0.374640
0.064485 0.083162 0.047944
0.069123 0.083497 0.050050
0.083314 0.086458 0.050202
0.097719 0.090120 0.052888
0.114656 0.096254 0.057404
0.138705 0.102693 0.062898
0.168704 0.109407 0.065614
0.203586 0.116274 0.067414
0.243687 0.123293 0.068666
0.289220 0.129488 0.067903
0.338994 0.136080 0.064851
0.393683 0.142123 0.059937
0.450599 0.148898 0.053376
0.511955 0.158968 0.044251
0.590143 0.179355 0.027558
0.652888 0.205600 0.010620
0.702541 0.236240 0.000000
0.743252 0.269078 0.000000
0.777493 0.302281 0.000000
0.806912 0.335454 0.000000
0.831327 0.366888 0.013611
0.851347 0.395575 0.054566
0.867582 0.420661 0.095552
0.881682 0.443702 0.120241
0.894316 0.465156 0.144106
0.906310 0.485359 0.167697
0.917906 0.505638 0.193454
0.929351 0.525750 0.221775
0.940612 0.546166 0.252415
0.951629 0.566949 0.286687
0.962463 0.588190 0.324712
0.972900 0.610071 0.366583
0.066346 0.090761 0.053742
0.073976 0.090425 0.054841
0.085359 0.091829 0.056275
0.098848 0.094820 0.058991
0.115908 0.099763 0.063783
0.139101 0.105684 0.067170
0.168399 0.112276 0.069886
0.202487 0.118807 0.071870
0.242039 0.125338 0.072358
0.286534 0.132143 0.071504
0.335332 0.138430 0.069032
0.388739 0.144778 0.064607
0.444648 0.151522 0.057710
0.506950 0.161593 0.048432
0.580316 0.179782 0.035248
0.640192 0.203342 0.021271
0.688746 0.230869 0.007233
0.728817 0.260624 0.000000
0.763272 0.291478 0.000000
0.793576 0.323156 0.000000
0.819303 0.353857 0.010376
0.840696 0.382757 0.043153
0.858579 0.409003 0.088624
0.874327 0.433783 0.112520
0.888609 0.457130 0.136233
0.901915 0.479530 0.161929
0.914763 0.501549 0.189334
0.927153 0.523125 0.218296
0.938964 0.544366 0.249973
0.950286 0.565515 0.284611
0.961120 0.586511 0.321935
0.971405 0.607568 0.361791
0.070680 0.098390 0.063142
0.075654 0.098573 0.064088
0.088808 0.097719 0.068544
0.098878 0.101442 0.067567
0.115816 0.104677 0.070710
0.139223 0.109865 0.073121
0.166567 0.115908 0.075074
0.199069 0.122103 0.076295
0.237339 0.128695 0.076997
0.280186 0.135103 0.075776
0.327520 0.141787 0.073793
0.379736 0.148043 0.070344
0.434821 0.154910 0.065431
0.498238 0.165194 0.057221
0.567041 0.181979 0.046784
0.626490 0.203403 0.034241
0.676631 0.229099 0.022461
0.718746 0.257939 0.012634
0.754849 0.288426 0.006806
0.786191 0.319738 0.008331
0.812833 0.350378 0.022736
0.835111 0.378943 0.050904
0.853880 0.405432 0.089235
0.870542 0.430884 0.112032
0.885405 0.454963 0.136995
0.899382 0.477974 0.162112
0.912566 0.500206 0.188785
0.925170 0.521691 0.217624
0.937072 0.542962 0.248722
0.948425 0.563806 0.282322
0.959350 0.584558 0.318517
0.969604 0.605432 0.357916
0.077302 0.105837 0.073365
0.080690 0.105989 0.074311
0.091005 0.105623 0.078431
0.096864 0.107027 0.080629
0.114473 0.111910 0.079194
0.138766 0.115724 0.079561
0.167849 0.121645 0.080568
0.199710 0.127779 0.081941
0.237095 0.134157 0.081697
0.279149 0.140719 0.081575
0.326268 0.147402 0.080262
0.377813 0.154086 0.078676
0.432563 0.161471 0.073701
0.498207 0.172671 0.067659
0.564935 0.189364 0.058961
0.623377 0.210025 0.047089
0.673976 0.235447 0.036500
0.716670 0.263890 0.028748
0.753262 0.294041 0.026154
0.785031 0.324895 0.027832
0.811765 0.355016 0.044190
0.834287 0.383520 0.075624
0.891386 0.472175 0.161196
0.904112 0.493172 0.185458
0.915770 0.512566 0.209964
0.926574 0.531182 0.235874
0.936767 0.549004 0.262364
0.946410 0.566644 0.290837
0.955779 0.584192 0.321355
0.964843 0.601953 0.354070
0.973388 0.619989 0.389319
0.981415 0.638209 0.425971
0.080140 0.117739 0.085573
0.082429 0.117617 0.086244
0.092622 0.117556 0.088014
0.103182 0.116548 0.091371
0.114229 0.123110 0.090181
0.141604 0.128206 0.089082
0.175235 0.132540 0.089204
0.214115 0.139284 0.089174
0.253910 0.146059 0.089570
0.299107 0.152956 0.088991
0.349218 0.160128 0.088258
0.403876 0.167849 0.087007
0.459693 0.176333 0.083772
0.537499 0.194003 0.079225
0.605707 0.215671 0.070649
0.661006 0.240787 0.063722
0.706416 0.268406 0.055726
0.744381 0.297490 0.054444
0.777707 0.328038 0.060334
0.807218 0.359228 0.078279
0.833036 0.390936 0.096864
0.855497 0.421790 0.118013
0.874846 0.450935 0.143648
0.891844 0.478035 0.171359
0.906767 0.502129 0.199557
0.919554 0.523400 0.226841
0.930846 0.542535 0.254124
0.941100 0.560449 0.281895
0.950866 0.578149 0.311742
0.960174 0.595636 0.342962
0.969055 0.613489 0.376745
0.977447 0.631617 0.412818
0.083253 0.128359 0.093080
0.086976 0.128206 0.093080
0.094453 0.128206 0.094545
0.105501 0.127779 0.097505
0.115023 0.129671 0.099916
0.138582 0.138674 0.096223
0.170077 0.143435 0.095857
0.208927 0.147677 0.094820
0.253361 0.154971 0.094667
0.297276 0.162081 0.094820
0.346441 0.169284 0.094148
0.399359 0.177218 0.093324
0.459876 0.187228 0.091981
0.532921 0.204440 0.090883
0.595575 0.224338 0.088472
0.648219 0.246128 0.085695
0.693019 0.270756 0.082643
0.731533 0.297337 0.081941
0.765743 0.326329 0.084840
0.796475 0.356481 0.092012
0.823362 0.387213 0.104219
0.846860 0.417548 0.122499
0.867155 0.446540 0.145357
0.884825 0.473396 0.170871
0.900389 0.497810 0.197787
0.913817 0.519188 0.224521
0.925658 0.538567 0.250584
0.936461 0.556725 0.277775
0.946593 0.574640 0.306981
0.956298 0.592218 0.337530
0.965515 0.610010 0.370733
0.974243 0.628077 0.406073
0.086671 0.141512 0.100954
0.089265 0.141360 0.101289
0.096315 0.141360 0.102266
0.110201 0.140963 0.105562
0.122560 0.139559 0.109560
0.133120 0.148226 0.108217
0.168246 0.156344 0.104280
0.204410 0.161410 0.103182
0.248753 0.165469 0.101228
0.298528 0.172824 0.100710
0.346807 0.180606 0.100893
0.399390 0.188724 0.100649
0.466682 0.202090 0.100557
0.533745 0.218601 0.099825
0.592493 0.237095 0.098878
0.642786 0.257145 0.098024
0.686732 0.279698 0.097230
0.724727 0.304662 0.097536
0.759152 0.331762 0.099550
0.790158 0.360662 0.105135
0.817350 0.390173 0.116335
0.841001 0.419348 0.132021
0.861753 0.447395 0.152773
0.879667 0.473487 0.176211
0.895506 0.497414 0.202121
0.909331 0.518547 0.226963
0.921599 0.537865 0.252354
0.932708 0.556023 0.279026
0.943236 0.573816 0.307500
0.953124 0.591302 0.337255
0.962524 0.608911 0.369879
0.971496 0.626703 0.404150
0.087953 0.157076 0.110445
0.090059 0.156985 0.110750
0.098665 0.156680 0.111635
0.112520 0.156497 0.114534
0.127199 0.154879 0.117556
0.138216 0.157351 0.121157
0.161532 0.169589 0.116762
0.202426 0.176547 0.113588
0.243412 0.181308 0.111177
0.291905 0.184573 0.108278
0.345769 0.191775 0.107637
0.401129 0.201663 0.108339
0.466896 0.215824 0.109071
0.529076 0.231266 0.109163
0.586267 0.248997 0.109224
0.637140 0.268772 0.109041
0.682338 0.291447 0.109407
0.721736 0.316258 0.110597
0.756710 0.342992 0.114748
0.787442 0.370550 0.120119
0.813870 0.397711 0.129946
0.836362 0.423896 0.144015
0.855924 0.448951 0.160708
0.873136 0.472297 0.180484
0.888457 0.494240 0.202670
0.902373 0.514397 0.225223
0.915068 0.533684 0.249790
0.926909 0.552117 0.275395
0.938048 0.570428 0.303685
0.948669 0.588525 0.334020
0.958709 0.606683 0.366918
0.968200 0.625025 0.401831
0.089296 0.173281 0.120058
0.091402 0.173190 0.120333
0.099763 0.172915 0.121431
0.114565 0.172702 0.123720
0.132631 0.171847 0.127810
0.149172 0.169955 0.133669
0.159579 0.180819 0.131472
0.199313 0.194247 0.126101
0.242802 0.199985 0.123293
0.289799 0.204105 0.120241
0.342596 0.206882 0.116243
0.410864 0.218692 0.116640
0.472114 0.232578 0.117830
0.530877 0.247745 0.119356
0.586084 0.264744 0.119966
0.635767 0.283940 0.120790
0.680018 0.305364 0.122042
0.718837 0.329015 0.124208
0.752895 0.353948 0.127993
0.783200 0.379553 0.133791
0.809262 0.405005 0.143221
0.831601 0.429664 0.155459
0.851377 0.453620 0.171511
0.868711 0.476020 0.190372
0.884276 0.497322 0.211429
0.898405 0.516991 0.232853
0.911345 0.535790 0.256260
0.923491 0.553948 0.281437
0.934844 0.572015 0.308873
0.945678 0.589929 0.338689
0.955932 0.607935 0.370703
0.965667 0.626032 0.404944
0.087770 0.193423 0.132235
0.090791 0.193301 0.132235
0.099947 0.193332 0.133333
0.116243 0.193057 0.135592
0.139101 0.192660 0.140658
0.155306 0.190738 0.144320
0.170016 0.194125 0.149538
0.193240 0.209964 0.144503
0.247074 0.222232 0.138399
0.292790 0.227604 0.135103
0.349981 0.234379 0.131777
0.416999 0.240970 0.128359
0.547784 0.288823 0.141238
0.607874 0.310399 0.145693
0.658595 0.331823 0.149325
0.701259 0.354070 0.153231
0.737545 0.376532 0.157961
0.769009 0.398901 0.163638
0.795926 0.421027 0.171511
0.818997 0.442512 0.181949
0.838834 0.462989 0.195010
0.856168 0.482185 0.209781
0.871611 0.500633 0.227085
0.885924 0.518212 0.245182
0.898924 0.534997 0.264775
0.910826 0.550866 0.284977
0.921660 0.565911 0.306126
0.931792 0.580560 0.328435
0.941497 0.595148 0.352209
0.950866 0.610315 0.378729
0.959869 0.625910 0.407691
0.968627 0.642237 0.439094
0.079438 0.226658 0.151522
0.084840 0.226444 0.151553
0.097169 0.226078 0.152346
0.118898 0.225162 0.154513
0.145602 0.224094 0.159060
0.168856 0.221469 0.163149
0.191562 0.217990 0.171756
0.203281 0.231846 0.169589
0.245701 0.250828 0.162692
0.311986 0.264866 0.158663
0.378454 0.278202 0.157137
0.451057 0.289769 0.154452
0.524437 0.300877 0.151553
0.592279 0.319188 0.153872
0.646418 0.341833 0.159487
0.690303 0.363439 0.164431
0.727016 0.384558 0.169406
0.758358 0.405280 0.175296
0.785519 0.425605 0.182132
0.808743 0.445136 0.191684
0.829099 0.464057 0.202426
0.847105 0.482521 0.215976
0.863157 0.500175 0.231754
0.877897 0.517449 0.249119
0.891539 0.533989 0.267796
0.904082 0.549920 0.287572
0.915648 0.565148 0.307927
0.926452 0.580133 0.330480
0.936767 0.595148 0.354406
0.946685 0.610559 0.380987
0.956176 0.626337 0.409613
0.965209 0.642756 0.441108
0.066285 0.251041 0.165927
0.071687 0.250767 0.165988
0.094026 0.250065 0.166751
0.117556 0.249241 0.168673
0.146456 0.248020 0.172580
0.176638 0.245518 0.177798
0.197787 0.242191 0.183230
0.216678 0.245487 0.189975
0.243259 0.269230 0.187198
0.310948 0.295842 0.182040
0.381567 0.308690 0.179385
0.448432 0.320256 0.176242
0.516930 0.330419 0.172610
0.582147 0.339788 0.169100
0.639246 0.355810 0.170199
0.683101 0.376623 0.176699
0.719356 0.396033 0.181765
0.750423 0.414862 0.187869
0.777707 0.433967 0.195254
0.801236 0.452033 0.203403
0.821836 0.469917 0.214267
0.840330 0.487434 0.226841
0.856809 0.504356 0.241581
0.872038 0.521080 0.258518
0.886076 0.537224 0.276371
0.899016 0.552880 0.295537
0.911009 0.567926 0.315404
0.922210 0.582635 0.336980
0.932769 0.597589 0.360998
0.943023 0.612879 0.387030
0.952789 0.628595 0.415808
0.962188 0.644953 0.446601
0.041169 0.278264 0.182071
0.047089 0.278386 0.182345
0.087678 0.277531 0.182895
0.114412 0.276585 0.184787
0.147219 0.274968 0.188174
0.183230 0.273289 0.194797
0.209628 0.273075 0.200992
0.239689 0.271611 0.214023
0.256016 0.291020 0.214847
0.301488 0.317784 0.210361
0.383185 0.340795 0.204501
0.449683 0.352575 0.200839
0.513939 0.362371 0.196719
0.575311 0.371099 0.193027
0.631250 0.378363 0.188449
0.677913 0.391730 0.188937
0.714565 0.410681 0.195834
0.745296 0.428168 0.202396
0.772244 0.445563 0.209140
0.795560 0.462409 0.218112
0.816190 0.478798 0.228275
0.834867 0.495186 0.240635
0.851560 0.510948 0.254398
0.866850 0.526787 0.269993
0.881132 0.542077 0.286992
0.894347 0.557305 0.305699
0.906767 0.572290 0.325780
0.918486 0.587274 0.347784
0.929717 0.602472 0.371832
0.940459 0.618341 0.399268
0.950805 0.634791 0.429267
0.960601 0.651911 0.461677
0.000000 0.311955 0.202029
0.007568 0.312200 0.202365
0.059907 0.312230 0.203616
0.110872 0.312505 0.206271
0.148867 0.312963 0.210788
0.190799 0.313298 0.218448
0.226139 0.312963 0.226322
0.255833 0.311192 0.235569
0.283421 0.316930 0.248051
0.309758 0.344182 0.243656
0.374243 0.372198 0.237308
0.457252 0.389105 0.231418
0.515251 0.397101 0.225834
0.571038 0.402930 0.219425
0.622278 0.407721 0.213596
0.667872 0.411810 0.207431
0.707271 0.422400 0.207340
0.738949 0.440009 0.215213
0.765896 0.456306 0.222843
0.789578 0.472267 0.231418
0.810880 0.488319 0.242222
0.830045 0.504143 0.254673
0.847166 0.519615 0.268956
0.862852 0.534874 0.284794
0.877501 0.549981 0.301762
0.891173 0.565057 0.320500
0.903868 0.579889 0.340978
0.915831 0.594690 0.363012
0.927245 0.609491 0.386633
0.937957 0.624750 0.413245
0.948241 0.640406 0.441382
0.958007 0.656764 0.472358
0.000000 0.350866 0.226169
0.000000 0.350805 0.226505
0.022370 0.350622 0.227359
0.100893 0.350774 0.229770
0.148806 0.350622 0.233951
0.195895 0.350286 0.240787
0.241154 0.349676 0.250553
0.271000 0.347326 0.257359
0.306462 0.344091 0.272557
0.323552 0.363287 0.274357
0.366247 0.390936 0.268620
0.442939 0.417975 0.260594
0.514549 0.428016 0.254917
0.567376 0.433906 0.248386
0.616449 0.437934 0.241794
0.660456 0.441474 0.234958
0.699763 0.444831 0.229038
0.734279 0.454078 0.229068
0.762448 0.470619 0.238071
0.785763 0.485237 0.247471
0.806973 0.500053 0.258091
0.826169 0.514885 0.270817
0.843442 0.529503 0.284703
0.859251 0.544213 0.300725
0.874113 0.558801 0.317571
0.887968 0.573388 0.336431
0.901091 0.587945 0.356573
0.913298 0.602502 0.378607
0.924804 0.617304 0.402991
0.935729 0.632349 0.429084
0.946136 0.647852 0.457282
0.956023 0.663996 0.487648
0.000000 0.391485 0.252750
0.000000 0.391669 0.253361
0.000000 0.421424 0.275792
0.109773 0.421210 0.278325
0.168307 0.420874 0.282902
0.222141 0.420050 0.289677
0.277806 0.418891 0.300816
0.314855 0.415961 0.308019
0.349493 0.412299 0.319646
0.381201 0.415320 0.334478
0.405341 0.443427 0.329992
0.463294 0.470680 0.323522
0.542565 0.491402 0.315740
0.598505 0.496651 0.308415
0.641169 0.498573 0.299260
0.680079 0.499092 0.290196
0.714839 0.499153 0.281468
0.746273 0.499306 0.273198
0.772976 0.503960 0.272435
0.794553 0.515923 0.281773
0.813107 0.527123 0.291569
0.830442 0.539147 0.303380
0.846311 0.551354 0.316716
0.861112 0.563592 0.330968
0.874876 0.575677 0.345495
0.887694 0.587945 0.362005
0.899931 0.600122 0.379309
0.911528 0.612879 0.398962
0.922698 0.626368 0.421241
0.933532 0.640558 0.445960
0.943847 0.655543 0.473335
0.953796 0.671382 0.502922
0.000000 0.440101 0.287602
0.000000 0.443122 0.290257
0.000000 0.445930 0.293492
0.108644 0.448371 0.298039
0.170748 0.449653 0.303624
0.225650 0.449531 0.310369
0.280827 0.447913 0.319921
0.325811 0.445045 0.329076
0.357885 0.440681 0.336645
0.394965 0.435370 0.353185
0.412848 0.452674 0.355932
0.449470 0.478981 0.350378
0.514000 0.503288 0.342992
0.587488 0.517082 0.336187
0.630182 0.519768 0.327306
0.668544 0.520653 0.318059
0.703487 0.520928 0.309422
0.735470 0.521263 0.301244
0.764157 0.521813 0.295201
0.788907 0.526329 0.295842
0.808743 0.538170 0.306981
0.826261 0.549645 0.319524
0.842252 0.561181 0.332525
0.857145 0.572839 0.346685
0.870939 0.584253 0.361364
0.883940 0.595727 0.376654
0.896178 0.607446 0.393683
0.907866 0.619654 0.412573
0.919188 0.632593 0.434180
0.930144 0.646387 0.458106
0.940703 0.661097 0.484840
0.950744 0.676905 0.514519
0.000000 0.471351 0.311528
0.000000 0.474495 0.314549
0.000000 0.477668 0.318364
0.117372 0.480201 0.322881
0.177890 0.481544 0.328222
0.232578 0.481147 0.334447
0.287022 0.479500 0.342779
0.341497 0.476692 0.354528
0.371679 0.472419 0.359564
0.403967 0.467018 0.370459
0.434821 0.466377 0.385992
0.453010 0.491920 0.380804
0.498909 0.515618 0.374517
0.566186 0.537133 0.366979
0.625879 0.544549 0.361151
0.662776 0.545861 0.351720
0.697261 0.546136 0.342565
0.728542 0.546044 0.334173
0.756924 0.545800 0.327276
0.782559 0.546105 0.322393
0.804776 0.549645 0.323003
0.822599 0.560815 0.335973
0.838682 0.571862 0.349432
0.853605 0.582971 0.363775
0.867460 0.593774 0.378088
0.880461 0.604578 0.393072
0.892729 0.615656 0.409430
0.904479 0.627253 0.427771
0.915831 0.639673 0.448310
0.926879 0.653071 0.471839
0.937560 0.667445 0.497871
0.947784 0.682887 0.526757
0.000000 0.503441 0.337560
0.000000 0.506218 0.340337
0.044282 0.508873 0.344060
0.130404 0.511223 0.348547
0.187015 0.512200 0.353277
0.240879 0.511559 0.358953
0.294072 0.509880 0.366369
0.347051 0.507225 0.376715
0.386481 0.503380 0.384375
0.416388 0.498421 0.391913
0.451026 0.492256 0.407782
0.467964 0.505608 0.411933
0.496620 0.528862 0.406683
0.548241 0.550195 0.400427
0.611902 0.567041 0.393713
0.660029 0.571405 0.387732
0.693996 0.572839 0.379980
0.725277 0.573693 0.372869
0.753994 0.574487 0.367285
0.780179 0.575463 0.363745
0.803922 0.577295 0.362371
0.824460 0.581537 0.366308
0.840696 0.592676 0.381750
0.855924 0.604150 0.398383
0.869993 0.615290 0.414954
0.883024 0.626246 0.431525
0.895232 0.637171 0.448859
0.906798 0.648585 0.467872
0.918059 0.660761 0.488899
0.928832 0.673884 0.512596
0.939208 0.688167 0.538811
0.949035 0.703487 0.567376
0.091798 0.552880 0.383368
0.104189 0.553887 0.384558
0.130983 0.554650 0.386481
0.172457 0.554467 0.388617
0.218662 0.553582 0.391852
0.265812 0.551751 0.395972
0.315099 0.549310 0.401709
0.366430 0.546258 0.410620
0.412879 0.543023 0.421363
0.441566 0.538323 0.426581
0.471748 0.533135 0.437598
0.501701 0.529625 0.453895
0.515312 0.551965 0.449897
0.550652 0.572625 0.445014
0.603449 0.591608 0.439124
0.661128 0.603662 0.433906
0.697658 0.605097 0.426795
0.726528 0.604913 0.419165
0.753292 0.604181 0.411872
0.777676 0.603632 0.406653
0.799954 0.603326 0.402716
0.820493 0.603449 0.400305
0.838682 0.605707 0.402258
0.852781 0.614893 0.416266
0.866545 0.625025 0.431861
0.879576 0.635340 0.448066
0.891905 0.646052 0.465492
0.903655 0.657221 0.484291
0.914977 0.669123 0.505058
0.925872 0.681849 0.527977
0.936187 0.695735 0.553582
0.946014 0.710628 0.581170
0.136477 0.582361 0.412757
0.143923 0.583185 0.414069
0.166262 0.583581 0.415534
0.199954 0.583429 0.417762
0.238499 0.582727 0.420630
0.282689 0.581048 0.424323
0.330053 0.578607 0.429786
0.378515 0.575921 0.437537
0.427558 0.572808 0.448798
0.459907 0.568719 0.454932
0.486976 0.564050 0.462501
0.517693 0.558343 0.477607
0.533959 0.567315 0.483711
0.555352 0.587976 0.480110
0.595026 0.606958 0.475898
0.647883 0.624262 0.470985
0.698238 0.631464 0.468574
0.725765 0.631464 0.460945
0.751308 0.630762 0.454505
0.775021 0.629877 0.448737
0.796719 0.629206 0.444648
0.816983 0.628809 0.441901
0.835752 0.629084 0.440620
0.852689 0.631067 0.442786
0.862364 0.632746 0.444862
0.875151 0.642237 0.460212
0.887663 0.652613 0.477363
0.899535 0.663447 0.495949
0.910948 0.674983 0.516106
0.922026 0.687648 0.539025
0.932586 0.701503 0.564569
0.942718 0.716365 0.591974
0.203586 0.620233 0.454810
0.209567 0.621790 0.457008
0.224704 0.622004 0.458473
0.247990 0.621149 0.459693
0.279026 0.619104 0.460792
0.315465 0.616327 0.462684
0.355108 0.612726 0.465736
0.397589 0.608667 0.470710
0.442664 0.604211 0.478614
0.480110 0.599512 0.486580
0.503471 0.593591 0.489815
0.528435 0.587366 0.498451
0.555657 0.580285 0.514092
0.564141 0.599329 0.509728
0.589837 0.616876 0.504692
0.630701 0.632990 0.499489
0.681239 0.647272 0.494087
0.719722 0.648920 0.490822
0.744442 0.648402 0.484138
0.767849 0.647730 0.478859
0.789609 0.647150 0.474678
0.809903 0.646632 0.471717
0.828672 0.646265 0.469062
0.845945 0.645899 0.467140
0.861418 0.646387 0.467414
0.872831 0.653162 0.479042
0.884489 0.661646 0.493507
0.896086 0.671321 0.510185
0.907378 0.682033 0.529198
0.918364 0.693965 0.550805
0.928954 0.707179 0.575006
0.939208 0.721614 0.601465
0.225986 0.641779 0.478706
0.232486 0.643000 0.480598
0.245609 0.643580 0.482338
0.268162 0.643061 0.483894
0.295933 0.641993 0.485878
0.331273 0.640131 0.488533
0.370367 0.637812 0.492470
0.412970 0.635157 0.498451
0.455818 0.632319 0.506615
0.498970 0.629145 0.517906
0.523735 0.624781 0.521996
0.546532 0.619928 0.528374
0.571923 0.613855 0.540887
0.586847 0.618189 0.548119
0.601160 0.635309 0.543999
0.630030 0.650599 0.539727
0.670619 0.664515 0.535058
0.714290 0.673793 0.531762
0.744991 0.674250 0.528252
0.766934 0.673304 0.522393
0.787839 0.672450 0.518029
0.807645 0.671778 0.514458
0.826200 0.671168 0.511620
0.843351 0.670710 0.509850
0.859403 0.670283 0.508476
0.873869 0.670710 0.509270
0.884398 0.677394 0.521508
0.895201 0.685756 0.536706
0.906432 0.696254 0.555627
0.917235 0.707759 0.576684
0.927703 0.720424 0.599786
0.938018 0.734157 0.624353
0.269657 0.669673 0.512383
0.273564 0.670222 0.513420
0.283330 0.670314 0.514488
0.300908 0.669673 0.515587
0.326390 0.668299 0.517082
0.356817 0.666529 0.519463
0.391791 0.664240 0.522759
0.429938 0.661585 0.527703
0.469429 0.658686 0.534630
0.509667 0.655482 0.544213
0.541222 0.651820 0.551904
0.562341 0.647425 0.556329
0.583398 0.642451 0.564324
0.607233 0.636225 0.578668
0.615076 0.649531 0.577691
0.633509 0.664424 0.573999
0.663844 0.677882 0.570397
0.702846 0.690242 0.567102
0.741238 0.696101 0.566217
0.765286 0.695705 0.561822
0.785336 0.694942 0.557092
0.804562 0.694026 0.553002
0.822721 0.692988 0.549523
0.839628 0.692073 0.546807
0.855375 0.691188 0.544701
0.870085 0.690333 0.543328
0.883696 0.690364 0.543786
0.893462 0.696681 0.555840
0.903563 0.705074 0.571496
0.914397 0.716182 0.591821
0.925017 0.728420 0.613825
0.935485 0.741817 0.637598
0.302831 0.692226 0.540581
0.305577 0.692683 0.541466
0.314702 0.692714 0.542473
0.330816 0.692348 0.543999
0.353155 0.691707 0.546197
0.382177 0.690852 0.549554
0.416968 0.690242 0.555047
0.454932 0.689601 0.562280
0.494820 0.688960 0.571740
0.534630 0.688350 0.583642
0.574334 0.687465 0.598352
0.596246 0.685756 0.604822
0.616541 0.683467 0.613123
0.637659 0.680049 0.625299
0.652430 0.681514 0.635035
0.661677 0.695796 0.633509
0.681056 0.708461 0.631708
0.709285 0.720119 0.629908
0.744350 0.731197 0.628779
0.775906 0.734432 0.629847
0.794095 0.733761 0.625330
0.811734 0.732753 0.621271
0.828458 0.731441 0.617578
0.844266 0.730098 0.614618
0.859220 0.728725 0.611963
0.873442 0.727596 0.610193
0.886839 0.726925 0.609735
0.899321 0.727077 0.610986
0.908141 0.732967 0.622156
0.917388 0.740749 0.636194
0.927825 0.752102 0.655909
0.938293 0.764736 0.677333
0.379034 0.727779 0.591699
0.380285 0.727718 0.591791
0.385962 0.727352 0.592187
0.396612 0.726619 0.592950
0.413916 0.725429 0.594293
0.435828 0.723995 0.596582
0.462348 0.722347 0.600000
0.492653 0.720394 0.604730
0.525139 0.718379 0.611261
0.558892 0.716152 0.619715
0.591913 0.713924 0.630121
0.616632 0.711299 0.637690
0.633295 0.708186 0.642237
