20 Preset/Cyan-Style/【3】LUT video cho PR-AE-FCPX/Tone  (2).cube
# Created by Adobe Lightroom plugin Export LUT (1.24.0)
# www.johnrellis.com/lightroom/exportlut.htm
# Preset: - 123PRESETS Orange and Teal V1
# Color profile: E:\lut插件\exportlut.1.24\exportlut.lrplugin\color profiles\Rec709gamma2.4.icc
LUT_3D_SIZE 32
DOMAIN_MIN 0.0 0.0 0.0
DOMAIN_MAX 1.0 1.0 1.0
0.064393 0.078340 0.045624
0.068940 0.079438 0.045289
0.083589 0.083009 0.047547
0.099733 0.089082 0.050904
0.119814 0.096651 0.056855
0.149538 0.105257 0.064057
0.187045 0.114443 0.069703
0.231754 0.123873 0.072969
0.282048 0.133333 0.074159
0.337194 0.142672 0.075746
0.397101 0.152773 0.075715
0.459388 0.164248 0.073121
0.521294 0.178866 0.069947
0.584070 0.199649 0.066468
0.666255 0.240696 0.063935
0.723629 0.283909 0.072633
0.765560 0.324559 0.088411
0.797879 0.361975 0.104341
0.823423 0.395789 0.123140
0.844572 0.427405 0.147005
0.861936 0.455940 0.172305
0.876463 0.480995 0.198672
0.888762 0.502770 0.224308
0.899840 0.522820 0.249577
0.909819 0.541344 0.275395
0.919127 0.558740 0.301122
0.928008 0.575860 0.328496
0.936675 0.592920 0.357092
0.945220 0.610224 0.387793
0.953552 0.628138 0.421241
0.961639 0.646632 0.456703
0.969268 0.665858 0.494392
0.064668 0.079713 0.046448
0.067933 0.080171 0.046296
0.084199 0.083619 0.048524
0.099519 0.089509 0.050752
0.119234 0.096712 0.057984
0.147799 0.105226 0.064271
0.184115 0.114199 0.069123
0.227237 0.123201 0.073091
0.275639 0.132418 0.075227
0.329137 0.142092 0.076478
0.387396 0.151614 0.075990
0.448920 0.162722 0.075044
0.510491 0.176577 0.071717
0.573175 0.196170 0.068818
0.652766 0.233158 0.065370
0.710353 0.273442 0.070710
0.753506 0.312871 0.087190
0.787381 0.350042 0.099672
0.814420 0.384222 0.116762
0.836576 0.416022 0.138674
0.854887 0.444617 0.162264
0.869871 0.470008 0.186770
0.882414 0.491920 0.211398
0.893767 0.512230 0.236271
0.904234 0.530968 0.260624
0.913878 0.548943 0.286442
0.923217 0.566644 0.313420
0.932433 0.584192 0.341955
0.941405 0.602136 0.373083
0.950256 0.620478 0.406378
0.958801 0.639460 0.442664
0.966949 0.659022 0.480659
0.065461 0.083772 0.048920
0.069703 0.084871 0.049744
0.085939 0.087556 0.050996
0.099672 0.091951 0.054383
0.119356 0.098970 0.061616
0.147341 0.106935 0.066896
0.182803 0.115663 0.070832
0.224308 0.124483 0.075166
0.271672 0.133364 0.077852
0.324193 0.143160 0.078309
0.381415 0.152621 0.078492
0.442206 0.163241 0.077882
0.503075 0.176913 0.075685
0.566552 0.195773 0.072633
0.643000 0.230350 0.071473
0.700191 0.267826 0.074769
0.743832 0.305791 0.087984
0.778958 0.342351 0.099336
0.807248 0.376837 0.115206
0.830716 0.409064 0.134798
0.849973 0.438544 0.158083
0.865690 0.464485 0.182406
0.878691 0.486671 0.206271
0.890349 0.507195 0.230411
0.900969 0.526085 0.254551
0.910796 0.544060 0.279820
0.920439 0.561944 0.306126
0.929839 0.579828 0.334936
0.939147 0.597986 0.365759
0.948211 0.616632 0.399573
0.957061 0.635676 0.435218
0.965332 0.655360 0.473365
0.067292 0.091920 0.056672
0.074525 0.092042 0.056489
0.086488 0.093812 0.057771
0.101442 0.097169 0.061280
0.121096 0.103304 0.066407
0.148775 0.110536 0.071839
0.183139 0.118776 0.075929
0.223636 0.127779 0.079408
0.269871 0.136751 0.081117
0.321202 0.145907 0.081209
0.377356 0.155612 0.082277
0.436896 0.166445 0.082094
0.496925 0.179660 0.080720
0.561273 0.198459 0.079316
0.633631 0.229496 0.078676
0.688533 0.263920 0.083742
0.731502 0.298650 0.090120
0.766171 0.332647 0.100252
0.795346 0.365698 0.113191
0.819730 0.397284 0.130526
0.840055 0.426337 0.150515
0.857023 0.452827 0.172641
0.871153 0.476356 0.196262
0.884001 0.498329 0.220920
0.895933 0.518975 0.246036
0.907073 0.538811 0.272709
0.917723 0.558373 0.301213
0.927886 0.577508 0.331670
0.937682 0.596460 0.363500
0.947021 0.615320 0.397192
0.955810 0.634180 0.432563
0.963989 0.653162 0.469306
0.075868 0.100008 0.066896
0.078126 0.100618 0.067689
0.089754 0.101289 0.068147
0.099977 0.104799 0.071687
0.121401 0.108919 0.074006
0.148959 0.115663 0.078950
0.181460 0.123507 0.080934
0.219883 0.131930 0.083192
0.264622 0.140719 0.085176
0.314244 0.149844 0.086366
0.368719 0.159396 0.087373
0.426947 0.170077 0.087221
0.486366 0.182986 0.087282
0.552514 0.202121 0.086732
0.620569 0.230320 0.088289
0.676020 0.261967 0.090669
0.720516 0.295598 0.096376
0.757168 0.329442 0.105043
0.787930 0.362341 0.116396
0.813474 0.393774 0.132052
0.834592 0.422950 0.151797
0.852232 0.449561 0.172976
0.867124 0.473274 0.195468
0.880522 0.495857 0.219638
0.893065 0.517082 0.245212
0.904723 0.537469 0.271977
0.915679 0.557153 0.300542
0.926024 0.576318 0.330327
0.935882 0.595209 0.361975
0.945373 0.613733 0.394751
0.954223 0.632410 0.429572
0.962463 0.651209 0.465675
0.079927 0.108644 0.078523
0.081331 0.109224 0.079042
0.089815 0.110292 0.079927
0.100465 0.112123 0.081117
0.117891 0.117494 0.083619
0.148196 0.123110 0.084962
0.183200 0.130922 0.087892
0.221561 0.138888 0.089204
0.264622 0.147860 0.090730
0.313634 0.157351 0.091646
0.367254 0.167178 0.092531
0.425086 0.178286 0.093019
0.484077 0.191196 0.093751
0.552361 0.211246 0.094606
0.618219 0.238682 0.096223
0.672938 0.269230 0.099733
0.717525 0.302281 0.105837
0.754818 0.335180 0.114015
0.786252 0.368078 0.125856
0.811948 0.398962 0.140963
0.833249 0.427710 0.159731
0.851133 0.453864 0.180453
0.897856 0.533196 0.270085
0.908415 0.551659 0.295964
0.917998 0.568872 0.321721
0.926909 0.585321 0.348333
0.935302 0.601129 0.375158
0.943297 0.616846 0.403204
0.950927 0.632593 0.432227
0.958282 0.648493 0.462257
0.965148 0.664607 0.493324
0.971405 0.680903 0.525078
0.082307 0.122621 0.090517
0.084321 0.122805 0.090455
0.092195 0.123964 0.090517
0.105165 0.125856 0.091096
0.120058 0.129824 0.093629
0.148501 0.138216 0.094820
0.191440 0.145602 0.095888
0.239017 0.154849 0.097658
0.285191 0.163973 0.098878
0.336980 0.174228 0.100221
0.394049 0.184970 0.101472
0.453956 0.197665 0.102693
0.513085 0.212650 0.103609
0.591821 0.241581 0.106935
0.656489 0.274327 0.111849
0.705928 0.307164 0.117525
0.745541 0.339666 0.125490
0.778195 0.371588 0.136812
0.805661 0.402350 0.151034
0.829068 0.432410 0.169955
0.849607 0.461341 0.192660
0.867491 0.488685 0.219394
0.883360 0.514336 0.248722
0.897642 0.538231 0.279545
0.910094 0.559655 0.309606
0.920623 0.578485 0.338750
0.930022 0.595361 0.366522
0.938537 0.611261 0.393927
0.946624 0.627100 0.422553
0.954284 0.642695 0.451637
0.961425 0.658717 0.482307
0.968078 0.674922 0.513603
0.083955 0.135653 0.098573
0.085786 0.135805 0.098878
0.093660 0.137026 0.098512
0.105196 0.139010 0.097810
0.123079 0.141970 0.100832
0.143923 0.148287 0.103151
0.181735 0.157870 0.104402
0.231907 0.165713 0.105409
0.284855 0.176059 0.107546
0.335180 0.186252 0.108675
0.391058 0.197269 0.110262
0.449073 0.209873 0.111696
0.512993 0.226993 0.113771
0.586694 0.254276 0.118318
0.646601 0.282902 0.123262
0.693904 0.311986 0.128573
0.733181 0.341466 0.135897
0.766415 0.371008 0.145480
0.795102 0.400855 0.158053
0.819730 0.429969 0.174685
0.841123 0.458412 0.195743
0.859861 0.485237 0.220340
0.876341 0.510674 0.248356
0.891142 0.534386 0.277195
0.904234 0.555871 0.306950
0.915435 0.574762 0.334874
0.925231 0.591943 0.362310
0.934234 0.608026 0.389593
0.942748 0.623957 0.417762
0.950713 0.639612 0.446601
0.958251 0.655573 0.476692
0.965270 0.671748 0.507836
0.085725 0.151858 0.108400
0.089296 0.151888 0.108339
0.095583 0.152773 0.108370
0.108339 0.154940 0.108644
0.126467 0.157473 0.109316
0.146487 0.162051 0.112215
0.175906 0.171664 0.114595
0.221286 0.181430 0.115419
0.277348 0.189822 0.116609
0.336706 0.201053 0.119020
0.391730 0.212284 0.120974
0.448981 0.225467 0.122866
0.519799 0.246586 0.127443
0.586999 0.271641 0.131777
0.642847 0.297520 0.136934
0.688319 0.323766 0.142397
0.726589 0.350774 0.149355
0.759609 0.378424 0.157778
0.788663 0.406500 0.169772
0.813718 0.434150 0.185031
0.835416 0.461311 0.204623
0.854368 0.487282 0.228092
0.871153 0.511650 0.253635
0.886198 0.534661 0.281376
0.899504 0.555718 0.309697
0.911040 0.574365 0.337011
0.921294 0.591394 0.363470
0.930663 0.607446 0.390173
0.939422 0.623255 0.417914
0.947662 0.638880 0.446296
0.955444 0.654597 0.475715
0.962676 0.670527 0.505943
0.087373 0.170809 0.120058
0.089631 0.170871 0.119753
0.096925 0.171389 0.119509
0.110933 0.173342 0.119722
0.128115 0.175875 0.119081
0.151339 0.179202 0.122011
0.175357 0.185306 0.125368
0.214359 0.197391 0.127138
0.265446 0.207370 0.127901
0.326513 0.216007 0.129488
0.390204 0.227756 0.132174
0.450355 0.242863 0.135805
0.519371 0.264439 0.140108
0.581537 0.287083 0.144991
0.636255 0.311315 0.150576
0.682185 0.336339 0.155673
0.721767 0.363043 0.163363
0.756039 0.390234 0.172641
0.785489 0.417639 0.184817
0.810422 0.443946 0.199710
0.831601 0.468818 0.217716
0.849668 0.491768 0.238071
0.865476 0.513420 0.260777
0.879911 0.533898 0.284459
0.892851 0.553155 0.309483
0.904570 0.570886 0.334173
0.915221 0.587793 0.359991
0.925170 0.604120 0.386297
0.934630 0.620264 0.413855
0.943511 0.636378 0.442664
0.951873 0.652613 0.472724
0.959655 0.669032 0.503716
0.087495 0.190494 0.131899
0.090120 0.190524 0.132357
0.097414 0.191409 0.131807
0.112154 0.193332 0.131655
0.128176 0.196323 0.129671
0.156252 0.199069 0.133150
0.181155 0.204715 0.136477
0.211246 0.212619 0.140383
0.259068 0.226810 0.141512
0.317357 0.237430 0.143221
0.383215 0.246464 0.145083
0.460151 0.266117 0.151125
0.524163 0.286076 0.155734
0.582574 0.307164 0.160311
0.634913 0.329625 0.165591
0.679805 0.353307 0.171817
0.718441 0.378119 0.179324
0.752163 0.403662 0.188632
0.781155 0.428870 0.200137
0.805783 0.453071 0.214237
0.826719 0.475990 0.231235
0.844755 0.497475 0.250065
0.860838 0.517967 0.270756
0.875303 0.537591 0.293767
0.888579 0.556023 0.317144
0.900511 0.573388 0.341222
0.911437 0.589837 0.365789
0.921630 0.605829 0.391394
0.931334 0.621759 0.418311
0.940459 0.637690 0.446693
0.949096 0.653712 0.475959
0.957122 0.669917 0.506188
0.083742 0.214847 0.146700
0.086580 0.215061 0.146639
0.096345 0.216098 0.146731
0.111971 0.217960 0.146517
0.135225 0.220768 0.146792
0.158816 0.223941 0.146426
0.189334 0.228458 0.150484
0.218997 0.235599 0.154604
0.258427 0.248661 0.158206
0.313512 0.262089 0.159365
0.382971 0.277165 0.162875
0.462318 0.293248 0.167910
0.596735 0.357702 0.198428
0.652369 0.383124 0.207095
0.697108 0.407477 0.216037
0.734310 0.430823 0.225772
0.765560 0.452857 0.235843
0.791531 0.473518 0.248112
0.813504 0.492775 0.261936
0.832364 0.510918 0.277195
0.848569 0.528099 0.294438
0.862974 0.544457 0.313054
0.876249 0.560174 0.332311
0.888396 0.575586 0.352819
0.899474 0.590173 0.373663
0.909667 0.603937 0.394385
0.918944 0.617029 0.415259
0.927672 0.629877 0.436774
0.936034 0.642786 0.458930
0.943999 0.656245 0.483162
0.951598 0.670069 0.508476
0.958831 0.684688 0.535790
0.067872 0.254429 0.170626
0.075532 0.254337 0.170809
0.091402 0.254978 0.170382
0.114534 0.256107 0.169894
0.140871 0.258305 0.169711
0.165469 0.260960 0.166690
0.203769 0.263645 0.171176
0.235843 0.269963 0.175051
0.271489 0.278386 0.179538
0.328038 0.299931 0.185275
0.404578 0.324041 0.192416
0.487160 0.346868 0.200259
0.568933 0.368017 0.209201
0.636469 0.393042 0.220432
0.684657 0.418433 0.230900
0.723049 0.440894 0.241001
0.755001 0.461555 0.250767
0.781277 0.480049 0.261173
0.803677 0.497688 0.273320
0.822812 0.514031 0.286900
0.839384 0.529870 0.302159
0.854307 0.545190 0.318914
0.867979 0.560296 0.336828
0.880674 0.575219 0.356023
0.892424 0.589441 0.375586
0.903166 0.603204 0.395880
0.913054 0.616541 0.416876
0.922423 0.629664 0.438270
0.931334 0.642878 0.460761
0.939849 0.656580 0.485054
0.947967 0.670497 0.510216
0.955505 0.685176 0.537407
0.045838 0.283207 0.188632
0.054078 0.283116 0.188479
0.085817 0.283330 0.187869
0.111757 0.284306 0.187137
0.140810 0.285954 0.186709
0.167453 0.288853 0.183719
0.204685 0.291325 0.185611
0.243168 0.295628 0.190585
0.283055 0.308415 0.197940
0.330449 0.324346 0.207584
0.399420 0.351446 0.213657
0.475502 0.373419 0.220890
0.551629 0.393500 0.228763
0.621241 0.412299 0.237827
0.676295 0.433478 0.248692
0.715023 0.454688 0.258122
0.746578 0.473243 0.267674
0.772946 0.490089 0.277470
0.795590 0.506126 0.288701
0.815091 0.521050 0.300908
0.832059 0.535698 0.314672
0.847410 0.550164 0.330358
0.861418 0.564477 0.347173
0.874540 0.578912 0.365454
0.886687 0.592798 0.384436
0.897887 0.606195 0.403937
0.908171 0.619257 0.423987
0.917906 0.632166 0.444831
0.927214 0.645167 0.466773
0.936095 0.658686 0.490333
0.944488 0.672633 0.515312
0.952392 0.687221 0.542077
0.012116 0.315160 0.208499
0.021027 0.315160 0.208621
0.063416 0.315160 0.207858
0.105501 0.316014 0.207065
0.139712 0.317540 0.206485
0.177676 0.319707 0.205844
0.208408 0.326726 0.205234
0.256687 0.333349 0.212558
0.298772 0.343938 0.219944
0.343481 0.357183 0.228458
0.398138 0.377173 0.237644
0.467872 0.400519 0.243748
0.538903 0.420417 0.251408
0.605310 0.437842 0.259953
0.663142 0.453620 0.268589
0.708278 0.470466 0.278050
0.740627 0.488075 0.287114
0.766781 0.503258 0.296269
0.789364 0.517449 0.306401
0.808774 0.530968 0.317815
0.825986 0.544244 0.330541
0.841428 0.557671 0.345037
0.855711 0.570977 0.360723
0.869047 0.584344 0.377447
0.881407 0.597467 0.395209
0.892912 0.610468 0.413886
0.903624 0.623377 0.433722
0.913939 0.636347 0.454322
0.923735 0.649775 0.476753
0.933165 0.663752 0.501122
0.942077 0.678309 0.527092
0.950439 0.693538 0.554925
0.000000 0.353002 0.233158
0.000000 0.353552 0.233036
0.028412 0.354589 0.233463
0.101106 0.356725 0.233524
0.142031 0.360113 0.233951
0.184878 0.365057 0.235447
0.216098 0.371344 0.231540
0.269566 0.377081 0.238865
0.319158 0.385046 0.247440
0.363012 0.396338 0.255467
0.409613 0.408942 0.264744
0.467323 0.430396 0.272404
0.531456 0.448188 0.277562
0.592096 0.463081 0.283421
0.646204 0.475776 0.289708
0.693660 0.487007 0.296300
0.732174 0.500053 0.304387
0.759640 0.514946 0.314000
0.782254 0.528038 0.323552
0.802182 0.540673 0.334691
0.819944 0.553460 0.346990
0.835966 0.566247 0.360876
0.850584 0.579187 0.376532
0.864317 0.592096 0.392859
0.877073 0.604974 0.410437
0.888975 0.617731 0.428870
0.900114 0.630457 0.448219
0.910704 0.643214 0.468482
0.920775 0.656245 0.490120
0.930236 0.669642 0.513298
0.939178 0.683497 0.537865
0.947539 0.697993 0.564233
0.000000 0.395941 0.262364
0.000000 0.396155 0.262669
0.008209 0.396948 0.262272
0.096925 0.398474 0.262394
0.144564 0.401251 0.262821
0.192355 0.404822 0.263340
0.234012 0.410040 0.262577
0.277562 0.414862 0.263493
0.331029 0.419806 0.271305
0.375311 0.428168 0.279332
0.419257 0.438697 0.287358
0.464149 0.449989 0.297002
0.522728 0.471199 0.302953
0.580133 0.486122 0.308019
0.632349 0.498329 0.313329
0.679042 0.508721 0.319005
0.720455 0.517906 0.325750
0.753658 0.528588 0.333867
0.777401 0.541588 0.344366
0.797086 0.552941 0.354345
0.814878 0.564691 0.366278
0.830991 0.576532 0.379400
0.845945 0.588495 0.393927
0.859861 0.600793 0.409705
0.872862 0.613184 0.426673
0.885069 0.625544 0.444587
0.896544 0.638025 0.463478
0.907408 0.650599 0.483558
0.917754 0.663447 0.504753
0.927489 0.676631 0.527428
0.936645 0.690303 0.551476
0.945159 0.704677 0.577386
0.000000 0.439155 0.294865
0.000000 0.439796 0.295079
0.086427 0.471443 0.320378
0.133822 0.472847 0.320623
0.181765 0.475074 0.320928
0.230076 0.477882 0.321477
0.281590 0.481605 0.322728
0.316228 0.485756 0.317632
0.372808 0.489143 0.325658
0.424048 0.494118 0.334478
0.465766 0.502495 0.342809
0.507591 0.511254 0.351751
0.550042 0.522057 0.360235
0.600580 0.537743 0.364263
0.646967 0.547570 0.367895
0.688533 0.555352 0.371588
0.725460 0.561028 0.375830
0.757382 0.565515 0.380438
0.783017 0.571435 0.386877
0.801450 0.580529 0.395697
0.817258 0.589044 0.404639
0.832364 0.598474 0.415625
0.846494 0.608331 0.427649
0.859617 0.618585 0.441199
0.871916 0.628565 0.454871
0.883452 0.638788 0.469337
0.894377 0.649195 0.484962
0.904875 0.660121 0.502098
0.915007 0.671778 0.521477
0.924681 0.684230 0.542657
0.933867 0.697383 0.565698
0.942596 0.711269 0.590295
0.023163 0.489204 0.335821
0.052552 0.492226 0.338323
0.106844 0.495796 0.340978
0.148287 0.499550 0.343603
0.194736 0.503136 0.345586
0.240330 0.506065 0.346380
0.289311 0.508782 0.347478
0.324285 0.512200 0.342077
0.373541 0.514366 0.345861
0.425635 0.516716 0.353796
0.467872 0.522148 0.361517
0.506493 0.529198 0.369390
0.544213 0.536034 0.376928
0.586114 0.549401 0.383673
0.630488 0.560113 0.386786
0.671901 0.568353 0.390204
0.709224 0.574884 0.394232
0.742092 0.580072 0.398932
0.771145 0.584619 0.404883
0.794797 0.590448 0.412940
0.811734 0.599451 0.422980
0.827085 0.608392 0.433631
0.841428 0.617700 0.445106
0.854856 0.627192 0.457435
0.867185 0.636652 0.470680
0.878935 0.646143 0.483986
0.890013 0.656031 0.498695
0.900664 0.666407 0.514916
0.910979 0.677577 0.533165
0.920897 0.689662 0.553582
0.930388 0.702510 0.575799
0.939452 0.716213 0.599786
0.100038 0.519554 0.363226
0.112917 0.522850 0.366278
0.136507 0.526482 0.369299
0.172793 0.530053 0.372137
0.213687 0.533379 0.374090
0.256443 0.535790 0.375219
0.302525 0.537652 0.375586
0.349187 0.539818 0.376562
0.379736 0.542107 0.370397
0.430457 0.543206 0.377356
0.476020 0.545373 0.384741
0.511833 0.550866 0.391516
0.546899 0.556603 0.398718
0.580224 0.562554 0.406317
0.620630 0.575891 0.411017
0.660700 0.584833 0.414069
0.697597 0.591638 0.417395
0.730251 0.596887 0.421820
0.759274 0.601160 0.427253
0.785122 0.605158 0.433692
0.806455 0.610315 0.441901
0.822202 0.618921 0.452216
0.836728 0.627680 0.463386
0.850278 0.636652 0.475044
0.862821 0.645472 0.487343
0.874662 0.654444 0.500023
0.885893 0.663661 0.513573
0.896696 0.673457 0.528771
0.907134 0.684199 0.546227
0.917205 0.695796 0.565637
0.926940 0.708309 0.587182
0.936309 0.721584 0.609918
0.139620 0.550042 0.392615
0.147555 0.552636 0.395270
0.169863 0.555749 0.398108
0.199069 0.558801 0.400641
0.233982 0.561395 0.402625
0.274144 0.563165 0.403357
0.316533 0.564691 0.403754
0.360723 0.566125 0.404242
0.387182 0.568627 0.395850
0.436439 0.568872 0.401648
0.482643 0.569726 0.408972
0.519310 0.573053 0.415534
0.551659 0.577752 0.421790
0.583001 0.582879 0.428901
0.613611 0.588647 0.435737
0.652613 0.601617 0.439734
0.689021 0.609766 0.443641
0.722011 0.616022 0.449134
0.751492 0.621485 0.455848
0.777890 0.626581 0.463874
0.801450 0.631617 0.473335
0.821653 0.637720 0.484077
0.836484 0.646571 0.495949
0.850462 0.655848 0.508751
0.863310 0.664973 0.522026
0.875395 0.673945 0.535149
0.886748 0.683101 0.549065
0.897581 0.692775 0.564477
0.907988 0.703304 0.581750
0.918090 0.714443 0.600183
0.927886 0.726528 0.620447
0.937255 0.739223 0.641749
0.212253 0.595026 0.441169
0.216068 0.596185 0.442603
0.227268 0.597162 0.443732
0.248936 0.597925 0.443763
0.276799 0.598444 0.443915
0.309697 0.598749 0.443336
0.346319 0.599084 0.443091
0.386572 0.599878 0.443275
0.423011 0.601312 0.441749
0.454902 0.602319 0.438056
0.498665 0.602655 0.444373
0.537774 0.603693 0.451545
0.567193 0.607416 0.456977
0.596002 0.611627 0.463325
0.623743 0.615900 0.469551
0.653834 0.623926 0.474983
0.687251 0.632715 0.478340
0.718166 0.638392 0.482399
0.745968 0.642939 0.487526
0.771176 0.646784 0.493477
0.793881 0.650294 0.500572
0.814786 0.654139 0.508568
0.833005 0.658656 0.517205
0.846128 0.665888 0.527092
0.858976 0.674006 0.538567
0.871092 0.682490 0.551263
0.882689 0.691402 0.564721
0.893767 0.700832 0.579675
0.904479 0.710872 0.595880
0.914824 0.721645 0.613428
0.924834 0.733120 0.632349
0.934386 0.745327 0.652461
0.248508 0.621241 0.471534
0.251530 0.622034 0.472572
0.262272 0.622858 0.473701
0.280034 0.623560 0.473823
0.303807 0.623987 0.473976
0.332982 0.624201 0.473457
0.367163 0.624445 0.473274
0.403906 0.624964 0.473213
0.442603 0.625818 0.474464
0.464637 0.627649 0.466072
0.506462 0.627497 0.471656
0.544854 0.627863 0.478157
0.576318 0.629816 0.484169
0.603204 0.633448 0.490059
0.629236 0.637140 0.495949
0.654261 0.641169 0.502525
0.683528 0.650538 0.507500
0.713130 0.656764 0.511315
0.740230 0.661555 0.516228
0.764797 0.665400 0.521996
0.787320 0.668971 0.528618
0.808194 0.672602 0.535851
0.827451 0.676265 0.543816
0.844480 0.680507 0.552514
0.853941 0.681331 0.552026
0.865995 0.688960 0.563409
0.877836 0.697597 0.576379
0.889189 0.706600 0.590448
0.900145 0.716274 0.605859
0.910857 0.726802 0.622858
0.921263 0.738186 0.641352
0.931212 0.750271 0.660883
0.302342 0.654932 0.513451
0.307164 0.656214 0.514946
0.314946 0.656855 0.516014
0.327825 0.656794 0.515404
0.346105 0.656031 0.514244
0.369665 0.654994 0.512139
0.396307 0.653834 0.510338
0.427527 0.652705 0.508263
0.460914 0.651972 0.507378
0.487160 0.652003 0.502434
0.514733 0.651057 0.499153
0.550622 0.650019 0.503685
0.583337 0.649287 0.508782
0.607630 0.651087 0.512566
0.630884 0.653101 0.516350
0.653742 0.655482 0.520775
0.675776 0.658381 0.525963
0.703792 0.667201 0.529290
0.730434 0.672389 0.533684
0.755123 0.676692 0.539117
0.777920 0.680629 0.545861
0.798917 0.684413 0.552972
0.818326 0.687739 0.559899
0.835966 0.690730 0.566857
0.851713 0.693721 0.573602
0.862699 0.699062 0.581353
0.873960 0.705898 0.591485
0.885252 0.713802 0.603540
0.896269 0.722621 0.617243
0.907073 0.732418 0.632776
0.917662 0.743160 0.649775
0.927825 0.754788 0.668544
0.326085 0.672969 0.536034
0.330022 0.674159 0.537804
0.338262 0.674861 0.538506
0.350195 0.675013 0.538720
0.367224 0.674922 0.538415
0.389227 0.674617 0.537682
0.415534 0.674342 0.537133
0.445502 0.674250 0.537163
0.477638 0.674281 0.537377
0.510887 0.674678 0.539055
0.527855 0.675441 0.530785
0.561852 0.674586 0.535363
0.593103 0.673793 0.540215
0.619196 0.674006 0.544457
0.640558 0.675532 0.548089
0.661189 0.677272 0.551659
0.681605 0.679347 0.556085
0.702693 0.683406 0.560784
0.727657 0.690486 0.564202
0.751125 0.694820 0.568994
0.773312 0.698817 0.574884
0.794125 0.702510 0.581323
0.813352 0.705898 0.587976
0.831235 0.709010 0.594568
0.847745 0.711788 0.601160
0.862638 0.714626 0.607996
0.873167 0.719814 0.615534
0.883909 0.726497 0.625635
0.895140 0.734951 0.638422
0.905974 0.744228 0.652949
0.916594 0.754330 0.668788
0.926848 0.765408 0.686122
0.363897 0.696284 0.567407
0.366979 0.696803 0.568353
0.372564 0.697017 0.568475
0.382483 0.696956 0.568566
0.397070 0.696681 0.568048
0.416114 0.696193 0.567224
0.439124 0.695674 0.566827
0.465583 0.695216 0.566308
0.494453 0.694942 0.566583
0.524743 0.694881 0.567895
0.546227 0.695308 0.563806
0.570977 0.694911 0.563256
0.600336 0.693996 0.567407
0.627527 0.693050 0.571954
0.647791 0.693996 0.575128
0.666804 0.695338 0.578393
0.685451 0.696956 0.582269
0.703761 0.698970 0.586694
0.724666 0.704768 0.590967
0.747005 0.710109 0.594995
0.768612 0.714290 0.600000
0.789059 0.718013 0.605463
0.808194 0.721218 0.611017
0.825956 0.724056 0.616846
0.842496 0.726589 0.622675
0.857847 0.728847 0.628382
0.871946 0.731258 0.634455
0.881865 0.736110 0.641596
0.892210 0.742641 0.651423
0.903258 0.751492 0.665003
0.914031 0.761227 0.680049
0.924468 0.772000 0.696742
0.393347 0.714961 0.593408
0.395300 0.715358 0.594049
0.400397 0.715694 0.594507
0.410010 0.715694 0.594659
0.423499 0.715877 0.595087
0.441962 0.716060 0.595727
0.465461 0.716793 0.597284
0.492256 0.717861 0.599939
0.521660 0.719112 0.603265
0.552422 0.720607 0.607996
0.582940 0.722347 0.613794
0.598016 0.724483 0.609766
0.625269 0.725032 0.615839
0.650172 0.725368 0.621668
0.671412 0.725978 0.626581
0.688014 0.727504 0.629969
0.704219 0.729000 0.633265
0.720119 0.730831 0.637049
0.735927 0.733181 0.641505
0.755306 0.739742 0.644984
0.775418 0.744259 0.648798
0.794766 0.747921 0.653132
0.813046 0.750912 0.657649
0.830167 0.753414 0.662257
0.846220 0.755520 0.666987
0.861357 0.757412 0.671748
0.875456 0.759396 0.677028
0.888396 0.761532 0.682643
0.897520 0.765957 0.689174
0.906889 0.772030 0.698329
0.917266 0.781186 0.712154
0.927337 0.791470 0.727871
0.455177 0.745266 0.639673
0.456214 0.745266 0.639612
0.459571 0.745113 0.639551
0.466163 0.744808 0.639185
0.476326 0.744411 0.639033
0.490394 0.743984 0.638849
0.508202 0.743618 0.639124
0.528893 0.743343 0.639826
0.551873 0.743221 0.641108
0.575891 0.743343 0.643244
0.600366 0.743618 0.645899
0.616571 0.744411 0.643488
0.635279 0.744381 0.643641
