20 Preset/Wedding Style/【3】LUT for PR-AE-FCPX/Film Wedding - LUT (6).cube
# Created by Adobe Lightroom plugin Export LUT (1.24.0)
# www.johnrellis.com/lightroom/exportlut.htm
# Preset: 06婚礼纪实_火-素材江湖
# Color profile: C:\Program Files (x86)\Common Files\Adobe\Color\Profiles\Recommended\VideoHD.icc
LUT_3D_SIZE 5
DOMAIN_MIN 0.000000 0.000000 0.000000
DOMAIN_MAX 0.903226 0.903226 0.903226
0.121920 0.098878 0.081178
0.149172 0.098543 0.081819
0.350164 0.104585 0.079652
0.662501 0.172061 0.101717
0.834592 0.361181 0.255955
0.139895 0.119356 0.090761
0.155276 0.122225 0.098451
0.380621 0.161440 0.090974
0.672786 0.247929 0.136873
0.831846 0.405585 0.287663
0.286381 0.298375 0.156313
0.332616 0.302861 0.165316
0.398077 0.315465 0.229892
0.700526 0.434119 0.264408
0.813718 0.508659 0.368719
0.538537 0.538109 0.344182
0.560052 0.539361 0.350225
0.603540 0.527153 0.371740
0.613458 0.513848 0.401160
0.794888 0.609461 0.475166
0.714046 0.659632 0.513207
0.720455 0.659907 0.515465
0.737545 0.656275 0.516930
0.742092 0.639399 0.523369
0.745907 0.635340 0.535912
0.127443 0.107118 0.098116
0.161868 0.109590 0.105623
0.373297 0.114626 0.122499
0.654261 0.225162 0.180148
0.815518 0.382605 0.290013
0.150698 0.141817 0.114900
0.192721 0.151766 0.121614
0.402747 0.189273 0.143496
0.660670 0.281956 0.201389
0.813016 0.415717 0.310582
0.290196 0.330938 0.191562
0.351446 0.334997 0.207065
0.417670 0.336217 0.250736
0.683162 0.437446 0.290166
0.805875 0.519219 0.389960
0.546532 0.546990 0.367132
0.567620 0.548577 0.373053
0.618097 0.542351 0.391974
0.624659 0.525536 0.414984
0.795804 0.614008 0.484535
0.714137 0.661219 0.518395
0.720150 0.661280 0.520134
0.744259 0.663142 0.529198
0.749874 0.646784 0.532891
0.752346 0.641444 0.543755
0.149935 0.186038 0.227878
0.214359 0.191135 0.245090
0.445502 0.220615 0.289128
0.673793 0.317723 0.321935
0.797726 0.472572 0.402655
0.223209 0.255222 0.262303
0.278477 0.262333 0.269841
0.468849 0.287907 0.306340
0.674861 0.369940 0.337591
0.796109 0.495979 0.416968
0.362554 0.418067 0.332158
0.404791 0.424323 0.336919
0.533196 0.451026 0.358099
0.686000 0.496834 0.397101
0.792325 0.557946 0.457465
0.554864 0.573632 0.426184
0.570611 0.572686 0.426825
0.643427 0.578424 0.449561
0.665095 0.566644 0.464118
0.797635 0.627070 0.513664
0.697932 0.665736 0.524529
0.707637 0.666468 0.529015
0.740200 0.667994 0.542870
0.761746 0.660212 0.549432
0.758450 0.648127 0.553521
0.330694 0.372900 0.435309
0.378546 0.384100 0.442390
0.510735 0.411597 0.460670
0.678126 0.446815 0.481727
0.786130 0.524315 0.494026
0.386877 0.415381 0.445106
0.422248 0.422248 0.448005
0.529320 0.443214 0.463233
0.677729 0.468757 0.482277
0.783200 0.537591 0.497566
0.485084 0.506554 0.469795
0.508507 0.510185 0.470924
0.588464 0.527031 0.479133
0.687831 0.539574 0.494331
0.784360 0.585565 0.519158
0.604303 0.602930 0.511284
0.614923 0.603052 0.511376
0.657282 0.607874 0.516228
0.718898 0.618647 0.527611
0.799771 0.641932 0.553429
0.698268 0.679316 0.565789
0.703700 0.679561 0.566125
0.726711 0.681544 0.568841
0.775784 0.685573 0.583215
0.779202 0.668605 0.581262
0.583307 0.558312 0.571405
0.598535 0.562463 0.571954
0.651606 0.578668 0.575921
0.711391 0.589319 0.583917
0.787747 0.603540 0.593561
0.596063 0.568719 0.571527
0.610315 0.572686 0.572107
0.657404 0.585992 0.575891
0.713802 0.595636 0.583795
0.787839 0.608362 0.594049
0.626795 0.599969 0.577996
0.637354 0.601953 0.578027
0.676570 0.611017 0.580194
0.724941 0.619348 0.588006
0.792935 0.628870 0.600641
0.675227 0.647150 0.595300
0.679805 0.647150 0.595178
0.700710 0.648768 0.596521
0.744900 0.656062 0.602747
0.806821 0.663905 0.617762
0.724910 0.699825 0.625696
0.728328 0.700130 0.626032
0.744442 0.702724 0.629206
0.775998 0.707759 0.635340
0.831693 0.718746 0.648981
