20 Preset/Wedding Style/【3】LUT for PR-AE-FCPX/Film Wedding - LUT (8).cube
# Created by Adobe Lightroom plugin Export LUT (1.24.0)
# www.johnrellis.com/lightroom/exportlut.htm
# Preset: 08婚礼纪实_黑白-素材江湖
# Color profile: C:\Program Files (x86)\Common Files\Adobe\Color\Profiles\Recommended\VideoHD.icc
LUT_3D_SIZE 32
DOMAIN_MIN 0.0 0.0 0.0
DOMAIN_MAX 1.0 1.0 1.0
0.115389 0.115389 0.115389
0.115389 0.115389 0.115389
0.115389 0.115389 0.115389
0.115389 0.115389 0.115389
0.117464 0.117464 0.117464
0.122164 0.122164 0.122164
0.127565 0.127565 0.127565
0.134127 0.134127 0.134127
0.142275 0.142275 0.142275
0.150851 0.150851 0.150851
0.160647 0.160647 0.160647
0.172244 0.172244 0.172244
0.186069 0.186069 0.186069
0.202457 0.202457 0.202457
0.221225 0.221225 0.221225
0.242008 0.242008 0.242008
0.263951 0.263951 0.263951
0.286046 0.286046 0.286046
0.307164 0.307164 0.307164
0.327153 0.327153 0.327153
0.345892 0.345892 0.345892
0.363836 0.363836 0.363836
0.381323 0.381323 0.381323
0.398993 0.398993 0.398993
0.416999 0.416999 0.416999
0.435645 0.435645 0.435645
0.454810 0.454810 0.454810
0.474891 0.474891 0.474891
0.496101 0.496101 0.496101
0.518853 0.518853 0.518853
0.543664 0.543664 0.543664
0.569970 0.569970 0.569970
0.115389 0.115389 0.115389
0.115389 0.115389 0.115389
0.115389 0.115389 0.115389
0.115389 0.115389 0.115389
0.117708 0.117708 0.117708
0.122408 0.122408 0.122408
0.127779 0.127779 0.127779
0.135195 0.135195 0.135195
0.143221 0.143221 0.143221
0.151919 0.151919 0.151919
0.161959 0.161959 0.161959
0.173861 0.173861 0.173861
0.187930 0.187930 0.187930
0.204593 0.204593 0.204593
0.223606 0.223606 0.223606
0.244480 0.244480 0.244480
0.266392 0.266392 0.266392
0.288365 0.288365 0.288365
0.309545 0.309545 0.309545
0.329381 0.329381 0.329381
0.348150 0.348150 0.348150
0.365972 0.365972 0.365972
0.383612 0.383612 0.383612
0.401343 0.401343 0.401343
0.419501 0.419501 0.419501
0.438056 0.438056 0.438056
0.457252 0.457252 0.457252
0.477394 0.477394 0.477394
0.498695 0.498695 0.498695
0.521508 0.521508 0.521508
0.546441 0.546441 0.546441
0.572808 0.572808 0.572808
0.115389 0.115389 0.115389
0.115389 0.115389 0.115389
0.115389 0.115389 0.115389
0.115389 0.115389 0.115389
0.117983 0.117983 0.117983
0.122896 0.122896 0.122896
0.130465 0.130465 0.130465
0.138064 0.138064 0.138064
0.146090 0.146090 0.146090
0.154726 0.154726 0.154726
0.164858 0.164858 0.164858
0.176913 0.176913 0.176913
0.191440 0.191440 0.191440
0.208408 0.208408 0.208408
0.227604 0.227604 0.227604
0.248569 0.248569 0.248569
0.270420 0.270420 0.270420
0.291966 0.291966 0.291966
0.312779 0.312779 0.312779
0.332311 0.332311 0.332311
0.350805 0.350805 0.350805
0.368505 0.368505 0.368505
0.385901 0.385901 0.385901
0.403510 0.403510 0.403510
0.421607 0.421607 0.421607
0.440162 0.440162 0.440162
0.459419 0.459419 0.459419
0.479591 0.479591 0.479591
0.500877 0.500877 0.500877
0.523796 0.523796 0.523796
0.548760 0.548760 0.548760
0.575158 0.575158 0.575158
0.116426 0.116426 0.116426
0.116701 0.116701 0.116701
0.117220 0.117220 0.117220
0.118471 0.118471 0.118471
0.123354 0.123354 0.123354
0.130251 0.130251 0.130251
0.137057 0.137057 0.137057
0.143801 0.143801 0.143801
0.151400 0.151400 0.151400
0.160159 0.160159 0.160159
0.170565 0.170565 0.170565
0.182956 0.182956 0.182956
0.197879 0.197879 0.197879
0.215213 0.215213 0.215213
0.234623 0.234623 0.234623
0.255650 0.255650 0.255650
0.277043 0.277043 0.277043
0.298497 0.298497 0.298497
0.318853 0.318853 0.318853
0.337957 0.337957 0.337957
0.356023 0.356023 0.356023
0.373449 0.373449 0.373449
0.390539 0.390539 0.390539
0.407691 0.407691 0.407691
0.425330 0.425330 0.425330
0.443519 0.443519 0.443519
0.462409 0.462409 0.462409
0.482216 0.482216 0.482216
0.503288 0.503288 0.503288
0.526238 0.526238 0.526238
0.551324 0.551324 0.551324
0.578027 0.578027 0.578027
0.130251 0.130251 0.130251
0.130251 0.130251 0.130251
0.131106 0.131106 0.131106
0.132448 0.132448 0.132448
0.135622 0.135622 0.135622
0.141482 0.141482 0.141482
0.147005 0.147005 0.147005
0.153170 0.153170 0.153170
0.160647 0.160647 0.160647
0.169680 0.169680 0.169680
0.180331 0.180331 0.180331
0.193362 0.193362 0.193362
0.208530 0.208530 0.208530
0.226169 0.226169 0.226169
0.245396 0.245396 0.245396
0.265751 0.265751 0.265751
0.286320 0.286320 0.286320
0.306554 0.306554 0.306554
0.325933 0.325933 0.325933
0.344213 0.344213 0.344213
0.361791 0.361791 0.361791
0.378668 0.378668 0.378668
0.395239 0.395239 0.395239
0.412085 0.412085 0.412085
0.429389 0.429389 0.429389
0.447303 0.447303 0.447303
0.465980 0.465980 0.465980
0.485756 0.485756 0.485756
0.506889 0.506889 0.506889
0.529961 0.529961 0.529961
0.555169 0.555169 0.555169
0.581811 0.581811 0.581811
0.144564 0.144564 0.144564
0.144747 0.144747 0.144747
0.145144 0.145144 0.145144
0.146456 0.146456 0.146456
0.149050 0.149050 0.149050
0.153170 0.153170 0.153170
0.157321 0.157321 0.157321
0.166262 0.166262 0.166262
0.173709 0.173709 0.173709
0.182956 0.182956 0.182956
0.193881 0.193881 0.193881
0.207126 0.207126 0.207126
0.222568 0.222568 0.222568
0.239780 0.239780 0.239780
0.258274 0.258274 0.258274
0.277653 0.277653 0.277653
0.296910 0.296910 0.296910
0.315953 0.315953 0.315953
0.334051 0.334051 0.334051
0.351354 0.351354 0.351354
0.368048 0.368048 0.368048
0.384344 0.384344 0.384344
0.389960 0.389960 0.389960
0.406500 0.406500 0.406500
0.423529 0.423529 0.423529
0.441199 0.441199 0.441199
0.459754 0.459754 0.459754
0.479286 0.479286 0.479286
0.500175 0.500175 0.500175
0.522881 0.522881 0.522881
0.547875 0.547875 0.547875
0.574701 0.574701 0.574701
0.157656 0.157656 0.157656
0.157656 0.157656 0.157656
0.158145 0.158145 0.158145
0.159670 0.159670 0.159670
0.161959 0.161959 0.161959
0.165469 0.165469 0.165469
0.171023 0.171023 0.171023
0.176211 0.176211 0.176211
0.188205 0.188205 0.188205
0.196872 0.196872 0.196872
0.207492 0.207492 0.207492
0.220066 0.220066 0.220066
0.234806 0.234806 0.234806
0.251133 0.251133 0.251133
0.268742 0.268742 0.268742
0.286900 0.286900 0.286900
0.305303 0.305303 0.305303
0.323033 0.323033 0.323033
0.339971 0.339971 0.339971
0.356146 0.356146 0.356146
0.371588 0.371588 0.371588
0.386419 0.386419 0.386419
0.401099 0.401099 0.401099
0.416266 0.416266 0.416266
0.432166 0.432166 0.432166
0.449165 0.449165 0.449165
0.467262 0.467262 0.467262
0.486732 0.486732 0.486732
0.507744 0.507744 0.507744
0.530755 0.530755 0.530755
0.555993 0.555993 0.555993
0.582727 0.582727 0.582727
0.176333 0.176333 0.176333
0.176333 0.176333 0.176333
0.177066 0.177066 0.177066
0.178775 0.178775 0.178775
0.181155 0.181155 0.181155
0.184726 0.184726 0.184726
0.190036 0.190036 0.190036
0.197116 0.197116 0.197116
0.204471 0.204471 0.204471
0.220157 0.220157 0.220157
0.230716 0.230716 0.230716
0.242924 0.242924 0.242924
0.257023 0.257023 0.257023
0.272313 0.272313 0.272313
0.288518 0.288518 0.288518
0.305150 0.305150 0.305150
0.321691 0.321691 0.321691
0.337774 0.337774 0.337774
0.353307 0.353307 0.353307
0.368414 0.368414 0.368414
0.382879 0.382879 0.382879
0.396857 0.396857 0.396857
0.410925 0.410925 0.410925
0.425544 0.425544 0.425544
0.441077 0.441077 0.441077
0.457710 0.457710 0.457710
0.475685 0.475685 0.475685
0.495064 0.495064 0.495064
0.516106 0.516106 0.516106
0.539391 0.539391 0.539391
0.564508 0.564508 0.564508
0.591089 0.591089 0.591089
0.200534 0.200534 0.200534
0.200778 0.200778 0.200778
0.201511 0.201511 0.201511
0.203037 0.203037 0.203037
0.205631 0.205631 0.205631
0.209201 0.209201 0.209201
0.213901 0.213901 0.213901
0.221012 0.221012 0.221012
0.229404 0.229404 0.229404
0.238071 0.238071 0.238071
0.253391 0.253391 0.253391
0.268254 0.268254 0.268254
0.280919 0.280919 0.280919
0.294652 0.294652 0.294652
0.309209 0.309209 0.309209
0.323857 0.323857 0.323857
0.338537 0.338537 0.338537
0.353033 0.353033 0.353033
0.367285 0.367285 0.367285
0.381231 0.381231 0.381231
0.394720 0.394720 0.394720
0.407996 0.407996 0.407996
0.421424 0.421424 0.421424
0.435645 0.435645 0.435645
0.450782 0.450782 0.450782
0.467140 0.467140 0.467140
0.484871 0.484871 0.484871
0.504204 0.504204 0.504204
0.525383 0.525383 0.525383
0.548760 0.548760 0.548760
0.573754 0.573754 0.573754
0.600122 0.600122 0.600122
0.230503 0.230503 0.230503
0.230808 0.230808 0.230808
0.231601 0.231601 0.231601
0.233158 0.233158 0.233158
0.235782 0.235782 0.235782
0.239292 0.239292 0.239292
0.243748 0.243748 0.243748
0.249973 0.249973 0.249973
0.257694 0.257694 0.257694
0.266484 0.266484 0.266484
0.275883 0.275883 0.275883
0.286107 0.286107 0.286107
0.306950 0.306950 0.306950
0.318608 0.318608 0.318608
0.330877 0.330877 0.330877
0.343420 0.343420 0.343420
0.356207 0.356207 0.356207
0.368994 0.368994 0.368994
0.381811 0.381811 0.381811
0.394629 0.394629 0.394629
0.407324 0.407324 0.407324
0.420081 0.420081 0.420081
0.433295 0.433295 0.433295
0.447456 0.447456 0.447456
0.462531 0.462531 0.462531
0.478859 0.478859 0.478859
0.496590 0.496590 0.496590
0.515862 0.515862 0.515862
0.537194 0.537194 0.537194
0.560327 0.560327 0.560327
0.584833 0.584833 0.584833
0.610651 0.610651 0.610651
0.265110 0.265110 0.265110
0.265354 0.265354 0.265354
0.266087 0.266087 0.266087
0.267277 0.267277 0.267277
0.269444 0.269444 0.269444
0.272526 0.272526 0.272526
0.276432 0.276432 0.276432
0.281071 0.281071 0.281071
0.287419 0.287419 0.287419
0.295018 0.295018 0.295018
0.303349 0.303349 0.303349
0.312474 0.312474 0.312474
0.318791 0.318791 0.318791
0.341650 0.341650 0.341650
0.352056 0.352056 0.352056
0.363073 0.363073 0.363073
0.374365 0.374365 0.374365
0.385901 0.385901 0.385901
0.397620 0.397620 0.397620
0.409430 0.409430 0.409430
0.421271 0.421271 0.421271
0.433356 0.433356 0.433356
0.446174 0.446174 0.446174
0.459815 0.459815 0.459815
0.474586 0.474586 0.474586
0.490761 0.490761 0.490761
0.508415 0.508415 0.508415
0.527855 0.527855 0.527855
0.549218 0.549218 0.549218
0.572107 0.572107 0.572107
0.596246 0.596246 0.596246
0.621607 0.621607 0.621607
0.298558 0.298558 0.298558
0.298619 0.298619 0.298619
0.299107 0.299107 0.299107
0.300206 0.300206 0.300206
0.301976 0.301976 0.301976
0.304356 0.304356 0.304356
0.307622 0.307622 0.307622
0.311437 0.311437 0.311437
0.316014 0.316014 0.316014
0.322179 0.322179 0.322179
0.329015 0.329015 0.329015
0.336614 0.336614 0.336614
0.335698 0.335698 0.335698
0.342107 0.342107 0.342107
0.363806 0.363806 0.363806
0.373877 0.373877 0.373877
0.384161 0.384161 0.384161
0.394873 0.394873 0.394873
0.405737 0.405737 0.405737
0.416846 0.416846 0.416846
0.428046 0.428046 0.428046
0.439673 0.439673 0.439673
0.452216 0.452216 0.452216
0.465736 0.465736 0.465736
0.480537 0.480537 0.480537
0.496681 0.496681 0.496681
0.514488 0.514488 0.514488
0.534264 0.534264 0.534264
0.555993 0.555993 0.555993
0.578973 0.578973 0.578973
0.603174 0.603174 0.603174
0.628443 0.628443 0.628443
0.324285 0.324285 0.324285
0.324407 0.324407 0.324407
0.325078 0.325078 0.325078
0.326238 0.326238 0.326238
0.328008 0.328008 0.328008
0.330358 0.330358 0.330358
0.333318 0.333318 0.333318
0.336675 0.336675 0.336675
0.340490 0.340490 0.340490
0.344762 0.344762 0.344762
0.350134 0.350134 0.350134
0.355871 0.355871 0.355871
0.362158 0.362158 0.362158
0.369085 0.369085 0.369085
0.374731 0.374731 0.374731
0.390875 0.390875 0.390875
0.404608 0.404608 0.404608
0.414221 0.414221 0.414221
0.424323 0.424323 0.424323
0.434668 0.434668 0.434668
0.445167 0.445167 0.445167
0.456428 0.456428 0.456428
0.468544 0.468544 0.468544
0.481849 0.481849 0.481849
0.496407 0.496407 0.496407
0.512535 0.512535 0.512535
0.530449 0.530449 0.530449
0.550256 0.550256 0.550256
0.571466 0.571466 0.571466
0.593957 0.593957 0.593957
0.617517 0.617517 0.617517
0.642176 0.642176 0.642176
0.354314 0.354314 0.354314
0.354559 0.354559 0.354559
0.355169 0.355169 0.355169
0.356237 0.356237 0.356237
0.357763 0.357763 0.357763
0.359777 0.359777 0.359777
0.362280 0.362280 0.362280
0.365057 0.365057 0.365057
0.368200 0.368200 0.368200
0.371588 0.371588 0.371588
0.375769 0.375769 0.375769
0.380529 0.380529 0.380529
0.385931 0.385931 0.385931
0.391943 0.391943 0.391943
0.398718 0.398718 0.398718
0.404547 0.404547 0.404547
0.416266 0.416266 0.416266
0.433845 0.433845 0.433845
0.443091 0.443091 0.443091
0.452674 0.452674 0.452674
0.462654 0.462654 0.462654
0.473457 0.473457 0.473457
0.485451 0.485451 0.485451
0.498512 0.498512 0.498512
0.513024 0.513024 0.513024
0.529229 0.529229 0.529229
0.547295 0.547295 0.547295
0.566796 0.566796 0.566796
0.587579 0.587579 0.587579
0.609522 0.609522 0.609522
0.632441 0.632441 0.632441
0.656367 0.656367 0.656367
0.381811 0.381811 0.381811
0.381964 0.381964 0.381964
0.382513 0.382513 0.382513
0.383520 0.383520 0.383520
0.384894 0.384894 0.384894
0.386755 0.386755 0.386755
0.388861 0.388861 0.388861
0.391333 0.391333 0.391333
0.393988 0.393988 0.393988
0.396948 0.396948 0.396948
0.400092 0.400092 0.400092
0.404242 0.404242 0.404242
0.408850 0.408850 0.408850
0.414191 0.414191 0.414191
0.420203 0.420203 0.420203
0.426886 0.426886 0.426886
0.432990 0.432990 0.432990
0.440589 0.440589 0.440589
0.462135 0.462135 0.462135
0.471199 0.471199 0.471199
0.480781 0.480781 0.480781
0.491371 0.491371 0.491371
0.503227 0.503227 0.503227
0.516381 0.516381 0.516381
0.530999 0.530999 0.530999
0.547387 0.547387 0.547387
0.565087 0.565087 0.565087
0.584070 0.584070 0.584070
0.604089 0.604089 0.604089
0.625086 0.625086 0.625086
0.647028 0.647028 0.647028
0.669825 0.669825 0.669825
0.408240 0.408240 0.408240
0.408270 0.408270 0.408270
0.408576 0.408576 0.408576
0.409308 0.409308 0.409308
0.410376 0.410376 0.410376
0.411719 0.411719 0.411719
0.413397 0.413397 0.413397
0.415320 0.415320 0.415320
0.417609 0.417609 0.417609
0.420203 0.420203 0.420203
0.423041 0.423041 0.423041
0.426459 0.426459 0.426459
0.431037 0.431037 0.431037
0.436164 0.436164 0.436164
0.441840 0.441840 0.441840
0.448157 0.448157 0.448157
0.455085 0.455085 0.455085
0.461280 0.461280 0.461280
0.466835 0.466835 0.466835
0.489113 0.489113 0.489113
0.500084 0.500084 0.500084
0.510491 0.510491 0.510491
0.522271 0.522271 0.522271
0.535454 0.535454 0.535454
0.550011 0.550011 0.550011
0.566003 0.566003 0.566003
0.583185 0.583185 0.583185
0.601495 0.601495 0.601495
0.620905 0.620905 0.620905
0.641321 0.641321 0.641321
0.662684 0.662684 0.662684
0.684810 0.684810 0.684810
0.433631 0.433631 0.433631
0.433692 0.433692 0.433692
0.433967 0.433967 0.433967
0.434485 0.434485 0.434485
0.435340 0.435340 0.435340
0.436561 0.436561 0.436561
0.437995 0.437995 0.437995
0.439734 0.439734 0.439734
0.441749 0.441749 0.441749
0.444099 0.444099 0.444099
0.446845 0.446845 0.446845
0.449866 0.449866 0.449866
0.453590 0.453590 0.453590
0.458228 0.458228 0.458228
0.463508 0.463508 0.463508
0.469368 0.469368 0.469368
0.475746 0.475746 0.475746
0.482673 0.482673 0.482673
0.489082 0.489082 0.489082
0.494697 0.494697 0.494697
0.514183 0.514183 0.514183
0.530816 0.530816 0.530816
0.542718 0.542718 0.542718
0.555779 0.555779 0.555779
0.570062 0.570062 0.570062
0.585504 0.585504 0.585504
0.602045 0.602045 0.602045
0.619684 0.619684 0.619684
0.638361 0.638361 0.638361
0.657954 0.657954 0.657954
0.678462 0.678462 0.678462
0.699702 0.699702 0.699702
0.457679 0.457679 0.457679
0.457618 0.457618 0.457618
0.452308 0.452308 0.452308
0.452796 0.452796 0.452796
0.453590 0.453590 0.453590
0.454658 0.454658 0.454658
0.456092 0.456092 0.456092
0.457771 0.457771 0.457771
0.459724 0.459724 0.459724
0.461860 0.461860 0.461860
0.464424 0.464424 0.464424
0.467262 0.467262 0.467262
0.470680 0.470680 0.470680
0.474983 0.474983 0.474983
0.480171 0.480171 0.480171
0.485969 0.485969 0.485969
0.492409 0.492409 0.492409
0.499367 0.499367 0.499367
0.506828 0.506828 0.506828
0.514183 0.514183 0.514183
0.521080 0.521080 0.521050
0.538384 0.538384 0.538384
0.561181 0.561181 0.561181
0.574243 0.574243 0.574243
0.588495 0.588495 0.588495
0.603876 0.603876 0.603876
0.620386 0.620386 0.620386
0.637842 0.637842 0.637842
0.656031 0.656031 0.656031
0.675044 0.675044 0.675044
0.694728 0.694728 0.694728
0.715084 0.715084 0.715084
0.480049 0.480049 0.480049
0.479622 0.479622 0.479622
0.479255 0.479255 0.479255
0.479225 0.479225 0.479225
0.479591 0.479591 0.479591
0.480446 0.480446 0.480446
0.481758 0.481758 0.481758
0.483345 0.483345 0.483345
0.485206 0.485206 0.485206
0.487343 0.487343 0.487343
0.489876 0.489876 0.489876
0.492714 0.492714 0.492714
0.495949 0.495949 0.495949
0.499702 0.499702 0.499702
0.504662 0.504662 0.504662
0.510216 0.510216 0.510216
0.516442 0.516442 0.516442
0.523125 0.523125 0.523125
0.530358 0.530358 0.530358
0.538079 0.538079 0.538079
0.546044 0.546044 0.546044
0.553948 0.553948 0.553948
0.568231 0.568231 0.568231
0.596246 0.596246 0.596246
0.610040 0.610040 0.610040
0.624964 0.624964 0.624964
0.640894 0.640894 0.640894
0.657649 0.657649 0.657649
0.675105 0.675105 0.675105
0.693233 0.693233 0.693233
0.712001 0.712001 0.712001
0.731258 0.731258 0.731258
0.507134 0.507134 0.507134
0.506584 0.506584 0.506584
0.506218 0.506218 0.506218
0.506096 0.506096 0.506096
0.506371 0.506371 0.506371
0.507164 0.507164 0.507164
0.508385 0.508385 0.508385
0.509941 0.509941 0.509941
0.511833 0.511833 0.511833
0.514031 0.514031 0.514031
0.516472 0.516472 0.516472
0.519371 0.519371 0.519371
0.522637 0.522637 0.522637
0.526360 0.526360 0.526360
0.530663 0.530663 0.530663
0.536248 0.536248 0.536248
0.542382 0.542382 0.542382
0.549035 0.549035 0.549035
0.556115 0.556115 0.556115
0.563561 0.563561 0.563561
0.571283 0.571283 0.571283
0.579339 0.579339 0.579339
0.587976 0.587976 0.587976
0.599115 0.599115 0.599115
0.628626 0.628626 0.628626
0.646143 0.646143 0.646143
0.661372 0.661372 0.661372
0.677424 0.677424 0.677424
0.694118 0.694118 0.694118
0.711391 0.711391 0.711391
0.729152 0.729152 0.729152
0.747402 0.747402 0.747402
0.536370 0.536370 0.536370
0.535851 0.535851 0.535851
0.535454 0.535454 0.535454
0.535332 0.535332 0.535332
0.535637 0.535637 0.535637
0.536400 0.536400 0.536400
0.537682 0.537682 0.537682
0.539269 0.539269 0.539269
0.541131 0.541131 0.541131
0.543359 0.543359 0.543359
0.545830 0.545830 0.545830
0.548669 0.548669 0.548669
0.551965 0.551965 0.551965
0.555596 0.555596 0.555596
0.559686 0.559686 0.559686
0.564508 0.564508 0.564508
0.570123 0.570123 0.570123
0.576104 0.576104 0.576104
0.582422 0.582422 0.582422
0.589014 0.589014 0.589014
0.595789 0.595789 0.595789
0.602930 0.602930 0.602930
0.610498 0.610498 0.610498
0.619440 0.619440 0.619440
0.629664 0.629664 0.629664
0.656397 0.656397 0.656397
0.677760 0.677760 0.677760
0.692897 0.692897 0.692897
0.708644 0.708644 0.708644
0.725063 0.725063 0.725063
0.741939 0.741939 0.741939
0.759274 0.759274 0.759274
0.564111 0.564111 0.564111
0.563897 0.563897 0.563897
0.563897 0.563897 0.563897
0.564202 0.564202 0.564202
0.564874 0.564874 0.564874
0.565820 0.565820 0.565820
0.567163 0.567163 0.567163
0.568750 0.568750 0.568750
0.570550 0.570550 0.570550
0.572625 0.572625 0.572625
0.574945 0.574945 0.574945
0.577630 0.577630 0.577630
0.580774 0.580774 0.580774
0.584192 0.584192 0.584192
0.588098 0.588098 0.588098
0.592370 0.592370 0.592370
0.597528 0.597528 0.597528
0.603296 0.603296 0.603296
0.609461 0.609430 0.609430
0.615869 0.615869 0.615869
0.622583 0.622583 0.622583
0.629541 0.629541 0.629541
0.636896 0.636896 0.636896
0.644526 0.644526 0.644526
0.654231 0.654231 0.654231
0.665187 0.665187 0.665187
0.687922 0.687922 0.687922
0.712367 0.712367 0.712367
0.727260 0.727260 0.727260
0.742702 0.742702 0.742702
0.758602 0.758602 0.758602
0.774868 0.774868 0.774868
0.596826 0.596826 0.596826
0.596674 0.596674 0.596674
0.596674 0.596674 0.596674
0.596918 0.596918 0.596918
0.597528 0.597528 0.597528
0.598383 0.598383 0.598383
0.599603 0.599603 0.599603
0.601068 0.601068 0.601068
0.602808 0.602808 0.602808
0.604700 0.604700 0.604700
0.606958 0.606958 0.606958
0.609430 0.609430 0.609430
0.612299 0.612299 0.612299
0.615473 0.615473 0.615473
0.619043 0.619043 0.619043
0.622980 0.622980 0.622980
0.627222 0.627222 0.627222
0.632502 0.632502 0.632502
0.638117 0.638117 0.638117
0.643977 0.643977 0.643977
0.650172 0.650172 0.650172
0.656611 0.656611 0.656611
0.663355 0.663355 0.663355
0.670314 0.670314 0.670314
0.679713 0.679713 0.679713
0.689601 0.689601 0.689601
0.700832 0.700832 0.700832
0.719692 0.719692 0.719692
0.745907 0.745907 0.745907
0.760586 0.760586 0.760586
0.775357 0.775357 0.775357
0.790463 0.790463 0.790463
0.627955 0.627955 0.627955
0.627619 0.627619 0.627619
0.627619 0.627619 0.627619
0.627985 0.627985 0.627985
0.628809 0.628809 0.628809
0.629938 0.629938 0.629938
0.631403 0.631403 0.631403
0.633082 0.633082 0.633082
0.635065 0.635065 0.635065
0.637232 0.637232 0.637232
0.639612 0.639612 0.639612
0.642267 0.642267 0.642267
0.645167 0.645167 0.645167
0.648371 0.648371 0.648371
0.652003 0.652003 0.652003
0.655848 0.655848 0.655848
0.660029 0.660029 0.660029
0.664576 0.664576 0.664576
0.669734 0.669734 0.669734
0.675074 0.675074 0.675074
0.680598 0.680598 0.680598
0.686427 0.686427 0.686427
0.692592 0.692592 0.692592
0.699184 0.699184 0.699184
0.706142 0.706142 0.706142
0.713313 0.713313 0.713313
0.723110 0.723110 0.723110
0.734737 0.734737 0.734737
0.750362 0.750362 0.750362
0.774899 0.774899 0.774899
0.791531 0.791531 0.791531
0.805722 0.805722 0.805722
0.663020 0.663020 0.663020
0.662745 0.662745 0.662745
0.662684 0.662684 0.662684
0.662959 0.662959 0.662959
0.663508 0.663508 0.663508
0.664332 0.664332 0.664332
0.665400 0.665400 0.665400
0.666682 0.666682 0.666682
0.668177 0.668177 0.668177
0.669886 0.669886 0.669886
0.671870 0.671870 0.671870
0.674128 0.674128 0.674128
0.676722 0.676722 0.676722
0.679683 0.679683 0.679683
0.682948 0.682948 0.682948
0.686549 0.686549 0.686549
0.690394 0.690394 0.690394
0.694423 0.694423 0.694423
0.698878 0.698878 0.698878
0.703761 0.703761 0.703761
0.708797 0.708797 0.708797
0.714107 0.714107 0.714107
0.719661 0.719661 0.719661
0.725490 0.725490 0.725490
0.731624 0.731624 0.731624
0.738033 0.738033 0.738033
0.744594 0.744594 0.744594
0.753780 0.753780 0.753780
0.765377 0.765377 0.765377
0.777981 0.777981 0.777981
0.800839 0.800839 0.800839
0.817960 0.817960 0.817960
0.695949 0.695949 0.695949
0.695827 0.695827 0.695827
0.695918 0.695918 0.695918
0.696193 0.696193 0.696193
0.696742 0.696742 0.696742
0.697536 0.697536 0.697536
0.698512 0.698512 0.698512
0.699733 0.699733 0.699733
0.701167 0.701167 0.701167
0.702724 0.702724 0.702724
0.704555 0.704555 0.704555
0.706600 0.706600 0.706600
0.708949 0.708949 0.708949
0.711574 0.711574 0.711574
0.714534 0.714534 0.714534
0.717800 0.717800 0.717800
0.721309 0.721309 0.721309
0.724941 0.724941 0.724941
0.728695 0.728695 0.728695
0.732967 0.732967 0.732967
0.737514 0.737514 0.737514
0.742275 0.742275 0.742275
0.747280 0.747280 0.747280
0.752560 0.752560 0.752560
0.758053 0.758053 0.758053
0.763821 0.763821 0.763821
0.769741 0.769741 0.769741
0.775753 0.775753 0.775753
0.784146 0.784146 0.784146
0.795560 0.795560 0.795560
0.806546 0.806546 0.806546
0.825162 0.825162 0.825162
0.729183 0.729183 0.729183
0.729091 0.729091 0.729091
0.729091 0.729091 0.729091
0.729305 0.729305 0.729305
0.729671 0.729671 0.729671
0.730129 0.730129 0.730129
0.730587 0.730587 0.730587
0.731197 0.731197 0.731197
0.731838 0.731838 0.731838
0.732631 0.732631 0.732631
0.733639 0.733639 0.733639
0.734859 0.734859 0.734859
0.736416 0.736416 0.736416
0.738338 0.738338 0.738338
0.740627 0.740627 0.740627
0.743374 0.743374 0.743374
0.746426 0.746426 0.746426
0.749660 0.749660 0.749660
0.752987 0.752987 0.752987
0.756497 0.756497 0.756497
0.760586 0.760586 0.760586
0.764889 0.764889 0.764889
0.769406 0.769406 0.769406
0.774228 0.774228 0.774228
0.779232 0.779232 0.779232
0.784512 0.784512 0.784512
0.789883 0.789883 0.789883
0.795438 0.795438 0.795438
0.800687 0.800687 0.800687
0.807675 0.807675 0.807675
0.818112 0.818112 0.818112
0.829099 0.829099 0.829099
0.756954 0.756954 0.756954
0.756954 0.756954 0.756954
0.757137 0.757137 0.757137
0.757412 0.757412 0.757412
0.757839 0.757839 0.757839
0.758419 0.758419 0.758419
0.759152 0.759152 0.759152
0.760006 0.760006 0.760006
0.760983 0.760983 0.760983
0.762112 0.762112 0.762112
0.763394 0.763394 0.763394
0.764828 0.764828 0.764828
0.766506 0.766506 0.766506
0.768429 0.768429 0.768429
