20 Preset/Wedding Style/【3】LUT for PR-AE-FCPX/Film Wedding - LUT (7).cube
# Created by Adobe Lightroom plugin Export LUT (1.24.0)
# www.johnrellis.com/lightroom/exportlut.htm
# Preset: 07婚礼纪实_黑白-素材江湖
# Color profile: C:\Program Files (x86)\Common Files\Adobe\Color\Profiles\Recommended\VideoHD.icc
LUT_3D_SIZE 5
DOMAIN_MIN 0.000000 0.000000 0.000000
DOMAIN_MAX 0.903226 0.903226 0.903226
0.212009 0.212009 0.212009
0.250065 0.250065 0.250065
0.325078 0.325078 0.325078
0.438239 0.438239 0.438239
0.579309 0.579309 0.579309
0.283757 0.283757 0.283757
0.300816 0.300816 0.300816
0.365209 0.365209 0.365209
0.466011 0.466011 0.466011
0.599634 0.599634 0.599634
0.432532 0.432532 0.432532
0.440162 0.440162 0.440162
0.480568 0.480568 0.480568
0.565087 0.565087 0.565087
0.664942 0.664942 0.664942
0.616480 0.616480 0.616480
0.620691 0.620691 0.620691
0.639307 0.639307 0.639307
0.674037 0.674037 0.674037
0.748074 0.748074 0.748074
0.779232 0.779232 0.779232
0.780819 0.780819 0.780819
0.786130 0.786130 0.786130
0.800381 0.800381 0.800381
0.819516 0.819516 0.819516
0.225559 0.225559 0.225559
0.245304 0.245304 0.245304
0.330297 0.330297 0.330297
0.441474 0.441474 0.441474
0.578424 0.578424 0.578424
0.276493 0.276493 0.276493
0.302464 0.302464 0.302464
0.367376 0.367376 0.367376
0.466865 0.466865 0.466865
0.597284 0.597284 0.597284
0.434424 0.434424 0.434424
0.441932 0.441932 0.441932
0.477699 0.477699 0.477699
0.560723 0.560723 0.560723
0.663844 0.663844 0.663844
0.617212 0.617212 0.617212
0.621515 0.621515 0.621515
0.639338 0.639338 0.639338
0.673579 0.673579 0.673579
0.747524 0.747524 0.747524
0.779232 0.779232 0.779232
0.780758 0.780758 0.780758
0.787411 0.787411 0.787411
0.801083 0.801083 0.801083
0.820279 0.820279 0.820279
0.252628 0.252628 0.252628
0.267765 0.267765 0.267765
0.318242 0.318242 0.318242
0.436561 0.436561 0.436561
0.577417 0.577417 0.577417
0.302312 0.302312 0.302312
0.320165 0.320165 0.320165
0.358068 0.358068 0.358068
0.464302 0.464302 0.464302
0.596612 0.596612 0.596612
0.403296 0.403296 0.403296
0.419684 0.419684 0.419684
0.480934 0.480934 0.480934
0.557519 0.557519 0.557519
0.660639 0.660639 0.660639
0.612634 0.612634 0.612634
0.619287 0.619287 0.619287
0.640192 0.640192 0.640192
0.673396 0.673396 0.673396
0.745693 0.745693 0.745693
0.778408 0.778408 0.778408
0.780117 0.780117 0.780117
0.787076 0.787076 0.787076
0.800412 0.800412 0.800412
0.820188 0.820188 0.820188
0.295720 0.295720 0.295720
0.306493 0.306493 0.306493
0.345892 0.345892 0.345892
0.416236 0.416236 0.416236
0.564446 0.564446 0.564446
0.342504 0.342504 0.342504
0.350469 0.350469 0.350469
0.383093 0.383093 0.383093
0.445319 0.445319 0.445319
0.584802 0.584802 0.584802
0.409888 0.409888 0.409888
0.427008 0.427008 0.427008
0.498421 0.498421 0.498421
0.541405 0.541405 0.541405
0.651087 0.651087 0.651087
0.565118 0.565118 0.565118
0.574273 0.574273 0.574273
0.610590 0.610590 0.610590
0.674128 0.674128 0.674128
0.739742 0.739742 0.739742
0.767391 0.767391 0.767391
0.770260 0.770260 0.770260
0.782223 0.782223 0.782223
0.800320 0.800320 0.800320
0.821469 0.821469 0.821469
0.370520 0.370520 0.370520
0.372259 0.372259 0.372259
0.405463 0.405463 0.405463
0.467720 0.467720 0.467720
0.557366 0.557366 0.557366
0.396765 0.396765 0.396765
0.404334 0.404334 0.404334
0.435462 0.435462 0.435462
0.491981 0.491981 0.491981
0.575250 0.575250 0.575250
0.462409 0.462409 0.462409
0.486488 0.486488 0.486488
0.531914 0.531914 0.531914
0.574243 0.574243 0.574243
0.636683 0.636683 0.636683
0.555230 0.555230 0.555230
0.562371 0.562371 0.562371
0.592981 0.592981 0.592981
0.685451 0.685451 0.685451
0.727382 0.727382 0.727382
0.724575 0.724575 0.724575
0.728511 0.728511 0.728511
0.745754 0.745754 0.745754
0.777249 0.777249 0.777249
0.822629 0.822629 0.822629
