20 Preset/Wedding Style/【3】LUT for PR-AE-FCPX/Film Wedding - LUT (4).cube
# Created by Adobe Lightroom plugin Export LUT (1.24.0)
# www.johnrellis.com/lightroom/exportlut.htm
# Preset: 04婚礼纪实_火-素材江湖
# Color profile: C:\Program Files (x86)\Common Files\Adobe\Color\Profiles\Recommended\VideoHD.icc
LUT_3D_SIZE 8
DOMAIN_MIN 0.000000 0.000000 0.000000
DOMAIN_MAX 0.903226 0.903226 0.903226
0.095277 0.100893 0.072602
0.109468 0.102083 0.075746
0.209262 0.105013 0.078523
0.426886 0.068666 0.057618
0.691066 0.000000 0.000031
0.864988 0.236667 0.010620
0.931334 0.372747 0.151308
0.969909 0.478584 0.254612
0.103578 0.106447 0.084932
0.109804 0.108370 0.086976
0.222141 0.123354 0.075196
0.434272 0.118715 0.049805
0.689601 0.113649 0.000000
0.855100 0.256107 0.007568
0.924315 0.377539 0.146029
0.965698 0.480446 0.250401
0.148226 0.164187 0.133730
0.158999 0.174166 0.140902
0.195102 0.179751 0.136507
0.467201 0.247257 0.086000
0.744594 0.311437 0.000000
0.867247 0.389227 0.088746
0.926513 0.465858 0.198520
0.964477 0.537469 0.297185
0.295140 0.348943 0.280095
0.310765 0.359197 0.287297
0.387396 0.407477 0.321538
0.416693 0.367437 0.272740
0.683162 0.448341 0.233951
0.866972 0.554742 0.217685
0.919585 0.577020 0.284123
0.955993 0.612024 0.363958
0.554467 0.566583 0.458900
0.564904 0.573266 0.465095
0.608972 0.602777 0.494057
0.651942 0.621668 0.506676
0.632349 0.546990 0.413581
0.757168 0.571893 0.370642
0.879850 0.651331 0.402625
0.938567 0.695644 0.466651
0.703517 0.698024 0.616266
0.710079 0.703487 0.623987
0.724178 0.714412 0.639368
0.747677 0.734401 0.666438
0.751553 0.723445 0.642878
0.743343 0.672114 0.555352
0.798764 0.665522 0.510887
0.889158 0.735561 0.573083
0.774380 0.777554 0.721614
0.776394 0.779538 0.724178
0.782742 0.785306 0.731624
0.795102 0.796628 0.746456
0.811460 0.811093 0.765133
0.805264 0.789944 0.728664
0.796536 0.750576 0.667994
0.825589 0.736233 0.627619
0.828672 0.840543 0.802426
0.829618 0.841337 0.803464
0.833921 0.844907 0.808164
0.842283 0.851926 0.817288
0.850614 0.858061 0.825284
0.858305 0.862028 0.828824
0.854337 0.848112 0.804044
0.849119 0.822385 0.762142
0.097505 0.102602 0.086244
0.109712 0.102174 0.090120
0.189670 0.104585 0.097230
0.385260 0.100008 0.106233
0.654139 0.054047 0.110597
0.836942 0.225528 0.129854
0.915679 0.358862 0.183261
0.959625 0.466987 0.265232
0.104005 0.107973 0.090120
0.113161 0.111574 0.096986
0.205295 0.121248 0.102632
0.405035 0.128817 0.107576
0.665187 0.135805 0.112001
0.837186 0.255802 0.132021
0.912779 0.372168 0.184390
0.956847 0.472450 0.264652
0.149233 0.164279 0.140810
0.163790 0.176822 0.155856
0.199313 0.188235 0.156832
0.471595 0.254185 0.123384
0.717952 0.299351 0.118349
0.849638 0.375860 0.152102
0.913237 0.450477 0.217502
0.955505 0.525505 0.301549
0.284672 0.336156 0.278508
0.304173 0.347753 0.289830
0.378729 0.396887 0.325048
0.400946 0.357977 0.277592
0.663050 0.432624 0.240299
0.852689 0.536492 0.227054
0.908598 0.559838 0.283421
0.948241 0.599756 0.359930
0.546746 0.557610 0.457221
0.556298 0.563348 0.462409
0.598230 0.591485 0.488746
0.643336 0.613458 0.504875
0.620172 0.537072 0.411749
0.751339 0.566522 0.372076
0.876158 0.646540 0.403204
0.934112 0.689357 0.464729
0.697230 0.691096 0.609613
0.701289 0.694179 0.613855
0.716640 0.705989 0.630152
0.741970 0.727230 0.659113
0.748165 0.719631 0.640436
0.740352 0.669520 0.555261
0.797360 0.664515 0.512352
0.887510 0.733425 0.572045
0.770382 0.772488 0.716121
0.771572 0.773404 0.717311
0.777920 0.779294 0.724819
0.790890 0.791409 0.740597
0.809140 0.808316 0.762539
0.803128 0.787381 0.726467
0.793515 0.746822 0.664271
0.823209 0.732387 0.622980
0.825803 0.837461 0.798886
0.827207 0.838743 0.800534
0.831510 0.842313 0.805203
0.840116 0.849607 0.814664
0.851957 0.859403 0.827420
0.859159 0.862974 0.830625
0.854154 0.848051 0.804501
0.848600 0.821927 0.762051
0.099458 0.108858 0.135470
0.110811 0.107088 0.146456
0.198581 0.098177 0.171115
0.388220 0.088533 0.185519
0.607691 0.135683 0.220951
0.810605 0.255711 0.258579
0.898894 0.387640 0.299504
0.945953 0.491188 0.357397
0.120790 0.131991 0.151217
0.123232 0.128237 0.162387
0.207736 0.120058 0.184726
0.386877 0.131930 0.195682
0.619074 0.174136 0.229374
0.809964 0.280919 0.262333
0.896666 0.397925 0.299321
0.943938 0.496315 0.357031
0.151736 0.188174 0.182620
0.165560 0.196201 0.192599
0.220493 0.223941 0.227756
0.438697 0.256168 0.242039
0.681422 0.304417 0.261479
0.827787 0.386725 0.285618
0.897124 0.466285 0.324529
0.941558 0.540093 0.382361
0.265995 0.324010 0.279393
0.288701 0.337713 0.294743
0.384436 0.392645 0.354040
0.436774 0.394659 0.341192
0.704616 0.480659 0.322148
0.839048 0.538476 0.340093
0.894835 0.569940 0.379767
0.935973 0.611841 0.434119
0.524437 0.542046 0.451240
0.539544 0.549767 0.461616
0.594354 0.581506 0.501518
0.662013 0.631800 0.551904
0.637751 0.560571 0.458900
0.766140 0.594720 0.429480
0.875578 0.663264 0.463752
0.924437 0.694606 0.514946
0.688380 0.683162 0.604456
0.694209 0.686702 0.611048
0.712764 0.699367 0.631769
0.738064 0.721004 0.659876
0.750484 0.723873 0.657557
0.740566 0.675166 0.577661
0.799832 0.677211 0.544335
0.887419 0.742306 0.599878
0.767758 0.769436 0.715084
0.769528 0.770626 0.717372
0.776486 0.776486 0.725917
0.789212 0.788632 0.741268
0.807584 0.805966 0.763210
0.804929 0.791012 0.736599
0.794919 0.751339 0.676143
0.827298 0.742184 0.641810
0.823850 0.835355 0.797726
0.825071 0.836149 0.799191
0.829465 0.839902 0.804013
0.838865 0.848081 0.814481
0.851072 0.858305 0.827634
0.861387 0.865507 0.835996
0.855741 0.850584 0.810147
0.849424 0.824002 0.767330
0.000000 0.137697 0.289311
0.047364 0.136599 0.300084
0.198215 0.118563 0.327245
0.413306 0.034699 0.342077
0.660578 0.115236 0.351537
0.791684 0.214725 0.350347
0.862699 0.381109 0.392828
0.918700 0.496468 0.441535
0.111055 0.188937 0.313115
0.120058 0.181613 0.320226
0.216281 0.158907 0.341466
0.426093 0.123140 0.353460
0.662867 0.174868 0.360235
0.788815 0.247715 0.356359
0.862913 0.399481 0.399176
0.917845 0.506828 0.446479
0.252384 0.310582 0.341894
0.274662 0.318395 0.349615
0.281376 0.297124 0.370642
0.449134 0.257603 0.380713
0.659327 0.306218 0.384619
0.776486 0.386206 0.402686
0.867216 0.480659 0.436805
0.917205 0.556451 0.477058
0.306157 0.390997 0.367773
0.323522 0.395880 0.373327
0.388220 0.415717 0.395727
0.482246 0.445045 0.429969
0.680659 0.480751 0.438422
0.799283 0.525444 0.453162
0.865202 0.571374 0.478370
0.912779 0.619593 0.515038
0.475319 0.511009 0.432654
0.490761 0.518578 0.442237
0.552575 0.551110 0.483619
0.644953 0.609888 0.557580
0.660029 0.594598 0.528771
0.785092 0.638575 0.523217
0.862211 0.678676 0.553368
0.907713 0.699763 0.579767
0.670832 0.670436 0.593530
0.679316 0.676081 0.602655
0.700069 0.688502 0.624781
0.732692 0.712123 0.662684
0.760220 0.738369 0.691768
0.744869 0.689784 0.618799
0.807004 0.702663 0.600488
0.889982 0.757717 0.643214
0.757412 0.760189 0.704646
0.759915 0.762173 0.707912
0.769497 0.769619 0.720546
0.786099 0.783719 0.742245
0.805539 0.802945 0.765652
0.810025 0.799527 0.756466
0.796841 0.758206 0.694514
0.834348 0.756619 0.668940
0.817502 0.831174 0.791684
0.818967 0.832151 0.793454
0.825315 0.836576 0.801114
0.836271 0.845060 0.813901
0.849241 0.856229 0.827817
0.864805 0.869352 0.844327
0.858488 0.854948 0.819913
0.850889 0.827787 0.776638
0.000000 0.234257 0.493355
0.088197 0.232670 0.498634
0.249821 0.213596 0.510002
0.456947 0.115297 0.520439
0.678950 0.075044 0.518944
0.821561 0.304601 0.515557
0.871855 0.401129 0.499916
0.901335 0.494759 0.515160
0.167453 0.289616 0.506493
0.194644 0.286015 0.511131
0.291203 0.261265 0.520134
0.469429 0.175631 0.526390
0.682033 0.162570 0.523888
0.818570 0.335424 0.519707
0.868376 0.417487 0.503593
0.897368 0.507012 0.520714
0.404761 0.449378 0.526909
0.408515 0.445167 0.529839
0.404181 0.405158 0.537865
0.504570 0.334417 0.543450
0.682582 0.313817 0.536400
0.800412 0.417151 0.527611
0.853666 0.469917 0.515007
0.881224 0.547509 0.538903
0.520287 0.549004 0.544030
0.532433 0.552239 0.547478
0.577020 0.565454 0.561669
0.577539 0.535241 0.569665
0.680720 0.485145 0.562493
0.776242 0.528618 0.551537
0.825895 0.561364 0.550286
0.880095 0.614618 0.576349
0.553155 0.593652 0.547509
0.561273 0.595727 0.550469
0.590234 0.602594 0.561059
0.632990 0.613062 0.577600
0.672908 0.621973 0.593286
0.765805 0.639734 0.596918
0.830014 0.662043 0.606714
0.883574 0.689052 0.623316
0.617090 0.635431 0.555505
0.622583 0.636927 0.558862
0.645869 0.645167 0.575799
0.691463 0.673457 0.620081
0.739681 0.711604 0.675319
0.745693 0.700313 0.653742
0.819516 0.729946 0.656306
0.889220 0.765621 0.682673
0.734524 0.739101 0.679500
0.736568 0.740444 0.681849
0.745968 0.747280 0.693172
0.765774 0.763302 0.718563
0.792538 0.786526 0.753536
0.814572 0.807584 0.776944
0.796597 0.763210 0.712673
0.843870 0.771817 0.697169
0.798154 0.816068 0.769497
0.799832 0.817136 0.771542
0.807095 0.822049 0.780392
0.822263 0.833249 0.799039
0.841245 0.847868 0.821317
0.859800 0.864225 0.841123
0.861112 0.859678 0.831357
0.849882 0.829007 0.784024
0.344366 0.394507 0.664240
0.363226 0.391516 0.665797
0.429114 0.370062 0.667811
0.547509 0.315435 0.669642
0.703914 0.169680 0.666621
0.822568 0.299931 0.654108
0.870573 0.478798 0.630671
0.898589 0.567987 0.631678
0.392279 0.432074 0.661982
0.403632 0.427375 0.662684
0.453101 0.405035 0.665156
0.553826 0.350866 0.667506
0.698909 0.221317 0.663355
0.816983 0.322911 0.651453
0.866209 0.488228 0.629816
0.895659 0.570916 0.630701
0.556878 0.565972 0.668086
0.553307 0.558587 0.668849
0.551659 0.530816 0.672786
0.593133 0.481270 0.673152
0.698299 0.381415 0.669123
0.805966 0.425116 0.656977
0.852934 0.545739 0.640833
0.886473 0.599115 0.639765
0.676387 0.669490 0.681025
0.675776 0.667933 0.681209
0.675074 0.661341 0.682887
0.667079 0.632074 0.685756
0.700710 0.568322 0.681941
0.787442 0.557061 0.670375
0.834379 0.624537 0.663508
0.873930 0.641352 0.655482
0.688350 0.695521 0.680140
0.691737 0.696376 0.681209
0.704952 0.700038 0.685786
0.725673 0.706874 0.694148
0.720455 0.684993 0.690852
0.763851 0.648768 0.678279
0.814694 0.669215 0.670985
0.857176 0.675410 0.662440
0.693172 0.708248 0.672358
0.696559 0.709621 0.674434
0.705287 0.711391 0.677974
0.719631 0.714443 0.684138
0.736141 0.717617 0.690883
0.753292 0.720089 0.697414
0.814237 0.732113 0.700465
0.870115 0.747463 0.706935
0.720150 0.731197 0.676692
0.721950 0.732204 0.678248
0.727260 0.734127 0.681636
0.737881 0.737362 0.688685
0.765805 0.759609 0.722499
0.802060 0.792660 0.769345
0.800504 0.775387 0.742061
0.863279 0.798917 0.744533
0.775601 0.797665 0.745205
0.776913 0.798489 0.746761
0.783627 0.803189 0.754849
0.797696 0.813657 0.772030
0.819760 0.830076 0.798306
0.848417 0.852445 0.831571
0.868040 0.869017 0.849943
0.850492 0.833371 0.797543
0.572107 0.562463 0.753689
0.578332 0.561456 0.754757
0.596277 0.548089 0.755673
0.637232 0.517601 0.757015
0.708278 0.452399 0.755856
0.810971 0.334661 0.748562
0.871031 0.474800 0.733608
0.891814 0.597986 0.713497
0.588128 0.580316 0.750240
0.593530 0.579553 0.751492
0.606836 0.565698 0.752407
0.639857 0.533471 0.753292
0.704982 0.468788 0.752010
0.805417 0.347967 0.744259
0.866361 0.477211 0.729122
0.888548 0.595483 0.709041
0.661311 0.656672 0.752163
0.660029 0.652766 0.752560
0.659113 0.637903 0.753017
0.672358 0.611170 0.753353
0.710780 0.555688 0.751431
0.795102 0.445686 0.744533
0.855283 0.537652 0.732631
0.882078 0.630671 0.719234
0.722896 0.724636 0.759304
0.722560 0.722988 0.758999
0.722530 0.716762 0.758724
0.716365 0.694789 0.759152
0.728847 0.659968 0.755856
0.779232 0.586755 0.748684
0.838590 0.616754 0.739284
0.873289 0.673518 0.731868
0.755703 0.760952 0.764187
0.756832 0.760952 0.764218
0.763455 0.763210 0.766690
0.760372 0.756466 0.767117
0.751064 0.731319 0.763485
0.768032 0.685878 0.753567
0.821775 0.675654 0.743557
0.866087 0.714260 0.744839
0.753567 0.773129 0.762081
0.755123 0.773709 0.762844
0.761227 0.775723 0.765652
0.772335 0.779507 0.770993
0.787442 0.784726 0.778317
0.782650 0.766293 0.773892
0.812772 0.734951 0.758724
0.857969 0.747738 0.753384
0.755734 0.782406 0.757015
0.757168 0.783108 0.757992
0.761563 0.784268 0.760159
0.769986 0.786770 0.764492
0.781125 0.789395 0.769589
0.793820 0.791501 0.774624
0.805051 0.789395 0.775387
0.861143 0.798672 0.777066
0.769406 0.798154 0.755550
0.770382 0.798642 0.756344
0.775143 0.801297 0.760189
0.782040 0.804166 0.764736
0.791104 0.807279 0.769924
0.817838 0.825589 0.798917
0.857115 0.858000 0.843687
0.853086 0.841276 0.817899
0.693141 0.684749 0.817533
0.695003 0.683864 0.817990
0.700343 0.676692 0.817960
0.715053 0.662959 0.819120
0.742397 0.634455 0.819577
0.791318 0.575586 0.818143
0.864652 0.515557 0.813504
0.901274 0.609735 0.800259
0.697627 0.691371 0.815976
0.699336 0.690608 0.816464
0.704433 0.684138 0.816861
0.717281 0.670161 0.817746
0.742672 0.642237 0.818082
0.789364 0.585107 0.816587
0.861784 0.521294 0.811582
0.898955 0.611139 0.798398
0.720272 0.722011 0.816098
0.719905 0.719844 0.816434
0.721981 0.713375 0.816587
0.731563 0.702815 0.818204
0.749386 0.678279 0.817716
0.786313 0.629480 0.815183
0.853269 0.561700 0.810147
0.892699 0.633631 0.798856
0.756619 0.766690 0.817990
0.757015 0.766079 0.818448
0.753994 0.758663 0.818906
0.752163 0.745052 0.820066
0.760739 0.725460 0.819638
0.785306 0.689357 0.816709
0.841032 0.621973 0.810452
0.884306 0.670192 0.802243
0.785489 0.800381 0.821592
0.785641 0.800229 0.822080
0.784604 0.797513 0.822629
0.785000 0.792538 0.824125
0.778836 0.773159 0.823880
0.787442 0.743893 0.820432
0.826230 0.688899 0.812772
0.875853 0.708217 0.807065
0.798306 0.818936 0.823392
0.799069 0.818997 0.823545
0.803037 0.820066 0.824918
0.811856 0.823392 0.828885
0.813962 0.821378 0.832212
0.806119 0.801816 0.831510
0.820127 0.763058 0.824704
0.869474 0.755978 0.818387
0.796872 0.830838 0.824002
0.797757 0.831022 0.824277
0.801572 0.831937 0.825711
0.809751 0.834531 0.829404
0.822141 0.838926 0.835355
0.838865 0.845853 0.844297
0.836332 0.833005 0.843748
0.861692 0.801419 0.828824
0.801633 0.841398 0.822995
0.802365 0.841642 0.823362
0.806058 0.842954 0.825406
0.812894 0.845335 0.829038
0.822721 0.848631 0.834165
0.835019 0.852628 0.840421
0.848569 0.856382 0.846769
0.857694 0.853117 0.845884
