20 Preset/Wedding Style/【3】LUT for PR-AE-FCPX/Film Wedding - LUT (7).cube
# Created by Adobe Lightroom plugin Export LUT (1.24.0)
# www.johnrellis.com/lightroom/exportlut.htm
# Preset: 07婚礼纪实_黑白-素材江湖
# Color profile: C:\Program Files (x86)\Common Files\Adobe\Color\Profiles\Recommended\VideoHD.icc
LUT_3D_SIZE 8
DOMAIN_MIN 0.000000 0.000000 0.000000
DOMAIN_MAX 0.903226 0.903226 0.903226
0.212009 0.212009 0.212009
0.225559 0.225559 0.225559
0.258610 0.258610 0.258610
0.299809 0.299809 0.299809
0.353643 0.353643 0.353643
0.420539 0.420539 0.420539
0.493843 0.493843 0.493843
0.579309 0.579309 0.579309
0.240146 0.240146 0.240146
0.247471 0.247471 0.247471
0.273960 0.273960 0.273960
0.310979 0.310979 0.310979
0.362737 0.362737 0.362737
0.426429 0.426429 0.426429
0.497444 0.497444 0.497444
0.582025 0.582025 0.582025
0.300420 0.300420 0.300420
0.304021 0.304021 0.304021
0.321111 0.321111 0.321111
0.358404 0.358404 0.358404
0.403571 0.403571 0.403571
0.460212 0.460212 0.460212
0.527276 0.527276 0.527276
0.606012 0.606012 0.606012
0.383276 0.383276 0.383276
0.385504 0.385504 0.385504
0.397559 0.397559 0.397559
0.423438 0.423438 0.423438
0.474311 0.474311 0.474311
0.519585 0.519585 0.519585
0.576532 0.576532 0.576532
0.643122 0.643122 0.643122
0.483406 0.483406 0.483406
0.485054 0.485054 0.485054
0.492744 0.492744 0.492744
0.510796 0.510796 0.510796
0.537224 0.537224 0.537224
0.589654 0.589654 0.589654
0.634730 0.634730 0.634730
0.688655 0.688655 0.688655
0.588647 0.588647 0.588647
0.590814 0.590814 0.590814
0.596002 0.596002 0.596002
0.607202 0.607202 0.607202
0.625025 0.625025 0.625025
0.648157 0.648157 0.648157
0.696376 0.696376 0.696376
0.736965 0.736965 0.736965
0.692042 0.692042 0.692042
0.692958 0.692958 0.692958
0.695979 0.695979 0.695979
0.702083 0.702083 0.702083
0.712551 0.712551 0.712551
0.726741 0.726741 0.726741
0.743526 0.743526 0.743526
0.779324 0.779324 0.779324
0.779232 0.779232 0.779232
0.779629 0.779629 0.779629
0.781430 0.781430 0.781430
0.785092 0.785092 0.785092
0.789487 0.789487 0.789487
0.797940 0.797940 0.797940
0.808164 0.808164 0.808164
0.819516 0.819516 0.819516
0.216831 0.216831 0.216831
0.223819 0.223819 0.223819
0.259220 0.259220 0.259220
0.303349 0.303349 0.303349
0.356786 0.356786 0.356786
0.420661 0.420661 0.420661
0.491676 0.491676 0.491676
0.576165 0.576165 0.576165
0.235966 0.235966 0.235966
0.248386 0.248386 0.248386
0.275486 0.275486 0.275486
0.314214 0.314214 0.314214
0.365789 0.365789 0.365789
0.427680 0.427680 0.427680
0.496803 0.496803 0.496803
0.579828 0.579828 0.579828
0.302312 0.302312 0.302312
0.305638 0.305638 0.305638
0.321111 0.321111 0.321111
0.357824 0.357824 0.357824
0.403113 0.403113 0.403113
0.458869 0.458869 0.458869
0.523888 0.523888 0.523888
0.602411 0.602411 0.602411
0.383185 0.383185 0.383185
0.385565 0.385565 0.385565
0.396765 0.396765 0.396765
0.420630 0.420630 0.420630
0.469154 0.469154 0.469154
0.514519 0.514519 0.514519
0.571496 0.571496 0.571496
0.639063 0.639063 0.639063
0.483131 0.483131 0.483131
0.484627 0.484627 0.484627
0.491798 0.491798 0.491798
0.508751 0.508751 0.508751
0.534234 0.534234 0.534234
0.586175 0.586175 0.586175
0.631922 0.631922 0.631922
0.686366 0.686366 0.686366
0.587304 0.587304 0.587304
0.588647 0.588647 0.588647
0.593957 0.593957 0.593957
0.605188 0.605188 0.605188
0.623255 0.623255 0.623255
0.646784 0.646784 0.646784
0.694881 0.694881 0.694881
0.735653 0.735653 0.735653
0.690578 0.690578 0.690578
0.691096 0.691096 0.691096
0.694057 0.694057 0.694057
0.700374 0.700374 0.700374
0.711269 0.711269 0.711269
0.725551 0.725551 0.725551
0.742123 0.742123 0.742123
0.778012 0.778012 0.778012
0.778256 0.778256 0.778256
0.778836 0.778836 0.778836
0.780606 0.780606 0.780606
0.784329 0.784329 0.784329
0.790158 0.790158 0.790158
0.798123 0.798123 0.798123
0.808011 0.808011 0.808011
0.819364 0.819364 0.819364
0.228702 0.228702 0.228702
0.232273 0.232273 0.232273
0.254185 0.254185 0.254185
0.303197 0.303197 0.303197
0.359625 0.359625 0.359625
0.426001 0.426001 0.426001
0.497322 0.497322 0.497322
0.580499 0.580499 0.580499
0.248997 0.248997 0.248997
0.256413 0.256413 0.256413
0.272709 0.272709 0.272709
0.315373 0.315373 0.315373
0.369024 0.369024 0.369024
0.432898 0.432898 0.432898
0.502129 0.502129 0.502129
0.584161 0.584161 0.584161
0.291478 0.291478 0.291478
0.298131 0.298131 0.298131
0.323156 0.323156 0.323156
0.357702 0.357702 0.357702
0.405493 0.405493 0.405493
0.462165 0.462165 0.462165
0.527245 0.527245 0.527245
0.604547 0.604547 0.604547
0.383337 0.383337 0.383337
0.387732 0.387732 0.387732
0.400366 0.400366 0.400366
0.422553 0.422553 0.422553
0.468421 0.468421 0.468421
0.515496 0.515496 0.515496
0.573693 0.573693 0.573693
0.640803 0.640803 0.640803
0.486030 0.486030 0.486030
0.487709 0.487709 0.487709
0.494881 0.494881 0.494881
0.510643 0.510643 0.510643
0.535912 0.535912 0.535912
0.585290 0.585290 0.585290
0.631952 0.631952 0.631952
0.686793 0.686793 0.686793
0.589014 0.589014 0.589014
0.590326 0.590326 0.590326
0.595422 0.595422 0.595422
0.605524 0.605524 0.605524
0.623255 0.623255 0.623255
0.646509 0.646509 0.646509
0.693935 0.693935 0.693935
0.735622 0.735622 0.735622
0.691737 0.691737 0.691737
0.692287 0.692287 0.692287
0.695064 0.695064 0.695064
0.701106 0.701106 0.701106
0.711421 0.711421 0.711421
0.725795 0.725795 0.725795
0.742763 0.742763 0.742763
0.778744 0.778744 0.778744
0.778470 0.778470 0.778470
0.778805 0.778805 0.778805
0.780545 0.780545 0.780545
0.784482 0.784482 0.784482
0.790097 0.790097 0.790097
0.798337 0.798337 0.798337
0.808347 0.808347 0.808347
0.819760 0.819760 0.819760
0.242832 0.242832 0.242832
0.247135 0.247135 0.247135
0.264775 0.264775 0.264775
0.295018 0.295018 0.295018
0.353643 0.353643 0.353643
0.421790 0.421790 0.421790
0.494759 0.494759 0.494759
0.578973 0.578973 0.578973
0.265415 0.265415 0.265415
0.268803 0.268803 0.268803
0.282475 0.282475 0.282475
0.308354 0.308354 0.308354
0.364569 0.364569 0.364569
0.429755 0.429755 0.429755
0.501122 0.501122 0.501122
0.583948 0.583948 0.583948
0.296269 0.296269 0.296269
0.303410 0.303410 0.303410
0.332189 0.332189 0.332189
0.352270 0.352270 0.352270
0.403296 0.403296 0.403296
0.461860 0.461860 0.461860
0.529503 0.529503 0.529503
0.605829 0.605829 0.605829
0.361913 0.361913 0.361913
0.366827 0.366827 0.366827
0.387182 0.387182 0.387182
0.424689 0.424689 0.424689
0.465187 0.465187 0.465187
0.513939 0.513939 0.513939
0.573205 0.573205 0.573205
0.640253 0.640253 0.640253
0.478676 0.478676 0.478676
0.481697 0.481697 0.481697
0.494697 0.494697 0.494697
0.514183 0.514183 0.514183
0.537987 0.537987 0.537987
0.583764 0.583764 0.583764
0.631769 0.631769 0.631769
0.686641 0.686641 0.686641
0.590692 0.590692 0.590692
0.593469 0.593469 0.593469
0.600031 0.600031 0.600031
0.609735 0.609735 0.609735
0.625605 0.625605 0.625605
0.647791 0.647791 0.647791
0.693233 0.693233 0.693233
0.735531 0.735531 0.735531
0.693202 0.693202 0.693202
0.693965 0.693965 0.693965
0.697139 0.697139 0.697139
0.703304 0.703304 0.703304
0.712734 0.712734 0.712734
0.726833 0.726833 0.726833
0.743557 0.743557 0.743557
0.779416 0.779416 0.779416
0.779324 0.779324 0.779324
0.779721 0.779721 0.779721
0.781460 0.781460 0.781460
0.785061 0.785061 0.785061
0.790524 0.790524 0.790524
0.798550 0.798550 0.798550
0.808774 0.808774 0.808774
0.820523 0.820523 0.820523
0.263706 0.263706 0.263706
0.267521 0.267521 0.267521
0.282048 0.282048 0.282048
0.307012 0.307012 0.307012
0.343359 0.343359 0.343359
0.408240 0.408240 0.408240
0.490303 0.490303 0.490303
0.575677 0.575677 0.575677
0.282719 0.282719 0.282719
0.285588 0.285588 0.285588
0.297581 0.297581 0.297581
0.319677 0.319677 0.319677
0.353765 0.353765 0.353765
0.417182 0.417182 0.417182
0.496925 0.496925 0.496925
0.580835 0.580835 0.580835
0.322606 0.322606 0.322606
0.329808 0.329808 0.329808
0.345281 0.345281 0.345281
0.363226 0.363226 0.363226
0.392279 0.392279 0.392279
0.450843 0.450843 0.450843
0.522606 0.522606 0.522606
0.600336 0.600336 0.600336
0.365576 0.365576 0.365576
0.370367 0.370367 0.370367
0.390295 0.390295 0.390295
0.434424 0.434424 0.434424
0.457496 0.457496 0.457496
0.509545 0.509545 0.509545
0.569268 0.569268 0.569268
0.635767 0.635767 0.635767
0.447456 0.447456 0.447456
0.451301 0.451301 0.451301
0.467109 0.467109 0.467109
0.496651 0.496651 0.496651
0.537865 0.537865 0.537865
0.578119 0.578119 0.578119
0.626734 0.626734 0.626734
0.681819 0.681819 0.681819
0.574823 0.574823 0.574823
0.577081 0.577081 0.577081
0.585931 0.585931 0.585931
0.603113 0.603113 0.603113
0.624170 0.624170 0.624170
0.646906 0.646906 0.646906
0.690333 0.690333 0.690333
0.733120 0.733120 0.733120
0.686244 0.686244 0.686244
0.687373 0.687373 0.687373
0.692470 0.692470 0.692470
0.703059 0.703059 0.703059
0.712703 0.712703 0.712703
0.726162 0.726162 0.726162
0.743252 0.743252 0.743252
0.778866 0.778866 0.778866
0.777340 0.777340 0.777340
0.778042 0.778042 0.778042
0.780270 0.780270 0.780270
0.784421 0.784421 0.784421
0.790127 0.790127 0.790127
0.797879 0.797879 0.797879
0.808438 0.808438 0.808438
0.820554 0.820554 0.820554
0.288945 0.288945 0.288945
0.292027 0.292027 0.292027
0.304082 0.304082 0.304082
0.326116 0.326116 0.326116
0.357427 0.357427 0.357427
0.400793 0.400793 0.400793
0.470283 0.470283 0.470283
0.572137 0.572137 0.572137
0.304082 0.304082 0.304082
0.306615 0.306615 0.306615
0.317205 0.317205 0.317205
0.337255 0.337255 0.337255
0.366918 0.366918 0.366918
0.408637 0.408637 0.408637
0.476905 0.476905 0.476905
0.576745 0.576745 0.576745
0.351904 0.351904 0.351904
0.354040 0.354040 0.354040
0.362524 0.362524 0.362524
0.379400 0.379400 0.379400
0.405280 0.405280 0.405280
0.442206 0.442206 0.442206
0.506706 0.506706 0.506706
0.597467 0.597467 0.597467
0.382757 0.382757 0.382757
0.389380 0.389380 0.389380
0.417243 0.417243 0.417243
0.449256 0.449256 0.449256
0.470649 0.470649 0.470649
0.500755 0.500755 0.500755
0.559869 0.559869 0.559869
0.633783 0.633783 0.633783
0.450690 0.450690 0.450690
0.454414 0.454414 0.454414
0.469612 0.469612 0.469612
0.498238 0.498238 0.498238
0.547753 0.547753 0.547753
0.570672 0.570672 0.570672
0.621698 0.621698 0.621698
0.676661 0.676661 0.676661
0.540246 0.540246 0.540246
0.543328 0.543328 0.543328
0.554864 0.554864 0.554864
0.576623 0.576623 0.576623
0.607752 0.607752 0.607752
0.648280 0.648280 0.648280
0.685969 0.685969 0.685969
0.728542 0.728542 0.728542
0.673335 0.673335 0.673335
0.674891 0.674891 0.674891
0.680568 0.680568 0.680568
0.691798 0.691798 0.691798
0.708675 0.708675 0.708675
0.727077 0.727077 0.727077
0.744503 0.744503 0.744503
0.779141 0.779141 0.779141
0.769741 0.769741 0.769741
0.770321 0.770321 0.770321
0.773342 0.773342 0.773342
0.779660 0.779660 0.779660
0.789456 0.789456 0.789456
0.797665 0.797665 0.797665
0.808347 0.808347 0.808347
0.821256 0.821256 0.821256
0.319738 0.319738 0.319738
0.322484 0.322484 0.322484
0.333043 0.333043 0.333043
0.353277 0.353277 0.353277
0.382544 0.382544 0.382544
0.420325 0.420325 0.420325
0.470100 0.470100 0.470100
0.540703 0.540703 0.540703
0.331670 0.331670 0.331670
0.334203 0.334203 0.334203
0.343969 0.343969 0.343969
0.362707 0.362707 0.362707
0.390478 0.390478 0.390478
0.426703 0.426703 0.426703
0.474647 0.474647 0.474647
0.543725 0.543725 0.543725
0.375525 0.375525 0.375525
0.377417 0.377417 0.377417
0.385504 0.385504 0.385504
0.401648 0.401648 0.401648
0.426062 0.426062 0.426062
0.458656 0.458656 0.458656
0.503014 0.503014 0.503014
0.570459 0.570459 0.570459
0.418647 0.418647 0.418647
0.424567 0.424567 0.424567
0.449714 0.449714 0.449714
0.466377 0.466377 0.466377
0.486763 0.486763 0.486763
0.514611 0.514611 0.514611
0.552483 0.552483 0.552483
0.613184 0.613184 0.613184
0.451514 0.451514 0.451514
0.454505 0.454505 0.454505
0.470924 0.470924 0.470924
0.513909 0.513909 0.513909
0.558862 0.558862 0.558862
0.580743 0.580743 0.580743
0.609796 0.609796 0.609796
0.664546 0.664546 0.664546
0.540978 0.540978 0.540978
0.543603 0.543603 0.543603
0.554192 0.554192 0.554192
0.574548 0.574548 0.574548
0.604578 0.604578 0.604578
0.655848 0.655848 0.655848
0.677424 0.677424 0.677424
0.722408 0.722408 0.722408
0.634333 0.634333 0.634333
0.636378 0.636378 0.636378
0.643946 0.643946 0.643946
0.658961 0.658961 0.658961
0.681056 0.681056 0.681056
0.709895 0.709895 0.709895
0.744320 0.744320 0.744320
0.775143 0.775143 0.775143
0.754055 0.754055 0.754055
0.755337 0.755337 0.755337
0.760922 0.760922 0.760922
0.769589 0.769589 0.769589
0.779782 0.779782 0.779782
0.793545 0.793545 0.793545
0.808408 0.808408 0.808408
0.822354 0.822354 0.822354
0.370520 0.370520 0.370520
0.371130 0.371130 0.371130
0.373449 0.373449 0.373449
0.392370 0.392370 0.392370
0.420661 0.420661 0.420661
0.457313 0.457313 0.457313
0.501305 0.501305 0.501305
0.557366 0.557366 0.557366
0.371191 0.371191 0.371191
0.373571 0.373571 0.373571
0.382605 0.382605 0.382605
0.400732 0.400732 0.400732
0.428016 0.428016 0.428016
0.463600 0.463600 0.463600
0.506279 0.506279 0.506279
0.560937 0.560937 0.560937
0.408331 0.408331 0.408331
0.410285 0.410285 0.410285
0.418189 0.418189 0.418189
0.434943 0.434943 0.434943
0.459205 0.459205 0.459205
0.491249 0.491249 0.491249
0.530571 0.530571 0.530571
0.580987 0.580987 0.580987
0.460792 0.460792 0.460792
0.467414 0.467414 0.467414
0.476967 0.476967 0.476967
0.490852 0.490852 0.490852
0.511833 0.511833 0.511833
0.539666 0.539666 0.539666
0.573846 0.573846 0.573846
0.616297 0.616297 0.616297
0.468360 0.468360 0.468360
0.473701 0.473701 0.473701
0.494545 0.494545 0.494545
0.544030 0.544030 0.544030
0.575494 0.575494 0.575494
0.597681 0.597681 0.597681
0.625055 0.625055 0.625055
0.660060 0.660060 0.660060
0.527825 0.527825 0.527825
0.529534 0.529534 0.529534
0.537652 0.537652 0.537652
0.554864 0.554864 0.554864
0.606531 0.606531 0.606531
0.663386 0.663386 0.663386
0.686336 0.686336 0.686336
0.713771 0.713771 0.713771
0.632105 0.632105 0.632105
0.633600 0.633600 0.633600
0.640009 0.640009 0.640009
0.653376 0.653376 0.653376
0.673945 0.673945 0.673945
0.701747 0.701747 0.701747
0.749081 0.749081 0.749081
0.768093 0.768093 0.768093
0.724575 0.724575 0.724575
0.725551 0.725551 0.725551
0.730068 0.730068 0.730068
0.739345 0.739345 0.739345
0.753292 0.753292 0.753292
0.771878 0.771878 0.771878
0.794949 0.794949 0.794949
0.822629 0.822629 0.822629
