20 Preset/Wedding Style/【3】LUT for PR-AE-FCPX/Film Wedding - LUT (5).cube
# Created by Adobe Lightroom plugin Export LUT (1.24.0)
# www.johnrellis.com/lightroom/exportlut.htm
# Preset: 05婚礼纪实_火-素材江湖
# Color profile: C:\Program Files (x86)\Common Files\Adobe\Color\Profiles\Recommended\VideoHD.icc
LUT_3D_SIZE 8
DOMAIN_MIN 0.000000 0.000000 0.000000
DOMAIN_MAX 0.903226 0.903226 0.903226
0.118074 0.100099 0.085328
0.122164 0.100221 0.085817
0.181430 0.095674 0.088808
0.345464 0.060609 0.079072
0.551568 0.038911 0.007630
0.714168 0.131868 0.000000
0.819547 0.206027 0.000000
0.874723 0.292912 0.160159
0.119142 0.103517 0.085786
0.124086 0.104189 0.088136
0.180331 0.107454 0.088258
0.333257 0.107698 0.073457
0.535546 0.121523 0.000000
0.701106 0.158724 0.000000
0.806729 0.215946 0.000000
0.867155 0.295415 0.155703
0.141878 0.137087 0.095094
0.152377 0.136965 0.095918
0.164553 0.133089 0.106447
0.360937 0.182650 0.064240
0.546960 0.213657 0.000000
0.710231 0.252537 0.000000
0.809659 0.303136 0.123690
0.864164 0.366735 0.215457
0.208225 0.251286 0.116548
0.226139 0.249516 0.117617
0.263401 0.232761 0.132753
0.287327 0.229648 0.165896
0.570184 0.347417 0.134890
0.718227 0.382818 0.156039
0.796567 0.410895 0.217105
0.847471 0.451545 0.286992
0.327092 0.413336 0.191745
0.341558 0.412299 0.193484
0.395392 0.412146 0.202090
0.412970 0.370275 0.232425
0.422126 0.358099 0.260563
0.651850 0.467689 0.268467
0.770504 0.504295 0.302525
0.823697 0.533257 0.364202
0.449561 0.542412 0.307164
0.463172 0.546288 0.313420
0.496284 0.545068 0.319188
0.533165 0.529747 0.330388
0.521080 0.478462 0.341039
0.529595 0.471839 0.360235
0.706477 0.568505 0.405432
0.802487 0.609552 0.452705
0.564508 0.630823 0.432929
0.569909 0.631189 0.435035
0.586572 0.629755 0.437537
0.616968 0.628016 0.444404
0.624109 0.603632 0.442512
0.601617 0.561028 0.438911
0.615015 0.563226 0.454871
0.739803 0.635981 0.509148
0.656458 0.690669 0.540154
0.658503 0.690547 0.540551
0.667475 0.690394 0.542687
0.684565 0.690547 0.547662
0.693538 0.679438 0.541955
0.691859 0.660060 0.539666
0.670253 0.630945 0.534508
0.689235 0.641749 0.551812
0.118532 0.101045 0.089204
0.123110 0.100008 0.089662
0.174350 0.100130 0.091035
0.318547 0.095125 0.089601
0.524315 0.088960 0.046296
0.692317 0.133822 0.000000
0.799100 0.206027 0.080323
0.860746 0.289799 0.169589
0.117372 0.106355 0.090913
0.127657 0.107271 0.091707
0.177096 0.111574 0.093996
0.321874 0.113954 0.089906
0.522606 0.122499 0.046876
0.688563 0.161746 0.005158
0.792752 0.220890 0.086976
0.855436 0.296147 0.169436
0.137942 0.143130 0.100710
0.153750 0.143465 0.102998
0.172702 0.140444 0.112612
0.350896 0.180758 0.094514
0.532433 0.210513 0.063905
0.690425 0.249241 0.074952
0.790799 0.295689 0.136721
0.851804 0.358495 0.215152
0.200412 0.251316 0.126925
0.219852 0.250309 0.128115
0.268376 0.240543 0.139803
0.285191 0.229709 0.168490
0.544854 0.330114 0.139620
0.690425 0.364691 0.157778
0.779355 0.394934 0.208347
0.836790 0.438331 0.276371
0.321935 0.413367 0.202365
0.336065 0.411597 0.203281
0.388464 0.409033 0.209598
0.410376 0.369146 0.233494
0.415381 0.352392 0.257847
0.640864 0.458869 0.265171
0.762020 0.497169 0.299260
0.817380 0.526848 0.359319
0.441474 0.537316 0.307958
0.450568 0.537224 0.309606
0.484840 0.536522 0.315648
0.526879 0.525048 0.327550
0.518364 0.476326 0.339757
0.527703 0.470710 0.360327
0.703426 0.566033 0.404120
0.799680 0.606317 0.449653
0.556268 0.626642 0.428199
0.559564 0.625574 0.427558
0.576684 0.624048 0.429847
0.608881 0.622889 0.437812
0.620691 0.601221 0.439643
0.599084 0.558679 0.436194
0.610101 0.558312 0.449897
0.735927 0.631250 0.502892
0.651087 0.687648 0.536095
0.654078 0.688075 0.537499
0.663020 0.687800 0.539483
0.680476 0.688014 0.544579
0.697292 0.683131 0.548211
0.693721 0.662104 0.542901
0.670680 0.631495 0.535058
0.688716 0.641382 0.551568
0.117311 0.110872 0.114748
0.125032 0.110140 0.116793
0.178470 0.107118 0.122560
0.335149 0.051728 0.137545
0.533471 0.003662 0.139315
0.695125 0.177981 0.167422
0.793118 0.276951 0.211856
0.850187 0.361242 0.270481
0.123537 0.122652 0.119234
0.133242 0.122286 0.120516
0.185641 0.118654 0.126650
0.337163 0.099641 0.136934
0.528130 0.115358 0.143771
0.688228 0.202792 0.170748
0.787472 0.284337 0.210788
0.846128 0.364416 0.269139
0.134005 0.165621 0.135500
0.148806 0.168002 0.137148
0.216159 0.178775 0.144259
0.362310 0.196719 0.152895
0.542229 0.233738 0.167971
0.689631 0.287297 0.195804
0.782376 0.345464 0.238315
0.839475 0.408484 0.295628
0.172885 0.283757 0.173434
0.198856 0.287114 0.175021
0.295720 0.295842 0.189120
0.334844 0.280583 0.213046
0.561486 0.362005 0.215793
0.687404 0.396338 0.245945
0.771420 0.433356 0.289799
0.826444 0.476600 0.344152
0.294591 0.437018 0.239445
0.317876 0.437507 0.244327
0.394354 0.437201 0.263188
0.448859 0.417609 0.278660
0.449317 0.392493 0.297581
0.653498 0.485328 0.315526
0.753414 0.517479 0.352605
0.808652 0.547448 0.403571
0.443366 0.548882 0.344366
0.453864 0.549248 0.347051
0.487343 0.547967 0.351751
0.540307 0.546532 0.361303
0.538689 0.500938 0.367437
0.541619 0.488960 0.382544
0.704768 0.576959 0.428717
0.794003 0.616022 0.475593
0.561975 0.632258 0.452827
0.565118 0.631464 0.452308
0.580438 0.629450 0.453223
0.610101 0.627558 0.458595
0.629297 0.612238 0.460517
0.612726 0.574090 0.455146
0.619593 0.570642 0.466682
0.740169 0.640009 0.519188
0.650446 0.689784 0.544610
0.652155 0.689357 0.544518
0.660975 0.688960 0.546197
0.679408 0.689845 0.552117
0.700587 0.688228 0.557153
0.698726 0.668177 0.552331
0.677516 0.638605 0.543969
0.692226 0.645594 0.557916
0.066011 0.148135 0.197238
0.095674 0.145754 0.202243
0.189395 0.132692 0.214328
0.336370 0.110964 0.228794
0.528313 0.065736 0.250065
0.685176 0.194614 0.264256
0.772457 0.335546 0.309331
0.825711 0.423468 0.360388
0.085725 0.167575 0.208896
0.111635 0.165408 0.210880
0.197604 0.153780 0.222507
0.346258 0.137392 0.236149
0.534386 0.134920 0.254704
0.683986 0.228367 0.269718
0.769558 0.349462 0.314275
0.823514 0.431556 0.364416
0.107179 0.224186 0.229374
0.138949 0.224949 0.230838
0.230503 0.228214 0.237858
0.368322 0.224155 0.253178
0.544915 0.257786 0.270878
0.680537 0.342596 0.305486
0.765774 0.416785 0.349554
0.819059 0.474647 0.392950
0.157382 0.332128 0.269017
0.188266 0.333684 0.270146
0.282597 0.343236 0.276493
0.414038 0.368994 0.294957
0.552148 0.395392 0.311315
0.669276 0.433051 0.339178
0.751247 0.475532 0.376013
0.807462 0.518425 0.418891
0.284428 0.469490 0.327123
0.304204 0.469581 0.327398
0.375616 0.474098 0.332586
0.483040 0.483589 0.356023
0.502953 0.457282 0.364935
0.668238 0.524590 0.392218
0.740139 0.548363 0.425147
0.795254 0.576043 0.463142
0.428901 0.570703 0.391272
0.443336 0.573938 0.396551
0.479927 0.574304 0.402228
0.549920 0.574090 0.423651
0.581415 0.552911 0.427131
0.572869 0.527886 0.429023
0.711238 0.599481 0.474220
0.786648 0.629969 0.512078
0.545281 0.640925 0.470466
0.551568 0.641077 0.472633
0.582757 0.640192 0.487190
0.615930 0.638972 0.496345
0.647913 0.635187 0.501854
0.636957 0.601465 0.491554
0.634058 0.589441 0.493477
0.746822 0.651789 0.541314
0.644892 0.696101 0.557427
0.648859 0.695888 0.559380
0.660883 0.695308 0.563653
0.677821 0.694911 0.566949
0.700893 0.694270 0.571740
0.707607 0.679438 0.568780
0.689418 0.650874 0.558801
0.698573 0.653162 0.569207
0.000000 0.219638 0.334783
0.000000 0.217807 0.338567
0.161044 0.206271 0.347509
0.342596 0.199405 0.361700
0.516350 0.195773 0.376959
0.665248 0.235752 0.378454
0.758724 0.350469 0.389685
0.807401 0.465217 0.434974
0.000000 0.240360 0.342473
0.000000 0.239780 0.345830
0.187320 0.232914 0.353979
0.350256 0.225711 0.366705
0.519310 0.222446 0.380285
0.664637 0.261204 0.381140
0.756283 0.367346 0.394049
0.804929 0.475074 0.439826
0.063355 0.302068 0.359045
0.133486 0.302739 0.360510
0.248692 0.306065 0.365057
0.373968 0.306523 0.377722
0.523613 0.303227 0.387304
0.656062 0.337041 0.386908
0.745052 0.421271 0.408820
0.794308 0.507866 0.456336
0.187655 0.391058 0.383581
0.217197 0.392126 0.384192
0.307958 0.399512 0.387976
0.421393 0.415320 0.396307
0.538811 0.417975 0.409308
0.653651 0.448737 0.415534
0.731746 0.504875 0.445686
0.785916 0.552117 0.482551
0.291112 0.492134 0.414313
0.309453 0.493385 0.415290
0.372137 0.497536 0.418158
0.462257 0.507012 0.425299
0.557702 0.523308 0.438758
0.649226 0.540459 0.453071
0.721523 0.565759 0.478126
0.780087 0.592432 0.506554
0.399695 0.576959 0.448066
0.410163 0.577539 0.448920
0.447456 0.577996 0.450660
0.512840 0.580560 0.455634
0.592645 0.585443 0.474464
0.603418 0.565484 0.476509
0.719875 0.619654 0.516625
0.777798 0.637964 0.541222
0.526696 0.646235 0.501732
0.530999 0.645686 0.501518
0.550958 0.644617 0.503075
0.591363 0.645350 0.512169
0.643153 0.645258 0.529931
0.659144 0.628290 0.526848
0.648188 0.607660 0.519951
0.754604 0.662196 0.561791
0.611444 0.697475 0.556298
0.614679 0.697322 0.557031
0.628199 0.697047 0.560449
0.658259 0.698543 0.573114
0.691676 0.697902 0.584375
0.716579 0.694026 0.588159
0.702235 0.664698 0.575311
0.702174 0.658320 0.578027
0.000000 0.311742 0.472297
0.000000 0.313390 0.474617
0.189029 0.317540 0.479530
0.355200 0.327001 0.488472
0.497047 0.327520 0.496956
0.639277 0.337285 0.500816
0.739376 0.389227 0.487770
0.793912 0.482490 0.498604
0.000000 0.325841 0.469673
0.000000 0.326116 0.470466
0.210239 0.329107 0.474311
0.357427 0.335821 0.481788
0.493721 0.336400 0.491218
0.634546 0.345800 0.496529
0.735134 0.395209 0.485451
0.790982 0.485481 0.497749
0.155886 0.385351 0.483833
0.191257 0.386419 0.483772
0.288823 0.391943 0.484688
0.395758 0.398413 0.487678
0.507073 0.397681 0.495735
0.634913 0.403204 0.501244
0.728756 0.442237 0.492500
0.784085 0.518456 0.509911
0.271092 0.459297 0.496925
0.290135 0.460060 0.496345
0.358801 0.466835 0.496895
0.452522 0.482155 0.502007
0.539086 0.489479 0.511040
0.640864 0.489540 0.515923
0.721096 0.515618 0.511040
0.776577 0.569390 0.534203
0.347753 0.528679 0.505730
0.360967 0.529503 0.505913
0.409430 0.533349 0.506737
0.483253 0.541924 0.509789
0.562646 0.553735 0.514366
0.638666 0.554833 0.521813
0.710811 0.575433 0.527153
0.770474 0.608270 0.551415
0.428077 0.595483 0.522026
0.438911 0.596918 0.523339
0.470436 0.598047 0.524041
0.522423 0.600824 0.525994
0.584619 0.605676 0.530022
0.649348 0.616815 0.541192
0.713130 0.630976 0.556207
0.773190 0.647333 0.574456
0.522423 0.655970 0.552636
0.528435 0.656397 0.553613
0.547906 0.656458 0.554650
0.581384 0.656947 0.557061
0.625635 0.657984 0.560235
0.677180 0.659663 0.571283
0.674403 0.637598 0.560876
0.776059 0.683253 0.598627
0.595666 0.704219 0.587030
0.597803 0.703822 0.586603
0.609064 0.703365 0.586725
0.631647 0.703639 0.588708
0.664881 0.704189 0.593469
0.711269 0.704494 0.608637
0.722927 0.687831 0.603540
0.712123 0.670100 0.595911
0.138582 0.406317 0.568780
0.183566 0.409186 0.569604
0.285801 0.418158 0.569909
0.404578 0.437964 0.571527
0.499916 0.444984 0.574487
0.600183 0.446632 0.578576
0.705043 0.459754 0.578515
0.771603 0.499031 0.562768
0.174563 0.414527 0.565759
0.208377 0.417670 0.566735
0.297581 0.425788 0.567224
0.406744 0.442603 0.568353
0.499825 0.449378 0.571221
0.597498 0.449226 0.575006
0.701381 0.459846 0.574640
0.768338 0.497108 0.558953
0.267216 0.455726 0.569085
0.286625 0.457649 0.568994
0.350378 0.464973 0.568261
0.436713 0.478431 0.569085
0.518822 0.486732 0.571283
0.603693 0.485756 0.575402
0.700130 0.495003 0.577173
0.765103 0.527733 0.566369
0.348211 0.510704 0.574334
0.359716 0.511376 0.573632
0.406226 0.516777 0.572381
0.479744 0.529595 0.572045
0.552453 0.542473 0.574334
0.617670 0.541375 0.579095
0.698848 0.545617 0.581933
0.760311 0.566918 0.575860
0.408331 0.562463 0.577203
0.415656 0.562554 0.576471
0.449226 0.565240 0.575616
0.505333 0.572015 0.575463
0.574182 0.584009 0.575769
0.629725 0.588495 0.580804
0.696193 0.588006 0.584619
0.758236 0.603265 0.585901
0.471717 0.614099 0.584314
0.478157 0.614618 0.584497
0.502434 0.616388 0.584649
0.544121 0.619867 0.585229
0.594629 0.624781 0.586419
0.649012 0.632807 0.590478
0.702022 0.633570 0.596918
0.762936 0.646418 0.604273
0.534813 0.661402 0.598108
0.539483 0.661830 0.598535
0.555474 0.662287 0.598840
0.584192 0.663569 0.599847
0.620874 0.665400 0.601312
0.663111 0.668818 0.604608
0.710872 0.675685 0.612177
0.772793 0.688869 0.627558
0.586053 0.709712 0.625269
0.588861 0.709865 0.625513
0.601190 0.710842 0.627070
0.621759 0.711696 0.628504
0.650202 0.712917 0.630243
0.687831 0.714626 0.632166
0.738827 0.716762 0.642329
0.732143 0.691585 0.627100
0.368109 0.510002 0.636683
0.381201 0.512871 0.636835
0.424689 0.521447 0.635737
0.494240 0.539391 0.635248
0.561089 0.555596 0.635462
0.615259 0.556298 0.637720
0.681147 0.556695 0.641230
0.753140 0.565118 0.640833
0.374029 0.513787 0.634974
0.386694 0.516594 0.635157
0.428992 0.525231 0.634485
0.495766 0.541955 0.633875
0.562524 0.558312 0.634150
0.615503 0.558770 0.636469
0.680018 0.558038 0.639734
0.751522 0.565606 0.639277
0.402258 0.534264 0.634546
0.413214 0.536522 0.634302
0.451087 0.544060 0.633295
0.512352 0.559747 0.633845
0.576501 0.576410 0.633631
0.622339 0.574945 0.635645
0.681788 0.573358 0.639277
0.750332 0.578332 0.639551
0.431739 0.562982 0.635676
0.441505 0.565026 0.635615
0.476478 0.571710 0.634577
0.532555 0.584649 0.633722
0.589441 0.598108 0.634424
0.634668 0.601251 0.636835
0.686519 0.598749 0.640925
0.750271 0.600763 0.642420
0.460090 0.596674 0.638209
0.467140 0.597681 0.638300
0.490211 0.600000 0.637476
0.540429 0.608667 0.636500
0.597925 0.620142 0.635645
0.645502 0.627588 0.638422
0.690425 0.625116 0.643153
0.751217 0.625757 0.646632
0.506859 0.637751 0.643091
0.510399 0.637720 0.642725
0.526604 0.638209 0.641779
0.557336 0.640345 0.641169
0.598718 0.644099 0.641413
0.653590 0.653712 0.644068
0.699580 0.657710 0.651514
0.757198 0.657649 0.657252
0.553948 0.679377 0.654108
0.556786 0.679408 0.654047
0.568688 0.679683 0.653742
0.591730 0.680812 0.654017
0.623651 0.682643 0.654902
0.662928 0.685573 0.657099
0.710048 0.690517 0.661189
0.762600 0.689662 0.667323
0.593561 0.719570 0.670710
0.595605 0.719539 0.670619
0.604669 0.719814 0.670863
0.622614 0.720821 0.671870
0.648341 0.722194 0.673365
0.681331 0.724239 0.675532
0.722530 0.727810 0.679561
0.776547 0.734920 0.688197
