20 Preset/Wedding Style/【3】LUT for PR-AE-FCPX/Film Wedding - LUT (2).cube
# Created by Adobe Lightroom plugin Export LUT (1.24.0)
# www.johnrellis.com/lightroom/exportlut.htm
# Preset: 02婚礼纪实_冰-素材江湖
# Color profile: C:\Program Files (x86)\Common Files\Adobe\Color\Profiles\Recommended\VideoHD.icc
LUT_3D_SIZE 32
DOMAIN_MIN 0.0 0.0 0.0
DOMAIN_MAX 1.0 1.0 1.0
0.119478 0.112123 0.116335
0.119997 0.112062 0.116335
0.120821 0.112276 0.116304
0.124300 0.112459 0.116487
0.131624 0.113008 0.116854
0.145815 0.113649 0.117037
0.165438 0.114778 0.117189
0.189609 0.115175 0.117189
0.216678 0.115328 0.116915
0.247135 0.114931 0.115999
0.281376 0.113741 0.114931
0.318822 0.111666 0.113619
0.359899 0.108553 0.111513
0.403845 0.104829 0.109071
0.450050 0.101198 0.106294
0.497749 0.098543 0.101656
0.545892 0.098360 0.096559
0.593683 0.103151 0.089784
0.640223 0.109987 0.080201
0.684871 0.122835 0.060945
0.731502 0.142336 0.037446
0.776272 0.166293 0.013519
0.813504 0.189578 0.000000
0.846189 0.212375 0.000000
0.875547 0.234684 0.000000
0.902525 0.256321 0.000000
0.927947 0.278050 0.000000
0.952087 0.299016 0.000000
0.975219 0.320470 0.000000
0.997559 0.342321 0.002564
1.000000 0.364385 0.053986
1.000000 0.386084 0.110964
0.119814 0.112398 0.116304
0.119814 0.112398 0.116304
0.120638 0.112612 0.116243
0.124147 0.112795 0.116457
0.131472 0.113344 0.116823
0.145541 0.114290 0.116945
0.164706 0.115206 0.117159
0.188083 0.116121 0.117128
0.215274 0.116030 0.116884
0.245426 0.115785 0.115969
0.278996 0.114961 0.114931
0.315984 0.113069 0.113680
0.356634 0.110475 0.111574
0.400397 0.106661 0.109255
0.446113 0.103304 0.106264
0.493721 0.100954 0.102052
0.541802 0.101442 0.097017
0.589654 0.104524 0.090639
0.636194 0.111757 0.080995
0.680842 0.123415 0.064149
0.727077 0.142061 0.040742
0.770932 0.164828 0.015839
0.807706 0.187076 0.000000
0.840208 0.209476 0.000000
0.869657 0.231174 0.000000
0.896635 0.252293 0.000000
0.922362 0.273472 0.000000
0.946868 0.295079 0.000000
0.970489 0.316533 0.000000
0.993317 0.338354 0.000000
1.000000 0.360388 0.039460
1.000000 0.382300 0.104280
0.120302 0.112947 0.116823
0.120821 0.112886 0.116823
0.121218 0.113161 0.116457
0.124331 0.113985 0.116609
0.131716 0.115084 0.117189
0.145480 0.116670 0.117220
0.164736 0.118135 0.117372
0.188144 0.119020 0.117311
0.214939 0.119600 0.116701
0.245121 0.119356 0.116091
0.278386 0.118990 0.114992
0.315587 0.117464 0.113405
0.355993 0.115755 0.111543
0.399207 0.113283 0.109133
0.445136 0.110780 0.106050
0.492409 0.109407 0.101808
0.540398 0.110109 0.096773
0.587732 0.113008 0.091371
0.634180 0.119539 0.083070
0.678950 0.131106 0.065827
0.725704 0.148501 0.042054
0.768856 0.170138 0.020203
0.805325 0.191806 0.000000
0.837522 0.212680 0.000000
0.866728 0.233707 0.000000
0.893858 0.254307 0.000000
0.919524 0.274998 0.000000
0.944213 0.296117 0.000000
0.968017 0.317510 0.000000
0.990967 0.338872 0.000000
1.000000 0.360937 0.034577
1.000000 0.382544 0.101472
0.122316 0.115389 0.117922
0.122713 0.115328 0.118227
0.123903 0.115785 0.117861
0.125887 0.115541 0.117556
0.133608 0.117525 0.117708
0.146578 0.120790 0.118105
0.166201 0.123201 0.117769
0.189120 0.124910 0.117311
0.216373 0.126101 0.116884
0.246494 0.126619 0.116152
0.280125 0.126864 0.114931
0.316899 0.126314 0.113191
0.357275 0.125795 0.111147
0.400519 0.124788 0.108522
0.445686 0.123537 0.105684
0.492134 0.123507 0.102052
0.539117 0.124178 0.098024
0.585779 0.127932 0.092653
0.631800 0.134615 0.085115
0.676020 0.145296 0.070375
0.722621 0.161196 0.046540
0.764248 0.180392 0.024628
0.800259 0.199863 0.007141
0.832853 0.220127 0.000000
0.862699 0.239841 0.000000
0.890654 0.260258 0.000000
0.917235 0.281163 0.000000
0.942596 0.302068 0.000000
0.966766 0.322942 0.000000
0.989899 0.344244 0.002625
1.000000 0.365362 0.045624
1.000000 0.386419 0.102419
0.126558 0.120027 0.120394
0.127047 0.119966 0.120394
0.128206 0.120119 0.120638
0.131136 0.121187 0.119844
0.135958 0.120851 0.118929
0.149905 0.124422 0.118929
0.167819 0.128756 0.118929
0.190249 0.133333 0.118868
0.217136 0.135195 0.118044
0.247349 0.136812 0.117159
0.280674 0.137789 0.115816
0.317632 0.138369 0.114199
0.357946 0.138796 0.112032
0.400977 0.139376 0.109773
0.446326 0.140017 0.106966
0.492805 0.141726 0.104128
0.540093 0.143984 0.099702
0.587030 0.148684 0.094392
0.632990 0.155856 0.087953
0.677394 0.166262 0.074403
0.723934 0.181399 0.051148
0.764309 0.198825 0.030640
0.799680 0.216526 0.013275
0.831968 0.234714 0.000000
0.861723 0.253391 0.000000
0.889769 0.273075 0.000000
0.916289 0.292485 0.000000
0.941497 0.312352 0.000000
0.965576 0.332280 0.000000
0.988434 0.352331 0.021668
1.000000 0.372900 0.063386
1.000000 0.393378 0.103853
0.133547 0.127504 0.123690
0.133974 0.127443 0.123659
0.135195 0.127291 0.123934
0.138460 0.128725 0.123110
0.143709 0.129885 0.121736
0.151461 0.129641 0.120424
0.171633 0.134066 0.119997
0.193545 0.139345 0.120363
0.219913 0.145907 0.120424
0.251194 0.151186 0.119600
0.284855 0.153201 0.118318
0.322271 0.155123 0.116365
0.362768 0.157137 0.114443
0.405982 0.159365 0.112398
0.451575 0.162112 0.109377
0.498390 0.164950 0.106386
0.545525 0.169314 0.102022
0.592523 0.174685 0.096986
0.638148 0.182406 0.090059
0.684657 0.193881 0.078004
0.729427 0.208347 0.056855
0.768460 0.224155 0.038056
0.834348 0.262058 0.013703
0.864683 0.279942 0.006226
0.892271 0.297490 0.006134
0.917784 0.315221 0.012116
0.941711 0.332677 0.022278
0.964263 0.350378 0.044404
0.985718 0.368261 0.078279
1.000000 0.386328 0.099916
1.000000 0.404669 0.120943
1.000000 0.423041 0.143160
0.144320 0.139925 0.129335
0.144625 0.139895 0.129580
0.146304 0.139467 0.129610
0.149630 0.140414 0.129397
0.155886 0.143069 0.127504
0.163699 0.143862 0.125307
0.174990 0.142763 0.123232
0.201938 0.148989 0.122591
0.228702 0.156039 0.122652
0.260807 0.164797 0.122866
0.298405 0.175418 0.122683
0.338659 0.181033 0.121187
0.380713 0.184390 0.118837
0.425025 0.188266 0.116518
0.470741 0.192477 0.113344
0.517082 0.196902 0.109834
0.563745 0.202304 0.105013
0.609705 0.209079 0.099763
0.655177 0.217990 0.093050
0.705257 0.232059 0.082368
0.749844 0.247990 0.063478
0.789273 0.264256 0.046998
0.824735 0.281346 0.037446
0.857023 0.298863 0.031434
0.886564 0.316136 0.032624
0.913115 0.333135 0.040620
0.937346 0.349218 0.054261
0.959930 0.365332 0.078645
0.981292 0.381811 0.096712
1.000000 0.398352 0.112459
1.000000 0.415290 0.130282
1.000000 0.432807 0.151278
0.156161 0.153323 0.136385
0.156863 0.153262 0.136385
0.158297 0.152865 0.136629
0.161044 0.152926 0.136812
0.166598 0.155489 0.135042
0.175143 0.158358 0.132601
0.185580 0.158938 0.130159
0.199191 0.157565 0.127352
0.231418 0.165255 0.126162
0.262089 0.174228 0.126772
0.298283 0.185306 0.127199
0.340185 0.198550 0.127108
0.386969 0.213352 0.126558
0.431281 0.218479 0.123751
0.477058 0.223545 0.120485
0.523125 0.229191 0.116182
0.569238 0.235630 0.111910
0.614527 0.242588 0.106508
0.664149 0.254185 0.099641
0.710414 0.267155 0.092348
0.751980 0.280980 0.083619
0.789456 0.295201 0.073732
0.823514 0.310124 0.067720
0.854978 0.325170 0.067048
0.883940 0.340703 0.071107
0.910033 0.355749 0.082582
0.934112 0.370489 0.091737
0.956603 0.384955 0.101839
0.977966 0.399908 0.113405
0.998169 0.415167 0.128786
1.000000 0.430732 0.145571
1.000000 0.446845 0.164858
0.170840 0.169375 0.145052
0.171023 0.169528 0.145022
0.172427 0.169009 0.145296
0.175143 0.168521 0.145754
0.180209 0.170382 0.144656
0.188663 0.174350 0.142153
0.198428 0.176638 0.139376
0.210910 0.177462 0.136202
0.227176 0.175875 0.132967
0.264378 0.185122 0.131289
0.299748 0.196567 0.131930
0.340551 0.210086 0.132326
0.386572 0.225986 0.132509
0.436530 0.244388 0.132631
0.486915 0.259831 0.131014
0.532738 0.265995 0.126467
0.578180 0.272770 0.122011
0.627771 0.283391 0.116579
0.674525 0.294347 0.110445
0.717586 0.306035 0.104616
0.756466 0.317937 0.099886
0.791836 0.330480 0.097322
0.824399 0.343389 0.096895
0.854765 0.356603 0.098970
0.882872 0.370001 0.102358
0.908537 0.383001 0.107942
0.932219 0.395911 0.115236
0.954467 0.408850 0.124514
0.975525 0.422309 0.135744
0.995544 0.435798 0.149203
1.000000 0.449989 0.165164
1.000000 0.464668 0.183261
0.187472 0.188144 0.155154
0.187747 0.188113 0.155154
0.188876 0.187839 0.155398
0.191440 0.187076 0.155856
0.195529 0.187503 0.155673
0.203189 0.191287 0.153384
0.214145 0.195773 0.150118
0.225345 0.197940 0.146761
0.239902 0.198611 0.143435
0.258671 0.197177 0.139315
0.300816 0.207858 0.136965
0.340032 0.221683 0.137789
0.384375 0.237888 0.138674
0.433387 0.256474 0.139162
0.485939 0.277287 0.139193
0.541955 0.301610 0.139223
0.594659 0.317998 0.136110
0.641901 0.328283 0.131319
0.686091 0.338781 0.126162
0.726162 0.348974 0.122683
0.762264 0.358862 0.119539
0.794980 0.368719 0.118746
0.825101 0.378637 0.119661
0.853574 0.389227 0.121340
0.880125 0.399939 0.125490
0.904845 0.410773 0.130892
0.928130 0.421881 0.138338
0.950317 0.433295 0.146853
0.971466 0.445289 0.157565
0.991608 0.457649 0.170748
1.000000 0.470680 0.186038
1.000000 0.484352 0.203616
0.205264 0.208743 0.166323
0.205600 0.208560 0.166354
0.206729 0.208438 0.166537
0.209354 0.207889 0.167117
0.213016 0.206912 0.167727
0.219913 0.210452 0.165591
0.230106 0.215488 0.162661
0.242588 0.220005 0.159213
0.256260 0.222477 0.155428
0.273594 0.223423 0.151247
0.294713 0.222049 0.146517
0.342016 0.234684 0.143343
0.385260 0.251225 0.144686
0.434211 0.270878 0.145693
0.488289 0.293492 0.146792
0.544152 0.318669 0.147921
0.600275 0.345678 0.149508
0.654108 0.374212 0.151919
0.695796 0.384558 0.148287
0.732998 0.392889 0.145602
0.766781 0.400671 0.144137
0.797665 0.408484 0.143801
0.826627 0.416846 0.145754
0.853941 0.425299 0.149050
0.879820 0.434058 0.152773
0.903929 0.443336 0.158877
0.926787 0.452644 0.165835
0.948486 0.462409 0.174533
0.969207 0.472724 0.184939
0.989044 0.483650 0.197238
1.000000 0.495277 0.212192
1.000000 0.507469 0.229191
0.226047 0.232609 0.179232
0.226352 0.232486 0.179263
0.227512 0.232334 0.179568
0.229923 0.231724 0.179934
0.233585 0.230961 0.180789
0.239475 0.232547 0.179995
0.249027 0.237675 0.177066
0.262119 0.244144 0.173373
0.276005 0.248447 0.169314
0.292332 0.251408 0.165225
0.312169 0.252628 0.160281
0.337591 0.252628 0.155215
0.411688 0.281621 0.154360
0.464820 0.305058 0.156741
0.520165 0.329992 0.158968
0.576715 0.357122 0.161898
0.631250 0.385168 0.165682
0.682277 0.413916 0.171328
0.727260 0.441230 0.180453
0.765347 0.462165 0.189609
0.794919 0.466651 0.189944
0.822232 0.471382 0.191562
0.847990 0.476112 0.193790
0.872404 0.481605 0.197635
0.895445 0.487190 0.202457
0.917144 0.493233 0.207889
0.937560 0.499092 0.214176
0.956970 0.505852 0.221744
0.975494 0.513237 0.231388
0.993408 0.521324 0.242527
1.000000 0.530388 0.255802
1.000000 0.540612 0.271550
0.253635 0.264439 0.196780
0.253758 0.264347 0.196506
0.254795 0.263920 0.196841
0.257115 0.263005 0.197116
0.260258 0.261723 0.197574
0.264805 0.260807 0.197910
0.273869 0.265843 0.195010
0.286534 0.272648 0.191531
0.303532 0.281254 0.187564
0.320897 0.286961 0.183597
0.342748 0.292485 0.179385
0.369024 0.296849 0.174319
0.399908 0.298528 0.168673
0.461646 0.317540 0.163210
0.516930 0.343664 0.166445
0.571496 0.370092 0.170260
0.624323 0.397253 0.174563
0.673732 0.424628 0.180911
0.717739 0.450477 0.190005
0.756435 0.474617 0.202457
0.790890 0.497200 0.217960
0.819669 0.509087 0.227207
0.844724 0.512413 0.228977
0.868681 0.516258 0.231785
0.891295 0.520378 0.236027
0.912749 0.524987 0.241062
0.932982 0.529992 0.247532
0.952361 0.535607 0.254734
0.970886 0.541741 0.263462
0.988708 0.548852 0.274449
1.000000 0.556786 0.287083
1.000000 0.565759 0.302495
0.280369 0.295598 0.213870
0.280430 0.295506 0.213901
0.281559 0.294896 0.213870
0.283543 0.294133 0.214237
0.286809 0.292882 0.214664
0.291234 0.291478 0.215457
0.299290 0.294957 0.213840
0.311223 0.301640 0.210422
0.327276 0.310338 0.206241
0.345586 0.318608 0.201846
0.365667 0.325109 0.197574
0.389593 0.330907 0.192569
0.417945 0.335363 0.186801
0.449928 0.337072 0.180545
0.512383 0.355749 0.173587
0.566217 0.382452 0.177737
0.617487 0.408972 0.183108
0.665553 0.435218 0.189792
0.709041 0.460365 0.199405
0.747433 0.483680 0.212161
0.781918 0.505547 0.227726
0.813413 0.526482 0.245701
0.842191 0.546777 0.266300
0.866178 0.552697 0.272282
0.888426 0.555535 0.275517
0.909422 0.558984 0.280186
0.929320 0.562707 0.285527
0.948363 0.566857 0.292088
0.966522 0.571954 0.300481
0.984039 0.577874 0.310643
1.000000 0.584741 0.322911
1.000000 0.592645 0.337713
0.309972 0.329992 0.233188
0.310155 0.329900 0.233310
0.310826 0.329259 0.233188
0.312627 0.328038 0.233188
0.315557 0.326329 0.233371
0.319402 0.324376 0.233799
0.325566 0.324681 0.233524
0.336584 0.331121 0.230411
0.351110 0.339300 0.226261
0.370214 0.349523 0.221439
0.389654 0.357305 0.217197
0.411841 0.364416 0.212406
0.437537 0.370520 0.207004
0.466926 0.374701 0.200534
0.499031 0.375708 0.193118
0.559838 0.393408 0.184939
0.611658 0.420600 0.190738
0.658625 0.446357 0.198459
0.701228 0.470680 0.208347
0.739559 0.493446 0.221378
0.774014 0.514702 0.237491
0.805722 0.535210 0.255222
0.834836 0.554986 0.275669
0.861387 0.574304 0.298497
0.885252 0.590753 0.319738
0.905821 0.593103 0.323125
0.925383 0.595850 0.328130
0.944121 0.599390 0.334661
0.962219 0.603601 0.342718
0.979553 0.608789 0.352972
0.996246 0.615076 0.365423
1.000000 0.622431 0.380377
0.338720 0.363104 0.252537
0.338994 0.363195 0.252598
0.339818 0.362737 0.252689
0.341711 0.361822 0.252842
0.344671 0.360662 0.253300
0.348760 0.358984 0.253849
0.354070 0.357214 0.254887
0.364446 0.363165 0.252415
0.378271 0.371405 0.249027
0.396063 0.381231 0.244511
0.416632 0.391882 0.239384
0.436378 0.398901 0.234684
0.459327 0.405280 0.229191
0.484962 0.410071 0.222507
0.513054 0.412848 0.215061
0.543389 0.412634 0.206912
0.601831 0.429480 0.198245
0.650568 0.455665 0.205570
0.692622 0.479744 0.216220
0.731106 0.502129 0.229435
0.766140 0.523491 0.245518
0.798367 0.544060 0.264591
0.828031 0.563836 0.285557
0.855192 0.582971 0.308354
0.879820 0.601312 0.332677
0.902007 0.619013 0.358618
0.921660 0.630121 0.376684
0.940032 0.632654 0.382147
0.957549 0.635859 0.389319
0.974334 0.639918 0.398566
0.990448 0.644923 0.409644
1.000000 0.650874 0.422950
0.367224 0.396033 0.272374
0.367559 0.396063 0.272648
0.368322 0.395666 0.272618
0.370214 0.394812 0.272831
0.373053 0.393652 0.273198
0.377111 0.392248 0.273747
0.382116 0.390600 0.274784
0.390509 0.393042 0.273960
0.403021 0.400763 0.270878
0.419013 0.410040 0.266972
0.438819 0.420783 0.262028
0.459266 0.430243 0.256962
0.480171 0.437293 0.251865
0.503258 0.443183 0.245823
0.528893 0.447700 0.239017
0.556573 0.449805 0.231205
0.586267 0.449378 0.222568
0.641077 0.465736 0.214878
0.686152 0.489754 0.224125
0.724117 0.511803 0.237919
0.759426 0.532952 0.254551
0.791836 0.553216 0.273503
0.821836 0.572930 0.295140
0.849302 0.591943 0.318486
0.874327 0.610254 0.343420
0.896941 0.627832 0.369665
0.917205 0.644800 0.397314
0.935180 0.661128 0.425727
0.951965 0.667842 0.439368
0.968322 0.671046 0.447608
0.984009 0.675196 0.457801
0.999023 0.680293 0.470161
0.397803 0.430915 0.294835
0.398169 0.430976 0.294896
0.413062 0.446143 0.305882
0.414710 0.445441 0.305852
0.417395 0.444373 0.306310
0.421088 0.442664 0.306676
0.425940 0.440742 0.307347
0.432197 0.439490 0.308110
0.444099 0.446815 0.305211
0.458991 0.455726 0.301610
0.477150 0.465888 0.297063
0.498695 0.477363 0.291814
0.518090 0.484718 0.286351
0.538842 0.490730 0.280461
0.561395 0.495399 0.273716
0.585626 0.498329 0.265904
0.611414 0.499092 0.257328
0.638575 0.497108 0.247868
0.686610 0.509911 0.241825
0.726619 0.529961 0.252964
0.760250 0.549859 0.270603
0.791806 0.569238 0.290562
0.821073 0.588006 0.312169
0.847898 0.606012 0.335485
0.872129 0.623224 0.360204
0.894102 0.639704 0.385687
0.913909 0.655543 0.412116
0.931518 0.671046 0.440101
0.947417 0.686213 0.468544
0.961486 0.701289 0.498177
0.976654 0.704616 0.507073
0.991241 0.708705 0.517693
0.432837 0.470222 0.321782
0.434333 0.471473 0.322820
0.436652 0.472877 0.324132
0.439429 0.473518 0.325322
0.442939 0.473426 0.326360
0.446784 0.472450 0.327031
0.451362 0.470863 0.327947
0.456641 0.468727 0.328679
0.466255 0.472755 0.327276
0.479622 0.480812 0.323766
0.495857 0.490181 0.319982
0.514946 0.500664 0.315526
0.535912 0.510826 0.309941
0.554498 0.517174 0.304753
0.575128 0.522698 0.298894
0.597284 0.526879 0.292119
0.620661 0.529381 0.284489
0.645289 0.529900 0.276463
0.671290 0.528069 0.268193
0.715938 0.539635 0.264347
0.753414 0.557885 0.277409
0.785336 0.577447 0.297917
0.814878 0.596216 0.319951
0.841978 0.614282 0.344213
0.866606 0.631312 0.368933
0.888914 0.647639 0.394812
0.908965 0.663386 0.421668
0.926879 0.678706 0.449683
0.942931 0.693812 0.478737
0.957366 0.708736 0.508293
0.970306 0.723354 0.538079
0.982849 0.734493 0.561364
0.461250 0.501640 0.344610
0.462898 0.502892 0.345800
0.465003 0.504417 0.347173
0.467994 0.505303 0.348577
0.471229 0.505455 0.349737
0.474952 0.504723 0.350561
0.479194 0.503166 0.351141
0.484321 0.501152 0.352026
0.491432 0.501488 0.352178
0.503319 0.508812 0.349248
0.517937 0.517296 0.345739
0.535088 0.526879 0.342077
0.554894 0.537224 0.337011
0.574182 0.545739 0.331853
0.592737 0.551476 0.326879
0.612482 0.556146 0.321141
0.633478 0.559503 0.314763
0.655604 0.561151 0.307622
0.678920 0.561181 0.300267
0.703487 0.559197 0.292576
0.744533 0.569268 0.290562
0.779294 0.585565 0.304784
0.809232 0.604456 0.327611
0.836637 0.622614 0.352453
0.861509 0.639673 0.378119
0.884092 0.655879 0.404028
0.904356 0.671534 0.431464
0.922545 0.686702 0.459693
0.938872 0.701625 0.488777
0.953521 0.716457 0.518791
0.966796 0.730800 0.548211
0.978759 0.744656 0.576654
0.491279 0.534325 0.370153
0.492744 0.535637 0.371344
0.494820 0.536767 0.372534
0.497414 0.537560 0.373999
0.500450 0.537743 0.375006
0.503868 0.537072 0.375891
0.507897 0.535790 0.376471
0.512505 0.533898 0.377203
0.517967 0.531945 0.378149
0.528435 0.537652 0.376043
0.541650 0.545403 0.373327
0.557061 0.554192 0.370031
0.574640 0.563561 0.365942
0.594324 0.573632 0.361059
0.611414 0.579675 0.356847
0.629236 0.584680 0.352300
0.648432 0.588922 0.347570
0.668971 0.592187 0.342168
0.690700 0.594171 0.336858
0.713680 0.594751 0.331182
0.737575 0.593469 0.325261
0.775937 0.603143 0.326543
0.808591 0.618097 0.342443
0.836637 0.636774 0.369238
0.861723 0.654414 0.397223
0.884276 0.670954 0.425513
0.904387 0.686671 0.454383
0.922393 0.701808 0.483558
0.938415 0.716732 0.513970
0.952911 0.731106 0.543572
0.966033 0.745022 0.572473
0.977844 0.758419 0.600397
0.530175 0.575860 0.406439
0.530877 0.576410 0.407141
0.531945 0.576684 0.407660
0.533501 0.576471 0.408087
0.535515 0.575830 0.408362
0.538109 0.574701 0.408545
0.541558 0.573175 0.408820
0.545861 0.571405 0.409247
0.550805 0.569574 0.410163
0.558770 0.571588 0.409735
0.570397 0.578515 0.407813
0.584039 0.586267 0.405127
0.599512 0.594659 0.401923
0.616907 0.603388 0.398016
0.634821 0.611566 0.393805
0.650629 0.616358 0.390204
0.667414 0.620386 0.385962
0.685389 0.623590 0.381231
0.704494 0.625910 0.376349
0.724544 0.627008 0.371405
0.745632 0.626673 0.365667
0.767636 0.624750 0.359869
0.802396 0.632654 0.361700
0.832120 0.644953 0.376623
0.857176 0.662257 0.404852
0.880064 0.678828 0.433600
0.900542 0.694697 0.463294
0.918730 0.709987 0.493660
0.934997 0.724849 0.524376
0.949798 0.739010 0.553765
0.963134 0.752712 0.582727
0.975128 0.765866 0.610468
0.559838 0.607324 0.438025
0.560388 0.607752 0.438361
0.561395 0.607904 0.439002
0.562799 0.607813 0.439399
0.564752 0.607233 0.439612
0.567224 0.606287 0.439948
0.570367 0.605097 0.440345
0.574182 0.603632 0.440681
0.578973 0.602106 0.441657
0.584710 0.600977 0.442420
0.595087 0.607111 0.440711
0.607141 0.613977 0.438880
0.620813 0.621363 0.436347
0.636225 0.629328 0.433631
0.653285 0.637690 0.430213
0.669245 0.644038 0.427100
0.684474 0.648219 0.423957
0.700649 0.651881 0.420508
0.717891 0.654810 0.416815
0.736110 0.656764 0.412757
0.755337 0.657771 0.408362
0.775357 0.657404 0.403723
0.796170 0.655451 0.398260
0.828122 0.662318 0.401434
0.852537 0.669032 0.409827
0.875212 0.685206 0.438880
0.896086 0.701259 0.469398
0.914702 0.716579 0.500206
0.931395 0.731411 0.531121
0.946502 0.745632 0.561212
0.960143 0.759426 0.590539
0.972503 0.772610 0.618647
0.593469 0.642420 0.478340
0.594354 0.643030 0.479255
0.595117 0.643214 0.479713
0.596063 0.642786 0.479713
0.597345 0.641901 0.479408
0.598932 0.640436 0.478828
0.601099 0.638758 0.478187
0.604028 0.636835 0.477821
0.607660 0.634791 0.477699
0.612085 0.632654 0.477760
0.619348 0.635065 0.476509
0.629450 0.640558 0.474311
0.641108 0.646693 0.471839
0.654108 0.653193 0.468910
0.668757 0.660060 0.465553
0.684871 0.667384 0.461524
0.698299 0.671290 0.458198
0.712703 0.674830 0.455085
0.728298 0.678004 0.451942
0.744991 0.680781 0.449073
0.762509 0.682795 0.446082
0.780911 0.683619 0.442206
0.799771 0.682948 0.437751
0.819059 0.680537 0.432074
0.848020 0.685969 0.435187
0.872953 0.694087 0.447639
0.892882 0.708949 0.477211
0.911437 0.723964 0.508110
0.928283 0.738399 0.538476
0.943572 0.752438 0.568627
0.957519 0.765957 0.597711
0.970062 0.779080 0.626062
0.619165 0.669032 0.512047
0.619959 0.669673 0.513085
0.620844 0.669886 0.513725
0.621851 0.669795 0.514000
0.623255 0.669276 0.514122
0.625208 0.668482 0.514214
0.627649 0.667536 0.514427
0.630793 0.666468 0.514763
0.634668 0.665217 0.515312
0.639155 0.663996 0.516320
0.644892 0.664088 0.516716
0.653956 0.669154 0.515343
0.664210 0.674678 0.513664
0.675807 0.680537 0.511528
0.688655 0.686702 0.508690
0.702937 0.693172 0.505547
0.717403 0.699062 0.502251
0.730190 0.702480 0.499458
0.744015 0.705745 0.496864
0.758999 0.708705 0.494545
0.774838 0.711055 0.492103
0.791409 0.712612 0.489296
0.808469 0.713069 0.485939
0.826108 0.712184 0.481849
0.844114 0.709651 0.476509
0.870481 0.714321 0.480568
0.893248 0.720974 0.492470
0.910582 0.734707 0.522484
0.927459 0.749081 0.553491
0.942718 0.762814 0.583368
0.956603 0.776028 0.612238
0.969146 0.788785 0.640314
0.648524 0.699001 0.553246
0.648890 0.699306 0.553796
0.649470 0.699367 0.554009
0.650294 0.699062 0.554131
0.651392 0.698634 0.554162
0.653071 0.697963 0.554192
0.655207 0.697017 0.554131
0.657984 0.695979 0.554345
0.661219 0.694881 0.554803
0.665217 0.693782 0.555566
0.669703 0.692470 0.556573
0.677272 0.696132 0.555840
0.686397 0.701045 0.554528
0.696620 0.706294 0.552758
0.708003 0.711818 0.550652
0.720516 0.717586 0.547936
0.734401 0.723751 0.545068
0.747219 0.728176 0.542565
0.759579 0.731441 0.540764
0.772885 0.734493 0.538933
0.787045 0.737118 0.537224
0.801907 0.739071 0.535058
0.817166 0.740078 0.532372
0.833005 0.740017 0.528954
0.849149 0.738643 0.524651
0.865721 0.735775 0.519188
0.889494 0.739406 0.523369
0.910369 0.744411 0.533074
0.925628 0.756771 0.561730
0.941100 0.770474 0.592096
0.955138 0.783658 0.621424
0.967864 0.796323 0.649470
0.675898 0.727016 0.592248
0.676234 0.727199 0.592584
0.676814 0.727321 0.592981
0.677668 0.727260 0.593347
0.679042 0.727138 0.593805
0.680873 0.727016 0.594507
0.683680 0.727138 0.595850
0.687098 0.727321 0.597711
0.691310 0.727596 0.599969
0.696101 0.727962 0.602625
0.701442 0.728328 0.605707
0.708217 0.730770 0.607843
0.717220 0.736172 0.608637
0.726925 0.741604 0.608789
0.737362 0.747066 0.608331
0.748592 0.752438 0.606928
0.760708 0.757900 0.605066
0.774105 0.763668 0.603021
0.784970 0.766781 0.601801
0.796536 0.769680 0.600702
0.808835 0.772244 0.599634
0.821714 0.774258 0.598260
0.834958 0.775418 0.596246
0.848600 0.775723 0.593652
0.862547 0.774929 0.590356
0.876921 0.773068 0.586114
0.891661 0.769986 0.581140
0.912505 0.772396 0.584741
0.931212 0.775723 0.592523
0.943786 0.786313 0.618433
0.957336 0.798825 0.646815
0.969543 0.810941 0.674128
0.712215 0.763546 0.645380
0.712215 0.763516 0.645380
0.712551 0.763363 0.645319
0.713100 0.763149 0.645319
0.713985 0.762783 0.645319
0.715297 0.762325 0.645411
0.717189 0.761929 0.645747
0.719631 0.761471 0.646357
0.722591 0.761074 0.647364
0.726162 0.760647 0.648585
0.730190 0.760220 0.650080
0.734737 0.759945 0.651667
0.741939 0.764004 0.651453
0.750027 0.768276 0.651087
