20 Preset/Wedding Style/【3】LUT for PR-AE-FCPX/Film Wedding - LUT (4).cube
# Created by Adobe Lightroom plugin Export LUT (1.24.0)
# www.johnrellis.com/lightroom/exportlut.htm
# Preset: 04婚礼纪实_火-素材江湖
# Color profile: C:\Program Files (x86)\Common Files\Adobe\Color\Profiles\Recommended\VideoHD.icc
LUT_3D_SIZE 32
DOMAIN_MIN 0.0 0.0 0.0
DOMAIN_MAX 1.0 1.0 1.0
0.095277 0.100893 0.072602
0.095033 0.101259 0.072450
0.097414 0.101350 0.073426
0.102052 0.101564 0.074189
0.109468 0.102083 0.075746
0.122957 0.103090 0.077699
0.143832 0.103914 0.079316
0.172671 0.104982 0.079072
0.209262 0.105013 0.078523
0.252476 0.104036 0.077638
0.302983 0.100832 0.073182
0.361303 0.093507 0.066468
0.426886 0.068666 0.057618
0.496712 0.016327 0.045075
0.566430 0.000000 0.029786
0.631922 0.000000 0.014527
0.691066 0.000000 0.000031
0.742245 0.034638 0.000000
0.794827 0.133944 0.000000
0.834928 0.190005 0.000000
0.864988 0.236667 0.010620
0.887785 0.276799 0.058564
0.905150 0.311864 0.100221
0.919341 0.343542 0.125948
0.931334 0.372747 0.151308
0.942077 0.400580 0.176242
0.951965 0.427405 0.201480
0.961212 0.453285 0.227543
0.969909 0.478584 0.254612
0.978088 0.503807 0.283604
0.985931 0.528862 0.314488
0.993256 0.554040 0.347570
0.095033 0.101259 0.072450
0.095705 0.101198 0.072450
0.098085 0.101289 0.073396
0.101839 0.101930 0.074037
0.109804 0.102419 0.075563
0.123293 0.103395 0.077546
0.143709 0.104280 0.079225
0.171633 0.105531 0.079011
0.207767 0.105776 0.078462
0.250523 0.104768 0.077729
0.300359 0.102205 0.073335
0.357824 0.095247 0.067048
0.422766 0.077211 0.057191
0.492012 0.024750 0.045441
0.561486 0.000000 0.030762
0.627649 0.000000 0.015656
0.687190 0.000000 0.000336
0.738949 0.035523 0.000000
0.790799 0.131838 0.000000
0.830808 0.185702 0.000000
0.861265 0.232181 0.006622
0.884337 0.271611 0.049195
0.902129 0.306401 0.095735
0.916655 0.338231 0.121340
0.928862 0.367529 0.146426
0.939818 0.395239 0.170840
0.950011 0.422156 0.195865
0.959442 0.448402 0.221958
0.968383 0.474067 0.249027
0.976776 0.499458 0.277958
0.984710 0.524834 0.308904
0.992248 0.550195 0.341985
0.096956 0.101747 0.075532
0.096712 0.102113 0.075380
0.097719 0.102358 0.076356
0.103090 0.102480 0.075990
0.111177 0.103670 0.076081
0.124697 0.104921 0.078706
0.145541 0.105989 0.079316
0.173861 0.107393 0.079011
0.209812 0.107851 0.079072
0.251774 0.108003 0.075990
0.301396 0.105837 0.072572
0.358679 0.099977 0.065980
0.423041 0.088258 0.056977
0.491890 0.045289 0.043824
0.561028 0.000000 0.029877
0.626551 0.000000 0.014740
0.686030 0.000000 0.000580
0.738308 0.072724 0.000000
0.789120 0.139559 0.000000
0.828855 0.190036 0.000000
0.859403 0.234470 0.005737
0.882567 0.273625 0.046876
0.900511 0.307683 0.094392
0.915221 0.338750 0.120058
0.927520 0.367437 0.144656
0.938567 0.394873 0.169162
0.948730 0.421790 0.194339
0.958373 0.447761 0.220157
0.967376 0.473365 0.247227
0.975891 0.498695 0.276097
0.983948 0.523857 0.306828
0.991516 0.549126 0.339696
0.099611 0.103548 0.080201
0.099611 0.103548 0.080201
0.100557 0.103792 0.080812
0.101930 0.104341 0.081300
0.110231 0.105409 0.080659
0.127871 0.108156 0.079042
0.150546 0.110048 0.079255
0.179324 0.111666 0.078706
0.215457 0.113313 0.077180
0.257603 0.114107 0.075135
0.307073 0.113191 0.070893
0.363592 0.109224 0.063508
0.427771 0.100526 0.053529
0.495613 0.085206 0.041413
0.563470 0.046509 0.026947
0.627893 0.027588 0.012146
0.686244 0.052827 0.000000
0.738552 0.108522 0.000000
0.787076 0.154726 0.000000
0.825467 0.199252 0.000000
0.855650 0.240116 0.004700
0.878965 0.277043 0.044434
0.897337 0.309972 0.092561
0.912596 0.340612 0.118410
0.925444 0.369360 0.143557
0.936950 0.397131 0.168856
0.947539 0.424140 0.194491
0.957458 0.450294 0.220706
0.966644 0.475746 0.248173
0.975250 0.500847 0.276921
0.983276 0.525597 0.307408
0.990784 0.550103 0.339574
0.103578 0.106447 0.084932
0.104097 0.106386 0.085634
0.104799 0.106966 0.086152
0.105959 0.107485 0.087373
0.109804 0.108370 0.086976
0.121767 0.110780 0.086397
0.149020 0.115511 0.082643
0.184451 0.120668 0.078187
0.222141 0.123354 0.075196
0.265232 0.125521 0.070680
0.314214 0.125826 0.066590
0.370947 0.124269 0.058656
0.434272 0.118715 0.049805
0.501488 0.110780 0.035981
0.568505 0.102541 0.021607
0.632013 0.101411 0.008270
0.689601 0.113649 0.000000
0.742214 0.142885 0.000000
0.788632 0.180697 0.000000
0.825711 0.219364 0.000000
0.855100 0.256107 0.007568
0.877958 0.289921 0.049775
0.896117 0.320958 0.095064
0.911437 0.350011 0.120943
0.924315 0.377539 0.146029
0.935912 0.404517 0.171542
0.946624 0.430426 0.196994
0.956542 0.455695 0.223209
0.965698 0.480446 0.250401
0.974304 0.504631 0.278752
0.982300 0.528679 0.308904
0.989837 0.552636 0.340642
0.109682 0.111482 0.091463
0.109682 0.111482 0.091463
0.110811 0.111971 0.092195
0.112337 0.113344 0.093172
0.116487 0.114687 0.093233
0.121859 0.115236 0.092958
0.137667 0.118776 0.092195
0.174594 0.127840 0.087190
0.226352 0.138186 0.075624
0.275212 0.143984 0.066804
0.327459 0.145907 0.059907
0.385931 0.145968 0.050446
0.449226 0.143801 0.039826
0.515312 0.140902 0.027588
0.580804 0.139345 0.013458
0.642756 0.143252 0.000305
0.698085 0.156893 0.000000
0.750271 0.182864 0.000000
0.794156 0.215274 0.000000
0.829282 0.248783 0.000000
0.857145 0.281315 0.016327
0.879057 0.311620 0.063752
0.911284 0.370611 0.129702
0.923766 0.395850 0.155154
0.934936 0.419898 0.180087
0.945068 0.443275 0.204715
0.954437 0.465766 0.229923
0.963134 0.487953 0.255344
0.971283 0.509880 0.281987
0.978973 0.531640 0.309972
0.986175 0.553399 0.339361
0.992859 0.575128 0.370001
0.119081 0.122011 0.100343
0.119326 0.122255 0.100649
0.120485 0.123232 0.101167
0.123537 0.125002 0.102937
0.127993 0.128420 0.105013
0.133547 0.129824 0.103914
0.140993 0.129976 0.102968
0.160555 0.134035 0.101137
0.209537 0.148653 0.094362
0.274510 0.163851 0.080781
0.350835 0.177493 0.050141
0.415808 0.180087 0.036957
0.483040 0.180667 0.021576
0.549279 0.181186 0.007752
0.611444 0.184298 0.000000
0.668330 0.192233 0.000000
0.721828 0.209384 0.000000
0.771054 0.236088 0.000000
0.810697 0.265934 0.000000
0.842741 0.295842 0.002380
0.868162 0.325292 0.049622
0.888609 0.353368 0.098970
0.905272 0.380194 0.127749
0.919219 0.405554 0.155245
0.931395 0.429694 0.181827
0.942077 0.452552 0.207370
0.951812 0.473945 0.232212
0.960632 0.494942 0.257725
0.968902 0.515740 0.283848
0.976684 0.536278 0.311101
0.983978 0.557061 0.339757
0.990784 0.577996 0.370031
0.131350 0.138582 0.113558
0.131868 0.138979 0.113771
0.133333 0.140169 0.114412
0.136324 0.142733 0.116609
0.140780 0.147189 0.119478
0.148013 0.151583 0.121370
0.156008 0.152377 0.118990
0.164828 0.150729 0.116701
0.184421 0.152987 0.114656
0.242496 0.172946 0.105806
0.318059 0.192355 0.092958
0.410742 0.210056 0.052522
0.496254 0.222171 0.010040
0.562219 0.225345 0.000000
0.624872 0.230411 0.000000
0.680140 0.239384 0.000000
0.733211 0.258030 0.000000
0.777371 0.280369 0.000000
0.813504 0.304662 0.000000
0.843107 0.329656 0.010407
0.867033 0.354345 0.065278
0.886595 0.378393 0.105928
0.902861 0.401465 0.134798
0.916594 0.423774 0.162020
0.928710 0.445655 0.188052
0.939574 0.466224 0.213291
0.949310 0.486091 0.238102
0.958312 0.505486 0.262943
0.966674 0.524926 0.288670
0.974456 0.544427 0.315557
0.981933 0.563989 0.343664
0.988830 0.583978 0.373602
0.148226 0.164187 0.133730
0.148592 0.164523 0.134157
0.150118 0.165988 0.134829
0.153353 0.169162 0.137301
0.158999 0.174166 0.140902
0.167239 0.181857 0.146426
0.175479 0.184634 0.145480
0.185794 0.183932 0.140871
0.195102 0.179751 0.136507
0.211643 0.177584 0.133486
0.279942 0.202548 0.124331
0.366033 0.225895 0.110323
0.467201 0.247257 0.086000
0.567163 0.268315 0.007111
0.637476 0.282261 0.000000
0.695308 0.295171 0.000000
0.744594 0.311437 0.000000
0.785458 0.329961 0.000000
0.818143 0.349462 0.000000
0.845060 0.369268 0.028260
0.867247 0.389227 0.088746
0.885588 0.408759 0.118502
0.901061 0.428016 0.146334
0.914458 0.447120 0.172946
0.926513 0.465858 0.198520
0.937316 0.484077 0.223026
0.947082 0.501946 0.247379
0.956085 0.519646 0.271824
0.964477 0.537469 0.297185
0.972381 0.555444 0.323461
0.979828 0.573816 0.351110
0.986786 0.592493 0.380163
0.170382 0.198459 0.161288
0.170596 0.198856 0.161593
0.172305 0.200320 0.162600
0.176089 0.203616 0.165225
0.181430 0.209140 0.168978
0.190494 0.216770 0.174655
0.203220 0.227024 0.181979
0.211551 0.225406 0.175875
0.222782 0.222446 0.168734
0.231235 0.214755 0.161624
0.242161 0.205783 0.156710
0.319585 0.234714 0.148013
0.415381 0.261845 0.134554
0.519036 0.287663 0.113680
0.623651 0.317693 0.065492
0.703944 0.349615 0.000000
0.752316 0.367010 0.000000
0.790616 0.382361 0.000000
0.822263 0.397833 0.009430
0.847715 0.413031 0.062593
0.867857 0.427710 0.106538
0.884642 0.442145 0.134096
0.899016 0.456550 0.160159
0.911833 0.471504 0.184909
0.923461 0.486763 0.208621
0.934142 0.502220 0.232273
0.943908 0.517876 0.256046
0.953094 0.533867 0.280034
0.961639 0.550286 0.305058
0.969726 0.567102 0.331273
0.977325 0.584375 0.358801
0.984436 0.602228 0.387945
0.198154 0.238529 0.193729
0.198428 0.238926 0.194095
0.200565 0.240757 0.195315
0.204685 0.244236 0.198032
0.211063 0.249973 0.202029
0.221317 0.258213 0.208255
0.235264 0.269535 0.216281
0.249088 0.276982 0.219669
0.258396 0.272770 0.211185
0.269474 0.267338 0.201511
0.275761 0.255283 0.191257
0.283940 0.241978 0.183719
0.365759 0.270939 0.176211
0.471046 0.303746 0.164614
0.576623 0.336004 0.147341
0.670192 0.370184 0.121584
0.745846 0.406500 0.067872
0.794034 0.434943 0.034394
0.822965 0.445930 0.082765
0.846799 0.456336 0.108583
0.866728 0.466438 0.130678
0.883391 0.476661 0.152590
0.897154 0.487556 0.177493
0.909636 0.499214 0.201266
0.921202 0.511681 0.224216
0.931731 0.524834 0.247196
0.941497 0.538354 0.270176
0.950622 0.552361 0.293797
0.959197 0.566918 0.318212
0.967315 0.582147 0.343694
0.974945 0.597925 0.370672
0.982116 0.614405 0.398993
0.236179 0.286534 0.231968
0.236728 0.287083 0.232334
0.238621 0.288792 0.233433
0.243168 0.292515 0.236240
0.251011 0.298405 0.240482
0.262089 0.306645 0.246464
0.277836 0.318212 0.254704
0.298833 0.332586 0.265110
0.310704 0.333410 0.261448
0.318914 0.326604 0.250248
0.328649 0.317601 0.237491
0.333806 0.303349 0.226383
0.358770 0.300389 0.227024
0.445563 0.329168 0.219974
0.555474 0.368719 0.210330
0.653315 0.407538 0.197299
0.731746 0.445716 0.180758
0.791653 0.479835 0.162844
0.832853 0.505913 0.156191
0.857328 0.519402 0.170199
0.874083 0.524254 0.189181
0.888487 0.529778 0.207309
0.901701 0.536248 0.224918
0.913848 0.543999 0.243259
0.924285 0.552819 0.263981
0.933959 0.562280 0.284703
0.942962 0.572290 0.305241
0.951354 0.583093 0.326574
0.959319 0.594629 0.348943
0.966888 0.607080 0.372412
0.974090 0.620356 0.397345
0.980957 0.634668 0.423865
0.295140 0.348943 0.280095
0.295689 0.349218 0.280308
0.297734 0.350652 0.281285
0.302647 0.354040 0.283757
0.310765 0.359197 0.287297
0.322484 0.366827 0.292699
0.339086 0.377417 0.300237
0.360723 0.390997 0.309941
0.387396 0.407477 0.321538
0.395636 0.402472 0.311772
0.405341 0.395697 0.300267
0.415869 0.386297 0.286900
0.416693 0.367437 0.272740
0.415412 0.343633 0.258885
0.491157 0.366796 0.251164
0.595850 0.408667 0.243687
0.683162 0.448341 0.233951
0.752285 0.484810 0.223087
0.803952 0.514580 0.213870
0.841794 0.537407 0.208133
0.866972 0.554742 0.217685
0.882658 0.560723 0.233982
0.895872 0.565026 0.250492
0.908202 0.570581 0.267124
0.919585 0.577020 0.284123
0.930144 0.584405 0.301305
0.939269 0.592737 0.321416
0.947875 0.601923 0.342138
0.955993 0.612024 0.363958
0.963714 0.623163 0.386938
0.971038 0.635157 0.411261
0.977905 0.648280 0.437263
0.354955 0.403326 0.321416
0.355230 0.403571 0.321660
0.357641 0.404974 0.322576
0.363195 0.408392 0.325017
0.371893 0.413916 0.329046
0.384497 0.421942 0.335027
0.401862 0.432929 0.343145
0.423896 0.446723 0.353277
0.450996 0.463691 0.366155
0.471565 0.472816 0.371008
0.476234 0.465003 0.358495
0.481971 0.454871 0.344121
0.487434 0.441718 0.327337
0.482582 0.418280 0.309758
0.473732 0.389105 0.291752
0.533074 0.403418 0.281773
0.629206 0.445808 0.276066
0.707179 0.484932 0.269352
0.768154 0.518517 0.263432
0.812955 0.544549 0.259983
0.846586 0.564660 0.259190
0.872374 0.580987 0.262974
0.890562 0.594781 0.279484
0.902892 0.598535 0.295262
0.914366 0.603326 0.311254
0.925048 0.609003 0.327550
0.934966 0.615473 0.344182
0.944396 0.622675 0.361639
0.952697 0.631128 0.382238
0.960510 0.640803 0.404486
0.967834 0.651484 0.428077
0.974792 0.663325 0.453315
0.429023 0.465431 0.370001
0.429725 0.465705 0.370184
0.431586 0.466804 0.371099
0.435889 0.469398 0.372961
0.443305 0.473701 0.376226
0.453864 0.480018 0.381201
0.468360 0.488808 0.388067
0.487312 0.500267 0.397223
0.509911 0.514275 0.408789
0.536645 0.531182 0.423285
0.545403 0.530388 0.418433
0.547814 0.520745 0.403784
0.550042 0.508751 0.386847
0.551507 0.492988 0.367102
0.542016 0.466224 0.345800
0.527764 0.432746 0.323980
0.570275 0.437690 0.311131
0.657160 0.480110 0.307683
0.727474 0.517662 0.304295
0.780819 0.547997 0.302342
0.820279 0.571374 0.302953
0.850584 0.589960 0.306004
0.875486 0.605615 0.310643
0.895048 0.620020 0.323247
0.909117 0.629694 0.340368
0.919860 0.633845 0.355688
0.929931 0.638911 0.371679
0.939452 0.644984 0.388769
0.948547 0.652064 0.406836
0.957183 0.660243 0.426429
0.964813 0.669886 0.449348
0.971801 0.680812 0.474403
0.496620 0.519677 0.415442
0.497292 0.520104 0.415808
0.499306 0.521263 0.416785
0.503288 0.523583 0.418769
0.509850 0.527520 0.422156
0.519097 0.533135 0.426978
0.531884 0.541009 0.433875
0.547509 0.551019 0.442908
0.566155 0.563134 0.454078
0.587060 0.577356 0.467323
0.608148 0.591363 0.480690
0.607538 0.582025 0.465736
0.606806 0.570245 0.448249
0.605615 0.555444 0.427863
0.603082 0.537224 0.404456
0.590906 0.508537 0.379950
0.574090 0.472633 0.354498
0.600427 0.468055 0.338445
0.679866 0.510063 0.337499
0.743252 0.545586 0.337316
0.790555 0.573693 0.339269
0.826169 0.595636 0.343725
0.853941 0.613306 0.350286
0.877745 0.628962 0.357610
0.898833 0.643183 0.365820
0.913878 0.656580 0.385748
0.924956 0.663172 0.402899
0.934539 0.668055 0.418952
0.943664 0.673915 0.436103
0.952270 0.680842 0.454475
0.960418 0.688746 0.474220
0.968170 0.697749 0.495430
0.554467 0.566583 0.458900
0.554833 0.566796 0.459113
0.556329 0.567773 0.459968
0.559625 0.569940 0.461860
0.564904 0.573266 0.465095
0.572290 0.578241 0.469642
0.582300 0.584771 0.475929
0.594568 0.593072 0.484016
0.608972 0.602777 0.494057
0.625208 0.614008 0.505974
0.642786 0.626490 0.519768
0.653223 0.631159 0.523064
0.651942 0.621668 0.506676
0.650416 0.609644 0.487465
0.648371 0.594568 0.465400
0.644953 0.575891 0.440101
0.632349 0.546990 0.413581
0.615106 0.511131 0.385687
0.627832 0.497444 0.365789
0.700587 0.538323 0.367407
0.757168 0.571893 0.370642
0.799313 0.598138 0.376349
0.831235 0.618647 0.383948
0.857115 0.635828 0.393011
0.879850 0.651331 0.402625
0.900053 0.665370 0.413245
0.916777 0.678340 0.428168
0.929534 0.690730 0.450202
0.938567 0.695644 0.466651
0.947204 0.701534 0.484138
0.955352 0.708492 0.502983
0.963073 0.716457 0.523278
0.604059 0.609277 0.502159
0.604578 0.609583 0.502586
0.622248 0.624781 0.519646
0.624720 0.626398 0.521538
0.628626 0.629053 0.524346
0.634119 0.632654 0.528588
0.641169 0.637293 0.534203
0.649928 0.643244 0.541375
0.660212 0.650416 0.550347
0.671778 0.658595 0.560876
0.683986 0.667536 0.572686
0.696681 0.676997 0.585626
0.698482 0.673884 0.577935
0.696315 0.664454 0.560082
0.694057 0.652705 0.538933
0.691432 0.638087 0.514183
0.687953 0.619654 0.485939
0.676020 0.591150 0.456397
0.658961 0.555108 0.424872
0.659266 0.532067 0.399023
0.724147 0.570825 0.403540
0.772732 0.601312 0.410254
0.808957 0.624964 0.418769
0.837125 0.643702 0.428779
0.861234 0.660060 0.439063
0.882536 0.674739 0.449836
0.901579 0.687984 0.461036
0.918975 0.700099 0.473091
0.931945 0.712154 0.493446
0.942016 0.721920 0.514855
0.950164 0.727810 0.532250
0.957946 0.734615 0.550591
0.648859 0.648280 0.548363
0.650324 0.649592 0.550011
0.652705 0.651392 0.552361
0.655818 0.653773 0.555352
0.659632 0.656519 0.558984
0.664271 0.659632 0.563012
0.669734 0.663447 0.567987
0.676265 0.668055 0.574060
0.684016 0.673579 0.581506
0.692775 0.679896 0.590265
0.702327 0.687037 0.600061
0.712154 0.694606 0.610742
0.721248 0.701442 0.619959
0.719203 0.694331 0.606012
0.717220 0.685603 0.589136
0.715267 0.674739 0.568566
0.713283 0.661463 0.544457
0.711025 0.645197 0.516564
0.701564 0.619318 0.486885
0.687465 0.586206 0.454963
0.680995 0.557549 0.424903
0.738643 0.593866 0.432197
0.781918 0.622492 0.441871
0.814359 0.644709 0.452918
0.840604 0.662898 0.464546
0.863523 0.679255 0.476661
0.883909 0.693904 0.489052
0.902342 0.707179 0.502098
0.919158 0.719417 0.516075
0.933928 0.731136 0.532219
0.944396 0.743313 0.556268
0.952941 0.751369 0.575677
0.678614 0.674708 0.583612
0.679774 0.675868 0.585168
0.681819 0.677455 0.587396
0.684230 0.679347 0.590082
0.687373 0.681697 0.593286
0.690852 0.684260 0.596857
0.694942 0.687251 0.600916
0.699977 0.690822 0.605982
0.705776 0.695216 0.611994
0.712367 0.700191 0.619013
0.719661 0.705837 0.626978
0.727321 0.712032 0.635737
0.735256 0.718563 0.644892
0.739254 0.720119 0.645716
0.737331 0.713344 0.632715
0.735592 0.705226 0.617090
0.733822 0.695338 0.598138
0.732265 0.683375 0.575372
0.730831 0.668940 0.548730
0.723507 0.645777 0.519005
0.712490 0.616022 0.486427
0.707210 0.588769 0.455604
0.751278 0.615442 0.460975
0.789853 0.642451 0.473091
0.819089 0.663447 0.486213
0.843961 0.681666 0.499580
0.865843 0.697963 0.513237
0.885435 0.712612 0.527337
0.903380 0.725978 0.541985
0.919799 0.738369 0.557031
0.934844 0.750027 0.572595
0.946746 0.761532 0.592309
0.703517 0.698024 0.616266
0.704433 0.698909 0.617517
0.705898 0.700130 0.619226
0.707759 0.701656 0.621424
0.710079 0.703487 0.623987
0.712764 0.705531 0.626947
0.715877 0.708003 0.630335
0.719661 0.710872 0.634424
0.724178 0.714412 0.639368
0.729274 0.718532 0.645136
0.735042 0.723262 0.651667
0.741146 0.728542 0.658839
0.747677 0.734401 0.666438
0.754452 0.740505 0.674342
0.754910 0.737697 0.668696
0.753170 0.731075 0.656886
0.751553 0.723445 0.642878
0.750179 0.714504 0.626154
0.749233 0.704311 0.606378
0.748623 0.692042 0.582666
0.743343 0.672114 0.555352
0.735836 0.646571 0.523552
0.732418 0.621942 0.492073
0.765164 0.640131 0.495430
0.798764 0.665522 0.510887
0.825650 0.686305 0.526665
0.849119 0.704677 0.542107
0.870085 0.720943 0.557549
0.889158 0.735561 0.573083
0.906676 0.748898 0.588525
0.922820 0.761105 0.603784
0.937591 0.772457 0.618830
0.728389 0.722927 0.651575
0.728817 0.723293 0.652064
0.729397 0.723842 0.652827
0.730343 0.724605 0.653895
0.731746 0.725765 0.655451
0.733455 0.727230 0.657343
0.735775 0.729122 0.659876
0.738643 0.731594 0.663111
0.742123 0.734615 0.667048
0.746242 0.738247 0.671748
0.750790 0.742397 0.677058
0.755856 0.747097 0.682887
0.761227 0.752193 0.689235
0.766995 0.757626 0.696040
0.772366 0.762325 0.701839
0.770718 0.756680 0.692164
0.769039 0.750057 0.681147
0.767361 0.742519 0.668452
0.765774 0.733913 0.653437
0.764370 0.723964 0.635462
0.763455 0.712428 0.613703
0.758755 0.694484 0.588281
0.752834 0.671626 0.557397
0.750301 0.648524 0.525139
0.774411 0.659236 0.524437
0.804685 0.683284 0.541466
0.830350 0.704067 0.558251
0.853056 0.722347 0.574823
0.873594 0.738613 0.590967
0.892485 0.753079 0.606622
0.909850 0.766232 0.621973
0.925811 0.778317 0.636927
0.745052 0.741695 0.676295
0.745357 0.742000 0.676661
0.745815 0.742489 0.677272
0.746578 0.743221 0.678218
0.747707 0.744228 0.679438
0.749142 0.745571 0.681086
0.751034 0.747219 0.683162
0.753384 0.749416 0.685847
0.756283 0.752071 0.689235
0.759701 0.755306 0.693233
0.763638 0.758968 0.697871
0.767971 0.763058 0.703059
0.772732 0.767514 0.708766
0.777829 0.772335 0.714961
0.783169 0.777432 0.721523
0.785763 0.778378 0.721859
0.784176 0.773007 0.712551
0.782650 0.766781 0.701991
0.781125 0.759701 0.690028
0.779599 0.751522 0.676417
0.778164 0.742153 0.660517
0.776761 0.731228 0.641382
0.772183 0.714778 0.618616
0.767391 0.694667 0.590723
0.764157 0.671443 0.556207
0.782010 0.676234 0.551385
0.810330 0.699886 0.569543
0.835172 0.720546 0.587121
0.857481 0.738766 0.603998
0.877928 0.754849 0.620325
0.896757 0.769375 0.636164
0.914122 0.782467 0.651484
0.761746 0.761990 0.701778
0.762112 0.762417 0.702388
0.762509 0.762844 0.702846
0.763058 0.763302 0.703487
0.763760 0.763912 0.704219
0.764767 0.764767 0.705287
0.766079 0.765896 0.706722
0.767819 0.767422 0.708644
0.770016 0.769406 0.711177
0.772702 0.771847 0.714321
0.775814 0.774685 0.717952
0.779446 0.778012 0.722255
0.783413 0.781674 0.727016
0.787686 0.785641 0.732174
0.792325 0.789883 0.737667
0.797208 0.794369 0.743526
0.797086 0.791745 0.738643
0.795407 0.786465 0.729519
0.793851 0.780575 0.719326
0.792508 0.773922 0.707942
0.791196 0.766354 0.695064
0.789822 0.757565 0.680354
0.788144 0.747036 0.663081
0.783505 0.731594 0.642451
0.778561 0.712825 0.616907
0.776699 0.693660 0.588128
0.789731 0.693660 0.579217
0.816922 0.716945 0.597528
0.841154 0.737301 0.615015
0.863249 0.755184 0.631830
0.883604 0.771054 0.648066
0.902281 0.785214 0.663386
0.774380 0.777554 0.721614
0.774716 0.777951 0.722072
0.775113 0.778347 0.722621
0.775692 0.778836 0.723293
0.776394 0.779538 0.724178
0.777462 0.780453 0.725368
0.778805 0.781704 0.726955
0.780545 0.783322 0.729061
0.782742 0.785306 0.731624
0.785306 0.787655 0.734737
0.788205 0.790341 0.738216
0.791531 0.793332 0.742153
0.795102 0.796628 0.746456
0.798947 0.800168 0.751064
0.803098 0.803861 0.755886
0.807462 0.807797 0.761013
0.811460 0.811093 0.765133
0.809751 0.806607 0.757504
0.808133 0.801694 0.748989
0.806668 0.796170 0.739467
0.805264 0.789944 0.728664
0.803983 0.782834 0.716396
0.802701 0.774655 0.702327
0.800961 0.764767 0.686213
0.796536 0.750576 0.667994
0.791714 0.733577 0.645686
0.789548 0.716335 0.620478
0.798947 0.713039 0.609003
0.825589 0.736233 0.627619
0.849546 0.756283 0.645197
0.871489 0.773678 0.661616
0.891661 0.789151 0.677302
0.788022 0.794095 0.742916
0.788205 0.794278 0.743191
0.788479 0.794553 0.743526
0.788937 0.794919 0.744045
0.789517 0.795499 0.744778
0.790433 0.796262 0.745785
0.791623 0.797330 0.747158
0.793149 0.798672 0.748898
0.795010 0.800351 0.751095
0.797208 0.802365 0.753750
0.799802 0.804685 0.756771
0.802762 0.807340 0.760220
0.806027 0.810208 0.764004
0.809476 0.813352 0.768063
0.813230 0.816617 0.772335
0.817197 0.820066 0.776852
0.821408 0.823728 0.781613
0.823148 0.824216 0.781552
0.821530 0.820096 0.774533
0.820035 0.815518 0.766629
0.818631 0.810422 0.757839
0.817288 0.804623 0.747768
0.816007 0.797971 0.736202
0.814694 0.790311 0.722835
0.812924 0.781033 0.707515
0.808835 0.767971 0.690303
0.804257 0.752529 0.670466
0.801938 0.736904 0.648432
0.808225 0.730831 0.635065
0.834440 0.753597 0.653559
0.858274 0.773220 0.670802
0.880156 0.790555 0.687495
0.800534 0.808957 0.762020
0.800687 0.809110 0.762264
0.800961 0.809354 0.762570
0.801389 0.809751 0.763119
0.802060 0.810361 0.763912
0.803067 0.811246 0.765072
0.804440 0.812528 0.766751
0.806210 0.814145 0.768887
0.808316 0.816129 0.771450
0.810758 0.818418 0.774441
0.813565 0.820981 0.777798
0.816648 0.823758 0.781430
0.819944 0.826719 0.785306
0.823392 0.829740 0.789273
0.826993 0.832853 0.793332
0.830655 0.836027 0.797421
0.834501 0.839292 0.801663
0.838560 0.842741 0.806119
0.838285 0.840909 0.802731
0.836851 0.837278 0.796475
0.835447 0.833188 0.789456
0.834073 0.828550 0.781491
0.832731 0.823270 0.772305
0.831418 0.817258 0.761837
0.830228 0.810361 0.749691
0.828550 0.801968 0.735744
0.824918 0.790311 0.719936
0.821012 0.776669 0.701656
0.818906 0.762997 0.682490
0.822477 0.755093 0.668727
0.848417 0.777096 0.686854
0.871855 0.796353 0.704829
0.816220 0.826780 0.785000
0.816251 0.826810 0.785061
0.816403 0.826932 0.785183
0.816678 0.827207 0.785519
0.817197 0.827604 0.786038
0.817899 0.828183 0.786831
0.818906 0.829068 0.787930
0.820157 0.830167 0.789364
0.821775 0.831479 0.791165
0.823667 0.833158 0.793271
0.825864 0.835019 0.795712
0.828305 0.837156 0.798489
0.831052 0.839445 0.801511
0.833982 0.841917 0.804746
