20 Preset/Wedding Style/【3】LUT for PR-AE-FCPX/Film Wedding - LUT (2).cube
# Created by Adobe Lightroom plugin Export LUT (1.24.0)
# www.johnrellis.com/lightroom/exportlut.htm
# Preset: 02婚礼纪实_冰-素材江湖
# Color profile: C:\Program Files (x86)\Common Files\Adobe\Color\Profiles\Recommended\VideoHD.icc
LUT_3D_SIZE 5
DOMAIN_MIN 0.000000 0.000000 0.000000
DOMAIN_MAX 0.903226 0.903226 0.903226
0.119478 0.112123 0.116335
0.189609 0.115175 0.117189
0.450050 0.101198 0.106294
0.776272 0.166293 0.013519
0.975219 0.320470 0.000000
0.156161 0.153323 0.136385
0.199191 0.157565 0.127352
0.477058 0.223545 0.120485
0.789456 0.295201 0.073732
0.977966 0.399908 0.113405
0.309972 0.329992 0.233188
0.336584 0.331121 0.230411
0.499031 0.375708 0.193118
0.805722 0.535210 0.255222
0.962219 0.603601 0.342718
0.530175 0.575860 0.406439
0.545861 0.571405 0.409247
0.634821 0.611566 0.393805
0.767636 0.624750 0.359869
0.934997 0.724849 0.524376
0.740963 0.792020 0.686885
0.748348 0.791073 0.689082
0.773587 0.790372 0.678889
0.845365 0.818082 0.676814
0.925872 0.813626 0.658412
0.123507 0.121401 0.164706
0.195132 0.109712 0.178561
0.400275 0.078737 0.164920
0.721065 0.143801 0.178744
0.944915 0.302983 0.188052
0.142947 0.174380 0.179477
0.199893 0.192020 0.194003
0.433661 0.214450 0.198734
0.742641 0.274052 0.201938
0.948058 0.382971 0.220676
0.306737 0.361975 0.277806
0.337499 0.353399 0.280308
0.476356 0.383246 0.258579
0.778347 0.543297 0.343908
0.946349 0.604608 0.405737
0.529992 0.593530 0.444129
0.547112 0.589776 0.446967
0.626246 0.615534 0.441047
0.758022 0.633661 0.417731
0.924102 0.735988 0.575708
0.737148 0.795712 0.698085
0.744381 0.794339 0.699458
0.775875 0.797635 0.705989
0.844541 0.824125 0.701320
0.923583 0.821530 0.687648
0.119631 0.168795 0.351476
0.200504 0.164462 0.366155
0.453651 0.036530 0.407202
0.633112 0.093416 0.353338
0.898650 0.019532 0.329290
0.166171 0.238468 0.357702
0.228336 0.246311 0.376776
0.461128 0.199771 0.418921
0.655604 0.206516 0.368841
0.899870 0.285527 0.366918
0.220493 0.414435 0.415961
0.284062 0.427039 0.426032
0.480507 0.492287 0.483406
0.717861 0.522148 0.488533
0.905608 0.583124 0.523400
0.468360 0.654170 0.539025
0.515373 0.651606 0.556634
0.604425 0.639704 0.577966
0.728603 0.672206 0.584009
0.894713 0.772427 0.706050
0.715633 0.809659 0.734524
0.725277 0.808804 0.736324
0.758419 0.804593 0.742428
0.825132 0.826078 0.745693
0.905760 0.830442 0.741909
0.147829 0.277134 0.619593
0.238987 0.273503 0.627497
0.461433 0.239628 0.656519
0.737728 0.045838 0.687587
0.831479 0.237034 0.589807
0.172519 0.329290 0.618677
0.271641 0.342657 0.628046
0.462654 0.315953 0.654810
0.730037 0.235477 0.685725
0.826658 0.302007 0.592157
0.291478 0.484749 0.618891
0.338262 0.491432 0.621180
0.484047 0.521782 0.659419
0.706722 0.491310 0.695308
0.834897 0.486427 0.625849
0.421454 0.667842 0.687770
0.451484 0.670436 0.689723
0.555810 0.688472 0.706538
0.705440 0.736782 0.755093
0.866514 0.753719 0.759976
0.634546 0.840757 0.786435
0.648676 0.840818 0.787228
0.702968 0.842222 0.793545
0.794186 0.832578 0.815305
0.884092 0.852537 0.822751
0.428504 0.510002 0.850889
0.454170 0.505089 0.852323
0.554833 0.486427 0.860014
0.725704 0.435279 0.873991
0.926848 0.359228 0.884611
0.432044 0.535882 0.846860
0.469795 0.543511 0.848264
0.558282 0.525566 0.856046
0.719051 0.479408 0.870390
0.919036 0.411383 0.882261
0.456641 0.619348 0.838743
0.477089 0.619318 0.840452
0.578424 0.637171 0.848661
0.702907 0.606867 0.863432
0.896574 0.560601 0.880095
0.531304 0.731655 0.847807
0.544152 0.731502 0.847135
0.598840 0.734585 0.847196
0.704189 0.749081 0.863615
0.873625 0.729763 0.887327
0.623194 0.848417 0.879088
0.633722 0.848966 0.879332
0.678920 0.853300 0.882109
0.756527 0.862455 0.888121
0.868894 0.890715 0.909850
