20 Preset/Wedding Style/【3】LUT for PR-AE-FCPX/Film Wedding - LUT (4).cube
# Created by Adobe Lightroom plugin Export LUT (1.24.0)
# www.johnrellis.com/lightroom/exportlut.htm
# Preset: 04婚礼纪实_火-素材江湖
# Color profile: C:\Program Files (x86)\Common Files\Adobe\Color\Profiles\Recommended\VideoHD.icc
LUT_3D_SIZE 5
DOMAIN_MIN 0.000000 0.000000 0.000000
DOMAIN_MAX 0.903226 0.903226 0.903226
0.095277 0.100893 0.072602
0.172671 0.104982 0.079072
0.566430 0.000000 0.029786
0.887785 0.276799 0.058564
0.969909 0.478584 0.254612
0.131350 0.138582 0.113558
0.164828 0.150729 0.116701
0.624872 0.230411 0.000000
0.886595 0.378393 0.105928
0.966674 0.524926 0.288670
0.429023 0.465431 0.370001
0.487312 0.500267 0.397223
0.542016 0.466224 0.345800
0.850584 0.589960 0.306004
0.948547 0.652064 0.406836
0.728389 0.722927 0.651575
0.738643 0.731594 0.663111
0.772366 0.762325 0.701839
0.758755 0.694484 0.588281
0.873594 0.738613 0.590967
0.828672 0.840543 0.802426
0.832425 0.843687 0.806546
0.844205 0.852750 0.818326
0.857298 0.859190 0.823789
0.849119 0.822385 0.762142
0.100923 0.106569 0.114046
0.164767 0.100465 0.139071
0.484657 0.115023 0.178622
0.844541 0.280980 0.233982
0.949310 0.480415 0.327459
0.134951 0.154452 0.146609
0.181704 0.181369 0.182559
0.555627 0.232792 0.208347
0.853117 0.372503 0.251926
0.946990 0.521630 0.350286
0.399573 0.440772 0.365270
0.474220 0.479988 0.409094
0.538384 0.470497 0.379980
0.845914 0.595666 0.361700
0.936339 0.653254 0.455695
0.722744 0.715999 0.648035
0.735134 0.725582 0.662989
0.770138 0.758816 0.703700
0.757992 0.697810 0.604059
0.873350 0.744228 0.609400
0.826902 0.838376 0.801480
0.830686 0.841550 0.805539
0.846098 0.854520 0.822232
0.860288 0.862730 0.830411
0.851041 0.825864 0.769100
0.000000 0.176822 0.391760
0.164767 0.165957 0.412451
0.554192 0.000000 0.432685
0.826841 0.282841 0.428626
0.901610 0.498329 0.481392
0.279393 0.347753 0.431159
0.284245 0.314000 0.444678
0.575708 0.238102 0.456123
0.813107 0.367803 0.444312
0.900328 0.539422 0.502556
0.436866 0.501457 0.461250
0.481758 0.512261 0.475441
0.596124 0.543725 0.517571
0.799893 0.593927 0.532891
0.896788 0.657160 0.574548
0.683101 0.684321 0.612116
0.698909 0.693141 0.628656
0.751492 0.732570 0.690974
0.759091 0.712490 0.654414
0.879332 0.765347 0.667567
0.808286 0.823606 0.780911
0.814755 0.828183 0.788876
0.837827 0.845548 0.816342
0.865324 0.869017 0.845029
0.849393 0.827024 0.778225
0.401892 0.431159 0.687953
0.452369 0.416754 0.690944
0.629633 0.319982 0.693294
0.837980 0.341131 0.674647
0.896178 0.580804 0.654597
0.545800 0.554253 0.689387
0.547356 0.531060 0.691920
0.641444 0.441840 0.693385
0.824887 0.422889 0.675044
0.887358 0.601617 0.658625
0.703822 0.698756 0.698146
0.714687 0.702296 0.701472
0.701137 0.667506 0.700191
0.785641 0.603326 0.682856
0.865782 0.663233 0.675654
0.714900 0.729915 0.697444
0.720363 0.730648 0.699336
0.740871 0.735683 0.708858
0.766842 0.738277 0.717708
0.866728 0.758816 0.723171
0.768460 0.791562 0.737453
0.774838 0.796139 0.745266
0.801602 0.816068 0.777676
0.851347 0.854704 0.835569
0.850919 0.834928 0.801907
0.693141 0.684749 0.817533
0.698299 0.678920 0.817899
0.726741 0.651331 0.819577
0.808591 0.552972 0.817472
0.901274 0.609735 0.800259
0.712886 0.712398 0.816434
0.715999 0.707393 0.816861
0.735378 0.682368 0.817929
0.802365 0.597192 0.814908
0.894987 0.628565 0.799588
0.769497 0.783383 0.819608
0.770230 0.781003 0.820035
0.765072 0.758511 0.820951
0.792447 0.702541 0.815213
0.879820 0.687892 0.803830
0.799374 0.823148 0.824918
0.802884 0.824033 0.826139
0.818845 0.829923 0.833402
0.813382 0.809354 0.834073
0.867704 0.767605 0.821164
0.801633 0.841398 0.822995
0.804807 0.842527 0.824704
0.817472 0.846921 0.831449
0.838407 0.853696 0.842130
0.857694 0.853117 0.845884
