20 Preset/Wedding Style/【3】LUT for PR-AE-FCPX/Film Wedding - LUT (5).cube
# Created by Adobe Lightroom plugin Export LUT (1.24.0)
# www.johnrellis.com/lightroom/exportlut.htm
# Preset: 05婚礼纪实_火-素材江湖
# Color profile: C:\Program Files (x86)\Common Files\Adobe\Color\Profiles\Recommended\VideoHD.icc
LUT_3D_SIZE 5
DOMAIN_MIN 0.000000 0.000000 0.000000
DOMAIN_MAX 0.903226 0.903226 0.903226
0.118074 0.100099 0.085328
0.160250 0.097169 0.088319
0.452064 0.029084 0.049958
0.750607 0.150179 0.000000
0.874723 0.292912 0.160159
0.133761 0.124575 0.092409
0.149569 0.122530 0.100099
0.452766 0.175723 0.026032
0.744686 0.239414 0.000000
0.868345 0.351812 0.204959
0.263584 0.331518 0.144900
0.321935 0.328862 0.151797
0.362493 0.298619 0.214603
0.728969 0.440833 0.215183
0.835355 0.491493 0.322301
0.485481 0.573693 0.345006
0.512657 0.572778 0.349859
0.561608 0.542748 0.364446
0.552880 0.496986 0.384741
0.786221 0.619928 0.471290
0.656458 0.690669 0.540154
0.664424 0.690394 0.541863
0.688502 0.684932 0.541466
0.689174 0.654108 0.538933
0.689235 0.641749 0.551812
0.118929 0.106081 0.104982
0.157046 0.104799 0.109468
0.428870 0.010285 0.115999
0.721401 0.183200 0.143557
0.852110 0.334295 0.236881
0.131472 0.141421 0.117250
0.180240 0.149111 0.122255
0.441138 0.177676 0.131136
0.718074 0.262364 0.165621
0.845731 0.378698 0.263066
0.228702 0.353033 0.181979
0.319951 0.353063 0.200473
0.378882 0.320043 0.238560
0.706752 0.444129 0.262547
0.822354 0.508782 0.362524
0.486549 0.579797 0.373724
0.513542 0.579370 0.378485
0.573968 0.559716 0.390661
0.562493 0.510185 0.401953
0.784878 0.625971 0.486854
0.654902 0.691859 0.546685
0.662593 0.691341 0.547997
0.692866 0.690852 0.555291
0.696284 0.661891 0.550500
0.694636 0.647852 0.560510
0.000000 0.181308 0.263798
0.134035 0.165560 0.275669
0.429572 0.137545 0.301366
0.704219 0.244419 0.323583
0.813077 0.457252 0.406714
0.042237 0.244297 0.288212
0.195407 0.242283 0.292058
0.447883 0.233616 0.317815
0.696742 0.328832 0.340093
0.807523 0.485695 0.422553
0.214878 0.418097 0.344457
0.297520 0.423163 0.347875
0.493477 0.454261 0.371160
0.679011 0.498817 0.406165
0.791928 0.560082 0.467689
0.452461 0.597681 0.437507
0.481300 0.596094 0.438788
0.588067 0.598199 0.467231
0.602106 0.560479 0.466224
0.779416 0.642054 0.532280
0.624445 0.695796 0.551232
0.638788 0.695888 0.557336
0.682979 0.695094 0.573541
0.708614 0.678370 0.573388
0.698268 0.653590 0.570825
0.000000 0.331182 0.495613
0.150301 0.336400 0.500175
0.422156 0.351019 0.511162
0.657008 0.363867 0.520500
0.788296 0.477668 0.509667
0.126253 0.381964 0.500572
0.246799 0.386877 0.501213
0.442451 0.400916 0.510491
0.652491 0.406043 0.519280
0.781064 0.502922 0.515221
0.311070 0.496162 0.514061
0.363165 0.499763 0.513512
0.503441 0.518517 0.516716
0.647730 0.521233 0.526665
0.767300 0.581933 0.545281
0.462959 0.616144 0.545068
0.485878 0.616083 0.544610
0.566552 0.620325 0.547753
0.665705 0.632746 0.559991
0.771054 0.656367 0.585931
0.592126 0.706203 0.597131
0.603021 0.706111 0.597498
0.644373 0.706844 0.600397
0.718685 0.708156 0.617609
0.715816 0.674250 0.602045
0.368109 0.510002 0.636683
0.410712 0.518364 0.635950
0.531945 0.550591 0.635035
0.630762 0.556603 0.638544
0.753140 0.565118 0.640833
0.395727 0.528771 0.634852
0.433631 0.536431 0.634119
0.540917 0.563134 0.633539
0.634668 0.570092 0.636896
0.751247 0.575586 0.640162
0.442451 0.578302 0.636988
0.472602 0.582971 0.635828
0.566369 0.602319 0.633448
0.649012 0.612085 0.636927
0.750149 0.612268 0.643763
0.522271 0.649775 0.646601
0.535637 0.650111 0.645869
0.586450 0.653193 0.645167
0.667414 0.662562 0.647486
0.758083 0.664881 0.659174
0.593561 0.719570 0.670710
0.601617 0.719692 0.670771
0.634577 0.721492 0.672602
0.690822 0.724971 0.676326
0.776547 0.734920 0.688197
