20 Preset/Wedding Style/【3】LUT for PR-AE-FCPX/Film Wedding - LUT (6).cube
# Created by Adobe Lightroom plugin Export LUT (1.24.0)
# www.johnrellis.com/lightroom/exportlut.htm
# Preset: 06婚礼纪实_火-素材江湖
# Color profile: C:\Program Files (x86)\Common Files\Adobe\Color\Profiles\Recommended\VideoHD.icc
LUT_3D_SIZE 8
DOMAIN_MIN 0.000000 0.000000 0.000000
DOMAIN_MAX 0.903226 0.903226 0.903226
0.121920 0.098878 0.081178
0.124331 0.098512 0.081147
0.161044 0.100099 0.082033
0.262699 0.103975 0.083528
0.444678 0.108949 0.071199
0.618860 0.150149 0.087617
0.763546 0.252110 0.161257
0.834592 0.361181 0.255955
0.122560 0.101320 0.081209
0.126772 0.102052 0.084352
0.164034 0.107057 0.084871
0.260655 0.113802 0.085908
0.435279 0.126619 0.077699
0.607050 0.166079 0.092317
0.746944 0.252262 0.156161
0.826444 0.356115 0.248234
0.148318 0.130220 0.094423
0.156802 0.131014 0.095491
0.171969 0.133669 0.105715
0.314611 0.167453 0.096071
0.472816 0.198062 0.099031
0.637446 0.251255 0.132876
0.763729 0.331121 0.207492
0.828702 0.415381 0.293889
0.226535 0.229465 0.125216
0.239414 0.229557 0.126711
0.274327 0.226078 0.141207
0.308141 0.237675 0.173312
0.536187 0.330968 0.180148
0.675990 0.377203 0.216739
0.765866 0.424598 0.275395
0.820401 0.479316 0.344335
0.361883 0.378363 0.204227
0.372900 0.378607 0.206241
0.416236 0.384100 0.217472
0.443305 0.369970 0.247745
0.466896 0.377905 0.279118
0.644129 0.457679 0.298009
0.756161 0.501823 0.339147
0.808988 0.541100 0.398962
0.499153 0.505882 0.310124
0.511559 0.510918 0.316869
0.537957 0.512505 0.323949
0.569787 0.507225 0.338415
0.570855 0.483680 0.355932
0.588159 0.490425 0.378180
0.722530 0.560113 0.416754
0.804257 0.602289 0.464454
0.621027 0.598199 0.419989
0.625788 0.598932 0.422217
0.638911 0.598657 0.425849
0.663416 0.599390 0.434485
0.671260 0.585382 0.439887
0.662501 0.565393 0.446998
0.676814 0.572198 0.462776
0.768215 0.622980 0.500450
0.714046 0.659632 0.513207
0.715694 0.659632 0.513725
0.722896 0.660151 0.516411
0.736782 0.661646 0.522271
0.742031 0.653315 0.519158
0.743160 0.642512 0.522484
0.732113 0.627497 0.524620
0.745907 0.635340 0.535912
0.121859 0.099214 0.084657
0.128267 0.099306 0.086458
0.163058 0.103456 0.089326
0.261112 0.109071 0.094270
0.434730 0.117250 0.096834
0.603967 0.161471 0.114015
0.737942 0.247898 0.168307
0.819547 0.348272 0.249241
0.124758 0.105440 0.088319
0.133700 0.107424 0.089815
0.169436 0.112245 0.092988
0.269444 0.119600 0.096071
0.438087 0.134859 0.099763
0.604059 0.180301 0.119142
0.731014 0.255772 0.169772
0.813901 0.348821 0.246372
0.150301 0.137850 0.100008
0.162448 0.139193 0.102541
0.182834 0.142031 0.112245
0.315709 0.172519 0.108858
0.467048 0.202579 0.117281
0.621271 0.252079 0.148043
0.739620 0.318090 0.203922
0.815457 0.399847 0.282170
0.224796 0.231571 0.133150
0.238346 0.232517 0.134737
0.280095 0.233219 0.147250
0.308782 0.239567 0.176791
0.512474 0.315770 0.177676
0.645441 0.356847 0.208255
0.743771 0.403204 0.259220
0.808591 0.461372 0.327611
0.361791 0.380621 0.212131
0.371588 0.380194 0.213504
0.412299 0.382910 0.222660
0.439734 0.367681 0.247074
0.458412 0.370703 0.274296
0.632074 0.447822 0.291722
0.746334 0.492683 0.332067
0.802365 0.532464 0.390387
0.492164 0.500908 0.309453
0.499123 0.501640 0.311467
0.526207 0.503746 0.318914
0.562463 0.501701 0.334173
0.566583 0.480171 0.352941
0.585199 0.488258 0.376989
0.719142 0.557061 0.414099
0.801083 0.598352 0.460212
0.612482 0.593378 0.414557
0.614771 0.592523 0.414160
0.628168 0.592096 0.417517
0.654566 0.593591 0.427314
0.666987 0.582330 0.436042
0.659022 0.562310 0.443549
0.671687 0.567559 0.457801
0.763485 0.618067 0.494484
0.708583 0.656245 0.508873
0.711177 0.656916 0.510369
0.718349 0.657282 0.512902
0.732631 0.658869 0.518883
0.746334 0.657191 0.524773
0.745266 0.644465 0.525139
0.732509 0.627893 0.524987
0.745602 0.635126 0.535760
0.130312 0.111971 0.105928
0.137453 0.112734 0.108644
0.183871 0.115206 0.118563
0.306249 0.112886 0.132570
0.473793 0.141115 0.150637
0.632380 0.225162 0.192294
0.747555 0.316381 0.247379
0.816983 0.405005 0.314000
0.139528 0.123354 0.112123
0.147951 0.124575 0.114199
0.193973 0.127169 0.123903
0.312535 0.130953 0.135409
0.472847 0.165408 0.155764
0.627649 0.239567 0.195377
0.741146 0.319310 0.245823
0.812924 0.404730 0.311376
0.164523 0.167025 0.133059
0.176883 0.170291 0.135531
0.232639 0.182834 0.144015
0.350683 0.206607 0.159030
0.501488 0.246586 0.183505
0.640650 0.303258 0.221469
0.744289 0.367407 0.270237
0.810605 0.438727 0.333318
0.237644 0.273655 0.176181
0.254276 0.277409 0.179019
0.322026 0.287572 0.192691
0.367590 0.293706 0.221134
0.545098 0.357305 0.236179
0.658106 0.395544 0.270054
0.747372 0.440925 0.315923
0.805997 0.492409 0.371954
0.368109 0.411597 0.248142
0.382544 0.412573 0.252079
0.435126 0.415900 0.267674
0.483070 0.412604 0.287114
0.497505 0.409888 0.311070
0.652461 0.475807 0.331029
0.745754 0.512230 0.368780
0.799710 0.549187 0.419165
0.504173 0.516442 0.339483
0.512383 0.517296 0.342138
0.537774 0.518486 0.348363
0.580041 0.521843 0.360479
0.587396 0.500908 0.374670
0.601312 0.504753 0.395331
0.724147 0.567559 0.432319
0.800259 0.605890 0.475868
0.622492 0.601160 0.435218
0.624750 0.600488 0.434943
0.636316 0.599390 0.436835
0.659907 0.599756 0.444038
0.676905 0.592340 0.451820
0.671778 0.574487 0.458045
0.681880 0.578241 0.471290
0.770016 0.626520 0.507256
0.709834 0.658930 0.515862
0.710964 0.658595 0.515892
0.717983 0.658869 0.518090
0.733242 0.661158 0.524895
0.750210 0.661830 0.531640
0.750637 0.650019 0.532494
0.739193 0.633967 0.532128
0.750057 0.639521 0.541588
0.139773 0.149447 0.171267
0.151949 0.151003 0.177523
0.216617 0.153902 0.195285
0.346868 0.163485 0.219944
0.506188 0.192111 0.242863
0.643732 0.267765 0.268833
0.740414 0.365301 0.315435
0.803220 0.447120 0.370306
0.157961 0.171359 0.186893
0.171969 0.172488 0.190341
0.233097 0.176303 0.205814
0.359747 0.186465 0.228092
0.514763 0.218173 0.249790
0.645319 0.287083 0.274754
0.739193 0.375830 0.320165
0.801999 0.453132 0.373602
0.201877 0.229618 0.214664
0.218784 0.232731 0.217166
0.280461 0.243809 0.226902
0.389776 0.256291 0.248081
0.533959 0.296788 0.270359
0.655207 0.364782 0.306798
0.746609 0.431983 0.353155
0.803159 0.489570 0.399084
0.283360 0.335882 0.263310
0.297856 0.337926 0.264683
0.355138 0.348760 0.272709
0.446540 0.370520 0.288823
0.559014 0.400763 0.311345
0.659846 0.436774 0.340124
0.741512 0.478828 0.376806
0.797971 0.524285 0.421027
0.401831 0.455329 0.323491
0.412116 0.455695 0.324193
0.454871 0.461158 0.330205
0.529778 0.472450 0.350408
0.555352 0.467567 0.367620
0.679988 0.516045 0.390906
0.745266 0.541863 0.421851
0.796109 0.572320 0.458961
0.521416 0.545373 0.385779
0.532250 0.549096 0.390784
0.555047 0.550347 0.395239
0.604303 0.553002 0.411963
0.632105 0.545312 0.422553
0.635431 0.538750 0.433265
0.736233 0.588281 0.466133
0.799863 0.617395 0.499733
0.622583 0.612238 0.454841
0.626795 0.612665 0.456519
0.647700 0.612818 0.466346
0.672755 0.613672 0.475105
0.697963 0.613611 0.483192
0.694881 0.596490 0.484749
0.697902 0.594385 0.491798
0.779294 0.637659 0.524407
0.710597 0.666224 0.528099
0.713252 0.666163 0.529442
0.722042 0.666194 0.532982
0.735378 0.666987 0.537255
0.753323 0.668208 0.543420
0.759945 0.659968 0.545312
0.750362 0.644251 0.543847
0.757961 0.647272 0.551904
0.180575 0.233005 0.289860
0.201144 0.236271 0.294743
0.272068 0.244327 0.308476
0.390326 0.263371 0.332219
0.532647 0.290227 0.355901
0.652613 0.331273 0.365545
0.739651 0.404944 0.385901
0.795682 0.487251 0.428260
0.213718 0.256809 0.301183
0.231815 0.260380 0.305486
0.294804 0.268864 0.317723
0.402075 0.283940 0.338170
0.537224 0.307012 0.359777
0.653925 0.345647 0.368933
0.739223 0.415534 0.389776
0.794675 0.493660 0.431678
0.284001 0.321294 0.328069
0.298802 0.323888 0.330388
0.351568 0.332708 0.336645
0.433143 0.343938 0.351629
0.546960 0.358282 0.367895
0.651789 0.389288 0.375677
0.735164 0.449226 0.401038
0.789395 0.514611 0.442054
0.354833 0.399939 0.357122
0.366949 0.401709 0.358251
0.414466 0.411322 0.364416
0.487678 0.428199 0.375219
0.573663 0.439521 0.391394
0.663752 0.466377 0.403326
0.736080 0.508690 0.430396
0.788205 0.550317 0.464607
0.442512 0.487861 0.394720
0.451667 0.489387 0.396063
0.484962 0.494362 0.400305
0.540307 0.503624 0.408240
0.603540 0.515770 0.418799
0.675715 0.534417 0.435981
0.737667 0.558312 0.459571
0.789609 0.584344 0.486854
0.526024 0.557733 0.430732
0.531640 0.558434 0.431617
0.551751 0.559411 0.433661
0.591180 0.562982 0.438788
0.645472 0.569207 0.453925
0.662837 0.566400 0.466468
0.748562 0.605158 0.495491
0.797055 0.624079 0.518791
0.625452 0.620233 0.483040
0.627344 0.619776 0.482612
0.637873 0.619318 0.483284
0.663142 0.621363 0.490059
0.699489 0.623590 0.503929
0.714229 0.616205 0.508080
0.711940 0.608667 0.510460
0.787625 0.646479 0.538994
0.692897 0.667659 0.529992
0.694789 0.667689 0.530480
0.703273 0.667964 0.532891
0.724392 0.670741 0.542779
0.748959 0.671962 0.552728
0.768521 0.671626 0.559167
0.761593 0.655085 0.555993
0.763363 0.652949 0.560021
0.310399 0.355871 0.419654
0.326513 0.360143 0.422858
0.378149 0.369024 0.428168
0.460212 0.386145 0.440131
0.554864 0.401465 0.453071
0.659846 0.424384 0.464790
0.738613 0.462776 0.466957
0.790311 0.523186 0.485695
0.323003 0.362860 0.415015
0.334905 0.364752 0.416449
0.381842 0.373114 0.422187
0.458015 0.388006 0.433326
0.550988 0.403265 0.447883
0.655604 0.426276 0.461036
0.735195 0.463752 0.464698
0.788022 0.523430 0.484169
0.388006 0.416175 0.434363
0.397681 0.417548 0.434577
0.436072 0.424842 0.437720
0.492805 0.433051 0.443336
0.568811 0.443488 0.455390
0.662043 0.460761 0.467781
0.735195 0.491890 0.472114
0.786801 0.543389 0.493050
0.452949 0.476417 0.453071
0.460456 0.477150 0.453040
0.493202 0.483864 0.455787
0.548638 0.498360 0.464027
0.607141 0.509087 0.475441
0.678462 0.518090 0.484962
0.739132 0.539818 0.489998
0.789120 0.576349 0.511009
0.508721 0.530419 0.468330
0.514702 0.531212 0.468879
0.539086 0.535302 0.471168
0.581750 0.543420 0.476326
0.631800 0.553582 0.482673
0.684413 0.559350 0.492256
0.739315 0.576196 0.501732
0.789761 0.601404 0.522332
0.572534 0.583520 0.490364
0.578790 0.585138 0.492042
0.594965 0.586633 0.493385
0.623560 0.589746 0.496468
0.659510 0.594446 0.501122
0.701717 0.603540 0.510613
0.751003 0.617975 0.526207
0.798825 0.633814 0.543755
0.644343 0.633997 0.524163
0.647608 0.634668 0.525048
0.656855 0.635248 0.526238
0.674128 0.636683 0.528466
0.699580 0.638697 0.531640
0.733516 0.641566 0.540368
0.736690 0.632471 0.540581
0.808835 0.665431 0.567864
0.696376 0.676600 0.557397
0.697200 0.676265 0.556970
0.702846 0.676143 0.556878
0.715541 0.677119 0.558465
0.735775 0.678645 0.562127
0.768276 0.681117 0.574731
0.779568 0.673274 0.576806
0.775113 0.664607 0.575891
0.439307 0.457710 0.505211
0.449195 0.460700 0.506462
0.481483 0.468299 0.508843
0.536706 0.483589 0.514092
0.595483 0.495521 0.520439
0.661921 0.507469 0.528191
0.731167 0.525719 0.533867
0.779995 0.551293 0.533288
0.445991 0.462501 0.503319
0.455604 0.465522 0.504906
0.485908 0.472511 0.507225
0.537072 0.485512 0.511742
0.594446 0.496803 0.517998
0.659266 0.507164 0.525383
0.728054 0.523827 0.530724
0.777005 0.548638 0.529870
0.485481 0.493233 0.510399
0.492256 0.494820 0.510674
0.517632 0.500237 0.511711
0.560510 0.510307 0.515435
0.610376 0.520012 0.520714
0.667292 0.528405 0.528008
0.731106 0.543572 0.534722
0.779263 0.565606 0.536736
0.533928 0.533928 0.520409
0.537896 0.534081 0.519982
0.558221 0.537865 0.520348
0.595911 0.546777 0.522667
0.638788 0.556756 0.527672
0.683284 0.562768 0.534905
0.736934 0.572290 0.541924
0.782284 0.587549 0.545434
0.575555 0.571008 0.528405
0.578332 0.570947 0.528008
0.593133 0.572839 0.528191
0.621485 0.577813 0.529961
0.659480 0.586053 0.533196
0.695674 0.591699 0.540063
0.740963 0.596857 0.547265
0.787228 0.610224 0.554803
0.622095 0.608942 0.540734
0.624842 0.609400 0.541100
0.635859 0.610864 0.541924
0.655482 0.613581 0.543908
0.682185 0.617548 0.546868
0.715663 0.624201 0.552453
0.752773 0.628412 0.560845
0.797665 0.640101 0.570520
0.665736 0.644953 0.559014
0.667933 0.645441 0.559533
0.675196 0.646174 0.560357
0.689204 0.647883 0.562219
0.708980 0.650324 0.564874
0.734554 0.654078 0.569146
0.765835 0.660029 0.575921
0.811521 0.672877 0.590967
0.706050 0.685420 0.588525
0.707454 0.685695 0.588800
0.713741 0.687068 0.590509
0.724147 0.688502 0.592279
0.739498 0.690486 0.594507
0.761685 0.693019 0.597040
0.795529 0.696559 0.606073
0.795773 0.684474 0.602594
0.583307 0.558312 0.571405
0.588190 0.559930 0.571832
0.603876 0.563958 0.572168
0.633906 0.573205 0.574334
0.667720 0.582361 0.577752
0.701686 0.587732 0.582391
0.742855 0.593927 0.588861
0.787747 0.603540 0.593561
0.584955 0.559808 0.570275
0.589776 0.561395 0.570794
0.605798 0.565759 0.571527
0.634516 0.574273 0.573480
0.668025 0.583368 0.576898
0.701472 0.588525 0.581598
0.741909 0.594171 0.587762
0.786557 0.603326 0.592401
0.599390 0.571923 0.571710
0.603662 0.573083 0.571862
0.618067 0.576776 0.572198
0.645136 0.585107 0.575158
0.676020 0.593133 0.578180
0.705837 0.596704 0.582422
0.744076 0.601526 0.588769
0.787594 0.609583 0.593866
0.618280 0.590021 0.575372
0.621942 0.591150 0.575677
0.635157 0.594232 0.576013
0.658808 0.600488 0.577722
0.686458 0.607477 0.581231
0.714839 0.611902 0.586023
0.749477 0.615534 0.592584
0.791043 0.622004 0.598230
0.638178 0.611658 0.581140
0.640742 0.612207 0.581445
0.648585 0.612909 0.581445
0.668452 0.616968 0.582666
0.695644 0.623072 0.584894
0.723537 0.628595 0.590082
0.755032 0.631678 0.597131
0.796078 0.637507 0.604547
0.665980 0.638697 0.590753
0.666987 0.638514 0.590509
0.672389 0.638453 0.590265
0.684321 0.639368 0.590875
0.703243 0.641566 0.592798
0.734340 0.648707 0.598169
0.765957 0.654658 0.607568
0.805142 0.658778 0.615503
0.696407 0.668910 0.606378
0.697505 0.668971 0.606439
0.702144 0.669245 0.606744
0.712215 0.670314 0.607935
0.727840 0.672206 0.610193
0.749111 0.674983 0.613581
0.777615 0.679133 0.618372
0.814328 0.682490 0.627131
0.724910 0.699825 0.625696
0.725734 0.699855 0.625696
0.729763 0.700313 0.626276
0.738369 0.701747 0.627985
0.751644 0.703822 0.630518
0.770291 0.706752 0.634150
0.795926 0.711391 0.639826
0.831693 0.718746 0.648981
