20 Preset/Wedding Style/【3】LUT for PR-AE-FCPX/Film Wedding - LUT (7).cube
# Created by Adobe Lightroom plugin Export LUT (1.24.0)
# www.johnrellis.com/lightroom/exportlut.htm
# Preset: 07婚礼纪实_黑白-素材江湖
# Color profile: C:\Program Files (x86)\Common Files\Adobe\Color\Profiles\Recommended\VideoHD.icc
LUT_3D_SIZE 32
DOMAIN_MIN 0.0 0.0 0.0
DOMAIN_MAX 1.0 1.0 1.0
0.212009 0.212009 0.212009
0.212467 0.212467 0.212467
0.214328 0.214328 0.214328
0.218570 0.218570 0.218570
0.225559 0.225559 0.225559
0.233646 0.233646 0.233646
0.241825 0.241825 0.241825
0.250065 0.250065 0.250065
0.258610 0.258610 0.258610
0.267765 0.267765 0.267765
0.277653 0.277653 0.277653
0.288365 0.288365 0.288365
0.299809 0.299809 0.299809
0.312016 0.312016 0.312016
0.325078 0.325078 0.325078
0.338933 0.338933 0.338933
0.353643 0.353643 0.353643
0.369146 0.369146 0.369146
0.385595 0.385595 0.385595
0.403021 0.403021 0.403021
0.420539 0.420539 0.420539
0.438239 0.438239 0.438239
0.456031 0.456031 0.456031
0.474525 0.474525 0.474525
0.493843 0.493843 0.493843
0.513878 0.513878 0.513878
0.534813 0.534813 0.534813
0.556725 0.556725 0.556725
0.579309 0.579309 0.579309
0.602106 0.602106 0.602106
0.625055 0.625055 0.625055
0.648096 0.648096 0.648096
0.213138 0.213138 0.213138
0.213352 0.213352 0.213352
0.215549 0.215549 0.215549
0.219638 0.219638 0.219638
0.226474 0.226474 0.226474
0.234531 0.234531 0.234531
0.242374 0.242374 0.242374
0.250523 0.250523 0.250523
0.259037 0.259037 0.259037
0.268162 0.268162 0.268162
0.278019 0.278019 0.278019
0.288579 0.288579 0.288579
0.299931 0.299931 0.299931
0.312200 0.312200 0.312200
0.325200 0.325200 0.325200
0.339055 0.339055 0.339055
0.353765 0.353765 0.353765
0.369085 0.369085 0.369085
0.385565 0.385565 0.385565
0.402686 0.402686 0.402686
0.420081 0.420081 0.420081
0.437629 0.437629 0.437629
0.455329 0.455329 0.455329
0.473732 0.473732 0.473732
0.492958 0.492958 0.492958
0.512871 0.512871 0.512871
0.533745 0.533745 0.533745
0.555718 0.555718 0.555718
0.578302 0.578302 0.578302
0.601099 0.601099 0.601099
0.624079 0.624079 0.624079
0.647181 0.647181 0.647181
0.217716 0.217716 0.217716
0.218143 0.218143 0.218143
0.219638 0.219638 0.219638
0.224338 0.224338 0.224338
0.230716 0.230716 0.230716
0.238071 0.238071 0.238071
0.245487 0.245487 0.245487
0.253147 0.253147 0.253147
0.261570 0.261570 0.261570
0.270329 0.270329 0.270329
0.279942 0.279942 0.279942
0.290379 0.290379 0.290379
0.301640 0.301640 0.301640
0.313756 0.313756 0.313756
0.326726 0.326726 0.326726
0.340429 0.340429 0.340429
0.355108 0.355108 0.355108
0.370306 0.370306 0.370306
0.386633 0.386633 0.386633
0.403662 0.403662 0.403662
0.420966 0.420966 0.420966
0.438361 0.438361 0.438361
0.456001 0.456001 0.456001
0.474311 0.474311 0.474311
0.493324 0.493324 0.493324
0.513176 0.513176 0.513176
0.534081 0.534081 0.534081
0.555901 0.555901 0.555901
0.578424 0.578424 0.578424
0.601251 0.601251 0.601251
0.624140 0.624140 0.624140
0.647181 0.647181 0.647181
0.227298 0.227298 0.227298
0.227604 0.227604 0.227604
0.229007 0.229007 0.229007
0.231876 0.231876 0.231876
0.238651 0.238651 0.238651
0.244846 0.244846 0.244846
0.251560 0.251560 0.251560
0.258610 0.258610 0.258610
0.266392 0.266392 0.266392
0.274876 0.274876 0.274876
0.284184 0.284184 0.284184
0.294316 0.294316 0.294316
0.305303 0.305303 0.305303
0.317266 0.317266 0.317266
0.329931 0.329931 0.329931
0.343633 0.343633 0.343633
0.357977 0.357977 0.357977
0.373053 0.373053 0.373053
0.389197 0.389197 0.389197
0.405768 0.405768 0.405768
0.422675 0.422675 0.422675
0.439887 0.439887 0.439887
0.457313 0.457313 0.457313
0.475471 0.475471 0.475471
0.494545 0.494545 0.494545
0.514488 0.514488 0.514488
0.535393 0.535393 0.535393
0.557305 0.557305 0.557305
0.579767 0.579767 0.579767
0.602472 0.602472 0.602472
0.625208 0.625208 0.625208
0.648035 0.648035 0.648035
0.240146 0.240146 0.240146
0.240421 0.240421 0.240421
0.241550 0.241550 0.241550
0.243839 0.243839 0.243839
0.247471 0.247471 0.247471
0.255039 0.255039 0.255039
0.260655 0.260655 0.260655
0.266880 0.266880 0.266880
0.273960 0.273960 0.273960
0.281895 0.281895 0.281895
0.290593 0.290593 0.290593
0.300359 0.300359 0.300359
0.310979 0.310979 0.310979
0.322667 0.322667 0.322667
0.335210 0.335210 0.335210
0.348577 0.348577 0.348577
0.362737 0.362737 0.362737
0.377630 0.377630 0.377630
0.393500 0.393500 0.393500
0.409796 0.409796 0.409796
0.426429 0.426429 0.426429
0.443275 0.443275 0.443275
0.460487 0.460487 0.460487
0.478553 0.478553 0.478553
0.497444 0.497444 0.497444
0.517296 0.517296 0.517296
0.538048 0.538048 0.538048
0.559777 0.559777 0.559777
0.582025 0.582025 0.582025
0.604486 0.604486 0.604486
0.627008 0.627008 0.627008
0.649592 0.649592 0.649592
0.253574 0.253574 0.253574
0.253819 0.253819 0.253819
0.254704 0.254704 0.254704
0.256504 0.256504 0.256504
0.259709 0.259709 0.259709
0.264042 0.264042 0.264042
0.272709 0.272709 0.272709
0.278019 0.278019 0.278019
0.284276 0.284276 0.284276
0.291539 0.291539 0.291539
0.299718 0.299718 0.299718
0.308934 0.308934 0.308934
0.319249 0.319249 0.319249
0.330602 0.330602 0.330602
0.342718 0.342718 0.342718
0.355810 0.355810 0.355810
0.369635 0.369635 0.369635
0.384436 0.384436 0.384436
0.399908 0.399908 0.399908
0.415839 0.415839 0.415839
0.432166 0.432166 0.432166
0.448798 0.448798 0.448798
0.470985 0.470985 0.470985
0.489021 0.489021 0.489021
0.507805 0.507805 0.507805
0.527489 0.527489 0.527489
0.548058 0.548058 0.548058
0.569421 0.569421 0.569421
0.591119 0.591119 0.591119
0.612940 0.612940 0.612940
0.634852 0.634852 0.634852
0.656825 0.656825 0.656825
0.268406 0.268406 0.268406
0.268589 0.268589 0.268589
0.269291 0.269291 0.269291
0.270817 0.270817 0.270817
0.273472 0.273472 0.273472
0.277195 0.277195 0.277195
0.282048 0.282048 0.282048
0.292546 0.292546 0.292546
0.297948 0.297948 0.297948
0.304479 0.304479 0.304479
0.312139 0.312139 0.312139
0.320989 0.320989 0.320989
0.330877 0.330877 0.330877
0.341650 0.341650 0.341650
0.353491 0.353491 0.353491
0.366094 0.366094 0.366094
0.379614 0.379614 0.379614
0.394354 0.394354 0.394354
0.409552 0.409552 0.409552
0.425360 0.425360 0.425360
0.441535 0.441535 0.441535
0.458228 0.458228 0.458228
0.475441 0.475441 0.475441
0.493568 0.493568 0.493568
0.512383 0.512383 0.512383
0.532036 0.532036 0.532036
0.552361 0.552361 0.552361
0.573388 0.573388 0.573388
0.594690 0.594690 0.594690
0.616083 0.616083 0.616083
0.637629 0.637629 0.637629
0.659266 0.659266 0.659266
0.283757 0.283757 0.283757
0.283909 0.283909 0.283909
0.284489 0.284489 0.284489
0.285740 0.285740 0.285740
0.287877 0.287877 0.287877
0.291264 0.291264 0.291264
0.295506 0.295506 0.295506
0.300816 0.300816 0.300816
0.312993 0.312993 0.312993
0.318853 0.318853 0.318853
0.325933 0.325933 0.325933
0.334203 0.334203 0.334203
0.343572 0.343572 0.343572
0.353857 0.353857 0.353857
0.365209 0.365209 0.365209
0.377264 0.377264 0.377264
0.390631 0.390631 0.390631
0.404608 0.404608 0.404608
0.419165 0.419165 0.419165
0.434302 0.434302 0.434302
0.449928 0.449928 0.449928
0.466011 0.466011 0.466011
0.482734 0.482734 0.482734
0.500420 0.500420 0.500420
0.518975 0.518975 0.518975
0.538231 0.538231 0.538231
0.558282 0.558282 0.558282
0.578851 0.578851 0.578851
0.599634 0.599634 0.599634
0.620630 0.620630 0.620630
0.641749 0.641749 0.641749
0.662959 0.662959 0.662959
0.300420 0.300420 0.300420
0.300633 0.300633 0.300633
0.301091 0.301091 0.301091
0.302251 0.302251 0.302251
0.304021 0.304021 0.304021
0.306889 0.306889 0.306889
0.310704 0.310704 0.310704
0.315435 0.315435 0.315435
0.321111 0.321111 0.321111
0.335149 0.335149 0.335149
0.341772 0.341772 0.341772
0.349584 0.349584 0.349584
0.358404 0.358404 0.358404
0.368170 0.368170 0.368170
0.378973 0.378973 0.378973
0.390875 0.390875 0.390875
0.403571 0.403571 0.403571
0.416876 0.416876 0.416876
0.430762 0.430762 0.430762
0.445228 0.445228 0.445228
0.460212 0.460212 0.460212
0.475715 0.475715 0.475715
0.491951 0.491951 0.491951
0.509148 0.509148 0.509148
0.527276 0.527276 0.527276
0.546166 0.546166 0.546166
0.565759 0.565759 0.565759
0.585779 0.585779 0.585779
0.606012 0.606012 0.606012
0.626398 0.626398 0.626398
0.647059 0.647059 0.647059
0.667720 0.667720 0.667720
0.318669 0.318669 0.318669
0.318791 0.318791 0.318791
0.319188 0.319188 0.319188
0.320165 0.320165 0.320165
0.321813 0.321813 0.321813
0.324102 0.324102 0.324102
0.327581 0.327581 0.327581
0.331914 0.331914 0.331914
0.337041 0.337041 0.337041
0.343145 0.343145 0.343145
0.358404 0.358404 0.358404
0.366552 0.366552 0.366552
0.374914 0.374914 0.374914
0.384253 0.384253 0.384253
0.394812 0.394812 0.394812
0.406134 0.406134 0.406134
0.418128 0.418128 0.418128
0.430793 0.430793 0.430793
0.444099 0.444099 0.444099
0.457954 0.457954 0.457954
0.472267 0.472267 0.472267
0.487007 0.487007 0.487007
0.502525 0.502525 0.502525
0.519097 0.519097 0.519097
0.536492 0.536492 0.536492
0.554833 0.554833 0.554833
0.573846 0.573846 0.573846
0.593256 0.593256 0.593256
0.612940 0.612940 0.612940
0.632837 0.632837 0.632837
0.652979 0.652979 0.652979
0.673213 0.673213 0.673213
0.338140 0.338140 0.338140
0.338262 0.338262 0.338262
0.338720 0.338720 0.338720
0.339635 0.339635 0.339635
0.341070 0.341070 0.341070
0.343145 0.343145 0.343145
0.346288 0.346288 0.346288
0.350256 0.350256 0.350256
0.355108 0.355108 0.355108
0.360784 0.360784 0.360784
0.367285 0.367285 0.367285
0.382757 0.382757 0.382757
0.393561 0.393561 0.393561
0.402472 0.402472 0.402472
0.412360 0.412360 0.412360
0.423011 0.423011 0.423011
0.434302 0.434302 0.434302
0.446326 0.446326 0.446326
0.458900 0.458900 0.458900
0.472023 0.472023 0.472023
0.485512 0.485512 0.485512
0.499580 0.499580 0.499580
0.514702 0.514702 0.514702
0.530632 0.530632 0.530632
0.547539 0.547539 0.547539
0.565393 0.565393 0.565393
0.583703 0.583703 0.583703
0.602380 0.602380 0.602380
0.621393 0.621393 0.621393
0.640650 0.640650 0.640650
0.660212 0.660212 0.660212
0.679713 0.679713 0.679713
0.359472 0.359472 0.359472
0.359564 0.359564 0.359564
0.359899 0.359899 0.359899
0.360784 0.360784 0.360784
0.362158 0.362158 0.362158
0.364050 0.364050 0.364050
0.366827 0.366827 0.366827
0.370520 0.370520 0.370520
0.375067 0.375067 0.375067
0.380346 0.380346 0.380346
0.386572 0.386572 0.386572
0.393744 0.393744 0.393744
0.412024 0.412024 0.412024
0.425666 0.425666 0.425666
0.435035 0.435035 0.435035
0.445167 0.445167 0.445167
0.455879 0.455879 0.455879
0.467353 0.467353 0.467353
0.479225 0.479225 0.479225
0.491646 0.491646 0.491646
0.504540 0.504540 0.504540
0.517937 0.517937 0.517937
0.532341 0.532341 0.532341
0.547723 0.547723 0.547723
0.563958 0.563958 0.563958
0.580804 0.580804 0.580804
0.597986 0.597986 0.597986
0.615534 0.615534 0.615534
0.633478 0.633478 0.633478
0.651728 0.651728 0.651728
0.670222 0.670222 0.670222
0.688746 0.688746 0.688746
0.383276 0.383276 0.383276
0.383337 0.383337 0.383337
0.383612 0.383612 0.383612
0.384405 0.384405 0.384405
0.385504 0.385504 0.385504
0.387182 0.387182 0.387182
0.389532 0.389532 0.389532
0.393072 0.393072 0.393072
0.397559 0.397559 0.397559
0.402686 0.402686 0.402686
0.408820 0.408820 0.408820
0.415747 0.415747 0.415747
0.423438 0.423438 0.423438
0.438483 0.438483 0.438483
0.454719 0.454719 0.454719
0.464271 0.464271 0.464271
0.474311 0.474311 0.474311
0.484871 0.484871 0.484871
0.495979 0.495979 0.495979
0.507561 0.507561 0.507561
0.519585 0.519585 0.519585
0.532464 0.532464 0.532464
0.546227 0.546227 0.546227
0.561028 0.561028 0.561028
0.576532 0.576532 0.576532
0.592554 0.592554 0.592554
0.609033 0.609033 0.609033
0.625849 0.625849 0.625849
0.643122 0.643122 0.643122
0.660761 0.660761 0.660761
0.678462 0.678462 0.678462
0.696254 0.696254 0.696254
0.407385 0.407385 0.407385
0.407385 0.407385 0.407385
0.407782 0.407782 0.407782
0.408423 0.408423 0.408423
0.409522 0.409522 0.409522
0.411170 0.411170 0.411170
0.413367 0.413367 0.413367
0.416236 0.416236 0.416236
0.420233 0.420233 0.420233
0.424994 0.424994 0.424994
0.430640 0.430640 0.430640
0.436927 0.436927 0.436927
0.444068 0.444068 0.444068
0.451850 0.451850 0.451850
0.465827 0.465827 0.465827
0.484352 0.484352 0.484352
0.493660 0.493660 0.493660
0.503441 0.503441 0.503441
0.513878 0.513878 0.513878
0.524620 0.524620 0.524620
0.535943 0.535943 0.535943
0.548180 0.548180 0.548180
0.561486 0.561486 0.561486
0.575555 0.575555 0.575555
0.590234 0.590234 0.590234
0.605432 0.605432 0.605432
0.621118 0.621118 0.621118
0.637171 0.637171 0.637171
0.653651 0.653651 0.653651
0.670466 0.670466 0.670466
0.687373 0.687373 0.687373
0.704463 0.704463 0.704463
0.432532 0.432532 0.432532
0.432654 0.432654 0.432654
0.432929 0.432929 0.432929
0.433478 0.433478 0.433478
0.434424 0.434424 0.434424
0.435767 0.435767 0.435767
0.437720 0.437720 0.437720
0.440162 0.440162 0.440162
0.443671 0.443671 0.443671
0.448096 0.448096 0.448096
0.453193 0.453193 0.453193
0.459113 0.459113 0.459113
0.465644 0.465644 0.465644
0.472877 0.472877 0.472877
0.480568 0.480568 0.480568
0.493355 0.493355 0.493355
0.513939 0.513939 0.513939
0.523095 0.523095 0.523095
0.532616 0.532616 0.532616
0.542687 0.542687 0.542687
0.553368 0.553368 0.553368
0.565087 0.565087 0.565087
0.577539 0.577539 0.577539
0.590723 0.590723 0.590723
0.604547 0.604547 0.604547
0.618921 0.618921 0.618921
0.633783 0.633783 0.633783
0.649165 0.649165 0.649165
0.664942 0.664942 0.664942
0.680964 0.680964 0.680964
0.697200 0.697200 0.697200
0.713497 0.713497 0.713497
0.457862 0.457862 0.457862
0.457954 0.457954 0.457954
0.458259 0.458259 0.458259
0.458808 0.458808 0.458808
0.459724 0.459724 0.459724
0.461036 0.461036 0.461036
0.462898 0.462898 0.462898
0.465187 0.465187 0.465187
0.468299 0.468299 0.468299
0.472358 0.472358 0.472358
0.476967 0.476967 0.476967
0.482246 0.482246 0.482246
0.488075 0.488075 0.488075
0.494606 0.494606 0.494606
0.501488 0.501488 0.501488
0.508934 0.508934 0.508934
0.520623 0.520623 0.520623
0.542992 0.542992 0.542992
0.551904 0.551904 0.551904
0.561273 0.561273 0.561273
0.571374 0.571374 0.571374
0.582300 0.582300 0.582300
0.594079 0.594079 0.594079
0.606470 0.606470 0.606470
0.619501 0.619501 0.619501
0.633112 0.633112 0.633112
0.647211 0.647211 0.647211
0.661799 0.661799 0.661799
0.676722 0.676722 0.676722
0.691829 0.691829 0.691829
0.707149 0.707149 0.707149
0.722560 0.722560 0.722560
0.483406 0.483406 0.483406
0.483436 0.483436 0.483436
0.483680 0.483680 0.483680
0.484260 0.484260 0.484260
0.485054 0.485054 0.485054
0.486305 0.486305 0.486305
0.487953 0.487953 0.487953
0.490120 0.490120 0.490120
0.492744 0.492744 0.492744
0.496284 0.496284 0.496284
0.500572 0.500572 0.500572
0.505455 0.505455 0.505455
0.510796 0.510796 0.510796
0.516655 0.516655 0.516655
0.523095 0.523095 0.523095
0.529931 0.529931 0.529931
0.537224 0.537224 0.537224
0.547631 0.547631 0.547631
0.571740 0.571740 0.571740
0.580224 0.580224 0.580224
0.589654 0.589654 0.589654
0.599817 0.599817 0.599817
0.610834 0.610834 0.610834
0.622461 0.622461 0.622461
0.634730 0.634730 0.634730
0.647547 0.647547 0.647547
0.660914 0.660914 0.660914
0.674647 0.674647 0.674647
0.688655 0.688655 0.688655
0.702968 0.702968 0.702968
0.717433 0.717433 0.717433
0.732021 0.732021 0.732021
0.509239 0.509239 0.509239
0.509300 0.509300 0.509300
0.512444 0.512444 0.512444
0.512932 0.512932 0.512932
0.513695 0.513695 0.513695
0.514824 0.514824 0.514824
0.516289 0.516289 0.516289
0.518181 0.518181 0.518181
0.520592 0.520592 0.520592
0.523552 0.523552 0.523552
0.527398 0.527398 0.527398
0.531823 0.531823 0.531823
0.536706 0.536706 0.536706
0.541985 0.541985 0.541985
0.547692 0.547692 0.547692
0.553857 0.553857 0.553857
0.560327 0.560327 0.560327
0.567254 0.567254 0.567254
0.576135 0.576135 0.576135
0.600763 0.600763 0.600763
0.609339 0.609339 0.609339
0.618708 0.618708 0.618708
0.628809 0.628809 0.628809
0.639551 0.639551 0.639551
0.650843 0.650843 0.650843
0.662745 0.662745 0.662745
0.675044 0.675044 0.675044
0.687770 0.687770 0.687770
0.700832 0.700832 0.700832
0.714199 0.714199 0.714199
0.727810 0.727810 0.727810
0.741543 0.741543 0.741543
0.536004 0.536004 0.536004
0.536339 0.536339 0.536339
0.536889 0.536889 0.536889
0.537530 0.537530 0.537530
0.538445 0.538445 0.538445
0.539544 0.539544 0.539544
0.540978 0.540978 0.540978
0.542687 0.542687 0.542687
0.544823 0.544823 0.544823
0.547417 0.547417 0.547417
0.550896 0.550896 0.550896
0.554955 0.554955 0.554955
0.559380 0.559380 0.559380
0.564324 0.564324 0.564324
0.569604 0.569604 0.569604
0.575250 0.575250 0.575250
0.581262 0.581262 0.581262
0.587579 0.587579 0.587579
0.594263 0.594263 0.594263
0.601831 0.601831 0.601831
0.625299 0.625299 0.625299
0.635798 0.635798 0.635798
0.645228 0.645228 0.645228
0.655268 0.655268 0.655268
0.665858 0.665858 0.665858
0.676967 0.676967 0.676967
0.688411 0.688411 0.688411
0.700252 0.700252 0.700252
0.712490 0.712490 0.712490
0.725063 0.725063 0.725063
0.737881 0.737881 0.737881
0.750851 0.750851 0.750851
0.562158 0.562158 0.562158
0.562463 0.562463 0.562463
0.562982 0.562982 0.562982
0.563653 0.563653 0.563653
0.564508 0.564508 0.564508
0.565606 0.565606 0.565606
0.566857 0.566857 0.566857
0.568444 0.568444 0.568444
0.570367 0.570367 0.570367
0.572717 0.572717 0.572717
0.575555 0.575555 0.575555
0.579217 0.579217 0.579217
0.583215 0.583215 0.583215
0.587671 0.587671 0.587671
0.592340 0.592340 0.592340
0.597528 0.597528 0.597528
0.602899 0.602899 0.602899
0.608637 0.608637 0.608637
0.614710 0.614710 0.614710
0.621088 0.621088 0.621088
0.627710 0.627710 0.627710
0.649531 0.649531 0.649531
0.661494 0.661494 0.661494
0.670863 0.670863 0.670863
0.680690 0.680690 0.680690
0.690944 0.690944 0.690944
0.701625 0.701625 0.701625
0.712673 0.712673 0.712673
0.724117 0.724117 0.724117
0.735866 0.735866 0.735866
0.747921 0.747921 0.747921
0.760098 0.760098 0.760098
0.588647 0.588647 0.588647
0.588922 0.588922 0.588922
0.589380 0.589380 0.589380
0.589990 0.589990 0.589990
0.590814 0.590814 0.590814
0.591699 0.591699 0.591699
0.592859 0.592859 0.592859
0.594263 0.594263 0.594263
0.596002 0.596002 0.596002
0.598077 0.598077 0.598077
0.600488 0.600488 0.600488
0.603601 0.603601 0.603601
0.607202 0.607202 0.607202
0.611109 0.611109 0.611109
0.615442 0.615442 0.615442
0.620081 0.620081 0.620081
0.625025 0.625025 0.625025
0.630304 0.630304 0.630304
0.635950 0.635950 0.635950
0.641901 0.641901 0.641901
0.648157 0.648157 0.648157
0.654627 0.654627 0.654627
0.674159 0.674159 0.674159
0.687129 0.687129 0.687129
0.696376 0.696376 0.696376
0.705989 0.705989 0.705989
0.715938 0.715938 0.715938
0.726284 0.726284 0.726284
0.736965 0.736965 0.736965
0.747951 0.747951 0.747951
0.759182 0.759182 0.759182
0.770535 0.770535 0.770535
0.616480 0.616480 0.616480
0.616632 0.616632 0.616632
0.616846 0.616846 0.616846
0.617212 0.617212 0.617212
0.617823 0.617823 0.617823
0.618494 0.618494 0.618494
0.619440 0.619440 0.619440
0.620691 0.620691 0.620691
0.622217 0.622217 0.622217
0.624079 0.624079 0.624079
0.626246 0.626246 0.626246
0.628809 0.628809 0.628809
0.632013 0.632013 0.632013
0.635492 0.635492 0.635492
0.639307 0.639307 0.639307
0.643488 0.643488 0.643488
0.647883 0.647883 0.647883
0.652583 0.652583 0.652583
0.657588 0.657588 0.657588
0.662837 0.662837 0.662837
0.668360 0.668360 0.668360
0.674037 0.674037 0.674037
0.679896 0.679896 0.679896
0.696834 0.696834 0.696834
0.710201 0.710201 0.710201
0.719142 0.719142 0.719142
0.728450 0.728450 0.728450
0.738094 0.738094 0.738094
0.748074 0.748074 0.748074
0.758328 0.758328 0.758328
0.768826 0.768826 0.768826
0.779477 0.779477 0.779477
0.642206 0.642206 0.642206
0.642359 0.642359 0.642359
0.642542 0.642542 0.642542
0.642908 0.642908 0.642908
0.643366 0.643366 0.643366
0.644038 0.644038 0.644038
0.644892 0.644892 0.644892
0.645991 0.645991 0.645991
0.647364 0.647364 0.647364
0.649012 0.649012 0.649012
0.650935 0.650935 0.650935
0.653132 0.653132 0.653132
0.655879 0.655879 0.655879
0.659022 0.659022 0.659022
0.662470 0.662470 0.662470
0.666163 0.666163 0.666163
0.670161 0.670161 0.670161
0.674342 0.674342 0.674342
0.678828 0.678828 0.678828
0.683497 0.683497 0.683497
0.688441 0.688441 0.688441
0.693538 0.693538 0.693538
0.698756 0.698756 0.698756
0.704158 0.704158 0.704158
0.718135 0.718135 0.718135
0.731533 0.731533 0.731533
0.740261 0.740261 0.740261
0.749264 0.749264 0.749264
0.758602 0.758602 0.758602
0.768185 0.768185 0.768185
0.778073 0.778073 0.778073
0.788083 0.788083 0.788083
0.668330 0.668330 0.668330
0.668482 0.668482 0.668482
0.668696 0.668696 0.668696
0.668940 0.668940 0.668940
0.669245 0.669245 0.669245
0.669734 0.669734 0.669734
0.670314 0.670314 0.670314
0.671138 0.671138 0.671138
0.672206 0.672206 0.672206
0.673548 0.673548 0.673548
0.675074 0.675074 0.675074
0.676936 0.676936 0.676936
0.679072 0.679072 0.679072
0.681727 0.681727 0.681727
0.684627 0.684627 0.684627
0.687739 0.687739 0.687739
0.691157 0.691157 0.691157
0.694850 0.694850 0.694850
0.698787 0.698787 0.698787
0.702998 0.702998 0.702998
0.707393 0.707393 0.707393
0.711940 0.711940 0.711940
0.716609 0.716609 0.716609
0.721340 0.721340 0.721340
0.726162 0.726162 0.726162
0.738674 0.738674 0.738674
0.751797 0.751797 0.751797
0.760159 0.760159 0.760159
0.768826 0.768826 0.768826
0.777798 0.777798 0.777798
0.787015 0.787015 0.787015
0.796414 0.796414 0.796414
0.692042 0.692042 0.692042
0.692195 0.692195 0.692195
0.692378 0.692378 0.692378
0.692622 0.692622 0.692622
0.692958 0.692958 0.692958
0.693446 0.693446 0.693446
0.694087 0.694087 0.694087
0.694911 0.694911 0.694911
0.695979 0.695979 0.695979
0.697169 0.697169 0.697169
0.698604 0.698604 0.698604
0.700221 0.700221 0.700221
0.702083 0.702083 0.702083
0.704311 0.704311 0.704311
0.706844 0.706844 0.706844
0.709590 0.709590 0.709590
0.712551 0.712551 0.712551
0.715755 0.715755 0.715755
0.719203 0.719203 0.719203
0.722896 0.722896 0.722896
0.726741 0.726741 0.726741
0.730800 0.730800 0.730800
0.734951 0.734951 0.734951
0.739193 0.739193 0.739193
0.743526 0.743526 0.743526
0.747921 0.747921 0.747921
0.758602 0.758602 0.758602
0.771206 0.771206 0.771206
0.779324 0.779324 0.779324
0.787655 0.787655 0.787655
0.796262 0.796262 0.796262
0.805112 0.805112 0.805112
0.715419 0.715419 0.715419
0.715480 0.715480 0.715480
0.715633 0.715633 0.715633
0.715816 0.715816 0.715816
0.716121 0.716121 0.716121
0.716518 0.716518 0.716518
0.717067 0.717067 0.717067
0.717769 0.717769 0.717769
0.718624 0.718624 0.718624
0.719692 0.719692 0.719692
0.720912 0.720912 0.720912
0.722347 0.722347 0.722347
0.723934 0.723934 0.723934
0.725734 0.725734 0.725734
0.727932 0.727932 0.727932
0.730312 0.730312 0.730312
0.732906 0.732906 0.732906
0.735714 0.735714 0.735714
0.738735 0.738735 0.738735
0.741939 0.741939 0.741939
0.745357 0.745357 0.745357
0.748928 0.748928 0.748928
0.752560 0.752560 0.752560
0.756313 0.756313 0.756313
0.760159 0.760159 0.760159
0.764034 0.764034 0.764034
0.768032 0.768032 0.768032
0.777005 0.777005 0.777005
0.788876 0.788876 0.788876
0.796689 0.796689 0.796689
0.804807 0.804807 0.804807
0.813230 0.813230 0.813230
0.737392 0.737392 0.737392
0.737423 0.737423 0.737423
0.737545 0.737545 0.737545
0.737758 0.737758 0.737758
0.738033 0.738033 0.738033
0.738460 0.738460 0.738460
0.739101 0.739101 0.739101
0.739864 0.739864 0.739864
0.740841 0.740841 0.740841
0.741970 0.741970 0.741970
0.743252 0.743252 0.743252
0.744686 0.744686 0.744686
0.746212 0.746212 0.746212
0.747890 0.747890 0.747890
0.749844 0.749844 0.749844
0.751949 0.751949 0.751949
0.754208 0.754208 0.754208
0.756649 0.756649 0.756649
0.759274 0.759274 0.759274
0.762081 0.762081 0.762081
0.765042 0.765042 0.765042
0.768124 0.768124 0.768124
0.771298 0.771298 0.771298
0.774563 0.774563 0.774563
0.777890 0.777890 0.777890
0.781308 0.781308 0.781308
0.784726 0.784726 0.784726
0.788266 0.788266 0.788266
0.795712 0.795712 0.795712
0.806363 0.806363 0.806363
0.814328 0.814328 0.814328
0.822324 0.822324 0.822324
0.759579 0.759579 0.759579
0.759609 0.759609 0.759609
0.759640 0.759640 0.759640
0.759792 0.759792 0.759792
0.760006 0.760006 0.760006
0.760281 0.760281 0.760281
0.760739 0.760739 0.760739
0.761288 0.761288 0.761288
0.761990 0.761990 0.761990
0.762814 0.762814 0.762814
0.763790 0.763790 0.763790
0.764889 0.764889 0.764889
0.766140 0.766140 0.766140
0.767514 0.767514 0.767514
