20 Preset/Wedding Style/【3】LUT for PR-AE-FCPX/Film Wedding - LUT (8).cube
# Created by Adobe Lightroom plugin Export LUT (1.24.0)
# www.johnrellis.com/lightroom/exportlut.htm
# Preset: 08婚礼纪实_黑白-素材江湖
# Color profile: C:\Program Files (x86)\Common Files\Adobe\Color\Profiles\Recommended\VideoHD.icc
LUT_3D_SIZE 8
DOMAIN_MIN 0.000000 0.000000 0.000000
DOMAIN_MAX 0.903226 0.903226 0.903226
0.115389 0.115389 0.115389
0.117464 0.117464 0.117464
0.142275 0.142275 0.142275
0.186069 0.186069 0.186069
0.263951 0.263951 0.263951
0.345892 0.345892 0.345892
0.416999 0.416999 0.416999
0.496101 0.496101 0.496101
0.130251 0.130251 0.130251
0.135622 0.135622 0.135622
0.160647 0.160647 0.160647
0.208530 0.208530 0.208530
0.286320 0.286320 0.286320
0.361791 0.361791 0.361791
0.429389 0.429389 0.429389
0.506889 0.506889 0.506889
0.200534 0.200534 0.200534
0.205631 0.205631 0.205631
0.229404 0.229404 0.229404
0.280919 0.280919 0.280919
0.338537 0.338537 0.338537
0.394720 0.394720 0.394720
0.450782 0.450782 0.450782
0.525383 0.525383 0.525383
0.324285 0.324285 0.324285
0.328008 0.328008 0.328008
0.340490 0.340490 0.340490
0.362158 0.362158 0.362158
0.404608 0.404608 0.404608
0.445167 0.445167 0.445167
0.496407 0.496407 0.496407
0.571466 0.571466 0.571466
0.433631 0.433631 0.433631
0.435340 0.435340 0.435340
0.441749 0.441749 0.441749
0.453590 0.453590 0.453590
0.475746 0.475746 0.475746
0.514183 0.514183 0.514183
0.570062 0.570062 0.570062
0.638361 0.638361 0.638361
0.536370 0.536370 0.536370
0.535637 0.535637 0.535637
0.541131 0.541131 0.541131
0.551965 0.551965 0.551965
0.570123 0.570123 0.570123
0.595789 0.595789 0.595789
0.629664 0.629664 0.629664
0.708644 0.708644 0.708644
0.663020 0.663020 0.663020
0.663508 0.663508 0.663508
0.668177 0.668177 0.668177
0.676722 0.676722 0.676722
0.690394 0.690394 0.690394
0.708797 0.708797 0.708797
0.731624 0.731624 0.731624
0.765377 0.765377 0.765377
0.786862 0.786862 0.786862
0.787503 0.787503 0.787503
0.790036 0.790036 0.790036
0.794736 0.794736 0.794736
0.806607 0.806607 0.806607
0.816373 0.816373 0.816373
0.828824 0.828824 0.828824
0.844175 0.844175 0.844175
0.118471 0.118471 0.118471
0.119722 0.119722 0.119722
0.148318 0.148318 0.148318
0.203525 0.203525 0.203525
0.283513 0.283513 0.283513
0.360967 0.360967 0.360967
0.429511 0.429511 0.429511
0.507713 0.507713 0.507713
0.125948 0.125948 0.125948
0.139101 0.139101 0.139101
0.167971 0.167971 0.167971
0.222171 0.222171 0.222171
0.299107 0.299107 0.299107
0.371221 0.371221 0.371221
0.438148 0.438148 0.438148
0.516625 0.516625 0.516625
0.208164 0.208164 0.208164
0.215091 0.215091 0.215091
0.236820 0.236820 0.236820
0.289738 0.289738 0.289738
0.347906 0.347906 0.347906
0.403601 0.403601 0.403601
0.461952 0.461952 0.461952
0.537072 0.537072 0.537072
0.335210 0.335210 0.335210
0.338323 0.338323 0.338323
0.349187 0.349187 0.349187
0.371832 0.371832 0.371832
0.415045 0.415045 0.415045
0.456123 0.456123 0.456123
0.508537 0.508537 0.508537
0.583551 0.583551 0.583551
0.437598 0.437598 0.437598
0.439612 0.439612 0.439612
0.446571 0.446571 0.446571
0.459358 0.459358 0.459358
0.482460 0.482460 0.482460
0.523247 0.523247 0.523247
0.577386 0.577386 0.577386
0.645624 0.645624 0.645624
0.541619 0.541619 0.541619
0.542779 0.542779 0.542779
0.548119 0.548119 0.548119
0.558221 0.558221 0.558221
0.575586 0.575586 0.575586
0.600031 0.600031 0.600031
0.634089 0.634089 0.634089
0.713008 0.713008 0.713008
0.668238 0.668238 0.668238
0.669886 0.669886 0.669886
0.674586 0.674586 0.674586
0.682490 0.682490 0.682490
0.694789 0.694789 0.694789
0.712886 0.712886 0.712886
0.736202 0.736202 0.736202
0.770047 0.770047 0.770047
0.790036 0.790036 0.790036
0.790188 0.790188 0.790188
0.792752 0.792752 0.792752
0.797360 0.797360 0.797360
0.805112 0.805112 0.805112
0.816098 0.816098 0.816098
0.829465 0.829465 0.829465
0.844816 0.844816 0.844816
0.133059 0.133059 0.133059
0.133913 0.133913 0.133913
0.146639 0.146639 0.146639
0.209995 0.209995 0.209995
0.293523 0.293523 0.293523
0.370062 0.370062 0.370062
0.435950 0.435950 0.435950
0.511589 0.511589 0.511589
0.147219 0.147219 0.147219
0.150851 0.150851 0.150851
0.169070 0.169070 0.169070
0.232578 0.232578 0.232578
0.310460 0.310460 0.310460
0.380499 0.380499 0.380499
0.444068 0.444068 0.444068
0.519646 0.519646 0.519646
0.199802 0.199802 0.199802
0.209659 0.209659 0.209659
0.247929 0.247929 0.247929
0.297795 0.297795 0.297795
0.353918 0.353918 0.353918
0.409033 0.409033 0.409033
0.466865 0.466865 0.466865
0.541802 0.541802 0.541802
0.334203 0.334203 0.334203
0.338933 0.338933 0.338933
0.355932 0.355932 0.355932
0.375982 0.375982 0.375982
0.416327 0.416327 0.416327
0.457954 0.457954 0.457954
0.510460 0.510460 0.510460
0.585046 0.585046 0.585046
0.440375 0.440375 0.440375
0.443122 0.443122 0.443122
0.451514 0.451514 0.451514
0.463081 0.463081 0.463081
0.484199 0.484199 0.484199
0.527764 0.527764 0.527764
0.579339 0.579339 0.579339
0.647303 0.647303 0.647303
0.546288 0.546288 0.546288
0.547967 0.547967 0.547967
0.553307 0.553307 0.553307
0.563745 0.563745 0.563745
0.580499 0.580499 0.580499
0.604364 0.604364 0.604364
0.642908 0.642908 0.642908
0.714656 0.714656 0.714656
0.670069 0.670069 0.670069
0.671534 0.671534 0.671534
0.676600 0.676600 0.676600
0.685084 0.685084 0.685084
0.697505 0.697505 0.697505
0.714656 0.714656 0.714656
0.736568 0.736568 0.736568
0.770047 0.770047 0.770047
0.791135 0.791135 0.791135
0.791989 0.791989 0.791989
0.794583 0.794583 0.794583
0.798581 0.798581 0.798581
0.806363 0.806363 0.806363
0.816617 0.816617 0.816617
0.829618 0.829618 0.829618
0.844938 0.844938 0.844938
0.153170 0.153170 0.153170
0.153536 0.153536 0.153536
0.165011 0.165011 0.165011
0.206790 0.206790 0.206790
0.304356 0.304356 0.304356
0.377813 0.377813 0.377813
0.445319 0.445319 0.445319
0.523003 0.523003 0.523003
0.168276 0.168276 0.168276
0.171939 0.171939 0.171939
0.188846 0.188846 0.188846
0.227909 0.227909 0.227909
0.317662 0.317662 0.317662
0.386267 0.386267 0.386267
0.451942 0.451942 0.451942
0.528985 0.528985 0.528985
0.248905 0.248905 0.248905
0.256748 0.256748 0.256748
0.273167 0.273167 0.273167
0.301915 0.301915 0.301915
0.361852 0.361852 0.361852
0.415656 0.415656 0.415656
0.472724 0.472724 0.472724
0.547570 0.547570 0.547570
0.320378 0.320378 0.320378
0.326604 0.326604 0.326604
0.349706 0.349706 0.349706
0.386969 0.386969 0.386969
0.423926 0.423926 0.423926
0.466163 0.466163 0.466163
0.518914 0.518914 0.518914
0.591699 0.591699 0.591699
0.436866 0.436866 0.436866
0.440009 0.440009 0.440009
0.451728 0.451728 0.451728
0.470649 0.470649 0.470649
0.489357 0.489357 0.489357
0.530053 0.530053 0.530053
0.582452 0.582452 0.582452
0.650355 0.650355 0.650355
0.542657 0.542657 0.542657
0.543297 0.543297 0.543297
0.553155 0.553155 0.553155
0.568017 0.568017 0.568017
0.583825 0.583825 0.583825
0.608240 0.608240 0.608240
0.658839 0.658839 0.658839
0.717128 0.717128 0.717128
0.669398 0.669398 0.669398
0.670802 0.670802 0.670802
0.677668 0.677668 0.677668
0.686854 0.686854 0.686854
0.699153 0.699153 0.699153
0.716182 0.716182 0.716182
0.738643 0.738643 0.738643
0.772793 0.772793 0.772793
0.789944 0.789944 0.789944
0.790982 0.790982 0.790982
0.794705 0.794705 0.794705
0.799710 0.799710 0.799710
0.807675 0.807675 0.807675
0.817899 0.817899 0.817899
0.830442 0.830442 0.830442
0.845365 0.845365 0.845365
0.183627 0.183627 0.183627
0.184054 0.184054 0.184054
0.201022 0.201022 0.201022
0.237125 0.237125 0.237125
0.294865 0.294865 0.294865
0.381323 0.381323 0.381323
0.453285 0.453285 0.453285
0.531273 0.531273 0.531273
0.204471 0.204471 0.204471
0.207828 0.207828 0.207828
0.225071 0.225071 0.225071
0.258274 0.258274 0.258274
0.309789 0.309789 0.309789
0.390051 0.390051 0.390051
0.459419 0.459419 0.459419
0.536980 0.536980 0.536980
0.288457 0.288457 0.288457
0.291264 0.291264 0.291264
0.303685 0.303685 0.303685
0.325750 0.325750 0.325750
0.360479 0.360479 0.360479
0.424750 0.424750 0.424750
0.485451 0.485451 0.485451
0.561822 0.561822 0.561822
0.351568 0.351568 0.351568
0.359258 0.359258 0.359258
0.388312 0.388312 0.388312
0.405951 0.405951 0.405951
0.427039 0.427039 0.427039
0.475044 0.475044 0.475044
0.529198 0.529198 0.529198
0.601190 0.601190 0.601190
0.425666 0.425666 0.425666
0.428901 0.428901 0.428901
0.442451 0.442451 0.442451
0.467536 0.467536 0.467536
0.503593 0.503593 0.503593
0.542016 0.542016 0.542016
0.593378 0.593378 0.593378
0.658198 0.658198 0.658198
0.545190 0.545190 0.545190
0.547387 0.547387 0.547387
0.557427 0.557427 0.557427
0.574914 0.574914 0.574914
0.601740 0.601740 0.601740
0.621180 0.621180 0.621180
0.668147 0.668147 0.668147
0.723812 0.723812 0.723812
0.668482 0.668482 0.668482
0.670558 0.670558 0.670558
0.677882 0.677882 0.677882
0.690852 0.690852 0.690852
0.708095 0.708095 0.708095
0.724117 0.724117 0.724117
0.746273 0.746273 0.746273
0.789273 0.789273 0.789273
0.789792 0.789792 0.789792
0.790890 0.790890 0.790890
0.795407 0.795407 0.795407
0.802487 0.802487 0.802487
0.812009 0.812009 0.812009
0.821866 0.821866 0.821866
0.834043 0.834043 0.834043
0.849119 0.849119 0.849119
0.230106 0.230106 0.230106
0.233158 0.233158 0.233158
0.251225 0.251225 0.251225
0.282567 0.282567 0.282567
0.323583 0.323583 0.323583
0.374426 0.374426 0.374426
0.451423 0.451423 0.451423
0.540826 0.540826 0.540826
0.256931 0.256931 0.256931
0.260716 0.260716 0.260716
0.276280 0.276280 0.276280
0.303288 0.303288 0.303288
0.338872 0.338872 0.338872
0.385504 0.385504 0.385504
0.459876 0.459876 0.459876
0.548425 0.548425 0.548425
0.326116 0.326116 0.326116
0.328588 0.328588 0.328588
0.338262 0.338262 0.338262
0.357153 0.357153 0.357153
0.382300 0.382300 0.382300
0.419257 0.419257 0.419257
0.485969 0.485969 0.485969
0.570306 0.570306 0.570306
0.404944 0.404944 0.404944
0.407202 0.407202 0.407202
0.415015 0.415015 0.415015
0.425574 0.425574 0.425574
0.442725 0.442725 0.442725
0.470649 0.470649 0.470649
0.531304 0.531304 0.531304
0.607080 0.607080 0.607080
0.449500 0.449500 0.449500
0.452674 0.452674 0.452674
0.465278 0.465278 0.465278
0.499763 0.499763 0.499763
0.521721 0.521721 0.521721
0.544610 0.544610 0.544610
0.600702 0.600702 0.600702
0.663355 0.663355 0.663355
0.527031 0.527031 0.527031
0.528862 0.528862 0.528862
0.539727 0.539727 0.539727
0.560510 0.560510 0.560510
0.592004 0.592004 0.592004
0.632990 0.632990 0.632990
0.674189 0.674189 0.674189
0.726680 0.726680 0.726680
0.660304 0.660304 0.660304
0.662135 0.662135 0.662135
0.671199 0.671199 0.671199
0.684657 0.684657 0.684657
0.705104 0.705104 0.705104
0.731411 0.731411 0.731411
0.752560 0.752560 0.752560
0.796048 0.796048 0.796048
0.787320 0.787320 0.787320
0.788540 0.788540 0.788540
0.792630 0.792630 0.792630
0.799863 0.799863 0.799863
0.812100 0.812100 0.812100
0.826383 0.826383 0.826383
0.837797 0.837797 0.837797
0.852934 0.852934 0.852934
0.308080 0.308080 0.308080
0.311162 0.311162 0.311162
0.323095 0.323095 0.323095
0.345464 0.345464 0.345464
0.374914 0.374914 0.374914
0.412177 0.412177 0.412177
0.458076 0.458076 0.458076
0.538262 0.538262 0.538262
0.321233 0.321233 0.321233
0.324773 0.324773 0.324773
0.335515 0.335515 0.335515
0.354955 0.354955 0.354955
0.381628 0.381628 0.381628
0.415930 0.415930 0.415930
0.459449 0.459449 0.459449
0.537072 0.537072 0.537072
0.374517 0.374517 0.374517
0.376318 0.376318 0.376318
0.383368 0.383368 0.383368
0.397436 0.397436 0.397436
0.417792 0.417792 0.417792
0.446265 0.446265 0.446265
0.487312 0.487312 0.487312
0.565972 0.565972 0.565972
0.443977 0.443977 0.443977
0.445167 0.445167 0.445167
0.449775 0.449775 0.449775
0.460548 0.460548 0.460548
0.476356 0.476356 0.476356
0.499733 0.499733 0.499733
0.537774 0.537774 0.537774
0.611536 0.611536 0.611536
0.517113 0.517113 0.517113
0.520378 0.520378 0.520378
0.525383 0.525383 0.525383
0.531914 0.531914 0.531914
0.545251 0.545251 0.545251
0.564874 0.564874 0.564874
0.596826 0.596826 0.596826
0.667140 0.667140 0.667140
0.554192 0.554192 0.554192
0.556603 0.556603 0.556603
0.566064 0.566064 0.566064
0.584466 0.584466 0.584466
0.624750 0.624750 0.624750
0.652827 0.652827 0.652827
0.678370 0.678370 0.678370
0.733791 0.733791 0.733791
0.643366 0.643366 0.643366
0.645777 0.645777 0.645777
0.653223 0.653223 0.653223
0.668544 0.668544 0.668544
0.691249 0.691249 0.691249
0.722377 0.722377 0.722377
0.761807 0.761807 0.761807
0.798825 0.798825 0.798825
0.773831 0.773831 0.773831
0.775509 0.775509 0.775509
0.782925 0.782925 0.782925
0.794980 0.794980 0.794980
0.808072 0.808072 0.808072
0.823301 0.823301 0.823301
0.842252 0.842252 0.842252
0.856718 0.856718 0.856718
0.392004 0.392004 0.392004
0.392859 0.392859 0.392859
0.393835 0.393835 0.393835
0.407385 0.407385 0.407385
0.429938 0.429938 0.429938
0.458350 0.458350 0.458350
0.499153 0.499153 0.499153
0.551263 0.551263 0.551263
0.390478 0.390478 0.390478
0.392432 0.392432 0.392432
0.399451 0.399451 0.399451
0.413977 0.413977 0.413977
0.435462 0.435462 0.435462
0.462959 0.462959 0.462959
0.502007 0.502007 0.502007
0.552819 0.552819 0.552819
0.424353 0.424353 0.424353
0.425910 0.425910 0.425910
0.431678 0.431678 0.431678
0.445533 0.445533 0.445533
0.463569 0.463569 0.463569
0.487556 0.487556 0.487556
0.524041 0.524041 0.524041
0.573053 0.573053 0.573053
0.478004 0.478004 0.478004
0.479530 0.479530 0.479530
0.484413 0.484413 0.484413
0.495277 0.495277 0.495277
0.511559 0.511559 0.511559
0.534051 0.534051 0.534051
0.567346 0.567346 0.567346
0.612299 0.612299 0.612299
0.552300 0.552300 0.552300
0.552880 0.552880 0.552880
0.552422 0.552422 0.552422
0.559564 0.559564 0.559564
0.573480 0.573480 0.573480
0.592981 0.592981 0.592981
0.620539 0.620539 0.620539
0.662562 0.662562 0.662562
0.609339 0.609339 0.609339
0.611933 0.611933 0.611933
0.624170 0.624170 0.624170
0.650111 0.650111 0.650111
0.651118 0.651118 0.651118
0.668299 0.668299 0.668299
0.694881 0.694881 0.694881
0.731075 0.731075 0.731075
0.670954 0.670954 0.670954
0.672145 0.672145 0.672145
0.677424 0.677424 0.677424
0.689479 0.689479 0.689479
0.708766 0.708766 0.708766
0.747036 0.747036 0.747036
0.775082 0.775082 0.775082
0.795132 0.795132 0.795132
0.761807 0.761807 0.761807
0.762600 0.762600 0.762600
0.766751 0.766751 0.766751
0.775814 0.775814 0.775814
0.789273 0.789273 0.789273
0.807187 0.807187 0.807187
0.830106 0.830106 0.830106
0.858152 0.858152 0.858152
