20 Preset/Wedding Style/【3】LUT for PR-AE-FCPX/Film Wedding - LUT (6).cube
# Created by Adobe Lightroom plugin Export LUT (1.24.0)
# www.johnrellis.com/lightroom/exportlut.htm
# Preset: 06婚礼纪实_火-素材江湖
# Color profile: C:\Program Files (x86)\Common Files\Adobe\Color\Profiles\Recommended\VideoHD.icc
LUT_3D_SIZE 32
DOMAIN_MIN 0.0 0.0 0.0
DOMAIN_MAX 1.0 1.0 1.0
0.121920 0.098878 0.081178
0.121920 0.098878 0.081178
0.121920 0.098878 0.081178
0.121920 0.098878 0.081178
0.124331 0.098512 0.081147
0.131777 0.098024 0.081605
0.140261 0.097230 0.082002
0.149172 0.098543 0.081819
0.161044 0.100099 0.082033
0.176913 0.101106 0.082643
0.198550 0.102113 0.083986
0.226749 0.103548 0.084108
0.262699 0.103975 0.083528
0.304845 0.104372 0.082277
0.350164 0.104585 0.079652
0.397467 0.106203 0.075471
0.444678 0.108949 0.071199
0.491279 0.114137 0.068299
0.536156 0.122866 0.068818
0.578851 0.135409 0.076051
0.618860 0.150149 0.087617
0.662501 0.172061 0.101717
0.702174 0.198642 0.119631
0.735561 0.225406 0.139864
0.763546 0.252110 0.161257
0.786313 0.278904 0.183505
0.805020 0.306065 0.206668
0.820920 0.333257 0.230625
0.834592 0.361181 0.255955
0.846738 0.389746 0.282383
0.857633 0.419074 0.310185
0.867674 0.448676 0.338872
0.121920 0.098878 0.081178
0.121920 0.098878 0.081178
0.121920 0.098878 0.081178
0.121920 0.098878 0.081178
0.124331 0.098512 0.081147
0.131777 0.098024 0.081605
0.139712 0.097719 0.081910
0.148684 0.099031 0.081727
0.160372 0.100252 0.082033
0.175692 0.101381 0.083375
0.196780 0.102602 0.084016
0.223972 0.103761 0.084352
0.258976 0.104463 0.083925
0.300298 0.104921 0.082216
0.345342 0.105074 0.079835
0.392523 0.106325 0.076295
0.439979 0.109133 0.072236
0.486458 0.114626 0.069551
0.531334 0.122438 0.069795
0.574151 0.134371 0.075410
0.613886 0.148836 0.086366
0.656855 0.169924 0.099886
0.695796 0.194827 0.116945
0.728939 0.220249 0.135500
0.757107 0.246189 0.156374
0.780575 0.272160 0.177646
0.800229 0.298589 0.200046
0.816831 0.325811 0.223819
0.831235 0.353704 0.248966
0.843992 0.382483 0.275578
0.855344 0.412177 0.303532
0.865721 0.442145 0.332433
0.121920 0.098878 0.081178
0.121920 0.098878 0.081178
0.121920 0.098878 0.081178
0.121920 0.098878 0.081178
0.125612 0.098695 0.081056
0.132662 0.097871 0.081575
0.139956 0.099214 0.081544
0.149020 0.100069 0.081453
0.160616 0.101259 0.082460
0.175906 0.102388 0.083803
0.196475 0.103761 0.084443
0.223301 0.105013 0.084810
0.258030 0.106172 0.084291
0.298711 0.106661 0.082704
0.343481 0.107179 0.080323
0.389899 0.108797 0.078340
0.436927 0.112428 0.073213
0.483436 0.117464 0.069764
0.528740 0.125490 0.070832
0.571374 0.136965 0.076814
0.611475 0.151186 0.087831
0.654536 0.172305 0.100191
0.692775 0.195987 0.116152
0.725704 0.220371 0.134920
0.753750 0.245426 0.154971
0.777584 0.270573 0.175326
0.797482 0.296696 0.197940
0.814450 0.323735 0.221561
0.829252 0.351354 0.246403
0.842283 0.379980 0.272770
0.853880 0.409461 0.300359
0.864408 0.439277 0.329381
0.121920 0.098878 0.081178
0.121920 0.098878 0.081178
0.121920 0.098878 0.081178
0.122713 0.099153 0.081086
0.127840 0.099458 0.081453
0.133944 0.100618 0.081514
0.141451 0.101106 0.081636
0.150149 0.102327 0.082918
0.162356 0.103365 0.083192
0.177523 0.105135 0.084352
0.198215 0.105989 0.085084
0.224887 0.107515 0.085328
0.259251 0.109010 0.084718
0.299443 0.110231 0.083680
0.343053 0.112215 0.081056
0.388678 0.114290 0.079133
0.434943 0.117769 0.074830
0.480476 0.123415 0.072663
0.524804 0.131746 0.074037
0.567224 0.141909 0.079866
0.606775 0.156008 0.088685
0.649348 0.175998 0.100832
0.686915 0.198245 0.115969
0.719875 0.221317 0.134157
0.748928 0.245975 0.153475
0.773922 0.271305 0.174533
0.794980 0.297795 0.197574
0.812741 0.324926 0.221378
0.828031 0.352636 0.246433
0.841184 0.381170 0.272984
0.852781 0.410040 0.300328
0.863188 0.439063 0.328527
0.122560 0.101320 0.081209
0.122896 0.101625 0.081117
0.123781 0.101472 0.081819
0.125460 0.101595 0.082429
0.126772 0.102052 0.084352
0.134432 0.103700 0.083497
0.143221 0.104646 0.083436
0.152316 0.105348 0.084047
0.164034 0.107057 0.084871
0.179385 0.108370 0.086122
0.200046 0.110109 0.086549
0.226902 0.112001 0.086610
0.260655 0.113802 0.085908
0.300450 0.115938 0.084565
0.343847 0.118654 0.083101
0.389075 0.122133 0.080690
0.435279 0.126619 0.077699
0.480659 0.132570 0.077333
0.524651 0.141482 0.078767
0.566979 0.151888 0.084047
0.607050 0.166079 0.092317
0.648768 0.185611 0.104524
0.685328 0.206424 0.119265
0.717983 0.228702 0.136599
0.746944 0.252262 0.156161
0.772213 0.277256 0.177157
0.793301 0.302800 0.199680
0.811185 0.329076 0.223362
0.826444 0.356115 0.248234
0.839597 0.383886 0.274266
0.851316 0.411719 0.300908
0.861753 0.440070 0.328771
0.126497 0.105592 0.083406
0.126802 0.105898 0.083314
0.128420 0.105989 0.083894
0.130007 0.106081 0.084504
0.131594 0.105806 0.086641
0.134035 0.107057 0.088594
0.143526 0.109194 0.087800
0.156100 0.110536 0.086580
0.168399 0.111971 0.087373
0.184604 0.113802 0.088167
0.205936 0.115938 0.088228
0.233371 0.118471 0.088014
0.267918 0.121462 0.087312
0.307408 0.124910 0.086702
0.350256 0.128634 0.084627
0.395148 0.133333 0.082856
0.440406 0.139010 0.081483
0.485573 0.146365 0.080873
0.528954 0.155428 0.084291
0.570184 0.166812 0.089693
0.611994 0.181338 0.098451
0.652247 0.200412 0.110750
0.722713 0.247623 0.147555
0.752895 0.272801 0.169345
0.777493 0.297704 0.191714
0.797330 0.322667 0.214359
0.813596 0.347539 0.237613
0.827390 0.372381 0.261112
0.839353 0.397528 0.285313
0.850034 0.422889 0.310002
0.859678 0.448188 0.335332
0.868559 0.473091 0.360601
0.132815 0.112398 0.088106
0.133242 0.112337 0.088106
0.134310 0.112490 0.088472
0.136904 0.112734 0.088746
0.139284 0.112337 0.089570
0.140230 0.112154 0.091279
0.144045 0.113680 0.093385
0.157748 0.117739 0.092073
0.176669 0.120912 0.090578
0.198276 0.123659 0.090120
0.222904 0.126741 0.089998
0.254276 0.130922 0.090089
0.290715 0.135195 0.089174
0.331090 0.139895 0.088685
0.373480 0.145022 0.087617
0.416632 0.151156 0.086549
0.460456 0.158694 0.086213
0.503685 0.166720 0.088838
0.545495 0.176791 0.092897
0.585534 0.189456 0.098848
0.632105 0.208438 0.111513
0.673823 0.230167 0.128511
0.710994 0.253544 0.148165
0.743526 0.278386 0.169833
0.770657 0.303655 0.192782
0.791867 0.328283 0.215671
0.808865 0.352148 0.238560
0.823026 0.375952 0.261418
0.835386 0.399847 0.284886
0.846281 0.423835 0.308904
0.856229 0.448035 0.333288
0.865324 0.472297 0.358282
0.139895 0.119356 0.090761
0.139742 0.119661 0.090700
0.141146 0.119753 0.091035
0.143587 0.119966 0.091341
0.147036 0.119997 0.092042
0.149081 0.119661 0.093721
0.149966 0.119173 0.096101
0.155276 0.122225 0.098451
0.174990 0.128328 0.097230
0.200504 0.133394 0.095277
0.233555 0.138857 0.093202
0.264927 0.143893 0.092775
0.300938 0.149142 0.092164
0.339849 0.155001 0.091585
0.380621 0.161440 0.090974
0.422461 0.168490 0.091096
0.464912 0.176272 0.091859
0.506828 0.185306 0.094789
0.547295 0.195834 0.099245
0.590631 0.210056 0.108278
0.633570 0.228061 0.121187
0.672786 0.247929 0.136873
0.708156 0.269200 0.155795
0.739681 0.291997 0.176272
0.766415 0.315251 0.198123
0.787594 0.338079 0.220462
0.804837 0.360662 0.242496
0.819242 0.383001 0.264836
0.831846 0.405585 0.287663
0.842985 0.428626 0.310948
0.853086 0.451972 0.335027
0.862425 0.475349 0.359442
0.148318 0.130220 0.094423
0.148684 0.130159 0.094423
0.149996 0.130220 0.094728
0.152804 0.130587 0.094942
0.156802 0.131014 0.095491
0.160616 0.130404 0.097414
0.162753 0.129793 0.099733
0.163729 0.129305 0.103029
0.171969 0.133669 0.105715
0.198337 0.142916 0.104494
0.232822 0.151278 0.101381
0.275731 0.160006 0.097536
0.314611 0.167453 0.096071
0.352300 0.174258 0.096040
0.392157 0.181552 0.096315
0.432410 0.189212 0.097414
0.472816 0.198062 0.099031
0.513054 0.207553 0.103273
0.554345 0.219272 0.109957
0.597498 0.234684 0.119875
0.637446 0.251255 0.132876
0.674006 0.269291 0.148623
0.707546 0.288853 0.166415
0.737881 0.309667 0.186526
0.763729 0.331121 0.207492
0.784512 0.352209 0.228611
0.801694 0.372839 0.249851
0.816159 0.393927 0.271458
0.828702 0.415381 0.293889
0.839994 0.436927 0.316472
0.850248 0.458991 0.339696
0.859770 0.481178 0.363287
0.159945 0.144961 0.098817
0.160616 0.144869 0.098817
0.162112 0.144900 0.099153
0.165194 0.145357 0.099306
0.169528 0.145815 0.100099
0.174990 0.145876 0.101289
0.179080 0.144564 0.103944
0.181674 0.143648 0.107759
0.181613 0.142458 0.112215
0.193698 0.149294 0.115328
0.228214 0.162234 0.114107
0.269017 0.173800 0.110475
0.317784 0.185489 0.106050
0.364508 0.196017 0.102815
0.403326 0.204227 0.103731
0.442817 0.212863 0.105898
0.482216 0.222354 0.109529
0.523461 0.233585 0.114839
0.566033 0.247440 0.123629
0.605951 0.261814 0.134554
0.642451 0.276799 0.147524
0.675990 0.292760 0.162295
0.706722 0.309636 0.178470
0.734676 0.327581 0.196689
0.759152 0.345922 0.215396
0.779477 0.364630 0.235142
0.796597 0.383795 0.255589
0.811429 0.403265 0.276310
0.824430 0.423743 0.298375
0.836118 0.444617 0.320806
0.846769 0.465949 0.343908
0.856657 0.487617 0.367590
0.174777 0.163882 0.104463
0.175357 0.163821 0.104433
0.176791 0.164187 0.104646
0.180301 0.164462 0.105104
0.185794 0.165194 0.105715
0.193210 0.166323 0.106783
0.199283 0.165225 0.109773
0.203677 0.163577 0.113771
0.206241 0.161959 0.118776
0.205478 0.160464 0.124727
0.222873 0.170382 0.128939
0.265293 0.187778 0.127260
0.311254 0.202426 0.123934
0.362005 0.216587 0.119631
0.415961 0.230228 0.114717
0.455055 0.239658 0.117556
0.496010 0.251164 0.122652
0.536858 0.263493 0.130465
0.575799 0.276188 0.139559
0.612390 0.289311 0.150271
0.646296 0.302739 0.163058
0.677760 0.316960 0.177249
0.706935 0.332372 0.192599
0.733608 0.348638 0.210117
0.757137 0.365240 0.228061
0.776852 0.382361 0.246677
0.793729 0.399939 0.266331
0.808408 0.417975 0.286534
0.821408 0.436927 0.307469
0.833127 0.456397 0.329351
0.843870 0.476509 0.351781
0.853880 0.496956 0.374823
0.194675 0.190127 0.112032
0.195346 0.190219 0.111971
0.196902 0.190311 0.112184
0.201114 0.190829 0.112825
0.207309 0.191531 0.113588
0.215885 0.192630 0.114717
0.224949 0.193088 0.117159
0.231418 0.190921 0.121736
0.236149 0.188907 0.127413
0.238376 0.186618 0.134188
0.236393 0.184451 0.142000
0.259037 0.198093 0.146487
0.322728 0.231266 0.152834
0.374182 0.249699 0.150423
0.430549 0.268284 0.148348
0.491310 0.288426 0.148470
0.540703 0.303990 0.153414
0.579187 0.316747 0.163363
0.614923 0.329320 0.174716
0.647730 0.341558 0.187350
0.677974 0.354040 0.200931
0.705287 0.366857 0.215824
0.730190 0.380041 0.231235
0.752193 0.394049 0.247562
0.770993 0.408026 0.264408
0.786984 0.422400 0.282048
0.800931 0.436805 0.299168
0.813352 0.451606 0.316869
0.824582 0.467231 0.335576
0.835080 0.483619 0.354711
0.844938 0.500633 0.374762
0.854490 0.518334 0.395392
0.226535 0.229465 0.125216
0.226749 0.229435 0.125216
0.228550 0.229221 0.125460
0.233036 0.229160 0.125795
0.239414 0.229557 0.126711
0.247837 0.229984 0.128267
0.259190 0.231113 0.130190
0.267765 0.228977 0.134615
0.274327 0.226078 0.141207
0.278508 0.222965 0.148409
0.280369 0.220462 0.157046
0.278080 0.218906 0.167025
0.308141 0.237675 0.173312
0.365759 0.266728 0.176577
0.423499 0.291417 0.178042
0.480568 0.312322 0.178683
0.536187 0.330968 0.180148
0.585962 0.346227 0.182986
0.618250 0.356542 0.193179
0.648249 0.366705 0.204654
0.675990 0.377203 0.216739
0.702083 0.388128 0.229923
0.726009 0.399817 0.244114
0.747341 0.411994 0.259495
0.765866 0.424598 0.275395
0.781949 0.437537 0.292058
0.796139 0.450782 0.309056
0.808865 0.464576 0.326177
0.820401 0.479316 0.344335
0.831235 0.494789 0.363195
0.841337 0.510887 0.382757
0.851194 0.527581 0.402869
0.254887 0.262943 0.139040
0.255436 0.262882 0.139040
0.257115 0.262699 0.139467
0.261295 0.262333 0.139620
0.267460 0.262455 0.140658
0.275914 0.262760 0.142000
0.287083 0.263706 0.144015
0.298375 0.263798 0.147127
0.305943 0.260472 0.153964
0.312230 0.257237 0.161349
0.318395 0.255833 0.170840
0.321447 0.254856 0.182101
0.321447 0.255955 0.194797
0.355291 0.277867 0.202304
0.411780 0.307164 0.205417
0.467170 0.331060 0.207309
0.520226 0.350805 0.208804
0.570062 0.367559 0.211124
0.616907 0.382391 0.214633
0.649775 0.392309 0.222965
0.675898 0.401221 0.233982
0.700710 0.410834 0.246464
0.723751 0.421149 0.259922
0.744350 0.432105 0.274418
0.762448 0.443336 0.289403
0.778347 0.454932 0.305241
0.792447 0.467018 0.321141
0.805051 0.479805 0.338048
0.816770 0.493233 0.355322
0.827665 0.507591 0.373602
0.838102 0.522606 0.392432
0.848051 0.538506 0.412238
0.286381 0.298375 0.156313
0.286961 0.298314 0.156527
0.288518 0.298222 0.156680
0.292393 0.298039 0.156954
0.298283 0.298009 0.157839
0.307073 0.299046 0.159609
0.318700 0.300450 0.162173
0.332616 0.302861 0.165316
0.343114 0.301549 0.171572
0.352148 0.299321 0.179995
0.359289 0.297093 0.189303
0.364599 0.295415 0.199771
0.364752 0.292668 0.210910
0.362951 0.292668 0.223331
0.398077 0.315465 0.229892
0.451759 0.343481 0.233280
0.503624 0.366552 0.235813
0.552453 0.385046 0.238346
0.598688 0.400763 0.241306
0.641291 0.414557 0.245853
0.676936 0.425666 0.252842
0.700526 0.434119 0.264408
0.722408 0.443091 0.276646
0.742061 0.452583 0.290349
0.759548 0.462348 0.304570
0.775051 0.472847 0.319585
0.789059 0.483986 0.335180
0.801846 0.495918 0.351507
0.813718 0.508659 0.368719
0.824979 0.522362 0.386603
0.835691 0.536980 0.405646
0.846098 0.552331 0.425269
0.325139 0.340032 0.179568
0.325689 0.340185 0.179995
0.327611 0.340368 0.180331
0.331273 0.340612 0.180728
0.337438 0.340856 0.181827
0.345434 0.341558 0.183749
0.356481 0.343175 0.186282
0.369940 0.345190 0.189578
0.383917 0.347082 0.194644
0.392737 0.344060 0.202457
0.400061 0.340368 0.210727
0.405341 0.336919 0.219944
0.407507 0.333043 0.229557
0.403906 0.327855 0.239231
0.399451 0.325780 0.249760
0.434028 0.347814 0.255131
0.484901 0.374487 0.258366
0.533654 0.396460 0.261601
0.579187 0.414405 0.265171
0.622217 0.429725 0.269413
0.662196 0.443488 0.275456
0.698787 0.455970 0.282994
0.721798 0.464820 0.294957
0.740719 0.473426 0.307897
0.757626 0.482429 0.321721
0.772976 0.492042 0.336248
0.786709 0.502373 0.351507
0.799405 0.513237 0.367071
0.811215 0.525017 0.383642
0.822385 0.537499 0.400702
0.833127 0.550591 0.418311
0.843534 0.564355 0.436530
0.361883 0.378363 0.204227
0.362341 0.378149 0.204013
0.364080 0.378119 0.204501
0.367407 0.378393 0.204929
0.372900 0.378607 0.206241
0.380316 0.379400 0.207797
0.390265 0.380499 0.210147
0.402319 0.381933 0.213382
0.416236 0.384100 0.217472
0.426856 0.382666 0.223606
0.434119 0.378759 0.231022
0.440131 0.374701 0.239384
0.443305 0.369970 0.247745
0.443214 0.365148 0.256443
0.437568 0.358434 0.264958
0.431525 0.355505 0.274235
0.466896 0.377905 0.279118
0.514672 0.403418 0.283207
0.561608 0.424994 0.287602
0.604089 0.442390 0.292241
0.644129 0.457679 0.298009
0.682033 0.471565 0.305547
0.715572 0.484016 0.314549
0.739712 0.493721 0.326024
0.756161 0.501823 0.339147
0.770993 0.510643 0.353155
0.784573 0.520134 0.367803
0.797116 0.530205 0.383154
0.808988 0.541100 0.398962
0.820157 0.552697 0.415412
0.831052 0.564843 0.432349
0.841733 0.577539 0.449622
0.398962 0.415015 0.230411
0.399481 0.415106 0.230716
0.418952 0.432044 0.244724
0.422065 0.432227 0.245579
0.426856 0.432380 0.246494
0.433570 0.432654 0.247898
0.442176 0.433265 0.249912
0.452735 0.434150 0.252659
0.465217 0.435645 0.256443
0.478309 0.436866 0.261173
0.485389 0.432654 0.267582
0.490761 0.427802 0.274266
0.494087 0.422156 0.281071
0.494667 0.416052 0.287938
0.491249 0.408850 0.294377
0.482673 0.400275 0.300999
0.474311 0.395300 0.307958
0.509453 0.417304 0.312139
0.553307 0.440589 0.316289
0.596124 0.460517 0.321355
0.635309 0.476692 0.326757
0.672053 0.491279 0.333776
0.705318 0.504082 0.342168
0.733547 0.515099 0.351843
0.757565 0.524743 0.362402
0.771115 0.531701 0.374456
0.783749 0.539269 0.387091
0.795682 0.547723 0.400610
0.807156 0.557153 0.414984
0.818265 0.567468 0.430304
0.829191 0.578546 0.446113
0.840177 0.589868 0.461891
0.439490 0.453040 0.261662
0.441627 0.454597 0.263035
0.444709 0.456428 0.264927
0.449073 0.457801 0.266697
0.454566 0.459022 0.268559
0.460700 0.459785 0.270298
0.468391 0.460212 0.272313
0.477485 0.460700 0.274510
0.488533 0.461677 0.277592
0.500908 0.463081 0.281559
0.509697 0.461006 0.286442
0.515404 0.456397 0.292241
0.519127 0.450996 0.298039
0.520775 0.444770 0.303777
0.519707 0.438117 0.309697
0.515007 0.430701 0.315251
0.505882 0.422004 0.320867
0.497749 0.417456 0.327245
0.534325 0.440375 0.332250
0.576715 0.463325 0.337713
0.617487 0.483070 0.344121
0.654902 0.499550 0.351232
0.689357 0.514061 0.359655
0.718868 0.526177 0.369085
0.744137 0.536675 0.379217
0.766323 0.546502 0.390387
0.781430 0.554406 0.402228
0.793301 0.561975 0.414832
0.804715 0.570520 0.428412
0.815915 0.579950 0.442786
0.827085 0.590051 0.457588
0.838468 0.600427 0.472328
0.469459 0.480079 0.285435
0.471351 0.481544 0.286992
0.474403 0.483253 0.288762
0.478553 0.484688 0.290929
0.483558 0.485908 0.292882
0.489357 0.486549 0.294347
0.495827 0.486946 0.296178
0.503990 0.487343 0.298222
0.513390 0.487922 0.300847
0.524254 0.488746 0.304112
0.535485 0.489448 0.307927
0.540978 0.485084 0.312963
0.545006 0.479988 0.317662
0.547448 0.474220 0.322698
0.547692 0.467903 0.327733
0.545525 0.461158 0.332708
0.539696 0.453193 0.337530
0.530358 0.444831 0.342199
0.522148 0.440375 0.347967
0.559289 0.463630 0.353277
0.599908 0.485939 0.359777
0.638056 0.504967 0.367132
0.673487 0.521263 0.375463
0.704463 0.534905 0.384741
0.730709 0.546502 0.394873
0.753750 0.556847 0.405707
0.774136 0.566613 0.417060
0.791440 0.575799 0.429297
0.802853 0.583612 0.442023
0.814115 0.592157 0.455299
0.825559 0.601190 0.468971
0.837186 0.610620 0.482460
0.499153 0.505882 0.310124
0.501091 0.507225 0.311498
0.503777 0.508537 0.313207
0.507256 0.509972 0.315068
0.511559 0.510918 0.316869
0.516655 0.511376 0.318364
0.522515 0.511742 0.319799
0.529625 0.511955 0.321630
0.537957 0.512505 0.323949
0.547662 0.513115 0.327001
0.558251 0.514061 0.330541
0.565728 0.512078 0.334508
0.569787 0.507225 0.338415
0.572747 0.502220 0.342718
0.574151 0.496284 0.347051
0.573510 0.489998 0.351385
0.570855 0.483680 0.355932
0.564691 0.476234 0.360449
0.556390 0.469154 0.365423
0.549035 0.465553 0.371069
0.588159 0.490425 0.378180
0.627100 0.512444 0.386572
0.663172 0.531029 0.395544
0.695308 0.546868 0.405768
0.722530 0.560113 0.416754
0.746029 0.571527 0.427985
0.766964 0.582147 0.439857
0.786130 0.592279 0.452033
0.804257 0.602289 0.464454
0.817014 0.610346 0.476387
0.828672 0.618402 0.488502
0.840665 0.626764 0.500694
0.538537 0.538109 0.344182
0.539513 0.538506 0.344610
0.540795 0.538964 0.345373
0.542809 0.539239 0.346075
0.545769 0.539300 0.346654
0.549279 0.539269 0.347723
0.554040 0.539269 0.348821
0.560052 0.539361 0.350225
0.567193 0.539544 0.352148
0.575708 0.540154 0.354955
0.585107 0.540917 0.358007
0.594995 0.541466 0.361669
0.598901 0.537316 0.364965
0.601831 0.532341 0.368353
0.603540 0.527153 0.371740
0.603815 0.521294 0.375067
0.602197 0.515007 0.378607
0.598627 0.508537 0.381994
0.591608 0.500938 0.385657
0.582727 0.493690 0.389319
0.575463 0.489937 0.393591
0.613458 0.513848 0.401160
0.649409 0.534051 0.409339
0.681209 0.550469 0.418128
0.709377 0.564874 0.428534
0.734005 0.577386 0.439704
0.755917 0.588769 0.451423
0.775906 0.599298 0.463203
0.794888 0.609461 0.475166
0.812985 0.619318 0.487068
0.828428 0.628229 0.498787
0.840513 0.636011 0.510155
0.566430 0.559930 0.368872
0.567285 0.560235 0.369238
0.568353 0.560601 0.369940
0.570123 0.560906 0.370672
0.572656 0.560998 0.371283
0.575830 0.560998 0.372045
0.579980 0.560937 0.373022
0.585138 0.560998 0.374517
0.591516 0.561242 0.376349
0.598962 0.561639 0.378698
0.607202 0.562280 0.381598
0.616388 0.562951 0.384741
0.622522 0.561151 0.387884
0.625605 0.557061 0.390661
0.627893 0.552361 0.393622
0.628901 0.547326 0.396582
0.628565 0.541924 0.399603
0.626520 0.536004 0.402533
0.622583 0.529931 0.405615
0.615412 0.522667 0.408728
0.606806 0.516014 0.411810
0.601587 0.513420 0.415503
0.637751 0.536156 0.423713
0.670649 0.554925 0.432654
0.695827 0.566705 0.437964
0.721157 0.580133 0.448463
0.744167 0.592309 0.459815
0.765103 0.603479 0.471412
0.784848 0.614008 0.482979
0.803647 0.624201 0.494667
0.821988 0.634241 0.506554
0.840146 0.644190 0.518486
0.598840 0.583276 0.398749
0.599939 0.583764 0.399634
0.600885 0.584070 0.400092
0.601923 0.583978 0.400336
0.603418 0.583673 0.400397
0.605554 0.583154 0.400427
0.608240 0.582513 0.400488
0.611749 0.582025 0.400946
0.616388 0.581567 0.401862
0.621973 0.581353 0.403235
0.628351 0.581231 0.404913
0.635676 0.581292 0.407263
0.643458 0.581445 0.409949
0.645899 0.577295 0.411475
0.647700 0.572900 0.413184
0.648585 0.568048 0.414832
0.648554 0.562860 0.416724
0.647547 0.557519 0.419043
0.644953 0.551873 0.421393
0.640894 0.546166 0.424140
0.633783 0.539269 0.427008
0.625605 0.533196 0.429664
0.622095 0.531670 0.432868
0.655940 0.552850 0.441291
0.685084 0.569512 0.449866
0.710323 0.583032 0.458656
0.733455 0.595361 0.468574
0.754940 0.606897 0.479316
0.775143 0.617670 0.490242
0.794461 0.628077 0.501488
0.813413 0.638300 0.513085
0.832059 0.648432 0.524804
0.621027 0.598199 0.419989
0.621973 0.598627 0.420752
0.623011 0.598932 0.421332
0.624201 0.598962 0.421820
0.625788 0.598932 0.422217
0.627985 0.598779 0.422675
0.630823 0.598688 0.423438
0.634577 0.598657 0.424384
0.638911 0.598657 0.425849
0.644221 0.598840 0.427619
0.650111 0.598932 0.429603
0.656580 0.599115 0.432013
0.663416 0.599390 0.434485
0.668086 0.597742 0.436469
0.669734 0.593957 0.437446
0.670924 0.589868 0.438666
0.671260 0.585382 0.439887
0.670771 0.580743 0.441321
0.669306 0.575799 0.442939
0.666896 0.570855 0.445045
0.662501 0.565393 0.446998
0.655543 0.559045 0.449104
0.647608 0.553185 0.450935
0.646174 0.552972 0.453986
0.676814 0.572198 0.462776
0.702907 0.587366 0.471443
0.725826 0.599878 0.480018
0.747280 0.611536 0.489693
0.768215 0.622980 0.500450
0.788113 0.633845 0.511528
0.807431 0.644282 0.522637
0.826596 0.654688 0.534081
0.646632 0.614160 0.445045
0.647059 0.614405 0.445319
0.647608 0.614527 0.445686
0.648554 0.614527 0.446021
0.649805 0.614405 0.446265
0.651484 0.614282 0.446632
0.653803 0.614099 0.447089
0.656764 0.613947 0.447852
0.660365 0.613916 0.449012
0.664668 0.613947 0.450385
0.669490 0.614069 0.452064
0.674983 0.614252 0.454170
0.680842 0.614435 0.456306
0.686946 0.614618 0.458625
0.688563 0.611414 0.459419
0.689570 0.607813 0.460029
0.690120 0.603998 0.460853
0.690120 0.599817 0.461769
0.689418 0.595605 0.462959
0.687861 0.591333 0.464393
0.685176 0.586816 0.465888
0.680629 0.581598 0.467353
0.673884 0.575769 0.468727
0.666285 0.570214 0.469673
0.666438 0.570794 0.472267
0.693812 0.588006 0.480751
0.717739 0.601984 0.489174
0.738827 0.613550 0.497322
0.759304 0.624750 0.506706
0.779934 0.636286 0.517601
0.799771 0.647303 0.528801
0.819516 0.658198 0.540307
0.667994 0.627863 0.466377
0.668330 0.627985 0.466682
0.668910 0.628138 0.466987
0.669764 0.628199 0.467414
0.671015 0.628321 0.467842
0.672969 0.628473 0.468696
0.675746 0.628840 0.469917
0.679164 0.629419 0.471626
0.683284 0.630121 0.473701
0.687984 0.630915 0.476234
0.693202 0.631861 0.478981
0.698756 0.632715 0.481666
0.704524 0.633631 0.484535
0.710292 0.634333 0.487312
0.714168 0.633539 0.489174
0.715297 0.630671 0.489815
0.715938 0.627497 0.490364
0.716152 0.624079 0.490974
0.715816 0.620569 0.491707
0.714931 0.616876 0.492531
0.713100 0.612970 0.493446
0.710201 0.608789 0.494270
0.705409 0.603754 0.494850
0.698970 0.598322 0.495247
0.691859 0.593164 0.495430
0.693050 0.594385 0.497688
0.717464 0.609735 0.506065
0.739162 0.622522 0.514275
0.758694 0.633387 0.522118
0.778042 0.643946 0.531090
0.798337 0.655543 0.542138
0.818601 0.666865 0.553643
0.695705 0.646204 0.494484
0.695766 0.646204 0.494392
0.695979 0.646143 0.494484
0.696498 0.646082 0.494545
0.697292 0.646052 0.494728
0.698512 0.645960 0.495033
0.700191 0.645991 0.495552
0.702419 0.646021 0.496315
0.705104 0.646204 0.497322
0.708370 0.646418 0.498573
0.712062 0.646723 0.500053
0.716152 0.647089 0.501732
0.720577 0.647486 0.503593
0.725277 0.647883 0.505486
