20 Preset/Wedding Style/【3】LUT for PR-AE-FCPX/Film Wedding - LUT (2).cube
# Created by Adobe Lightroom plugin Export LUT (1.24.0)
# www.johnrellis.com/lightroom/exportlut.htm
# Preset: 02婚礼纪实_冰-素材江湖
# Color profile: C:\Program Files (x86)\Common Files\Adobe\Color\Profiles\Recommended\VideoHD.icc
LUT_3D_SIZE 8
DOMAIN_MIN 0.000000 0.000000 0.000000
DOMAIN_MAX 0.903226 0.903226 0.903226
0.119478 0.112123 0.116335
0.131624 0.113008 0.116854
0.216678 0.115328 0.116915
0.359899 0.108553 0.111513
0.545892 0.098360 0.096559
0.731502 0.142336 0.037446
0.875547 0.234684 0.000000
0.975219 0.320470 0.000000
0.126558 0.120027 0.120394
0.135958 0.120851 0.118929
0.217136 0.135195 0.118044
0.357946 0.138796 0.112032
0.540093 0.143984 0.099702
0.723934 0.181399 0.051148
0.861723 0.253391 0.000000
0.965576 0.332280 0.000000
0.170840 0.169375 0.145052
0.180209 0.170382 0.144656
0.227176 0.175875 0.132967
0.386572 0.225986 0.132509
0.578180 0.272770 0.122011
0.756466 0.317937 0.099886
0.882872 0.370001 0.102358
0.975525 0.422309 0.135744
0.253635 0.264439 0.196780
0.260258 0.261723 0.197574
0.303532 0.281254 0.187564
0.399908 0.298528 0.168673
0.624323 0.397253 0.174563
0.790890 0.497200 0.217960
0.891295 0.520378 0.236027
0.970886 0.541741 0.263462
0.367224 0.396033 0.272374
0.373053 0.393652 0.273198
0.403021 0.400763 0.270878
0.480171 0.437293 0.251865
0.586267 0.449378 0.222568
0.759426 0.532952 0.254551
0.874327 0.610254 0.343420
0.951965 0.667842 0.439368
0.491279 0.534325 0.370153
0.500450 0.537743 0.375006
0.517967 0.531945 0.378149
0.574640 0.563561 0.365942
0.648432 0.588922 0.347570
0.737575 0.593469 0.325261
0.861723 0.654414 0.397223
0.938415 0.716732 0.513970
0.619165 0.669032 0.512047
0.623255 0.669276 0.514122
0.634668 0.665217 0.515312
0.664210 0.674678 0.513664
0.717403 0.699062 0.502251
0.774838 0.711055 0.492103
0.844114 0.709651 0.476509
0.927459 0.749081 0.553491
0.740963 0.792020 0.686885
0.742794 0.791653 0.687282
0.751156 0.790921 0.690242
0.768215 0.792630 0.695827
0.792355 0.799435 0.678004
0.835019 0.815763 0.676936
0.878141 0.821256 0.673396
0.925872 0.813626 0.658412
0.121523 0.114595 0.126131
0.134951 0.112703 0.129000
0.207218 0.108888 0.126772
0.332616 0.114961 0.131563
0.511833 0.109682 0.128756
0.699916 0.137911 0.116213
0.844694 0.217960 0.100282
0.953460 0.304662 0.099123
0.123079 0.124300 0.128878
0.135958 0.127962 0.132204
0.210117 0.135225 0.135286
0.339483 0.141482 0.136294
0.518029 0.147951 0.132448
0.702724 0.179019 0.120546
0.840482 0.243320 0.105715
0.947784 0.320043 0.105562
0.171481 0.180453 0.159792
0.181857 0.178622 0.161166
0.224918 0.183658 0.152834
0.373388 0.232639 0.161471
0.555566 0.267063 0.156130
0.729183 0.304906 0.145144
0.854978 0.350896 0.142519
0.956207 0.406317 0.160159
0.250370 0.268986 0.207126
0.257969 0.266880 0.208133
0.297032 0.280461 0.203281
0.380957 0.292271 0.185763
0.586450 0.378424 0.197208
0.759976 0.478523 0.234440
0.865537 0.497993 0.240421
0.954131 0.525475 0.264195
0.364416 0.399939 0.281956
0.369757 0.396826 0.281865
0.395422 0.395972 0.281559
0.466926 0.429572 0.262638
0.567071 0.438727 0.235569
0.742336 0.523766 0.267735
0.861723 0.604028 0.352850
0.943328 0.659632 0.438025
0.483833 0.531334 0.373266
0.488899 0.530175 0.374182
0.507073 0.525078 0.377630
0.561669 0.553460 0.369116
0.637720 0.582116 0.353185
0.729397 0.590112 0.335790
0.854337 0.651972 0.406500
0.932464 0.714565 0.518639
0.610468 0.663416 0.507836
0.612360 0.661402 0.506676
0.623804 0.657130 0.507378
0.653285 0.665095 0.508110
0.709529 0.692988 0.500847
0.767300 0.705806 0.491676
0.836149 0.703731 0.474556
0.921263 0.743771 0.548913
0.733577 0.786862 0.680018
0.736629 0.787564 0.682155
0.744839 0.786496 0.684565
0.761685 0.787045 0.691005
0.794736 0.803586 0.689357
0.834867 0.817380 0.683619
0.876219 0.820951 0.676326
0.923980 0.813474 0.661524
0.123873 0.125246 0.184329
0.139956 0.122988 0.188937
0.222843 0.109041 0.202365
0.310430 0.115511 0.190768
0.484047 0.002564 0.183200
0.673548 0.106752 0.198184
0.829801 0.207614 0.207248
0.945983 0.305974 0.219547
0.133608 0.144137 0.185702
0.148501 0.146151 0.191836
0.223484 0.134463 0.204898
0.318364 0.137545 0.195254
0.486671 0.122560 0.193545
0.675227 0.160830 0.204623
0.826383 0.235721 0.210666
0.941680 0.322942 0.222873
0.152285 0.198642 0.203494
0.167849 0.203037 0.206882
0.230472 0.223423 0.223514
0.358587 0.234867 0.224918
0.533104 0.258396 0.231113
0.708705 0.296025 0.236332
0.840085 0.347845 0.243900
0.945220 0.408545 0.260960
0.219150 0.312047 0.244694
0.247562 0.315068 0.255589
0.305303 0.311772 0.269841
0.388800 0.329046 0.260441
0.588739 0.418860 0.298070
0.744533 0.479957 0.323980
0.854124 0.504631 0.332433
0.945068 0.535180 0.352209
0.367498 0.440162 0.334325
0.376074 0.437873 0.334874
0.405768 0.429908 0.337591
0.471595 0.454383 0.331060
0.571984 0.469154 0.314916
0.736965 0.551263 0.364660
0.850889 0.630488 0.452003
0.931853 0.668299 0.502708
0.487404 0.558007 0.418372
0.493263 0.557275 0.419409
0.513115 0.551415 0.421363
0.554437 0.559167 0.420478
0.630457 0.591852 0.409644
0.720241 0.602411 0.401495
0.842924 0.667292 0.478737
0.921660 0.731258 0.583032
0.612146 0.678981 0.544976
0.614466 0.677211 0.543938
0.625238 0.672023 0.542687
0.647639 0.667567 0.544793
0.701045 0.695521 0.539605
0.760861 0.712978 0.535760
0.830472 0.715511 0.528923
0.915343 0.758083 0.602502
0.730800 0.792538 0.694820
0.732265 0.791653 0.694362
0.740536 0.790372 0.696223
0.758541 0.790768 0.704463
0.788815 0.803311 0.705409
0.831174 0.820310 0.703059
0.872648 0.825528 0.698787
0.919921 0.819303 0.687190
0.121981 0.149050 0.285008
0.142947 0.148257 0.290654
0.223239 0.139345 0.306706
0.365942 0.092134 0.327977
0.441077 0.122194 0.290593
0.620417 0.000000 0.291325
0.783932 0.000000 0.271824
0.912383 0.233249 0.302647
0.134676 0.171054 0.290257
0.159243 0.175601 0.295842
0.229343 0.166629 0.310948
0.370001 0.129702 0.332708
0.447181 0.149874 0.296452
0.627802 0.088563 0.294774
0.783993 0.080415 0.282139
0.912993 0.266545 0.311101
0.172244 0.233738 0.295445
0.188266 0.237766 0.298192
0.244755 0.249149 0.320500
0.375463 0.228214 0.344457
0.483131 0.236545 0.322271
0.662745 0.220340 0.311437
0.808957 0.301854 0.333501
0.924193 0.385473 0.357885
0.192538 0.334386 0.336309
0.210361 0.337865 0.339025
0.277134 0.355444 0.353216
0.394659 0.398596 0.389715
0.551446 0.412848 0.389319
0.699031 0.442512 0.398474
0.820188 0.481361 0.414343
0.922362 0.525078 0.437110
0.291112 0.492683 0.400214
0.308751 0.493599 0.401526
0.374029 0.501122 0.412757
0.476600 0.497627 0.443885
0.572747 0.521141 0.440345
0.722988 0.601038 0.508293
0.829465 0.657282 0.565118
0.913634 0.672694 0.575677
0.482826 0.612818 0.502281
0.499367 0.616510 0.512810
0.526024 0.609888 0.513939
0.564080 0.598840 0.515007
0.628168 0.621271 0.513085
0.710048 0.633722 0.512596
0.826413 0.699062 0.590112
0.905791 0.758724 0.672053
0.610254 0.705562 0.603784
0.614160 0.705135 0.604486
0.628321 0.701991 0.605463
0.652186 0.695979 0.607355
0.691402 0.705013 0.607996
0.752438 0.728450 0.607294
0.819272 0.733700 0.606531
0.904204 0.777859 0.673457
0.728176 0.807218 0.726528
0.730190 0.806760 0.726619
0.738857 0.805173 0.727687
0.755550 0.802976 0.731228
0.779660 0.804135 0.735073
0.823850 0.824582 0.733974
0.865537 0.832364 0.733272
0.912993 0.829374 0.728145
0.116274 0.193210 0.424292
0.144503 0.193118 0.428901
0.232212 0.186709 0.442176
0.370275 0.156558 0.468788
0.544976 0.000000 0.492439
0.598199 0.127169 0.425727
0.732418 0.116213 0.418067
0.880461 0.122591 0.411048
0.132601 0.215457 0.428382
0.164584 0.219486 0.434333
0.241367 0.212436 0.447059
0.372534 0.185245 0.470832
0.547570 0.098939 0.495827
0.601526 0.161257 0.429725
0.736233 0.154147 0.421759
0.881712 0.163821 0.412970
0.177737 0.281102 0.429755
0.190951 0.281468 0.434730
0.263951 0.291875 0.453529
0.377508 0.275975 0.478614
0.549218 0.235813 0.503655
0.605707 0.255924 0.440894
0.747768 0.252720 0.433417
0.883574 0.264042 0.417792
0.222263 0.372656 0.450935
0.239017 0.375830 0.453101
0.300633 0.390448 0.463264
0.398993 0.417090 0.499519
0.556054 0.398474 0.530358
0.632288 0.395636 0.481056
0.773587 0.393500 0.464546
0.888060 0.442847 0.472114
0.262730 0.496345 0.499489
0.279606 0.499458 0.502220
0.341375 0.511315 0.512535
0.439887 0.536522 0.535271
0.558831 0.578576 0.575647
0.678096 0.586450 0.572747
0.789456 0.607141 0.582116
0.889647 0.634974 0.598810
0.381872 0.632410 0.560693
0.395361 0.633204 0.561852
0.443153 0.634424 0.564294
0.519097 0.640040 0.576501
0.604578 0.635431 0.602136
0.686915 0.661555 0.614008
0.805936 0.729946 0.686183
0.888212 0.777127 0.738705
0.548974 0.732387 0.633051
0.557183 0.731380 0.635492
0.590753 0.729458 0.648310
0.640955 0.727352 0.667536
0.676905 0.717342 0.667720
0.733181 0.737484 0.670222
0.800778 0.748775 0.675990
0.888457 0.795712 0.736934
0.704860 0.818387 0.751888
0.707271 0.817777 0.751736
0.717647 0.815610 0.751797
0.740414 0.814908 0.757259
0.766415 0.810880 0.760922
0.803677 0.820829 0.764340
0.851652 0.836332 0.765927
0.900298 0.836179 0.764797
0.132570 0.260868 0.587823
0.165255 0.260227 0.590845
0.256626 0.253788 0.598077
0.383795 0.235630 0.614649
0.550347 0.182895 0.643885
0.710018 0.000000 0.658198
0.740169 0.183993 0.576440
0.832761 0.231632 0.557336
0.149325 0.276616 0.581933
0.182223 0.278874 0.584314
0.262181 0.272496 0.592645
0.383062 0.255894 0.610346
0.543786 0.209964 0.637385
0.703914 0.117281 0.653193
0.735714 0.207980 0.573602
0.830381 0.246433 0.555444
0.170565 0.332708 0.586908
0.195987 0.334752 0.589960
0.294011 0.351354 0.602869
0.395056 0.336736 0.616602
0.543114 0.307622 0.641505
0.701991 0.264408 0.658778
0.738399 0.300664 0.584619
0.837247 0.319829 0.567376
0.267399 0.437324 0.588800
0.281224 0.438941 0.589532
0.328191 0.445380 0.603510
0.428351 0.466896 0.633173
0.547631 0.454078 0.658259
0.699794 0.429786 0.677180
0.743221 0.433539 0.610956
0.851194 0.436744 0.595239
0.312108 0.529503 0.612879
0.325475 0.531304 0.613855
0.375586 0.539818 0.618952
0.457221 0.558251 0.630793
0.554040 0.586328 0.662257
0.679164 0.574121 0.686824
0.735897 0.554437 0.633295
0.860624 0.550317 0.618585
0.383551 0.635279 0.651057
0.396857 0.638117 0.653864
0.437720 0.643427 0.658595
0.503716 0.654688 0.669062
0.584741 0.673854 0.687556
0.679744 0.709987 0.724788
0.778592 0.718807 0.726406
0.871916 0.735012 0.735531
0.506645 0.757717 0.724178
0.514916 0.758755 0.725277
0.542138 0.759426 0.725612
0.590051 0.761135 0.727138
0.652033 0.764279 0.733211
0.720089 0.757015 0.748379
0.787869 0.776791 0.758053
0.879301 0.827634 0.812863
0.642329 0.836728 0.770809
0.644953 0.836210 0.770321
0.659022 0.835752 0.771054
0.693629 0.835782 0.779416
0.750393 0.833066 0.799954
0.785641 0.825711 0.801389
0.835752 0.843046 0.806394
0.887266 0.848692 0.810758
0.243565 0.355657 0.730220
0.262364 0.355657 0.732326
0.324468 0.350317 0.736416
0.424323 0.338659 0.745754
0.549248 0.311650 0.758877
0.694820 0.258000 0.776303
0.825864 0.197208 0.782284
0.842130 0.277256 0.705013
0.248966 0.367285 0.725246
0.269749 0.369604 0.727718
0.328099 0.364233 0.732082
0.422431 0.351568 0.740566
0.544518 0.325841 0.753719
0.688319 0.274937 0.770657
0.818967 0.218326 0.776364
0.835508 0.285863 0.698848
0.258793 0.412329 0.726436
0.281193 0.416052 0.727657
0.355016 0.428138 0.732174
0.434852 0.416938 0.740566
0.544854 0.395727 0.752926
0.682490 0.359411 0.770809
0.815183 0.323339 0.779995
0.837369 0.363378 0.709316
0.318120 0.497536 0.724086
0.326940 0.496864 0.724666
0.366339 0.497414 0.730251
0.463325 0.518730 0.742214
0.550408 0.504967 0.755306
0.673610 0.483284 0.774380
0.804837 0.458656 0.786007
0.833860 0.469001 0.722438
0.380072 0.579156 0.723751
0.387915 0.579278 0.723018
0.422705 0.583459 0.723293
0.478218 0.591669 0.731624
0.563897 0.609766 0.753536
0.658167 0.597406 0.773007
0.785061 0.578973 0.788205
0.827237 0.572808 0.736812
0.436316 0.660792 0.744808
0.443854 0.661769 0.745388
0.472297 0.665248 0.747311
0.521386 0.672358 0.751339
0.585687 0.683925 0.758297
0.666804 0.706355 0.783871
0.775357 0.698878 0.805234
0.825223 0.672755 0.758053
0.502007 0.747677 0.777310
0.508080 0.748775 0.778317
0.530144 0.751156 0.780270
0.571252 0.756588 0.784939
0.627680 0.765560 0.792691
0.697383 0.781216 0.806699
0.779202 0.809812 0.833371
0.861387 0.816281 0.834287
0.604639 0.847684 0.831907
0.608972 0.848173 0.832456
0.627771 0.850736 0.835294
0.659876 0.854429 0.839261
0.705287 0.855344 0.839231
0.758297 0.856840 0.841459
0.817624 0.850584 0.851591
0.875700 0.866575 0.859953
0.428504 0.510002 0.850889
0.436439 0.509636 0.851743
0.463478 0.503380 0.852842
0.518303 0.493935 0.857084
0.596857 0.475990 0.863279
0.697139 0.445197 0.871427
0.818662 0.396521 0.882414
0.926848 0.359228 0.884611
0.430121 0.517327 0.848081
0.438605 0.517723 0.849027
0.465461 0.512352 0.850675
0.518151 0.502403 0.854795
0.595056 0.484657 0.861082
0.694270 0.454719 0.869413
0.814847 0.406409 0.880125
0.923125 0.368292 0.882200
0.430854 0.542779 0.845579
0.442573 0.545800 0.846098
0.481849 0.553552 0.847227
0.529839 0.547295 0.852781
0.597833 0.530205 0.858671
0.689784 0.502617 0.866636
0.806851 0.461555 0.877836
0.915709 0.426520 0.880858
0.439277 0.587640 0.841764
0.446509 0.588373 0.842618
0.478676 0.592920 0.844633
0.547753 0.610407 0.848905
0.604150 0.598291 0.855558
0.685542 0.578088 0.864378
0.794766 0.547509 0.876097
0.904082 0.516869 0.880766
0.481422 0.653498 0.834714
0.485939 0.653773 0.835721
0.500084 0.651667 0.837980
0.538170 0.652888 0.843839
0.612116 0.667292 0.851316
0.678492 0.652613 0.860655
0.777951 0.631281 0.873289
0.889464 0.607324 0.880797
0.517082 0.713161 0.842374
0.520195 0.712764 0.841947
0.534844 0.712398 0.841001
0.565667 0.714015 0.840879
0.609369 0.717067 0.844327
0.684077 0.731289 0.860166
0.766964 0.722194 0.875517
0.877134 0.706416 0.886168
0.563256 0.779629 0.858671
0.566400 0.779690 0.858579
0.580011 0.780087 0.858488
0.607843 0.782101 0.859220
0.648737 0.785794 0.860746
0.701289 0.792386 0.863828
0.770748 0.807340 0.878477
0.864744 0.798398 0.892210
0.623194 0.848417 0.879088
0.625727 0.848508 0.879088
0.637842 0.849302 0.879545
0.662409 0.851621 0.881041
0.697963 0.855161 0.883299
0.743557 0.860594 0.886839
0.799557 0.870085 0.893584
0.868894 0.890715 0.909850
