20 Preset/Wedding Style/【3】LUT for PR-AE-FCPX/Film Wedding - LUT (5).cube
# Created by Adobe Lightroom plugin Export LUT (1.24.0)
# www.johnrellis.com/lightroom/exportlut.htm
# Preset: 05婚礼纪实_火-素材江湖
# Color profile: C:\Program Files (x86)\Common Files\Adobe\Color\Profiles\Recommended\VideoHD.icc
LUT_3D_SIZE 32
DOMAIN_MIN 0.0 0.0 0.0
DOMAIN_MAX 1.0 1.0 1.0
0.118074 0.100099 0.085328
0.118074 0.100099 0.085328
0.118074 0.100099 0.085328
0.118074 0.100099 0.085328
0.122164 0.100221 0.085817
0.132204 0.099733 0.086824
0.144137 0.099428 0.087648
0.160250 0.097169 0.088319
0.181430 0.095674 0.088808
0.210178 0.093477 0.088746
0.248020 0.089235 0.087831
0.294347 0.079072 0.085115
0.345464 0.060609 0.079072
0.399023 0.042115 0.066560
0.452064 0.029084 0.049958
0.503136 0.027008 0.029816
0.551568 0.038911 0.007630
0.596521 0.067659 0.000000
0.637903 0.093599 0.000000
0.675563 0.113130 0.000000
0.714168 0.131868 0.000000
0.750607 0.150179 0.000000
0.778470 0.168032 0.000000
0.800900 0.186496 0.000000
0.819547 0.206027 0.000000
0.835416 0.226261 0.056489
0.849729 0.247013 0.104189
0.862669 0.269413 0.132448
0.874723 0.292912 0.160159
0.886107 0.318029 0.188022
0.896880 0.344549 0.216831
0.907256 0.372534 0.246586
0.118074 0.100099 0.085328
0.118074 0.100099 0.085328
0.118074 0.100099 0.085328
0.118074 0.100099 0.085328
0.122164 0.100221 0.085817
0.132204 0.099733 0.086824
0.143893 0.099123 0.087739
0.159243 0.097383 0.088350
0.180179 0.096407 0.088777
0.207889 0.094270 0.088777
0.244572 0.090364 0.088014
0.290257 0.081636 0.085481
0.340673 0.065400 0.079683
0.393469 0.048524 0.067964
0.446662 0.035340 0.051728
0.498024 0.034821 0.031678
0.546838 0.044221 0.008850
0.591974 0.072114 0.000000
0.633661 0.095308 0.000000
0.671687 0.112276 0.000000
0.709895 0.131228 0.000000
0.745632 0.148623 0.000000
0.773648 0.165743 0.000000
0.796353 0.183383 0.000000
0.815213 0.202335 0.000000
0.831540 0.221286 0.036927
0.846159 0.241855 0.096193
0.859525 0.263920 0.125582
0.872007 0.287022 0.153414
0.883726 0.311925 0.181460
0.894804 0.338567 0.210025
0.905455 0.366674 0.240146
0.118074 0.100099 0.085328
0.118074 0.100099 0.085328
0.118074 0.100099 0.085328
0.118074 0.100099 0.085328
0.123140 0.100099 0.085786
0.132662 0.099672 0.086824
0.144533 0.099367 0.087617
0.159060 0.098970 0.088533
0.179782 0.098054 0.088533
0.207004 0.096498 0.088502
0.243259 0.093477 0.087495
0.287968 0.088472 0.084871
0.337743 0.079286 0.079042
0.390173 0.066285 0.066865
0.443091 0.056519 0.050599
0.494270 0.058259 0.030610
0.543175 0.071168 0.007507
0.588617 0.089723 0.000000
0.630488 0.104829 0.000000
0.668727 0.120272 0.000000
0.707668 0.136294 0.000000
0.743038 0.152163 0.000000
0.770962 0.168338 0.000000
0.793729 0.185672 0.000000
0.812772 0.203037 0.000000
0.829191 0.221775 0.033387
0.843992 0.241886 0.093965
0.857603 0.263371 0.123598
0.870268 0.286076 0.150607
0.882109 0.310826 0.178988
0.893400 0.337041 0.207614
0.904112 0.364935 0.237705
0.118074 0.100099 0.085328
0.118074 0.100099 0.085328
0.118074 0.100099 0.085328
0.118318 0.100404 0.085939
0.125429 0.100801 0.086213
0.133822 0.101625 0.086946
0.145449 0.101717 0.087648
0.159945 0.102022 0.088441
0.180026 0.102022 0.088350
0.207279 0.101228 0.088197
0.243168 0.099306 0.086763
0.286625 0.097322 0.083009
0.336339 0.093874 0.077150
0.387884 0.091035 0.064088
0.439918 0.089937 0.047456
0.490608 0.092103 0.027436
0.538781 0.098207 0.004517
0.583856 0.107790 0.000000
0.625727 0.119539 0.000000
0.663844 0.131777 0.000000
0.702785 0.144717 0.000000
0.737270 0.158541 0.000000
0.765530 0.173861 0.000000
0.789029 0.189639 0.000000
0.808957 0.206790 0.000000
0.826261 0.225376 0.033234
0.841764 0.245426 0.094270
0.855894 0.266789 0.124147
0.868864 0.289525 0.152651
0.880949 0.313725 0.180301
0.892119 0.339361 0.208621
0.902739 0.366125 0.237797
0.119142 0.103517 0.085786
0.119142 0.103517 0.085786
0.118990 0.103883 0.085695
0.121431 0.103548 0.086366
0.124086 0.104189 0.088136
0.135439 0.105196 0.087312
0.145785 0.106142 0.088319
0.160159 0.106783 0.088472
0.180331 0.107454 0.088258
0.207004 0.107851 0.087922
0.241855 0.108125 0.085908
0.284916 0.108034 0.081788
0.333257 0.107698 0.073457
0.384649 0.108583 0.060365
0.436347 0.110964 0.041474
0.486915 0.115572 0.020325
0.535546 0.121523 0.000000
0.580957 0.130343 0.000000
0.623041 0.137972 0.000000
0.661616 0.146029 0.000000
0.701106 0.158724 0.000000
0.734829 0.171450 0.000000
0.762936 0.184756 0.000000
0.786587 0.199771 0.000000
0.806729 0.215946 0.000000
0.824277 0.233860 0.046784
0.839994 0.252781 0.099702
0.854215 0.273350 0.128176
0.867155 0.295415 0.155703
0.879149 0.318853 0.183261
0.890379 0.343511 0.210788
0.900969 0.369482 0.239261
0.121523 0.108583 0.087068
0.122011 0.108522 0.087068
0.123384 0.108309 0.087770
0.125704 0.107973 0.088289
0.127230 0.107057 0.089662
0.129976 0.107942 0.091096
0.143557 0.111055 0.089662
0.162570 0.113100 0.088106
0.182315 0.114595 0.087526
0.209720 0.116793 0.086305
0.244694 0.118868 0.083589
0.287480 0.121798 0.078401
0.335363 0.124788 0.067384
0.385718 0.128725 0.051545
0.437232 0.132631 0.033722
0.487617 0.137453 0.012909
0.536004 0.142916 0.000000
0.581384 0.149386 0.000000
0.623346 0.157229 0.000000
0.663661 0.166232 0.000000
0.702174 0.176974 0.000000
0.735073 0.188846 0.000000
0.787747 0.221622 0.000000
0.808316 0.237766 0.027771
0.825467 0.255039 0.090486
0.840421 0.273228 0.119600
0.853696 0.292607 0.145785
0.865751 0.312566 0.170504
0.876829 0.333867 0.196017
0.887297 0.356146 0.221286
0.897093 0.379492 0.247440
0.906493 0.403388 0.273869
0.127871 0.115755 0.089754
0.127871 0.115755 0.089754
0.129030 0.115908 0.090089
0.131930 0.115816 0.090455
0.134798 0.114473 0.091859
0.135225 0.113191 0.093355
0.138399 0.114778 0.095338
0.158267 0.119905 0.093294
0.188052 0.125032 0.089540
0.222202 0.129305 0.086244
0.260136 0.134066 0.081636
0.304479 0.139223 0.073548
0.352941 0.144228 0.061646
0.403021 0.149630 0.044251
0.453254 0.155489 0.024811
0.501823 0.161257 0.004547
0.548302 0.167941 0.000000
0.592096 0.174838 0.000000
0.632837 0.181979 0.000000
0.676722 0.193271 0.000000
0.715724 0.205417 0.000000
0.749355 0.218631 0.000000
0.776974 0.233310 0.000000
0.799985 0.249454 0.039277
0.819028 0.266545 0.096284
0.835019 0.284276 0.125307
0.848875 0.302129 0.150240
0.861204 0.320775 0.174258
0.872496 0.341070 0.199008
0.883116 0.361761 0.223026
0.893034 0.383917 0.248600
0.902617 0.406714 0.274296
0.133761 0.124575 0.092409
0.134188 0.124544 0.092409
0.135317 0.124666 0.092348
0.138888 0.124453 0.092683
0.142519 0.123690 0.093568
0.144289 0.121736 0.095460
0.143740 0.119783 0.098146
0.149569 0.122530 0.100099
0.176242 0.130678 0.097078
0.214420 0.139162 0.092317
0.264927 0.148318 0.083436
0.308415 0.155215 0.075685
0.355138 0.162142 0.062013
0.403998 0.169009 0.045289
0.452766 0.175723 0.026032
0.500298 0.182406 0.006958
0.546258 0.189456 0.000000
0.589563 0.196689 0.000000
0.633356 0.206058 0.000000
0.675196 0.216251 0.000000
0.712123 0.227481 0.000000
0.744686 0.239414 0.000000
0.771969 0.252842 0.008789
0.794797 0.267582 0.070619
0.814054 0.282963 0.108492
0.830198 0.298955 0.134432
0.844205 0.315862 0.158358
0.856748 0.333349 0.181582
0.868345 0.351812 0.204959
0.879026 0.371649 0.229038
0.889220 0.392279 0.253239
0.898894 0.414130 0.278782
0.141878 0.137087 0.095094
0.142275 0.137057 0.095094
0.144045 0.137057 0.095430
0.147311 0.136904 0.095735
0.152377 0.136965 0.095918
0.156008 0.134524 0.097871
0.157412 0.131563 0.100679
0.155520 0.128481 0.103853
0.164553 0.133089 0.106447
0.199985 0.145083 0.102510
0.248631 0.157992 0.095583
0.310674 0.172824 0.081880
0.360937 0.182650 0.064240
0.408270 0.190799 0.046540
0.455818 0.198550 0.027649
0.501884 0.206241 0.009155
0.546960 0.213657 0.000000
0.591730 0.222477 0.000000
0.635401 0.232517 0.000000
0.674830 0.242161 0.000000
0.710231 0.252537 0.000000
0.741421 0.263981 0.003082
0.768032 0.275883 0.052247
0.790616 0.289128 0.097871
0.809659 0.303136 0.123690
0.825834 0.317845 0.147616
0.839902 0.333104 0.170413
0.852537 0.349371 0.192569
0.864164 0.366735 0.215457
0.875029 0.385046 0.238224
0.885252 0.404639 0.262272
0.895109 0.424994 0.286656
0.152224 0.154818 0.098573
0.152590 0.154757 0.098573
0.154543 0.154757 0.098909
0.158877 0.154452 0.099214
0.164553 0.154147 0.099428
0.171206 0.152865 0.100923
0.173983 0.148959 0.103883
0.174563 0.144503 0.107515
0.170382 0.140108 0.112093
0.183474 0.147311 0.114900
0.228885 0.164034 0.109865
0.285466 0.181125 0.101045
0.351324 0.199344 0.085634
0.412146 0.213870 0.051881
0.458473 0.222904 0.033722
0.504234 0.231388 0.017151
0.551110 0.241367 0.001678
0.596612 0.251560 0.000000
0.638178 0.261021 0.000000
0.675502 0.270542 0.000183
0.709071 0.280217 0.020111
0.738430 0.289952 0.055848
0.763546 0.300175 0.093446
0.785061 0.311162 0.116152
0.803555 0.323125 0.137575
0.819608 0.335943 0.159823
0.833890 0.349645 0.180850
0.846860 0.364569 0.202335
0.858824 0.380896 0.224247
0.870024 0.398291 0.247013
0.880552 0.417121 0.271031
0.890715 0.436713 0.295323
0.164950 0.177646 0.102449
0.165805 0.177707 0.102388
0.168307 0.177462 0.102724
0.172549 0.177493 0.102907
0.179690 0.177340 0.103365
0.188907 0.177218 0.104067
0.194675 0.173098 0.107301
0.197269 0.167453 0.111879
0.196262 0.161471 0.116945
0.189853 0.155581 0.122652
0.208927 0.166171 0.125612
0.263371 0.188418 0.120089
0.325811 0.209323 0.109743
0.393774 0.230045 0.093690
0.462867 0.249760 0.049531
0.512047 0.261479 0.034943
0.557610 0.271977 0.025422
0.600122 0.281590 0.023255
0.639155 0.290898 0.030579
0.674556 0.299535 0.049165
0.706569 0.308019 0.078309
0.734920 0.316686 0.098512
0.759365 0.326146 0.116976
0.780545 0.335912 0.136629
0.798825 0.346685 0.156802
0.814786 0.358282 0.176547
0.829099 0.370947 0.197147
0.842069 0.384680 0.217624
0.854154 0.399542 0.238590
0.865415 0.415717 0.260746
0.876036 0.433295 0.283848
0.886351 0.451545 0.307225
0.182284 0.207950 0.107271
0.183200 0.207736 0.107332
0.185733 0.207767 0.107546
0.190890 0.207767 0.108003
0.198947 0.207736 0.108309
0.209598 0.207584 0.109194
0.220188 0.206027 0.111391
0.224857 0.198947 0.117006
0.226596 0.191592 0.123171
0.223575 0.183719 0.129946
0.214725 0.175723 0.137331
0.240360 0.190402 0.140627
0.316289 0.228763 0.140475
0.390112 0.258701 0.131289
0.464820 0.286076 0.117952
0.537102 0.309819 0.099672
0.590753 0.324529 0.092134
0.630152 0.333471 0.098207
0.665522 0.341924 0.108217
0.697475 0.349676 0.120180
0.725673 0.357153 0.134310
0.749569 0.364416 0.150118
0.770230 0.371893 0.166110
0.788266 0.380377 0.183352
0.804135 0.389502 0.201175
0.818235 0.399329 0.218723
0.831052 0.409674 0.235904
0.842771 0.421088 0.253910
0.853696 0.433722 0.272831
0.864225 0.447395 0.292027
0.874327 0.462226 0.312596
0.884276 0.478340 0.334020
0.208225 0.251286 0.116548
0.209018 0.251102 0.116274
0.211826 0.250767 0.116609
0.217563 0.250248 0.117159
0.226139 0.249516 0.117617
0.237369 0.248783 0.118502
0.251316 0.248020 0.120058
0.259617 0.241642 0.125216
0.263401 0.232761 0.132753
0.263737 0.223148 0.140658
0.259495 0.213931 0.149233
0.251530 0.207126 0.160372
0.287327 0.229648 0.165896
0.359167 0.265965 0.162875
0.433173 0.298192 0.156039
0.504479 0.325383 0.146334
0.570184 0.347417 0.134890
0.627222 0.363287 0.124239
0.660822 0.370275 0.133089
0.691157 0.376715 0.143771
0.718227 0.382818 0.156039
0.741817 0.389105 0.169741
0.762295 0.395636 0.184878
0.780453 0.402991 0.200687
0.796567 0.410895 0.217105
0.810910 0.419745 0.233799
0.824002 0.429450 0.251072
0.836057 0.440009 0.268742
0.847471 0.451545 0.286992
0.858274 0.464485 0.306035
0.868650 0.478309 0.325872
0.878843 0.493385 0.346868
0.232578 0.288029 0.127932
0.233036 0.287907 0.127962
0.236210 0.287388 0.128023
0.241428 0.286839 0.128267
0.250126 0.285954 0.128756
0.261265 0.285222 0.129793
0.275212 0.284764 0.131258
0.290043 0.283482 0.134890
0.297246 0.275486 0.143404
0.301762 0.266453 0.152651
0.302129 0.257115 0.162448
0.296666 0.246983 0.172824
0.286412 0.238926 0.184543
0.326055 0.264561 0.190005
0.397864 0.302647 0.188296
0.468910 0.334783 0.183291
0.535241 0.360632 0.176638
0.595911 0.381231 0.169467
0.650721 0.396918 0.163088
0.685603 0.404334 0.168124
0.711879 0.409552 0.179232
0.734981 0.415015 0.192233
0.755428 0.420691 0.206088
0.773556 0.427131 0.220737
0.789700 0.434241 0.236790
0.804257 0.442115 0.252720
0.817472 0.450813 0.268986
0.829740 0.460334 0.285832
0.841276 0.470924 0.303258
0.852262 0.482887 0.322057
0.862943 0.495644 0.341283
0.873381 0.509758 0.361730
0.263584 0.331518 0.144900
0.264103 0.331426 0.145144
0.266514 0.331060 0.145418
0.272007 0.330602 0.145785
0.280339 0.329870 0.146792
0.291600 0.329168 0.147616
0.305516 0.328801 0.149355
0.321935 0.328862 0.151797
0.332708 0.322637 0.158755
0.338720 0.313268 0.167636
0.341863 0.303044 0.177310
0.340246 0.291966 0.187686
0.331395 0.279393 0.198093
0.319493 0.270451 0.209751
0.362493 0.298619 0.214603
0.432410 0.336889 0.213748
0.499947 0.368414 0.211093
0.561669 0.393011 0.207065
0.618128 0.412512 0.203799
0.668269 0.427192 0.201144
0.706264 0.436286 0.203250
0.728969 0.440833 0.215183
0.748959 0.445869 0.228458
0.766873 0.451362 0.242283
0.782956 0.457527 0.256870
0.797574 0.464637 0.272526
0.811063 0.472389 0.288060
0.823453 0.481483 0.305028
0.835355 0.491493 0.322301
0.846616 0.502922 0.341070
0.857633 0.515435 0.360388
0.868498 0.528954 0.380804
0.295415 0.374548 0.167483
0.296483 0.374517 0.167453
0.298863 0.374304 0.167788
0.303990 0.373999 0.168032
0.311925 0.373602 0.169100
0.322515 0.373083 0.170230
0.336278 0.373114 0.172152
0.352361 0.373236 0.174868
0.368566 0.372320 0.179324
0.375860 0.362615 0.187961
0.380194 0.351659 0.196445
0.380835 0.339574 0.205753
0.375952 0.326085 0.214817
0.363287 0.310613 0.223667
0.349004 0.299809 0.233799
0.393317 0.328954 0.237552
0.460517 0.366583 0.237949
0.524529 0.397436 0.237430
0.582849 0.421485 0.236057
0.635554 0.440406 0.235721
0.682277 0.455116 0.236851
0.721370 0.465553 0.239567
0.742733 0.470649 0.251591
0.760647 0.475654 0.265049
0.776730 0.481300 0.279454
0.791409 0.487831 0.294560
0.804898 0.495247 0.310216
0.817533 0.503471 0.326116
0.829526 0.512657 0.343114
0.840909 0.522972 0.360815
0.852079 0.534112 0.378912
0.863035 0.546319 0.398138
0.327092 0.413336 0.191745
0.327550 0.413275 0.191897
0.329564 0.413062 0.191897
0.334447 0.412665 0.192447
0.341558 0.412299 0.193484
0.351263 0.412024 0.194614
0.363928 0.411810 0.196292
0.378729 0.411780 0.199008
0.395392 0.412146 0.202090
0.406470 0.406134 0.208408
0.411963 0.395453 0.216068
0.414527 0.383337 0.224247
0.412970 0.370275 0.232425
0.406104 0.355718 0.240085
0.390906 0.338445 0.247715
0.375799 0.327276 0.256535
0.422126 0.358099 0.260563
0.486915 0.395209 0.262669
0.547387 0.425391 0.264286
0.602441 0.448859 0.265721
0.651850 0.467689 0.268467
0.694972 0.482124 0.272679
0.730373 0.492500 0.278447
0.754543 0.499153 0.288396
0.770504 0.504295 0.302525
0.785245 0.510216 0.316777
0.798856 0.517052 0.332128
0.811582 0.524712 0.347906
0.823697 0.533257 0.364202
0.835325 0.542809 0.381170
0.846647 0.553185 0.398840
0.857969 0.564385 0.416999
0.359167 0.450568 0.219608
0.359808 0.450721 0.219760
0.377142 0.467170 0.234287
0.381445 0.466804 0.234470
0.387701 0.466316 0.235203
0.396429 0.465919 0.236332
0.407233 0.465400 0.237705
0.420356 0.464942 0.239933
0.435554 0.464820 0.242771
0.450874 0.463508 0.246525
0.456977 0.453590 0.252995
0.460456 0.441871 0.259190
0.460517 0.428290 0.265232
0.455848 0.413275 0.270939
0.446021 0.396551 0.276249
0.427680 0.376715 0.281010
0.410285 0.363531 0.287846
0.458686 0.396033 0.291966
0.519615 0.431556 0.295689
0.576135 0.460121 0.299351
0.627192 0.482399 0.303258
0.672236 0.500084 0.308659
0.709377 0.513024 0.315496
0.740414 0.522728 0.323064
0.766262 0.529931 0.331182
0.780423 0.534478 0.343664
0.793545 0.539818 0.357000
0.806088 0.546105 0.370916
0.818112 0.553429 0.385779
0.829740 0.562005 0.401892
0.841337 0.571405 0.418463
0.852873 0.581689 0.435798
0.394873 0.488899 0.252873
0.396796 0.490333 0.254337
0.400153 0.491829 0.255894
0.404944 0.492958 0.257786
0.411658 0.493538 0.259403
0.419532 0.493507 0.260777
0.429603 0.493141 0.262333
0.441108 0.492561 0.263951
0.454627 0.492226 0.266545
0.469520 0.491890 0.269261
0.479225 0.486122 0.273747
0.483680 0.475502 0.278904
0.485084 0.463233 0.283848
0.483375 0.449653 0.288731
0.477333 0.434363 0.293187
0.465766 0.417060 0.297215
0.447211 0.397528 0.300938
0.430152 0.385016 0.306950
0.481117 0.419715 0.312474
0.539818 0.454688 0.318242
0.593866 0.483009 0.324346
0.642420 0.505425 0.331121
0.683772 0.522576 0.339117
0.717494 0.535088 0.347723
0.745937 0.544732 0.356512
0.770901 0.552758 0.365667
0.787320 0.558434 0.377111
0.799893 0.564080 0.390356
0.812039 0.570794 0.404547
0.823972 0.578576 0.419654
0.835752 0.587335 0.435676
0.847654 0.596887 0.452155
0.421912 0.516320 0.279484
0.423957 0.517601 0.280766
0.427192 0.519036 0.282506
0.431434 0.520226 0.284489
0.437354 0.521050 0.286381
0.444648 0.521019 0.287755
0.453132 0.520592 0.289006
0.463508 0.520043 0.290623
0.475410 0.519524 0.292638
0.488746 0.519097 0.295079
0.502251 0.518029 0.298253
0.507012 0.508782 0.302373
0.509789 0.497841 0.306218
0.509972 0.485481 0.309972
0.506584 0.471778 0.313725
0.499275 0.456306 0.316716
0.486275 0.438575 0.319707
0.467414 0.419379 0.322240
0.450813 0.407660 0.327611
0.503868 0.444160 0.334295
0.559960 0.478157 0.341863
0.611505 0.505699 0.349920
0.656825 0.527428 0.358862
0.694026 0.543572 0.368688
0.724666 0.555779 0.378820
0.751034 0.565637 0.388922
0.774563 0.574121 0.398932
0.794186 0.581292 0.409613
0.806424 0.587457 0.423194
0.818479 0.594598 0.437690
0.830564 0.602655 0.452735
0.842741 0.611475 0.468299
0.449561 0.542412 0.307164
0.451209 0.543633 0.308659
0.453956 0.544793 0.310277
0.458106 0.545708 0.311894
0.463172 0.546288 0.313420
0.469245 0.546288 0.314702
0.476814 0.546014 0.315984
0.485786 0.545525 0.317357
0.496284 0.545068 0.319188
0.508232 0.544671 0.321660
0.521294 0.544305 0.324407
0.529656 0.539178 0.327367
0.533165 0.529747 0.330388
0.534417 0.518883 0.333227
0.533318 0.506706 0.336065
0.529015 0.493202 0.338598
0.521080 0.478462 0.341039
0.507378 0.461189 0.343328
0.489326 0.443427 0.345495
0.473671 0.432654 0.350774
0.529595 0.471839 0.360235
0.583948 0.505547 0.370550
0.632410 0.532219 0.381109
0.673396 0.553002 0.393164
0.706477 0.568505 0.405432
0.734249 0.580896 0.417609
0.758907 0.591333 0.429419
0.781399 0.600763 0.441108
0.802487 0.609552 0.452705
0.816159 0.616571 0.465949
0.828611 0.623896 0.479713
0.841428 0.631708 0.493568
0.485481 0.573693 0.345006
0.486244 0.574182 0.345617
0.487922 0.574395 0.346227
0.490303 0.574487 0.346777
0.494087 0.574304 0.347478
0.498848 0.573846 0.347845
0.504845 0.573358 0.348821
0.512657 0.572778 0.349859
0.521843 0.572259 0.351293
0.532219 0.571954 0.353613
0.543816 0.571618 0.356176
0.555749 0.570825 0.358862
0.559411 0.562615 0.360784
0.561486 0.553338 0.362737
0.561608 0.542748 0.364446
0.559197 0.530785 0.365911
0.553704 0.517418 0.367132
0.544732 0.502831 0.368383
0.530358 0.485664 0.369451
0.511681 0.467903 0.370001
0.497414 0.458015 0.374060
0.552880 0.496986 0.384741
0.603723 0.528435 0.395789
0.647852 0.552789 0.407050
0.684260 0.571679 0.419928
0.714473 0.586542 0.433021
0.740658 0.599023 0.446082
0.764248 0.609918 0.458808
0.786221 0.619928 0.471290
0.807340 0.629175 0.483131
0.824704 0.637079 0.494972
0.837980 0.644068 0.507500
0.511894 0.594934 0.373693
0.512474 0.595209 0.374212
0.513970 0.595453 0.374731
0.516075 0.595514 0.375219
0.519280 0.595361 0.375860
0.523430 0.595056 0.376379
0.528740 0.594629 0.377264
0.535332 0.594171 0.378210
0.543297 0.593744 0.379706
0.552453 0.593347 0.381628
0.562646 0.593011 0.383917
0.573724 0.592706 0.386633
0.580957 0.588861 0.388434
0.583642 0.581140 0.389532
0.584955 0.572442 0.390784
0.584100 0.562249 0.391608
0.580957 0.550805 0.392401
0.575006 0.538262 0.393011
0.565545 0.524224 0.393286
0.550652 0.507469 0.393622
0.532952 0.491157 0.393835
0.521874 0.483680 0.397345
0.575555 0.521355 0.409552
0.623560 0.551080 0.421973
0.660426 0.570153 0.430304
0.693416 0.587762 0.443702
0.721614 0.602502 0.457771
0.746609 0.615106 0.471412
0.769833 0.626398 0.484688
0.791836 0.636591 0.496956
0.813443 0.646174 0.508690
0.834806 0.655055 0.519524
0.542596 0.616388 0.407904
0.543481 0.616815 0.408759
0.544610 0.616999 0.409308
0.545953 0.616815 0.409400
0.548119 0.616358 0.409216
0.550927 0.615717 0.409155
0.554711 0.614923 0.409003
0.559594 0.614038 0.409094
0.565759 0.613153 0.409400
0.572930 0.612390 0.410437
0.581018 0.611597 0.411536
0.590112 0.610925 0.413397
0.599786 0.610132 0.415412
0.602228 0.603510 0.415320
0.603723 0.595819 0.414954
0.603723 0.587243 0.414618
0.602014 0.577325 0.414221
0.598108 0.566369 0.414008
0.591638 0.554223 0.413855
0.581994 0.540948 0.413703
0.566949 0.524834 0.413642
0.549828 0.509636 0.413581
0.542260 0.504814 0.416846
0.593439 0.540490 0.429786
0.637659 0.567773 0.442451
0.672938 0.587823 0.455055
0.702937 0.604334 0.468727
0.729488 0.618524 0.482673
0.753811 0.630854 0.495796
0.776822 0.641962 0.508415
0.799161 0.652277 0.520287
0.821378 0.661952 0.531640
0.564508 0.630823 0.432929
0.565362 0.631189 0.433783
0.566400 0.631403 0.434302
0.567834 0.631373 0.434852
0.569909 0.631189 0.435035
0.572625 0.630884 0.435431
0.576318 0.630488 0.435828
0.580987 0.630121 0.436622
0.586572 0.629755 0.437537
0.593103 0.629389 0.438911
0.600366 0.628931 0.440528
0.608392 0.628504 0.442451
0.616968 0.628016 0.444404
0.622400 0.624933 0.445136
0.624048 0.618708 0.444526
0.624598 0.611536 0.443488
0.624109 0.603632 0.442512
0.622004 0.594659 0.441382
0.618067 0.584863 0.440650
0.611627 0.573846 0.439765
0.601617 0.561028 0.438911
0.586725 0.545800 0.437934
0.570245 0.531701 0.437263
0.565972 0.529320 0.440650
0.615015 0.563226 0.454871
0.654505 0.588067 0.468818
0.686152 0.606531 0.481941
0.713985 0.622004 0.495430
0.739803 0.635981 0.509148
0.763943 0.648280 0.522087
0.787228 0.659541 0.534295
0.810178 0.669947 0.545800
0.589502 0.646082 0.461799
0.589868 0.646296 0.462318
0.590600 0.646326 0.462501
0.591730 0.646235 0.462745
0.593378 0.646052 0.462959
0.595544 0.645777 0.463111
0.598505 0.645441 0.463508
0.602228 0.645045 0.463935
0.606806 0.644678 0.464790
0.612238 0.644282 0.465858
0.618372 0.643946 0.467170
0.625116 0.643549 0.468879
0.632380 0.643153 0.470619
0.640131 0.642664 0.472480
0.641718 0.637476 0.471534
0.642542 0.631525 0.470344
0.642573 0.624903 0.469062
0.641444 0.617578 0.467628
0.639185 0.609552 0.466499
0.635126 0.600671 0.465217
0.628809 0.590753 0.463905
0.618952 0.578820 0.462287
0.604639 0.564721 0.460426
0.588922 0.551507 0.459358
0.588006 0.551629 0.463142
0.632929 0.582727 0.477943
0.668635 0.605219 0.492012
0.697749 0.622095 0.504387
0.724269 0.636744 0.517082
0.749722 0.650629 0.530663
0.774105 0.663050 0.543481
0.798093 0.674617 0.555688
0.610986 0.659541 0.487068
0.611353 0.659663 0.487312
0.611963 0.659724 0.487739
0.613001 0.659724 0.487984
0.614588 0.659693 0.488472
0.616846 0.659724 0.489052
0.620081 0.659876 0.490272
0.624109 0.660121 0.491768
0.628840 0.660426 0.493751
0.634363 0.660822 0.495918
0.640467 0.661219 0.498360
0.646967 0.661616 0.500938
0.653864 0.661860 0.503532
0.660883 0.661952 0.505943
0.665492 0.659998 0.507012
0.666499 0.655268 0.506218
0.666773 0.649866 0.504997
0.666285 0.643977 0.503777
0.664881 0.637476 0.502495
0.662287 0.630426 0.501152
0.658167 0.622614 0.499733
0.652094 0.613855 0.497902
0.642573 0.603174 0.495735
0.629603 0.590845 0.493111
0.615808 0.579767 0.491615
0.617914 0.582055 0.496010
0.657282 0.608942 0.510704
0.688808 0.628626 0.523735
0.715755 0.643977 0.535119
0.740871 0.657465 0.546654
0.766445 0.671168 0.559808
0.791501 0.683772 0.572351
0.637964 0.677119 0.518608
0.638025 0.677119 0.518608
0.638331 0.677028 0.518608
0.639002 0.676967 0.518639
0.640101 0.676783 0.518730
0.641657 0.676631 0.518853
0.643793 0.676509 0.519341
0.646540 0.676356 0.519860
0.649897 0.676265 0.520714
0.653956 0.676204 0.521721
0.658473 0.676143 0.523033
0.663508 0.676112 0.524376
0.669093 0.676020 0.525933
0.674861 0.675868 0.527581
