20 Preset/Wedding Style/【3】LUT for PR-AE-FCPX/Film Wedding - LUT (8).cube
# Created by Adobe Lightroom plugin Export LUT (1.24.0)
# www.johnrellis.com/lightroom/exportlut.htm
# Preset: 08婚礼纪实_黑白-素材江湖
# Color profile: C:\Program Files (x86)\Common Files\Adobe\Color\Profiles\Recommended\VideoHD.icc
LUT_3D_SIZE 5
DOMAIN_MIN 0.000000 0.000000 0.000000
DOMAIN_MAX 0.903226 0.903226 0.903226
0.115389 0.115389 0.115389
0.134127 0.134127 0.134127
0.221225 0.221225 0.221225
0.363836 0.363836 0.363836
0.496101 0.496101 0.496101
0.176333 0.176333 0.176333
0.197116 0.197116 0.197116
0.288518 0.288518 0.288518
0.396857 0.396857 0.396857
0.516106 0.516106 0.516106
0.381811 0.381811 0.381811
0.391333 0.391333 0.391333
0.420203 0.420203 0.420203
0.491371 0.491371 0.491371
0.604089 0.604089 0.604089
0.564111 0.564111 0.564111
0.568750 0.568750 0.568750
0.588098 0.588098 0.588098
0.629541 0.629541 0.629541
0.727260 0.727260 0.727260
0.786862 0.786862 0.786862
0.789181 0.789181 0.789181
0.802487 0.802487 0.802487
0.819120 0.819120 0.819120
0.844175 0.844175 0.844175
0.129152 0.129152 0.129152
0.136843 0.136843 0.136843
0.250584 0.250584 0.250584
0.386419 0.386419 0.386419
0.512444 0.512444 0.512444
0.176211 0.176211 0.176211
0.212558 0.212558 0.212558
0.308293 0.308293 0.308293
0.412696 0.412696 0.412696
0.532860 0.532860 0.532860
0.390906 0.390906 0.390906
0.401770 0.401770 0.401770
0.431342 0.431342 0.431342
0.501610 0.501610 0.501610
0.611292 0.611292 0.611292
0.569848 0.569848 0.569848
0.574029 0.574029 0.574029
0.592920 0.592920 0.592920
0.633722 0.633722 0.633722
0.730312 0.730312 0.730312
0.788479 0.788479 0.788479
0.790951 0.790951 0.790951
0.800351 0.800351 0.800351
0.818051 0.818051 0.818051
0.843168 0.843168 0.843168
0.166598 0.166598 0.166598
0.174899 0.174899 0.174899
0.249973 0.249973 0.249973
0.398657 0.398657 0.398657
0.526970 0.526970 0.526970
0.245396 0.245396 0.245396
0.258976 0.258976 0.258976
0.313054 0.313054 0.313054
0.426215 0.426215 0.426215
0.547082 0.547082 0.547082
0.376287 0.376287 0.376287
0.392340 0.392340 0.392340
0.446326 0.446326 0.446326
0.513573 0.513573 0.513573
0.623621 0.623621 0.623621
0.572351 0.572351 0.572351
0.581872 0.581872 0.581872
0.610346 0.610346 0.610346
0.645991 0.645991 0.645991
0.739803 0.739803 0.739803
0.791196 0.791196 0.791196
0.794644 0.794644 0.794644
0.806210 0.806210 0.806210
0.823270 0.823270 0.823270
0.847959 0.847959 0.847959
0.250340 0.250340 0.250340
0.264866 0.264866 0.264866
0.317082 0.317082 0.317082
0.396063 0.396063 0.396063
0.545892 0.545892 0.545892
0.321752 0.321752 0.321752
0.330999 0.330999 0.330999
0.365270 0.365270 0.365270
0.427527 0.427527 0.427527
0.568383 0.568383 0.568383
0.451484 0.451484 0.451484
0.460060 0.460060 0.460060
0.479194 0.479194 0.479194
0.516625 0.516625 0.516625
0.637507 0.637507 0.637507
0.554742 0.554742 0.554742
0.564477 0.564477 0.564477
0.600427 0.600427 0.600427
0.667597 0.667597 0.667597
0.746975 0.746975 0.746975
0.786740 0.786740 0.786740
0.790219 0.790219 0.790219
0.803922 0.803922 0.803922
0.829496 0.829496 0.829496
0.854032 0.854032 0.854032
0.392004 0.392004 0.392004
0.393378 0.393378 0.393378
0.417914 0.417914 0.417914
0.466560 0.466560 0.466560
0.551263 0.551263 0.551263
0.414099 0.414099 0.414099
0.419989 0.419989 0.419989
0.444160 0.444160 0.444160
0.487434 0.487434 0.487434
0.568109 0.568109 0.568109
0.510124 0.510124 0.510124
0.513542 0.513542 0.513542
0.531090 0.531090 0.531090
0.565881 0.565881 0.565881
0.634852 0.634852 0.634852
0.611933 0.611933 0.611933
0.623194 0.623194 0.623194
0.672114 0.672114 0.672114
0.694423 0.694423 0.694423
0.748440 0.748440 0.748440
0.761807 0.761807 0.761807
0.765316 0.765316 0.765316
0.782040 0.782040 0.782040
0.812436 0.812436 0.812436
0.858152 0.858152 0.858152
