20 Preset/Retro Portrait/【3】LUT video cho PR-AE-FCPX/Retro LUT (1).cube
# Created by Adobe Lightroom plugin Export LUT (1.24.0)
# www.johnrellis.com/lightroom/exportlut.htm
# Preset: 法式胶片-素材江湖01
# Color profile: C:\Program Files (x86)\Common Files\Adobe\Color\Profiles\Recommended\VideoHD.icc
LUT_3D_SIZE 8
DOMAIN_MIN 0.000000 0.000000 0.000000
DOMAIN_MAX 0.903226 0.903226 0.903226
0.126833 0.123110 0.098848
0.130831 0.123964 0.099672
0.166537 0.130159 0.101686
0.273350 0.142550 0.100893
0.456092 0.169223 0.097658
0.675776 0.238590 0.130648
0.796658 0.328344 0.216831
0.880858 0.431617 0.333043
0.128756 0.126589 0.100343
0.131624 0.127810 0.101137
0.163973 0.135439 0.102541
0.259739 0.150149 0.102358
0.438483 0.180575 0.099733
0.638453 0.237949 0.124147
0.770321 0.317815 0.199069
0.866270 0.420661 0.315587
0.139132 0.151156 0.108644
0.148135 0.151583 0.111482
0.168154 0.159243 0.115755
0.279698 0.195193 0.104860
0.469551 0.244938 0.110689
0.651850 0.304906 0.154391
0.786435 0.387121 0.250950
0.873716 0.477455 0.367987
0.168399 0.237522 0.134493
0.191226 0.238041 0.143252
0.242771 0.245914 0.166629
0.323033 0.292912 0.190738
0.533135 0.374456 0.191348
0.678859 0.417365 0.224369
0.784695 0.470863 0.314336
0.864927 0.536828 0.417243
0.269047 0.400732 0.225742
0.295781 0.400763 0.237247
0.364294 0.402869 0.268101
0.432532 0.417823 0.312596
0.503380 0.453742 0.332403
0.654444 0.510826 0.344671
0.768521 0.546838 0.368750
0.851926 0.599756 0.469490
0.419196 0.551537 0.370733
0.444739 0.558740 0.388556
0.498146 0.559045 0.417639
0.552605 0.559442 0.449958
0.596155 0.573877 0.478553
0.645533 0.597925 0.499275
0.753201 0.643366 0.526940
0.850309 0.679255 0.559777
0.572808 0.673335 0.530114
0.583581 0.674525 0.536889
0.615808 0.673579 0.555596
0.651362 0.672602 0.573022
0.684382 0.671748 0.596002
0.717342 0.688136 0.612360
0.753872 0.704402 0.629419
0.835416 0.737911 0.654963
0.710597 0.774411 0.667628
0.715450 0.774258 0.670314
0.736141 0.774655 0.682582
0.765042 0.776303 0.698787
0.778958 0.766445 0.700618
0.808194 0.772671 0.725582
0.841093 0.790921 0.740352
0.872160 0.803220 0.755276
0.126680 0.123629 0.100221
0.129610 0.123537 0.100862
0.154818 0.129091 0.104463
0.238437 0.139712 0.108400
0.411749 0.163516 0.112001
0.613733 0.218479 0.135866
0.752499 0.299535 0.199741
0.853178 0.401801 0.305211
0.126680 0.126802 0.101442
0.130678 0.127626 0.102266
0.156619 0.134249 0.105806
0.239872 0.147494 0.109377
0.411475 0.176150 0.113710
0.604395 0.229252 0.136782
0.740932 0.302312 0.196414
0.843351 0.398627 0.297032
0.134737 0.150149 0.108980
0.143557 0.151461 0.111666
0.165011 0.158053 0.117617
0.262547 0.187320 0.113008
0.430396 0.229282 0.121584
0.610864 0.285039 0.155550
0.746944 0.355840 0.227481
0.848478 0.447272 0.336980
0.150607 0.227115 0.129549
0.173617 0.228611 0.137148
0.229313 0.235325 0.160647
0.288640 0.265446 0.176455
0.472938 0.332128 0.170565
0.627741 0.378088 0.198276
0.747066 0.433387 0.276829
0.841184 0.505638 0.381231
0.244114 0.390997 0.215702
0.270878 0.389624 0.225345
0.346258 0.389929 0.257847
0.409735 0.397253 0.296605
0.474830 0.428473 0.310552
0.631556 0.488319 0.321843
0.750179 0.527916 0.349615
0.838041 0.582757 0.449683
0.392187 0.538506 0.352178
0.411353 0.539147 0.361944
0.473640 0.540978 0.396246
0.533898 0.543755 0.431220
0.581720 0.560021 0.464027
0.635340 0.588373 0.489540
0.744533 0.634485 0.516747
0.841459 0.669612 0.547875
0.552209 0.662654 0.513115
0.559716 0.660975 0.516106
0.593744 0.659846 0.535271
0.635126 0.660334 0.557061
0.673610 0.662684 0.584680
0.707271 0.679164 0.602228
0.742306 0.693965 0.617060
0.823728 0.727047 0.641047
0.695857 0.767056 0.655451
0.702846 0.768185 0.660060
0.723873 0.768307 0.672236
0.755184 0.770199 0.690211
0.785122 0.771878 0.707637
0.809934 0.774166 0.728084
0.838926 0.789395 0.738705
0.869688 0.801480 0.753262
0.125521 0.127596 0.106905
0.126772 0.125856 0.108186
0.149325 0.126802 0.111940
0.233188 0.132204 0.126162
0.392859 0.158541 0.146395
0.601953 0.228824 0.192630
0.747433 0.324407 0.262425
0.848966 0.430701 0.361151
0.125948 0.131563 0.109224
0.129915 0.130343 0.110292
0.152224 0.132479 0.114046
0.231052 0.141634 0.126925
0.391424 0.172580 0.148775
0.591577 0.237369 0.191501
0.737118 0.325048 0.256962
0.841550 0.428199 0.354467
0.127657 0.153231 0.119234
0.133547 0.154879 0.120516
0.169467 0.166537 0.130251
0.254398 0.185519 0.139864
0.425818 0.231479 0.166293
0.605707 0.294469 0.211582
0.740139 0.372320 0.281346
0.840421 0.463569 0.378607
0.119631 0.234226 0.148836
0.137423 0.238712 0.150973
0.218845 0.255589 0.171786
0.298558 0.280705 0.202640
0.474922 0.336522 0.201541
0.626123 0.387701 0.253605
0.745022 0.449928 0.329168
0.837888 0.522545 0.422644
0.182895 0.394476 0.223636
0.209384 0.395819 0.227085
0.318029 0.403021 0.263828
0.417884 0.411109 0.317998
0.483650 0.443153 0.339544
0.632685 0.495979 0.348882
0.744594 0.534081 0.385687
0.833616 0.590173 0.476020
0.340429 0.541100 0.343755
0.363043 0.542351 0.352911
0.442969 0.543847 0.390173
0.525322 0.546258 0.434974
0.576165 0.557244 0.470710
0.629786 0.586694 0.495064
0.740993 0.633906 0.522637
0.839536 0.671015 0.556542
0.530816 0.668055 0.510796
0.539727 0.666621 0.514336
0.577111 0.663996 0.532280
0.630060 0.663569 0.560937
0.671504 0.664607 0.586664
0.706569 0.680110 0.607996
0.744991 0.698360 0.625910
0.829648 0.733547 0.652186
0.680690 0.768765 0.650416
0.685420 0.768002 0.652430
0.708278 0.767788 0.664759
0.749844 0.771298 0.690517
0.781979 0.772641 0.707729
0.811002 0.776333 0.730312
0.840879 0.791623 0.743343
0.871977 0.803922 0.757931
0.115419 0.136660 0.128298
0.115908 0.135134 0.130587
0.148989 0.125856 0.136110
0.212558 0.129030 0.149050
0.387030 0.126955 0.196201
0.577295 0.187686 0.237339
0.707454 0.324193 0.311437
0.818448 0.435279 0.400488
0.114870 0.140719 0.133791
0.119722 0.137728 0.135103
0.149935 0.132235 0.140230
0.219669 0.136782 0.154726
0.394720 0.146944 0.201389
0.576654 0.209781 0.241794
0.706294 0.335454 0.316106
0.817472 0.441718 0.403571
0.106142 0.171847 0.147097
0.114351 0.172519 0.148409
0.153719 0.169100 0.157076
0.241978 0.176089 0.174563
0.412573 0.218967 0.220157
0.583795 0.299565 0.276951
0.725063 0.399084 0.357214
0.827024 0.487282 0.438178
0.019959 0.243626 0.185824
0.075654 0.246433 0.188357
0.165194 0.262119 0.203281
0.315831 0.309331 0.251469
0.451423 0.335943 0.271122
0.598474 0.388373 0.316686
0.722744 0.456306 0.383001
0.822507 0.531823 0.464088
0.000000 0.406409 0.282597
0.062104 0.406897 0.282780
0.239384 0.416022 0.291875
0.406653 0.441596 0.342443
0.494667 0.464729 0.384588
0.630732 0.503563 0.388373
0.735622 0.545953 0.443000
0.825986 0.599573 0.513939
0.299992 0.554955 0.386053
0.327855 0.560998 0.395300
0.394202 0.562249 0.406897
0.510277 0.569146 0.454902
0.586908 0.573297 0.502678
0.632929 0.596948 0.519738
0.742153 0.639307 0.540917
0.837369 0.673732 0.573754
0.491920 0.672816 0.514458
0.502159 0.673487 0.517998
0.538750 0.674617 0.530114
0.613703 0.676051 0.567102
0.674861 0.677119 0.600793
0.710231 0.686305 0.623682
0.746853 0.703365 0.638025
0.834165 0.738521 0.662928
0.654383 0.776547 0.648371
0.659266 0.776394 0.649958
0.683162 0.775998 0.660456
0.731014 0.776181 0.685664
0.777310 0.777005 0.710933
0.810910 0.779629 0.732967
0.841794 0.793729 0.749538
0.875792 0.808042 0.766079
0.000000 0.165774 0.191897
0.000000 0.162448 0.195621
0.117617 0.124666 0.205203
0.230137 0.118013 0.212985
0.351202 0.116243 0.242496
0.573938 0.152743 0.321569
0.713436 0.283024 0.366217
0.810910 0.424079 0.441596
0.000000 0.165225 0.201022
0.000000 0.159640 0.203861
0.109133 0.131685 0.208896
0.230655 0.127413 0.217807
0.358892 0.132174 0.249271
0.574731 0.180545 0.325170
0.711604 0.300755 0.370794
0.808591 0.434150 0.446052
0.000000 0.210422 0.215640
0.000000 0.206851 0.216098
0.106752 0.187655 0.221805
0.232456 0.172457 0.237980
0.379126 0.195773 0.271153
0.564935 0.257908 0.331701
0.700038 0.355718 0.384436
0.796475 0.465919 0.458778
0.000000 0.283574 0.254887
0.000000 0.284794 0.256748
0.064332 0.292638 0.268009
0.265110 0.299748 0.298528
0.430060 0.320073 0.331914
0.578943 0.378119 0.376257
0.695796 0.450080 0.428840
0.794095 0.532921 0.500877
0.000000 0.403784 0.330236
0.000000 0.406104 0.333013
0.131228 0.414191 0.343664
0.321843 0.435767 0.371252
0.493843 0.478920 0.425666
0.598901 0.495430 0.438666
0.706081 0.537926 0.480446
0.805722 0.591272 0.536339
0.048066 0.535180 0.416785
0.136873 0.536858 0.419318
0.254154 0.540032 0.426307
0.398383 0.548455 0.439094
0.547112 0.568383 0.488655
0.620539 0.593469 0.531029
0.731319 0.630396 0.546899
0.823423 0.667140 0.592126
0.403937 0.670619 0.527153
0.414191 0.669490 0.526818
0.458534 0.667994 0.530053
0.538811 0.671717 0.548119
0.640131 0.678004 0.591058
0.700710 0.681331 0.628168
0.737972 0.699550 0.641169
0.829526 0.732967 0.661189
0.582727 0.771389 0.633173
0.589441 0.771084 0.634546
0.617548 0.770291 0.641382
0.671901 0.774350 0.662074
0.743557 0.775875 0.696651
0.798642 0.778256 0.727291
0.832242 0.788540 0.748501
0.867338 0.803464 0.763577
0.000000 0.230716 0.322789
0.000000 0.224338 0.326482
0.000000 0.156985 0.336156
0.205081 0.108064 0.340917
0.381964 0.048646 0.352331
0.545830 0.112428 0.396551
0.721675 0.261906 0.461952
0.820279 0.418799 0.510277
0.000000 0.218418 0.322637
0.000000 0.206363 0.324681
0.000000 0.160769 0.327459
0.194675 0.121340 0.333837
0.378241 0.098909 0.350225
0.536889 0.140749 0.390326
0.712886 0.272557 0.457221
0.813748 0.420935 0.506706
0.000000 0.262272 0.336187
0.000000 0.255833 0.335058
0.000000 0.226505 0.339239
0.162264 0.174899 0.349523
0.388037 0.185397 0.372351
0.548699 0.234073 0.409674
0.710140 0.346227 0.472572
0.807614 0.465095 0.521874
0.000000 0.353185 0.373938
0.000000 0.352575 0.374212
0.000000 0.349096 0.381170
0.208957 0.331365 0.404730
0.418189 0.327581 0.431617
0.581109 0.371923 0.461402
0.711269 0.456733 0.509514
0.804623 0.537224 0.555505
0.000000 0.447974 0.424567
0.000000 0.448219 0.425330
0.000000 0.451118 0.430396
0.260624 0.462440 0.446052
0.446784 0.470863 0.475654
0.591333 0.489631 0.501457
0.699641 0.538170 0.534173
0.793515 0.591333 0.575616
0.000000 0.555169 0.486152
0.000000 0.558221 0.490028
0.155001 0.559899 0.494270
0.342535 0.565637 0.505119
0.490364 0.579156 0.526665
0.630732 0.614771 0.572961
0.719448 0.631586 0.588037
0.812772 0.665492 0.623285
0.292638 0.672389 0.570031
0.313970 0.673945 0.572747
0.375036 0.675410 0.577569
0.463844 0.679377 0.588220
0.571557 0.685267 0.601038
0.687831 0.695918 0.636500
0.740475 0.707942 0.661830
0.836027 0.736751 0.676753
0.489082 0.776425 0.654200
0.496162 0.775540 0.653651
0.530541 0.774350 0.655268
0.593164 0.775021 0.663081
0.671809 0.776333 0.678401
0.766629 0.780392 0.717403
0.824643 0.785580 0.753475
0.862760 0.802731 0.768124
0.000000 0.307286 0.476478
0.000000 0.308598 0.479774
0.000000 0.252354 0.487678
0.000000 0.107881 0.501427
0.356329 0.000000 0.504570
0.553826 0.000000 0.514000
0.698512 0.186191 0.535210
0.812192 0.370794 0.567712
0.000000 0.303868 0.471229
0.000000 0.294347 0.476204
0.000000 0.236393 0.484016
0.000000 0.119966 0.490242
0.344366 0.020935 0.493874
0.541741 0.000000 0.502892
0.684962 0.195926 0.523919
0.800992 0.364904 0.557549
0.000000 0.319310 0.486030
0.000000 0.311711 0.485695
0.000000 0.276860 0.487617
0.000000 0.180026 0.495369
0.328283 0.169131 0.500481
0.545312 0.196017 0.512932
0.689540 0.287816 0.537987
0.802945 0.429175 0.576196
0.000000 0.411078 0.511498
0.000000 0.405554 0.509606
0.000000 0.385962 0.506279
0.000000 0.347631 0.512810
0.318853 0.305699 0.525292
0.559716 0.339330 0.540185
0.694484 0.408270 0.562799
0.800320 0.509453 0.600214
0.000000 0.497017 0.533776
0.000000 0.494575 0.531395
0.000000 0.490700 0.529259
0.000000 0.487709 0.531640
0.369177 0.465126 0.544366
0.552239 0.463600 0.560998
0.688350 0.508171 0.581994
0.797635 0.582300 0.624323
0.000000 0.587182 0.569665
0.000000 0.587366 0.570123
0.000000 0.587060 0.571283
0.188571 0.588190 0.575158
0.423133 0.593378 0.583825
0.584619 0.601343 0.607630
0.708034 0.619318 0.629969
0.802731 0.657771 0.657954
0.000000 0.681910 0.620325
0.000000 0.682612 0.621668
0.211795 0.681880 0.623011
0.373754 0.682002 0.627375
0.503899 0.683711 0.635065
0.623957 0.692317 0.651698
0.740108 0.716091 0.686030
0.823636 0.729946 0.700069
0.363867 0.770871 0.680232
0.377630 0.771298 0.681453
0.431983 0.774105 0.687739
0.507897 0.776120 0.695430
0.594110 0.779355 0.706477
0.691951 0.784176 0.718868
0.804440 0.792477 0.751888
0.860380 0.805142 0.779660
0.000000 0.384405 0.622370
0.000000 0.385168 0.623896
0.000000 0.362921 0.625330
0.000000 0.238529 0.636500
0.196811 0.000000 0.645563
0.521172 0.000000 0.645899
0.703609 0.048737 0.650629
0.823575 0.307256 0.655360
0.000000 0.382544 0.619043
0.000000 0.383520 0.620691
0.000000 0.355566 0.623865
0.000000 0.228855 0.634272
0.177829 0.000000 0.640894
0.514611 0.000000 0.641810
0.697444 0.117433 0.645594
0.817014 0.311498 0.650294
0.000000 0.386328 0.625910
0.000000 0.383093 0.626795
0.000000 0.336675 0.630152
0.000000 0.239322 0.638941
0.000000 0.133974 0.640375
0.501335 0.138094 0.640711
0.691859 0.236973 0.645563
0.810178 0.366949 0.651820
0.000000 0.445441 0.633906
0.000000 0.440253 0.633936
0.000000 0.416022 0.630701
0.000000 0.363653 0.634974
0.000000 0.267979 0.643397
0.486336 0.300755 0.646052
0.687495 0.363958 0.652064
0.803311 0.453254 0.660883
0.000000 0.539483 0.643793
0.000000 0.538201 0.644007
0.000000 0.523308 0.641230
0.000000 0.497597 0.639155
0.122408 0.460517 0.641688
0.462867 0.431250 0.650416
0.677974 0.473945 0.658350
0.795193 0.537499 0.672847
0.000000 0.615808 0.662776
0.000000 0.613947 0.661311
0.000000 0.608240 0.657435
0.000000 0.601404 0.653925
0.000000 0.597223 0.652552
0.499702 0.582574 0.664393
0.674495 0.590875 0.682887
0.800931 0.633417 0.702724
0.000000 0.703151 0.692012
0.000000 0.702296 0.691402
0.000000 0.699184 0.689479
0.000000 0.695735 0.688289
0.321660 0.692683 0.688380
0.529442 0.693996 0.693538
0.688441 0.698512 0.713527
0.815335 0.718410 0.739498
0.000000 0.788357 0.735561
0.000000 0.787808 0.735378
0.000000 0.787045 0.736660
0.345922 0.787472 0.741360
0.499306 0.786740 0.746456
0.623072 0.786038 0.752865
0.736843 0.790707 0.766659
0.854307 0.807767 0.796994
