20 Preset/Retro Portrait/【3】LUT video cho PR-AE-FCPX/Retro LUT (8).cube
# Created by Adobe Lightroom plugin Export LUT (1.24.0)
# www.johnrellis.com/lightroom/exportlut.htm
# Preset: 法式胶片-素材江湖08
# Color profile: C:\Program Files (x86)\Common Files\Adobe\Color\Profiles\Recommended\VideoHD.icc
LUT_3D_SIZE 32
DOMAIN_MIN 0.0 0.0 0.0
DOMAIN_MAX 1.0 1.0 1.0
0.000000 0.000000 0.000000
0.001984 0.000000 0.000000
0.004944 0.000519 0.000946
0.012177 0.000824 0.000763
0.022675 0.001892 0.000427
0.040131 0.003265 0.001038
0.063508 0.003967 0.001617
0.086763 0.006409 0.000732
0.100069 0.007965 0.000946
0.114260 0.008148 0.001099
0.130129 0.008759 0.000916
0.149172 0.007202 0.001556
0.171481 0.002380 0.001892
0.196170 0.000000 0.001892
0.223362 0.000000 0.001190
0.252415 0.000000 0.001190
0.283574 0.000000 0.001709
0.316167 0.000000 0.000092
0.350835 0.000000 0.000000
0.387304 0.000000 0.000000
0.424628 0.000000 0.000000
0.475105 0.000000 0.000000
0.522057 0.000000 0.000000
0.566552 0.000000 0.000000
0.608301 0.000000 0.000000
0.647211 0.000000 0.000000
0.683528 0.000000 0.000000
0.717983 0.000000 0.000000
0.750637 0.000000 0.000000
0.782071 0.000000 0.011688
0.811978 0.000000 0.038911
0.840024 0.000000 0.080018
0.001282 0.000977 0.000000
0.000977 0.000977 0.000977
0.004242 0.001740 0.000824
0.011475 0.002045 0.000641
0.023957 0.002869 0.000275
0.039399 0.004486 0.000885
0.060822 0.005402 0.001465
0.085481 0.006622 0.000732
0.099428 0.008179 0.000946
0.112978 0.009796 0.000977
0.128298 0.009644 0.000946
0.146944 0.008545 0.001617
0.168704 0.004395 0.001984
0.193149 0.000000 0.000855
0.220005 0.000000 0.001465
0.248722 0.000000 0.001526
0.279698 0.000000 0.000946
0.312078 0.000000 0.000671
0.346380 0.000000 0.000488
0.382208 0.000000 0.000000
0.419104 0.000000 0.000000
0.467659 0.000000 0.000000
0.512810 0.000000 0.000000
0.555840 0.000000 0.000000
0.596796 0.000000 0.000000
0.635737 0.000000 0.000000
0.672541 0.000000 0.000000
0.707668 0.000000 0.000000
0.741360 0.000000 0.000000
0.773831 0.000000 0.007385
0.804715 0.000000 0.030182
0.833799 0.000000 0.069032
0.003540 0.002930 0.000671
0.003540 0.002930 0.000671
0.005524 0.002716 0.000641
0.012055 0.004211 0.000305
0.024231 0.005066 0.001099
0.041962 0.006439 0.000549
0.061402 0.007568 0.001160
0.085206 0.010010 0.001404
0.098604 0.011780 0.001648
0.112490 0.012207 0.001831
0.127901 0.012055 0.001770
0.146273 0.011170 0.001312
0.167544 0.007446 0.001709
0.191348 0.000031 0.001740
0.218143 0.000000 0.001251
0.246586 0.000000 0.001312
0.277256 0.000000 0.000763
0.309453 0.000000 0.000519
0.343603 0.000000 0.000244
0.379431 0.000000 0.000000
0.416938 0.000000 0.000000
0.464302 0.000000 0.000000
0.508598 0.000000 0.000000
0.550774 0.000000 0.000000
0.591119 0.000000 0.000000
0.629725 0.000000 0.000000
0.666835 0.000000 0.000000
0.702388 0.000000 0.000000
0.736355 0.000000 0.000000
0.769314 0.000000 0.005310
0.800626 0.000000 0.027710
0.830045 0.000000 0.063752
0.009613 0.007843 0.001007
0.010895 0.008820 0.000855
0.010895 0.008820 0.000855
0.012573 0.008576 0.001984
0.024353 0.010620 0.001465
0.041382 0.013214 0.000793
0.064759 0.013916 0.001373
0.085298 0.015595 0.001770
0.100038 0.016907 0.000855
0.113161 0.017548 0.001038
0.127840 0.018830 0.000855
0.145785 0.018158 0.001556
0.167117 0.014435 0.001923
0.190799 0.007263 0.000855
0.216739 0.000000 0.001526
0.244846 0.000000 0.001617
0.274601 0.000000 0.001282
0.306188 0.000000 0.000946
0.339513 0.000000 0.000000
0.374395 0.000000 0.000000
0.412696 0.000000 0.000000
0.457343 0.000000 0.000000
0.499947 0.000000 0.000000
0.541772 0.000000 0.000000
0.582818 0.000000 0.000000
0.623041 0.000000 0.000000
0.661891 0.000000 0.000000
0.698787 0.000000 0.000000
0.733822 0.000000 0.000000
0.767117 0.000000 0.003662
0.798306 0.000000 0.025269
0.827329 0.000000 0.060548
0.019226 0.015656 0.002014
0.021210 0.015442 0.002014
0.022889 0.015198 0.003113
0.022889 0.015198 0.003113
0.023865 0.016175 0.004089
0.040192 0.019959 0.003265
0.064759 0.022858 0.001282
0.087770 0.024079 0.001678
0.100038 0.025849 0.000763
0.112947 0.027710 0.000793
0.127840 0.027771 0.000763
0.145785 0.027100 0.001465
0.166415 0.025055 0.000580
0.189853 0.018067 0.001770
0.215793 0.007477 0.001312
0.243595 0.000000 0.001282
0.273411 0.000000 0.000641
0.304967 0.000000 0.000183
0.338323 0.000000 0.000000
0.373114 0.000000 0.000000
0.412665 0.000000 0.000000
0.455787 0.000000 0.000000
0.497261 0.000000 0.000000
0.538750 0.000000 0.000000
0.579706 0.000000 0.000000
0.620172 0.000000 0.000000
0.659174 0.000000 0.000000
0.696254 0.000000 0.000000
0.731106 0.000000 0.000000
0.764309 0.000000 0.002594
0.795468 0.000000 0.024384
0.824399 0.000000 0.057771
0.032349 0.026429 0.003662
0.031647 0.027619 0.003540
0.033326 0.027405 0.004639
0.035309 0.027192 0.004639
0.039002 0.026734 0.005768
0.041962 0.027466 0.006744
0.062806 0.032990 0.005585
0.087312 0.036408 0.003388
0.101564 0.038727 0.001190
0.114778 0.040345 0.001221
0.129519 0.042603 0.000885
0.147555 0.041718 0.001556
0.168490 0.039216 0.001770
0.192050 0.032990 0.001678
0.217685 0.024567 0.000916
0.245518 0.011383 0.000702
0.275547 0.000000 0.000885
0.307256 0.000000 0.000061
0.340429 0.000000 0.000000
0.375158 0.000000 0.000000
0.416815 0.000000 0.000000
0.458839 0.000000 0.000000
0.551812 0.000000 0.000000
0.595666 0.000000 0.000000
0.636561 0.000000 0.000000
0.674220 0.000000 0.000000
0.708675 0.000000 0.000000
0.740688 0.000000 0.000000
0.770901 0.000000 0.007843
0.799069 0.000000 0.030426
0.825254 0.000000 0.064515
0.849485 0.000000 0.095796
0.050843 0.045472 0.007507
0.050843 0.045472 0.007507
0.054810 0.045014 0.007477
0.059754 0.045533 0.008453
0.060182 0.044343 0.009735
0.063844 0.043885 0.010834
0.066773 0.046815 0.013764
0.090242 0.054383 0.010986
0.104494 0.059846 0.007172
0.120089 0.062562 0.004578
0.138277 0.065949 0.002564
0.157992 0.064240 0.001862
0.180056 0.060731 0.001862
0.204105 0.056855 0.001068
0.230167 0.048157 0.001038
0.257877 0.036133 0.000305
0.287877 0.019776 0.000000
0.319402 0.000000 0.000000
0.353033 0.000000 0.000000
0.392340 0.000000 0.000000
0.438941 0.000000 0.000000
0.486061 0.000000 0.000000
0.533135 0.000000 0.000000
0.579736 0.000000 0.000000
0.623987 0.000000 0.000000
0.663691 0.000000 0.000000
0.699458 0.000000 0.000000
0.731930 0.000000 0.000000
0.762478 0.000000 0.003693
0.790921 0.000000 0.024964
0.817533 0.000000 0.056703
0.842252 0.000000 0.092103
0.070863 0.067659 0.011994
0.072847 0.067445 0.011994
0.076814 0.066987 0.011963
0.081697 0.067292 0.012909
0.083192 0.065858 0.014191
0.084077 0.065644 0.016449
0.086213 0.065187 0.018708
0.089631 0.069856 0.022431
0.103944 0.079866 0.020142
0.119753 0.083711 0.014801
0.138827 0.086336 0.010376
0.160769 0.087190 0.006744
0.183169 0.087434 0.003845
0.206424 0.085908 0.001770
0.231632 0.082216 0.000336
0.258793 0.076387 0.000000
0.288090 0.063081 0.000000
0.319310 0.045747 0.000000
0.352728 0.022126 0.000000
0.394934 0.000000 0.000000
0.438514 0.000000 0.000000
0.483162 0.000000 0.000000
0.528161 0.000000 0.000000
0.573327 0.000000 0.000000
0.616846 0.000000 0.000000
0.656428 0.000000 0.000000
0.692317 0.000000 0.000000
0.725124 0.000000 0.000000
0.755978 0.000000 0.000092
0.784787 0.000000 0.020905
0.811826 0.000000 0.052613
0.836912 0.069947 0.090089
0.090425 0.089479 0.018616
0.091157 0.089387 0.018616
0.092256 0.089662 0.019593
0.095003 0.089357 0.020691
0.097627 0.089021 0.021790
0.098116 0.088930 0.024048
0.099489 0.088319 0.026459
0.100160 0.088594 0.030823
0.103059 0.091035 0.036500
0.120150 0.097047 0.031922
0.139681 0.100221 0.025544
0.161990 0.102358 0.018891
0.186038 0.103456 0.013062
0.211337 0.103731 0.006744
0.236820 0.102602 0.003662
0.263310 0.100679 0.001038
0.291569 0.097627 0.000000
0.321599 0.093233 0.000000
0.359503 0.085664 0.000000
0.399664 0.065461 0.000000
0.440986 0.034272 0.000000
0.483406 0.000000 0.000000
0.526970 0.000000 0.000000
0.570642 0.000000 0.000000
0.613153 0.000000 0.000000
0.652216 0.000000 0.000000
0.687953 0.000000 0.000000
0.720760 0.000000 0.000000
0.751644 0.000000 0.000000
0.780545 0.000000 0.019867
0.807553 0.073213 0.052155
0.832792 0.129305 0.090608
0.102266 0.105501 0.028443
0.102266 0.105501 0.028443
0.104158 0.105287 0.028443
0.106447 0.105013 0.029541
0.110719 0.104860 0.031586
0.111849 0.104341 0.033997
0.112917 0.103822 0.037507
0.114290 0.103609 0.040894
0.115633 0.104097 0.046235
0.119814 0.106813 0.054841
0.139559 0.114290 0.048463
0.161746 0.118166 0.039612
0.186465 0.120668 0.030579
0.212253 0.122164 0.021210
0.239902 0.122591 0.012421
0.268650 0.121370 0.004517
0.297826 0.120363 0.000946
0.332341 0.119265 0.000000
0.368811 0.116091 0.000000
0.406165 0.111330 0.000000
0.445319 0.104311 0.000000
0.484932 0.095125 0.000000
0.525261 0.081239 0.000000
0.565698 0.053040 0.000000
0.605615 0.025086 0.000000
0.643671 0.002319 0.000000
0.679164 0.000000 0.000000
0.712551 0.011444 0.000000
0.744198 0.053468 0.000000
0.774014 0.101900 0.018067
0.801846 0.134035 0.049256
0.827817 0.166049 0.090486
0.115023 0.123690 0.038758
0.115541 0.123659 0.038727
0.117403 0.123720 0.039704
0.120180 0.123690 0.040620
0.125490 0.123629 0.043641
0.128756 0.122957 0.045991
0.130007 0.122469 0.050660
0.131502 0.122255 0.055146
0.133150 0.122286 0.061769
0.135042 0.123079 0.070192
0.140139 0.127108 0.082063
0.162661 0.135317 0.076967
0.187503 0.139712 0.060700
0.214511 0.142702 0.046509
0.242466 0.144228 0.033387
0.274479 0.145998 0.021576
0.308263 0.146395 0.007752
0.342321 0.145449 0.000000
0.377111 0.143862 0.000000
0.412848 0.141390 0.000000
0.449348 0.137789 0.000000
0.486519 0.133700 0.000000
0.525139 0.129213 0.000000
0.564752 0.123934 0.000000
0.603693 0.119814 0.000000
0.641077 0.117250 0.000000
0.676356 0.118288 0.000000
0.709499 0.124819 0.000000
0.740902 0.136751 0.000000
0.770718 0.154574 0.019745
0.798520 0.176577 0.053956
0.824521 0.201358 0.092103
0.132601 0.146120 0.055879
0.133059 0.146059 0.055879
0.134707 0.145907 0.056977
0.138125 0.145968 0.057740
0.143099 0.146059 0.061707
0.149233 0.145571 0.065949
0.150546 0.145144 0.071748
0.152224 0.144686 0.077546
0.154391 0.144808 0.083253
0.155886 0.145205 0.089662
0.158114 0.145937 0.094392
0.164492 0.151095 0.101595
0.203006 0.171450 0.106355
0.236820 0.179477 0.099336
0.272221 0.185061 0.091096
0.308721 0.188357 0.077790
0.346014 0.189303 0.053864
0.383520 0.188846 0.029358
0.420569 0.187106 0.005432
0.457191 0.185275 0.000000
0.493629 0.183810 0.000000
0.529686 0.181918 0.000000
0.565911 0.180270 0.000000
0.601709 0.179294 0.000000
0.637079 0.179904 0.000000
0.670283 0.181704 0.000000
0.701015 0.185824 0.000000
0.729915 0.192538 0.000000
0.757412 0.202640 0.015381
0.783719 0.215885 0.044770
0.808499 0.232609 0.085634
0.832029 0.252598 0.107576
0.157961 0.178042 0.086610
0.158297 0.178012 0.086610
0.160403 0.177615 0.087404
0.163668 0.177310 0.088045
0.168643 0.176791 0.089265
0.175143 0.176364 0.091615
0.178714 0.174929 0.094392
0.180148 0.174228 0.097292
0.182132 0.174105 0.101320
0.184482 0.174411 0.106050
0.188846 0.176761 0.112764
0.194614 0.180911 0.121004
0.206516 0.190585 0.132357
0.239628 0.203708 0.131136
0.276127 0.211673 0.123110
0.312688 0.216220 0.113313
0.349126 0.218082 0.102571
0.385473 0.218296 0.090486
0.421332 0.217075 0.065370
0.456764 0.214755 0.033417
0.491524 0.212009 0.004883
0.526024 0.211185 0.000000
0.560967 0.210422 0.000000
0.596063 0.210422 0.000000
0.629755 0.211460 0.000000
0.662501 0.213931 0.000000
0.693721 0.218204 0.000000
0.723171 0.225071 0.000000
0.751339 0.234195 0.016205
0.778195 0.246433 0.049073
0.803403 0.261845 0.088594
0.827207 0.280095 0.110842
0.180270 0.204227 0.101381
0.180636 0.204074 0.101411
0.182071 0.203769 0.102174
0.185550 0.203159 0.102602
0.190494 0.202640 0.104005
0.197635 0.202670 0.106050
0.205417 0.202304 0.109468
0.207553 0.202426 0.113161
0.210941 0.203037 0.117952
0.214633 0.204532 0.123293
0.219516 0.206882 0.130404
0.225162 0.210117 0.138186
0.230777 0.214084 0.147341
0.243778 0.223819 0.159487
0.277562 0.236088 0.157290
0.315282 0.242802 0.147585
0.351232 0.246036 0.136416
0.386847 0.247196 0.124697
0.422370 0.246769 0.111910
0.456794 0.245426 0.097871
0.490974 0.243259 0.078035
0.525444 0.241001 0.037568
0.559533 0.240116 0.012634
0.593805 0.241032 0.003388
0.627161 0.242618 0.000000
0.658961 0.245426 0.000000
0.689296 0.249638 0.000000
0.718807 0.256291 0.000000
0.746944 0.265415 0.022370
0.773831 0.276921 0.059113
0.799100 0.291295 0.093690
0.823087 0.308324 0.115816
0.211460 0.238499 0.122042
0.211643 0.238468 0.122316
0.213169 0.238132 0.122377
0.216617 0.237552 0.122957
0.221622 0.236820 0.124086
0.228336 0.236515 0.126314
0.237461 0.236240 0.128908
0.241184 0.234989 0.132662
0.243900 0.235172 0.136873
0.247379 0.235782 0.142092
0.251896 0.237522 0.148867
0.257206 0.240208 0.156558
0.263127 0.243351 0.165042
0.268650 0.246830 0.174105
0.282078 0.256321 0.186435
0.315923 0.267124 0.182925
0.353429 0.272984 0.172122
0.388800 0.275639 0.159792
0.423835 0.276280 0.147433
0.458076 0.275883 0.134218
0.491951 0.274784 0.120485
0.525872 0.273564 0.105684
0.559747 0.272251 0.087160
0.593011 0.271183 0.042939
0.625391 0.272923 0.024811
0.656733 0.275792 0.015045
0.686702 0.280278 0.007477
0.715663 0.286961 0.005249
0.744320 0.296574 0.033112
0.771664 0.308568 0.074434
0.797452 0.323308 0.102663
0.821836 0.340368 0.126253
0.243259 0.271824 0.142947
0.244083 0.271824 0.143374
0.245518 0.271672 0.143587
0.248814 0.271427 0.144411
0.254093 0.271061 0.145632
0.261448 0.270726 0.147585
0.271122 0.270878 0.150484
0.279393 0.270420 0.154757
0.282322 0.270359 0.159152
0.285832 0.270939 0.164309
0.289586 0.271763 0.170230
0.293919 0.272984 0.177066
0.298344 0.274449 0.184421
0.302525 0.276158 0.192233
0.306249 0.277806 0.199954
0.318608 0.286137 0.211582
0.351537 0.295964 0.207584
0.388190 0.301366 0.195804
0.423285 0.303685 0.183078
0.457679 0.304784 0.170382
0.492134 0.305241 0.157656
0.526604 0.305364 0.143954
0.560815 0.305364 0.129854
0.594263 0.305516 0.113954
0.626337 0.305699 0.095003
0.657130 0.306889 0.059632
0.686824 0.312261 0.053773
0.715419 0.318883 0.048951
0.743038 0.327764 0.052949
0.769711 0.339422 0.090425
0.794888 0.353094 0.112062
0.818540 0.368780 0.135317
0.275853 0.303899 0.164126
0.276646 0.303807 0.164126
0.277928 0.303746 0.164462
0.281376 0.303410 0.165164
0.286625 0.303075 0.166323
0.293919 0.302983 0.168368
0.303258 0.303136 0.171267
0.314611 0.303410 0.174807
0.318364 0.302403 0.179568
0.321538 0.302495 0.184176
0.324834 0.302708 0.189670
0.328893 0.303624 0.196201
0.332921 0.304540 0.203098
0.336858 0.305516 0.210330
0.340307 0.306676 0.217838
0.343389 0.307927 0.225559
0.356146 0.316258 0.237186
0.388159 0.325566 0.233036
0.424781 0.331090 0.221164
0.459052 0.333593 0.208042
0.493568 0.335393 0.195377
0.528130 0.336736 0.182712
0.562249 0.337987 0.169711
0.595483 0.339178 0.156130
0.627466 0.340490 0.141543
0.657832 0.342168 0.125765
0.686976 0.344671 0.106508
0.715084 0.350042 0.094423
0.742214 0.358923 0.095430
0.768276 0.369726 0.103059
0.793179 0.383124 0.124331
0.816495 0.398291 0.147707
0.312627 0.337865 0.186984
0.313268 0.338109 0.187320
0.337224 0.358099 0.202152
0.340459 0.358007 0.203037
0.345892 0.357519 0.204166
0.352697 0.357305 0.206119
0.361944 0.356970 0.208621
0.373053 0.356909 0.212070
0.381140 0.355779 0.216861
0.383825 0.355535 0.221469
0.386786 0.355444 0.226871
0.389899 0.355322 0.232639
0.393072 0.355230 0.238865
0.395453 0.354803 0.245182
0.397467 0.354284 0.251652
0.398810 0.353796 0.258274
0.399725 0.353216 0.264591
0.411292 0.360601 0.275761
0.440650 0.368322 0.270390
0.475441 0.372747 0.256840
0.508446 0.374762 0.242832
0.541619 0.376806 0.229343
0.574151 0.378241 0.216190
0.605371 0.379309 0.202914
0.634913 0.380285 0.189029
0.663111 0.381292 0.174685
0.690120 0.383307 0.159487
0.716457 0.386297 0.143465
0.742061 0.390600 0.125307
0.766995 0.400000 0.125551
0.791135 0.412085 0.138277
0.813993 0.426459 0.161379
0.357092 0.377691 0.215488
0.359533 0.379614 0.217075
0.363287 0.381567 0.218967
0.368658 0.383246 0.221073
0.374762 0.384344 0.223270
0.382147 0.384649 0.225498
0.390753 0.384466 0.228031
0.400946 0.384192 0.231022
0.412360 0.384039 0.235080
0.415106 0.382574 0.239750
0.417609 0.382177 0.244480
0.420569 0.382025 0.250004
0.422827 0.381415 0.255589
0.425177 0.380896 0.261692
0.427375 0.380346 0.267857
0.429084 0.379767 0.274205
0.430457 0.379278 0.280735
0.431861 0.379248 0.287694
0.444648 0.387823 0.299870
0.473915 0.396063 0.295567
0.508385 0.401465 0.282658
0.541558 0.405005 0.269841
0.573754 0.407813 0.256962
0.604547 0.410010 0.244083
0.633600 0.411749 0.231327
0.661311 0.413550 0.218021
0.687892 0.415778 0.204623
0.713832 0.418952 0.191073
0.739010 0.423468 0.177798
0.763546 0.429511 0.164431
0.787411 0.437690 0.154910
0.810117 0.451240 0.174319
0.390265 0.407080 0.237064
0.392981 0.409033 0.238590
0.396948 0.411322 0.240726
0.401770 0.413031 0.243046
0.408209 0.414282 0.245487
0.415045 0.414740 0.247715
0.422889 0.414588 0.250004
0.432410 0.414435 0.252903
0.443641 0.414405 0.256626
0.449897 0.412787 0.261265
0.451911 0.412146 0.265537
0.454383 0.411749 0.270634
0.456733 0.411139 0.275822
0.458961 0.410498 0.281621
0.461006 0.409796 0.287572
0.462806 0.409094 0.293736
0.464454 0.408576 0.300267
0.465919 0.408148 0.306798
0.467445 0.408484 0.314000
0.480995 0.417731 0.326940
0.508690 0.426246 0.323369
0.541833 0.431891 0.310918
0.573602 0.435920 0.298497
0.603937 0.439460 0.286381
0.632441 0.442023 0.273808
0.659602 0.444495 0.261357
0.685725 0.447303 0.249119
0.711025 0.450752 0.237461
0.735775 0.455360 0.225956
0.759884 0.461280 0.215671
0.783383 0.468391 0.205631
0.806180 0.476722 0.196902
0.425544 0.437995 0.260746
0.428138 0.439857 0.262425
0.431708 0.441688 0.264347
0.436378 0.443366 0.266423
0.441840 0.444495 0.268620
0.448310 0.445014 0.270970
0.455909 0.444923 0.273167
0.464576 0.444800 0.275883
0.474800 0.444709 0.279301
0.485023 0.443977 0.283909
0.487160 0.442969 0.288243
0.489235 0.442329 0.292943
0.491279 0.441688 0.297887
0.493355 0.441016 0.303258
0.495491 0.440436 0.309087
0.497627 0.439979 0.315312
0.500114 0.440009 0.322148
0.502647 0.440375 0.329534
0.505699 0.441657 0.337774
0.509026 0.443641 0.346624
0.524010 0.454871 0.361669
0.551049 0.464424 0.360327
0.582300 0.470863 0.349157
0.612360 0.476417 0.338323
0.640558 0.481117 0.327642
0.667292 0.485023 0.316625
0.692836 0.488899 0.305791
0.717403 0.493111 0.295659
0.741238 0.498116 0.286564
0.764370 0.504082 0.278691
0.786954 0.510948 0.271824
0.808774 0.518822 0.266392
0.475532 0.481086 0.296757
0.476692 0.481880 0.297459
0.478553 0.482399 0.298375
0.481270 0.482765 0.299474
0.485206 0.482673 0.300603
0.490089 0.482246 0.301854
0.496223 0.481910 0.303899
0.504021 0.481544 0.306401
0.513298 0.481453 0.309728
0.523796 0.481849 0.314031
0.529198 0.480385 0.318944
0.530968 0.479805 0.323400
0.532830 0.479072 0.328099
0.534539 0.478279 0.333196
0.536370 0.477516 0.338720
0.538170 0.476936 0.344701
0.539788 0.476326 0.350774
0.541588 0.476173 0.357549
0.543694 0.476570 0.365026
0.546014 0.477333 0.372808
0.548425 0.478859 0.381262
0.561334 0.489113 0.396094
0.584283 0.497261 0.394385
0.611383 0.502129 0.382422
0.638331 0.507134 0.371557
0.664302 0.511955 0.361486
0.689448 0.516472 0.351751
0.713619 0.521111 0.342718
0.736934 0.526390 0.334997
0.759609 0.532280 0.328222
0.781613 0.538964 0.322972
0.802945 0.546319 0.318975
0.510430 0.511131 0.324437
0.511315 0.511803 0.325139
0.512932 0.512261 0.326024
0.515587 0.512596 0.327062
0.519066 0.512627 0.328252
0.523430 0.512383 0.329747
0.528954 0.512169 0.331609
0.536095 0.511864 0.334020
0.544335 0.511864 0.337285
0.553796 0.512139 0.341344
0.562585 0.511406 0.346532
0.564233 0.510674 0.350805
0.565789 0.510155 0.355535
0.567498 0.509636 0.360540
0.569238 0.509148 0.366033
0.571038 0.508629 0.371801
0.572900 0.508446 0.378210
0.574792 0.508476 0.384985
0.576745 0.508873 0.392279
0.578943 0.509545 0.399969
0.581231 0.510979 0.408362
0.583551 0.512779 0.417090
0.595331 0.523033 0.432380
0.615412 0.530632 0.431434
0.634730 0.529381 0.413275
0.659541 0.534295 0.403113
0.684077 0.539452 0.394507
0.707729 0.544793 0.386664
0.730709 0.550286 0.379736
0.753109 0.556390 0.374304
0.774838 0.563317 0.370550
0.795926 0.570855 0.368505
0.550927 0.546410 0.361669
0.552239 0.547326 0.362829
0.553674 0.547723 0.363714
0.555261 0.547601 0.364233
0.557488 0.546868 0.364508
0.560510 0.546014 0.364843
0.564294 0.544793 0.365606
0.569238 0.543694 0.366827
0.575341 0.542779 0.368780
0.582605 0.542107 0.371618
0.590661 0.541680 0.375158
0.593622 0.539544 0.379156
0.594324 0.538415 0.382849
0.594934 0.537072 0.386694
0.595605 0.535760 0.390753
0.596368 0.534539 0.395331
0.597253 0.533623 0.400549
0.598596 0.533104 0.406439
0.600366 0.533318 0.413306
0.602533 0.534173 0.420935
0.604913 0.535607 0.429267
0.607355 0.537346 0.437720
0.609552 0.539208 0.446418
0.619654 0.548425 0.460670
0.636957 0.554742 0.459266
0.658350 0.557977 0.447486
0.680568 0.562341 0.438117
0.703029 0.567468 0.430335
0.725002 0.572930 0.423987
0.746639 0.578912 0.419043
0.767636 0.585748 0.416175
0.788144 0.593317 0.415503
0.577478 0.570245 0.389075
0.578668 0.571130 0.390143
0.579980 0.571649 0.391211
0.581689 0.571801 0.392004
0.584009 0.571649 0.392889
0.587182 0.571313 0.393957
0.591180 0.571069 0.395544
0.596368 0.570916 0.397711
0.602533 0.570855 0.400488
0.609491 0.570977 0.403998
0.617212 0.571160 0.407996
0.623438 0.570062 0.412940
0.624201 0.569299 0.416480
0.624842 0.568292 0.420294
0.625391 0.567071 0.423896
0.625910 0.565850 0.428138
0.626642 0.564843 0.432563
0.627588 0.564263 0.437781
0.628962 0.564233 0.444129
0.630793 0.564813 0.451026
0.632807 0.565881 0.458656
0.634913 0.567315 0.466712
0.636866 0.568933 0.474891
0.639155 0.571099 0.483375
0.647822 0.579706 0.497292
0.662928 0.585687 0.497017
0.682216 0.588861 0.486580
0.702358 0.593194 0.478645
0.723384 0.599115 0.473457
0.743862 0.605310 0.469734
0.763943 0.612085 0.467872
0.783413 0.619593 0.468299
0.607019 0.598047 0.423774
0.607660 0.598474 0.424475
0.608484 0.598596 0.425116
0.609888 0.598627 0.425666
0.611658 0.598413 0.426368
0.614282 0.598138 0.427161
0.617670 0.597833 0.428473
0.621912 0.597528 0.430335
0.627100 0.597406 0.432715
0.633082 0.597436 0.435859
0.639734 0.597498 0.439399
0.646937 0.597864 0.443854
0.648920 0.596246 0.447883
0.649592 0.595422 0.451362
0.650080 0.594354 0.454749
0.650507 0.593286 0.458534
0.651057 0.592279 0.462654
0.651850 0.591669 0.467414
0.653040 0.591547 0.473030
0.654505 0.591974 0.479438
0.656245 0.592828 0.486458
0.657984 0.593957 0.493935
0.659632 0.595239 0.501457
0.661097 0.596582 0.508965
0.663050 0.598718 0.517052
0.670314 0.606348 0.530175
0.683467 0.611719 0.530327
0.700740 0.614435 0.520470
0.718990 0.618616 0.513603
0.738735 0.625177 0.510826
0.758022 0.632166 0.509972
0.776852 0.640009 0.511559
0.631495 0.622187 0.456001
0.631952 0.622492 0.456519
0.632746 0.622705 0.457160
0.633936 0.622889 0.458015
0.635981 0.623041 0.459113
0.638697 0.623377 0.460761
0.642664 0.624140 0.463569
0.647486 0.625147 0.467109
0.653346 0.626490 0.471504
0.659815 0.628046 0.476539
0.666896 0.629725 0.482307
0.674403 0.631403 0.488441
0.679774 0.631739 0.494881
0.681147 0.632136 0.499611
0.682307 0.632166 0.503899
0.683009 0.631708 0.507958
0.683680 0.631159 0.512016
0.684352 0.630762 0.516564
0.685420 0.630762 0.521813
0.686610 0.631128 0.527672
0.687953 0.631800 0.533989
0.689357 0.632746 0.540734
0.690517 0.633722 0.547448
0.691615 0.634760 0.554131
0.692531 0.635798 0.560723
0.694148 0.637781 0.568170
0.699916 0.644373 0.579889
0.710811 0.648920 0.580285
0.725734 0.651209 0.571771
0.741512 0.654810 0.566125
0.759213 0.661799 0.566339
0.776638 0.669459 0.568811
0.663386 0.655055 0.504723
0.663416 0.655085 0.504784
0.663844 0.655024 0.504936
0.664668 0.654871 0.505211
0.665980 0.654719 0.505730
0.667903 0.654597 0.506615
0.670466 0.654597 0.507988
0.673884 0.654658 0.509850
0.677882 0.654932 0.512413
0.682460 0.655360 0.515679
0.687739 0.655848 0.519280
0.693416 0.656489 0.523522
0.699214 0.657191 0.528252
0.700649 0.656153 0.532372
