20 Preset/Retro Portrait/【3】LUT video cho PR-AE-FCPX/Retro LUT (5).cube
# Created by Adobe Lightroom plugin Export LUT (1.24.0)
# www.johnrellis.com/lightroom/exportlut.htm
# Preset: 法式胶片-素材江湖05
# Color profile: C:\Program Files (x86)\Common Files\Adobe\Color\Profiles\Recommended\VideoHD.icc
LUT_3D_SIZE 8
DOMAIN_MIN 0.000000 0.000000 0.000000
DOMAIN_MAX 0.903226 0.903226 0.903226
0.000000 0.000000 0.000000
0.113832 0.014679 0.012665
0.211460 0.079561 0.057588
0.306584 0.107790 0.088075
0.396368 0.132143 0.102205
0.472145 0.158633 0.120943
0.538476 0.183505 0.138796
0.606622 0.208927 0.156832
0.068513 0.101839 0.033600
0.123842 0.107454 0.037324
0.219028 0.121035 0.084596
0.315587 0.135744 0.095552
0.404456 0.154421 0.108888
0.478614 0.175845 0.127199
0.543572 0.196689 0.144045
0.610956 0.219944 0.161532
0.139254 0.186007 0.106050
0.159091 0.188479 0.106691
0.230381 0.200320 0.106142
0.337346 0.218265 0.128817
0.429236 0.229831 0.144747
0.500786 0.238010 0.156130
0.563134 0.247990 0.168307
0.627955 0.263157 0.182681
0.198337 0.275090 0.145663
0.209537 0.274510 0.147250
0.257664 0.283940 0.146181
0.336095 0.295171 0.145235
0.437812 0.313725 0.175296
0.533165 0.335485 0.219181
0.591424 0.334020 0.224338
0.652674 0.340398 0.234409
0.250370 0.354986 0.185916
0.257664 0.354101 0.186740
0.289281 0.357641 0.186984
0.348425 0.368688 0.186282
0.423316 0.377874 0.187564
0.515099 0.394751 0.221256
0.604791 0.419928 0.275669
0.679835 0.440650 0.316564
0.295079 0.424323 0.224552
0.299901 0.423468 0.224704
0.320775 0.422797 0.224765
0.364691 0.430945 0.225010
0.426886 0.442939 0.225681
0.497078 0.450263 0.229129
0.583917 0.468788 0.266453
0.673884 0.501640 0.334752
0.336828 0.494942 0.261173
0.340429 0.494148 0.260960
0.354742 0.490547 0.259892
0.389014 0.496437 0.260410
0.439734 0.506310 0.261631
0.504906 0.519341 0.263554
0.573571 0.526513 0.269627
0.660731 0.549187 0.318090
0.387274 0.585657 0.306859
0.390112 0.585199 0.306462
0.402747 0.583124 0.305180
0.430640 0.585443 0.305577
0.476600 0.595361 0.308965
0.535515 0.607660 0.313756
0.606409 0.622065 0.320500
0.677119 0.629053 0.333410
0.054475 0.064851 0.083833
0.106722 0.053864 0.101442
0.210575 0.085786 0.109987
0.302312 0.119570 0.125582
0.392706 0.142245 0.134401
0.468818 0.166018 0.145876
0.535271 0.188052 0.157870
0.603540 0.211307 0.170809
0.085267 0.107607 0.104036
0.123262 0.114809 0.113497
0.216190 0.128573 0.122805
0.311437 0.144320 0.131380
0.400458 0.162112 0.140078
0.474983 0.181765 0.151095
0.540398 0.200809 0.162478
0.607874 0.222263 0.175296
0.148287 0.195010 0.137392
0.165957 0.195224 0.139284
0.233524 0.206271 0.139254
0.338018 0.224399 0.161990
0.425879 0.233555 0.169070
0.497566 0.241123 0.176028
0.560327 0.250584 0.184207
0.624964 0.264805 0.195224
0.203769 0.281865 0.168185
0.215213 0.281193 0.168978
0.260807 0.288182 0.169100
0.338293 0.299260 0.169009
0.438849 0.317876 0.197910
0.530053 0.337041 0.233707
0.588647 0.335576 0.236667
0.650263 0.341405 0.244053
0.254520 0.359960 0.202426
0.261784 0.359136 0.203006
0.291936 0.360662 0.203433
0.350134 0.371618 0.202945
0.424811 0.380804 0.204196
0.515801 0.397711 0.237217
0.604730 0.423163 0.289067
0.677821 0.441352 0.323735
0.298253 0.428168 0.237095
0.303197 0.427253 0.237003
0.322911 0.425025 0.237003
0.366186 0.433143 0.237125
0.428107 0.445014 0.237766
0.497963 0.452247 0.241001
0.584436 0.470741 0.277836
0.673732 0.503777 0.344335
0.338842 0.497597 0.270298
0.342535 0.496681 0.270115
0.356725 0.493141 0.268925
0.389776 0.497719 0.269108
0.440406 0.507500 0.270390
0.505211 0.520500 0.272160
0.573877 0.527672 0.277958
0.660731 0.550408 0.326116
0.387854 0.587091 0.313329
0.390845 0.586633 0.313024
0.403357 0.584588 0.311772
0.430457 0.585840 0.311406
0.476234 0.595727 0.314855
0.535180 0.608057 0.319524
0.606104 0.622400 0.326390
0.676936 0.629450 0.338964
0.123384 0.133455 0.151217
0.125093 0.130617 0.161563
0.204898 0.130465 0.195987
0.321080 0.147066 0.212741
0.398718 0.139681 0.194308
0.455238 0.172122 0.197604
0.522057 0.194491 0.203494
0.590875 0.213046 0.208225
0.152468 0.156130 0.162173
0.156954 0.160098 0.172702
0.213840 0.158724 0.203159
0.322484 0.166079 0.213809
0.393256 0.163363 0.197238
0.461219 0.189364 0.204105
0.527123 0.206485 0.208133
0.595239 0.223911 0.212284
0.162722 0.209567 0.202426
0.180819 0.213260 0.207431
0.244022 0.228397 0.225406
0.332433 0.232151 0.224796
0.414527 0.238499 0.225254
0.484657 0.246189 0.226627
0.547356 0.255009 0.228183
0.612604 0.266270 0.231388
0.209567 0.307530 0.233890
0.230381 0.307317 0.239414
0.271427 0.304479 0.240299
0.347143 0.315557 0.240146
0.443854 0.334600 0.268070
0.518456 0.340612 0.277073
0.578088 0.338720 0.274022
0.640711 0.342229 0.274235
0.270298 0.380407 0.261204
0.277501 0.379492 0.261265
0.303685 0.375341 0.260868
0.357488 0.384009 0.260960
0.431373 0.393103 0.261814
0.519036 0.410040 0.292638
0.605188 0.436622 0.338109
0.669947 0.442786 0.348211
0.311620 0.444038 0.284215
0.316320 0.443091 0.283909
0.334600 0.439033 0.282628
0.372778 0.442237 0.282261
0.432624 0.453620 0.283177
0.501701 0.460761 0.285679
0.586450 0.479561 0.320256
0.672938 0.512718 0.381048
0.347417 0.508568 0.306828
0.350835 0.507713 0.306462
0.364721 0.504112 0.304570
0.393439 0.502953 0.302708
0.442725 0.512596 0.303960
0.506676 0.525353 0.305974
0.575189 0.532555 0.310887
0.661067 0.555718 0.357885
0.390784 0.593286 0.340032
0.393774 0.592828 0.339696
0.406073 0.590661 0.337774
0.429694 0.587427 0.334844
0.475227 0.597314 0.338231
0.533867 0.609461 0.342870
0.604639 0.623774 0.349371
0.676112 0.631250 0.361212
0.173892 0.196536 0.229374
0.176516 0.196933 0.237308
0.209079 0.198459 0.268620
0.320134 0.203006 0.311528
0.433753 0.231296 0.331640
0.503746 0.220157 0.308659
0.536400 0.194064 0.266484
0.564446 0.197238 0.244327
0.202914 0.218540 0.239750
0.204196 0.219364 0.246769
0.224369 0.219181 0.274846
0.323949 0.222507 0.314977
0.435248 0.247562 0.334295
0.500877 0.228885 0.307012
0.532036 0.200961 0.263645
0.569238 0.210025 0.249485
0.245396 0.251713 0.255283
0.255192 0.256840 0.259312
0.271061 0.274510 0.290990
0.338567 0.278141 0.327550
0.434485 0.285801 0.334295
0.486915 0.254887 0.295995
0.522148 0.249454 0.274144
0.588220 0.256931 0.270176
0.239231 0.320867 0.310918
0.251041 0.323064 0.313970
0.294652 0.333440 0.327581
0.365087 0.351720 0.348913
0.436286 0.344610 0.337530
0.498939 0.339971 0.328130
0.557702 0.336339 0.319036
0.620447 0.335058 0.310735
0.270115 0.413764 0.336065
0.281315 0.414252 0.337896
0.328374 0.415717 0.350958
0.373938 0.409216 0.349920
0.443915 0.418219 0.349401
0.525811 0.436042 0.378119
0.594903 0.444739 0.389654
0.655573 0.439399 0.379492
0.337652 0.474983 0.363897
0.342168 0.474037 0.363287
0.359442 0.469917 0.360845
0.388128 0.461677 0.355627
0.441840 0.470954 0.355718
0.508904 0.477882 0.356970
0.590784 0.497810 0.390234
0.672236 0.530358 0.441352
0.364935 0.530694 0.371557
0.367956 0.529808 0.370764
0.381170 0.526085 0.367956
0.404273 0.518517 0.362127
0.447486 0.522820 0.360754
0.509483 0.535210 0.362676
0.577874 0.542596 0.366461
0.662013 0.566491 0.411627
0.396735 0.605890 0.389288
0.399542 0.605371 0.388525
0.411505 0.603082 0.386023
0.433753 0.598596 0.381048
0.472328 0.600305 0.378973
0.530632 0.612268 0.383215
0.601678 0.626520 0.389227
0.674739 0.634913 0.399207
0.238468 0.272374 0.317388
0.240940 0.273503 0.323247
0.252476 0.273991 0.346441
0.317113 0.283330 0.387701
0.429389 0.291112 0.428412
0.524285 0.315557 0.440101
0.596521 0.330022 0.432685
0.636500 0.286625 0.385077
0.259403 0.288090 0.324010
0.260899 0.288914 0.329107
0.269474 0.289494 0.350683
0.324132 0.296544 0.390051
0.430915 0.303166 0.429633
0.524285 0.326360 0.441505
0.594110 0.334295 0.431128
0.633906 0.288914 0.382238
0.301183 0.319249 0.333928
0.304723 0.323033 0.339788
0.314916 0.332250 0.361608
0.345312 0.337072 0.397742
0.436927 0.344121 0.435218
0.525200 0.364630 0.447425
0.584222 0.347692 0.422736
0.622339 0.294987 0.368322
0.324468 0.352819 0.359442
0.331182 0.355352 0.361700
0.357183 0.367102 0.371221
0.382910 0.392340 0.410132
0.448066 0.401373 0.446143
0.522484 0.406622 0.447852
0.564599 0.357366 0.397162
0.587579 0.303777 0.336217
0.317327 0.424506 0.414038
0.324529 0.425971 0.416022
0.353857 0.432319 0.424475
0.403540 0.445441 0.441505
0.464393 0.461250 0.459937
0.516655 0.445655 0.440497
0.570703 0.429725 0.419776
0.631525 0.415534 0.399268
0.338537 0.507836 0.437446
0.345647 0.507897 0.438544
0.372015 0.507988 0.442451
0.417578 0.507713 0.451514
0.458289 0.498634 0.446693
0.520775 0.505577 0.445228
0.599695 0.527123 0.475196
0.667506 0.541039 0.492775
0.376806 0.565484 0.448493
0.383978 0.564996 0.450599
0.408423 0.562493 0.456519
0.428260 0.554009 0.447333
0.456764 0.540734 0.434668
0.514000 0.551202 0.434974
0.582696 0.558953 0.436774
0.665248 0.583886 0.479896
0.406439 0.626764 0.458534
0.409064 0.626184 0.457679
0.420356 0.623713 0.454505
0.441474 0.618708 0.447913
0.471473 0.610712 0.436927
0.524559 0.616876 0.435828
0.596643 0.631281 0.441260
0.673152 0.641138 0.449561
0.306859 0.350744 0.404456
0.308721 0.351812 0.408545
0.316533 0.354314 0.425483
0.344457 0.358526 0.456306
0.421332 0.371984 0.498177
0.520012 0.383276 0.530144
0.597864 0.404395 0.537224
0.674250 0.454261 0.555444
0.320226 0.360967 0.408240
0.321477 0.361852 0.412024
0.328069 0.364263 0.428138
0.351537 0.367346 0.457801
0.424475 0.380591 0.498970
0.520623 0.391302 0.530724
0.597620 0.411597 0.538170
0.673762 0.459754 0.556542
0.353826 0.386816 0.415320
0.356909 0.389685 0.419959
0.362463 0.394263 0.434760
0.375616 0.396674 0.462806
0.435554 0.410559 0.502007
0.523003 0.420447 0.533196
0.597620 0.438087 0.542199
0.668544 0.465675 0.551293
0.387610 0.407507 0.416236
0.390234 0.411048 0.420691
0.401312 0.424933 0.438941
0.417762 0.441382 0.469306
0.452766 0.452674 0.507408
0.527703 0.462654 0.538445
0.599664 0.478798 0.549737
0.659022 0.467597 0.535393
0.395331 0.448035 0.456397
0.399756 0.449500 0.457740
0.417609 0.455726 0.463416
0.448585 0.468879 0.474311
0.476692 0.495827 0.513237
0.534997 0.507500 0.546471
0.600458 0.511620 0.549401
0.641749 0.445045 0.487617
0.389227 0.514366 0.504723
0.393988 0.515221 0.505913
0.412207 0.518822 0.510826
0.444831 0.526238 0.520867
0.489631 0.539178 0.537377
0.545006 0.553674 0.554131
0.590051 0.528252 0.524590
0.644984 0.503349 0.494270
0.390661 0.598108 0.530816
0.395117 0.598047 0.531212
0.412909 0.597650 0.532494
0.444862 0.596735 0.534874
0.487373 0.594659 0.538170
0.526604 0.578820 0.526238
0.592279 0.586053 0.525628
0.673457 0.613916 0.565728
0.412970 0.656489 0.534539
0.416114 0.656214 0.534478
0.428992 0.655024 0.534325
0.461067 0.651637 0.538598
0.491035 0.641993 0.529625
0.522026 0.627863 0.508598
0.590936 0.640009 0.510369
0.672084 0.652216 0.516320
0.383459 0.437537 0.496223
0.385504 0.439185 0.499916
0.390784 0.441230 0.510826
0.403571 0.443427 0.533043
0.445808 0.454383 0.563897
0.520470 0.469612 0.601221
0.600427 0.480476 0.622827
0.659785 0.492500 0.622950
0.387518 0.439277 0.493416
0.389685 0.441230 0.497261
0.394537 0.443458 0.508202
0.405676 0.445136 0.529320
0.444648 0.454658 0.559503
0.516930 0.468544 0.596124
0.595727 0.477760 0.617395
0.655116 0.488716 0.617334
0.415106 0.461219 0.500023
0.415991 0.462043 0.502434
0.418952 0.464118 0.512078
0.427832 0.467079 0.532036
0.456672 0.473793 0.560967
0.522362 0.488441 0.597498
0.598627 0.499489 0.620905
0.657618 0.512322 0.623926
0.440406 0.479347 0.500450
0.442084 0.481239 0.503136
0.449622 0.489052 0.514946
0.460975 0.499428 0.536889
0.477913 0.505241 0.566186
0.533623 0.522210 0.602808
0.603479 0.533257 0.626734
0.660029 0.544549 0.631464
0.457313 0.492195 0.502190
0.459174 0.492378 0.501976
0.469429 0.496132 0.504021
0.482368 0.514305 0.527367
0.502159 0.535210 0.562646
0.538933 0.550317 0.600702
0.603449 0.562341 0.627100
0.665217 0.577630 0.639246
0.452613 0.532708 0.542229
0.455634 0.533501 0.542992
0.467506 0.536431 0.545922
0.489693 0.542687 0.551873
0.521508 0.553979 0.561242
0.555596 0.585229 0.602441
0.611444 0.601648 0.636408
0.674678 0.606928 0.643214
0.442115 0.597314 0.587488
0.445777 0.598260 0.588647
0.458656 0.599939 0.591333
0.484047 0.603998 0.597436
0.520104 0.610468 0.606867
0.564904 0.621973 0.622126
0.616999 0.636683 0.639033
0.659998 0.604578 0.602502
0.441535 0.688075 0.623468
0.444831 0.688289 0.623835
0.458900 0.689357 0.625727
0.482521 0.688991 0.626581
0.514366 0.687007 0.626001
0.552026 0.682246 0.621881
0.592187 0.658778 0.601221
0.675624 0.673579 0.602319
0.460914 0.524224 0.583795
0.462165 0.525139 0.586023
0.464668 0.525444 0.592187
0.473060 0.527703 0.606500
0.492134 0.531182 0.626459
0.535973 0.543145 0.650538
0.602228 0.558251 0.682429
0.669368 0.566308 0.701320
0.462440 0.524590 0.581445
0.463813 0.525689 0.583734
0.466590 0.526726 0.590478
0.474342 0.528710 0.604425
0.492287 0.531792 0.624628
0.535424 0.543694 0.648676
0.600305 0.558038 0.679896
0.666773 0.565606 0.698451
0.476478 0.535210 0.581415
0.477241 0.535790 0.583215
0.479438 0.536919 0.589563
0.488106 0.541558 0.604974
0.500969 0.542870 0.624353
0.539879 0.553918 0.647761
0.601801 0.568322 0.679561
0.667445 0.575402 0.699245
0.491279 0.545800 0.577691
0.493263 0.547570 0.580133
0.500053 0.553338 0.588739
0.507561 0.559228 0.603296
0.518975 0.563561 0.623407
0.549248 0.573053 0.648554
0.606378 0.587732 0.681910
0.672053 0.594507 0.704250
0.506523 0.551293 0.567407
0.507774 0.553124 0.569787
0.511040 0.557946 0.577111
0.522972 0.570764 0.594781
0.537926 0.583642 0.618372
0.556725 0.591333 0.645808
0.608606 0.607843 0.682460
0.678431 0.617090 0.710933
0.510918 0.571374 0.585321
0.512200 0.571130 0.584894
0.518578 0.571496 0.584405
0.532891 0.574853 0.585534
0.549798 0.590082 0.603082
0.574945 0.616327 0.642481
0.616297 0.636988 0.689113
0.695094 0.653498 0.728298
0.507286 0.615259 0.625330
0.509056 0.615290 0.625391
0.516777 0.615717 0.626001
0.532982 0.617945 0.628412
0.557244 0.622583 0.632959
0.588891 0.632197 0.641077
0.628016 0.667811 0.687984
0.706386 0.691218 0.739071
0.493172 0.682338 0.671748
0.494942 0.682399 0.671901
0.502983 0.683436 0.673518
0.519158 0.686702 0.677943
0.543755 0.691829 0.684779
0.579614 0.700069 0.695613
0.633387 0.715572 0.714992
0.714565 0.739071 0.742000
