20 Preset/Retro Portrait/【3】LUT video cho PR-AE-FCPX/Retro LUT (6).cube
# Created by Adobe Lightroom plugin Export LUT (1.24.0)
# www.johnrellis.com/lightroom/exportlut.htm
# Preset: 法式胶片-素材江湖06
# Color profile: C:\Program Files (x86)\Common Files\Adobe\Color\Profiles\Recommended\VideoHD.icc
LUT_3D_SIZE 5
DOMAIN_MIN 0.000000 0.000000 0.000000
DOMAIN_MAX 0.903226 0.903226 0.903226
0.000000 0.000000 0.000000
0.192782 0.028199 0.060883
0.381781 0.060822 0.113466
0.526787 0.107790 0.159457
0.641718 0.150149 0.202884
0.118654 0.173983 0.094911
0.211246 0.190311 0.102846
0.408820 0.202701 0.138979
0.544366 0.201450 0.179904
0.653773 0.213901 0.218570
0.234714 0.343542 0.176944
0.277928 0.349432 0.178622
0.410101 0.365087 0.190860
0.592706 0.392004 0.257328
0.694942 0.376135 0.285527
0.327062 0.468788 0.247166
0.349310 0.471290 0.248569
0.430640 0.481025 0.254063
0.549279 0.490730 0.271550
0.706050 0.526299 0.356023
0.408087 0.590539 0.294285
0.423011 0.592035 0.295232
0.483101 0.600671 0.301915
0.581933 0.613550 0.315282
0.697688 0.625055 0.348211
0.081849 0.115785 0.171786
0.151369 0.131655 0.197513
0.376165 0.158389 0.232914
0.506157 0.153719 0.237491
0.626795 0.164462 0.247654
0.149264 0.193423 0.204074
0.214237 0.213260 0.224796
0.388525 0.207675 0.234409
0.525994 0.213077 0.246830
0.639796 0.221744 0.261204
0.253727 0.362310 0.261906
0.289525 0.362554 0.259464
0.420020 0.378668 0.268132
0.581872 0.394812 0.310826
0.683436 0.377752 0.318944
0.340551 0.479866 0.298863
0.358129 0.478157 0.296330
0.436194 0.487556 0.300420
0.553368 0.497688 0.314427
0.705562 0.533989 0.389746
0.413092 0.595636 0.325719
0.424201 0.593805 0.321935
0.482795 0.601556 0.327489
0.581140 0.614588 0.339391
0.697108 0.626581 0.369207
0.156802 0.228000 0.354559
0.200870 0.244907 0.367987
0.339391 0.294560 0.414038
0.572839 0.337957 0.430732
0.632410 0.300053 0.395697
0.245792 0.290776 0.363928
0.267460 0.301732 0.376257
0.366064 0.336706 0.418006
0.562432 0.360662 0.430457
0.620996 0.307683 0.389044
0.313848 0.391119 0.399298
0.346563 0.399847 0.406500
0.440894 0.436011 0.440284
0.526757 0.394507 0.410681
0.637568 0.360540 0.383856
0.392676 0.524254 0.436652
0.417853 0.525261 0.443610
0.463996 0.517754 0.431861
0.571740 0.529137 0.440345
0.705287 0.559686 0.483680
0.439124 0.618158 0.431708
0.447456 0.616205 0.427466
0.483131 0.608911 0.410468
0.579248 0.621637 0.417975
0.698726 0.636286 0.440467
0.299931 0.367498 0.506035
0.319768 0.376898 0.512016
0.389471 0.411627 0.535821
0.506615 0.461402 0.572198
0.687892 0.492988 0.588830
0.346593 0.401404 0.506798
0.359380 0.407721 0.512627
0.414832 0.436683 0.536187
0.518639 0.480568 0.572473
0.686946 0.508141 0.588617
0.405921 0.450263 0.502098
0.421180 0.459937 0.507774
0.469093 0.491127 0.533837
0.543908 0.522820 0.567071
0.689693 0.554528 0.589258
0.457069 0.540002 0.537957
0.470222 0.543236 0.540520
0.518730 0.557092 0.551354
0.596979 0.592309 0.583368
0.647303 0.507286 0.514427
0.508171 0.661921 0.572320
0.514946 0.661891 0.571923
0.539513 0.660212 0.567193
0.583001 0.641291 0.538903
0.709102 0.662989 0.553948
0.447822 0.502739 0.622553
0.455604 0.506432 0.624598
0.490547 0.525475 0.636316
0.550103 0.558709 0.658961
0.637140 0.595941 0.691737
0.459510 0.511315 0.618158
0.466224 0.514672 0.620722
0.497719 0.531731 0.632136
0.553460 0.562951 0.654780
0.638697 0.599634 0.689143
0.484901 0.533684 0.611048
0.494911 0.539513 0.613062
0.523735 0.556359 0.624872
0.571130 0.583734 0.648920
0.655573 0.622644 0.693080
0.511254 0.568811 0.610620
0.516716 0.569116 0.609766
0.545586 0.580865 0.615351
0.603204 0.621607 0.653010
0.699886 0.674952 0.716579
0.549187 0.664698 0.656733
0.554742 0.665339 0.657160
0.581537 0.672053 0.663264
0.636164 0.686458 0.675990
0.750149 0.740902 0.729549
