20 Preset/Retro Portrait/【3】LUT video cho PR-AE-FCPX/Retro LUT (8).cube
# Created by Adobe Lightroom plugin Export LUT (1.24.0)
# www.johnrellis.com/lightroom/exportlut.htm
# Preset: 法式胶片-素材江湖08
# Color profile: C:\Program Files (x86)\Common Files\Adobe\Color\Profiles\Recommended\VideoHD.icc
LUT_3D_SIZE 8
DOMAIN_MIN 0.000000 0.000000 0.000000
DOMAIN_MAX 0.903226 0.903226 0.903226
0.000000 0.000000 0.000000
0.022675 0.001892 0.000427
0.100069 0.007965 0.000946
0.171481 0.002380 0.001892
0.283574 0.000000 0.001709
0.424628 0.000000 0.000000
0.608301 0.000000 0.000000
0.750637 0.000000 0.000000
0.019226 0.015656 0.002014
0.023865 0.016175 0.004089
0.100038 0.025849 0.000763
0.166415 0.025055 0.000580
0.273411 0.000000 0.000641
0.412665 0.000000 0.000000
0.579706 0.000000 0.000000
0.731106 0.000000 0.000000
0.090425 0.089479 0.018616
0.097627 0.089021 0.021790
0.103059 0.091035 0.036500
0.186038 0.103456 0.013062
0.291569 0.097627 0.000000
0.440986 0.034272 0.000000
0.613153 0.000000 0.000000
0.751644 0.000000 0.000000
0.157961 0.178042 0.086610
0.168643 0.176791 0.089265
0.182132 0.174105 0.101320
0.206516 0.190585 0.132357
0.349126 0.218082 0.102571
0.491524 0.212009 0.004883
0.629755 0.211460 0.000000
0.751339 0.234195 0.016205
0.275853 0.303899 0.164126
0.286625 0.303075 0.166323
0.318364 0.302403 0.179568
0.332921 0.304540 0.203098
0.356146 0.316258 0.237186
0.493568 0.335393 0.195377
0.627466 0.340490 0.141543
0.742214 0.358923 0.095430
0.425544 0.437995 0.260746
0.441840 0.444495 0.268620
0.474800 0.444709 0.279301
0.491279 0.441688 0.297887
0.500114 0.440009 0.322148
0.524010 0.454871 0.361669
0.640558 0.481117 0.327642
0.741238 0.498116 0.286564
0.577478 0.570245 0.389075
0.584009 0.571649 0.392889
0.602533 0.570855 0.400488
0.624201 0.569299 0.416480
0.626642 0.564843 0.432563
0.632807 0.565881 0.458656
0.647822 0.579706 0.497292
0.723384 0.599115 0.473457
0.683894 0.677546 0.539483
0.686458 0.677516 0.540734
0.697078 0.678340 0.547814
0.716060 0.680781 0.562768
0.713375 0.669123 0.560204
0.718196 0.671504 0.581750
0.723232 0.676081 0.607263
0.731289 0.686458 0.636988
0.005280 0.003662 0.006165
0.022583 0.008423 0.006317
0.098878 0.011536 0.006165
0.163333 0.020264 0.007233
0.268315 0.000000 0.004608
0.402899 0.000000 0.000000
0.563195 0.000000 0.000000
0.714992 0.000000 0.000000
0.012848 0.022858 0.009064
0.034119 0.027161 0.009186
0.101564 0.035096 0.009583
0.166384 0.039307 0.009918
0.269596 0.002350 0.006683
0.401770 0.000000 0.000000
0.552331 0.000000 0.000000
0.702693 0.000000 0.000000
0.084138 0.095949 0.031128
0.096925 0.095857 0.033936
0.106966 0.097536 0.049561
0.186648 0.108583 0.026459
0.286809 0.104829 0.014923
0.420356 0.073060 0.000000
0.568627 0.000000 0.000000
0.718349 0.000000 0.000000
0.147860 0.176761 0.093080
0.159518 0.176303 0.095186
0.180789 0.175174 0.107027
0.197238 0.184787 0.131716
0.319371 0.204562 0.102449
0.450477 0.198764 0.033448
0.586267 0.194156 0.003510
0.719631 0.209049 0.000000
0.265660 0.302647 0.168704
0.275456 0.301061 0.170230
0.311345 0.298528 0.181247
0.320317 0.296239 0.200168
0.337957 0.303532 0.228977
0.471473 0.322240 0.190707
0.607385 0.327642 0.141329
0.726650 0.344976 0.102693
0.408698 0.429328 0.257694
0.417823 0.429847 0.260502
0.451942 0.430701 0.271153
0.475685 0.429938 0.290929
0.487129 0.430396 0.316136
0.514916 0.448371 0.357458
0.632319 0.473854 0.323461
0.733455 0.489143 0.280797
0.562219 0.560723 0.379126
0.565789 0.559045 0.379156
0.585077 0.557946 0.386358
0.612085 0.557946 0.404273
0.618097 0.556939 0.424659
0.624720 0.558007 0.450599
0.638453 0.569665 0.486183
0.715358 0.588128 0.459693
0.675502 0.671168 0.529229
0.679286 0.672358 0.532769
0.690211 0.672877 0.539361
0.710109 0.675563 0.554742
0.717250 0.674922 0.570428
0.719417 0.673823 0.586053
0.722347 0.675441 0.606928
0.730282 0.685512 0.636072
0.007050 0.014343 0.050935
0.030579 0.020600 0.051881
0.099336 0.037690 0.057893
0.181155 0.039734 0.071138
0.297429 0.000000 0.064668
0.440009 0.000000 0.072816
0.592065 0.000000 0.065187
0.730861 0.000000 0.036042
0.020294 0.038148 0.063233
0.039979 0.041474 0.064668
0.104891 0.066621 0.069398
0.185824 0.065919 0.078187
0.296025 0.033845 0.073518
0.435279 0.000000 0.079438
0.581445 0.000000 0.066682
0.721584 0.000000 0.037781
0.042573 0.111055 0.093233
0.067597 0.114260 0.094514
0.125216 0.125704 0.099153
0.206332 0.132387 0.098665
0.317784 0.134615 0.099062
0.453285 0.123690 0.097993
0.593744 0.094057 0.092409
0.726986 0.086091 0.074372
0.088472 0.204685 0.119631
0.110719 0.207858 0.121828
0.198276 0.211704 0.147463
0.223728 0.218784 0.171725
0.349859 0.233555 0.146212
0.478798 0.230198 0.129793
0.612024 0.230198 0.124025
0.733516 0.245182 0.116579
0.242496 0.326665 0.203128
0.257725 0.326299 0.205570
0.310765 0.326055 0.216495
0.347234 0.326085 0.237644
0.365759 0.333745 0.265843
0.492531 0.346868 0.227451
0.620172 0.347417 0.181888
0.733608 0.365698 0.167880
0.393774 0.444709 0.284947
0.404608 0.445502 0.287877
0.442695 0.445594 0.297459
0.485939 0.444862 0.316014
0.496132 0.443977 0.338720
0.521843 0.460304 0.377386
0.634943 0.483833 0.345464
0.735744 0.498512 0.305974
0.555230 0.572015 0.403082
0.559411 0.570703 0.403449
0.579004 0.568322 0.408606
0.614008 0.568597 0.424079
0.622278 0.565728 0.442664
0.629786 0.567590 0.468299
0.645045 0.581231 0.505180
0.720546 0.599969 0.481697
0.667872 0.674586 0.538567
0.670222 0.674037 0.538964
0.681880 0.674281 0.545220
0.704463 0.678248 0.562371
0.717678 0.678370 0.578882
0.721065 0.678584 0.596063
0.724514 0.680659 0.616938
0.732143 0.690211 0.644648
0.000000 0.032227 0.130617
0.003906 0.042603 0.134707
0.094514 0.069459 0.142855
0.179232 0.097475 0.156069
0.309300 0.100252 0.171572
0.464210 0.005585 0.169345
0.606439 0.000000 0.162112
0.733059 0.000000 0.164462
0.000000 0.063264 0.142580
0.007935 0.067292 0.145296
0.102205 0.092378 0.152529
0.188479 0.114321 0.164492
0.319677 0.118837 0.178561
0.469337 0.073365 0.173068
0.606470 0.000000 0.166567
0.732204 0.000000 0.167849
0.000000 0.120516 0.164736
0.018311 0.123629 0.166567
0.114595 0.137179 0.173922
0.211490 0.167605 0.184298
0.347601 0.177096 0.196719
0.493751 0.166812 0.191196
0.632105 0.170230 0.195193
0.746609 0.179049 0.190280
0.000000 0.224949 0.209049
0.000000 0.227512 0.209964
0.143282 0.241154 0.215763
0.258396 0.265110 0.229740
0.378088 0.268376 0.224277
0.501305 0.268986 0.220554
0.628504 0.270909 0.216892
0.742397 0.283268 0.211673
0.112276 0.360571 0.257481
0.143862 0.361212 0.256840
0.233646 0.367407 0.259220
0.377752 0.374701 0.297002
0.406012 0.379522 0.323552
0.525780 0.384894 0.286839
0.641444 0.383246 0.259556
0.743374 0.397314 0.254551
0.317296 0.480995 0.316075
0.345312 0.486336 0.327306
0.421118 0.486000 0.353338
0.498390 0.486152 0.371771
0.530297 0.484504 0.394263
0.545739 0.492592 0.423560
0.646113 0.507347 0.389166
0.740902 0.513542 0.346746
0.526146 0.588586 0.437293
0.534112 0.589075 0.439857
0.562646 0.589166 0.447852
0.606317 0.590173 0.463844
0.637079 0.589654 0.483864
0.642267 0.588739 0.503899
0.653346 0.597864 0.533562
0.725154 0.612970 0.508782
0.653223 0.685023 0.560418
0.656519 0.684871 0.561578
0.670069 0.684840 0.567071
0.693721 0.685969 0.579400
0.720302 0.687190 0.597223
0.723476 0.686397 0.612360
0.727291 0.688502 0.632197
0.735439 0.698299 0.659480
0.000000 0.067079 0.224399
0.000000 0.078737 0.228885
0.000427 0.099306 0.239658
0.172580 0.125582 0.257633
0.311559 0.161227 0.281895
0.473732 0.171145 0.300908
0.622004 0.153170 0.297887
0.748165 0.152712 0.290379
0.000000 0.090242 0.234562
0.000000 0.093355 0.238956
0.020874 0.114595 0.249119
0.182437 0.141085 0.265629
0.319188 0.176181 0.287572
0.478920 0.187442 0.305364
0.624353 0.171603 0.300847
0.748653 0.172000 0.292149
0.000000 0.136019 0.256199
0.000000 0.138705 0.258854
0.032441 0.154757 0.269841
0.207767 0.191440 0.284764
0.338933 0.225620 0.300938
0.485603 0.236027 0.312993
0.627436 0.226261 0.306676
0.745571 0.217105 0.290196
0.000000 0.225071 0.291844
0.000000 0.227756 0.293004
0.099947 0.240269 0.299931
0.236332 0.268803 0.315831
0.383062 0.313268 0.333898
0.519432 0.318456 0.338018
0.646876 0.308751 0.322240
0.747616 0.315404 0.312047
0.000000 0.354742 0.339055
0.000000 0.357641 0.340764
0.168978 0.368536 0.346227
0.297032 0.389715 0.357214
0.429725 0.414527 0.374273
0.539178 0.410437 0.360021
0.646693 0.409125 0.349340
0.744137 0.413825 0.338048
0.171389 0.482765 0.387121
0.196628 0.484047 0.387030
0.273320 0.485908 0.383642
0.380713 0.493599 0.384833
0.523186 0.500267 0.424720
0.553979 0.512444 0.459083
0.650935 0.520562 0.425910
0.741634 0.519310 0.390478
0.394751 0.598993 0.438941
0.403235 0.598291 0.437934
0.439368 0.598322 0.438514
0.545678 0.600244 0.479866
0.623072 0.602777 0.509514
0.645686 0.602014 0.530999
0.654566 0.607935 0.555627
0.724575 0.616144 0.523705
0.577142 0.686091 0.540276
0.584710 0.685878 0.544060
0.615473 0.685481 0.561028
0.659968 0.689021 0.586389
0.699458 0.690913 0.604913
0.722652 0.691981 0.624994
0.726467 0.692744 0.643000
0.733730 0.700587 0.667079
0.000000 0.101259 0.341192
0.000000 0.107790 0.345922
0.000000 0.134005 0.358099
0.143282 0.161196 0.377569
0.315679 0.203220 0.402014
0.478340 0.244572 0.423285
0.629786 0.270298 0.442267
0.747219 0.303441 0.452399
0.000000 0.112398 0.339483
0.000000 0.115389 0.342199
0.000000 0.141329 0.353307
0.147768 0.168429 0.370184
0.312200 0.209262 0.394903
0.472541 0.250889 0.417762
0.623835 0.275944 0.437781
0.742733 0.305547 0.447883
0.000000 0.158358 0.362524
0.000000 0.161318 0.364355
0.000000 0.176211 0.374578
0.180331 0.214511 0.387304
0.338201 0.255131 0.409522
0.491737 0.298589 0.431678
0.633143 0.325078 0.450568
0.744808 0.345525 0.455604
0.000000 0.238071 0.390967
0.000000 0.239597 0.391241
0.000000 0.249363 0.396490
0.207187 0.283421 0.419776
0.389776 0.340215 0.444800
0.532219 0.385931 0.464912
0.653346 0.411292 0.480415
0.751888 0.414771 0.473365
0.000000 0.347326 0.421393
0.000000 0.349401 0.422278
0.054292 0.358587 0.427008
0.248173 0.376745 0.437720
0.400122 0.409857 0.456916
0.548852 0.462806 0.479774
0.656825 0.469856 0.483986
0.751675 0.463966 0.466072
0.089265 0.478798 0.464485
0.135622 0.482460 0.467597
0.225101 0.488960 0.471046
0.334447 0.502037 0.478553
0.456001 0.522148 0.491157
0.580072 0.551690 0.516808
0.666682 0.547967 0.501854
0.748104 0.544182 0.486152
0.308232 0.610559 0.533410
0.322545 0.612207 0.535149
0.368231 0.614710 0.537041
0.446174 0.618921 0.537926
0.544091 0.624933 0.538811
0.652644 0.630182 0.575860
0.666346 0.632563 0.597101
0.734554 0.631830 0.559289
0.481361 0.694972 0.573968
0.486305 0.694453 0.572808
0.511284 0.694484 0.571984
0.559075 0.696864 0.575463
0.642145 0.698390 0.607080
0.710262 0.701472 0.641718
0.728603 0.702998 0.663203
0.735134 0.708919 0.684474
0.000000 0.130617 0.455146
0.000000 0.136995 0.458656
0.000000 0.161868 0.468147
0.000000 0.193912 0.484840
0.295445 0.230747 0.505516
0.476997 0.288853 0.531426
0.617945 0.342626 0.548852
0.721675 0.381323 0.558984
0.000000 0.139162 0.452522
0.000000 0.142855 0.456397
0.000000 0.167300 0.465797
0.000000 0.200504 0.481056
0.295018 0.236271 0.501183
0.472145 0.292088 0.525719
0.611353 0.342840 0.542107
0.715633 0.378576 0.551965
0.000000 0.176486 0.464851
0.000000 0.179416 0.466987
0.000000 0.192172 0.475074
0.111116 0.237919 0.490944
0.316533 0.273228 0.508904
0.487068 0.329595 0.533227
0.621393 0.383612 0.552575
0.721279 0.420844 0.565026
0.000000 0.237156 0.481300
0.000000 0.237827 0.480812
0.000000 0.250034 0.487861
0.082612 0.279637 0.505211
0.349187 0.337499 0.525078
0.513603 0.394812 0.549706
0.635584 0.449775 0.569543
0.725795 0.479286 0.580896
0.000000 0.337072 0.506737
0.000000 0.337438 0.506126
0.000000 0.341375 0.507530
0.105348 0.350103 0.512993
0.338293 0.389837 0.533837
0.527489 0.459968 0.559411
0.642603 0.512016 0.581262
0.730282 0.539727 0.597864
0.000000 0.462226 0.539757
0.000000 0.463386 0.540520
0.000000 0.467964 0.543023
0.223697 0.477119 0.548180
0.372900 0.491249 0.556573
0.533684 0.528985 0.578698
0.660121 0.588373 0.608606
0.738552 0.594720 0.612024
0.199832 0.587732 0.583246
0.219974 0.589136 0.584405
0.281987 0.592493 0.586572
0.372930 0.599908 0.591730
0.475654 0.611566 0.599939
0.580804 0.630518 0.614374
0.675746 0.656428 0.639063
0.741604 0.646845 0.617578
0.392523 0.697078 0.646693
0.400397 0.697505 0.647089
0.433265 0.699886 0.649622
0.486061 0.702998 0.652308
0.553765 0.707668 0.655909
0.636774 0.713161 0.655818
0.728237 0.719997 0.691676
0.740078 0.723598 0.711788
0.000000 0.173495 0.587579
0.000000 0.179049 0.589624
0.000000 0.202365 0.594018
0.000000 0.243198 0.605219
0.300847 0.278019 0.619013
0.484627 0.332708 0.635950
0.627863 0.418524 0.656062
0.716640 0.476905 0.666285
0.000000 0.178958 0.584894
0.000000 0.182528 0.587060
0.000000 0.205600 0.592370
0.000000 0.248600 0.603326
0.300908 0.282933 0.617060
0.483528 0.336889 0.634028
0.625605 0.420294 0.653590
0.714595 0.477211 0.663722
0.000000 0.205631 0.586725
0.000000 0.208377 0.588281
0.000000 0.220157 0.593347
0.000000 0.270390 0.606592
0.312688 0.310155 0.619440
0.489326 0.362341 0.635126
0.627497 0.443030 0.654902
0.714504 0.497536 0.665980
0.000000 0.247288 0.589685
0.000000 0.250248 0.591485
0.000000 0.261723 0.596704
0.000000 0.288487 0.608850
0.323583 0.354894 0.623835
0.499489 0.407630 0.640253
0.632563 0.483986 0.660517
0.716701 0.535119 0.673365
0.000000 0.321416 0.601801
0.000000 0.321813 0.602441
0.000000 0.320073 0.602289
0.000000 0.331975 0.607874
0.251041 0.376928 0.625116
0.497993 0.456001 0.643458
0.634455 0.527092 0.665766
0.719509 0.578943 0.683040
0.000000 0.442481 0.626032
0.000000 0.441840 0.625513
0.000000 0.440375 0.624689
0.000000 0.439521 0.625299
0.170626 0.439124 0.628290
0.457130 0.493355 0.649561
0.639734 0.581659 0.678706
0.727321 0.634577 0.701717
0.000000 0.573938 0.658717
0.000000 0.574029 0.658686
0.000000 0.574762 0.658900
0.144472 0.577325 0.660487
0.334783 0.581994 0.663630
0.477516 0.590784 0.669764
0.624903 0.624720 0.686763
0.733577 0.685420 0.718105
0.294682 0.679469 0.694820
0.303716 0.679652 0.694789
0.341436 0.680995 0.695613
0.406317 0.684688 0.698268
0.486091 0.690700 0.702235
0.572747 0.700435 0.708858
0.663752 0.717556 0.721950
0.747768 0.743893 0.747738
