20 Preset/Retro Portrait/【3】LUT video cho PR-AE-FCPX/Retro LUT (2).cube
# Created by Adobe Lightroom plugin Export LUT (1.24.0)
# www.johnrellis.com/lightroom/exportlut.htm
# Preset: 法式胶片-素材江湖02
# Color profile: C:\Program Files (x86)\Common Files\Adobe\Color\Profiles\Recommended\VideoHD.icc
LUT_3D_SIZE 32
DOMAIN_MIN 0.0 0.0 0.0
DOMAIN_MAX 1.0 1.0 1.0
0.158328 0.134493 0.106386
0.158328 0.134493 0.106386
0.158328 0.134493 0.106386
0.158328 0.134493 0.106386
0.158877 0.134646 0.106355
0.162448 0.134859 0.106844
0.169863 0.134676 0.107301
0.187320 0.133913 0.107424
0.217472 0.132753 0.106874
0.259617 0.131044 0.105653
0.311742 0.128634 0.103334
0.368627 0.127596 0.098543
0.425940 0.127504 0.092683
0.480476 0.128573 0.086366
0.531945 0.133272 0.080018
0.578851 0.142519 0.079561
0.620966 0.156741 0.088289
0.665797 0.180392 0.105531
0.708400 0.212741 0.132631
0.741482 0.247135 0.164309
0.767239 0.281651 0.196475
0.787686 0.315007 0.228824
0.804471 0.345953 0.259495
0.819730 0.375616 0.289738
0.833890 0.403815 0.319158
0.847562 0.430793 0.347936
0.861265 0.457160 0.376776
0.875578 0.482612 0.405097
0.890867 0.507652 0.433692
0.907652 0.532158 0.462226
0.926146 0.556390 0.491066
0.947051 0.579400 0.518883
0.158328 0.134493 0.106386
0.158328 0.134493 0.106386
0.158328 0.134493 0.106386
0.158328 0.134493 0.106386
0.158877 0.134646 0.106355
0.162112 0.134890 0.106874
0.169558 0.134737 0.107301
0.185672 0.134218 0.107424
0.214206 0.133211 0.106935
0.254978 0.131655 0.105837
0.306004 0.130037 0.103243
0.361761 0.128634 0.099214
0.418708 0.129000 0.093172
0.472938 0.129763 0.087739
0.524529 0.133364 0.080720
0.572320 0.142153 0.079713
0.615137 0.155947 0.087373
0.660121 0.178103 0.103487
0.701869 0.208682 0.128969
0.735042 0.241215 0.158663
0.761105 0.274235 0.189273
0.781979 0.306188 0.219944
0.798795 0.336584 0.250095
0.814145 0.365759 0.279515
0.828489 0.393713 0.308354
0.842191 0.420844 0.337163
0.856229 0.447333 0.365789
0.870481 0.473732 0.395026
0.885893 0.499428 0.424201
0.902586 0.524804 0.453620
0.920989 0.549645 0.482887
0.941711 0.573510 0.511650
0.158328 0.134493 0.106386
0.158328 0.134493 0.106386
0.158328 0.134493 0.106386
0.158328 0.134493 0.106386
0.159213 0.134615 0.106325
0.162448 0.134859 0.106844
0.170047 0.134890 0.107240
0.185946 0.134890 0.107301
0.213443 0.134340 0.106783
0.253056 0.133425 0.105653
0.302739 0.132479 0.103059
0.357824 0.132235 0.098939
0.413581 0.132418 0.093660
0.467689 0.133486 0.088441
0.519158 0.137606 0.081056
0.567132 0.146120 0.080201
0.610163 0.158907 0.088594
0.655879 0.180575 0.103151
0.697017 0.209445 0.127687
0.730373 0.240879 0.156222
0.756954 0.272496 0.185977
0.778195 0.303929 0.216403
0.795377 0.333684 0.246098
0.810849 0.362402 0.275151
0.825193 0.390082 0.303929
0.839139 0.416876 0.332280
0.852995 0.443610 0.361303
0.867491 0.469886 0.390326
0.882872 0.496010 0.419928
0.899626 0.521508 0.449348
0.918029 0.546532 0.478920
0.938476 0.570794 0.508141
0.158328 0.134493 0.106386
0.158328 0.134493 0.106386
0.158328 0.134493 0.106386
0.158328 0.134493 0.106386
0.159609 0.135012 0.106600
0.163180 0.135225 0.106752
0.171359 0.135897 0.106996
0.187167 0.136355 0.106966
0.214328 0.136812 0.106600
0.252995 0.137057 0.104952
0.301884 0.137606 0.102449
0.354925 0.138308 0.098360
0.409339 0.139193 0.093965
0.462379 0.141238 0.088838
0.513237 0.145480 0.083497
0.560632 0.153902 0.082216
0.603815 0.166171 0.089815
0.649622 0.187045 0.104219
0.688991 0.212711 0.126894
0.721675 0.240726 0.152316
0.748379 0.269749 0.180880
0.770138 0.299565 0.210025
0.788266 0.328588 0.239231
0.804685 0.357275 0.268376
0.820096 0.385809 0.297978
0.834928 0.413916 0.327916
0.849851 0.441749 0.358160
0.864927 0.469215 0.388739
0.880858 0.495735 0.418769
0.897765 0.521508 0.448676
0.916045 0.546136 0.477821
0.935973 0.569726 0.506249
0.158816 0.135378 0.106538
0.158816 0.135378 0.106538
0.158816 0.135378 0.106538
0.159304 0.135561 0.106844
0.160037 0.135927 0.107088
0.163943 0.136782 0.106783
0.172580 0.137606 0.106966
0.188388 0.138979 0.106722
0.214176 0.140536 0.105867
0.251560 0.142458 0.104311
0.297398 0.144045 0.101839
0.348699 0.145937 0.098482
0.401617 0.148409 0.094057
0.454780 0.151492 0.089662
0.505730 0.156863 0.085206
0.553582 0.165652 0.085634
0.598444 0.178164 0.092775
0.645167 0.198764 0.108064
0.683955 0.222385 0.129610
0.716396 0.248295 0.155062
0.743252 0.276005 0.182498
0.765408 0.303868 0.210513
0.783902 0.331884 0.239414
0.800778 0.359960 0.268437
0.816526 0.388281 0.298497
0.831876 0.416266 0.328618
0.847013 0.443763 0.358770
0.862303 0.470741 0.389075
0.878294 0.496773 0.418708
0.895171 0.521996 0.448127
0.913329 0.546258 0.476936
0.933165 0.569390 0.504906
0.159487 0.137636 0.107088
0.159487 0.137636 0.107088
0.160037 0.137789 0.107057
0.160922 0.137667 0.107729
0.161959 0.137972 0.107973
0.164065 0.138613 0.108095
0.172274 0.141054 0.107637
0.190463 0.143587 0.106386
0.216648 0.145815 0.105684
0.252934 0.149264 0.104128
0.297734 0.152804 0.101595
0.347265 0.156497 0.098665
0.399542 0.160433 0.094697
0.451728 0.165438 0.090730
0.502647 0.172183 0.088136
0.550958 0.181765 0.090242
0.599115 0.196262 0.098878
0.644373 0.216190 0.116152
0.682277 0.238895 0.137636
0.714321 0.263645 0.163272
0.741054 0.289616 0.190280
0.763149 0.316320 0.218112
0.809384 0.393957 0.299779
0.824643 0.420386 0.329046
0.839078 0.445930 0.357763
0.853391 0.469978 0.385290
0.867735 0.493416 0.412390
0.882750 0.515679 0.438514
0.898650 0.537285 0.464271
0.915648 0.558373 0.489784
0.934295 0.578180 0.514092
0.954498 0.596887 0.537438
0.160922 0.144198 0.107759
0.161227 0.144167 0.108095
0.162692 0.144198 0.108370
0.165103 0.144076 0.108980
0.167666 0.143893 0.110201
0.170718 0.145235 0.110475
0.175509 0.146914 0.110292
0.192325 0.151888 0.109560
0.226993 0.158450 0.106325
0.268437 0.162753 0.103639
0.315435 0.168063 0.100740
0.365789 0.174105 0.097536
0.417487 0.180575 0.094118
0.468391 0.187625 0.091768
0.517937 0.196475 0.092348
0.564935 0.208255 0.098665
0.617121 0.228031 0.114260
0.659998 0.249271 0.135897
0.695949 0.272892 0.160922
0.726833 0.298161 0.189059
0.752895 0.325841 0.219730
0.775235 0.354986 0.251926
0.794827 0.384771 0.285222
0.812894 0.414740 0.318944
0.829831 0.442725 0.350744
0.845457 0.468391 0.380468
0.860563 0.492042 0.408087
0.875822 0.514092 0.434363
0.891814 0.535485 0.460090
0.908659 0.556085 0.485145
0.927062 0.575860 0.509545
0.947112 0.594476 0.532860
0.163516 0.154116 0.109194
0.164126 0.154025 0.109529
0.166171 0.153964 0.110109
0.170138 0.153811 0.111269
0.174411 0.153445 0.112459
0.178470 0.153445 0.114473
0.184512 0.156558 0.114534
0.192111 0.159304 0.114565
0.215152 0.166659 0.113741
0.264042 0.178164 0.107698
0.311528 0.184543 0.103456
0.363622 0.190188 0.097902
0.413611 0.197910 0.095247
0.463142 0.206271 0.094484
0.511467 0.215915 0.096620
0.565148 0.232059 0.106600
0.612177 0.249760 0.123293
0.652491 0.268681 0.143832
0.687373 0.289128 0.167636
0.718013 0.311986 0.194308
0.744198 0.337102 0.223545
0.767025 0.363500 0.254002
0.786709 0.391424 0.286778
0.805356 0.419196 0.318822
0.822477 0.446235 0.350408
0.838468 0.471107 0.379950
0.854032 0.493996 0.407111
0.869627 0.515679 0.433295
0.885863 0.536675 0.458900
0.902922 0.557000 0.483894
0.921477 0.576379 0.508019
0.941619 0.594842 0.531334
0.167849 0.169924 0.111788
0.168612 0.170016 0.112062
0.172091 0.169772 0.112947
0.177279 0.169833 0.114870
0.183688 0.169345 0.116274
0.190555 0.168948 0.119051
0.196963 0.169223 0.121889
0.206302 0.174624 0.121462
0.217777 0.178714 0.121706
0.245396 0.188602 0.121340
0.302892 0.203983 0.113375
0.357671 0.213870 0.106691
0.411566 0.219821 0.099916
0.462013 0.227512 0.097353
0.517235 0.242649 0.103822
0.566094 0.258183 0.116945
0.609583 0.274144 0.134463
0.647730 0.291386 0.154788
0.681636 0.309819 0.177920
0.711574 0.330602 0.203769
0.737606 0.353185 0.231846
0.760220 0.377569 0.261631
0.780117 0.403052 0.292668
0.798672 0.428962 0.324102
0.816159 0.454139 0.354437
0.832517 0.477668 0.383093
0.848356 0.499794 0.410132
0.864225 0.520745 0.435981
0.880858 0.540948 0.460975
0.898131 0.560632 0.485603
0.916838 0.579492 0.509331
0.937133 0.597406 0.532189
0.175357 0.193179 0.115602
0.175906 0.193118 0.115908
0.179660 0.192874 0.117342
0.187350 0.192752 0.119997
0.196109 0.192172 0.122377
0.205417 0.191135 0.125277
0.214847 0.190433 0.129549
0.223819 0.192996 0.132387
0.236393 0.199466 0.132082
0.250248 0.204562 0.132448
0.279728 0.215579 0.133272
0.340642 0.233982 0.125368
0.403632 0.248661 0.117922
0.461982 0.259434 0.113832
0.518853 0.268894 0.111818
0.565148 0.283818 0.126833
0.607141 0.299382 0.145724
0.644617 0.315923 0.167361
0.677821 0.333654 0.191348
0.707118 0.352728 0.216800
0.732357 0.372778 0.243565
0.753964 0.393713 0.271214
0.772976 0.415686 0.299535
0.790890 0.438025 0.327794
0.807858 0.460365 0.356176
0.824155 0.482033 0.383307
0.840360 0.502892 0.409430
0.856657 0.523461 0.435279
0.873747 0.543481 0.460487
0.891691 0.563165 0.485481
0.911040 0.582055 0.509575
0.931975 0.600092 0.532830
0.184848 0.220737 0.121645
0.185763 0.220768 0.122164
0.190311 0.220706 0.123659
0.199863 0.220584 0.127138
0.211093 0.220462 0.130892
0.223178 0.219547 0.134646
0.235416 0.218875 0.139559
0.246830 0.218387 0.145937
0.258732 0.223819 0.148226
0.273381 0.231601 0.148196
0.290440 0.238163 0.149508
0.322911 0.252659 0.154421
0.388586 0.276188 0.148806
0.455940 0.295018 0.143832
0.510216 0.306035 0.143862
0.561822 0.314336 0.145510
0.605402 0.325353 0.157870
0.641230 0.340551 0.179721
0.673243 0.356664 0.203799
0.701625 0.373754 0.228641
0.726162 0.391760 0.254612
0.747585 0.410498 0.280858
0.766537 0.430732 0.308751
0.784512 0.451240 0.336309
0.801724 0.471962 0.363439
0.818326 0.492317 0.389990
0.834867 0.512047 0.415473
0.851560 0.531518 0.440650
0.868986 0.550591 0.465278
0.887266 0.569635 0.489937
0.906920 0.587823 0.513451
0.928252 0.605219 0.536187
0.200748 0.254826 0.132143
0.202060 0.254795 0.132601
0.207340 0.254734 0.134646
0.217533 0.254673 0.138582
0.231540 0.254856 0.144594
0.244999 0.254002 0.148653
0.259525 0.253361 0.154238
0.273808 0.253025 0.161349
0.286839 0.253849 0.170779
0.303624 0.265202 0.172671
0.322118 0.275883 0.174960
0.341894 0.284306 0.178317
0.405982 0.329381 0.207950
0.471778 0.356329 0.209232
0.536858 0.376715 0.210605
0.587427 0.387854 0.215885
0.631098 0.395056 0.222995
0.670893 0.400702 0.231052
0.698207 0.414771 0.256046
0.721675 0.429755 0.281498
0.742214 0.445319 0.307012
0.760494 0.461494 0.332128
0.777737 0.478248 0.357336
0.794491 0.495399 0.381903
0.810819 0.512322 0.405737
0.826963 0.528771 0.428412
0.842954 0.544732 0.450233
0.859281 0.560327 0.471351
0.876280 0.575891 0.492287
0.894469 0.591302 0.512993
0.914061 0.606409 0.533227
0.935485 0.621424 0.553338
0.229038 0.303227 0.153323
0.230014 0.302922 0.153811
0.235966 0.302892 0.156222
0.247349 0.303288 0.161105
0.264256 0.303838 0.168917
0.279942 0.304021 0.175021
0.296849 0.304387 0.181827
0.314397 0.305333 0.190768
0.331609 0.307164 0.201816
0.347295 0.312535 0.212589
0.367102 0.326848 0.216373
0.388190 0.339910 0.222019
0.410590 0.351232 0.228885
0.441077 0.365972 0.238712
0.500999 0.392920 0.244602
0.560815 0.412879 0.248631
0.609400 0.424537 0.254582
0.648646 0.431312 0.262455
0.684260 0.436500 0.271183
0.712184 0.444587 0.287053
0.732509 0.458106 0.311376
0.750973 0.472663 0.336278
0.768460 0.487861 0.360449
0.785519 0.503746 0.384558
0.802182 0.519707 0.408148
0.818631 0.535576 0.430884
0.835233 0.551049 0.452705
0.852171 0.566400 0.474189
0.869780 0.581781 0.495216
0.888609 0.597040 0.516075
0.908873 0.611780 0.536156
0.930663 0.626612 0.556329
0.263554 0.351720 0.182040
0.264164 0.351568 0.182071
0.269261 0.350958 0.184329
0.279789 0.350225 0.188693
0.294774 0.349615 0.195895
0.311009 0.348821 0.203281
0.327062 0.347845 0.209140
0.343816 0.347448 0.217075
0.360937 0.348119 0.227146
0.377020 0.350317 0.239750
0.392737 0.358495 0.248508
0.412512 0.372534 0.253300
0.431495 0.384009 0.259159
0.451240 0.393591 0.265751
0.476722 0.404974 0.274235
0.528130 0.428260 0.281621
0.581842 0.446174 0.286320
0.627924 0.457801 0.292180
0.663508 0.464607 0.301122
0.695094 0.469795 0.310552
0.723659 0.474586 0.320653
0.743374 0.486519 0.343053
0.761013 0.500542 0.367224
0.778195 0.515496 0.391333
0.795285 0.530449 0.414466
0.812100 0.545495 0.437049
0.829160 0.560174 0.458534
0.846464 0.574914 0.479591
0.864500 0.589685 0.500481
0.883909 0.604273 0.520806
0.904570 0.618677 0.540795
0.927031 0.633051 0.560662
0.297642 0.395636 0.213565
0.298619 0.395483 0.213931
0.302678 0.394720 0.215457
0.311742 0.393530 0.219394
0.324987 0.392065 0.225681
0.341466 0.390875 0.234104
0.355810 0.389136 0.239078
0.371588 0.388190 0.245945
0.388037 0.388190 0.254948
0.404456 0.389471 0.266423
0.419409 0.392004 0.279973
0.435065 0.402533 0.286687
0.453468 0.415686 0.291630
0.470069 0.424964 0.297246
0.486976 0.432349 0.302800
0.507530 0.440162 0.309270
0.551690 0.460365 0.317693
0.599847 0.476875 0.323003
0.643977 0.488685 0.329381
0.676265 0.495277 0.338628
0.705135 0.500816 0.348638
0.731746 0.506462 0.359991
0.754696 0.514611 0.375525
0.772000 0.528191 0.399145
0.789242 0.542046 0.421698
0.806424 0.556176 0.443885
0.823819 0.570367 0.465461
0.841672 0.584863 0.486946
0.860685 0.599420 0.507927
0.881071 0.613916 0.528588
0.903075 0.628382 0.548913
0.926818 0.642817 0.569207
0.329137 0.433021 0.244755
0.330907 0.433051 0.245518
0.335027 0.432715 0.247379
0.342962 0.432105 0.251225
0.354864 0.431342 0.257267
0.370947 0.430884 0.266026
0.385962 0.430426 0.272953
0.401007 0.429999 0.279881
0.417273 0.430152 0.288457
0.433173 0.430915 0.298772
0.447944 0.432288 0.310735
0.460578 0.434455 0.323156
0.474128 0.444404 0.326024
0.488899 0.453864 0.329076
0.501976 0.459907 0.332372
0.515709 0.464546 0.335821
0.532586 0.469764 0.340673
0.570397 0.487343 0.349676
0.614893 0.503105 0.355932
0.655360 0.514794 0.363500
0.687190 0.522820 0.373632
0.714443 0.529534 0.385412
0.740078 0.536461 0.397864
0.765194 0.543664 0.411078
0.784512 0.555535 0.431495
0.802182 0.569116 0.453712
0.820066 0.582910 0.475441
0.838651 0.596674 0.496529
0.858152 0.610468 0.516899
0.878843 0.624079 0.536828
0.901030 0.637690 0.556359
0.924895 0.651179 0.575616
0.359716 0.466133 0.276127
0.360632 0.466163 0.276616
0.364080 0.465949 0.278355
0.371252 0.465461 0.281956
0.381811 0.465095 0.287449
0.395972 0.464729 0.295567
0.411475 0.464485 0.303899
0.425086 0.464027 0.309972
0.439673 0.463813 0.317479
0.454688 0.464027 0.326421
0.469001 0.464729 0.336919
0.481880 0.465949 0.348577
0.492805 0.469703 0.357641
0.505211 0.478248 0.360174
0.517967 0.485756 0.362463
0.529473 0.490486 0.365301
0.541650 0.494087 0.368078
0.555810 0.497902 0.372198
0.588464 0.513451 0.382025
0.629603 0.528801 0.389441
0.666621 0.540551 0.398260
0.698573 0.549554 0.408820
0.724422 0.557183 0.421424
0.749783 0.564935 0.434607
0.774929 0.572839 0.447883
0.798489 0.582116 0.463569
0.816831 0.595422 0.485389
0.836027 0.608667 0.506157
0.856168 0.621851 0.526268
0.877623 0.634943 0.545739
0.900481 0.648005 0.564965
0.924865 0.661280 0.584283
0.391302 0.498878 0.310399
0.392370 0.499031 0.311101
0.415930 0.519127 0.335851
0.421668 0.518883 0.339055
0.430945 0.518364 0.344152
0.442939 0.517754 0.351141
0.457282 0.517296 0.360021
0.468727 0.516442 0.364965
0.481392 0.515862 0.371160
0.494606 0.515679 0.378820
0.507652 0.515587 0.387488
0.519432 0.515862 0.397070
0.529290 0.515984 0.406928
0.538018 0.519585 0.411627
0.547936 0.525597 0.412512
0.557641 0.530022 0.412970
0.566491 0.532433 0.413825
0.576013 0.534112 0.414862
0.586908 0.535363 0.416632
0.613703 0.547814 0.425574
0.650050 0.561395 0.433143
0.683467 0.572442 0.442359
0.714748 0.581689 0.452247
0.739864 0.589258 0.464179
0.764584 0.596612 0.476081
0.789181 0.604059 0.488197
0.813901 0.611688 0.500755
0.835142 0.621912 0.517449
0.855314 0.633814 0.536248
0.876921 0.646052 0.554986
0.900175 0.658503 0.573663
0.924865 0.671382 0.592767
0.427008 0.533532 0.350835
0.429328 0.535271 0.353124
0.434058 0.536950 0.356939
0.440955 0.538231 0.361730
0.449805 0.539117 0.367559
0.460487 0.539178 0.374243
0.473732 0.538811 0.382574
0.485145 0.538140 0.388434
0.496254 0.537438 0.393652
0.508019 0.536919 0.400031
0.520012 0.536675 0.407446
0.531579 0.536553 0.415534
0.541558 0.536431 0.424262
0.549767 0.536309 0.433326
0.557916 0.541009 0.435309
0.567285 0.546380 0.435950
0.576165 0.550286 0.436835
0.584802 0.552758 0.438117
0.594049 0.554833 0.439918
0.604150 0.556359 0.442298
0.627405 0.567559 0.451911
0.661738 0.581628 0.461341
0.693629 0.593042 0.471382
0.724666 0.603052 0.481758
0.750851 0.611261 0.493141
0.775814 0.619074 0.505028
0.800992 0.626795 0.517021
0.826658 0.634791 0.529442
0.852659 0.643610 0.543236
0.874662 0.655360 0.561669
0.898314 0.667536 0.580377
0.923491 0.680323 0.599664
0.450904 0.555901 0.378485
0.453040 0.557580 0.380835
0.457557 0.559228 0.384527
0.463478 0.560601 0.388952
0.471504 0.561425 0.394385
0.481178 0.561578 0.400549
0.492256 0.561334 0.407568
0.503685 0.560815 0.414527
0.513573 0.560052 0.418891
0.524071 0.559380 0.424048
0.534997 0.558953 0.430396
0.545739 0.558709 0.437446
0.555627 0.558434 0.444984
0.564324 0.558343 0.453162
0.571405 0.558862 0.460395
0.579248 0.563745 0.461128
0.588006 0.568536 0.461738
0.595880 0.571710 0.462867
0.603906 0.574029 0.464393
0.612604 0.576135 0.466651
0.621942 0.577722 0.469245
0.641169 0.587091 0.478706
0.673487 0.601190 0.489021
0.704768 0.612970 0.499336
0.735592 0.623316 0.509453
0.763760 0.632136 0.520195
0.789181 0.640223 0.531945
0.815366 0.648371 0.543938
0.842374 0.657038 0.556909
0.870603 0.666133 0.570672
0.897246 0.677028 0.587488
0.922728 0.689601 0.606806
0.475257 0.578058 0.407050
0.477180 0.579461 0.409216
0.480629 0.580835 0.412299
0.486030 0.581903 0.416266
0.492805 0.582666 0.420905
0.501152 0.582727 0.426276
0.511009 0.582422 0.432563
0.522240 0.582116 0.439918
0.531060 0.581476 0.443915
0.540520 0.580865 0.448432
0.550347 0.580346 0.453895
0.560327 0.579950 0.459998
0.569818 0.579614 0.466560
0.578485 0.579370 0.473732
0.585962 0.579187 0.481239
0.592462 0.581140 0.486397
0.600153 0.585840 0.487739
0.608911 0.590845 0.489418
0.616724 0.594354 0.491951
0.625086 0.597559 0.495064
0.633967 0.600641 0.498817
0.643366 0.603357 0.502983
0.660273 0.611810 0.512352
0.691737 0.626276 0.523583
0.723720 0.638911 0.534508
0.755550 0.650080 0.545129
0.786679 0.659998 0.555810
0.814084 0.668910 0.568078
0.842496 0.678096 0.581109
0.872038 0.687739 0.595270
0.902770 0.697963 0.610529
0.934508 0.708644 0.626917
0.509392 0.606836 0.447456
0.510246 0.607355 0.448341
0.512291 0.607691 0.449805
0.515618 0.607782 0.451972
0.520775 0.607538 0.455055
0.526940 0.607111 0.458778
0.535058 0.606561 0.463813
0.544762 0.606104 0.470069
0.553552 0.605554 0.474861
0.561791 0.605127 0.478981
0.570703 0.604669 0.483680
0.579736 0.604395 0.489143
0.588586 0.603998 0.494850
0.596765 0.603632 0.500908
0.604120 0.603357 0.507378
0.610346 0.603265 0.514122
0.616236 0.605921 0.517052
0.623285 0.610010 0.518090
0.631128 0.614221 0.519554
0.637964 0.616968 0.521630
0.645258 0.619532 0.524071
0.653101 0.621851 0.526940
0.661341 0.623926 0.529931
0.676631 0.630945 0.537377
0.706142 0.644312 0.547692
0.738186 0.657069 0.558312
0.770809 0.668635 0.568933
0.804044 0.679377 0.579950
0.833646 0.689357 0.593133
0.863706 0.699458 0.607355
0.894957 0.709987 0.622675
0.927489 0.720974 0.639185
0.532250 0.625513 0.474586
0.533013 0.625910 0.475380
0.534813 0.626154 0.476753
0.537957 0.626276 0.478737
0.542138 0.626123 0.481361
0.547814 0.625757 0.484871
0.554833 0.625299 0.489174
0.563348 0.624842 0.494697
0.572076 0.624598 0.500298
0.579400 0.624109 0.503685
0.587335 0.623804 0.507805
0.595422 0.623529 0.512444
0.603510 0.623255 0.517449
0.611383 0.623041 0.522881
0.618708 0.622889 0.528618
0.625177 0.622858 0.534722
0.630701 0.623072 0.541253
0.636774 0.626734 0.542809
0.643763 0.630762 0.544274
0.651179 0.634668 0.546014
0.657923 0.637507 0.548302
0.665187 0.640253 0.550896
0.672999 0.642786 0.553765
0.681239 0.645014 0.556756
0.692103 0.647517 0.558404
0.720211 0.660212 0.568292
0.752865 0.673457 0.579217
0.786313 0.685725 0.590692
0.821012 0.697444 0.602747
0.853819 0.708583 0.616663
0.886015 0.719875 0.632502
0.919585 0.731563 0.649500
0.560357 0.647486 0.507652
0.561303 0.648188 0.508751
0.562768 0.648371 0.509819
0.564935 0.648157 0.511101
0.567895 0.647578 0.512566
0.572015 0.646784 0.514672
0.577111 0.645777 0.517449
0.583734 0.644800 0.521202
0.591363 0.643885 0.525872
0.597223 0.643000 0.528283
0.603510 0.642084 0.530877
0.610407 0.641291 0.534173
0.617365 0.640620 0.537926
0.624231 0.639887 0.541894
0.630762 0.639155 0.546288
0.636744 0.638575 0.550958
0.642145 0.638239 0.556207
0.647120 0.639033 0.560906
0.653223 0.642786 0.562188
0.660395 0.646967 0.564019
0.667872 0.650965 0.566186
0.674861 0.654017 0.568780
0.682033 0.656641 0.571130
0.689479 0.658869 0.573510
0.697139 0.660548 0.575677
0.710597 0.665888 0.581079
0.737240 0.677729 0.590509
0.770352 0.691218 0.601770
0.804807 0.704036 0.613825
0.840879 0.716518 0.626795
0.877287 0.728756 0.641444
0.911498 0.740993 0.658686
0.578119 0.662928 0.528893
0.579065 0.663539 0.529900
0.580529 0.663844 0.530999
0.582513 0.663874 0.532311
0.585504 0.663630 0.534020
0.589441 0.663294 0.536309
0.594598 0.662898 0.539422
0.600946 0.662593 0.543359
0.608392 0.662287 0.548180
0.615198 0.662013 0.551995
0.621210 0.661585 0.554711
0.627802 0.661189 0.557946
0.634424 0.660731 0.561334
0.641047 0.660182 0.565057
0.647333 0.659541 0.568841
0.653315 0.658930 0.572930
0.658839 0.658503 0.577417
0.663935 0.658412 0.582483
0.669154 0.660304 0.585931
0.675593 0.664210 0.587610
0.682948 0.668391 0.589563
0.690394 0.672175 0.591852
0.697353 0.675166 0.594354
0.704646 0.677882 0.596918
0.712276 0.680171 0.599451
0.720150 0.682155 0.602014
0.733608 0.687434 0.607416
0.759670 0.699031 0.617334
0.794736 0.713619 0.630152
0.831510 0.727596 0.643732
0.870298 0.741268 0.658289
0.911192 0.754788 0.674037
0.599359 0.682399 0.554253
0.599786 0.682734 0.554711
0.600793 0.682826 0.555444
0.602472 0.682795 0.556420
0.605127 0.682490 0.557885
0.608576 0.682124 0.559808
0.612940 0.681727 0.562310
0.618494 0.681300 0.565606
0.625055 0.680995 0.569665
0.632044 0.680751 0.573968
0.637720 0.680262 0.576318
0.643854 0.679927 0.579187
0.650233 0.679530 0.582300
0.656672 0.679103 0.585687
0.662928 0.678462 0.589166
0.668971 0.677882 0.592920
0.674678 0.677424 0.597101
0.680110 0.677272 0.601801
0.685267 0.677607 0.607202
0.690974 0.680568 0.609796
0.697841 0.684627 0.611719
0.705470 0.688838 0.613855
0.712612 0.692317 0.616114
0.719631 0.695125 0.618524
0.726802 0.697658 0.620905
0.734401 0.699825 0.623285
0.742367 0.701808 0.625879
0.755550 0.706752 0.631098
0.780911 0.717983 0.641230
0.818112 0.733669 0.655390
0.857511 0.748898 0.670680
0.899351 0.763912 0.687221
0.617639 0.700862 0.576379
0.618219 0.701076 0.576837
0.619135 0.701289 0.577508
0.620935 0.701320 0.578576
0.623468 0.701381 0.580224
0.627131 0.701503 0.582574
0.632227 0.701991 0.585992
0.638514 0.702663 0.590295
0.646021 0.703578 0.595575
0.654505 0.704677 0.601648
0.661707 0.705684 0.606012
0.669001 0.706600 0.610224
0.676448 0.707424 0.614557
0.683772 0.707942 0.618891
0.690913 0.708217 0.623133
0.697505 0.708095 0.627192
0.703761 0.707881 0.631403
0.709743 0.707912 0.636042
0.715572 0.708309 0.641321
0.721035 0.709194 0.646998
0.727596 0.713100 0.648981
0.734981 0.717220 0.651179
0.742947 0.721401 0.653346
0.750240 0.724636 0.655726
0.757412 0.727352 0.658076
0.764950 0.729854 0.660548
0.772885 0.732113 0.663081
0.781399 0.734279 0.665888
0.795041 0.739223 0.671260
0.820676 0.750118 0.681758
0.861814 0.767147 0.698024
0.905730 0.783810 0.715602
0.647211 0.729488 0.610925
0.647272 0.729488 0.610956
0.647944 0.729366 0.611292
0.649287 0.729213 0.611963
0.651423 0.728939 0.613092
0.654505 0.728664 0.614740
0.658595 0.728511 0.617121
0.663691 0.728420 0.620203
0.669856 0.728450 0.624048
0.677028 0.728603 0.628656
0.683864 0.728725 0.632563
0.690028 0.728847 0.635523
0.696529 0.728939 0.638788
0.703212 0.728969 0.642237
