20 Preset/Retro Portrait/【3】LUT video cho PR-AE-FCPX/Retro LUT (7).cube
# Created by Adobe Lightroom plugin Export LUT (1.24.0)
# www.johnrellis.com/lightroom/exportlut.htm
# Preset: 法式胶片-素材江湖07
# Color profile: C:\Program Files (x86)\Common Files\Adobe\Color\Profiles\Recommended\VideoHD.icc
LUT_3D_SIZE 8
DOMAIN_MIN 0.000000 0.000000 0.000000
DOMAIN_MAX 0.903226 0.903226 0.903226
0.190402 0.169650 0.135500
0.195529 0.170504 0.136629
0.216312 0.172885 0.139681
0.272068 0.171450 0.142855
0.383246 0.158877 0.147311
0.566522 0.117525 0.162692
0.716579 0.104707 0.194095
0.848112 0.177951 0.248936
0.194034 0.174258 0.138094
0.195499 0.173861 0.139071
0.215366 0.176547 0.140200
0.265507 0.176516 0.143130
0.368872 0.168643 0.147463
0.531548 0.143526 0.160067
0.678767 0.127657 0.185946
0.821408 0.176944 0.237369
0.205661 0.193179 0.146883
0.211124 0.193057 0.146944
0.213931 0.189212 0.151400
0.290501 0.202518 0.146883
0.414252 0.204288 0.154177
0.564324 0.201450 0.171572
0.722713 0.220035 0.211521
0.854765 0.275822 0.273808
0.246189 0.269291 0.176486
0.255375 0.267277 0.175875
0.298161 0.266331 0.177676
0.291966 0.254215 0.205509
0.467018 0.297887 0.202152
0.626459 0.319890 0.208835
0.749905 0.340612 0.253269
0.864622 0.382452 0.316747
0.321477 0.386328 0.243900
0.332219 0.385168 0.243687
0.377813 0.385840 0.247562
0.437507 0.380896 0.265568
0.404730 0.353399 0.300664
0.560937 0.396704 0.309148
0.754299 0.455879 0.304631
0.868406 0.491981 0.376471
0.437873 0.521050 0.367193
0.455726 0.529808 0.377722
0.491768 0.530144 0.381689
0.557183 0.531792 0.391058
0.582116 0.510613 0.413703
0.546624 0.487068 0.450446
0.687160 0.539879 0.488350
0.880644 0.614466 0.500664
0.581598 0.663142 0.540215
0.590204 0.665217 0.543786
0.613581 0.664057 0.545434
0.659632 0.664637 0.552453
0.721218 0.663783 0.560937
0.719722 0.639857 0.587579
0.687861 0.622400 0.619898
0.788724 0.667353 0.664088
0.738430 0.789578 0.735012
0.741665 0.789487 0.735409
0.756283 0.790219 0.739345
0.784421 0.792569 0.748806
0.805539 0.781033 0.733577
0.850309 0.785489 0.754421
0.843595 0.772854 0.778683
0.823880 0.762844 0.796353
0.192142 0.170413 0.137209
0.194827 0.171084 0.137697
0.211917 0.173861 0.141054
0.256596 0.175540 0.145480
0.355993 0.168215 0.150698
0.509087 0.144656 0.163119
0.653834 0.123690 0.186679
0.796201 0.156100 0.231724
0.194064 0.174228 0.139498
0.196323 0.175082 0.140200
0.213657 0.177737 0.142306
0.258640 0.179416 0.145998
0.358526 0.174258 0.151431
0.503105 0.156954 0.163485
0.639857 0.141238 0.184878
0.780209 0.165377 0.226596
0.205478 0.192447 0.147890
0.210300 0.192569 0.148562
0.214206 0.190036 0.152255
0.281407 0.201816 0.150210
0.383917 0.203281 0.156588
0.522301 0.200687 0.171328
0.663508 0.205600 0.199008
0.806088 0.245823 0.251377
0.236149 0.251225 0.171603
0.244053 0.250492 0.171695
0.280247 0.251774 0.173922
0.272190 0.238163 0.192020
0.413001 0.270176 0.186069
0.561151 0.288060 0.193057
0.688472 0.303746 0.227359
0.817746 0.344366 0.285374
0.313298 0.375647 0.240024
0.321874 0.373175 0.239109
0.362585 0.370825 0.240116
0.415167 0.361913 0.252018
0.380926 0.332891 0.280278
0.532677 0.374762 0.287816
0.723629 0.431769 0.286687
0.842710 0.468482 0.353918
0.421393 0.504570 0.353002
0.430518 0.505333 0.354284
0.466621 0.506676 0.359075
0.533440 0.511009 0.370794
0.563317 0.493904 0.395911
0.533745 0.475380 0.437018
0.674372 0.527764 0.473121
0.868833 0.600732 0.481514
0.561151 0.646265 0.519127
0.564446 0.643854 0.516533
0.587945 0.642267 0.517449
0.636683 0.644862 0.527031
0.704433 0.649134 0.542199
0.704707 0.625635 0.569177
0.669276 0.604730 0.597436
0.771725 0.648127 0.638544
0.721492 0.780117 0.717617
0.727565 0.781735 0.721248
0.742489 0.782223 0.724697
0.772946 0.785031 0.734890
0.811704 0.787564 0.746731
0.851743 0.787808 0.758755
0.842161 0.771176 0.776303
0.821683 0.760464 0.793606
0.196506 0.173983 0.142672
0.198062 0.174624 0.142489
0.209720 0.176913 0.145693
0.258579 0.178408 0.153323
0.365759 0.171481 0.163149
0.517266 0.166781 0.186831
0.663691 0.170932 0.219211
0.806424 0.211185 0.270939
0.198795 0.177615 0.145266
0.201358 0.178714 0.145418
0.213443 0.181003 0.148074
0.260746 0.182773 0.154513
0.364446 0.180758 0.165347
0.508049 0.177737 0.186069
0.650935 0.180056 0.215885
0.794217 0.215854 0.265751
0.207004 0.194125 0.155154
0.210666 0.195804 0.155703
0.221286 0.197757 0.159518
0.286717 0.207797 0.163729
0.395758 0.214969 0.176730
0.531487 0.220493 0.197818
0.668391 0.234257 0.230564
0.805722 0.274479 0.284092
0.234470 0.259037 0.184054
0.243107 0.262364 0.185428
0.284459 0.264927 0.191348
0.287449 0.254551 0.208652
0.442145 0.292210 0.203708
0.571069 0.306462 0.225925
0.698512 0.328618 0.265354
0.824613 0.369055 0.323278
0.306035 0.377996 0.252293
0.320897 0.378790 0.257084
0.363317 0.379980 0.261631
0.428901 0.378912 0.273869
0.399542 0.353155 0.303532
0.553429 0.394842 0.309239
0.724147 0.442969 0.318761
0.843046 0.479591 0.383642
0.416449 0.505119 0.364904
0.428443 0.506920 0.369482
0.462562 0.507713 0.373297
0.524804 0.509972 0.382147
0.561639 0.495857 0.403449
0.534112 0.478584 0.442695
0.680354 0.533349 0.479774
0.873625 0.609766 0.495918
0.560266 0.652033 0.533867
0.566491 0.650385 0.534295
0.587671 0.647150 0.532738
0.633082 0.647333 0.538720
0.698878 0.650172 0.551598
0.708156 0.631312 0.579309
0.678614 0.615503 0.612573
0.787778 0.663569 0.657923
0.713649 0.780911 0.718898
0.717800 0.780179 0.719905
0.734859 0.780575 0.725093
0.768765 0.785336 0.738766
0.807736 0.787778 0.750179
0.851987 0.791379 0.765438
0.844846 0.775875 0.783566
0.825254 0.765438 0.799924
0.203555 0.178561 0.152773
0.205936 0.179355 0.153170
0.213107 0.181857 0.153933
0.250217 0.185489 0.164431
0.355871 0.184085 0.184695
0.497841 0.176120 0.208255
0.638300 0.178012 0.238987
0.779568 0.216556 0.291173
0.208347 0.183993 0.157870
0.210636 0.184634 0.157717
0.218082 0.186954 0.158053
0.257664 0.190890 0.168734
0.366186 0.191470 0.189639
0.502007 0.186893 0.211765
0.638514 0.192264 0.242161
0.778073 0.236088 0.297429
0.215244 0.198886 0.168368
0.218845 0.201022 0.170016
0.237034 0.209476 0.174899
0.285222 0.215579 0.185245
0.394476 0.223545 0.205081
0.529808 0.240299 0.235935
0.672297 0.271366 0.281743
0.803952 0.309331 0.334783
0.240513 0.262760 0.213352
0.246616 0.264683 0.213382
0.276219 0.276768 0.216800
0.307317 0.277775 0.233402
0.438270 0.301183 0.237186
0.555230 0.318029 0.265171
0.682673 0.344030 0.306432
0.812955 0.383154 0.363165
0.309148 0.386969 0.288701
0.316533 0.387671 0.287968
0.358404 0.395789 0.295689
0.440070 0.403388 0.311925
0.424811 0.382849 0.339147
0.587884 0.427771 0.344091
0.725673 0.460883 0.371862
0.841093 0.493050 0.428870
0.412482 0.519036 0.394537
0.425818 0.527276 0.402838
0.470985 0.529015 0.418158
0.532311 0.531792 0.427893
0.584710 0.523919 0.444770
0.552087 0.500633 0.472724
0.703456 0.553521 0.503685
0.873075 0.618036 0.530694
0.535790 0.655879 0.539971
0.546258 0.657191 0.545068
0.585504 0.659815 0.562341
0.636225 0.662898 0.574121
0.701106 0.665766 0.586450
0.722408 0.649500 0.607263
0.690089 0.629755 0.632898
0.805936 0.678950 0.676020
0.700862 0.788052 0.726864
0.706477 0.787930 0.729152
0.730312 0.788144 0.739681
0.764645 0.789731 0.752438
0.802701 0.791348 0.761898
0.846708 0.794369 0.775509
0.848020 0.782193 0.793027
0.831174 0.773678 0.810208
0.218204 0.186740 0.176913
0.221225 0.187655 0.177523
0.230930 0.191196 0.177066
0.254978 0.193851 0.183078
0.343664 0.201541 0.211185
0.482124 0.204532 0.245487
0.623194 0.213230 0.282750
0.768612 0.245457 0.336950
0.224033 0.193423 0.184482
0.227420 0.194522 0.185031
0.237858 0.197757 0.184115
0.262760 0.200443 0.189456
0.350866 0.209659 0.216464
0.487221 0.214542 0.250370
0.625910 0.225101 0.287266
0.769558 0.257603 0.340948
0.233860 0.215305 0.208743
0.241520 0.219120 0.210117
0.261448 0.225895 0.209659
0.287388 0.229313 0.211398
0.371099 0.240513 0.233677
0.494697 0.248783 0.262852
0.629633 0.266453 0.300603
0.766842 0.295109 0.350317
0.257664 0.260716 0.234012
0.263157 0.263554 0.236118
0.289738 0.278721 0.247837
0.343938 0.306676 0.268406
0.429999 0.312413 0.283330
0.537865 0.327398 0.308171
0.657557 0.351995 0.346746
0.785641 0.381628 0.395850
0.306035 0.374090 0.322576
0.314397 0.377020 0.324010
0.346563 0.387427 0.328069
0.412757 0.409186 0.343053
0.434028 0.399329 0.361059
0.582086 0.429725 0.363714
0.694606 0.448219 0.398901
0.815396 0.477180 0.449439
0.391424 0.492836 0.408453
0.397955 0.494545 0.409277
0.421057 0.497658 0.408331
0.481514 0.508507 0.424079
0.565026 0.515862 0.440558
0.548577 0.503227 0.479652
0.720058 0.562097 0.509392
0.857053 0.605249 0.548730
0.516228 0.643580 0.558343
0.518944 0.642634 0.556268
0.535271 0.643641 0.554070
0.591760 0.653315 0.572900
0.669490 0.660090 0.594202
0.719203 0.652644 0.613153
0.685786 0.629603 0.635340
0.815610 0.678584 0.670619
0.655085 0.774838 0.716274
0.658778 0.774929 0.716365
0.675807 0.776242 0.718502
0.724453 0.784298 0.739864
0.779782 0.787472 0.760800
0.830228 0.791073 0.775235
0.845731 0.781918 0.791806
0.826505 0.770047 0.806912
0.248936 0.203677 0.233463
0.253056 0.204929 0.233890
0.266789 0.208865 0.231327
0.292485 0.220768 0.232975
0.345800 0.220188 0.247593
0.474983 0.237919 0.293614
0.617365 0.260472 0.341680
0.763241 0.295995 0.403815
0.252232 0.210117 0.235447
0.255680 0.210941 0.235050
0.270207 0.214969 0.234257
0.291814 0.224369 0.231968
0.342473 0.224308 0.245670
0.468452 0.242741 0.290654
0.609369 0.264836 0.338170
0.755459 0.298283 0.399115
0.278752 0.249027 0.275578
0.283177 0.249516 0.274449
0.300633 0.252628 0.271519
0.321386 0.257572 0.261601
0.370672 0.259373 0.272679
0.488838 0.282475 0.313542
0.623957 0.306096 0.360693
0.764126 0.338170 0.418799
0.295354 0.299321 0.316808
0.300755 0.301122 0.317723
0.328038 0.313634 0.327855
0.386297 0.339025 0.335698
0.436103 0.346471 0.343206
0.540368 0.364691 0.374334
0.661860 0.384283 0.413886
0.790921 0.411353 0.464485
0.335180 0.366003 0.347784
0.341192 0.368719 0.349737
0.366918 0.381262 0.359869
0.418219 0.409155 0.384314
0.489631 0.443091 0.416052
0.578058 0.442878 0.425544
0.681514 0.457282 0.454414
0.800626 0.479866 0.498482
0.401312 0.495918 0.463569
0.408759 0.501884 0.469306
0.431861 0.508751 0.472633
0.477302 0.521294 0.478981
0.550225 0.540612 0.496223
0.573663 0.535088 0.523095
0.739834 0.576104 0.540703
0.846220 0.594659 0.581567
0.515160 0.643702 0.604150
0.522057 0.646448 0.607019
0.541009 0.650080 0.608637
0.578058 0.657984 0.612573
0.639094 0.671260 0.625788
0.730861 0.678218 0.648157
0.702510 0.651423 0.666499
0.850187 0.704433 0.697353
0.641993 0.771481 0.741817
0.643244 0.770809 0.740352
0.655909 0.771756 0.739956
0.686671 0.777249 0.745144
0.732235 0.784634 0.753750
0.805722 0.789792 0.780606
0.847166 0.788418 0.798978
0.827115 0.773312 0.812009
0.296391 0.233463 0.320348
0.301762 0.235233 0.321599
0.318242 0.239719 0.318944
0.346807 0.250004 0.315099
0.386145 0.258762 0.316747
0.465248 0.259251 0.339696
0.597406 0.289982 0.391272
0.726253 0.327214 0.444282
0.297765 0.239414 0.319921
0.303258 0.241489 0.321752
0.319646 0.245426 0.318975
0.345769 0.253880 0.313237
0.382849 0.262150 0.313512
0.458228 0.261753 0.334417
0.585473 0.289616 0.382269
0.712154 0.322515 0.432441
0.321019 0.277958 0.353460
0.325383 0.278599 0.352636
0.342138 0.280919 0.347875
0.369543 0.287724 0.341070
0.402441 0.295842 0.335851
0.476997 0.297002 0.357092
0.602747 0.329503 0.406836
0.731838 0.363806 0.461738
0.329564 0.328008 0.404456
0.338384 0.330907 0.402838
0.375860 0.347662 0.403204
0.412848 0.355657 0.397772
0.443946 0.364294 0.385779
0.515892 0.367987 0.407935
0.632074 0.398169 0.452491
0.754421 0.424323 0.502251
0.360418 0.396002 0.435065
0.364019 0.396246 0.434241
0.384558 0.402655 0.438514
0.426490 0.418952 0.453132
0.494484 0.443641 0.457771
0.550042 0.447883 0.464363
0.656153 0.466865 0.498573
0.780575 0.493416 0.549706
0.415320 0.479255 0.483894
0.420294 0.481331 0.485756
0.439979 0.489082 0.492805
0.478187 0.505119 0.507744
0.536736 0.531579 0.534234
0.618708 0.569574 0.573724
0.714961 0.571313 0.587518
0.820005 0.584009 0.618097
0.510155 0.619867 0.628870
0.514702 0.622370 0.631189
0.529198 0.629847 0.636713
0.558740 0.645441 0.648981
0.612940 0.659541 0.657557
0.687221 0.681056 0.674220
0.715663 0.671901 0.696071
0.859068 0.704891 0.712978
0.625940 0.763699 0.768887
0.629908 0.764492 0.769589
0.648768 0.768887 0.773709
0.678370 0.773953 0.777310
0.719478 0.780758 0.781949
0.771267 0.790921 0.791073
0.842039 0.798764 0.813413
0.832181 0.782650 0.824125
0.371862 0.289738 0.453162
0.377264 0.291386 0.453590
0.393164 0.294408 0.447456
0.424018 0.303716 0.441444
0.458289 0.318364 0.430518
0.517266 0.318730 0.441810
0.611994 0.326146 0.472175
0.739101 0.370092 0.529259
0.371862 0.295048 0.451606
0.377264 0.296727 0.452216
0.394110 0.300114 0.447791
0.423835 0.308202 0.440894
0.457740 0.321874 0.429969
0.515007 0.322820 0.440223
0.607141 0.328527 0.468544
0.732967 0.370367 0.524102
0.385595 0.327428 0.470893
0.390295 0.328252 0.470253
0.406683 0.330175 0.465064
0.440009 0.339910 0.462379
0.472541 0.349920 0.449042
0.522545 0.350835 0.452918
0.613062 0.356512 0.481392
0.736934 0.396918 0.536217
0.396307 0.377325 0.507591
0.406165 0.382208 0.508782
0.428473 0.386786 0.505180
0.462287 0.392096 0.499367
0.499458 0.400153 0.488197
0.543145 0.405249 0.485634
0.630884 0.410651 0.514214
0.752621 0.449592 0.567864
0.374975 0.420203 0.543114
0.380377 0.422004 0.544945
0.398871 0.424201 0.546471
0.466896 0.449683 0.550896
0.527489 0.464881 0.543145
0.565454 0.473152 0.527428
0.650843 0.478218 0.557488
0.775265 0.519066 0.614527
0.422339 0.510399 0.589746
0.425391 0.510094 0.588952
0.440803 0.511223 0.589136
0.474006 0.517906 0.595178
0.527245 0.531670 0.610315
0.624598 0.568444 0.625360
0.696407 0.581689 0.641749
0.802914 0.603174 0.676326
0.508080 0.618341 0.667353
0.511406 0.618952 0.667689
0.525750 0.621576 0.669642
0.555657 0.628840 0.675990
0.601038 0.641382 0.687526
0.663630 0.662501 0.708217
0.744045 0.693355 0.733028
0.831266 0.695644 0.747921
0.624079 0.743587 0.786526
0.626368 0.743801 0.786587
0.638911 0.746304 0.788785
0.665827 0.753017 0.795010
0.703212 0.763973 0.804013
0.747921 0.781277 0.815763
0.809110 0.794949 0.825406
0.838926 0.794949 0.839200
