20 Preset/Retro Portrait/【3】LUT video cho PR-AE-FCPX/Retro LUT (5).cube
# Created by Adobe Lightroom plugin Export LUT (1.24.0)
# www.johnrellis.com/lightroom/exportlut.htm
# Preset: 法式胶片-素材江湖05
# Color profile: C:\Program Files (x86)\Common Files\Adobe\Color\Profiles\Recommended\VideoHD.icc
LUT_3D_SIZE 32
DOMAIN_MIN 0.0 0.0 0.0
DOMAIN_MAX 1.0 1.0 1.0
0.000000 0.000000 0.000000
0.000000 0.000000 0.000000
0.016175 0.000397 0.000763
0.074250 0.002625 0.006104
0.113832 0.014679 0.012665
0.139986 0.029725 0.021973
0.164309 0.046693 0.033997
0.187686 0.063172 0.046723
0.211460 0.079561 0.057588
0.234806 0.089937 0.068849
0.258671 0.095888 0.079072
0.282811 0.101411 0.083253
0.306584 0.107790 0.088075
0.330083 0.113558 0.091127
0.353094 0.119478 0.094636
0.375067 0.125673 0.097719
0.396368 0.132143 0.102205
0.416602 0.139101 0.106874
0.436042 0.145754 0.111818
0.454536 0.152529 0.116335
0.472145 0.158633 0.120943
0.489143 0.165042 0.125460
0.505486 0.171206 0.129946
0.521904 0.177310 0.134554
0.538476 0.183505 0.138796
0.555016 0.189700 0.143160
0.571710 0.195865 0.147829
0.588952 0.202182 0.152071
0.606622 0.208927 0.156832
0.625116 0.215763 0.161715
0.644617 0.223087 0.166903
0.665492 0.231174 0.172580
0.000000 0.000000 0.000000
0.000000 0.000000 0.000000
0.021820 0.000000 0.001862
0.077363 0.006775 0.005463
0.114656 0.018799 0.012055
0.140749 0.034852 0.023468
0.164706 0.050843 0.035645
0.188083 0.067292 0.047242
0.211643 0.081575 0.058259
0.235477 0.091310 0.069337
0.259281 0.097139 0.078676
0.283238 0.103365 0.083375
0.306889 0.108949 0.088685
0.330510 0.114534 0.091310
0.353307 0.120241 0.094484
0.375402 0.126528 0.098268
0.396735 0.133150 0.102296
0.417029 0.139986 0.106966
0.436439 0.146609 0.111910
0.454841 0.152956 0.116518
0.472358 0.159121 0.121401
0.489235 0.165530 0.125856
0.505669 0.171633 0.130068
0.522148 0.177859 0.134676
0.538537 0.183780 0.139193
0.555138 0.189914 0.143526
0.571954 0.196201 0.147738
0.589014 0.202670 0.152560
0.606683 0.209171 0.156985
0.625299 0.216159 0.161776
0.644770 0.223484 0.167147
0.665614 0.231449 0.172519
0.003021 0.017456 0.003204
0.007965 0.017975 0.004181
0.030976 0.019867 0.003479
0.082795 0.028138 0.008057
0.116121 0.040406 0.016907
0.141543 0.055451 0.029633
0.165866 0.070008 0.039673
0.189944 0.082216 0.051392
0.213596 0.090944 0.062226
0.236698 0.097108 0.074769
0.260716 0.102358 0.080659
0.284855 0.107668 0.085481
0.308598 0.113191 0.089418
0.331975 0.118807 0.092439
0.354620 0.124514 0.095460
0.376715 0.130495 0.099245
0.397772 0.136690 0.103975
0.418097 0.143252 0.108186
0.437476 0.149844 0.113008
0.455848 0.155825 0.117586
0.473396 0.161959 0.121828
0.490303 0.168002 0.126558
0.506584 0.174197 0.131228
0.522972 0.180179 0.135317
0.539452 0.185946 0.139803
0.555932 0.191867 0.144137
0.572656 0.198367 0.148684
0.589776 0.204593 0.153109
0.607416 0.210971 0.157687
0.625879 0.217716 0.162722
0.645411 0.225162 0.167636
0.666194 0.233036 0.173312
0.027588 0.062409 0.013550
0.033143 0.062959 0.012238
0.057343 0.068025 0.013336
0.093996 0.075532 0.013550
0.119356 0.082185 0.026459
0.143313 0.089448 0.042908
0.167727 0.094301 0.053071
0.191257 0.099397 0.063691
0.215702 0.104158 0.073518
0.239719 0.108644 0.079622
0.263981 0.113252 0.084169
0.287938 0.117494 0.088624
0.311650 0.122286 0.091096
0.335058 0.127230 0.094484
0.357488 0.132662 0.097719
0.379370 0.137881 0.101381
0.400305 0.143832 0.105623
0.420539 0.149935 0.110109
0.439826 0.155917 0.114839
0.458015 0.161776 0.119570
0.475471 0.167453 0.123720
0.492195 0.173098 0.128450
0.508354 0.178744 0.132815
0.524651 0.184512 0.137301
0.541070 0.190249 0.141451
0.557519 0.195987 0.145754
0.574212 0.202152 0.150027
0.591241 0.208194 0.154574
0.608789 0.214481 0.159121
0.627222 0.221164 0.163882
0.646571 0.228275 0.169162
0.667384 0.236210 0.174716
0.068513 0.101839 0.033600
0.073457 0.101991 0.034546
0.088258 0.103365 0.035828
0.103365 0.105653 0.035096
0.123842 0.107454 0.037324
0.147677 0.110475 0.050660
0.170718 0.113863 0.068940
0.194675 0.117586 0.081147
0.219028 0.121035 0.084596
0.243320 0.124483 0.088594
0.267552 0.127962 0.090883
0.291752 0.131838 0.093202
0.315587 0.135744 0.095552
0.339086 0.140108 0.098238
0.361944 0.144350 0.101350
0.383429 0.149233 0.105165
0.404456 0.154421 0.108888
0.424170 0.159884 0.113832
0.443305 0.165347 0.118074
0.461372 0.170565 0.122377
0.478614 0.175845 0.127199
0.495155 0.181003 0.131258
0.511345 0.186374 0.135500
0.527489 0.191409 0.139712
0.543572 0.196689 0.144045
0.559991 0.202396 0.148409
0.576471 0.207950 0.152651
0.593530 0.213870 0.156893
0.610956 0.219944 0.161532
0.629175 0.226230 0.166232
0.648524 0.233310 0.171542
0.669154 0.241062 0.177157
0.094301 0.123201 0.061799
0.095430 0.123384 0.061616
0.102358 0.123598 0.064485
0.113436 0.125551 0.063783
0.130129 0.128756 0.062867
0.150118 0.130556 0.064393
0.175143 0.134127 0.075044
0.198642 0.136782 0.086519
0.223453 0.140230 0.093141
0.248447 0.143832 0.096101
0.272465 0.146792 0.097780
0.296666 0.149844 0.100221
0.320409 0.153414 0.102235
0.343938 0.156741 0.105074
0.366552 0.160678 0.107485
0.388373 0.164675 0.110994
0.409369 0.168917 0.114443
0.429236 0.173404 0.118532
0.448157 0.177951 0.122347
0.465797 0.182406 0.127077
0.482979 0.186862 0.130983
0.499428 0.191714 0.135317
0.515373 0.196292 0.139467
0.531243 0.200900 0.143801
0.547356 0.205753 0.147768
0.563439 0.210819 0.151827
0.579767 0.216190 0.156344
0.596582 0.221744 0.160464
0.613947 0.227481 0.164950
0.631983 0.233616 0.169863
0.651240 0.240299 0.174868
0.671748 0.247745 0.180331
0.109987 0.143526 0.084169
0.110903 0.143679 0.084047
0.115724 0.143709 0.085969
0.124269 0.145388 0.085542
0.137728 0.147951 0.085054
0.156497 0.151095 0.084535
0.176303 0.153231 0.084871
0.202945 0.157687 0.089296
0.227146 0.160525 0.095216
0.252506 0.164004 0.101564
0.278965 0.168215 0.107942
0.303227 0.170932 0.109346
0.326787 0.173770 0.111421
0.350103 0.176791 0.113863
0.372686 0.179690 0.116091
0.394018 0.183108 0.119539
0.414862 0.186679 0.122652
0.434668 0.190341 0.126162
0.453223 0.193790 0.130037
0.471107 0.197604 0.133639
0.488289 0.201205 0.137118
0.504753 0.204837 0.140658
0.520562 0.209110 0.144564
0.536248 0.213077 0.148531
0.551904 0.217288 0.152804
0.567773 0.221866 0.156924
0.583948 0.226780 0.160891
0.600610 0.231724 0.165072
0.617762 0.237156 0.169589
0.635706 0.243046 0.174289
0.654688 0.249424 0.179446
0.675044 0.256596 0.185031
0.124269 0.164462 0.095674
0.125460 0.164553 0.096010
0.129244 0.164614 0.096254
0.136080 0.165682 0.096132
0.147677 0.167849 0.096284
0.163485 0.170809 0.095949
0.183017 0.174563 0.095491
0.203006 0.176669 0.095735
0.230411 0.181643 0.098665
0.255344 0.184604 0.104768
0.281407 0.188449 0.111727
0.308659 0.193210 0.118135
0.334630 0.197147 0.123049
0.357519 0.199344 0.124971
0.379858 0.201816 0.126894
0.401038 0.204379 0.129488
0.421607 0.207248 0.132601
0.441016 0.209781 0.135653
0.459480 0.212589 0.138979
0.477119 0.215396 0.142367
0.494087 0.218357 0.145602
0.510155 0.221256 0.148959
0.525933 0.224460 0.152285
0.541680 0.227726 0.155825
0.557427 0.231357 0.159304
0.573175 0.235294 0.163027
0.589105 0.239536 0.167056
0.605524 0.244053 0.171054
0.622400 0.249027 0.175387
0.640162 0.254520 0.180026
0.658961 0.260502 0.184970
0.679103 0.267369 0.190616
0.139254 0.186007 0.106050
0.140322 0.186099 0.105989
0.143160 0.186160 0.106203
0.149477 0.186587 0.106569
0.159091 0.188479 0.106691
0.172457 0.191257 0.106722
0.189456 0.194614 0.105989
0.209873 0.198795 0.105379
0.230381 0.200320 0.106142
0.258000 0.205753 0.108339
0.283513 0.209262 0.114961
0.310094 0.213443 0.121462
0.337346 0.218265 0.128817
0.365026 0.223514 0.136904
0.388128 0.226200 0.140200
0.409216 0.228153 0.142489
0.429236 0.229831 0.144747
0.448280 0.231754 0.147738
0.466621 0.233799 0.150149
0.484138 0.235996 0.153048
0.500786 0.238010 0.156130
0.516564 0.239872 0.158968
0.532097 0.242405 0.161898
0.547601 0.244938 0.165072
0.563134 0.247990 0.168307
0.578668 0.251102 0.171908
0.594629 0.254765 0.175143
0.610986 0.258671 0.178958
0.627955 0.263157 0.182681
0.645472 0.268101 0.187289
0.664027 0.273869 0.192081
0.683925 0.280278 0.197879
0.154665 0.208194 0.115785
0.155123 0.208286 0.116335
0.157382 0.208225 0.116579
0.162905 0.208194 0.117342
0.171633 0.210086 0.117067
0.183200 0.212284 0.116548
0.198398 0.215244 0.116518
0.216159 0.219059 0.115663
0.237522 0.223178 0.115023
0.257572 0.224613 0.115511
0.285649 0.229892 0.117861
0.311345 0.233799 0.124636
0.337835 0.238285 0.131991
0.364721 0.243259 0.140230
0.392065 0.248417 0.148836
0.417975 0.253666 0.157626
0.437751 0.254856 0.159457
0.456703 0.256046 0.161593
0.474556 0.257145 0.163882
0.491859 0.258335 0.166293
0.508141 0.259556 0.168460
0.523674 0.260990 0.171054
0.538811 0.262638 0.173709
0.554131 0.264561 0.176669
0.569421 0.266850 0.179232
0.584802 0.269383 0.182437
0.600519 0.272251 0.185855
0.616693 0.275731 0.189212
0.633387 0.279606 0.193027
0.650874 0.284184 0.196994
0.669398 0.289189 0.201389
0.689265 0.295140 0.206638
0.169284 0.230808 0.126345
0.169772 0.230655 0.126131
0.172366 0.230564 0.126314
0.176730 0.230594 0.126711
0.183871 0.231693 0.126925
0.194583 0.233707 0.126711
0.208225 0.236362 0.126436
0.224125 0.239689 0.126253
0.243412 0.243473 0.125429
0.265049 0.247868 0.124910
0.284703 0.248783 0.125582
0.312291 0.254093 0.126680
0.338079 0.258061 0.134432
0.364263 0.262486 0.142580
0.390600 0.267491 0.151369
0.416999 0.272862 0.161074
0.443336 0.278752 0.171633
0.465675 0.282048 0.178042
0.483467 0.282597 0.179660
0.500237 0.282963 0.181460
0.516258 0.283360 0.183078
0.531334 0.283726 0.185153
0.546380 0.284733 0.187503
0.561273 0.285893 0.189700
0.576287 0.287388 0.192447
0.591577 0.289433 0.195102
0.606989 0.291814 0.198123
0.622858 0.294835 0.201541
0.639429 0.298192 0.204929
0.656672 0.302129 0.208774
0.675013 0.306950 0.213291
0.694484 0.312596 0.218387
0.184268 0.252934 0.135744
0.184268 0.253147 0.136172
0.186465 0.252995 0.136141
0.190402 0.252873 0.137026
0.196963 0.253269 0.137148
0.206149 0.255009 0.136751
0.218387 0.257572 0.136660
0.232944 0.260380 0.136110
0.250370 0.263828 0.135866
0.269932 0.267765 0.135225
0.291905 0.272068 0.134432
0.311223 0.272343 0.135348
0.337530 0.277043 0.136477
0.363317 0.281346 0.144594
0.389014 0.286015 0.153628
0.414893 0.291142 0.163363
0.440711 0.296483 0.173953
0.466285 0.302281 0.184360
0.491402 0.308415 0.195956
0.509087 0.309117 0.198642
0.524498 0.308629 0.200290
0.539391 0.308324 0.201602
0.554131 0.308446 0.203159
0.568811 0.309056 0.205386
0.583673 0.309911 0.207553
0.598688 0.311315 0.209781
0.613947 0.313146 0.212467
0.629664 0.315618 0.215366
0.645869 0.318639 0.218845
0.662837 0.321965 0.222660
0.680934 0.326360 0.226810
0.699855 0.331518 0.231998
0.198337 0.275090 0.145663
0.198428 0.275181 0.146090
0.200504 0.274937 0.146090
0.204135 0.274846 0.146456
0.209537 0.274510 0.147250
0.217990 0.276066 0.146883
0.228855 0.278325 0.146609
0.242344 0.280858 0.146334
0.257664 0.283940 0.146181
0.275639 0.287236 0.145510
0.295567 0.291142 0.144869
0.317357 0.295537 0.144259
0.336095 0.295171 0.145235
0.361669 0.299260 0.146365
0.387152 0.303929 0.155581
0.412512 0.308812 0.165316
0.437812 0.313725 0.175296
0.462959 0.319219 0.186069
0.487770 0.324895 0.197299
0.511589 0.330663 0.209049
0.533165 0.335485 0.219181
0.547723 0.334447 0.220035
0.562310 0.333898 0.221225
0.576837 0.333745 0.222599
0.591424 0.334020 0.224338
0.606165 0.334905 0.226535
0.621180 0.336278 0.229007
0.636652 0.338048 0.231601
0.652674 0.340398 0.234409
0.669490 0.343603 0.238041
0.687068 0.347448 0.242313
0.705348 0.352148 0.247532
0.212039 0.296269 0.155459
0.212131 0.296361 0.155825
0.213931 0.296239 0.155825
0.217166 0.295995 0.156405
0.222080 0.295628 0.156588
0.229343 0.296483 0.156832
0.239322 0.298314 0.156680
0.251255 0.300603 0.156252
0.265507 0.303288 0.155947
0.281834 0.306401 0.155764
0.299840 0.309911 0.155276
0.319982 0.313756 0.154818
0.341802 0.318090 0.154421
0.359747 0.317266 0.155612
0.384375 0.320745 0.156863
0.409674 0.325811 0.166140
0.434424 0.330571 0.176547
0.459205 0.335576 0.186831
0.483619 0.341009 0.198001
0.507317 0.346288 0.209873
0.530022 0.351873 0.221958
0.552422 0.357916 0.234653
0.570550 0.360632 0.241398
0.584955 0.359899 0.242222
0.599359 0.359594 0.243442
0.613855 0.359930 0.245304
0.628717 0.360571 0.247135
0.643946 0.361944 0.249546
0.659785 0.363928 0.252293
0.676204 0.366583 0.255741
0.693172 0.369970 0.259861
0.710780 0.374212 0.264927
0.225132 0.316869 0.166018
0.225589 0.316838 0.165835
0.226902 0.316655 0.165835
0.229801 0.316381 0.166232
0.234409 0.315984 0.166567
0.240635 0.316167 0.167056
0.249577 0.317693 0.166934
0.260380 0.319768 0.166781
0.273320 0.322148 0.166354
0.288426 0.324926 0.166232
0.304845 0.328130 0.166049
0.323491 0.331609 0.165560
0.343481 0.335454 0.165286
0.365087 0.339635 0.164889
0.382300 0.338415 0.166690
0.405707 0.341222 0.166995
0.430854 0.346532 0.176883
0.455146 0.351324 0.187625
0.479164 0.356359 0.198520
0.502647 0.361486 0.210086
0.525383 0.366796 0.222507
0.547875 0.372534 0.234958
0.570123 0.378882 0.248051
0.592004 0.385870 0.261936
0.607294 0.386236 0.264530
0.621729 0.385962 0.265843
0.636286 0.386328 0.267369
0.651270 0.387121 0.269505
0.666896 0.388586 0.271885
0.682765 0.390723 0.274998
0.699092 0.393652 0.278965
0.716030 0.397620 0.284092
0.238132 0.336400 0.175937
0.238315 0.336400 0.176120
0.239567 0.336248 0.175967
0.242283 0.335912 0.176333
0.246281 0.335485 0.176669
0.251621 0.334874 0.177371
0.259831 0.336248 0.176974
0.269566 0.338140 0.177188
0.281437 0.340246 0.176852
0.294957 0.342779 0.176638
0.310277 0.345617 0.176516
0.327031 0.348882 0.176455
0.345678 0.352331 0.175998
0.365789 0.356237 0.175540
0.386877 0.360235 0.175235
0.403204 0.358618 0.177188
0.425818 0.360754 0.176608
0.450660 0.366217 0.187198
0.474342 0.371008 0.198306
0.497627 0.375891 0.210147
0.520348 0.381079 0.222446
0.542870 0.386633 0.234531
0.565301 0.392828 0.248142
0.587396 0.399512 0.261753
0.609339 0.406836 0.276219
0.629450 0.412970 0.288243
0.643854 0.412940 0.289555
0.658656 0.413336 0.291142
0.673610 0.414252 0.293309
0.688899 0.415900 0.296391
0.704616 0.418372 0.300206
0.720912 0.421790 0.305150
0.250370 0.354986 0.185916
0.250675 0.354986 0.186221
0.251835 0.354833 0.186221
0.253971 0.354620 0.186526
0.257664 0.354101 0.186740
0.262547 0.353429 0.186984
0.269505 0.354040 0.187015
0.278477 0.355688 0.187106
0.289281 0.357641 0.186984
0.301610 0.359869 0.186831
0.315801 0.362463 0.186770
0.331304 0.365362 0.186679
0.348425 0.368688 0.186282
0.366827 0.372137 0.186160
0.386633 0.376013 0.185885
0.407660 0.379950 0.185428
0.423316 0.377874 0.187564
0.444800 0.379370 0.186740
0.469245 0.384894 0.197513
0.492164 0.389746 0.209415
0.515099 0.394751 0.221256
0.537804 0.400366 0.234257
0.560296 0.406378 0.247440
0.582605 0.412848 0.261265
0.604791 0.419928 0.275669
0.626520 0.427710 0.290684
0.648188 0.436164 0.306462
0.665431 0.440131 0.314580
0.679835 0.440650 0.316564
0.694514 0.441810 0.319341
0.709590 0.443885 0.323217
0.725338 0.446937 0.328069
0.261997 0.372869 0.196262
0.262181 0.372869 0.196262
0.263249 0.372625 0.196017
0.265324 0.372259 0.196078
0.268650 0.371893 0.196536
0.272892 0.371160 0.196780
0.278965 0.371008 0.197086
0.287175 0.372412 0.196628
0.296910 0.374182 0.196719
0.308354 0.376287 0.196628
0.321263 0.378637 0.196628
0.335698 0.381353 0.196689
0.351385 0.384314 0.196567
0.368688 0.387518 0.196231
0.386969 0.391058 0.196109
0.406500 0.394812 0.195895
0.427161 0.398779 0.195865
0.442267 0.396338 0.198276
0.462654 0.397223 0.196567
0.486580 0.402747 0.207797
0.509483 0.407843 0.219821
0.532311 0.413458 0.232731
0.554986 0.419379 0.246006
0.577447 0.425788 0.259800
0.599847 0.432715 0.274266
0.621973 0.440253 0.289525
0.643946 0.448493 0.305180
0.664973 0.457191 0.321965
0.684840 0.466438 0.339849
0.699428 0.468208 0.344244
0.714015 0.470008 0.347906
0.729671 0.472908 0.352728
0.273381 0.389929 0.205936
0.273503 0.389868 0.205692
0.274327 0.389776 0.205844
0.276219 0.389471 0.205875
0.279118 0.388983 0.206088
0.283238 0.388251 0.206058
0.288304 0.387396 0.206455
0.295659 0.388647 0.206363
0.304753 0.390326 0.206424
0.315312 0.392187 0.206241
0.327306 0.394446 0.206394
0.340642 0.396918 0.206241
0.355200 0.399695 0.206180
0.371221 0.402777 0.206302
0.388190 0.406104 0.206119
0.406683 0.409644 0.206241
0.426062 0.413397 0.205905
0.446479 0.417395 0.206119
0.460761 0.414466 0.208621
0.480385 0.414954 0.206973
0.503655 0.420264 0.218021
0.526574 0.425910 0.230686
0.549401 0.431861 0.244053
0.572168 0.438209 0.257908
0.594751 0.445106 0.272374
0.617243 0.452613 0.287877
0.639551 0.460700 0.303624
0.660945 0.469245 0.320867
0.681178 0.478218 0.338750
0.700374 0.487953 0.358007
0.718166 0.496559 0.374365
0.734127 0.499611 0.379126
0.284489 0.407111 0.215396
0.284733 0.406989 0.215427
0.285405 0.406897 0.215305
0.287053 0.406531 0.215244
0.289799 0.406073 0.215457
0.293400 0.405493 0.215793
0.297917 0.404547 0.215579
0.304479 0.404944 0.215763
0.312810 0.406470 0.215732
0.322454 0.408240 0.215946
0.333562 0.410285 0.215640
0.345861 0.412696 0.215640
0.359625 0.415320 0.215854
0.374578 0.418189 0.215885
0.390631 0.421241 0.216037
0.407752 0.424628 0.215824
0.426215 0.428077 0.215946
0.445258 0.431769 0.215671
0.465431 0.435676 0.216037
0.478981 0.432380 0.218662
0.497963 0.432532 0.216953
0.520500 0.437568 0.227695
0.543603 0.443702 0.241245
0.566491 0.450233 0.255131
0.589410 0.457160 0.270085
0.612299 0.464607 0.285252
0.634943 0.472724 0.301488
0.656855 0.481117 0.318639
0.677607 0.489937 0.337102
0.697200 0.499428 0.356634
0.716579 0.510124 0.377325
0.737209 0.522606 0.399176
0.295079 0.424323 0.224552
0.295293 0.424353 0.224674
0.296086 0.424140 0.224460
0.297673 0.423957 0.224857
0.299901 0.423468 0.224704
0.303441 0.422827 0.224949
0.307683 0.421881 0.224765
0.313085 0.421393 0.224765
0.320775 0.422797 0.224765
0.329931 0.424475 0.224735
0.340185 0.426429 0.224918
0.351751 0.428565 0.224979
0.364691 0.430945 0.225010
0.378546 0.433631 0.225101
0.393652 0.436591 0.225223
0.409857 0.439643 0.225254
0.426886 0.442939 0.225681
0.445167 0.446418 0.225559
0.464118 0.450111 0.225742
0.484016 0.453895 0.226017
0.497078 0.450263 0.229129
0.515404 0.450294 0.227420
0.537438 0.454963 0.237400
0.560662 0.461646 0.251743
0.583917 0.468788 0.266453
0.607141 0.476387 0.282292
0.630335 0.484535 0.298497
0.652674 0.492866 0.315953
0.673884 0.501640 0.334752
0.694118 0.511040 0.354833
0.714229 0.521691 0.376104
0.735653 0.534234 0.398627
0.305760 0.441657 0.233890
0.306004 0.441627 0.233982
0.306462 0.441474 0.233799
0.307988 0.441108 0.233768
0.310124 0.440803 0.233921
0.313176 0.440009 0.233768
0.317174 0.439185 0.233707
0.322026 0.438087 0.233677
0.329015 0.439124 0.233677
0.337499 0.440681 0.233799
0.347082 0.442481 0.234012
0.357977 0.444526 0.233860
0.370001 0.446784 0.234104
0.383185 0.449256 0.234348
0.397284 0.451942 0.234348
0.412604 0.454841 0.234501
0.428779 0.457954 0.234928
0.445899 0.461311 0.234989
0.463996 0.464820 0.235325
0.482856 0.468452 0.235508
0.502586 0.472267 0.235599
0.515190 0.468299 0.239170
0.533257 0.468208 0.237369
0.554711 0.472663 0.247349
0.578241 0.479805 0.262150
0.601923 0.487709 0.278019
0.625666 0.496040 0.294713
0.648524 0.504540 0.312779
0.670405 0.513359 0.331731
0.691127 0.522759 0.352392
0.712062 0.533440 0.374487
0.734554 0.546227 0.397559
0.316167 0.459022 0.243229
0.316197 0.458930 0.242954
0.316991 0.458839 0.243076
0.318273 0.458534 0.243015
0.320165 0.458106 0.242893
0.323186 0.457465 0.242924
0.326696 0.456611 0.242893
0.331212 0.455634 0.242741
0.337285 0.455604 0.242679
0.345129 0.457069 0.242588
0.354253 0.458747 0.242710
0.364538 0.460639 0.242893
0.375799 0.462776 0.242741
0.388190 0.465064 0.243015
0.401678 0.467628 0.243229
0.416022 0.470405 0.243503
0.431464 0.473396 0.243839
0.447852 0.476539 0.244053
0.465003 0.479957 0.244388
0.483131 0.483375 0.244694
0.501946 0.487129 0.245151
0.521538 0.490913 0.245457
0.533715 0.486793 0.249027
0.551690 0.486671 0.247288
0.572747 0.490883 0.256840
0.596551 0.498787 0.273045
0.620783 0.507408 0.290043
0.644373 0.516167 0.308263
0.666896 0.525170 0.328130
0.688472 0.534569 0.349218
0.710353 0.545525 0.372351
0.733913 0.558740 0.396399
0.326421 0.476661 0.252049
0.326482 0.476692 0.252140
0.327276 0.476448 0.251896
0.328313 0.476204 0.251835
0.330297 0.475746 0.251835
0.332952 0.475135 0.251652
0.336370 0.474342 0.251530
0.340398 0.473396 0.251408
0.345647 0.472450 0.251255
0.353033 0.473793 0.251286
0.361639 0.475349 0.251408
0.371283 0.477211 0.251591
0.382086 0.479194 0.251682
0.393835 0.481422 0.251835
0.406714 0.483864 0.252049
0.420356 0.486519 0.252232
0.435126 0.489418 0.252842
0.450721 0.492470 0.253056
0.467292 0.495674 0.253208
0.484565 0.499153 0.253605
0.502678 0.502708 0.254246
0.521508 0.506462 0.254643
0.540887 0.510124 0.255344
0.553002 0.505974 0.258976
0.571038 0.506096 0.257694
0.591821 0.510155 0.266758
0.616052 0.518578 0.284215
0.640345 0.527733 0.303136
0.663691 0.536980 0.323400
0.686061 0.546715 0.345708
0.709010 0.558129 0.369665
0.733486 0.571557 0.394293
0.336828 0.494942 0.261173
0.337011 0.494942 0.261265
0.337560 0.494759 0.261112
0.338598 0.494545 0.261051
0.340429 0.494148 0.260960
0.342901 0.493599 0.260777
0.346136 0.492744 0.260563
0.350042 0.491768 0.260197
0.354742 0.490547 0.259892
0.361364 0.491249 0.259739
0.369512 0.492744 0.260044
0.378729 0.494514 0.260227
0.389014 0.496437 0.260410
0.400214 0.498634 0.260716
0.412421 0.500938 0.260929
0.425696 0.503563 0.261295
0.439734 0.506310 0.261631
0.454810 0.509300 0.261967
0.470741 0.512444 0.262303
0.487465 0.515831 0.262974
0.504906 0.519341 0.263554
0.523217 0.523064 0.264012
0.542199 0.527031 0.264744
0.561364 0.530480 0.265660
0.573571 0.526513 0.269627
0.591913 0.526970 0.268498
0.612634 0.530907 0.277256
0.636530 0.539452 0.296696
0.660731 0.549187 0.318090
0.684016 0.559380 0.341466
0.707881 0.571038 0.365972
0.733211 0.584680 0.390906
0.347539 0.514244 0.270481
0.347662 0.514214 0.270481
0.348211 0.514122 0.270420
0.349310 0.513909 0.270359
0.350958 0.513542 0.270359
0.353338 0.512963 0.270115
0.356420 0.512200 0.269902
0.360143 0.511315 0.269444
0.364538 0.510124 0.268894
0.370245 0.509789 0.268742
0.378119 0.511284 0.268925
0.387030 0.512932 0.269200
0.396796 0.514885 0.269505
0.407568 0.516960 0.269718
0.419348 0.519371 0.270146
0.432044 0.521843 0.270390
0.445747 0.524620 0.270848
0.460273 0.527581 0.271427
0.475715 0.530724 0.271885
0.491920 0.534051 0.272496
0.508965 0.537591 0.273075
0.526757 0.541375 0.273716
0.545342 0.545281 0.274632
0.564630 0.549432 0.275395
0.583856 0.552911 0.276921
0.596307 0.549157 0.280797
0.614984 0.549920 0.280491
0.635065 0.553277 0.289433
0.658228 0.561761 0.311528
0.682216 0.572137 0.335729
0.706935 0.584100 0.360754
0.733700 0.598566 0.386938
0.358984 0.535332 0.280858
0.359228 0.535241 0.280644
0.359747 0.535149 0.280644
0.360693 0.534936 0.280522
0.362280 0.534600 0.280430
0.364508 0.534112 0.280247
0.367529 0.533440 0.279942
0.371008 0.532586 0.279545
0.375402 0.531548 0.279149
0.380346 0.530358 0.278599
0.387823 0.531670 0.278813
0.396338 0.533349 0.278935
0.405890 0.535271 0.279393
0.416266 0.537316 0.279576
0.427710 0.539666 0.280125
0.440101 0.542229 0.280461
0.453407 0.544976 0.281193
0.467567 0.547936 0.281712
0.482521 0.551141 0.282414
0.498543 0.554589 0.283055
0.515129 0.558190 0.283970
0.532738 0.562005 0.284825
0.550988 0.566064 0.285740
0.570001 0.570245 0.286778
0.589685 0.574517 0.288273
0.608850 0.577844 0.290135
0.621454 0.574090 0.294957
0.639734 0.574640 0.295598
0.658808 0.577173 0.304417
0.680659 0.585138 0.328405
0.706691 0.597894 0.354742
0.735073 0.613367 0.382055
0.372015 0.558770 0.292332
0.372107 0.558679 0.292271
0.372503 0.558679 0.292363
0.373571 0.558404 0.292332
0.375067 0.558099 0.292058
0.377295 0.557671 0.291722
0.380194 0.557092 0.291600
0.383490 0.556420 0.291234
0.387823 0.555505 0.290684
0.392676 0.554437 0.290043
0.399207 0.554772 0.290074
0.407507 0.556481 0.290410
0.416846 0.558373 0.290867
0.426978 0.560510 0.291386
