20 Preset/Retro Portrait/【3】LUT video cho PR-AE-FCPX/Retro LUT (5).cube
# Created by Adobe Lightroom plugin Export LUT (1.24.0)
# www.johnrellis.com/lightroom/exportlut.htm
# Preset: 法式胶片-素材江湖05
# Color profile: C:\Program Files (x86)\Common Files\Adobe\Color\Profiles\Recommended\VideoHD.icc
LUT_3D_SIZE 5
DOMAIN_MIN 0.000000 0.000000 0.000000
DOMAIN_MAX 0.903226 0.903226 0.903226
0.000000 0.000000 0.000000
0.187686 0.063172 0.046723
0.353094 0.119478 0.094636
0.489143 0.165042 0.125460
0.606622 0.208927 0.156832
0.124269 0.164462 0.095674
0.203006 0.176669 0.095735
0.379858 0.201816 0.126894
0.510155 0.221256 0.148959
0.622400 0.249027 0.175387
0.225132 0.316869 0.166018
0.260380 0.319768 0.166781
0.382300 0.338415 0.166690
0.547875 0.372534 0.234958
0.666896 0.388586 0.271885
0.305760 0.441657 0.233890
0.322026 0.438087 0.233677
0.397284 0.451942 0.234348
0.515190 0.468299 0.239170
0.670405 0.513359 0.331731
0.387274 0.585657 0.306859
0.398627 0.583825 0.305699
0.451759 0.589960 0.306981
0.552148 0.611109 0.315282
0.677119 0.629053 0.333410
0.112276 0.119722 0.134615
0.178592 0.115236 0.170199
0.355138 0.126253 0.173739
0.476722 0.178195 0.187015
0.595239 0.213321 0.197665
0.144808 0.182742 0.176822
0.212833 0.198398 0.195773
0.369299 0.211337 0.199863
0.497871 0.229740 0.205692
0.611170 0.252689 0.214572
0.240574 0.337926 0.229679
0.272099 0.334661 0.230533
0.389166 0.351263 0.231174
0.548913 0.386664 0.291936
0.658686 0.390478 0.299260
0.316777 0.454780 0.275395
0.332616 0.451270 0.274540
0.401923 0.459083 0.274205
0.517967 0.475105 0.278477
0.669886 0.520439 0.364874
0.389746 0.591211 0.331334
0.401038 0.589319 0.329839
0.450935 0.591394 0.328710
0.550896 0.612360 0.336736
0.676387 0.630640 0.353979
0.204746 0.233524 0.273259
0.216373 0.233982 0.298741
0.376623 0.246281 0.371130
0.540307 0.280186 0.380285
0.599878 0.212985 0.296635
0.264042 0.278080 0.290837
0.275700 0.288518 0.314549
0.385443 0.295598 0.378912
0.530266 0.301213 0.373266
0.582238 0.232975 0.287724
0.279149 0.374151 0.363806
0.312566 0.381445 0.373480
0.418372 0.409491 0.407355
0.521172 0.389960 0.380468
0.625635 0.374517 0.354406
0.348547 0.506950 0.403265
0.376867 0.504997 0.411170
0.422858 0.489357 0.398627
0.529412 0.504051 0.399695
0.670192 0.549706 0.470069
0.400580 0.615106 0.421057
0.411139 0.613001 0.418433
0.451362 0.604059 0.407385
0.544549 0.617670 0.409033
0.674006 0.637629 0.422553
0.324987 0.371771 0.427436
0.331304 0.374609 0.441444
0.384741 0.384985 0.492744
0.541436 0.407630 0.554620
0.671015 0.463966 0.573663
0.361181 0.399329 0.435798
0.364996 0.402441 0.448066
0.402380 0.411597 0.496254
0.543145 0.432929 0.556634
0.669154 0.481910 0.576562
0.408850 0.434821 0.443061
0.422278 0.440620 0.446845
0.452186 0.476356 0.501152
0.545312 0.494057 0.558740
0.659663 0.504875 0.563928
0.404150 0.535943 0.526268
0.419287 0.538720 0.530236
0.473945 0.551293 0.547082
0.563958 0.575982 0.577020
0.648096 0.527672 0.520409
0.420905 0.664057 0.556847
0.432685 0.663264 0.557031
0.478431 0.658503 0.557397
0.537346 0.633387 0.529656
0.672206 0.656275 0.536248
0.460914 0.524224 0.583795
0.463539 0.525170 0.589899
0.479683 0.528344 0.616083
0.550317 0.546777 0.657832
0.669368 0.566308 0.701320
0.472694 0.532555 0.582055
0.475196 0.534051 0.588373
0.489174 0.538079 0.613855
0.552300 0.554681 0.655634
0.668513 0.573724 0.700374
0.497871 0.548882 0.573175
0.502525 0.553796 0.580316
0.521172 0.569665 0.609094
0.561700 0.583368 0.652888
0.674006 0.604364 0.706325
0.512596 0.583093 0.597162
0.518608 0.583337 0.596887
0.545495 0.589014 0.599451
0.585626 0.626551 0.651179
0.698543 0.662776 0.731746
0.493172 0.682338 0.671748
0.500237 0.682979 0.672938
0.530266 0.689082 0.681056
0.591028 0.703029 0.699397
0.714565 0.739071 0.742000
