20 Preset/Retro Portrait/【3】LUT video cho PR-AE-FCPX/Retro LUT (1).cube
# Created by Adobe Lightroom plugin Export LUT (1.24.0)
# www.johnrellis.com/lightroom/exportlut.htm
# Preset: 法式胶片-素材江湖01
# Color profile: C:\Program Files (x86)\Common Files\Adobe\Color\Profiles\Recommended\VideoHD.icc
LUT_3D_SIZE 5
DOMAIN_MIN 0.000000 0.000000 0.000000
DOMAIN_MAX 0.903226 0.903226 0.903226
0.126833 0.123110 0.098848
0.152743 0.128145 0.101472
0.359930 0.153964 0.098970
0.713039 0.260380 0.149416
0.880858 0.431617 0.333043
0.135317 0.142214 0.105928
0.154269 0.147372 0.110597
0.358801 0.199619 0.103670
0.696010 0.308690 0.168124
0.878477 0.470619 0.364752
0.210971 0.320958 0.173159
0.282841 0.318334 0.200443
0.421363 0.378424 0.259892
0.698360 0.470893 0.269017
0.856352 0.564782 0.438605
0.469886 0.592798 0.423011
0.521355 0.593439 0.453529
0.602686 0.594293 0.504356
0.675227 0.627955 0.535210
0.847562 0.696193 0.585077
0.710597 0.774411 0.667628
0.729397 0.774411 0.678401
0.763638 0.765103 0.690761
0.816007 0.777371 0.729274
0.872160 0.803220 0.755276
0.126436 0.126253 0.104433
0.142245 0.125551 0.107485
0.297459 0.144564 0.126009
0.638880 0.241428 0.185763
0.845548 0.414649 0.336248
0.128298 0.142763 0.112215
0.153353 0.150027 0.118074
0.320958 0.187564 0.135592
0.640467 0.289830 0.200565
0.843534 0.447089 0.357702
0.145296 0.306889 0.168887
0.242008 0.314031 0.194797
0.383551 0.351171 0.251316
0.661128 0.444739 0.276982
0.841764 0.559686 0.447883
0.429267 0.591180 0.410010
0.491402 0.592554 0.441932
0.597772 0.594568 0.505119
0.669154 0.624872 0.537041
0.842130 0.693172 0.586145
0.695430 0.774350 0.661128
0.715267 0.773800 0.671656
0.772305 0.775204 0.703426
0.822354 0.782864 0.738369
0.879271 0.809232 0.764736
0.095430 0.147433 0.152956
0.124300 0.125246 0.162295
0.272953 0.125185 0.188083
0.613611 0.199039 0.286992
0.803189 0.444617 0.428748
0.069398 0.177218 0.169772
0.124514 0.163790 0.174075
0.294804 0.166964 0.207645
0.608606 0.271916 0.302037
0.805570 0.474922 0.447456
0.000000 0.319921 0.250889
0.102327 0.328985 0.261021
0.407691 0.395575 0.337407
0.625635 0.451820 0.386603
0.812924 0.562829 0.502098
0.301091 0.587945 0.435401
0.363622 0.585290 0.438117
0.555261 0.598718 0.501274
0.658473 0.624811 0.555657
0.829068 0.682918 0.589990
0.620539 0.770993 0.636530
0.643915 0.771786 0.644953
0.733242 0.773526 0.687343
0.810452 0.777523 0.733577
0.867735 0.802731 0.760555
0.000000 0.244083 0.349798
0.000000 0.200839 0.361151
0.285679 0.084993 0.375647
0.579492 0.118379 0.425727
0.815518 0.401099 0.518700
0.000000 0.255650 0.359655
0.000000 0.226871 0.363287
0.270024 0.153475 0.383124
0.576257 0.212833 0.430396
0.804685 0.435004 0.523705
0.000000 0.399634 0.411780
0.000000 0.397223 0.411414
0.299107 0.381598 0.436561
0.589868 0.412055 0.478279
0.790890 0.547997 0.563867
0.000000 0.594018 0.527276
0.093263 0.592554 0.527886
0.424872 0.600336 0.544671
0.658930 0.641962 0.602686
0.811002 0.677607 0.637751
0.454414 0.778073 0.664912
0.492439 0.777584 0.666560
0.614618 0.778897 0.678431
0.778012 0.785183 0.727932
0.861906 0.802945 0.770138
0.000000 0.384405 0.622370
0.000000 0.378820 0.623835
0.000000 0.112673 0.642573
0.578393 0.000000 0.646937
0.823575 0.307256 0.655360
0.000000 0.385809 0.624872
0.000000 0.359380 0.628199
0.000000 0.130953 0.640436
0.565698 0.102907 0.642695
0.814603 0.354681 0.653834
0.000000 0.491768 0.638941
0.000000 0.473152 0.635157
0.000000 0.404150 0.634730
0.533715 0.372717 0.644282
0.797726 0.493507 0.664637
0.000000 0.641413 0.673732
0.000000 0.637079 0.670619
0.000000 0.627497 0.665156
0.551995 0.612146 0.673610
0.802487 0.654353 0.710048
0.000000 0.788357 0.735561
0.000000 0.787167 0.736080
0.429358 0.787900 0.744686
0.652064 0.786557 0.755398
0.854307 0.807767 0.796994
