20 Preset/Retro Portrait/【3】LUT video cho PR-AE-FCPX/Retro LUT (7).cube
# Created by Adobe Lightroom plugin Export LUT (1.24.0)
# www.johnrellis.com/lightroom/exportlut.htm
# Preset: 法式胶片-素材江湖07
# Color profile: C:\Program Files (x86)\Common Files\Adobe\Color\Profiles\Recommended\VideoHD.icc
LUT_3D_SIZE 5
DOMAIN_MIN 0.000000 0.000000 0.000000
DOMAIN_MAX 0.903226 0.903226 0.903226
0.190402 0.169650 0.135500
0.208957 0.172671 0.139071
0.321813 0.166964 0.144472
0.608759 0.107820 0.169162
0.848112 0.177951 0.248936
0.201755 0.186709 0.144106
0.207553 0.184054 0.147280
0.335241 0.192782 0.148104
0.605921 0.182864 0.176516
0.859434 0.259037 0.271519
0.279728 0.326146 0.204959
0.316381 0.318151 0.202670
0.347662 0.302281 0.249668
0.658381 0.378882 0.236942
0.862394 0.432868 0.339361
0.483558 0.567193 0.419440
0.514549 0.567956 0.423713
0.624750 0.570703 0.440681
0.583032 0.521782 0.492836
0.859648 0.626764 0.546258
0.738430 0.789578 0.735012
0.751278 0.789883 0.737819
0.783719 0.779263 0.726284
0.849485 0.782345 0.761013
0.823880 0.762844 0.796353
0.194888 0.173037 0.141054
0.204440 0.175235 0.143069
0.299504 0.175113 0.153445
0.541680 0.158694 0.183322
0.793576 0.188876 0.252842
0.202762 0.186923 0.149447
0.211765 0.189181 0.152071
0.322118 0.198947 0.161288
0.553521 0.199802 0.190982
0.802365 0.246952 0.267796
0.262943 0.308873 0.205325
0.301671 0.308354 0.209598
0.328466 0.288548 0.238987
0.612543 0.357275 0.241459
0.842863 0.427924 0.349981
0.475868 0.562676 0.425910
0.507164 0.564813 0.431617
0.615045 0.568414 0.448768
0.580499 0.521782 0.494606
0.858549 0.627100 0.547356
0.730373 0.788388 0.733913
0.744594 0.788296 0.737911
0.794491 0.790799 0.751431
0.854673 0.790829 0.776120
0.831754 0.772915 0.808591
0.209781 0.182101 0.162539
0.217533 0.185245 0.162753
0.290196 0.191623 0.183322
0.524071 0.189181 0.232914
0.774105 0.225589 0.310307
0.219913 0.199893 0.181094
0.235782 0.205539 0.181216
0.315831 0.217411 0.200473
0.535973 0.228305 0.246891
0.782986 0.278599 0.330632
0.266667 0.311955 0.259312
0.294438 0.321599 0.262089
0.367041 0.334569 0.290837
0.593408 0.376165 0.317815
0.813779 0.432044 0.405737
0.439521 0.550378 0.444099
0.457374 0.549584 0.439612
0.576623 0.561212 0.472755
0.585931 0.534630 0.515831
0.864897 0.633478 0.553552
0.672450 0.778408 0.713497
0.689876 0.781155 0.718685
0.767208 0.785702 0.750820
0.849180 0.791073 0.774350
0.825010 0.767269 0.803189
0.255711 0.207523 0.245609
0.270024 0.211917 0.245853
0.319127 0.225986 0.249058
0.497139 0.245365 0.309422
0.746273 0.297093 0.406744
0.275883 0.238254 0.273014
0.290776 0.241184 0.270634
0.336461 0.253605 0.266728
0.502892 0.275700 0.320928
0.744350 0.324590 0.414557
0.308171 0.324315 0.333074
0.328710 0.332982 0.339086
0.417273 0.371435 0.359747
0.551263 0.386450 0.389532
0.774472 0.430732 0.473457
0.432868 0.532525 0.510155
0.445960 0.538750 0.513176
0.525628 0.560357 0.525078
0.607294 0.567712 0.564111
0.845274 0.615198 0.604913
0.639918 0.770596 0.749508
0.653132 0.772457 0.750668
0.709285 0.782589 0.760098
0.817472 0.794339 0.792599
0.827848 0.774929 0.814237
0.371862 0.289738 0.453162
0.387671 0.293034 0.449042
0.441779 0.310582 0.437110
0.538872 0.316472 0.448768
0.739101 0.370092 0.529259
0.382452 0.317998 0.466041
0.398627 0.320684 0.462470
0.451209 0.334295 0.449256
0.541711 0.340093 0.456184
0.738796 0.391119 0.535729
0.371069 0.387396 0.526665
0.407538 0.401312 0.525261
0.490425 0.424018 0.515465
0.566583 0.431006 0.504601
0.760922 0.479744 0.586419
0.445930 0.541741 0.613489
0.459632 0.543389 0.614130
0.520867 0.557275 0.627070
0.658106 0.602960 0.656367
0.808621 0.623163 0.691157
0.624079 0.743587 0.786526
0.634546 0.745296 0.787869
0.683925 0.757656 0.799283
0.762905 0.784146 0.817441
0.838926 0.794949 0.839200
