20 Preset/Retro Portrait/【3】LUT video cho PR-AE-FCPX/Retro LUT (7).cube
# Created by Adobe Lightroom plugin Export LUT (1.24.0)
# www.johnrellis.com/lightroom/exportlut.htm
# Preset: 法式胶片-素材江湖07
# Color profile: C:\Program Files (x86)\Common Files\Adobe\Color\Profiles\Recommended\VideoHD.icc
LUT_3D_SIZE 32
DOMAIN_MIN 0.0 0.0 0.0
DOMAIN_MAX 1.0 1.0 1.0
0.190402 0.169650 0.135500
0.190890 0.169589 0.135744
0.191226 0.169894 0.135683
0.192508 0.170047 0.136080
0.195529 0.170504 0.136629
0.199649 0.170962 0.137118
0.203799 0.171908 0.137972
0.208957 0.172671 0.139071
0.216312 0.172885 0.139681
0.225437 0.173129 0.140444
0.237278 0.173159 0.141146
0.252689 0.172671 0.141939
0.272068 0.171450 0.142855
0.295293 0.169558 0.143557
0.321813 0.166964 0.144472
0.351263 0.163210 0.145876
0.383246 0.158877 0.147311
0.417670 0.152926 0.149294
0.470436 0.141726 0.152743
0.520470 0.129671 0.157137
0.566522 0.117525 0.162692
0.608759 0.107820 0.169162
0.646723 0.101442 0.176577
0.682612 0.100221 0.184726
0.716579 0.104707 0.194095
0.749294 0.115755 0.204776
0.781949 0.131319 0.217044
0.814725 0.152377 0.231540
0.848112 0.177951 0.248936
0.882078 0.208377 0.270268
0.916350 0.242985 0.295567
0.949615 0.282261 0.325963
0.190799 0.169772 0.135714
0.190799 0.169772 0.135714
0.191440 0.169863 0.135927
0.192691 0.170199 0.136049
0.195529 0.170504 0.136629
0.199283 0.171176 0.137301
0.203555 0.171939 0.137972
0.208530 0.172732 0.138827
0.215640 0.173007 0.139681
0.224216 0.173342 0.140230
0.235599 0.173281 0.141176
0.250340 0.172793 0.141787
0.268986 0.171756 0.142702
0.291508 0.170138 0.143648
0.317235 0.167727 0.144411
0.346227 0.164309 0.145602
0.378058 0.159884 0.147097
0.411872 0.154360 0.148928
0.462501 0.144228 0.152163
0.510246 0.133028 0.156252
0.554559 0.121920 0.161166
0.595331 0.112093 0.167178
0.632441 0.105196 0.173831
0.667842 0.101534 0.181216
0.701503 0.102937 0.189792
0.734188 0.110231 0.199771
0.767300 0.123690 0.211002
0.800717 0.142672 0.224918
0.835050 0.166812 0.241520
0.870024 0.196445 0.261753
0.905333 0.230900 0.286442
0.940002 0.269657 0.316106
0.191226 0.170230 0.136080
0.191104 0.170413 0.136049
0.191379 0.170382 0.136049
0.192874 0.170687 0.136202
0.195895 0.171145 0.136721
0.199374 0.171847 0.137423
0.203494 0.172457 0.138125
0.208469 0.173251 0.138979
0.215183 0.173587 0.139620
0.223758 0.173922 0.140383
0.234989 0.173892 0.141085
0.249332 0.173648 0.141909
0.267460 0.172763 0.142611
0.289464 0.171145 0.143587
0.314641 0.168948 0.144350
0.343114 0.165835 0.145541
0.374426 0.161624 0.147097
0.409461 0.156405 0.149050
0.458076 0.147158 0.152193
0.504509 0.136690 0.156039
0.548058 0.126741 0.160678
0.588434 0.117464 0.166293
0.625330 0.110719 0.172580
0.660517 0.106477 0.179843
0.693843 0.107118 0.188052
0.726680 0.112459 0.197299
0.759670 0.124514 0.208713
0.793393 0.141543 0.222110
0.828031 0.164797 0.238315
0.863493 0.193240 0.258274
0.899260 0.226322 0.282200
0.934447 0.264714 0.311009
0.192050 0.171664 0.136751
0.192203 0.171817 0.136721
0.192996 0.171695 0.136721
0.192752 0.171542 0.137209
0.196078 0.172488 0.137179
0.199557 0.173190 0.137881
0.203891 0.173739 0.138582
0.208743 0.174380 0.139223
0.215396 0.174716 0.140078
0.224002 0.175051 0.140627
0.235233 0.175021 0.141329
0.248997 0.174899 0.142153
0.266819 0.174075 0.142855
0.288060 0.173007 0.143771
0.312749 0.171023 0.144564
0.340368 0.168246 0.145754
0.370672 0.164614 0.147097
0.407599 0.159518 0.149172
0.451575 0.152071 0.152102
0.494301 0.143526 0.155459
0.535515 0.134859 0.159670
0.574487 0.126772 0.164858
0.611353 0.120180 0.170687
0.647425 0.115999 0.177798
0.682918 0.114900 0.185794
0.717952 0.119936 0.195560
0.753231 0.130251 0.207126
0.788937 0.146853 0.220920
0.824796 0.169162 0.237461
0.860746 0.196475 0.257298
0.896208 0.228519 0.280797
0.930480 0.264500 0.308598
0.194034 0.174258 0.138094
0.194034 0.174258 0.138094
0.194705 0.174319 0.138064
0.195926 0.174166 0.138521
0.195499 0.173861 0.139071
0.198734 0.174777 0.139254
0.204044 0.175540 0.138918
0.209201 0.175967 0.139590
0.215366 0.176547 0.140200
0.224033 0.176699 0.140780
0.234562 0.176944 0.141695
0.248234 0.176852 0.142275
0.265507 0.176516 0.143130
0.286503 0.175692 0.144045
0.310765 0.174075 0.145022
0.338323 0.171817 0.145937
0.368872 0.168643 0.147463
0.408576 0.163943 0.149660
0.450416 0.157626 0.152468
0.491737 0.150423 0.155856
0.531548 0.143526 0.160067
0.569726 0.136690 0.164950
0.606378 0.131136 0.170657
0.642786 0.127810 0.177737
0.678767 0.127657 0.185946
0.714534 0.131746 0.195834
0.750027 0.141573 0.207309
0.785763 0.156741 0.221073
0.821408 0.176944 0.237369
0.857023 0.202914 0.256870
0.892241 0.232792 0.279881
0.926421 0.267216 0.306828
0.196017 0.177127 0.139803
0.196262 0.177066 0.139803
0.196658 0.177188 0.139773
0.198062 0.177157 0.139986
0.198947 0.176730 0.140261
0.198581 0.176242 0.141054
0.201907 0.177279 0.141207
0.209751 0.178500 0.140475
0.216709 0.179110 0.140810
0.225162 0.179599 0.141329
0.236057 0.179782 0.142000
0.249943 0.180117 0.142733
0.267399 0.180026 0.143526
0.288457 0.179355 0.144381
0.312963 0.178317 0.145449
0.340673 0.176181 0.146761
0.374670 0.173556 0.148348
0.414893 0.169589 0.150790
0.455604 0.164492 0.153658
0.495735 0.159030 0.157076
0.535088 0.153292 0.161349
0.572869 0.148196 0.166598
0.684657 0.152987 0.190280
0.719539 0.159304 0.200748
0.752865 0.169009 0.212375
0.785214 0.181888 0.225315
0.816739 0.198550 0.240024
0.847745 0.218418 0.257023
0.878569 0.242191 0.276860
0.908995 0.268772 0.299107
0.938201 0.298619 0.324865
0.965301 0.330724 0.353887
0.198886 0.181857 0.142031
0.199130 0.181827 0.142031
0.199771 0.181888 0.142000
0.201114 0.181888 0.142184
0.203708 0.181704 0.142123
0.203769 0.180880 0.142947
0.202853 0.180179 0.144015
0.207492 0.181308 0.144533
0.218509 0.183078 0.143160
0.231632 0.184726 0.142367
0.244511 0.185275 0.143282
0.260777 0.185672 0.143862
0.280400 0.185763 0.144900
0.303075 0.185367 0.145785
0.328923 0.184451 0.146853
0.360967 0.182864 0.148531
0.402350 0.180728 0.150729
0.444099 0.177432 0.153841
0.485908 0.173556 0.157443
0.527825 0.169741 0.161959
0.570489 0.166812 0.167941
0.613275 0.165316 0.175723
0.655909 0.166690 0.185092
0.697139 0.172427 0.196139
0.736172 0.181277 0.208682
0.771695 0.193912 0.222416
0.804685 0.208713 0.237491
0.836240 0.226444 0.253758
0.867460 0.247471 0.272404
0.897765 0.271794 0.294011
0.927520 0.298955 0.318334
0.955535 0.329107 0.346075
0.201755 0.186709 0.144106
0.201999 0.186679 0.144106
0.202640 0.186770 0.144076
0.204196 0.186709 0.144259
0.206729 0.186526 0.144228
0.209720 0.186130 0.144411
0.208896 0.184848 0.145785
0.207553 0.184054 0.147280
0.212314 0.185702 0.148104
0.226658 0.187686 0.146365
0.246464 0.191257 0.144259
0.263401 0.192233 0.144869
0.282841 0.192599 0.145632
0.305180 0.192844 0.146578
0.335241 0.192782 0.148104
0.369909 0.192538 0.149874
0.406806 0.191165 0.152224
0.444770 0.189334 0.155123
0.483742 0.186831 0.158785
0.523796 0.184604 0.163241
0.564385 0.183352 0.169070
0.605921 0.182864 0.176516
0.647578 0.185275 0.185702
0.688350 0.190494 0.196231
0.727016 0.198917 0.208957
0.762570 0.210117 0.222354
0.795926 0.223850 0.236851
0.827878 0.239567 0.253025
0.859434 0.259037 0.271519
0.890074 0.281254 0.292454
0.920134 0.306462 0.316411
0.948608 0.335119 0.343694
0.205661 0.193179 0.146883
0.205905 0.193149 0.146853
0.206546 0.193210 0.146822
0.208316 0.193149 0.146792
0.211124 0.193057 0.146944
0.214755 0.192905 0.147066
0.216892 0.191714 0.147860
0.215885 0.190036 0.149508
0.213931 0.189212 0.151400
0.218845 0.191470 0.153048
0.237064 0.194186 0.150881
0.262119 0.198550 0.148196
0.290501 0.202518 0.146883
0.317540 0.204044 0.148318
0.347601 0.204715 0.149935
0.379675 0.204929 0.151705
0.414252 0.204288 0.154177
0.449928 0.203494 0.157168
0.487037 0.202304 0.160678
0.525048 0.201450 0.165591
0.564324 0.201450 0.171572
0.604517 0.202670 0.178927
0.644800 0.205905 0.188113
0.684688 0.211673 0.198825
0.722713 0.220035 0.211521
0.757992 0.230411 0.224704
0.791226 0.242985 0.239414
0.823301 0.257755 0.255497
0.854765 0.275822 0.273808
0.885405 0.296239 0.294652
0.915373 0.319829 0.318181
0.943938 0.346349 0.344854
0.210544 0.202090 0.150210
0.210758 0.202060 0.150210
0.211460 0.201999 0.150210
0.213413 0.201877 0.150149
0.216403 0.201663 0.150332
0.220188 0.201450 0.150240
0.225742 0.201266 0.150515
0.226108 0.198978 0.152193
0.224430 0.196750 0.154299
0.222507 0.196262 0.156863
0.228000 0.199924 0.160250
0.252995 0.204044 0.158022
0.286168 0.210056 0.154635
0.326726 0.217838 0.149996
0.355932 0.218997 0.151888
0.387732 0.219638 0.153902
0.422034 0.220310 0.156374
0.457801 0.220554 0.160006
0.494423 0.220768 0.164034
0.531518 0.221286 0.169284
0.568719 0.222171 0.175448
0.605493 0.224125 0.182864
0.642390 0.227359 0.191318
0.678706 0.232547 0.201480
0.714199 0.239658 0.212802
0.748196 0.248661 0.225284
0.781155 0.259739 0.239414
0.813748 0.273564 0.255558
0.845945 0.290257 0.273869
0.877714 0.310002 0.294804
0.908782 0.332799 0.318822
0.938384 0.358556 0.346014
0.216220 0.212802 0.154147
0.216342 0.212924 0.154116
0.217380 0.212924 0.154086
0.219425 0.212802 0.154238
0.222477 0.212711 0.154360
0.227420 0.213107 0.154726
0.234562 0.213596 0.155184
0.241825 0.213504 0.155917
0.240940 0.210605 0.159091
0.239261 0.208438 0.162448
0.236271 0.207584 0.166018
0.240879 0.212131 0.171237
0.272740 0.217136 0.168124
0.311864 0.224094 0.163760
0.358190 0.233127 0.157900
0.397620 0.238407 0.156344
0.431006 0.239628 0.159579
0.465583 0.240421 0.163363
0.500755 0.241581 0.167880
0.536065 0.242649 0.173465
0.571893 0.244175 0.179812
0.607263 0.246860 0.187259
0.643091 0.250797 0.195895
0.678523 0.256168 0.206088
0.713313 0.263371 0.217716
0.746639 0.272251 0.230747
0.779385 0.282902 0.244907
0.811643 0.296300 0.261295
0.843595 0.311986 0.279545
0.875273 0.330602 0.300633
0.906126 0.352056 0.324590
0.935668 0.376196 0.351781
0.225895 0.231662 0.161013
0.226017 0.231754 0.160983
0.227268 0.231846 0.161105
0.230014 0.231998 0.161196
0.234073 0.232334 0.161349
0.239780 0.232547 0.161868
0.247959 0.233005 0.162234
0.258000 0.233402 0.162905
0.263920 0.231449 0.165164
0.262333 0.227359 0.169314
0.259190 0.224186 0.173861
0.254948 0.222873 0.178592
0.278325 0.247410 0.203372
0.328374 0.255497 0.198611
0.384405 0.265812 0.192081
0.443580 0.277958 0.183719
0.498604 0.289677 0.175723
0.532067 0.290471 0.181491
0.565576 0.291600 0.188052
0.598962 0.293462 0.195499
0.631830 0.296147 0.204074
0.664118 0.299840 0.213504
0.695766 0.304601 0.224125
0.727077 0.311070 0.235813
0.757412 0.318822 0.248692
0.786770 0.327550 0.262486
0.815152 0.337255 0.277043
0.842679 0.348852 0.293370
0.870085 0.362219 0.311223
0.897337 0.377996 0.331701
0.923980 0.396277 0.354803
0.949676 0.417609 0.381567
0.246189 0.269291 0.176486
0.246098 0.269230 0.176364
0.247532 0.268711 0.176089
0.250889 0.268009 0.175998
0.255375 0.267277 0.175875
0.262333 0.266331 0.175845
0.271397 0.265934 0.176150
0.283391 0.265812 0.176730
0.298161 0.266331 0.177676
0.301030 0.261631 0.182559
0.299413 0.257084 0.189487
0.296910 0.254398 0.197147
0.291966 0.254215 0.205509
0.292088 0.263310 0.219303
0.348180 0.273930 0.216373
0.407263 0.285405 0.210391
0.467018 0.297887 0.202152
0.524590 0.311681 0.191897
0.563836 0.316533 0.193332
0.595270 0.317784 0.200656
0.626459 0.319890 0.208835
0.657710 0.323247 0.218448
0.688746 0.327611 0.228611
0.719539 0.333562 0.240513
0.749905 0.340612 0.253269
0.779324 0.348943 0.267002
0.808164 0.358373 0.281987
0.836576 0.369360 0.298405
0.864622 0.382452 0.316747
0.892515 0.397833 0.337652
0.919524 0.415290 0.361212
0.945403 0.435370 0.387976
0.261204 0.296300 0.189090
0.261387 0.295872 0.188907
0.263035 0.294987 0.188449
0.265537 0.293950 0.188205
0.270451 0.292515 0.187625
0.276890 0.291112 0.187472
0.286320 0.290349 0.187503
0.298375 0.289860 0.187930
0.313420 0.290410 0.189059
0.330480 0.290684 0.191135
0.329259 0.284642 0.198550
0.327642 0.280064 0.207279
0.324437 0.277348 0.216587
0.318456 0.276738 0.225864
0.316106 0.285618 0.240818
0.371954 0.296666 0.238773
0.431830 0.307897 0.232273
0.490150 0.320012 0.224094
0.547417 0.333867 0.214481
0.595697 0.345068 0.208255
0.625940 0.346777 0.216526
0.656580 0.349615 0.226139
0.687007 0.354131 0.236851
0.717494 0.359777 0.248814
0.747494 0.366552 0.261814
0.776974 0.374426 0.275883
0.805631 0.383520 0.291142
0.833951 0.393835 0.307622
0.861906 0.406012 0.326207
0.889738 0.420478 0.347082
0.916838 0.436927 0.370794
0.942718 0.456123 0.397986
0.279728 0.326146 0.204959
0.280064 0.325902 0.204868
0.281193 0.324895 0.204440
0.284154 0.323583 0.203738
0.288457 0.321843 0.203098
0.294896 0.319921 0.202548
0.304295 0.318761 0.202274
0.316381 0.318151 0.202670
0.331823 0.318517 0.203799
0.350561 0.319921 0.205936
0.363836 0.318425 0.210758
0.362860 0.312383 0.220157
0.360510 0.307561 0.230259
0.355718 0.304021 0.240360
0.347662 0.302281 0.249668
0.342626 0.309697 0.264591
0.395850 0.321324 0.264225
0.455970 0.332280 0.257633
0.514611 0.344488 0.249607
0.570855 0.358312 0.240726
0.625025 0.373816 0.230381
0.658381 0.378882 0.236942
0.687892 0.382574 0.247684
0.717769 0.387732 0.259556
0.747127 0.394079 0.272679
0.776211 0.401495 0.286809
0.805020 0.410224 0.302403
0.833616 0.420569 0.319829
0.862394 0.432868 0.339361
0.890806 0.447364 0.361791
0.918486 0.464363 0.387457
0.944518 0.483711 0.416480
0.299718 0.356023 0.223026
0.299992 0.356176 0.222995
0.301793 0.355718 0.222934
0.304753 0.355077 0.222660
0.310094 0.354040 0.222507
0.317418 0.353338 0.222477
0.327764 0.353368 0.222965
0.340856 0.353674 0.224002
0.357092 0.354650 0.225772
0.376349 0.356115 0.228061
0.398260 0.357794 0.230777
0.403906 0.352178 0.238163
0.400275 0.344091 0.247593
0.394812 0.336706 0.256809
0.386572 0.330694 0.265568
0.375463 0.327031 0.273930
0.368292 0.332586 0.287877
0.417395 0.344945 0.289830
0.477852 0.356207 0.283909
0.536278 0.368841 0.277104
0.593011 0.383490 0.269657
0.647852 0.400458 0.261418
0.691066 0.413031 0.261173
0.720790 0.418280 0.273869
0.750210 0.424567 0.287541
0.779507 0.432074 0.302586
0.808286 0.440681 0.318914
0.836820 0.450660 0.336706
0.865049 0.462104 0.356634
0.892576 0.475471 0.379095
0.919005 0.490761 0.404211
0.943603 0.508141 0.432654
0.321477 0.386328 0.243900
0.322118 0.386297 0.243900
0.323644 0.385992 0.243809
0.326818 0.385657 0.243809
0.332219 0.385168 0.243687
0.339727 0.384863 0.243961
0.349767 0.384802 0.244602
0.362432 0.385107 0.245792
0.377813 0.385840 0.247562
0.396246 0.387060 0.249790
0.417121 0.388617 0.252659
0.439704 0.389685 0.256199
0.437507 0.380896 0.265568
0.432837 0.372259 0.275029
0.426032 0.364294 0.284123
0.416693 0.357763 0.292699
0.404730 0.353399 0.300664
0.396185 0.358251 0.314427
0.440925 0.371313 0.319341
0.501915 0.383001 0.314427
0.560937 0.396704 0.309148
0.618097 0.412299 0.303319
0.672602 0.429938 0.297154
0.724605 0.449714 0.290654
0.754299 0.455879 0.304631
0.783291 0.463020 0.320226
0.812039 0.471382 0.337194
0.840543 0.480873 0.355596
0.868406 0.491981 0.376471
0.895354 0.504723 0.399359
0.920989 0.519310 0.425177
0.944488 0.535821 0.453986
0.348943 0.420813 0.271214
0.349615 0.421088 0.271397
0.376928 0.449989 0.297276
0.380194 0.449744 0.297490
0.385534 0.449256 0.297459
0.392737 0.448676 0.297459
0.402625 0.448096 0.297795
0.414923 0.447944 0.298741
0.430121 0.448219 0.300359
0.448219 0.449042 0.302770
0.468360 0.450050 0.305821
0.490517 0.451057 0.309148
0.505425 0.447578 0.313787
0.499489 0.436408 0.321996
0.491707 0.425360 0.329900
0.481453 0.414893 0.336950
0.468696 0.405554 0.343450
0.453346 0.398840 0.349279
0.441688 0.400855 0.360876
0.480354 0.413611 0.367742
0.542107 0.424933 0.362402
0.601129 0.438788 0.357763
0.657252 0.454597 0.352819
0.709834 0.471839 0.347936
0.759579 0.489876 0.341955
0.794858 0.500633 0.347112
0.820859 0.506432 0.362524
0.846921 0.513756 0.379583
0.872862 0.523095 0.399573
0.898405 0.534478 0.422156
0.922606 0.547814 0.447761
0.944762 0.563073 0.476234
0.385901 0.463386 0.309422
0.388495 0.465949 0.311894
0.392798 0.468727 0.314794
0.398138 0.471015 0.317266
0.404608 0.472602 0.319280
0.412360 0.472999 0.320348
0.421759 0.472786 0.320867
0.432990 0.472358 0.321477
0.446662 0.472541 0.322972
0.463050 0.472908 0.324926
0.481361 0.473793 0.327581
0.501640 0.474647 0.330602
0.523308 0.475166 0.333684
0.529381 0.468208 0.339513
0.523095 0.457099 0.347326
0.514763 0.446357 0.354589
0.504784 0.436378 0.361822
0.492439 0.428107 0.368597
0.478462 0.422461 0.375433
0.467506 0.424750 0.387579
0.501915 0.439002 0.398322
0.564935 0.452064 0.395789
0.624201 0.466926 0.393286
0.679805 0.483162 0.390265
0.731807 0.500237 0.386786
0.780728 0.518212 0.383062
0.823117 0.534813 0.382330
0.848386 0.541314 0.399451
0.873564 0.549828 0.419165
0.898405 0.560357 0.441566
0.921813 0.572900 0.467231
0.943053 0.587274 0.495796
0.410468 0.491035 0.336400
0.413336 0.493843 0.339147
0.417731 0.496742 0.342168
0.423224 0.499245 0.345037
0.429328 0.501091 0.347387
0.436774 0.501579 0.348699
0.445319 0.501488 0.349310
0.455879 0.501183 0.349859
0.468330 0.501030 0.351110
0.483192 0.501244 0.352789
0.500114 0.501732 0.355230
0.518853 0.502464 0.358038
0.539086 0.502800 0.360784
0.560449 0.503258 0.364019
0.558038 0.493141 0.370977
0.551446 0.482551 0.378393
0.542901 0.471992 0.385504
0.532708 0.462593 0.392370
0.521019 0.454994 0.399451
0.507591 0.449928 0.406775
0.496223 0.451881 0.418677
0.525841 0.466804 0.432593
0.589136 0.480842 0.432013
0.648127 0.496254 0.431189
0.703029 0.512383 0.429847
0.754421 0.529503 0.428290
0.802304 0.547417 0.426673
0.846555 0.566491 0.426154
0.875151 0.577264 0.441291
0.898894 0.586877 0.463478
0.921202 0.598444 0.488960
0.941192 0.611688 0.516960
0.437873 0.521050 0.367193
0.440803 0.523430 0.369757
0.444709 0.526024 0.372778
0.449836 0.528161 0.375463
0.455726 0.529808 0.377722
0.462684 0.530327 0.378851
0.470466 0.530327 0.379736
0.479988 0.530114 0.380560
0.491768 0.530144 0.381689
0.505455 0.530236 0.383368
0.521172 0.530663 0.385565
0.538323 0.531304 0.388312
0.557183 0.531792 0.391058
0.577173 0.532158 0.394141
0.593561 0.530144 0.398260
0.588190 0.520012 0.405707
0.582116 0.510613 0.413703
0.574914 0.501854 0.422004
0.566918 0.494789 0.431037
0.557427 0.489570 0.440467
0.546624 0.487068 0.450446
0.536828 0.490425 0.464240
0.562371 0.506889 0.482795
0.627100 0.523033 0.485939
0.687160 0.539879 0.488350
0.742306 0.557397 0.490517
0.792996 0.575586 0.492592
0.839200 0.594629 0.495735
0.880644 0.614466 0.500664
0.911620 0.630701 0.513481
0.930541 0.641108 0.539300
0.946258 0.652827 0.567681
0.483558 0.567193 0.419440
0.484901 0.568170 0.420661
0.487160 0.568994 0.421668
0.489998 0.569299 0.422553
0.493904 0.569268 0.422858
0.499458 0.568811 0.422827
0.505974 0.568322 0.423072
0.514549 0.567956 0.423713
0.525383 0.567803 0.424537
0.537987 0.568170 0.426642
0.552575 0.568627 0.428840
0.568811 0.569360 0.431678
0.586297 0.569818 0.434394
0.605035 0.570275 0.437446
0.624750 0.570703 0.440681
0.633265 0.565698 0.445808
0.627619 0.555993 0.452918
0.621027 0.546624 0.460273
0.613519 0.538048 0.467933
0.604822 0.530816 0.475959
0.594629 0.525200 0.484260
0.583032 0.521782 0.492836
0.571496 0.523186 0.504082
0.589990 0.538109 0.523033
0.653223 0.553521 0.526299
0.711788 0.570275 0.530083
0.765988 0.588098 0.534295
0.815335 0.607050 0.539483
0.859648 0.626764 0.546258
0.897612 0.646601 0.554925
0.928374 0.665614 0.565454
0.942840 0.676234 0.592523
0.514092 0.597681 0.456001
0.515282 0.598535 0.457069
0.517113 0.599207 0.458137
0.519890 0.599664 0.458961
0.523583 0.599756 0.459510
0.528405 0.599603 0.459846
0.534813 0.599176 0.460029
0.542809 0.598840 0.460548
0.552605 0.598962 0.461860
0.564538 0.599207 0.463569
0.577935 0.599756 0.465980
0.593011 0.600397 0.468696
0.609339 0.601160 0.471778
0.626978 0.601892 0.475013
0.645686 0.602625 0.478553
0.665309 0.603357 0.482490
0.667323 0.596460 0.488899
0.662226 0.587762 0.496407
0.656306 0.579522 0.504173
0.649378 0.571954 0.512291
0.641382 0.565667 0.520745
0.631861 0.560876 0.529320
0.620844 0.557977 0.537987
0.609461 0.558923 0.548638
0.613825 0.565301 0.558465
0.675654 0.580499 0.562646
0.733486 0.597894 0.568597
0.786557 0.616541 0.575402
0.834318 0.636103 0.583459
0.875608 0.656062 0.593439
0.909606 0.675929 0.605768
0.934874 0.694270 0.620142
0.555383 0.637629 0.506859
0.557214 0.639033 0.508721
0.558801 0.639582 0.509728
0.560845 0.639368 0.509606
0.563012 0.638453 0.508690
0.566155 0.637171 0.507622
0.570428 0.635492 0.506004
0.576104 0.633936 0.504967
0.583703 0.632532 0.504204
0.593103 0.631647 0.504234
0.604059 0.630701 0.504509
0.616754 0.630396 0.505943
0.630915 0.630091 0.507408
0.646021 0.629755 0.509270
0.662226 0.629267 0.510979
0.679286 0.628992 0.513268
0.696742 0.628168 0.516167
0.692622 0.619379 0.522484
0.687709 0.611231 0.529931
0.682490 0.604150 0.538201
0.676631 0.597864 0.547051
0.669215 0.592462 0.555871
0.660090 0.588037 0.564202
0.648707 0.584619 0.571649
0.635859 0.583795 0.579675
0.642206 0.596796 0.599786
0.701930 0.611414 0.604120
0.757778 0.628412 0.610773
0.808194 0.646906 0.619104
0.852567 0.666285 0.629328
0.889372 0.685939 0.641901
0.917205 0.704829 0.656977
0.581598 0.663142 0.540215
0.583337 0.664393 0.541955
0.585138 0.665217 0.543145
0.587152 0.665431 0.543816
0.590204 0.665217 0.543786
0.593805 0.664851 0.543847
0.598871 0.664454 0.543969
0.605432 0.664179 0.544488
0.613581 0.664057 0.545434
0.623316 0.664179 0.546715
0.634119 0.664271 0.548363
0.646448 0.664485 0.550347
0.659632 0.664637 0.552453
0.673976 0.664546 0.554437
0.688777 0.664240 0.556359
0.704555 0.663874 0.558404
0.721218 0.663783 0.560937
0.733150 0.661219 0.565057
0.728908 0.653285 0.571527
0.724636 0.646174 0.579217
0.719722 0.639857 0.587579
0.714168 0.634241 0.596185
0.707179 0.629389 0.604547
0.698512 0.625391 0.612543
0.687861 0.622400 0.619898
0.675471 0.621424 0.627314
0.677455 0.634485 0.648737
0.735103 0.649317 0.654597
0.788724 0.667353 0.664088
0.834958 0.686244 0.675196
0.873075 0.705318 0.688228
0.901549 0.723690 0.703365
0.617548 0.695888 0.585412
0.618341 0.696468 0.586236
0.619562 0.696773 0.586847
0.621149 0.696742 0.587060
0.623468 0.696498 0.586999
0.626795 0.695979 0.586755
0.631189 0.695521 0.586755
0.636774 0.695064 0.586908
0.643702 0.694789 0.587457
0.652308 0.694728 0.588586
0.662104 0.694728 0.589960
0.673365 0.694972 0.591821
0.685573 0.695186 0.593957
0.698543 0.695186 0.596033
0.712245 0.694972 0.597833
0.726650 0.694697 0.599725
0.741909 0.694575 0.602106
0.758236 0.694972 0.605463
0.764675 0.691035 0.610742
0.761257 0.684382 0.617823
0.757504 0.678218 0.625605
0.753109 0.672572 0.633539
0.747463 0.667231 0.641291
0.740566 0.662531 0.648768
0.732082 0.658503 0.655695
0.721736 0.655421 0.662074
0.709621 0.653895 0.668330
0.709224 0.666041 0.688899
0.761471 0.680568 0.695888
0.811490 0.699123 0.707515
0.852689 0.718044 0.720760
0.883818 0.736507 0.735958
0.649592 0.724117 0.626184
0.650385 0.724605 0.626947
0.651514 0.724971 0.627619
0.653407 0.725216 0.628199
0.656184 0.725429 0.628901
0.660151 0.725917 0.630060
0.666011 0.727077 0.632593
0.673396 0.728542 0.635798
0.682338 0.730495 0.639857
0.692714 0.732753 0.644495
0.704341 0.735225 0.649805
0.716609 0.737545 0.655116
0.729519 0.739681 0.660273
0.742580 0.741329 0.664790
0.755764 0.742580 0.668849
0.768887 0.743038 0.671839
0.782223 0.743435 0.674830
0.796414 0.743984 0.678218
0.811337 0.745052 0.682612
0.813077 0.740658 0.688777
0.810513 0.735409 0.695460
0.807553 0.730465 0.702327
0.803616 0.725551 0.708888
0.798672 0.720974 0.715145
0.792538 0.716701 0.721004
0.785000 0.713100 0.726589
0.776089 0.710414 0.731868
0.765774 0.709041 0.737087
0.765133 0.719356 0.754055
0.805509 0.732296 0.761563
0.845121 0.749325 0.773587
0.873838 0.765682 0.786831
0.703609 0.765499 0.692500
0.703731 0.765499 0.692500
0.704158 0.765377 0.692378
0.705135 0.765225 0.692317
0.706722 0.764981 0.692287
0.709163 0.764736 0.692287
0.712734 0.764675 0.692744
0.717342 0.764767 0.693599
0.723232 0.765042 0.694972
0.730282 0.765530 0.696864
0.738186 0.766110 0.699123
0.747189 0.766842 0.701717
0.756832 0.767514 0.704585
0.767117 0.768124 0.707332
