20 Preset/Retro Portrait/【3】LUT video cho PR-AE-FCPX/Retro LUT (2).cube
# Created by Adobe Lightroom plugin Export LUT (1.24.0)
# www.johnrellis.com/lightroom/exportlut.htm
# Preset: 法式胶片-素材江湖02
# Color profile: C:\Program Files (x86)\Common Files\Adobe\Color\Profiles\Recommended\VideoHD.icc
LUT_3D_SIZE 8
DOMAIN_MIN 0.000000 0.000000 0.000000
DOMAIN_MAX 0.903226 0.903226 0.903226
0.158328 0.134493 0.106386
0.158877 0.134646 0.106355
0.217472 0.132753 0.106874
0.425940 0.127504 0.092683
0.620966 0.156741 0.088289
0.767239 0.281651 0.196475
0.833890 0.403815 0.319158
0.890867 0.507652 0.433692
0.158816 0.135378 0.106538
0.160037 0.135927 0.107088
0.214176 0.140536 0.105867
0.401617 0.148409 0.094057
0.598444 0.178164 0.092775
0.743252 0.276005 0.182498
0.816526 0.388281 0.298497
0.878294 0.496773 0.418708
0.167849 0.169924 0.111788
0.183688 0.169345 0.116274
0.217777 0.178714 0.121706
0.411566 0.219821 0.099916
0.609583 0.274144 0.134463
0.737606 0.353185 0.231846
0.816159 0.454139 0.354437
0.880858 0.540948 0.460975
0.229038 0.303227 0.153323
0.264256 0.303838 0.168917
0.331609 0.307164 0.201816
0.410590 0.351232 0.228885
0.609400 0.424537 0.254582
0.732509 0.458106 0.311376
0.802182 0.519707 0.408148
0.869780 0.581781 0.495216
0.359716 0.466133 0.276127
0.381811 0.465095 0.287449
0.439673 0.463813 0.317479
0.492805 0.469703 0.357641
0.541650 0.494087 0.368078
0.666621 0.540551 0.398260
0.774929 0.572839 0.447883
0.856168 0.621851 0.526268
0.475257 0.578058 0.407050
0.492805 0.582666 0.420905
0.531060 0.581476 0.443915
0.569818 0.579614 0.466560
0.600153 0.585840 0.487739
0.633967 0.600641 0.498817
0.723720 0.638911 0.534508
0.842496 0.678096 0.581109
0.578119 0.662928 0.528893
0.585504 0.663630 0.534020
0.608392 0.662287 0.548180
0.634424 0.660731 0.561334
0.658839 0.658503 0.577417
0.682948 0.668391 0.589563
0.712276 0.680171 0.599451
0.794736 0.713619 0.630152
0.669581 0.751522 0.636469
0.673884 0.751339 0.638911
0.692500 0.751492 0.650080
0.720058 0.752651 0.665675
0.734188 0.741665 0.666621
0.762783 0.746120 0.690120
0.796078 0.763210 0.703639
0.829770 0.775051 0.715572
0.158328 0.134493 0.106386
0.158541 0.134707 0.106355
0.194064 0.133883 0.108461
0.365240 0.129793 0.108370
0.574578 0.159426 0.117067
0.725643 0.265232 0.193515
0.803891 0.377752 0.297368
0.866880 0.484718 0.410132
0.158175 0.135225 0.106935
0.159609 0.135500 0.107179
0.197513 0.139345 0.109590
0.364599 0.146334 0.109255
0.570306 0.182467 0.121553
0.717281 0.275822 0.194705
0.795560 0.377020 0.292088
0.858854 0.480140 0.402441
0.160830 0.166964 0.113069
0.175082 0.168124 0.116274
0.211490 0.175448 0.124910
0.386481 0.209293 0.114778
0.573754 0.261448 0.146670
0.709560 0.337285 0.226291
0.790127 0.425757 0.327642
0.858305 0.518029 0.436316
0.199008 0.289921 0.144900
0.236057 0.290410 0.158175
0.313939 0.293034 0.193149
0.377752 0.320958 0.211124
0.568505 0.385016 0.224857
0.701106 0.423560 0.278111
0.777127 0.487404 0.372686
0.847440 0.557946 0.467933
0.336950 0.457923 0.264836
0.360296 0.455604 0.274937
0.425116 0.452552 0.307408
0.476661 0.452155 0.343420
0.522667 0.473976 0.349371
0.652918 0.523247 0.379126
0.762722 0.556939 0.429938
0.841611 0.609308 0.512291
0.456794 0.568780 0.392126
0.470039 0.568750 0.399878
0.514519 0.568505 0.427619
0.557153 0.568231 0.452491
0.590326 0.575738 0.476783
0.627100 0.593683 0.491157
0.717128 0.632349 0.527245
0.833066 0.670588 0.572961
0.564233 0.655116 0.515801
0.569360 0.653712 0.518090
0.593439 0.652094 0.532708
0.623346 0.651484 0.549462
0.651148 0.651575 0.568963
0.675227 0.661280 0.581628
0.702693 0.671565 0.589502
0.783047 0.704005 0.618494
0.657923 0.744106 0.625788
0.663813 0.745205 0.629847
0.682185 0.745022 0.640681
0.711299 0.746395 0.657740
0.739742 0.747097 0.673304
0.764523 0.747829 0.692195
0.793698 0.761593 0.702052
0.826871 0.773068 0.713497
0.158389 0.135286 0.113405
0.158297 0.135286 0.114015
0.182010 0.132631 0.118441
0.340520 0.110872 0.145266
0.538781 0.193576 0.185397
0.702052 0.319036 0.271336
0.784970 0.429023 0.365789
0.855222 0.521080 0.460426
0.157687 0.136263 0.116579
0.160769 0.136294 0.116762
0.186557 0.136812 0.121340
0.335149 0.135500 0.144930
0.536034 0.212467 0.189212
0.692531 0.323613 0.269139
0.777981 0.425757 0.359350
0.848844 0.517510 0.454292
0.153048 0.168093 0.131655
0.161227 0.170199 0.133059
0.218235 0.187564 0.145174
0.361547 0.217350 0.165621
0.553338 0.287358 0.217655
0.690730 0.374182 0.294255
0.773129 0.459968 0.381781
0.845487 0.540276 0.471809
0.150942 0.298619 0.177432
0.184207 0.302251 0.180240
0.298894 0.315160 0.207950
0.384375 0.336034 0.242985
0.569543 0.390692 0.263676
0.687404 0.447395 0.335058
0.766049 0.513146 0.419654
0.840665 0.577325 0.501152
0.290013 0.460090 0.271275
0.311131 0.460151 0.275303
0.400427 0.461982 0.312078
0.480598 0.464302 0.359747
0.526268 0.484901 0.374487
0.654139 0.531579 0.404364
0.756680 0.564996 0.454231
0.835660 0.618158 0.532372
0.422675 0.570275 0.384680
0.437751 0.570703 0.392248
0.491768 0.569879 0.421302
0.550134 0.569268 0.455329
0.586023 0.573205 0.481849
0.622583 0.592187 0.495827
0.715846 0.633051 0.533501
0.833005 0.672724 0.581781
0.549157 0.658869 0.513848
0.555383 0.657618 0.516442
0.581384 0.654963 0.530175
0.619257 0.653620 0.552544
0.649104 0.652796 0.570550
0.674464 0.661799 0.586267
0.704524 0.674952 0.596918
0.790890 0.710719 0.629480
0.644343 0.745632 0.621271
0.648493 0.744808 0.623072
0.668269 0.744350 0.633936
0.706020 0.747402 0.658167
0.736416 0.747829 0.673518
0.765286 0.750057 0.694514
0.795499 0.763699 0.706966
0.829435 0.775723 0.718593
0.149447 0.136019 0.157748
0.148623 0.135988 0.160647
0.203586 0.127321 0.168063
0.298955 0.109316 0.185214
0.505272 0.096132 0.239536
0.667689 0.284550 0.305547
0.742885 0.455818 0.414130
0.822385 0.538323 0.493507
0.148226 0.135897 0.169986
0.163455 0.133700 0.171481
0.209995 0.129732 0.174624
0.307042 0.122652 0.191440
0.509606 0.150057 0.246250
0.663722 0.310369 0.314031
0.741238 0.461067 0.416632
0.821256 0.541405 0.495155
0.135073 0.179110 0.189914
0.149935 0.177859 0.190311
0.213901 0.178347 0.196872
0.329473 0.195132 0.213504
0.516045 0.273991 0.273655
0.654139 0.406409 0.362127
0.746731 0.502647 0.449348
0.827390 0.568658 0.518883
0.090089 0.296452 0.238468
0.134615 0.298772 0.240360
0.244724 0.314244 0.252995
0.399481 0.366217 0.297856
0.533318 0.404089 0.331487
0.650874 0.465797 0.392187
0.738277 0.531395 0.463050
0.822110 0.591638 0.532860
0.206516 0.469520 0.329595
0.239963 0.468879 0.329564
0.338903 0.472023 0.337072
0.467659 0.487098 0.380163
0.530755 0.500786 0.411933
0.653681 0.540398 0.440742
0.740902 0.582544 0.498878
0.825772 0.629969 0.561456
0.397955 0.579370 0.416236
0.415442 0.583246 0.423896
0.458503 0.582452 0.433143
0.536828 0.584741 0.469490
0.592065 0.585016 0.504845
0.623194 0.599084 0.515648
0.720516 0.639490 0.551202
0.836332 0.676326 0.597406
0.522301 0.662165 0.515892
0.529198 0.662470 0.518639
0.553857 0.662593 0.528038
0.605829 0.662470 0.556176
0.650263 0.661982 0.581415
0.676692 0.666346 0.599023
0.705531 0.678706 0.607233
0.799466 0.717189 0.642054
0.619776 0.753079 0.619318
0.623713 0.752926 0.620630
0.644312 0.752285 0.629755
0.686580 0.752132 0.652522
0.731106 0.752193 0.676875
0.764675 0.753414 0.697383
0.795926 0.765621 0.713710
0.833799 0.780240 0.727535
0.074800 0.135470 0.268467
0.071962 0.135256 0.271794
0.219791 0.114626 0.278508
0.338079 0.028168 0.286748
0.465400 0.000000 0.303685
0.636530 0.190921 0.356847
0.736934 0.385992 0.419196
0.804013 0.527092 0.511162
0.092927 0.133608 0.280888
0.137911 0.129305 0.284123
0.238621 0.108949 0.288060
0.336767 0.079438 0.288518
0.468269 0.086397 0.307927
0.634394 0.226352 0.361120
0.733425 0.402228 0.425452
0.801846 0.534813 0.515801
0.037293 0.178134 0.293828
0.104189 0.172946 0.293187
0.214817 0.169223 0.294072
0.337957 0.181064 0.301152
0.474495 0.219699 0.324163
0.619165 0.317876 0.372320
0.718318 0.452613 0.444678
0.791409 0.559289 0.529503
0.000000 0.300572 0.327764
0.097475 0.301610 0.328588
0.238499 0.310857 0.334661
0.374029 0.337987 0.352148
0.496651 0.370550 0.372686
0.615198 0.443885 0.420233
0.706142 0.532586 0.491249
0.792142 0.600641 0.560296
0.150912 0.447486 0.385718
0.190188 0.449256 0.387243
0.291875 0.455665 0.392462
0.410712 0.474311 0.409277
0.529503 0.512474 0.446937
0.622126 0.539544 0.474983
0.709438 0.584344 0.525383
0.802701 0.629969 0.579309
0.296788 0.565789 0.445197
0.313451 0.566400 0.446693
0.368261 0.566888 0.449866
0.461006 0.569757 0.458106
0.561883 0.580926 0.494026
0.613519 0.596063 0.525078
0.718166 0.636255 0.562341
0.821500 0.674311 0.612116
0.464881 0.660639 0.524865
0.471412 0.659632 0.524681
0.499763 0.657862 0.527459
0.553735 0.659144 0.541527
0.623316 0.662226 0.573571
0.668971 0.662837 0.601831
0.697505 0.675135 0.610346
0.801480 0.715419 0.646113
0.565545 0.747311 0.609216
0.570611 0.746975 0.610193
0.591760 0.746181 0.615015
0.634089 0.749966 0.631434
0.697627 0.750881 0.662623
0.751614 0.751980 0.692134
0.785489 0.759915 0.713100
0.823575 0.774838 0.725277
0.000000 0.135012 0.411780
0.000000 0.132509 0.413855
0.189303 0.101900 0.415747
0.358465 0.000000 0.422278
0.481239 0.000000 0.421973
0.616693 0.103182 0.439979
0.724300 0.308873 0.465217
0.798093 0.481666 0.526757
0.000000 0.131502 0.409339
0.000000 0.125826 0.409918
0.217197 0.094362 0.412573
0.354467 0.000000 0.415320
0.475471 0.000000 0.417517
0.607782 0.149996 0.434211
0.716609 0.319982 0.462074
0.792569 0.484810 0.524956
0.000000 0.152010 0.420996
0.000000 0.151186 0.420630
0.202792 0.150210 0.420478
0.343450 0.159884 0.419257
0.477302 0.202182 0.428260
0.603357 0.274296 0.444282
0.705806 0.389807 0.475868
0.785641 0.522667 0.542077
0.000000 0.304967 0.443397
0.000000 0.306096 0.442939
0.235721 0.316411 0.443641
0.375616 0.342016 0.452857
0.497047 0.373938 0.463630
0.605524 0.415503 0.477485
0.697353 0.491737 0.512139
0.784054 0.581231 0.576410
0.138277 0.443183 0.471290
0.181613 0.444465 0.471168
0.287572 0.450782 0.471870
0.404578 0.467628 0.477913
0.510155 0.493263 0.491005
0.599542 0.514946 0.504448
0.686427 0.567376 0.542687
0.782162 0.628626 0.602258
0.273716 0.559136 0.506828
0.295384 0.561456 0.509148
0.355047 0.563592 0.510460
0.437659 0.569635 0.515282
0.525933 0.582544 0.527611
0.619745 0.612055 0.559594
0.705592 0.640467 0.592676
0.807340 0.678920 0.639673
0.398505 0.661677 0.566278
0.409400 0.662623 0.567987
0.443977 0.662989 0.570123
0.500481 0.664759 0.575433
0.574121 0.667475 0.582757
0.656550 0.674281 0.608942
0.698695 0.681666 0.628656
0.820493 0.724697 0.671015
0.497383 0.750759 0.631434
0.502525 0.749874 0.630732
0.526055 0.748898 0.631220
0.570550 0.749813 0.636133
0.632837 0.751034 0.647150
0.718105 0.754116 0.682124
0.777462 0.757382 0.717830
0.817838 0.773678 0.730709
0.000000 0.135683 0.533135
0.000000 0.134005 0.535027
0.000000 0.103365 0.536522
0.314458 0.000000 0.541070
0.476265 0.000000 0.545586
0.602747 0.000000 0.543755
0.715297 0.220066 0.542931
0.782467 0.395941 0.548486
0.000000 0.134218 0.529900
0.000000 0.128603 0.532219
0.000000 0.096590 0.533776
0.322545 0.000000 0.537072
0.469795 0.000000 0.538415
0.594965 0.000000 0.536034
0.706050 0.234562 0.535698
0.774716 0.395636 0.542107
0.000000 0.118318 0.544030
0.000000 0.114412 0.543755
0.145418 0.099397 0.541955
0.321721 0.089113 0.540185
0.462959 0.140291 0.537926
0.589899 0.227848 0.538018
0.698909 0.328771 0.542748
0.769802 0.450477 0.557366
0.000000 0.274266 0.552117
0.000000 0.274510 0.550195
0.141115 0.283024 0.544945
0.334295 0.304662 0.545220
0.470375 0.337438 0.545281
0.587671 0.382574 0.549004
0.687526 0.439857 0.557061
0.761074 0.517601 0.577661
0.000000 0.423926 0.561700
0.000000 0.424140 0.559869
0.220890 0.429877 0.556237
0.366766 0.445350 0.553399
0.485115 0.470192 0.554253
0.583124 0.493294 0.559655
0.672786 0.524773 0.569665
0.757412 0.582208 0.603052
0.203006 0.547753 0.579370
0.229923 0.548699 0.579309
0.309697 0.552117 0.578698
0.408240 0.559442 0.578607
0.506340 0.571588 0.580713
0.598749 0.592859 0.591333
0.676631 0.610773 0.604059
0.772824 0.652155 0.644038
0.340337 0.647883 0.609735
0.353155 0.648676 0.610407
0.395911 0.649470 0.610559
0.463478 0.651942 0.612085
0.538018 0.656336 0.615656
0.612909 0.666499 0.626154
0.698604 0.689540 0.652857
0.809445 0.724666 0.696956
0.415412 0.744656 0.666438
0.423346 0.744991 0.667079
0.455482 0.747311 0.670741
0.504601 0.749416 0.674434
0.566064 0.752987 0.679805
0.647120 0.757656 0.686549
0.753994 0.765042 0.716640
0.814694 0.776181 0.744350
0.000000 0.140719 0.640864
0.000000 0.140719 0.641596
0.000000 0.123537 0.641016
0.181155 0.000000 0.643153
0.414771 0.000000 0.645747
0.573938 0.000000 0.648432
0.704158 0.000000 0.645991
0.801389 0.319097 0.637049
0.000000 0.140597 0.638849
0.000000 0.140597 0.639704
0.000000 0.120211 0.639887
0.193759 0.000000 0.641566
0.416907 0.000000 0.644099
0.572900 0.000000 0.646265
0.699458 0.116426 0.642176
0.795926 0.328161 0.633356
0.000000 0.139651 0.643214
0.000000 0.134707 0.643458
0.000000 0.110201 0.643336
0.229618 0.000000 0.646967
0.425605 0.000000 0.647517
0.566613 0.063111 0.643183
0.691218 0.261326 0.639521
0.785794 0.385473 0.633753
0.000000 0.176791 0.649165
0.000000 0.173129 0.648798
0.000000 0.178561 0.647761
0.213809 0.201999 0.647059
0.418433 0.252445 0.644892
0.562890 0.321019 0.641566
0.680476 0.393805 0.639918
0.772732 0.466041 0.639582
0.000000 0.349981 0.656001
0.000000 0.350561 0.655726
0.000000 0.352911 0.651972
0.246250 0.387793 0.644800
0.432776 0.423072 0.641077
0.559747 0.456916 0.639857
0.667414 0.495521 0.641535
0.759426 0.540093 0.648127
0.000000 0.503471 0.664759
0.000000 0.503502 0.663386
0.000000 0.505943 0.659327
0.259464 0.514885 0.653925
0.432715 0.532250 0.648768
0.566339 0.564477 0.650172
0.666499 0.588922 0.658991
0.760006 0.614832 0.672175
0.000000 0.631403 0.683253
0.000000 0.631556 0.682612
0.195987 0.632563 0.680171
0.347723 0.636194 0.677485
0.469245 0.642176 0.674983
0.572015 0.650782 0.676020
0.670680 0.666651 0.687343
0.771572 0.687312 0.706508
0.286778 0.738186 0.719875
0.301122 0.738125 0.719661
0.354650 0.739071 0.720272
0.433204 0.742153 0.723018
0.514763 0.744381 0.724605
0.599847 0.748501 0.728450
0.692805 0.757900 0.739132
0.810147 0.781125 0.768154
