20 Preset/Retro Portrait/【3】LUT video cho PR-AE-FCPX/Retro LUT (1).cube
# Created by Adobe Lightroom plugin Export LUT (1.24.0)
# www.johnrellis.com/lightroom/exportlut.htm
# Preset: 法式胶片-素材江湖01
# Color profile: C:\Program Files (x86)\Common Files\Adobe\Color\Profiles\Recommended\VideoHD.icc
LUT_3D_SIZE 32
DOMAIN_MIN 0.0 0.0 0.0
DOMAIN_MAX 1.0 1.0 1.0
0.126833 0.123110 0.098848
0.126833 0.123110 0.098848
0.126833 0.123110 0.098848
0.127840 0.123507 0.099123
0.130831 0.123964 0.099672
0.135653 0.125246 0.100404
0.143191 0.126619 0.100649
0.152743 0.128145 0.101472
0.166537 0.130159 0.101686
0.184512 0.132357 0.101930
0.207950 0.134890 0.102449
0.237736 0.138399 0.102144
0.273350 0.142550 0.100893
0.314458 0.147707 0.100160
0.359930 0.153964 0.098970
0.407752 0.160769 0.098085
0.456092 0.169223 0.097658
0.521141 0.182986 0.099245
0.580072 0.199191 0.104738
0.631373 0.218143 0.115267
0.675776 0.238590 0.130648
0.713039 0.260380 0.149416
0.743954 0.282261 0.170108
0.771633 0.304936 0.192752
0.796658 0.328344 0.216831
0.819852 0.352026 0.242283
0.841215 0.377264 0.270359
0.861357 0.403784 0.300450
0.880858 0.431617 0.333043
0.899809 0.461494 0.368383
0.918578 0.492927 0.406348
0.937377 0.525597 0.445930
0.126833 0.123110 0.098848
0.126833 0.123110 0.098848
0.126833 0.123110 0.098848
0.127840 0.123507 0.099123
0.130831 0.123964 0.099672
0.135653 0.125246 0.100404
0.142794 0.126680 0.100649
0.152071 0.128267 0.101137
0.165042 0.130129 0.101747
0.182773 0.132174 0.102052
0.205112 0.134981 0.102205
0.233921 0.138369 0.102022
0.268559 0.142550 0.101289
0.308659 0.147250 0.100465
0.353338 0.153140 0.099214
0.400885 0.160372 0.098390
0.449439 0.168521 0.097841
0.512566 0.181613 0.099123
0.570092 0.196872 0.104158
0.620600 0.214237 0.113375
0.664820 0.233982 0.126741
0.702388 0.254520 0.143740
0.733700 0.275395 0.163333
0.761654 0.297185 0.184482
0.787259 0.319799 0.207614
0.811063 0.343084 0.232456
0.833402 0.367864 0.259586
0.854429 0.394263 0.289525
0.874693 0.422339 0.321874
0.894285 0.452338 0.357519
0.913573 0.484077 0.395514
0.932769 0.517144 0.435615
0.126833 0.123110 0.098848
0.126833 0.123110 0.098848
0.126833 0.123110 0.098848
0.128054 0.123751 0.099428
0.130739 0.124788 0.099916
0.135622 0.126040 0.100252
0.142702 0.127474 0.100862
0.151644 0.129091 0.101350
0.164645 0.130953 0.101961
0.181308 0.133150 0.102296
0.203616 0.136019 0.102449
0.231571 0.139376 0.102327
0.265599 0.143343 0.101320
0.304723 0.148470 0.100526
0.348974 0.154696 0.099336
0.396155 0.161898 0.098634
0.444465 0.169802 0.098268
0.506798 0.182925 0.099458
0.563134 0.197482 0.104005
0.613336 0.214542 0.112581
0.657984 0.233402 0.125612
0.696162 0.253574 0.141787
0.728054 0.273869 0.160555
0.756344 0.295232 0.181155
0.782040 0.317174 0.203830
0.806302 0.339971 0.227848
0.828946 0.364385 0.254917
0.850492 0.390661 0.284398
0.871061 0.418647 0.316960
0.891051 0.448585 0.352117
0.910582 0.480171 0.390173
0.929900 0.513176 0.430335
0.127260 0.124392 0.099336
0.127260 0.124392 0.099336
0.128115 0.124300 0.099702
0.128664 0.124758 0.099977
0.131594 0.126009 0.100374
0.135866 0.127565 0.100679
0.142672 0.128786 0.101350
0.152193 0.130526 0.101778
0.164401 0.132723 0.102358
0.180972 0.135134 0.102632
0.202884 0.138033 0.102419
0.230076 0.141756 0.102266
0.263523 0.146273 0.101900
0.301762 0.151827 0.100740
0.344793 0.158083 0.099641
0.390997 0.165347 0.099153
0.440589 0.174014 0.098787
0.498756 0.186313 0.099855
0.552209 0.199802 0.103731
0.600671 0.215549 0.111421
0.644587 0.232639 0.122805
0.683345 0.251408 0.138094
0.716579 0.271183 0.155825
0.746639 0.292119 0.176547
0.774319 0.314397 0.199008
0.800320 0.338201 0.224125
0.824674 0.363592 0.252323
0.847471 0.390478 0.282658
0.868833 0.418891 0.315831
0.889189 0.448768 0.351141
0.908659 0.479805 0.388708
0.927672 0.511711 0.427588
0.128756 0.126589 0.100343
0.128756 0.126589 0.100343
0.129427 0.126772 0.100649
0.130098 0.126955 0.100954
0.131624 0.127810 0.101137
0.136721 0.129274 0.101411
0.143099 0.131228 0.101564
0.151705 0.133303 0.102327
0.163973 0.135439 0.102541
0.179904 0.138155 0.103120
0.200778 0.141176 0.102968
0.227543 0.145388 0.102724
0.259739 0.150149 0.102358
0.297581 0.156008 0.101534
0.339757 0.163088 0.100710
0.385962 0.170687 0.100130
0.438483 0.180575 0.099733
0.494514 0.192905 0.100984
0.546777 0.206577 0.104891
0.594873 0.221500 0.112734
0.638453 0.237949 0.124147
0.677363 0.256168 0.138369
0.711147 0.275029 0.156161
0.741878 0.295689 0.176761
0.770321 0.317815 0.199069
0.796902 0.341375 0.224949
0.821836 0.366308 0.252598
0.844724 0.392889 0.283085
0.866270 0.420661 0.315587
0.886564 0.449866 0.350805
0.906126 0.480171 0.387488
0.925048 0.511498 0.425879
0.129763 0.130068 0.101472
0.130129 0.130007 0.101839
0.131472 0.129885 0.101808
0.132937 0.129946 0.102480
0.134340 0.130770 0.102998
0.136446 0.131777 0.103456
0.143282 0.134371 0.103120
0.153017 0.136965 0.102968
0.164950 0.139498 0.103090
0.180789 0.142794 0.103182
0.201572 0.146517 0.103548
0.228214 0.151156 0.103151
0.260136 0.156680 0.102937
0.297581 0.163424 0.102174
0.339879 0.170901 0.101442
0.386175 0.179629 0.100771
0.441749 0.191012 0.100984
0.496651 0.203922 0.102937
0.547967 0.217502 0.108186
0.595422 0.232578 0.116335
0.638636 0.249088 0.128054
0.677302 0.266972 0.143343
0.762753 0.325963 0.201389
0.788998 0.348333 0.226383
0.812955 0.370855 0.252445
0.834623 0.394141 0.279728
0.854551 0.418219 0.308873
0.873350 0.443153 0.339239
0.891295 0.469276 0.371191
0.908751 0.496254 0.404578
0.925933 0.523796 0.438911
0.942901 0.551598 0.473274
0.132723 0.135836 0.103487
0.133089 0.135805 0.103853
0.134615 0.135866 0.104158
0.136385 0.135866 0.105104
0.138613 0.135836 0.105745
0.141054 0.137179 0.106416
0.144411 0.138888 0.106661
0.155337 0.143191 0.106477
0.171176 0.147402 0.105348
0.189059 0.151888 0.103975
0.212161 0.156893 0.104097
0.241123 0.162966 0.104067
0.275303 0.169833 0.103365
0.314763 0.177707 0.102724
0.358373 0.186496 0.102327
0.410101 0.197940 0.102144
0.468666 0.212039 0.104372
0.523369 0.226291 0.108766
0.574121 0.241611 0.116976
0.621576 0.258610 0.128817
0.665675 0.277623 0.145113
0.705440 0.298589 0.165957
0.740597 0.321263 0.190249
0.772427 0.345464 0.217258
0.800778 0.370184 0.246250
0.825101 0.394385 0.274968
0.846494 0.418463 0.304326
0.865904 0.442695 0.334630
0.884367 0.467903 0.365972
0.902068 0.493843 0.398413
0.919432 0.520623 0.432227
0.936614 0.547967 0.466529
0.135317 0.142214 0.105928
0.135592 0.142397 0.105867
0.137392 0.142397 0.106508
0.139956 0.142336 0.107454
0.142672 0.142458 0.108370
0.145876 0.142733 0.109834
0.149264 0.145174 0.109895
0.154269 0.147372 0.110597
0.168582 0.153231 0.110170
0.190799 0.160189 0.108064
0.214054 0.166262 0.106142
0.242252 0.173342 0.104707
0.275822 0.180880 0.104402
0.314183 0.189395 0.103822
0.358801 0.199619 0.103670
0.413519 0.213016 0.104463
0.466804 0.226627 0.107332
0.517937 0.240421 0.112245
0.566705 0.254887 0.120760
0.612848 0.271153 0.132082
0.656397 0.289006 0.147890
0.696010 0.308690 0.168124
0.731563 0.329900 0.192050
0.763546 0.352789 0.218326
0.792477 0.376318 0.246220
0.817502 0.399603 0.274815
0.839445 0.422766 0.303990
0.859525 0.446204 0.333684
0.878477 0.470619 0.364752
0.896483 0.495888 0.397162
0.914244 0.521904 0.430365
0.931731 0.548608 0.464271
0.139132 0.151156 0.108644
0.139376 0.151339 0.108583
0.141085 0.151369 0.109529
0.144411 0.151614 0.110323
0.148135 0.151583 0.111482
0.152163 0.151705 0.113252
0.155673 0.153109 0.114687
0.161349 0.156222 0.115084
0.168154 0.159243 0.115755
0.186618 0.167422 0.115694
0.215427 0.177249 0.112398
0.246006 0.186130 0.109285
0.279698 0.195193 0.104860
0.319402 0.205203 0.104707
0.369238 0.218753 0.105653
0.419623 0.231754 0.107332
0.469551 0.244938 0.110689
0.517815 0.258427 0.116884
0.564660 0.272526 0.125704
0.609461 0.288090 0.138338
0.651850 0.304906 0.154391
0.690700 0.323552 0.174350
0.725765 0.343511 0.197360
0.757534 0.364904 0.223392
0.786435 0.387121 0.250950
0.811765 0.409277 0.279118
0.834043 0.431434 0.307927
0.854490 0.453895 0.337224
0.873716 0.477455 0.367987
0.891997 0.501671 0.399664
0.909880 0.526818 0.432471
0.927611 0.552514 0.465644
0.143404 0.163851 0.112093
0.143709 0.163790 0.112428
0.145663 0.163973 0.112947
0.150027 0.164248 0.114595
0.154604 0.164126 0.115694
0.159762 0.164096 0.117678
0.164920 0.164370 0.120333
0.170443 0.166964 0.121614
0.177554 0.171206 0.122133
0.186435 0.175357 0.123140
0.209689 0.185824 0.123140
0.244602 0.198215 0.118837
0.285405 0.211917 0.114290
0.329015 0.225345 0.109621
0.376379 0.238956 0.107332
0.424598 0.252171 0.110323
0.473274 0.265660 0.115633
0.520897 0.279454 0.123293
0.566918 0.293736 0.133669
0.610346 0.308751 0.147372
0.650599 0.324498 0.163455
0.686885 0.341039 0.182589
0.719692 0.358526 0.204440
0.749874 0.377142 0.228092
0.777493 0.396796 0.253788
0.802731 0.416876 0.280400
0.825559 0.437751 0.308263
0.846708 0.459480 0.337163
0.866667 0.482429 0.368170
0.885801 0.506371 0.400244
0.904387 0.531273 0.433356
0.922820 0.556909 0.466957
0.148348 0.179599 0.116426
0.149050 0.179538 0.116732
0.151431 0.179812 0.117494
0.156100 0.180148 0.119295
0.162325 0.180179 0.121431
0.168948 0.180423 0.123384
0.175937 0.180606 0.126375
0.182803 0.181338 0.130159
0.190341 0.186526 0.131075
0.200259 0.192233 0.131960
0.212772 0.197848 0.133425
0.244083 0.213596 0.135592
0.288701 0.231083 0.131136
0.339208 0.248417 0.125673
0.384833 0.262150 0.120882
0.431861 0.275853 0.114717
0.478584 0.288945 0.121675
0.524254 0.302281 0.130617
0.568200 0.315984 0.141970
0.609552 0.330022 0.156161
0.648432 0.344732 0.172763
0.683497 0.359960 0.191867
0.715663 0.376440 0.213718
0.745296 0.393774 0.237186
0.772763 0.412207 0.262333
0.797971 0.431220 0.288823
0.820890 0.450904 0.316350
0.842161 0.471565 0.345281
0.862364 0.493294 0.375219
0.881712 0.516228 0.406775
0.900572 0.540124 0.439277
0.919188 0.564843 0.472328
0.155398 0.201328 0.122927
0.155764 0.201297 0.122927
0.158846 0.201572 0.123873
0.164706 0.202152 0.126253
0.172763 0.202609 0.129305
0.180941 0.202762 0.131563
0.190280 0.203159 0.134890
0.199496 0.203830 0.139651
0.208255 0.206394 0.144442
0.221286 0.215763 0.146426
0.236210 0.224826 0.148867
0.253605 0.233402 0.152346
0.325719 0.279850 0.173922
0.384192 0.302892 0.169924
0.443549 0.323247 0.164523
0.492348 0.337682 0.160861
0.537560 0.349981 0.157168
0.580224 0.362127 0.163149
0.619074 0.374334 0.179629
0.655238 0.387030 0.197421
0.687648 0.399664 0.217319
0.716976 0.412970 0.238315
0.744228 0.427100 0.260594
0.769894 0.442298 0.284367
0.793454 0.458259 0.308812
0.815000 0.474434 0.333684
0.834684 0.491096 0.359075
0.853239 0.508446 0.384802
0.871122 0.526879 0.411810
0.888853 0.546502 0.439765
0.906462 0.567163 0.468513
0.924529 0.588647 0.497749
0.168399 0.237522 0.134493
0.169406 0.237339 0.134737
0.172427 0.237217 0.135927
0.180240 0.237369 0.138735
0.191226 0.238041 0.143252
0.201999 0.239017 0.146822
0.214847 0.240635 0.151675
0.228733 0.242771 0.158297
0.242771 0.245914 0.166629
0.257206 0.253513 0.173678
0.276616 0.267155 0.177829
0.298161 0.280247 0.183658
0.323033 0.292912 0.190738
0.367071 0.315251 0.200534
0.427192 0.339757 0.198215
0.485023 0.359899 0.194583
0.533135 0.374456 0.191348
0.574304 0.385260 0.189151
0.613214 0.395483 0.187442
0.647578 0.406348 0.205661
0.678859 0.417365 0.224369
0.707912 0.429358 0.245335
0.734920 0.442115 0.267124
0.760616 0.456092 0.290257
0.784695 0.470863 0.314336
0.806699 0.486152 0.338842
0.827085 0.502129 0.364202
0.846403 0.518883 0.390143
0.864927 0.536828 0.417243
0.883268 0.555901 0.445258
0.901396 0.575921 0.474006
0.919982 0.596643 0.502586
0.186709 0.277653 0.151125
0.187320 0.277531 0.151339
0.192081 0.277379 0.153109
0.199741 0.277409 0.155917
0.212802 0.277836 0.161196
0.225589 0.278141 0.165927
0.239719 0.278386 0.170962
0.254490 0.279332 0.177371
0.270176 0.281346 0.185946
0.285832 0.284886 0.196811
0.302953 0.295964 0.203189
0.325109 0.310704 0.208774
0.347814 0.323491 0.215549
0.372747 0.335729 0.223423
0.413458 0.356115 0.234623
0.470619 0.378790 0.232486
0.523613 0.396612 0.228824
0.570001 0.410529 0.226047
0.607355 0.420233 0.225010
0.642237 0.429053 0.224704
0.673548 0.438300 0.234989
0.702113 0.448951 0.255772
0.729000 0.460761 0.277409
0.754635 0.473732 0.300664
0.778775 0.487343 0.324376
0.800961 0.501762 0.348852
0.821561 0.516716 0.373938
0.841154 0.532525 0.399481
0.859953 0.549523 0.426276
0.878599 0.567681 0.453681
0.897154 0.586816 0.481819
0.916228 0.606714 0.510002
0.210971 0.320958 0.173159
0.212711 0.320775 0.173861
0.215396 0.320439 0.174746
0.224460 0.319799 0.178042
0.237705 0.319188 0.183200
0.252598 0.318791 0.189364
0.266728 0.318181 0.194003
0.282841 0.318334 0.200443
0.299596 0.319493 0.208713
0.316686 0.322332 0.219791
0.333440 0.327214 0.232853
0.353185 0.341131 0.238346
0.375952 0.355749 0.244755
0.398199 0.367895 0.252293
0.421363 0.378424 0.259892
0.457588 0.395911 0.271336
0.510460 0.416846 0.269474
0.558831 0.432837 0.266392
0.603967 0.446479 0.263859
0.637354 0.454810 0.264042
0.668544 0.462684 0.265537
0.698360 0.470893 0.269017
0.724727 0.481331 0.290379
0.749966 0.492927 0.313237
0.773831 0.505425 0.336400
0.795987 0.518700 0.360632
0.816861 0.532921 0.385687
0.836790 0.548272 0.411627
0.856352 0.564782 0.438605
0.875731 0.582727 0.466407
0.895262 0.601648 0.494759
0.915312 0.621424 0.523156
0.238712 0.361547 0.198001
0.240330 0.361730 0.198611
0.244419 0.361517 0.200259
0.253422 0.361395 0.203799
0.266423 0.361425 0.209445
0.283879 0.361975 0.217624
0.299321 0.361975 0.223148
0.316289 0.362799 0.230411
0.334813 0.364050 0.239353
0.353216 0.366278 0.250340
0.370489 0.369329 0.263127
0.386603 0.375708 0.274174
0.405554 0.388281 0.278813
0.425147 0.399908 0.283940
0.444007 0.408911 0.289586
0.463569 0.416541 0.295232
0.495705 0.431525 0.305760
0.543755 0.450782 0.305608
0.588373 0.465583 0.303593
0.629755 0.478218 0.302495
0.662593 0.487373 0.304265
0.692256 0.495613 0.308049
0.720729 0.504143 0.313542
0.747158 0.514153 0.328405
0.770901 0.525872 0.352148
0.793149 0.538476 0.376532
0.814176 0.551934 0.401648
0.834287 0.566491 0.427405
0.853941 0.581994 0.453590
0.873381 0.598566 0.480201
0.893004 0.615900 0.506767
0.912932 0.634150 0.533806
0.269047 0.400732 0.225742
0.270726 0.400702 0.226413
0.274235 0.400610 0.227878
0.282872 0.400610 0.231479
0.295781 0.400763 0.237247
0.312505 0.401343 0.245335
0.329686 0.401770 0.252873
0.346410 0.402106 0.259709
0.364294 0.402869 0.268101
0.382727 0.404303 0.278416
0.400458 0.406531 0.290440
0.416876 0.409613 0.304295
0.432532 0.417823 0.312596
0.450507 0.429389 0.316899
0.468330 0.439460 0.321782
0.485420 0.447150 0.326970
0.503380 0.453742 0.332403
0.532250 0.467109 0.343084
0.575921 0.485115 0.344823
0.616602 0.498695 0.343603
0.654444 0.510826 0.344671
0.687221 0.520653 0.347784
0.715175 0.529107 0.353429
0.742458 0.537896 0.360479
0.768521 0.546838 0.368750
0.790646 0.558618 0.393408
0.811765 0.571221 0.418250
0.832090 0.584955 0.443610
0.851926 0.599756 0.469490
0.871855 0.615290 0.495125
0.891814 0.631678 0.520958
0.912139 0.649042 0.547234
0.305760 0.441932 0.259342
0.306828 0.442206 0.260105
0.336858 0.469032 0.286595
0.344640 0.469032 0.290257
0.356725 0.469001 0.296025
0.372686 0.469032 0.304143
0.390326 0.469123 0.313054
0.405951 0.468696 0.319280
0.423041 0.468940 0.327306
0.440772 0.469673 0.337224
0.458106 0.470954 0.348516
0.474128 0.472602 0.360998
0.487434 0.474067 0.374060
0.501091 0.482612 0.378058
0.516197 0.491463 0.380529
0.530022 0.498054 0.383581
0.543328 0.502739 0.386328
0.557519 0.506737 0.389776
0.580835 0.516533 0.398260
0.617273 0.531121 0.400793
0.652491 0.542229 0.399847
0.686427 0.552789 0.401282
0.718288 0.562371 0.404395
0.743587 0.569757 0.410010
0.767605 0.577020 0.416602
0.790860 0.584527 0.424262
0.812009 0.593835 0.439918
0.831449 0.605341 0.462867
0.850980 0.618158 0.486488
0.870787 0.632258 0.510521
0.890929 0.647486 0.535119
0.911376 0.663813 0.560662
0.350896 0.488777 0.302953
0.354620 0.491218 0.305882
0.360632 0.493751 0.310124
0.370001 0.495857 0.315862
0.382513 0.497505 0.322759
0.397498 0.498207 0.330999
0.415412 0.498543 0.341070
0.429908 0.498024 0.346960
0.445350 0.497810 0.353887
0.461585 0.498054 0.362402
0.478157 0.498726 0.372381
0.493843 0.499855 0.383642
0.507591 0.500938 0.395422
0.519127 0.503593 0.405829
0.532067 0.511742 0.408515
0.546227 0.520043 0.411170
0.558770 0.525780 0.414313
0.571588 0.530571 0.417975
0.585229 0.534813 0.422217
0.606500 0.544305 0.431464
0.639979 0.558465 0.436347
0.673793 0.570397 0.438056
0.706416 0.581140 0.440803
0.737392 0.590875 0.444770
0.761685 0.598260 0.450721
0.784421 0.605646 0.458076
0.806729 0.613397 0.466560
0.828702 0.621942 0.476875
0.848356 0.633692 0.499275
0.868376 0.646784 0.522454
0.888731 0.661280 0.546715
0.909606 0.676905 0.571771
0.384283 0.520104 0.335424
0.387518 0.522423 0.338415
0.393652 0.524987 0.342870
0.402136 0.527062 0.348333
0.413428 0.528832 0.355200
0.427131 0.529473 0.362921
0.442817 0.529839 0.371984
0.457527 0.529625 0.379187
0.471565 0.529229 0.385290
0.486397 0.529015 0.392615
0.501732 0.529137 0.401343
0.516625 0.529900 0.411322
0.530236 0.530632 0.421881
0.542321 0.531609 0.433295
0.552819 0.535760 0.440284
0.564691 0.543175 0.442908
0.577569 0.550408 0.445533
0.588495 0.555200 0.448676
0.600336 0.559747 0.452735
0.613062 0.563928 0.457527
0.632258 0.572564 0.466438
0.662776 0.586084 0.472786
0.695308 0.598077 0.475654
0.726009 0.608637 0.479377
0.754849 0.617853 0.483650
0.779446 0.625727 0.489754
0.801480 0.633112 0.497261
0.823423 0.641230 0.506371
0.845487 0.650477 0.517540
0.866758 0.661860 0.535332
0.887266 0.675471 0.558984
0.908324 0.690364 0.583551
0.419196 0.551537 0.370733
0.422156 0.553643 0.373449
0.427222 0.555688 0.377386
0.434791 0.557488 0.382483
0.444739 0.558740 0.388556
0.456794 0.559289 0.395544
0.470741 0.559472 0.403723
0.485725 0.559411 0.412238
0.498146 0.559045 0.417639
0.511742 0.558770 0.424201
0.525597 0.558770 0.431922
0.539513 0.559045 0.440589
0.552605 0.559442 0.449958
0.564508 0.560143 0.460182
0.574609 0.560998 0.470863
0.584588 0.566674 0.475349
0.596155 0.573877 0.478553
0.608606 0.581048 0.482338
0.620020 0.586755 0.487221
0.632380 0.592432 0.492927
0.645533 0.597925 0.499275
0.664515 0.607141 0.508965
0.693324 0.620630 0.517052
0.724147 0.632715 0.521630
0.753201 0.643366 0.526940
0.780850 0.652888 0.532647
0.806241 0.661677 0.539666
0.828153 0.669947 0.548791
0.850309 0.679255 0.559777
0.872770 0.689693 0.572930
0.895628 0.701228 0.588067
0.917144 0.715114 0.611414
0.469886 0.592798 0.423011
0.472023 0.593500 0.424506
0.474647 0.594018 0.426368
0.479683 0.594293 0.429297
0.486946 0.594263 0.433295
0.496071 0.593927 0.438361
0.507744 0.593591 0.445106
0.521355 0.593439 0.453529
0.532464 0.593042 0.458595
0.544366 0.592859 0.464485
0.556817 0.592920 0.471199
0.569482 0.593164 0.478859
0.581598 0.593347 0.486885
0.592798 0.593713 0.495430
0.602686 0.594293 0.504356
0.611292 0.595514 0.513207
0.620630 0.601556 0.515526
0.631189 0.607874 0.518181
0.642145 0.613947 0.521569
0.652461 0.618738 0.525597
0.663539 0.623468 0.530114
0.675227 0.627955 0.535210
0.691524 0.635279 0.542931
0.716518 0.646540 0.550164
0.744717 0.657435 0.554467
0.772244 0.667536 0.559869
0.799130 0.677241 0.566461
0.825467 0.686976 0.574304
0.847562 0.696193 0.585077
0.870085 0.706233 0.597345
0.893095 0.717250 0.611231
0.916564 0.729030 0.626642
0.504753 0.619684 0.459297
0.506554 0.620203 0.460487
0.508782 0.620722 0.462165
0.513115 0.620966 0.464790
0.519249 0.620996 0.468299
0.527062 0.620813 0.472755
0.537041 0.620539 0.478462
0.549096 0.620447 0.485878
0.560204 0.620264 0.491768
0.570703 0.620111 0.496712
0.581659 0.620142 0.502373
0.593133 0.620325 0.508904
0.604486 0.620630 0.515892
0.615381 0.620996 0.523430
0.625422 0.621607 0.531456
0.634424 0.622461 0.539910
0.642664 0.625360 0.546532
0.652064 0.631403 0.549248
0.662593 0.637690 0.552239
0.672847 0.643275 0.555840
0.682826 0.647974 0.560174
0.693263 0.652430 0.564904
0.704067 0.656641 0.569970
0.718807 0.663233 0.577539
0.736385 0.668452 0.578546
0.763088 0.678798 0.583124
0.789944 0.689204 0.589532
0.816373 0.699397 0.597131
0.842954 0.709682 0.606073
0.866850 0.719875 0.617426
0.890074 0.730678 0.630823
0.913970 0.742367 0.645777
0.545983 0.652003 0.502312
0.547875 0.652918 0.503899
0.549798 0.653285 0.505272
0.552850 0.653101 0.506889
0.557092 0.652430 0.508873
0.562921 0.651484 0.511589
0.570153 0.650385 0.515251
0.579461 0.649287 0.520165
0.589136 0.648432 0.525353
0.597345 0.647395 0.528405
0.606226 0.646418 0.532128
0.615869 0.645838 0.536858
0.625696 0.645411 0.542077
0.635157 0.644984 0.547875
0.644190 0.644648 0.553979
0.652461 0.644556 0.560693
0.659907 0.644923 0.568048
0.667567 0.648493 0.572229
0.676600 0.654108 0.574975
0.686946 0.660273 0.578515
0.696712 0.665553 0.582757
0.706294 0.670192 0.587427
0.716030 0.674311 0.591913
0.725765 0.677821 0.596338
0.738643 0.683101 0.602411
0.758724 0.691951 0.609125
0.783841 0.701564 0.613275
0.809842 0.711604 0.619745
0.836057 0.721859 0.627802
0.862486 0.732387 0.637263
0.887816 0.743160 0.648951
0.911742 0.754543 0.663355
0.572808 0.673335 0.530114
0.574426 0.674098 0.531518
0.576349 0.674617 0.532921
0.579187 0.674708 0.534600
0.583581 0.674525 0.536889
0.589105 0.674189 0.539910
0.596612 0.673854 0.544060
0.605341 0.673671 0.549248
0.615808 0.673579 0.555596
0.624262 0.673335 0.559503
0.632868 0.673030 0.563470
0.642084 0.672847 0.568017
0.651362 0.672602 0.573022
0.660426 0.672297 0.578241
0.669032 0.671931 0.583734
0.677058 0.671687 0.589593
0.684382 0.671748 0.596002
0.691005 0.672328 0.603052
0.698634 0.676967 0.605737
0.707485 0.682368 0.608820
0.717342 0.688136 0.612360
0.726284 0.692836 0.616480
0.735317 0.697047 0.620752
0.744503 0.700923 0.625086
0.753872 0.704402 0.629419
0.766049 0.709377 0.635218
0.785061 0.717952 0.642451
0.809415 0.727382 0.647272
0.835416 0.737911 0.654963
0.861875 0.748623 0.664057
0.888914 0.759701 0.674800
0.916136 0.771328 0.687465
0.605982 0.698299 0.563928
0.606836 0.698665 0.564630
0.608209 0.698848 0.565545
0.610742 0.698787 0.566918
0.614130 0.698512 0.568719
0.618982 0.698177 0.571283
0.625238 0.697749 0.574701
0.632959 0.697383 0.579095
0.642054 0.697139 0.584558
0.650446 0.696895 0.588983
0.658137 0.696590 0.592432
0.666468 0.696376 0.596460
0.674922 0.696223 0.600885
0.683314 0.695979 0.605463
0.691402 0.695674 0.610346
0.699031 0.695430 0.615381
0.706233 0.695399 0.620996
0.713039 0.695827 0.627192
0.719570 0.697597 0.633021
0.727321 0.702419 0.635737
0.736080 0.707668 0.639002
0.745602 0.713039 0.642512
0.753780 0.717128 0.646357
0.762234 0.720974 0.650294
0.770809 0.724392 0.654170
0.779599 0.727535 0.658137
0.790860 0.731960 0.663416
0.808530 0.739834 0.670649
0.831937 0.748836 0.675563
0.858396 0.759945 0.684504
0.885496 0.771359 0.695064
0.913512 0.783322 0.707515
0.635798 0.720211 0.593957
0.636591 0.720485 0.594537
0.637934 0.720668 0.595422
0.640314 0.720790 0.596857
0.643732 0.720882 0.598901
0.648707 0.721096 0.601892
0.655573 0.721736 0.606287
0.663966 0.722621 0.611749
0.673701 0.723812 0.618280
0.683864 0.725185 0.625086
0.692744 0.726497 0.630182
0.701839 0.727718 0.635462
0.711055 0.728878 0.640925
0.719905 0.729763 0.646296
0.728420 0.730404 0.651606
0.736141 0.730648 0.656641
0.743313 0.730892 0.661769
0.750240 0.731411 0.667384
0.756741 0.732357 0.673671
0.763455 0.735348 0.678370
0.771267 0.740047 0.681392
0.779751 0.744900 0.684688
0.788479 0.749569 0.688014
0.796109 0.753109 0.691463
0.803830 0.756374 0.694942
0.811826 0.759396 0.698482
0.820066 0.762234 0.702174
0.830594 0.766201 0.707088
0.847288 0.773587 0.714656
0.869810 0.782040 0.719875
0.896818 0.793545 0.730343
0.924834 0.805570 0.742763
0.679866 0.751858 0.637537
0.679957 0.751858 0.637598
0.680720 0.751766 0.637995
0.682429 0.751583 0.638788
0.684901 0.751339 0.640101
0.688502 0.751125 0.642023
0.693477 0.751034 0.644800
0.699641 0.750973 0.648371
0.706935 0.751095 0.652827
0.715419 0.751400 0.658137
0.722164 0.751675 0.661585
0.729274 0.751949 0.665187
0.736873 0.752255 0.669062
0.744442 0.752499 0.673213
