20 Preset/Retro Portrait/【3】LUT video cho PR-AE-FCPX/Retro LUT (8).cube
# Created by Adobe Lightroom plugin Export LUT (1.24.0)
# www.johnrellis.com/lightroom/exportlut.htm
# Preset: 法式胶片-素材江湖08
# Color profile: C:\Program Files (x86)\Common Files\Adobe\Color\Profiles\Recommended\VideoHD.icc
LUT_3D_SIZE 5
DOMAIN_MIN 0.000000 0.000000 0.000000
DOMAIN_MAX 0.903226 0.903226 0.903226
0.000000 0.000000 0.000000
0.086763 0.006409 0.000732
0.223362 0.000000 0.001190
0.475105 0.000000 0.000000
0.750637 0.000000 0.000000
0.070863 0.067659 0.011994
0.089631 0.069856 0.022431
0.231632 0.082216 0.000336
0.483162 0.000000 0.000000
0.755978 0.000000 0.000092
0.211460 0.238499 0.122042
0.241184 0.234989 0.132662
0.282078 0.256321 0.186435
0.525872 0.273564 0.105684
0.744320 0.296574 0.033112
0.475532 0.481086 0.296757
0.504021 0.481544 0.306401
0.536370 0.477516 0.338720
0.561334 0.489113 0.396094
0.736934 0.526390 0.334997
0.683894 0.677546 0.539483
0.693568 0.677943 0.545312
0.711635 0.669001 0.552087
0.719600 0.672633 0.588190
0.731289 0.686458 0.636988
0.007050 0.010468 0.032288
0.083528 0.025971 0.036530
0.228397 0.011963 0.040162
0.460243 0.000000 0.034333
0.716884 0.000000 0.000000
0.039704 0.092348 0.061646
0.104707 0.101656 0.069459
0.243778 0.108339 0.067384
0.470771 0.049073 0.054688
0.721248 0.000000 0.004181
0.183078 0.255161 0.152377
0.234379 0.253788 0.161654
0.277989 0.261173 0.201633
0.508415 0.274723 0.137972
0.737758 0.305730 0.122621
0.459815 0.489479 0.317845
0.492012 0.490669 0.327764
0.542290 0.488289 0.359716
0.563836 0.496834 0.411261
0.735103 0.529412 0.349889
0.675990 0.679164 0.545403
0.686122 0.679103 0.550469
0.718624 0.680964 0.574640
0.723995 0.680964 0.603357
0.735378 0.694209 0.649775
0.000000 0.047272 0.175326
0.027192 0.081025 0.185977
0.237858 0.125246 0.213870
0.506584 0.108339 0.231937
0.741726 0.000000 0.217807
0.000000 0.112459 0.202335
0.048219 0.124331 0.210300
0.264714 0.179416 0.235813
0.519097 0.175692 0.243320
0.744686 0.170901 0.232822
0.000000 0.288121 0.272831
0.118624 0.298802 0.277379
0.342412 0.339483 0.300999
0.548882 0.339330 0.286748
0.744411 0.352331 0.275608
0.304997 0.518914 0.359319
0.350835 0.518090 0.359228
0.541375 0.522240 0.421607
0.580468 0.529931 0.467811
0.733913 0.538750 0.395941
0.627771 0.682979 0.557610
0.644099 0.683619 0.564141
0.694453 0.686030 0.587945
0.722377 0.686732 0.619135
0.732601 0.696498 0.658961
0.000000 0.106386 0.361059
0.000000 0.129366 0.373907
0.216678 0.182864 0.407141
0.509117 0.261601 0.449866
0.737514 0.324834 0.480293
0.000000 0.146120 0.374395
0.000000 0.158083 0.383459
0.238773 0.220768 0.413825
0.514885 0.297765 0.452674
0.734676 0.351263 0.480690
0.000000 0.278630 0.414313
0.000000 0.285496 0.417182
0.277226 0.328862 0.442847
0.548943 0.418616 0.480232
0.739895 0.447913 0.496162
0.135470 0.511925 0.499092
0.216129 0.515129 0.500084
0.402228 0.536797 0.513481
0.607630 0.580011 0.548638
0.744381 0.567437 0.515404
0.459663 0.696803 0.594598
0.485481 0.697383 0.593927
0.576104 0.701839 0.597589
0.715694 0.707393 0.656001
0.735927 0.711788 0.690120
0.000000 0.173495 0.587579
0.000000 0.194369 0.592218
0.183444 0.258762 0.611872
0.525170 0.351263 0.640833
0.716640 0.476905 0.666285
0.000000 0.197696 0.586999
0.000000 0.208286 0.592187
0.198795 0.282414 0.611597
0.527672 0.372473 0.640040
0.715450 0.493202 0.666651
0.000000 0.273503 0.592218
0.000000 0.280125 0.594629
0.068574 0.329198 0.614923
0.535546 0.445014 0.644068
0.717403 0.555108 0.676967
0.000000 0.478492 0.635950
0.000000 0.477760 0.635340
0.000000 0.477790 0.636805
0.503807 0.526238 0.657649
0.728267 0.646448 0.704891
0.294682 0.679469 0.694820
0.329137 0.680476 0.695277
0.444923 0.687404 0.700099
0.595300 0.703853 0.711360
0.747768 0.743893 0.747738
