20 Preset/Retro Portrait/【3】LUT video cho PR-AE-FCPX/Retro LUT (2).cube
# Created by Adobe Lightroom plugin Export LUT (1.24.0)
# www.johnrellis.com/lightroom/exportlut.htm
# Preset: 法式胶片-素材江湖02
# Color profile: C:\Program Files (x86)\Common Files\Adobe\Color\Profiles\Recommended\VideoHD.icc
LUT_3D_SIZE 5
DOMAIN_MIN 0.000000 0.000000 0.000000
DOMAIN_MAX 0.903226 0.903226 0.903226
0.158328 0.134493 0.106386
0.187320 0.133913 0.107424
0.531945 0.133272 0.080018
0.787686 0.315007 0.228824
0.890867 0.507652 0.433692
0.163516 0.154116 0.109194
0.192111 0.159304 0.114565
0.511467 0.215915 0.096620
0.767025 0.363500 0.254002
0.885863 0.536675 0.458900
0.297642 0.395636 0.213565
0.371588 0.388190 0.245945
0.486976 0.432349 0.302800
0.731746 0.506462 0.359991
0.860685 0.599420 0.507927
0.509392 0.606836 0.447456
0.544762 0.606104 0.470069
0.604120 0.603357 0.507378
0.653101 0.621851 0.526940
0.833646 0.689357 0.593133
0.669581 0.751522 0.636469
0.686244 0.751308 0.646204
0.719692 0.740932 0.657862
0.770047 0.749477 0.694759
0.829770 0.775051 0.715572
0.158297 0.135378 0.109895
0.170016 0.134066 0.112276
0.441901 0.144381 0.144045
0.728786 0.326146 0.266850
0.855100 0.504356 0.438758
0.156222 0.151919 0.119356
0.189273 0.161349 0.125948
0.455390 0.216495 0.160861
0.720790 0.367803 0.286290
0.850706 0.526055 0.455146
0.225284 0.380163 0.205509
0.329229 0.381750 0.238193
0.456947 0.406836 0.294652
0.707027 0.487526 0.356207
0.844419 0.599145 0.515984
0.481971 0.605524 0.437110
0.523369 0.605158 0.461036
0.599817 0.603174 0.507988
0.648432 0.619471 0.528649
0.829282 0.687709 0.596124
0.656031 0.751247 0.630579
0.673548 0.750515 0.640009
0.726894 0.751034 0.669856
0.776364 0.755093 0.704067
0.838193 0.781765 0.725734
0.130251 0.136080 0.207340
0.190127 0.127138 0.215305
0.383001 0.054231 0.241215
0.681605 0.290379 0.344366
0.803342 0.553307 0.517021
0.122438 0.160678 0.231388
0.193301 0.152956 0.231632
0.395239 0.173251 0.257237
0.667536 0.368505 0.368566
0.805539 0.567712 0.527489
0.077852 0.375006 0.312383
0.230381 0.382269 0.318334
0.471168 0.445869 0.376471
0.656336 0.516014 0.447486
0.811185 0.612024 0.557488
0.401373 0.602686 0.454627
0.439155 0.599481 0.456886
0.566979 0.604944 0.504509
0.639307 0.618677 0.543694
0.823178 0.682948 0.608209
0.594232 0.747250 0.610407
0.612360 0.747921 0.616907
0.688808 0.748928 0.654047
0.764004 0.750759 0.697871
0.824155 0.774166 0.721920
0.000000 0.134859 0.435340
0.072847 0.113680 0.439918
0.418830 0.000000 0.449714
0.639063 0.128084 0.462440
0.790951 0.454566 0.523522
0.000000 0.125399 0.447608
0.171786 0.113558 0.446601
0.407965 0.113405 0.447639
0.626368 0.249912 0.461891
0.780270 0.486488 0.532067
0.000000 0.363897 0.470466
0.198459 0.368475 0.467567
0.429450 0.402899 0.472389
0.607782 0.452766 0.490455
0.768826 0.585077 0.578790
0.302831 0.586389 0.537682
0.351720 0.586236 0.536675
0.486580 0.595727 0.544457
0.638270 0.631189 0.582208
0.803738 0.686671 0.649317
0.472938 0.751888 0.641779
0.498238 0.751583 0.642542
0.585351 0.753384 0.649714
0.728450 0.758694 0.692439
0.816648 0.773800 0.733089
0.000000 0.140719 0.640864
0.000000 0.131930 0.640955
0.318303 0.000000 0.644587
0.609339 0.000000 0.648707
0.801389 0.319097 0.637049
0.000000 0.140902 0.642512
0.000000 0.122286 0.642969
0.334844 0.000000 0.645808
0.602136 0.000000 0.643885
0.790341 0.371649 0.635401
0.000000 0.267063 0.653040
0.000000 0.271427 0.648524
0.338628 0.323857 0.641749
0.588403 0.403632 0.636866
0.764981 0.502159 0.642084
0.000000 0.541192 0.671412
0.000000 0.543206 0.668055
0.374029 0.557733 0.659358
0.593500 0.592126 0.656153
0.760769 0.631464 0.678492
0.286778 0.738186 0.719875
0.337865 0.738643 0.719905
0.473854 0.743221 0.723781
0.622065 0.750149 0.730251
0.810147 0.781125 0.768154
