20 Preset/Retro Portrait/【3】LUT video cho PR-AE-FCPX/Retro LUT (6).cube
# Created by Adobe Lightroom plugin Export LUT (1.24.0)
# www.johnrellis.com/lightroom/exportlut.htm
# Preset: 法式胶片-素材江湖06
# Color profile: C:\Program Files (x86)\Common Files\Adobe\Color\Profiles\Recommended\VideoHD.icc
LUT_3D_SIZE 32
DOMAIN_MIN 0.0 0.0 0.0
DOMAIN_MAX 1.0 1.0 1.0
0.000000 0.000000 0.000000
0.000000 0.000000 0.000000
0.000000 0.000000 0.000000
0.025147 0.001434 0.006073
0.102083 0.003174 0.022919
0.135897 0.005615 0.041444
0.165011 0.013367 0.047486
0.192782 0.028199 0.060883
0.220706 0.040284 0.074952
0.248081 0.048890 0.086976
0.275792 0.054108 0.093599
0.303319 0.056336 0.098787
0.330266 0.058473 0.103334
0.356542 0.059510 0.108827
0.381781 0.060822 0.113466
0.405982 0.062593 0.118563
0.428840 0.069551 0.124788
0.450629 0.081025 0.131899
0.471687 0.089754 0.138582
0.491066 0.096254 0.145510
0.509422 0.101839 0.152407
0.526787 0.107790 0.159457
0.543359 0.114260 0.165805
0.559716 0.120058 0.172152
0.576013 0.126558 0.178225
0.592187 0.132845 0.184573
0.608453 0.138338 0.190738
0.624994 0.144137 0.196780
0.641718 0.150149 0.202884
0.658930 0.156130 0.208988
0.676905 0.162112 0.215335
0.695796 0.168795 0.221897
0.000000 0.000000 0.000000
0.000000 0.000000 0.000000
0.000000 0.000000 0.000000
0.031128 0.000763 0.006073
0.104005 0.002502 0.022889
0.137301 0.006165 0.035584
0.165927 0.018250 0.048951
0.193423 0.032105 0.061402
0.221561 0.044984 0.075288
0.249088 0.054322 0.087800
0.276860 0.059297 0.093660
0.304204 0.062745 0.098787
0.331090 0.062470 0.104158
0.357488 0.064271 0.108858
0.382574 0.067994 0.113405
0.406622 0.068788 0.119417
0.429664 0.077485 0.125002
0.451423 0.083894 0.131930
0.472328 0.091066 0.139132
0.491615 0.097139 0.146242
0.509941 0.103731 0.153017
0.527520 0.109010 0.159670
0.543999 0.115389 0.166201
0.560327 0.121706 0.172641
0.576654 0.127718 0.178714
0.592889 0.133639 0.184909
0.609125 0.139345 0.191012
0.625452 0.145449 0.197330
0.642267 0.151095 0.203433
0.659571 0.156924 0.209232
0.677424 0.162936 0.215702
0.696284 0.169436 0.222141
0.000000 0.000000 0.000000
0.000000 0.000000 0.000000
0.000000 0.000000 0.000000
0.051637 0.001678 0.010040
0.110201 0.011414 0.020142
0.139803 0.028290 0.035737
0.167788 0.043763 0.049775
0.195377 0.057160 0.063325
0.223209 0.068818 0.079103
0.250767 0.076753 0.089143
0.278447 0.080262 0.094820
0.305943 0.081392 0.099550
0.332738 0.083223 0.104402
0.359014 0.083619 0.109438
0.384283 0.084779 0.113985
0.408270 0.085878 0.119936
0.431189 0.089540 0.126040
0.452766 0.094057 0.132845
0.473610 0.099123 0.139956
0.492714 0.104311 0.147280
0.511131 0.109804 0.153811
0.528496 0.115145 0.160189
0.544945 0.121126 0.166690
0.561303 0.126680 0.173312
0.577478 0.132021 0.179568
0.593652 0.137453 0.185733
0.609888 0.143160 0.191958
0.626307 0.149142 0.198062
0.643030 0.154269 0.204135
0.660304 0.160128 0.210056
0.678157 0.165805 0.216373
0.696986 0.172274 0.223026
0.000519 0.034363 0.007721
0.001068 0.036530 0.007416
0.023316 0.041810 0.008515
0.079286 0.053223 0.011505
0.115084 0.069612 0.025422
0.144076 0.080385 0.038209
0.171450 0.088746 0.054658
0.198581 0.093660 0.069337
0.226383 0.096712 0.083803
0.254276 0.098726 0.091524
0.281743 0.100526 0.096986
0.309087 0.100954 0.101564
0.335912 0.101656 0.106264
0.361944 0.102144 0.111147
0.386786 0.102113 0.116304
0.410895 0.103853 0.121950
0.433509 0.105165 0.128298
0.455238 0.108888 0.135134
0.475990 0.113008 0.142092
0.494972 0.117037 0.149294
0.513298 0.120943 0.155795
0.530541 0.125887 0.162417
0.546929 0.130159 0.168887
0.563043 0.135378 0.175082
0.579187 0.140444 0.181064
0.595178 0.145144 0.187350
0.611200 0.150546 0.193637
0.627588 0.155520 0.199588
0.644221 0.160616 0.205325
0.661402 0.166171 0.211460
0.679347 0.171664 0.217563
0.698085 0.177554 0.224186
0.035218 0.099580 0.022797
0.040467 0.099733 0.022614
0.065278 0.101350 0.021454
0.095949 0.103822 0.022797
0.120058 0.107027 0.028779
0.148501 0.111666 0.045472
0.176852 0.116579 0.065644
0.204318 0.119081 0.081117
0.232151 0.120790 0.089326
0.259525 0.122133 0.095216
0.287083 0.122652 0.099397
0.314061 0.123415 0.104402
0.340551 0.123018 0.109712
0.366369 0.123537 0.114656
0.390906 0.123445 0.119875
0.414496 0.124880 0.125307
0.437171 0.125185 0.131991
0.458625 0.127596 0.138399
0.478859 0.130617 0.145449
0.497932 0.133547 0.152438
0.516014 0.136629 0.158999
0.533074 0.140230 0.165133
0.549371 0.144106 0.171633
0.565362 0.148043 0.177584
0.581201 0.151888 0.183688
0.597162 0.156649 0.189639
0.613184 0.160922 0.195621
0.629419 0.165377 0.201633
0.646082 0.170138 0.207401
0.663172 0.174990 0.213474
0.680995 0.180117 0.219638
0.699763 0.185580 0.226200
0.080507 0.125490 0.044129
0.083192 0.125887 0.044953
0.093263 0.126619 0.046357
0.106813 0.128908 0.047608
0.126741 0.131746 0.052308
0.150607 0.136110 0.064271
0.180331 0.141421 0.080568
0.210086 0.145022 0.089021
0.239231 0.147738 0.094636
0.266697 0.148257 0.099397
0.293431 0.148409 0.104768
0.320256 0.148592 0.109163
0.346410 0.148409 0.114107
0.371618 0.148165 0.119783
0.395850 0.148226 0.124941
0.419196 0.148226 0.130495
0.441566 0.149081 0.136019
0.462745 0.149905 0.143465
0.482826 0.151675 0.149844
0.501457 0.153780 0.156619
0.519524 0.156039 0.162966
0.536309 0.158724 0.168948
0.549767 0.160006 0.174258
0.565820 0.163180 0.179934
0.581659 0.166354 0.185946
0.597559 0.169741 0.191928
0.613550 0.173556 0.197940
0.629786 0.177401 0.203616
0.646296 0.181338 0.209628
0.663355 0.185672 0.215488
0.681086 0.190158 0.221622
0.699916 0.195468 0.227939
0.101381 0.149172 0.077455
0.103456 0.149447 0.077119
0.108705 0.150088 0.079133
0.119631 0.151736 0.080018
0.135531 0.154360 0.080049
0.155001 0.157259 0.084535
0.180117 0.162692 0.089479
0.211887 0.168917 0.094118
0.241733 0.172488 0.099977
0.272953 0.176059 0.105623
0.300114 0.176059 0.110811
0.326116 0.175692 0.115938
0.351781 0.175021 0.120912
0.376654 0.174777 0.125643
0.400946 0.173983 0.130861
0.423774 0.173678 0.136385
0.446021 0.173953 0.142123
0.466804 0.173983 0.149233
0.486519 0.174990 0.155367
0.505028 0.175875 0.161593
0.522637 0.177249 0.167605
0.538964 0.178347 0.173556
0.554681 0.180240 0.179477
0.570214 0.182315 0.185214
0.585779 0.184207 0.190829
0.601434 0.187167 0.196719
0.617334 0.190066 0.201907
0.633265 0.192966 0.207919
0.649714 0.196323 0.213657
0.666651 0.200290 0.219608
0.684382 0.204410 0.225650
0.703090 0.209110 0.231968
0.118654 0.173983 0.094911
0.119661 0.174228 0.095583
0.125002 0.174868 0.095247
0.134218 0.176211 0.095338
0.147433 0.178561 0.095705
0.165133 0.181399 0.096803
0.185000 0.184298 0.099214
0.211246 0.190311 0.102846
0.244053 0.197055 0.107729
0.274266 0.200565 0.113069
0.305699 0.204440 0.118410
0.335515 0.206363 0.123781
0.360815 0.205142 0.128756
0.385168 0.204074 0.133761
0.408820 0.202701 0.138979
0.431586 0.201877 0.144137
0.453162 0.201175 0.150057
0.473579 0.200656 0.156222
0.492927 0.200656 0.162325
0.511223 0.200626 0.168673
0.528313 0.201053 0.174319
0.544366 0.201450 0.179904
0.559899 0.202090 0.185519
0.575219 0.203067 0.190829
0.590631 0.204654 0.196353
0.605951 0.206363 0.202029
0.621546 0.208316 0.207523
0.637507 0.210910 0.213016
0.653773 0.213901 0.218570
0.670588 0.216922 0.224430
0.688106 0.220523 0.230442
0.706630 0.224796 0.236790
0.136049 0.199344 0.107698
0.137667 0.199649 0.107576
0.140810 0.200290 0.107607
0.149264 0.201450 0.107973
0.160952 0.203281 0.108339
0.176883 0.206058 0.108827
0.195254 0.208988 0.110628
0.215793 0.211887 0.112886
0.242802 0.217899 0.116213
0.275547 0.224796 0.120516
0.306340 0.228519 0.126131
0.337713 0.232456 0.132021
0.369543 0.236088 0.138491
0.394385 0.234775 0.143740
0.417792 0.233219 0.148318
0.439948 0.231418 0.153536
0.461006 0.229801 0.159213
0.481117 0.228824 0.165194
0.500175 0.227848 0.170871
0.518029 0.227054 0.176791
0.534752 0.226505 0.182071
0.550469 0.225864 0.187381
0.565545 0.225772 0.192813
0.580713 0.225864 0.198123
0.595911 0.226566 0.203342
0.611109 0.227695 0.208560
0.626459 0.228702 0.214054
0.642298 0.230747 0.219242
0.658350 0.233188 0.224735
0.674983 0.235691 0.230503
0.692470 0.238926 0.236271
0.710506 0.242588 0.242679
0.153841 0.225284 0.120027
0.154757 0.225345 0.119966
0.157809 0.225711 0.120638
0.164858 0.226963 0.120882
0.175082 0.228611 0.120851
0.188998 0.230777 0.121614
0.206119 0.233860 0.121614
0.225620 0.236728 0.123659
0.247196 0.239719 0.125978
0.274205 0.245304 0.129000
0.307256 0.252262 0.134035
0.337865 0.256199 0.139345
0.368719 0.259892 0.146365
0.399817 0.263615 0.153048
0.427771 0.264805 0.159854
0.449226 0.262364 0.164645
0.469917 0.260288 0.169619
0.489509 0.258244 0.175387
0.508049 0.256352 0.181033
0.525505 0.254795 0.186221
0.541680 0.253025 0.191470
0.557031 0.251652 0.196719
0.571954 0.250645 0.201694
0.587060 0.250187 0.206638
0.602106 0.250156 0.211429
0.617090 0.250523 0.216709
0.632288 0.251194 0.221836
0.647791 0.252445 0.226871
0.663752 0.253941 0.232181
0.680110 0.256107 0.237613
0.697383 0.258732 0.243229
0.715023 0.261997 0.249577
0.171176 0.251102 0.132082
0.171878 0.251133 0.132540
0.175051 0.251621 0.132296
0.181125 0.252506 0.132326
0.190127 0.253849 0.133059
0.202731 0.255894 0.133669
0.218387 0.258274 0.134005
0.236515 0.261295 0.134432
0.256382 0.264042 0.136721
0.277623 0.266545 0.139284
0.304936 0.272099 0.141665
0.337377 0.278843 0.146731
0.367315 0.282475 0.153048
0.397253 0.286107 0.159915
0.427466 0.289677 0.167636
0.457710 0.293492 0.176425
0.479591 0.291966 0.182040
0.498604 0.289006 0.187137
0.516686 0.286046 0.192172
0.533440 0.283604 0.197391
0.549401 0.281010 0.202029
0.564324 0.278752 0.207004
0.579065 0.277165 0.211551
0.593896 0.275883 0.216068
0.608576 0.274998 0.220981
0.623438 0.274601 0.225620
0.638483 0.274815 0.230533
0.653834 0.275547 0.235477
0.669520 0.276463 0.240513
0.685695 0.278019 0.245853
0.702541 0.280217 0.251347
0.719814 0.282963 0.257389
0.188205 0.276158 0.143832
0.188907 0.276219 0.143801
0.191531 0.276555 0.143618
0.196811 0.277348 0.144289
0.205051 0.278569 0.144747
0.216373 0.280156 0.144717
0.230228 0.282353 0.145418
0.247074 0.284947 0.145632
0.265660 0.287846 0.146853
0.285893 0.290379 0.148867
0.306950 0.292576 0.151431
0.333623 0.297398 0.153841
0.362768 0.301610 0.158572
0.392157 0.305547 0.165560
0.421637 0.309331 0.172824
0.451148 0.313176 0.181399
0.480446 0.317082 0.190463
0.506065 0.318853 0.198764
0.523400 0.315312 0.203677
0.539940 0.311742 0.208164
0.555352 0.308659 0.212955
0.570153 0.305577 0.217441
0.584802 0.303227 0.221653
0.599512 0.301457 0.226017
0.614191 0.299992 0.230411
0.628931 0.299199 0.235203
0.643824 0.298528 0.239567
0.659052 0.298741 0.244450
0.674617 0.299413 0.249363
0.690761 0.300420 0.254490
0.707118 0.302098 0.260075
0.724056 0.304601 0.265873
0.203952 0.299229 0.154696
0.204227 0.299351 0.154849
0.206729 0.299657 0.155093
0.211826 0.300328 0.155093
0.218936 0.301396 0.155520
0.229068 0.302983 0.156039
0.241947 0.304814 0.156344
0.256870 0.306981 0.156802
0.274113 0.309636 0.157534
0.292912 0.311803 0.158846
0.313268 0.314092 0.161105
0.333928 0.315892 0.162783
0.359533 0.320195 0.165591
0.389807 0.325780 0.171695
0.418708 0.330053 0.178897
0.447639 0.333867 0.187381
0.476234 0.337804 0.196719
0.504173 0.341436 0.206394
0.530785 0.345006 0.216312
0.549126 0.342779 0.222263
0.564080 0.338476 0.226444
0.578759 0.334966 0.230167
0.593042 0.331792 0.234531
0.607446 0.329229 0.238590
0.621912 0.327214 0.242496
0.636347 0.325566 0.247044
0.651057 0.324590 0.251286
0.666133 0.324132 0.255680
0.681422 0.324102 0.260410
0.697047 0.324773 0.265232
0.712978 0.325933 0.270512
0.729305 0.327947 0.276402
0.219516 0.322148 0.165835
0.219974 0.322240 0.165957
0.222477 0.322515 0.165988
0.226688 0.323064 0.166384
0.233249 0.324010 0.166415
0.242222 0.325261 0.166781
0.253422 0.326848 0.167117
0.267338 0.328771 0.167727
0.283330 0.330999 0.168124
0.301122 0.333471 0.169162
0.319707 0.335393 0.170962
0.340032 0.337560 0.172702
0.360327 0.339269 0.174960
0.385290 0.343053 0.177951
0.415045 0.348821 0.185306
0.443854 0.353368 0.193240
0.472023 0.357275 0.202335
0.499092 0.360784 0.211826
0.525292 0.364324 0.221622
0.550713 0.367468 0.231907
0.572930 0.369146 0.241093
0.587243 0.364752 0.244846
0.601465 0.360967 0.248417
0.615625 0.357671 0.252201
0.629908 0.355077 0.255680
0.644129 0.353033 0.259831
0.658625 0.351476 0.263951
0.673365 0.350408 0.267918
0.688319 0.349767 0.272282
0.703426 0.349767 0.276951
0.718746 0.350561 0.282078
0.734676 0.352239 0.287785
0.234714 0.343542 0.176944
0.235142 0.343725 0.176730
0.236973 0.343969 0.177066
0.240757 0.344427 0.177127
0.246952 0.345281 0.177310
0.254948 0.346441 0.177493
0.265202 0.347723 0.178195
0.277928 0.349432 0.178622
0.292363 0.351263 0.179232
0.308904 0.353582 0.180209
0.326635 0.355810 0.181247
0.345434 0.357671 0.182925
0.365270 0.359899 0.185092
0.385595 0.361334 0.187259
0.410101 0.365087 0.190860
0.439185 0.370703 0.198764
0.467323 0.375341 0.207248
0.493935 0.378882 0.216403
0.519677 0.382116 0.226108
0.544701 0.385321 0.236210
0.568872 0.388556 0.246525
0.592706 0.392004 0.257328
0.609979 0.390539 0.263554
0.624018 0.386908 0.266880
0.637995 0.383673 0.270237
0.652186 0.380957 0.273747
0.666377 0.378943 0.277317
0.680598 0.377111 0.281498
0.694942 0.376135 0.285527
0.709590 0.375738 0.289891
0.724392 0.376104 0.294896
0.739681 0.377142 0.300542
0.249454 0.364019 0.187472
0.249790 0.364111 0.187900
0.251225 0.364416 0.188205
0.254643 0.364782 0.188144
0.260258 0.365423 0.188205
0.267369 0.366339 0.188571
0.276799 0.367590 0.189059
0.288090 0.369055 0.189670
0.301610 0.370703 0.190280
0.316472 0.372656 0.190829
0.333165 0.374884 0.192020
0.351232 0.376989 0.193606
0.369940 0.378973 0.195407
0.389837 0.381109 0.197299
0.409400 0.382483 0.199344
0.433295 0.386023 0.203616
0.461769 0.391485 0.211643
0.488899 0.395727 0.221103
0.514214 0.399023 0.230167
0.538781 0.402136 0.240513
0.562982 0.405341 0.250553
0.586664 0.408789 0.260990
0.610071 0.412726 0.271885
0.632441 0.416327 0.282689
0.646265 0.412573 0.285710
0.660029 0.409400 0.288945
0.673823 0.406775 0.292302
0.687648 0.404639 0.295811
0.701472 0.402930 0.299687
0.715419 0.402014 0.304082
0.729946 0.401862 0.308721
0.744808 0.402777 0.314336
0.263554 0.383581 0.198734
0.264256 0.383642 0.198825
0.265446 0.383856 0.198734
0.268467 0.384253 0.199069
0.273228 0.384802 0.199435
0.279942 0.385595 0.199802
0.288487 0.386572 0.199893
0.299016 0.387854 0.200351
0.311009 0.389441 0.201480
0.324743 0.391211 0.202029
0.340215 0.393164 0.202548
0.357031 0.395483 0.203922
0.374884 0.397314 0.205478
0.393530 0.399298 0.207553
0.413153 0.401404 0.209812
0.432166 0.402411 0.211765
0.455055 0.405585 0.216098
0.482277 0.410529 0.224674
0.508263 0.414649 0.234165
0.532586 0.417762 0.243717
0.556725 0.421149 0.253910
0.580591 0.424659 0.264225
0.604028 0.428534 0.274815
0.627161 0.432807 0.286259
0.650080 0.437476 0.297642
0.667750 0.438148 0.305058
0.680964 0.434882 0.308080
0.694240 0.432197 0.311498
0.707546 0.430152 0.315251
0.721248 0.428779 0.319249
0.735134 0.428290 0.323949
0.750118 0.428962 0.329381
0.277195 0.401892 0.209384
0.277745 0.401892 0.209354
0.278172 0.400977 0.209140
0.280644 0.401404 0.208927
0.285191 0.401862 0.209140
0.291081 0.402533 0.209262
0.298863 0.403479 0.209873
0.308232 0.404669 0.210483
0.319188 0.406073 0.210941
0.331914 0.407568 0.211765
0.346380 0.409430 0.212406
0.361761 0.411444 0.213291
0.378698 0.413703 0.214481
0.396399 0.415473 0.216373
0.414740 0.417456 0.218570
0.434089 0.419440 0.220890
0.452247 0.420111 0.223117
0.474434 0.422950 0.227726
0.500389 0.427680 0.236728
0.525719 0.431861 0.246372
0.549889 0.435431 0.256352
0.573816 0.439155 0.266545
0.597406 0.443122 0.277226
0.620691 0.447395 0.288487
0.643793 0.452064 0.299657
0.665858 0.456977 0.311681
0.686824 0.462135 0.324224
0.700343 0.459998 0.328374
0.713313 0.457557 0.331914
0.726558 0.455879 0.335821
0.740536 0.455207 0.340307
0.755764 0.455665 0.345708
0.290074 0.419013 0.219699
0.290227 0.419013 0.219699
0.291478 0.418982 0.219699
0.293950 0.419196 0.219669
0.297795 0.419562 0.219669
0.302861 0.420233 0.220157
0.310094 0.421027 0.220523
0.318853 0.421973 0.220768
0.328923 0.423224 0.221347
0.340795 0.424689 0.222019
0.353704 0.426337 0.222690
0.368261 0.428229 0.223758
0.384100 0.430243 0.224582
0.400855 0.432319 0.226383
0.418158 0.433997 0.228305
0.436500 0.435889 0.230289
0.455329 0.437995 0.232914
0.472541 0.438117 0.234684
0.493812 0.440558 0.239597
0.519036 0.445167 0.249058
0.543694 0.449348 0.258549
0.567651 0.453254 0.268833
0.591150 0.457252 0.279210
0.614588 0.461646 0.290196
0.637720 0.466377 0.301366
0.660151 0.471260 0.313481
0.681331 0.476326 0.326207
0.701534 0.481727 0.339513
0.718807 0.485054 0.349798
0.732113 0.483162 0.353613
0.746304 0.482612 0.358251
0.761990 0.483131 0.363348
0.302953 0.436225 0.229282
0.303105 0.436164 0.229526
0.304234 0.436194 0.229465
0.306401 0.436316 0.229374
0.309880 0.436683 0.229496
0.314946 0.437201 0.229862
0.321111 0.437964 0.229984
0.329076 0.438911 0.230350
0.338476 0.440040 0.231357
0.349401 0.441321 0.231601
0.361334 0.442786 0.232517
0.375006 0.444465 0.233585
0.389685 0.446326 0.234531
0.405676 0.448341 0.235325
0.422095 0.450141 0.237339
0.439185 0.451942 0.239261
0.457191 0.453803 0.241581
0.475807 0.455756 0.243992
0.492134 0.455512 0.245975
0.512840 0.457649 0.250828
0.537255 0.462104 0.260258
0.561242 0.466407 0.270390
0.584863 0.470680 0.281010
0.608423 0.475135 0.291844
0.631769 0.479957 0.303014
0.654292 0.484901 0.315007
0.675868 0.489876 0.327459
0.696315 0.495247 0.340795
0.715969 0.501122 0.354742
0.736080 0.508171 0.369360
0.752743 0.510369 0.376989
0.768978 0.510979 0.381933
0.315373 0.452949 0.238712
0.315526 0.452918 0.238621
0.316411 0.452918 0.238590
0.318547 0.453071 0.239017
0.321569 0.453376 0.238926
0.326085 0.453895 0.239384
0.332219 0.454505 0.239322
0.339330 0.455390 0.240208
0.348028 0.456397 0.240360
0.357946 0.457588 0.241154
0.369390 0.458930 0.241825
0.381872 0.460487 0.242771
0.395727 0.462135 0.243412
0.410590 0.463935 0.244419
0.426520 0.466041 0.246128
0.442695 0.467659 0.247807
0.459724 0.469337 0.249973
0.477333 0.471107 0.252140
0.495583 0.473060 0.254643
0.511131 0.472236 0.256321
0.531060 0.474250 0.261448
0.554772 0.478553 0.271153
0.578180 0.482795 0.281559
0.601740 0.487465 0.292210
0.625238 0.492409 0.303624
0.648005 0.497353 0.315282
0.669734 0.502495 0.327886
0.690639 0.507713 0.340948
0.710689 0.513573 0.355230
0.731258 0.520531 0.369879
0.752987 0.528954 0.385321
0.775845 0.538354 0.400519
0.327062 0.468788 0.247166
0.327245 0.468818 0.247257
0.328008 0.468849 0.247227
0.329900 0.469093 0.247288
0.332860 0.469398 0.247410
0.337072 0.469795 0.247654
0.342504 0.470497 0.248112
0.349310 0.471290 0.248569
0.357366 0.472175 0.249149
0.366613 0.473274 0.249790
0.377264 0.474495 0.250584
0.388861 0.475898 0.251102
0.401801 0.477485 0.252140
0.415808 0.479103 0.252873
0.430640 0.481025 0.254063
0.446509 0.482918 0.255467
0.462684 0.484535 0.257603
0.479438 0.486244 0.259770
0.496864 0.488014 0.262333
0.514855 0.489967 0.264744
0.529808 0.488838 0.266514
0.549279 0.490730 0.271550
0.572656 0.495216 0.281834
0.595666 0.499519 0.292576
0.619196 0.504662 0.303716
0.642237 0.509850 0.315709
0.664393 0.515007 0.328161
0.685634 0.520409 0.341802
0.706050 0.526299 0.356023
0.727260 0.533410 0.371008
0.749722 0.541955 0.386511
0.773831 0.552300 0.403052
0.338567 0.484932 0.255650
0.338872 0.484901 0.255375
0.339666 0.484993 0.255711
0.341253 0.485176 0.255589
0.344213 0.485420 0.255741
0.348058 0.485847 0.256168
0.353063 0.486397 0.256229
0.359136 0.487160 0.256657
0.366735 0.487984 0.257237
0.375372 0.488991 0.257603
0.385290 0.490120 0.258549
0.396246 0.491432 0.259220
0.408362 0.492836 0.260044
0.421485 0.494453 0.260868
0.435615 0.496162 0.261845
0.450629 0.498085 0.263096
0.466377 0.499825 0.264683
0.482429 0.501457 0.266850
0.499214 0.503136 0.269413
0.516533 0.504875 0.271794
0.533745 0.506401 0.274540
0.548638 0.505333 0.275731
0.567681 0.507256 0.281285
0.590753 0.511833 0.292027
0.613733 0.516716 0.303716
0.636713 0.521904 0.315618
0.659236 0.527306 0.328313
0.680812 0.532891 0.342046
0.701839 0.538842 0.356420
0.723690 0.546197 0.371710
0.746975 0.555230 0.388006
0.772213 0.566033 0.404944
0.349523 0.500603 0.262943
0.349889 0.500603 0.262943
0.350408 0.500633 0.262608
0.352117 0.500816 0.262974
0.354589 0.501091 0.263096
0.358404 0.501579 0.263218
0.363134 0.502129 0.263737
0.368994 0.502831 0.264073
0.376074 0.503655 0.264439
0.384314 0.504631 0.265080
0.393622 0.505730 0.265904
0.403967 0.506950 0.266545
0.415381 0.508385 0.267338
0.427863 0.509880 0.268315
0.441321 0.511559 0.269291
0.455543 0.513390 0.270573
0.470863 0.515404 0.271946
0.486549 0.517052 0.273686
0.502647 0.518700 0.276036
0.519219 0.520439 0.278416
0.536278 0.522301 0.281193
0.552911 0.523461 0.284062
0.567926 0.522576 0.285130
0.586816 0.524529 0.291020
0.609827 0.529442 0.302495
0.631800 0.533898 0.314763
0.654017 0.539117 0.327703
0.676204 0.544945 0.341558
0.697841 0.551324 0.356542
0.720485 0.559045 0.372290
0.744839 0.568627 0.389227
0.770169 0.579034 0.405707
0.360845 0.516838 0.269780
0.360967 0.516838 0.269688
0.361700 0.516899 0.269749
0.363165 0.517052 0.270024
0.365515 0.517296 0.269963
0.369024 0.517693 0.270451
0.373388 0.518212 0.270695
0.379004 0.518853 0.271214
0.385443 0.519585 0.271580
0.393225 0.520439 0.271855
0.401831 0.521508 0.272587
0.411688 0.522637 0.273136
0.422705 0.523980 0.274266
0.434485 0.525444 0.275151
0.447303 0.527031 0.276097
0.461067 0.528801 0.277104
0.475563 0.530663 0.278355
0.490944 0.532677 0.280034
0.506554 0.534325 0.282017
0.522698 0.536034 0.284398
0.539300 0.537865 0.287022
0.556512 0.539788 0.289921
0.572656 0.540642 0.293248
0.587884 0.540215 0.294224
0.606470 0.542260 0.300328
0.628901 0.546990 0.313085
0.649989 0.551263 0.326299
0.671595 0.556603 0.340398
0.693965 0.563409 0.355962
0.717556 0.571771 0.372503
0.742092 0.580987 0.388617
0.768063 0.591699 0.405585
0.371832 0.533379 0.276341
0.371893 0.533318 0.276341
0.372564 0.533379 0.276036
0.374060 0.533532 0.276219
0.376318 0.533806 0.276402
0.379461 0.534173 0.276707
0.383673 0.534661 0.276860
0.388891 0.535302 0.277379
0.395148 0.536004 0.277806
0.402472 0.536858 0.278264
0.410864 0.537835 0.278782
0.420294 0.538933 0.279576
0.430549 0.540215 0.280430
0.441901 0.541650 0.281376
0.454383 0.543236 0.282200
0.467353 0.544915 0.283513
0.481392 0.546807 0.284794
0.496284 0.548821 0.286076
0.511711 0.550805 0.287694
0.527550 0.552514 0.290257
0.543816 0.554406 0.292912
0.560571 0.556390 0.295689
0.577813 0.558556 0.298650
0.593957 0.559442 0.302403
0.609155 0.559106 0.303990
0.627314 0.560937 0.310460
0.649073 0.565698 0.324773
0.669490 0.570001 0.339483
0.690944 0.575860 0.355200
0.714565 0.583948 0.371283
0.739742 0.593530 0.388006
0.766842 0.604822 0.405249
0.383093 0.550958 0.282383
0.383246 0.550835 0.282170
0.383856 0.550805 0.282078
0.385168 0.550958 0.282139
0.387213 0.551202 0.282444
0.390295 0.551568 0.282383
0.394202 0.551965 0.282719
0.399145 0.552514 0.282902
0.405188 0.553094 0.283452
0.412146 0.553857 0.283909
0.419989 0.554742 0.284459
0.428901 0.555749 0.285008
0.438788 0.556939 0.285771
0.449622 0.558282 0.286687
0.461463 0.559808 0.287663
0.474189 0.561486 0.288853
0.487800 0.563378 0.290013
0.502190 0.565332 0.291386
0.517357 0.567498 0.292882
0.532982 0.569512 0.295018
0.548943 0.571435 0.297673
0.565484 0.573419 0.300755
0.582391 0.575586 0.304021
0.599878 0.577905 0.307713
0.615930 0.578851 0.311833
0.631220 0.578698 0.314244
0.648615 0.580316 0.321386
0.669245 0.584558 0.336858
0.689204 0.588861 0.352514
0.710964 0.595148 0.368414
0.737087 0.605371 0.385657
0.765377 0.617426 0.403418
0.394781 0.569329 0.287785
0.394781 0.569299 0.287541
0.395270 0.569238 0.287633
0.396582 0.569329 0.287633
0.398566 0.569604 0.287755
0.401709 0.569940 0.287938
0.405402 0.570428 0.288151
0.410132 0.571008 0.288548
0.415991 0.571740 0.288945
0.422766 0.572595 0.289677
0.430396 0.573541 0.290318
0.439063 0.574640 0.290959
0.448859 0.575891 0.291661
0.459449 0.577295 0.292851
