20 Preset/Retro Portrait/【3】LUT video cho PR-AE-FCPX/Retro LUT (6).cube
# Created by Adobe Lightroom plugin Export LUT (1.24.0)
# www.johnrellis.com/lightroom/exportlut.htm
# Preset: 法式胶片-素材江湖06
# Color profile: C:\Program Files (x86)\Common Files\Adobe\Color\Profiles\Recommended\VideoHD.icc
LUT_3D_SIZE 8
DOMAIN_MIN 0.000000 0.000000 0.000000
DOMAIN_MAX 0.903226 0.903226 0.903226
0.000000 0.000000 0.000000
0.102083 0.003174 0.022919
0.220706 0.040284 0.074952
0.330266 0.058473 0.103334
0.428840 0.069551 0.124788
0.509422 0.101839 0.152407
0.576013 0.126558 0.178225
0.641718 0.150149 0.202884
0.035218 0.099580 0.022797
0.120058 0.107027 0.028779
0.232151 0.120790 0.089326
0.340551 0.123018 0.109712
0.437171 0.125185 0.131991
0.516014 0.136629 0.158999
0.581201 0.151888 0.183688
0.646082 0.170138 0.207401
0.136049 0.199344 0.107698
0.160952 0.203281 0.108339
0.242802 0.217899 0.116213
0.369543 0.236088 0.138491
0.461006 0.229801 0.159213
0.534752 0.226505 0.182071
0.595911 0.226566 0.203342
0.658350 0.233188 0.224735
0.203952 0.299229 0.154696
0.218936 0.301396 0.155520
0.274113 0.309636 0.157534
0.359533 0.320195 0.165591
0.476234 0.337804 0.196719
0.564080 0.338476 0.226444
0.621912 0.327214 0.242496
0.681422 0.324102 0.260410
0.263554 0.383581 0.198734
0.273228 0.384802 0.199435
0.311009 0.389441 0.201480
0.374884 0.397314 0.205478
0.455055 0.405585 0.216098
0.556725 0.421149 0.253910
0.650080 0.437476 0.297642
0.707546 0.430152 0.315251
0.315373 0.452949 0.238712
0.321569 0.453376 0.238926
0.348028 0.456397 0.240360
0.395727 0.462135 0.243412
0.459724 0.469337 0.249973
0.531060 0.474250 0.261448
0.625238 0.492409 0.303624
0.710689 0.513573 0.355230
0.360845 0.516838 0.269780
0.365515 0.517296 0.269963
0.385443 0.519585 0.271580
0.422705 0.523980 0.274266
0.475563 0.530663 0.278355
0.539300 0.537865 0.287022
0.606470 0.542260 0.300328
0.693965 0.563409 0.355962
0.408087 0.590539 0.294285
0.411872 0.590661 0.294102
0.428626 0.592737 0.295598
0.460670 0.596857 0.298802
0.508202 0.604242 0.305119
0.566247 0.611810 0.312139
0.631403 0.619287 0.326574
0.697688 0.625055 0.348211
0.032959 0.059327 0.099397
0.075166 0.053651 0.108125
0.214786 0.095033 0.136110
0.323156 0.099733 0.154940
0.423621 0.097566 0.164920
0.504936 0.117556 0.182956
0.572442 0.137179 0.200473
0.638788 0.157046 0.218418
0.070527 0.106600 0.112825
0.114870 0.115511 0.122347
0.225772 0.123507 0.139956
0.333593 0.130068 0.155642
0.430488 0.135561 0.170108
0.510460 0.146822 0.187808
0.577050 0.160372 0.204776
0.642725 0.175601 0.222721
0.144472 0.207736 0.153109
0.166384 0.210025 0.153231
0.247044 0.223392 0.159854
0.364263 0.236088 0.178958
0.455299 0.232334 0.192142
0.530144 0.230198 0.207370
0.592615 0.231052 0.222904
0.655756 0.236301 0.238834
0.210147 0.306096 0.186954
0.224155 0.306798 0.186740
0.278111 0.314519 0.188693
0.363775 0.325231 0.196048
0.479316 0.342901 0.225284
0.561273 0.340581 0.247227
0.619532 0.329870 0.259129
0.679469 0.326390 0.272587
0.268254 0.387945 0.221012
0.277043 0.388037 0.220981
0.314092 0.392737 0.222599
0.377813 0.400946 0.226291
0.458137 0.409186 0.236240
0.558282 0.424720 0.272313
0.650752 0.441657 0.313664
0.705623 0.431403 0.325017
0.319402 0.456336 0.254826
0.325017 0.456184 0.254612
0.351171 0.459113 0.255833
0.398077 0.464698 0.258671
0.461524 0.471839 0.264469
0.532738 0.476509 0.274968
0.626123 0.494820 0.315831
0.710842 0.516350 0.365881
0.363775 0.519677 0.282048
0.367895 0.519219 0.281407
0.387488 0.521447 0.282444
0.424475 0.525750 0.285100
0.476967 0.532280 0.288914
0.540520 0.539422 0.297002
0.607752 0.544030 0.309941
0.694728 0.565423 0.364691
0.409888 0.592401 0.303288
0.412848 0.591882 0.302434
0.429236 0.593652 0.303349
0.461250 0.597742 0.306371
0.507958 0.604242 0.311772
0.566033 0.612055 0.318853
0.631373 0.619745 0.333074
0.697841 0.625727 0.354345
0.090486 0.129335 0.196445
0.105501 0.133333 0.203189
0.176272 0.151797 0.228763
0.338842 0.173617 0.251438
0.423194 0.180117 0.261570
0.477119 0.184482 0.263951
0.550469 0.168246 0.257084
0.620630 0.165927 0.258427
0.132235 0.160739 0.206394
0.142123 0.164920 0.212833
0.195499 0.179202 0.235477
0.339757 0.195315 0.256718
0.421515 0.196262 0.264164
0.482399 0.193515 0.264164
0.557122 0.174472 0.255528
0.624598 0.183017 0.262150
0.172610 0.222782 0.234379
0.192294 0.228122 0.239170
0.248997 0.246921 0.259281
0.343938 0.245212 0.265873
0.433631 0.234470 0.262242
0.508934 0.235721 0.266758
0.573785 0.237675 0.271214
0.639094 0.240360 0.277012
0.221500 0.327184 0.269871
0.242741 0.329076 0.276097
0.289128 0.331212 0.275486
0.374670 0.341161 0.281102
0.475807 0.350530 0.298466
0.542260 0.339300 0.300542
0.602319 0.331060 0.302831
0.664149 0.327092 0.307195
0.288487 0.405890 0.294743
0.295720 0.405493 0.293858
0.325597 0.404730 0.291081
0.386206 0.412818 0.293462
0.465675 0.420783 0.301427
0.560662 0.435889 0.331273
0.637995 0.441596 0.352117
0.693935 0.431281 0.354986
0.336004 0.469825 0.312322
0.340978 0.469184 0.311437
0.361364 0.467536 0.308568
0.405921 0.473060 0.310826
0.467475 0.480140 0.314824
0.537835 0.485084 0.323674
0.627802 0.503380 0.359289
0.709804 0.525750 0.402747
0.375280 0.528923 0.326024
0.378820 0.528374 0.325261
0.393744 0.526360 0.321782
0.429328 0.530663 0.324010
0.480476 0.537133 0.327489
0.542931 0.544274 0.333837
0.609705 0.549035 0.345190
0.694850 0.570642 0.394934
0.415595 0.597986 0.337255
0.418433 0.597559 0.336248
0.430335 0.595544 0.331823
0.461799 0.599451 0.334478
0.507958 0.605982 0.339483
0.565515 0.613489 0.345739
0.630518 0.621241 0.357916
0.697566 0.627771 0.377264
0.125765 0.191073 0.303593
0.139864 0.195834 0.307805
0.192386 0.215671 0.325963
0.284276 0.244236 0.355322
0.450324 0.260380 0.377600
0.533623 0.278050 0.372107
0.570031 0.265721 0.357214
0.598016 0.239292 0.336400
0.170138 0.219669 0.308598
0.178378 0.222629 0.312749
0.215579 0.237858 0.329168
0.294591 0.261295 0.357122
0.451698 0.276005 0.378271
0.530694 0.286534 0.372412
0.566888 0.271519 0.356756
0.594629 0.242222 0.334508
0.229679 0.268956 0.318761
0.241032 0.276219 0.324102
0.271031 0.293309 0.341497
0.329717 0.311833 0.366613
0.460395 0.326635 0.382788
0.518303 0.312535 0.371221
0.553338 0.289220 0.352453
0.601801 0.258091 0.331456
0.266728 0.338109 0.348608
0.278386 0.340948 0.351019
0.321569 0.354314 0.362005
0.381903 0.377935 0.386328
0.454505 0.364630 0.379736
0.510307 0.341924 0.363378
0.573358 0.328161 0.353155
0.636957 0.319921 0.347478
0.313451 0.431556 0.379034
0.322454 0.432898 0.380835
0.356664 0.438483 0.388281
0.407721 0.439826 0.389899
0.482948 0.447181 0.396094
0.557366 0.449928 0.405982
0.613489 0.436194 0.398413
0.672877 0.425605 0.392554
0.375982 0.496681 0.401373
0.379126 0.495888 0.400214
0.393683 0.493416 0.395850
0.423590 0.490089 0.389014
0.479713 0.497108 0.391333
0.548211 0.503014 0.399115
0.631983 0.520958 0.426734
0.704707 0.536004 0.451698
0.401984 0.548272 0.398901
0.404791 0.547570 0.397894
0.416205 0.544854 0.393500
0.439948 0.540520 0.385931
0.487831 0.546868 0.388464
0.548089 0.554253 0.392523
0.614313 0.559655 0.402777
0.696895 0.581994 0.444434
0.428351 0.609155 0.395300
0.430823 0.608728 0.394293
0.441291 0.606653 0.389837
0.462257 0.602930 0.381048
0.507469 0.609247 0.385077
0.564294 0.616693 0.390112
0.629114 0.624598 0.399115
0.697658 0.632197 0.416083
0.196506 0.268040 0.402228
0.206332 0.271885 0.405005
0.242741 0.287510 0.417060
0.302373 0.314488 0.439582
0.390967 0.343755 0.465583
0.541039 0.349920 0.482063
0.629572 0.393957 0.480323
0.663996 0.369482 0.459266
0.226658 0.287724 0.404181
0.233494 0.290501 0.406744
0.262089 0.303349 0.418341
0.314092 0.327214 0.440436
0.396979 0.353765 0.465736
0.541283 0.359747 0.482063
0.627039 0.398444 0.480049
0.661646 0.371984 0.458381
0.285954 0.333227 0.409827
0.293980 0.337987 0.413001
0.311101 0.346380 0.423682
0.349767 0.365454 0.443671
0.419043 0.388128 0.468177
0.543633 0.395575 0.482673
0.617426 0.413275 0.478157
0.651850 0.379187 0.452827
0.326055 0.371008 0.414282
0.333654 0.374060 0.415595
0.361700 0.393347 0.429511
0.397803 0.416052 0.450996
0.451972 0.435554 0.473945
0.550378 0.445747 0.485420
0.599268 0.426978 0.468360
0.630060 0.378515 0.433234
0.360449 0.438666 0.443824
0.367376 0.440375 0.445197
0.394690 0.447700 0.450935
0.440314 0.463569 0.462989
0.491157 0.485908 0.486183
0.541466 0.467964 0.473548
0.575311 0.426032 0.440070
0.640009 0.400092 0.419318
0.406348 0.521019 0.472450
0.411078 0.521538 0.473274
0.430335 0.523674 0.476692
0.462226 0.527398 0.481788
0.504356 0.528313 0.481086
0.568658 0.534447 0.486336
0.632288 0.536400 0.491218
0.684382 0.522118 0.479164
0.430915 0.578149 0.476387
0.434058 0.578241 0.476417
0.455787 0.577691 0.481666
0.473487 0.572045 0.473945
0.501183 0.564660 0.461189
0.558129 0.572107 0.463416
0.623285 0.577813 0.472480
0.704280 0.601434 0.506340
0.455085 0.629023 0.472633
0.456703 0.628565 0.471534
0.464485 0.626490 0.466835
0.479927 0.621912 0.456825
0.506523 0.615534 0.442115
0.562463 0.622889 0.446052
0.627924 0.631342 0.452552
0.699855 0.641077 0.467781
0.276951 0.345953 0.484993
0.282902 0.348638 0.486854
0.307286 0.360174 0.494728
0.348913 0.380316 0.508873
0.405737 0.409339 0.529961
0.483955 0.437659 0.551629
0.603540 0.438758 0.560052
0.691249 0.483467 0.569512
0.295964 0.359319 0.486702
0.301091 0.361822 0.488502
0.321691 0.371588 0.495888
0.359442 0.389960 0.509697
0.413123 0.417426 0.530602
0.488106 0.444282 0.552117
0.605921 0.445075 0.561395
0.691218 0.488533 0.570062
0.342473 0.394018 0.487434
0.345434 0.395422 0.489204
0.359594 0.402533 0.496315
0.390234 0.418738 0.510277
0.435554 0.442756 0.530999
0.501762 0.466285 0.552453
0.614069 0.466438 0.565576
0.690669 0.506157 0.571069
0.379217 0.424720 0.486763
0.385016 0.428443 0.489021
0.407233 0.443244 0.498024
0.430182 0.456672 0.511772
0.466957 0.477790 0.532311
0.522698 0.498085 0.553582
0.619593 0.501122 0.566674
0.688136 0.527825 0.569970
0.410834 0.462348 0.494728
0.415503 0.463996 0.495460
0.433906 0.470771 0.498665
0.467109 0.492683 0.514275
0.501396 0.515618 0.536828
0.548821 0.534447 0.558343
0.628504 0.542229 0.568444
0.671809 0.518395 0.547906
0.440650 0.520928 0.520043
0.444556 0.521782 0.520745
0.460609 0.525841 0.523949
0.489570 0.534203 0.530571
0.529961 0.549248 0.541985
0.577508 0.572320 0.565362
0.614160 0.543420 0.542351
0.645594 0.483803 0.493660
0.472908 0.595758 0.547082
0.476173 0.596399 0.547662
0.490242 0.599390 0.550347
0.515038 0.603693 0.554559
0.544671 0.606012 0.557153
0.578424 0.601526 0.550042
0.639033 0.608881 0.557610
0.713039 0.622339 0.570489
0.494423 0.655268 0.552300
0.496315 0.655238 0.552148
0.503960 0.654932 0.551263
0.518608 0.653803 0.548699
0.541711 0.645747 0.540185
0.565362 0.634516 0.517449
0.629541 0.644160 0.521569
0.705898 0.657069 0.534997
0.367376 0.429999 0.563256
0.372839 0.433265 0.565576
0.387549 0.440620 0.569940
0.416571 0.455726 0.579400
0.456886 0.477241 0.592920
0.506188 0.504509 0.609705
0.568444 0.528069 0.624689
0.653590 0.524743 0.624628
0.370123 0.430671 0.557641
0.375647 0.434272 0.560327
0.389532 0.441199 0.564996
0.415808 0.454536 0.573846
0.453773 0.474403 0.586999
0.500633 0.499519 0.603113
0.561028 0.520928 0.617029
0.645869 0.516228 0.616510
0.405432 0.458167 0.560601
0.407538 0.459113 0.561730
0.416785 0.463416 0.565393
0.438636 0.474678 0.573877
0.470832 0.491341 0.586145
0.514305 0.515343 0.603052
0.573449 0.538903 0.620020
0.655634 0.537041 0.622950
0.438819 0.486061 0.561456
0.442359 0.488136 0.562402
0.454994 0.495583 0.566430
0.472450 0.505394 0.575830
0.500389 0.521080 0.588617
0.540429 0.544793 0.606928
0.593164 0.566583 0.625208
0.671717 0.563531 0.632349
0.454566 0.500175 0.552483
0.456336 0.500969 0.552636
0.468238 0.508385 0.556970
0.494270 0.525963 0.568597
0.520958 0.542809 0.583642
0.556573 0.564874 0.602564
0.604028 0.584741 0.622065
0.688746 0.589258 0.639612
0.473091 0.535424 0.562097
0.476143 0.536431 0.562615
0.487831 0.539818 0.564233
0.509667 0.546929 0.567651
0.544091 0.567102 0.580926
0.583490 0.595453 0.606500
0.629572 0.617182 0.631556
0.708339 0.622644 0.644800
0.500725 0.591577 0.585992
0.504234 0.592798 0.586969
0.514946 0.594842 0.588434
0.535912 0.599786 0.592157
0.565026 0.607324 0.597711
0.602564 0.620752 0.608240
0.654475 0.648402 0.637110
0.679347 0.603449 0.598505
0.532830 0.668635 0.618036
0.535241 0.669459 0.618647
0.545617 0.673762 0.622187
0.562554 0.679713 0.626093
0.586694 0.686488 0.629633
0.611414 0.686030 0.625757
0.643000 0.672328 0.606744
0.726558 0.687282 0.616724
0.447822 0.502739 0.622553
0.450965 0.504662 0.623804
0.458595 0.507927 0.625391
0.477577 0.518303 0.631800
0.504967 0.533349 0.641413
0.539849 0.552758 0.654627
0.582818 0.577661 0.674037
0.637140 0.595941 0.691737
0.447517 0.501946 0.619013
0.450782 0.504051 0.620356
0.459236 0.508202 0.622766
0.477302 0.517784 0.628779
0.504021 0.532433 0.638300
0.538476 0.551598 0.651514
0.580255 0.575494 0.670069
0.633814 0.593317 0.687251
0.463233 0.514092 0.616724
0.465003 0.515068 0.617578
0.471382 0.517876 0.619806
0.490822 0.529595 0.627924
0.514214 0.542138 0.636713
0.545281 0.559075 0.649165
0.585534 0.582208 0.668574
0.637995 0.599817 0.687068
0.481910 0.529808 0.613489
0.485725 0.532311 0.614679
0.494057 0.536950 0.617548
0.508049 0.545006 0.624567
0.530694 0.558160 0.634760
0.560266 0.575250 0.649134
0.598291 0.597467 0.670466
0.649897 0.614954 0.691768
0.488808 0.538109 0.607324
0.491951 0.540215 0.608545
0.500603 0.545220 0.611017
0.524163 0.560418 0.618585
0.544305 0.572534 0.629511
0.572229 0.589441 0.645472
0.609827 0.612268 0.670008
0.665187 0.634302 0.697749
0.501854 0.555016 0.603754
0.502708 0.554559 0.603143
0.508598 0.554742 0.601923
0.525261 0.564752 0.607813
0.553796 0.584283 0.621241
0.589502 0.609827 0.645777
0.633356 0.639887 0.679896
0.695583 0.669062 0.715969
0.526848 0.602686 0.624903
0.528283 0.602808 0.624842
0.535271 0.603693 0.624964
0.550500 0.607385 0.626947
0.573693 0.614130 0.630945
0.607660 0.631312 0.645075
0.654932 0.666835 0.683101
0.717617 0.697841 0.721370
0.549187 0.664698 0.656733
0.550530 0.664668 0.656672
0.557031 0.665797 0.657588
0.571344 0.669490 0.660945
0.593622 0.675013 0.665827
0.625879 0.683436 0.673304
0.673671 0.699580 0.687373
0.750149 0.740902 0.729549
