20 Preset/Dark Style/【1】LRtemplate Lightroom bản cũ/19Tones/19Tones - Reflection x Water.lrtemplate
s = {
	id = "82CF7218-4700-4105-96E0-AE7E88D0B4D4",
	internalName = "19Tones - Reflection x Water",
	title = "19Tones - Reflection x Water",
	type = "Develop",
	value = {
		settings = {
			AutoLateralCA = 0,
			Blacks2012 = -37,
			BlueHue = -5,
			BlueSaturation = 15,
			CameraProfile = "Adobe Standard",
			ChromaticAberrationB = 0,
			ChromaticAberrationR = 0,
			Clarity2012 = -10,
			ColorNoiseReduction = 50,
			ColorNoiseReductionDetail = 50,
			ColorNoiseReductionSmoothness = 50,
			Contrast2012 = 43,
			ConvertToGrayscale = false,
			Defringe = 0,
			DefringeGreenAmount = 0,
			DefringeGreenHueHi = 60,
			DefringeGreenHueLo = 40,
			DefringePurpleAmount = 0,
			DefringePurpleHueHi = 70,
			DefringePurpleHueLo = 30,
			EnableCalibration = true,
			EnableColorAdjustments = true,
			EnableDetail = true,
			EnableEffects = true,
			EnableLensCorrections = true,
			EnableSplitToning = true,
			Exposure2012 = 0.57,
			GrainAmount = 0,
			GrainFrequency = 45,
			GrainSize = 40,
			GreenHue = 35,
			GreenSaturation = 0,
			Highlights2012 = -100,
			HueAdjustmentAqua = 10,
			HueAdjustmentBlue = -31,
			HueAdjustmentGreen = 3,
			HueAdjustmentMagenta = 20,
			HueAdjustmentOrange = 2,
			HueAdjustmentPurple = 20,
			HueAdjustmentRed = -100,
			HueAdjustmentYellow = 0,
			LuminanceAdjustmentAqua = 10,
			LuminanceAdjustmentBlue = -34,
			LuminanceAdjustmentGreen = 21,
			LuminanceAdjustmentMagenta = 20,
			LuminanceAdjustmentOrange = -27,
			LuminanceAdjustmentPurple = 20,
			LuminanceAdjustmentRed = 0,
			LuminanceAdjustmentYellow = 10,
			LuminanceNoiseReductionContrast = 0,
			LuminanceNoiseReductionDetail = 50,
			LuminanceSmoothing = 0,
			ParametricDarks = 0,
			ParametricHighlightSplit = 75,
			ParametricHighlights = 0,
			ParametricLights = 0,
			ParametricMidtoneSplit = 60,
			ParametricShadowSplit = 14,
			ParametricShadows = 0,
			PostCropVignetteAmount = 0,
			PostCropVignetteFeather = 50,
			PostCropVignetteHighlightContrast = 0,
			PostCropVignetteMidpoint = 50,
			PostCropVignetteRoundness = 0,
			PostCropVignetteStyle = 1,
			ProcessVersion = "6.7",
			RedHue = 20,
			RedSaturation = 20,
			Saturation = -15,
			SaturationAdjustmentAqua = 0,
			SaturationAdjustmentBlue = -72,
			SaturationAdjustmentGreen = -39,
			SaturationAdjustmentMagenta = -100,
			SaturationAdjustmentOrange = -2,
			SaturationAdjustmentPurple = -100,
			SaturationAdjustmentRed = 0,
			SaturationAdjustmentYellow = -100,
			ShadowTint = -2,
			Shadows2012 = 100,
			SharpenDetail = 25,
			SharpenEdgeMasking = 0,
			SharpenRadius = 1,
			Sharpness = 54,
			SplitToningBalance = 0,
			SplitToningHighlightHue = 0,
			SplitToningHighlightSaturation = 0,
			SplitToningShadowHue = 0,
			SplitToningShadowSaturation = 0,
			Temperature = 6024,
			Tint = 14,
			ToneCurveName2012 = "Custom",
			ToneCurvePV2012 = {
				3,
				55,
				37,
				54,
				77,
				73,
				131,
				126,
				187,
				183,
				255,
				250,
			},
			ToneCurvePV2012Blue = {
				0,
				0,
				21,
				13,
				80,
				70,
				119,
				122,
				183,
				197,
				255,
				255,
			},
			ToneCurvePV2012Green = {
				0,
				0,
				27,
				11,
				120,
				122,
				181,
				196,
				255,
				255,
			},
			ToneCurvePV2012Red = {
				0,
				0,
				31,
				7,
				72,
				51,
				117,
				123,
				179,
				197,
				255,
				255,
			},
			Vibrance = 0,
			VignetteAmount = 0,
			VignetteMidpoint = 50,
			WhiteBalance = "Custom",
			Whites2012 = -45,
		},
		uuid = "B344F060-419C-4CAF-AB82-095AAC2325FF",
	},
	version = 0,
}
