20 Preset/Rover Style/【1】LRtemplate Lightroom bản cũ/TONE/Rover 02.lrtemplate
s = {
	id = "5A3816FD-18FE-4C22-B1AF-E0FA6C55E837",
	internalName = "Rover 02",
	title = "Rover 02",
	type = "Develop",
	value = {
		settings = {
			AutoLateralCA = 0,
			Blacks2012 = 28,
			BlueHue = -12,
			BlueSaturation = -14,
			CameraProfile = "Adobe Standard",
			ChromaticAberrationB = 0,
			ChromaticAberrationR = 0,
			Clarity2012 = 3,
			ColorNoiseReduction = 25,
			ColorNoiseReductionDetail = 50,
			ColorNoiseReductionSmoothness = 50,
			Contrast2012 = -30,
			ConvertToGrayscale = false,
			CropConstrainToWarp = 0,
			Defringe = 0,
			DefringeGreenAmount = 0,
			DefringeGreenHueHi = 60,
			DefringeGreenHueLo = 40,
			DefringePurpleAmount = 0,
			DefringePurpleHueHi = 70,
			DefringePurpleHueLo = 30,
			Dehaze = 0,
			EnableCalibration = true,
			EnableCircularGradientBasedCorrections = true,
			EnableColorAdjustments = true,
			EnableDetail = true,
			EnableEffects = true,
			EnableGradientBasedCorrections = true,
			EnableLensCorrections = true,
			EnableSplitToning = true,
			EnableTransform = true,
			GrainAmount = 26,
			GrainFrequency = 45,
			GrainSize = 37,
			GreenHue = 48,
			GreenSaturation = 8,
			Highlights2012 = -50,
			HueAdjustmentAqua = 5,
			HueAdjustmentBlue = -2,
			HueAdjustmentGreen = -1,
			HueAdjustmentMagenta = -3,
			HueAdjustmentOrange = 5,
			HueAdjustmentPurple = 0,
			HueAdjustmentRed = 8,
			HueAdjustmentYellow = 7,
			LensManualDistortionAmount = 0,
			LensProfileEnable = 0,
			LensProfileSetup = "LensDefaults",
			LuminanceAdjustmentAqua = 1,
			LuminanceAdjustmentBlue = -16,
			LuminanceAdjustmentGreen = 0,
			LuminanceAdjustmentMagenta = 1,
			LuminanceAdjustmentOrange = 6,
			LuminanceAdjustmentPurple = 1,
			LuminanceAdjustmentRed = -15,
			LuminanceAdjustmentYellow = 12,
			LuminanceNoiseReductionContrast = 0,
			LuminanceNoiseReductionDetail = 50,
			LuminanceSmoothing = 0,
			ParametricDarks = 0,
			ParametricHighlightSplit = 75,
			ParametricHighlights = 0,
			ParametricLights = 0,
			ParametricMidtoneSplit = 50,
			ParametricShadowSplit = 25,
			ParametricShadows = 0,
			PerspectiveAspect = 0,
			PerspectiveHorizontal = 0,
			PerspectiveRotate = 0,
			PerspectiveScale = 100,
			PerspectiveUpright = 0,
			PerspectiveVertical = 0,
			PerspectiveX = 0,
			PerspectiveY = 0,
			PostCropVignetteAmount = 0,
			PostCropVignetteFeather = 50,
			PostCropVignetteHighlightContrast = 0,
			PostCropVignetteMidpoint = 50,
			PostCropVignetteRoundness = 0,
			PostCropVignetteStyle = 1,
			ProcessVersion = "6.7",
			RedHue = 28,
			RedSaturation = -10,
			Saturation = -43,
			SaturationAdjustmentAqua = -34,
			SaturationAdjustmentBlue = -27,
			SaturationAdjustmentGreen = -50,
			SaturationAdjustmentMagenta = -15,
			SaturationAdjustmentOrange = 40,
			SaturationAdjustmentPurple = -22,
			SaturationAdjustmentRed = 29,
			SaturationAdjustmentYellow = -67,
			ShadowTint = 0,
			Shadows2012 = 2,
			SharpenDetail = 25,
			SharpenEdgeMasking = 0,
			SharpenRadius = 1,
			Sharpness = 30,
			SplitToningBalance = 0,
			SplitToningHighlightHue = 52,
			SplitToningHighlightSaturation = 6,
			SplitToningShadowHue = 39,
			SplitToningShadowSaturation = 10,
			ToneCurveName2012 = "Custom",
			ToneCurvePV2012 = {
				0,
				22,
				37,
				42,
				73,
				74,
				171,
				177,
				255,
				226,
			},
			ToneCurvePV2012Blue = {
				0,
				0,
				42,
				18,
				81,
				65,
				120,
				123,
				180,
				201,
				255,
				255,
			},
			ToneCurvePV2012Green = {
				0,
				0,
				45,
				16,
				81,
				61,
				118,
				124,
				180,
				197,
				255,
				255,
			},
			ToneCurvePV2012Red = {
				0,
				0,
				45,
				16,
				83,
				62,
				118,
				124,
				179,
				195,
				255,
				255,
			},
			UprightCenterMode = 0,
			UprightCenterNormX = 0.5,
			UprightCenterNormY = 0.5,
			UprightFocalLength35mm = 35,
			UprightFocalMode = 0,
			UprightFourSegmentsCount = 0,
			UprightPreview = false,
			UprightTransformCount = 6,
			UprightTransform_5 = "1.000000000,0.000000000,0.000000000,0.000000000,1.000000000,0.000000000,0.000000000,0.000000000,1.000000000",
			UprightVersion = 151388160,
			Vibrance = -7,
			VignetteAmount = 0,
			VignetteMidpoint = 50,
			Whites2012 = -37,
			orientation = "AB",
		},
		uuid = "CD69A22A-8590-4465-A119-5514AA8F74EE",
	},
	version = 0,
}
