20 Preset/Dark Style/【1】LRtemplate Lightroom bản cũ/19Tones  (2)/19Tones - Lamba.lrtemplate
s = {
	id = "EFDB8C5B-3E51-41D5-ABA0-4363A46CA411",
	internalName = "19Tones - Lamba",
	title = "19Tones - Lamba",
	type = "Develop",
	value = {
		settings = {
			AutoLateralCA = 0,
			Blacks2012 = -25,
			BlueHue = -5,
			BlueSaturation = 15,
			CameraProfile = "Adobe Standard",
			ChromaticAberrationB = 0,
			ChromaticAberrationR = 0,
			Clarity2012 = 22,
			ColorNoiseReduction = 25,
			ColorNoiseReductionDetail = 50,
			ColorNoiseReductionSmoothness = 50,
			Contrast2012 = 43,
			ConvertToGrayscale = false,
			Defringe = 0,
			DefringeGreenAmount = 0,
			DefringeGreenHueHi = 60,
			DefringeGreenHueLo = 40,
			DefringePurpleAmount = 0,
			DefringePurpleHueHi = 70,
			DefringePurpleHueLo = 30,
			EnableCalibration = true,
			EnableColorAdjustments = true,
			EnableDetail = true,
			EnableEffects = true,
			EnableLensCorrections = true,
			EnableSplitToning = true,
			Exposure2012 = 0.62,
			GrainAmount = 0,
			GrainFrequency = 45,
			GrainSize = 40,
			GreenHue = 35,
			GreenSaturation = 0,
			Highlights2012 = -100,
			HueAdjustmentAqua = 10,
			HueAdjustmentBlue = 7,
			HueAdjustmentGreen = 10,
			HueAdjustmentMagenta = 100,
			HueAdjustmentOrange = 0,
			HueAdjustmentPurple = 2,
			HueAdjustmentRed = 0,
			HueAdjustmentYellow = -23,
			LuminanceAdjustmentAqua = 10,
			LuminanceAdjustmentBlue = 0,
			LuminanceAdjustmentGreen = 0,
			LuminanceAdjustmentMagenta = -17,
			LuminanceAdjustmentOrange = 9,
			LuminanceAdjustmentPurple = 40,
			LuminanceAdjustmentRed = -60,
			LuminanceAdjustmentYellow = 6,
			LuminanceNoiseReductionContrast = 0,
			LuminanceNoiseReductionDetail = 50,
			LuminanceSmoothing = 0,
			ParametricDarks = 0,
			ParametricHighlightSplit = 75,
			ParametricHighlights = 0,
			ParametricLights = 0,
			ParametricMidtoneSplit = 60,
			ParametricShadowSplit = 14,
			ParametricShadows = 0,
			PostCropVignetteAmount = 0,
			PostCropVignetteFeather = 50,
			PostCropVignetteHighlightContrast = 0,
			PostCropVignetteMidpoint = 50,
			PostCropVignetteRoundness = 0,
			PostCropVignetteStyle = 1,
			ProcessVersion = "6.7",
			RedHue = 20,
			RedSaturation = 20,
			Saturation = -15,
			SaturationAdjustmentAqua = 30,
			SaturationAdjustmentBlue = -42,
			SaturationAdjustmentGreen = -100,
			SaturationAdjustmentMagenta = -100,
			SaturationAdjustmentOrange = 32,
			SaturationAdjustmentPurple = -100,
			SaturationAdjustmentRed = -100,
			SaturationAdjustmentYellow = -100,
			ShadowTint = -2,
			Shadows2012 = 100,
			SharpenDetail = 25,
			SharpenEdgeMasking = 0,
			SharpenRadius = 1,
			Sharpness = 80,
			SplitToningBalance = 0,
			SplitToningHighlightHue = 0,
			SplitToningHighlightSaturation = 0,
			SplitToningShadowHue = 0,
			SplitToningShadowSaturation = 0,
			Temperature = 7444,
			Tint = -2,
			ToneCurveName2012 = "Custom",
			ToneCurvePV2012 = {
				3,
				35,
				36,
				42,
				77,
				66,
				131,
				127,
				185,
				188,
				255,
				250,
			},
			ToneCurvePV2012Blue = {
				0,
				0,
				21,
				13,
				80,
				70,
				119,
				122,
				183,
				197,
				255,
				255,
			},
			ToneCurvePV2012Green = {
				0,
				0,
				27,
				11,
				118,
				119,
				181,
				196,
				255,
				255,
			},
			ToneCurvePV2012Red = {
				0,
				0,
				31,
				7,
				72,
				51,
				118,
				122,
				179,
				197,
				255,
				255,
			},
			Vibrance = 0,
			VignetteAmount = 0,
			VignetteMidpoint = 50,
			WhiteBalance = "Custom",
			Whites2012 = -100,
		},
		uuid = "6D1B0EB6-321A-455A-8D44-39EE29675848",
	},
	version = 0,
}
