20 Preset/Dark Style/【1】LRtemplate Lightroom bản cũ/19Tones  (2)/19Tones - Train and Bridge.lrtemplate
s = {
	id = "8E891D35-8AE0-425E-A804-7BB273AFCD57",
	internalName = "19Tones - Train and Bridge",
	title = "19Tones - Train and Bridge",
	type = "Develop",
	value = {
		settings = {
			AutoLateralCA = 0,
			Blacks2012 = 22,
			BlueHue = -5,
			BlueSaturation = 15,
			CameraProfile = "Adobe Standard",
			ChromaticAberrationB = 0,
			ChromaticAberrationR = 0,
			Clarity2012 = 1,
			ColorNoiseReduction = 25,
			ColorNoiseReductionDetail = 50,
			ColorNoiseReductionSmoothness = 50,
			Contrast2012 = 43,
			ConvertToGrayscale = false,
			Defringe = 0,
			DefringeGreenAmount = 0,
			DefringeGreenHueHi = 60,
			DefringeGreenHueLo = 40,
			DefringePurpleAmount = 0,
			DefringePurpleHueHi = 70,
			DefringePurpleHueLo = 30,
			EnableCalibration = true,
			EnableColorAdjustments = true,
			EnableDetail = true,
			EnableEffects = true,
			EnableLensCorrections = true,
			EnableSplitToning = true,
			Exposure2012 = -0.8,
			GrainAmount = 0,
			GrainFrequency = 45,
			GrainSize = 40,
			GreenHue = 35,
			GreenSaturation = 0,
			Highlights2012 = -100,
			HueAdjustmentAqua = 10,
			HueAdjustmentBlue = -33,
			HueAdjustmentGreen = 10,
			HueAdjustmentMagenta = 100,
			HueAdjustmentOrange = 0,
			HueAdjustmentPurple = -100,
			HueAdjustmentRed = 22,
			HueAdjustmentYellow = -50,
			LuminanceAdjustmentAqua = 10,
			LuminanceAdjustmentBlue = -23,
			LuminanceAdjustmentGreen = -5,
			LuminanceAdjustmentMagenta = -4,
			LuminanceAdjustmentOrange = -13,
			LuminanceAdjustmentPurple = -6,
			LuminanceAdjustmentRed = 3,
			LuminanceAdjustmentYellow = -54,
			LuminanceNoiseReductionContrast = 0,
			LuminanceNoiseReductionDetail = 50,
			LuminanceSmoothing = 0,
			ParametricDarks = 0,
			ParametricHighlightSplit = 75,
			ParametricHighlights = 0,
			ParametricLights = 0,
			ParametricMidtoneSplit = 60,
			ParametricShadowSplit = 14,
			ParametricShadows = 0,
			PostCropVignetteAmount = 0,
			PostCropVignetteFeather = 50,
			PostCropVignetteHighlightContrast = 0,
			PostCropVignetteMidpoint = 50,
			PostCropVignetteRoundness = 0,
			PostCropVignetteStyle = 1,
			ProcessVersion = "6.7",
			RedHue = 20,
			RedSaturation = 20,
			Saturation = -15,
			SaturationAdjustmentAqua = -50,
			SaturationAdjustmentBlue = -100,
			SaturationAdjustmentGreen = -50,
			SaturationAdjustmentMagenta = -49,
			SaturationAdjustmentOrange = -21,
			SaturationAdjustmentPurple = -100,
			SaturationAdjustmentRed = 18,
			SaturationAdjustmentYellow = -100,
			ShadowTint = -2,
			Shadows2012 = 55,
			SharpenDetail = 25,
			SharpenEdgeMasking = 0,
			SharpenRadius = 1,
			Sharpness = 61,
			SplitToningBalance = 0,
			SplitToningHighlightHue = 0,
			SplitToningHighlightSaturation = 0,
			SplitToningShadowHue = 0,
			SplitToningShadowSaturation = 0,
			Temperature = 11345,
			Tint = 6,
			ToneCurveName2012 = "Custom",
			ToneCurvePV2012 = {
				0,
				55,
				35,
				58,
				77,
				74,
				131,
				127,
				185,
				188,
				255,
				250,
			},
			ToneCurvePV2012Blue = {
				0,
				0,
				21,
				13,
				80,
				70,
				119,
				122,
				183,
				197,
				255,
				255,
			},
			ToneCurvePV2012Green = {
				0,
				0,
				27,
				11,
				120,
				122,
				181,
				196,
				255,
				255,
			},
			ToneCurvePV2012Red = {
				0,
				0,
				31,
				7,
				72,
				51,
				117,
				123,
				179,
				197,
				255,
				255,
			},
			Vibrance = 0,
			VignetteAmount = 0,
			VignetteMidpoint = 50,
			WhiteBalance = "Custom",
			Whites2012 = -45,
		},
		uuid = "5BE1DD37-294D-4C7D-9A79-CC6421514831",
	},
	version = 0,
}
