20 Preset/Ociden Style/【2】XMP cho Photoshop - Lightroom CC/Ocident style 1/Residuum_9.xmp
<x:xmpmeta xmlns:x="adobe:ns:meta/" x:xmptk="Adobe XMP Core 5.6-c140 79.160451, 2017/05/06-01:08:21        ">
 <rdf:RDF xmlns:rdf="http://www.w3.org/1999/02/22-rdf-syntax-ns#">
  <rdf:Description rdf:about=""
    xmlns:crs="http://ns.adobe.com/camera-raw-settings/1.0/"
   crs:PresetType="Normal"
   crs:Cluster=""
   crs:UUID="012099B26FCC6C708F3D040EF894C444"
   crs:SupportsAmount="False"
   crs:SupportsColor="True"
   crs:SupportsMonochrome="True"
   crs:SupportsHighDynamicRange="True"
   crs:SupportsNormalDynamicRange="True"
   crs:SupportsSceneReferred="True"
   crs:SupportsOutputReferred="True"
   crs:CameraModelRestriction=""
   crs:Copyright=""
   crs:ContactInfo=""
   crs:Version="12.0"
   crs:ProcessVersion="10.0"
   crs:Saturation="-31"
   crs:Sharpness="34"
   crs:LuminanceSmoothing="0"
   crs:ColorNoiseReduction="25"
   crs:VignetteAmount="+9"
   crs:VignetteMidpoint="50"
   crs:ShadowTint="+43"
   crs:RedHue="+35"
   crs:RedSaturation="+23"
   crs:GreenHue="+78"
   crs:GreenSaturation="+54"
   crs:BlueHue="-6"
   crs:BlueSaturation="-17"
   crs:Vibrance="0"
   crs:HueAdjustmentRed="+2"
   crs:HueAdjustmentOrange="-12"
   crs:HueAdjustmentYellow="+10"
   crs:HueAdjustmentGreen="-51"
   crs:HueAdjustmentAqua="-23"
   crs:HueAdjustmentBlue="-51"
   crs:HueAdjustmentPurple="0"
   crs:HueAdjustmentMagenta="0"
   crs:SaturationAdjustmentRed="+41"
   crs:SaturationAdjustmentOrange="+19"
   crs:SaturationAdjustmentYellow="+10"
   crs:SaturationAdjustmentGreen="-36"
   crs:SaturationAdjustmentAqua="+54"
   crs:SaturationAdjustmentBlue="+15"
   crs:SaturationAdjustmentPurple="-11"
   crs:SaturationAdjustmentMagenta="+20"
   crs:LuminanceAdjustmentRed="+16"
   crs:LuminanceAdjustmentOrange="-1"
   crs:LuminanceAdjustmentYellow="+63"
   crs:LuminanceAdjustmentGreen="+20"
   crs:LuminanceAdjustmentAqua="+44"
   crs:LuminanceAdjustmentBlue="-6"
   crs:LuminanceAdjustmentPurple="0"
   crs:LuminanceAdjustmentMagenta="0"
   crs:SplitToningShadowHue="41"
   crs:SplitToningShadowSaturation="34"
   crs:SplitToningHighlightHue="196"
   crs:SplitToningHighlightSaturation="19"
   crs:SplitToningBalance="0"
   crs:ParametricShadows="-6"
   crs:ParametricDarks="+12"
   crs:ParametricLights="0"
   crs:ParametricHighlights="0"
   crs:ParametricShadowSplit="25"
   crs:ParametricMidtoneSplit="50"
   crs:ParametricHighlightSplit="75"
   crs:SharpenRadius="+1.0"
   crs:SharpenDetail="25"
   crs:SharpenEdgeMasking="0"
   crs:GrainAmount="41"
   crs:GrainSize="30"
   crs:GrainFrequency="67"
   crs:ColorNoiseReductionDetail="50"
   crs:ColorNoiseReductionSmoothness="50"
   crs:LensProfileEnable="0"
   crs:LensManualDistortionAmount="0"
   crs:PerspectiveVertical="0"
   crs:PerspectiveHorizontal="0"
   crs:PerspectiveRotate="0.0"
   crs:PerspectiveScale="100"
   crs:PerspectiveAspect="0"
   crs:PerspectiveUpright="0"
   crs:PerspectiveX="0.00"
   crs:PerspectiveY="0.00"
   crs:AutoLateralCA="0"
   crs:Exposure2012="-0.35"
   crs:Contrast2012="+4"
   crs:Highlights2012="+15"
   crs:Shadows2012="-13"
   crs:Whites2012="+15"
   crs:Blacks2012="+59"
   crs:Clarity2012="0"
   crs:DefringePurpleAmount="5"
   crs:DefringePurpleHueLo="30"
   crs:DefringePurpleHueHi="70"
   crs:DefringeGreenAmount="0"
   crs:DefringeGreenHueLo="40"
   crs:DefringeGreenHueHi="60"
   crs:Dehaze="0"
   crs:ConvertToGrayscale="False"
   crs:ToneCurveName2012="Custom"
   crs:CameraProfile="Adobe Standard"
   crs:LensProfileSetup="LensDefaults"
   crs:HasSettings="True">
   <crs:Name>
    <rdf:Alt>
     <rdf:li xml:lang="x-default">Residuum_9</rdf:li>
    </rdf:Alt>
   </crs:Name>
   <crs:ShortName>
    <rdf:Alt>
     <rdf:li xml:lang="x-default"/>
    </rdf:Alt>
   </crs:ShortName>
   <crs:SortName>
    <rdf:Alt>
     <rdf:li xml:lang="x-default"/>
    </rdf:Alt>
   </crs:SortName>
   <crs:Group>
    <rdf:Alt>
     <rdf:li xml:lang="x-default">Ocident style 1</rdf:li>
    </rdf:Alt>
   </crs:Group>
   <crs:Description>
    <rdf:Alt>
     <rdf:li xml:lang="x-default"/>
    </rdf:Alt>
   </crs:Description>
   <crs:ToneCurvePV2012>
    <rdf:Seq>
     <rdf:li>0, 10</rdf:li>
     <rdf:li>52, 69</rdf:li>
     <rdf:li>106, 109</rdf:li>
     <rdf:li>177, 163</rdf:li>
     <rdf:li>255, 255</rdf:li>
    </rdf:Seq>
   </crs:ToneCurvePV2012>
   <crs:ToneCurvePV2012Red>
    <rdf:Seq>
     <rdf:li>0, 0</rdf:li>
     <rdf:li>60, 15</rdf:li>
     <rdf:li>122, 117</rdf:li>
     <rdf:li>186, 196</rdf:li>
     <rdf:li>255, 255</rdf:li>
    </rdf:Seq>
   </crs:ToneCurvePV2012Red>
   <crs:ToneCurvePV2012Green>
    <rdf:Seq>
     <rdf:li>0, 0</rdf:li>
     <rdf:li>78, 49</rdf:li>
     <rdf:li>123, 126</rdf:li>
     <rdf:li>172, 185</rdf:li>
     <rdf:li>255, 255</rdf:li>
    </rdf:Seq>
   </crs:ToneCurvePV2012Green>
   <crs:ToneCurvePV2012Blue>
    <rdf:Seq>
     <rdf:li>0, 0</rdf:li>
     <rdf:li>39, 13</rdf:li>
     <rdf:li>87, 65</rdf:li>
     <rdf:li>123, 124</rdf:li>
     <rdf:li>183, 199</rdf:li>
     <rdf:li>255, 255</rdf:li>
    </rdf:Seq>
   </crs:ToneCurvePV2012Blue>
   <crs:Look
    crs:Name=""/>
  </rdf:Description>
 </rdf:RDF>
</x:xmpmeta>
