20 Preset/Ociden Style/【1】LRtemplate Lightroom bản cũ/Ocident style 4/TONE (2).lrtemplate
s = {
	id = "377AAFF0-359A-4501-99C4-969AF9E1CBAF",
	internalName = "Pictor 5 C",
	title = "Pictor 5 C",
	type = "Develop",
	value = {
		settings = {
			AutoLateralCA = 0,
			Blacks2012 = 25,
			ChromaticAberrationB = 0,
			ChromaticAberrationR = 0,
			Clarity2012 = 0,
			ColorNoiseReduction = 25,
			ColorNoiseReductionDetail = 50,
			ColorNoiseReductionSmoothness = 50,
			Contrast2012 = 0,
			ConvertToGrayscale = false,
			CropConstrainToWarp = 0,
			Defringe = 0,
			DefringeGreenAmount = 0,
			DefringeGreenHueHi = 60,
			DefringeGreenHueLo = 40,
			DefringePurpleAmount = 0,
			DefringePurpleHueHi = 70,
			DefringePurpleHueLo = 30,
			Dehaze = 0,
			EnableColorAdjustments = true,
			EnableDetail = true,
			EnableEffects = true,
			EnableLensCorrections = true,
			EnableSplitToning = true,
			GrainAmount = 35,
			GrainFrequency = 41,
			GrainSize = 33,
			Highlights2012 = -10,
			HueAdjustmentAqua = -28,
			HueAdjustmentBlue = -28,
			HueAdjustmentGreen = 100,
			HueAdjustmentMagenta = 0,
			HueAdjustmentOrange = 0,
			HueAdjustmentPurple = 20,
			HueAdjustmentRed = 8,
			HueAdjustmentYellow = 0,
			LensManualDistortionAmount = 0,
			LensProfileEnable = 0,
			LensProfileSetup = "LensDefaults",
			LuminanceAdjustmentAqua = 6,
			LuminanceAdjustmentBlue = -20,
			LuminanceAdjustmentGreen = 7,
			LuminanceAdjustmentMagenta = 10,
			LuminanceAdjustmentOrange = -21,
			LuminanceAdjustmentPurple = 20,
			LuminanceAdjustmentRed = -11,
			LuminanceAdjustmentYellow = 2,
			LuminanceNoiseReductionContrast = 0,
			LuminanceNoiseReductionDetail = 50,
			LuminanceSmoothing = 0,
			ParametricDarks = -35,
			ParametricHighlightSplit = 75,
			ParametricHighlights = -20,
			ParametricLights = 20,
			ParametricMidtoneSplit = 35,
			ParametricShadowSplit = 15,
			ParametricShadows = 0,
			ProcessVersion = "6.7",
			Saturation = 5,
			SaturationAdjustmentAqua = -13,
			SaturationAdjustmentBlue = -1,
			SaturationAdjustmentGreen = -69,
			SaturationAdjustmentMagenta = 0,
			SaturationAdjustmentOrange = 0,
			SaturationAdjustmentPurple = 0,
			SaturationAdjustmentRed = -10,
			SaturationAdjustmentYellow = -20,
			Shadows2012 = 10,
			SharpenDetail = 25,
			SharpenEdgeMasking = 0,
			SharpenRadius = 1,
			Sharpness = 25,
			SplitToningBalance = 0,
			SplitToningHighlightHue = 0,
			SplitToningHighlightSaturation = 0,
			SplitToningShadowHue = 0,
			SplitToningShadowSaturation = 0,
			ToneCurveName2012 = "Custom",
			ToneCurvePV2012 = {
				20,
				18,
				82,
				81,
				149,
				143,
				201,
				201,
				255,
				255,
			},
			ToneCurvePV2012Blue = {
				0,
				0,
				109,
				126,
				179,
				195,
				255,
				255,
			},
			ToneCurvePV2012Green = {
				0,
				0,
				115,
				133,
				181,
				196,
				255,
				255,
			},
			ToneCurvePV2012Red = {
				0,
				0,
				116,
				133,
				179,
				195,
				255,
				255,
			},
			Vibrance = 0,
			VignetteAmount = 0,
			VignetteMidpoint = 50,
			Whites2012 = -10,
		},
		uuid = "15F5CF39-09A3-405A-A541-F8D3392B679A",
	},
	version = 0,
}
