20 Preset/Dark Style/【3】LUT video cho PR-AE-FCPX/19Tones (4)/19Tones - Walker _ c.cube
# Created by Adobe Lightroom plugin Export LUT (1.24.0)
# www.johnrellis.com/lightroom/exportlut.htm
# Preset: 19Tones - Walker / c
# Color profile: E:\lut插件\exportlut.1.24\exportlut.lrplugin\color profiles\Rec709gamma2.4.icc
LUT_3D_SIZE 8
DOMAIN_MIN 0.000000 0.000000 0.000000
DOMAIN_MAX 0.903226 0.903226 0.903226
0.105837 0.187747 0.211307
0.095033 0.186770 0.210086
0.057496 0.179477 0.203433
0.180941 0.174960 0.198520
0.363195 0.164889 0.196139
0.669490 0.111849 0.205905
0.920684 0.198917 0.245670
1.000000 0.358831 0.332128
0.099733 0.184024 0.207858
0.098573 0.183200 0.207034
0.056214 0.180941 0.206912
0.176120 0.179904 0.199008
0.343542 0.174441 0.194369
0.621241 0.143587 0.199924
0.867582 0.179232 0.224399
1.000000 0.325170 0.295567
0.082521 0.174746 0.199069
0.083589 0.174716 0.199222
0.085206 0.175479 0.199954
0.248966 0.216220 0.190616
0.483833 0.230564 0.179171
0.762020 0.249668 0.179141
0.958831 0.336339 0.223606
1.000000 0.441840 0.326696
0.137545 0.208988 0.230900
0.135897 0.207828 0.229892
0.140291 0.210819 0.232578
0.188174 0.243046 0.262150
0.594324 0.403540 0.225193
0.925475 0.525322 0.000000
1.000000 0.523369 0.176455
1.000000 0.554864 0.314153
0.298344 0.317906 0.332433
0.295811 0.316167 0.330846
0.295628 0.315984 0.330602
0.320226 0.332952 0.346899
0.388464 0.380560 0.393317
0.715602 0.552026 0.384863
0.984253 0.673487 0.210697
1.000000 0.682948 0.262760
0.524987 0.484077 0.494942
0.545098 0.500999 0.511437
0.541650 0.498054 0.508568
0.536767 0.493996 0.504601
0.569512 0.522454 0.532219
0.639216 0.589166 0.596185
0.822416 0.737209 0.651057
0.996551 0.810513 0.585626
0.725734 0.684352 0.686610
0.728573 0.687709 0.689815
0.724178 0.682490 0.684840
0.719844 0.677455 0.680049
0.709682 0.665675 0.668879
0.745602 0.708003 0.709102
0.786313 0.757748 0.756619
0.868589 0.834806 0.802396
0.851621 0.836301 0.833280
0.851377 0.835996 0.832975
0.851774 0.836423 0.833402
0.853971 0.839078 0.835996
0.832853 0.814145 0.811460
0.843534 0.826810 0.823880
0.866819 0.853910 0.850767
0.884764 0.874449 0.871336
0.102815 0.185550 0.208713
0.100435 0.185214 0.208652
0.060365 0.178653 0.202029
0.145083 0.172763 0.198611
0.295232 0.170016 0.201663
0.547662 0.144717 0.213809
0.808621 0.137514 0.238560
0.977447 0.276158 0.296635
0.101106 0.183963 0.207736
0.094087 0.180636 0.204685
0.075563 0.176486 0.200992
0.157870 0.174807 0.198062
0.307530 0.174533 0.200198
0.552911 0.155306 0.210361
0.790036 0.150759 0.229923
0.960357 0.264042 0.278111
0.084199 0.174868 0.199344
0.084779 0.175326 0.199710
0.087434 0.176364 0.200809
0.239506 0.209995 0.191867
0.412268 0.213931 0.191379
0.659297 0.217472 0.197726
0.864591 0.261357 0.220737
1.000000 0.368475 0.288548
0.131228 0.204623 0.226841
0.130556 0.204288 0.226535
0.134707 0.206882 0.228977
0.158785 0.222995 0.243839
0.462165 0.327306 0.214633
0.816373 0.425696 0.100618
0.938842 0.441535 0.168002
1.000000 0.489967 0.265263
0.287938 0.310826 0.325658
0.282689 0.307164 0.322210
0.276585 0.303014 0.318303
0.284916 0.308721 0.323705
0.333257 0.341833 0.355566
0.661036 0.499458 0.343481
0.961364 0.638392 0.167453
1.000000 0.653376 0.235508
0.493202 0.458442 0.469856
0.493874 0.458961 0.470375
0.492927 0.458228 0.469642
0.495003 0.459846 0.471290
0.532341 0.490242 0.500938
0.615808 0.565850 0.573907
0.810788 0.717922 0.626001
0.992889 0.795377 0.553216
0.700252 0.654902 0.658656
0.695277 0.649317 0.653376
0.689723 0.643030 0.647395
0.688472 0.641688 0.646113
0.686610 0.639582 0.644129
0.724269 0.682612 0.684962
0.764065 0.730404 0.730434
0.854368 0.814420 0.777066
0.838621 0.821042 0.818204
0.840787 0.823575 0.820737
0.840665 0.823453 0.820584
0.843198 0.826413 0.823484
0.844114 0.827512 0.824582
0.846983 0.830869 0.827909
0.864744 0.851499 0.848386
0.882658 0.872068 0.868956
0.090669 0.176791 0.199649
0.087861 0.176425 0.199557
0.081025 0.174960 0.198917
0.150729 0.176974 0.210513
0.289525 0.182040 0.229618
0.511223 0.183963 0.263462
0.793851 0.199832 0.311894
0.969543 0.337804 0.390356
0.086152 0.175143 0.199008
0.083497 0.174899 0.198917
0.083833 0.174533 0.199374
0.152132 0.179385 0.211398
0.281743 0.185122 0.227787
0.511101 0.186587 0.258640
0.778470 0.197086 0.298619
0.959167 0.323033 0.370397
0.082063 0.176028 0.200320
0.084871 0.177401 0.201541
0.102113 0.185702 0.209354
0.195804 0.195895 0.217777
0.376501 0.210513 0.234836
0.630671 0.220798 0.260227
0.845457 0.273960 0.300145
0.986053 0.390478 0.375158
0.146700 0.215061 0.236484
0.154238 0.220157 0.241245
0.176089 0.234745 0.254643
0.201358 0.251926 0.270542
0.568627 0.365454 0.235996
0.803891 0.402747 0.237400
0.933928 0.443824 0.293370
1.000000 0.511009 0.380499
0.316655 0.330419 0.344488
0.322210 0.334203 0.348180
0.330602 0.340093 0.353826
0.333288 0.341894 0.355627
0.396124 0.386053 0.398749
0.720058 0.543084 0.380835
0.977386 0.648951 0.248569
1.000000 0.656275 0.372625
0.527672 0.486275 0.497108
0.530724 0.488808 0.499611
0.527214 0.485939 0.496773
0.522820 0.482307 0.493233
0.545037 0.500938 0.511376
0.626764 0.576623 0.584192
0.824735 0.729213 0.634150
0.996643 0.801724 0.582238
0.724422 0.682795 0.685145
0.720638 0.678340 0.680903
0.712245 0.668666 0.671717
0.706264 0.661707 0.665126
0.701198 0.655970 0.659663
0.734981 0.695247 0.696956
0.780148 0.750149 0.749355
0.872160 0.833768 0.795346
0.844297 0.827726 0.824796
0.842863 0.826017 0.823117
0.842283 0.825345 0.822446
0.847471 0.831418 0.828458
0.847929 0.831937 0.828977
0.851621 0.836301 0.833280
0.870451 0.858091 0.854948
0.888212 0.878355 0.875242
0.078584 0.175051 0.202243
0.080537 0.175479 0.203433
0.098085 0.181094 0.208469
0.131106 0.190768 0.222110
0.301427 0.221530 0.281224
0.547875 0.235538 0.341741
0.748898 0.257450 0.389105
0.896880 0.346624 0.453651
0.080995 0.177646 0.206424
0.084749 0.178470 0.207919
0.106844 0.186648 0.214359
0.143313 0.198672 0.229831
0.319615 0.232181 0.290959
0.553033 0.243717 0.344427
0.744747 0.263371 0.386542
0.891936 0.354345 0.452979
0.076936 0.185275 0.212009
0.083528 0.187472 0.214542
0.121309 0.200504 0.229252
0.171206 0.221653 0.248753
0.369512 0.264408 0.315862
0.594049 0.283513 0.363256
0.787533 0.334569 0.419776
0.935698 0.441688 0.497078
0.134951 0.221012 0.241306
0.141909 0.224643 0.244755
0.174777 0.243412 0.262089
0.257298 0.290013 0.305943
0.456031 0.314977 0.330694
0.675593 0.349371 0.366033
0.855802 0.417395 0.420294
0.973358 0.517082 0.500420
0.356634 0.358190 0.371435
0.360235 0.360693 0.373907
0.387976 0.380194 0.392981
0.440528 0.418311 0.430426
0.484657 0.451759 0.463325
0.800259 0.596674 0.445747
0.948638 0.633204 0.459754
1.000000 0.664210 0.535302
0.577203 0.529442 0.538964
0.596399 0.547234 0.556054
0.606897 0.557183 0.565606
0.620264 0.570184 0.578058
0.614740 0.564782 0.572869
0.674617 0.626459 0.631678
0.857633 0.760372 0.666163
1.000000 0.811551 0.628229
0.741909 0.703548 0.704860
0.744900 0.707179 0.708278
0.752621 0.716457 0.717159
0.753201 0.717189 0.717830
0.747097 0.709804 0.710811
0.762020 0.727901 0.728084
0.799710 0.774197 0.772488
0.892729 0.852384 0.809964
0.859953 0.846036 0.842924
0.860441 0.846555 0.843473
0.861021 0.847227 0.844114
0.860838 0.847013 0.843900
0.859709 0.845701 0.842618
0.859068 0.844968 0.841886
0.877531 0.866209 0.863066
0.897368 0.888670 0.885679
0.093904 0.187869 0.226169
0.101411 0.190951 0.229740
0.132387 0.203586 0.241398
0.199741 0.244694 0.271061
0.282170 0.265385 0.312444
0.563867 0.335698 0.441901
0.781918 0.414618 0.539391
0.903471 0.495705 0.600458
0.101595 0.194858 0.233646
0.109163 0.197757 0.237613
0.143130 0.211734 0.250156
0.212497 0.253056 0.279637
0.299474 0.277836 0.323980
0.576226 0.349737 0.452125
0.782864 0.423072 0.542168
0.902434 0.499580 0.600183
0.114992 0.212161 0.247349
0.125399 0.216587 0.252598
0.157595 0.228489 0.267002
0.246860 0.276158 0.304387
0.339544 0.312963 0.352514
0.584680 0.379950 0.463783
0.772519 0.434730 0.535424
0.891264 0.495460 0.584314
0.123354 0.233524 0.259892
0.128542 0.236484 0.262852
0.155032 0.250095 0.277104
0.287755 0.313939 0.344579
0.429084 0.389899 0.417731
0.643458 0.456123 0.513878
0.783352 0.480293 0.546532
0.894224 0.525048 0.583154
0.261143 0.322148 0.334569
0.270970 0.328130 0.340246
0.309667 0.350072 0.361730
0.389654 0.396918 0.408057
0.509667 0.471565 0.482734
0.687678 0.500298 0.508751
0.838315 0.551446 0.551141
0.944671 0.620569 0.608576
0.540581 0.497169 0.507713
0.545983 0.501762 0.512139
0.555718 0.510216 0.520378
0.585016 0.536584 0.545861
0.623316 0.573236 0.580957
0.678431 0.630610 0.635584
0.886778 0.762142 0.664881
0.988922 0.789395 0.680049
0.735653 0.696071 0.697719
0.734340 0.694514 0.696254
0.736477 0.697078 0.698695
0.753780 0.717922 0.718502
0.765805 0.732509 0.732448
0.761959 0.727871 0.727993
0.801419 0.776242 0.774472
0.907439 0.854429 0.800931
0.843626 0.826902 0.824002
0.844083 0.827420 0.824491
0.846952 0.830838 0.827878
0.860685 0.846830 0.843717
0.863706 0.850340 0.847227
0.862333 0.848753 0.845609
0.874418 0.862638 0.859495
0.895384 0.886442 0.883421
0.146822 0.229038 0.286870
0.157748 0.233951 0.292363
0.200015 0.252110 0.309453
0.296178 0.302617 0.352880
0.460395 0.427741 0.445716
0.566613 0.437598 0.511131
0.772122 0.543023 0.642634
0.894957 0.674434 0.744991
0.147219 0.230350 0.285039
0.154879 0.233066 0.288762
0.195987 0.250797 0.305882
0.287114 0.298192 0.346868
0.442939 0.414099 0.433021
0.547387 0.427008 0.496529
0.759121 0.531029 0.629511
0.889067 0.660853 0.733700
0.170626 0.254063 0.304936
0.178897 0.257267 0.309056
0.221286 0.275944 0.332403
0.324254 0.327672 0.377844
0.488991 0.446296 0.468757
0.588403 0.474250 0.533196
0.775998 0.576287 0.656306
0.890349 0.679225 0.741909
0.150179 0.265202 0.303044
0.164157 0.271336 0.310155
0.235477 0.307073 0.350347
0.373907 0.378119 0.430396
0.577783 0.519341 0.545830
0.670344 0.578454 0.615137
0.812070 0.666316 0.715175
0.898528 0.718868 0.763424
0.218509 0.322728 0.345953
0.224033 0.325505 0.348852
0.250217 0.338689 0.362768
0.305943 0.367620 0.393927
0.532341 0.494636 0.527337
0.681086 0.612451 0.632258
0.811154 0.685084 0.716152
0.892821 0.700710 0.734890
0.432441 0.459785 0.467506
0.446784 0.469856 0.477455
0.475532 0.487312 0.494820
0.532311 0.523827 0.531151
0.611536 0.580285 0.586542
0.717403 0.674617 0.677363
0.842191 0.712612 0.709438
0.930449 0.753658 0.744686
0.755215 0.719631 0.720150
0.759518 0.724880 0.725154
0.765408 0.732082 0.732052
0.776577 0.745754 0.745144
0.791958 0.764645 0.763272
0.805112 0.780758 0.778866
0.824765 0.804532 0.801999
0.943114 0.874601 0.820493
0.846891 0.830747 0.827787
0.846189 0.829923 0.826963
0.847990 0.832029 0.829038
0.855772 0.841123 0.838071
0.866056 0.853025 0.849882
0.874357 0.862608 0.859464
0.875883 0.864317 0.861173
0.900328 0.891936 0.888975
0.233280 0.293065 0.378058
0.248112 0.300267 0.386267
0.297887 0.322942 0.408453
0.404730 0.379217 0.459571
0.553582 0.483406 0.538659
0.674556 0.622126 0.631434
0.736110 0.608087 0.671931
0.848112 0.683803 0.755001
0.227115 0.289830 0.370123
0.239933 0.296391 0.378882
0.288304 0.318181 0.400427
0.387610 0.368994 0.446448
0.533745 0.467628 0.522759
0.657404 0.604700 0.614038
0.716274 0.586023 0.650935
0.835294 0.660243 0.736263
0.250645 0.313664 0.389380
0.260258 0.317815 0.394812
0.300633 0.335088 0.416388
0.404822 0.387945 0.464515
0.552087 0.486458 0.540856
0.682338 0.634424 0.639673
0.741176 0.628138 0.681392
0.850797 0.706050 0.765530
0.250462 0.334295 0.395239
0.264103 0.340154 0.402014
0.312505 0.361761 0.428779
0.414984 0.412451 0.487495
0.581353 0.520958 0.573968
0.721126 0.673335 0.681788
0.774960 0.691127 0.726131
0.865476 0.753841 0.795224
0.165896 0.309392 0.346960
0.167453 0.308507 0.346227
0.194888 0.319341 0.359350
0.333104 0.389471 0.439490
0.539696 0.506126 0.561944
0.721218 0.670069 0.685603
0.786557 0.723873 0.745510
0.878965 0.793973 0.820279
0.328191 0.428962 0.450935
0.333318 0.431525 0.453651
0.351690 0.440162 0.463172
0.387701 0.457527 0.482338
0.443702 0.483284 0.512016
0.700557 0.660853 0.684932
0.820279 0.784817 0.791836
0.896818 0.832151 0.845518
0.603296 0.619623 0.621485
0.609796 0.624659 0.626429
0.626154 0.636011 0.637598
0.659388 0.660731 0.661707
0.705531 0.696986 0.696956
0.764920 0.748440 0.746975
0.834134 0.815702 0.812985
0.915892 0.836149 0.830655
0.838346 0.825345 0.821592
0.840543 0.827481 0.823789
0.850828 0.837766 0.834287
0.864195 0.850889 0.847745
0.873503 0.861631 0.858457
0.885069 0.874784 0.871672
0.895384 0.886442 0.883391
0.910765 0.903563 0.900755
0.408972 0.420966 0.543938
0.423377 0.428626 0.550958
0.464942 0.448066 0.565057
0.554131 0.502403 0.603876
0.657832 0.586358 0.657008
0.747616 0.690364 0.718807
0.802548 0.767666 0.774350
0.839628 0.757565 0.797757
0.395697 0.412757 0.531975
0.408392 0.419562 0.539666
0.454108 0.441810 0.557397
0.542168 0.493629 0.595117
0.648981 0.577935 0.649287
0.742000 0.683314 0.712856
0.797452 0.761837 0.768399
0.834012 0.749538 0.790799
0.394812 0.420294 0.530785
0.404944 0.425086 0.536339
0.441871 0.441596 0.554009
0.543938 0.502617 0.601495
0.650050 0.583612 0.653895
0.743496 0.686000 0.716152
0.802853 0.771267 0.775296
0.837064 0.759945 0.796536
0.376776 0.427100 0.520989
0.389075 0.433173 0.528283
0.430884 0.451911 0.549981
0.519921 0.499458 0.596948
0.644770 0.588525 0.658656
0.751369 0.698146 0.728939
0.819028 0.795468 0.795010
0.848600 0.786435 0.814054
0.255528 0.385657 0.453620
0.270909 0.393286 0.462806
0.327459 0.418097 0.492592
0.456580 0.482338 0.562768
0.596002 0.563348 0.639338
0.738460 0.688411 0.724971
0.828305 0.806149 0.806088
0.860258 0.812772 0.831785
0.236332 0.411353 0.454780
0.234928 0.408484 0.452064
0.234928 0.401526 0.446204
0.241886 0.394903 0.442390
0.427985 0.484169 0.545373
0.694209 0.660487 0.708736
0.841581 0.819059 0.823758
0.885008 0.855528 0.864958
0.485969 0.586450 0.605097
0.486427 0.585992 0.604822
0.491096 0.585473 0.605005
0.507836 0.590661 0.611414
0.533562 0.598444 0.621668
0.568414 0.608240 0.636652
0.810483 0.792325 0.806790
0.903899 0.887175 0.890013
0.743221 0.774105 0.769497
0.744228 0.774533 0.769924
0.751492 0.779110 0.774563
0.768612 0.791196 0.786618
0.792874 0.808255 0.803830
0.824094 0.831113 0.826902
0.864775 0.863462 0.859770
0.916411 0.909850 0.907134
