20 Preset/Dark Style/【3】LUT video cho PR-AE-FCPX/19Tones (4)/19Tones - Sunset.cube
# Created by Adobe Lightroom plugin Export LUT (1.24.0)
# www.johnrellis.com/lightroom/exportlut.htm
# Preset: 19Tones - Sunset
# Color profile: E:\lut插件\exportlut.1.24\exportlut.lrplugin\color profiles\Rec709gamma2.4.icc
LUT_3D_SIZE 8
DOMAIN_MIN 0.000000 0.000000 0.000000
DOMAIN_MAX 0.903226 0.903226 0.903226
0.105837 0.187747 0.211307
0.123140 0.188693 0.211978
0.265904 0.189700 0.212192
0.600000 0.145418 0.204044
0.926116 0.121981 0.175784
1.000000 0.283055 0.152346
1.000000 0.373083 0.188968
1.000000 0.457588 0.285405
0.103365 0.198093 0.217960
0.125734 0.195132 0.212467
0.232273 0.205417 0.210819
0.507866 0.204379 0.203342
0.863066 0.205692 0.172976
1.000000 0.294255 0.137606
1.000000 0.367315 0.153262
1.000000 0.443458 0.242252
0.000000 0.401251 0.349065
0.312139 0.330602 0.343389
0.246891 0.243015 0.213169
0.490028 0.273198 0.195773
0.831266 0.370581 0.124239
1.000000 0.433417 0.000000
1.000000 0.483619 0.107301
1.000000 0.530541 0.257694
0.663355 0.836759 0.775357
0.720607 0.810361 0.770932
0.573083 0.748043 0.611109
0.600671 0.415656 0.182681
0.810697 0.394568 0.134707
0.999756 0.574914 0.000000
1.000000 0.601770 0.000000
1.000000 0.616419 0.211765
0.835538 0.917235 0.885313
0.848692 0.911467 0.885100
0.894621 0.889586 0.885191
0.747738 0.867033 0.727321
0.807645 0.573358 0.115572
0.916716 0.459724 0.040070
1.000000 0.622614 0.000000
1.000000 0.700954 0.000000
0.906096 0.955505 0.935973
0.915068 0.956146 0.939361
0.932982 0.948760 0.940154
0.918975 0.938231 0.923308
0.848661 0.917205 0.806424
0.950774 0.727840 0.173495
1.000000 0.576440 0.000000
1.000000 0.704616 0.151858
0.944396 0.975860 0.963531
0.946777 0.975433 0.964019
0.953521 0.972320 0.964050
0.966888 0.965972 0.964324
0.934478 0.960723 0.939849
0.905211 0.947662 0.858824
1.000000 0.831174 0.408209
1.000000 0.665614 0.073365
0.965637 0.983825 0.976532
0.966217 0.983581 0.976562
0.968994 0.982513 0.976715
0.974426 0.980346 0.977081
0.973693 0.975891 0.973358
0.952117 0.975708 0.955383
0.948608 0.973297 0.909209
1.000000 0.914427 0.702724
0.106538 0.188663 0.214023
0.118288 0.188754 0.214694
0.230228 0.190097 0.214908
0.480537 0.188571 0.208774
0.833097 0.181643 0.179812
1.000000 0.266239 0.145144
1.000000 0.341070 0.149996
1.000000 0.413916 0.220768
0.089754 0.199893 0.218448
0.126284 0.194919 0.216526
0.221866 0.204440 0.215610
0.460731 0.212222 0.208103
0.805722 0.228367 0.175906
1.000000 0.295476 0.135988
1.000000 0.353735 0.133730
1.000000 0.414466 0.196658
0.000000 0.360418 0.323369
0.256321 0.315801 0.321050
0.236576 0.235294 0.219242
0.456611 0.269383 0.204868
0.765225 0.333532 0.161959
0.976379 0.403601 0.048066
1.000000 0.447944 0.021942
1.000000 0.491798 0.186130
0.520836 0.777005 0.696223
0.612634 0.747402 0.694240
0.511803 0.673976 0.551385
0.495552 0.353124 0.207004
0.702968 0.341375 0.175357
0.934691 0.516014 0.000000
1.000000 0.555810 0.000000
1.000000 0.579431 0.102113
0.819120 0.910307 0.875212
0.831632 0.903380 0.873777
0.886351 0.876799 0.873503
0.715358 0.845457 0.693416
0.751492 0.520531 0.154971
0.869169 0.426886 0.119448
1.000000 0.598322 0.000000
1.000000 0.680262 0.000000
0.896117 0.951049 0.929473
0.901549 0.949371 0.929992
0.922362 0.941558 0.931334
0.911406 0.930510 0.915373
0.835691 0.908171 0.790249
0.935637 0.707637 0.168276
1.000000 0.561151 0.000000
1.000000 0.691829 0.112062
0.938628 0.973907 0.960204
0.939696 0.972839 0.959747
0.947265 0.969299 0.959747
0.962768 0.962646 0.960540
0.930632 0.957519 0.936156
0.898192 0.942718 0.849241
1.000000 0.812497 0.357488
1.000000 0.642817 0.000000
0.962921 0.983551 0.975402
0.964050 0.983368 0.975647
0.967010 0.982208 0.975799
0.973022 0.979919 0.976257
0.975311 0.976898 0.974731
0.953674 0.976135 0.956817
0.947906 0.972717 0.908843
1.000000 0.911864 0.696071
0.110231 0.191623 0.231449
0.128176 0.191653 0.234134
0.224094 0.191043 0.244999
0.564843 0.061463 0.242466
0.890684 0.054444 0.227024
1.000000 0.277287 0.200504
1.000000 0.379858 0.187167
1.000000 0.450538 0.231907
0.115999 0.202823 0.236698
0.135225 0.203616 0.239963
0.240635 0.205600 0.249058
0.528649 0.176059 0.243351
0.851774 0.182315 0.223270
1.000000 0.299962 0.194369
1.000000 0.385931 0.174716
1.000000 0.451514 0.209079
0.000000 0.372137 0.317906
0.000000 0.349889 0.317052
0.259037 0.239841 0.244663
0.521630 0.295750 0.237186
0.824491 0.341466 0.209537
1.000000 0.407477 0.174533
1.000000 0.461494 0.161807
1.000000 0.508507 0.189792
0.428840 0.792813 0.696315
0.547356 0.774441 0.700832
0.655756 0.690242 0.651545
0.520836 0.345617 0.238437
0.765621 0.394903 0.197635
0.961883 0.532952 0.126772
1.000000 0.567803 0.134157
1.000000 0.594873 0.197910
0.803159 0.910704 0.871183
0.817868 0.905730 0.871641
0.874174 0.884825 0.874632
0.757778 0.850309 0.746761
0.766445 0.518273 0.210697
0.898558 0.464118 0.150027
1.000000 0.621393 0.054871
1.000000 0.686244 0.201480
0.892271 0.951904 0.929015
0.898009 0.950591 0.929839
0.917662 0.943297 0.930968
0.919188 0.930236 0.920043
0.841398 0.905333 0.805295
0.926452 0.689815 0.232090
1.000000 0.571832 0.062409
1.000000 0.706813 0.233890
0.940002 0.975891 0.962158
0.941131 0.974975 0.961822
0.947478 0.971557 0.961425
0.961517 0.965057 0.961730
0.937194 0.958373 0.941588
0.902739 0.943603 0.861784
1.000000 0.815183 0.414740
1.000000 0.665614 0.165194
0.963226 0.984375 0.976135
0.963622 0.984070 0.976074
0.966461 0.982971 0.976196
0.972747 0.980957 0.976928
0.977569 0.977630 0.976257
0.957733 0.976776 0.960693
0.950072 0.973663 0.916197
1.000000 0.914794 0.719326
0.118837 0.198489 0.285252
0.148165 0.199039 0.293675
0.272038 0.195407 0.319463
0.530327 0.148043 0.358679
0.914397 0.000000 0.373785
1.000000 0.180240 0.352422
1.000000 0.352544 0.337530
1.000000 0.452216 0.354070
0.129458 0.215793 0.300603
0.160433 0.216953 0.306767
0.292454 0.215793 0.332219
0.564294 0.180819 0.370733
0.921355 0.000000 0.370397
1.000000 0.247471 0.349676
1.000000 0.375402 0.335088
1.000000 0.464424 0.352483
0.000000 0.293065 0.353674
0.147189 0.286870 0.340032
0.312413 0.297429 0.349828
0.603723 0.289982 0.366827
0.882780 0.327153 0.360693
1.000000 0.410651 0.349523
1.000000 0.492531 0.367956
1.000000 0.543175 0.389471
0.000000 0.812497 0.655055
0.000000 0.790036 0.651575
0.580041 0.680934 0.639918
0.556695 0.357305 0.318578
0.805631 0.489204 0.313237
0.968933 0.532525 0.310826
1.000000 0.571557 0.330877
1.000000 0.608484 0.375952
0.758724 0.918761 0.867491
0.777310 0.912047 0.866514
0.839750 0.893095 0.869169
0.810971 0.855833 0.808347
0.779934 0.496651 0.299535
0.934813 0.542138 0.265171
1.000000 0.675685 0.314946
1.000000 0.701778 0.391821
0.891234 0.957488 0.933257
0.900175 0.958068 0.936400
0.916014 0.951720 0.936614
0.941985 0.939818 0.937072
0.869169 0.913512 0.850492
0.927825 0.678065 0.335424
1.000000 0.613886 0.242863
1.000000 0.742458 0.398291
0.938933 0.978637 0.963989
0.940978 0.978210 0.964294
0.948119 0.975891 0.964904
0.961151 0.971069 0.965789
0.953063 0.963500 0.954955
0.914305 0.948058 0.887663
1.000000 0.814633 0.489723
1.000000 0.696925 0.307774
0.965240 0.986023 0.978119
0.965759 0.985809 0.978119
0.968078 0.984894 0.978210
0.972839 0.983062 0.978454
0.979614 0.979828 0.978576
0.965362 0.977813 0.967529
0.952941 0.974823 0.927520
1.000000 0.919524 0.755184
0.142916 0.213901 0.421820
0.190036 0.213962 0.434791
0.348577 0.204746 0.470008
0.587335 0.146670 0.515068
0.885588 0.119265 0.579034
1.000000 0.254887 0.562402
1.000000 0.400336 0.539178
1.000000 0.551293 0.580346
0.157992 0.236515 0.438758
0.206363 0.237705 0.452155
0.369757 0.232700 0.487282
0.612604 0.193851 0.532280
0.889708 0.224094 0.585199
1.000000 0.309636 0.564202
1.000000 0.445930 0.553491
1.000000 0.559777 0.579187
0.191257 0.321050 0.454139
0.233280 0.326207 0.469886
0.397620 0.338842 0.509331
0.634424 0.341650 0.550134
0.872831 0.389105 0.578790
1.000000 0.414954 0.545708
1.000000 0.521324 0.556176
1.000000 0.576104 0.558862
0.000000 0.614862 0.677394
0.000000 0.602167 0.663630
0.395666 0.550530 0.604883
0.641047 0.535546 0.568719
0.846036 0.550774 0.563622
0.968750 0.572992 0.543297
1.000000 0.606470 0.544244
1.000000 0.639857 0.559533
0.239231 0.927092 0.816922
0.427100 0.919463 0.821530
0.684565 0.890562 0.831052
0.845304 0.839811 0.833341
0.772457 0.507744 0.432349
0.920165 0.635706 0.465400
1.000000 0.680262 0.498878
1.000000 0.705653 0.541650
0.826169 0.956939 0.915953
0.836057 0.954437 0.916411
0.866148 0.942443 0.914885
0.907347 0.929412 0.917632
0.869444 0.900725 0.863249
0.899687 0.614923 0.401068
1.000000 0.667964 0.414618
1.000000 0.782132 0.549584
0.926970 0.980682 0.962219
0.928344 0.979858 0.961975
0.934112 0.977478 0.961791
0.949371 0.973358 0.963500
0.966705 0.965789 0.964080
0.919707 0.948028 0.906950
0.991669 0.790066 0.523064
1.000000 0.720272 0.419745
0.959747 0.987854 0.977844
0.960235 0.987640 0.977844
0.962707 0.986755 0.977905
0.969451 0.985168 0.978882
0.976745 0.982330 0.979278
0.973693 0.978668 0.974365
0.953338 0.974182 0.937377
1.000000 0.910613 0.755245
0.251499 0.248081 0.644312
0.305394 0.247318 0.653162
0.469703 0.237156 0.673426
0.726223 0.231510 0.734279
0.890562 0.237034 0.744472
1.000000 0.438025 0.739223
1.000000 0.558892 0.727810
1.000000 0.651270 0.735653
0.251438 0.270909 0.627863
0.298894 0.270390 0.633234
0.458106 0.266392 0.657313
0.702571 0.266361 0.712276
0.864744 0.265812 0.720607
0.998749 0.446571 0.728420
1.000000 0.554681 0.718257
1.000000 0.645289 0.727382
0.312688 0.386419 0.659480
0.356237 0.388708 0.664515
0.508995 0.402930 0.689082
0.711940 0.427253 0.722957
0.852781 0.442573 0.722805
0.977600 0.579095 0.745052
1.000000 0.631342 0.734218
1.000000 0.694118 0.745418
0.356542 0.544915 0.682826
0.393439 0.536492 0.667323
0.528344 0.554772 0.677913
0.721309 0.622644 0.742214
0.850706 0.662715 0.759640
0.952483 0.711879 0.772030
1.000000 0.733730 0.767117
1.000000 0.771817 0.783200
0.377234 0.836637 0.848173
0.420844 0.833371 0.844724
0.552117 0.818814 0.829587
0.694118 0.782467 0.791531
0.815152 0.738949 0.740200
0.916533 0.742275 0.728756
0.991485 0.755093 0.730343
1.000000 0.773922 0.743526
0.700496 0.965179 0.900847
0.729641 0.963470 0.904509
0.790494 0.954284 0.908537
0.856870 0.938109 0.910399
0.919005 0.912871 0.910185
0.892668 0.667689 0.588922
0.979339 0.786831 0.674800
1.000000 0.818326 0.724666
0.904601 0.984833 0.960021
0.908751 0.984588 0.960967
0.918700 0.983032 0.962341
0.937011 0.978607 0.963958
0.958099 0.972137 0.965606
0.941436 0.956664 0.940429
0.983429 0.773709 0.603876
1.000000 0.804379 0.647517
0.948608 0.990417 0.976715
0.949157 0.990295 0.976776
0.953613 0.989685 0.977569
0.964813 0.987762 0.979522
0.972534 0.985473 0.980194
0.981689 0.981720 0.980652
0.959319 0.975616 0.954376
1.000000 0.904906 0.777584
0.409033 0.310399 0.792508
0.447486 0.313390 0.798001
0.564569 0.316899 0.808133
0.735286 0.341802 0.830014
0.906401 0.415320 0.856077
0.981231 0.431373 0.830533
1.000000 0.609735 0.819883
1.000000 0.697383 0.814878
0.400855 0.329656 0.780026
0.439796 0.333867 0.786557
0.555322 0.338506 0.797696
0.721950 0.359380 0.818509
0.894438 0.425818 0.845975
0.968780 0.431647 0.818112
1.000000 0.598596 0.810086
1.000000 0.680751 0.803403
0.440192 0.437720 0.786099
0.469856 0.440497 0.788876
0.571954 0.451209 0.798062
0.724117 0.483497 0.817868
0.879667 0.545678 0.843381
0.949981 0.549218 0.818418
1.000000 0.685939 0.825834
1.000000 0.737819 0.823178
0.479164 0.572900 0.776669
0.501244 0.574578 0.778714
0.587854 0.589960 0.793027
0.722683 0.629358 0.815793
0.857877 0.688808 0.843565
0.927184 0.705043 0.834470
0.985779 0.778775 0.848386
1.000000 0.793027 0.842100
0.485664 0.738643 0.844114
0.501549 0.732815 0.838102
0.571435 0.715389 0.815610
0.675044 0.698878 0.781369
0.817746 0.759762 0.827207
0.901396 0.787625 0.839414
0.968200 0.815824 0.848844
1.000000 0.833616 0.854246
0.638666 0.919829 0.921233
0.651911 0.919005 0.920470
0.696162 0.914488 0.916503
0.758480 0.903716 0.906676
0.818326 0.876982 0.881407
0.887236 0.849821 0.851133
0.954498 0.855192 0.849424
1.000000 0.864500 0.855467
0.832486 0.989166 0.948882
0.839780 0.988586 0.949767
0.862882 0.985779 0.952514
0.896574 0.980926 0.956390
0.926970 0.973693 0.958129
0.958160 0.960815 0.957580
0.948302 0.800168 0.745632
1.000000 0.885283 0.823972
0.935607 0.991455 0.974609
0.937469 0.991272 0.974945
0.945495 0.990509 0.976562
0.956054 0.989349 0.978607
0.966888 0.988098 0.980682
0.977844 0.985504 0.982055
0.975616 0.980072 0.975463
1.000000 0.898650 0.813046
0.570123 0.437934 0.888731
0.589990 0.442786 0.890318
0.653407 0.448280 0.891875
0.760616 0.477272 0.899077
0.877989 0.529656 0.908629
0.975830 0.589593 0.916106
1.000000 0.610834 0.891417
1.000000 0.736446 0.881193
0.563592 0.449561 0.882963
0.583948 0.454536 0.884764
0.649348 0.463264 0.887694
0.755062 0.489418 0.894713
0.872526 0.539879 0.904845
0.971038 0.598260 0.913024
1.000000 0.613916 0.887999
1.000000 0.735500 0.878630
0.574182 0.525200 0.877104
0.590814 0.528283 0.878202
0.650385 0.536095 0.880949
0.754726 0.570977 0.891142
0.862516 0.614405 0.900633
0.955993 0.664332 0.909483
1.000000 0.674891 0.888365
1.000000 0.769253 0.884092
0.584985 0.625116 0.867002
0.596460 0.625422 0.869078
0.652125 0.636103 0.872953
0.745174 0.664576 0.882231
0.846311 0.706691 0.894652
0.936675 0.754879 0.908812
0.979950 0.760891 0.894621
1.000000 0.822202 0.897459
0.522881 0.685786 0.842100
0.542016 0.689509 0.844907
0.600946 0.697200 0.851438
0.716396 0.732448 0.867552
0.818601 0.768521 0.884581
0.912779 0.813413 0.905425
0.960937 0.826108 0.902495
1.000000 0.870481 0.913237
0.580865 0.850645 0.926970
0.590600 0.848692 0.924987
0.632502 0.841886 0.917266
0.699672 0.828672 0.900389
0.766903 0.803220 0.863981
0.888212 0.860227 0.904326
0.950927 0.887266 0.919677
0.991455 0.903136 0.924163
0.751705 0.964019 0.967529
0.757168 0.963592 0.967193
0.778927 0.961822 0.965911
0.815793 0.958404 0.963378
0.856199 0.951659 0.957946
0.890410 0.934630 0.943145
0.935393 0.918120 0.923613
0.983673 0.924895 0.927367
0.890715 0.994568 0.972930
0.893370 0.994324 0.973053
0.905852 0.993225 0.973846
0.928344 0.991333 0.975738
0.952728 0.989197 0.978424
0.968017 0.987030 0.980743
0.977295 0.983307 0.980316
0.984833 0.911650 0.886900
