20 Preset/Dark Style/【3】LUT video cho PR-AE-FCPX/19Tones (4)/19Tones - Linda.cube
# Created by Adobe Lightroom plugin Export LUT (1.24.0)
# www.johnrellis.com/lightroom/exportlut.htm
# Preset: 19Tones - Linda
# Color profile: E:\lut插件\exportlut.1.24\exportlut.lrplugin\color profiles\Rec709gamma2.4.icc
LUT_3D_SIZE 8
DOMAIN_MIN 0.000000 0.000000 0.000000
DOMAIN_MAX 0.903226 0.903226 0.903226
0.105837 0.187747 0.211307
0.118044 0.188418 0.211795
0.235660 0.189517 0.212558
0.507713 0.171572 0.207950
0.837644 0.126497 0.190799
1.000000 0.225956 0.178470
1.000000 0.358587 0.221225
1.000000 0.448249 0.302525
0.112795 0.192538 0.215793
0.121431 0.197757 0.212955
0.215854 0.204074 0.213260
0.455421 0.206027 0.209781
0.785946 0.190982 0.195132
0.994232 0.258793 0.181155
1.000000 0.358831 0.209964
1.000000 0.443244 0.284855
0.230045 0.271427 0.288609
0.226474 0.268925 0.286198
0.372442 0.383337 0.225986
0.560784 0.338079 0.219028
0.813626 0.363928 0.204013
1.000000 0.433692 0.212711
1.000000 0.500481 0.290379
1.000000 0.553307 0.379065
0.622889 0.572808 0.580560
0.614832 0.564874 0.572961
0.603235 0.553735 0.562280
0.826535 0.802060 0.492714
0.980529 0.742214 0.406592
0.995575 0.658412 0.397314
1.000000 0.662806 0.446540
1.000000 0.676509 0.503014
0.809110 0.785672 0.783597
0.806668 0.782681 0.780728
0.801999 0.776974 0.775204
0.798672 0.793851 0.768643
0.901854 0.891569 0.728573
1.000000 0.857725 0.651728
1.000000 0.789517 0.603601
1.000000 0.785672 0.635950
0.878691 0.867521 0.864408
0.882811 0.872221 0.869108
0.881071 0.870237 0.867094
0.878050 0.866789 0.863676
0.878172 0.889250 0.855467
0.938201 0.933684 0.841794
1.000000 0.925017 0.821134
1.000000 0.890379 0.792538
0.921508 0.915435 0.912840
0.922057 0.916075 0.913481
0.920867 0.914733 0.912139
0.919432 0.913176 0.910552
0.916442 0.909880 0.907195
0.921691 0.932860 0.902495
0.959503 0.957000 0.896239
1.000000 0.954406 0.887602
0.951110 0.947692 0.945892
0.951019 0.947601 0.945800
0.951110 0.947692 0.945892
0.951659 0.948272 0.946502
0.945983 0.942199 0.940215
0.947265 0.943542 0.941619
0.954101 0.962249 0.939330
0.976135 0.973968 0.934844
0.104097 0.188296 0.215091
0.108827 0.190066 0.213474
0.201633 0.188113 0.219028
0.448737 0.172824 0.220493
0.778836 0.098543 0.212589
0.985687 0.185824 0.204471
1.000000 0.312169 0.226444
1.000000 0.409003 0.285313
0.108461 0.193484 0.216464
0.120211 0.197421 0.220249
0.222293 0.203769 0.222202
0.451179 0.201541 0.222232
0.769162 0.175448 0.214054
0.978607 0.238712 0.206241
1.000000 0.329931 0.224735
1.000000 0.412848 0.277104
0.231662 0.272526 0.289525
0.239078 0.277623 0.294316
0.338872 0.357702 0.256443
0.512352 0.321599 0.243229
0.787472 0.345739 0.227817
0.977447 0.399115 0.230045
1.000000 0.452918 0.269657
1.000000 0.512871 0.343450
0.580194 0.532158 0.541588
0.574212 0.526726 0.536278
0.565209 0.518639 0.528527
0.768276 0.738064 0.437812
0.933471 0.676234 0.346410
0.958892 0.597375 0.341772
1.000000 0.608301 0.379278
1.000000 0.633478 0.444739
0.802701 0.777798 0.775967
0.798520 0.772732 0.771084
0.790005 0.762295 0.760983
0.778866 0.763912 0.746578
0.886412 0.874144 0.696773
0.996674 0.839811 0.618250
0.995392 0.766293 0.569177
1.000000 0.765652 0.604211
0.871702 0.859495 0.856382
0.871519 0.859342 0.856199
0.870146 0.857755 0.854612
0.868254 0.855589 0.852445
0.869322 0.879301 0.845975
0.934112 0.929351 0.836301
1.000000 0.920775 0.815030
1.000000 0.883146 0.781064
0.916136 0.909545 0.906828
0.915007 0.908293 0.905547
0.913481 0.906584 0.903838
0.912657 0.905669 0.902892
0.911376 0.904265 0.901488
0.916594 0.927855 0.896818
0.955962 0.953185 0.888457
1.000000 0.950042 0.876982
0.947936 0.944305 0.942412
0.948516 0.944884 0.943023
0.948455 0.944823 0.942931
0.949035 0.945464 0.943633
0.949218 0.945647 0.943786
0.948577 0.944976 0.943084
0.953704 0.961761 0.939178
0.975830 0.973632 0.934630
0.097475 0.190951 0.256229
0.134493 0.194278 0.250370
0.154604 0.220371 0.241428
0.459937 0.286015 0.352239
0.856535 0.000000 0.335332
1.000000 0.161807 0.336004
1.000000 0.352483 0.365454
1.000000 0.464942 0.417548
0.028656 0.203677 0.276738
0.136263 0.207248 0.273899
0.190616 0.244785 0.263828
0.500420 0.276036 0.350408
0.843442 0.000000 0.318639
1.000000 0.224125 0.325444
1.000000 0.358282 0.343755
1.000000 0.465309 0.406378
0.184909 0.299504 0.309728
0.225101 0.310735 0.320775
0.346563 0.351995 0.364446
0.613428 0.346807 0.339574
0.858061 0.365057 0.335271
1.000000 0.421424 0.353918
1.000000 0.484993 0.396033
1.000000 0.551019 0.458320
0.631006 0.580896 0.588281
0.644953 0.595117 0.601831
0.668391 0.619745 0.625269
0.770504 0.746639 0.596735
0.890654 0.672358 0.507866
0.965972 0.637995 0.484565
1.000000 0.650294 0.512718
1.000000 0.674556 0.556970
0.815305 0.793088 0.790860
0.816831 0.794980 0.792691
0.817319 0.795590 0.793271
0.810452 0.787259 0.785153
0.887266 0.878874 0.768154
0.972045 0.847868 0.711421
0.979522 0.780850 0.644770
1.000000 0.786801 0.672908
0.879088 0.868009 0.864866
0.880491 0.869566 0.866453
0.878660 0.867491 0.864347
0.875395 0.863798 0.860655
0.873259 0.875303 0.855222
0.931609 0.927489 0.852659
0.991577 0.921874 0.839414
0.997040 0.888060 0.807950
0.922515 0.916564 0.914000
0.921599 0.915587 0.912993
0.919524 0.913268 0.910613
0.917662 0.911192 0.908507
0.915679 0.909056 0.906340
0.920104 0.928405 0.904173
0.957214 0.954833 0.901610
0.998779 0.953765 0.896147
0.950347 0.946868 0.945037
0.949950 0.946441 0.944610
0.949798 0.946258 0.944427
0.951110 0.947692 0.945892
0.951171 0.947753 0.945953
0.951293 0.947906 0.946136
0.956023 0.962860 0.943664
0.976410 0.974395 0.940276
0.096162 0.194308 0.406622
0.185763 0.198428 0.409522
0.340124 0.268223 0.389776
0.392584 0.383520 0.396246
0.696681 0.650843 0.654810
0.951232 0.573449 0.668574
1.000000 0.520043 0.615900
1.000000 0.556237 0.608240
0.000000 0.216495 0.465370
0.177676 0.223880 0.465827
0.404059 0.304631 0.448890
0.463691 0.435645 0.447486
0.723110 0.681239 0.683680
0.956970 0.578729 0.667994
1.000000 0.521752 0.609125
1.000000 0.565820 0.608026
0.000000 0.361944 0.526482
0.000000 0.359075 0.535668
0.411963 0.387060 0.561608
0.598596 0.549279 0.558007
0.828641 0.675380 0.709438
0.978393 0.599512 0.657557
1.000000 0.617182 0.645106
1.000000 0.643122 0.642512
0.531701 0.635370 0.627314
0.558953 0.640681 0.633539
0.659907 0.668910 0.665217
0.747677 0.711696 0.711360
0.865354 0.684413 0.658137
0.952483 0.674342 0.638239
1.000000 0.689265 0.646662
1.000000 0.716823 0.672297
0.834409 0.816007 0.813260
0.834989 0.816678 0.813931
0.841672 0.824613 0.821744
0.851377 0.836027 0.833005
0.885679 0.879606 0.831296
0.934325 0.848203 0.787381
0.965454 0.815915 0.752407
1.000000 0.817441 0.758938
0.890990 0.881498 0.878447
0.895171 0.886168 0.883146
0.897215 0.888457 0.885435
0.898924 0.890410 0.887419
0.894041 0.884916 0.881895
0.932464 0.929290 0.883360
0.976745 0.923827 0.871977
0.981048 0.892760 0.839658
0.926452 0.920897 0.918425
0.927245 0.921782 0.919310
0.929442 0.924193 0.921752
0.929900 0.924681 0.922271
0.927947 0.922515 0.920073
0.928283 0.931243 0.917998
0.958434 0.956451 0.917693
0.992432 0.956146 0.914275
0.954559 0.951446 0.949737
0.954864 0.951751 0.950072
0.956085 0.953063 0.951446
0.956054 0.953002 0.951385
0.955749 0.952667 0.951049
0.955566 0.952483 0.950835
0.959014 0.963989 0.949889
0.977478 0.975708 0.948821
0.222171 0.198245 0.681086
0.317510 0.205295 0.687190
0.541985 0.285069 0.681178
0.685298 0.586511 0.644678
0.704402 0.659571 0.663111
0.828305 0.808774 0.806149
0.921599 0.811948 0.835691
1.000000 0.771542 0.812467
0.207553 0.239963 0.714778
0.326116 0.252171 0.720638
0.572595 0.340398 0.715358
0.715602 0.613886 0.678157
0.729885 0.689265 0.691249
0.836698 0.818723 0.815946
0.925628 0.813260 0.837125
1.000000 0.773281 0.812375
0.000000 0.380529 0.757382
0.000000 0.384253 0.762020
0.547662 0.458503 0.761776
0.770199 0.672694 0.751186
0.783047 0.753750 0.752804
0.853605 0.838590 0.835569
0.937926 0.808347 0.832944
1.000000 0.769100 0.802670
0.000000 0.652155 0.773953
0.000000 0.652583 0.775998
0.411749 0.655970 0.787198
0.758022 0.726436 0.807858
0.837888 0.820127 0.817319
0.893828 0.846128 0.852262
0.958282 0.804135 0.821439
1.000000 0.781247 0.795407
0.756405 0.818540 0.808652
0.765988 0.821286 0.811795
0.798337 0.829191 0.821286
0.843290 0.842893 0.837675
0.864652 0.851926 0.848264
0.905211 0.833677 0.819303
0.953826 0.821958 0.803677
0.996002 0.822171 0.801205
0.884825 0.874510 0.871397
0.885893 0.875700 0.872618
0.887572 0.877623 0.874540
0.892668 0.883391 0.880339
0.897581 0.888884 0.885893
0.923186 0.919890 0.893828
0.955108 0.910185 0.878691
0.972808 0.892119 0.859129
0.925658 0.920043 0.917540
0.925475 0.919799 0.917266
0.926207 0.920623 0.918120
0.930632 0.925475 0.923095
0.933501 0.928557 0.926268
0.930632 0.925444 0.923064
0.955749 0.953918 0.925750
0.984649 0.951598 0.919188
0.949676 0.946136 0.944305
0.949981 0.946471 0.944640
0.951476 0.948089 0.946349
0.956390 0.953399 0.951781
0.958221 0.955352 0.953796
0.957946 0.955047 0.953521
0.959411 0.962036 0.953063
0.976684 0.975036 0.952819
0.451850 0.270665 0.856596
0.506889 0.291417 0.856870
0.658534 0.392035 0.848447
0.799222 0.611322 0.827939
0.824308 0.803983 0.801480
0.838376 0.820706 0.817868
0.884611 0.874266 0.871153
0.920928 0.897429 0.899657
0.437903 0.309850 0.852476
0.492134 0.326635 0.851225
0.650080 0.418494 0.844816
0.794827 0.617792 0.826841
0.825254 0.805112 0.802579
0.837522 0.819669 0.816861
0.883818 0.873350 0.870237
0.921813 0.894621 0.897856
0.404242 0.456489 0.870420
0.475715 0.473945 0.869535
0.661311 0.557610 0.866209
0.809628 0.698421 0.852140
0.855863 0.835782 0.837888
0.861509 0.847807 0.844694
0.897795 0.889128 0.886137
0.933989 0.897063 0.902983
0.000000 0.619928 0.878416
0.011810 0.624598 0.877897
0.574395 0.671839 0.878752
0.810330 0.780697 0.880705
0.891630 0.867002 0.881987
0.895842 0.886931 0.883909
0.920195 0.914031 0.911376
0.952056 0.903014 0.910918
0.620539 0.816526 0.865904
0.634028 0.817380 0.866392
0.684840 0.821592 0.869200
0.758755 0.829496 0.875456
0.868956 0.859190 0.886839
0.906096 0.898405 0.895506
0.931884 0.910857 0.912230
0.966705 0.888457 0.896269
0.847837 0.887266 0.879973
0.853361 0.889769 0.882719
0.864683 0.892546 0.886076
0.883299 0.897520 0.892149
0.904540 0.904112 0.900237
0.917571 0.911406 0.908415
0.941863 0.903532 0.895079
0.972442 0.898528 0.888457
0.931395 0.926299 0.923919
0.932464 0.927459 0.925139
0.934142 0.929259 0.926970
0.937133 0.932555 0.930327
0.941009 0.936736 0.934661
0.943511 0.939483 0.937438
0.955871 0.954192 0.939361
0.974609 0.947845 0.929168
0.951049 0.947631 0.945830
0.950958 0.947539 0.945739
0.951934 0.948608 0.946838
0.954894 0.951781 0.950134
0.958923 0.956115 0.954589
0.962402 0.959838 0.958434
0.962188 0.959777 0.958190
0.976593 0.975128 0.959533
0.579492 0.385107 0.916167
0.611841 0.408362 0.915831
0.708156 0.492744 0.909209
0.816556 0.644373 0.895079
0.873869 0.790494 0.873625
0.874449 0.862699 0.859556
0.880613 0.869688 0.866575
0.906188 0.898528 0.895628
0.573541 0.411078 0.912840
0.607416 0.434028 0.912810
0.703731 0.510948 0.906706
0.811734 0.648707 0.892760
0.871611 0.788571 0.872313
0.872679 0.860624 0.857511
0.877440 0.866117 0.862974
0.903227 0.895201 0.892271
0.589746 0.537774 0.918273
0.618982 0.551965 0.917052
0.711330 0.608759 0.911131
0.816983 0.711635 0.899992
0.879820 0.813291 0.885374
0.887755 0.877806 0.874693
0.893034 0.883757 0.880705
0.915526 0.908873 0.906157
0.537774 0.651881 0.922271
0.577569 0.662440 0.920684
0.697414 0.709285 0.916258
0.814420 0.777371 0.910552
0.888884 0.845609 0.904112
0.910460 0.903227 0.900420
0.913909 0.907103 0.904356
0.930205 0.924987 0.922606
0.476081 0.764797 0.913481
0.487892 0.762936 0.912779
0.552880 0.762325 0.912474
0.727016 0.792935 0.912474
0.872129 0.857603 0.913176
0.922820 0.908507 0.915648
0.926513 0.920958 0.918486
0.943206 0.939147 0.937102
0.760616 0.883238 0.908171
0.765927 0.883879 0.908690
0.784298 0.885801 0.910277
0.813962 0.888884 0.913359
0.848508 0.891264 0.917479
0.916350 0.911162 0.927428
0.942077 0.937957 0.935882
0.956939 0.946441 0.946654
0.894774 0.927703 0.922240
0.896910 0.928527 0.923186
0.902739 0.930083 0.925048
0.913603 0.933379 0.928954
0.927031 0.937530 0.933867
0.941863 0.942779 0.940124
0.950256 0.946929 0.944945
0.966583 0.941314 0.936065
0.952819 0.949523 0.947814
0.953216 0.949981 0.948272
0.955322 0.952209 0.950561
0.958068 0.955169 0.953613
0.961456 0.958831 0.957397
0.965423 0.963104 0.961791
0.968811 0.966735 0.965576
0.976654 0.975433 0.966979
0.666804 0.499245 0.950500
0.685145 0.515526 0.949554
0.743313 0.570275 0.943420
0.822629 0.673732 0.932250
0.882353 0.780423 0.916289
0.904906 0.860899 0.897551
0.901488 0.893248 0.890288
0.904997 0.897215 0.894316
0.665064 0.516075 0.948699
0.683528 0.531701 0.947814
0.742611 0.585260 0.942260
0.821225 0.681666 0.931365
0.881468 0.783139 0.916197
0.905272 0.861326 0.898375
0.901610 0.893400 0.890440
0.904540 0.896666 0.893767
0.671717 0.593835 0.947753
0.688380 0.605066 0.946746
0.745174 0.647150 0.941619
0.824552 0.728328 0.933471
0.884001 0.805783 0.921050
0.911162 0.870207 0.906554
0.909331 0.902007 0.899168
0.911528 0.904448 0.901671
0.660487 0.681849 0.947448
0.679683 0.691341 0.946715
0.739498 0.721950 0.942931
0.819608 0.775967 0.936828
0.884916 0.833677 0.928954
0.920073 0.884947 0.920134
0.922911 0.916991 0.914427
0.924498 0.918730 0.916197
0.427893 0.702754 0.950774
0.480781 0.710811 0.950256
0.622339 0.739956 0.946685
0.786740 0.807858 0.940764
0.871733 0.851987 0.936004
0.922728 0.895048 0.931548
0.935760 0.931090 0.928832
0.937865 0.933318 0.931151
0.613703 0.839658 0.940276
0.617548 0.838743 0.940002
0.640894 0.836820 0.939666
0.690669 0.836149 0.940185
0.793942 0.850645 0.940856
0.913085 0.904265 0.942535
0.950744 0.942168 0.946197
0.954253 0.951049 0.949371
0.821927 0.923125 0.939971
0.823941 0.923186 0.940063
0.832639 0.923735 0.940642
0.850156 0.925597 0.942504
0.873136 0.928130 0.945403
0.899077 0.930663 0.949645
0.949340 0.946227 0.957153
0.965637 0.963317 0.962005
0.921660 0.953826 0.949584
0.922454 0.953948 0.949767
0.926421 0.954894 0.950958
0.934386 0.957305 0.953735
0.944701 0.960510 0.957549
0.955871 0.964385 0.962097
0.967132 0.968780 0.967193
0.973938 0.972259 0.971160
