20 Preset/Dark Style/【3】LUT video cho PR-AE-FCPX/19Tones (4)/19Tones - Walker _ c.cube
# Created by Adobe Lightroom plugin Export LUT (1.24.0)
# www.johnrellis.com/lightroom/exportlut.htm
# Preset: 19Tones - Walker / c
# Color profile: E:\lut插件\exportlut.1.24\exportlut.lrplugin\color profiles\Rec709gamma2.4.icc
LUT_3D_SIZE 5
DOMAIN_MIN 0.000000 0.000000 0.000000
DOMAIN_MAX 0.903226 0.903226 0.903226
0.105837 0.187747 0.211307
0.047395 0.181186 0.204623
0.262486 0.171695 0.196323
0.757961 0.106508 0.212741
1.000000 0.358831 0.332128
0.083589 0.174716 0.199222
0.082551 0.174441 0.198825
0.336919 0.207279 0.188724
0.808743 0.228702 0.194217
1.000000 0.431708 0.338384
0.211795 0.259098 0.276982
0.202304 0.252628 0.271183
0.288212 0.310918 0.325841
0.918425 0.590509 0.099306
1.000000 0.611658 0.283787
0.606775 0.557122 0.565545
0.604852 0.555261 0.563745
0.595911 0.546777 0.555596
0.685847 0.638758 0.643336
0.963775 0.825437 0.660975
0.851621 0.836301 0.833280
0.851469 0.836088 0.833097
0.831846 0.812955 0.810269
0.849760 0.834104 0.831144
0.884764 0.874449 0.871336
0.093812 0.178683 0.201358
0.083742 0.177157 0.200320
0.202945 0.175479 0.210788
0.581079 0.162112 0.252079
0.961700 0.297887 0.347631
0.082551 0.174441 0.198825
0.089052 0.177279 0.201541
0.251682 0.190646 0.212955
0.663630 0.197787 0.247105
0.984863 0.359625 0.347875
0.210422 0.258274 0.276310
0.218326 0.263523 0.281163
0.259251 0.291325 0.307195
0.883482 0.537163 0.149630
1.000000 0.593286 0.362341
0.621241 0.571191 0.579004
0.621668 0.571649 0.579431
0.612512 0.562615 0.570825
0.689204 0.642481 0.646876
0.965606 0.824460 0.664424
0.853666 0.838682 0.835630
0.852689 0.837552 0.834501
0.853239 0.838193 0.835172
0.861875 0.848203 0.845060
0.895201 0.886229 0.883207
0.081849 0.179049 0.211276
0.104219 0.186313 0.218662
0.189975 0.218906 0.256382
0.628962 0.298039 0.418524
0.902251 0.413001 0.523247
0.096620 0.194644 0.226352
0.121767 0.203037 0.236851
0.229892 0.249577 0.282994
0.635340 0.324895 0.424903
0.903563 0.439185 0.527733
0.187106 0.263645 0.280064
0.217807 0.280919 0.296300
0.375860 0.371679 0.384619
0.723598 0.431861 0.441810
0.959289 0.572534 0.558312
0.629999 0.579858 0.587304
0.630091 0.579980 0.587396
0.666773 0.618006 0.623621
0.716609 0.673640 0.676448
0.981353 0.820005 0.675013
0.847501 0.831479 0.828489
0.852171 0.836942 0.833890
0.857969 0.843656 0.840604
0.856016 0.841398 0.838346
0.891936 0.882567 0.879484
0.155245 0.235599 0.296452
0.195377 0.253269 0.314855
0.379461 0.355932 0.402625
0.600092 0.464271 0.539055
0.880125 0.673579 0.745418
0.174960 0.254887 0.311223
0.207858 0.268650 0.328893
0.398810 0.372442 0.419379
0.605890 0.482856 0.546899
0.876493 0.682246 0.746120
0.139071 0.266453 0.299107
0.163577 0.277104 0.311223
0.407721 0.401129 0.448432
0.657008 0.570245 0.603479
0.882017 0.717800 0.759396
0.491188 0.510796 0.517082
0.508446 0.520165 0.526452
0.601129 0.582940 0.588373
0.750759 0.714199 0.714992
0.922820 0.767239 0.759213
0.848447 0.832578 0.829618
0.851377 0.835996 0.832975
0.865629 0.852537 0.849393
0.882567 0.871977 0.868833
0.902281 0.894163 0.891203
0.408972 0.420966 0.543938
0.450324 0.440467 0.559411
0.606867 0.541711 0.629419
0.766049 0.717922 0.735439
0.839628 0.757565 0.797757
0.399329 0.420874 0.534478
0.435248 0.437415 0.552544
0.596429 0.537102 0.623957
0.763760 0.714809 0.733761
0.839139 0.761624 0.798672
0.337011 0.416785 0.499367
0.386481 0.439033 0.524529
0.550011 0.523217 0.610864
0.763668 0.715450 0.739345
0.852506 0.796750 0.820493
0.298131 0.459998 0.499184
0.298192 0.454261 0.494484
0.311681 0.443153 0.489174
0.722438 0.691279 0.730739
0.889647 0.863523 0.871183
0.743221 0.774105 0.769497
0.748775 0.777340 0.772732
0.780117 0.799344 0.794858
0.833402 0.838193 0.834104
0.916411 0.909850 0.907134
