20 Preset/Dark Style/【3】LUT video cho PR-AE-FCPX/19Tones (4)/19Tones - Sunset.cube
# Created by Adobe Lightroom plugin Export LUT (1.24.0)
# www.johnrellis.com/lightroom/exportlut.htm
# Preset: 19Tones - Sunset
# Color profile: E:\lut插件\exportlut.1.24\exportlut.lrplugin\color profiles\Rec709gamma2.4.icc
LUT_3D_SIZE 5
DOMAIN_MIN 0.000000 0.000000 0.000000
DOMAIN_MAX 0.903226 0.903226 0.903226
0.105837 0.187747 0.211307
0.214603 0.190311 0.212406
0.777279 0.092378 0.192966
1.000000 0.309911 0.156161
1.000000 0.457588 0.285405
0.000000 0.318181 0.291905
0.208560 0.226688 0.213352
0.702083 0.306401 0.168399
1.000000 0.420630 0.046509
1.000000 0.519402 0.275975
0.777279 0.888151 0.846036
0.849058 0.840391 0.834958
0.722133 0.499855 0.150942
0.996704 0.560052 0.000000
1.000000 0.655482 0.146609
0.922728 0.964385 0.947936
0.935668 0.959503 0.948699
0.907530 0.944152 0.914397
0.973754 0.758358 0.226322
1.000000 0.695644 0.142855
0.965637 0.983825 0.976532
0.968048 0.982849 0.976654
0.975921 0.977050 0.975280
0.947814 0.975555 0.948150
1.000000 0.914427 0.702724
0.108858 0.190524 0.223880
0.181308 0.190524 0.231968
0.692714 0.115877 0.221347
1.000000 0.302068 0.163912
1.000000 0.431037 0.216373
0.000000 0.295781 0.272465
0.212436 0.223728 0.234867
0.667964 0.279759 0.214084
1.000000 0.391150 0.142092
1.000000 0.485725 0.194491
0.695583 0.864836 0.806455
0.809751 0.820981 0.807675
0.633722 0.421241 0.213046
0.959258 0.538476 0.016052
1.000000 0.646509 0.176303
0.919249 0.964385 0.946868
0.932525 0.960113 0.948089
0.914458 0.943511 0.919799
0.964996 0.743038 0.268956
1.000000 0.700893 0.216190
0.965515 0.984436 0.976959
0.967712 0.983520 0.977020
0.977173 0.979400 0.977386
0.953277 0.977050 0.954070
1.000000 0.922271 0.742092
0.128023 0.204959 0.341863
0.257694 0.202884 0.372473
0.739345 0.000000 0.468513
1.000000 0.187930 0.434180
1.000000 0.484535 0.460060
0.156802 0.273442 0.367559
0.287907 0.280461 0.398810
0.767300 0.286656 0.481331
1.000000 0.394446 0.449866
1.000000 0.536126 0.468666
0.000000 0.887907 0.745296
0.500786 0.838987 0.754147
0.676692 0.427649 0.368048
0.970794 0.601068 0.392065
1.000000 0.659876 0.465461
0.897917 0.965423 0.941619
0.908049 0.959869 0.940307
0.938079 0.942504 0.936553
0.943816 0.697505 0.395819
1.000000 0.739162 0.425727
0.961608 0.986755 0.977508
0.964416 0.985962 0.977813
0.974090 0.982483 0.978485
0.961181 0.977173 0.963256
1.000000 0.910948 0.740810
0.270298 0.253483 0.667384
0.430304 0.248875 0.690822
0.828885 0.261601 0.773129
1.000000 0.464607 0.753506
1.000000 0.646540 0.747799
0.307836 0.350195 0.672724
0.450996 0.357000 0.692164
0.812833 0.415595 0.764706
0.993133 0.556146 0.754421
1.000000 0.674311 0.750881
0.312627 0.641627 0.758694
0.456611 0.616541 0.723507
0.751064 0.659693 0.740627
0.941588 0.709407 0.754421
1.000000 0.773526 0.781613
0.756069 0.973846 0.918944
0.795743 0.967102 0.920958
0.888945 0.944335 0.923919
0.909300 0.700954 0.626032
1.000000 0.830869 0.743191
0.946715 0.990570 0.976440
0.951354 0.990051 0.977386
0.969207 0.987396 0.980682
0.982910 0.981994 0.981262
1.000000 0.903471 0.785092
0.570123 0.437934 0.888731
0.632471 0.445197 0.891020
0.819883 0.500542 0.903746
0.993103 0.592981 0.915618
1.000000 0.736446 0.881193
0.574395 0.505669 0.880034
0.633722 0.514885 0.883177
0.810147 0.566064 0.896666
0.977417 0.647761 0.910552
1.000000 0.763180 0.884092
0.555535 0.654353 0.856565
0.617670 0.667262 0.861570
0.780636 0.714809 0.880339
0.938415 0.782071 0.905425
1.000000 0.846036 0.904479
0.624384 0.889097 0.943572
0.661769 0.885222 0.938994
0.767117 0.866728 0.916045
0.906157 0.882444 0.913359
0.989471 0.908415 0.925017
0.890715 0.994568 0.972930
0.901701 0.993591 0.973571
0.941070 0.990234 0.977020
0.970764 0.986481 0.981018
0.984833 0.911650 0.886900
