20 Preset/Dark Style/【3】LUT video cho PR-AE-FCPX/19Tones (4)/19Tones - Linda.cube
# Created by Adobe Lightroom plugin Export LUT (1.24.0)
# www.johnrellis.com/lightroom/exportlut.htm
# Preset: 19Tones - Linda
# Color profile: E:\lut插件\exportlut.1.24\exportlut.lrplugin\color profiles\Rec709gamma2.4.icc
LUT_3D_SIZE 32
DOMAIN_MIN 0.0 0.0 0.0
DOMAIN_MAX 1.0 1.0 1.0
0.105837 0.187747 0.211307
0.105837 0.187747 0.211307
0.105837 0.187747 0.211307
0.109163 0.188022 0.211521
0.118044 0.188418 0.211795
0.135897 0.188907 0.212070
0.162051 0.189181 0.212375
0.195041 0.189334 0.212497
0.235660 0.189517 0.212558
0.286259 0.188968 0.212222
0.348547 0.186893 0.211460
0.423133 0.181613 0.210086
0.507713 0.171572 0.207950
0.598871 0.156741 0.204501
0.689479 0.137636 0.200259
0.769497 0.124392 0.195712
0.837644 0.126497 0.190799
0.896117 0.143008 0.185977
0.945342 0.168276 0.181796
0.986114 0.196933 0.179049
1.000000 0.225956 0.178470
1.000000 0.265721 0.181918
1.000000 0.301915 0.191257
1.000000 0.332250 0.205142
1.000000 0.358587 0.221225
1.000000 0.382116 0.238895
1.000000 0.404578 0.258366
1.000000 0.426246 0.279606
1.000000 0.448249 0.302525
1.000000 0.471138 0.328557
1.000000 0.494972 0.357183
1.000000 0.519860 0.388556
0.105837 0.187747 0.211307
0.105837 0.187747 0.211307
0.105837 0.187747 0.211307
0.109163 0.188022 0.211521
0.118044 0.188418 0.211795
0.134768 0.188815 0.212100
0.159670 0.189090 0.212284
0.190738 0.189670 0.212528
0.229038 0.190219 0.212497
0.276646 0.190097 0.212222
0.335851 0.188388 0.211643
0.407233 0.183932 0.210513
0.488991 0.175540 0.208377
0.577844 0.162814 0.205295
0.668818 0.144778 0.201450
0.751308 0.130770 0.196872
0.822354 0.128542 0.192050
0.882902 0.141573 0.187320
0.934356 0.165560 0.182834
0.976715 0.192538 0.179904
1.000000 0.220798 0.178775
1.000000 0.258732 0.180880
1.000000 0.293126 0.188205
1.000000 0.322148 0.199496
1.000000 0.347387 0.213199
1.000000 0.370397 0.228916
1.000000 0.392401 0.246799
1.000000 0.414191 0.266575
1.000000 0.436286 0.289006
1.000000 0.459358 0.314122
1.000000 0.483467 0.342382
1.000000 0.508659 0.373510
0.105531 0.187900 0.211429
0.105531 0.187900 0.211429
0.105837 0.188022 0.211551
0.109224 0.188296 0.211612
0.117678 0.189029 0.211978
0.133547 0.189944 0.212222
0.157321 0.190768 0.212375
0.187381 0.191806 0.212589
0.224582 0.192599 0.212558
0.270665 0.192966 0.212314
0.327977 0.192233 0.211734
0.397314 0.189059 0.210544
0.476814 0.182803 0.208499
0.564599 0.171481 0.205753
0.655055 0.156008 0.202152
0.738491 0.143740 0.197696
0.810758 0.142000 0.192935
0.873014 0.151888 0.188144
0.926024 0.172732 0.183688
0.969848 0.198550 0.180423
1.000000 0.225223 0.179171
1.000000 0.262791 0.181064
1.000000 0.294438 0.187778
1.000000 0.322118 0.198184
1.000000 0.346319 0.210849
1.000000 0.368109 0.225437
1.000000 0.389441 0.242344
1.000000 0.410925 0.261295
1.000000 0.432868 0.283146
1.000000 0.455726 0.307958
1.000000 0.479713 0.335973
1.000000 0.504601 0.366735
0.107485 0.189395 0.212772
0.107485 0.189395 0.212772
0.108064 0.189364 0.212772
0.109987 0.190646 0.212100
0.119936 0.191409 0.212070
0.132448 0.192813 0.212558
0.155398 0.194430 0.212741
0.185122 0.195956 0.212772
0.221469 0.197482 0.212680
0.266667 0.198795 0.212345
0.322301 0.199100 0.211612
0.390143 0.197482 0.210513
0.468605 0.192782 0.208865
0.554406 0.184329 0.206363
0.642390 0.172976 0.202762
0.724880 0.164218 0.198672
0.796902 0.163149 0.194034
0.858793 0.171389 0.189548
0.912627 0.188174 0.185061
0.957641 0.210147 0.181643
0.996063 0.235111 0.179782
1.000000 0.268467 0.181094
1.000000 0.297276 0.186709
1.000000 0.323430 0.195743
1.000000 0.347143 0.207919
1.000000 0.369696 0.222965
1.000000 0.392035 0.240696
1.000000 0.413947 0.260563
1.000000 0.436255 0.283116
1.000000 0.458991 0.308110
1.000000 0.481880 0.335332
1.000000 0.505303 0.364477
0.112795 0.192538 0.215793
0.113130 0.192691 0.215793
0.112795 0.192538 0.215793
0.112612 0.193149 0.215610
0.121431 0.197757 0.212955
0.146517 0.200229 0.211734
0.154238 0.199588 0.213413
0.180575 0.201663 0.213535
0.215854 0.204074 0.213260
0.259556 0.206302 0.212985
0.313573 0.207797 0.212345
0.379461 0.208133 0.211429
0.455421 0.206027 0.209781
0.539757 0.201144 0.207401
0.627131 0.194491 0.204013
0.711696 0.189517 0.199832
0.785946 0.190982 0.195132
0.849943 0.199344 0.190433
0.905089 0.214115 0.185885
0.951049 0.233310 0.182620
0.994232 0.258793 0.181155
1.000000 0.287266 0.182864
1.000000 0.312840 0.188235
1.000000 0.336431 0.197543
1.000000 0.358831 0.209964
1.000000 0.380316 0.225010
1.000000 0.401251 0.242618
1.000000 0.422187 0.262638
1.000000 0.443244 0.284855
1.000000 0.464729 0.309361
1.000000 0.486610 0.335973
1.000000 0.509026 0.364508
0.123201 0.199283 0.222049
0.123018 0.199435 0.222049
0.123018 0.199435 0.222049
0.123507 0.199405 0.222049
0.122133 0.202426 0.220371
0.144381 0.213596 0.214633
0.197818 0.220615 0.210575
0.202121 0.214939 0.213474
0.217136 0.214115 0.215213
0.261723 0.217533 0.214603
0.316503 0.220615 0.213931
0.382483 0.222904 0.212711
0.458503 0.223514 0.210941
0.541955 0.222171 0.208408
0.629267 0.220157 0.204990
0.712490 0.220005 0.200473
0.786252 0.224552 0.195743
0.849973 0.234684 0.190951
0.904784 0.248997 0.186740
0.950195 0.266697 0.183505
0.997223 0.293370 0.182925
1.000000 0.317845 0.186282
1.000000 0.398627 0.226291
1.000000 0.421637 0.248386
1.000000 0.442237 0.271000
1.000000 0.461311 0.293797
1.000000 0.479591 0.317052
1.000000 0.497322 0.340551
1.000000 0.515373 0.365118
1.000000 0.533593 0.390326
1.000000 0.552087 0.416144
1.000000 0.570092 0.441566
0.150484 0.217594 0.238773
0.150484 0.217594 0.238773
0.150301 0.217472 0.238682
0.149935 0.217014 0.238285
0.149386 0.216709 0.238010
0.148898 0.228977 0.231449
0.203098 0.256260 0.218509
0.330419 0.282261 0.202792
0.318944 0.258915 0.211429
0.309972 0.246036 0.217350
0.360632 0.248844 0.216922
0.436347 0.253452 0.214817
0.518425 0.256687 0.211978
0.603449 0.258976 0.208408
0.685695 0.262516 0.203738
0.759121 0.268254 0.199008
0.823392 0.276951 0.194369
0.879454 0.288792 0.190097
0.928069 0.303105 0.187045
0.980713 0.328923 0.186404
1.000000 0.356115 0.191653
1.000000 0.382086 0.203494
1.000000 0.407019 0.221622
1.000000 0.430915 0.244205
1.000000 0.452644 0.268681
1.000000 0.471931 0.293217
1.000000 0.488930 0.316472
1.000000 0.505150 0.339117
1.000000 0.521599 0.362554
1.000000 0.537865 0.386328
1.000000 0.554803 0.411109
1.000000 0.572076 0.436500
0.182528 0.239109 0.258671
0.182254 0.238926 0.258488
0.181979 0.238743 0.258305
0.181155 0.238193 0.257816
0.180179 0.237522 0.257206
0.178775 0.236576 0.256352
0.185702 0.264622 0.243229
0.274296 0.309056 0.221897
0.468086 0.359075 0.186160
0.454994 0.320867 0.203006
0.434485 0.294530 0.214633
0.438178 0.282383 0.220005
0.517571 0.288396 0.216526
0.599695 0.293980 0.212406
0.678828 0.300114 0.207675
0.749935 0.307469 0.202853
0.813046 0.316411 0.198184
0.868620 0.327825 0.193942
0.928466 0.348852 0.191440
0.977234 0.370611 0.192844
1.000000 0.391913 0.199557
1.000000 0.413214 0.212009
1.000000 0.433967 0.230167
1.000000 0.454261 0.252140
1.000000 0.473243 0.276158
1.000000 0.489906 0.299565
1.000000 0.505119 0.322026
1.000000 0.519371 0.343999
1.000000 0.534234 0.367132
1.000000 0.549340 0.390509
1.000000 0.564996 0.414923
1.000000 0.580957 0.439490
0.230045 0.271427 0.288609
0.230076 0.271427 0.288518
0.229191 0.270909 0.288029
0.228092 0.270207 0.287358
0.226474 0.268925 0.286198
0.223880 0.267277 0.284672
0.218723 0.275212 0.279301
0.246281 0.320623 0.259617
0.372442 0.383337 0.225986
0.588251 0.446937 0.164981
0.617670 0.413031 0.180240
0.589441 0.369818 0.204593
0.560784 0.338079 0.219028
0.606104 0.335760 0.218967
0.681697 0.344030 0.213687
0.749630 0.352636 0.208560
0.813626 0.363928 0.204013
0.878538 0.382452 0.200687
0.931395 0.400122 0.200137
0.974273 0.416815 0.204105
1.000000 0.433692 0.212711
1.000000 0.450477 0.226505
1.000000 0.467567 0.245090
1.000000 0.484474 0.267033
1.000000 0.500481 0.290379
1.000000 0.514458 0.313146
1.000000 0.527581 0.335027
1.000000 0.540154 0.356695
1.000000 0.553307 0.379065
1.000000 0.566674 0.401740
1.000000 0.580865 0.425544
1.000000 0.595575 0.449531
0.297551 0.317327 0.331975
0.296788 0.316777 0.331426
0.295323 0.315862 0.330480
0.293614 0.314611 0.329351
0.289891 0.312139 0.326940
0.285710 0.309300 0.324254
0.281041 0.306004 0.321111
0.277165 0.332158 0.309117
0.329808 0.393194 0.281529
0.483955 0.469612 0.233036
0.684810 0.534905 0.145022
0.745907 0.514122 0.144625
0.722103 0.460792 0.187198
0.695186 0.417731 0.211337
0.684840 0.392004 0.224033
0.762325 0.409186 0.218997
0.829404 0.425635 0.215702
0.886320 0.440711 0.214298
0.933257 0.454627 0.217014
0.971893 0.467475 0.222873
1.000000 0.479469 0.233158
1.000000 0.490761 0.246891
1.000000 0.502525 0.263340
1.000000 0.514000 0.282170
1.000000 0.525353 0.302281
1.000000 0.535912 0.322210
1.000000 0.546777 0.343053
1.000000 0.557946 0.364050
1.000000 0.570001 0.386786
1.000000 0.583062 0.410498
1.000000 0.596704 0.434882
1.000000 0.611048 0.459998
0.371283 0.368444 0.381476
0.370916 0.368200 0.381170
0.369940 0.367468 0.380499
0.368383 0.366369 0.379431
0.365484 0.364385 0.377447
0.362219 0.362066 0.375219
0.357671 0.358862 0.372107
0.352880 0.355566 0.368841
0.359228 0.407996 0.349767
0.438422 0.484413 0.313878
0.599237 0.566430 0.253300
0.771908 0.628931 0.152377
0.855863 0.625025 0.115297
0.844175 0.574151 0.179019
0.828519 0.529839 0.211948
0.811307 0.492866 0.232578
0.836790 0.486397 0.238163
0.887144 0.497566 0.238193
0.929107 0.507073 0.241947
0.964630 0.515618 0.248936
0.994507 0.523766 0.259159
1.000000 0.531792 0.272282
1.000000 0.540490 0.288273
1.000000 0.549279 0.306340
1.000000 0.558038 0.325597
1.000000 0.566705 0.344945
1.000000 0.575494 0.364599
1.000000 0.584863 0.385168
1.000000 0.595270 0.407111
1.000000 0.606806 0.430304
1.000000 0.619104 0.454231
1.000000 0.631983 0.478157
0.464576 0.436347 0.448188
0.464668 0.436408 0.448219
0.464027 0.435920 0.447730
0.462409 0.434699 0.446540
0.459815 0.432746 0.444617
0.456886 0.430579 0.442451
0.452979 0.427588 0.439551
0.449134 0.424750 0.436744
0.449836 0.435035 0.435340
0.479896 0.517906 0.414435
0.575769 0.603571 0.379339
0.719875 0.684047 0.322515
0.909392 0.797238 0.356390
0.971130 0.777981 0.326238
0.966217 0.733608 0.330663
0.958190 0.691768 0.332586
0.947967 0.653101 0.333349
0.938415 0.620386 0.334874
0.967956 0.621424 0.341741
0.993225 0.622675 0.351415
1.000000 0.624231 0.363378
1.000000 0.626307 0.376867
1.000000 0.629053 0.392035
1.000000 0.632563 0.407874
1.000000 0.636378 0.423651
1.000000 0.640192 0.439033
1.000000 0.644251 0.453864
1.000000 0.648524 0.468177
1.000000 0.653834 0.483223
1.000000 0.660334 0.499489
1.000000 0.667903 0.516655
1.000000 0.676753 0.535241
0.622889 0.572808 0.580560
0.622156 0.572107 0.579858
0.620691 0.570611 0.578485
0.618158 0.568139 0.576074
0.614832 0.564874 0.572961
0.611017 0.561212 0.569451
0.607568 0.557855 0.566247
0.604791 0.555169 0.563653
0.603235 0.553735 0.562280
0.605371 0.588251 0.557183
0.641657 0.671199 0.542046
0.722133 0.745724 0.521447
0.826535 0.802060 0.492714
0.926909 0.832425 0.454749
0.987915 0.817075 0.426551
0.985443 0.779385 0.417975
0.980529 0.742214 0.406592
0.973754 0.706966 0.396246
0.966094 0.675074 0.389563
0.973907 0.659541 0.389899
0.995575 0.658412 0.397314
1.000000 0.658289 0.407507
1.000000 0.658900 0.419257
1.000000 0.660670 0.432746
1.000000 0.662806 0.446540
1.000000 0.665309 0.460334
1.000000 0.668299 0.474067
1.000000 0.671962 0.488228
1.000000 0.676509 0.503014
1.000000 0.682399 0.519249
1.000000 0.689235 0.536278
1.000000 0.697047 0.554131
0.700954 0.655695 0.659419
0.699977 0.654597 0.658381
0.697353 0.651637 0.655573
0.694057 0.647944 0.652064
0.689845 0.643183 0.647547
0.684627 0.637385 0.642054
0.679927 0.632227 0.637140
0.676051 0.627985 0.633112
0.673243 0.625025 0.630304
0.672572 0.624231 0.629541
0.677882 0.676539 0.623407
0.713527 0.745052 0.612604
0.777493 0.799039 0.598260
0.857267 0.838132 0.577447
0.938933 0.860899 0.546136
0.996765 0.846799 0.515068
0.995666 0.813382 0.495644
0.992767 0.780545 0.476570
0.988586 0.749447 0.460639
0.983642 0.720485 0.448096
0.978454 0.695247 0.440681
0.996765 0.692683 0.447089
1.000000 0.691920 0.456153
1.000000 0.692256 0.467140
1.000000 0.693111 0.478767
1.000000 0.694331 0.490669
1.000000 0.696162 0.502922
1.000000 0.698512 0.515343
1.000000 0.702052 0.529107
1.000000 0.706874 0.544335
1.000000 0.712703 0.560449
1.000000 0.719631 0.577722
0.751675 0.715328 0.716060
0.751217 0.714748 0.715511
0.749172 0.712276 0.713161
0.746212 0.708705 0.709773
0.742061 0.703761 0.705043
0.737331 0.698054 0.699641
0.733089 0.693019 0.694850
0.729244 0.688472 0.690486
0.726802 0.685573 0.687770
0.725765 0.684413 0.686671
0.726223 0.684871 0.687098
0.734798 0.745327 0.681727
0.766079 0.795987 0.674098
0.815763 0.834440 0.662867
0.877897 0.862730 0.645075
0.945556 0.880797 0.617334
0.996368 0.868345 0.588678
1.000000 0.840177 0.564202
0.999786 0.811734 0.542229
0.997528 0.784329 0.523033
0.994629 0.759091 0.508324
0.991699 0.736995 0.498512
0.996979 0.724727 0.497475
1.000000 0.723568 0.505272
1.000000 0.723079 0.514092
1.000000 0.723293 0.524132
1.000000 0.724361 0.534997
1.000000 0.726436 0.547417
1.000000 0.729824 0.561334
1.000000 0.734707 0.577264
1.000000 0.740780 0.594659
1.000000 0.747890 0.612848
0.784421 0.755428 0.754360
0.784451 0.755459 0.754421
0.783688 0.754513 0.753536
0.782376 0.752895 0.751980
0.780362 0.750454 0.749599
0.778286 0.747860 0.747158
0.776516 0.745632 0.745022
0.775021 0.743862 0.743313
0.774014 0.742611 0.742123
0.773159 0.741573 0.741115
0.772335 0.740566 0.740139
0.771115 0.752651 0.737758
0.779294 0.795743 0.731014
0.803342 0.830442 0.721614
0.841611 0.857633 0.708949
0.891081 0.878538 0.690974
0.948943 0.894163 0.666896
0.991760 0.883360 0.643244
1.000000 0.860472 0.618921
1.000000 0.835721 0.596979
1.000000 0.812528 0.578973
1.000000 0.791135 0.564752
1.000000 0.772305 0.554559
0.998657 0.756222 0.548852
1.000000 0.753872 0.555291
1.000000 0.753780 0.564294
1.000000 0.754482 0.574487
1.000000 0.755947 0.585809
1.000000 0.758419 0.598199
1.000000 0.761929 0.611872
1.000000 0.766354 0.626673
1.000000 0.771725 0.642298
0.809110 0.785672 0.783597
0.809049 0.785519 0.783474
0.808560 0.784970 0.782956
0.807767 0.783963 0.781979
0.806668 0.782681 0.780728
0.805295 0.781003 0.779080
0.804105 0.779568 0.777707
0.802976 0.778164 0.776333
0.801999 0.776974 0.775204
0.801144 0.775906 0.774136
0.800259 0.774807 0.773098
0.799283 0.773648 0.772000
0.798672 0.793851 0.768643
0.807797 0.826566 0.762448
0.828794 0.853208 0.754238
0.860685 0.874601 0.743252
0.901854 0.891569 0.728573
0.950896 0.904906 0.710048
0.987945 0.896971 0.692287
1.000000 0.878874 0.671839
1.000000 0.857725 0.651728
1.000000 0.837827 0.634211
1.000000 0.819638 0.620233
1.000000 0.803342 0.609857
1.000000 0.789517 0.603601
1.000000 0.781979 0.604761
1.000000 0.782437 0.614008
1.000000 0.783597 0.624323
1.000000 0.785672 0.635950
1.000000 0.788632 0.648615
1.000000 0.792325 0.662043
1.000000 0.796658 0.675868
0.832364 0.813565 0.810880
0.832609 0.813870 0.811154
0.854063 0.839139 0.836088
0.853605 0.838621 0.835569
0.852903 0.837766 0.834745
0.851926 0.836606 0.833585
0.850736 0.835233 0.832242
0.849607 0.833921 0.830961
0.848661 0.832853 0.829831
0.847837 0.831876 0.828885
0.846952 0.830808 0.827848
0.845823 0.829496 0.826535
0.844083 0.827420 0.824491
0.843565 0.846983 0.820096
0.850370 0.867552 0.814115
0.865263 0.884977 0.806638
0.888060 0.899443 0.797055
0.918608 0.911406 0.785153
0.956207 0.921080 0.770993
0.985931 0.915221 0.757351
1.000000 0.901427 0.740566
1.000000 0.883787 0.721614
1.000000 0.867002 0.704738
1.000000 0.851347 0.690181
1.000000 0.836728 0.677485
1.000000 0.824002 0.668208
1.000000 0.813352 0.662409
1.000000 0.811124 0.666529
1.000000 0.811704 0.674556
1.000000 0.813382 0.684291
1.000000 0.816007 0.695338
1.000000 0.819242 0.706813
0.856748 0.842283 0.839231
0.858457 0.844266 0.841184
0.860105 0.846159 0.843046
0.861357 0.847623 0.844480
0.861997 0.848386 0.845243
0.861723 0.848051 0.844968
0.860960 0.847166 0.844053
0.859953 0.845975 0.842893
0.859068 0.844938 0.841855
0.858122 0.843870 0.840787
0.857298 0.842893 0.839841
0.856291 0.841733 0.838651
0.854856 0.840055 0.837003
0.852934 0.840818 0.834653
0.853788 0.861051 0.830198
0.861204 0.878691 0.824735
0.875364 0.893797 0.818265
0.896483 0.906737 0.810513
0.924102 0.917693 0.801572
0.957488 0.926757 0.791257
0.984009 0.922942 0.781521
1.000000 0.912718 0.770199
1.000000 0.897520 0.754391
1.000000 0.882963 0.739620
1.000000 0.869139 0.726162
1.000000 0.856413 0.714687
1.000000 0.845304 0.706233
1.000000 0.836301 0.701686
1.000000 0.831632 0.703182
1.000000 0.832792 0.711482
1.000000 0.834897 0.721126
1.000000 0.837644 0.731441
0.867796 0.855070 0.851926
0.869352 0.856840 0.853696
0.870909 0.858610 0.855467
0.872190 0.860075 0.856962
0.872923 0.860929 0.857755
0.872831 0.860838 0.857694
0.872251 0.860166 0.857023
0.871427 0.859220 0.856077
0.870573 0.858244 0.855100
0.869718 0.857267 0.854154
0.868925 0.856352 0.853208
0.868070 0.855344 0.852232
0.866880 0.854002 0.850889
0.865507 0.852415 0.849271
0.863890 0.858732 0.846677
0.865934 0.875639 0.842649
0.873472 0.890532 0.837888
0.886717 0.903563 0.832334
0.905730 0.914885 0.826047
0.930205 0.924620 0.819059
0.959350 0.932738 0.811124
0.983032 0.930327 0.803952
1.000000 0.922789 0.796262
1.000000 0.909606 0.782712
1.000000 0.896818 0.769497
1.000000 0.884672 0.757565
1.000000 0.873594 0.747463
1.000000 0.864103 0.740475
1.000000 0.856840 0.737545
1.000000 0.851926 0.738613
1.000000 0.852415 0.745785
1.000000 0.854551 0.754665
0.878691 0.867521 0.864408
0.879973 0.868986 0.865843
0.881224 0.870420 0.867277
0.882231 0.871550 0.868437
0.882811 0.872221 0.869108
0.882780 0.872190 0.869017
0.882322 0.871702 0.868559
0.881743 0.870970 0.867826
0.881071 0.870237 0.867094
0.880369 0.869444 0.866300
0.879698 0.868681 0.865537
0.878965 0.867857 0.864714
0.878050 0.866789 0.863676
0.876982 0.865568 0.862425
0.875700 0.864134 0.860960
0.874876 0.874571 0.858457
0.878172 0.889250 0.855467
0.886259 0.902464 0.852201
0.899107 0.914275 0.848875
0.916625 0.924681 0.845426
0.938201 0.933684 0.841794
0.963256 0.941253 0.837827
0.983459 0.940398 0.834318
1.000000 0.935485 0.831327
1.000000 0.925017 0.821134
1.000000 0.914885 0.811398
1.000000 0.905455 0.802792
1.000000 0.897154 0.796292
1.000000 0.890379 0.792538
1.000000 0.885313 0.791562
1.000000 0.882048 0.793393
1.000000 0.881041 0.797879
0.896086 0.887236 0.884215
0.896544 0.887724 0.884703
0.896849 0.888029 0.885039
0.896880 0.888121 0.885100
0.896696 0.887938 0.884916
0.896269 0.887419 0.884398
0.895720 0.886809 0.883787
0.895140 0.886107 0.883085
0.894591 0.885496 0.882475
0.894102 0.884977 0.881926
0.893645 0.884459 0.881407
0.893156 0.883909 0.880888
0.892485 0.883146 0.880095
0.891661 0.882231 0.879179
0.890684 0.881132 0.878050
0.889555 0.879850 0.876768
0.889403 0.892393 0.874235
0.892882 0.904326 0.871550
0.900206 0.915099 0.868711
0.911406 0.924834 0.865690
0.926268 0.933379 0.862486
0.944640 0.940826 0.859068
0.966064 0.947082 0.855131
0.983948 0.946746 0.851591
1.000000 0.942412 0.848844
1.000000 0.933593 0.840299
1.000000 0.924865 0.831968
1.000000 0.916899 0.825162
1.000000 0.910063 0.820401
1.000000 0.904540 0.817807
1.000000 0.900420 0.817472
1.000000 0.897642 0.819089
0.904662 0.896788 0.893889
0.904997 0.897154 0.894255
0.905241 0.897429 0.894530
0.905333 0.897551 0.894621
0.905211 0.897429 0.894530
0.904936 0.897093 0.894194
0.904479 0.896605 0.893706
0.904051 0.896117 0.893217
0.903624 0.895659 0.892729
0.903258 0.895262 0.892332
0.902953 0.894896 0.891966
0.902617 0.894530 0.891569
0.902159 0.893980 0.891051
0.901610 0.893431 0.890471
0.900969 0.892729 0.889738
0.900267 0.891936 0.888945
0.899504 0.894408 0.887846
0.900389 0.905486 0.885924
0.904295 0.915770 0.883848
0.911376 0.925139 0.881773
0.921569 0.933562 0.879545
0.934783 0.941009 0.877226
0.950744 0.947478 0.874754
0.969085 0.952941 0.871977
0.984466 0.951354 0.863401
0.999420 0.947509 0.861082
1.000000 0.940276 0.854582
1.000000 0.932677 0.847654
1.000000 0.925963 0.842222
1.000000 0.920226 0.838651
1.000000 0.915740 0.837247
1.000000 0.912444 0.837613
0.916167 0.909545 0.906828
0.916655 0.910124 0.907408
0.916869 0.910338 0.907652
0.916716 0.910185 0.907469
0.916258 0.909667 0.906981
0.915587 0.908934 0.906218
0.914794 0.908019 0.905272
0.913878 0.907042 0.904295
0.912993 0.906096 0.903319
0.912230 0.905241 0.902434
0.911406 0.904326 0.901518
0.910704 0.903532 0.900725
0.910002 0.902739 0.899901
0.909148 0.901793 0.898955
0.908171 0.900725 0.897856
0.907164 0.899565 0.896696
0.906126 0.898466 0.895567
0.905394 0.903593 0.894072
0.906828 0.913512 0.892332
0.911131 0.922850 0.890745
0.918273 0.931426 0.889220
0.927947 0.939025 0.887541
0.939940 0.945647 0.885466
0.954192 0.951263 0.882902
0.970672 0.955932 0.879698
0.985290 0.956359 0.876646
0.998260 0.952850 0.874449
1.000000 0.946777 0.869108
1.000000 0.940124 0.862760
1.000000 0.934264 0.858122
1.000000 0.929412 0.855344
1.000000 0.925658 0.854429
0.921508 0.915435 0.912840
0.921935 0.915953 0.913359
0.922210 0.916228 0.913664
0.922210 0.916258 0.913664
0.922057 0.916075 0.913481
0.921782 0.915770 0.913176
0.921508 0.915435 0.912840
0.921141 0.915068 0.912474
0.920867 0.914733 0.912139
0.920592 0.914458 0.911833
0.920226 0.914061 0.911437
0.919921 0.913695 0.911070
0.919432 0.913176 0.910552
0.918853 0.912566 0.909880
0.918120 0.911711 0.909056
0.917296 0.910796 0.908141
0.916442 0.909880 0.907195
0.915740 0.909117 0.906371
0.915465 0.916350 0.904997
0.917449 0.924865 0.903716
0.921691 0.932860 0.902495
0.928161 0.940093 0.901244
0.936675 0.946532 0.899870
0.947143 0.952178 0.898192
0.959503 0.957000 0.896239
0.973693 0.961059 0.893980
0.986511 0.961913 0.891936
0.997284 0.958984 0.890776
1.000000 0.954406 0.887602
1.000000 0.949065 0.882750
1.000000 0.944427 0.879362
1.000000 0.940642 0.877348
0.929137 0.923796 0.921416
0.929351 0.924041 0.921660
0.929412 0.924132 0.921721
0.929381 0.924071 0.921660
0.929198 0.923888 0.921447
0.928923 0.923613 0.921202
0.928618 0.923278 0.920836
0.928313 0.922911 0.920470
0.927977 0.922576 0.920134
0.927733 0.922271 0.919799
0.927398 0.921965 0.919493
0.927153 0.921660 0.919188
0.926848 0.921294 0.918822
0.926390 0.920836 0.918334
0.925811 0.920165 0.917693
0.925139 0.919432 0.916930
0.924468 0.918730 0.916197
0.923888 0.918059 0.915526
0.923461 0.918669 0.915007
0.923827 0.926482 0.913878
0.926024 0.933898 0.912871
0.930114 0.940734 0.911833
0.935943 0.946899 0.910613
0.943511 0.952392 0.909239
0.952697 0.957183 0.907622
0.963531 0.961273 0.905760
0.975921 0.964782 0.903777
0.987488 0.965728 0.902007
0.996704 0.963134 0.901213
1.000000 0.959594 0.899535
1.000000 0.955200 0.895781
1.000000 0.951507 0.893309
0.935027 0.930266 0.927977
0.935180 0.930419 0.928161
0.935302 0.930571 0.928313
0.935332 0.930602 0.928344
0.935393 0.930632 0.928374
0.935485 0.930724 0.928496
0.935760 0.931060 0.928801
0.936156 0.931487 0.929259
0.936706 0.932067 0.929839
0.937285 0.932738 0.930510
0.937957 0.933440 0.931243
0.938537 0.934051 0.931914
0.939025 0.934600 0.932433
0.939330 0.934936 0.932769
0.939422 0.935027 0.932891
0.939178 0.934813 0.932647
0.938933 0.934508 0.932372
0.938689 0.934234 0.932067
0.938567 0.934112 0.931975
0.938506 0.936645 0.931640
0.939208 0.942687 0.930877
0.941253 0.948333 0.930114
0.944579 0.953460 0.929259
0.949157 0.958038 0.928252
0.955047 0.962127 0.927092
0.962158 0.965728 0.925811
0.970611 0.968811 0.924498
0.980194 0.971435 0.923156
0.989197 0.972320 0.922148
0.995911 0.970245 0.921965
1.000000 0.967773 0.921630
1.000000 0.964630 0.918822
0.945739 0.941863 0.939910
0.945708 0.941894 0.939910
0.945678 0.941802 0.939849
0.945586 0.941711 0.939757
0.945464 0.941588 0.939605
0.945312 0.941436 0.939483
0.945220 0.941344 0.939391
0.945190 0.941253 0.939300
0.945190 0.941253 0.939300
0.945220 0.941314 0.939330
0.945281 0.941405 0.939422
0.945373 0.941466 0.939513
0.945403 0.941558 0.939605
0.945403 0.941558 0.939605
