20 Preset/Dark Style/【3】LUT video cho PR-AE-FCPX/19Tones (4)/19Tones - Sunset.cube
# Created by Adobe Lightroom plugin Export LUT (1.24.0)
# www.johnrellis.com/lightroom/exportlut.htm
# Preset: 19Tones - Sunset
# Color profile: E:\lut插件\exportlut.1.24\exportlut.lrplugin\color profiles\Rec709gamma2.4.icc
LUT_3D_SIZE 32
DOMAIN_MIN 0.0 0.0 0.0
DOMAIN_MAX 1.0 1.0 1.0
0.105837 0.187747 0.211307
0.105837 0.187747 0.211307
0.107698 0.187930 0.211398
0.112581 0.188113 0.211612
0.123140 0.188693 0.211978
0.144198 0.189181 0.212222
0.174868 0.189883 0.212375
0.214603 0.190311 0.212406
0.265904 0.189700 0.212192
0.331304 0.187106 0.211460
0.410529 0.180758 0.210056
0.502098 0.167514 0.207553
0.600000 0.145418 0.204044
0.695064 0.116976 0.198886
0.777279 0.092378 0.192966
0.846464 0.088930 0.186282
0.926116 0.121981 0.175784
0.993866 0.173495 0.164462
1.000000 0.215518 0.156832
1.000000 0.251804 0.152438
1.000000 0.283055 0.152346
1.000000 0.309911 0.156161
1.000000 0.332830 0.163821
1.000000 0.353674 0.174746
1.000000 0.373083 0.188968
1.000000 0.392004 0.206485
1.000000 0.412024 0.227512
1.000000 0.433478 0.253422
1.000000 0.457588 0.285405
1.000000 0.485664 0.324712
1.000000 0.518608 0.372534
1.000000 0.557763 0.430396
0.105318 0.188052 0.211398
0.105531 0.187900 0.211429
0.108095 0.188083 0.211398
0.112398 0.188296 0.211582
0.122988 0.188846 0.211948
0.142367 0.189609 0.212192
0.171298 0.190249 0.212253
0.209293 0.190860 0.212314
0.256992 0.190829 0.212161
0.318273 0.188907 0.211429
0.393866 0.183597 0.210269
0.481941 0.172519 0.208103
0.577691 0.153780 0.204685
0.673121 0.128878 0.199924
0.757717 0.105104 0.194186
0.829252 0.097993 0.187472
0.910887 0.121218 0.177340
0.979065 0.167208 0.166293
1.000000 0.207980 0.158022
1.000000 0.242802 0.152834
1.000000 0.273289 0.150698
1.000000 0.299138 0.152895
1.000000 0.321508 0.158328
1.000000 0.341955 0.166659
1.000000 0.360723 0.178408
1.000000 0.379187 0.193729
1.000000 0.398688 0.212955
1.000000 0.419806 0.236912
1.000000 0.443397 0.267063
1.000000 0.470741 0.304387
1.000000 0.502831 0.350347
1.000000 0.540948 0.406409
0.105287 0.188937 0.212070
0.106111 0.188754 0.212100
0.107942 0.188815 0.211704
0.112795 0.189181 0.211612
0.123049 0.190066 0.211795
0.141726 0.191165 0.212009
0.169009 0.192233 0.212192
0.204776 0.193179 0.212131
0.250156 0.193576 0.211856
0.308141 0.192966 0.211307
0.380713 0.189395 0.210086
0.465827 0.181186 0.207889
0.559258 0.166720 0.204654
0.654231 0.146639 0.200046
0.740352 0.128939 0.194217
0.813779 0.122438 0.187503
0.898497 0.140536 0.177127
0.966796 0.177005 0.165927
1.000000 0.212528 0.157351
1.000000 0.245640 0.151034
1.000000 0.274540 0.148409
1.000000 0.299809 0.149264
1.000000 0.320928 0.153445
1.000000 0.340490 0.161166
1.000000 0.358587 0.171939
1.000000 0.375982 0.186282
1.000000 0.394659 0.204562
1.000000 0.415229 0.227451
1.000000 0.438148 0.256657
1.000000 0.464790 0.293156
1.000000 0.495949 0.338048
1.000000 0.532708 0.392248
0.105318 0.191257 0.213718
0.106203 0.191073 0.213626
0.107912 0.190677 0.213535
0.114199 0.191012 0.212039
0.125216 0.191257 0.211917
0.141878 0.194217 0.211765
0.167269 0.195865 0.211765
0.200748 0.197543 0.211673
0.243748 0.199008 0.211368
0.298863 0.199619 0.210666
0.367773 0.198154 0.209445
0.449287 0.193332 0.207309
0.539117 0.184207 0.204044
0.632441 0.170901 0.199527
0.719051 0.159152 0.193576
0.793271 0.156313 0.186893
0.881468 0.170260 0.175784
0.946654 0.196567 0.165164
0.994385 0.224552 0.156039
1.000000 0.251987 0.148653
1.000000 0.276646 0.144564
1.000000 0.299809 0.143252
1.000000 0.320043 0.145876
1.000000 0.339239 0.152224
1.000000 0.357763 0.162112
1.000000 0.376135 0.176547
1.000000 0.395605 0.195834
1.000000 0.416297 0.220157
1.000000 0.439399 0.250217
1.000000 0.465461 0.286717
1.000000 0.495125 0.330816
1.000000 0.529320 0.382574
0.103365 0.198093 0.217960
0.104219 0.197910 0.217990
0.113649 0.195468 0.217838
0.109346 0.196506 0.215244
0.125734 0.195132 0.212467
0.143771 0.194064 0.211887
0.164096 0.198398 0.211612
0.193271 0.202914 0.211124
0.232273 0.205417 0.210819
0.282353 0.207675 0.210117
0.345434 0.208835 0.208713
0.421637 0.208042 0.206638
0.507866 0.204379 0.203342
0.600000 0.197665 0.198795
0.688991 0.191470 0.192569
0.777615 0.192142 0.184268
0.863066 0.205692 0.172976
0.928985 0.226749 0.161563
0.979065 0.249332 0.151492
1.000000 0.272435 0.143282
1.000000 0.294255 0.137606
1.000000 0.314275 0.135439
1.000000 0.332372 0.137057
1.000000 0.349920 0.143404
1.000000 0.367315 0.153262
1.000000 0.384405 0.168368
1.000000 0.402564 0.187594
1.000000 0.421942 0.212375
1.000000 0.443458 0.242252
1.000000 0.467689 0.278325
1.000000 0.495521 0.321050
1.000000 0.527703 0.371527
0.093416 0.213687 0.227420
0.097230 0.213046 0.227359
0.113527 0.209171 0.226902
0.123568 0.205539 0.225620
0.115419 0.207431 0.217350
0.144320 0.201572 0.212894
0.166232 0.197787 0.212070
0.191867 0.203464 0.211337
0.225956 0.211704 0.210086
0.272404 0.217441 0.209049
0.332097 0.221195 0.207462
0.404730 0.223880 0.205081
0.488106 0.224704 0.201572
0.578363 0.223911 0.196536
0.668605 0.223545 0.189731
0.771054 0.230808 0.178897
0.853269 0.245243 0.166659
0.919066 0.264591 0.153902
0.970153 0.284916 0.142336
1.000000 0.304356 0.132601
1.000000 0.323033 0.126101
1.000000 0.340185 0.123568
1.000000 0.416022 0.152316
1.000000 0.430426 0.173281
1.000000 0.444831 0.196689
1.000000 0.460151 0.223056
1.000000 0.476783 0.252415
1.000000 0.495247 0.285649
1.000000 0.516655 0.323644
1.000000 0.541527 0.367315
1.000000 0.570306 0.416724
1.000000 0.602655 0.470802
0.000855 0.260075 0.255558
0.024506 0.258518 0.255131
0.106691 0.251194 0.254124
0.164828 0.236149 0.253178
0.126741 0.236301 0.238895
0.137301 0.232792 0.220554
0.178164 0.214969 0.213230
0.203067 0.204135 0.212070
0.239017 0.212589 0.210727
0.287602 0.224613 0.208347
0.351202 0.241154 0.204318
0.428717 0.248569 0.200473
0.515709 0.253758 0.195468
0.606806 0.258396 0.188479
0.723232 0.272496 0.175113
0.816861 0.290288 0.159701
0.891020 0.309880 0.143343
0.948363 0.328954 0.127352
0.993927 0.347051 0.113252
1.000000 0.364843 0.102144
1.000000 0.382147 0.097230
1.000000 0.399237 0.102052
1.000000 0.416419 0.116854
1.000000 0.433143 0.139528
1.000000 0.449195 0.167178
1.000000 0.464576 0.196170
1.000000 0.479683 0.227481
1.000000 0.495949 0.260502
1.000000 0.514733 0.297765
1.000000 0.536126 0.339635
1.000000 0.561517 0.386938
1.000000 0.591211 0.440101
0.000000 0.318181 0.291905
0.000000 0.315679 0.291325
0.084230 0.306218 0.289860
0.178531 0.287327 0.287846
0.194491 0.272251 0.279149
0.117556 0.271305 0.243320
0.170443 0.257939 0.221927
0.208560 0.226688 0.213352
0.231449 0.209171 0.212131
0.274113 0.219364 0.210422
0.331212 0.233494 0.207187
0.402533 0.252415 0.201999
0.490822 0.274479 0.193545
0.598871 0.290257 0.182071
0.702083 0.306401 0.168399
0.787076 0.322881 0.152865
0.858579 0.339910 0.135744
0.918090 0.357275 0.116701
0.966979 0.374121 0.096956
1.000000 0.389776 0.072297
1.000000 0.405280 0.046021
1.000000 0.420630 0.046509
1.000000 0.435431 0.079561
1.000000 0.449866 0.109163
1.000000 0.463569 0.139528
1.000000 0.476356 0.171542
1.000000 0.489296 0.204074
1.000000 0.503166 0.238315
1.000000 0.519402 0.275975
1.000000 0.538476 0.317876
1.000000 0.561212 0.364752
1.000000 0.588312 0.417792
0.000000 0.401251 0.349065
0.000000 0.398566 0.348608
0.028077 0.388251 0.346746
0.207187 0.366400 0.344244
0.312139 0.330602 0.343389
0.197177 0.329656 0.302251
0.137484 0.317266 0.248905
0.218265 0.290440 0.222202
0.246891 0.243015 0.213169
0.263737 0.214969 0.212100
0.319707 0.228061 0.209506
0.397009 0.247166 0.204593
0.490028 0.273198 0.195773
0.590478 0.307103 0.181064
0.683742 0.336248 0.162783
0.761837 0.353368 0.144747
0.831266 0.370581 0.124239
0.892363 0.387518 0.100038
0.944213 0.403784 0.054597
0.988006 0.418982 0.000000
1.000000 0.433417 0.000000
1.000000 0.447028 0.000000
1.000000 0.459937 0.000000
1.000000 0.472145 0.040101
1.000000 0.483619 0.107301
1.000000 0.494087 0.145022
1.000000 0.504814 0.181827
1.000000 0.516503 0.218326
1.000000 0.530541 0.257694
1.000000 0.547051 0.300389
1.000000 0.567315 0.347967
1.000000 0.591638 0.400946
0.000000 0.505638 0.429511
0.000000 0.502068 0.428412
0.131075 0.491096 0.426062
0.263981 0.468147 0.422980
0.375341 0.429938 0.419593
0.350103 0.406928 0.393774
0.186099 0.397528 0.316136
0.187350 0.371344 0.253513
0.284977 0.335821 0.220798
0.303563 0.267216 0.212070
0.311986 0.223331 0.211398
0.379217 0.239475 0.207675
0.461158 0.260899 0.201205
0.553918 0.289372 0.190280
0.649226 0.326574 0.172427
0.734401 0.370825 0.145022
0.806699 0.396521 0.117098
0.869993 0.416632 0.072358
0.924651 0.435340 0.000000
0.971038 0.450629 0.000000
1.000000 0.463752 0.000000
1.000000 0.474678 0.000000
1.000000 0.484596 0.000000
1.000000 0.493355 0.000000
1.000000 0.501610 0.002838
1.000000 0.509392 0.101900
1.000000 0.517845 0.146700
1.000000 0.527703 0.187778
1.000000 0.539727 0.230014
1.000000 0.554650 0.275151
1.000000 0.572961 0.324895
1.000000 0.595636 0.380255
0.193271 0.607446 0.519493
0.209720 0.605890 0.519493
0.270909 0.598810 0.519860
0.361364 0.582910 0.520653
0.467018 0.555230 0.523217
0.553429 0.518517 0.524407
0.401160 0.517479 0.457862
0.216098 0.502922 0.343603
0.283177 0.461769 0.264225
0.380743 0.399634 0.215457
0.372656 0.297948 0.209018
0.358862 0.231479 0.210483
0.433875 0.249851 0.205417
0.521141 0.274357 0.196963
0.615045 0.306950 0.183169
0.703975 0.348089 0.161563
0.781613 0.394873 0.128237
0.848142 0.441505 0.042939
0.903777 0.460578 0.000000
0.950408 0.477241 0.000000
0.990204 0.490852 0.000000
1.000000 0.501488 0.000000
1.000000 0.510704 0.000000
1.000000 0.518578 0.000000
1.000000 0.525566 0.000000
1.000000 0.532067 0.000000
1.000000 0.538933 0.111360
1.000000 0.546838 0.162478
1.000000 0.556878 0.209384
1.000000 0.569574 0.257755
1.000000 0.585687 0.309880
1.000000 0.605921 0.366552
0.424659 0.726558 0.638972
0.431922 0.725032 0.638972
0.461433 0.719051 0.639399
0.510430 0.707179 0.640009
0.578882 0.686519 0.641474
0.657954 0.655695 0.644282
0.619898 0.638239 0.614679
0.471351 0.628962 0.524437
0.331395 0.603845 0.386084
0.401190 0.549706 0.275547
0.486030 0.469764 0.205234
0.453071 0.336339 0.202945
0.496590 0.256626 0.204105
0.601190 0.288792 0.192172
0.701534 0.332036 0.172488
0.786770 0.382971 0.142336
0.857664 0.436378 0.089937
0.914092 0.486976 0.000000
0.957702 0.531518 0.000000
0.993103 0.559228 0.000000
1.000000 0.567102 0.000000
1.000000 0.573266 0.000000
1.000000 0.577386 0.000000
1.000000 0.580621 0.000000
1.000000 0.583490 0.000000
1.000000 0.586358 0.047211
1.000000 0.589929 0.143832
1.000000 0.594720 0.195987
1.000000 0.601495 0.243687
1.000000 0.611475 0.293431
1.000000 0.624903 0.345830
1.000000 0.643122 0.403815
0.663355 0.836759 0.775357
0.664881 0.835752 0.774990
0.672999 0.831754 0.773892
0.691981 0.823362 0.772457
0.720607 0.810361 0.770932
0.758663 0.791226 0.769375
0.786069 0.768887 0.763668
0.704311 0.759548 0.714900
0.573083 0.748043 0.611109
0.500847 0.721248 0.474403
0.557031 0.669245 0.322332
0.639734 0.587030 0.189975
0.600671 0.415656 0.182681
0.523644 0.261692 0.202457
0.632288 0.296849 0.188846
0.729976 0.342779 0.167330
0.810697 0.394568 0.134707
0.876310 0.447150 0.065400
0.928130 0.495674 0.000000
0.968109 0.538079 0.000000
0.999756 0.574914 0.000000
1.000000 0.589319 0.000000
1.000000 0.594720 0.000000
1.000000 0.599176 0.000000
1.000000 0.601770 0.000000
1.000000 0.604120 0.000000
1.000000 0.606867 0.051392
1.000000 0.610742 0.153231
1.000000 0.616419 0.211765
1.000000 0.624842 0.266789
1.000000 0.636500 0.322911
1.000000 0.652430 0.383337
0.729580 0.865904 0.815579
0.729885 0.864866 0.814847
0.734340 0.861387 0.813352
0.744564 0.855497 0.811734
0.761685 0.846189 0.809842
0.786465 0.832944 0.808042
0.818021 0.815763 0.807065
0.792721 0.804654 0.787533
0.717952 0.797024 0.735744
0.605982 0.787747 0.631556
0.574273 0.763058 0.507134
0.629786 0.715724 0.346166
0.704280 0.636286 0.186160
0.664912 0.457923 0.168154
0.568261 0.270848 0.199008
0.672786 0.309117 0.183444
0.761990 0.356512 0.160067
0.835935 0.408270 0.124514
0.896971 0.460060 0.022919
0.944152 0.506554 0.000000
0.981231 0.547662 0.000000
1.000000 0.583642 0.000000
1.000000 0.613947 0.000000
1.000000 0.618891 0.000000
1.000000 0.622736 0.000000
1.000000 0.625116 0.000000
1.000000 0.627344 0.000000
1.000000 0.630121 0.100191
1.000000 0.634516 0.179629
1.000000 0.641444 0.242130
1.000000 0.651453 0.303227
1.000000 0.665461 0.367041
0.777279 0.888151 0.846036
0.778073 0.887510 0.845762
0.780575 0.885161 0.844694
0.786648 0.880797 0.843168
0.797360 0.873960 0.841337
0.813413 0.864561 0.839536
0.834989 0.852903 0.838590
0.849058 0.840391 0.834958
0.804013 0.834989 0.808408
0.738277 0.829465 0.757015
0.660243 0.820829 0.666590
0.641688 0.799222 0.545281
0.692470 0.756649 0.378973
0.760708 0.683467 0.192447
0.722133 0.499855 0.150942
0.626825 0.293523 0.192172
0.712612 0.323278 0.176699
0.795010 0.372442 0.150973
0.864012 0.424811 0.109865
0.919188 0.475044 0.000000
0.962341 0.520226 0.000000
0.996704 0.560052 0.000000
1.000000 0.594598 0.000000
1.000000 0.624720 0.000000
1.000000 0.642878 0.000000
1.000000 0.645991 0.000000
1.000000 0.648615 0.000000
1.000000 0.651301 0.000000
1.000000 0.655482 0.146609
1.000000 0.662043 0.224491
1.000000 0.671870 0.294621
1.000000 0.685908 0.366735
0.810330 0.904112 0.867826
0.810941 0.904051 0.867979
0.813596 0.902678 0.867704
0.819120 0.900023 0.867399
0.827451 0.895933 0.866941
0.839811 0.890227 0.866728
0.855924 0.883238 0.867124
0.875639 0.874540 0.868040
0.862272 0.869169 0.858152
0.824002 0.865232 0.832700
0.767575 0.860288 0.783322
0.714870 0.850156 0.705715
0.700313 0.829343 0.588251
0.741970 0.789120 0.416663
0.803647 0.719692 0.206119
0.766476 0.536339 0.134218
0.680751 0.322515 0.183169
0.745235 0.336065 0.170230
0.822995 0.386816 0.141482
0.888304 0.440162 0.093019
0.940093 0.490059 0.000000
0.980896 0.534844 0.000000
1.000000 0.573968 0.000000
1.000000 0.607843 0.000000
1.000000 0.637232 0.000000
1.000000 0.662989 0.000000
1.000000 0.671778 0.000000
1.000000 0.674708 0.000000
1.000000 0.678157 0.108705
1.000000 0.683406 0.205478
1.000000 0.691249 0.281468
1.000000 0.702754 0.355901
0.835538 0.917235 0.885313
0.836088 0.917021 0.885313
0.838041 0.916106 0.885222
0.842130 0.914305 0.885161
0.848692 0.911467 0.885100
0.858061 0.907500 0.885191
0.870207 0.902495 0.885649
0.885039 0.896208 0.886351
0.894621 0.889586 0.885191
0.869047 0.886503 0.870573
0.833310 0.882628 0.843870
0.782315 0.877867 0.794644
0.747738 0.867033 0.727321
0.739315 0.847318 0.614923
0.778561 0.811246 0.447089
0.837675 0.748806 0.225559
0.807645 0.573358 0.115572
0.735439 0.357641 0.170626
0.782712 0.353002 0.161105
0.856016 0.406043 0.127108
0.916716 0.459724 0.040070
0.964080 0.508721 0.000000
1.000000 0.552148 0.000000
1.000000 0.589929 0.000000
1.000000 0.622614 0.000000
1.000000 0.651179 0.000000
1.000000 0.676448 0.000000
1.000000 0.697536 0.000000
1.000000 0.700954 0.000000
1.000000 0.705562 0.187808
1.000000 0.712490 0.273503
1.000000 0.722683 0.353368
0.859739 0.929931 0.902281
0.860502 0.929992 0.902556
0.884642 0.941375 0.918639
0.887175 0.940246 0.918608
0.891173 0.938445 0.918578
0.896635 0.935912 0.918517
0.903929 0.932555 0.918547
0.912932 0.928405 0.918730
0.923613 0.923491 0.919158
0.916106 0.920104 0.913451
0.895659 0.917266 0.900053
0.867735 0.913634 0.876768
0.833158 0.908171 0.838773
0.809049 0.898039 0.785641
0.801816 0.881193 0.693935
0.831662 0.851865 0.535821
0.889830 0.801114 0.301915
0.875090 0.639521 0.099519
0.824277 0.420142 0.139681
0.854704 0.393225 0.135714
0.917021 0.448402 0.081331
0.965942 0.499397 0.000000
1.000000 0.544366 0.000000
1.000000 0.583185 0.000000
1.000000 0.616327 0.000000
1.000000 0.645136 0.000000
1.000000 0.670558 0.000000
1.000000 0.693568 0.000000
1.000000 0.714931 0.031067
1.000000 0.727687 0.168826
1.000000 0.733364 0.264469
1.000000 0.742061 0.349432
0.884825 0.943389 0.920195
0.886900 0.944213 0.921447
0.889860 0.944701 0.922759
0.893492 0.944701 0.923919
0.898039 0.943908 0.924804
0.902983 0.942199 0.925200
0.909026 0.939635 0.925353
0.916289 0.936248 0.925444
0.924987 0.932250 0.925719
0.930877 0.927916 0.924834
0.915404 0.925597 0.915953
0.895079 0.922728 0.901213
0.867002 0.918914 0.875914
0.838682 0.912963 0.839872
0.819211 0.902800 0.787564
0.816739 0.886473 0.698360
0.848234 0.859190 0.546441
0.904936 0.812772 0.320867
0.896574 0.662989 0.105501
0.861997 0.457069 0.116152
0.884916 0.412085 0.119814
0.943664 0.467933 0.013886
0.988495 0.517937 0.000000
1.000000 0.561212 0.000000
1.000000 0.597986 0.000000
1.000000 0.629755 0.000000
1.000000 0.657588 0.000000
1.000000 0.682734 0.000000
1.000000 0.705959 0.020111
1.000000 0.727749 0.159213
1.000000 0.749660 0.242283
1.000000 0.758572 0.335424
0.895598 0.949493 0.928161
0.897490 0.950256 0.929320
0.900053 0.950774 0.930541
0.903197 0.950896 0.931640
0.906950 0.950347 0.932464
0.911040 0.949035 0.932860
0.915953 0.946990 0.933013
0.921813 0.944335 0.933135
0.928832 0.941100 0.933288
0.936980 0.937224 0.933501
0.932128 0.934447 0.929442
0.916869 0.932128 0.919738
0.896910 0.929229 0.903960
0.870115 0.925689 0.878141
0.848447 0.919371 0.845212
0.833433 0.909667 0.795560
0.834531 0.894377 0.712001
0.866423 0.869657 0.568078
0.920409 0.826017 0.351904
0.920348 0.690578 0.125277
0.901030 0.498848 0.065827
0.918181 0.434821 0.095491
0.971344 0.489723 0.000000
1.000000 0.537926 0.000000
1.000000 0.578759 0.000000
1.000000 0.613764 0.000000
1.000000 0.644190 0.000000
1.000000 0.671656 0.000000
1.000000 0.696742 0.006775
1.000000 0.720272 0.156710
1.000000 0.742641 0.231785
1.000000 0.766140 0.318120
0.906096 0.955505 0.935973
0.907530 0.956115 0.936889
0.909606 0.956481 0.937835
0.912169 0.956512 0.938720
0.915068 0.956146 0.939361
0.918486 0.955077 0.939696
0.922423 0.953460 0.939879
0.927184 0.951354 0.939971
0.932982 0.948760 0.940154
0.939605 0.945678 0.940337
0.945251 0.942321 0.940032
0.933776 0.940490 0.933623
0.918975 0.938231 0.923308
0.899687 0.935485 0.906981
0.876249 0.931975 0.882353
0.859190 0.925963 0.851957
0.848661 0.917205 0.806424
0.853330 0.903929 0.731930
0.885588 0.883268 0.603967
0.938842 0.845548 0.406256
0.950774 0.727840 0.173495
0.952422 0.554894 0.000000
0.971466 0.476661 0.000000
1.000000 0.530846 0.000000
1.000000 0.576440 0.000000
1.000000 0.614893 0.000000
1.000000 0.648005 0.000000
1.000000 0.677577 0.000000
1.000000 0.704616 0.151858
1.000000 0.729793 0.228092
1.000000 0.753597 0.300847
1.000000 0.776516 0.375067
0.922728 0.964385 0.947936
0.923308 0.964569 0.948241
0.924102 0.964508 0.948486
0.925322 0.964202 0.948638
0.927062 0.963531 0.948730
0.929229 0.962524 0.948699
0.932067 0.961181 0.948699
0.935668 0.959503 0.948699
0.940124 0.957519 0.948821
0.945403 0.955169 0.949035
0.951354 0.952422 0.949279
0.949340 0.950256 0.946868
0.938720 0.948577 0.940337
0.925109 0.946593 0.930175
0.907530 0.944152 0.914397
0.888853 0.940703 0.892576
0.875395 0.935271 0.865171
0.867948 0.927367 0.824552
0.873838 0.915679 0.759701
0.904173 0.897765 0.646662
0.954559 0.863523 0.462318
0.973754 0.758358 0.226322
0.986572 0.599542 0.000000
1.000000 0.505180 0.000000
1.000000 0.554742 0.000000
1.000000 0.597070 0.000000
1.000000 0.633783 0.000000
1.000000 0.666316 0.000000
1.000000 0.695644 0.142855
1.000000 0.722774 0.223636
1.000000 0.748135 0.299046
1.000000 0.772549 0.376013
0.930327 0.968597 0.953552
0.930724 0.968719 0.953765
0.931426 0.968688 0.953948
0.932464 0.968414 0.954101
0.933867 0.967926 0.954223
0.935668 0.967132 0.954223
0.937987 0.966064 0.954223
0.940978 0.964721 0.954253
0.944579 0.963165 0.954406
0.948913 0.961273 0.954589
0.953796 0.959106 0.954803
0.959228 0.956542 0.955016
0.951354 0.955261 0.950713
0.941344 0.953796 0.944121
0.928557 0.952056 0.933959
0.912200 0.950042 0.918486
0.897734 0.946838 0.899321
0.887266 0.942107 0.874449
0.882689 0.935302 0.838193
0.890196 0.925292 0.781460
0.919188 0.910307 0.684718
0.967620 0.879759 0.517937
0.993927 0.787137 0.288792
1.000000 0.645167 0.000000
1.000000 0.527306 0.000000
1.000000 0.573571 0.000000
1.000000 0.614343 0.000000
1.000000 0.650080 0.000000
1.000000 0.682155 0.110140
1.000000 0.711604 0.202426
1.000000 0.739467 0.284459
1.000000 0.765927 0.366400
0.940276 0.973602 0.960479
0.940826 0.973754 0.960815
0.941344 0.973724 0.960937
0.941924 0.973419 0.960906
0.942687 0.972900 0.960784
0.943725 0.972107 0.960540
0.945098 0.971099 0.960296
0.947021 0.969848 0.960052
0.949523 0.968383 0.959838
0.952667 0.966674 0.959716
0.956298 0.964660 0.959594
0.960571 0.962371 0.959533
0.960632 0.960357 0.958068
0.952667 0.958984 0.953368
0.942657 0.957397 0.946227
0.929931 0.955566 0.935546
0.913725 0.953552 0.919524
0.902220 0.950256 0.901823
0.893675 0.945861 0.877989
0.891325 0.939788 0.844053
0.900603 0.930968 0.792142
0.929351 0.917815 0.704524
0.975463 0.889433 0.551202
1.000000 0.804685 0.329992
1.000000 0.672786 0.000000
1.000000 0.555169 0.000000
1.000000 0.597284 0.000000
1.000000 0.634913 0.000000
1.000000 0.668727 0.040314
1.000000 0.699886 0.178408
1.000000 0.729244 0.264134
1.000000 0.757382 0.349920
0.944396 0.975860 0.963531
0.944854 0.975982 0.963775
0.945373 0.975982 0.963958
0.945983 0.975799 0.964019
0.946777 0.975433 0.964019
0.947814 0.974914 0.963989
0.949310 0.974243 0.963989
0.951202 0.973358 0.963989
0.953521 0.972320 0.964050
0.956329 0.971099 0.964141
0.959442 0.969665 0.964233
0.963012 0.967987 0.964294
0.966888 0.965972 0.964324
0.962890 0.964721 0.961761
0.955505 0.963531 0.957122
0.946227 0.962188 0.950195
0.934478 0.960723 0.939849
0.921294 0.959014 0.925811
0.911925 0.956329 0.909850
0.905699 0.952697 0.888640
0.905211 0.947662 0.858824
0.914977 0.940398 0.814389
0.941894 0.929625 0.740932
0.984955 0.904967 0.610407
1.000000 0.831174 0.408209
1.000000 0.714076 0.147097
1.000000 0.590936 0.000000
1.000000 0.629572 0.000000
1.000000 0.665614 0.073365
1.000000 0.698573 0.192660
1.000000 0.729427 0.282017
1.000000 0.758968 0.371405
0.950286 0.978607 0.967498
0.950530 0.978607 0.967620
0.950805 0.978576 0.967651
0.951232 0.978393 0.967681
0.951843 0.978119 0.967651
0.952667 0.977661 0.967620
0.953826 0.977081 0.967590
0.955291 0.976379 0.967559
0.957122 0.975555 0.967590
0.959319 0.974548 0.967651
0.961913 0.973358 0.967681
0.964843 0.971984 0.967773
0.968048 0.970397 0.967803
0.969940 0.968719 0.967315
0.964385 0.967864 0.964263
0.957427 0.966827 0.959655
0.948760 0.965789 0.952880
0.937926 0.964691 0.943023
0.927306 0.963287 0.930632
0.919799 0.961181 0.916228
0.915373 0.958251 0.897185
0.916289 0.954101 0.870726
0.926452 0.948058 0.831510
0.952026 0.939086 0.768429
0.991669 0.917266 0.657954
1.000000 0.851926 0.474098
1.000000 0.746822 0.228458
1.000000 0.617365 0.000000
1.000000 0.653223 0.000000
1.000000 0.688289 0.170230
1.000000 0.721035 0.267277
1.000000 0.752499 0.362219
0.954467 0.980438 0.970275
0.954650 0.980468 0.970367
0.954925 0.980438 0.970428
0.955352 0.980316 0.970459
0.955962 0.980133 0.970520
0.956847 0.979858 0.970642
0.958190 0.979522 0.970855
0.959808 0.979126 0.971130
0.961761 0.978698 0.971435
0.963958 0.978149 0.971801
0.966400 0.977478 0.972198
0.968933 0.976715 0.972534
0.971649 0.975769 0.972839
0.974365 0.974609 0.973053
0.973602 0.973785 0.972107
0.969207 0.973297 0.969635
0.963653 0.972747 0.965820
0.956664 0.972198 0.960266
0.948058 0.971801 0.952178
0.940887 0.971038 0.942870
0.935821 0.969909 0.931670
0.933318 0.968231 0.916808
0.935363 0.965728 0.896391
0.945098 0.962005 0.867338
0.967315 0.956359 0.822934
1.000000 0.940368 0.748898
1.000000 0.890196 0.615137
1.000000 0.802884 0.404913
1.000000 0.674098 0.151217
1.000000 0.706081 0.249180
1.000000 0.740200 0.349615
1.000000 0.773312 0.450111
0.962188 0.982879 0.974640
0.962219 0.982849 0.974640
0.962310 0.982788 0.974640
0.962524 0.982666 0.974640
0.962829 0.982513 0.974609
0.963348 0.982269 0.974609
0.964080 0.981964 0.974609
0.965026 0.981567 0.974640
0.966186 0.981109 0.974731
0.967590 0.980560 0.974792
0.969177 0.979919 0.974914
0.970977 0.979187 0.975006
0.972961 0.978332 0.975128
0.975067 0.977325 0.975158
