20 Preset/Dark Style/【3】LUT video cho PR-AE-FCPX/19Tones (4)/19Tones - Linda.cube
# Created by Adobe Lightroom plugin Export LUT (1.24.0)
# www.johnrellis.com/lightroom/exportlut.htm
# Preset: 19Tones - Linda
# Color profile: E:\lut插件\exportlut.1.24\exportlut.lrplugin\color profiles\Rec709gamma2.4.icc
LUT_3D_SIZE 5
DOMAIN_MIN 0.000000 0.000000 0.000000
DOMAIN_MAX 0.903226 0.903226 0.903226
0.105837 0.187747 0.211307
0.195041 0.189334 0.212497
0.689479 0.137636 0.200259
1.000000 0.265721 0.181918
1.000000 0.448249 0.302525
0.182528 0.239109 0.258671
0.274296 0.309056 0.221897
0.678828 0.300114 0.207675
1.000000 0.413214 0.212009
1.000000 0.534234 0.367132
0.751675 0.715328 0.716060
0.729244 0.688472 0.690486
0.877897 0.862730 0.645075
0.991699 0.736995 0.498512
1.000000 0.729824 0.561334
0.896086 0.887236 0.884215
0.895140 0.886107 0.883085
0.890684 0.881132 0.878050
0.944640 0.940826 0.859068
1.000000 0.910063 0.820401
0.951110 0.947692 0.945892
0.951049 0.947631 0.945830
0.945800 0.941955 0.940002
0.947539 0.948760 0.941253
0.976135 0.973968 0.934844
0.099306 0.189975 0.237369
0.131807 0.204990 0.227237
0.675807 0.000000 0.281041
1.000000 0.197818 0.280430
1.000000 0.431281 0.361578
0.149416 0.252049 0.267857
0.250401 0.285588 0.301305
0.703609 0.282231 0.282567
1.000000 0.377508 0.302251
1.000000 0.511345 0.404700
0.740383 0.701717 0.703151
0.740169 0.701503 0.702907
0.842069 0.826444 0.655116
0.957519 0.704555 0.519493
1.000000 0.735653 0.606195
0.900084 0.891722 0.888762
0.899657 0.891234 0.888243
0.895232 0.886259 0.883238
0.942565 0.939147 0.870237
1.000000 0.910918 0.834989
0.952514 0.949218 0.947478
0.952239 0.948913 0.947173
0.952300 0.949004 0.947234
0.952361 0.951934 0.946960
0.977417 0.975525 0.942596
0.130007 0.194888 0.546136
0.392340 0.234714 0.545068
0.576165 0.528466 0.538048
0.898894 0.745296 0.781857
1.000000 0.662440 0.719844
0.000000 0.315831 0.647120
0.407324 0.355505 0.653162
0.686488 0.639460 0.644038
0.921263 0.744198 0.781216
1.000000 0.686244 0.723781
0.662745 0.748226 0.737514
0.719173 0.760800 0.752316
0.820249 0.799863 0.796628
0.935180 0.766262 0.742275
1.000000 0.779049 0.749325
0.902922 0.894835 0.891905
0.902861 0.894804 0.891875
0.909361 0.902037 0.899199
0.937804 0.935119 0.899779
0.976654 0.905303 0.860899
0.951049 0.947631 0.945830
0.952941 0.949645 0.947906
0.955962 0.952941 0.951324
0.955413 0.952331 0.950683
0.976410 0.974670 0.948913
0.471534 0.283574 0.867277
0.622065 0.366766 0.864195
0.833494 0.713283 0.830411
0.846921 0.830747 0.827817
0.909392 0.902098 0.899260
0.462989 0.426612 0.877897
0.624414 0.496223 0.873381
0.845090 0.752987 0.849882
0.860563 0.846677 0.843565
0.914733 0.907958 0.905211
0.226474 0.697108 0.874052
0.391547 0.694331 0.874449
0.827817 0.805692 0.879484
0.895171 0.886198 0.883146
0.946075 0.909270 0.914641
0.866392 0.902037 0.895415
0.873106 0.902861 0.896635
0.901244 0.910918 0.906310
0.926390 0.921050 0.918303
0.968688 0.907286 0.898314
0.951690 0.948333 0.946563
0.952941 0.949645 0.947906
0.958251 0.955413 0.953857
0.964874 0.962524 0.961212
0.976593 0.975219 0.961334
0.666804 0.499245 0.950500
0.725307 0.551629 0.945403
0.856535 0.729885 0.924743
0.903410 0.877592 0.892454
0.904997 0.897215 0.894316
0.672541 0.574029 0.948333
0.729091 0.616846 0.943847
0.856779 0.758114 0.926360
0.909728 0.882872 0.900267
0.910460 0.903258 0.900450
0.595026 0.694301 0.949248
0.694606 0.735897 0.944701
0.845762 0.815885 0.934936
0.925475 0.898772 0.922728
0.930449 0.925292 0.922881
0.693629 0.871122 0.940093
0.709163 0.870481 0.939940
0.771572 0.870573 0.941436
0.922484 0.915435 0.945373
0.957336 0.954406 0.952819
0.921660 0.953826 0.949584
0.925048 0.954559 0.950500
0.939391 0.958831 0.955596
0.958801 0.965454 0.963348
0.973938 0.972259 0.971160
