20 Preset/Dark Style/【3】LUT video cho PR-AE-FCPX/19Tones (4)/19Tones - Lamba.cube
# Created by Adobe Lightroom plugin Export LUT (1.24.0)
# www.johnrellis.com/lightroom/exportlut.htm
# Preset: 19Tones - Lamba
# Color profile: E:\lut插件\exportlut.1.24\exportlut.lrplugin\color profiles\Rec709gamma2.4.icc
LUT_3D_SIZE 5
DOMAIN_MIN 0.000000 0.000000 0.000000
DOMAIN_MAX 0.903226 0.903226 0.903226
0.000000 0.117861 0.143282
0.040345 0.127199 0.153140
0.266331 0.139590 0.172091
0.810361 0.038422 0.213993
1.000000 0.320439 0.324895
0.000000 0.172122 0.175509
0.060090 0.164950 0.190097
0.884245 0.322667 0.000000
1.000000 0.259159 0.000000
1.000000 0.367529 0.264988
0.491707 0.615198 0.492805
0.549828 0.522057 0.530877
0.633997 0.600031 0.605829
1.000000 0.699336 0.000000
1.000000 0.582300 0.000000
0.776669 0.834165 0.759731
0.798978 0.817472 0.774380
0.821317 0.797879 0.795621
0.830167 0.807736 0.805295
1.000000 0.816159 0.440955
0.872496 0.911315 0.863340
0.879637 0.907012 0.867369
0.892363 0.879545 0.874693
0.900389 0.886717 0.883909
0.909331 0.896788 0.894072
0.000000 0.122225 0.160342
0.000000 0.136873 0.162753
0.237369 0.151766 0.182010
0.791012 0.026184 0.177188
1.000000 0.260227 0.259464
0.000000 0.205051 0.196994
0.137819 0.194766 0.207950
0.731197 0.227329 0.114168
0.964508 0.251255 0.031312
1.000000 0.324895 0.197269
0.427375 0.599298 0.457984
0.532341 0.514641 0.515160
0.592309 0.560510 0.567987
1.000000 0.677089 0.000000
1.000000 0.581231 0.000000
0.774228 0.838529 0.760708
0.798276 0.823758 0.775509
0.824216 0.801114 0.798795
0.832822 0.810727 0.808225
1.000000 0.817319 0.469673
0.870970 0.913878 0.863706
0.877928 0.909483 0.867185
0.900053 0.891691 0.883513
0.906798 0.893919 0.891173
0.916167 0.904540 0.901946
0.000000 0.161807 0.320409
0.213291 0.218051 0.322118
0.265904 0.297581 0.313237
0.195804 0.246952 0.266300
0.830320 0.299199 0.359045
0.000000 0.244388 0.403510
0.324041 0.316594 0.411994
0.318547 0.336461 0.350256
0.443366 0.258610 0.294560
0.943511 0.335851 0.360998
0.000000 0.751339 0.590021
0.449500 0.700496 0.576684
0.738705 0.672786 0.637110
1.000000 0.634821 0.342840
1.000000 0.537926 0.273228
0.753567 0.863523 0.768887
0.777615 0.847379 0.773129
0.831876 0.809689 0.807218
0.848264 0.828000 0.825254
1.000000 0.814786 0.525170
0.852598 0.923766 0.859129
0.863432 0.920195 0.863676
0.894377 0.903960 0.879881
0.908598 0.895995 0.893248
0.917449 0.906035 0.903441
0.415045 0.347356 0.739651
0.563195 0.436408 0.741573
0.755001 0.724575 0.724758
0.632471 0.598535 0.604395
0.536553 0.510399 0.519554
0.493843 0.469856 0.761654
0.615412 0.537652 0.761074
0.777310 0.748959 0.748165
0.636652 0.602625 0.608301
0.506462 0.484565 0.494392
0.345892 0.636408 0.777615
0.501549 0.642206 0.767453
0.802853 0.772000 0.778073
0.605768 0.573083 0.580041
0.729000 0.491615 0.518120
0.553979 0.904967 0.815885
0.635187 0.896849 0.813169
0.823606 0.858915 0.820066
0.883909 0.854246 0.836942
1.000000 0.798489 0.684504
0.801602 0.944945 0.866545
0.820981 0.941985 0.870512
0.879210 0.931792 0.886748
0.918700 0.907408 0.904845
0.928679 0.918761 0.916411
0.711330 0.636378 0.894530
0.756283 0.675441 0.890227
0.857542 0.796292 0.877714
0.865843 0.847776 0.844877
0.811398 0.786770 0.784817
0.723568 0.674861 0.892912
0.765133 0.707027 0.889830
0.860563 0.807126 0.880583
0.871122 0.853666 0.850736
0.813809 0.789517 0.787442
0.645899 0.697383 0.892607
0.720241 0.734646 0.890501
0.854978 0.823484 0.888151
0.892943 0.878294 0.875395
0.833494 0.811521 0.808988
0.523033 0.826139 0.906340
0.587549 0.826810 0.903746
0.757717 0.834562 0.894591
0.912444 0.896605 0.901854
0.835904 0.814176 0.811612
0.589410 0.966461 0.911101
0.631220 0.963989 0.910796
0.762142 0.956023 0.912383
0.890898 0.942626 0.915801
0.949340 0.937926 0.931701
