20 Preset/Dark Style/【3】LUT video cho PR-AE-FCPX/19Tones (4)/19Tones - Lamba.cube
# Created by Adobe Lightroom plugin Export LUT (1.24.0)
# www.johnrellis.com/lightroom/exportlut.htm
# Preset: 19Tones - Lamba
# Color profile: E:\lut插件\exportlut.1.24\exportlut.lrplugin\color profiles\Rec709gamma2.4.icc
LUT_3D_SIZE 32
DOMAIN_MIN 0.0 0.0 0.0
DOMAIN_MAX 1.0 1.0 1.0
0.000000 0.117861 0.143282
0.000000 0.117861 0.143282
0.000000 0.117861 0.143282
0.000000 0.118166 0.143709
0.000000 0.120577 0.146090
0.000000 0.122927 0.148592
0.008759 0.124971 0.151034
0.040345 0.127199 0.153140
0.083345 0.129244 0.155550
0.108156 0.131472 0.157839
0.132967 0.133577 0.160372
0.160220 0.135805 0.162875
0.190219 0.137697 0.165896
0.225650 0.139101 0.168917
0.266331 0.139590 0.172091
0.313909 0.138216 0.175570
0.406531 0.130465 0.181613
0.501640 0.113558 0.187442
0.590753 0.087282 0.193149
0.675135 0.022614 0.199344
0.749020 0.000000 0.206088
0.810361 0.038422 0.213993
0.858885 0.103609 0.223209
0.900175 0.142367 0.234012
0.933867 0.178531 0.246464
0.961578 0.213291 0.261265
0.985962 0.248203 0.278813
1.000000 0.283421 0.299931
1.000000 0.320439 0.324895
1.000000 0.359655 0.354894
1.000000 0.400885 0.389837
1.000000 0.443915 0.429328
0.000000 0.117861 0.143282
0.000000 0.117861 0.143282
0.000000 0.117861 0.143282
0.000000 0.118166 0.143709
0.000000 0.120211 0.145907
0.000000 0.122286 0.148226
0.012360 0.124636 0.150423
0.044648 0.126589 0.152560
0.086213 0.128664 0.154818
0.108949 0.130922 0.157107
0.132753 0.133150 0.159457
0.158083 0.135409 0.162203
0.187655 0.137270 0.164889
0.222660 0.138643 0.167819
0.262181 0.138949 0.170901
0.308080 0.138003 0.174350
0.394781 0.131350 0.179965
0.482490 0.117250 0.185428
0.568261 0.094759 0.190555
0.650721 0.037263 0.195743
0.722866 0.000000 0.201938
0.784329 0.008240 0.208804
0.834165 0.073548 0.216739
0.876707 0.118746 0.225956
0.912596 0.154604 0.237186
0.943511 0.189364 0.250278
0.970245 0.224796 0.266606
0.994232 0.261143 0.286351
1.000000 0.299565 0.310796
1.000000 0.339666 0.339879
1.000000 0.382300 0.374365
1.000000 0.426520 0.413611
0.000000 0.117861 0.143282
0.000000 0.117861 0.143282
0.000000 0.117861 0.143282
0.000000 0.118502 0.143191
0.001099 0.119387 0.144137
0.018799 0.121645 0.146029
0.044862 0.123812 0.148501
0.080598 0.125917 0.150851
0.102510 0.128084 0.153109
0.123598 0.130343 0.155612
0.146792 0.132509 0.157961
0.172061 0.134585 0.160494
0.201175 0.136263 0.163394
0.235630 0.137362 0.166110
0.275181 0.137392 0.169192
0.323796 0.135683 0.172488
0.407111 0.127779 0.177584
0.490211 0.113313 0.182284
0.571130 0.090120 0.186893
0.650507 0.027039 0.191714
0.721553 0.000000 0.197269
0.782040 0.000000 0.203677
0.830320 0.050385 0.211246
0.872404 0.108797 0.219974
0.907958 0.144961 0.230411
0.938079 0.179263 0.243046
0.965515 0.214450 0.258640
0.989990 0.250797 0.277806
1.000000 0.289372 0.301671
1.000000 0.329747 0.330144
1.000000 0.372168 0.364050
1.000000 0.416419 0.403052
0.000000 0.120241 0.143954
0.000000 0.120180 0.144167
0.000000 0.119478 0.145113
0.000000 0.120027 0.145724
0.018891 0.124239 0.142458
0.081514 0.125704 0.142245
0.104585 0.126162 0.144198
0.121309 0.127596 0.146853
0.138705 0.129122 0.149599
0.158297 0.130648 0.152163
0.179446 0.132387 0.154940
0.205814 0.133883 0.157443
0.236088 0.134676 0.160067
0.270695 0.134981 0.162905
0.309850 0.133944 0.165743
0.365667 0.129915 0.168948
0.440558 0.120241 0.172946
0.514641 0.104250 0.176486
0.585718 0.075135 0.180270
0.655970 0.010559 0.184085
0.719326 0.000000 0.188693
0.774960 0.000000 0.194308
0.823209 0.018708 0.200931
0.866331 0.093874 0.209262
0.904326 0.133089 0.219669
0.937469 0.170962 0.232914
0.967193 0.208927 0.248905
0.992523 0.247196 0.269261
1.000000 0.286320 0.293645
1.000000 0.326482 0.322271
1.000000 0.367651 0.355596
1.000000 0.409644 0.392859
0.000000 0.125582 0.147524
0.000000 0.125246 0.147982
0.000000 0.123964 0.149355
0.000000 0.124208 0.149966
0.000000 0.124971 0.150698
0.051453 0.133028 0.145724
0.132021 0.140291 0.140688
0.171023 0.140383 0.140291
0.197543 0.137972 0.142153
0.216861 0.136568 0.145235
0.238010 0.135836 0.148226
0.264225 0.135195 0.151034
0.295689 0.134127 0.153597
0.331792 0.131991 0.156313
0.372503 0.128847 0.158877
0.436927 0.120211 0.161776
0.507439 0.105592 0.164492
0.574121 0.082765 0.167361
0.638392 0.024781 0.170352
0.698939 0.000000 0.173770
0.753719 0.000000 0.177859
0.802274 0.000000 0.183108
0.845182 0.033967 0.189761
0.884306 0.102968 0.198093
0.919677 0.140475 0.208743
0.950591 0.176455 0.221897
0.977356 0.212345 0.238590
1.000000 0.248447 0.258610
1.000000 0.285618 0.282597
1.000000 0.323735 0.310979
1.000000 0.362829 0.343664
1.000000 0.403174 0.380346
0.000000 0.134066 0.152834
0.000000 0.133730 0.153262
0.000000 0.132021 0.154635
0.000000 0.130770 0.156527
0.000000 0.131258 0.157076
0.000000 0.131991 0.157778
0.091249 0.144533 0.151308
0.193423 0.162875 0.137575
0.264408 0.169436 0.132784
0.314488 0.164401 0.131807
0.358770 0.156344 0.132052
0.382483 0.148409 0.136049
0.412604 0.141115 0.139010
0.446845 0.133455 0.141878
0.499214 0.123323 0.143404
0.561395 0.108431 0.145144
0.623285 0.089387 0.146548
0.678370 0.047425 0.149081
0.729580 0.016480 0.151644
0.775753 0.006867 0.155276
0.818082 0.026856 0.160067
0.856901 0.075715 0.166201
0.997345 0.220829 0.194949
1.000000 0.245701 0.212253
1.000000 0.270848 0.230900
1.000000 0.295689 0.251987
1.000000 0.321538 0.274876
1.000000 0.348425 0.300511
1.000000 0.376654 0.328771
1.000000 0.406683 0.359991
1.000000 0.437964 0.393896
1.000000 0.469825 0.429328
0.000000 0.152651 0.163790
0.000000 0.152377 0.164187
0.000000 0.149966 0.166262
0.005859 0.145083 0.170657
0.007202 0.145449 0.171298
0.007813 0.146456 0.172213
0.011109 0.147616 0.173465
0.135012 0.168490 0.163149
0.279149 0.201846 0.135805
0.433600 0.231205 0.104372
0.541741 0.240024 0.067842
0.602564 0.226108 0.050782
0.658503 0.209995 0.031373
0.700465 0.194125 0.037263
0.751980 0.184360 0.032929
0.791623 0.174594 0.043763
0.824216 0.166018 0.064759
0.853696 0.161410 0.085115
0.882353 0.161654 0.097139
0.912352 0.168826 0.107301
0.942199 0.182132 0.119814
0.971069 0.201144 0.133944
0.997192 0.224002 0.151186
1.000000 0.248814 0.171237
1.000000 0.272984 0.194369
1.000000 0.296513 0.217929
1.000000 0.319036 0.243076
1.000000 0.342351 0.269383
1.000000 0.367315 0.297765
1.000000 0.393927 0.328923
1.000000 0.422553 0.362402
1.000000 0.452918 0.398413
0.000000 0.172122 0.175509
0.000000 0.171328 0.175937
0.000000 0.168673 0.178225
0.027710 0.163272 0.182498
0.046143 0.160555 0.185885
0.048432 0.161410 0.186862
0.052949 0.162936 0.188205
0.060090 0.164950 0.190097
0.170565 0.192142 0.179232
0.339757 0.236332 0.139162
0.550530 0.292027 0.001801
0.677699 0.320256 0.000000
0.782589 0.340703 0.000000
0.839872 0.333684 0.000000
0.884245 0.322667 0.000000
0.909392 0.304723 0.000000
0.922057 0.284306 0.000000
0.935058 0.268376 0.000000
0.950134 0.257939 0.000000
0.966827 0.252689 0.000000
0.985260 0.252964 0.000000
1.000000 0.259159 0.000000
1.000000 0.269657 0.078157
1.000000 0.282994 0.116854
1.000000 0.297948 0.148196
1.000000 0.313176 0.177340
1.000000 0.329320 0.205905
1.000000 0.347112 0.234928
1.000000 0.367529 0.264988
1.000000 0.390173 0.297002
1.000000 0.415717 0.331640
1.000000 0.443305 0.368322
0.000000 0.198123 0.191409
0.007050 0.197177 0.191958
0.031128 0.194339 0.194186
0.078126 0.188174 0.198886
0.098421 0.180911 0.205173
0.100526 0.181857 0.206119
0.103151 0.183413 0.207645
0.106508 0.185641 0.209720
0.110842 0.188632 0.212467
0.223117 0.227512 0.203830
0.443122 0.294621 0.143587
0.679683 0.375525 0.000000
0.827207 0.432441 0.000000
0.909453 0.460090 0.000000
0.949310 0.451881 0.000000
0.971283 0.429267 0.000000
0.990723 0.407752 0.000000
1.000000 0.386053 0.000000
1.000000 0.363867 0.000000
1.000000 0.347509 0.000000
1.000000 0.337285 0.000000
1.000000 0.331823 0.000000
1.000000 0.330510 0.000000
1.000000 0.332982 0.000000
1.000000 0.337835 0.010010
1.000000 0.343938 0.114229
1.000000 0.352422 0.156405
1.000000 0.363531 0.192081
1.000000 0.377935 0.226993
1.000000 0.395453 0.261936
1.000000 0.416144 0.298131
1.000000 0.439643 0.336004
0.069398 0.232792 0.211856
0.076875 0.231662 0.212406
0.095491 0.227634 0.214694
0.115114 0.220951 0.219638
0.133944 0.210117 0.227207
0.139376 0.207706 0.230106
0.142000 0.209323 0.231724
0.150484 0.215427 0.237156
0.160891 0.222477 0.243778
0.172580 0.230655 0.251255
0.304692 0.283421 0.244755
0.546715 0.362768 0.157992
0.754482 0.442451 0.000000
0.895933 0.504082 0.000000
0.955566 0.519921 0.000000
1.000000 0.530694 0.000000
1.000000 0.510002 0.000000
1.000000 0.486305 0.000000
1.000000 0.464912 0.000000
1.000000 0.445533 0.000000
1.000000 0.425025 0.000000
1.000000 0.408789 0.000000
1.000000 0.396796 0.000000
1.000000 0.387762 0.000000
1.000000 0.381994 0.000000
1.000000 0.378790 0.000000
1.000000 0.379461 0.000000
1.000000 0.383062 0.120607
1.000000 0.391211 0.170596
1.000000 0.403357 0.213260
1.000000 0.419226 0.254246
1.000000 0.438849 0.296178
0.129030 0.281193 0.239994
0.132204 0.280369 0.240665
0.143709 0.277012 0.243656
0.163516 0.270146 0.250156
0.186282 0.259129 0.260410
0.201877 0.251194 0.270268
0.207248 0.255192 0.273869
0.214450 0.260441 0.278630
0.223362 0.266789 0.284550
0.234287 0.274510 0.291722
0.246372 0.283299 0.299901
0.383490 0.343725 0.298100
0.632044 0.430854 0.191073
0.811521 0.503105 0.000000
0.929931 0.553338 0.000000
0.990753 0.572198 0.000000
1.000000 0.576287 0.000000
1.000000 0.572625 0.000000
1.000000 0.549401 0.000000
1.000000 0.525963 0.000000
1.000000 0.504540 0.000000
1.000000 0.485451 0.000000
1.000000 0.466163 0.000000
1.000000 0.449989 0.000000
1.000000 0.436866 0.000000
1.000000 0.426886 0.000000
1.000000 0.420233 0.000000
1.000000 0.416846 0.000000
1.000000 0.417639 0.043732
1.000000 0.422950 0.148409
1.000000 0.432471 0.202457
1.000000 0.446265 0.250858
0.200595 0.354345 0.283299
0.203098 0.353582 0.284092
0.214603 0.349279 0.287968
0.232670 0.341009 0.294987
0.255985 0.327764 0.306218
0.278843 0.309911 0.321935
0.285618 0.311955 0.326940
0.292638 0.317205 0.331853
0.301244 0.323613 0.337957
0.311864 0.331518 0.345495
0.323919 0.340520 0.354131
0.337560 0.350774 0.364050
0.608301 0.529168 0.472206
0.816831 0.606439 0.333471
0.937255 0.643763 0.106935
1.000000 0.658228 0.000000
1.000000 0.661219 0.000000
1.000000 0.652430 0.000000
1.000000 0.644007 0.000000
1.000000 0.627344 0.000000
1.000000 0.603235 0.000000
1.000000 0.578973 0.000000
1.000000 0.556207 0.000000
1.000000 0.535180 0.000000
1.000000 0.515587 0.000000
1.000000 0.498787 0.000000
1.000000 0.485054 0.000000
1.000000 0.474495 0.000000
1.000000 0.467781 0.000000
1.000000 0.465492 0.000000
1.000000 0.467536 0.146212
1.000000 0.474281 0.210666
0.349493 0.497078 0.383490
0.351080 0.495277 0.383917
0.357946 0.487861 0.386114
0.371618 0.474769 0.392004
0.389654 0.454994 0.401404
0.409308 0.428656 0.415473
0.419440 0.413794 0.425238
0.423072 0.416632 0.428046
0.430640 0.422614 0.433906
0.443458 0.432837 0.443885
0.461585 0.447456 0.458167
0.484382 0.466163 0.476448
0.508507 0.486275 0.496101
0.627497 0.559869 0.520500
0.824369 0.635737 0.402899
0.938140 0.668849 0.238834
1.000000 0.679286 0.000000
1.000000 0.679866 0.000000
1.000000 0.672663 0.000000
1.000000 0.663081 0.000000
1.000000 0.654017 0.000000
1.000000 0.633875 0.000000
1.000000 0.610529 0.000000
1.000000 0.588037 0.000000
1.000000 0.566583 0.000000
1.000000 0.546075 0.000000
1.000000 0.527794 0.000000
1.000000 0.512261 0.000000
1.000000 0.500145 0.000000
1.000000 0.492042 0.000000
1.000000 0.487953 0.000000
1.000000 0.488472 0.099825
0.421576 0.559075 0.436866
0.421637 0.556939 0.436500
0.425635 0.549310 0.437263
0.435584 0.536797 0.441169
0.449378 0.518853 0.448188
0.466529 0.493965 0.459541
0.483314 0.465278 0.475624
0.485634 0.467109 0.477394
0.491798 0.472206 0.482399
0.502983 0.481697 0.491615
0.518761 0.495033 0.504631
0.538231 0.511833 0.520989
0.558465 0.529717 0.538293
0.577264 0.546715 0.554650
0.662165 0.605524 0.581384
0.835142 0.669917 0.476295
0.938964 0.695033 0.333715
1.000000 0.700679 0.080598
1.000000 0.698238 0.000000
1.000000 0.691829 0.000000
1.000000 0.681514 0.000000
1.000000 0.671931 0.000000
1.000000 0.660395 0.000000
1.000000 0.639551 0.000000
1.000000 0.616968 0.000000
1.000000 0.595544 0.000000
1.000000 0.575128 0.000000
1.000000 0.555627 0.000000
1.000000 0.538994 0.000000
1.000000 0.525597 0.000000
1.000000 0.515862 0.000000
1.000000 0.510185 0.000000
0.491707 0.615198 0.492805
0.492500 0.613611 0.492988
0.495399 0.607355 0.493416
0.501701 0.596735 0.495583
0.512444 0.580316 0.500389
0.525750 0.559136 0.508721
0.541863 0.533989 0.522362
0.549828 0.522057 0.530877
0.554620 0.526299 0.534966
0.563287 0.534051 0.542473
0.575799 0.545403 0.553399
0.591150 0.559442 0.566949
0.606958 0.574182 0.581109
0.621637 0.588159 0.594476
0.633997 0.600031 0.605829
0.692287 0.645228 0.632136
0.842954 0.700130 0.540703
0.937530 0.720211 0.419013
1.000000 0.722683 0.252354
1.000000 0.717189 0.000000
1.000000 0.709377 0.000000
1.000000 0.699336 0.000000
1.000000 0.689082 0.000000
1.000000 0.679469 0.000000
1.000000 0.664363 0.000000
1.000000 0.642542 0.000000
1.000000 0.621454 0.000000
1.000000 0.601282 0.000000
1.000000 0.582300 0.000000
1.000000 0.564477 0.000000
1.000000 0.550469 0.000000
1.000000 0.539940 0.000000
0.547173 0.659632 0.540093
0.548547 0.659327 0.540887
0.552178 0.655543 0.542535
0.559625 0.648402 0.546136
0.570214 0.637079 0.551812
0.584588 0.622156 0.561120
0.601343 0.604150 0.574548
0.617670 0.584344 0.590814
0.622553 0.589044 0.595300
0.629175 0.595331 0.601343
0.636744 0.602655 0.608362
0.644984 0.610712 0.616083
0.653468 0.619104 0.624079
0.661311 0.626886 0.631495
0.668208 0.633753 0.638087
0.673945 0.639551 0.643580
0.712459 0.674281 0.670527
0.846342 0.722560 0.590173
0.933745 0.740688 0.487465
0.997528 0.742061 0.349157
1.000000 0.735470 0.123751
1.000000 0.725948 0.000000
1.000000 0.715908 0.000000
1.000000 0.705379 0.000000
1.000000 0.695338 0.000000
1.000000 0.685786 0.000000
1.000000 0.666194 0.000000
1.000000 0.645594 0.000000
1.000000 0.625727 0.000000
1.000000 0.606989 0.000000
1.000000 0.588708 0.000000
1.000000 0.572534 0.000000
0.593774 0.698451 0.581903
0.594659 0.697902 0.582361
0.598016 0.694911 0.583917
0.604211 0.689631 0.587060
0.613794 0.681147 0.592554
0.626581 0.669703 0.600793
0.641474 0.654963 0.612085
0.657130 0.636927 0.626642
0.665431 0.630976 0.635431
0.670069 0.635645 0.639857
0.675715 0.641352 0.645289
0.681849 0.647547 0.651209
0.688472 0.654322 0.657679
0.694423 0.660426 0.663478
0.699947 0.666133 0.668940
0.704555 0.670924 0.673487
0.708522 0.675013 0.677394
0.734768 0.702754 0.703883
0.850645 0.745174 0.637079
0.930968 0.761379 0.549310
0.991882 0.762478 0.435157
1.000000 0.754818 0.275975
1.000000 0.743496 0.000000
1.000000 0.731807 0.000000
1.000000 0.720821 0.000000
1.000000 0.710414 0.000000
1.000000 0.700496 0.000000
1.000000 0.687068 0.000000
1.000000 0.666987 0.000000
1.000000 0.647791 0.000000
1.000000 0.629206 0.000000
1.000000 0.611139 0.000000
0.642115 0.736202 0.626581
0.643580 0.736233 0.627710
0.695277 0.769345 0.676020
0.699733 0.765835 0.678523
0.706325 0.760067 0.682399
0.714565 0.752041 0.687648
0.724727 0.741207 0.695033
0.735744 0.728023 0.704555
0.745632 0.714412 0.715023
0.747921 0.716854 0.717372
0.750729 0.719905 0.720302
0.753658 0.723079 0.723323
0.756100 0.725734 0.725887
0.758083 0.727901 0.727932
0.759579 0.729488 0.729488
0.760464 0.730526 0.730434
0.760861 0.730922 0.730831
0.761166 0.731258 0.731167
0.777707 0.749416 0.748592
0.863920 0.780179 0.698482
0.933043 0.791775 0.624964
0.988556 0.790890 0.530968
1.000000 0.781125 0.402777
1.000000 0.766476 0.207614
1.000000 0.750820 0.000000
1.000000 0.737514 0.000000
1.000000 0.725856 0.000000
1.000000 0.714931 0.000000
1.000000 0.704280 0.000000
1.000000 0.686152 0.000000
1.000000 0.667323 0.000000
1.000000 0.648920 0.000000
0.696193 0.774990 0.678370
0.700587 0.777279 0.682399
0.706661 0.778653 0.687465
0.713741 0.778378 0.692958
0.721981 0.775601 0.698817
0.730220 0.770047 0.704402
0.739040 0.761624 0.710719
0.748501 0.750698 0.718318
0.758267 0.737758 0.727810
0.762783 0.733059 0.732845
0.764858 0.735256 0.735042
0.767117 0.737728 0.737362
0.769009 0.739864 0.739406
0.770748 0.741726 0.741207
0.772244 0.743374 0.742763
0.773373 0.744656 0.744015
0.774289 0.745632 0.744991
0.775265 0.746700 0.745998
0.776608 0.748196 0.747433
0.791897 0.765103 0.763729
0.865019 0.792813 0.725338
0.929229 0.805356 0.664576
0.982025 0.805478 0.584070
1.000000 0.796933 0.477058
1.000000 0.782071 0.322210
1.000000 0.765164 0.000000
1.000000 0.749660 0.000000
1.000000 0.737819 0.000000
1.000000 0.726802 0.000000
1.000000 0.715969 0.000000
1.000000 0.702327 0.000000
1.000000 0.683894 0.000000
0.719326 0.792325 0.701381
0.723354 0.794308 0.705104
0.728664 0.795682 0.709590
0.734890 0.795743 0.714565
0.741787 0.793820 0.719631
0.748714 0.789517 0.724392
0.756374 0.782834 0.729641
0.764431 0.774105 0.735836
0.772915 0.763485 0.743404
0.780362 0.752316 0.751400
0.781704 0.753811 0.752834
0.783322 0.755581 0.754543
0.784878 0.757290 0.756191
0.786374 0.758938 0.757778
0.787594 0.760342 0.759121
0.788754 0.761563 0.760342
0.789578 0.762539 0.761257
0.790494 0.763546 0.762234
0.791623 0.764797 0.763424
0.793149 0.766445 0.765042
0.806332 0.781125 0.779263
0.867552 0.805478 0.750179
0.926482 0.818173 0.699184
0.975860 0.819150 0.630793
1.000000 0.811490 0.538567
1.000000 0.797299 0.409491
1.000000 0.779690 0.206699
1.000000 0.762387 0.000000
1.000000 0.749355 0.000000
1.000000 0.738186 0.000000
1.000000 0.727108 0.000000
1.000000 0.716030 0.000000
0.741848 0.808957 0.724056
0.744839 0.810727 0.726955
0.749081 0.811673 0.730587
0.753994 0.811551 0.734524
0.759518 0.810086 0.738521
0.765469 0.806455 0.742489
0.771847 0.801205 0.746822
0.778805 0.794125 0.751888
0.786374 0.785580 0.758236
0.793790 0.775265 0.765560
0.797391 0.771206 0.769619
0.798550 0.772488 0.770901
0.799741 0.773800 0.772183
0.800931 0.775113 0.773465
0.802182 0.776516 0.774807
0.803342 0.777859 0.776089
0.804929 0.779599 0.777768
0.806638 0.781460 0.779629
0.808743 0.783841 0.781918
0.811276 0.786648 0.784695
0.814145 0.789883 0.787839
0.826352 0.803494 0.801114
0.875517 0.824247 0.780880
0.927794 0.836667 0.740475
0.972045 0.838712 0.686946
1.000000 0.832212 0.611688
1.000000 0.819242 0.507927
1.000000 0.801144 0.355566
1.000000 0.781521 0.000000
1.000000 0.764828 0.000000
1.000000 0.752804 0.000000
1.000000 0.740963 0.000000
0.776669 0.834165 0.759731
0.777829 0.834531 0.760769
0.779477 0.834379 0.762051
0.781857 0.833219 0.763546
0.784970 0.831083 0.765469
0.788785 0.827665 0.767636
0.793423 0.823117 0.770535
0.798978 0.817472 0.774380
0.805203 0.810727 0.779202
0.811795 0.802792 0.785245
0.817746 0.793881 0.791745
0.818723 0.794949 0.792752
0.819577 0.795926 0.793729
0.820462 0.796933 0.794705
0.821317 0.797879 0.795621
0.822141 0.798795 0.796536
0.822995 0.799741 0.797482
0.824033 0.800900 0.798611
0.825223 0.802213 0.799893
0.826658 0.803830 0.801450
0.828305 0.805692 0.803281
0.830167 0.807736 0.805295
0.839597 0.818265 0.815640
0.879271 0.835203 0.799771
0.926818 0.846647 0.764309
0.967742 0.849180 0.718318
1.000000 0.844327 0.655177
1.000000 0.832883 0.566613
1.000000 0.816159 0.440955
1.000000 0.795773 0.236973
1.000000 0.775906 0.000000
1.000000 0.762600 0.000000
0.792325 0.846433 0.776272
0.793149 0.846769 0.777035
0.794553 0.846586 0.778103
0.796597 0.845640 0.779446
0.799283 0.843900 0.781064
0.802487 0.841276 0.782925
0.806638 0.837491 0.785428
0.811429 0.832975 0.788632
0.816892 0.827481 0.792721
0.822751 0.821012 0.797665
0.828550 0.813443 0.803372
0.831724 0.809476 0.807004
0.832486 0.810361 0.807858
0.833341 0.811307 0.808774
0.834165 0.812222 0.809720
0.835050 0.813199 0.810697
0.836027 0.814328 0.811765
0.837156 0.815549 0.812985
0.838315 0.816861 0.814267
0.839689 0.818387 0.815763
0.841245 0.820157 0.817502
0.842924 0.822049 0.819364
0.844694 0.824033 0.821317
0.852689 0.833005 0.830198
0.881376 0.842893 0.813596
0.925566 0.854063 0.782193
0.964019 0.857511 0.742519
0.999847 0.854154 0.688930
1.000000 0.844419 0.612940
1.000000 0.829099 0.504906
1.000000 0.808988 0.338598
1.000000 0.787625 0.000000
0.812955 0.862058 0.798093
0.814115 0.862608 0.799161
0.815213 0.862425 0.799985
0.816342 0.861418 0.800565
0.817746 0.859586 0.801114
0.819730 0.856840 0.801846
0.822171 0.853239 0.802884
0.825315 0.848844 0.804501
0.829160 0.843687 0.806943
0.833555 0.837644 0.810178
0.837949 0.830655 0.814023
0.842405 0.822599 0.818753
0.842832 0.821958 0.819242
0.842924 0.822049 0.819364
0.842954 0.822080 0.819394
0.843107 0.822263 0.819577
0.843412 0.822599 0.819913
0.844083 0.823301 0.820615
0.845090 0.824460 0.821744
0.846525 0.826078 0.823362
0.848203 0.827970 0.825193
0.849912 0.829862 0.827085
0.851408 0.831571 0.828763
0.852720 0.833036 0.830198
0.859220 0.840299 0.837430
0.885466 0.852140 0.828244
0.925902 0.862577 0.800168
0.961547 0.866178 0.765408
0.995026 0.863767 0.719112
1.000000 0.855558 0.654353
1.000000 0.841459 0.560113
1.000000 0.822385 0.420569
0.821469 0.869841 0.807584
0.822446 0.870329 0.808530
0.823606 0.870329 0.809415
0.824857 0.869627 0.810178
0.826566 0.868223 0.811063
0.828794 0.866331 0.812192
0.831601 0.863798 0.813809
0.835111 0.860624 0.815976
0.839170 0.856840 0.818692
0.843656 0.852354 0.822019
0.848173 0.847105 0.825772
0.852628 0.840879 0.830076
0.855467 0.836118 0.833280
0.855619 0.836271 0.833433
0.855650 0.836301 0.833463
0.855680 0.836332 0.833494
0.855863 0.836545 0.833707
0.856260 0.836973 0.834134
0.857023 0.837858 0.835019
0.858213 0.839200 0.836332
0.859617 0.840757 0.837888
0.861173 0.842496 0.839597
0.862699 0.844236 0.841337
0.864103 0.845823 0.842924
0.865507 0.847379 0.844450
0.871000 0.853544 0.850614
0.891814 0.863493 0.844602
0.928222 0.873381 0.820554
0.960784 0.877501 0.791501
0.991333 0.876219 0.753597
1.000000 0.869718 0.701259
1.000000 0.857359 0.623835
0.834226 0.880339 0.821439
0.834745 0.880522 0.821927
0.835416 0.880308 0.822385
0.836362 0.879637 0.822873
0.837736 0.878477 0.823545
0.839536 0.876829 0.824430
0.841917 0.874632 0.825650
0.844846 0.871855 0.827329
0.848325 0.868650 0.829526
0.852171 0.864866 0.832242
0.856321 0.860349 0.835416
0.860472 0.855192 0.839078
0.864317 0.849180 0.843076
0.865446 0.847318 0.844419
0.865507 0.847379 0.844480
0.865537 0.847410 0.844480
0.865599 0.847532 0.844602
0.865934 0.847868 0.844938
0.866606 0.848600 0.845701
0.867643 0.849760 0.846830
0.868894 0.851194 0.848264
0.870298 0.852750 0.849821
0.871611 0.854246 0.851316
0.872923 0.855741 0.852781
0.874113 0.857053 0.854124
0.875212 0.858305 0.855344
0.879820 0.863462 0.860533
0.896056 0.871641 0.856626
0.929625 0.881041 0.835080
0.959716 0.885649 0.810300
0.987732 0.885405 0.778683
1.000000 0.880491 0.735775
0.843778 0.888701 0.832029
0.844144 0.888853 0.832395
0.844816 0.888731 0.832853
0.845792 0.888243 0.833463
0.847288 0.887480 0.834348
0.849424 0.886442 0.835691
0.852476 0.885252 0.837766
0.856107 0.883848 0.840391
0.860410 0.882139 0.843595
0.865141 0.880125 0.847288
0.870054 0.877714 0.851408
0.874846 0.874754 0.855650
0.879332 0.871153 0.860044
0.883024 0.867124 0.864164
0.883787 0.867948 0.865019
0.884184 0.868406 0.865476
0.884520 0.868772 0.865843
0.884947 0.869261 0.866331
0.885649 0.870054 0.867155
0.886595 0.871153 0.868223
0.887785 0.872465 0.869566
0.889067 0.873899 0.871000
0.890257 0.875273 0.872374
0.891478 0.876616 0.873747
0.892607 0.877897 0.874998
0.893736 0.879149 0.876249
0.894865 0.880461 0.877562
0.897978 0.883970 0.881102
0.908934 0.889586 0.878691
0.936736 0.897276 0.860777
0.962219 0.901366 0.840940
0.985840 0.901427 0.816342
0.862852 0.903044 0.852567
0.862943 0.903014 0.852628
0.863218 0.902708 0.852720
0.863737 0.902190 0.852934
0.864652 0.901396 0.853330
0.866026 0.900298 0.854002
0.867857 0.898955 0.855009
0.870237 0.897307 0.856413
0.873045 0.895384 0.858213
0.876310 0.893126 0.860441
0.879789 0.890532 0.863005
0.883421 0.887541 0.865934
0.887022 0.884031 0.869078
0.890349 0.879942 0.872404
