20 Preset/Dark Style/【3】LUT video cho PR-AE-FCPX/19Tones (4)/19Tones - Train and Bridge.cube
# Created by Adobe Lightroom plugin Export LUT (1.24.0)
# www.johnrellis.com/lightroom/exportlut.htm
# Preset: 19Tones - Train and Bridge
# Color profile: E:\lut插件\exportlut.1.24\exportlut.lrplugin\color profiles\Rec709gamma2.4.icc
LUT_3D_SIZE 8
DOMAIN_MIN 0.000000 0.000000 0.000000
DOMAIN_MAX 0.903226 0.903226 0.903226
0.105837 0.187747 0.211307
0.113832 0.188083 0.211337
0.166476 0.189548 0.210971
0.301946 0.190463 0.208408
0.632410 0.156771 0.191836
0.902953 0.168704 0.148653
1.000000 0.256596 0.035126
1.000000 0.325536 0.000000
0.106264 0.190524 0.212284
0.108339 0.189792 0.213107
0.157748 0.193851 0.211368
0.282719 0.198611 0.208286
0.562646 0.189273 0.194766
0.844724 0.191379 0.157565
1.000000 0.262974 0.069886
1.000000 0.332433 0.000000
0.109895 0.207095 0.215671
0.119600 0.204074 0.216495
0.122164 0.197330 0.219516
0.253666 0.220127 0.210880
0.517967 0.246647 0.193027
0.820340 0.283116 0.143923
1.000000 0.356634 0.000000
1.000000 0.405310 0.000000
0.120912 0.275883 0.224338
0.142855 0.264958 0.225589
0.167819 0.233768 0.229435
0.147585 0.212406 0.231968
0.382788 0.265232 0.215671
0.777096 0.374701 0.130373
0.981598 0.448585 0.000000
1.000000 0.490852 0.000000
0.135836 0.405158 0.230655
0.171389 0.393652 0.232578
0.237369 0.339879 0.241794
0.229496 0.269413 0.248417
0.174594 0.228305 0.245212
0.474220 0.307927 0.227085
0.884031 0.479225 0.017273
1.000000 0.574273 0.000000
0.248600 0.604852 0.249577
0.281346 0.612787 0.251164
0.365179 0.556451 0.262089
0.395361 0.447700 0.276524
0.314275 0.319951 0.277379
0.217746 0.254520 0.266850
0.657313 0.406989 0.252689
0.994812 0.613458 0.126436
0.474128 0.799252 0.393347
0.487251 0.799802 0.394263
0.530846 0.781369 0.384253
0.589563 0.715236 0.370733
0.587915 0.587304 0.353765
0.452766 0.408820 0.335058
0.313024 0.314183 0.317937
0.844633 0.575616 0.354589
0.699611 0.907744 0.660060
0.702663 0.907347 0.658869
0.717372 0.906310 0.656123
0.751461 0.892699 0.647913
0.771054 0.845853 0.594507
0.791470 0.781094 0.569421
0.731624 0.649989 0.540490
0.656306 0.578515 0.564477
0.106111 0.188449 0.211887
0.111025 0.188357 0.211978
0.157778 0.189883 0.211460
0.267124 0.196017 0.208804
0.532189 0.187747 0.197177
0.819760 0.178073 0.164401
1.000000 0.244816 0.096254
1.000000 0.315373 0.000000
0.107118 0.190585 0.213291
0.111574 0.190646 0.213626
0.153902 0.194125 0.212284
0.261082 0.201480 0.208927
0.511162 0.202548 0.197238
0.800565 0.201389 0.164187
0.984863 0.258427 0.097200
1.000000 0.324651 0.000000
0.113466 0.206485 0.217105
0.121950 0.203738 0.217868
0.125521 0.198672 0.220188
0.244999 0.218448 0.212345
0.462196 0.241306 0.197818
0.763363 0.270237 0.158602
0.974456 0.333165 0.012848
1.000000 0.390845 0.000000
0.124178 0.260044 0.225040
0.141054 0.252293 0.225925
0.162783 0.229038 0.229221
0.147646 0.211551 0.230808
0.343664 0.253513 0.217166
0.704280 0.338811 0.158328
0.934386 0.414282 0.000000
1.000000 0.471290 0.000000
0.141207 0.394690 0.233646
0.172091 0.382818 0.234989
0.231479 0.330816 0.242771
0.222293 0.264256 0.247471
0.174685 0.227787 0.244236
0.452338 0.299718 0.227207
0.860136 0.460121 0.087709
1.000000 0.560388 0.000000
0.237339 0.586542 0.250187
0.260472 0.585351 0.249454
0.344640 0.532250 0.260349
0.377691 0.431220 0.274235
0.304784 0.313634 0.275517
0.218326 0.254307 0.266300
0.644038 0.398932 0.251408
0.986175 0.602502 0.118624
0.453376 0.785580 0.378210
0.460578 0.782437 0.373358
0.506401 0.763577 0.364141
0.569329 0.696010 0.356176
0.571954 0.572259 0.346471
0.436652 0.397742 0.329259
0.301518 0.306279 0.310613
0.822019 0.551171 0.335912
0.683955 0.902495 0.643824
0.690150 0.902983 0.645991
0.705074 0.901671 0.642206
0.740688 0.888243 0.634150
0.779416 0.853025 0.612696
0.794675 0.785397 0.576745
0.727962 0.646021 0.536980
0.651484 0.572747 0.558282
0.109102 0.190188 0.213565
0.109590 0.190433 0.213931
0.147951 0.189395 0.214450
0.288457 0.187900 0.212772
0.557092 0.179843 0.199283
0.826749 0.204105 0.160494
1.000000 0.284886 0.050324
1.000000 0.342565 0.000000
0.113069 0.192691 0.215915
0.113588 0.193210 0.216342
0.163516 0.192294 0.216434
0.284855 0.197055 0.212955
0.530022 0.197421 0.199893
0.804501 0.219669 0.162539
0.989960 0.294316 0.054536
1.000000 0.351202 0.000000
0.118318 0.209567 0.223270
0.126589 0.209140 0.223239
0.145357 0.205966 0.224186
0.274907 0.224308 0.216587
0.506126 0.242771 0.201022
0.781888 0.278080 0.158602
0.973968 0.352209 0.000000
1.000000 0.404486 0.000000
0.135866 0.268101 0.234531
0.151980 0.264652 0.234928
0.175875 0.237552 0.237339
0.170993 0.221866 0.237034
0.402106 0.270878 0.219852
0.739132 0.349859 0.160952
0.947967 0.426246 0.000000
1.000000 0.482460 0.000000
0.165225 0.400305 0.247776
0.188144 0.395239 0.247593
0.249180 0.343908 0.253758
0.237919 0.274174 0.256626
0.198306 0.238956 0.251316
0.504082 0.318914 0.230716
0.886503 0.479164 0.080537
1.000000 0.564782 0.000000
0.263920 0.589746 0.273625
0.285130 0.589380 0.272892
0.360082 0.541466 0.278172
0.390021 0.438605 0.286381
0.313725 0.319432 0.282963
0.238499 0.263859 0.271946
0.671656 0.414282 0.255955
0.996246 0.612757 0.141207
0.474281 0.791501 0.413184
0.481514 0.788846 0.408698
0.519005 0.774929 0.396063
0.579034 0.706905 0.379217
0.582238 0.582361 0.361181
0.448524 0.406409 0.338628
0.327886 0.320043 0.320073
0.850248 0.578393 0.354925
0.689540 0.903166 0.659907
0.691493 0.902342 0.657282
0.705592 0.900877 0.653132
0.742000 0.892088 0.649683
0.780514 0.857298 0.626062
0.799435 0.793454 0.592065
0.738369 0.658717 0.550835
0.671595 0.589776 0.571649
0.115053 0.193973 0.217105
0.116030 0.194491 0.217685
0.121798 0.194888 0.221256
0.254643 0.187167 0.220493
0.578729 0.090242 0.215061
0.836179 0.058473 0.184298
1.000000 0.230594 0.119905
1.000000 0.335607 0.000000
0.121126 0.197910 0.220798
0.121859 0.198550 0.221317
0.135256 0.198123 0.226139
0.290257 0.187564 0.223026
0.583276 0.129915 0.214603
0.831815 0.138064 0.182284
0.996979 0.252598 0.115755
1.000000 0.348058 0.000000
0.133364 0.210727 0.232639
0.139590 0.212589 0.234409
0.187869 0.215702 0.235355
0.319890 0.219364 0.229252
0.571740 0.221836 0.212924
0.828061 0.254826 0.173556
1.000000 0.338445 0.069337
1.000000 0.404730 0.000000
0.145724 0.281010 0.256901
0.160098 0.279118 0.255650
0.198581 0.254917 0.253941
0.226780 0.244602 0.249424
0.498268 0.297581 0.225834
0.765469 0.347631 0.181918
0.961913 0.416663 0.063478
1.000000 0.474311 0.000000
0.193088 0.423926 0.280888
0.213840 0.420264 0.279332
0.282383 0.376135 0.279149
0.269993 0.295232 0.276982
0.256870 0.265873 0.267033
0.606592 0.360693 0.238834
0.929412 0.509026 0.103090
1.000000 0.563653 0.000000
0.321630 0.614771 0.328191
0.346532 0.620569 0.330999
0.407568 0.586145 0.325505
0.440650 0.479896 0.321477
0.350713 0.344060 0.306340
0.293523 0.290501 0.288396
0.738155 0.456031 0.269444
1.000000 0.632746 0.179965
0.499916 0.798550 0.470100
0.509880 0.798215 0.469306
0.545922 0.794400 0.462257
0.607355 0.742885 0.439887
0.618585 0.621759 0.404242
0.484932 0.433478 0.363104
0.378759 0.346258 0.337407
0.884550 0.612177 0.381140
0.707759 0.908049 0.699733
0.710475 0.907622 0.698512
0.722347 0.906126 0.693935
0.748104 0.903319 0.687221
0.785855 0.869993 0.660182
0.806851 0.808682 0.619959
0.753506 0.678462 0.571832
0.706050 0.620142 0.595270
0.127993 0.202335 0.224765
0.129244 0.203311 0.225711
0.134310 0.206638 0.228763
0.190738 0.203250 0.245121
0.480446 0.142977 0.232395
0.859983 0.000000 0.218845
1.000000 0.000000 0.183810
1.000000 0.244999 0.109346
0.135561 0.207584 0.229587
0.137148 0.208499 0.230503
0.142397 0.212039 0.233768
0.209415 0.207462 0.249088
0.513390 0.136416 0.235050
0.866789 0.000000 0.222660
1.000000 0.000000 0.181338
1.000000 0.267124 0.103822
0.163790 0.226627 0.247105
0.167056 0.228733 0.249088
0.173800 0.233402 0.253330
0.288029 0.223331 0.254459
0.597894 0.149844 0.247654
0.843137 0.129671 0.221378
1.000000 0.244724 0.171237
1.000000 0.334997 0.066194
0.175113 0.277226 0.286931
0.185519 0.282017 0.290379
0.236790 0.285771 0.289677
0.363775 0.291661 0.277501
0.590448 0.302434 0.256962
0.816739 0.331579 0.220249
0.986755 0.386633 0.159274
1.000000 0.434211 0.000000
0.228550 0.433661 0.336675
0.241215 0.432837 0.332616
0.307652 0.424628 0.325505
0.314122 0.325536 0.310704
0.363745 0.312291 0.292668
0.713069 0.410254 0.254948
0.945586 0.496468 0.180453
1.000000 0.538628 0.002625
0.328649 0.606989 0.382910
0.345006 0.605646 0.381415
0.398505 0.594018 0.371008
0.455116 0.500298 0.355261
0.378210 0.364477 0.331060
0.378882 0.330571 0.311742
0.812131 0.505272 0.289250
1.000000 0.647883 0.210391
0.514275 0.800351 0.533379
0.518395 0.798093 0.529290
0.542229 0.792203 0.517021
0.602441 0.776486 0.500694
0.640650 0.662440 0.453315
0.520470 0.462928 0.390570
0.440742 0.376745 0.355261
0.913024 0.634730 0.395300
0.695399 0.905699 0.720882
0.697749 0.905150 0.719387
0.708888 0.903288 0.714015
0.740597 0.903014 0.713741
0.779232 0.885100 0.694057
0.807492 0.824796 0.646754
0.759823 0.689631 0.581292
0.716426 0.621393 0.588495
0.153964 0.219944 0.240940
0.155978 0.221225 0.242161
0.163149 0.226230 0.246738
0.173556 0.231449 0.261509
0.360235 0.208499 0.292149
0.775631 0.000000 0.255253
1.000000 0.000000 0.237858
1.000000 0.000000 0.239902
0.160769 0.224460 0.245121
0.162356 0.225498 0.246128
0.169162 0.230137 0.250431
0.177890 0.233463 0.263981
0.367132 0.211521 0.288823
0.778866 0.000000 0.256718
1.000000 0.000000 0.242130
1.000000 0.000000 0.235966
0.199466 0.250736 0.269322
0.201389 0.251926 0.270451
0.210300 0.258183 0.276219
0.224430 0.257115 0.291814
0.459663 0.229801 0.286442
0.853361 0.000000 0.274723
1.000000 0.000000 0.271397
1.000000 0.233555 0.234623
0.250645 0.293156 0.310674
0.259281 0.296147 0.312932
0.300542 0.319341 0.333867
0.379644 0.325811 0.364050
0.699611 0.282536 0.346838
0.907591 0.287053 0.322637
1.000000 0.347417 0.282383
1.000000 0.396399 0.238621
0.281193 0.448432 0.422858
0.300053 0.449500 0.422675
0.371649 0.454017 0.421332
0.418921 0.401892 0.394873
0.600519 0.422766 0.366430
0.831785 0.464118 0.330724
0.990295 0.494636 0.288853
1.000000 0.512139 0.232700
0.438422 0.641596 0.511376
0.453193 0.644739 0.512200
0.468879 0.638666 0.489021
0.538811 0.607141 0.467170
0.482673 0.442756 0.408301
0.561761 0.426551 0.373724
0.921111 0.592523 0.351202
1.000000 0.640894 0.308873
0.582391 0.813809 0.635462
0.585016 0.814725 0.633265
0.604303 0.811246 0.625879
0.641657 0.804257 0.610773
0.687129 0.745693 0.563470
0.610437 0.546258 0.464912
0.577905 0.455909 0.407874
0.968078 0.696162 0.464454
0.736843 0.907622 0.779873
0.734432 0.907103 0.776303
0.733303 0.906340 0.767575
0.747951 0.905333 0.761196
0.774014 0.902098 0.748043
0.812406 0.857053 0.703883
0.785306 0.728756 0.619013
0.755062 0.651270 0.605982
0.197757 0.249485 0.268223
0.201266 0.251865 0.270359
0.209781 0.257755 0.275761
0.231479 0.272343 0.289403
0.273014 0.259861 0.329076
0.621424 0.179568 0.369238
0.973175 0.000000 0.300633
1.000000 0.000000 0.280064
0.200626 0.251408 0.270054
0.204562 0.254093 0.272496
0.212985 0.259831 0.277775
0.232151 0.272892 0.289891
0.273442 0.259403 0.326879
0.604456 0.187259 0.355749
0.956878 0.000000 0.295232
1.000000 0.000000 0.275303
0.242832 0.279973 0.296544
0.245121 0.281682 0.298131
0.254459 0.287938 0.303990
0.277348 0.303532 0.318791
0.333288 0.283146 0.359075
0.674586 0.218235 0.354711
0.997345 0.000000 0.324285
1.000000 0.000000 0.319860
0.314733 0.329168 0.343267
0.322271 0.334386 0.348302
0.343694 0.349157 0.362615
0.377569 0.372839 0.385718
0.486183 0.350591 0.442176
0.813840 0.301549 0.400885
1.000000 0.269017 0.391547
1.000000 0.351720 0.411170
0.359350 0.408240 0.424445
0.365850 0.408026 0.424170
0.404273 0.416968 0.432654
0.489021 0.455146 0.466651
0.621149 0.466163 0.500664
0.897642 0.447242 0.488441
1.000000 0.481636 0.470436
1.000000 0.510094 0.441749
0.429694 0.660609 0.617823
0.444465 0.664454 0.621546
0.500542 0.667018 0.622889
0.589105 0.667323 0.621088
0.651667 0.612238 0.582818
0.809384 0.618250 0.541039
0.970947 0.644251 0.512993
1.000000 0.643763 0.480598
0.620050 0.818448 0.720912
0.628779 0.818967 0.722194
0.656184 0.817929 0.722255
0.697871 0.816007 0.719173
0.725765 0.804776 0.690272
0.701106 0.650477 0.587457
0.754452 0.594812 0.517510
1.000000 0.751522 0.557946
0.756161 0.906676 0.820157
0.759854 0.906859 0.820920
0.776761 0.908446 0.825559
0.798978 0.908721 0.828153
0.802487 0.907073 0.811276
0.827481 0.899992 0.794125
0.822141 0.795193 0.701381
0.815671 0.709621 0.651423
0.279149 0.304784 0.319921
0.283299 0.307713 0.322637
0.291112 0.312932 0.327703
0.317082 0.330694 0.344793
0.354772 0.358312 0.375891
0.476204 0.290929 0.455543
0.871397 0.192721 0.500420
1.000000 0.156008 0.411597
0.279820 0.305241 0.320348
0.284245 0.308263 0.323278
0.294194 0.315007 0.329686
0.318303 0.331579 0.345617
0.356023 0.358892 0.375952
0.477272 0.292638 0.454231
0.866392 0.199222 0.492073
1.000000 0.169741 0.413031
0.312535 0.327642 0.341772
0.315679 0.329778 0.343877
0.324987 0.336187 0.350072
0.358618 0.359564 0.372808
0.400885 0.389746 0.403296
0.525383 0.318212 0.482795
0.890562 0.267430 0.496986
1.000000 0.269047 0.441993
0.373297 0.369818 0.382849
0.378759 0.373724 0.386664
0.391638 0.382879 0.395605
0.425391 0.407141 0.419440
0.480262 0.448310 0.459968
0.627985 0.392126 0.554345
0.933410 0.402960 0.523217
1.000000 0.396521 0.500359
0.393713 0.396429 0.412512
0.401862 0.399359 0.414649
0.427405 0.408667 0.420935
0.512078 0.473518 0.484657
0.573236 0.525841 0.535485
0.709468 0.521935 0.633661
0.960754 0.531670 0.590661
1.000000 0.527276 0.578698
0.483619 0.583490 0.596155
0.490852 0.583337 0.596155
0.523339 0.586328 0.599725
0.586206 0.596887 0.610315
0.664271 0.615778 0.621729
0.754452 0.680079 0.712551
0.969146 0.681117 0.700679
1.000000 0.695674 0.704067
0.575189 0.811765 0.775967
0.582330 0.811978 0.776638
0.612085 0.813474 0.779904
0.667628 0.818753 0.788754
0.738033 0.827420 0.802213
0.805142 0.816770 0.794064
0.906462 0.791623 0.753689
1.000000 0.789792 0.735866
0.739315 0.910063 0.854887
0.741909 0.909728 0.854734
0.755612 0.909239 0.855406
0.783322 0.909453 0.858335
0.817929 0.909056 0.861204
0.850950 0.907073 0.859373
0.863462 0.868833 0.819760
0.887144 0.802396 0.752285
