20 Preset/Dark Style/【3】LUT video cho PR-AE-FCPX/19Tones (4)/19Tones - Street sky.cube
# Created by Adobe Lightroom plugin Export LUT (1.24.0)
# www.johnrellis.com/lightroom/exportlut.htm
# Preset: 19Tones - Street sky
# Color profile: E:\lut插件\exportlut.1.24\exportlut.lrplugin\color profiles\Rec709gamma2.4.icc
LUT_3D_SIZE 8
DOMAIN_MIN 0.000000 0.000000 0.000000
DOMAIN_MAX 0.903226 0.903226 0.903226
0.105837 0.187747 0.211307
0.117342 0.187259 0.211276
0.260899 0.179110 0.209873
0.687984 0.000000 0.193851
1.000000 0.000000 0.140597
1.000000 0.126101 0.000000
1.000000 0.243320 0.000000
1.000000 0.270939 0.000000
0.108644 0.189914 0.213230
0.116884 0.191012 0.211612
0.226200 0.199191 0.209537
0.601007 0.166537 0.192874
0.966308 0.131228 0.133181
1.000000 0.234867 0.000000
1.000000 0.287724 0.000000
1.000000 0.303410 0.000000
0.150301 0.217472 0.238682
0.148684 0.216281 0.237644
0.236271 0.230503 0.211429
0.604730 0.308019 0.174014
0.945129 0.420386 0.000000
1.000000 0.464790 0.000000
1.000000 0.459358 0.000000
1.000000 0.434424 0.000000
0.330419 0.339910 0.353674
0.320592 0.333196 0.347112
0.333104 0.337316 0.333593
0.674403 0.433387 0.170108
0.992554 0.570581 0.000000
1.000000 0.660609 0.000000
1.000000 0.627832 0.000000
1.000000 0.583551 0.000000
0.644739 0.594903 0.601648
0.639033 0.588983 0.596033
0.626520 0.576410 0.584009
0.715023 0.618677 0.491402
0.911070 0.635187 0.133059
1.000000 0.647059 0.000000
1.000000 0.706233 0.107393
1.000000 0.732143 0.279301
0.795865 0.769467 0.767910
0.803616 0.778988 0.777127
0.798611 0.772854 0.771206
0.789517 0.761654 0.760403
0.874449 0.789761 0.641474
1.000000 0.758419 0.324834
1.000000 0.715297 0.000000
1.000000 0.755184 0.263340
0.875303 0.863706 0.860533
0.876097 0.864622 0.861479
0.873228 0.861265 0.858122
0.869047 0.856504 0.853361
0.870817 0.853574 0.836759
0.936492 0.867948 0.753140
1.000000 0.830961 0.522759
1.000000 0.753536 0.000000
0.925566 0.919921 0.917418
0.925322 0.919677 0.917144
0.925017 0.919341 0.916808
0.925109 0.919402 0.916899
0.914122 0.907317 0.904570
0.932311 0.917021 0.890196
0.975067 0.923064 0.844327
1.000000 0.891600 0.705104
0.106905 0.189273 0.213046
0.108766 0.189181 0.212924
0.218357 0.179110 0.212436
0.547845 0.120150 0.202640
0.947753 0.000000 0.151553
1.000000 0.194919 0.000000
1.000000 0.257511 0.000000
1.000000 0.275273 0.000000
0.108431 0.190494 0.213931
0.113313 0.192813 0.216007
0.214481 0.194491 0.213840
0.538811 0.172335 0.200870
0.930571 0.150851 0.144411
1.000000 0.264683 0.000000
1.000000 0.299962 0.000000
1.000000 0.306584 0.000000
0.155978 0.221225 0.242161
0.158785 0.222995 0.243839
0.225254 0.231357 0.220676
0.553399 0.297673 0.198886
0.913176 0.377752 0.097292
1.000000 0.428412 0.000000
1.000000 0.441260 0.000000
1.000000 0.427741 0.000000
0.315373 0.329625 0.343694
0.310307 0.326116 0.340276
0.303471 0.321355 0.335790
0.570367 0.378180 0.206485
0.917266 0.505180 0.000000
1.000000 0.624689 0.000000
1.000000 0.596185 0.000000
1.000000 0.566796 0.000000
0.635798 0.585748 0.592920
0.626612 0.576501 0.584070
0.606195 0.556542 0.564996
0.666957 0.577447 0.475227
0.866728 0.594141 0.166842
1.000000 0.625757 0.000000
1.000000 0.696468 0.153933
1.000000 0.721126 0.274723
0.782956 0.753597 0.752651
0.782284 0.752804 0.751888
0.777798 0.747250 0.746578
0.770748 0.738613 0.738277
0.857786 0.771450 0.624750
0.992676 0.749111 0.330083
1.000000 0.710628 0.000000
1.000000 0.753109 0.284916
0.866239 0.853269 0.850126
0.864042 0.850706 0.847593
0.860472 0.846555 0.843473
0.857206 0.842802 0.839719
0.859922 0.842039 0.828000
0.929351 0.858732 0.739773
1.000000 0.819608 0.495216
1.000000 0.745541 0.000000
0.920348 0.914214 0.911589
0.921202 0.915099 0.912505
0.920623 0.914488 0.911864
0.920745 0.914611 0.912016
0.919646 0.913420 0.910765
0.933013 0.918853 0.894255
0.973541 0.922515 0.845243
1.000000 0.891417 0.708400
0.114961 0.196689 0.224582
0.122683 0.198734 0.226169
0.147494 0.206638 0.234104
0.476539 0.145602 0.287846
0.951446 0.000000 0.223484
1.000000 0.000000 0.184298
1.000000 0.041413 0.111147
1.000000 0.247501 0.000000
0.120912 0.202152 0.229404
0.129824 0.205020 0.232670
0.161837 0.217716 0.243687
0.494209 0.142916 0.281743
0.924926 0.000000 0.224552
1.000000 0.000000 0.179629
1.000000 0.179660 0.097017
1.000000 0.280095 0.000000
0.149325 0.226780 0.247440
0.160678 0.233097 0.253208
0.221408 0.265507 0.283024
0.588220 0.258274 0.270298
0.953216 0.282963 0.231510
1.000000 0.353368 0.177829
1.000000 0.386633 0.097505
1.000000 0.400000 0.000000
0.376623 0.372229 0.385107
0.395758 0.385779 0.398474
0.435645 0.414740 0.426886
0.614649 0.437934 0.305882
0.931640 0.574945 0.308202
1.000000 0.633692 0.345586
1.000000 0.602838 0.272618
1.000000 0.564508 0.146304
0.676905 0.628931 0.634028
0.680842 0.633295 0.638148
0.677760 0.629877 0.634913
0.677577 0.621515 0.602319
0.876585 0.639704 0.341100
1.000000 0.664393 0.267491
1.000000 0.745052 0.460090
1.000000 0.742245 0.459266
0.803983 0.779385 0.777523
0.803952 0.779355 0.777493
0.798947 0.773220 0.771572
0.789548 0.761715 0.760464
0.841855 0.779568 0.686580
0.974853 0.762509 0.459480
1.000000 0.732967 0.297429
1.000000 0.790066 0.509331
0.878416 0.867216 0.864073
0.876677 0.865232 0.862089
0.872190 0.860075 0.856962
0.867216 0.854398 0.851255
0.861112 0.847318 0.844205
0.921752 0.866361 0.776883
1.000000 0.837461 0.599145
1.000000 0.769680 0.296941
0.924620 0.918883 0.916350
0.923888 0.918059 0.915526
0.923125 0.917266 0.914702
0.924498 0.918730 0.916197
0.923247 0.917327 0.914794
0.932769 0.921843 0.904356
0.970336 0.927550 0.863401
1.000000 0.901793 0.756191
0.139590 0.215640 0.255589
0.154025 0.221653 0.262394
0.220279 0.255009 0.290959
0.333837 0.296422 0.346654
0.730587 0.381415 0.520714
1.000000 0.000000 0.481819
1.000000 0.000000 0.316777
1.000000 0.000000 0.280491
0.152529 0.227268 0.268498
0.167086 0.233280 0.275425
0.244846 0.272007 0.309331
0.373571 0.325292 0.374029
0.765682 0.388861 0.536767
1.000000 0.000000 0.473640
1.000000 0.000000 0.328527
1.000000 0.000000 0.285222
0.143648 0.236393 0.267277
0.158053 0.244297 0.276524
0.267185 0.299474 0.337865
0.449378 0.396643 0.431098
0.868467 0.407813 0.565057
1.000000 0.000000 0.437568
1.000000 0.341344 0.418982
1.000000 0.373053 0.346227
0.302586 0.360876 0.373846
0.320500 0.370672 0.383398
0.408118 0.421759 0.433570
0.594110 0.545068 0.553979
0.901579 0.576104 0.551995
1.000000 0.601770 0.541222
1.000000 0.607385 0.514092
1.000000 0.582055 0.444739
0.720638 0.678401 0.680964
0.722438 0.680476 0.682887
0.738033 0.698939 0.700465
0.759152 0.724392 0.724697
0.855253 0.718746 0.604120
0.974975 0.774166 0.654322
1.000000 0.814847 0.714260
1.000000 0.781186 0.655146
0.828611 0.809079 0.806485
0.835935 0.817807 0.815000
0.839292 0.821805 0.818967
0.840024 0.822629 0.819791
0.840696 0.816037 0.795193
0.944701 0.806546 0.659571
1.000000 0.804349 0.631861
1.000000 0.856535 0.744442
0.888640 0.878843 0.875731
0.889891 0.880247 0.877165
0.893156 0.883940 0.880888
0.890806 0.881285 0.878202
0.884977 0.874693 0.871580
0.914702 0.883024 0.834592
0.990448 0.864103 0.726406
1.000000 0.823148 0.601953
0.934447 0.929625 0.927337
0.934813 0.930022 0.927733
0.934325 0.929442 0.927184
0.933379 0.928466 0.926177
0.931579 0.926513 0.924163
0.932006 0.925841 0.920073
0.965087 0.934539 0.888548
1.000000 0.917815 0.818662
0.206699 0.265904 0.338781
0.229221 0.276524 0.352087
0.324163 0.322210 0.398657
0.534997 0.468757 0.512322
0.670832 0.530266 0.604547
0.875914 0.661585 0.745449
1.000000 0.587457 0.740078
1.000000 0.394629 0.623835
0.221622 0.280003 0.354894
0.246098 0.291936 0.369360
0.348272 0.341497 0.419318
0.556481 0.487800 0.530938
0.690425 0.559838 0.626032
0.876951 0.680629 0.754543
1.000000 0.596216 0.741268
1.000000 0.408667 0.622766
0.230655 0.303502 0.364355
0.258000 0.317601 0.381994
0.357397 0.365484 0.438361
0.593286 0.525566 0.568536
0.725368 0.626368 0.669520
0.872251 0.716762 0.766934
1.000000 0.604181 0.730404
1.000000 0.425269 0.599329
0.224949 0.331151 0.368750
0.234470 0.335149 0.373480
0.277928 0.355352 0.396948
0.595697 0.550927 0.594018
0.774502 0.720668 0.735439
0.915953 0.743313 0.787259
1.000000 0.639490 0.712612
1.000000 0.611566 0.651179
0.545129 0.567437 0.575738
0.559503 0.576989 0.584833
0.611078 0.611872 0.618341
0.699123 0.680903 0.683772
0.796109 0.769711 0.768185
0.931151 0.783963 0.769436
1.000000 0.790036 0.763821
1.000000 0.779355 0.739315
0.819608 0.798337 0.795956
0.821530 0.800656 0.798215
0.824674 0.804410 0.801877
0.834073 0.815579 0.812863
0.843412 0.826658 0.823758
0.902098 0.830961 0.774136
0.976837 0.867094 0.812192
1.000000 0.893950 0.846036
0.888243 0.878386 0.875303
0.887816 0.877897 0.874815
0.888853 0.879026 0.875944
0.895689 0.886748 0.883696
0.898283 0.889708 0.886717
0.899992 0.886412 0.871031
0.963348 0.879423 0.801144
1.000000 0.870573 0.773465
0.927306 0.921813 0.919341
0.927672 0.922210 0.919738
0.929595 0.924346 0.921935
0.936614 0.931975 0.929717
0.936919 0.932341 0.930114
0.934661 0.929870 0.927581
0.955749 0.936645 0.906950
1.000000 0.925383 0.853696
0.386633 0.394629 0.529229
0.413428 0.408301 0.542199
0.503716 0.456397 0.578424
0.653437 0.573083 0.653407
0.786191 0.746975 0.756954
0.839231 0.761501 0.799466
0.915801 0.808164 0.849363
0.991180 0.819150 0.868711
0.372015 0.388098 0.514763
0.394079 0.398413 0.524163
0.486610 0.447089 0.564477
0.640711 0.562646 0.642084
0.779110 0.737514 0.748867
0.833402 0.755703 0.792996
0.912474 0.804532 0.845335
0.992096 0.813016 0.864378
0.392370 0.420600 0.531731
0.411810 0.429603 0.542290
0.512474 0.485328 0.592706
0.664881 0.599420 0.670558
0.798245 0.761318 0.772488
0.846586 0.789975 0.814206
0.915160 0.829343 0.858762
0.997162 0.820645 0.868009
0.305089 0.403143 0.480385
0.332372 0.416480 0.495766
0.472969 0.493263 0.575219
0.676997 0.638453 0.700404
0.826627 0.798672 0.808927
0.873442 0.842283 0.851987
0.924804 0.868711 0.883940
1.000000 0.837858 0.875486
0.413733 0.505699 0.547448
0.421118 0.508202 0.550042
0.454444 0.521172 0.563653
0.522484 0.551232 0.594873
0.784207 0.758846 0.776699
0.875700 0.855467 0.858061
0.939330 0.866880 0.882139
1.000000 0.821714 0.850309
0.708064 0.729000 0.730190
0.718441 0.737331 0.738125
0.738796 0.751278 0.751308
0.776120 0.778927 0.777676
0.824369 0.817990 0.815457
0.881895 0.871183 0.868040
0.958221 0.884184 0.875914
1.000000 0.886137 0.873289
0.891539 0.884611 0.881071
0.894408 0.887388 0.883970
0.901488 0.893736 0.890684
0.907530 0.899992 0.897124
0.913329 0.906401 0.903655
0.916411 0.909850 0.907134
0.944091 0.905516 0.874846
0.989990 0.922210 0.890654
0.929839 0.924590 0.922179
0.929625 0.924376 0.921965
0.930877 0.925750 0.923369
0.934997 0.930236 0.927977
0.940459 0.936187 0.934051
0.943969 0.939940 0.937957
0.947814 0.940673 0.930632
0.986969 0.937163 0.894041
0.587396 0.558312 0.697200
0.605035 0.570916 0.705531
0.653712 0.605219 0.723323
0.734707 0.677394 0.758755
0.811124 0.767178 0.801541
0.863828 0.849149 0.847288
0.889158 0.840085 0.863432
0.933776 0.858549 0.888334
0.570001 0.545159 0.682979
0.589380 0.558953 0.692714
0.640650 0.594263 0.712673
0.722438 0.664210 0.748074
0.803677 0.757748 0.793790
0.858824 0.842863 0.841459
0.883665 0.833005 0.856901
0.929900 0.851591 0.882444
0.581079 0.569757 0.694759
0.592828 0.576776 0.700313
0.642786 0.609430 0.719234
0.727565 0.679713 0.756100
0.809537 0.769284 0.802213
0.867979 0.852293 0.852049
0.892638 0.852476 0.870115
0.935058 0.871183 0.894926
0.556542 0.579431 0.681697
0.572168 0.587671 0.688014
0.626673 0.620111 0.714412
0.721523 0.691920 0.761868
0.816831 0.785977 0.815244
0.882597 0.867979 0.869291
0.906035 0.878782 0.888945
0.941070 0.892821 0.908782
0.352636 0.494026 0.573449
0.350103 0.488960 0.568688
0.426459 0.519524 0.600855
0.615351 0.627253 0.698299
0.785489 0.763760 0.798764
0.881163 0.865812 0.869718
0.912566 0.893767 0.898863
0.947417 0.911742 0.921233
0.601129 0.676661 0.707301
0.605097 0.678340 0.708919
0.618585 0.683070 0.713619
0.644617 0.692287 0.722988
0.683192 0.705501 0.736934
0.863767 0.852415 0.860410
0.926177 0.915801 0.916472
0.962890 0.922972 0.930938
0.809964 0.833005 0.830777
0.813413 0.835477 0.833188
0.822110 0.840848 0.838376
0.839628 0.852293 0.849668
0.863157 0.868620 0.865812
0.893400 0.892180 0.889342
0.929595 0.924346 0.921935
0.978973 0.931823 0.926543
0.921172 0.920043 0.916716
0.922393 0.921050 0.917784
0.928038 0.926024 0.923033
0.936614 0.933410 0.930938
0.945403 0.941527 0.939544
0.950958 0.947509 0.945739
0.955108 0.952026 0.950347
0.974456 0.950774 0.931731
0.746822 0.727779 0.819089
0.753292 0.733150 0.821378
0.769955 0.744656 0.824338
0.804654 0.774716 0.835538
0.844053 0.813657 0.851011
0.879210 0.856291 0.870512
0.903807 0.893797 0.892699
0.921324 0.885405 0.902800
0.738186 0.719600 0.813382
0.745235 0.725490 0.816007
0.764858 0.740078 0.820859
0.800046 0.770047 0.831998
0.841093 0.810513 0.848478
0.877623 0.854490 0.868986
0.902617 0.892699 0.891417
0.919615 0.883513 0.900877
0.731655 0.720211 0.811704
0.737606 0.724544 0.813474
0.758083 0.738949 0.818448
0.800320 0.775448 0.834409
0.841917 0.814481 0.850858
0.879393 0.857481 0.871702
0.906798 0.898344 0.896239
0.922057 0.889891 0.904814
0.717739 0.721889 0.805020
0.724544 0.726619 0.807919
0.745846 0.739986 0.815671
0.789395 0.773465 0.832212
0.840055 0.818143 0.853361
0.883726 0.864347 0.878264
0.915312 0.907927 0.905852
0.928588 0.903258 0.914122
0.622400 0.678035 0.767453
0.635859 0.685512 0.772671
0.677577 0.706996 0.786435
0.754238 0.757046 0.816617
0.819516 0.806394 0.846006
0.879393 0.862547 0.878264
0.920409 0.912016 0.911803
0.935760 0.917266 0.924224
0.577050 0.690547 0.753628
0.573388 0.686610 0.750698
0.565576 0.675410 0.743038
0.561852 0.660639 0.734554
0.733516 0.752651 0.803586
0.862211 0.852873 0.872923
0.927153 0.918883 0.920684
0.948425 0.937407 0.940459
0.758724 0.818143 0.832547
0.759030 0.817838 0.832303
0.761166 0.817136 0.831907
0.770047 0.819089 0.834104
0.783658 0.822049 0.837705
0.802213 0.825864 0.843320
0.915831 0.910582 0.915679
0.958526 0.952605 0.953063
0.878325 0.900267 0.897917
0.878904 0.900542 0.898161
0.882933 0.902770 0.900389
0.892088 0.908385 0.906065
0.904814 0.916442 0.914183
0.920897 0.927184 0.925078
0.941039 0.942138 0.940276
0.964904 0.962493 0.961212
