20 Preset/Dark Style/【3】LUT video cho PR-AE-FCPX/19Tones (4)/19Tones - Train and Bridge.cube
# Created by Adobe Lightroom plugin Export LUT (1.24.0)
# www.johnrellis.com/lightroom/exportlut.htm
# Preset: 19Tones - Train and Bridge
# Color profile: E:\lut插件\exportlut.1.24\exportlut.lrplugin\color profiles\Rec709gamma2.4.icc
LUT_3D_SIZE 5
DOMAIN_MIN 0.000000 0.000000 0.000000
DOMAIN_MAX 0.903226 0.903226 0.903226
0.105837 0.187747 0.211307
0.147524 0.189090 0.211276
0.451728 0.181643 0.203037
0.948974 0.191714 0.132387
1.000000 0.325536 0.000000
0.108522 0.201022 0.214694
0.116945 0.194736 0.217258
0.397070 0.227634 0.202426
0.902373 0.282261 0.120546
1.000000 0.388922 0.000000
0.125277 0.331609 0.227909
0.190280 0.284794 0.233616
0.161013 0.220157 0.238468
0.745968 0.385412 0.151034
1.000000 0.531548 0.000000
0.314885 0.669795 0.274083
0.390600 0.638727 0.276341
0.432868 0.447059 0.292912
0.233921 0.264469 0.275181
0.965881 0.608637 0.207248
0.699611 0.907744 0.660060
0.712306 0.906584 0.656733
0.751583 0.866789 0.605493
0.788907 0.757839 0.563012
0.656306 0.578515 0.564477
0.108278 0.189517 0.213016
0.132967 0.189029 0.213626
0.389410 0.192813 0.206912
0.862913 0.218326 0.148745
1.000000 0.331334 0.000000
0.114107 0.202060 0.219486
0.132357 0.200046 0.220188
0.367834 0.224186 0.208347
0.833005 0.277073 0.142702
1.000000 0.383948 0.000000
0.141817 0.318273 0.236759
0.194949 0.283238 0.240085
0.174533 0.225467 0.241001
0.730648 0.375647 0.163638
1.000000 0.527489 0.000000
0.331365 0.666560 0.296971
0.401129 0.641810 0.296941
0.442145 0.452674 0.303624
0.251408 0.272496 0.279881
0.970001 0.612116 0.215335
0.701411 0.907225 0.670161
0.712886 0.905791 0.665949
0.767849 0.879332 0.644800
0.801480 0.774777 0.589502
0.689235 0.610193 0.592248
0.120211 0.197421 0.220249
0.124147 0.200046 0.222690
0.353399 0.176211 0.225711
0.898955 0.000000 0.192050
1.000000 0.299260 0.000000
0.143526 0.212955 0.234531
0.148928 0.216709 0.238224
0.445899 0.181949 0.235904
0.881773 0.190738 0.185183
1.000000 0.356756 0.000000
0.171023 0.344274 0.286900
0.228428 0.337957 0.281163
0.287144 0.273777 0.267765
0.807919 0.402869 0.192935
1.000000 0.505455 0.000000
0.377905 0.671046 0.386389
0.421149 0.658747 0.374578
0.487190 0.490150 0.350500
0.342931 0.316350 0.306096
0.997467 0.634638 0.247837
0.695735 0.904723 0.702388
0.709010 0.904021 0.700557
0.759518 0.893339 0.685145
0.801724 0.787350 0.610315
0.698299 0.606928 0.579034
0.160433 0.224247 0.244938
0.167361 0.228946 0.249271
0.208530 0.230106 0.278813
0.821500 0.000000 0.261601
1.000000 0.000000 0.251621
0.191257 0.245212 0.264225
0.198489 0.250034 0.268681
0.263615 0.245884 0.303868
0.867552 0.000000 0.275364
1.000000 0.038941 0.266728
0.268803 0.327520 0.343389
0.304631 0.337560 0.352941
0.549859 0.351293 0.380713
0.899138 0.358801 0.325750
1.000000 0.435706 0.269078
0.495125 0.699611 0.571954
0.517693 0.695491 0.558495
0.602991 0.630457 0.507103
0.612329 0.462501 0.401404
1.000000 0.664424 0.361212
0.754940 0.907713 0.798215
0.752193 0.907774 0.790524
0.770138 0.906584 0.774838
0.822660 0.850156 0.711788
0.768429 0.662928 0.614008
0.279149 0.304784 0.319921
0.287785 0.310674 0.325536
0.336980 0.344549 0.358129
0.603754 0.261936 0.503014
1.000000 0.156008 0.411597
0.303838 0.321660 0.336004
0.313817 0.328588 0.342687
0.363684 0.363195 0.376318
0.633021 0.288701 0.517784
1.000000 0.251408 0.436683
0.377874 0.373144 0.386023
0.411017 0.396735 0.409186
0.485176 0.452125 0.463691
0.745876 0.441444 0.598718
1.000000 0.457527 0.534569
0.510735 0.650202 0.653162
0.538598 0.650629 0.654871
0.645502 0.661097 0.668757
0.820890 0.714076 0.731868
1.000000 0.722469 0.717159
0.739315 0.910063 0.854887
0.750851 0.909331 0.855009
0.800259 0.909483 0.860014
0.853483 0.905425 0.853849
0.887144 0.802396 0.752285
