20 Preset/Dark Style/【3】LUT video cho PR-AE-FCPX/19Tones (4)/19Tones - Walker _ c.cube
# Created by Adobe Lightroom plugin Export LUT (1.24.0)
# www.johnrellis.com/lightroom/exportlut.htm
# Preset: 19Tones - Walker / c
# Color profile: E:\lut插件\exportlut.1.24\exportlut.lrplugin\color profiles\Rec709gamma2.4.icc
LUT_3D_SIZE 32
DOMAIN_MIN 0.0 0.0 0.0
DOMAIN_MAX 1.0 1.0 1.0
0.105837 0.187747 0.211307
0.105837 0.187747 0.211307
0.105837 0.187747 0.211307
0.105837 0.187747 0.211307
0.095033 0.186770 0.210086
0.079347 0.184909 0.208133
0.056123 0.183047 0.206149
0.047395 0.181186 0.204623
0.057496 0.179477 0.203433
0.089387 0.178042 0.202152
0.115755 0.176699 0.200992
0.146059 0.175814 0.199802
0.180941 0.174960 0.198520
0.219333 0.173617 0.197208
0.262486 0.171695 0.196323
0.310063 0.168917 0.195926
0.363195 0.164889 0.196139
0.421485 0.158724 0.196933
0.484321 0.149599 0.198459
0.560021 0.135470 0.200839
0.669490 0.111849 0.205905
0.757961 0.106508 0.212741
0.824369 0.127718 0.221530
0.877653 0.161654 0.232486
0.920684 0.198917 0.245670
0.956085 0.236637 0.261387
0.986389 0.275517 0.280369
1.000000 0.315923 0.303380
1.000000 0.358831 0.332128
1.000000 0.405035 0.368017
1.000000 0.454780 0.411505
1.000000 0.508721 0.463447
0.105837 0.187747 0.211307
0.105837 0.187747 0.211307
0.105837 0.187747 0.211307
0.105837 0.187747 0.211307
0.095033 0.186770 0.210086
0.080598 0.184878 0.208133
0.056794 0.183169 0.206394
0.046082 0.181338 0.204868
0.053498 0.179843 0.203677
0.085695 0.178317 0.202548
0.110689 0.177005 0.201266
0.140230 0.176150 0.199954
0.173953 0.175265 0.198764
0.211429 0.174136 0.197482
0.252567 0.172457 0.196353
0.298985 0.170016 0.195895
0.350652 0.166140 0.196017
0.408057 0.160525 0.196658
0.469856 0.152224 0.198032
0.543969 0.139498 0.200290
0.646845 0.117281 0.204471
0.732906 0.106508 0.210269
0.799039 0.118563 0.217685
0.853117 0.145571 0.226658
0.897551 0.178225 0.237705
0.935424 0.214084 0.251041
0.968658 0.252018 0.267552
0.997955 0.291997 0.288426
1.000000 0.334936 0.315099
1.000000 0.381323 0.348455
1.000000 0.431586 0.390021
1.000000 0.486000 0.440497
0.105837 0.187747 0.211307
0.105837 0.187747 0.211307
0.105837 0.187747 0.211307
0.105257 0.187778 0.211307
0.094697 0.186648 0.209964
0.079347 0.184909 0.208133
0.053895 0.183200 0.206790
0.043153 0.181674 0.205539
0.053559 0.179965 0.204196
0.085481 0.178622 0.202914
0.110170 0.177676 0.201633
0.139223 0.176699 0.200320
0.172091 0.176272 0.198947
0.208377 0.175082 0.197574
0.248692 0.173526 0.196353
0.294285 0.171328 0.195773
0.344945 0.167758 0.195804
0.401648 0.162753 0.196201
0.463050 0.155093 0.197513
0.539239 0.142794 0.199557
0.637873 0.123629 0.203433
0.722103 0.112276 0.208804
0.787839 0.120058 0.215457
0.841825 0.143618 0.223697
0.886564 0.173312 0.233616
0.924956 0.206332 0.245731
0.959289 0.242649 0.261143
0.989990 0.281987 0.280827
1.000000 0.324529 0.306126
1.000000 0.370672 0.338384
1.000000 0.420508 0.378515
1.000000 0.474250 0.427771
0.104768 0.187198 0.210727
0.104158 0.187228 0.210727
0.104463 0.187076 0.210636
0.103883 0.186801 0.210391
0.087617 0.184909 0.211246
0.061311 0.184054 0.209995
0.040833 0.182864 0.208316
0.037201 0.181582 0.206760
0.053010 0.180423 0.205234
0.088624 0.179477 0.203616
0.113191 0.178775 0.202152
0.142214 0.178256 0.200687
0.174258 0.177676 0.199039
0.209567 0.176730 0.197360
0.248569 0.175235 0.196170
0.292363 0.173526 0.195438
0.341222 0.170657 0.195193
0.395087 0.166262 0.195590
0.453864 0.159915 0.196597
0.530419 0.148959 0.198550
0.619287 0.133761 0.201450
0.698695 0.122744 0.205814
0.765164 0.125582 0.211307
0.821683 0.142489 0.218662
0.870726 0.169162 0.228000
0.913909 0.202121 0.239902
0.952056 0.239597 0.255558
0.985626 0.280125 0.275608
1.000000 0.323308 0.300969
1.000000 0.369177 0.333013
1.000000 0.417456 0.372259
1.000000 0.468147 0.418616
0.099733 0.184024 0.207858
0.099184 0.184054 0.207736
0.099519 0.183902 0.207614
0.098878 0.183627 0.207401
0.098573 0.183200 0.207034
0.083406 0.180575 0.208072
0.034424 0.180819 0.211063
0.033539 0.181247 0.209049
0.056214 0.180941 0.206912
0.091188 0.180911 0.205203
0.116732 0.180789 0.203128
0.144900 0.180423 0.201083
0.176120 0.179904 0.199008
0.211063 0.179294 0.197299
0.249973 0.178256 0.195895
0.294224 0.176944 0.194827
0.343542 0.174441 0.194369
0.398383 0.170687 0.194491
0.457404 0.164950 0.195438
0.538354 0.155001 0.197086
0.621241 0.143587 0.199924
0.696742 0.136141 0.203586
0.761288 0.139376 0.208682
0.817990 0.154726 0.215396
0.867582 0.179232 0.224399
0.911498 0.210025 0.235966
0.949981 0.245426 0.251347
0.983612 0.283879 0.270970
1.000000 0.325170 0.295567
1.000000 0.368841 0.326421
1.000000 0.414862 0.364263
1.000000 0.463691 0.408881
0.094423 0.180789 0.204807
0.094423 0.180789 0.204807
0.094423 0.180789 0.204807
0.094209 0.180636 0.204532
0.093507 0.180362 0.204318
0.093172 0.179904 0.203952
0.082734 0.177676 0.204257
0.053132 0.177768 0.207004
0.076509 0.181979 0.209018
0.102449 0.183047 0.206088
0.128298 0.183322 0.203403
0.156374 0.183536 0.200839
0.187991 0.183658 0.198520
0.223484 0.183383 0.196536
0.263676 0.182956 0.194797
0.308812 0.181949 0.193698
0.359594 0.179934 0.193149
0.415412 0.176577 0.192996
0.480232 0.171328 0.193790
0.563775 0.163394 0.195132
0.643214 0.156222 0.197726
0.715297 0.154574 0.201144
0.906310 0.231754 0.227756
0.946929 0.265202 0.244511
0.979461 0.299443 0.263859
1.000000 0.333684 0.286107
1.000000 0.367834 0.312200
1.000000 0.403052 0.341772
1.000000 0.440101 0.376013
1.000000 0.479042 0.414527
1.000000 0.520043 0.457649
1.000000 0.562310 0.503685
0.087587 0.176699 0.200931
0.087587 0.176699 0.200931
0.087953 0.176516 0.200931
0.088075 0.176516 0.200809
0.087617 0.176364 0.200687
0.086397 0.176089 0.200443
0.085359 0.175784 0.200076
0.081392 0.174746 0.199924
0.090608 0.177371 0.201114
0.126314 0.185824 0.202152
0.165682 0.192203 0.201022
0.198123 0.193301 0.198093
0.233707 0.193790 0.195529
0.273381 0.193851 0.193362
0.316838 0.193332 0.191745
0.364965 0.191958 0.190738
0.417700 0.189914 0.189975
0.474495 0.186587 0.190219
0.562127 0.182650 0.190524
0.652338 0.180148 0.192264
0.735683 0.185245 0.195651
0.808133 0.201541 0.202121
0.870420 0.228031 0.212467
0.922576 0.261479 0.227298
0.963745 0.297002 0.246525
0.995056 0.331640 0.269230
1.000000 0.364233 0.294560
1.000000 0.396857 0.322454
1.000000 0.431098 0.354711
1.000000 0.466682 0.390692
1.000000 0.504997 0.431708
1.000000 0.545434 0.476692
0.083589 0.174716 0.199222
0.083589 0.174716 0.199222
0.083589 0.174716 0.199222
0.083589 0.174716 0.199222
0.082521 0.174746 0.199069
0.082979 0.174563 0.199100
0.081910 0.174594 0.198947
0.082551 0.174441 0.198825
0.083162 0.174563 0.198947
0.105745 0.179812 0.198337
0.151003 0.190494 0.197391
0.212436 0.204501 0.195956
0.253086 0.207248 0.193240
0.293400 0.207736 0.190677
0.336919 0.207279 0.188724
0.384070 0.206455 0.187350
0.435767 0.204898 0.186557
0.508293 0.204318 0.185611
0.589471 0.203769 0.185306
0.668452 0.205417 0.186313
0.742214 0.213107 0.188907
0.808743 0.228702 0.194217
0.867491 0.251896 0.203067
0.917449 0.280461 0.216892
0.957855 0.311315 0.234684
0.989166 0.341375 0.256077
1.000000 0.371008 0.279911
1.000000 0.400214 0.307134
1.000000 0.431708 0.338384
1.000000 0.464790 0.373449
1.000000 0.500603 0.413397
1.000000 0.538750 0.457527
0.082521 0.174746 0.199069
0.082521 0.174746 0.199069
0.082521 0.174746 0.199069
0.082521 0.174746 0.199069
0.083589 0.174716 0.199222
0.083589 0.174716 0.199222
0.082948 0.174899 0.199344
0.084352 0.175174 0.199435
0.085206 0.175479 0.199954
0.088441 0.176974 0.201175
0.123049 0.185702 0.198459
0.177340 0.199283 0.194919
0.248966 0.216220 0.190616
0.324987 0.230259 0.185672
0.369299 0.229740 0.183352
0.416693 0.228702 0.181643
0.483833 0.230564 0.179171
0.555749 0.231968 0.177707
0.627680 0.234562 0.176730
0.697169 0.239658 0.177035
0.762020 0.249668 0.179141
0.821408 0.265019 0.183932
0.874693 0.285344 0.192874
0.920745 0.309850 0.206149
0.958831 0.336339 0.223606
0.988647 0.361761 0.245182
1.000000 0.387518 0.268620
1.000000 0.413733 0.295842
1.000000 0.441840 0.326696
1.000000 0.471870 0.361120
1.000000 0.504601 0.400397
1.000000 0.539849 0.443610
0.088685 0.177127 0.201419
0.088685 0.177127 0.201419
0.088685 0.177127 0.201419
0.088685 0.177127 0.201419
0.088685 0.177127 0.201419
0.088685 0.177127 0.201419
0.088685 0.177127 0.201419
0.089296 0.177737 0.202029
0.091096 0.178439 0.202640
0.092805 0.179446 0.203616
0.096986 0.182193 0.206088
0.138094 0.194217 0.202792
0.201114 0.210880 0.196567
0.282689 0.230961 0.188693
0.387793 0.254917 0.177646
0.474708 0.266941 0.169558
0.542565 0.270024 0.165896
0.609796 0.273564 0.163058
0.674952 0.278477 0.161746
0.735195 0.285679 0.161685
0.789670 0.295476 0.164187
0.838132 0.307256 0.170016
0.882475 0.322728 0.178622
0.921355 0.340154 0.191379
0.954589 0.359167 0.207675
0.982788 0.378973 0.227146
1.000000 0.400183 0.250248
1.000000 0.423224 0.276432
1.000000 0.448646 0.307317
1.000000 0.476905 0.342229
1.000000 0.507774 0.382055
1.000000 0.541802 0.427253
0.096315 0.181918 0.205875
0.096315 0.181918 0.205875
0.096315 0.181918 0.205875
0.096315 0.181918 0.205875
0.096651 0.182071 0.205966
0.096651 0.182071 0.205966
0.096986 0.182193 0.206088
0.097230 0.182650 0.206577
0.099519 0.183902 0.207614
0.101503 0.185458 0.209140
0.104952 0.187350 0.210971
0.110475 0.191104 0.214359
0.158450 0.207279 0.212100
0.239933 0.231785 0.203433
0.346990 0.260960 0.190372
0.473701 0.293004 0.170230
0.602411 0.326055 0.139956
0.661707 0.329107 0.136629
0.716365 0.333074 0.135470
0.767086 0.338628 0.136324
0.813077 0.345312 0.141268
0.855711 0.354986 0.148196
0.895171 0.366918 0.158724
0.930053 0.380377 0.173526
0.960418 0.395331 0.191745
0.986389 0.411017 0.213291
1.000000 0.428290 0.237339
1.000000 0.447456 0.264530
1.000000 0.469306 0.296147
1.000000 0.493904 0.331670
1.000000 0.521569 0.372076
1.000000 0.552300 0.416876
0.109682 0.190158 0.213565
0.109377 0.190311 0.213687
0.109377 0.190311 0.213687
0.109377 0.190311 0.213687
0.109377 0.190311 0.213687
0.109590 0.190433 0.213931
0.109926 0.190860 0.214115
0.110689 0.190951 0.214359
0.112032 0.192172 0.215335
0.115572 0.194217 0.217319
0.120729 0.197665 0.220462
0.128145 0.202457 0.225010
0.171572 0.231937 0.252018
0.254459 0.267460 0.254246
0.393042 0.314366 0.233921
0.545953 0.363104 0.202457
0.687312 0.412970 0.151705
0.797971 0.458289 0.000000
0.862119 0.477913 0.000000
0.894621 0.475654 0.000000
0.923766 0.475410 0.029450
0.949920 0.476753 0.109224
0.973266 0.479896 0.146975
0.994507 0.485512 0.178866
1.000000 0.492409 0.210575
1.000000 0.500603 0.240665
1.000000 0.510338 0.270848
1.000000 0.521874 0.301610
1.000000 0.536065 0.334112
1.000000 0.553796 0.369787
1.000000 0.574914 0.409400
1.000000 0.599939 0.453193
0.137545 0.208988 0.230900
0.137331 0.208865 0.230777
0.137118 0.208743 0.230686
0.136385 0.208286 0.230167
0.135897 0.207828 0.229892
0.135500 0.207340 0.229496
0.135714 0.207706 0.229801
0.137881 0.208957 0.230991
0.140291 0.210819 0.232578
0.147738 0.215732 0.237156
0.158114 0.222568 0.243473
0.171572 0.231724 0.251835
0.188174 0.243046 0.262150
0.208591 0.256901 0.275059
0.294163 0.297795 0.284733
0.443488 0.351385 0.260838
0.594324 0.403540 0.225193
0.721218 0.452430 0.173587
0.819455 0.494057 0.078370
0.895048 0.527428 0.000000
0.925475 0.525322 0.000000
0.949310 0.521477 0.000000
0.971191 0.519585 0.081331
0.991394 0.520531 0.137514
1.000000 0.523369 0.176455
1.000000 0.527886 0.212314
1.000000 0.534386 0.245365
1.000000 0.543328 0.279179
1.000000 0.554864 0.314153
1.000000 0.570092 0.352087
1.000000 0.588373 0.392706
1.000000 0.610407 0.437354
0.170230 0.230838 0.251041
0.169772 0.230533 0.250797
0.169009 0.230045 0.250340
0.168399 0.229648 0.250004
0.167636 0.229129 0.249546
0.166903 0.228641 0.248997
0.167056 0.228733 0.249088
0.167636 0.229129 0.249546
0.169192 0.230350 0.250523
0.174044 0.233371 0.253422
0.184573 0.240543 0.259922
0.198367 0.250126 0.268772
0.215732 0.261723 0.279515
0.235386 0.275120 0.291966
0.256443 0.289433 0.305394
0.335241 0.330480 0.321477
0.487831 0.387671 0.293584
0.630945 0.441260 0.255497
0.747463 0.489113 0.205875
0.837003 0.527733 0.135286
0.906462 0.558129 0.000000
0.952911 0.573297 0.000000
0.973510 0.567376 0.000000
0.992798 0.564141 0.026032
1.000000 0.562921 0.135256
1.000000 0.563775 0.182559
1.000000 0.566918 0.221714
1.000000 0.572137 0.259251
1.000000 0.580407 0.297337
1.000000 0.592248 0.336919
1.000000 0.607385 0.379400
1.000000 0.626368 0.425147
0.211795 0.259098 0.276982
0.211429 0.258824 0.276860
0.210178 0.257908 0.276005
0.208499 0.256809 0.274998
0.206332 0.255375 0.273594
0.203952 0.253849 0.272282
0.202792 0.252995 0.271489
0.202304 0.252628 0.271183
0.203494 0.253300 0.271794
0.205722 0.254948 0.273289
0.214511 0.260990 0.278813
0.229557 0.271031 0.288243
0.247288 0.283146 0.299504
0.267185 0.296696 0.312230
0.288212 0.310918 0.325841
0.308507 0.324865 0.339147
0.374945 0.363592 0.362524
0.528161 0.424140 0.332158
0.664515 0.479866 0.293278
0.770413 0.525628 0.247074
0.853788 0.562524 0.188846
0.918425 0.590509 0.099306
0.968750 0.610651 0.000000
0.994690 0.610895 0.000000
1.000000 0.605676 0.011170
1.000000 0.603021 0.142580
1.000000 0.602991 0.194980
1.000000 0.605615 0.240269
1.000000 0.611658 0.283787
1.000000 0.621546 0.328832
1.000000 0.635126 0.376318
1.000000 0.652796 0.427314
0.253941 0.287663 0.303716
0.254276 0.287785 0.303929
0.253696 0.287449 0.303502
0.252537 0.286656 0.302861
0.251041 0.285588 0.301823
0.249729 0.284794 0.300999
0.249363 0.284520 0.300816
0.250065 0.284947 0.301213
0.251560 0.286015 0.302251
0.253849 0.287602 0.303655
0.256962 0.289708 0.305669
0.269780 0.298436 0.313909
0.285161 0.308904 0.323796
0.301427 0.320012 0.334508
0.318944 0.332036 0.346075
0.336675 0.344244 0.357916
0.355444 0.357366 0.370611
0.406287 0.392065 0.402197
0.559106 0.456336 0.371496
0.688563 0.513481 0.334813
0.789181 0.559808 0.293584
0.868467 0.596521 0.245457
0.929046 0.623041 0.187289
0.977020 0.641596 0.093874
1.000000 0.652705 0.000000
1.000000 0.647181 0.072602
1.000000 0.644312 0.167514
1.000000 0.644099 0.223972
1.000000 0.646723 0.273381
1.000000 0.652796 0.320897
1.000000 0.662165 0.369146
1.000000 0.675227 0.419776
0.298344 0.317906 0.332433
0.298344 0.317906 0.332433
0.297704 0.317479 0.332006
0.296941 0.316899 0.331487
0.295811 0.316167 0.330846
0.294896 0.315496 0.330175
0.294316 0.315129 0.329808
0.294560 0.315312 0.329931
0.295628 0.315984 0.330602
0.297063 0.317052 0.331670
0.299504 0.318700 0.333196
0.305119 0.322545 0.336889
0.320226 0.332952 0.346899
0.336278 0.343969 0.357610
0.353307 0.355871 0.369146
0.370581 0.367956 0.380926
0.388464 0.380560 0.393317
0.408331 0.394781 0.407263
0.455299 0.429328 0.441260
0.594720 0.494453 0.418585
0.715602 0.552026 0.384863
0.809689 0.597894 0.348516
0.882536 0.632380 0.308385
0.939147 0.656886 0.263798
0.984253 0.673487 0.210697
1.000000 0.684352 0.136172
1.000000 0.685878 0.128695
1.000000 0.682887 0.204746
1.000000 0.682948 0.262760
1.000000 0.686030 0.315282
1.000000 0.692439 0.367193
1.000000 0.702266 0.419196
0.353857 0.356176 0.369512
0.354681 0.356756 0.370062
0.420966 0.403998 0.416327
0.419989 0.403265 0.415595
0.418494 0.402167 0.414527
0.416510 0.400732 0.413123
0.414466 0.399298 0.411688
0.412970 0.398138 0.410590
0.412543 0.397894 0.410285
0.413184 0.398260 0.410712
0.414099 0.398932 0.411383
0.414801 0.399451 0.411902
0.423285 0.405646 0.417975
0.437690 0.416236 0.428351
0.452033 0.426856 0.438880
0.466560 0.437842 0.449622
0.480262 0.448310 0.459968
0.494423 0.459388 0.470802
0.510216 0.472023 0.483192
0.549615 0.504906 0.515251
0.660151 0.565576 0.501305
0.764034 0.618891 0.469703
0.844297 0.658381 0.436378
0.905791 0.685634 0.401587
0.954559 0.703059 0.362402
0.994232 0.713924 0.319310
1.000000 0.719997 0.269047
1.000000 0.723140 0.206912
1.000000 0.720058 0.254795
1.000000 0.719631 0.310277
1.000000 0.722683 0.364385
1.000000 0.729030 0.418006
0.432471 0.412360 0.424567
0.438819 0.417060 0.429175
0.445258 0.421820 0.433845
0.450660 0.425818 0.437842
0.453956 0.428260 0.440223
0.454231 0.428534 0.440467
0.452705 0.427375 0.439338
0.450813 0.426001 0.437934
0.449561 0.425025 0.437018
0.449042 0.424659 0.436652
0.448920 0.424537 0.436591
0.449134 0.424750 0.436744
0.447608 0.423621 0.435645
0.460578 0.433295 0.445197
0.474250 0.443732 0.455421
0.488289 0.454597 0.466102
0.502586 0.465858 0.477150
0.517784 0.478126 0.489143
0.534234 0.491798 0.502464
0.552270 0.507225 0.517479
0.588281 0.539635 0.548760
0.681544 0.598199 0.548882
0.779202 0.651606 0.522759
0.853269 0.689265 0.495064
0.910246 0.714168 0.464851
0.956298 0.730220 0.431647
0.994110 0.740047 0.395605
1.000000 0.745754 0.355505
1.000000 0.748928 0.311620
1.000000 0.749294 0.294072
1.000000 0.749416 0.351812
1.000000 0.752865 0.408118
0.476905 0.445716 0.457404
0.483314 0.450721 0.462318
0.490181 0.456062 0.467567
0.496162 0.460731 0.472145
0.499886 0.463722 0.475013
0.500420 0.464149 0.475502
0.499306 0.463264 0.474617
0.497383 0.461707 0.473091
0.495766 0.460426 0.471809
0.494575 0.459449 0.470893
0.493599 0.458747 0.470192
0.492988 0.458289 0.469703
0.491432 0.457008 0.468513
0.493874 0.458961 0.470375
0.507164 0.469551 0.480812
0.520348 0.480262 0.491249
0.533959 0.491554 0.502251
0.547906 0.503471 0.513817
0.563012 0.516655 0.526604
0.579370 0.531365 0.540826
0.596674 0.547478 0.556298
0.628077 0.577966 0.585504
0.703975 0.632105 0.595911
0.793606 0.683772 0.574212
0.860868 0.718624 0.551019
0.914061 0.741939 0.526177
0.956878 0.756893 0.499550
0.993133 0.766384 0.470924
1.000000 0.772335 0.440497
1.000000 0.775601 0.407263
1.000000 0.776638 0.370031
1.000000 0.777249 0.397589
0.524987 0.484077 0.494942
0.530938 0.488991 0.499763
0.536706 0.493874 0.504540
0.541863 0.498238 0.508782
0.545098 0.500999 0.511437
0.545708 0.501518 0.511955
0.544640 0.500664 0.511101
0.542992 0.499184 0.509697
0.541650 0.498054 0.508568
0.540002 0.496681 0.507225
0.539208 0.496040 0.506584
0.538354 0.495308 0.505882
0.536767 0.493996 0.504601
0.535088 0.492531 0.503166
0.541863 0.498238 0.508782
0.555016 0.509636 0.519829
0.569512 0.522454 0.532219
0.584955 0.536522 0.545800
0.601801 0.552331 0.560937
0.619989 0.569970 0.577813
0.639216 0.589166 0.596185
0.658747 0.609430 0.615503
0.686610 0.639582 0.644129
0.745724 0.689876 0.665156
0.822416 0.737209 0.651057
0.880461 0.768215 0.635737
0.926299 0.788388 0.619562
0.964294 0.801633 0.602686
0.996551 0.810513 0.585626
1.000000 0.816007 0.567315
1.000000 0.818845 0.546899
1.000000 0.819211 0.523064
0.606775 0.557122 0.565545
0.608942 0.559197 0.567498
0.610315 0.560540 0.568811
0.610925 0.561120 0.569360
0.610315 0.560540 0.568811
0.608881 0.559106 0.567468
0.606897 0.557183 0.565606
0.604852 0.555261 0.563745
0.603296 0.553765 0.562310
0.602350 0.552850 0.561456
0.601740 0.552270 0.560906
0.601038 0.551629 0.560266
0.599756 0.550378 0.559075
0.598230 0.548943 0.557671
0.595911 0.546777 0.555596
0.606073 0.556420 0.564874
0.617456 0.567437 0.575433
0.629694 0.579553 0.586999
0.642634 0.592676 0.599512
0.656428 0.607050 0.613184
0.670771 0.622278 0.627680
0.685847 0.638758 0.643336
0.700740 0.655421 0.659174
0.721340 0.679225 0.681727
0.764889 0.721035 0.706325
0.833310 0.763943 0.694514
0.886107 0.792660 0.683162
0.928588 0.812100 0.672084
0.963775 0.825437 0.660975
0.993805 0.834531 0.649744
1.000000 0.840330 0.637110
1.000000 0.843381 0.622370
0.647333 0.597528 0.604150
0.648859 0.599176 0.605707
0.650111 0.600427 0.606897
0.650660 0.600977 0.607446
0.650507 0.600793 0.607263
0.649439 0.599725 0.606226
0.647883 0.598077 0.604700
0.646418 0.596582 0.603265
0.645289 0.595422 0.602136
0.644556 0.594690 0.601404
0.643977 0.594079 0.600855
0.643458 0.593530 0.600366
0.642695 0.592737 0.599542
0.641627 0.591669 0.598535
0.640467 0.590478 0.597436
0.642206 0.592248 0.599115
0.652979 0.603418 0.609735
0.664210 0.615229 0.620966
0.676081 0.628077 0.633173
0.688624 0.641840 0.646265
0.701686 0.656550 0.660212
0.715114 0.671931 0.674800
0.728573 0.687709 0.689815
0.741726 0.703365 0.704677
0.745754 0.708217 0.709285
0.778164 0.743679 0.737209
0.841276 0.784390 0.728420
0.890318 0.811826 0.720577
0.929808 0.830900 0.713466
0.962860 0.844450 0.706661
0.991058 0.854124 0.700069
1.000000 0.860655 0.692653
0.701015 0.655756 0.659510
0.703395 0.658503 0.662043
0.704250 0.659419 0.662989
0.703731 0.658808 0.662348
0.701778 0.656641 0.660304
0.698970 0.653437 0.657282
0.695552 0.649561 0.653590
0.691859 0.645441 0.649714
0.688411 0.641627 0.646052
0.685420 0.638300 0.642908
0.682399 0.635004 0.639765
0.680018 0.632380 0.637293
0.677607 0.629694 0.634760
0.674922 0.626795 0.631983
0.671595 0.623194 0.628565
0.668360 0.619684 0.625208
0.671992 0.623560 0.628901
0.680964 0.633387 0.638239
0.691585 0.645167 0.649439
0.703639 0.658717 0.662287
0.716304 0.673335 0.676143
0.728908 0.688075 0.690150
0.740719 0.702144 0.703517
0.751705 0.715358 0.716121
0.761746 0.727565 0.727749
0.773404 0.741848 0.741390
0.796719 0.770535 0.768917
0.851743 0.806210 0.762264
0.896117 0.831205 0.756161
0.932464 0.849180 0.751278
0.962982 0.862303 0.747158
0.989166 0.871946 0.743465
0.725734 0.684352 0.686610
0.727840 0.686854 0.688991
0.729061 0.688289 0.690364
0.729152 0.688380 0.690425
0.728573 0.687709 0.689815
0.727565 0.686488 0.688624
0.726375 0.685084 0.687312
0.725154 0.683650 0.685969
0.724178 0.682490 0.684840
0.723323 0.681483 0.683894
0.722316 0.680293 0.682765
0.721218 0.679042 0.681575
0.719844 0.677455 0.680049
0.717830 0.675105 0.677821
0.715297 0.672145 0.675013
0.712520 0.668879 0.671931
0.709682 0.665675 0.668879
0.716457 0.673457 0.676295
0.725154 0.683650 0.685969
0.735042 0.695369 0.697078
0.745602 0.708003 0.709102
0.756374 0.721065 0.721523
0.766873 0.733883 0.733761
0.776852 0.746120 0.745449
0.786313 0.757748 0.756619
0.795224 0.768673 0.767147
0.804837 0.780453 0.778561
0.825040 0.804837 0.802304
0.868589 0.834806 0.802396
0.907622 0.857267 0.799100
0.939696 0.873564 0.796719
0.966827 0.885649 0.794858
0.760006 0.725429 0.725704
0.760830 0.726497 0.726680
0.761196 0.726894 0.727108
0.761074 0.726711 0.726925
0.760372 0.725917 0.726162
0.759274 0.724575 0.724880
0.758175 0.723201 0.723568
0.756924 0.721706 0.722133
0.755795 0.720333 0.720821
0.754940 0.719265 0.719814
0.753872 0.717983 0.718624
0.753109 0.717067 0.717708
0.752071 0.715816 0.716518
0.750637 0.714046 0.714839
0.748562 0.711574 0.712490
0.746242 0.708766 0.709773
0.743923 0.705989 0.707149
0.744289 0.706447 0.707607
0.751461 0.715114 0.715877
0.759854 0.725277 0.725551
0.768826 0.736233 0.736019
0.778012 0.747524 0.746853
0.786893 0.758419 0.757290
0.795438 0.768948 0.767422
0.803555 0.778866 0.777005
0.811246 0.788235 0.786130
0.818814 0.797360 0.795041
0.826261 0.806302 0.803738
0.843961 0.827268 0.824399
0.879667 0.853483 0.828855
0.915251 0.874571 0.827390
0.944762 0.890196 0.826719
0.785489 0.756710 0.755642
0.786191 0.757595 0.756466
0.786740 0.758236 0.757107
0.786831 0.758389 0.757259
0.787015 0.758572 0.757443
0.787442 0.759152 0.757961
0.788754 0.760769 0.759518
0.790463 0.762844 0.761532
0.792691 0.765591 0.764187
0.795285 0.768734 0.767208
0.798032 0.772152 0.770504
0.800504 0.775113 0.773373
0.802518 0.777615 0.775814
0.803861 0.779263 0.777401
0.804349 0.779843 0.777981
0.803799 0.779171 0.777310
0.802884 0.778042 0.776211
0.802060 0.777035 0.775235
0.805356 0.781064 0.779141
0.811582 0.788602 0.786465
0.818296 0.796719 0.794369
0.825132 0.804959 0.802426
0.831693 0.812802 0.810117
0.838071 0.820340 0.817502
0.844083 0.827420 0.824491
0.849821 0.834195 0.831174
0.855497 0.840818 0.837736
0.861082 0.847288 0.844175
0.866819 0.853910 0.850767
0.879576 0.868528 0.865385
0.905089 0.888090 0.871763
0.933867 0.905180 0.871275
0.829496 0.810178 0.807523
0.829526 0.810208 0.807553
0.829374 0.809995 0.807370
0.829007 0.809598 0.806943
0.828519 0.809018 0.806394
0.828031 0.808438 0.805844
0.827695 0.808011 0.805417
0.827512 0.807767 0.805203
0.827573 0.807858 0.805264
0.827726 0.808072 0.805478
0.828061 0.808469 0.805875
0.828489 0.808957 0.806363
0.828763 0.809323 0.806699
0.828916 0.809415 0.806821
