20 Preset/Dark Style/【3】LUT video cho PR-AE-FCPX/19Tones (4)/19Tones - Lamba.cube
# Created by Adobe Lightroom plugin Export LUT (1.24.0)
# www.johnrellis.com/lightroom/exportlut.htm
# Preset: 19Tones - Lamba
# Color profile: E:\lut插件\exportlut.1.24\exportlut.lrplugin\color profiles\Rec709gamma2.4.icc
LUT_3D_SIZE 8
DOMAIN_MIN 0.000000 0.000000 0.000000
DOMAIN_MAX 0.903226 0.903226 0.903226
0.000000 0.117861 0.143282
0.000000 0.120577 0.146090
0.083345 0.129244 0.155550
0.190219 0.137697 0.165896
0.406531 0.130465 0.181613
0.749020 0.000000 0.206088
0.933867 0.178531 0.246464
1.000000 0.320439 0.324895
0.000000 0.125582 0.147524
0.000000 0.124971 0.150698
0.197543 0.137972 0.142153
0.295689 0.134127 0.153597
0.507439 0.105592 0.164492
0.753719 0.000000 0.177859
0.919677 0.140475 0.208743
1.000000 0.285618 0.282597
0.000000 0.198123 0.191409
0.098421 0.180911 0.205173
0.110842 0.188632 0.212467
0.827207 0.432441 0.000000
0.990723 0.407752 0.000000
1.000000 0.337285 0.000000
1.000000 0.337835 0.010010
1.000000 0.377935 0.226993
0.349493 0.497078 0.383490
0.389654 0.454994 0.401404
0.430640 0.422614 0.433906
0.508507 0.486275 0.496101
1.000000 0.679286 0.000000
1.000000 0.654017 0.000000
1.000000 0.566583 0.000000
1.000000 0.500145 0.000000
0.593774 0.698451 0.581903
0.613794 0.681147 0.592554
0.665431 0.630976 0.635431
0.688472 0.654322 0.657679
0.708522 0.675013 0.677394
0.991882 0.762478 0.435157
1.000000 0.720821 0.000000
1.000000 0.666987 0.000000
0.741848 0.808957 0.724056
0.759518 0.810086 0.738521
0.786374 0.785580 0.758236
0.799741 0.773800 0.772183
0.804929 0.779599 0.777768
0.814145 0.789883 0.787839
0.972045 0.838712 0.686946
1.000000 0.781521 0.000000
0.821469 0.869841 0.807584
0.826566 0.868223 0.811063
0.839170 0.856840 0.818692
0.855467 0.836118 0.833280
0.855863 0.836545 0.833707
0.859617 0.840757 0.837888
0.865507 0.847379 0.844450
0.960784 0.877501 0.791501
0.872496 0.911315 0.863340
0.874357 0.910094 0.864317
0.882261 0.905516 0.869047
0.895293 0.896605 0.878935
0.894347 0.879850 0.876982
0.898894 0.884977 0.882139
0.904692 0.891569 0.888792
0.909331 0.896788 0.894072
0.000000 0.118166 0.146151
0.000000 0.120577 0.146090
0.064729 0.128817 0.154879
0.229496 0.134218 0.157046
0.435645 0.120241 0.167178
0.687007 0.000000 0.180179
0.868833 0.093446 0.206668
0.989532 0.244877 0.270451
0.000000 0.129976 0.151949
0.000000 0.129091 0.153506
0.174441 0.138705 0.147921
0.334569 0.138857 0.147799
0.557183 0.103975 0.149691
0.752407 0.000000 0.160616
0.888853 0.104707 0.185550
0.993011 0.231662 0.244358
0.002319 0.198581 0.193545
0.100954 0.183413 0.206607
0.117464 0.192844 0.216342
0.755795 0.379492 0.000000
0.937224 0.371710 0.000000
1.000000 0.325170 0.000000
1.000000 0.301823 0.000000
1.000000 0.333562 0.180179
0.261936 0.420356 0.325872
0.308446 0.390784 0.343969
0.361791 0.369207 0.381842
0.407111 0.404150 0.415778
0.961181 0.620233 0.000000
1.000000 0.620478 0.000000
1.000000 0.546990 0.000000
1.000000 0.481361 0.000000
0.570825 0.684443 0.563439
0.588983 0.664454 0.571313
0.638941 0.604852 0.610437
0.652857 0.618494 0.623499
0.668727 0.634302 0.638575
0.983032 0.740963 0.388800
1.000000 0.710414 0.000000
1.000000 0.661219 0.000000
0.722683 0.798459 0.706294
0.732845 0.792905 0.712428
0.764675 0.767147 0.735439
0.783536 0.755795 0.754788
0.792142 0.765377 0.764004
0.806241 0.781003 0.779171
0.970886 0.832670 0.674495
1.000000 0.776974 0.000000
0.809567 0.863493 0.796017
0.811826 0.859709 0.796414
0.825650 0.847166 0.804501
0.845548 0.824949 0.822232
0.848844 0.828641 0.825895
0.852903 0.833280 0.830472
0.857328 0.838193 0.835355
0.958709 0.870146 0.777707
0.864714 0.907530 0.855833
0.868009 0.907073 0.858183
0.876158 0.902037 0.862882
0.890166 0.892760 0.873320
0.898863 0.884947 0.882109
0.900603 0.886961 0.884123
0.903990 0.890776 0.887999
0.908415 0.895720 0.893004
0.000000 0.124819 0.169986
0.000000 0.129793 0.166232
0.012085 0.147799 0.173617
0.058808 0.164767 0.190097
0.342748 0.160647 0.199619
0.708705 0.098695 0.201053
0.941863 0.171939 0.199619
1.000000 0.287938 0.267247
0.000000 0.136721 0.182742
0.008118 0.144778 0.181186
0.048432 0.161410 0.186862
0.168887 0.164279 0.192294
0.439246 0.151308 0.194186
0.755825 0.107851 0.187411
0.950530 0.182925 0.179660
1.000000 0.281834 0.241215
0.000000 0.256870 0.225650
0.000000 0.241978 0.223697
0.212070 0.241886 0.244419
0.718227 0.317662 0.119783
0.885740 0.301091 0.045380
0.978363 0.303807 0.006989
1.000000 0.326970 0.021759
1.000000 0.357031 0.157748
0.238102 0.513695 0.361151
0.342382 0.490059 0.387884
0.444587 0.433753 0.444800
0.502129 0.480934 0.490852
0.990234 0.640162 0.000000
1.000000 0.600855 0.000000
1.000000 0.535515 0.000000
1.000000 0.494636 0.000000
0.574090 0.714351 0.580468
0.599298 0.700252 0.590967
0.666835 0.642756 0.636133
0.689113 0.654963 0.658289
0.712917 0.679622 0.681819
0.989624 0.755917 0.451606
1.000000 0.711025 0.000000
1.000000 0.653803 0.000000
0.724880 0.809323 0.713985
0.736080 0.804837 0.720363
0.767575 0.781247 0.740230
0.788602 0.761471 0.760220
0.796475 0.770199 0.768673
0.812009 0.787472 0.785458
0.972656 0.835935 0.686030
1.000000 0.779416 0.179110
0.813443 0.871702 0.803311
0.816129 0.868406 0.803891
0.828794 0.856077 0.809842
0.848539 0.832639 0.825498
0.852415 0.832670 0.829862
0.857542 0.838437 0.835569
0.864591 0.846311 0.843412
0.962768 0.877256 0.790585
0.864225 0.911528 0.857786
0.865599 0.909972 0.858061
0.874022 0.904967 0.862455
0.890227 0.897154 0.874174
0.900694 0.887053 0.884215
0.903807 0.890562 0.887785
0.907897 0.895201 0.892454
0.912444 0.900359 0.897673
0.000000 0.142397 0.240757
0.034943 0.152224 0.243534
0.143740 0.210849 0.232975
0.162814 0.223972 0.245029
0.164370 0.224979 0.246067
0.287938 0.217319 0.247807
0.690883 0.204135 0.278447
0.947692 0.277287 0.315679
0.000000 0.168490 0.273777
0.102907 0.179782 0.273869
0.187564 0.241215 0.260960
0.190951 0.243626 0.263096
0.170321 0.228946 0.249760
0.377264 0.217350 0.255070
0.746700 0.203799 0.277012
0.967407 0.285985 0.309331
0.000000 0.247044 0.329656
0.000000 0.250401 0.327245
0.291142 0.316136 0.330846
0.239078 0.278019 0.294987
0.496376 0.246342 0.279667
0.781064 0.245457 0.274327
0.962707 0.311437 0.284550
1.000000 0.372351 0.304112
0.000000 0.640558 0.482918
0.000000 0.619318 0.467018
0.496071 0.526207 0.490547
0.630030 0.559899 0.524071
0.987366 0.606531 0.255497
1.000000 0.538262 0.187503
1.000000 0.493507 0.179965
1.000000 0.475837 0.201602
0.564446 0.781064 0.630030
0.586297 0.769192 0.628229
0.687892 0.720333 0.664088
0.733944 0.701869 0.703029
0.761563 0.731685 0.731563
0.999268 0.774197 0.534417
1.000000 0.714382 0.209537
1.000000 0.637140 0.000000
0.739651 0.839536 0.743313
0.757137 0.839475 0.754208
0.786404 0.819699 0.766567
0.815335 0.791165 0.789090
0.821500 0.798032 0.795804
0.832334 0.810178 0.807675
0.978332 0.845518 0.713222
1.000000 0.788510 0.387366
0.812314 0.884672 0.811154
0.817350 0.882933 0.813565
0.834134 0.873991 0.821317
0.857053 0.855528 0.835904
0.865293 0.847166 0.844236
0.868925 0.851225 0.848295
0.874907 0.857939 0.854978
0.968963 0.884581 0.803067
0.866270 0.922057 0.865904
0.868315 0.920958 0.866636
0.876921 0.916442 0.870298
0.891722 0.907774 0.878508
0.905974 0.893126 0.890257
0.908904 0.896361 0.893614
0.913573 0.901640 0.898955
0.919585 0.908415 0.905882
0.092348 0.191501 0.438941
0.179477 0.207401 0.447242
0.353643 0.294163 0.446998
0.374121 0.378607 0.390967
0.385779 0.387549 0.399634
0.315831 0.334447 0.348272
0.263279 0.295659 0.311437
0.627131 0.338262 0.382208
0.157656 0.230838 0.479469
0.233585 0.249912 0.488685
0.409949 0.342107 0.488777
0.421363 0.415290 0.426734
0.406470 0.403601 0.415320
0.315618 0.334295 0.348089
0.257847 0.291691 0.307713
0.676509 0.338842 0.386725
0.128542 0.323949 0.545312
0.264530 0.350652 0.554620
0.499153 0.444984 0.564050
0.503288 0.481910 0.491859
0.417700 0.412451 0.423896
0.288762 0.314305 0.329107
0.518822 0.303136 0.339635
0.828855 0.343999 0.390723
0.000000 0.553948 0.628565
0.000000 0.553674 0.624292
0.424109 0.558984 0.611200
0.592950 0.561120 0.568536
0.696223 0.471107 0.482643
0.839750 0.436286 0.428565
0.940887 0.432410 0.404028
1.000000 0.448157 0.405249
0.000000 0.824735 0.682002
0.274784 0.818723 0.680018
0.592065 0.784268 0.678798
0.747921 0.716854 0.717372
0.805783 0.753292 0.723140
1.000000 0.753414 0.564813
1.000000 0.674983 0.437324
1.000000 0.601678 0.357916
0.672480 0.854887 0.738674
0.693050 0.851255 0.743221
0.735683 0.832731 0.745571
0.796353 0.795163 0.770413
0.814481 0.790219 0.788174
0.837797 0.816251 0.813687
0.989288 0.843931 0.716976
1.000000 0.786252 0.501549
0.797696 0.897856 0.817746
0.799039 0.895689 0.816281
0.810422 0.887541 0.815640
0.844327 0.871397 0.829770
0.867948 0.850095 0.847166
0.872007 0.854673 0.851743
0.878874 0.862425 0.859495
0.977722 0.884001 0.798856
0.846128 0.929290 0.861723
0.847684 0.928222 0.861509
0.855406 0.923919 0.862058
0.880034 0.917113 0.874052
0.901457 0.903563 0.886442
0.910369 0.897978 0.895293
0.915068 0.903288 0.900694
0.920836 0.909819 0.907286
0.383703 0.326818 0.717525
0.438117 0.351568 0.720363
0.584558 0.451728 0.714015
0.735012 0.667140 0.718318
0.643366 0.609125 0.614557
0.612085 0.579065 0.585779
0.535180 0.509178 0.518425
0.501030 0.480018 0.489998
0.393622 0.353277 0.708522
0.439673 0.372564 0.708156
0.585382 0.467628 0.707546
0.722347 0.654994 0.705440
0.624384 0.590814 0.597040
0.598993 0.566766 0.573968
0.514549 0.491463 0.501122
0.478126 0.461006 0.471382
0.493416 0.497536 0.756374
0.534173 0.514275 0.755856
0.661402 0.589837 0.756497
0.763851 0.709804 0.745907
0.674952 0.640589 0.644587
0.617365 0.584070 0.590570
0.506920 0.484962 0.494820
0.458198 0.444739 0.455512
0.401953 0.584375 0.767300
0.446387 0.586603 0.762509
0.621057 0.635615 0.763821
0.796353 0.756619 0.784756
0.752255 0.721553 0.721889
0.632929 0.598993 0.604852
0.494270 0.474342 0.484474
0.694484 0.478065 0.505333
0.261204 0.773251 0.793484
0.335576 0.772976 0.791623
0.520409 0.772549 0.784665
0.707607 0.771908 0.771511
0.834257 0.747585 0.736843
0.883055 0.681575 0.665553
0.930907 0.623194 0.602930
0.977844 0.588952 0.567498
0.502770 0.891234 0.791287
0.547997 0.890043 0.793790
0.656001 0.878264 0.792355
0.781796 0.851957 0.797208
0.837980 0.816495 0.813901
0.873686 0.841032 0.821958
1.000000 0.838560 0.740139
1.000000 0.768460 0.634394
0.744900 0.917754 0.829496
0.756619 0.916686 0.831907
0.790372 0.910338 0.836606
0.839353 0.898222 0.846616
0.872251 0.877043 0.855314
0.884123 0.868315 0.865385
0.892668 0.877989 0.875090
0.991852 0.891569 0.814511
0.814939 0.941497 0.865263
0.818265 0.940368 0.865446
0.836118 0.936767 0.869413
0.867430 0.931090 0.879240
0.889311 0.920195 0.883665
0.913878 0.901946 0.899290
0.919951 0.908873 0.906340
0.926757 0.916533 0.914153
0.585534 0.494209 0.835752
0.615961 0.517205 0.836667
0.701076 0.589593 0.831693
0.798703 0.712734 0.823850
0.834745 0.812894 0.810330
0.753445 0.722835 0.723110
0.728756 0.696345 0.697749
0.680049 0.645716 0.649500
0.585687 0.507286 0.829862
0.616236 0.529686 0.831357
0.699336 0.596551 0.827420
0.793668 0.709499 0.819028
0.830808 0.808499 0.805997
0.744350 0.713069 0.713741
0.714778 0.681605 0.683680
0.659083 0.624659 0.629389
0.633234 0.598627 0.840665
0.655146 0.611597 0.840146
0.726314 0.660883 0.836484
0.810269 0.746456 0.831724
0.847745 0.827420 0.824704
0.769162 0.739986 0.739559
0.734615 0.702602 0.703731
0.670619 0.636164 0.640375
0.599145 0.646845 0.845090
0.626123 0.657374 0.844083
0.726894 0.712337 0.842771
0.818509 0.778256 0.844663
0.868620 0.848386 0.848569
0.804196 0.778744 0.776974
0.748287 0.717311 0.717769
0.667964 0.633539 0.637842
0.505303 0.720668 0.847715
0.526390 0.720089 0.845121
0.614374 0.725978 0.838163
0.741604 0.752468 0.830533
0.859709 0.833768 0.845365
0.818784 0.795041 0.792844
0.730556 0.698268 0.699611
0.642542 0.608331 0.613764
0.449104 0.856809 0.864073
0.480201 0.856474 0.863584
0.576440 0.854765 0.860807
0.697414 0.851286 0.855283
0.803952 0.845029 0.845396
0.863584 0.820615 0.817288
0.897765 0.775082 0.767849
0.929961 0.729885 0.722286
0.583124 0.934600 0.861997
0.603235 0.933471 0.862272
0.667231 0.928435 0.861784
0.755062 0.919829 0.861723
0.841123 0.902831 0.862181
0.890959 0.876036 0.873136
0.912261 0.890684 0.878264
1.000000 0.883909 0.823911
0.736782 0.956237 0.874540
0.745296 0.955383 0.875425
0.779294 0.952300 0.879881
0.825925 0.946258 0.885801
0.875425 0.937713 0.894499
0.910643 0.926055 0.903197
0.927520 0.917418 0.915038
0.936248 0.927337 0.925139
0.711330 0.636378 0.894530
0.726009 0.649256 0.893980
0.770199 0.688869 0.888670
0.831601 0.758999 0.881743
0.876249 0.831266 0.873442
0.875517 0.858610 0.855680
0.827390 0.804593 0.802213
0.811398 0.786770 0.784817
0.710567 0.642298 0.892119
0.725277 0.654841 0.891722
0.770413 0.694545 0.887388
0.830594 0.760555 0.880644
0.875578 0.830991 0.872984
0.875425 0.858518 0.855589
0.825406 0.802426 0.800076
0.808133 0.783139 0.781247
0.724666 0.684016 0.892424
0.736690 0.692592 0.891814
0.777676 0.723598 0.888243
0.837705 0.782315 0.885283
0.881010 0.840787 0.879484
0.883085 0.867185 0.864225
0.833890 0.811917 0.809384
0.813565 0.789212 0.787167
0.716518 0.719814 0.892760
0.731746 0.728969 0.892638
0.775082 0.754238 0.890776
0.835966 0.799374 0.889158
0.885283 0.850645 0.887785
0.897642 0.883604 0.880735
0.850645 0.830716 0.827909
0.826749 0.803952 0.801572
0.557946 0.692988 0.889311
0.579614 0.697841 0.888762
0.668421 0.727108 0.887938
0.797482 0.794278 0.888182
0.874205 0.847623 0.890440
0.911070 0.897642 0.896330
0.867582 0.849699 0.846769
0.835630 0.813870 0.811337
0.511254 0.794614 0.901244
0.528649 0.794491 0.900206
0.597406 0.796139 0.896635
0.700862 0.803189 0.890654
0.801755 0.818296 0.882109
0.906188 0.888121 0.899138
0.888457 0.873228 0.870298
0.837461 0.815915 0.813321
0.504997 0.903349 0.915160
0.523674 0.902892 0.914763
0.591333 0.901030 0.912993
0.688136 0.898283 0.910033
0.781308 0.894621 0.905241
0.858671 0.889677 0.898039
0.901488 0.887907 0.885100
0.867674 0.824643 0.823514
0.589410 0.966461 0.911101
0.600153 0.965789 0.910918
0.646021 0.963195 0.910826
0.719203 0.959075 0.911681
0.804074 0.952392 0.913085
0.874723 0.945373 0.915190
0.929839 0.932097 0.921294
0.949340 0.937926 0.931701
