20 Preset/Dark Style/【3】LUT video cho PR-AE-FCPX/19Tones (4)/19Tones - Street sky.cube
# Created by Adobe Lightroom plugin Export LUT (1.24.0)
# www.johnrellis.com/lightroom/exportlut.htm
# Preset: 19Tones - Street sky
# Color profile: E:\lut插件\exportlut.1.24\exportlut.lrplugin\color profiles\Rec709gamma2.4.icc
LUT_3D_SIZE 32
DOMAIN_MIN 0.0 0.0 0.0
DOMAIN_MAX 1.0 1.0 1.0
0.105837 0.187747 0.211307
0.105837 0.187747 0.211307
0.105837 0.187747 0.211307
0.108797 0.187594 0.211307
0.117342 0.187259 0.211276
0.134951 0.186282 0.211215
0.164096 0.185092 0.211154
0.204776 0.183139 0.210697
0.260899 0.179110 0.209873
0.338659 0.169833 0.208347
0.440253 0.148379 0.205570
0.561151 0.093355 0.201022
0.687984 0.000000 0.193851
0.799680 0.000000 0.183993
0.890318 0.000000 0.171969
0.961669 0.000000 0.157351
1.000000 0.000000 0.140597
1.000000 0.000000 0.121553
1.000000 0.000000 0.099153
1.000000 0.000000 0.052674
1.000000 0.126101 0.000000
1.000000 0.178561 0.000000
1.000000 0.208957 0.000000
1.000000 0.229221 0.000000
1.000000 0.243320 0.000000
1.000000 0.253330 0.000000
1.000000 0.261387 0.000000
1.000000 0.267002 0.000000
1.000000 0.270939 0.000000
1.000000 0.274205 0.000000
1.000000 0.276066 0.000000
1.000000 0.276829 0.000000
0.105837 0.187747 0.211307
0.105837 0.187747 0.211307
0.105837 0.187747 0.211307
0.108797 0.187594 0.211307
0.116823 0.187289 0.211276
0.134096 0.186343 0.211215
0.161013 0.185519 0.211124
0.199680 0.183780 0.210727
0.251865 0.180758 0.209934
0.324407 0.173190 0.208530
0.420325 0.155550 0.206027
0.536492 0.112947 0.201907
0.662257 0.000000 0.195254
0.776699 0.000000 0.185885
0.870756 0.000000 0.174380
0.946319 0.000000 0.160067
1.000000 0.000000 0.143648
1.000000 0.000000 0.125093
1.000000 0.000000 0.102815
1.000000 0.000000 0.063844
1.000000 0.120821 0.000000
1.000000 0.173953 0.000000
1.000000 0.203708 0.000000
1.000000 0.224460 0.000000
1.000000 0.238437 0.000000
1.000000 0.249546 0.000000
1.000000 0.257603 0.000000
1.000000 0.263676 0.000000
1.000000 0.268284 0.000000
1.000000 0.271519 0.000000
1.000000 0.273808 0.000000
1.000000 0.275151 0.000000
0.105837 0.187747 0.211307
0.105837 0.187747 0.211307
0.105837 0.187747 0.211307
0.109163 0.187716 0.211307
0.117311 0.187716 0.211215
0.133577 0.187747 0.211063
0.159915 0.187472 0.210910
0.197116 0.186435 0.210452
0.247715 0.184176 0.209659
0.317754 0.178408 0.208194
0.410742 0.164584 0.205661
0.523827 0.131991 0.201572
0.647486 0.000000 0.194949
0.762509 0.000000 0.185611
0.857847 0.000000 0.173983
0.935302 0.000000 0.159548
0.994842 0.000000 0.142580
1.000000 0.000000 0.123629
1.000000 0.000000 0.101320
1.000000 0.060212 0.057923
1.000000 0.148104 0.000000
1.000000 0.189578 0.000000
1.000000 0.214847 0.000000
1.000000 0.232944 0.000000
1.000000 0.245823 0.000000
1.000000 0.255100 0.000000
1.000000 0.262608 0.000000
1.000000 0.268101 0.000000
1.000000 0.272648 0.000000
1.000000 0.275853 0.000000
1.000000 0.277775 0.000000
1.000000 0.278660 0.000000
0.106416 0.188602 0.211978
0.106416 0.188602 0.211978
0.106905 0.188571 0.212100
0.109194 0.188754 0.211551
0.116030 0.189456 0.211429
0.129671 0.190524 0.211429
0.155337 0.191135 0.210941
0.191958 0.191531 0.210361
0.242161 0.190860 0.209415
0.311009 0.187564 0.207675
0.402197 0.178134 0.204929
0.512688 0.156771 0.200412
0.633722 0.111818 0.193637
0.747463 0.000000 0.183932
0.842679 0.000000 0.171786
0.920043 0.000000 0.157137
0.980804 0.000000 0.140017
1.000000 0.000000 0.120577
1.000000 0.095827 0.096559
1.000000 0.142306 0.044556
1.000000 0.183932 0.000000
1.000000 0.213840 0.000000
1.000000 0.234562 0.000000
1.000000 0.249424 0.000000
1.000000 0.260685 0.000000
1.000000 0.269108 0.000000
1.000000 0.276402 0.000000
1.000000 0.281132 0.000000
1.000000 0.284672 0.000000
1.000000 0.287419 0.000000
1.000000 0.288334 0.000000
1.000000 0.288060 0.000000
0.108644 0.189914 0.213230
0.108553 0.189914 0.213352
0.108553 0.189914 0.213352
0.109804 0.190311 0.213046
0.116884 0.191012 0.211612
0.131167 0.192081 0.210971
0.147890 0.194919 0.211215
0.179202 0.197604 0.210605
0.226200 0.199191 0.209537
0.290135 0.199741 0.207645
0.375708 0.196719 0.204776
0.482002 0.186770 0.200107
0.601007 0.166537 0.192874
0.718776 0.137209 0.182528
0.818235 0.113680 0.169284
0.900969 0.111177 0.152682
0.966308 0.131228 0.133181
1.000000 0.157748 0.110384
1.000000 0.183444 0.077516
1.000000 0.207706 0.000153
1.000000 0.234867 0.000000
1.000000 0.254307 0.000000
1.000000 0.268650 0.000000
1.000000 0.279118 0.000000
1.000000 0.287724 0.000000
1.000000 0.293919 0.000000
1.000000 0.298100 0.000000
1.000000 0.301152 0.000000
1.000000 0.303410 0.000000
1.000000 0.304234 0.000000
1.000000 0.304143 0.000000
1.000000 0.303105 0.000000
0.112795 0.192264 0.215579
0.112581 0.192416 0.215579
0.112795 0.192264 0.215579
0.112795 0.192264 0.215579
0.118105 0.193637 0.213718
0.131014 0.194675 0.211429
0.155581 0.196658 0.210025
0.180301 0.201144 0.209995
0.216037 0.208164 0.209628
0.276768 0.213199 0.207553
0.361273 0.216129 0.203952
0.466621 0.215213 0.198306
0.585809 0.209262 0.189853
0.705043 0.201022 0.177493
0.806821 0.199863 0.161837
0.891264 0.206973 0.142153
0.958618 0.222049 0.117586
1.000000 0.239048 0.086244
1.000000 0.255070 0.004456
1.000000 0.273930 0.000000
1.000000 0.291661 0.000000
1.000000 0.303624 0.000000
1.000000 0.346319 0.000000
1.000000 0.349615 0.000000
1.000000 0.351171 0.000000
1.000000 0.351171 0.000000
1.000000 0.350256 0.000000
1.000000 0.348241 0.000000
1.000000 0.346349 0.000000
1.000000 0.343114 0.000000
1.000000 0.339940 0.000000
1.000000 0.335302 0.000000
0.122072 0.198672 0.221408
0.122072 0.198672 0.221408
0.122164 0.198672 0.221286
0.121614 0.198428 0.221225
0.123140 0.198642 0.220432
0.138064 0.202029 0.215671
0.161776 0.204105 0.211582
0.204471 0.207431 0.208377
0.247929 0.216007 0.207004
0.310918 0.228946 0.204349
0.398169 0.247135 0.199435
0.516991 0.257908 0.189822
0.642573 0.264958 0.175753
0.754940 0.273808 0.156924
0.846586 0.285588 0.132967
0.920836 0.299504 0.101869
0.978851 0.312383 0.027344
1.000000 0.323888 0.000000
1.000000 0.335393 0.000000
1.000000 0.353246 0.000000
1.000000 0.365026 0.000000
1.000000 0.373144 0.000000
1.000000 0.378637 0.000000
1.000000 0.381903 0.000000
1.000000 0.382757 0.000000
1.000000 0.381689 0.000000
1.000000 0.379034 0.000000
1.000000 0.375525 0.000000
1.000000 0.371954 0.000000
1.000000 0.367285 0.000000
1.000000 0.362585 0.000000
1.000000 0.357366 0.000000
0.133730 0.206302 0.228367
0.133455 0.206180 0.228367
0.133303 0.206058 0.228153
0.133242 0.205814 0.228061
0.132601 0.205447 0.227787
0.140444 0.207858 0.224125
0.162448 0.212222 0.217350
0.193454 0.214878 0.211582
0.247745 0.218387 0.206790
0.310704 0.231510 0.203830
0.393286 0.249332 0.198856
0.496742 0.273106 0.190005
0.612451 0.302647 0.174746
0.725978 0.320287 0.151583
0.820035 0.338140 0.121401
0.896849 0.355413 0.065187
0.958251 0.368933 0.000000
1.000000 0.379919 0.000000
1.000000 0.396979 0.000000
1.000000 0.407385 0.000000
1.000000 0.413886 0.000000
1.000000 0.418219 0.000000
1.000000 0.420508 0.000000
1.000000 0.420935 0.000000
1.000000 0.419654 0.000000
1.000000 0.416327 0.000000
1.000000 0.412055 0.000000
1.000000 0.406653 0.000000
1.000000 0.401526 0.000000
1.000000 0.395911 0.000000
1.000000 0.389807 0.000000
1.000000 0.383429 0.000000
0.150301 0.217472 0.238682
0.150423 0.217350 0.238682
0.149935 0.217258 0.238499
0.149386 0.216953 0.238193
0.148684 0.216281 0.237644
0.147555 0.215610 0.237064
0.166598 0.221286 0.228702
0.196292 0.226871 0.219516
0.236271 0.230503 0.211429
0.307347 0.235294 0.203861
0.392126 0.252811 0.198123
0.492439 0.276555 0.189242
0.604730 0.308019 0.174014
0.711757 0.348577 0.149996
0.803586 0.383764 0.113985
0.881163 0.403021 0.016876
0.945129 0.420386 0.000000
1.000000 0.440925 0.000000
1.000000 0.454139 0.000000
1.000000 0.461616 0.000000
1.000000 0.464790 0.000000
1.000000 0.465766 0.000000
1.000000 0.465003 0.000000
1.000000 0.462989 0.000000
1.000000 0.459358 0.000000
1.000000 0.453742 0.000000
1.000000 0.447791 0.000000
1.000000 0.441077 0.000000
1.000000 0.434424 0.000000
1.000000 0.427253 0.000000
1.000000 0.419989 0.000000
1.000000 0.412482 0.000000
0.173800 0.233402 0.253330
0.173617 0.233097 0.253178
0.173068 0.232700 0.252720
0.172335 0.232212 0.252293
0.170565 0.231235 0.251316
0.169070 0.230045 0.250248
0.173129 0.231113 0.246464
0.202335 0.239506 0.233921
0.240574 0.246403 0.221714
0.290593 0.251102 0.210483
0.373022 0.256382 0.199496
0.477333 0.277287 0.189578
0.585809 0.307378 0.175235
0.694209 0.346685 0.151888
0.787961 0.392706 0.115511
0.874327 0.447486 0.000000
0.945525 0.480079 0.000000
0.999390 0.495583 0.000000
1.000000 0.504814 0.000000
1.000000 0.509453 0.000000
1.000000 0.511162 0.000000
1.000000 0.510826 0.000000
1.000000 0.508965 0.000000
1.000000 0.503777 0.000000
1.000000 0.497536 0.000000
1.000000 0.490211 0.000000
1.000000 0.482887 0.000000
1.000000 0.475074 0.000000
1.000000 0.467262 0.000000
1.000000 0.459480 0.000000
1.000000 0.451423 0.000000
1.000000 0.443153 0.000000
0.201877 0.252293 0.270756
0.201755 0.252201 0.270695
0.201144 0.251957 0.270451
0.200290 0.251347 0.269902
0.199100 0.250462 0.269108
0.197513 0.249302 0.268040
0.195193 0.247807 0.266606
0.213291 0.254093 0.256413
0.252323 0.265110 0.239872
0.302556 0.274418 0.223301
0.364385 0.280186 0.207767
0.453437 0.284733 0.192416
0.575982 0.310124 0.174594
0.695491 0.354376 0.147189
0.798886 0.406928 0.098878
0.881926 0.460426 0.000000
0.944274 0.508202 0.000000
0.990173 0.547997 0.000000
1.000000 0.553674 0.000000
1.000000 0.555047 0.000000
1.000000 0.553643 0.000000
1.000000 0.550866 0.000000
1.000000 0.547417 0.000000
1.000000 0.543084 0.000000
1.000000 0.538140 0.000000
1.000000 0.529961 0.000000
1.000000 0.520989 0.000000
1.000000 0.511894 0.000000
1.000000 0.502922 0.000000
1.000000 0.493996 0.000000
1.000000 0.484932 0.000000
1.000000 0.475685 0.000000
0.243748 0.280735 0.297246
0.243839 0.280797 0.297307
0.243229 0.280430 0.296880
0.242374 0.279759 0.296330
0.240787 0.278630 0.295293
0.238804 0.277379 0.294102
0.236332 0.275731 0.292546
0.233585 0.273716 0.290776
0.273686 0.288457 0.269444
0.325231 0.302525 0.246738
0.392065 0.316167 0.223636
0.475013 0.327153 0.200076
0.688502 0.388037 0.143862
0.816434 0.434516 0.006714
0.901518 0.491249 0.000000
0.962402 0.538476 0.000000
1.000000 0.575494 0.000000
1.000000 0.604700 0.000000
1.000000 0.628626 0.000000
1.000000 0.641505 0.000000
1.000000 0.632044 0.000000
1.000000 0.622217 0.000000
1.000000 0.612207 0.000000
1.000000 0.602289 0.000000
1.000000 0.592462 0.000000
1.000000 0.582544 0.000000
1.000000 0.572808 0.000000
1.000000 0.560266 0.000000
1.000000 0.548272 0.000000
1.000000 0.536706 0.000000
1.000000 0.525475 0.000000
1.000000 0.514427 0.000000
0.330419 0.339910 0.353674
0.329961 0.339727 0.353460
0.327886 0.338140 0.351995
0.324804 0.336126 0.350011
0.320592 0.333196 0.347112
0.315679 0.329778 0.343877
0.314916 0.329198 0.343297
0.314214 0.328801 0.342901
0.333104 0.337316 0.333593
0.401160 0.364080 0.300999
0.483131 0.390509 0.264347
0.577447 0.414923 0.221286
0.674403 0.433387 0.170108
0.767208 0.442176 0.102632
0.879393 0.483314 0.000000
0.946380 0.532738 0.000000
0.992554 0.570581 0.000000
1.000000 0.599634 0.000000
1.000000 0.623285 0.000000
1.000000 0.643091 0.000000
1.000000 0.660609 0.000000
1.000000 0.661463 0.000000
1.000000 0.650141 0.000000
1.000000 0.639002 0.000000
1.000000 0.627832 0.000000
1.000000 0.616602 0.000000
1.000000 0.605951 0.000000
1.000000 0.595514 0.000000
1.000000 0.583551 0.000000
1.000000 0.571221 0.000000
1.000000 0.559472 0.000000
1.000000 0.547692 0.000000
0.423835 0.406012 0.418372
0.422736 0.405249 0.417548
0.419593 0.402960 0.415290
0.416083 0.400397 0.412787
0.411231 0.396948 0.409400
0.405615 0.392798 0.405341
0.400305 0.389105 0.401709
0.395972 0.385992 0.398596
0.392706 0.383612 0.396277
0.438056 0.404211 0.370184
0.514885 0.434791 0.327764
0.600793 0.463722 0.277806
0.685817 0.486488 0.218875
0.765042 0.498909 0.145998
0.836118 0.498817 0.000000
0.923796 0.522698 0.000000
0.977050 0.563989 0.000000
1.000000 0.594202 0.000000
1.000000 0.618494 0.000000
1.000000 0.638636 0.000000
1.000000 0.656184 0.000000
1.000000 0.672206 0.000000
1.000000 0.686793 0.123476
1.000000 0.678462 0.063752
1.000000 0.666255 0.000000
1.000000 0.653925 0.000000
1.000000 0.641718 0.000000
1.000000 0.629847 0.000000
1.000000 0.618585 0.000000
1.000000 0.606744 0.000000
1.000000 0.593957 0.000000
1.000000 0.581872 0.000000
0.517723 0.478096 0.489143
0.516869 0.477424 0.488472
0.513359 0.474525 0.485634
0.508019 0.470222 0.481422
0.500877 0.464515 0.475807
0.492622 0.457984 0.469398
0.485176 0.452125 0.463691
0.478737 0.447120 0.458808
0.474128 0.443641 0.455360
0.474220 0.443122 0.451728
0.545922 0.477760 0.408148
0.622187 0.509972 0.357397
0.697505 0.535393 0.296696
0.768276 0.551598 0.223850
0.832883 0.556695 0.125521
0.888701 0.548425 0.000000
0.956085 0.554101 0.000000
1.000000 0.589258 0.000000
1.000000 0.614557 0.000000
1.000000 0.635309 0.000000
1.000000 0.653101 0.000000
1.000000 0.669062 0.000000
1.000000 0.683528 0.000000
1.000000 0.697047 0.147463
1.000000 0.705409 0.196506
1.000000 0.692409 0.145174
1.000000 0.679500 0.012543
1.000000 0.666712 0.000000
1.000000 0.654261 0.000000
1.000000 0.642420 0.000000
1.000000 0.630335 0.000000
1.000000 0.617609 0.000000
0.589227 0.540490 0.549615
0.589380 0.540642 0.549706
0.587854 0.539239 0.548363
0.585107 0.536675 0.545892
0.580713 0.532677 0.542046
0.576104 0.528405 0.537987
0.572198 0.524895 0.534569
0.568383 0.521477 0.531243
0.565728 0.519066 0.528923
0.563165 0.516777 0.526726
0.585931 0.529076 0.507683
0.648707 0.559564 0.455848
0.710780 0.583154 0.394812
0.770443 0.598016 0.322271
0.826596 0.603876 0.236484
0.876829 0.598932 0.119936
0.922240 0.584497 0.000000
0.978302 0.579248 0.000000
1.000000 0.608057 0.000000
1.000000 0.630518 0.000000
1.000000 0.649561 0.000000
1.000000 0.666285 0.000000
1.000000 0.681209 0.000000
1.000000 0.694972 0.032898
1.000000 0.707668 0.171054
1.000000 0.719356 0.232792
1.000000 0.719539 0.241886
1.000000 0.706172 0.193149
1.000000 0.692683 0.127108
1.000000 0.679438 0.000000
1.000000 0.666072 0.000000
1.000000 0.652705 0.000000
0.644739 0.594903 0.601648
0.644587 0.594720 0.601465
0.643427 0.593469 0.600305
0.641566 0.591608 0.598535
0.639033 0.588983 0.596033
0.635676 0.585626 0.592798
0.632654 0.582574 0.589868
0.629450 0.579339 0.586786
0.626520 0.576410 0.584009
0.623621 0.573571 0.581262
0.620630 0.570520 0.578393
0.660426 0.593164 0.544427
0.715023 0.618677 0.491402
0.769253 0.636439 0.425910
0.820706 0.645411 0.348180
0.868040 0.644770 0.256077
0.911070 0.635187 0.133059
0.950591 0.617914 0.000000
1.000000 0.608728 0.000000
1.000000 0.627008 0.000000
1.000000 0.647059 0.000000
1.000000 0.664271 0.000000
1.000000 0.679530 0.000000
1.000000 0.693446 0.000000
1.000000 0.706233 0.107393
1.000000 0.718166 0.194156
1.000000 0.729366 0.253422
1.000000 0.739712 0.300908
1.000000 0.732143 0.279301
1.000000 0.718318 0.229038
1.000000 0.704036 0.161440
1.000000 0.689448 0.000000
0.696773 0.650965 0.654932
0.697353 0.651637 0.655573
0.743832 0.705867 0.707057
0.742641 0.704433 0.705715
0.740871 0.702327 0.703700
0.738369 0.699367 0.700862
0.735378 0.695735 0.697414
0.732387 0.692195 0.694087
0.729549 0.688869 0.690883
0.726802 0.685573 0.687770
0.723751 0.682002 0.684382
0.725521 0.681605 0.676356
0.764858 0.703212 0.633997
0.805020 0.717556 0.580865
0.845121 0.723751 0.514366
0.884947 0.721462 0.430762
0.923095 0.710658 0.327489
0.958495 0.692683 0.200168
0.991150 0.668360 0.000000
1.000000 0.649897 0.000000
1.000000 0.656825 0.000000
1.000000 0.672694 0.000000
1.000000 0.686702 0.000000
1.000000 0.699367 0.000000
1.000000 0.710780 0.003296
1.000000 0.721370 0.167788
1.000000 0.731289 0.231022
1.000000 0.740688 0.280339
1.000000 0.749905 0.323644
1.000000 0.757656 0.357671
1.000000 0.742916 0.307500
1.000000 0.727474 0.246708
0.750546 0.714015 0.714778
0.754177 0.718349 0.718929
0.757412 0.722347 0.722744
0.760006 0.725490 0.725734
0.761013 0.726711 0.726894
0.760220 0.725704 0.725948
0.758175 0.723201 0.723568
0.755367 0.719783 0.720302
0.752773 0.716640 0.717342
0.749966 0.713283 0.714107
0.747250 0.709987 0.710964
0.744106 0.706233 0.707393
0.758389 0.713771 0.688075
0.793118 0.730282 0.646174
0.828916 0.740352 0.594171
0.865507 0.743587 0.529351
0.902068 0.739528 0.448951
0.938170 0.728420 0.349371
0.972290 0.710994 0.228580
1.000000 0.687892 0.000000
1.000000 0.668147 0.000000
1.000000 0.669673 0.000000
1.000000 0.684474 0.000000
1.000000 0.697322 0.000000
1.000000 0.708705 0.000000
1.000000 0.719265 0.054231
1.000000 0.729152 0.179385
1.000000 0.738705 0.241337
1.000000 0.747799 0.290013
1.000000 0.756588 0.332525
1.000000 0.764736 0.368505
1.000000 0.764309 0.369635
0.773892 0.742458 0.741939
0.777035 0.746334 0.745663
0.780056 0.750057 0.749233
0.782528 0.753079 0.752132
0.783688 0.754543 0.753567
0.783322 0.754055 0.753079
0.781735 0.752102 0.751217
0.779538 0.749447 0.748653
0.777249 0.746609 0.745937
0.774838 0.743618 0.743099
0.772335 0.740566 0.740139
0.769589 0.737179 0.736934
0.766110 0.732937 0.732845
0.790127 0.746578 0.705470
0.820798 0.758938 0.665919
0.852873 0.765621 0.615869
0.886046 0.766293 0.553521
0.919860 0.760800 0.476875
0.953887 0.748836 0.380682
0.986511 0.731289 0.264195
1.000000 0.708217 0.032990
1.000000 0.686915 0.000000
1.000000 0.682216 0.000000
1.000000 0.695827 0.000000
1.000000 0.707424 0.000000
1.000000 0.717922 0.000000
1.000000 0.727596 0.096040
1.000000 0.736965 0.190890
1.000000 0.746181 0.252018
1.000000 0.755001 0.300298
1.000000 0.763302 0.341192
1.000000 0.770443 0.373266
0.795865 0.769467 0.767910
0.798398 0.772549 0.770901
0.800748 0.775448 0.773709
0.802609 0.777737 0.775906
0.803616 0.778988 0.777127
0.803342 0.778592 0.776730
0.802090 0.777096 0.775296
0.800412 0.775021 0.773281
0.798611 0.772854 0.771206
0.796597 0.770382 0.768795
0.794583 0.767880 0.766384
0.792264 0.765042 0.763638
0.789517 0.761654 0.760403
0.792081 0.761868 0.752132
0.817594 0.775296 0.723323
0.844938 0.784726 0.686885
0.874449 0.789761 0.641474
0.905394 0.789975 0.585260
0.937530 0.785092 0.516930
0.970459 0.774685 0.432074
1.000000 0.758419 0.324834
1.000000 0.736507 0.180453
1.000000 0.713619 0.000000
1.000000 0.702907 0.000000
1.000000 0.715297 0.000000
1.000000 0.726131 0.000000
1.000000 0.736172 0.077058
1.000000 0.745754 0.195621
1.000000 0.755184 0.263340
1.000000 0.764218 0.316991
1.000000 0.772580 0.361089
1.000000 0.779782 0.395636
0.829587 0.810300 0.807675
0.830411 0.811246 0.808591
0.830869 0.811826 0.809140
0.830930 0.811856 0.809201
0.830442 0.811276 0.808621
0.829404 0.810025 0.807401
0.828061 0.808408 0.805814
0.826535 0.806638 0.804074
0.825040 0.804837 0.802304
0.823636 0.803159 0.800687
0.822202 0.801419 0.798978
0.820493 0.799374 0.796963
0.818448 0.796902 0.794583
0.816037 0.794003 0.791745
0.826200 0.799313 0.778134
0.847684 0.808927 0.752468
0.870909 0.815183 0.720699
0.896269 0.817807 0.680293
0.923796 0.816037 0.628717
0.953094 0.809567 0.564385
0.983490 0.797787 0.483803
1.000000 0.780117 0.379858
1.000000 0.756802 0.243809
1.000000 0.731380 0.000000
1.000000 0.714290 0.000000
1.000000 0.725124 0.000000
1.000000 0.735164 0.000000
1.000000 0.744808 0.114076
1.000000 0.754116 0.213809
1.000000 0.763149 0.278874
1.000000 0.771450 0.329320
1.000000 0.778836 0.369360
0.845457 0.829068 0.826108
0.846036 0.829740 0.826810
0.846464 0.830259 0.827298
0.846525 0.830350 0.827359
0.846220 0.829953 0.827024
0.845518 0.829129 0.826200
0.844480 0.827909 0.824979
0.843320 0.826566 0.823636
0.842222 0.825223 0.822354
0.841093 0.823880 0.821012
0.839933 0.822538 0.819669
0.838682 0.821073 0.818235
0.837125 0.819242 0.816434
0.835416 0.817227 0.814450
0.833402 0.814817 0.812070
0.849699 0.823911 0.794858
0.868925 0.831601 0.772396
0.889708 0.836576 0.744839
0.912535 0.838285 0.709895
0.937469 0.836240 0.665034
0.964782 0.829648 0.606653
0.993652 0.818082 0.532891
1.000000 0.800870 0.437842
1.000000 0.777584 0.310674
1.000000 0.745022 0.000000
1.000000 0.722988 0.000000
1.000000 0.732692 0.000000
1.000000 0.742184 0.000000
1.000000 0.751369 0.118196
1.000000 0.760281 0.217502
1.000000 0.768795 0.281407
1.000000 0.776486 0.330083
0.866056 0.853056 0.849912
0.866941 0.854063 0.850919
0.867277 0.854459 0.851316
0.866911 0.854032 0.850889
0.865995 0.852995 0.849882
0.864683 0.851438 0.848325
0.862974 0.849516 0.846372
0.861173 0.847410 0.844297
0.859312 0.845212 0.842130
0.857511 0.843168 0.840085
0.855589 0.840940 0.837858
0.853819 0.838834 0.835782
0.851896 0.836606 0.833585
0.849699 0.834043 0.831022
0.847166 0.831083 0.828122
0.849485 0.831296 0.821256
0.865110 0.838804 0.803037
0.882475 0.844633 0.781552
0.901854 0.848417 0.755550
0.923278 0.849760 0.723659
0.946807 0.847715 0.683101
0.972564 0.841306 0.629450
1.000000 0.829648 0.558923
1.000000 0.812161 0.466438
1.000000 0.788327 0.340002
1.000000 0.760678 0.150271
1.000000 0.737331 0.000000
1.000000 0.741115 0.000000
1.000000 0.749538 0.000000
1.000000 0.757900 0.120485
1.000000 0.765988 0.216648
1.000000 0.773617 0.278172
0.875303 0.863706 0.860533
0.876127 0.864591 0.861448
0.876555 0.865110 0.861967
0.876493 0.865049 0.861906
0.876097 0.864622 0.861479
0.875517 0.863920 0.860777
0.874846 0.863127 0.859983
0.873991 0.862181 0.859037
0.873228 0.861265 0.858122
0.872374 0.860349 0.857176
0.871397 0.859159 0.856046
0.870359 0.858000 0.854856
0.869047 0.856504 0.853361
0.867491 0.854704 0.851560
0.865507 0.852415 0.849271
0.863340 0.849912 0.846799
0.870817 0.853574 0.836759
0.884642 0.859586 0.820981
0.900237 0.864256 0.802457
0.917418 0.867277 0.780484
0.936492 0.867948 0.753140
0.957488 0.865568 0.718074
0.980804 0.859220 0.671565
1.000000 0.847868 0.607599
1.000000 0.830961 0.522759
1.000000 0.807797 0.407233
1.000000 0.779660 0.244511
1.000000 0.754635 0.000000
1.000000 0.753536 0.000000
1.000000 0.761318 0.000000
1.000000 0.769009 0.176791
1.000000 0.776242 0.251499
0.888487 0.878660 0.875547
0.888853 0.879026 0.875944
0.888945 0.879179 0.876097
0.888823 0.878996 0.875914
0.888396 0.878569 0.875456
0.887816 0.877928 0.874815
0.887175 0.877165 0.874052
0.886412 0.876280 0.873167
0.885618 0.875425 0.872282
0.884886 0.874571 0.871458
0.884031 0.873594 0.870481
0.883177 0.872648 0.869505
0.882200 0.871519 0.868406
0.880980 0.870085 0.866972
0.879393 0.868345 0.865202
0.877623 0.866331 0.863188
0.876005 0.864347 0.860960
0.887388 0.870420 0.848783
0.900175 0.875608 0.834928
0.914397 0.879637 0.818875
0.929992 0.882017 0.799771
0.947143 0.882170 0.775814
0.966064 0.879393 0.744594
0.987457 0.872953 0.702449
1.000000 0.861814 0.644190
1.000000 0.844999 0.563348
1.000000 0.822324 0.454383
1.000000 0.793668 0.299107
1.000000 0.767269 0.000000
1.000000 0.761776 0.000000
1.000000 0.768338 0.000000
1.000000 0.775265 0.179782
0.898497 0.889921 0.886900
0.898741 0.890196 0.887205
0.898924 0.890410 0.887419
0.898955 0.890410 0.887419
0.898924 0.890379 0.887388
0.898985 0.890440 0.887449
0.899351 0.890837 0.887877
0.899840 0.891447 0.888457
0.900511 0.892180 0.889220
0.901305 0.893065 0.890105
0.902129 0.893980 0.891020
0.902800 0.894743 0.891814
0.903288 0.895293 0.892332
0.903410 0.895415 0.892485
0.903105 0.895079 0.892149
0.902312 0.894224 0.891264
0.901366 0.893095 0.890135
0.904021 0.894377 0.886290
0.913573 0.899199 0.877195
0.924102 0.903258 0.866880
0.935576 0.906310 0.854978
0.948119 0.907897 0.840635
0.961852 0.907561 0.822599
0.977142 0.904906 0.799435
0.994598 0.899199 0.768276
1.000000 0.889494 0.724727
1.000000 0.874540 0.662074
1.000000 0.852842 0.569757
1.000000 0.824125 0.438514
1.000000 0.793423 0.242802
1.000000 0.781399 0.150118
1.000000 0.786130 0.213535
0.916472 0.909911 0.907195
0.916472 0.909911 0.907195
0.916381 0.909789 0.907073
0.916197 0.909575 0.906889
0.915923 0.909300 0.906584
0.915618 0.908965 0.906249
0.915343 0.908659 0.905943
0.915099 0.908415 0.905669
0.914916 0.908202 0.905486
0.914794 0.908049 0.905303
0.914672 0.907927 0.905180
0.914549 0.907774 0.905058
0.914366 0.907561 0.904845
0.914000 0.907195 0.904448
