20 Preset/Dark Style/【3】LUT video cho PR-AE-FCPX/19Tones (4)/19Tones - Street sky.cube
# Created by Adobe Lightroom plugin Export LUT (1.24.0)
# www.johnrellis.com/lightroom/exportlut.htm
# Preset: 19Tones - Street sky
# Color profile: E:\lut插件\exportlut.1.24\exportlut.lrplugin\color profiles\Rec709gamma2.4.icc
LUT_3D_SIZE 5
DOMAIN_MIN 0.000000 0.000000 0.000000
DOMAIN_MAX 0.903226 0.903226 0.903226
0.105837 0.187747 0.211307
0.204776 0.183139 0.210697
0.890318 0.000000 0.171969
1.000000 0.178561 0.000000
1.000000 0.270939 0.000000
0.133730 0.206302 0.228367
0.193454 0.214878 0.211582
0.820035 0.338140 0.121401
1.000000 0.418219 0.000000
1.000000 0.401526 0.000000
0.517723 0.478096 0.489143
0.478737 0.447120 0.458808
0.832883 0.556695 0.125521
1.000000 0.669062 0.000000
1.000000 0.654261 0.000000
0.829587 0.810300 0.807675
0.826535 0.806638 0.804074
0.826200 0.799313 0.778134
1.000000 0.780117 0.379858
1.000000 0.754116 0.213809
0.925566 0.919921 0.917418
0.925048 0.919371 0.916838
0.914549 0.907774 0.905028
0.941955 0.920531 0.881895
1.000000 0.891600 0.705104
0.112032 0.193759 0.219883
0.129152 0.198154 0.223819
0.765316 0.000000 0.217777
1.000000 0.000000 0.123354
1.000000 0.282292 0.000000
0.132418 0.211765 0.233555
0.174502 0.233677 0.253696
0.779934 0.204868 0.219455
1.000000 0.328130 0.075349
1.000000 0.384253 0.000000
0.529747 0.488014 0.498787
0.528069 0.486641 0.497444
0.754696 0.515770 0.261234
1.000000 0.678462 0.311955
1.000000 0.655848 0.249943
0.839261 0.821775 0.818936
0.837339 0.819486 0.816678
0.824308 0.803983 0.801480
0.997436 0.789975 0.486946
1.000000 0.778744 0.426398
0.928130 0.922728 0.920256
0.927306 0.921813 0.919341
0.925811 0.920195 0.917693
0.943816 0.927245 0.897704
1.000000 0.905638 0.764157
0.166049 0.235355 0.287846
0.234318 0.266575 0.321508
0.511192 0.397009 0.468910
1.000000 0.415564 0.653346
1.000000 0.000000 0.403449
0.188296 0.265141 0.312352
0.267216 0.302129 0.357641
0.590570 0.486152 0.538018
1.000000 0.450782 0.645136
1.000000 0.308690 0.461250
0.419409 0.459205 0.470314
0.484932 0.498085 0.508385
0.717494 0.674708 0.677455
1.000000 0.711055 0.676143
1.000000 0.698665 0.625940
0.850065 0.834440 0.831449
0.849821 0.834195 0.831205
0.859495 0.845426 0.842313
0.939513 0.835935 0.736812
1.000000 0.869322 0.780819
0.929076 0.923766 0.921355
0.931670 0.926604 0.924254
0.933227 0.928283 0.925994
0.934051 0.926848 0.918090
1.000000 0.918303 0.828763
0.413153 0.414038 0.553338
0.497749 0.459663 0.589837
0.729580 0.658808 0.713283
0.849454 0.777829 0.812619
0.954314 0.850706 0.880735
0.421302 0.435218 0.560449
0.499916 0.476570 0.595239
0.736873 0.674189 0.723842
0.851957 0.792813 0.819303
0.960998 0.848386 0.880339
0.250614 0.381903 0.444007
0.314824 0.412146 0.479835
0.702663 0.665522 0.714778
0.868956 0.839384 0.847562
0.987915 0.852201 0.883024
0.746395 0.767880 0.767422
0.757565 0.774197 0.773342
0.813077 0.814694 0.812406
0.895079 0.886076 0.883055
0.997864 0.896147 0.885374
0.930938 0.925811 0.923430
0.932616 0.927642 0.925322
0.940093 0.935760 0.933623
0.948119 0.944488 0.942596
0.983520 0.940368 0.903655
0.746822 0.727779 0.819089
0.763973 0.740169 0.822934
0.824552 0.793668 0.842924
0.886778 0.867338 0.876249
0.921324 0.885405 0.902800
0.736263 0.722591 0.813748
0.756008 0.736934 0.819028
0.820890 0.792508 0.841154
0.887449 0.868376 0.877531
0.922393 0.889525 0.904936
0.689448 0.710079 0.793454
0.719600 0.728084 0.803342
0.800687 0.785550 0.835782
0.890227 0.873136 0.883421
0.931365 0.909178 0.918212
0.639673 0.735378 0.782132
0.635401 0.728603 0.777584
0.634821 0.710140 0.767849
0.874662 0.866361 0.882017
0.950896 0.941253 0.943572
0.878325 0.900267 0.897917
0.881468 0.901915 0.899565
0.898131 0.912200 0.909911
0.925566 0.930541 0.928435
0.964904 0.962493 0.961212
