20 Preset/Dark Style/【3】LUT video cho PR-AE-FCPX/19Tones (4)/19Tones - Train and Bridge.cube
# Created by Adobe Lightroom plugin Export LUT (1.24.0)
# www.johnrellis.com/lightroom/exportlut.htm
# Preset: 19Tones - Train and Bridge
# Color profile: E:\lut插件\exportlut.1.24\exportlut.lrplugin\color profiles\Rec709gamma2.4.icc
LUT_3D_SIZE 32
DOMAIN_MIN 0.0 0.0 0.0
DOMAIN_MAX 1.0 1.0 1.0
0.105837 0.187747 0.211307
0.105837 0.187747 0.211307
0.106813 0.187839 0.211307
0.108888 0.187900 0.211398
0.113832 0.188083 0.211337
0.121126 0.188388 0.211368
0.132601 0.188540 0.211368
0.147524 0.189090 0.211276
0.166476 0.189548 0.210971
0.190280 0.190097 0.210819
0.219669 0.190585 0.210330
0.256382 0.190890 0.209567
0.301946 0.190463 0.208408
0.361059 0.188479 0.206577
0.451728 0.181643 0.203037
0.543603 0.170443 0.198184
0.632410 0.156771 0.191836
0.713649 0.145632 0.183810
0.784695 0.142824 0.174350
0.847837 0.150607 0.162814
0.902953 0.168704 0.148653
0.948974 0.191714 0.132387
0.986236 0.214450 0.114015
1.000000 0.236484 0.091463
1.000000 0.256596 0.035126
1.000000 0.275761 0.000000
1.000000 0.293492 0.000000
1.000000 0.309850 0.000000
1.000000 0.325536 0.000000
1.000000 0.340337 0.000000
1.000000 0.354223 0.000000
1.000000 0.367437 0.000000
0.105623 0.187900 0.211307
0.105837 0.187747 0.211307
0.106813 0.187839 0.211307
0.108888 0.187900 0.211398
0.113832 0.188083 0.211337
0.121126 0.188388 0.211368
0.131991 0.188754 0.211368
0.146395 0.189181 0.211276
0.164828 0.189700 0.211124
0.187900 0.190341 0.210819
0.216281 0.190890 0.210361
0.251804 0.191196 0.209659
0.296025 0.190951 0.208560
0.353948 0.189242 0.206790
0.438361 0.183566 0.203586
0.526055 0.174075 0.199161
0.613458 0.161044 0.193301
0.694820 0.150027 0.185763
0.767544 0.144717 0.176822
0.831724 0.150210 0.165774
0.887694 0.165438 0.152773
0.935302 0.186099 0.137392
0.973999 0.208347 0.120272
1.000000 0.230014 0.099916
1.000000 0.250309 0.058991
1.000000 0.269902 0.000000
1.000000 0.287877 0.000000
1.000000 0.305180 0.000000
1.000000 0.321263 0.000000
1.000000 0.336492 0.000000
1.000000 0.350774 0.000000
1.000000 0.364294 0.000000
0.105623 0.188205 0.211521
0.105623 0.188205 0.211521
0.106111 0.188174 0.211643
0.108766 0.188327 0.211490
0.113466 0.188693 0.211521
0.120821 0.188998 0.211429
0.131807 0.189364 0.211276
0.146212 0.189792 0.211215
0.164034 0.190372 0.211032
0.186404 0.191104 0.210758
0.214084 0.191928 0.210269
0.248844 0.192264 0.209598
0.291875 0.192264 0.208530
0.350469 0.191043 0.206699
0.429816 0.186557 0.203708
0.513603 0.178744 0.199557
0.598322 0.167910 0.194003
0.680232 0.157168 0.186770
0.754025 0.151461 0.177951
0.819638 0.155520 0.167330
0.877165 0.169162 0.154574
0.926452 0.188479 0.139406
0.966552 0.209781 0.122530
1.000000 0.230838 0.102327
1.000000 0.250889 0.066072
1.000000 0.269505 0.000000
1.000000 0.288029 0.000000
1.000000 0.305058 0.000000
1.000000 0.321019 0.000000
1.000000 0.336736 0.000000
1.000000 0.350866 0.000000
1.000000 0.364324 0.000000
0.105867 0.189059 0.211795
0.106355 0.189029 0.211948
0.107179 0.188846 0.211948
0.106905 0.188846 0.212345
0.111788 0.189364 0.211978
0.120027 0.189944 0.211704
0.130495 0.190494 0.211551
0.144625 0.191104 0.211337
0.162631 0.191836 0.211032
0.185397 0.192691 0.210727
0.212833 0.193545 0.210117
0.246586 0.194369 0.209537
0.288334 0.194980 0.208438
0.348638 0.194461 0.206485
0.421790 0.191470 0.203555
0.499397 0.185916 0.199710
0.579522 0.177646 0.194614
0.658350 0.169131 0.187961
0.731777 0.164187 0.179690
0.798001 0.166171 0.169772
0.856687 0.176150 0.157656
0.908232 0.192538 0.143404
0.951385 0.212222 0.126955
0.988617 0.233005 0.106905
1.000000 0.253086 0.076692
1.000000 0.272618 0.004852
1.000000 0.291814 0.000000
1.000000 0.308873 0.000000
1.000000 0.325292 0.000000
1.000000 0.340551 0.000000
1.000000 0.354314 0.000000
1.000000 0.367224 0.000000
0.106264 0.190524 0.212284
0.106844 0.190494 0.212284
0.107362 0.190463 0.212406
0.108766 0.190097 0.212711
0.108339 0.189792 0.213107
0.115846 0.190585 0.212589
0.127108 0.191867 0.211948
0.140597 0.192844 0.211673
0.157748 0.193851 0.211368
0.179416 0.194888 0.210941
0.206363 0.196201 0.210300
0.239841 0.197391 0.209445
0.282719 0.198611 0.208286
0.342535 0.199222 0.206271
0.409613 0.198184 0.203464
0.483986 0.194827 0.199771
0.562646 0.189273 0.194766
0.642298 0.183017 0.188022
0.717311 0.179477 0.179873
0.784817 0.181888 0.169772
0.844724 0.191379 0.157565
0.897459 0.205631 0.143343
0.942535 0.223697 0.126497
0.981537 0.243473 0.105623
1.000000 0.262974 0.069886
1.000000 0.282109 0.000000
1.000000 0.299748 0.000000
1.000000 0.316686 0.000000
1.000000 0.332433 0.000000
1.000000 0.346899 0.000000
1.000000 0.360113 0.000000
1.000000 0.372564 0.000000
0.107179 0.192660 0.212924
0.107179 0.192660 0.212924
0.108370 0.192599 0.212924
0.110506 0.192050 0.213230
0.111696 0.191379 0.213535
0.110750 0.190951 0.214237
0.119966 0.192233 0.213504
0.134463 0.193973 0.212528
0.153841 0.196017 0.211673
0.174380 0.197635 0.211185
0.199863 0.199496 0.210544
0.232212 0.201389 0.209628
0.277714 0.203738 0.208286
0.333440 0.205661 0.206302
0.399481 0.206485 0.203403
0.473610 0.205295 0.199466
0.553826 0.202152 0.194064
0.635737 0.198734 0.186862
0.712367 0.197818 0.178012
0.780362 0.201785 0.167453
0.840635 0.211673 0.154665
0.893767 0.226017 0.139528
1.000000 0.280827 0.062165
1.000000 0.297856 0.000000
1.000000 0.313573 0.000000
1.000000 0.328252 0.000000
1.000000 0.341741 0.000000
1.000000 0.354070 0.000000
1.000000 0.365911 0.000000
1.000000 0.377050 0.000000
1.000000 0.387182 0.000000
1.000000 0.396582 0.000000
0.107698 0.196475 0.213718
0.108278 0.196445 0.213718
0.108675 0.196567 0.213718
0.111757 0.195712 0.214054
0.114565 0.194522 0.214420
0.114992 0.193179 0.214939
0.113497 0.192813 0.215763
0.126680 0.194675 0.214786
0.144747 0.197208 0.213413
0.171084 0.200839 0.212009
0.202670 0.204623 0.210880
0.242588 0.208530 0.209628
0.292760 0.212528 0.207706
0.353887 0.216037 0.205081
0.423743 0.218479 0.201358
0.500114 0.219120 0.196567
0.580835 0.218936 0.190097
0.661769 0.219547 0.181613
0.737331 0.223423 0.171115
0.806546 0.232731 0.157565
0.869596 0.247501 0.140291
0.925689 0.266300 0.117647
0.972168 0.286442 0.087282
1.000000 0.305913 0.004181
1.000000 0.323796 0.000000
1.000000 0.339117 0.000000
1.000000 0.352514 0.000000
1.000000 0.364660 0.000000
1.000000 0.375952 0.000000
1.000000 0.385840 0.000000
1.000000 0.395636 0.000000
1.000000 0.404669 0.000000
0.108522 0.201022 0.214694
0.109071 0.200992 0.214694
0.109651 0.200961 0.214694
0.113558 0.199924 0.214908
0.117220 0.198459 0.215305
0.118990 0.196811 0.215885
0.118074 0.194980 0.216464
0.116945 0.194736 0.217258
0.132906 0.197360 0.216312
0.155673 0.200931 0.214878
0.187686 0.205997 0.212863
0.232547 0.213291 0.210391
0.278386 0.218387 0.208469
0.333227 0.223392 0.205905
0.397070 0.227634 0.202426
0.468238 0.230991 0.197940
0.545861 0.233341 0.191745
0.625940 0.236149 0.183719
0.704738 0.241276 0.173159
0.777096 0.250431 0.160006
0.843076 0.264225 0.143069
0.902373 0.282261 0.120546
0.953185 0.301915 0.089204
0.995605 0.321416 0.000000
1.000000 0.339025 0.000000
1.000000 0.354192 0.000000
1.000000 0.367163 0.000000
1.000000 0.378302 0.000000
1.000000 0.388922 0.000000
1.000000 0.398657 0.000000
1.000000 0.407599 0.000000
1.000000 0.416083 0.000000
0.109895 0.207095 0.215671
0.110445 0.207065 0.215671
0.111574 0.207034 0.215671
0.114961 0.205905 0.216037
0.119600 0.204074 0.216495
0.123659 0.202060 0.217075
0.124819 0.200046 0.217807
0.122805 0.197635 0.218601
0.122164 0.197330 0.219516
0.141146 0.201053 0.218387
0.168246 0.205539 0.216526
0.204746 0.211734 0.214115
0.253666 0.220127 0.210880
0.315923 0.230198 0.206821
0.376013 0.236149 0.203403
0.443305 0.241611 0.198917
0.517967 0.246647 0.193027
0.597498 0.251713 0.184970
0.677729 0.258824 0.174350
0.752377 0.269078 0.161013
0.820340 0.283116 0.143923
0.881834 0.300755 0.121035
0.935485 0.320195 0.088197
0.980560 0.339300 0.000000
1.000000 0.356634 0.000000
1.000000 0.371344 0.000000
1.000000 0.384192 0.000000
1.000000 0.395361 0.000000
1.000000 0.405310 0.000000
1.000000 0.414252 0.000000
1.000000 0.422522 0.000000
1.000000 0.430304 0.000000
0.112215 0.217014 0.217350
0.112398 0.216892 0.217380
0.114046 0.216800 0.217350
0.118441 0.215335 0.217655
0.123812 0.212924 0.218173
0.129183 0.210178 0.218723
0.131899 0.206851 0.219486
0.131960 0.203616 0.220249
0.127382 0.200320 0.221073
0.126833 0.200046 0.221836
0.149020 0.204349 0.220462
0.178622 0.209812 0.218418
0.218296 0.216953 0.215671
0.271977 0.226749 0.211856
0.342657 0.239628 0.206271
0.417609 0.250401 0.200473
0.491951 0.258244 0.194430
0.572869 0.266239 0.186069
0.654627 0.275792 0.175113
0.731289 0.287816 0.161105
0.800168 0.302434 0.143648
0.861295 0.319341 0.121065
0.915648 0.337835 0.088258
0.961730 0.355688 0.000000
1.000000 0.372045 0.000000
1.000000 0.386603 0.000000
1.000000 0.399451 0.000000
1.000000 0.410712 0.000000
1.000000 0.420905 0.000000
1.000000 0.430091 0.000000
1.000000 0.438270 0.000000
1.000000 0.445838 0.000000
0.114504 0.228397 0.219089
0.115023 0.228367 0.219089
0.116487 0.228092 0.219120
0.121492 0.226230 0.219455
0.128084 0.223545 0.220005
0.134432 0.219944 0.220706
0.138552 0.215854 0.221439
0.140352 0.211551 0.222202
0.138796 0.207492 0.222995
0.132021 0.203372 0.223667
0.131930 0.203067 0.224430
0.156924 0.208194 0.222934
0.190005 0.214664 0.220676
0.234806 0.223209 0.217594
0.294682 0.234745 0.213046
0.371740 0.249607 0.206271
0.467689 0.268376 0.196017
0.546593 0.278691 0.187869
0.627771 0.290257 0.176974
0.705959 0.303838 0.162814
0.776272 0.319463 0.145205
0.839414 0.336614 0.122011
0.896269 0.355566 0.088319
0.945098 0.374151 0.000000
0.986481 0.390936 0.000000
1.000000 0.405615 0.000000
1.000000 0.418494 0.000000
1.000000 0.429816 0.000000
1.000000 0.439918 0.000000
1.000000 0.448859 0.000000
1.000000 0.456733 0.000000
1.000000 0.463844 0.000000
0.116945 0.243931 0.221012
0.117464 0.243900 0.221012
0.119875 0.243259 0.221073
0.125704 0.241215 0.221469
0.133242 0.237827 0.222141
0.140627 0.233433 0.222843
0.146761 0.228305 0.223758
0.150484 0.222782 0.224582
0.150820 0.217288 0.225437
0.146517 0.211795 0.226169
0.137606 0.206760 0.226749
0.137850 0.206607 0.227359
0.176761 0.217319 0.228275
0.222171 0.226993 0.225315
0.283207 0.239933 0.220706
0.363928 0.256779 0.213687
0.462928 0.277867 0.202579
0.573785 0.303868 0.185641
0.674342 0.330358 0.164431
0.747768 0.348089 0.145357
0.812985 0.366644 0.120485
0.871305 0.385473 0.081422
0.922026 0.403845 0.000000
0.965301 0.420294 0.000000
1.000000 0.434424 0.000000
1.000000 0.446448 0.000000
1.000000 0.456489 0.000000
1.000000 0.464851 0.000000
1.000000 0.472267 0.000000
1.000000 0.478859 0.000000
1.000000 0.484810 0.000000
1.000000 0.489845 0.000000
0.120912 0.275883 0.224338
0.121279 0.275700 0.224369
0.124819 0.274327 0.224369
0.133181 0.270390 0.224857
0.142855 0.264958 0.225589
0.152499 0.258000 0.226413
0.160678 0.250187 0.227451
0.166171 0.241825 0.228397
0.167819 0.233768 0.229435
0.165286 0.226047 0.230289
0.158083 0.218570 0.231113
0.146609 0.212467 0.231632
0.147585 0.212406 0.231968
0.183291 0.220829 0.230716
0.232181 0.232059 0.228031
0.297642 0.246616 0.223362
0.382788 0.265232 0.215671
0.483558 0.287816 0.203922
0.594324 0.315892 0.185428
0.702358 0.351202 0.156893
0.777096 0.374701 0.130373
0.838468 0.394598 0.098116
0.893645 0.414527 0.000000
0.941192 0.432715 0.000000
0.981598 0.448585 0.000000
1.000000 0.461952 0.000000
1.000000 0.473243 0.000000
1.000000 0.482765 0.000000
1.000000 0.490852 0.000000
1.000000 0.497963 0.000000
1.000000 0.504143 0.000000
1.000000 0.508812 0.000000
0.123293 0.300725 0.226169
0.123690 0.300328 0.226261
0.127565 0.298711 0.226200
0.136721 0.294194 0.226780
0.148043 0.287724 0.227543
0.159792 0.279423 0.228489
0.169924 0.270146 0.229648
0.177340 0.260441 0.230930
0.180911 0.250523 0.232059
0.180789 0.240848 0.233280
0.176089 0.231998 0.234104
0.165469 0.223178 0.234836
0.152712 0.216220 0.235050
0.154086 0.216098 0.235172
0.192721 0.225681 0.233921
0.244999 0.238102 0.231174
0.314641 0.254093 0.226169
0.402380 0.274296 0.217990
0.506828 0.299077 0.205234
0.618372 0.329595 0.185122
0.722255 0.366918 0.154269
0.809232 0.404547 0.108675
0.867735 0.426215 0.024933
0.919219 0.446448 0.000000
0.962982 0.464027 0.000000
1.000000 0.479042 0.000000
1.000000 0.491524 0.000000
1.000000 0.501701 0.000000
1.000000 0.510491 0.000000
1.000000 0.518151 0.000000
1.000000 0.524254 0.000000
1.000000 0.529046 0.000000
0.125277 0.331609 0.227909
0.126253 0.331365 0.227939
0.130007 0.330175 0.227848
0.140475 0.324956 0.228458
0.154116 0.317357 0.229404
0.168399 0.307500 0.230716
0.180850 0.296788 0.232090
0.190280 0.284794 0.233616
0.196658 0.272862 0.235142
0.198245 0.260868 0.236606
0.195529 0.249454 0.237705
0.188205 0.238926 0.238529
0.174166 0.228336 0.238926
0.159121 0.220401 0.238651
0.161013 0.220157 0.238468
0.202426 0.230869 0.237430
0.258518 0.244663 0.234592
0.332616 0.262547 0.229465
0.425025 0.284611 0.220706
0.531853 0.311559 0.206790
0.644038 0.345220 0.184878
0.745968 0.385412 0.151034
0.835142 0.430060 0.088167
0.897642 0.459571 0.000000
0.944640 0.478981 0.000000
0.984710 0.495674 0.000000
1.000000 0.509728 0.000000
1.000000 0.521447 0.000000
1.000000 0.531548 0.000000
1.000000 0.539849 0.000000
1.000000 0.546410 0.000000
1.000000 0.551781 0.000000
0.129213 0.366339 0.229404
0.129946 0.366369 0.229404
0.133700 0.365728 0.229313
0.146273 0.361395 0.229953
0.162264 0.353704 0.231144
0.179446 0.343786 0.232853
0.195163 0.332280 0.234684
0.208225 0.318975 0.236759
0.217105 0.304509 0.238834
0.221347 0.289616 0.240726
0.220005 0.274540 0.242222
0.213260 0.260044 0.243198
0.201724 0.246830 0.243595
0.183078 0.233494 0.243198
0.165377 0.224460 0.242405
0.167422 0.224216 0.241672
0.211734 0.235904 0.240848
0.271855 0.251225 0.238193
0.350256 0.270848 0.232853
0.446906 0.295079 0.223697
0.558373 0.325261 0.208713
0.672175 0.363195 0.184482
0.772366 0.406592 0.147158
0.857847 0.452705 0.057710
0.927825 0.494759 0.000000
0.970916 0.513542 0.000000
1.000000 0.529503 0.000000
1.000000 0.542565 0.000000
1.000000 0.553216 0.000000
1.000000 0.561334 0.000000
1.000000 0.568017 0.000000
1.000000 0.573358 0.000000
0.135836 0.405158 0.230655
0.136568 0.405035 0.230686
0.141207 0.404456 0.230686
0.152651 0.401282 0.231052
0.171389 0.393652 0.232578
0.191226 0.383185 0.234409
0.209689 0.370611 0.236667
0.225711 0.356176 0.239261
0.237369 0.339879 0.241794
0.244144 0.322332 0.244175
0.245060 0.304265 0.246250
0.240146 0.286473 0.247684
0.229496 0.269413 0.248417
0.213016 0.253391 0.248356
0.191287 0.238590 0.247471
0.171511 0.228519 0.246067
0.174594 0.228305 0.245212
0.222049 0.241459 0.244724
0.287266 0.258762 0.242222
0.371374 0.280705 0.236790
0.474220 0.307927 0.227085
0.590600 0.342199 0.210605
0.703883 0.384344 0.184268
0.801724 0.431373 0.142611
0.884031 0.479225 0.017273
0.951965 0.524193 0.000000
0.996338 0.548608 0.000000
1.000000 0.563134 0.000000
1.000000 0.574273 0.000000
1.000000 0.583215 0.000000
1.000000 0.590387 0.000000
1.000000 0.596124 0.000000
0.149477 0.451942 0.232273
0.151186 0.452308 0.232273
0.172152 0.484321 0.233768
0.182864 0.482033 0.233707
0.204471 0.473274 0.235904
0.227054 0.461036 0.238407
0.248966 0.445411 0.241428
0.267735 0.427344 0.244877
0.282658 0.406836 0.248386
0.291875 0.384375 0.251713
0.294682 0.360510 0.254612
0.290318 0.336095 0.256748
0.278630 0.311650 0.257877
0.260197 0.288487 0.257939
0.235172 0.266880 0.256962
0.206729 0.248081 0.254856
0.182406 0.235660 0.252232
0.186374 0.235508 0.251011
0.240848 0.251102 0.250950
0.315557 0.271916 0.248508
0.409796 0.297734 0.242466
0.522881 0.330114 0.231357
0.642908 0.370611 0.212222
0.752071 0.418097 0.182528
0.843809 0.467536 0.135225
0.917784 0.514092 0.000000
0.977417 0.555261 0.000000
1.000000 0.584100 0.000000
1.000000 0.595544 0.000000
1.000000 0.604852 0.000000
1.000000 0.612512 0.000000
1.000000 0.618616 0.000000
0.179568 0.512108 0.235447
0.182864 0.515160 0.235599
0.189181 0.518151 0.235752
0.200656 0.520043 0.235691
0.221988 0.514733 0.237705
0.244511 0.504326 0.240299
0.267521 0.489204 0.243717
0.287877 0.470832 0.247318
0.304417 0.450050 0.251011
0.316411 0.426917 0.254856
0.321965 0.401648 0.258183
0.320928 0.375189 0.261051
0.312230 0.347936 0.262852
0.296391 0.321324 0.263554
0.274266 0.296239 0.263066
0.244907 0.272465 0.261601
0.214328 0.252720 0.258946
0.188449 0.239719 0.255955
0.194217 0.240024 0.254856
0.253147 0.257725 0.255436
0.334203 0.281193 0.253544
0.436500 0.310765 0.247868
0.556420 0.347875 0.236179
0.679011 0.393896 0.216037
0.784970 0.445197 0.184939
0.872404 0.496345 0.136782
0.939757 0.540764 0.000000
0.994446 0.579644 0.000000
1.000000 0.610346 0.000000
1.000000 0.624048 0.000000
1.000000 0.632654 0.000000
1.000000 0.639551 0.000000
0.209384 0.557275 0.240146
0.213260 0.560418 0.240543
0.220554 0.563256 0.240879
0.231113 0.565789 0.241184
0.248539 0.563470 0.242283
0.271031 0.553735 0.244785
0.293523 0.539818 0.247715
0.314916 0.522087 0.251225
0.332952 0.501549 0.255283
0.346868 0.477760 0.259312
0.355169 0.451606 0.263096
0.357153 0.423194 0.266392
0.351629 0.393591 0.268894
0.338842 0.363653 0.270451
0.318517 0.334325 0.270542
0.292454 0.306950 0.269566
0.258091 0.280217 0.267430
0.224430 0.258885 0.264195
0.196292 0.244938 0.260685
0.203586 0.245914 0.259770
0.268376 0.265995 0.261021
0.357275 0.292760 0.259800
0.469337 0.327062 0.254398
0.596185 0.369909 0.242374
0.715877 0.420539 0.221622
0.817319 0.474495 0.190616
0.899107 0.525597 0.145266
0.961547 0.568902 0.034150
1.000000 0.605859 0.000000
1.000000 0.634699 0.000000
1.000000 0.652552 0.000000
1.000000 0.660365 0.000000
0.248600 0.604852 0.249577
0.252506 0.607507 0.250401
0.258671 0.610071 0.250889
0.268925 0.611994 0.251286
0.281346 0.612787 0.251164
0.302464 0.604089 0.253300
0.324437 0.591638 0.255711
0.345708 0.575860 0.258824
0.365179 0.556451 0.262089
0.381048 0.533623 0.265782
0.392279 0.508232 0.269810
0.397223 0.479133 0.273411
0.395361 0.447700 0.276524
0.385657 0.414893 0.278569
0.368750 0.381994 0.279515
0.344274 0.349828 0.279118
0.314275 0.319951 0.277379
0.275364 0.290593 0.274876
0.238071 0.267369 0.270939
0.207614 0.252323 0.267277
0.217746 0.254520 0.266850
0.294621 0.279576 0.269841
0.396857 0.312383 0.269718
0.523430 0.354437 0.264836
0.657313 0.406989 0.252689
0.773648 0.465370 0.232547
0.868956 0.523461 0.204349
0.940856 0.573358 0.169375
0.994812 0.613458 0.126436
1.000000 0.646662 0.069032
1.000000 0.671626 0.000000
1.000000 0.690150 0.000000
0.314885 0.669795 0.274083
0.316991 0.670802 0.274357
0.320806 0.671412 0.274876
0.327337 0.671260 0.274449
0.336950 0.670375 0.273533
0.351263 0.664912 0.273503
0.370672 0.653101 0.274540
0.390600 0.638727 0.276341
0.410071 0.621149 0.278477
0.427741 0.600549 0.281071
0.441535 0.576745 0.283848
0.450446 0.549523 0.286809
0.452583 0.518547 0.289433
0.446876 0.483864 0.291691
0.432868 0.447059 0.292912
0.411139 0.409918 0.292973
0.381628 0.373693 0.291661
0.345830 0.339544 0.288945
0.299809 0.305547 0.285405
0.256138 0.278569 0.279942
0.221836 0.261509 0.275395
0.233921 0.264469 0.275181
0.320562 0.293614 0.279301
0.433539 0.331304 0.280186
0.567651 0.379614 0.276158
0.700984 0.438758 0.265232
0.812558 0.501488 0.248600
0.900877 0.560449 0.227787
0.965881 0.608637 0.207248
1.000000 0.646326 0.189914
1.000000 0.676753 0.184360
1.000000 0.699367 0.183200
0.365362 0.715877 0.301762
0.366644 0.716701 0.302373
0.370520 0.717220 0.302831
0.376318 0.717128 0.302556
0.383917 0.716518 0.301762
0.394232 0.715175 0.300450
0.411139 0.705806 0.300084
0.430213 0.693141 0.300603
0.449134 0.678035 0.301488
0.467597 0.659785 0.302739
0.483253 0.638422 0.303807
0.495369 0.613886 0.305364
0.502342 0.585534 0.306798
0.502800 0.553643 0.307866
0.495521 0.517845 0.308690
0.478828 0.478828 0.308873
0.453193 0.438117 0.307836
0.419196 0.398016 0.305364
0.377203 0.359380 0.301793
0.325933 0.321599 0.296971
0.277012 0.291569 0.290288
0.239231 0.272862 0.285344
0.254856 0.277440 0.286107
0.355505 0.312902 0.292607
0.470710 0.351781 0.292241
0.611810 0.407263 0.289708
0.742031 0.472877 0.282353
0.848600 0.539117 0.271550
0.928588 0.597223 0.261784
0.986419 0.643000 0.256321
1.000000 0.678859 0.258762
1.000000 0.707057 0.271305
0.430213 0.767575 0.350958
0.432654 0.768795 0.352453
0.435462 0.769100 0.352575
0.439155 0.768460 0.351690
0.444160 0.767086 0.349920
0.451057 0.765011 0.347234
0.461006 0.760281 0.343816
0.475685 0.748867 0.340826
0.492103 0.734890 0.338323
0.508263 0.718196 0.335851
0.522942 0.698604 0.333898
0.535821 0.675532 0.332403
0.544762 0.648859 0.330877
0.548699 0.618524 0.329473
0.546166 0.584344 0.327794
0.536248 0.546471 0.326177
0.517144 0.505150 0.324193
0.488685 0.461891 0.321874
0.451972 0.419440 0.318456
0.405676 0.377356 0.314214
0.351049 0.337469 0.308568
0.297856 0.304753 0.300938
0.257725 0.284733 0.295872
0.275822 0.290654 0.297520
0.387396 0.331151 0.305791
0.522210 0.381415 0.309880
0.664759 0.444984 0.310185
0.788144 0.515373 0.308263
0.885283 0.582513 0.306615
0.954650 0.637293 0.310155
1.000000 0.679591 0.320043
1.000000 0.713161 0.339757
0.474128 0.799252 0.393347
0.476326 0.800229 0.395026
0.478981 0.800687 0.395727
0.482582 0.800473 0.395270
0.487251 0.799802 0.394263
0.493690 0.798703 0.392218
0.502190 0.797391 0.390051
0.515373 0.791379 0.387213
0.530846 0.781369 0.384253
0.547295 0.769192 0.381262
0.563073 0.754482 0.378058
0.577630 0.736568 0.374426
0.589563 0.715236 0.370733
0.597620 0.689601 0.366827
0.600641 0.659663 0.362646
0.597589 0.625330 0.358068
0.587915 0.587304 0.353765
0.569818 0.545830 0.349523
0.542260 0.501579 0.345190
0.504021 0.455909 0.340429
0.452766 0.408820 0.335058
0.392706 0.364080 0.328130
0.333074 0.326879 0.318853
0.289220 0.305241 0.314275
0.313024 0.314183 0.317937
0.444648 0.364813 0.330632
0.593378 0.426734 0.338598
0.730892 0.499672 0.345342
0.844633 0.575616 0.354589
0.925566 0.639887 0.369665
0.981384 0.689387 0.391455
1.000000 0.726802 0.418158
0.529473 0.832303 0.452918
0.530694 0.832731 0.453712
0.532158 0.832731 0.453742
0.534661 0.832486 0.453162
0.538293 0.831846 0.451759
0.543206 0.830869 0.450019
0.549615 0.829709 0.447547
0.557946 0.828336 0.444587
0.570886 0.820829 0.440650
0.585168 0.811460 0.436683
0.599695 0.799863 0.431769
0.613825 0.786282 0.426764
0.626856 0.770077 0.421363
0.637476 0.750271 0.414771
0.644831 0.726497 0.407843
0.647852 0.698238 0.400763
0.645228 0.665187 0.393774
0.636439 0.628382 0.387060
0.620600 0.588037 0.380804
0.595941 0.544579 0.374517
0.560296 0.498146 0.367987
0.506798 0.446662 0.361486
0.442847 0.397070 0.353002
0.376562 0.354894 0.342168
0.330022 0.332036 0.338567
0.359228 0.344182 0.345006
0.509575 0.405951 0.362402
0.659998 0.477821 0.375402
0.786496 0.555474 0.390539
0.885222 0.631464 0.414496
0.951141 0.690974 0.445960
0.995758 0.735836 0.482277
0.578851 0.858244 0.510796
0.579858 0.858518 0.511589
0.581323 0.858640 0.511803
0.583642 0.858549 0.511772
0.587060 0.858335 0.511101
0.592065 0.858183 0.510857
0.599237 0.858213 0.511223
0.608240 0.858335 0.511772
0.619654 0.857450 0.512383
0.634394 0.852049 0.512139
0.649897 0.845457 0.511315
0.664973 0.837461 0.509545
0.679316 0.827543 0.506493
0.692256 0.815305 0.502037
0.703120 0.800229 0.495705
0.711055 0.781613 0.487556
0.715724 0.759274 0.478523
0.716487 0.732631 0.469001
0.712337 0.701625 0.459571
0.701564 0.665766 0.450385
0.683070 0.625574 0.441169
0.654902 0.580957 0.431495
0.608087 0.527214 0.421942
0.545983 0.471321 0.410986
0.474098 0.420844 0.398047
0.425391 0.396887 0.398688
0.467079 0.417548 0.412421
0.634730 0.500023 0.440070
0.765866 0.580743 0.464820
0.863493 0.655116 0.493996
0.932036 0.719570 0.535973
0.976440 0.766842 0.579980
0.650721 0.888853 0.597559
0.650874 0.888823 0.597467
0.651331 0.888670 0.596948
0.652277 0.888457 0.596185
0.654170 0.888060 0.595117
0.656794 0.887602 0.593805
0.660700 0.887083 0.592279
0.665797 0.886534 0.590784
0.672297 0.886015 0.589532
0.680995 0.883391 0.587427
0.691890 0.877714 0.584039
0.703243 0.871122 0.580194
0.714748 0.863249 0.575738
0.725826 0.853910 0.570153
