20 Preset/City Style/【1】LRtemplate Lightroom bản cũ/TONE 2/Darky City Lights.lrtemplate
s = {
	id = "E633547B-238D-4F07-9813-9FCDAD13861E",
	internalName = "Darky City Lights",
	title = "Darky City Lights",
	type = "Develop",
	value = {
		settings = {
			AutoLateralCA = 0,
			Blacks2012 = 6,
			BlueHue = -2,
			BlueSaturation = -12,
			CameraProfile = "Adobe Standard",
			ChromaticAberrationB = 0,
			ChromaticAberrationR = 0,
			Clarity2012 = -10,
			ColorNoiseReduction = 25,
			ColorNoiseReductionDetail = 50,
			ColorNoiseReductionSmoothness = 50,
			Contrast2012 = 31,
			ConvertToGrayscale = false,
			CropConstrainToWarp = 1,
			Defringe = 0,
			DefringeGreenAmount = 0,
			DefringeGreenHueHi = 60,
			DefringeGreenHueLo = 40,
			DefringePurpleAmount = 0,
			DefringePurpleHueHi = 70,
			DefringePurpleHueLo = 30,
			Dehaze = 0,
			EnableCalibration = true,
			EnableColorAdjustments = true,
			EnableDetail = true,
			EnableEffects = true,
			EnableLensCorrections = true,
			EnableSplitToning = true,
			Exposure2012 = 2.01,
			GrainAmount = 0,
			GrainFrequency = 53,
			GrainSize = 20,
			GreenHue = -10,
			GreenSaturation = 0,
			Highlights2012 = -95,
			HueAdjustmentAqua = 100,
			HueAdjustmentBlue = 1,
			HueAdjustmentGreen = -100,
			HueAdjustmentMagenta = -1,
			HueAdjustmentOrange = 0,
			HueAdjustmentPurple = -24,
			HueAdjustmentRed = 11,
			HueAdjustmentYellow = -72,
			LensManualDistortionAmount = 6,
			LuminanceAdjustmentAqua = -100,
			LuminanceAdjustmentBlue = 100,
			LuminanceAdjustmentGreen = -15,
			LuminanceAdjustmentMagenta = 42,
			LuminanceAdjustmentOrange = -37,
			LuminanceAdjustmentPurple = -25,
			LuminanceAdjustmentRed = -13,
			LuminanceAdjustmentYellow = 17,
			LuminanceNoiseReductionContrast = 0,
			LuminanceNoiseReductionDetail = 50,
			LuminanceSmoothing = 0,
			ParametricDarks = 0,
			ParametricHighlightSplit = 75,
			ParametricHighlights = 0,
			ParametricLights = 0,
			ParametricMidtoneSplit = 60,
			ParametricShadowSplit = 14,
			ParametricShadows = 0,
			PostCropVignetteAmount = 0,
			PostCropVignetteFeather = 50,
			PostCropVignetteHighlightContrast = 0,
			PostCropVignetteMidpoint = 50,
			PostCropVignetteRoundness = 0,
			PostCropVignetteStyle = 1,
			ProcessVersion = "6.7",
			RedHue = 100,
			RedSaturation = 0,
			Saturation = -15,
			SaturationAdjustmentAqua = -100,
			SaturationAdjustmentBlue = -75,
			SaturationAdjustmentGreen = -100,
			SaturationAdjustmentMagenta = -100,
			SaturationAdjustmentOrange = -5,
			SaturationAdjustmentPurple = -100,
			SaturationAdjustmentRed = -8,
			SaturationAdjustmentYellow = -15,
			ShadowTint = 0,
			Shadows2012 = 100,
			SharpenDetail = 25,
			SharpenEdgeMasking = 0,
			SharpenRadius = 1,
			Sharpness = 104,
			SplitToningBalance = -1,
			SplitToningHighlightHue = 215,
			SplitToningHighlightSaturation = 0,
			SplitToningShadowHue = 0,
			SplitToningShadowSaturation = 0,
			Temperature = 4944,
			Tint = -4,
			ToneCurveName2012 = "Custom",
			ToneCurvePV2012 = {
				0,
				23,
				21,
				10,
				48,
				35,
				119,
				148,
				224,
				216,
				255,
				250,
			},
			ToneCurvePV2012Blue = {
				0,
				0,
				21,
				13,
				80,
				70,
				116,
				119,
				183,
				197,
				255,
				255,
			},
			ToneCurvePV2012Green = {
				0,
				0,
				27,
				11,
				119,
				118,
				181,
				196,
				255,
				255,
			},
			ToneCurvePV2012Red = {
				0,
				0,
				31,
				7,
				72,
				51,
				116,
				111,
				179,
				197,
				255,
				255,
			},
			Vibrance = 0,
			VignetteAmount = 0,
			VignetteMidpoint = 50,
			WhiteBalance = "Custom",
			Whites2012 = -45,
		},
		uuid = "62506118-58FD-4424-BEA4-ED6371A5DC7C",
	},
	version = 0,
}
