20 Preset/Dark Style/【3】LUT video cho PR-AE-FCPX/19Tones/City Skyscrapers 2.cube
# Created by Adobe Lightroom plugin Export LUT (1.24.0)
# www.johnrellis.com/lightroom/exportlut.htm
# Preset: City Skyscrapers 2
# Color profile: E:\lut插件\exportlut.1.24\exportlut.lrplugin\color profiles\Rec709gamma2.4.icc
LUT_3D_SIZE 32
DOMAIN_MIN 0.0 0.0 0.0
DOMAIN_MAX 1.0 1.0 1.0
0.000000 0.109194 0.134188
0.000000 0.109194 0.134188
0.000000 0.109407 0.134157
0.000000 0.110048 0.134524
0.000702 0.111452 0.134554
0.020233 0.113344 0.134768
0.045045 0.115267 0.134951
0.076661 0.117617 0.134798
0.096498 0.119844 0.134615
0.113375 0.122225 0.134340
0.131167 0.125154 0.133913
0.151461 0.128542 0.133089
0.174563 0.132326 0.131991
0.201175 0.136721 0.130739
0.231937 0.141817 0.129030
0.266423 0.148135 0.126528
0.305852 0.156100 0.123201
0.350744 0.166293 0.117861
0.401678 0.179263 0.110018
0.460914 0.196750 0.096712
0.561975 0.233066 0.016938
0.672572 0.283085 0.000000
0.767727 0.334752 0.000000
0.848203 0.384588 0.000000
0.912963 0.429053 0.000000
0.965240 0.467994 0.000000
1.000000 0.502983 0.000000
1.000000 0.534051 0.000000
1.000000 0.561639 0.000000
1.000000 0.585840 0.000000
1.000000 0.606928 0.000000
1.000000 0.625055 0.000000
0.000000 0.109194 0.134188
0.000000 0.109194 0.134188
0.000000 0.109682 0.134371
0.000000 0.110323 0.134493
0.000000 0.111788 0.134524
0.019532 0.113649 0.134737
0.043061 0.115328 0.134951
0.073396 0.117403 0.134829
0.094697 0.119722 0.134646
0.110780 0.122194 0.134371
0.127871 0.125002 0.134005
0.147555 0.128054 0.133211
0.169741 0.131594 0.132204
0.195438 0.135927 0.130800
0.224796 0.140902 0.129213
0.258244 0.147005 0.127169
0.296635 0.154574 0.123842
0.339971 0.164065 0.119265
0.389532 0.176425 0.111849
0.446387 0.192691 0.100160
0.539696 0.224857 0.042359
0.642451 0.268803 0.000000
0.733242 0.315709 0.000000
0.812955 0.362554 0.000000
0.879667 0.406104 0.000000
0.935637 0.445624 0.000000
0.983734 0.482490 0.000000
1.000000 0.516197 0.000000
1.000000 0.546777 0.000000
1.000000 0.573877 0.000000
1.000000 0.597436 0.000000
1.000000 0.617670 0.000000
0.000000 0.110018 0.134340
0.000000 0.110018 0.134585
0.000000 0.110506 0.134493
0.000000 0.111482 0.134615
0.002106 0.113283 0.134615
0.020356 0.114839 0.134859
0.044190 0.116487 0.134829
0.074525 0.118532 0.134707
0.094636 0.120577 0.134554
0.110384 0.122805 0.134310
0.127626 0.125582 0.133700
0.146670 0.128420 0.133211
0.168063 0.132113 0.132174
0.192966 0.136141 0.130861
0.221592 0.141146 0.129305
0.254154 0.147127 0.127077
0.291569 0.154604 0.124147
0.334325 0.163790 0.119509
0.382910 0.175662 0.112795
0.438911 0.191592 0.101320
0.530419 0.222904 0.049470
0.629175 0.264378 0.000000
0.717617 0.308812 0.000000
0.796109 0.353857 0.000000
0.863096 0.396399 0.000000
0.919951 0.435462 0.000000
0.969940 0.472602 0.000000
1.000000 0.507683 0.000000
1.000000 0.539513 0.000000
1.000000 0.568078 0.000000
1.000000 0.592798 0.000000
1.000000 0.613886 0.000000
0.000000 0.112306 0.134554
0.000000 0.112245 0.134554
0.000000 0.112459 0.134768
0.000000 0.113405 0.134859
0.011139 0.114809 0.134890
0.028992 0.116670 0.134859
0.052094 0.118593 0.134798
0.079591 0.120638 0.134676
0.097017 0.122347 0.134310
0.112367 0.124514 0.134096
0.128786 0.127291 0.133455
0.147646 0.130068 0.132723
0.168704 0.133486 0.131716
0.192844 0.137789 0.130617
0.220371 0.142519 0.128878
0.251713 0.148379 0.126741
0.287449 0.155306 0.124025
0.327703 0.164523 0.119600
0.373999 0.175601 0.113436
0.426886 0.190524 0.103456
0.512047 0.218784 0.064637
0.601373 0.254948 0.000000
0.686305 0.295323 0.000000
0.766110 0.339269 0.000000
0.838590 0.383215 0.000000
0.902403 0.425879 0.000000
0.958556 0.466773 0.000000
1.000000 0.504295 0.000000
1.000000 0.538262 0.000000
1.000000 0.567559 0.000000
1.000000 0.592126 0.000000
1.000000 0.612573 0.000000
0.000000 0.114900 0.135195
0.000000 0.114839 0.135195
0.001312 0.114778 0.135439
0.010407 0.115694 0.135286
0.022431 0.116823 0.135348
0.040314 0.118624 0.135317
0.062440 0.120272 0.135042
0.086213 0.122286 0.134676
0.100099 0.124544 0.134249
0.114290 0.126986 0.133486
0.130098 0.129458 0.132906
0.148379 0.132265 0.132174
0.168887 0.135897 0.131136
0.192569 0.139925 0.130068
0.219852 0.144839 0.128267
0.251194 0.150790 0.126101
0.286961 0.158358 0.123201
0.327764 0.167391 0.118685
0.373907 0.178927 0.112276
0.431006 0.195377 0.100862
0.512108 0.222873 0.059419
0.596521 0.257237 0.000000
0.678767 0.296422 0.000000
0.757961 0.339269 0.000000
0.831510 0.383673 0.000000
0.896757 0.426612 0.000000
0.953674 0.467323 0.000000
1.000000 0.504662 0.000000
1.000000 0.538384 0.000000
1.000000 0.567376 0.000000
1.000000 0.591852 0.000000
1.000000 0.612329 0.000000
0.013031 0.118257 0.135714
0.012726 0.118257 0.135958
0.014740 0.118196 0.135958
0.023651 0.118227 0.136172
0.036957 0.119539 0.136202
0.059113 0.121187 0.135927
0.082094 0.122957 0.135592
0.095674 0.124849 0.135256
0.107851 0.126772 0.134615
0.121645 0.129335 0.133822
0.136873 0.132204 0.132906
0.154818 0.135531 0.131807
0.175113 0.139864 0.130373
0.199252 0.144381 0.128634
0.226902 0.149813 0.126864
0.258854 0.156100 0.124453
0.295476 0.163882 0.121279
0.337011 0.173770 0.116152
0.384070 0.186313 0.108827
0.448707 0.206149 0.093660
0.529412 0.235569 0.031006
0.612604 0.270970 0.000000
0.874754 0.423560 0.000000
0.940337 0.469917 0.000000
0.990784 0.508385 0.000000
1.000000 0.540459 0.000000
1.000000 0.566827 0.000000
1.000000 0.588586 0.000000
1.000000 0.607324 0.000000
1.000000 0.623194 0.000000
1.000000 0.636500 0.000000
1.000000 0.647608 0.000000
0.043000 0.123537 0.136660
0.043000 0.123537 0.136660
0.046662 0.123415 0.136904
0.053590 0.123476 0.137087
0.072328 0.124056 0.137179
0.089357 0.125795 0.136873
0.102205 0.127962 0.136446
0.115541 0.130373 0.135744
0.128145 0.132387 0.134768
0.142855 0.135073 0.133852
0.159884 0.138338 0.132784
0.180270 0.142397 0.131106
0.203433 0.147280 0.129305
0.229892 0.153079 0.126955
0.260044 0.160067 0.123903
0.293828 0.168643 0.120058
0.332494 0.179171 0.114595
0.376654 0.191257 0.107515
0.428717 0.207156 0.095735
0.519982 0.240757 0.026093
0.620233 0.284855 0.000000
0.721859 0.337743 0.000000
0.817868 0.394965 0.000000
0.900237 0.449592 0.000000
0.964660 0.496132 0.000000
1.000000 0.533257 0.000000
1.000000 0.562188 0.000000
1.000000 0.585107 0.000000
1.000000 0.604486 0.000000
1.000000 0.620569 0.000000
1.000000 0.634485 0.000000
1.000000 0.646265 0.000000
0.075685 0.127657 0.137209
0.075685 0.127657 0.137209
0.078889 0.127565 0.137453
0.081361 0.127474 0.137423
0.090944 0.128023 0.137545
0.100832 0.129061 0.137514
0.111391 0.131228 0.137118
0.125429 0.133822 0.136294
0.140383 0.136751 0.135409
0.154971 0.139162 0.134249
0.171695 0.142550 0.133059
0.191501 0.146700 0.131319
0.214420 0.151553 0.129458
0.240452 0.157290 0.127047
0.269902 0.164340 0.124147
0.303105 0.172732 0.119936
0.340795 0.183291 0.114321
0.384039 0.196658 0.105959
0.449653 0.219852 0.086305
0.532067 0.254063 0.000000
0.622766 0.296452 0.000000
0.716823 0.345800 0.000000
0.807614 0.399390 0.000000
0.887480 0.451667 0.000000
0.951965 0.496925 0.000000
1.000000 0.533654 0.000000
1.000000 0.562615 0.000000
1.000000 0.585901 0.000000
1.000000 0.605646 0.000000
1.000000 0.622065 0.000000
1.000000 0.636103 0.000000
1.000000 0.647883 0.000000
0.097230 0.132845 0.137789
0.097932 0.132784 0.137789
0.098604 0.132753 0.137789
0.100526 0.132601 0.137789
0.105287 0.132937 0.138155
0.113710 0.133669 0.138155
0.123903 0.135378 0.137789
0.136782 0.137575 0.137026
0.151949 0.140871 0.136233
0.170626 0.144625 0.134737
0.187900 0.148074 0.133211
0.208072 0.152407 0.131563
0.231449 0.157473 0.129244
0.257694 0.163485 0.126864
0.287388 0.170809 0.123384
0.320378 0.179660 0.118746
0.358251 0.190616 0.112245
0.410071 0.207858 0.100496
0.478950 0.233890 0.064576
0.556603 0.267887 0.000000
0.640894 0.310094 0.000000
0.727474 0.359686 0.000000
0.811704 0.413581 0.000000
0.886656 0.463783 0.000000
0.948486 0.506798 0.000000
0.995880 0.541588 0.000000
1.000000 0.569635 0.000000
1.000000 0.592462 0.000000
1.000000 0.611566 0.000000
1.000000 0.627405 0.000000
1.000000 0.641016 0.000000
1.000000 0.652399 0.000000
0.115999 0.138918 0.138125
0.115999 0.138918 0.138125
0.116518 0.138888 0.138125
0.118685 0.138430 0.138399
0.121218 0.138216 0.138399
0.128420 0.139132 0.138613
0.138643 0.140078 0.138521
0.150423 0.142367 0.137728
0.164584 0.145388 0.136721
0.182681 0.149233 0.135409
0.204501 0.153964 0.133669
0.224765 0.158267 0.131685
0.248508 0.163668 0.129122
0.275456 0.170169 0.126131
0.306432 0.178195 0.122133
0.341253 0.188052 0.116670
0.388739 0.203220 0.107301
0.449561 0.225193 0.089448
0.518364 0.253513 0.020630
0.592920 0.288457 0.000000
0.669947 0.329198 0.000000
0.745510 0.373816 0.000000
0.817990 0.420630 0.000000
0.882780 0.466041 0.000000
0.937743 0.507469 0.000000
0.982727 0.543053 0.000000
1.000000 0.570642 0.000000
1.000000 0.594049 0.000000
1.000000 0.614130 0.000000
1.000000 0.631037 0.000000
1.000000 0.645289 0.000000
1.000000 0.657160 0.000000
0.134737 0.144961 0.138125
0.134676 0.144961 0.138369
0.135409 0.145113 0.138338
0.136995 0.144930 0.138582
0.139467 0.144686 0.138552
0.145693 0.145296 0.138582
0.155795 0.146456 0.138643
0.168063 0.148287 0.138308
0.182589 0.151461 0.137179
0.200443 0.155367 0.135775
0.222538 0.160342 0.133639
0.248783 0.166659 0.131075
0.273167 0.172488 0.128420
0.301213 0.179690 0.124605
0.332860 0.188632 0.119814
0.378851 0.203159 0.111055
0.432074 0.221927 0.097169
0.491493 0.245396 0.056153
0.556847 0.274571 0.000000
0.626154 0.308995 0.000000
0.696376 0.347753 0.000000
0.765499 0.389654 0.000000
0.831998 0.433478 0.000000
0.892027 0.475898 0.000000
0.943481 0.514916 0.000000
0.985962 0.549432 0.000000
1.000000 0.579675 0.000000
1.000000 0.605890 0.000000
1.000000 0.624628 0.000000
1.000000 0.640620 0.000000
1.000000 0.654047 0.000000
1.000000 0.665187 0.000000
0.158633 0.153384 0.138003
0.158450 0.153597 0.138186
0.159487 0.153475 0.138186
0.161135 0.153292 0.138186
0.163607 0.153170 0.138369
0.168215 0.153384 0.138460
0.178622 0.154788 0.138430
0.192020 0.156619 0.137972
0.207645 0.159762 0.137179
0.226261 0.164096 0.135500
0.248661 0.169650 0.133028
0.275731 0.176272 0.130037
0.359960 0.203494 0.118593
0.410895 0.221225 0.106905
0.474067 0.246098 0.083009
0.542657 0.276249 0.000000
0.612512 0.310643 0.000000
0.681605 0.348119 0.000000
0.748135 0.387457 0.000000
0.810575 0.427314 0.000000
0.866850 0.465736 0.000000
0.916533 0.501701 0.000000
0.959533 0.534783 0.000000
0.996094 0.564721 0.000000
1.000000 0.590539 0.000000
1.000000 0.612238 0.000000
1.000000 0.630365 0.000000
1.000000 0.646113 0.000000
1.000000 0.660212 0.000000
1.000000 0.672724 0.000000
1.000000 0.680171 0.000000
1.000000 0.686763 0.000000
0.202914 0.169741 0.136751
0.202914 0.169741 0.136751
0.203220 0.169528 0.136782
0.204349 0.169009 0.136843
0.206058 0.168582 0.137118
0.208835 0.168154 0.137331
0.218143 0.169345 0.136995
0.232456 0.171298 0.136568
0.251316 0.174380 0.135653
0.272709 0.179934 0.133211
0.299657 0.187442 0.129793
0.339300 0.199832 0.123934
0.396551 0.219852 0.112703
0.464973 0.246921 0.091341
0.531090 0.276036 0.019104
0.594629 0.306615 0.000000
0.656062 0.338903 0.000000
0.714168 0.371893 0.000000
0.770321 0.405890 0.000000
0.822904 0.439765 0.000000
0.871580 0.472938 0.000000
0.916594 0.505394 0.000000
0.956664 0.536004 0.000000
0.991791 0.564263 0.000000
1.000000 0.589349 0.000000
1.000000 0.611017 0.000000
1.000000 0.629664 0.000000
1.000000 0.645991 0.000000
1.000000 0.660700 0.000000
1.000000 0.674067 0.000000
1.000000 0.686061 0.000000
1.000000 0.695064 0.000000
0.236271 0.182681 0.134890
0.235966 0.182559 0.134920
0.235966 0.182101 0.135012
0.236698 0.181643 0.135073
0.238193 0.181094 0.135134
0.240696 0.180514 0.135378
0.247532 0.180789 0.135256
0.261662 0.183139 0.134585
0.281621 0.187015 0.133455
0.312108 0.194736 0.130587
0.347723 0.206485 0.124971
0.393591 0.222721 0.115999
0.449531 0.244877 0.099794
0.515068 0.273472 0.047852
0.585107 0.307256 0.000000
0.645106 0.338659 0.000000
0.698695 0.368414 0.000000
0.748806 0.398047 0.000000
0.797513 0.428382 0.000000
0.842954 0.458045 0.000000
0.885985 0.487648 0.000000
0.926574 0.517174 0.000000
0.963287 0.545098 0.000000
0.996155 0.571740 0.000000
1.000000 0.595453 0.000000
1.000000 0.616083 0.000000
1.000000 0.633936 0.000000
1.000000 0.649683 0.000000
1.000000 0.663935 0.000000
1.000000 0.676967 0.000000
1.000000 0.688716 0.000000
1.000000 0.699428 0.000000
0.280400 0.200870 0.131044
0.280705 0.200809 0.131044
0.280797 0.200534 0.131106
0.282292 0.200381 0.131044
0.284611 0.200107 0.131228
0.288640 0.200046 0.131289
0.295476 0.200534 0.130983
0.312505 0.204532 0.129427
0.336309 0.210452 0.127169
0.367803 0.218845 0.122957
0.406012 0.231785 0.115663
0.452125 0.250431 0.101808
0.507530 0.274754 0.064759
0.569238 0.304417 0.000000
0.632868 0.337652 0.000000
0.693172 0.371405 0.000000
0.743771 0.401160 0.000000
0.787686 0.428107 0.000000
0.829435 0.454902 0.000000
0.868528 0.480842 0.000000
0.906004 0.507042 0.000000
0.941833 0.533288 0.000000
0.974426 0.558465 0.000000
1.000000 0.582238 0.000000
1.000000 0.603876 0.000000
1.000000 0.623133 0.000000
1.000000 0.640314 0.000000
1.000000 0.655787 0.000000
1.000000 0.670069 0.000000
1.000000 0.683070 0.000000
1.000000 0.694911 0.000000
1.000000 0.705470 0.000000
0.346166 0.231022 0.121248
0.346777 0.231144 0.121157
0.347417 0.231113 0.121096
0.349126 0.230991 0.121004
0.351843 0.231022 0.121035
0.356603 0.231174 0.120851
0.364416 0.232151 0.120363
0.380438 0.236271 0.117983
0.407111 0.244541 0.113161
0.441047 0.255344 0.105348
0.482826 0.269657 0.092592
0.526390 0.289189 0.047089
0.574640 0.312779 0.000000
0.625422 0.339208 0.000000
0.676753 0.367498 0.000000
0.726864 0.396582 0.000000
0.775326 0.426276 0.000000
0.817899 0.453193 0.000000
0.854978 0.477363 0.000000
0.890562 0.501488 0.000000
0.925353 0.526207 0.000000
0.958251 0.550805 0.000000
0.988403 0.574456 0.000000
1.000000 0.596612 0.000000
1.000000 0.616754 0.000000
1.000000 0.634791 0.000000
1.000000 0.650874 0.000000
1.000000 0.665248 0.000000
1.000000 0.678187 0.000000
1.000000 0.689815 0.000000
1.000000 0.700343 0.000000
1.000000 0.709773 0.000000
0.413519 0.265843 0.103761
0.413703 0.265812 0.103731
0.414374 0.265782 0.103670
0.416114 0.265690 0.103853
0.419226 0.265965 0.103609
0.424292 0.266453 0.102998
0.432074 0.267613 0.101595
0.443854 0.269963 0.099672
0.470680 0.279393 0.090455
0.504051 0.291630 0.063691
0.544671 0.307225 0.015717
0.589990 0.326268 0.000000
0.633783 0.349615 0.000000
0.679042 0.374853 0.000000
0.724300 0.401282 0.000000
0.768215 0.427924 0.000000
0.810086 0.454353 0.000000
0.850645 0.480812 0.000000
0.886748 0.505150 0.000000
0.917479 0.526513 0.000000
0.947875 0.548516 0.000000
0.976837 0.570672 0.000000
1.000000 0.591852 0.000000
1.000000 0.611902 0.000000
1.000000 0.630121 0.000000
1.000000 0.646601 0.000000
1.000000 0.661433 0.000000
1.000000 0.674708 0.000000
1.000000 0.686641 0.000000
1.000000 0.697353 0.000000
1.000000 0.706996 0.000000
1.000000 0.715602 0.000000
0.496132 0.313664 0.027222
0.497536 0.314458 0.025910
0.588159 0.372229 0.000000
0.590448 0.372381 0.000000
0.594079 0.372686 0.000000
0.599237 0.373144 0.000000
0.607019 0.374273 0.000000
0.618036 0.376471 0.000000
0.641657 0.385992 0.000000
0.675776 0.401526 0.000000
0.714504 0.419348 0.000000
0.756283 0.438697 0.000000
0.793454 0.458869 0.000000
0.826169 0.479652 0.000000
0.856748 0.499336 0.000000
0.885222 0.517937 0.000000
0.910948 0.534966 0.000000
0.935180 0.551476 0.000000
0.958526 0.567895 0.000000
0.980255 0.583581 0.000000
0.999481 0.597803 0.000000
1.000000 0.613123 0.000000
1.000000 0.627924 0.000000
1.000000 0.641779 0.000000
1.000000 0.654108 0.000000
1.000000 0.665492 0.000000
1.000000 0.676081 0.000000
1.000000 0.686122 0.000000
1.000000 0.695857 0.000000
1.000000 0.705043 0.000000
1.000000 0.713527 0.000000
1.000000 0.721187 0.000000
0.612604 0.389960 0.000000
0.621637 0.396002 0.000000
0.632044 0.402716 0.000000
0.642359 0.408789 0.000000
0.652247 0.413794 0.000000
0.659419 0.415930 0.000000
0.666712 0.417121 0.000000
0.675380 0.418402 0.000000
0.689937 0.422614 0.000000
0.718471 0.435584 0.000000
0.751400 0.450874 0.000000
0.787198 0.467506 0.000000
0.823423 0.483925 0.000000
0.851835 0.501671 0.000000
0.878569 0.519127 0.000000
0.904051 0.536034 0.000000
0.927886 0.552209 0.000000
0.950713 0.568017 0.000000
0.972869 0.583917 0.000000
0.994079 0.599695 0.000000
1.000000 0.614649 0.000000
1.000000 0.628443 0.000000
1.000000 0.641627 0.000000
1.000000 0.653834 0.000000
1.000000 0.664759 0.000000
1.000000 0.674769 0.000000
1.000000 0.684108 0.000000
1.000000 0.693111 0.000000
1.000000 0.701900 0.000000
1.000000 0.710353 0.000000
1.000000 0.718257 0.000000
1.000000 0.725490 0.000000
0.679744 0.438270 0.000000
0.689235 0.445106 0.000000
0.700130 0.452613 0.000000
0.710842 0.459419 0.000000
0.720577 0.464729 0.000000
0.727474 0.467079 0.000000
0.733913 0.467994 0.000000
0.741451 0.468849 0.000000
0.751339 0.470344 0.000000
0.772549 0.479194 0.000000
0.800137 0.491890 0.000000
0.829862 0.505547 0.000000
0.860472 0.519219 0.000000
0.889097 0.533257 0.000000
0.911711 0.548516 0.000000
0.933257 0.563073 0.000000
0.953613 0.577111 0.000000
0.973053 0.590753 0.000000
0.991882 0.604303 0.000000
1.000000 0.617945 0.000000
1.000000 0.630976 0.000000
1.000000 0.643732 0.000000
1.000000 0.655482 0.000000
1.000000 0.666224 0.000000
1.000000 0.675837 0.000000
1.000000 0.684504 0.000000
1.000000 0.692653 0.000000
1.000000 0.700618 0.000000
1.000000 0.708431 0.000000
1.000000 0.716091 0.000000
1.000000 0.723323 0.000000
1.000000 0.729946 0.000000
0.749844 0.491585 0.000000
0.758083 0.497932 0.000000
0.767422 0.504479 0.000000
0.776638 0.510582 0.000000
0.784817 0.515373 0.000000
0.790890 0.517296 0.000000
0.796719 0.518212 0.000000
0.802976 0.518395 0.000000
0.811582 0.519524 0.000000
0.824857 0.523308 0.000000
0.847959 0.533715 0.000000
0.872740 0.544823 0.000000
0.898100 0.555871 0.000000
0.923766 0.566735 0.000000
0.945006 0.578882 0.000000
0.963622 0.591974 0.000000
0.982391 0.605493 0.000000
1.000000 0.618891 0.000000
1.000000 0.632380 0.000000
1.000000 0.645777 0.000000
1.000000 0.658534 0.000000
1.000000 0.670405 0.000000
1.000000 0.680934 0.000000
1.000000 0.690547 0.000000
1.000000 0.698939 0.000000
1.000000 0.706233 0.000000
1.000000 0.712825 0.000000
1.000000 0.719112 0.000000
1.000000 0.725185 0.000000
1.000000 0.731075 0.000000
1.000000 0.736599 0.000000
1.000000 0.741634 0.000000
0.862669 0.583520 0.000000
0.865782 0.585931 0.000000
0.868528 0.587640 0.000000
0.871092 0.588830 0.000000
0.873564 0.588830 0.000000
0.875792 0.587976 0.000000
0.878721 0.587060 0.000000
0.883207 0.586206 0.000000
0.889586 0.586175 0.000000
0.898192 0.586938 0.000000
0.915373 0.593927 0.000000
0.934783 0.602197 0.000000
0.954192 0.610071 0.000000
0.973846 0.617517 0.000000
0.992920 0.624292 0.000000
1.000000 0.633692 0.000000
1.000000 0.643030 0.000000
1.000000 0.652155 0.000000
1.000000 0.661189 0.000000
1.000000 0.670100 0.000000
1.000000 0.678645 0.000000
1.000000 0.686854 0.000000
1.000000 0.694392 0.000000
1.000000 0.701045 0.000000
1.000000 0.707912 0.000000
1.000000 0.714290 0.000000
1.000000 0.720272 0.000000
1.000000 0.725978 0.000000
1.000000 0.731472 0.000000
1.000000 0.736660 0.000000
1.000000 0.741543 0.000000
1.000000 0.746059 0.000000
0.915770 0.630030 0.000000
0.917876 0.631861 0.000000
0.920256 0.633417 0.000000
0.922545 0.634302 0.000000
0.924651 0.634333 0.000000
0.926757 0.633722 0.000000
0.929473 0.632654 0.000000
0.933288 0.631769 0.000000
0.938445 0.631403 0.000000
0.945373 0.631373 0.000000
0.956298 0.634150 0.000000
0.971710 0.640223 0.000000
0.987579 0.645960 0.000000
1.000000 0.651423 0.000000
1.000000 0.656184 0.000000
1.000000 0.661707 0.000000
1.000000 0.669245 0.000000
1.000000 0.676570 0.000000
1.000000 0.683803 0.000000
1.000000 0.690822 0.000000
1.000000 0.697627 0.000000
1.000000 0.704067 0.000000
1.000000 0.710109 0.000000
1.000000 0.715572 0.000000
1.000000 0.714534 0.000000
1.000000 0.719966 0.000000
1.000000 0.725521 0.000000
1.000000 0.730831 0.000000
1.000000 0.735897 0.000000
1.000000 0.740780 0.000000
1.000000 0.745480 0.000000
1.000000 0.749722 0.000000
0.978820 0.688655 0.000000
0.981506 0.691096 0.000000
0.983032 0.692103 0.000000
0.983551 0.691432 0.000000
0.983246 0.689601 0.000000
0.982849 0.686732 0.000000
0.982452 0.683131 0.000000
0.982849 0.679622 0.000000
0.984375 0.676204 0.000000
0.987274 0.673213 0.000000
0.991180 0.670161 0.000000
1.000000 0.672358 0.000000
1.000000 0.674525 0.000000
1.000000 0.676417 0.000000
1.000000 0.677760 0.000000
1.000000 0.678920 0.000000
1.000000 0.682979 0.000000
1.000000 0.688411 0.000000
1.000000 0.694362 0.000000
1.000000 0.700740 0.000000
1.000000 0.706966 0.000000
1.000000 0.712764 0.000000
1.000000 0.717708 0.000000
1.000000 0.721950 0.000000
1.000000 0.725429 0.000000
1.000000 0.728542 0.000000
1.000000 0.732357 0.000000
1.000000 0.736568 0.000000
1.000000 0.740780 0.000000
1.000000 0.745022 0.000000
1.000000 0.749172 0.000000
1.000000 0.753170 0.000000
1.000000 0.713680 0.000000
1.000000 0.715633 0.000000
1.000000 0.716823 0.000000
1.000000 0.716793 0.000000
1.000000 0.715969 0.000000
1.000000 0.714809 0.000000
1.000000 0.713405 0.000000
1.000000 0.711910 0.000000
1.000000 0.710353 0.000000
1.000000 0.708858 0.000000
1.000000 0.706996 0.000000
1.000000 0.706966 0.000000
1.000000 0.707881 0.000000
1.000000 0.708339 0.000000
1.000000 0.708125 0.000000
1.000000 0.707576 0.000000
1.000000 0.707607 0.000000
1.000000 0.711055 0.000000
1.000000 0.715114 0.000000
1.000000 0.719509 0.000000
1.000000 0.723995 0.000000
1.000000 0.728298 0.000000
1.000000 0.732143 0.000000
1.000000 0.735531 0.000000
1.000000 0.738430 0.000000
1.000000 0.740902 0.000000
1.000000 0.743221 0.000000
1.000000 0.746090 0.000000
1.000000 0.749538 0.000000
1.000000 0.753017 0.000000
1.000000 0.756374 0.000000
1.000000 0.759640 0.000000
1.000000 0.745327 0.000000
1.000000 0.746059 0.000000
1.000000 0.746304 0.000000
1.000000 0.745937 0.000000
1.000000 0.745052 0.000000
1.000000 0.743648 0.000000
1.000000 0.742092 0.000000
1.000000 0.740291 0.000000
1.000000 0.738338 0.000000
1.000000 0.736507 0.000000
1.000000 0.734218 0.000000
1.000000 0.732204 0.000000
1.000000 0.732204 0.000000
1.000000 0.731624 0.000000
1.000000 0.730495 0.000000
1.000000 0.729000 0.000000
1.000000 0.727321 0.000000
1.000000 0.728084 0.000000
1.000000 0.730861 0.000000
1.000000 0.734005 0.000000
1.000000 0.737301 0.000000
1.000000 0.740444 0.000000
1.000000 0.743252 0.000000
1.000000 0.745724 0.000000
1.000000 0.747768 0.000000
1.000000 0.749599 0.000000
1.000000 0.751217 0.000000
1.000000 0.752682 0.000000
1.000000 0.754849 0.000000
1.000000 0.757900 0.000000
1.000000 0.760922 0.000000
1.000000 0.763912 0.000000
1.000000 0.766964 0.000000
1.000000 0.767422 0.000000
1.000000 0.767727 0.000000
1.000000 0.767636 0.000000
1.000000 0.767361 0.000000
1.000000 0.767117 0.000000
1.000000 0.767330 0.000000
1.000000 0.767575 0.000000
1.000000 0.768032 0.000000
1.000000 0.768307 0.000000
1.000000 0.768368 0.000000
1.000000 0.767788 0.000000
1.000000 0.767727 0.000000
1.000000 0.767239 0.000000
1.000000 0.765988 0.000000
1.000000 0.763790 0.000000
1.000000 0.761196 0.000000
1.000000 0.758480 0.000000
1.000000 0.759670 0.000000
1.000000 0.761044 0.000000
1.000000 0.762570 0.000000
1.000000 0.763943 0.000000
1.000000 0.765164 0.000000
1.000000 0.766140 0.000000
1.000000 0.766903 0.000000
1.000000 0.767514 0.000000
1.000000 0.768002 0.000000
1.000000 0.768460 0.000000
1.000000 0.768917 0.000000
1.000000 0.769955 0.000000
1.000000 0.771908 0.000000
1.000000 0.773892 0.000000
1.000000 0.799435 0.000000
1.000000 0.799374 0.000000
1.000000 0.799100 0.000000
1.000000 0.798642 0.000000
1.000000 0.797757 0.000000
1.000000 0.796811 0.000000
1.000000 0.795621 0.000000
1.000000 0.794278 0.000000
1.000000 0.792844 0.000000
1.000000 0.791226 0.000000
1.000000 0.789364 0.000000
1.000000 0.787228 0.000000
1.000000 0.784970 0.000000
1.000000 0.783200 0.000000
