20 Preset/Dark Style/【3】LUT video cho PR-AE-FCPX/19Tones/City Subway DenBych.cube
# Created by Adobe Lightroom plugin Export LUT (1.24.0)
# www.johnrellis.com/lightroom/exportlut.htm
# Preset: City Subway DenBych
# Color profile: E:\lut插件\exportlut.1.24\exportlut.lrplugin\color profiles\Rec709gamma2.4.icc
LUT_3D_SIZE 32
DOMAIN_MIN 0.0 0.0 0.0
DOMAIN_MAX 1.0 1.0 1.0
0.018158 0.105806 0.104860
0.018158 0.105806 0.104860
0.020142 0.105745 0.104860
0.027771 0.105470 0.105196
0.074464 0.104219 0.105440
0.125856 0.099672 0.105135
0.192721 0.084993 0.104707
0.282689 0.000000 0.103456
0.400641 0.000000 0.100374
0.547631 0.000000 0.093904
0.722316 0.000000 0.076539
0.906310 0.000000 0.025269
1.000000 0.000000 0.000000
1.000000 0.000000 0.000000
1.000000 0.000000 0.000000
1.000000 0.000000 0.000000
1.000000 0.000000 0.000000
1.000000 0.000000 0.000000
1.000000 0.000000 0.000000
1.000000 0.000000 0.000000
1.000000 0.000000 0.000000
1.000000 0.000000 0.000000
1.000000 0.000000 0.011749
1.000000 0.000000 0.097749
1.000000 0.000000 0.132998
1.000000 0.000000 0.161959
1.000000 0.000000 0.188937
1.000000 0.000000 0.213809
1.000000 0.000000 0.238865
1.000000 0.000000 0.264408
1.000000 0.000000 0.290135
1.000000 0.000000 0.316503
0.018158 0.105806 0.104860
0.018158 0.105806 0.104860
0.019837 0.105745 0.105196
0.029755 0.105409 0.105196
0.070771 0.104372 0.105104
0.120699 0.101137 0.105074
0.181186 0.090547 0.104738
0.264012 0.023285 0.103670
0.370153 0.000000 0.101137
0.505699 0.000000 0.095796
0.672969 0.000000 0.082826
0.859037 0.000000 0.038148
1.000000 0.000000 0.000000
1.000000 0.000000 0.000000
1.000000 0.000000 0.000000
1.000000 0.000000 0.000000
1.000000 0.000000 0.000000
1.000000 0.000000 0.000000
1.000000 0.000000 0.000000
1.000000 0.000000 0.000000
1.000000 0.000000 0.000000
1.000000 0.000000 0.000000
1.000000 0.000000 0.000000
1.000000 0.000000 0.076692
1.000000 0.000000 0.117159
1.000000 0.000000 0.145663
1.000000 0.000000 0.171969
1.000000 0.000000 0.196414
1.000000 0.000000 0.221103
1.000000 0.000000 0.246067
1.000000 0.000000 0.272435
1.000000 0.000000 0.298314
0.018128 0.106447 0.105440
0.018128 0.106447 0.105440
0.017823 0.106447 0.105776
0.027344 0.106477 0.105379
0.062257 0.106661 0.105165
0.109712 0.105043 0.105165
0.159609 0.099611 0.104494
0.228946 0.076112 0.103731
0.321416 0.000000 0.101778
0.441993 0.000000 0.097749
0.595575 0.000000 0.089204
0.781064 0.000000 0.055512
0.962554 0.000000 0.000000
1.000000 0.000000 0.000000
1.000000 0.000000 0.000000
1.000000 0.000000 0.000000
1.000000 0.000000 0.000000
1.000000 0.000000 0.000000
1.000000 0.000000 0.000000
1.000000 0.000000 0.000000
1.000000 0.000000 0.000000
1.000000 0.000000 0.000000
1.000000 0.000000 0.000000
1.000000 0.000000 0.051789
1.000000 0.000000 0.107240
1.000000 0.000000 0.135683
1.000000 0.000000 0.162173
1.000000 0.000000 0.186557
1.000000 0.000000 0.211032
1.000000 0.000000 0.236301
1.000000 0.000000 0.262089
1.000000 0.000000 0.288029
0.021057 0.108919 0.108797
0.020752 0.108919 0.109133
0.020447 0.108919 0.109438
0.020447 0.108919 0.109438
0.039643 0.109926 0.108217
0.094148 0.109621 0.105806
0.130343 0.107668 0.104646
0.181430 0.101350 0.103761
0.253452 0.076326 0.102480
0.353033 0.000000 0.099825
0.487098 0.000000 0.094087
0.657832 0.000000 0.078523
0.852598 0.000000 0.023255
1.000000 0.000000 0.000000
1.000000 0.000000 0.000000
1.000000 0.000000 0.000000
1.000000 0.000000 0.000000
1.000000 0.000000 0.000000
1.000000 0.000000 0.000000
1.000000 0.000000 0.000000
1.000000 0.000000 0.000000
1.000000 0.000000 0.000000
1.000000 0.000000 0.000000
1.000000 0.000000 0.001587
1.000000 0.000000 0.088075
1.000000 0.000000 0.122591
1.000000 0.000000 0.152285
1.000000 0.000000 0.179232
1.000000 0.000000 0.205081
1.000000 0.000000 0.230900
1.000000 0.000000 0.256382
1.000000 0.000000 0.280583
0.023346 0.118715 0.122744
0.023346 0.118715 0.122744
0.023377 0.118166 0.122286
0.024018 0.117617 0.121248
0.023682 0.116182 0.119417
0.048707 0.116457 0.116030
0.107393 0.114778 0.108858
0.140230 0.111604 0.105196
0.177890 0.106386 0.103578
0.247654 0.091157 0.102083
0.347692 0.000000 0.099062
0.486641 0.000000 0.092103
0.671229 0.000000 0.066163
0.894011 0.000000 0.000000
1.000000 0.000000 0.000000
1.000000 0.000000 0.000000
1.000000 0.000000 0.000000
1.000000 0.000000 0.000000
1.000000 0.000000 0.000000
1.000000 0.000000 0.000000
1.000000 0.000000 0.000000
1.000000 0.000000 0.000000
1.000000 0.000000 0.000000
1.000000 0.000000 0.000000
1.000000 0.000000 0.054017
1.000000 0.000000 0.111208
1.000000 0.000000 0.143313
1.000000 0.000000 0.171359
1.000000 0.000000 0.197787
1.000000 0.000000 0.223331
1.000000 0.000000 0.248264
1.000000 0.000000 0.272190
0.038575 0.141024 0.153597
0.036866 0.141054 0.153384
0.036896 0.139528 0.151553
0.034882 0.137362 0.148470
0.031586 0.133822 0.143709
0.028962 0.129122 0.137453
0.046784 0.127047 0.132082
0.120363 0.122652 0.116182
0.159426 0.117433 0.108431
0.193637 0.111025 0.104311
0.231113 0.101656 0.101839
0.335485 0.027619 0.098146
0.497108 0.000000 0.089448
0.721126 0.000000 0.041718
0.953216 0.000000 0.000000
1.000000 0.000000 0.000000
1.000000 0.000000 0.000000
1.000000 0.000000 0.000000
1.000000 0.000000 0.000000
1.000000 0.000000 0.000000
1.000000 0.000000 0.000000
1.000000 0.000000 0.000000
1.000000 0.000000 0.015229
1.000000 0.000000 0.117556
1.000000 0.000000 0.159548
1.000000 0.000000 0.193484
1.000000 0.000000 0.224643
1.000000 0.000000 0.252415
1.000000 0.000000 0.279728
1.000000 0.000000 0.304448
1.000000 0.000000 0.327367
1.000000 0.000000 0.347082
0.109865 0.202945 0.231022
0.108949 0.202213 0.230198
0.105928 0.198642 0.226078
0.099763 0.191531 0.217502
0.091279 0.181827 0.205783
0.077546 0.169589 0.190707
0.056428 0.156619 0.174197
0.045167 0.148562 0.163485
0.147127 0.139681 0.134829
0.202945 0.129671 0.117311
0.257511 0.116548 0.107362
0.319310 0.093263 0.100313
0.391455 0.000000 0.094514
0.608270 0.000000 0.063142
0.872526 0.000000 0.000000
1.000000 0.000000 0.000000
1.000000 0.000000 0.000000
1.000000 0.000000 0.000000
1.000000 0.000000 0.000000
1.000000 0.000000 0.000000
1.000000 0.000000 0.000000
1.000000 0.000000 0.000000
1.000000 0.000000 0.000000
1.000000 0.000000 0.016693
1.000000 0.000000 0.122988
1.000000 0.000000 0.166873
1.000000 0.000000 0.201297
1.000000 0.000000 0.229923
1.000000 0.000000 0.256565
1.000000 0.000000 0.281285
1.000000 0.000000 0.303868
1.000000 0.000000 0.323857
0.177005 0.274113 0.311620
0.175418 0.272740 0.310033
0.171206 0.268101 0.305028
0.161532 0.258183 0.294102
0.147921 0.244083 0.278294
0.131167 0.226261 0.258030
0.112184 0.205905 0.234623
0.094179 0.185275 0.210117
0.080446 0.171969 0.193820
0.168856 0.162753 0.163180
0.248814 0.149630 0.136233
0.326421 0.129274 0.117494
0.410529 0.085939 0.102296
0.508415 0.000000 0.087129
0.625574 0.000000 0.048768
0.892576 0.000000 0.000000
1.000000 0.000000 0.000000
1.000000 0.000000 0.000000
1.000000 0.000000 0.000000
1.000000 0.000000 0.000000
1.000000 0.000000 0.000000
1.000000 0.000000 0.000000
1.000000 0.000000 0.000000
1.000000 0.000000 0.000000
1.000000 0.000000 0.067750
1.000000 0.000000 0.137728
1.000000 0.000000 0.176364
1.000000 0.000000 0.207980
1.000000 0.000000 0.237064
1.000000 0.000000 0.262699
1.000000 0.000000 0.286137
1.000000 0.000000 0.306188
0.287236 0.383948 0.428840
0.285649 0.382330 0.427161
0.279149 0.375952 0.420508
0.267735 0.364843 0.408850
0.249485 0.347051 0.390021
0.225742 0.323461 0.364965
0.197635 0.295476 0.334813
0.168765 0.265873 0.302495
0.140047 0.235966 0.269108
0.120333 0.214298 0.244450
0.207187 0.202487 0.210391
0.318822 0.185000 0.169192
0.424475 0.156222 0.137057
0.539086 0.092195 0.108125
0.668360 0.000000 0.058167
0.808347 0.000000 0.000000
0.947265 0.000000 0.000000
1.000000 0.000000 0.000000
1.000000 0.000000 0.000000
1.000000 0.000000 0.000000
1.000000 0.000000 0.000000
1.000000 0.000000 0.000000
1.000000 0.000000 0.000000
1.000000 0.000000 0.000000
1.000000 0.000000 0.000000
1.000000 0.000000 0.098329
1.000000 0.000000 0.150240
1.000000 0.000000 0.187839
1.000000 0.000000 0.219333
1.000000 0.000000 0.246586
1.000000 0.000000 0.271183
1.000000 0.000000 0.291905
0.462135 0.545312 0.596002
0.458778 0.542382 0.593011
0.449104 0.533867 0.584192
0.434424 0.520775 0.570703
0.408301 0.497230 0.546441
0.375433 0.467201 0.515435
0.337011 0.431312 0.478309
0.295598 0.391913 0.437263
0.252689 0.350195 0.393408
0.209903 0.307713 0.348028
0.176516 0.273808 0.311192
0.250645 0.259495 0.276890
0.399695 0.237308 0.218601
0.538872 0.204501 0.170230
0.687648 0.141726 0.122744
0.860227 0.000000 0.000000
1.000000 0.000000 0.000000
1.000000 0.000000 0.000000
1.000000 0.000000 0.000000
1.000000 0.000000 0.000000
1.000000 0.000000 0.000000
1.000000 0.000000 0.000000
1.000000 0.000000 0.000000
1.000000 0.000000 0.000000
1.000000 0.000000 0.000000
1.000000 0.000000 0.000000
1.000000 0.000000 0.093416
1.000000 0.000000 0.148928
1.000000 0.000000 0.188540
1.000000 0.000000 0.221530
1.000000 0.000000 0.249729
1.000000 0.000000 0.274418
0.635401 0.692317 0.745754
0.633631 0.690852 0.744289
0.627039 0.685451 0.738888
0.614862 0.675380 0.728786
0.593835 0.658015 0.711238
0.565179 0.634028 0.686915
0.526238 0.600946 0.653162
0.480110 0.561089 0.612268
0.428168 0.515160 0.564965
0.371099 0.463142 0.511223
0.312840 0.408515 0.454536
0.263371 0.360693 0.404517
0.315709 0.350652 0.380560
0.538048 0.331273 0.305150
0.741482 0.304692 0.235874
0.921019 0.267521 0.161746
1.000000 0.226017 0.000000
1.000000 0.198245 0.000000
1.000000 0.182437 0.000000
1.000000 0.155856 0.000000
1.000000 0.073518 0.000000
1.000000 0.095094 0.000000
1.000000 0.022614 0.000000
1.000000 0.000000 0.000000
1.000000 0.000000 0.000000
1.000000 0.000000 0.000000
1.000000 0.000000 0.000000
1.000000 0.000000 0.108064
1.000000 0.000000 0.162203
1.000000 0.000000 0.201724
1.000000 0.000000 0.233616
1.000000 0.000000 0.260319
0.788876 0.814481 0.863523
0.788083 0.813901 0.862974
0.784360 0.811032 0.860380
0.776883 0.805203 0.855039
0.763821 0.795071 0.845670
0.745693 0.780850 0.832303
0.720394 0.760861 0.813199
0.687098 0.734279 0.787350
0.646967 0.701747 0.755215
0.608606 0.670253 0.723598
0.559991 0.629664 0.682460
0.501335 0.579583 0.631250
0.621149 0.680629 0.734035
0.635645 0.684169 0.735592
0.914153 0.657618 0.625208
1.000000 0.631769 0.513298
1.000000 0.606287 0.407996
1.000000 0.576593 0.310124
1.000000 0.541253 0.212161
1.000000 0.499641 0.048249
1.000000 0.451392 0.000000
1.000000 0.395697 0.000000
1.000000 0.330480 0.000000
1.000000 0.307408 0.000000
1.000000 0.290715 0.000000
1.000000 0.276402 0.000000
1.000000 0.265141 0.091066
1.000000 0.257389 0.157717
1.000000 0.254276 0.199985
1.000000 0.254948 0.233463
1.000000 0.257939 0.261601
1.000000 0.261875 0.285405
0.919036 0.918639 0.950439
0.918578 0.918242 0.950164
0.917021 0.916869 0.949126
0.914000 0.914244 0.947204
0.909422 0.910307 0.944244
0.903044 0.904814 0.940063
0.894865 0.897917 0.934722
0.884367 0.889189 0.927825
0.871916 0.879026 0.919554
0.857359 0.867430 0.909941
0.840940 0.854551 0.898955
0.821592 0.839628 0.885985
0.796292 0.820249 0.868742
0.761746 0.793454 0.844144
0.773556 0.802609 0.852659
0.944060 0.789090 0.790829
1.000000 0.764584 0.699763
1.000000 0.731075 0.597467
1.000000 0.690944 0.493690
1.000000 0.646540 0.395605
1.000000 0.599084 0.303044
1.000000 0.548180 0.208957
1.000000 0.493080 0.038605
1.000000 0.433173 0.000000
1.000000 0.365667 0.000000
1.000000 0.345373 0.000000
1.000000 0.331823 0.000000
1.000000 0.321202 0.076295
1.000000 0.314397 0.156863
1.000000 0.311803 0.202762
1.000000 0.310857 0.237186
1.000000 0.310887 0.265599
0.954772 0.951812 0.973053
0.954376 0.951415 0.972808
0.953124 0.950195 0.972045
0.951415 0.948486 0.970947
0.948730 0.945953 0.969299
0.944976 0.942321 0.966949
0.940673 0.938231 0.964233
0.935485 0.933440 0.960967
0.929595 0.928099 0.957214
0.923339 0.922454 0.953216
0.916716 0.916625 0.948943
0.909331 0.910185 0.944152
0.899809 0.902068 0.937957
0.886442 0.890929 0.929198
0.866026 0.874327 0.915679
0.867369 0.875425 0.916594
0.949767 0.868040 0.888945
1.000000 0.848814 0.832456
1.000000 0.822202 0.759762
1.000000 0.787015 0.673091
1.000000 0.744839 0.580041
1.000000 0.697200 0.486580
1.000000 0.645869 0.396399
1.000000 0.590997 0.308141
1.000000 0.531975 0.213535
1.000000 0.467659 0.035370
1.000000 0.397436 0.000000
1.000000 0.380835 0.000000
1.000000 0.371679 0.099245
1.000000 0.366155 0.169955
1.000000 0.362554 0.214084
1.000000 0.360174 0.247776
0.970550 0.967803 0.982666
0.970367 0.967620 0.982574
0.969696 0.966888 0.982147
0.968566 0.965728 0.981476
0.966827 0.963958 0.980438
0.964630 0.961669 0.979065
0.962158 0.959167 0.977600
0.959350 0.956329 0.975860
0.956420 0.953399 0.974060
0.953491 0.950530 0.972229
0.950530 0.947662 0.970397
0.947570 0.944793 0.968566
0.943816 0.941192 0.966217
0.938537 0.936309 0.962921
0.930571 0.928985 0.957855
0.918151 0.917876 0.949889
0.916869 0.916747 0.949035
0.954498 0.913817 0.938231
1.000000 0.901366 0.908659
1.000000 0.882597 0.867979
1.000000 0.857969 0.814359
1.000000 0.827359 0.748318
1.000000 0.789425 0.670985
1.000000 0.743343 0.584497
1.000000 0.689631 0.491890
1.000000 0.631037 0.398779
1.000000 0.568261 0.304295
1.000000 0.500725 0.201419
1.000000 0.428656 0.000000
1.000000 0.420600 0.140047
1.000000 0.417487 0.201144
1.000000 0.415656 0.243442
0.978912 0.976654 0.987671
0.978882 0.976654 0.987640
0.978637 0.976379 0.987488
0.978149 0.975830 0.987213
0.977386 0.975036 0.986755
0.976440 0.973999 0.986175
0.975433 0.972930 0.985595
0.974273 0.971740 0.984924
0.973053 0.970428 0.984192
0.971679 0.968963 0.983337
0.970062 0.967254 0.982361
0.968048 0.965209 0.981170
0.965576 0.962615 0.979675
0.962219 0.959197 0.977630
0.957671 0.954681 0.974853
0.951446 0.948547 0.971008
0.943175 0.940612 0.965820
0.941619 0.939147 0.964843
0.958679 0.939086 0.961456
0.997986 0.931792 0.945312
1.000000 0.920439 0.924651
1.000000 0.904906 0.897581
1.000000 0.884916 0.862272
1.000000 0.859617 0.815824
1.000000 0.827787 0.756374
1.000000 0.787411 0.682734
1.000000 0.737575 0.597009
1.000000 0.678035 0.501152
1.000000 0.611872 0.401617
1.000000 0.541405 0.299626
1.000000 0.465492 0.183719
1.000000 0.461219 0.231632
0.984314 0.982544 0.990845
0.984283 0.982513 0.990845
0.984131 0.982330 0.990753
0.983856 0.982055 0.990600
0.983490 0.981598 0.990356
0.982940 0.981048 0.990051
0.982361 0.980407 0.989715
0.981659 0.979644 0.989288
0.980926 0.978820 0.988861
0.980072 0.977874 0.988342
0.979095 0.976837 0.987762
0.977905 0.975586 0.987060
0.976501 0.974060 0.986236
0.974640 0.972107 0.985138
0.972229 0.969543 0.983673
0.969024 0.966217 0.981750
0.964904 0.961975 0.979248
0.959869 0.956847 0.976196
0.958831 0.955810 0.975555
0.964965 0.957092 0.975433
0.993591 0.953338 0.966583
1.000000 0.946654 0.955993
1.000000 0.937041 0.942687
1.000000 0.924285 0.925231
1.000000 0.907988 0.902068
1.000000 0.887358 0.870909
1.000000 0.861051 0.828275
1.000000 0.827115 0.770260
1.000000 0.783078 0.695521
1.000000 0.726955 0.603510
1.000000 0.658259 0.495796
1.000000 0.581476 0.381170
0.988739 0.987427 0.993439
0.988800 0.987457 0.993469
0.992309 0.991394 0.995544
0.992218 0.991272 0.995483
0.992035 0.991089 0.995361
0.991791 0.990814 0.995209
0.991485 0.990478 0.995056
0.991150 0.990082 0.994873
0.990814 0.989715 0.994659
0.990417 0.989288 0.994446
0.989990 0.988800 0.994171
0.989471 0.988220 0.993866
0.988739 0.987427 0.993439
0.987823 0.986389 0.992889
0.986603 0.985046 0.992187
0.985046 0.983337 0.991272
0.983032 0.981140 0.990112
0.980591 0.978454 0.988647
0.977722 0.975341 0.986938
0.976684 0.974243 0.986328
0.977569 0.975219 0.986847
0.994263 0.973358 0.982483
1.000000 0.969329 0.977234
1.000000 0.963378 0.970886
1.000000 0.955077 0.962463
1.000000 0.944274 0.951232
1.000000 0.930266 0.935424
1.000000 0.912352 0.913268
1.000000 0.889616 0.882475
1.000000 0.860136 0.838041
1.000000 0.820798 0.773587
1.000000 0.767056 0.684016
0.992706 0.991791 0.995758
0.992920 0.992096 0.995911
0.993164 0.992340 0.996033
0.993317 0.992493 0.996124
0.993378 0.992584 0.996124
0.993286 0.992462 0.996094
0.993072 0.992248 0.995972
0.992828 0.991943 0.995819
0.992554 0.991638 0.995666
0.992248 0.991302 0.995483
0.991913 0.990936 0.995300
0.991516 0.990509 0.995087
0.991028 0.989929 0.994781
0.990387 0.989258 0.994415
0.989593 0.988342 0.993927
0.988586 0.987243 0.993378
0.987366 0.985901 0.992645
0.985962 0.984314 0.991791
0.984314 0.982544 0.990845
0.982513 0.980591 0.989807
0.981994 0.979980 0.989471
0.983154 0.981262 0.990173
0.993957 0.980774 0.987884
1.000000 0.978210 0.984405
1.000000 0.974029 0.980255
1.000000 0.968322 0.975128
1.000000 0.960937 0.968566
1.000000 0.951659 0.959960
1.000000 0.940032 0.948516
1.000000 0.925200 0.932494
1.000000 0.905730 0.908965
1.000000 0.878904 0.872313
0.994171 0.993439 0.996612
0.994385 0.993683 0.996735
0.994568 0.993896 0.996826
0.994720 0.994079 0.996918
0.994781 0.994141 0.996979
0.994720 0.994079 0.996948
0.994598 0.993927 0.996857
0.994415 0.993713 0.996765
0.994232 0.993530 0.996643
0.993988 0.993256 0.996490
0.993744 0.992981 0.996368
0.993500 0.992676 0.996216
0.993164 0.992309 0.996002
0.992737 0.991852 0.995789
0.992218 0.991302 0.995483
0.991608 0.990570 0.995117
0.990845 0.989746 0.994659
0.989960 0.988739 0.994141
0.988952 0.987640 0.993561
0.987884 0.986450 0.992950
0.986755 0.985199 0.992279
0.986419 0.984863 0.992096
0.987518 0.986053 0.992737
0.994263 0.986236 0.991669
1.000000 0.984527 0.989197
1.000000 0.981598 0.986328
1.000000 0.977569 0.982940
1.000000 0.972442 0.978820
1.000000 0.966217 0.973846
1.000000 0.958404 0.967437
1.000000 0.948486 0.958648
1.000000 0.935027 0.945373
0.995422 0.994873 0.997345
0.995575 0.995056 0.997436
0.995727 0.995209 0.997528
0.995850 0.995331 0.997589
0.995880 0.995392 0.997589
0.995850 0.995331 0.997589
0.995758 0.995239 0.997528
0.995636 0.995117 0.997467
0.995514 0.994965 0.997375
0.995361 0.994781 0.997284
0.995178 0.994598 0.997192
0.994995 0.994385 0.997101
0.994751 0.994141 0.996979
0.994507 0.993835 0.996796
0.994171 0.993469 0.996612
0.993805 0.993072 0.996399
0.993408 0.992645 0.996185
0.992981 0.992157 0.995941
0.992584 0.991699 0.995697
0.992218 0.991241 0.995453
0.991852 0.990845 0.995239
0.991455 0.990448 0.995056
0.991516 0.990478 0.995056
0.992493 0.991608 0.995636
0.996033 0.992157 0.995392
1.000000 0.991272 0.993957
1.000000 0.989624 0.992309
1.000000 0.987213 0.990387
1.000000 0.984100 0.988159
1.000000 0.980102 0.985412
1.000000 0.975006 0.981781
1.000000 0.968170 0.976684
0.997192 0.996826 0.998352
0.997253 0.996887 0.998383
0.997253 0.996918 0.998383
0.997253 0.996918 0.998383
0.997223 0.996887 0.998383
0.997162 0.996826 0.998352
0.997101 0.996735 0.998322
0.996979 0.996643 0.998260
0.996918 0.996521 0.998199
0.996826 0.996429 0.998169
0.996735 0.996338 0.998108
0.996643 0.996216 0.998047
0.996521 0.996063 0.997955
0.996368 0.995880 0.997864
0.996155 0.995697 0.997772
0.995941 0.995422 0.997650
0.995666 0.995148 0.997498
0.995422 0.994842 0.997345
0.995148 0.994537 0.997162
0.994842 0.994232 0.997009
0.994568 0.993896 0.996826
0.994263 0.993591 0.996674
0.993957 0.993256 0.996490
0.993866 0.993133 0.996429
0.994568 0.993896 0.996826
0.996460 0.994476 0.996887
1.000000 0.993957 0.995819
1.000000 0.992828 0.994659
1.000000 0.991119 0.993286
1.000000 0.988769 0.991669
1.000000 0.985718 0.989593
1.000000 0.981628 0.986786
0.997833 0.997559 0.998749
0.997864 0.997589 0.998749
0.997864 0.997620 0.998749
0.997864 0.997620 0.998749
0.997864 0.997589 0.998749
0.997803 0.997559 0.998749
0.997772 0.997498 0.998718
0.997711 0.997436 0.998657
0.997681 0.997375 0.998627
0.997589 0.997314 0.998596
0.997559 0.997253 0.998566
0.997498 0.997162 0.998535
0.997375 0.997070 0.998505
0.997284 0.996979 0.998444
0.997192 0.996857 0.998383
0.997070 0.996704 0.998291
0.996948 0.996551 0.998230
0.996826 0.996399 0.998138
0.996643 0.996246 0.998047
0.996490 0.996063 0.997955
0.996368 0.995911 0.997894
0.996216 0.995758 0.997803
0.996094 0.995605 0.997742
0.995941 0.995453 0.997650
0.995239 0.994659 0.997223
0.995819 0.995300 0.997559
0.996735 0.995941 0.997833
1.000000 0.995636 0.997009
1.000000 0.994842 0.996124
1.000000 0.993530 0.995087
1.000000 0.991699 0.993805
1.000000 0.989227 0.992157
0.998566 0.998383 0.999145
0.998566 0.998413 0.999176
0.998596 0.998444 0.999176
0.998566 0.998413 0.999176
0.998566 0.998383 0.999145
0.998505 0.998322 0.999115
0.998444 0.998260 0.999084
0.998352 0.998169 0.999054
0.998291 0.998077 0.999023
0.998230 0.998016 0.998962
0.998138 0.997925 0.998901
0.998047 0.997833 0.998871
0.997986 0.997742 0.998810
0.997864 0.997620 0.998749
0.997742 0.997467 0.998688
0.997650 0.997345 0.998627
0.997528 0.997192 0.998535
0.997375 0.997070 0.998474
0.997284 0.996948 0.998413
0.997223 0.996857 0.998383
0.997131 0.996796 0.998322
0.997070 0.996704 0.998291
0.996979 0.996612 0.998230
0.996857 0.996460 0.998169
0.996704 0.996307 0.998077
0.996551 0.996155 0.997986
0.996948 0.996582 0.998230
0.997406 0.997101 0.998505
1.000000 0.996948 0.997925
1.000000 0.996338 0.997223
1.000000 0.995270 0.996368
1.000000 0.993774 0.995361
0.998779 0.998627 0.999298
0.998810 0.998627 0.999298
0.998810 0.998657 0.999298
0.998810 0.998657 0.999298
0.998810 0.998627 0.999298
0.998779 0.998627 0.999298
0.998749 0.998596 0.999268
0.998718 0.998566 0.999237
0.998688 0.998535 0.999237
0.998657 0.998505 0.999207
0.998627 0.998474 0.999207
0.998596 0.998413 0.999176
0.998535 0.998383 0.999176
0.998505 0.998291 0.999115
0.998413 0.998230 0.999084
0.998352 0.998138 0.999023
0.998230 0.998047 0.998993
0.998169 0.997955 0.998932
0.998108 0.997894 0.998901
0.998077 0.997833 0.998871
0.998016 0.997803 0.998840
0.998016 0.997742 0.998840
0.997986 0.997742 0.998810
0.997955 0.997681 0.998810
0.997894 0.997620 0.998749
0.997803 0.997559 0.998718
0.997742 0.997467 0.998688
0.998077 0.997803 0.998871
0.998413 0.998199 0.999054
1.000000 0.998199 0.998749
1.000000 0.997742 0.998230
1.000000 0.996948 0.997650
0.999023 0.998932 0.999451
0.999054 0.998932 0.999451
0.999084 0.998932 0.999451
0.999054 0.998932 0.999451
0.999023 0.998932 0.999451
0.999023 0.998901 0.999420
0.998993 0.998901 0.999420
0.998993 0.998871 0.999420
0.998962 0.998840 0.999390
0.998932 0.998810 0.999390
0.998932 0.998779 0.999390
0.998901 0.998749 0.999359
0.998840 0.998718 0.999329
0.998810 0.998688 0.999329
0.998779 0.998627 0.999298
0.998749 0.998566 0.999268
0.998657 0.998505 0.999237
0.998627 0.998444 0.999207
0.998596 0.998413 0.999176
0.998566 0.998383 0.999145
0.998535 0.998383 0.999145
0.998535 0.998352 0.999145
0.998535 0.998322 0.999145
0.998505 0.998291 0.999115
0.998474 0.998260 0.999115
0.998413 0.998230 0.999084
0.998413 0.998199 0.999084
0.998352 0.998169 0.999054
0.998566 0.998413 0.999176
0.998901 0.998779 0.999359
1.000000 0.998901 0.999237
1.000000 0.998566 0.998871
0.999176 0.999084 0.999512
0.999176 0.999084 0.999512
0.999176 0.999084 0.999512
0.999176 0.999084 0.999512
0.999176 0.999084 0.999512
0.999176 0.999084 0.999512
0.999207 0.999115 0.999542
0.999207 0.999115 0.999542
0.999237 0.999145 0.999542
0.999237 0.999145 0.999542
0.999268 0.999176 0.999573
0.999268 0.999207 0.999603
0.999298 0.999207 0.999603
0.999298 0.999237 0.999603
0.999298 0.999237 0.999603
0.999268 0.999207 0.999603
0.999268 0.999207 0.999573
0.999268 0.999176 0.999573
0.999237 0.999145 0.999542
0.999237 0.999145 0.999542
0.999237 0.999145 0.999542
0.999237 0.999145 0.999542
0.999268 0.999176 0.999573
0.999268 0.999176 0.999573
0.999268 0.999207 0.999573
0.999268 0.999207 0.999573
0.999298 0.999176 0.999573
0.999298 0.999207 0.999573
0.999298 0.999207 0.999603
0.999420 0.999359 0.999664
0.999603 0.999573 0.999756
1.000000 0.999634 0.999725
0.999512 0.999420 0.999695
0.999512 0.999420 0.999695
0.999481 0.999420 0.999695
0.999481 0.999420 0.999695
0.999481 0.999420 0.999695
0.999481 0.999420 0.999695
0.999451 0.999420 0.999695
0.999451 0.999420 0.999695
0.999451 0.999420 0.999695
0.999481 0.999420 0.999695
0.999481 0.999420 0.999695
0.999481 0.999420 0.999695
0.999481 0.999420 0.999695
0.999481 0.999420 0.999695
