20 Preset/Dark Style/【3】LUT video cho PR-AE-FCPX/19Tones/City Reflect City.cube
# Created by Adobe Lightroom plugin Export LUT (1.24.0)
# www.johnrellis.com/lightroom/exportlut.htm
# Preset: City Reflect City
# Color profile: E:\lut插件\exportlut.1.24\exportlut.lrplugin\color profiles\Rec709gamma2.4.icc
LUT_3D_SIZE 32
DOMAIN_MIN 0.0 0.0 0.0
DOMAIN_MAX 1.0 1.0 1.0
0.000000 0.109194 0.133944
0.000000 0.109407 0.133913
0.000000 0.111025 0.134401
0.026093 0.114900 0.136019
0.093965 0.121614 0.138491
0.142214 0.130495 0.140841
0.203738 0.142061 0.142092
0.283513 0.157259 0.141482
0.384405 0.180240 0.136233
0.513573 0.218631 0.119173
0.672023 0.274937 0.034668
0.834684 0.342809 0.000000
0.965301 0.414588 0.000000
1.000000 0.481575 0.000000
1.000000 0.536126 0.000000
1.000000 0.577447 0.000000
1.000000 0.608637 0.000000
1.000000 0.633021 0.000000
1.000000 0.652003 0.000000
1.000000 0.668177 0.000000
1.000000 0.688502 0.000000
1.000000 0.704585 0.000000
1.000000 0.717220 0.000000
1.000000 0.727810 0.167788
1.000000 0.736873 0.233982
1.000000 0.744930 0.283299
1.000000 0.752621 0.325658
1.000000 0.759762 0.363104
1.000000 0.766690 0.397467
1.000000 0.773678 0.430121
1.000000 0.780392 0.460151
1.000000 0.786801 0.487770
0.000000 0.109804 0.134127
0.000000 0.110018 0.134340
0.000000 0.112245 0.135012
0.026642 0.116060 0.136385
0.093690 0.122438 0.138888
0.140505 0.131472 0.140993
0.199100 0.142245 0.142428
0.275303 0.156802 0.141970
0.371221 0.178805 0.137362
0.492653 0.214359 0.122927
0.644160 0.266972 0.066712
0.805997 0.331731 0.000000
0.942748 0.402594 0.000000
1.000000 0.470710 0.000000
1.000000 0.527245 0.000000
1.000000 0.571038 0.000000
1.000000 0.603998 0.000000
1.000000 0.629297 0.000000
1.000000 0.649165 0.000000
1.000000 0.665736 0.000000
1.000000 0.685359 0.000000
1.000000 0.700923 0.000000
1.000000 0.713222 0.000000
1.000000 0.723537 0.121645
1.000000 0.732296 0.201389
1.000000 0.740291 0.255497
1.000000 0.747860 0.300175
1.000000 0.755215 0.340764
1.000000 0.762448 0.377783
1.000000 0.769680 0.413092
1.000000 0.776791 0.445686
1.000000 0.783658 0.475624
0.000000 0.113313 0.135134
0.000000 0.113802 0.135317
0.009216 0.115694 0.136263
0.039368 0.120546 0.138186
0.099123 0.128054 0.140902
0.146029 0.137026 0.142672
0.204623 0.148348 0.143404
0.279026 0.163241 0.142550
0.372290 0.185702 0.137758
0.490974 0.221561 0.122896
0.638788 0.273289 0.067292
0.797055 0.336492 0.000000
0.933318 0.405493 0.000000
1.000000 0.471778 0.000000
1.000000 0.528161 0.000000
1.000000 0.571832 0.000000
1.000000 0.605035 0.000000
1.000000 0.630243 0.000000
1.000000 0.650172 0.000000
1.000000 0.666621 0.000000
1.000000 0.686305 0.000000
1.000000 0.701411 0.000000
1.000000 0.713008 0.000000
1.000000 0.723110 0.102724
1.000000 0.731624 0.189822
1.000000 0.739193 0.244236
1.000000 0.746700 0.290227
1.000000 0.753933 0.331487
1.000000 0.761227 0.369909
1.000000 0.768521 0.406165
1.000000 0.775662 0.439368
1.000000 0.782589 0.470283
0.026978 0.120943 0.137026
0.033600 0.121004 0.137453
0.053529 0.122896 0.138338
0.091951 0.127840 0.140108
0.125307 0.135805 0.142306
0.168185 0.146822 0.144198
0.223209 0.161044 0.145296
0.297368 0.178408 0.143648
0.390082 0.203433 0.137118
0.507591 0.241581 0.119142
0.651301 0.293858 0.040620
0.803555 0.356023 0.000000
0.933410 0.422126 0.000000
1.000000 0.484413 0.000000
1.000000 0.537041 0.000000
1.000000 0.578759 0.000000
1.000000 0.610315 0.000000
1.000000 0.634424 0.000000
1.000000 0.653498 0.000000
1.000000 0.669978 0.000000
1.000000 0.687678 0.000000
1.000000 0.701503 0.000000
1.000000 0.712856 0.000000
1.000000 0.722591 0.016022
1.000000 0.731258 0.172641
1.000000 0.739467 0.235660
1.000000 0.747372 0.286107
1.000000 0.755001 0.330632
1.000000 0.762478 0.370642
1.000000 0.769772 0.407263
1.000000 0.776638 0.440009
1.000000 0.783139 0.469612
0.097108 0.132784 0.139681
0.098787 0.132906 0.139864
0.110140 0.134401 0.140658
0.130312 0.139284 0.141756
0.163149 0.147738 0.143313
0.208621 0.159426 0.144503
0.263066 0.174228 0.144320
0.330877 0.194980 0.141970
0.415137 0.225284 0.134279
0.524102 0.268376 0.113710
0.661402 0.320684 0.007813
0.806271 0.381109 0.000000
0.930724 0.443824 0.000000
1.000000 0.502556 0.000000
1.000000 0.553216 0.000000
1.000000 0.592767 0.000000
1.000000 0.622766 0.000000
1.000000 0.645014 0.000000
1.000000 0.662776 0.000000
1.000000 0.679164 0.000000
1.000000 0.695064 0.000000
1.000000 0.707393 0.000000
1.000000 0.717647 0.000000
1.000000 0.726894 0.066835
1.000000 0.735317 0.182345
1.000000 0.743099 0.243137
1.000000 0.750637 0.292729
1.000000 0.757931 0.336095
1.000000 0.765072 0.375158
1.000000 0.771969 0.410590
1.000000 0.778500 0.442390
1.000000 0.784756 0.471290
0.146548 0.148928 0.141482
0.148348 0.149355 0.141604
0.159274 0.150759 0.142061
0.181643 0.155428 0.143038
0.216892 0.164950 0.143313
0.270390 0.180331 0.142641
0.335332 0.201144 0.139864
0.404028 0.225956 0.133425
0.491341 0.261143 0.118563
0.600824 0.308659 0.072419
0.725612 0.365240 0.000000
0.849332 0.427436 0.000000
0.953368 0.488319 0.000000
1.000000 0.540826 0.000000
1.000000 0.585168 0.000000
1.000000 0.618524 0.000000
1.000000 0.644160 0.000000
1.000000 0.663325 0.000000
1.000000 0.678614 0.000000
1.000000 0.694118 0.000000
1.000000 0.707698 0.000000
1.000000 0.718441 0.000000
1.000000 0.752346 0.259831
1.000000 0.760800 0.314366
1.000000 0.768063 0.357397
1.000000 0.774380 0.392523
1.000000 0.780179 0.423072
1.000000 0.785336 0.449439
1.000000 0.790341 0.473945
1.000000 0.794858 0.495521
1.000000 0.799039 0.515068
1.000000 0.802670 0.532036
0.246464 0.185702 0.139956
0.247562 0.185519 0.140169
0.261814 0.188510 0.140078
0.293156 0.195224 0.139376
0.335882 0.209354 0.136721
0.399634 0.233585 0.130068
0.489937 0.271580 0.112398
0.595605 0.318212 0.048676
0.692226 0.361151 0.000000
0.798764 0.411780 0.000000
0.900328 0.466499 0.000000
0.983154 0.520745 0.000000
1.000000 0.569207 0.000000
1.000000 0.609735 0.000000
1.000000 0.641779 0.000000
1.000000 0.666590 0.000000
1.000000 0.682521 0.000000
1.000000 0.694972 0.000000
1.000000 0.706661 0.000000
1.000000 0.721431 0.000000
1.000000 0.733394 0.000000
1.000000 0.744167 0.142947
1.000000 0.754177 0.236973
1.000000 0.763455 0.303014
1.000000 0.771572 0.354070
1.000000 0.778347 0.393988
1.000000 0.783871 0.425147
1.000000 0.788724 0.451637
1.000000 0.793240 0.475166
1.000000 0.797238 0.495918
1.000000 0.801144 0.515190
1.000000 0.804685 0.532464
0.348028 0.230625 0.130282
0.348913 0.230472 0.130526
0.363348 0.234348 0.129458
0.394354 0.243503 0.126040
0.444556 0.260380 0.118135
0.508080 0.288518 0.100771
0.595727 0.328283 0.021302
0.705318 0.378882 0.000000
0.814481 0.431983 0.000000
0.894896 0.474495 0.000000
0.966674 0.518914 0.000000
1.000000 0.562066 0.000000
1.000000 0.600122 0.000000
1.000000 0.632013 0.000000
1.000000 0.657710 0.000000
1.000000 0.678096 0.000000
1.000000 0.695033 0.000000
1.000000 0.709377 0.000000
1.000000 0.726345 0.000000
1.000000 0.737606 0.000000
1.000000 0.746944 0.000000
1.000000 0.755673 0.185580
1.000000 0.764126 0.261723
1.000000 0.772183 0.321416
1.000000 0.779355 0.369055
1.000000 0.785183 0.406012
1.000000 0.790066 0.435950
1.000000 0.794278 0.460914
1.000000 0.798337 0.483497
1.000000 0.802090 0.503807
1.000000 0.805570 0.522545
1.000000 0.808682 0.539055
0.485817 0.304051 0.090944
0.487373 0.304082 0.091005
0.501152 0.308721 0.085389
0.534051 0.320500 0.055909
0.588342 0.339361 0.000000
0.653162 0.366400 0.000000
0.729305 0.402228 0.000000
0.817288 0.445563 0.000000
0.905425 0.493507 0.000000
0.978607 0.540459 0.000000
1.000000 0.574762 0.000000
1.000000 0.607172 0.000000
1.000000 0.634913 0.000000
1.000000 0.658350 0.000000
1.000000 0.677516 0.000000
1.000000 0.693294 0.000000
1.000000 0.706905 0.000000
1.000000 0.721645 0.000000
1.000000 0.735775 0.000000
1.000000 0.748104 0.000000
1.000000 0.759579 0.142092
1.000000 0.770443 0.241672
1.000000 0.777310 0.302403
1.000000 0.783963 0.353460
1.000000 0.789914 0.395666
1.000000 0.794797 0.428901
1.000000 0.798825 0.455818
1.000000 0.802396 0.478859
1.000000 0.805844 0.499702
1.000000 0.808896 0.518120
1.000000 0.811856 0.535332
1.000000 0.814542 0.550774
0.661128 0.404578 0.000000
0.661982 0.404211 0.000000
0.673732 0.407599 0.000000
0.703090 0.417884 0.000000
0.747158 0.432502 0.000000
0.804349 0.452644 0.000000
0.858427 0.480110 0.000000
0.917327 0.512963 0.000000
0.973297 0.548608 0.000000
1.000000 0.585443 0.000000
1.000000 0.619440 0.000000
1.000000 0.642237 0.000000
1.000000 0.662562 0.000000
1.000000 0.680171 0.000000
1.000000 0.695369 0.000000
1.000000 0.708095 0.000000
1.000000 0.722042 0.000000
1.000000 0.735073 0.000000
1.000000 0.746426 0.000000
1.000000 0.756619 0.000000
1.000000 0.766293 0.181796
1.000000 0.775662 0.260960
1.000000 0.784909 0.323949
1.000000 0.794034 0.378912
1.000000 0.799771 0.417395
1.000000 0.803220 0.445197
1.000000 0.806577 0.469947
1.000000 0.809628 0.491951
1.000000 0.812650 0.512169
1.000000 0.815640 0.531060
1.000000 0.818357 0.548028
1.000000 0.820890 0.563470
0.817594 0.497902 0.000000
0.818631 0.497688 0.000000
0.828397 0.500938 0.000000
0.850278 0.508904 0.000000
0.882872 0.520623 0.000000
0.923552 0.535698 0.000000
0.962676 0.555322 0.000000
0.997620 0.579644 0.000000
1.000000 0.605463 0.000000
1.000000 0.631495 0.000000
1.000000 0.655299 0.000000
1.000000 0.676509 0.000000
1.000000 0.690486 0.000000
1.000000 0.702785 0.000000
1.000000 0.713710 0.000000
1.000000 0.726589 0.000000
1.000000 0.737606 0.000000
1.000000 0.747311 0.000000
1.000000 0.756069 0.000000
1.000000 0.764431 0.113619
1.000000 0.772610 0.212741
1.000000 0.780789 0.279362
1.000000 0.789181 0.337194
1.000000 0.797452 0.387457
1.000000 0.805539 0.432319
1.000000 0.813138 0.471077
1.000000 0.817868 0.498695
1.000000 0.820157 0.517815
1.000000 0.822477 0.535637
1.000000 0.824826 0.552483
1.000000 0.826993 0.567773
1.000000 0.828946 0.581445
0.950713 0.590967 0.000000
0.951446 0.590845 0.000000
0.957671 0.593103 0.000000
0.969818 0.598077 0.000000
0.988281 0.605554 0.000000
1.000000 0.615167 0.000000
1.000000 0.626062 0.000000
1.000000 0.641718 0.000000
1.000000 0.658167 0.000000
1.000000 0.674464 0.000000
1.000000 0.689845 0.000000
1.000000 0.704005 0.000000
1.000000 0.737057 0.000000
1.000000 0.746700 0.000000
1.000000 0.756374 0.000000
1.000000 0.764706 0.000000
1.000000 0.772061 0.073640
1.000000 0.778988 0.198703
1.000000 0.785824 0.266758
1.000000 0.792660 0.322332
1.000000 0.799374 0.369818
1.000000 0.806058 0.412268
1.000000 0.812589 0.449928
1.000000 0.819028 0.484108
1.000000 0.825040 0.514122
1.000000 0.830655 0.540795
1.000000 0.835904 0.564324
1.000000 0.840818 0.585473
1.000000 0.842802 0.598413
1.000000 0.843015 0.606439
1.000000 0.843229 0.613947
1.000000 0.843565 0.621485
1.000000 0.692805 0.000000
1.000000 0.692409 0.000000
1.000000 0.691951 0.000000
1.000000 0.692317 0.000000
1.000000 0.693050 0.000000
1.000000 0.694362 0.000000
1.000000 0.696284 0.000000
1.000000 0.700740 0.000000
1.000000 0.709041 0.000000
1.000000 0.718257 0.000000
1.000000 0.727840 0.000000
1.000000 0.738766 0.000000
1.000000 0.751492 0.000000
1.000000 0.762203 0.000000
1.000000 0.769680 0.000000
1.000000 0.775753 0.000000
1.000000 0.781277 0.168185
1.000000 0.786465 0.235599
1.000000 0.791745 0.288426
1.000000 0.797147 0.334447
1.000000 0.802670 0.375677
1.000000 0.808408 0.413764
1.000000 0.814176 0.448615
1.000000 0.820066 0.481514
1.000000 0.825742 0.510887
1.000000 0.831174 0.537499
1.000000 0.836332 0.561303
1.000000 0.841398 0.583703
1.000000 0.846342 0.604547
1.000000 0.851347 0.624537
1.000000 0.851926 0.632959
1.000000 0.851896 0.639460
1.000000 0.732113 0.000000
1.000000 0.731594 0.000000
1.000000 0.730465 0.000000
1.000000 0.729854 0.000000
1.000000 0.729122 0.000000
1.000000 0.728450 0.000000
1.000000 0.728054 0.000000
1.000000 0.727932 0.000000
1.000000 0.732540 0.000000
1.000000 0.741115 0.000000
1.000000 0.750057 0.000000
1.000000 0.758663 0.000000
1.000000 0.766751 0.000000
1.000000 0.774228 0.000000
1.000000 0.780850 0.000000
1.000000 0.785733 0.154574
1.000000 0.789944 0.221683
1.000000 0.793973 0.271550
1.000000 0.798306 0.315160
1.000000 0.802701 0.353735
1.000000 0.807401 0.389990
1.000000 0.812436 0.424506
1.000000 0.817716 0.457099
1.000000 0.823087 0.487861
1.000000 0.828336 0.515679
1.000000 0.833494 0.541680
1.000000 0.838407 0.564813
1.000000 0.843198 0.586419
1.000000 0.848051 0.607172
1.000000 0.852903 0.627039
1.000000 0.857664 0.645594
1.000000 0.860929 0.659754
1.000000 0.761807 0.000000
1.000000 0.761593 0.000000
1.000000 0.760861 0.000000
1.000000 0.760342 0.000000
1.000000 0.759701 0.000000
1.000000 0.758907 0.000000
1.000000 0.758236 0.000000
1.000000 0.757534 0.000000
1.000000 0.758541 0.000000
1.000000 0.763180 0.000000
1.000000 0.768338 0.000000
1.000000 0.774014 0.000000
1.000000 0.779629 0.000000
1.000000 0.785122 0.000000
1.000000 0.790249 0.138735
1.000000 0.794888 0.219760
1.000000 0.798672 0.270878
1.000000 0.801968 0.310155
1.000000 0.805417 0.345251
1.000000 0.809110 0.378210
1.000000 0.813077 0.409583
1.000000 0.817472 0.440528
1.000000 0.822080 0.469734
1.000000 0.826841 0.497597
1.000000 0.831662 0.523888
1.000000 0.836454 0.548302
1.000000 0.841154 0.570947
1.000000 0.846006 0.593042
1.000000 0.850858 0.613916
1.000000 0.855772 0.633967
1.000000 0.860655 0.653040
1.000000 0.865293 0.670466
1.000000 0.788846 0.000000
1.000000 0.788846 0.000000
1.000000 0.788144 0.000000
1.000000 0.787442 0.000000
1.000000 0.786252 0.000000
1.000000 0.784848 0.000000
1.000000 0.783383 0.000000
1.000000 0.781796 0.000000
1.000000 0.780087 0.000000
1.000000 0.781888 0.000000
1.000000 0.784909 0.000000
1.000000 0.788174 0.000000
1.000000 0.791623 0.000000
1.000000 0.795071 0.131228
1.000000 0.798520 0.206271
1.000000 0.801938 0.258701
1.000000 0.805386 0.302892
1.000000 0.808652 0.339422
1.000000 0.811643 0.370275
1.000000 0.814908 0.399847
1.000000 0.818631 0.429053
1.000000 0.822751 0.457984
1.000000 0.827054 0.485481
1.000000 0.831571 0.512047
1.000000 0.836240 0.537469
1.000000 0.840818 0.560998
1.000000 0.845396 0.583032
1.000000 0.849973 0.603906
1.000000 0.854459 0.623529
1.000000 0.859007 0.642237
1.000000 0.863310 0.659266
1.000000 0.867552 0.675441
1.000000 0.805234 0.000000
1.000000 0.805081 0.000000
1.000000 0.804501 0.000000
1.000000 0.803738 0.000000
1.000000 0.802579 0.000000
1.000000 0.800992 0.000000
1.000000 0.799252 0.000000
1.000000 0.797330 0.000000
1.000000 0.795254 0.000000
1.000000 0.794095 0.000000
1.000000 0.796231 0.000000
1.000000 0.798550 0.000000
1.000000 0.801205 0.153140
1.000000 0.803952 0.213748
1.000000 0.806821 0.261479
1.000000 0.809598 0.301335
1.000000 0.812528 0.337652
1.000000 0.815640 0.370947
1.000000 0.818723 0.400610
1.000000 0.821592 0.426581
1.000000 0.824857 0.452461
1.000000 0.828580 0.478553
1.000000 0.832517 0.503807
1.000000 0.836698 0.528496
1.000000 0.840970 0.551873
1.000000 0.845304 0.574151
1.000000 0.849699 0.595361
1.000000 0.854032 0.615259
1.000000 0.858335 0.633967
1.000000 0.862608 0.651698
1.000000 0.866606 0.667750
1.000000 0.870542 0.682795
1.000000 0.818601 0.000000
1.000000 0.818662 0.000000
1.000000 0.829007 0.000000
1.000000 0.828275 0.000000
1.000000 0.827176 0.000000
1.000000 0.825681 0.000000
1.000000 0.823880 0.033234
1.000000 0.821927 0.139071
1.000000 0.820005 0.193515
1.000000 0.818173 0.241123
1.000000 0.818814 0.276280
1.000000 0.820584 0.307164
1.000000 0.822324 0.335729
1.000000 0.824186 0.362921
1.000000 0.825864 0.386938
1.000000 0.827604 0.409583
1.000000 0.829252 0.430365
1.000000 0.830991 0.450233
1.000000 0.833005 0.469978
1.000000 0.835111 0.488746
1.000000 0.837217 0.506065
1.000000 0.839933 0.525383
1.000000 0.842924 0.544579
1.000000 0.846036 0.563226
1.000000 0.849119 0.580560
1.000000 0.852323 0.597589
1.000000 0.855589 0.613916
1.000000 0.858946 0.629694
1.000000 0.862608 0.645930
1.000000 0.866270 0.661433
1.000000 0.869902 0.676081
1.000000 0.873442 0.689754
1.000000 0.832517 0.000000
1.000000 0.833402 0.000000
1.000000 0.833982 0.000000
1.000000 0.834257 0.093416
1.000000 0.833982 0.135378
1.000000 0.832975 0.164767
1.000000 0.831479 0.193454
1.000000 0.829709 0.222019
1.000000 0.827878 0.253330
1.000000 0.826078 0.286381
1.000000 0.825010 0.319310
1.000000 0.826383 0.343145
1.000000 0.827817 0.365820
1.000000 0.829282 0.387945
1.000000 0.830838 0.409339
1.000000 0.832425 0.429908
1.000000 0.833982 0.448646
1.000000 0.835752 0.467689
1.000000 0.837766 0.486610
1.000000 0.840085 0.505882
1.000000 0.842466 0.524285
1.000000 0.844999 0.542107
1.000000 0.847745 0.559930
1.000000 0.850584 0.576959
1.000000 0.853391 0.593225
1.000000 0.856199 0.608301
1.000000 0.859159 0.623346
1.000000 0.862272 0.638300
1.000000 0.865507 0.652979
1.000000 0.868956 0.667689
1.000000 0.872374 0.681636
1.000000 0.875700 0.694697
1.000000 0.839719 0.168276
1.000000 0.840574 0.184878
1.000000 0.841306 0.203586
1.000000 0.841703 0.222629
1.000000 0.841611 0.241154
1.000000 0.840848 0.256870
1.000000 0.839597 0.273777
1.000000 0.838041 0.292607
1.000000 0.836454 0.314427
1.000000 0.834806 0.338811
1.000000 0.833341 0.365972
1.000000 0.833585 0.387274
1.000000 0.834775 0.405829
1.000000 0.836088 0.423987
1.000000 0.837430 0.441932
1.000000 0.838804 0.459419
1.000000 0.840238 0.476204
1.000000 0.841764 0.492439
1.000000 0.843473 0.508843
1.000000 0.845518 0.525933
1.000000 0.847745 0.542870
1.000000 0.850156 0.559716
1.000000 0.852689 0.576043
1.000000 0.855314 0.591913
1.000000 0.857847 0.606592
1.000000 0.860410 0.620600
1.000000 0.862943 0.633936
1.000000 0.865751 0.647639
1.000000 0.868711 0.661128
1.000000 0.871885 0.674800
1.000000 0.875029 0.687831
1.000000 0.878050 0.699947
1.000000 0.847074 0.264683
1.000000 0.847929 0.274449
1.000000 0.848569 0.286687
1.000000 0.848905 0.299504
1.000000 0.848875 0.312139
1.000000 0.848295 0.324590
1.000000 0.847257 0.337102
1.000000 0.845975 0.351324
1.000000 0.844572 0.367956
1.000000 0.843198 0.387274
1.000000 0.841886 0.408820
1.000000 0.840940 0.430823
1.000000 0.841947 0.445319
1.000000 0.843076 0.460487
1.000000 0.844266 0.475624
1.000000 0.845640 0.491157
1.000000 0.847227 0.507347
1.000000 0.849088 0.524102
1.000000 0.851164 0.541039
1.000000 0.853574 0.558434
1.000000 0.856229 0.576135
1.000000 0.858946 0.593042
1.000000 0.861662 0.609094
1.000000 0.864317 0.624231
1.000000 0.866941 0.638270
1.000000 0.869383 0.650965
1.000000 0.871672 0.662654
1.000000 0.874113 0.674342
1.000000 0.876616 0.685634
1.000000 0.879149 0.696712
1.000000 0.881651 0.707179
1.000000 0.883970 0.716640
1.000000 0.859983 0.385595
1.000000 0.860288 0.388647
1.000000 0.860380 0.392615
1.000000 0.860166 0.397559
1.000000 0.859709 0.403082
1.000000 0.858915 0.409186
1.000000 0.857908 0.416571
1.000000 0.856748 0.426307
1.000000 0.855650 0.439277
1.000000 0.854520 0.454261
1.000000 0.853544 0.471595
1.000000 0.852628 0.489967
1.000000 0.852750 0.503716
1.000000 0.853666 0.515557
1.000000 0.854673 0.527306
1.000000 0.855650 0.538964
1.000000 0.856809 0.551049
1.000000 0.858091 0.563165
1.000000 0.859617 0.575952
1.000000 0.861265 0.588769
1.000000 0.863066 0.601648
1.000000 0.865049 0.614588
1.000000 0.866972 0.626734
1.000000 0.868803 0.637995
1.000000 0.871000 0.650111
1.000000 0.873106 0.661433
1.000000 0.875303 0.672602
1.000000 0.877531 0.683314
1.000000 0.879820 0.693782
1.000000 0.882048 0.703883
1.000000 0.884276 0.713283
1.000000 0.886290 0.721828
1.000000 0.867124 0.441108
1.000000 0.867399 0.443549
1.000000 0.867552 0.447211
1.000000 0.867430 0.451392
1.000000 0.867063 0.455818
1.000000 0.866423 0.460761
1.000000 0.865599 0.466957
1.000000 0.864683 0.475380
1.000000 0.863737 0.485817
1.000000 0.862821 0.498360
1.000000 0.861997 0.512352
1.000000 0.861204 0.527581
1.000000 0.860594 0.542779
1.000000 0.861387 0.552300
1.000000 0.862303 0.562432
1.000000 0.863340 0.572961
1.000000 0.864408 0.583307
1.000000 0.865599 0.593896
1.000000 0.866941 0.604974
1.000000 0.868406 0.616114
1.000000 0.869963 0.627070
1.000000 0.871641 0.638087
1.000000 0.873289 0.648463
1.000000 0.874937 0.658289
1.000000 0.874052 0.658442
1.000000 0.875883 0.668544
1.000000 0.877928 0.679042
1.000000 0.879973 0.689143
1.000000 0.882109 0.699001
1.000000 0.884245 0.708675
1.000000 0.886351 0.717739
1.000000 0.888273 0.725978
1.000000 0.877440 0.512535
1.000000 0.877897 0.516075
1.000000 0.878019 0.518578
1.000000 0.877745 0.520500
1.000000 0.877134 0.521721
1.000000 0.876219 0.523339
1.000000 0.875090 0.525231
1.000000 0.873808 0.528618
1.000000 0.872526 0.533989
1.000000 0.871275 0.541436
1.000000 0.870054 0.550256
1.000000 0.868986 0.560906
1.000000 0.867857 0.572137
1.000000 0.867643 0.580652
1.000000 0.867918 0.586694
1.000000 0.868315 0.593317
1.000000 0.868894 0.600855
1.000000 0.869688 0.609155
1.000000 0.870817 0.618585
1.000000 0.872251 0.628962
1.000000 0.873808 0.639643
1.000000 0.875273 0.649409
1.000000 0.876677 0.658564
1.000000 0.877897 0.666743
1.000000 0.878965 0.673884
1.000000 0.879942 0.680507
1.000000 0.881346 0.688380
1.000000 0.882933 0.696742
1.000000 0.884672 0.705318
1.000000 0.886442 0.713619
1.000000 0.888273 0.721920
1.000000 0.890043 0.729580
1.000000 0.882628 0.544640
1.000000 0.883024 0.547601
1.000000 0.883207 0.550042
1.000000 0.883177 0.552789
1.000000 0.882872 0.555810
1.000000 0.882292 0.558160
1.000000 0.881743 0.562402
1.000000 0.880949 0.567254
1.000000 0.880247 0.573907
1.000000 0.879515 0.581811
1.000000 0.878752 0.590509
1.000000 0.877958 0.599939
1.000000 0.877165 0.610071
1.000000 0.876371 0.619562
1.000000 0.876555 0.624170
1.000000 0.876768 0.629053
1.000000 0.877043 0.634302
1.000000 0.877562 0.640497
1.000000 0.878386 0.647822
1.000000 0.879393 0.655787
1.000000 0.880522 0.663813
1.000000 0.881743 0.671931
1.000000 0.882902 0.679774
1.000000 0.883940 0.686641
1.000000 0.884916 0.693080
1.000000 0.885710 0.698695
1.000000 0.886473 0.703975
1.000000 0.887572 0.710292
1.000000 0.889036 0.717586
1.000000 0.890501 0.724697
1.000000 0.891905 0.731411
1.000000 0.893217 0.737606
1.000000 0.890196 0.589075
1.000000 0.890379 0.590387
1.000000 0.890440 0.591913
1.000000 0.890349 0.593744
1.000000 0.890074 0.596033
1.000000 0.889586 0.598047
1.000000 0.888945 0.600824
1.000000 0.888304 0.604822
1.000000 0.887541 0.609583
1.000000 0.886839 0.615656
1.000000 0.886107 0.622736
1.000000 0.885374 0.630579
1.000000 0.884611 0.638849
1.000000 0.883818 0.647395
1.000000 0.883513 0.652583
1.000000 0.883574 0.656306
1.000000 0.883696 0.660273
1.000000 0.884001 0.664973
1.000000 0.884550 0.670497
1.000000 0.885283 0.676814
1.000000 0.886198 0.683436
1.000000 0.887083 0.690028
1.000000 0.887938 0.696071
1.000000 0.888670 0.701534
1.000000 0.889342 0.706661
1.000000 0.889860 0.711025
1.000000 0.890410 0.715389
1.000000 0.890898 0.719417
1.000000 0.891722 0.724392
1.000000 0.893004 0.730800
1.000000 0.894194 0.736751
1.000000 0.895384 0.742397
1.000000 0.896269 0.622187
1.000000 0.896422 0.623224
1.000000 0.896513 0.624628
1.000000 0.896483 0.626429
1.000000 0.896483 0.629450
1.000000 0.896452 0.633387
1.000000 0.896452 0.638544
1.000000 0.896483 0.644678
1.000000 0.896605 0.652399
1.000000 0.896757 0.660700
1.000000 0.896910 0.669795
1.000000 0.896941 0.678798
1.000000 0.896849 0.687587
1.000000 0.896544 0.695644
1.000000 0.896208 0.702724
1.000000 0.896269 0.705470
1.000000 0.896269 0.708156
1.000000 0.896269 0.710872
1.000000 0.896483 0.714290
1.000000 0.896757 0.717952
1.000000 0.897154 0.721981
1.000000 0.897490 0.725673
1.000000 0.897826 0.729335
1.000000 0.898039 0.732387
1.000000 0.898192 0.735225
1.000000 0.898192 0.737484
1.000000 0.898253 0.739773
1.000000 0.898283 0.741970
1.000000 0.898314 0.743984
1.000000 0.898589 0.746761
1.000000 0.899199 0.750607
1.000000 0.899779 0.754238
1.000000 0.907164 0.677333
1.000000 0.907164 0.677394
1.000000 0.907134 0.677974
1.000000 0.906981 0.678737
1.000000 0.906828 0.680323
1.000000 0.906645 0.682643
1.000000 0.906249 0.684718
1.000000 0.905821 0.687434
1.000000 0.905394 0.691066
1.000000 0.904967 0.695399
1.000000 0.904479 0.700191
1.000000 0.904021 0.705562
1.000000 0.903441 0.710964
1.000000 0.902800 0.716487
