20 Preset/Dark Style/【3】LUT video cho PR-AE-FCPX/19Tones/City Skyscrapers 2.cube
# Created by Adobe Lightroom plugin Export LUT (1.24.0)
# www.johnrellis.com/lightroom/exportlut.htm
# Preset: City Skyscrapers 2
# Color profile: E:\lut插件\exportlut.1.24\exportlut.lrplugin\color profiles\Rec709gamma2.4.icc
LUT_3D_SIZE 5
DOMAIN_MIN 0.000000 0.000000 0.000000
DOMAIN_MAX 0.903226 0.903226 0.903226
0.000000 0.109194 0.134188
0.076661 0.117617 0.134798
0.231937 0.141817 0.129030
0.672572 0.283085 0.000000
1.000000 0.561639 0.000000
0.075685 0.127657 0.137209
0.125429 0.133822 0.136294
0.269902 0.164340 0.124147
0.716823 0.345800 0.000000
1.000000 0.605646 0.000000
0.280400 0.200870 0.131044
0.312505 0.204532 0.129427
0.632868 0.337652 0.000000
0.941833 0.533288 0.000000
1.000000 0.670069 0.000000
0.862669 0.583520 0.000000
0.883207 0.586206 0.000000
0.992920 0.624292 0.000000
1.000000 0.686854 0.000000
1.000000 0.731472 0.000000
1.000000 0.814176 0.000000
1.000000 0.810147 0.000000
1.000000 0.783871 0.000000
1.000000 0.777981 0.000000
1.000000 0.779568 0.000000
0.000000 0.128786 0.190646
0.000000 0.136660 0.180606
0.210544 0.149691 0.132204
0.576135 0.276463 0.000000
1.000000 0.542565 0.000000
0.000000 0.147036 0.180880
0.071626 0.151980 0.177829
0.256382 0.167544 0.134005
0.631708 0.309941 0.000000
1.000000 0.579828 0.000000
0.284337 0.217807 0.147829
0.308782 0.216007 0.140536
0.524620 0.282963 0.041413
0.857633 0.472938 0.000000
1.000000 0.662501 0.000000
0.861845 0.592706 0.000000
0.884672 0.598413 0.000000
0.981964 0.627070 0.000000
1.000000 0.684230 0.000000
1.000000 0.730831 0.000000
1.000000 0.818173 0.000000
1.000000 0.813779 0.000000
1.000000 0.798276 0.000000
1.000000 0.784360 0.000000
1.000000 0.784207 0.000000
0.000000 0.228672 0.494606
0.000000 0.228763 0.474739
0.119142 0.245396 0.396918
0.558679 0.226383 0.309972
1.000000 0.566186 0.000000
0.000000 0.254551 0.482399
0.000000 0.255192 0.474220
0.193057 0.271092 0.392767
0.612665 0.251896 0.236728
1.000000 0.597650 0.000000
0.124392 0.348577 0.425788
0.204349 0.354589 0.416449
0.425452 0.400244 0.392065
0.841306 0.488014 0.000000
1.000000 0.665919 0.000000
0.813718 0.687648 0.273777
0.823148 0.669398 0.240238
0.919310 0.661860 0.114992
1.000000 0.690730 0.000000
1.000000 0.730617 0.000000
1.000000 0.831144 0.000000
1.000000 0.828336 0.000000
1.000000 0.813474 0.000000
1.000000 0.786496 0.000000
1.000000 0.784207 0.000000
0.000000 0.489052 0.965393
0.000000 0.497841 0.965087
0.000000 0.528008 0.948363
0.431678 0.601221 0.885100
0.741024 0.799039 0.842252
0.000000 0.513390 0.960662
0.000000 0.516228 0.956512
0.000000 0.542260 0.937041
0.450538 0.604273 0.866300
0.779690 0.833829 0.877134
0.000000 0.603357 0.933501
0.000000 0.605066 0.928801
0.000000 0.636133 0.920165
0.581323 0.681697 0.842100
0.925505 0.740047 0.797726
0.556756 0.805142 0.908019
0.574334 0.804135 0.902403
0.676387 0.821866 0.893889
0.837919 0.856321 0.883085
1.000000 0.772793 0.363104
0.932250 0.945159 0.895903
0.947417 0.942962 0.885466
0.981964 0.929595 0.844236
1.000000 0.876524 0.642237
1.000000 0.793027 0.000000
0.000000 0.713191 1.000000
0.000000 0.726986 1.000000
0.453986 0.787350 1.000000
0.728511 0.861509 0.995422
0.854093 0.905364 0.982605
0.000000 0.725429 1.000000
0.000000 0.738949 1.000000
0.472724 0.792996 1.000000
0.729305 0.861967 0.994263
0.855619 0.906096 0.981689
0.351232 0.790036 1.000000
0.397742 0.795377 1.000000
0.575586 0.828122 1.000000
0.765255 0.880522 0.991791
0.880644 0.921843 0.981506
0.726558 0.893217 0.996185
0.731441 0.893706 0.995819
0.767178 0.901671 0.994629
0.848051 0.925170 0.992218
0.920500 0.947021 0.982574
0.892638 0.956664 0.987701
0.894957 0.957122 0.987457
0.909728 0.961151 0.987152
0.933440 0.967163 0.985901
0.970245 0.975586 0.983948
