20 Preset/Dark Style/【3】LUT video cho PR-AE-FCPX/19Tones/City DJI Empire.cube
# Created by Adobe Lightroom plugin Export LUT (1.24.0)
# www.johnrellis.com/lightroom/exportlut.htm
# Preset: City DJI Empire
# Color profile: E:\lut插件\exportlut.1.24\exportlut.lrplugin\color profiles\Rec709gamma2.4.icc
LUT_3D_SIZE 8
DOMAIN_MIN 0.000000 0.000000 0.000000
DOMAIN_MAX 0.903226 0.903226 0.903226
0.107240 0.109377 0.102113
0.133181 0.110140 0.104921
0.664576 0.000000 0.097719
1.000000 0.000000 0.101320
1.000000 0.243565 0.437690
1.000000 0.755184 0.767391
1.000000 0.895628 0.889586
1.000000 0.949676 0.940917
0.116732 0.119539 0.112123
0.162173 0.129122 0.101839
0.613855 0.000000 0.065248
1.000000 0.000000 0.000000
1.000000 0.228275 0.353552
1.000000 0.677699 0.682826
1.000000 0.861814 0.852720
1.000000 0.938201 0.928222
0.269108 0.262394 0.227024
0.393500 0.326818 0.157961
1.000000 0.488655 0.000000
1.000000 0.600916 0.000000
1.000000 0.655818 0.402350
1.000000 0.810056 0.729793
1.000000 0.920165 0.894194
1.000000 0.960052 0.946014
0.915007 0.884154 0.812100
0.953613 0.898528 0.770230
1.000000 0.923613 0.578851
1.000000 0.910430 0.403632
1.000000 0.904082 0.547204
1.000000 0.922179 0.807462
1.000000 0.951781 0.911742
1.000000 0.970916 0.952117
0.984375 0.971221 0.942779
0.989837 0.973663 0.938018
1.000000 0.979919 0.919188
1.000000 0.977020 0.863096
1.000000 0.963409 0.790707
1.000000 0.956329 0.772213
1.000000 0.966186 0.904509
1.000000 0.978576 0.954223
0.995483 0.989624 0.977874
0.996674 0.990845 0.978851
0.999786 0.992157 0.976287
1.000000 0.992828 0.970214
1.000000 0.989868 0.953826
1.000000 0.986114 0.940673
1.000000 0.985016 0.940612
1.000000 0.988067 0.965759
0.997925 0.995056 0.989654
0.998169 0.995270 0.989685
0.999023 0.995697 0.988922
1.000000 0.996216 0.987518
1.000000 0.996155 0.984680
1.000000 0.994934 0.980560
1.000000 0.993774 0.977539
1.000000 0.993347 0.977111
0.998871 0.997467 0.995026
0.998932 0.997498 0.994965
0.999237 0.997742 0.994842
0.999756 0.998077 0.994629
1.000000 0.998016 0.993103
1.000000 0.998108 0.992584
1.000000 0.997772 0.992004
1.000000 0.997253 0.990661
0.109255 0.112215 0.106172
0.114046 0.115846 0.108583
0.431556 0.000000 0.128573
1.000000 0.000000 0.166873
1.000000 0.272343 0.461952
1.000000 0.702022 0.728511
1.000000 0.865141 0.863066
1.000000 0.935943 0.928099
0.121065 0.123659 0.116304
0.152590 0.131228 0.113741
0.547082 0.000000 0.114717
1.000000 0.000000 0.137392
1.000000 0.344549 0.431586
1.000000 0.694209 0.702205
1.000000 0.850889 0.844083
1.000000 0.927581 0.918395
0.279179 0.273136 0.239078
0.391211 0.327703 0.184512
0.954925 0.452308 0.000000
1.000000 0.554192 0.000000
1.000000 0.628351 0.406775
1.000000 0.784482 0.705379
1.000000 0.892088 0.862150
1.000000 0.947570 0.932158
0.834684 0.800900 0.723507
0.896818 0.829801 0.680293
1.000000 0.884031 0.493660
1.000000 0.874479 0.261387
1.000000 0.864744 0.406012
1.000000 0.886625 0.722225
1.000000 0.928435 0.871580
1.000000 0.959777 0.936065
0.980896 0.967254 0.938048
0.986664 0.969451 0.931823
1.000000 0.976104 0.908110
1.000000 0.972045 0.835355
1.000000 0.955474 0.742275
1.000000 0.947936 0.727169
1.000000 0.959747 0.886229
1.000000 0.974456 0.945983
0.994446 0.988067 0.975311
0.995575 0.988739 0.974731
0.999542 0.990570 0.971801
1.000000 0.991669 0.965179
1.000000 0.988556 0.947082
1.000000 0.985077 0.935760
1.000000 0.983734 0.934813
1.000000 0.986786 0.961944
0.997559 0.994415 0.988525
0.997742 0.994476 0.988128
0.998810 0.994965 0.987182
1.000000 0.995666 0.985718
1.000000 0.995758 0.983093
1.000000 0.994385 0.978271
1.000000 0.992889 0.973754
1.000000 0.992157 0.972442
0.998718 0.997192 0.994568
0.998810 0.997284 0.994629
0.999115 0.997528 0.994446
0.999725 0.997894 0.994202
1.000000 0.998199 0.993744
1.000000 0.998169 0.992950
1.000000 0.997742 0.992004
1.000000 0.997223 0.990600
0.119051 0.127687 0.129061
0.126101 0.130587 0.127749
0.153109 0.150301 0.147311
1.000000 0.000000 0.416114
1.000000 0.653712 0.757443
1.000000 0.893004 0.898161
1.000000 0.946502 0.940764
1.000000 0.970031 0.962799
0.142153 0.152712 0.159731
0.158724 0.160647 0.160647
0.342962 0.174441 0.233158
1.000000 0.000000 0.465797
1.000000 0.717464 0.767605
1.000000 0.880797 0.881743
1.000000 0.938720 0.931792
1.000000 0.966583 0.958679
0.349065 0.374456 0.409461
0.401221 0.406561 0.397620
0.928496 0.525353 0.283055
1.000000 0.675349 0.516197
1.000000 0.824613 0.760067
1.000000 0.906462 0.879942
1.000000 0.948577 0.933440
1.000000 0.970764 0.960266
0.864866 0.856687 0.844419
0.916533 0.888487 0.830564
1.000000 0.925170 0.749630
1.000000 0.915282 0.646723
1.000000 0.916136 0.734524
1.000000 0.940002 0.876921
1.000000 0.962860 0.936645
1.000000 0.976959 0.962860
0.980591 0.970916 0.951812
0.985626 0.973693 0.949004
1.000000 0.980377 0.937560
1.000000 0.979583 0.907836
1.000000 0.970397 0.867460
1.000000 0.964569 0.858030
1.000000 0.973358 0.933104
1.000000 0.982544 0.964416
0.994171 0.988739 0.978332
0.995178 0.989410 0.978058
0.998566 0.991119 0.975830
1.000000 0.992218 0.970855
1.000000 0.990143 0.959472
1.000000 0.987579 0.951904
1.000000 0.986664 0.951080
1.000000 0.989685 0.972107
0.997559 0.994781 0.989929
0.997711 0.994873 0.989624
0.998596 0.995300 0.988739
1.000000 0.995911 0.987396
1.000000 0.996094 0.985290
1.000000 0.995178 0.982361
1.000000 0.994202 0.979858
1.000000 0.993835 0.979461
0.998627 0.997223 0.994965
0.998688 0.997253 0.994873
0.998993 0.997498 0.994720
0.999573 0.997955 0.994629
1.000000 0.998260 0.994202
1.000000 0.998322 0.993683
1.000000 0.998016 0.993072
1.000000 0.997528 0.991821
0.135439 0.179690 0.229007
0.156710 0.188144 0.230686
0.201144 0.202121 0.205814
0.292821 0.256931 0.289616
1.000000 0.601404 0.803922
1.000000 0.887388 0.916503
1.000000 0.957153 0.956023
1.000000 0.979278 0.974029
0.179812 0.256046 0.339361
0.216342 0.268406 0.334997
0.256352 0.266697 0.280278
0.554467 0.350622 0.475502
1.000000 0.735164 0.852110
1.000000 0.914549 0.928801
1.000000 0.964630 0.961028
1.000000 0.981842 0.976287
0.460761 0.519371 0.596887
0.530785 0.577050 0.645533
0.766445 0.653162 0.719997
1.000000 0.829984 0.861234
1.000000 0.936889 0.933806
1.000000 0.966430 0.958770
1.000000 0.980835 0.973602
1.000000 0.986358 0.980224
0.928435 0.922515 0.917082
0.926543 0.920684 0.915496
0.985595 0.947417 0.895659
1.000000 0.942260 0.851682
1.000000 0.954009 0.908232
1.000000 0.970092 0.948882
1.000000 0.980865 0.968780
1.000000 0.986969 0.978943
0.984039 0.978424 0.970092
0.984192 0.978393 0.969482
0.995727 0.984985 0.964660
1.000000 0.986877 0.957733
1.000000 0.982971 0.944396
1.000000 0.981537 0.947784
1.000000 0.986206 0.969787
1.000000 0.989746 0.980041
0.994690 0.990875 0.984619
0.995666 0.991852 0.985199
0.997711 0.993042 0.983948
1.000000 0.994171 0.982055
1.000000 0.993622 0.978546
1.000000 0.991821 0.973266
1.000000 0.990936 0.971069
1.000000 0.992950 0.982544
0.997436 0.995178 0.991577
0.997528 0.995270 0.991608
0.998260 0.995850 0.991272
0.999573 0.996551 0.990661
1.000000 0.996887 0.989532
1.000000 0.996429 0.988006
1.000000 0.995605 0.985809
1.000000 0.995300 0.985229
0.998810 0.997650 0.995727
0.998810 0.997650 0.995727
0.998871 0.997681 0.995727
0.999390 0.998077 0.995514
1.000000 0.998413 0.995178
1.000000 0.998535 0.994781
1.000000 0.998352 0.994385
1.000000 0.997986 0.993530
0.104036 0.373724 0.563745
0.195865 0.388403 0.562921
0.323644 0.391852 0.487800
0.366705 0.393591 0.432013
0.535790 0.477943 0.558801
1.000000 0.856687 0.918242
1.000000 0.955108 0.961395
1.000000 0.979522 0.976715
0.278691 0.484474 0.670527
0.345159 0.504692 0.671931
0.440070 0.502647 0.600977
0.440589 0.469337 0.517235
0.731563 0.563317 0.676112
1.000000 0.888884 0.930663
1.000000 0.962402 0.965148
1.000000 0.981689 0.978332
0.717556 0.790768 0.864714
0.758968 0.812711 0.871885
0.789425 0.800717 0.830106
0.695277 0.706172 0.738369
1.000000 0.857877 0.903807
1.000000 0.953277 0.957885
1.000000 0.979217 0.975402
1.000000 0.987182 0.982757
0.936614 0.932647 0.928038
0.944305 0.939239 0.933165
0.966247 0.959747 0.951080
1.000000 0.969482 0.957336
1.000000 0.979644 0.970642
1.000000 0.985443 0.978027
1.000000 0.989319 0.983398
1.000000 0.991760 0.987060
0.988800 0.983795 0.976165
0.988922 0.983917 0.976349
0.989563 0.984466 0.976410
1.000000 0.988952 0.973510
1.000000 0.985962 0.964416
1.000000 0.987304 0.972473
1.000000 0.990326 0.981445
1.000000 0.992523 0.986450
0.994568 0.990906 0.985199
0.994598 0.990936 0.985260
0.995087 0.991241 0.984710
0.998962 0.993378 0.983337
1.000000 0.993744 0.981750
1.000000 0.993011 0.979858
1.000000 0.993103 0.981628
1.000000 0.994507 0.987671
0.997711 0.995636 0.992309
0.997681 0.995575 0.992218
0.997650 0.995483 0.992065
0.998627 0.996307 0.991852
1.000000 0.997040 0.991302
1.000000 0.996918 0.990387
1.000000 0.996216 0.988495
1.000000 0.995789 0.987396
0.998840 0.997620 0.995697
0.998810 0.997589 0.995666
0.998840 0.997620 0.995697
0.998962 0.997833 0.996002
0.999664 0.998352 0.995758
1.000000 0.998627 0.995453
1.000000 0.998535 0.995117
1.000000 0.998169 0.994263
0.599084 0.749599 0.886351
0.642878 0.766354 0.887297
0.695033 0.766690 0.860807
0.738857 0.748836 0.779385
0.663996 0.677760 0.714443
0.793301 0.753719 0.791379
1.000000 0.949218 0.961639
1.000000 0.980865 0.979980
0.665583 0.783413 0.894194
0.693294 0.791257 0.891020
0.715694 0.776883 0.860044
0.736507 0.745083 0.773342
0.663600 0.677363 0.714168
0.853483 0.770291 0.817777
1.000000 0.950744 0.962097
1.000000 0.980987 0.979919
0.885618 0.917601 0.946807
0.896666 0.921355 0.945586
0.908232 0.918639 0.933959
0.884001 0.880064 0.880735
0.817929 0.818204 0.829709
0.993957 0.911467 0.931640
1.000000 0.974884 0.975097
1.000000 0.987335 0.984558
0.968444 0.969299 0.967926
0.970672 0.970794 0.968750
0.980163 0.977691 0.973266
0.980224 0.974273 0.965606
0.986999 0.968688 0.964080
1.000000 0.986267 0.982513
1.000000 0.991608 0.988128
1.000000 0.993744 0.990753
0.991211 0.986664 0.979644
0.991577 0.987121 0.980194
0.993011 0.988861 0.982452
0.996094 0.991333 0.984222
1.000000 0.991485 0.984344
1.000000 0.993133 0.987854
1.000000 0.994476 0.990539
1.000000 0.995544 0.992523
0.996490 0.993652 0.989166
0.996643 0.993896 0.989563
0.996643 0.993896 0.989563
0.997284 0.994415 0.989471
1.000000 0.995422 0.989014
1.000000 0.994720 0.986938
1.000000 0.995361 0.989807
1.000000 0.996216 0.992493
0.998291 0.996612 0.993957
0.998322 0.996674 0.994049
0.998322 0.996704 0.994079
0.998352 0.996735 0.994141
0.999298 0.997406 0.993896
1.000000 0.997681 0.993591
1.000000 0.997223 0.992279
1.000000 0.997101 0.992462
0.999054 0.998077 0.996521
0.999054 0.998047 0.996460
0.999023 0.998047 0.996429
0.999054 0.998077 0.996490
0.999145 0.998169 0.996551
0.999969 0.998718 0.996338
1.000000 0.998810 0.996216
1.000000 0.998505 0.995514
0.861631 0.911437 0.955962
0.874723 0.916350 0.955596
0.881315 0.912078 0.947082
0.891203 0.903288 0.925383
0.881865 0.878050 0.879026
0.850614 0.848631 0.854582
0.898955 0.894285 0.892760
1.000000 0.972534 0.974609
0.875456 0.918364 0.957000
0.890929 0.924956 0.957305
0.894896 0.920256 0.949371
0.898436 0.908537 0.927489
0.886015 0.881987 0.882353
0.851469 0.849424 0.855222
0.900877 0.891173 0.891844
1.000000 0.972381 0.974487
0.935271 0.953429 0.968902
0.941039 0.955657 0.968658
0.950134 0.957397 0.965301
0.947478 0.948180 0.951415
0.933867 0.927764 0.921721
0.907347 0.902281 0.899565
0.977630 0.942504 0.945037
1.000000 0.982483 0.981262
0.975616 0.978302 0.979126
0.976776 0.978943 0.979370
0.982330 0.981842 0.979950
0.984070 0.980591 0.975769
0.978424 0.972381 0.963622
0.964446 0.957916 0.949340
0.999756 0.981628 0.978759
1.000000 0.990814 0.988128
0.990478 0.988098 0.983856
0.990753 0.988312 0.984009
0.992187 0.989593 0.985229
0.994324 0.991638 0.987396
0.993744 0.989837 0.983764
0.996857 0.989166 0.984436
1.000000 0.993622 0.990600
1.000000 0.995453 0.993133
0.996765 0.994141 0.989990
0.996887 0.994263 0.990143
0.997162 0.994690 0.990784
0.997528 0.995331 0.991821
0.998108 0.996033 0.992645
0.999847 0.996338 0.993011
1.000000 0.996979 0.994537
1.000000 0.997559 0.995727
0.998413 0.996857 0.994415
0.998444 0.996918 0.994476
0.998535 0.997070 0.994751
0.998657 0.997345 0.995209
0.998718 0.997406 0.995300
0.999847 0.998016 0.995331
1.000000 0.997742 0.994476
1.000000 0.997925 0.995514
0.999176 0.998322 0.996979
0.999207 0.998352 0.997040
0.999268 0.998474 0.997223
0.999298 0.998566 0.997375
0.999298 0.998596 0.997436
0.999512 0.998779 0.997467
1.000000 0.999084 0.997375
1.000000 0.998901 0.996918
0.962341 0.972259 0.980957
0.965911 0.973846 0.980957
0.967651 0.973358 0.979095
0.969482 0.971649 0.974792
0.971099 0.967895 0.964813
0.965545 0.959045 0.950408
0.963745 0.957214 0.948638
0.978759 0.972717 0.963989
0.963836 0.973114 0.981109
0.967285 0.974640 0.981140
0.970367 0.975036 0.979675
0.971466 0.973053 0.975402
0.972503 0.969146 0.965728
0.966827 0.960357 0.951659
0.964385 0.957885 0.949279
0.979095 0.973083 0.964385
0.973632 0.979126 0.983490
0.975677 0.980011 0.983459
0.981079 0.982300 0.983001
0.981872 0.981109 0.980163
0.981445 0.977630 0.972869
0.976562 0.970397 0.961608
0.974029 0.967773 0.958923
0.983856 0.978180 0.969818
0.983307 0.985626 0.986816
0.984466 0.986297 0.987091
0.988098 0.987976 0.987060
0.990967 0.989044 0.986267
0.990539 0.987030 0.982086
0.988312 0.983215 0.975494
0.986328 0.980987 0.972930
0.994354 0.986511 0.981109
0.990936 0.990295 0.988617
0.991302 0.990570 0.988800
0.992340 0.991363 0.989410
0.994568 0.993133 0.990814
0.995636 0.993194 0.989593
0.994965 0.991485 0.986023
0.993500 0.989502 0.983307
0.998901 0.993011 0.989837
0.996246 0.994537 0.991791
0.996307 0.994629 0.991882
0.996582 0.994934 0.992279
0.997131 0.995575 0.993042
0.997742 0.996338 0.994079
0.998047 0.996155 0.993164
0.997559 0.995056 0.991516
0.999939 0.996948 0.995239
0.998505 0.997101 0.994903
0.998505 0.997131 0.994934
0.998596 0.997253 0.995178
0.998749 0.997528 0.995575
0.998932 0.997864 0.996155
0.999145 0.998230 0.996765
0.999786 0.998535 0.997314
1.000000 0.998840 0.997986
0.999207 0.998413 0.997101
0.999237 0.998413 0.997131
0.999268 0.998505 0.997253
0.999359 0.998657 0.997528
0.999420 0.998871 0.997925
0.999542 0.999084 0.998291
0.999756 0.999268 0.998413
1.000000 0.999298 0.998260
