20 Preset/Dark Style/【3】LUT video cho PR-AE-FCPX/19Tones/City Subway 1.cube
# Created by Adobe Lightroom plugin Export LUT (1.24.0)
# www.johnrellis.com/lightroom/exportlut.htm
# Preset: City Subway 1
# Color profile: E:\lut插件\exportlut.1.24\exportlut.lrplugin\color profiles\Rec709gamma2.4.icc
LUT_3D_SIZE 32
DOMAIN_MIN 0.0 0.0 0.0
DOMAIN_MAX 1.0 1.0 1.0
0.031464 0.141634 0.180972
0.029480 0.141665 0.180972
0.027497 0.141726 0.180972
0.027497 0.141726 0.180972
0.040681 0.141665 0.180941
0.087861 0.141360 0.180636
0.125795 0.140719 0.180362
0.169986 0.139254 0.179690
0.221988 0.135500 0.178897
0.283452 0.126406 0.177554
0.354742 0.106905 0.175692
0.436683 0.023896 0.173251
0.527581 0.000000 0.169558
0.623926 0.000000 0.164675
0.720394 0.000000 0.158297
0.812222 0.000000 0.150179
0.894926 0.000000 0.140078
0.966766 0.000000 0.128145
1.000000 0.000000 0.106447
1.000000 0.000000 0.058381
1.000000 0.000000 0.000000
1.000000 0.000000 0.000000
1.000000 0.000000 0.000000
1.000000 0.000000 0.000000
1.000000 0.000000 0.000000
1.000000 0.000000 0.000000
1.000000 0.000000 0.000000
1.000000 0.143008 0.000000
1.000000 0.199252 0.000000
1.000000 0.242771 0.000000
1.000000 0.280186 0.000000
1.000000 0.314397 0.029236
0.031464 0.141634 0.180972
0.031464 0.141634 0.180972
0.027497 0.141726 0.180972
0.027497 0.141726 0.180972
0.040986 0.141665 0.180758
0.084169 0.141482 0.180667
0.120974 0.141176 0.180362
0.163424 0.139956 0.179721
0.212741 0.136995 0.178988
0.271244 0.129427 0.177737
0.339788 0.113100 0.176028
0.418585 0.059174 0.173770
0.506676 0.000000 0.170382
0.600916 0.000000 0.165835
0.696864 0.000000 0.159945
0.789578 0.000000 0.152316
0.875395 0.000000 0.142733
0.949859 0.000000 0.131380
1.000000 0.000000 0.111360
1.000000 0.000000 0.078920
1.000000 0.000000 0.009644
1.000000 0.000000 0.000000
1.000000 0.000000 0.000000
1.000000 0.000000 0.000000
1.000000 0.000000 0.000000
1.000000 0.000000 0.000000
1.000000 0.000000 0.000000
1.000000 0.085817 0.000000
1.000000 0.169986 0.000000
1.000000 0.220920 0.000000
1.000000 0.262242 0.000000
1.000000 0.298833 0.000000
0.032471 0.141390 0.180819
0.030488 0.141451 0.180819
0.030488 0.141451 0.180819
0.028504 0.141482 0.180819
0.037018 0.141756 0.180758
0.078523 0.142153 0.180453
0.115175 0.142580 0.180117
0.156161 0.142092 0.179477
0.204105 0.139681 0.178775
0.260960 0.133516 0.177554
0.327428 0.120027 0.176089
0.404242 0.089570 0.173739
0.490028 0.000000 0.170687
0.582635 0.000000 0.166537
0.677852 0.000000 0.160952
0.770871 0.000000 0.153658
0.858305 0.000000 0.144381
0.935668 0.000000 0.133211
1.000000 0.000000 0.113863
1.000000 0.000000 0.086366
1.000000 0.000000 0.022705
1.000000 0.000000 0.000000
1.000000 0.000000 0.000000
1.000000 0.000000 0.000000
1.000000 0.000000 0.000000
1.000000 0.000000 0.000000
1.000000 0.000000 0.000000
1.000000 0.052216 0.000000
1.000000 0.162844 0.000000
1.000000 0.216129 0.000000
1.000000 0.257908 0.000000
1.000000 0.294652 0.000000
0.032105 0.141207 0.180362
0.032105 0.141207 0.180362
0.030121 0.141238 0.180362
0.030396 0.141238 0.180179
0.035920 0.141787 0.180270
0.071260 0.143008 0.180056
0.109407 0.144167 0.179721
0.148348 0.144808 0.179171
0.195132 0.143557 0.178439
0.250309 0.139284 0.177218
0.314946 0.128847 0.175753
0.389471 0.106233 0.173617
0.472755 0.007996 0.170840
0.563134 0.000000 0.166903
0.656275 0.000000 0.161532
0.747951 0.000000 0.154849
0.835416 0.000000 0.146273
0.913634 0.000000 0.135958
1.000000 0.000000 0.117983
1.000000 0.000000 0.095216
1.000000 0.000000 0.047608
1.000000 0.000000 0.000000
1.000000 0.000000 0.000000
1.000000 0.000000 0.000000
1.000000 0.000000 0.000000
1.000000 0.000000 0.000000
1.000000 0.000000 0.000000
1.000000 0.101137 0.000000
1.000000 0.178225 0.000000
1.000000 0.227146 0.000000
1.000000 0.265599 0.000000
1.000000 0.299321 0.000000
0.026764 0.141970 0.180941
0.026764 0.141970 0.180941
0.027680 0.141970 0.180453
0.030365 0.141695 0.180484
0.031769 0.141634 0.180789
0.050507 0.143008 0.180301
0.098787 0.146426 0.179416
0.134768 0.148196 0.178836
0.179110 0.148684 0.178225
0.231510 0.146761 0.177188
0.292973 0.140169 0.175753
0.364477 0.125643 0.173922
0.445258 0.093233 0.171237
0.534112 0.000000 0.167636
0.627192 0.000000 0.162783
0.721706 0.000000 0.156344
0.812802 0.000000 0.148104
0.899260 0.000000 0.137179
0.993713 0.000000 0.119295
1.000000 0.000000 0.098573
1.000000 0.000000 0.061006
1.000000 0.000000 0.008728
1.000000 0.000000 0.000000
1.000000 0.000000 0.000000
1.000000 0.000000 0.000000
1.000000 0.000000 0.000000
1.000000 0.000000 0.000000
1.000000 0.147402 0.000000
1.000000 0.203128 0.000000
1.000000 0.244327 0.000000
1.000000 0.279149 0.000000
1.000000 0.310246 0.000000
0.006897 0.145968 0.184726
0.006897 0.145968 0.184726
0.009003 0.145968 0.183627
0.016999 0.145663 0.181888
0.035523 0.144137 0.182467
0.035431 0.144076 0.183566
0.064088 0.146944 0.183047
0.120363 0.152316 0.179873
0.166140 0.155673 0.178531
0.217563 0.155825 0.177401
0.277989 0.152377 0.176059
0.348638 0.142977 0.174289
0.428748 0.122927 0.171695
0.517113 0.061891 0.168276
0.611170 0.000000 0.163577
0.706874 0.000000 0.157229
0.800351 0.000000 0.149142
0.900603 0.000000 0.136324
0.991791 0.000000 0.119020
1.000000 0.000000 0.098604
1.000000 0.000000 0.064424
1.000000 0.000000 0.013397
1.000000 0.142031 0.000000
1.000000 0.196658 0.000000
1.000000 0.234379 0.000000
1.000000 0.264286 0.010895
1.000000 0.290410 0.047547
1.000000 0.313695 0.084779
1.000000 0.336339 0.105348
1.000000 0.357824 0.121950
1.000000 0.378424 0.139376
1.000000 0.397681 0.155886
0.000000 0.159579 0.199374
0.000000 0.159762 0.199222
0.000000 0.160342 0.197879
0.000000 0.159792 0.193149
0.000000 0.158480 0.187472
0.055268 0.153384 0.190555
0.056001 0.153628 0.194369
0.086885 0.158877 0.196353
0.156893 0.167086 0.186282
0.225071 0.173190 0.179355
0.292851 0.172152 0.177737
0.371954 0.165713 0.175509
0.458900 0.150454 0.172427
0.552331 0.119326 0.168368
0.648127 0.000000 0.162692
0.742672 0.000000 0.155550
0.835538 0.000000 0.145907
0.948882 0.000000 0.128634
1.000000 0.000000 0.109010
1.000000 0.000000 0.083589
1.000000 0.000000 0.030030
1.000000 0.000000 0.000000
1.000000 0.160494 0.000000
1.000000 0.219089 0.000000
1.000000 0.259678 0.007355
1.000000 0.289830 0.041749
1.000000 0.313207 0.078767
1.000000 0.333806 0.097444
1.000000 0.353429 0.112703
1.000000 0.371618 0.127626
1.000000 0.389960 0.142458
1.000000 0.407813 0.158145
0.000000 0.174228 0.217014
0.000000 0.174594 0.216831
0.000000 0.176883 0.216251
0.000000 0.178134 0.212680
0.000000 0.177066 0.203708
0.000000 0.174685 0.195804
0.085115 0.166415 0.202457
0.087160 0.166812 0.208591
0.095827 0.173220 0.215366
0.178897 0.184878 0.201450
0.261173 0.192416 0.187839
0.341375 0.194034 0.181674
0.426184 0.188388 0.178561
0.517693 0.175265 0.174685
0.612665 0.151675 0.169467
0.707332 0.111055 0.162722
0.825559 0.000000 0.151339
0.928099 0.000000 0.136721
1.000000 0.000000 0.120424
1.000000 0.000000 0.101534
1.000000 0.120180 0.078279
1.000000 0.183536 0.041505
1.000000 0.232334 0.025483
1.000000 0.271366 0.036378
1.000000 0.302312 0.063508
1.000000 0.326390 0.090059
1.000000 0.345800 0.103212
1.000000 0.362737 0.115419
1.000000 0.379553 0.129366
1.000000 0.395605 0.142550
1.000000 0.411597 0.156558
1.000000 0.427497 0.170565
0.000000 0.193484 0.241428
0.000000 0.194095 0.241276
0.000000 0.196506 0.240604
0.000000 0.201755 0.239536
0.000000 0.203616 0.231937
0.000000 0.201358 0.218540
0.000000 0.197665 0.209201
0.109957 0.185977 0.219669
0.112978 0.186648 0.228855
0.122621 0.194217 0.236118
0.205509 0.211856 0.226993
0.302403 0.221469 0.206882
0.396612 0.226230 0.188724
0.488106 0.222782 0.184573
0.583246 0.213657 0.179385
0.699886 0.204471 0.171725
0.814328 0.195773 0.161013
0.910765 0.191653 0.148165
0.990173 0.196994 0.133791
1.000000 0.213230 0.118502
1.000000 0.239109 0.104189
1.000000 0.269688 0.093202
1.000000 0.300420 0.089845
1.000000 0.328496 0.096101
1.000000 0.352026 0.107515
1.000000 0.370459 0.119387
1.000000 0.386053 0.130098
1.000000 0.399847 0.141573
1.000000 0.413550 0.153353
1.000000 0.426856 0.165072
1.000000 0.440375 0.178042
1.000000 0.454078 0.190982
0.000000 0.217227 0.272099
0.000000 0.217899 0.271672
0.000000 0.220432 0.270787
0.000000 0.226200 0.269383
0.000000 0.235599 0.266819
0.000000 0.235447 0.253117
0.000000 0.231876 0.235630
0.000000 0.226627 0.225986
0.140505 0.211246 0.240787
0.145571 0.211978 0.252934
0.159548 0.223148 0.263035
0.232364 0.245029 0.260319
0.342168 0.257542 0.233463
0.446845 0.264134 0.207248
0.566522 0.273594 0.193423
0.683772 0.277073 0.185763
0.795590 0.280583 0.175662
0.892882 0.285832 0.163333
0.973693 0.294499 0.151125
1.000000 0.307195 0.138582
1.000000 0.323308 0.128664
1.000000 0.341131 0.122896
1.000000 0.360327 0.121065
1.000000 0.377905 0.125032
1.000000 0.393744 0.131930
1.000000 0.406836 0.140200
1.000000 0.419379 0.149996
1.000000 0.431220 0.159823
1.000000 0.443397 0.171511
1.000000 0.455940 0.184390
1.000000 0.468513 0.197574
1.000000 0.481636 0.212222
0.000000 0.242954 0.304417
0.000000 0.243717 0.304204
0.000000 0.246677 0.303502
0.000000 0.253086 0.302342
0.000000 0.263706 0.300206
0.000000 0.277501 0.296483
0.000000 0.274632 0.276280
0.000000 0.270848 0.256199
0.049470 0.263798 0.248569
0.181338 0.244816 0.267582
0.188327 0.246403 0.283391
0.207828 0.262394 0.296941
0.274815 0.295293 0.309636
0.414008 0.319097 0.277226
0.543572 0.333623 0.242435
0.660761 0.344152 0.205264
0.770657 0.352850 0.195560
0.867979 0.361486 0.184207
0.949310 0.370367 0.173373
1.000000 0.380529 0.163577
1.000000 0.392004 0.156619
1.000000 0.404944 0.152773
1.000000 0.419043 0.152926
1.000000 0.432166 0.157168
1.000000 0.444099 0.164218
1.000000 0.454383 0.172305
1.000000 0.463783 0.181064
1.000000 0.472999 0.190738
1.000000 0.482795 0.201846
1.000000 0.493233 0.214420
1.000000 0.504051 0.227726
1.000000 0.515343 0.241794
0.000000 0.278660 0.346899
0.000000 0.279393 0.346838
0.000000 0.282841 0.346227
0.000000 0.289830 0.345098
0.000000 0.301457 0.343023
0.000000 0.317693 0.340337
0.000000 0.330419 0.330388
0.000000 0.327459 0.305882
0.000000 0.323003 0.282780
0.131106 0.312871 0.278538
0.238956 0.293828 0.304479
0.257084 0.303227 0.330816
0.379889 0.406012 0.415290
0.451362 0.466072 0.466773
0.628199 0.497475 0.407111
0.766323 0.511589 0.343023
0.869017 0.517235 0.276677
0.949279 0.522301 0.239139
1.000000 0.528191 0.235050
1.000000 0.533288 0.233982
1.000000 0.538048 0.235874
1.000000 0.542321 0.240665
1.000000 0.545983 0.247410
1.000000 0.549371 0.254734
1.000000 0.552331 0.262425
1.000000 0.554437 0.269383
1.000000 0.556359 0.275883
1.000000 0.558434 0.281682
1.000000 0.561242 0.288487
1.000000 0.565484 0.296788
1.000000 0.570977 0.306615
1.000000 0.578058 0.318669
0.000000 0.345495 0.423621
0.000000 0.346166 0.423102
0.000000 0.349157 0.421393
0.000000 0.356146 0.418616
0.000000 0.367498 0.414527
0.000000 0.383948 0.409400
0.000000 0.405798 0.403601
0.000000 0.415534 0.384588
0.000000 0.421149 0.359045
0.000000 0.426062 0.336675
0.235386 0.423499 0.342840
0.368475 0.406592 0.386358
0.401526 0.424231 0.430671
0.462165 0.475135 0.474830
0.527062 0.529503 0.525353
0.684810 0.571893 0.491646
0.810910 0.579492 0.417578
0.901488 0.578088 0.345342
0.969635 0.574578 0.272831
1.000000 0.577142 0.269444
1.000000 0.579583 0.269444
1.000000 0.582238 0.272587
1.000000 0.584375 0.277470
1.000000 0.586572 0.283848
1.000000 0.588159 0.290532
1.000000 0.589532 0.297337
1.000000 0.590875 0.304021
1.000000 0.592615 0.310918
1.000000 0.595087 0.318608
1.000000 0.599084 0.328222
1.000000 0.603937 0.338903
1.000000 0.610224 0.351843
0.000000 0.404181 0.489509
0.000000 0.404578 0.488746
0.000000 0.408057 0.486915
0.000000 0.415930 0.485176
0.000000 0.428840 0.482704
0.000000 0.448402 0.479316
0.000000 0.473823 0.476295
0.000000 0.505699 0.473365
0.000000 0.509361 0.443549
0.000000 0.511925 0.410590
0.000000 0.514519 0.385748
0.338415 0.505943 0.399908
0.461982 0.484718 0.449439
0.492622 0.500633 0.498024
0.550835 0.549310 0.545006
0.601343 0.591333 0.589532
0.728908 0.636744 0.584375
0.842405 0.638453 0.501122
0.925292 0.633234 0.423255
0.987152 0.625727 0.347723
1.000000 0.622827 0.308965
1.000000 0.624659 0.311254
1.000000 0.625971 0.315160
1.000000 0.627344 0.321447
1.000000 0.628229 0.327977
1.000000 0.628748 0.334386
1.000000 0.629236 0.341375
1.000000 0.629938 0.348028
1.000000 0.631708 0.356390
1.000000 0.634852 0.366674
1.000000 0.639094 0.378088
1.000000 0.644709 0.392035
0.000000 0.484565 0.580499
0.000000 0.485237 0.579736
0.000000 0.487739 0.576898
0.000000 0.493599 0.572839
0.000000 0.504082 0.567285
0.000000 0.519768 0.560815
0.000000 0.541924 0.555077
0.000000 0.570428 0.549828
0.000000 0.593866 0.536736
0.000000 0.594873 0.500053
0.000000 0.596674 0.463386
0.095460 0.597650 0.440070
0.447517 0.582483 0.464302
0.552270 0.558343 0.516899
0.577203 0.571221 0.567742
0.628595 0.613947 0.615106
0.672511 0.650599 0.658839
0.763455 0.693111 0.678859
0.866545 0.693263 0.595300
0.942718 0.685298 0.511376
1.000000 0.675593 0.432929
1.000000 0.666865 0.357916
1.000000 0.667262 0.358190
1.000000 0.667536 0.363287
1.000000 0.667414 0.369146
1.000000 0.667292 0.375982
1.000000 0.667506 0.383124
1.000000 0.668421 0.392065
1.000000 0.670558 0.402777
1.000000 0.674372 0.416388
1.000000 0.679683 0.432685
1.000000 0.686397 0.451453
0.000000 0.554345 0.660670
0.000000 0.555566 0.660945
0.000000 0.558770 0.659358
0.000000 0.565576 0.656672
0.000000 0.576349 0.652522
0.000000 0.592615 0.648280
0.000000 0.614343 0.644678
0.000000 0.641962 0.641657
0.000000 0.673426 0.639582
0.000000 0.685328 0.614343
0.000000 0.684535 0.572107
0.000000 0.681056 0.529595
0.317601 0.673548 0.505119
0.549950 0.648005 0.533501
0.627771 0.618494 0.582635
0.642878 0.625849 0.629053
0.686030 0.661860 0.672786
0.724392 0.693996 0.713649
0.788479 0.735866 0.755795
0.880827 0.737514 0.682033
0.951690 0.731472 0.604547
1.000000 0.722194 0.525719
1.000000 0.712520 0.449897
1.000000 0.707485 0.411475
1.000000 0.707668 0.418677
1.000000 0.707698 0.426856
1.000000 0.707942 0.435950
1.000000 0.708736 0.446204
1.000000 0.710231 0.457771
1.000000 0.712978 0.471412
1.000000 0.716701 0.486885
1.000000 0.721859 0.505058
0.000000 0.613062 0.729549
0.000000 0.613794 0.729244
0.000000 0.616999 0.728084
0.000000 0.623285 0.726009
0.000000 0.633417 0.723232
0.000000 0.648005 0.719936
0.000000 0.667353 0.716640
0.000000 0.691279 0.713649
0.000000 0.718471 0.711025
0.000000 0.746670 0.707820
0.000000 0.744839 0.667475
0.000000 0.741146 0.622675
0.000000 0.734310 0.581445
0.453346 0.723140 0.564233
0.632868 0.694881 0.599573
0.689235 0.667384 0.645777
0.701320 0.674647 0.688838
0.739498 0.706722 0.730159
0.773892 0.735988 0.768612
0.818204 0.774350 0.818845
0.895445 0.779782 0.765560
0.957671 0.775570 0.699733
1.000000 0.767361 0.628717
1.000000 0.756832 0.553307
1.000000 0.745876 0.478065
1.000000 0.745174 0.480903
1.000000 0.745571 0.491829
1.000000 0.746395 0.503868
1.000000 0.748013 0.517601
1.000000 0.750607 0.533165
1.000000 0.754177 0.550652
1.000000 0.758907 0.570184
0.000000 0.670436 0.796841
0.000000 0.672053 0.797574
0.000000 0.726253 0.856382
0.000000 0.732021 0.855009
0.000000 0.741024 0.852873
0.000000 0.753384 0.849882
0.000000 0.769650 0.846281
0.000000 0.789029 0.842771
0.000000 0.811124 0.839628
0.000000 0.834531 0.836759
0.000000 0.848173 0.823545
0.000000 0.841886 0.785336
0.000000 0.832059 0.742489
0.442481 0.818875 0.707057
0.639826 0.803342 0.698177
0.756069 0.775875 0.727138
0.789517 0.750729 0.760159
0.794522 0.753689 0.791958
0.821073 0.776883 0.822141
0.845212 0.798398 0.849210
0.872282 0.823178 0.878508
0.920623 0.833799 0.859892
0.965209 0.829191 0.811826
1.000000 0.820188 0.753445
1.000000 0.808011 0.685023
1.000000 0.794583 0.610071
1.000000 0.785306 0.564233
1.000000 0.783993 0.572107
1.000000 0.784176 0.583734
1.000000 0.785641 0.598108
1.000000 0.788418 0.615290
1.000000 0.792172 0.633814
0.000000 0.732967 0.865965
0.000000 0.737819 0.870298
0.000000 0.744869 0.874357
0.000000 0.753658 0.877379
0.000000 0.764584 0.878660
0.000000 0.776638 0.877531
0.000000 0.791104 0.874907
0.000000 0.807706 0.871489
0.000000 0.826780 0.868254
0.000000 0.847196 0.865019
0.000000 0.867369 0.861936
0.000000 0.866972 0.836973
0.000000 0.858274 0.799680
0.251255 0.846983 0.762142
0.549187 0.833463 0.735073
0.697902 0.817533 0.732845
0.791684 0.793118 0.763973
0.815824 0.772519 0.794400
0.823178 0.778714 0.824521
0.848295 0.801144 0.852598
0.870756 0.821744 0.876890
0.892027 0.842222 0.899199
0.928374 0.858091 0.898497
0.963806 0.855070 0.864408
0.996155 0.847532 0.820340
1.000000 0.837217 0.765805
1.000000 0.825528 0.703151
1.000000 0.813321 0.634485
1.000000 0.811582 0.634333
1.000000 0.812711 0.648585
1.000000 0.815152 0.665766
1.000000 0.818509 0.684535
0.000000 0.763882 0.894377
0.000000 0.768521 0.897948
0.000000 0.774929 0.901396
0.000000 0.782864 0.904021
0.000000 0.792477 0.905180
0.000000 0.803250 0.904417
0.000000 0.815976 0.902281
0.000000 0.830472 0.899474
0.000000 0.846830 0.896513
0.000000 0.864439 0.893339
0.000000 0.882231 0.890196
0.000000 0.893156 0.881773
0.000000 0.885374 0.853056
0.000000 0.875334 0.820584
0.461402 0.863493 0.790463
0.644373 0.850645 0.772580
0.760189 0.834653 0.779263
0.828946 0.814420 0.806180
0.845029 0.797726 0.832334
0.853452 0.805783 0.858244
0.874998 0.825772 0.881407
0.894255 0.844388 0.901457
0.910369 0.861082 0.917998
0.936400 0.878660 0.925719
0.963836 0.876646 0.901610
0.989990 0.870787 0.870451
1.000000 0.862486 0.830991
1.000000 0.852964 0.783352
1.000000 0.843290 0.730526
1.000000 0.837247 0.697200
1.000000 0.839231 0.713558
1.000000 0.842039 0.731136
0.000000 0.794675 0.918700
0.000000 0.798123 0.921324
0.000000 0.803494 0.923674
0.000000 0.810178 0.925383
0.000000 0.818296 0.926085
0.000000 0.827634 0.925322
0.000000 0.838651 0.923644
0.000000 0.851377 0.921324
0.000000 0.865873 0.918822
0.000000 0.881193 0.916075
0.000000 0.896757 0.913298
0.000000 0.911040 0.910430
0.000000 0.908995 0.893278
0.000000 0.899809 0.867857
0.369696 0.889250 0.841550
0.592096 0.878019 0.819821
0.725368 0.867216 0.812375
0.815671 0.853513 0.826535
0.866514 0.839445 0.851286
0.878965 0.828824 0.874571
0.889616 0.839811 0.896666
0.907927 0.858488 0.915496
0.922759 0.874815 0.930541
0.934997 0.889403 0.942687
0.950744 0.905486 0.952239
0.969299 0.904997 0.938384
0.987366 0.901701 0.921416
1.000000 0.896696 0.900694
1.000000 0.890837 0.876310
1.000000 0.884520 0.847929
1.000000 0.878080 0.815518
1.000000 0.878569 0.819150
0.000000 0.839200 0.950072
0.000000 0.840665 0.950713
0.000000 0.843015 0.950988
0.000000 0.846921 0.950744
0.000000 0.852445 0.949981
0.000000 0.859342 0.948608
0.000000 0.868132 0.946807
0.000000 0.878874 0.944732
0.000000 0.891051 0.942565
0.000000 0.904173 0.940307
0.000000 0.917144 0.937987
0.000000 0.929107 0.935515
0.000000 0.934997 0.929656
0.000000 0.926116 0.911559
0.357275 0.916075 0.891844
0.580194 0.905760 0.873136
0.712306 0.895781 0.860472
0.803677 0.886595 0.859861
0.865782 0.874693 0.873136
0.898894 0.863706 0.890318
0.905241 0.854948 0.906188
0.913634 0.864683 0.921355
0.926299 0.878935 0.934081
0.936706 0.891508 0.944366
0.945892 0.903319 0.953246
0.956817 0.918303 0.963165
0.971466 0.918578 0.953155
0.985992 0.916777 0.941619
1.000000 0.913787 0.928344
1.000000 0.910002 0.913146
1.000000 0.905699 0.895842
1.000000 0.900999 0.875914
0.000000 0.862028 0.961822
0.000000 0.863005 0.962219
0.000000 0.865171 0.962402
0.000000 0.868528 0.962188
0.000000 0.873259 0.961578
0.000000 0.879423 0.960510
0.000000 0.887358 0.959014
0.000000 0.896574 0.957305
0.000000 0.907012 0.955505
0.000000 0.918273 0.953521
0.000000 0.929442 0.951446
0.000000 0.939635 0.949279
0.000000 0.948241 0.946929
0.000000 0.942901 0.935485
0.328649 0.933623 0.920348
0.561730 0.924224 0.905455
0.697078 0.915221 0.893400
0.790127 0.907103 0.887785
0.854368 0.900114 0.891234
0.899016 0.890471 0.904051
0.921141 0.882567 0.917021
0.924498 0.876249 0.928832
0.932189 0.885985 0.939940
0.941680 0.897826 0.949218
0.945495 0.902831 0.952880
0.953002 0.913115 0.959991
0.961700 0.926055 0.968078
0.973419 0.928740 0.962676
0.985534 0.928038 0.954376
0.997650 0.926360 0.945190
1.000000 0.924193 0.935332
1.000000 0.921630 0.924559
0.000000 0.889403 0.974670
0.000000 0.890684 0.975158
0.000000 0.892332 0.975219
0.000000 0.894774 0.974731
0.000000 0.898100 0.973785
0.000000 0.902617 0.972442
0.000000 0.908293 0.970733
0.000000 0.915190 0.968750
0.000000 0.923217 0.966552
0.000000 0.931945 0.964294
0.000000 0.940551 0.961822
0.000000 0.948760 0.959350
0.000000 0.955657 0.956786
0.000000 0.955291 0.950408
0.261570 0.946075 0.937499
0.523430 0.936645 0.923980
0.664363 0.927550 0.911650
0.762570 0.919432 0.903258
0.833677 0.912627 0.901762
0.882933 0.906432 0.907927
0.916930 0.898924 0.919951
0.932799 0.892790 0.930724
0.933745 0.887510 0.940185
0.941192 0.897185 0.948730
0.948394 0.906737 0.955657
0.954406 0.915190 0.961334
0.960174 0.923735 0.966674
0.966735 0.934112 0.972625
0.975860 0.938201 0.970275
0.985962 0.938048 0.963958
0.996094 0.937163 0.957366
1.000000 0.936217 0.950805
0.000000 0.904326 0.979339
0.000000 0.905394 0.979736
0.000000 0.906981 0.979828
0.000000 0.909270 0.979553
0.000000 0.912596 0.978973
0.000000 0.916960 0.978119
0.000000 0.922545 0.977020
0.000000 0.929320 0.975708
0.000000 0.936797 0.974243
0.000000 0.944549 0.972625
0.000000 0.952087 0.970794
0.000000 0.958892 0.968841
0.000000 0.964446 0.966735
0.000000 0.968048 0.964202
0.330144 0.959289 0.954376
0.546166 0.950500 0.944030
0.674647 0.942077 0.934142
0.765499 0.934600 0.926421
0.832334 0.928374 0.922759
0.880613 0.923583 0.924468
0.914458 0.918364 0.930999
0.936675 0.912840 0.939544
0.946868 0.908202 0.947204
0.946746 0.904509 0.954070
0.953277 0.913573 0.960296
0.958770 0.921599 0.965393
0.963470 0.928801 0.969665
0.967987 0.936126 0.973724
0.972992 0.944671 0.978119
0.979828 0.949767 0.977905
0.987854 0.950317 0.973632
0.995941 0.950408 0.969421
0.000000 0.922820 0.985321
0.000000 0.923369 0.985443
0.000000 0.924468 0.985382
0.000000 0.926329 0.985077
0.000000 0.929076 0.984497
0.000000 0.932769 0.983734
0.000000 0.937469 0.982727
0.000000 0.942962 0.981537
0.000000 0.949065 0.980163
0.000000 0.955413 0.978668
0.000000 0.961578 0.976989
0.000000 0.967102 0.975219
0.000000 0.971466 0.973358
0.000000 0.974731 0.971405
0.366583 0.969146 0.964996
0.560540 0.960815 0.956634
0.680201 0.952972 0.948577
0.766445 0.945983 0.941802
0.830076 0.940215 0.937560
0.876677 0.935760 0.936919
0.910552 0.932464 0.940185
0.934508 0.927794 0.945953
0.949645 0.923369 0.952178
0.956115 0.919463 0.957824
0.956146 0.917693 0.962951
0.960998 0.925017 0.967437
0.965240 0.931701 0.971283
0.968933 0.937713 0.974578
0.972625 0.944060 0.977813
0.976837 0.951629 0.981445
0.982452 0.957580 0.982483
0.989227 0.958587 0.979278
0.000000 0.937896 0.989136
0.000000 0.938293 0.989227
0.000000 0.939300 0.989166
0.000000 0.941009 0.988952
0.000000 0.943603 0.988586
0.000000 0.947143 0.988098
0.000000 0.951781 0.987610
0.000000 0.957122 0.986969
0.000000 0.962860 0.986236
0.000000 0.968444 0.985412
0.000000 0.973419 0.984436
0.000000 0.977386 0.983276
0.000000 0.980316 0.982025
0.364416 0.982391 0.980713
0.556359 0.979980 0.977600
0.676448 0.972839 0.972137
0.759701 0.966552 0.967010
0.820554 0.961212 0.962676
0.865599 0.957031 0.959747
0.899351 0.953857 0.958587
0.924895 0.951476 0.959411
0.943359 0.949401 0.961822
0.957855 0.945983 0.965698
0.966430 0.942901 0.969238
0.969848 0.940002 0.972534
0.970031 0.939605 0.975555
0.973083 0.944823 0.978210
0.975799 0.949737 0.980560
0.978271 0.954284 0.982635
0.980804 0.959136 0.984771
0.983673 0.964752 0.987121
0.987396 0.970062 0.988495
0.000000 0.958801 0.995270
0.000000 0.958953 0.995239
0.000000 0.959564 0.995087
0.000000 0.960693 0.994812
0.000000 0.962554 0.994385
0.000000 0.965026 0.993774
0.000000 0.968078 0.993042
0.000000 0.971649 0.992157
0.000000 0.975341 0.991150
0.000000 0.978820 0.989990
0.000000 0.981781 0.988708
0.000000 0.984161 0.987335
0.000000 0.985901 0.985931
0.435401 0.987182 0.984558
