20 Preset/Dark Style/【3】LUT video cho PR-AE-FCPX/19Tones/City Subway 2.cube
# Created by Adobe Lightroom plugin Export LUT (1.24.0)
# www.johnrellis.com/lightroom/exportlut.htm
# Preset: City Subway 2
# Color profile: E:\lut插件\exportlut.1.24\exportlut.lrplugin\color profiles\Rec709gamma2.4.icc
LUT_3D_SIZE 8
DOMAIN_MIN 0.000000 0.000000 0.000000
DOMAIN_MAX 0.903226 0.903226 0.903226
0.118868 0.113588 0.106447
0.114870 0.113741 0.106508
0.110414 0.113619 0.106294
0.129732 0.110628 0.104585
0.189456 0.098543 0.102358
0.314427 0.000000 0.099580
0.684504 0.000000 0.084718
1.000000 0.000000 0.000000
0.115633 0.110903 0.104219
0.115389 0.110628 0.103914
0.112459 0.110323 0.104372
0.126345 0.110201 0.103334
0.176120 0.103090 0.101595
0.283268 0.028901 0.100099
0.568414 0.000000 0.092103
1.000000 0.000000 0.003326
0.115633 0.110903 0.104219
0.116426 0.111116 0.104494
0.117037 0.112276 0.105348
0.122774 0.114321 0.105562
0.184451 0.121370 0.104128
0.348333 0.078981 0.102876
0.727260 0.000000 0.089723
1.000000 0.000000 0.000000
0.158846 0.150027 0.140139
0.157839 0.149355 0.139345
0.161746 0.153079 0.143008
0.175845 0.166476 0.156588
0.191409 0.180636 0.160952
0.360357 0.232944 0.170260
0.753140 0.282017 0.139742
1.000000 0.303868 0.000000
0.247990 0.239750 0.236515
0.247379 0.239292 0.235904
0.253666 0.245914 0.243656
0.272465 0.266514 0.267765
0.268772 0.262516 0.263035
0.268864 0.266209 0.251926
0.443336 0.357519 0.319432
0.959869 0.606561 0.367590
0.440009 0.455726 0.484321
0.467720 0.485298 0.515770
0.472480 0.490333 0.520989
0.482765 0.500999 0.532067
0.489784 0.508324 0.539574
0.443366 0.459358 0.488258
0.454841 0.481239 0.485084
0.711116 0.660029 0.608331
0.786709 0.789609 0.800412
0.794278 0.796506 0.806394
0.789456 0.792111 0.802579
0.788602 0.791348 0.801907
0.775082 0.779019 0.791257
0.733913 0.741543 0.758602
0.640345 0.655268 0.681392
0.691615 0.717617 0.701106
0.968658 0.961242 0.954376
0.968444 0.961089 0.954192
0.969024 0.961669 0.954772
0.970916 0.963653 0.956756
0.950408 0.942840 0.936400
0.938933 0.931548 0.925780
0.915282 0.908812 0.904906
0.851377 0.848875 0.851774
0.114473 0.110140 0.102571
0.114137 0.109865 0.102632
0.113985 0.109255 0.102724
0.114504 0.109804 0.103334
0.137850 0.109926 0.109804
0.232975 0.084627 0.121431
0.481209 0.000000 0.134554
0.907774 0.000000 0.126192
0.114351 0.109529 0.102663
0.113924 0.109255 0.103090
0.113924 0.109255 0.103090
0.115633 0.110903 0.104219
0.142458 0.110109 0.110933
0.240177 0.082948 0.121462
0.458442 0.000000 0.129061
0.836179 0.000000 0.115084
0.115389 0.111513 0.105806
0.115999 0.112062 0.106050
0.119203 0.114687 0.108309
0.125673 0.119905 0.112184
0.178256 0.113832 0.117006
0.289891 0.063569 0.120119
0.524743 0.000000 0.117708
0.953216 0.000000 0.100343
0.150027 0.142123 0.132692
0.150607 0.142275 0.132662
0.156039 0.147524 0.137789
0.167422 0.158297 0.148409
0.172061 0.163302 0.150698
0.290135 0.195590 0.155886
0.559686 0.161288 0.150301
0.975647 0.000000 0.114839
0.247745 0.239658 0.236301
0.244999 0.236728 0.233066
0.246616 0.238437 0.234928
0.256626 0.249149 0.247440
0.265782 0.259068 0.259037
0.251347 0.246067 0.237430
0.405951 0.328435 0.294041
0.893431 0.545678 0.331792
0.417121 0.430549 0.456916
0.419898 0.433692 0.460304
0.427619 0.442176 0.469612
0.446296 0.462531 0.491646
0.464881 0.482246 0.512566
0.459846 0.476967 0.507012
0.439796 0.463478 0.475471
0.670527 0.625971 0.584894
0.743435 0.750210 0.766171
0.733669 0.741360 0.758419
0.727169 0.735409 0.753170
0.735622 0.743069 0.759945
0.743740 0.750515 0.766445
0.722621 0.731228 0.749508
0.618647 0.634821 0.662531
0.629877 0.659449 0.652338
0.959045 0.951446 0.944671
0.961212 0.953674 0.946868
0.961456 0.953918 0.947112
0.964172 0.956695 0.949798
0.964508 0.956970 0.950134
0.950866 0.943267 0.936828
0.920562 0.913848 0.909483
0.856413 0.853574 0.855863
0.119081 0.116030 0.130495
0.120974 0.117281 0.131075
0.129000 0.121187 0.130465
0.138003 0.127932 0.127352
0.149111 0.141115 0.131624
0.167880 0.158816 0.148959
0.221134 0.211582 0.204501
0.514153 0.195163 0.344518
0.120333 0.120485 0.138735
0.122103 0.121431 0.138582
0.130892 0.124788 0.137118
0.140993 0.130922 0.132998
0.154299 0.146090 0.136141
0.167910 0.158816 0.148745
0.214633 0.204868 0.197147
0.499275 0.180148 0.325292
0.116487 0.135164 0.162509
0.117800 0.137057 0.165042
0.133944 0.144045 0.171908
0.162325 0.156802 0.177005
0.188632 0.175875 0.174594
0.197391 0.187503 0.178408
0.247135 0.239017 0.235630
0.629938 0.154421 0.383490
0.150576 0.175570 0.208591
0.153170 0.179324 0.214603
0.161593 0.187106 0.223514
0.181369 0.206149 0.245670
0.225223 0.236118 0.275914
0.273136 0.267430 0.268742
0.324529 0.325444 0.336919
0.910307 0.000000 0.464393
0.232090 0.255711 0.289311
0.234165 0.257023 0.290105
0.245518 0.267552 0.299992
0.274846 0.296330 0.329717
0.320012 0.338750 0.369726
0.370886 0.384283 0.410376
0.569177 0.449378 0.456184
1.000000 0.531548 0.507591
0.502708 0.527764 0.564843
0.511986 0.536431 0.572473
0.532830 0.553155 0.585992
0.555047 0.573724 0.604639
0.578088 0.596155 0.626184
0.624384 0.640223 0.667567
0.603845 0.620813 0.649470
0.770962 0.738064 0.721492
0.847318 0.845121 0.848478
0.841581 0.839811 0.843870
0.831357 0.830411 0.835691
0.830747 0.829831 0.835203
0.834470 0.833280 0.838193
0.842557 0.840726 0.844694
0.818540 0.818601 0.825498
0.737667 0.751949 0.757351
0.971954 0.964721 0.957855
0.971038 0.963745 0.956909
0.971130 0.963836 0.956970
0.975189 0.968170 0.961395
0.975647 0.968597 0.961883
0.974853 0.967803 0.961028
0.959594 0.952026 0.945251
0.918578 0.911955 0.907744
0.135042 0.163821 0.283665
0.139864 0.168582 0.294163
0.162905 0.180423 0.305303
0.206455 0.205539 0.324346
0.252201 0.233982 0.315618
0.287602 0.275029 0.301976
0.306737 0.305303 0.313207
0.340551 0.343938 0.358465
0.125368 0.184146 0.339788
0.132326 0.187869 0.345190
0.162875 0.198917 0.352117
0.215427 0.224765 0.368353
0.265141 0.250248 0.348058
0.298558 0.285405 0.322057
0.317113 0.317144 0.327123
0.347112 0.351507 0.367254
0.029419 0.224277 0.420294
0.080629 0.227604 0.422339
0.134340 0.230564 0.416541
0.205020 0.246708 0.411109
0.285405 0.289311 0.426123
0.363348 0.354681 0.439765
0.431342 0.446296 0.474128
0.436316 0.451637 0.479927
0.000000 0.295995 0.537804
0.000000 0.294316 0.532677
0.000000 0.301427 0.534386
0.130739 0.331518 0.551720
0.297215 0.372137 0.562249
0.411749 0.424933 0.558984
0.499916 0.514061 0.555474
0.511711 0.530663 0.562219
0.121035 0.430884 0.644862
0.129366 0.429023 0.641291
0.167849 0.440558 0.649836
0.243503 0.480934 0.684535
0.333654 0.527123 0.715572
0.467597 0.578882 0.737331
0.657588 0.663233 0.737728
0.696803 0.707607 0.728603
0.472602 0.626154 0.762325
0.508812 0.654963 0.784756
0.519677 0.657679 0.782681
0.565057 0.683406 0.794675
0.627558 0.719265 0.810178
0.706752 0.766690 0.831449
0.802701 0.826749 0.858274
0.912993 0.877317 0.881987
0.890318 0.898283 0.906920
0.894621 0.901549 0.909209
0.904295 0.908507 0.913634
0.921294 0.921111 0.921965
0.939849 0.934966 0.931243
0.953552 0.945953 0.939361
0.953124 0.945525 0.938964
0.930846 0.923735 0.918547
0.988067 0.982635 0.977142
0.987976 0.982544 0.977050
0.988006 0.982544 0.977081
0.988434 0.983062 0.977630
0.988556 0.983215 0.977844
0.988403 0.983062 0.977661
0.987457 0.981933 0.976318
0.976043 0.969085 0.962371
0.120272 0.332280 0.704891
0.167391 0.349493 0.725185
0.240269 0.367620 0.729000
0.345159 0.409857 0.743374
0.445258 0.458503 0.742061
0.518334 0.502037 0.714748
0.590112 0.572473 0.695308
0.666163 0.679286 0.703243
0.175448 0.375921 0.755978
0.221683 0.395941 0.775937
0.283970 0.411200 0.775998
0.360693 0.430793 0.763394
0.455024 0.472236 0.755337
0.530724 0.515740 0.729854
0.603449 0.584527 0.710018
0.678676 0.690852 0.713649
0.223270 0.447089 0.813901
0.244053 0.451881 0.815366
0.288914 0.453620 0.803983
0.362402 0.463905 0.787259
0.449958 0.490547 0.770291
0.525505 0.523705 0.742580
0.624079 0.604639 0.739834
0.697688 0.708339 0.729274
0.157290 0.510704 0.845121
0.189029 0.513085 0.844175
0.294530 0.533104 0.847837
0.410681 0.563012 0.852018
0.512200 0.590143 0.845884
0.616632 0.633692 0.835630
0.722408 0.704128 0.829526
0.789975 0.786465 0.808560
0.000000 0.606897 0.886687
0.052613 0.611261 0.888243
0.183597 0.620539 0.890074
0.345586 0.644129 0.893278
0.522026 0.682795 0.893736
0.674983 0.734127 0.893736
0.788174 0.785580 0.886564
0.863523 0.851072 0.872984
0.486976 0.719203 0.900755
0.493843 0.722225 0.901640
0.495766 0.718746 0.897642
0.530632 0.730922 0.898772
0.603876 0.763485 0.906920
0.732815 0.830686 0.928801
0.851102 0.885374 0.940642
0.939361 0.930022 0.941863
0.858579 0.906554 0.948302
0.854368 0.903685 0.946471
0.851438 0.900114 0.942809
0.872770 0.910826 0.945464
0.899657 0.925292 0.950103
0.922667 0.937530 0.953338
0.944854 0.950195 0.957366
0.966217 0.962829 0.960540
0.988922 0.984894 0.980865
0.989044 0.984924 0.980865
0.989654 0.985443 0.981231
0.992370 0.988464 0.984466
0.993774 0.989990 0.986114
0.994018 0.990387 0.986603
0.993957 0.990265 0.986481
0.992706 0.988556 0.984253
0.713954 0.734981 0.967895
0.731197 0.747646 0.969329
0.734829 0.745235 0.965362
0.769406 0.765133 0.962402
0.803983 0.784695 0.956054
0.844450 0.813840 0.948821
0.886503 0.853727 0.942870
0.929534 0.905180 0.942779
0.639734 0.682338 0.954803
0.643214 0.683528 0.954040
0.660304 0.690120 0.951537
0.702449 0.712154 0.949065
0.758755 0.745846 0.945647
0.817197 0.787808 0.941009
0.869261 0.835294 0.936217
0.919432 0.893523 0.937102
0.733883 0.771145 0.969635
0.733364 0.769345 0.968688
0.745083 0.772763 0.966552
0.744900 0.761837 0.958556
0.788266 0.784268 0.954101
0.840238 0.819425 0.949981
0.889433 0.861997 0.946807
0.932769 0.909728 0.946715
0.790036 0.836454 0.975799
0.786252 0.832670 0.974945
0.795834 0.835050 0.973999
0.838743 0.859495 0.974456
0.871855 0.876799 0.972442
0.900206 0.891966 0.968597
0.931853 0.915648 0.965942
0.958831 0.942443 0.964202
0.744228 0.842313 0.976135
0.748684 0.843595 0.975830
0.773007 0.851896 0.975128
0.820401 0.871641 0.974670
0.866697 0.891691 0.973205
0.894408 0.901366 0.970489
0.930114 0.921843 0.968078
0.959014 0.944945 0.965332
0.763607 0.882261 0.978851
0.778195 0.888518 0.979736
0.784573 0.890288 0.979400
0.799130 0.894987 0.979034
0.838621 0.905425 0.977752
0.907774 0.932250 0.978180
0.955077 0.955871 0.978882
0.975921 0.968292 0.977111
0.931731 0.957885 0.984405
0.934997 0.959503 0.984741
0.936980 0.960235 0.984588
0.941009 0.961761 0.984283
0.947387 0.964263 0.983825
0.956664 0.968322 0.983612
0.967437 0.973632 0.984131
0.980865 0.980652 0.984894
0.983642 0.985168 0.988128
0.983276 0.984833 0.987823
0.983368 0.984680 0.987366
0.985168 0.985595 0.987243
0.987427 0.986755 0.987030
0.990600 0.989075 0.988251
0.993500 0.991455 0.989807
0.995544 0.993286 0.991089
0.903807 0.900816 0.987976
0.908537 0.904936 0.988067
0.913329 0.908019 0.987549
0.925231 0.917174 0.986816
0.937163 0.925994 0.985473
0.949828 0.936095 0.983734
0.961700 0.946777 0.981811
0.972290 0.958099 0.980041
0.892699 0.891630 0.987030
0.898711 0.896757 0.987213
0.904387 0.900420 0.986694
0.914275 0.907042 0.985687
0.927245 0.916045 0.984131
0.940337 0.925689 0.981994
0.953460 0.936797 0.979553
0.966247 0.950103 0.977447
0.915099 0.916289 0.988251
0.916167 0.916930 0.988159
0.918364 0.917479 0.987549
0.925566 0.921538 0.986603
0.934539 0.926665 0.985077
0.947204 0.935698 0.983398
0.961913 0.948760 0.982177
0.974578 0.962066 0.981476
0.939055 0.942596 0.989715
0.937621 0.941161 0.989471
0.938201 0.940642 0.988983
0.944457 0.944182 0.988434
0.951446 0.947845 0.987396
0.961791 0.954986 0.986450
0.972320 0.963531 0.985626
0.981140 0.971984 0.985016
0.948760 0.956085 0.990234
0.948150 0.955413 0.990021
0.949218 0.955383 0.989685
0.952972 0.956756 0.989471
0.959503 0.959869 0.988891
0.967926 0.964721 0.988159
0.976806 0.971038 0.987579
0.985718 0.979156 0.987793
0.948882 0.963653 0.992035
0.950011 0.964172 0.992004
0.953918 0.965850 0.991852
0.960906 0.968994 0.991638
0.969818 0.973388 0.991333
0.979248 0.978790 0.991211
0.984497 0.981781 0.990906
0.989990 0.985779 0.990723
0.965148 0.976776 0.993256
0.965881 0.977142 0.993286
0.966949 0.977630 0.993286
0.969360 0.978759 0.993317
0.972320 0.980133 0.993286
0.978180 0.982696 0.993194
0.986572 0.986816 0.993133
0.992645 0.990478 0.993133
0.988769 0.990448 0.994965
0.988922 0.990539 0.994995
0.989746 0.991119 0.995178
0.990478 0.991577 0.995209
0.991333 0.992065 0.995178
0.992432 0.992767 0.995056
0.994079 0.993866 0.995178
0.995758 0.995148 0.995636
0.981628 0.978210 0.994690
0.982055 0.978607 0.994720
0.982452 0.978820 0.994598
0.984192 0.980346 0.994537
0.986328 0.982300 0.994446
0.988495 0.984222 0.994293
0.990509 0.986084 0.994018
0.992309 0.987823 0.993622
0.981109 0.977752 0.994598
0.981567 0.978180 0.994598
0.982300 0.978759 0.994537
0.983948 0.980163 0.994476
0.986236 0.982208 0.994415
0.988281 0.984009 0.994202
0.990234 0.985748 0.993866
0.992035 0.987457 0.993439
0.983307 0.980529 0.994903
0.983520 0.980713 0.994903
0.984100 0.981140 0.994842
0.985992 0.982818 0.994934
0.987304 0.983795 0.994690
0.988800 0.984924 0.994415
0.990661 0.986511 0.994110
0.992370 0.988067 0.993683
0.986084 0.984100 0.995453
0.986267 0.984253 0.995483
0.986603 0.984466 0.995422
0.987549 0.985138 0.995331
0.988769 0.985992 0.995178
0.990143 0.986999 0.994934
0.991730 0.988312 0.994720
0.993256 0.989624 0.994354
0.988342 0.987213 0.996033
0.988464 0.987304 0.996063
0.988586 0.987274 0.995972
0.989197 0.987640 0.995880
0.990112 0.988190 0.995758
0.991272 0.988922 0.995544
0.992676 0.989990 0.995331
0.994141 0.991180 0.995056
0.990295 0.990082 0.996704
0.990295 0.990051 0.996674
0.990539 0.990143 0.996612
0.991272 0.990600 0.996551
0.991699 0.990692 0.996490
0.992950 0.991516 0.996460
0.994324 0.992584 0.996399
0.995544 0.993500 0.996185
0.990326 0.991455 0.997467
0.990387 0.991455 0.997467
0.990661 0.991577 0.997406
0.991363 0.991974 0.997375
0.992462 0.992615 0.997314
0.993988 0.993561 0.997284
0.995453 0.994568 0.997284
0.996582 0.995300 0.997101
0.993408 0.994324 0.997894
0.993378 0.994324 0.997864
0.993530 0.994415 0.997864
0.993927 0.994690 0.997925
0.994446 0.995087 0.997986
0.995087 0.995544 0.998077
0.995972 0.996216 0.998169
0.997436 0.997192 0.998260
