20 Preset/Dark Style/【3】LUT video cho PR-AE-FCPX/19Tones/City Reflect City.cube
# Created by Adobe Lightroom plugin Export LUT (1.24.0)
# www.johnrellis.com/lightroom/exportlut.htm
# Preset: City Reflect City
# Color profile: E:\lut插件\exportlut.1.24\exportlut.lrplugin\color profiles\Rec709gamma2.4.icc
LUT_3D_SIZE 8
DOMAIN_MIN 0.000000 0.000000 0.000000
DOMAIN_MAX 0.903226 0.903226 0.903226
0.000000 0.109194 0.133944
0.093965 0.121614 0.138491
0.384405 0.180240 0.136233
0.965301 0.414588 0.000000
1.000000 0.608637 0.000000
1.000000 0.688502 0.000000
1.000000 0.736873 0.233982
1.000000 0.766690 0.397467
0.097108 0.132784 0.139681
0.163149 0.147738 0.143313
0.415137 0.225284 0.134279
0.930724 0.443824 0.000000
1.000000 0.622766 0.000000
1.000000 0.695064 0.000000
1.000000 0.735317 0.182345
1.000000 0.765072 0.375158
0.485817 0.304051 0.090944
0.588342 0.339361 0.000000
0.905425 0.493507 0.000000
1.000000 0.634913 0.000000
1.000000 0.706905 0.000000
1.000000 0.759579 0.142092
1.000000 0.789914 0.395666
1.000000 0.805844 0.499702
1.000000 0.692805 0.000000
1.000000 0.693050 0.000000
1.000000 0.709041 0.000000
1.000000 0.751492 0.000000
1.000000 0.781277 0.168185
1.000000 0.802670 0.375677
1.000000 0.825742 0.510887
1.000000 0.846342 0.604547
1.000000 0.805234 0.000000
1.000000 0.802579 0.000000
1.000000 0.795254 0.000000
1.000000 0.801205 0.153140
1.000000 0.812528 0.337652
1.000000 0.824857 0.452461
1.000000 0.840970 0.551873
1.000000 0.858335 0.633967
1.000000 0.847074 0.264683
1.000000 0.848875 0.312139
1.000000 0.844572 0.367956
1.000000 0.841947 0.445319
1.000000 0.847227 0.507347
1.000000 0.856229 0.576135
1.000000 0.866941 0.638270
1.000000 0.876616 0.685634
1.000000 0.882628 0.544640
1.000000 0.882872 0.555810
1.000000 0.880247 0.573907
1.000000 0.877165 0.610071
1.000000 0.877043 0.634302
1.000000 0.880522 0.663813
1.000000 0.884916 0.693080
1.000000 0.889036 0.717586
1.000000 0.912779 0.703029
1.000000 0.912596 0.706081
1.000000 0.911589 0.716335
1.000000 0.909728 0.732753
1.000000 0.902708 0.729610
1.000000 0.903532 0.741360
1.000000 0.903899 0.751247
1.000000 0.902922 0.755856
0.031037 0.153017 0.187655
0.079255 0.160098 0.191165
0.316564 0.193820 0.155093
0.853941 0.430091 0.000000
1.000000 0.633295 0.000000
1.000000 0.701839 0.000000
1.000000 0.736141 0.148074
1.000000 0.761624 0.347784
0.000427 0.166445 0.205936
0.129915 0.177401 0.201053
0.416724 0.238529 0.145663
0.909514 0.468513 0.000000
1.000000 0.653925 0.000000
1.000000 0.712703 0.000000
1.000000 0.740017 0.139681
1.000000 0.762570 0.337041
0.508629 0.344152 0.127047
0.566766 0.352819 0.098177
0.879637 0.484840 0.000000
1.000000 0.625910 0.000000
1.000000 0.701411 0.000000
1.000000 0.749203 0.000000
1.000000 0.781369 0.319188
1.000000 0.797635 0.450904
1.000000 0.677913 0.000000
1.000000 0.675074 0.000000
1.000000 0.696742 0.000000
1.000000 0.736599 0.000000
1.000000 0.761715 0.000000
1.000000 0.781704 0.229465
1.000000 0.805234 0.409430
1.000000 0.831327 0.544335
1.000000 0.805692 0.000000
1.000000 0.801389 0.000000
1.000000 0.792538 0.000000
1.000000 0.793149 0.000000
1.000000 0.801419 0.246555
1.000000 0.813840 0.386999
1.000000 0.831357 0.506767
1.000000 0.850614 0.603937
1.000000 0.843565 0.188418
1.000000 0.842222 0.214542
1.000000 0.837613 0.289677
1.000000 0.834257 0.392432
1.000000 0.840635 0.468910
1.000000 0.851713 0.553796
1.000000 0.862882 0.621271
1.000000 0.872953 0.672328
1.000000 0.877684 0.504051
1.000000 0.876310 0.505760
1.000000 0.873320 0.526787
1.000000 0.870573 0.572381
1.000000 0.872190 0.611841
1.000000 0.876249 0.645869
1.000000 0.880369 0.675868
1.000000 0.885039 0.703670
1.000000 0.909545 0.684291
1.000000 0.910002 0.690730
1.000000 0.909117 0.702632
1.000000 0.907378 0.721187
1.000000 0.905241 0.738155
1.000000 0.904326 0.743618
1.000000 0.903593 0.749935
1.000000 0.902678 0.754910
0.361242 0.474983 0.579797
0.405615 0.498787 0.592279
0.487068 0.522942 0.574426
0.939788 0.402808 0.497688
1.000000 0.705592 0.280034
1.000000 0.749172 0.000000
1.000000 0.788083 0.345647
1.000000 0.802640 0.467475
0.419440 0.519554 0.609186
0.466712 0.537713 0.608545
0.519066 0.546563 0.584710
0.951110 0.537987 0.497047
1.000000 0.713069 0.271397
1.000000 0.748989 0.000000
1.000000 0.784512 0.320653
1.000000 0.803189 0.460914
0.431922 0.631220 0.714199
0.516197 0.646876 0.709194
0.776638 0.697108 0.675898
1.000000 0.740566 0.537194
1.000000 0.753048 0.260929
1.000000 0.767391 0.095460
1.000000 0.796689 0.371801
1.000000 0.825925 0.526940
0.984924 0.831357 0.620417
0.996277 0.828458 0.621576
1.000000 0.813046 0.593500
1.000000 0.800290 0.451423
1.000000 0.777462 0.000000
1.000000 0.795346 0.291478
1.000000 0.817197 0.453071
1.000000 0.839750 0.570489
1.000000 0.861936 0.501335
1.000000 0.856687 0.482582
1.000000 0.835721 0.398260
1.000000 0.803769 0.092500
1.000000 0.811917 0.298894
1.000000 0.822110 0.417304
1.000000 0.837217 0.523949
1.000000 0.854917 0.615412
1.000000 0.852659 0.180148
1.000000 0.851560 0.208957
1.000000 0.845945 0.284215
1.000000 0.839109 0.386328
1.000000 0.842283 0.466773
1.000000 0.852720 0.550774
1.000000 0.864195 0.621515
1.000000 0.875029 0.676753
1.000000 0.883696 0.509026
1.000000 0.882536 0.511681
1.000000 0.879240 0.532952
1.000000 0.875212 0.572869
1.000000 0.874144 0.615808
1.000000 0.878447 0.651179
1.000000 0.883513 0.684810
1.000000 0.888396 0.713344
1.000000 0.911315 0.677150
1.000000 0.910826 0.679072
1.000000 0.910277 0.694423
1.000000 0.909422 0.719081
1.000000 0.906310 0.739651
1.000000 0.905760 0.746975
1.000000 0.905028 0.753353
1.000000 0.903807 0.757382
0.847227 0.844236 0.879515
0.863310 0.855619 0.885588
0.891569 0.874327 0.892576
0.908232 0.882200 0.889189
0.944396 0.922698 0.919066
1.000000 0.888457 0.852140
1.000000 0.879789 0.760403
1.000000 0.821561 0.500816
0.880735 0.870298 0.893919
0.887358 0.874846 0.895995
0.904845 0.886412 0.899992
0.916350 0.890837 0.895628
0.959472 0.942473 0.939544
1.000000 0.896757 0.857511
1.000000 0.882292 0.761837
1.000000 0.822568 0.503471
0.897398 0.889769 0.911101
0.905699 0.894163 0.910765
0.923552 0.904082 0.909911
0.928954 0.904204 0.904112
0.992706 0.906157 0.903502
1.000000 0.926299 0.883757
1.000000 0.897185 0.789181
1.000000 0.836332 0.554498
0.916564 0.923339 0.939269
0.920989 0.924590 0.938354
0.938750 0.931273 0.936706
0.967987 0.940642 0.932586
1.000000 0.940917 0.913695
1.000000 0.927550 0.869902
1.000000 0.871122 0.692103
1.000000 0.844755 0.578607
0.984314 0.961669 0.932769
0.985809 0.960662 0.931853
0.992035 0.958373 0.930755
1.000000 0.955932 0.928527
1.000000 0.946807 0.903227
1.000000 0.918669 0.827665
1.000000 0.847227 0.553765
1.000000 0.861204 0.631220
1.000000 0.962249 0.911772
1.000000 0.963226 0.914794
1.000000 0.958618 0.906310
1.000000 0.949126 0.888426
1.000000 0.925383 0.829404
1.000000 0.860838 0.575586
1.000000 0.869871 0.635950
1.000000 0.879026 0.686000
1.000000 0.923827 0.732631
1.000000 0.921080 0.721828
1.000000 0.906645 0.659754
1.000000 0.887419 0.591852
1.000000 0.883177 0.640345
1.000000 0.884703 0.669673
1.000000 0.887724 0.695460
1.000000 0.891691 0.721279
1.000000 0.916625 0.670100
1.000000 0.916350 0.673548
1.000000 0.915526 0.689113
1.000000 0.914733 0.718868
1.000000 0.910765 0.739620
1.000000 0.908232 0.752041
1.000000 0.907164 0.757931
1.000000 0.905821 0.761959
0.938293 0.928374 0.941924
0.941802 0.931609 0.943938
0.950805 0.939757 0.948638
0.963012 0.951659 0.956146
0.969421 0.957305 0.958648
0.962219 0.946105 0.943450
1.000000 0.953735 0.954498
1.000000 0.957671 0.938903
0.945922 0.935912 0.946685
0.949065 0.938964 0.948791
0.956451 0.945892 0.953063
0.965240 0.954284 0.958129
0.970397 0.958526 0.959594
0.964996 0.949950 0.947356
1.000000 0.954437 0.953521
1.000000 0.958312 0.938720
0.958343 0.949645 0.957000
0.960449 0.951293 0.957458
0.964477 0.954650 0.958953
0.969451 0.959106 0.961395
0.971618 0.959899 0.960113
0.976165 0.965515 0.963653
1.000000 0.959838 0.953429
1.000000 0.958068 0.933654
0.963500 0.958190 0.965789
0.964874 0.959075 0.965850
0.970611 0.963104 0.966735
0.976440 0.967651 0.968109
0.976776 0.966583 0.965606
0.992432 0.965759 0.965301
1.000000 0.970031 0.957977
1.000000 0.957671 0.925048
0.968261 0.968475 0.974365
0.969360 0.969085 0.974456
0.973022 0.970794 0.974426
0.978668 0.973358 0.974121
0.986755 0.975372 0.972045
0.997894 0.975158 0.965881
1.000000 0.969696 0.949737
1.000000 0.936645 0.871824
0.980224 0.980102 0.968658
0.982605 0.980163 0.968811
0.989410 0.979614 0.968078
0.993530 0.978515 0.967163
1.000000 0.977325 0.965362
1.000000 0.975189 0.957519
1.000000 0.961517 0.924590
1.000000 0.879515 0.681697
1.000000 0.984741 0.964477
1.000000 0.984192 0.963378
1.000000 0.982330 0.959411
1.000000 0.979248 0.953613
1.000000 0.972534 0.940948
1.000000 0.953704 0.898283
1.000000 0.888487 0.691402
1.000000 0.891630 0.717037
1.000000 0.947723 0.802182
1.000000 0.944701 0.789670
1.000000 0.930327 0.724331
1.000000 0.916564 0.677882
1.000000 0.914946 0.724422
1.000000 0.909789 0.750790
1.000000 0.908202 0.757290
1.000000 0.906432 0.761227
0.965789 0.959045 0.966461
0.967285 0.960571 0.967498
0.971038 0.964294 0.969818
0.977142 0.970703 0.974182
0.982818 0.976867 0.978576
0.985473 0.979492 0.980072
0.984833 0.977874 0.977142
0.995727 0.993774 0.993408
0.966003 0.959014 0.965972
0.966918 0.959899 0.966522
0.970367 0.963317 0.968688
0.975891 0.969055 0.972564
0.981689 0.975372 0.977081
0.984588 0.978241 0.978759
0.983856 0.976471 0.975616
0.995666 0.992676 0.992554
0.973999 0.967895 0.972320
0.974487 0.968353 0.972625
0.976745 0.970672 0.974182
0.979706 0.973602 0.976043
0.983856 0.978027 0.979248
0.985901 0.979950 0.980224
0.984894 0.977966 0.976959
0.997467 0.988952 0.989776
0.979156 0.974884 0.978851
0.979644 0.975219 0.978882
0.982269 0.977478 0.979797
0.985718 0.981048 0.982238
0.988220 0.983734 0.984253
0.989014 0.984222 0.984131
0.990082 0.985534 0.984741
1.000000 0.985138 0.984161
0.981598 0.979156 0.983185
0.982025 0.979461 0.983246
0.983886 0.980804 0.983673
0.987030 0.983276 0.984527
0.989380 0.985199 0.985229
0.989502 0.984710 0.984192
0.996185 0.986114 0.986175
1.000000 0.986328 0.981262
0.983520 0.983917 0.987274
0.984192 0.984466 0.987579
0.985290 0.985016 0.987579
0.987304 0.985992 0.987610
0.989776 0.987121 0.987457
0.994110 0.988769 0.987182
0.999786 0.989105 0.984710
1.000000 0.985107 0.974578
0.984985 0.992401 0.988922
0.985992 0.992554 0.988800
0.988708 0.992645 0.987793
0.994690 0.992645 0.988128
0.997894 0.992004 0.987121
1.000000 0.990692 0.985046
1.000000 0.987610 0.977813
1.000000 0.969909 0.938659
1.000000 0.994720 0.985199
1.000000 0.994537 0.984741
1.000000 0.993896 0.983215
1.000000 0.992493 0.979828
1.000000 0.988556 0.970642
1.000000 0.979004 0.950347
1.000000 0.925261 0.809598
1.000000 0.908751 0.764370
0.972564 0.967071 0.973083
0.973480 0.968017 0.973754
0.976257 0.970947 0.975708
0.980926 0.975952 0.979309
0.985870 0.981537 0.983520
0.989807 0.986175 0.987121
0.991638 0.988159 0.988556
0.991913 0.988190 0.987976
0.973266 0.967742 0.973419
0.974151 0.968719 0.974121
0.976684 0.971344 0.975921
0.980804 0.975769 0.979065
0.985504 0.981018 0.983001
0.989227 0.985351 0.986358
0.990906 0.987152 0.987549
0.990997 0.986877 0.986603
0.977966 0.972992 0.977203
0.978424 0.973510 0.977569
0.980224 0.975433 0.978912
0.983429 0.978912 0.981476
0.987030 0.982940 0.984527
0.990173 0.986572 0.987366
0.991852 0.988434 0.988708
0.992187 0.988556 0.988251
0.982879 0.979156 0.982452
0.983185 0.979400 0.982513
0.984863 0.980957 0.983215
0.987213 0.983490 0.985168
0.989654 0.986267 0.987335
0.992004 0.988983 0.989532
0.993225 0.990356 0.990478
0.993286 0.990143 0.989746
0.985901 0.983551 0.986694
0.986053 0.983612 0.986664
0.987152 0.984497 0.986969
0.989288 0.986389 0.987854
0.991394 0.988525 0.989227
0.993011 0.990356 0.990661
0.993866 0.991150 0.991119
0.994568 0.992065 0.991608
0.988678 0.987793 0.990692
0.988891 0.987976 0.990784
0.989746 0.988617 0.991028
0.991241 0.989776 0.991516
0.993133 0.991302 0.992096
0.994934 0.992950 0.993042
0.995453 0.993408 0.993225
0.998322 0.994842 0.994965
0.991089 0.992035 0.994263
0.991333 0.992187 0.994324
0.991821 0.992462 0.994415
0.992828 0.993072 0.994598
0.994079 0.993774 0.994751
0.995544 0.994598 0.994873
0.997620 0.995270 0.994568
1.000000 0.994965 0.992523
0.992493 0.996704 0.996460
0.992645 0.996765 0.996429
0.993103 0.997192 0.996521
0.994018 0.997314 0.995972
0.997070 0.997375 0.995422
0.999573 0.996979 0.994354
1.000000 0.995636 0.992126
1.000000 0.991760 0.983917
0.977569 0.972992 0.977996
0.978210 0.973663 0.978454
0.980255 0.975891 0.980011
0.984009 0.980102 0.983062
0.988312 0.985046 0.986908
0.991913 0.989349 0.990387
0.994629 0.992706 0.993194
0.995911 0.994263 0.994476
0.977996 0.973480 0.978302
0.978607 0.974151 0.978790
0.980652 0.976349 0.980316
0.984192 0.980255 0.983215
0.988312 0.985046 0.986877
0.991852 0.989227 0.990295
0.994507 0.992493 0.993011
0.995758 0.994049 0.994263
0.980499 0.976318 0.980346
0.980987 0.976806 0.980682
0.982635 0.978607 0.981994
0.985901 0.982330 0.984802
0.989319 0.986297 0.987884
0.992340 0.989868 0.990814
0.994781 0.992859 0.993317
0.996002 0.994324 0.994537
0.983581 0.980041 0.983368
0.984070 0.980560 0.983642
0.985626 0.982147 0.984710
0.988067 0.984985 0.986908
0.990845 0.988220 0.989502
0.993378 0.991241 0.992004
0.995453 0.993805 0.994171
0.996551 0.995117 0.995270
0.986328 0.983948 0.987121
0.986633 0.984253 0.987304
0.987579 0.985077 0.987671
0.989868 0.987335 0.988983
0.992218 0.989960 0.990967
0.994324 0.992462 0.993072
0.996124 0.994720 0.994995
0.997192 0.996033 0.996124
0.989899 0.988739 0.991455
0.989960 0.988800 0.991455
0.990509 0.989197 0.991608
0.991669 0.990234 0.992035
0.993439 0.991821 0.992889
0.995666 0.994263 0.994659
0.997253 0.996246 0.996399
0.997894 0.996979 0.997009
0.993347 0.993317 0.995331
0.993469 0.993378 0.995361
0.993835 0.993683 0.995483
0.994629 0.994324 0.995789
0.995636 0.995117 0.996155
0.996826 0.996124 0.996612
0.997955 0.997162 0.997253
0.998413 0.997742 0.997681
0.995361 0.996246 0.997650
0.995422 0.996277 0.997650
0.995636 0.996429 0.997742
0.996155 0.996765 0.997864
0.996826 0.997223 0.998077
0.997620 0.997742 0.998291
0.998444 0.998260 0.998444
0.999298 0.998596 0.998352
