20 Preset/Dark Style/【3】LUT video cho PR-AE-FCPX/19Tones/City Reflect City.cube
# Created by Adobe Lightroom plugin Export LUT (1.24.0)
# www.johnrellis.com/lightroom/exportlut.htm
# Preset: City Reflect City
# Color profile: E:\lut插件\exportlut.1.24\exportlut.lrplugin\color profiles\Rec709gamma2.4.icc
LUT_3D_SIZE 5
DOMAIN_MIN 0.000000 0.000000 0.000000
DOMAIN_MAX 0.903226 0.903226 0.903226
0.000000 0.109194 0.133944
0.283513 0.157259 0.141482
1.000000 0.536126 0.000000
1.000000 0.704585 0.000000
1.000000 0.766690 0.397467
0.348028 0.230625 0.130282
0.705318 0.378882 0.000000
1.000000 0.657710 0.000000
1.000000 0.755673 0.185580
1.000000 0.798337 0.483497
1.000000 0.761807 0.000000
1.000000 0.757534 0.000000
1.000000 0.790249 0.138735
1.000000 0.817472 0.440528
1.000000 0.850858 0.613916
1.000000 0.859983 0.385595
1.000000 0.856748 0.426307
1.000000 0.854673 0.527306
1.000000 0.865049 0.614588
1.000000 0.879820 0.693782
1.000000 0.912779 0.703029
1.000000 0.912016 0.713436
1.000000 0.903075 0.722042
1.000000 0.903746 0.744259
1.000000 0.902922 0.755856
0.243229 0.327367 0.408453
0.335088 0.372717 0.422156
1.000000 0.606256 0.020325
1.000000 0.750546 0.000000
1.000000 0.787076 0.416785
0.236545 0.464790 0.560113
0.585595 0.533745 0.521233
1.000000 0.686000 0.000000
1.000000 0.763607 0.126040
1.000000 0.810300 0.483589
1.000000 0.811582 0.249332
1.000000 0.789578 0.063844
1.000000 0.782101 0.000000
1.000000 0.807919 0.369207
1.000000 0.848905 0.601038
1.000000 0.864775 0.365789
1.000000 0.861631 0.414221
1.000000 0.856046 0.526329
1.000000 0.865019 0.609613
1.000000 0.879789 0.691524
1.000000 0.913481 0.693294
1.000000 0.912932 0.705959
1.000000 0.908904 0.736019
1.000000 0.906493 0.752132
1.000000 0.904723 0.760647
0.910796 0.900450 0.920500
0.926696 0.913207 0.926940
0.951354 0.933532 0.936248
1.000000 0.925322 0.926909
1.000000 0.911711 0.829435
0.936370 0.925139 0.936614
0.945159 0.931640 0.938628
0.956847 0.940002 0.940673
1.000000 0.939117 0.929320
1.000000 0.910155 0.818540
0.950652 0.952148 0.961425
0.957610 0.954925 0.960723
0.979950 0.962799 0.957824
1.000000 0.958465 0.933013
1.000000 0.852903 0.599390
1.000000 0.977600 0.953124
1.000000 0.975189 0.949035
1.000000 0.968078 0.937438
1.000000 0.932097 0.847776
1.000000 0.880735 0.687007
1.000000 0.916320 0.637568
1.000000 0.915679 0.656123
1.000000 0.913817 0.717128
1.000000 0.907683 0.750332
1.000000 0.905333 0.759304
0.965850 0.959106 0.966522
0.969940 0.963256 0.969299
0.979889 0.973816 0.976562
0.986633 0.981109 0.981659
0.992218 0.988678 0.988037
0.971984 0.965728 0.970916
0.974304 0.968048 0.972473
0.981537 0.975769 0.977935
0.986664 0.981048 0.981445
0.993713 0.990845 0.990326
0.979644 0.975982 0.980194
0.981476 0.977356 0.980560
0.986572 0.981964 0.982788
0.988434 0.983337 0.983093
1.000000 0.985168 0.984955
0.986481 0.987060 0.989929
0.987030 0.987182 0.989746
0.989990 0.988769 0.989899
0.995148 0.990692 0.989380
1.000000 0.988128 0.980407
0.999207 0.996094 0.989837
0.999695 0.995880 0.989288
1.000000 0.994537 0.986328
1.000000 0.987304 0.971740
1.000000 0.909636 0.765774
0.977569 0.972992 0.977996
0.979553 0.975158 0.979492
0.986206 0.982605 0.984985
0.992706 0.990295 0.991180
0.995911 0.994263 0.994476
0.979858 0.975586 0.979797
0.981537 0.977417 0.981109
0.987213 0.983764 0.985901
0.992920 0.990600 0.991394
0.996002 0.994354 0.994568
0.984741 0.981781 0.985046
0.986114 0.983062 0.985779
0.990143 0.987427 0.988861
0.994171 0.992218 0.992798
0.996826 0.995483 0.995605
0.991028 0.990234 0.992706
0.991455 0.990570 0.992828
0.993378 0.992187 0.993591
0.996399 0.995239 0.995514
0.998016 0.997162 0.997162
0.995361 0.996246 0.997650
0.995575 0.996368 0.997681
0.996521 0.997009 0.997986
0.997833 0.997894 0.998322
0.999298 0.998596 0.998352
