20 Preset/Dark Style/【3】LUT video cho PR-AE-FCPX/19Tones/City Subway Reflect.cube
# Created by Adobe Lightroom plugin Export LUT (1.24.0)
# www.johnrellis.com/lightroom/exportlut.htm
# Preset: City Subway Reflect
# Color profile: E:\lut插件\exportlut.1.24\exportlut.lrplugin\color profiles\Rec709gamma2.4.icc
LUT_3D_SIZE 8
DOMAIN_MIN 0.000000 0.000000 0.000000
DOMAIN_MAX 0.903226 0.903226 0.903226
0.129000 0.136538 0.150576
0.120577 0.136934 0.149813
0.092195 0.132479 0.143832
0.105745 0.123232 0.134340
0.163149 0.110964 0.126467
0.264866 0.084108 0.125551
0.561883 0.000000 0.137118
1.000000 0.000000 0.144900
0.120851 0.128389 0.141268
0.119203 0.127016 0.140536
0.103517 0.124392 0.137819
0.105684 0.120302 0.131472
0.152102 0.112703 0.125765
0.240909 0.097780 0.126253
0.455940 0.000000 0.136324
0.868345 0.000000 0.143618
0.107881 0.115358 0.125826
0.107790 0.115358 0.126101
0.108949 0.115816 0.126558
0.119661 0.118746 0.126009
0.158999 0.121950 0.128695
0.272801 0.123262 0.138857
0.553582 0.000000 0.157229
0.981018 0.000000 0.166751
0.132448 0.139986 0.154391
0.134035 0.141115 0.155825
0.138949 0.146120 0.161532
0.160922 0.164157 0.175814
0.223453 0.186618 0.172854
0.341619 0.203128 0.179782
0.549920 0.209781 0.192233
0.931609 0.140597 0.198917
0.200168 0.206455 0.226688
0.201389 0.207736 0.228031
0.206882 0.213718 0.234073
0.224430 0.232975 0.253178
0.267582 0.267643 0.261387
0.366705 0.305943 0.243534
0.594690 0.353307 0.236301
0.903166 0.396429 0.243961
0.323308 0.342809 0.364080
0.342840 0.363622 0.385229
0.351446 0.372564 0.394415
0.371954 0.393683 0.415808
0.405524 0.427375 0.449653
0.545586 0.518486 0.449866
0.774716 0.624994 0.434455
1.000000 0.725307 0.410254
0.615198 0.625086 0.637629
0.626429 0.635523 0.647242
0.630793 0.639582 0.650996
0.651362 0.658686 0.668605
0.674800 0.680446 0.688624
0.760372 0.747189 0.710964
0.893614 0.829923 0.703609
0.996002 0.883787 0.690669
0.922820 0.918181 0.917662
0.923186 0.918547 0.918059
0.927489 0.923003 0.923125
0.937377 0.933288 0.935210
0.914641 0.909850 0.908507
0.943816 0.936400 0.927581
0.977203 0.960815 0.932097
0.997375 0.971008 0.924895
0.135409 0.129885 0.123629
0.130892 0.127871 0.124025
0.117678 0.121553 0.125154
0.109407 0.117494 0.128176
0.159854 0.107790 0.125582
0.254429 0.080385 0.130190
0.465064 0.000000 0.148836
0.855833 0.000000 0.167788
0.128695 0.125765 0.124666
0.121126 0.122011 0.125307
0.111757 0.117311 0.126070
0.112306 0.115053 0.128939
0.160281 0.108003 0.126070
0.252842 0.088563 0.133364
0.431922 0.000000 0.151003
0.766415 0.000000 0.164492
0.106722 0.115999 0.127871
0.106569 0.115999 0.128420
0.107637 0.117830 0.130983
0.123232 0.122255 0.134676
0.172763 0.122377 0.142000
0.270420 0.116732 0.153079
0.457984 0.000000 0.168612
0.832975 0.000000 0.182925
0.124361 0.132387 0.145602
0.125856 0.133394 0.146975
0.134218 0.141329 0.156008
0.150607 0.157076 0.173800
0.183810 0.169253 0.172335
0.265599 0.178012 0.178805
0.433326 0.183536 0.191989
0.772152 0.102998 0.203830
0.189425 0.194858 0.214878
0.190036 0.195468 0.215549
0.200259 0.206577 0.226780
0.216526 0.224247 0.244602
0.235660 0.242618 0.255985
0.316533 0.278233 0.242527
0.505303 0.318273 0.241611
0.796048 0.349462 0.248905
0.303929 0.321965 0.342779
0.309483 0.327977 0.348943
0.322362 0.341894 0.363134
0.344854 0.365667 0.387335
0.380499 0.402441 0.424598
0.505119 0.494636 0.452827
0.726101 0.597467 0.437629
0.987671 0.684840 0.405341
0.563867 0.577417 0.593530
0.555810 0.569940 0.586542
0.558007 0.571923 0.588403
0.586328 0.598260 0.612848
0.631006 0.639796 0.651179
0.707088 0.702968 0.685573
0.843809 0.783322 0.664149
0.969421 0.842863 0.635828
0.899382 0.894530 0.892210
0.905180 0.900298 0.898283
0.909422 0.904570 0.902831
0.922301 0.917662 0.917113
0.934539 0.930358 0.931670
0.947753 0.942229 0.939422
0.975128 0.959808 0.933684
0.995972 0.970184 0.925597
0.000000 0.140658 0.224582
0.000000 0.139498 0.226108
0.000000 0.134035 0.223270
0.000000 0.129793 0.211826
0.059968 0.136141 0.211429
0.243595 0.112215 0.265080
0.554345 0.000000 0.248661
1.000000 0.000000 0.206760
0.000000 0.137972 0.226261
0.000000 0.137087 0.225834
0.000000 0.134218 0.223178
0.000000 0.132113 0.213840
0.064240 0.140322 0.217594
0.231785 0.120851 0.259068
0.511162 0.000000 0.232731
0.951751 0.000000 0.206851
0.000000 0.144015 0.241550
0.000000 0.144198 0.242832
0.000000 0.145998 0.245121
0.000000 0.154665 0.252934
0.093965 0.168032 0.258335
0.272923 0.146304 0.286290
0.579553 0.000000 0.205051
1.000000 0.000000 0.266209
0.000000 0.158938 0.242344
0.000000 0.162295 0.248600
0.000000 0.170840 0.259831
0.041474 0.194034 0.286931
0.173983 0.240726 0.320195
0.364813 0.235508 0.330419
0.691341 0.193332 0.326909
1.000000 0.112825 0.414740
0.170260 0.199100 0.238010
0.173617 0.201358 0.239261
0.189700 0.213321 0.247807
0.230411 0.246372 0.271611
0.297887 0.315496 0.336156
0.384436 0.396887 0.403906
0.608850 0.423651 0.401465
0.927245 0.463661 0.426398
0.293828 0.310826 0.331395
0.299901 0.317662 0.338323
0.319310 0.338567 0.359686
0.366094 0.387671 0.409705
0.465522 0.485359 0.506676
0.565118 0.578607 0.594629
0.766018 0.697292 0.609491
0.990906 0.776852 0.607050
0.625086 0.634272 0.646113
0.623651 0.632898 0.644892
0.638087 0.646357 0.657252
0.677485 0.682979 0.690974
0.713100 0.716121 0.721462
0.772793 0.772091 0.773342
0.877836 0.850492 0.795193
0.976135 0.903105 0.790280
0.919310 0.914580 0.913695
0.917754 0.912993 0.911955
0.920928 0.916228 0.915496
0.936278 0.932158 0.933837
0.945769 0.942351 0.946441
0.956054 0.953826 0.962066
0.974884 0.968109 0.964202
0.991119 0.976562 0.958526
0.000000 0.206302 0.568444
0.000000 0.209415 0.585382
0.000000 0.207034 0.583734
0.000000 0.211490 0.606165
0.000000 0.216373 0.601343
0.000000 0.232914 0.584985
0.000000 0.212802 0.615320
0.868620 0.000000 0.735958
0.000000 0.216617 0.603510
0.000000 0.216800 0.605463
0.000000 0.216068 0.606928
0.000000 0.226535 0.644892
0.000000 0.229923 0.629206
0.000000 0.243259 0.597894
0.000000 0.226566 0.620050
0.870878 0.000000 0.735286
0.000000 0.238193 0.640009
0.000000 0.239353 0.640436
0.000000 0.243229 0.637995
0.000000 0.246555 0.639124
0.000000 0.267094 0.663081
0.000000 0.308354 0.686519
0.000000 0.340337 0.747066
0.998993 0.000000 0.802029
0.000000 0.286534 0.712642
0.000000 0.285893 0.707454
0.000000 0.292485 0.708156
0.000000 0.315679 0.718654
0.000000 0.352850 0.719173
0.000000 0.393622 0.726772
0.259312 0.451911 0.742550
1.000000 0.267857 0.752041
0.000000 0.327550 0.655756
0.000000 0.328435 0.654658
0.000000 0.345312 0.674434
0.000000 0.393530 0.726070
0.000000 0.470008 0.781247
0.220035 0.588708 0.814817
0.630915 0.698634 0.808621
1.000000 0.675441 0.730159
0.000000 0.401068 0.575158
0.000000 0.423041 0.599542
0.117708 0.436316 0.603418
0.253666 0.482338 0.630945
0.420264 0.563867 0.672541
0.640253 0.690852 0.735073
0.866026 0.861570 0.858885
0.973816 0.891905 0.860136
0.590173 0.601892 0.616205
0.600946 0.611841 0.625422
0.634424 0.642908 0.654078
0.700435 0.704311 0.710597
0.789853 0.788235 0.788418
0.885222 0.880430 0.877775
0.923247 0.918639 0.918181
0.973083 0.950530 0.923613
0.945861 0.942443 0.946563
0.946807 0.943481 0.947936
0.951507 0.948638 0.954803
0.958556 0.956756 0.966369
0.963165 0.962310 0.975097
0.968353 0.969146 0.986999
0.973877 0.976776 1.000000
0.984741 0.984100 1.000000
0.000000 0.354040 0.969360
0.000000 0.360693 0.977783
0.000000 0.362890 0.979553
0.000000 0.371923 0.986267
0.000000 0.382208 0.986969
0.000000 0.395239 0.976287
0.000000 0.439277 0.969055
0.000000 0.565087 0.974151
0.000000 0.373602 0.984710
0.000000 0.381811 0.993133
0.000000 0.383520 0.993866
0.000000 0.383124 0.989899
0.000000 0.391852 0.988251
0.000000 0.407019 0.978637
0.000000 0.452552 0.971313
0.000000 0.579370 0.974731
0.000000 0.410956 0.993866
0.000000 0.412360 0.994659
0.000000 0.409125 0.990204
0.000000 0.407355 0.983825
0.000000 0.413245 0.977844
0.000000 0.427283 0.966217
0.000000 0.487251 0.967712
0.000000 0.607019 0.966583
0.000000 0.437598 0.991516
0.000000 0.438819 0.990539
0.000000 0.450477 0.990509
0.000000 0.479194 0.990387
0.000000 0.504082 0.988586
0.000000 0.539757 0.984802
0.000000 0.615534 0.983337
0.519341 0.733272 0.973327
0.000000 0.490944 0.992340
0.000000 0.495460 0.993744
0.000000 0.508812 0.994934
0.000000 0.539361 0.996826
0.000000 0.593500 0.993805
0.000000 0.682582 0.985779
0.439277 0.755520 0.980224
0.779110 0.852567 0.969116
0.000000 0.536278 0.940398
0.000000 0.540856 0.941772
0.000000 0.547387 0.940124
0.000000 0.577295 0.944701
0.000000 0.645808 0.957214
0.302403 0.780545 0.981201
0.792081 0.897429 0.988067
0.939574 0.949828 0.985382
0.312688 0.691768 0.879637
0.315038 0.687404 0.874296
0.366064 0.686824 0.861295
0.500999 0.726680 0.865629
0.659785 0.791379 0.881987
0.808713 0.858640 0.899016
0.916899 0.920409 0.927977
0.967895 0.968475 0.985687
0.892882 0.888029 0.885527
0.894499 0.889647 0.887175
0.903746 0.898863 0.896757
0.935027 0.930846 0.932280
0.956268 0.954101 0.962463
0.971405 0.973541 0.995758
0.979309 0.981720 1.000000
0.985260 0.986419 1.000000
0.000000 0.501274 1.000000
0.000000 0.505211 1.000000
0.000000 0.505455 1.000000
0.000000 0.515160 1.000000
0.000000 0.530785 1.000000
0.000000 0.563134 1.000000
0.000000 0.627893 1.000000
0.000000 0.747555 1.000000
0.000000 0.490242 1.000000
0.000000 0.490486 1.000000
0.000000 0.492164 1.000000
0.000000 0.500237 1.000000
0.000000 0.517540 1.000000
0.000000 0.551659 1.000000
0.000000 0.614862 1.000000
0.000000 0.732815 1.000000
0.000000 0.542168 1.000000
0.000000 0.541619 1.000000
0.000000 0.544610 1.000000
0.000000 0.542107 1.000000
0.000000 0.561212 1.000000
0.000000 0.601007 1.000000
0.000000 0.672847 1.000000
0.319677 0.783780 1.000000
0.000000 0.606653 1.000000
0.000000 0.607538 1.000000
0.000000 0.625635 1.000000
0.000000 0.658839 1.000000
0.000000 0.692287 1.000000
0.000000 0.735866 1.000000
0.210971 0.802335 1.000000
0.688350 0.876982 1.000000
0.000000 0.630182 1.000000
0.000000 0.633478 1.000000
0.000000 0.650660 1.000000
0.000000 0.692836 1.000000
0.000000 0.758206 1.000000
0.000000 0.808621 1.000000
0.548669 0.857298 1.000000
0.798550 0.910002 1.000000
0.000000 0.699245 1.000000
0.000000 0.709651 1.000000
0.000000 0.721645 1.000000
0.000000 0.749874 1.000000
0.000000 0.796963 1.000000
0.516869 0.878264 1.000000
0.850401 0.939574 1.000000
0.936706 0.964050 1.000000
0.259098 0.860655 1.000000
0.326513 0.866545 1.000000
0.406867 0.873838 1.000000
0.529320 0.888060 1.000000
0.672511 0.908812 1.000000
0.815061 0.936370 1.000000
0.918822 0.963836 1.000000
0.976104 0.983886 1.000000
0.837888 0.927398 0.997528
0.835752 0.925383 0.994903
0.844083 0.924193 0.988067
0.874113 0.927825 0.976318
0.914885 0.939147 0.968780
0.953124 0.959716 0.980224
0.975647 0.978698 1.000000
0.990051 0.990661 1.000000
0.000000 0.568292 1.000000
0.000000 0.572076 1.000000
0.000000 0.578363 1.000000
0.000000 0.595209 1.000000
0.000000 0.620996 1.000000
0.000000 0.662593 1.000000
0.000000 0.724849 1.000000
0.000000 0.804288 1.000000
0.000000 0.568536 1.000000
0.000000 0.572900 1.000000
0.000000 0.578851 1.000000
0.000000 0.591608 1.000000
0.000000 0.614466 1.000000
0.000000 0.649866 1.000000
0.000000 0.704250 1.000000
0.000000 0.780362 1.000000
0.000000 0.614588 1.000000
0.000000 0.616083 1.000000
0.000000 0.620569 1.000000
0.000000 0.633600 1.000000
0.000000 0.655299 1.000000
0.000000 0.694728 1.000000
0.000000 0.760616 1.000000
0.412757 0.838834 1.000000
0.000000 0.704616 1.000000
0.000000 0.702754 1.000000
0.000000 0.706050 1.000000
0.000000 0.723537 1.000000
0.000000 0.748501 1.000000
0.000000 0.791897 1.000000
0.355505 0.846708 1.000000
0.686885 0.897185 1.000000
0.000000 0.752560 1.000000
0.000000 0.752621 1.000000
0.000000 0.766537 1.000000
0.000000 0.802884 1.000000
0.000000 0.836515 1.000000
0.399268 0.865690 1.000000
0.657954 0.900328 1.000000
0.846098 0.940276 1.000000
0.000000 0.801938 1.000000
0.000000 0.806455 1.000000
0.000000 0.822660 1.000000
0.000000 0.853239 1.000000
0.479957 0.892882 1.000000
0.783597 0.936156 1.000000
0.887663 0.957671 1.000000
0.942596 0.972412 1.000000
0.366979 0.896269 1.000000
0.398108 0.898833 1.000000
0.468666 0.905119 1.000000
0.584924 0.917418 1.000000
0.714107 0.933898 1.000000
0.843809 0.954864 1.000000
0.942535 0.976135 1.000000
0.980163 0.987854 1.000000
0.886198 0.964813 1.000000
0.889464 0.965454 1.000000
0.905486 0.968963 1.000000
0.922759 0.972808 1.000000
0.941711 0.977203 1.000000
0.961242 0.982238 1.000000
0.979553 0.988220 1.000000
0.990570 0.993133 1.000000
0.000000 0.680995 1.000000
0.000000 0.684901 1.000000
0.000000 0.691402 1.000000
0.000000 0.713741 1.000000
0.000000 0.748501 1.000000
0.000000 0.796750 1.000000
0.316655 0.855985 1.000000
0.677424 0.905516 1.000000
0.000000 0.683436 1.000000
0.000000 0.687556 1.000000
0.000000 0.695857 1.000000
0.000000 0.716518 1.000000
0.000000 0.750668 1.000000
0.000000 0.798734 1.000000
0.319127 0.856199 1.000000
0.673182 0.904570 1.000000
0.000000 0.723629 1.000000
0.000000 0.726162 1.000000
0.000000 0.733455 1.000000
0.000000 0.760494 1.000000
0.000000 0.790951 1.000000
0.000000 0.831968 1.000000
0.512902 0.882383 1.000000
0.735958 0.918273 1.000000
0.000000 0.799588 1.000000
0.000000 0.802976 1.000000
0.000000 0.811093 1.000000
0.000000 0.831022 1.000000
0.000000 0.858244 1.000000
0.520714 0.890349 1.000000
0.708492 0.917845 1.000000
0.830991 0.941711 1.000000
0.450690 0.893675 1.000000
0.464118 0.895048 1.000000
0.475532 0.895567 1.000000
0.553521 0.903899 1.000000
0.648188 0.915557 1.000000
0.745754 0.929900 1.000000
0.835752 0.946624 1.000000
0.904540 0.962554 1.000000
0.599390 0.917632 1.000000
0.606134 0.918303 1.000000
0.645838 0.922911 1.000000
0.728298 0.934081 1.000000
0.828031 0.950683 1.000000
0.892424 0.963653 1.000000
0.934112 0.973632 1.000000
0.961089 0.981262 1.000000
0.734279 0.942016 1.000000
0.739834 0.942687 1.000000
0.763149 0.945800 1.000000
0.813107 0.953155 1.000000
0.877836 0.964294 1.000000
0.935546 0.976501 1.000000
0.973541 0.986999 1.000000
0.983856 0.990539 1.000000
0.921660 0.975555 1.000000
0.922332 0.975708 1.000000
0.928252 0.976928 1.000000
0.941650 0.979919 1.000000
0.956786 0.983612 1.000000
0.971069 0.987488 1.000000
0.983551 0.991516 1.000000
0.992767 0.995300 1.000000
