20 Preset/Dark Style/【3】LUT video cho PR-AE-FCPX/19Tones/City Subway Reflect.cube
# Created by Adobe Lightroom plugin Export LUT (1.24.0)
# www.johnrellis.com/lightroom/exportlut.htm
# Preset: City Subway Reflect
# Color profile: E:\lut插件\exportlut.1.24\exportlut.lrplugin\color profiles\Rec709gamma2.4.icc
LUT_3D_SIZE 5
DOMAIN_MIN 0.000000 0.000000 0.000000
DOMAIN_MAX 0.903226 0.903226 0.903226
0.129000 0.136538 0.150576
0.097536 0.134005 0.145785
0.129763 0.117678 0.130129
0.313207 0.038361 0.127291
1.000000 0.000000 0.144900
0.108675 0.116121 0.126772
0.107790 0.115358 0.126101
0.133547 0.117342 0.125643
0.327398 0.103578 0.138918
1.000000 0.000000 0.163729
0.163699 0.169314 0.187594
0.164431 0.170077 0.188388
0.210636 0.210483 0.216800
0.394781 0.256687 0.202396
0.845243 0.274327 0.213596
0.402564 0.424537 0.446784
0.413062 0.434882 0.457099
0.458869 0.479133 0.500603
0.648493 0.606012 0.513695
1.000000 0.759243 0.469856
0.922820 0.918181 0.917662
0.925841 0.921263 0.921141
0.905303 0.900420 0.898436
0.953918 0.944182 0.929442
0.997375 0.971008 0.924895
0.092348 0.133211 0.178286
0.066560 0.127810 0.180667
0.089265 0.122988 0.170413
0.307591 0.052552 0.203799
0.926513 0.000000 0.192355
0.011292 0.132082 0.193484
0.006928 0.131319 0.195743
0.095308 0.138796 0.195865
0.334844 0.093660 0.196078
0.970977 0.000000 0.239658
0.134981 0.159976 0.192325
0.144747 0.166079 0.196353
0.206790 0.213382 0.233768
0.367620 0.282353 0.286534
0.972869 0.339086 0.363409
0.404944 0.426825 0.449134
0.436164 0.457343 0.479377
0.553155 0.567407 0.584222
0.672236 0.667506 0.647700
0.992462 0.813931 0.621790
0.932799 0.928496 0.929473
0.934264 0.930053 0.931304
0.945892 0.942443 0.946593
0.963256 0.960815 0.968292
0.992340 0.979706 0.966522
0.000000 0.273075 0.812131
0.000000 0.278874 0.831083
0.000000 0.295262 0.864073
0.000000 0.312657 0.826139
0.503136 0.258122 0.875517
0.000000 0.318090 0.873381
0.000000 0.315007 0.866911
0.000000 0.320623 0.864652
0.000000 0.350805 0.841733
0.586297 0.340764 0.898009
0.000000 0.379278 0.889433
0.000000 0.386389 0.889433
0.000000 0.440375 0.900938
0.000000 0.546319 0.902037
0.862516 0.625971 0.918242
0.000000 0.526116 0.802609
0.000000 0.524926 0.792752
0.143587 0.618311 0.829709
0.686458 0.801572 0.887541
0.960571 0.927886 0.921996
0.916960 0.912230 0.911070
0.927489 0.923003 0.923125
0.955200 0.952850 0.960693
0.970275 0.971801 0.992157
0.982727 0.983551 1.000000
0.000000 0.499519 1.000000
0.000000 0.507073 1.000000
0.000000 0.527398 1.000000
0.000000 0.585077 1.000000
0.000000 0.742092 1.000000
0.000000 0.529046 1.000000
0.000000 0.531975 1.000000
0.000000 0.550805 1.000000
0.000000 0.606043 1.000000
0.000000 0.760281 1.000000
0.000000 0.610285 1.000000
0.000000 0.620203 1.000000
0.000000 0.677882 1.000000
0.000000 0.733944 1.000000
0.667750 0.875731 1.000000
0.000000 0.766323 1.000000
0.000000 0.770626 1.000000
0.000000 0.820401 1.000000
0.699031 0.914580 1.000000
0.945342 0.969512 1.000000
0.853971 0.945617 1.000000
0.863218 0.947173 1.000000
0.904448 0.955474 1.000000
0.959838 0.973114 1.000000
0.989014 0.989776 1.000000
0.000000 0.680995 1.000000
0.000000 0.688533 1.000000
0.000000 0.729793 1.000000
0.000000 0.811337 1.000000
0.677424 0.905516 1.000000
0.000000 0.712367 1.000000
0.000000 0.720577 1.000000
0.000000 0.759915 1.000000
0.000000 0.835721 1.000000
0.726192 0.916075 1.000000
0.000000 0.845151 1.000000
0.000000 0.849821 1.000000
0.349554 0.876799 1.000000
0.666194 0.913451 1.000000
0.867674 0.951751 1.000000
0.655848 0.926726 1.000000
0.687251 0.930541 1.000000
0.808865 0.948638 1.000000
0.924376 0.971954 1.000000
0.967987 0.983886 1.000000
0.921660 0.975555 1.000000
0.926055 0.976471 1.000000
0.949371 0.981750 1.000000
0.974487 0.988495 1.000000
0.992767 0.995300 1.000000
