20 Preset/Dark Style/【3】LUT video cho PR-AE-FCPX/19Tones/City Skyscrapers 2.cube
# Created by Adobe Lightroom plugin Export LUT (1.24.0)
# www.johnrellis.com/lightroom/exportlut.htm
# Preset: City Skyscrapers 2
# Color profile: E:\lut插件\exportlut.1.24\exportlut.lrplugin\color profiles\Rec709gamma2.4.icc
LUT_3D_SIZE 8
DOMAIN_MIN 0.000000 0.000000 0.000000
DOMAIN_MAX 0.903226 0.903226 0.903226
0.000000 0.109194 0.134188
0.000702 0.111452 0.134554
0.096498 0.119844 0.134615
0.174563 0.132326 0.131991
0.305852 0.156100 0.123201
0.561975 0.233066 0.016938
0.912963 0.429053 0.000000
1.000000 0.561639 0.000000
0.000000 0.114900 0.135195
0.022431 0.116823 0.135348
0.100099 0.124544 0.134249
0.168887 0.135897 0.131136
0.286961 0.158358 0.123201
0.512108 0.222873 0.059419
0.831510 0.383673 0.000000
1.000000 0.538384 0.000000
0.097230 0.132845 0.137789
0.105287 0.132937 0.138155
0.151949 0.140871 0.136233
0.231449 0.157473 0.129244
0.358251 0.190616 0.112245
0.640894 0.310094 0.000000
0.948486 0.506798 0.000000
1.000000 0.611566 0.000000
0.202914 0.169741 0.136751
0.206058 0.168582 0.137118
0.251316 0.174380 0.135653
0.396551 0.219852 0.112703
0.656062 0.338903 0.000000
0.871580 0.472938 0.000000
1.000000 0.589349 0.000000
1.000000 0.660700 0.000000
0.413519 0.265843 0.103761
0.419226 0.265965 0.103609
0.470680 0.279393 0.090455
0.633783 0.349615 0.000000
0.810086 0.454353 0.000000
0.947875 0.548516 0.000000
1.000000 0.630121 0.000000
1.000000 0.686641 0.000000
0.749844 0.491585 0.000000
0.784817 0.515373 0.000000
0.811582 0.519524 0.000000
0.898100 0.555871 0.000000
0.982391 0.605493 0.000000
1.000000 0.658534 0.000000
1.000000 0.698939 0.000000
1.000000 0.725185 0.000000
1.000000 0.713680 0.000000
1.000000 0.715969 0.000000
1.000000 0.710353 0.000000
1.000000 0.707881 0.000000
1.000000 0.707607 0.000000
1.000000 0.723995 0.000000
1.000000 0.738430 0.000000
1.000000 0.749538 0.000000
1.000000 0.814176 0.000000
1.000000 0.812985 0.000000
1.000000 0.808865 0.000000
1.000000 0.801114 0.000000
1.000000 0.779751 0.000000
1.000000 0.776883 0.000000
1.000000 0.779873 0.000000
1.000000 0.779568 0.000000
0.000000 0.115480 0.152956
0.000000 0.118227 0.150149
0.081178 0.122438 0.136385
0.155428 0.135683 0.131502
0.271336 0.159396 0.123415
0.477180 0.216739 0.081331
0.776272 0.356054 0.000000
1.000000 0.511315 0.000000
0.000000 0.121187 0.150088
0.000000 0.122927 0.149020
0.094789 0.126162 0.137484
0.163119 0.138369 0.131930
0.276036 0.163699 0.122255
0.475502 0.222171 0.075105
0.744320 0.344335 0.000000
0.979736 0.495430 0.000000
0.093965 0.137179 0.143893
0.102113 0.135958 0.142184
0.144747 0.140352 0.137179
0.216678 0.155093 0.131563
0.330846 0.183810 0.117769
0.553033 0.267521 0.000000
0.824125 0.422553 0.000000
1.000000 0.565362 0.000000
0.188663 0.165713 0.136995
0.192691 0.165347 0.137423
0.230259 0.169772 0.136690
0.335393 0.197665 0.124269
0.502556 0.259159 0.052644
0.710353 0.364416 0.000000
0.914122 0.499123 0.000000
1.000000 0.614923 0.000000
0.396704 0.258976 0.108186
0.398383 0.256779 0.108980
0.428901 0.260410 0.105348
0.558068 0.306706 0.000092
0.713436 0.389075 0.000000
0.874449 0.490974 0.000000
1.000000 0.592737 0.000000
1.000000 0.666072 0.000000
0.699153 0.455299 0.000000
0.707454 0.458045 0.000000
0.737850 0.465766 0.000000
0.835782 0.509422 0.000000
0.943175 0.571710 0.000000
1.000000 0.641199 0.000000
1.000000 0.687556 0.000000
1.000000 0.716976 0.000000
0.975006 0.687770 0.000000
0.972930 0.682673 0.000000
0.980987 0.677211 0.000000
1.000000 0.680659 0.000000
1.000000 0.691829 0.000000
1.000000 0.712093 0.000000
1.000000 0.727810 0.000000
1.000000 0.740963 0.000000
1.000000 0.806546 0.000000
1.000000 0.807004 0.000000
1.000000 0.802792 0.000000
1.000000 0.795590 0.000000
1.000000 0.786282 0.000000
1.000000 0.778714 0.000000
1.000000 0.779080 0.000000
1.000000 0.778805 0.000000
0.000000 0.136080 0.212070
0.000000 0.137758 0.209689
0.000000 0.145266 0.194888
0.145724 0.147189 0.180423
0.290288 0.169894 0.126101
0.542351 0.263157 0.000000
0.842802 0.436591 0.000000
1.000000 0.574853 0.000000
0.000000 0.142000 0.206149
0.000000 0.143160 0.204654
0.013001 0.149477 0.192538
0.158022 0.146426 0.168643
0.291600 0.172610 0.128084
0.530144 0.258854 0.005188
0.813199 0.417151 0.000000
1.000000 0.564477 0.000000
0.000000 0.159426 0.195682
0.021790 0.160861 0.194736
0.106050 0.166201 0.191073
0.214908 0.167788 0.155917
0.369970 0.203738 0.121614
0.617762 0.307713 0.000000
0.871092 0.463447 0.000000
1.000000 0.598474 0.000000
0.193362 0.199496 0.180240
0.202152 0.199496 0.179232
0.237613 0.198428 0.172457
0.360754 0.219852 0.144533
0.555230 0.291264 0.000000
0.770108 0.409827 0.000000
0.958556 0.541314 0.000000
1.000000 0.637690 0.000000
0.422644 0.293675 0.128267
0.429755 0.293462 0.125216
0.465339 0.296635 0.109133
0.592676 0.336950 0.000000
0.761257 0.426673 0.000000
0.903685 0.519158 0.000000
1.000000 0.609186 0.000000
1.000000 0.675654 0.000000
0.720485 0.481697 0.000000
0.730739 0.486244 0.000000
0.756588 0.491676 0.000000
0.823514 0.513787 0.000000
0.936095 0.569879 0.000000
1.000000 0.639643 0.000000
1.000000 0.688991 0.000000
1.000000 0.720790 0.000000
0.989227 0.710506 0.000000
0.988251 0.706783 0.000000
0.992462 0.698146 0.000000
1.000000 0.691218 0.000000
1.000000 0.699092 0.000000
1.000000 0.716426 0.000000
1.000000 0.734249 0.000000
1.000000 0.747677 0.000000
1.000000 0.813107 0.000000
1.000000 0.811276 0.000000
1.000000 0.806851 0.000000
1.000000 0.801602 0.000000
1.000000 0.790799 0.000000
1.000000 0.781796 0.000000
1.000000 0.782193 0.000000
1.000000 0.781399 0.000000
0.000000 0.180850 0.349340
0.000000 0.183444 0.351202
0.000000 0.185977 0.328496
0.080110 0.195438 0.289860
0.195224 0.235019 0.261509
0.508629 0.203159 0.163882
0.800107 0.406744 0.000000
1.000000 0.577050 0.000000
0.000000 0.191501 0.355749
0.000000 0.192111 0.351629
0.000000 0.193698 0.329900
0.107607 0.203433 0.293248
0.223453 0.256870 0.282414
0.527123 0.219699 0.150118
0.807187 0.415412 0.000000
1.000000 0.579858 0.000000
0.000000 0.208011 0.327367
0.000000 0.208835 0.325231
0.000000 0.211856 0.317876
0.165225 0.225376 0.289433
0.348119 0.227543 0.261204
0.635401 0.315831 0.000000
0.918456 0.505516 0.000000
1.000000 0.625208 0.000000
0.104891 0.260075 0.316777
0.124605 0.260655 0.313603
0.185946 0.268742 0.307591
0.294682 0.289464 0.297887
0.511131 0.305364 0.187747
0.747402 0.407721 0.000000
0.956786 0.548455 0.000000
1.000000 0.647150 0.000000
0.431373 0.414435 0.280888
0.438911 0.410498 0.276555
0.484199 0.408606 0.264073
0.587793 0.419257 0.238163
0.780697 0.477302 0.092744
0.931884 0.556542 0.000000
1.000000 0.636378 0.000000
1.000000 0.688685 0.000000
0.768002 0.591028 0.001526
0.795163 0.608759 0.000000
0.816403 0.601465 0.000000
0.869505 0.600427 0.000000
0.964233 0.620752 0.000000
1.000000 0.660792 0.000000
1.000000 0.700679 0.000000
1.000000 0.728176 0.000000
0.997864 0.742977 0.000000
1.000000 0.743313 0.000000
1.000000 0.739742 0.000000
1.000000 0.733455 0.000000
1.000000 0.727382 0.000000
1.000000 0.729915 0.000000
1.000000 0.742245 0.000000
1.000000 0.753872 0.000000
1.000000 0.830686 0.000000
1.000000 0.829526 0.000000
1.000000 0.824887 0.000000
1.000000 0.816464 0.000000
1.000000 0.802457 0.000000
1.000000 0.788510 0.000000
1.000000 0.786862 0.000000
1.000000 0.786069 0.000000
0.000000 0.298863 0.682216
0.000000 0.301732 0.686183
0.000000 0.300023 0.667079
0.000000 0.307378 0.639277
0.140078 0.318669 0.554528
0.338201 0.355108 0.390234
0.768215 0.304265 0.409216
1.000000 0.487221 0.000000
0.000000 0.312505 0.693050
0.000000 0.317906 0.702449
0.000000 0.319280 0.690974
0.000000 0.318639 0.644526
0.172366 0.328099 0.555200
0.345129 0.365240 0.391821
0.760342 0.308110 0.381384
1.000000 0.502770 0.000000
0.000000 0.350134 0.697383
0.000000 0.351232 0.698604
0.000000 0.347448 0.681880
0.000000 0.342779 0.625055
0.250187 0.349798 0.528923
0.390295 0.415167 0.435035
0.809506 0.335882 0.277165
1.000000 0.550286 0.000000
0.000000 0.392920 0.647791
0.000000 0.393072 0.643915
0.000000 0.399451 0.637720
0.000000 0.413855 0.626612
0.380072 0.436011 0.542901
0.629725 0.437507 0.474861
0.916045 0.496498 0.000000
1.000000 0.628809 0.000000
0.130556 0.481666 0.589075
0.171633 0.485695 0.589105
0.275608 0.496742 0.581445
0.406256 0.520745 0.567071
0.576776 0.554131 0.538262
0.831876 0.548638 0.286870
0.997528 0.613642 0.000000
1.000000 0.679042 0.000000
0.477180 0.623011 0.545129
0.501640 0.632044 0.540368
0.616083 0.647669 0.482643
0.715206 0.643244 0.438880
0.822751 0.637720 0.391424
0.983185 0.676905 0.259068
1.000000 0.704128 0.000000
1.000000 0.727321 0.000000
0.936614 0.808377 0.384802
0.938109 0.803525 0.368170
0.950896 0.790921 0.314000
0.985229 0.780423 0.243687
1.000000 0.761776 0.047486
1.000000 0.742489 0.000000
1.000000 0.741634 0.000000
1.000000 0.752682 0.000000
1.000000 0.843442 0.000000
1.000000 0.841611 0.000000
1.000000 0.834714 0.000000
1.000000 0.828977 0.000000
1.000000 0.815549 0.000000
1.000000 0.798184 0.000000
1.000000 0.788022 0.000000
1.000000 0.786465 0.000000
0.000000 0.487526 0.964111
0.000000 0.492287 0.965515
0.000000 0.492073 0.957763
0.000000 0.506065 0.946807
0.000000 0.534722 0.919951
0.387945 0.566888 0.862547
0.575311 0.609094 0.726680
0.840513 0.884154 0.921965
0.000000 0.471504 0.945006
0.000000 0.471321 0.943267
0.000000 0.471565 0.936156
0.000000 0.479622 0.922942
0.000000 0.506920 0.896574
0.363897 0.543084 0.837919
0.558770 0.590021 0.698695
0.837186 0.881498 0.919799
0.000000 0.521172 0.952850
0.000000 0.520043 0.951415
0.000000 0.522423 0.945892
0.000000 0.519066 0.923461
0.000000 0.546960 0.895201
0.436988 0.584466 0.838682
0.591669 0.629267 0.705898
0.874296 0.832334 0.897856
0.000000 0.587091 0.942443
0.000000 0.585443 0.939940
0.000000 0.592981 0.936584
0.000000 0.625147 0.937163
0.370611 0.664607 0.915892
0.587854 0.694392 0.866300
0.687343 0.746273 0.786160
0.973938 0.709071 0.741329
0.000000 0.649500 0.904967
0.000000 0.650813 0.903716
0.000000 0.659846 0.900542
0.281010 0.683009 0.897246
0.489509 0.710475 0.888731
0.656184 0.734066 0.836027
0.838193 0.764645 0.823178
1.000000 0.663569 0.196689
0.437446 0.742824 0.861967
0.463661 0.751736 0.866728
0.506371 0.756985 0.862181
0.579950 0.768765 0.854826
0.670771 0.784787 0.842344
0.804776 0.820310 0.842710
0.992859 0.789334 0.632868
1.000000 0.750057 0.147127
0.771511 0.842893 0.880949
0.773800 0.850340 0.885527
0.769284 0.867155 0.886320
0.815671 0.888640 0.873747
0.903044 0.886442 0.835355
0.961730 0.865293 0.789059
1.000000 0.829984 0.625696
1.000000 0.776333 0.000000
0.966339 0.930877 0.819913
0.968536 0.928710 0.811093
0.979767 0.922393 0.783383
1.000000 0.910460 0.724636
1.000000 0.884123 0.581598
1.000000 0.846708 0.384924
1.000000 0.798764 0.000000
1.000000 0.791135 0.000000
0.000000 0.579919 1.000000
0.000000 0.585382 1.000000
0.000000 0.596918 1.000000
0.000000 0.628504 0.997314
0.000000 0.677089 0.988312
0.508904 0.738064 0.973846
0.663264 0.774228 0.952667
0.744106 0.793668 0.908293
0.000000 0.575830 1.000000
0.000000 0.581842 1.000000
0.000000 0.592370 0.998566
0.000000 0.617090 0.993713
0.000000 0.660700 0.984558
0.462257 0.715480 0.968994
0.628077 0.748287 0.944488
0.716732 0.767514 0.890593
0.000000 0.614252 1.000000
0.000000 0.616907 0.999542
0.000000 0.626062 0.996887
0.000000 0.650050 0.991669
0.135714 0.687709 0.982025
0.517266 0.739864 0.967254
0.673701 0.779141 0.946532
0.755825 0.803677 0.903288
0.000000 0.686122 0.995483
0.000000 0.684749 0.994690
0.000000 0.689876 0.992798
0.000000 0.712917 0.988983
0.422797 0.747768 0.979858
0.623957 0.792935 0.967193
0.740047 0.823545 0.949248
0.792844 0.837308 0.908965
0.000000 0.749813 0.983764
0.000000 0.747677 0.982940
0.214267 0.751064 0.981140
0.378546 0.765805 0.979065
0.532341 0.789822 0.974395
0.678370 0.821683 0.962005
0.774563 0.844633 0.943175
0.815793 0.864256 0.905119
0.536004 0.825498 0.970153
0.545098 0.827207 0.970031
0.575860 0.832517 0.969299
0.629908 0.842832 0.967987
0.697505 0.856931 0.965850
0.780575 0.878782 0.963775
0.847776 0.893675 0.948638
0.924834 0.923522 0.956085
0.753292 0.894163 0.959808
0.759121 0.895872 0.960113
0.770779 0.898131 0.959350
0.794186 0.903258 0.958190
0.824186 0.909300 0.955657
0.861753 0.917418 0.952453
0.913756 0.928649 0.950256
1.000000 0.902068 0.878813
0.884520 0.932036 0.956817
0.886778 0.932525 0.957122
0.897734 0.934691 0.958801
0.907408 0.939055 0.961547
0.912963 0.954681 0.961212
0.959014 0.956176 0.946715
0.991424 0.941711 0.927672
1.000000 0.901915 0.827970
0.000000 0.713191 1.000000
0.000000 0.719112 1.000000
0.000000 0.731960 1.000000
0.330571 0.765896 1.000000
0.549493 0.808957 1.000000
0.697810 0.851194 0.997314
0.801999 0.888060 0.989899
0.854093 0.905364 0.982605
0.000000 0.709804 1.000000
0.000000 0.715785 1.000000
0.000000 0.730587 1.000000
0.309667 0.762112 1.000000
0.536370 0.804623 1.000000
0.688838 0.847227 0.996826
0.794034 0.883604 0.989166
0.847990 0.901244 0.981537
0.000000 0.729458 1.000000
0.000000 0.733394 1.000000
0.000000 0.745815 1.000000
0.400153 0.781216 1.000000
0.570672 0.816678 1.000000
0.701442 0.853056 0.995727
0.801175 0.887541 0.988434
0.854276 0.905119 0.981079
0.192355 0.767178 1.000000
0.240635 0.770901 1.000000
0.333959 0.779873 1.000000
0.487373 0.805509 1.000000
0.626581 0.838010 1.000000
0.738949 0.870848 0.994446
0.824063 0.900420 0.988098
0.872313 0.916594 0.981537
0.468879 0.816007 1.000000
0.481605 0.818357 1.000000
0.503136 0.821012 1.000000
0.576135 0.835233 1.000000
0.671962 0.858061 0.998840
0.768673 0.886412 0.993194
0.845457 0.912871 0.987610
0.893248 0.929839 0.982147
0.670527 0.874266 0.997620
0.669886 0.873686 0.997467
0.675685 0.873930 0.996979
0.700343 0.878843 0.996246
0.743557 0.889403 0.995300
0.817899 0.912505 0.993164
0.885130 0.936095 0.989136
0.916503 0.944579 0.982879
0.819852 0.927947 0.992157
0.820981 0.928191 0.992096
0.826413 0.929412 0.991852
0.839384 0.932799 0.991516
0.855711 0.936706 0.990845
0.878172 0.942443 0.990051
0.908080 0.950713 0.988952
0.936889 0.957183 0.982330
0.892638 0.956664 0.987701
0.892973 0.956664 0.987610
0.896239 0.957427 0.987427
0.904387 0.959686 0.987274
0.915465 0.962615 0.986877
0.929351 0.966125 0.986145
0.946868 0.970459 0.985016
0.970245 0.975586 0.983948
