20 Preset/Dark Style/【3】LUT video cho PR-AE-FCPX/19Tones/City Subway 1.cube
# Created by Adobe Lightroom plugin Export LUT (1.24.0)
# www.johnrellis.com/lightroom/exportlut.htm
# Preset: City Subway 1
# Color profile: E:\lut插件\exportlut.1.24\exportlut.lrplugin\color profiles\Rec709gamma2.4.icc
LUT_3D_SIZE 8
DOMAIN_MIN 0.000000 0.000000 0.000000
DOMAIN_MAX 0.903226 0.903226 0.903226
0.031464 0.141634 0.180972
0.040681 0.141665 0.180941
0.221988 0.135500 0.178897
0.527581 0.000000 0.169558
0.894926 0.000000 0.140078
1.000000 0.000000 0.000000
1.000000 0.000000 0.000000
1.000000 0.199252 0.000000
0.026764 0.141970 0.180941
0.031769 0.141634 0.180789
0.179110 0.148684 0.178225
0.445258 0.093233 0.171237
0.812802 0.000000 0.148104
1.000000 0.000000 0.061006
1.000000 0.000000 0.000000
1.000000 0.203128 0.000000
0.000000 0.193484 0.241428
0.000000 0.203616 0.231937
0.112978 0.186648 0.228855
0.396612 0.226230 0.188724
0.814328 0.195773 0.161013
1.000000 0.239109 0.104189
1.000000 0.352026 0.107515
1.000000 0.413550 0.153353
0.000000 0.345495 0.423621
0.000000 0.367498 0.414527
0.000000 0.421149 0.359045
0.401526 0.424231 0.430671
0.810910 0.579492 0.417578
1.000000 0.579583 0.269444
1.000000 0.588159 0.290532
1.000000 0.595087 0.318608
0.000000 0.613062 0.729549
0.000000 0.633417 0.723232
0.000000 0.718471 0.711025
0.000000 0.734310 0.581445
0.701320 0.674647 0.688838
0.895445 0.779782 0.765560
1.000000 0.745876 0.478065
1.000000 0.748013 0.517601
0.000000 0.794675 0.918700
0.000000 0.818296 0.926085
0.000000 0.865873 0.918822
0.000000 0.908995 0.893278
0.725368 0.867216 0.812375
0.889616 0.839811 0.896666
0.950744 0.905486 0.952239
1.000000 0.890837 0.876310
0.000000 0.904326 0.979339
0.000000 0.912596 0.978973
0.000000 0.936797 0.974243
0.000000 0.964446 0.966735
0.674647 0.942077 0.934142
0.914458 0.918364 0.930999
0.953277 0.913573 0.960296
0.972992 0.944671 0.978119
0.000000 0.971801 0.997620
0.000000 0.974975 0.996887
0.000000 0.984863 0.994049
0.303288 0.991241 0.989258
0.740108 0.977417 0.974762
0.916045 0.963470 0.967193
0.971618 0.956359 0.975677
0.980072 0.957702 0.984161
0.029511 0.141238 0.180667
0.039826 0.140902 0.182589
0.192264 0.127871 0.184237
0.435828 0.000000 0.182284
0.803037 0.000000 0.170840
1.000000 0.000000 0.142275
1.000000 0.000000 0.111940
1.000000 0.000000 0.095583
0.022889 0.141970 0.183017
0.033600 0.144503 0.184787
0.172244 0.141726 0.187289
0.413703 0.079255 0.186130
0.773953 0.000000 0.175479
1.000000 0.000000 0.147768
1.000000 0.000000 0.116243
1.000000 0.042329 0.094301
0.000000 0.161440 0.249760
0.000000 0.169284 0.253635
0.130190 0.200198 0.237858
0.370520 0.223423 0.216678
0.747189 0.170748 0.202396
1.000000 0.136263 0.175113
1.000000 0.255039 0.157717
1.000000 0.355779 0.168215
0.000000 0.263920 0.412543
0.000000 0.287968 0.407660
0.000000 0.407507 0.399664
0.337865 0.370733 0.386023
0.673579 0.476814 0.359564
0.993225 0.490333 0.260441
1.000000 0.513817 0.258610
1.000000 0.542382 0.281559
0.000000 0.538140 0.721279
0.000000 0.558587 0.711055
0.000000 0.650294 0.689204
0.000000 0.701106 0.578515
0.636683 0.620722 0.623011
0.855924 0.736385 0.701808
1.000000 0.714107 0.443336
1.000000 0.722286 0.482185
0.000000 0.741878 0.906218
0.000000 0.757198 0.905028
0.000000 0.814145 0.898375
0.000000 0.891661 0.888701
0.655421 0.855222 0.789731
0.874968 0.825711 0.881346
0.944823 0.897093 0.945800
1.000000 0.879942 0.855711
0.000000 0.876707 0.975830
0.000000 0.882811 0.973754
0.000000 0.911406 0.968444
0.000000 0.949828 0.961151
0.599359 0.938903 0.930816
0.897765 0.912657 0.920073
0.945464 0.902800 0.952850
0.968383 0.936797 0.974090
0.000000 0.959838 0.996948
0.000000 0.964446 0.996551
0.000000 0.977050 0.993591
0.000000 0.987457 0.988647
0.759731 0.979675 0.978851
0.916075 0.964904 0.969024
0.970550 0.956115 0.975128
0.979614 0.956817 0.983764
0.023163 0.159182 0.218265
0.002930 0.155612 0.234104
0.182681 0.130129 0.281712
0.469429 0.000000 0.298192
0.865568 0.000000 0.309361
1.000000 0.000000 0.308721
1.000000 0.000000 0.319219
1.000000 0.243626 0.323308
0.091890 0.174563 0.219974
0.096284 0.181064 0.230320
0.153231 0.154665 0.288212
0.433234 0.051362 0.300359
0.831174 0.000000 0.311254
1.000000 0.000000 0.309758
1.000000 0.000000 0.311437
1.000000 0.249485 0.314794
0.000000 0.188815 0.283482
0.000000 0.198672 0.287358
0.160220 0.244846 0.300755
0.395789 0.249516 0.345342
0.829099 0.151614 0.353552
1.000000 0.169528 0.353491
1.000000 0.313848 0.356176
1.000000 0.417823 0.364630
0.000000 0.239841 0.422248
0.000000 0.253117 0.432868
0.000000 0.307439 0.466957
0.235874 0.492439 0.509972
0.732113 0.537591 0.456336
1.000000 0.543999 0.451942
1.000000 0.571435 0.461494
1.000000 0.602136 0.475776
0.000000 0.403235 0.747677
0.000000 0.412238 0.751095
0.000000 0.456855 0.770382
0.000000 0.678553 0.764096
0.706600 0.716732 0.684627
0.873381 0.769955 0.767575
1.000000 0.745266 0.608209
1.000000 0.756405 0.638392
0.000000 0.549676 0.935302
0.000000 0.573419 0.935943
0.000000 0.672450 0.929046
0.000000 0.810941 0.913237
0.513512 0.874601 0.869169
0.885527 0.835813 0.883299
0.946624 0.900572 0.949065
1.000000 0.885161 0.874815
0.000000 0.791958 0.990387
0.000000 0.802609 0.988434
0.000000 0.846189 0.981628
0.000000 0.909056 0.971313
0.514672 0.947967 0.959319
0.881987 0.921965 0.930755
0.950103 0.909087 0.957275
0.972564 0.943938 0.977752
0.000000 0.921386 1.000000
0.000000 0.926696 1.000000
0.000000 0.947234 0.998291
0.000000 0.970397 0.992523
0.722774 0.982208 0.986084
0.909117 0.968109 0.973938
0.969421 0.960540 0.976623
0.980865 0.959167 0.984802
0.139437 0.241672 0.329076
0.137636 0.246891 0.355383
0.152255 0.217594 0.420600
0.451209 0.000000 0.527794
0.851987 0.000000 0.574029
1.000000 0.000000 0.570672
1.000000 0.000000 0.543938
1.000000 0.361700 0.550866
0.220554 0.286351 0.335332
0.215671 0.291020 0.355688
0.196658 0.271977 0.428016
0.445869 0.115358 0.550439
0.854185 0.000000 0.594110
1.000000 0.000000 0.579950
1.000000 0.000000 0.552850
1.000000 0.399023 0.562005
0.205417 0.312718 0.388098
0.235752 0.326452 0.391852
0.346899 0.383886 0.404517
0.392828 0.367285 0.543542
0.808896 0.269139 0.634333
1.000000 0.307836 0.643000
1.000000 0.474617 0.654902
1.000000 0.579034 0.661158
0.000000 0.377203 0.560388
0.000000 0.387976 0.560906
0.227298 0.441962 0.574090
0.497597 0.550042 0.604608
0.695460 0.575128 0.713375
0.983551 0.587366 0.708278
1.000000 0.641627 0.715358
1.000000 0.686549 0.720424
0.000000 0.470924 0.767758
0.000000 0.478584 0.766079
0.000000 0.522789 0.773770
0.308324 0.613794 0.800168
0.667445 0.722927 0.829801
0.888853 0.796109 0.825589
1.000000 0.799802 0.823453
1.000000 0.809232 0.825925
0.000000 0.590539 0.935271
0.000000 0.609216 0.942962
0.000000 0.636957 0.943572
0.000000 0.697078 0.948211
0.534844 0.777920 0.950561
0.866728 0.885710 0.917479
0.952667 0.909483 0.955840
1.000000 0.894224 0.907317
0.000000 0.669917 1.000000
0.000000 0.676204 1.000000
0.000000 0.700252 1.000000
0.000000 0.760983 0.997559
0.524468 0.893614 0.979126
0.853696 0.938628 0.963195
0.958312 0.922972 0.961975
0.976165 0.950347 0.980835
0.000000 0.799405 1.000000
0.000000 0.811002 1.000000
0.000000 0.856199 1.000000
0.000000 0.917967 1.000000
0.671229 0.958282 0.992248
0.890806 0.973754 0.983764
0.964477 0.966827 0.978729
0.982696 0.962768 0.986328
0.351019 0.427680 0.529046
0.356115 0.436194 0.555871
0.343877 0.421241 0.628717
0.461250 0.353491 0.758785
0.807797 0.000000 0.869413
1.000000 0.000000 0.852934
1.000000 0.221866 0.806394
1.000000 0.463416 0.775814
0.423133 0.474250 0.535576
0.427741 0.484138 0.562280
0.423896 0.489601 0.650996
0.479530 0.416724 0.764858
0.796689 0.000000 0.875486
1.000000 0.000000 0.859281
1.000000 0.296086 0.813077
1.000000 0.494148 0.783810
0.533165 0.554803 0.581933
0.557305 0.568658 0.587762
0.598047 0.601038 0.625208
0.564538 0.584802 0.747738
0.715480 0.430182 0.851286
0.991363 0.354498 0.859739
1.000000 0.453712 0.827970
1.000000 0.571862 0.801083
0.434638 0.573968 0.707454
0.460670 0.583429 0.709071
0.563409 0.626673 0.722042
0.708705 0.696498 0.743496
0.739010 0.713100 0.838376
0.921477 0.625818 0.898100
1.000000 0.663752 0.876493
1.000000 0.716854 0.857877
0.171695 0.610834 0.842741
0.252384 0.620417 0.844968
0.427527 0.654108 0.849119
0.622827 0.712398 0.856809
0.782986 0.775509 0.864897
0.862150 0.813169 0.898650
0.993164 0.800168 0.908965
1.000000 0.827085 0.906279
0.000000 0.631006 0.918730
0.000000 0.637903 0.919280
0.000000 0.658259 0.916564
0.403784 0.705013 0.917662
0.668727 0.770016 0.921904
0.859373 0.846036 0.936095
0.948211 0.897795 0.946166
1.000000 0.901244 0.942901
0.000000 0.685481 0.990845
0.000000 0.687800 0.990112
0.000000 0.703670 0.988861
0.000000 0.749630 0.988067
0.578424 0.814176 0.984588
0.819303 0.871244 0.980896
0.939330 0.934112 0.964996
0.975952 0.949950 0.980652
0.000000 0.684474 1.000000
0.000000 0.688350 1.000000
0.000000 0.707790 1.000000
0.000000 0.759670 1.000000
0.361456 0.868284 1.000000
0.851987 0.951476 0.991424
0.948821 0.969451 0.982544
0.982483 0.962341 0.985473
0.687282 0.703273 0.829160
0.695308 0.710292 0.844724
0.695918 0.709285 0.877623
0.693782 0.674098 0.918273
0.768582 0.572320 0.955840
0.973754 0.352636 0.986023
1.000000 0.458350 0.974762
1.000000 0.597284 0.939147
0.683406 0.694606 0.797238
0.682033 0.695552 0.807584
0.678981 0.696468 0.846616
0.670710 0.666011 0.895750
0.742245 0.574762 0.942412
0.954772 0.361395 0.980102
1.000000 0.457893 0.970794
1.000000 0.591943 0.935760
0.803311 0.763149 0.807645
0.799252 0.763516 0.815457
0.789731 0.767758 0.849851
0.768368 0.756405 0.892638
0.771145 0.698604 0.934417
0.915190 0.564935 0.972778
1.000000 0.584558 0.973785
1.000000 0.671473 0.943633
0.781460 0.776608 0.872374
0.787564 0.778714 0.870909
0.822110 0.796017 0.874571
0.881102 0.832029 0.889036
0.876677 0.837736 0.936309
0.898497 0.785428 0.964202
1.000000 0.749569 0.976257
1.000000 0.785977 0.957977
0.697780 0.764218 0.912047
0.709194 0.768185 0.912047
0.755001 0.785763 0.913329
0.826261 0.817319 0.917693
0.891447 0.851438 0.921691
0.911528 0.867643 0.945739
0.968322 0.824338 0.970245
1.000000 0.840513 0.958892
0.601038 0.765621 0.951934
0.627710 0.773892 0.953460
0.682063 0.788632 0.952575
0.765072 0.814786 0.951537
0.848814 0.846891 0.950774
0.920043 0.886290 0.954803
0.951598 0.910094 0.967041
1.000000 0.907286 0.968872
0.446387 0.778805 0.987854
0.481117 0.784543 0.987915
0.561822 0.797971 0.986450
0.679744 0.822385 0.983795
0.799252 0.854734 0.980529
0.895476 0.891936 0.977691
0.948425 0.923674 0.977020
0.979034 0.949157 0.978698
0.000000 0.720089 1.000000
0.000000 0.722255 1.000000
0.000000 0.736324 1.000000
0.000000 0.768673 1.000000
0.402228 0.824186 1.000000
0.824002 0.892607 0.999207
0.936248 0.952758 0.992035
0.979797 0.969696 0.985779
0.839780 0.816556 0.925933
0.842008 0.818448 0.929778
0.843961 0.819242 0.940551
0.843412 0.810849 0.956268
0.846281 0.775967 0.972473
0.897948 0.702052 0.990387
1.000000 0.576226 1.000000
1.000000 0.651026 0.999237
0.843137 0.817899 0.920409
0.845487 0.820157 0.924712
0.846555 0.821225 0.936217
0.845121 0.814084 0.952544
0.844450 0.780423 0.969329
0.891173 0.708156 0.987640
1.000000 0.575921 1.000000
1.000000 0.645136 0.998077
0.882139 0.842588 0.916869
0.881651 0.843198 0.919921
0.879240 0.844388 0.930816
0.878904 0.845029 0.948486
0.872282 0.824369 0.964813
0.895750 0.774655 0.981903
0.991730 0.669886 1.000000
1.000000 0.717372 0.996490
0.900847 0.859373 0.927184
0.902586 0.859983 0.926360
0.913451 0.867002 0.926879
0.917235 0.875090 0.940459
0.915221 0.876219 0.960266
0.916045 0.853025 0.975525
0.963653 0.800748 0.990967
1.000000 0.797635 0.993072
0.876341 0.856321 0.947601
0.878721 0.857237 0.947051
0.891875 0.864195 0.946746
0.914946 0.878294 0.947570
0.940246 0.896910 0.949584
0.939788 0.901122 0.968719
0.951110 0.876005 0.982574
1.000000 0.860716 0.990082
0.843076 0.854307 0.967559
0.848020 0.856443 0.967559
0.865965 0.864439 0.967285
0.894499 0.878782 0.967010
0.925536 0.897276 0.966918
0.953613 0.919066 0.968322
0.962158 0.928954 0.978485
0.991943 0.910307 0.988556
0.793088 0.852232 0.985260
0.800656 0.854795 0.985138
0.824460 0.862852 0.984405
0.863340 0.877897 0.983215
0.904265 0.897185 0.981872
0.939452 0.918700 0.981048
0.965606 0.940215 0.981292
0.979767 0.949462 0.986694
0.550683 0.822507 1.000000
0.567834 0.825254 1.000000
0.634882 0.837156 1.000000
0.728878 0.856718 1.000000
0.824674 0.882322 0.998108
0.898894 0.910826 0.994842
0.952239 0.942077 0.992126
0.977996 0.965484 0.992096
0.933196 0.898924 0.970672
0.933684 0.899504 0.971588
0.933745 0.899321 0.974395
0.935393 0.899107 0.979675
0.933318 0.887999 0.985534
0.939178 0.866758 0.992828
0.966888 0.826200 1.000000
1.000000 0.773831 1.000000
0.933593 0.899077 0.969238
0.934081 0.899687 0.970214
0.934417 0.900053 0.973327
0.936309 0.900481 0.978820
0.933898 0.889830 0.984741
0.938994 0.869322 0.992065
0.965240 0.829526 1.000000
1.000000 0.776059 1.000000
0.941253 0.905791 0.966613
0.941283 0.906126 0.967498
0.940856 0.906523 0.970642
0.942748 0.908812 0.976867
0.941711 0.903105 0.983062
0.943297 0.885893 0.989929
0.963287 0.854856 0.998352
1.000000 0.805112 1.000000
0.953948 0.914916 0.961517
0.953887 0.915496 0.962615
0.952911 0.916747 0.966278
0.952361 0.919188 0.972839
0.953155 0.920684 0.980468
0.952514 0.910979 0.987243
0.963592 0.890929 0.994751
1.000000 0.850797 1.000000
0.945830 0.913207 0.969177
0.947112 0.914336 0.969299
0.951202 0.917510 0.969055
0.959472 0.925078 0.969635
0.962890 0.931701 0.975189
0.963439 0.933776 0.984253
0.966430 0.922118 0.991363
0.990417 0.898466 0.999054
0.933349 0.911254 0.978820
0.934325 0.911803 0.978668
0.939025 0.914855 0.978210
0.948363 0.921752 0.977813
0.960784 0.932341 0.977722
0.974395 0.947356 0.979522
0.974945 0.950530 0.989044
0.984039 0.935973 0.995575
0.915343 0.909117 0.989075
0.917021 0.910063 0.988983
0.924010 0.914183 0.988617
0.936126 0.921904 0.988006
0.951019 0.932616 0.987243
0.966400 0.945708 0.986694
0.980346 0.960510 0.986847
0.983795 0.963256 0.992828
0.849454 0.889586 0.999847
0.852995 0.890867 0.999664
0.868132 0.896696 0.998962
0.893950 0.907958 0.997803
0.922759 0.923003 0.996338
0.948974 0.940215 0.994965
0.971130 0.958923 0.993957
0.986877 0.975769 0.993744
