20 Preset/Dark Style/【3】LUT video cho PR-AE-FCPX/19Tones/City DJI Empire.cube
# Created by Adobe Lightroom plugin Export LUT (1.24.0)
# www.johnrellis.com/lightroom/exportlut.htm
# Preset: City DJI Empire
# Color profile: E:\lut插件\exportlut.1.24\exportlut.lrplugin\color profiles\Rec709gamma2.4.icc
LUT_3D_SIZE 5
DOMAIN_MIN 0.000000 0.000000 0.000000
DOMAIN_MAX 0.903226 0.903226 0.903226
0.107240 0.109377 0.102113
0.421820 0.000000 0.106050
1.000000 0.000000 0.209964
1.000000 0.808621 0.811887
1.000000 0.949676 0.940917
0.198764 0.193027 0.176394
0.775998 0.346288 0.000000
1.000000 0.509789 0.191684
1.000000 0.837919 0.794858
1.000000 0.960052 0.947509
0.966491 0.946685 0.902373
1.000000 0.959045 0.838254
1.000000 0.945159 0.654688
1.000000 0.943114 0.827329
1.000000 0.973846 0.951415
0.996765 0.992279 0.983398
0.998749 0.993286 0.981994
1.000000 0.993957 0.974365
1.000000 0.988891 0.955047
1.000000 0.989380 0.966918
0.998871 0.997467 0.995026
0.999115 0.997650 0.994873
1.000000 0.997894 0.993378
1.000000 0.998077 0.992493
1.000000 0.997253 0.990661
0.115602 0.121431 0.119081
0.135531 0.137209 0.130739
1.000000 0.000000 0.504753
1.000000 0.867765 0.872496
1.000000 0.958770 0.951263
0.246738 0.255009 0.266606
0.634028 0.340734 0.172213
1.000000 0.632898 0.547173
1.000000 0.885100 0.863066
1.000000 0.963470 0.952728
0.947875 0.932341 0.900023
1.000000 0.954040 0.860197
1.000000 0.941192 0.701930
1.000000 0.946349 0.856687
1.000000 0.979034 0.961944
0.996429 0.992340 0.984497
0.998291 0.993439 0.983551
1.000000 0.994354 0.977966
1.000000 0.990326 0.963714
1.000000 0.990723 0.972625
0.998779 0.997436 0.995270
0.999023 0.997650 0.995117
1.000000 0.998199 0.994598
1.000000 0.998352 0.993713
1.000000 0.997711 0.992340
0.123903 0.252720 0.369390
0.236027 0.272313 0.326635
0.405493 0.360357 0.423072
1.000000 0.908110 0.934447
1.000000 0.979034 0.975036
0.456580 0.581476 0.711849
0.581933 0.614343 0.677638
1.000000 0.736416 0.837003
1.000000 0.961089 0.960021
1.000000 0.987366 0.982452
0.972381 0.966064 0.957244
0.974578 0.967529 0.956390
1.000000 0.972930 0.930114
1.000000 0.982330 0.966766
1.000000 0.990417 0.983490
0.995972 0.992859 0.988006
0.996582 0.993164 0.987152
1.000000 0.995209 0.985321
1.000000 0.993713 0.980591
1.000000 0.993774 0.984222
0.998749 0.997528 0.995514
0.998810 0.997589 0.995605
0.999512 0.998138 0.995453
1.000000 0.998535 0.994781
1.000000 0.997986 0.993500
0.646235 0.780148 0.901061
0.708186 0.791104 0.886442
0.735622 0.742855 0.768582
0.802426 0.775814 0.804776
1.000000 0.977630 0.978088
0.842039 0.891447 0.937560
0.870390 0.896635 0.928740
0.841184 0.839841 0.847349
0.965454 0.878416 0.905791
1.000000 0.983185 0.981506
0.977081 0.975067 0.970581
0.982574 0.979461 0.973999
0.982635 0.976867 0.968383
1.000000 0.990204 0.986053
1.000000 0.994415 0.991455
0.997314 0.994934 0.991211
0.997375 0.995026 0.991333
0.998322 0.995758 0.991272
1.000000 0.995636 0.989258
1.000000 0.996521 0.992981
0.999115 0.998199 0.996704
0.999145 0.998199 0.996735
0.999145 0.998291 0.996887
1.000000 0.998840 0.996704
1.000000 0.998596 0.995819
0.962341 0.972259 0.980957
0.967437 0.973693 0.979767
0.970459 0.970153 0.970886
0.962097 0.955535 0.947051
0.978759 0.972717 0.963989
0.971313 0.977661 0.982849
0.978454 0.980804 0.982635
0.978973 0.977234 0.975494
0.971099 0.964721 0.955932
0.982879 0.977142 0.968658
0.987121 0.987854 0.987518
0.989441 0.989349 0.988342
0.993561 0.991180 0.987732
0.991089 0.986481 0.979431
0.997375 0.990082 0.985962
0.997070 0.995422 0.992737
0.997253 0.995636 0.993011
0.997925 0.996460 0.994171
0.998322 0.996674 0.994079
1.000000 0.997528 0.996094
0.999207 0.998413 0.997101
0.999237 0.998474 0.997192
0.999390 0.998749 0.997711
0.999573 0.999084 0.998352
1.000000 0.999298 0.998260
