20 Preset/Dark Style/【3】LUT video cho PR-AE-FCPX/19Tones/City Subway DenBych.cube
# Created by Adobe Lightroom plugin Export LUT (1.24.0)
# www.johnrellis.com/lightroom/exportlut.htm
# Preset: City Subway DenBych
# Color profile: E:\lut插件\exportlut.1.24\exportlut.lrplugin\color profiles\Rec709gamma2.4.icc
LUT_3D_SIZE 5
DOMAIN_MIN 0.000000 0.000000 0.000000
DOMAIN_MAX 0.903226 0.903226 0.903226
0.018158 0.105806 0.104860
0.282689 0.000000 0.103456
1.000000 0.000000 0.000000
1.000000 0.000000 0.000000
1.000000 0.000000 0.238865
0.177005 0.274113 0.311620
0.094179 0.185275 0.210117
0.625574 0.000000 0.048768
1.000000 0.000000 0.000000
1.000000 0.000000 0.237064
0.970550 0.967803 0.982666
0.959350 0.956329 0.975860
0.930571 0.928985 0.957855
1.000000 0.827359 0.748318
1.000000 0.428656 0.000000
0.997192 0.996826 0.998352
0.996979 0.996643 0.998260
0.996155 0.995697 0.997772
0.994263 0.993591 0.996674
1.000000 0.991119 0.993286
0.999664 0.999634 0.999786
0.999664 0.999634 0.999786
0.999542 0.999451 0.999725
0.999603 0.999542 0.999786
0.999695 0.999664 0.999817
0.000000 0.055940 0.834714
0.475654 0.000000 0.807767
1.000000 0.000000 0.731472
1.000000 0.499397 0.691218
1.000000 0.598749 0.725063
0.000000 0.491341 0.776028
0.596277 0.660029 0.713283
1.000000 0.000000 0.338018
1.000000 0.254643 0.446296
1.000000 0.529076 0.630854
0.984741 0.982971 0.991089
0.978576 0.976287 0.987457
0.932372 0.930602 0.958984
1.000000 0.771939 0.660304
1.000000 0.508476 0.342107
0.998779 0.998627 0.999298
0.998627 0.998474 0.999207
0.997803 0.997559 0.998749
0.995605 0.995087 0.997467
1.000000 0.991577 0.993683
0.999847 0.999847 0.999908
0.999847 0.999817 0.999908
0.999786 0.999786 0.999878
0.999725 0.999695 0.999847
0.999756 0.999725 0.999878
0.000000 0.000000 1.000000
0.000000 0.000000 1.000000
1.000000 0.395178 1.000000
1.000000 0.919249 0.993896
1.000000 0.987304 0.995972
0.651637 0.787381 1.000000
0.831113 0.832609 1.000000
0.999969 0.918486 1.000000
1.000000 0.974243 0.995605
1.000000 0.995026 0.998199
0.982238 0.989319 1.000000
0.988708 0.992920 0.999817
0.996674 0.996246 0.998077
1.000000 0.976043 0.987243
1.000000 0.982818 0.991516
1.000000 1.000000 1.000000
1.000000 1.000000 1.000000
1.000000 1.000000 1.000000
0.999268 0.999176 0.999573
1.000000 0.994079 0.995850
1.000000 1.000000 1.000000
1.000000 1.000000 1.000000
1.000000 1.000000 1.000000
1.000000 1.000000 1.000000
1.000000 1.000000 1.000000
0.000000 0.239017 1.000000
0.271305 0.326055 1.000000
0.888487 0.724849 1.000000
0.997711 0.947234 1.000000
1.000000 0.986938 1.000000
0.862425 0.876097 1.000000
0.898589 0.895842 1.000000
0.966186 0.944457 1.000000
0.998474 0.977874 1.000000
1.000000 0.993011 1.000000
0.991150 0.993835 1.000000
0.993988 0.995483 1.000000
0.998535 0.998383 1.000000
0.999969 0.999023 1.000000
1.000000 1.000000 1.000000
1.000000 1.000000 1.000000
1.000000 1.000000 1.000000
1.000000 1.000000 1.000000
1.000000 1.000000 1.000000
1.000000 1.000000 1.000000
1.000000 1.000000 1.000000
1.000000 1.000000 1.000000
1.000000 1.000000 1.000000
1.000000 1.000000 1.000000
1.000000 1.000000 1.000000
0.533776 0.583001 1.000000
0.652155 0.650019 1.000000
0.890623 0.846250 1.000000
0.978149 0.953735 1.000000
0.998779 0.986999 1.000000
0.907591 0.908965 1.000000
0.923735 0.920378 1.000000
0.962890 0.952392 1.000000
0.988983 0.978485 1.000000
0.999298 0.992676 1.000000
0.994995 0.995483 1.000000
0.996612 0.996826 1.000000
0.997742 0.997528 1.000000
0.999115 0.998535 1.000000
0.999969 0.999786 1.000000
1.000000 1.000000 1.000000
1.000000 1.000000 1.000000
1.000000 1.000000 1.000000
1.000000 1.000000 1.000000
1.000000 1.000000 1.000000
1.000000 1.000000 1.000000
1.000000 1.000000 1.000000
1.000000 1.000000 1.000000
1.000000 1.000000 1.000000
1.000000 1.000000 1.000000
