20 Preset/Dark Style/【3】LUT video cho PR-AE-FCPX/19Tones/City Subway 1.cube
# Created by Adobe Lightroom plugin Export LUT (1.24.0)
# www.johnrellis.com/lightroom/exportlut.htm
# Preset: City Subway 1
# Color profile: E:\lut插件\exportlut.1.24\exportlut.lrplugin\color profiles\Rec709gamma2.4.icc
LUT_3D_SIZE 5
DOMAIN_MIN 0.000000 0.000000 0.000000
DOMAIN_MAX 0.903226 0.903226 0.903226
0.031464 0.141634 0.180972
0.169986 0.139254 0.179690
0.720394 0.000000 0.158297
1.000000 0.000000 0.000000
1.000000 0.199252 0.000000
0.000000 0.174228 0.217014
0.087160 0.166812 0.208591
0.612665 0.151675 0.169467
1.000000 0.183536 0.041505
1.000000 0.379553 0.129366
0.000000 0.484565 0.580499
0.000000 0.570428 0.549828
0.577203 0.571221 0.567742
1.000000 0.666865 0.357916
1.000000 0.670558 0.402777
0.000000 0.839200 0.950072
0.000000 0.878874 0.944732
0.357275 0.916075 0.891844
0.913634 0.864683 0.921355
1.000000 0.913787 0.928344
0.000000 0.971801 0.997620
0.000000 0.982177 0.994965
0.515190 0.990478 0.983154
0.936461 0.962005 0.968231
0.980072 0.957702 0.984161
0.020539 0.149172 0.200015
0.139590 0.134798 0.240696
0.633356 0.000000 0.252628
1.000000 0.000000 0.251835
1.000000 0.130404 0.249912
0.000000 0.167697 0.244297
0.114717 0.203098 0.257053
0.603723 0.123293 0.283879
1.000000 0.000000 0.280461
1.000000 0.347173 0.290227
0.000000 0.305577 0.579553
0.000000 0.342016 0.598199
0.535363 0.574334 0.520500
0.999756 0.632776 0.450050
1.000000 0.684352 0.523735
0.000000 0.711879 0.966461
0.000000 0.777493 0.960906
0.000000 0.918975 0.938354
0.912230 0.863157 0.919921
0.999054 0.913420 0.930449
0.000000 0.939818 1.000000
0.000000 0.956390 0.999115
0.566613 0.982055 0.988800
0.936370 0.967132 0.973632
0.982361 0.962188 0.986053
0.232975 0.322820 0.418341
0.221927 0.316228 0.491463
0.658076 0.000000 0.725063
1.000000 0.000000 0.707698
1.000000 0.407660 0.663813
0.369635 0.414099 0.444160
0.424750 0.455024 0.476143
0.589502 0.322850 0.728145
1.000000 0.247532 0.733150
1.000000 0.543694 0.716976
0.000000 0.493080 0.712703
0.204837 0.531945 0.718624
0.655970 0.678614 0.754604
0.950866 0.706661 0.839475
1.000000 0.773404 0.843381
0.000000 0.631312 0.950622
0.000000 0.648249 0.947417
0.410437 0.750668 0.954437
0.871519 0.902129 0.950530
0.999115 0.904570 0.927733
0.000000 0.693446 1.000000
0.000000 0.712764 1.000000
0.000000 0.893065 1.000000
0.896025 0.972351 0.985504
0.981231 0.959960 0.985107
0.698726 0.711971 0.838193
0.710170 0.721462 0.874144
0.721370 0.663325 0.937743
0.985260 0.386236 0.991241
1.000000 0.586664 0.955596
0.778378 0.754940 0.824125
0.772213 0.758450 0.852964
0.759091 0.732082 0.924437
0.946075 0.513848 0.983001
1.000000 0.636957 0.956115
0.757900 0.773098 0.886778
0.788602 0.786374 0.887694
0.881468 0.835447 0.897368
0.892393 0.809689 0.957641
1.000000 0.798703 0.965118
0.680964 0.799344 0.966125
0.713893 0.807584 0.964263
0.832273 0.847745 0.962371
0.934966 0.901793 0.963531
0.994812 0.914580 0.973724
0.000000 0.740291 1.000000
0.000000 0.752529 1.000000
0.341466 0.812131 1.000000
0.881285 0.909941 0.997009
0.977142 0.971466 0.986755
0.933196 0.898924 0.970672
0.933562 0.899260 0.973419
0.933989 0.894530 0.982452
0.943420 0.859190 0.994903
1.000000 0.773831 1.000000
0.939208 0.904173 0.967681
0.939208 0.904906 0.970733
0.940734 0.904601 0.980560
0.945251 0.874907 0.992615
1.000000 0.798428 1.000000
0.950774 0.914336 0.964904
0.954376 0.917479 0.964996
0.957122 0.924590 0.973541
0.956847 0.918120 0.987152
0.995850 0.876432 1.000000
0.930999 0.912169 0.981781
0.935576 0.915068 0.981415
0.952941 0.927947 0.980652
0.976349 0.951263 0.981659
0.983185 0.943175 0.994812
0.849454 0.889586 0.999847
0.863188 0.894713 0.999207
0.908446 0.915160 0.997101
0.955047 0.944854 0.994659
0.986877 0.975769 0.993744
