20 Preset/Dark Style/【3】LUT video cho PR-AE-FCPX/19Tones/City Subway Reflect.cube
# Created by Adobe Lightroom plugin Export LUT (1.24.0)
# www.johnrellis.com/lightroom/exportlut.htm
# Preset: City Subway Reflect
# Color profile: E:\lut插件\exportlut.1.24\exportlut.lrplugin\color profiles\Rec709gamma2.4.icc
LUT_3D_SIZE 32
DOMAIN_MIN 0.0 0.0 0.0
DOMAIN_MAX 1.0 1.0 1.0
0.129000 0.136538 0.150576
0.129000 0.136538 0.150576
0.129000 0.136538 0.150576
0.126741 0.136782 0.150362
0.120577 0.136934 0.149813
0.111574 0.136355 0.148959
0.102876 0.135714 0.147677
0.097536 0.134005 0.145785
0.092195 0.132479 0.143832
0.091005 0.130159 0.141421
0.092500 0.127840 0.138949
0.097505 0.125734 0.136538
0.105745 0.123232 0.134340
0.116732 0.120577 0.132021
0.129763 0.117678 0.130129
0.145388 0.114321 0.128115
0.163149 0.110964 0.126467
0.183169 0.106691 0.125277
0.205844 0.101991 0.124697
0.233219 0.095125 0.125002
0.264866 0.084108 0.125551
0.313207 0.038361 0.127291
0.385870 0.000000 0.130434
0.468666 0.000000 0.133944
0.561883 0.000000 0.137118
0.665583 0.000000 0.139620
0.777676 0.000000 0.141634
0.891051 0.000000 0.143252
1.000000 0.000000 0.144900
1.000000 0.000000 0.148440
1.000000 0.000000 0.155459
1.000000 0.000000 0.168185
0.129000 0.136538 0.150576
0.129000 0.136538 0.150576
0.129061 0.136538 0.150362
0.126925 0.136538 0.150393
0.120851 0.136690 0.149630
0.112428 0.136080 0.148775
0.104463 0.135348 0.147463
0.098207 0.133944 0.145785
0.093935 0.132143 0.143862
0.091737 0.130098 0.141421
0.092500 0.127840 0.138949
0.096590 0.125795 0.137026
0.103853 0.123384 0.134585
0.114443 0.120790 0.132540
0.126955 0.118013 0.130373
0.141817 0.114870 0.128389
0.159121 0.111727 0.126772
0.178347 0.107820 0.125307
0.200381 0.103243 0.124758
0.226261 0.097383 0.124819
0.256077 0.088685 0.125490
0.300999 0.051942 0.126894
0.364294 0.000000 0.129671
0.436225 0.000000 0.132906
0.517205 0.000000 0.135805
0.608240 0.000000 0.138277
0.713375 0.000000 0.140047
0.826261 0.000000 0.141421
0.941619 0.000000 0.142550
1.000000 0.000000 0.144381
1.000000 0.000000 0.149325
1.000000 0.000000 0.158907
0.128603 0.136141 0.149996
0.128695 0.136141 0.149783
0.128450 0.135927 0.149599
0.126925 0.135622 0.149660
0.122133 0.134676 0.148806
0.113924 0.134035 0.147738
0.106081 0.133303 0.146395
0.100099 0.132387 0.144869
0.095766 0.130770 0.142672
0.093263 0.129030 0.140627
0.093263 0.127291 0.138552
0.096712 0.125277 0.136385
0.103639 0.123140 0.134127
0.113741 0.120607 0.132082
0.125887 0.117891 0.129915
0.139864 0.115145 0.128145
0.156558 0.111879 0.126558
0.175143 0.108553 0.125338
0.196902 0.104219 0.124788
0.222049 0.098939 0.124880
0.251499 0.090852 0.125551
0.296300 0.060517 0.127199
0.354986 0.000000 0.129641
0.422004 0.000000 0.132601
0.496468 0.000000 0.135592
0.580285 0.000000 0.137758
0.680201 0.000000 0.139925
0.791073 0.000000 0.141268
0.907897 0.000000 0.142092
1.000000 0.000000 0.143465
1.000000 0.000000 0.146853
1.000000 0.000000 0.154788
0.126101 0.133608 0.147158
0.125856 0.133394 0.146975
0.125490 0.132998 0.146395
0.125093 0.132570 0.145785
0.121950 0.131624 0.146395
0.115511 0.130526 0.145327
0.109682 0.129610 0.143740
0.103670 0.128939 0.142336
0.099550 0.127779 0.140475
0.096529 0.126528 0.138582
0.095735 0.125338 0.137087
0.098787 0.123537 0.135134
0.104585 0.121736 0.133059
0.113558 0.119814 0.131167
0.124788 0.117739 0.129427
0.138094 0.115145 0.127657
0.153780 0.112398 0.126284
0.171237 0.109377 0.125368
0.191440 0.105989 0.124788
0.214847 0.101289 0.125216
0.242069 0.095399 0.125612
0.285222 0.077516 0.127352
0.336736 0.021515 0.129519
0.397162 0.000000 0.132540
0.467109 0.000000 0.135164
0.550378 0.000000 0.137972
0.651484 0.000000 0.140291
0.767483 0.000000 0.141756
0.889189 0.000000 0.142672
1.000000 0.000000 0.143740
1.000000 0.000000 0.146639
1.000000 0.000000 0.152987
0.120851 0.128389 0.141268
0.120912 0.128389 0.141024
0.120424 0.128450 0.141024
0.120485 0.127932 0.140383
0.119203 0.127016 0.140536
0.116182 0.126253 0.141115
0.111421 0.125948 0.140993
0.107424 0.125063 0.139315
0.103517 0.124392 0.137819
0.099916 0.123659 0.136538
0.098939 0.122713 0.134981
0.100954 0.121767 0.133364
0.105684 0.120302 0.131472
0.113741 0.118685 0.129763
0.124392 0.116670 0.128298
0.137331 0.114687 0.126955
0.152102 0.112703 0.125765
0.169619 0.110048 0.125063
0.188846 0.107301 0.125032
0.212039 0.103609 0.125338
0.240909 0.097780 0.126253
0.282750 0.085542 0.128145
0.330663 0.041657 0.130373
0.387793 0.000000 0.133425
0.455940 0.000000 0.136324
0.536522 0.000000 0.138979
0.634424 0.000000 0.141207
0.748226 0.000000 0.142885
0.868345 0.000000 0.143618
0.986236 0.000000 0.144503
1.000000 0.000000 0.146517
1.000000 0.000000 0.152102
0.116274 0.123781 0.135805
0.115816 0.123842 0.135592
0.115999 0.123537 0.135622
0.115755 0.123293 0.135409
0.115114 0.123110 0.134707
0.114199 0.122103 0.135073
0.111879 0.121492 0.135683
0.108553 0.121553 0.136202
0.104982 0.121096 0.134859
0.103120 0.120455 0.133486
0.102480 0.119722 0.132113
0.104128 0.119051 0.130648
0.108339 0.118410 0.129397
0.116396 0.117037 0.127871
0.126101 0.115908 0.126772
0.138399 0.114565 0.125887
0.153048 0.113191 0.125154
0.170077 0.111208 0.125185
0.189700 0.109377 0.125307
0.212375 0.106172 0.126131
0.246311 0.100740 0.127535
0.287327 0.090944 0.129824
0.473518 0.000000 0.140932
0.577142 0.000000 0.145724
0.692348 0.000000 0.149447
0.809903 0.000000 0.152346
0.922911 0.000000 0.155459
1.000000 0.000000 0.158816
1.000000 0.000000 0.164096
1.000000 0.000000 0.171664
1.000000 0.000000 0.182589
1.000000 0.000000 0.197543
0.111177 0.118685 0.129824
0.111177 0.118685 0.129824
0.110903 0.118410 0.129580
0.110903 0.118410 0.129580
0.110628 0.118166 0.129366
0.110414 0.117922 0.128908
0.109346 0.117159 0.129000
0.107637 0.117037 0.129549
0.106264 0.117159 0.130068
0.105562 0.116945 0.129335
0.106722 0.116579 0.128328
0.109773 0.116579 0.127230
0.115846 0.116274 0.126375
0.124178 0.115877 0.125734
0.134463 0.115755 0.125307
0.147311 0.115328 0.125307
0.162295 0.114565 0.125551
0.180209 0.113436 0.125948
0.201175 0.112154 0.126955
0.233494 0.109377 0.128817
0.279454 0.102815 0.131991
0.337987 0.086091 0.136049
0.413733 0.000000 0.140902
0.508415 0.000000 0.145907
0.621576 0.000000 0.150607
0.743404 0.000000 0.153964
0.859892 0.000000 0.156527
0.966003 0.000000 0.158968
1.000000 0.000000 0.162264
1.000000 0.000000 0.167391
1.000000 0.000000 0.175448
1.000000 0.000000 0.187198
0.108675 0.116121 0.126772
0.108675 0.116121 0.126772
0.108858 0.115816 0.126802
0.108370 0.115877 0.126558
0.108370 0.115877 0.126558
0.108675 0.115541 0.126314
0.108064 0.115602 0.126314
0.107790 0.115358 0.126101
0.107698 0.115358 0.126345
0.107973 0.115602 0.126589
0.109041 0.115816 0.126284
0.112428 0.116365 0.125887
0.117311 0.116732 0.125521
0.123659 0.116854 0.125643
0.133547 0.117342 0.125643
0.145449 0.117678 0.125887
0.159640 0.117678 0.126558
0.176455 0.117433 0.127443
0.201389 0.117433 0.129213
0.234012 0.116182 0.131594
0.275151 0.112428 0.134707
0.327398 0.103578 0.138918
0.394446 0.072694 0.143587
0.479164 0.000000 0.148592
0.580468 0.000000 0.153292
0.693385 0.000000 0.156619
0.806821 0.000000 0.158907
0.915160 0.000000 0.160922
1.000000 0.000000 0.163729
1.000000 0.000000 0.167178
1.000000 0.000000 0.173404
1.000000 0.000000 0.182742
0.107881 0.115358 0.125826
0.107881 0.115358 0.125826
0.107881 0.115358 0.125826
0.107790 0.115358 0.126101
0.107790 0.115358 0.126101
0.108370 0.115297 0.126101
0.108156 0.115602 0.126070
0.108064 0.115602 0.126314
0.108949 0.115816 0.126558
0.110109 0.116609 0.126162
0.111391 0.117067 0.126101
0.114626 0.117586 0.125978
0.119661 0.118746 0.126009
0.126406 0.119356 0.126345
0.134493 0.120333 0.126833
0.144625 0.120882 0.127596
0.158999 0.121950 0.128695
0.179660 0.123415 0.130465
0.204227 0.124208 0.132570
0.234775 0.124544 0.135500
0.272801 0.123262 0.138857
0.321416 0.118379 0.143069
0.382788 0.106294 0.147524
0.460304 0.055268 0.152621
0.553582 0.000000 0.157229
0.658534 0.000000 0.160739
0.768460 0.000000 0.162875
0.877623 0.000000 0.164889
0.981018 0.000000 0.166751
1.000000 0.000000 0.169345
1.000000 0.000000 0.174258
1.000000 0.000000 0.182101
0.108858 0.116396 0.127260
0.108858 0.116396 0.127260
0.109407 0.116335 0.127260
0.109133 0.116640 0.127504
0.109407 0.116915 0.127718
0.109590 0.117189 0.128206
0.109865 0.117433 0.128450
0.110140 0.117678 0.128664
0.110628 0.118166 0.129366
0.111604 0.118929 0.129519
0.114260 0.120363 0.129305
0.117372 0.121187 0.128634
0.120790 0.121950 0.128237
0.128786 0.123201 0.128450
0.137942 0.125002 0.129549
0.149935 0.126986 0.131075
0.164004 0.128969 0.132967
0.181796 0.130953 0.135134
0.206088 0.133120 0.137667
0.235813 0.134493 0.140536
0.271702 0.135164 0.144045
0.315312 0.133364 0.147860
0.368292 0.127871 0.151888
0.433387 0.114504 0.156191
0.510185 0.078096 0.160342
0.599115 0.000000 0.163088
0.702052 0.000000 0.165560
0.811215 0.000000 0.167147
0.921324 0.000000 0.168704
1.000000 0.000000 0.170535
1.000000 0.000000 0.174166
1.000000 0.000000 0.181125
0.111727 0.119173 0.130251
0.111727 0.119173 0.130251
0.111635 0.119173 0.130495
0.111910 0.119417 0.130739
0.112367 0.119905 0.131411
0.113191 0.120668 0.132082
0.113649 0.121157 0.132753
0.114076 0.121645 0.133425
0.114870 0.122347 0.134066
0.115572 0.123079 0.134951
0.117372 0.124483 0.135470
0.122408 0.127382 0.135531
0.127535 0.129183 0.135195
0.133944 0.130983 0.134829
0.145083 0.133333 0.134798
0.157900 0.135683 0.136599
0.172427 0.138186 0.138491
0.188907 0.140475 0.140688
0.208133 0.142763 0.143160
0.232242 0.144961 0.146212
0.265995 0.146914 0.149477
0.306493 0.147982 0.153384
0.355779 0.147127 0.157290
0.416388 0.142000 0.161501
0.487739 0.129519 0.165164
0.571679 0.098360 0.168429
0.669123 0.000000 0.170565
0.776455 0.000000 0.172213
0.886564 0.000000 0.173404
0.993011 0.000000 0.175021
1.000000 0.000000 0.178134
1.000000 0.000000 0.183932
0.116548 0.124025 0.136019
0.116548 0.124025 0.136019
0.116793 0.124269 0.136233
0.117250 0.124727 0.136873
0.117678 0.125216 0.137514
0.118593 0.126101 0.138582
0.119936 0.127474 0.140230
0.121096 0.128634 0.141451
0.122469 0.129946 0.142855
0.123964 0.131472 0.144625
0.125856 0.133394 0.146975
0.129793 0.136568 0.148043
0.157168 0.157137 0.162844
0.168856 0.161318 0.161868
0.181949 0.164523 0.160403
0.199161 0.167575 0.159335
0.224949 0.172610 0.160891
0.248966 0.175906 0.163333
0.276463 0.179294 0.166384
0.307836 0.182467 0.169558
0.343420 0.185122 0.173007
0.385534 0.187259 0.176791
0.449683 0.188724 0.180972
0.524926 0.186191 0.184878
0.611719 0.175967 0.188022
0.707149 0.152682 0.190372
0.803555 0.107637 0.192111
0.897978 0.000000 0.193423
0.987243 0.000000 0.194949
1.000000 0.000000 0.198093
1.000000 0.000000 0.203433
1.000000 0.128237 0.212863
0.132448 0.139986 0.154391
0.132448 0.139986 0.154391
0.132876 0.139956 0.154391
0.133242 0.140352 0.154940
0.134035 0.141115 0.155825
0.135225 0.142306 0.157046
0.136355 0.143465 0.158450
0.137301 0.144411 0.159487
0.138949 0.146120 0.161532
0.141756 0.148501 0.164187
0.145418 0.151858 0.168246
0.150454 0.156527 0.173373
0.160922 0.164157 0.175814
0.175479 0.172519 0.176822
0.190463 0.179171 0.176608
0.206027 0.183902 0.174899
0.223453 0.186618 0.172854
0.253727 0.193088 0.172457
0.279759 0.196658 0.174533
0.308812 0.200015 0.177188
0.341619 0.203128 0.179782
0.379980 0.206332 0.183078
0.423590 0.208469 0.185977
0.473579 0.209659 0.189212
0.549920 0.209781 0.192233
0.639246 0.203769 0.194827
0.735073 0.189792 0.196292
0.833982 0.167758 0.197574
0.931609 0.140597 0.198917
1.000000 0.126009 0.201572
1.000000 0.153964 0.205875
1.000000 0.218448 0.214206
0.146853 0.153658 0.169955
0.146670 0.153506 0.169802
0.146487 0.153323 0.169650
0.146822 0.153262 0.169833
0.147372 0.153811 0.170260
0.148196 0.154665 0.171389
0.148867 0.155367 0.172152
0.149722 0.156222 0.173068
0.151217 0.157748 0.174716
0.154177 0.160372 0.177707
0.158145 0.164034 0.181918
0.163363 0.169009 0.187320
0.169711 0.175082 0.193820
0.183963 0.184848 0.195010
0.200137 0.194614 0.195315
0.216220 0.201572 0.193240
0.232914 0.206485 0.190646
0.251469 0.209354 0.187411
0.281956 0.215488 0.185428
0.313939 0.221042 0.186526
0.346807 0.225132 0.188846
0.384558 0.229526 0.191623
0.427802 0.233310 0.194156
0.477821 0.236667 0.196902
0.534020 0.238499 0.199283
0.597192 0.237675 0.200992
0.683406 0.234958 0.202670
0.782345 0.228458 0.203738
0.883482 0.221042 0.205173
0.981781 0.220554 0.207218
1.000000 0.238956 0.210941
1.000000 0.283604 0.218418
0.163699 0.169314 0.187594
0.163516 0.169162 0.187472
0.163088 0.169039 0.187167
0.163058 0.168704 0.187076
0.163241 0.168856 0.187045
0.163790 0.169467 0.187869
0.163790 0.169467 0.187869
0.164431 0.170077 0.188388
0.166018 0.171725 0.190280
0.169100 0.174502 0.193332
0.173159 0.178653 0.197818
0.178897 0.184176 0.203738
0.185489 0.190890 0.210910
0.194705 0.199283 0.216648
0.210636 0.210483 0.216800
0.227726 0.220401 0.215122
0.245426 0.227909 0.211856
0.263676 0.233249 0.207950
0.284520 0.237278 0.204013
0.312383 0.241581 0.200809
0.356634 0.251499 0.200443
0.394781 0.256687 0.202396
0.437903 0.261936 0.204685
0.487739 0.266758 0.206912
0.543969 0.270512 0.208621
0.608087 0.272801 0.209964
0.679316 0.273533 0.211002
0.756924 0.273198 0.212131
0.845243 0.274327 0.213596
0.952819 0.284733 0.216983
1.000000 0.310369 0.222629
1.000000 0.357794 0.233036
0.181003 0.186313 0.205997
0.181094 0.186435 0.206241
0.181277 0.186587 0.206241
0.181827 0.187106 0.206699
0.182559 0.187900 0.207645
0.182956 0.188296 0.208133
0.183841 0.189212 0.209049
0.185397 0.190768 0.210666
0.187808 0.193210 0.213169
0.190890 0.196628 0.216648
0.195102 0.200870 0.221103
0.199924 0.205966 0.226291
0.205142 0.211704 0.231968
0.210697 0.217777 0.238163
0.220981 0.226261 0.240208
0.236667 0.236454 0.237400
0.254734 0.246189 0.233890
0.273930 0.254582 0.230014
0.294957 0.261295 0.225681
0.319493 0.267155 0.221683
0.349035 0.272313 0.217868
0.406439 0.287175 0.215396
0.453620 0.295079 0.217258
0.506828 0.302617 0.219455
0.567224 0.309483 0.221317
0.635615 0.315404 0.222507
0.710323 0.320500 0.223880
0.789212 0.325719 0.225193
0.871214 0.332586 0.226810
0.953033 0.344518 0.229404
1.000000 0.365393 0.233860
1.000000 0.404974 0.243046
0.200168 0.206455 0.226688
0.200259 0.206577 0.226780
0.200473 0.206821 0.227115
0.201205 0.207492 0.227695
0.201389 0.207736 0.228031
0.201846 0.208194 0.228550
0.203006 0.209323 0.229648
0.204685 0.211032 0.231388
0.206882 0.213718 0.234073
0.210178 0.216983 0.237400
0.214237 0.221500 0.241886
0.218967 0.226932 0.247257
0.224430 0.232975 0.253178
0.230228 0.239353 0.259617
0.236027 0.245884 0.266148
0.249760 0.256413 0.265232
0.267582 0.267643 0.261387
0.288365 0.278874 0.257359
0.311650 0.289036 0.252903
0.336522 0.297673 0.248295
0.366705 0.305943 0.243534
0.402869 0.313725 0.239078
0.462074 0.328313 0.235447
0.530327 0.343328 0.234775
0.594690 0.353307 0.236301
0.666285 0.362799 0.237980
0.743069 0.372412 0.239567
0.822751 0.382635 0.241276
0.903166 0.396429 0.243961
0.980896 0.415869 0.247929
1.000000 0.443671 0.254612
1.000000 0.481544 0.264836
0.226169 0.234714 0.255039
0.226566 0.235294 0.255558
0.262486 0.275792 0.295872
0.262486 0.275944 0.296025
0.262791 0.276249 0.296361
0.262974 0.276402 0.296513
0.263798 0.277440 0.297581
0.265293 0.279210 0.299321
0.268315 0.282475 0.302647
0.272587 0.287266 0.307500
0.277714 0.293004 0.313268
0.283604 0.299657 0.320043
0.289250 0.305821 0.326238
0.295048 0.312291 0.332860
0.300420 0.318181 0.338872
0.307652 0.324987 0.342535
0.326818 0.336248 0.333745
0.348028 0.346960 0.324407
0.372595 0.357580 0.315373
0.400885 0.367315 0.306035
0.431617 0.376226 0.297368
0.470283 0.386084 0.289494
0.516197 0.394995 0.281437
0.578180 0.406683 0.273716
0.669520 0.427344 0.266758
0.733120 0.434699 0.265904
0.799039 0.442695 0.265202
0.867643 0.453254 0.265263
0.938018 0.469123 0.267521
1.000000 0.491524 0.272190
1.000000 0.522087 0.280919
1.000000 0.559716 0.293645
0.266026 0.279881 0.300023
0.269932 0.284215 0.304448
0.274022 0.288975 0.309148
0.278080 0.293523 0.313787
0.281315 0.297002 0.317357
0.283055 0.298955 0.319341
0.284184 0.300206 0.320623
0.285466 0.301732 0.322148
0.288182 0.304509 0.325017
0.291722 0.308659 0.329137
0.296483 0.313848 0.334539
0.302129 0.320104 0.340795
0.307774 0.326207 0.347051
0.313664 0.332525 0.353582
0.319677 0.338933 0.360082
0.325566 0.345342 0.366613
0.338048 0.354833 0.366644
0.360754 0.368353 0.358984
0.386877 0.382574 0.351080
0.417975 0.397131 0.343450
0.453681 0.411810 0.335912
0.493996 0.425605 0.327764
0.541466 0.439399 0.319677
0.594751 0.451179 0.310399
0.651484 0.459480 0.299718
0.748653 0.485359 0.289982
0.820493 0.499184 0.286778
0.885649 0.511589 0.286564
0.951507 0.529290 0.288731
1.000000 0.553643 0.294285
1.000000 0.585534 0.304906
1.000000 0.622827 0.320104
0.291081 0.307927 0.328405
0.295628 0.312871 0.333532
0.300664 0.318425 0.339147
0.305669 0.323796 0.344610
0.309819 0.328283 0.349218
0.311925 0.330724 0.351690
0.313298 0.332189 0.353185
0.314702 0.333684 0.354742
0.317296 0.336400 0.357458
0.320439 0.339940 0.361089
0.325139 0.344793 0.366094
0.330724 0.350774 0.372198
0.336797 0.357275 0.378729
0.343114 0.363897 0.385534
0.349828 0.370855 0.392645
0.356420 0.377722 0.399603
0.363256 0.384771 0.406775
0.384039 0.398474 0.401648
0.410803 0.414282 0.393866
0.442481 0.431037 0.386175
0.479469 0.448554 0.378851
0.522972 0.467445 0.371801
0.571588 0.485451 0.363897
0.624903 0.501671 0.354772
0.680293 0.514733 0.343664
0.738582 0.524926 0.330785
0.822965 0.547967 0.319310
0.905028 0.573541 0.313115
0.965698 0.592279 0.315831
1.000000 0.617426 0.323064
1.000000 0.648432 0.335058
1.000000 0.683467 0.352850
0.323308 0.342809 0.364080
0.328191 0.348089 0.369451
0.333440 0.353704 0.375158
0.338598 0.359136 0.380743
0.342840 0.363622 0.385229
0.345434 0.366247 0.387976
0.347021 0.367987 0.389715
0.348791 0.369909 0.391638
0.351446 0.372564 0.394415
0.354833 0.376104 0.397986
0.359625 0.381109 0.403021
0.365637 0.387243 0.409308
0.371954 0.393683 0.415808
0.378943 0.400824 0.422950
0.386572 0.408576 0.430793
0.395148 0.417121 0.439429
0.405524 0.427375 0.449653
0.422187 0.441657 0.457465
0.456550 0.464698 0.454383
0.497597 0.490150 0.451514
0.545586 0.518486 0.449866
0.598962 0.547234 0.447730
0.655055 0.574975 0.445045
0.714778 0.601648 0.440711
0.774716 0.624994 0.434455
0.833036 0.643793 0.425147
0.890440 0.660212 0.414649
0.955932 0.684627 0.407599
1.000000 0.725307 0.410254
1.000000 0.749722 0.425513
1.000000 0.776364 0.446784
1.000000 0.803403 0.474525
0.402564 0.424537 0.446784
0.405615 0.427436 0.449775
0.408118 0.429999 0.452277
0.409766 0.431647 0.453895
0.411017 0.432868 0.455146
0.411292 0.433112 0.455360
0.411688 0.433570 0.455787
0.413062 0.434882 0.457099
0.415930 0.437690 0.459876
0.420478 0.442084 0.464302
0.426703 0.448188 0.470344
0.434058 0.455329 0.477333
0.441535 0.462501 0.484413
0.450111 0.470710 0.492439
0.458869 0.479133 0.500603
0.468635 0.488319 0.509483
0.479408 0.498482 0.519249
0.491981 0.510277 0.530510
0.521447 0.530816 0.528985
0.560052 0.555169 0.523674
0.602106 0.580285 0.518456
0.648493 0.606012 0.513695
0.696773 0.630426 0.507988
0.745937 0.653162 0.501823
0.799008 0.676112 0.495247
0.852537 0.697688 0.488106
0.905058 0.717952 0.480629
0.954986 0.737636 0.473945
1.000000 0.759243 0.469856
1.000000 0.798032 0.480507
1.000000 0.824826 0.499702
1.000000 0.845731 0.526757
0.458381 0.478676 0.500145
0.461311 0.481361 0.502770
0.463905 0.483833 0.505180
0.466255 0.486061 0.507347
0.467750 0.487495 0.508690
0.468482 0.488197 0.509392
0.469368 0.489021 0.510185
0.471260 0.490822 0.511864
0.474464 0.493782 0.514763
0.479744 0.498817 0.519554
0.486641 0.505241 0.525750
0.494759 0.512902 0.533043
0.503563 0.521080 0.540764
0.513359 0.530358 0.549523
0.524132 0.540337 0.558923
0.535546 0.551019 0.568933
0.548516 0.563104 0.580194
0.562860 0.576440 0.592615
0.585565 0.594720 0.600397
0.623835 0.620447 0.596429
0.665431 0.647059 0.593164
0.709346 0.673518 0.590265
0.754635 0.698970 0.586877
0.799771 0.723049 0.583551
0.812161 0.712337 0.546929
0.859709 0.733639 0.540520
0.907988 0.755978 0.535821
0.952911 0.777310 0.531914
0.993286 0.798093 0.529107
1.000000 0.818357 0.529137
1.000000 0.849638 0.545220
1.000000 0.875395 0.569360
0.562219 0.575830 0.592065
0.568078 0.581323 0.597162
0.571038 0.584039 0.599695
0.570733 0.583825 0.599451
0.568078 0.581323 0.597162
0.564294 0.577752 0.593866
0.559808 0.573571 0.589960
0.556085 0.570153 0.586755
0.553918 0.568139 0.584894
0.553796 0.568017 0.584802
0.554681 0.568811 0.585534
0.558526 0.572412 0.588861
0.563226 0.576806 0.592920
0.568444 0.581689 0.597467
0.573541 0.586389 0.601862
0.580163 0.592493 0.607538
0.588464 0.600214 0.614679
0.599969 0.610956 0.624567
0.615320 0.625177 0.637751
0.651698 0.651087 0.637201
0.692592 0.678859 0.636042
0.734401 0.705379 0.634363
0.774777 0.729488 0.631037
0.813260 0.750088 0.625605
0.849088 0.767117 0.617823
0.882597 0.781338 0.608240
0.919158 0.798093 0.601038
0.955596 0.815976 0.595209
0.989288 0.833738 0.591943
1.000000 0.851316 0.591699
1.000000 0.868223 0.595422
1.000000 0.889616 0.611383
0.615198 0.625086 0.637629
0.620844 0.630304 0.642481
0.624445 0.633692 0.645563
0.626184 0.635279 0.647028
0.626429 0.635523 0.647242
0.626184 0.635279 0.647028
0.626642 0.635737 0.647456
0.627985 0.636988 0.648585
0.630793 0.639582 0.650996
0.634791 0.643275 0.654383
0.639673 0.647791 0.658564
0.645502 0.653223 0.663569
0.651362 0.658686 0.668605
0.657130 0.664027 0.673518
0.662226 0.668757 0.677852
0.667872 0.674006 0.682704
0.674800 0.680446 0.688624
0.684443 0.689418 0.696895
0.697627 0.701686 0.708186
0.724880 0.722316 0.711849
0.760372 0.747189 0.710964
0.796475 0.771420 0.710414
0.831388 0.793637 0.709255
0.864042 0.813199 0.706966
0.893614 0.829923 0.703609
0.920592 0.843778 0.698573
0.945251 0.855680 0.693172
0.970825 0.869017 0.690150
0.996002 0.883787 0.690669
1.000000 0.897551 0.693538
1.000000 0.910216 0.699153
1.000000 0.921294 0.706447
0.701625 0.705409 0.711635
0.704616 0.708217 0.714199
0.706142 0.709621 0.715511
0.706661 0.710109 0.715938
0.706203 0.709712 0.715572
0.705501 0.709010 0.714931
0.705043 0.708644 0.714565
0.705379 0.708949 0.714839
0.706966 0.710414 0.716182
0.710140 0.713375 0.718929
0.713802 0.716793 0.722103
0.718807 0.721462 0.726406
0.724269 0.726558 0.731106
0.729488 0.731472 0.735653
0.734127 0.735775 0.739651
0.738674 0.740047 0.743587
0.744625 0.745602 0.748745
0.752438 0.752926 0.755520
0.763394 0.763241 0.765103
0.783505 0.779507 0.771572
0.813107 0.800809 0.770962
0.842496 0.821195 0.770626
0.869993 0.839261 0.769711
0.895232 0.855070 0.767819
0.918029 0.868284 0.764767
0.938811 0.879301 0.760525
0.957946 0.888853 0.756008
0.975433 0.896941 0.750912
0.993713 0.906737 0.749264
1.000000 0.918761 0.753445
1.000000 0.929656 0.759945
1.000000 0.939147 0.768582
0.769009 0.768490 0.770016
0.771237 0.770596 0.771939
0.773037 0.772335 0.773587
0.774441 0.773648 0.774807
0.776272 0.775387 0.776425
0.779507 0.778408 0.779263
0.785946 0.784512 0.784970
0.794034 0.792172 0.792142
0.804227 0.801816 0.801236
0.815640 0.812741 0.811582
0.827817 0.824399 0.822721
0.839353 0.835538 0.833433
0.849821 0.845731 0.843320
0.858732 0.854429 0.851835
0.865812 0.861357 0.858671
0.870848 0.866300 0.863554
0.875395 0.870756 0.868040
0.880583 0.875822 0.873106
0.887175 0.882353 0.879728
0.897704 0.891417 0.884428
0.913481 0.903136 0.884550
0.928435 0.913878 0.884886
0.942077 0.923033 0.884550
0.954284 0.930846 0.883757
0.965301 0.937255 0.882048
0.975250 0.942596 0.879637
0.984283 0.947112 0.877134
0.992615 0.950927 0.874327
1.000000 0.954223 0.871672
1.000000 0.958251 0.871672
1.000000 0.963561 0.876432
1.000000 0.968109 0.882353
0.882353 0.877623 0.874907
0.882444 0.877714 0.874998
0.882231 0.877501 0.874784
0.881895 0.877134 0.874418
0.881559 0.876829 0.874113
0.881559 0.876829 0.874113
0.882109 0.877348 0.874662
0.883421 0.878660 0.875944
0.885588 0.880766 0.878111
0.888518 0.883696 0.881071
0.891966 0.887144 0.884581
0.895903 0.891020 0.888609
0.899931 0.895048 0.892760
0.903593 0.898711 0.896605
