20 Preset/Dark Style/【3】LUT video cho PR-AE-FCPX/19Tones/City Subway DenBych.cube
# Created by Adobe Lightroom plugin Export LUT (1.24.0)
# www.johnrellis.com/lightroom/exportlut.htm
# Preset: City Subway DenBych
# Color profile: E:\lut插件\exportlut.1.24\exportlut.lrplugin\color profiles\Rec709gamma2.4.icc
LUT_3D_SIZE 8
DOMAIN_MIN 0.000000 0.000000 0.000000
DOMAIN_MAX 0.903226 0.903226 0.903226
0.018158 0.105806 0.104860
0.074464 0.104219 0.105440
0.400641 0.000000 0.100374
1.000000 0.000000 0.000000
1.000000 0.000000 0.000000
1.000000 0.000000 0.000000
1.000000 0.000000 0.132998
1.000000 0.000000 0.238865
0.023346 0.118715 0.122744
0.023682 0.116182 0.119417
0.177890 0.106386 0.103578
0.671229 0.000000 0.066163
1.000000 0.000000 0.000000
1.000000 0.000000 0.000000
1.000000 0.000000 0.054017
1.000000 0.000000 0.197787
0.287236 0.383948 0.428840
0.249485 0.347051 0.390021
0.140047 0.235966 0.269108
0.424475 0.156222 0.137057
0.947265 0.000000 0.000000
1.000000 0.000000 0.000000
1.000000 0.000000 0.000000
1.000000 0.000000 0.219333
0.919036 0.918639 0.950439
0.909422 0.910307 0.944244
0.871916 0.879026 0.919554
0.796292 0.820249 0.868742
1.000000 0.764584 0.699763
1.000000 0.599084 0.303044
1.000000 0.365667 0.000000
1.000000 0.314397 0.156863
0.984314 0.982544 0.990845
0.983490 0.981598 0.990356
0.980926 0.978820 0.988861
0.976501 0.974060 0.986236
0.964904 0.961975 0.979248
0.993591 0.953338 0.966583
1.000000 0.907988 0.902068
1.000000 0.783078 0.695521
0.995422 0.994873 0.997345
0.995880 0.995392 0.997589
0.995514 0.994965 0.997375
0.994751 0.994141 0.996979
0.993408 0.992645 0.996185
0.991852 0.990845 0.995239
0.996033 0.992157 0.995392
1.000000 0.984100 0.988159
0.998779 0.998627 0.999298
0.998810 0.998627 0.999298
0.998688 0.998535 0.999237
0.998535 0.998383 0.999176
0.998230 0.998047 0.998993
0.998016 0.997803 0.998840
0.997894 0.997620 0.998749
0.998413 0.998199 0.999054
0.999664 0.999634 0.999786
0.999664 0.999603 0.999786
0.999664 0.999634 0.999817
0.999664 0.999634 0.999817
0.999542 0.999481 0.999725
0.999603 0.999542 0.999756
0.999664 0.999634 0.999786
0.999695 0.999664 0.999817
0.000000 0.105379 0.181582
0.051087 0.101686 0.177890
0.530358 0.000000 0.212863
1.000000 0.000000 0.135836
1.000000 0.000000 0.117647
1.000000 0.000000 0.144015
1.000000 0.000000 0.220432
1.000000 0.000000 0.299351
0.000000 0.127932 0.170840
0.051820 0.152926 0.169467
0.367193 0.033814 0.139528
0.943908 0.000000 0.106508
1.000000 0.000000 0.022400
1.000000 0.000000 0.104433
1.000000 0.000000 0.183017
1.000000 0.000000 0.259709
0.449683 0.534356 0.584710
0.393957 0.484199 0.532982
0.213779 0.311498 0.352148
0.467903 0.161959 0.151858
0.983246 0.000000 0.000000
1.000000 0.000000 0.000000
1.000000 0.000000 0.092348
1.000000 0.000000 0.246067
0.920500 0.919951 0.951385
0.910857 0.911528 0.945159
0.867643 0.875608 0.916777
0.709255 0.752010 0.804654
1.000000 0.599176 0.508843
1.000000 0.471351 0.103059
1.000000 0.298589 0.000000
1.000000 0.266514 0.123049
0.985199 0.983490 0.991363
0.984009 0.982177 0.990661
0.980255 0.978119 0.988464
0.972442 0.969757 0.983795
0.952361 0.949432 0.971527
0.991302 0.933623 0.948913
1.000000 0.877440 0.850462
1.000000 0.733577 0.600702
0.995209 0.994629 0.997223
0.995117 0.994537 0.997162
0.994720 0.994049 0.996918
0.993927 0.993164 0.996460
0.992401 0.991485 0.995605
0.990814 0.989715 0.994659
0.995453 0.990661 0.994476
1.000000 0.981445 0.986114
0.998627 0.998505 0.999207
0.998566 0.998383 0.999176
0.998444 0.998230 0.999084
0.998291 0.998077 0.998993
0.998047 0.997833 0.998871
0.997742 0.997467 0.998688
0.997314 0.996979 0.998444
0.997803 0.997528 0.998718
0.999573 0.999512 0.999725
0.999573 0.999542 0.999756
0.999573 0.999542 0.999756
0.999603 0.999573 0.999756
0.999603 0.999573 0.999786
0.999603 0.999573 0.999786
0.999634 0.999573 0.999786
0.999664 0.999634 0.999817
0.000000 0.000000 0.990173
0.000000 0.000000 0.990112
0.740658 0.000000 0.967590
1.000000 0.000000 0.921355
1.000000 0.562585 0.864256
1.000000 0.852659 0.929107
1.000000 0.832456 0.908721
1.000000 0.832517 0.903899
0.000000 0.193057 0.973297
0.000000 0.161318 0.969390
0.771420 0.000000 0.944030
1.000000 0.000000 0.887419
1.000000 0.736812 0.889891
1.000000 0.785916 0.883513
1.000000 0.764797 0.858427
1.000000 0.779995 0.863096
0.000000 0.693446 0.932433
0.398749 0.756924 0.931914
0.815579 0.835019 0.881895
1.000000 0.446906 0.517235
1.000000 0.429053 0.524529
1.000000 0.529168 0.613550
1.000000 0.633356 0.710414
1.000000 0.709712 0.782650
0.977996 0.978393 0.983124
0.979858 0.977996 0.985718
0.969970 0.967193 0.982330
0.913603 0.913909 0.946929
1.000000 0.746944 0.689693
1.000000 0.493172 0.268101
1.000000 0.479072 0.364782
1.000000 0.590997 0.576440
0.994263 0.993530 0.996643
0.993774 0.993042 0.996399
0.991821 0.990845 0.995239
0.987274 0.985779 0.992584
0.974945 0.972412 0.985290
0.999664 0.953643 0.966033
1.000000 0.897642 0.892058
1.000000 0.748409 0.655512
0.997925 0.997681 0.998810
0.997925 0.997650 0.998779
0.997528 0.997223 0.998566
0.996704 0.996277 0.998077
0.995148 0.994568 0.997192
0.993286 0.992462 0.996094
0.997742 0.992309 0.995209
1.000000 0.983825 0.988190
0.999695 0.999634 0.999817
0.999664 0.999603 0.999786
0.999512 0.999451 0.999725
0.999329 0.999237 0.999603
0.999054 0.998932 0.999451
0.998749 0.998596 0.999268
0.998444 0.998260 0.999115
0.998718 0.998566 0.999268
0.999939 0.999939 0.999969
0.999908 0.999908 0.999939
0.999908 0.999908 0.999939
0.999908 0.999908 0.999969
0.999878 0.999847 0.999908
0.999817 0.999786 0.999908
0.999756 0.999725 0.999878
0.999695 0.999664 0.999817
0.000000 0.000000 1.000000
0.000000 0.000000 1.000000
0.528862 0.000000 1.000000
1.000000 0.000000 1.000000
1.000000 0.552514 1.000000
1.000000 0.889677 0.981567
1.000000 0.966278 0.989197
1.000000 0.987976 0.995300
0.000000 0.200473 1.000000
0.000000 0.199435 1.000000
0.631769 0.176730 1.000000
1.000000 0.438758 1.000000
1.000000 0.758907 1.000000
1.000000 0.927642 0.985138
1.000000 0.973877 0.991180
1.000000 0.990204 0.996063
0.569207 0.846555 1.000000
0.714809 0.866514 1.000000
0.910277 0.907988 1.000000
0.994293 0.927245 1.000000
1.000000 0.961791 0.993561
1.000000 0.983398 0.994537
1.000000 0.992340 0.996857
1.000000 0.987366 0.994537
0.955749 0.973510 0.999207
0.962127 0.976501 0.998657
0.980285 0.986053 0.997406
0.989715 0.988525 0.994018
1.000000 0.941924 0.964660
1.000000 0.944060 0.968475
1.000000 0.953826 0.975616
1.000000 0.961456 0.980407
0.997986 0.999542 0.998688
0.998260 0.999390 0.998749
0.999084 0.999084 0.999207
0.998047 0.997833 0.998871
0.992737 0.991852 0.995789
1.000000 0.976684 0.984192
1.000000 0.933684 0.948058
1.000000 0.884337 0.903075
1.000000 1.000000 1.000000
1.000000 1.000000 1.000000
1.000000 1.000000 1.000000
0.999908 0.999878 0.999939
0.999237 0.999145 0.999573
0.997772 0.997498 0.998688
1.000000 0.996002 0.997284
1.000000 0.988922 0.992340
1.000000 1.000000 1.000000
1.000000 1.000000 1.000000
1.000000 1.000000 1.000000
1.000000 1.000000 1.000000
1.000000 1.000000 1.000000
1.000000 1.000000 1.000000
0.999725 0.999695 0.999847
1.000000 0.999573 0.999695
1.000000 1.000000 1.000000
1.000000 1.000000 1.000000
1.000000 1.000000 1.000000
1.000000 1.000000 1.000000
1.000000 1.000000 1.000000
1.000000 1.000000 1.000000
1.000000 1.000000 1.000000
1.000000 1.000000 1.000000
0.000000 0.000000 1.000000
0.000000 0.000000 1.000000
0.300420 0.000000 1.000000
0.842496 0.286259 1.000000
1.000000 0.718532 1.000000
1.000000 0.904662 1.000000
1.000000 0.964477 0.996765
1.000000 0.986969 0.996948
0.000000 0.286625 1.000000
0.000000 0.311345 1.000000
0.545861 0.398138 1.000000
0.900511 0.601495 1.000000
1.000000 0.842374 1.000000
1.000000 0.934783 1.000000
1.000000 0.972778 0.997070
1.000000 0.989563 0.997467
0.871183 0.903319 1.000000
0.898985 0.917327 1.000000
0.933257 0.929656 1.000000
0.971313 0.947723 1.000000
0.998901 0.964202 1.000000
1.000000 0.976928 1.000000
1.000000 0.988678 0.998047
1.000000 0.995056 0.998566
0.971710 0.981994 1.000000
0.975433 0.984192 1.000000
0.986419 0.990936 1.000000
0.995087 0.994598 1.000000
1.000000 0.995300 1.000000
1.000000 0.996887 0.999573
1.000000 0.998596 0.999573
1.000000 0.999634 0.999847
0.993286 0.996246 1.000000
0.994049 0.996704 1.000000
0.996307 0.997986 1.000000
0.998718 0.999725 1.000000
0.999359 0.999268 0.999634
1.000000 0.990234 0.994537
1.000000 0.990875 0.995300
1.000000 0.992218 0.996124
1.000000 1.000000 1.000000
1.000000 1.000000 1.000000
1.000000 1.000000 1.000000
1.000000 1.000000 1.000000
1.000000 1.000000 1.000000
0.999481 0.999390 0.999695
1.000000 0.997528 0.998230
1.000000 0.990448 0.993927
1.000000 1.000000 1.000000
1.000000 1.000000 1.000000
1.000000 1.000000 1.000000
1.000000 1.000000 1.000000
1.000000 1.000000 1.000000
1.000000 1.000000 1.000000
1.000000 1.000000 1.000000
1.000000 0.999878 0.999908
1.000000 1.000000 1.000000
1.000000 1.000000 1.000000
1.000000 1.000000 1.000000
1.000000 1.000000 1.000000
1.000000 1.000000 1.000000
1.000000 1.000000 1.000000
1.000000 1.000000 1.000000
1.000000 1.000000 1.000000
0.000000 0.220157 1.000000
0.000000 0.243137 1.000000
0.400763 0.340520 1.000000
0.793820 0.587579 1.000000
0.958984 0.844053 1.000000
0.997955 0.940703 1.000000
1.000000 0.974090 1.000000
1.000000 0.989166 0.999878
0.202274 0.437079 1.000000
0.335943 0.459632 1.000000
0.607904 0.556115 1.000000
0.858244 0.737392 1.000000
0.964050 0.884245 1.000000
0.997864 0.949950 1.000000
1.000000 0.976532 1.000000
1.000000 0.989746 0.999817
0.937469 0.942138 1.000000
0.940887 0.943786 1.000000
0.955077 0.951873 1.000000
0.970886 0.960296 1.000000
0.987884 0.973266 1.000000
0.998932 0.983917 1.000000
1.000000 0.991211 1.000000
1.000000 0.995941 0.999756
0.988190 0.990692 1.000000
0.989380 0.991455 1.000000
0.993835 0.994537 1.000000
0.996979 0.996704 1.000000
0.998657 0.997589 1.000000
0.999939 0.998352 1.000000
1.000000 0.999268 1.000000
1.000000 0.999939 1.000000
0.996399 0.997650 1.000000
0.996796 0.997894 1.000000
0.998138 0.998779 1.000000
0.999603 0.999756 1.000000
1.000000 1.000000 1.000000
1.000000 1.000000 1.000000
1.000000 1.000000 1.000000
1.000000 1.000000 1.000000
0.999634 0.999817 1.000000
0.999817 0.999908 1.000000
1.000000 1.000000 1.000000
1.000000 1.000000 1.000000
1.000000 1.000000 1.000000
1.000000 1.000000 1.000000
1.000000 0.999969 0.999969
1.000000 1.000000 1.000000
1.000000 1.000000 1.000000
1.000000 1.000000 1.000000
1.000000 1.000000 1.000000
1.000000 1.000000 1.000000
1.000000 1.000000 1.000000
1.000000 1.000000 1.000000
1.000000 1.000000 1.000000
1.000000 1.000000 1.000000
1.000000 1.000000 1.000000
1.000000 1.000000 1.000000
1.000000 1.000000 1.000000
1.000000 1.000000 1.000000
1.000000 1.000000 1.000000
1.000000 1.000000 1.000000
1.000000 1.000000 1.000000
1.000000 1.000000 1.000000
0.134218 0.395209 1.000000
0.299779 0.425940 1.000000
0.556023 0.529442 1.000000
0.806424 0.714015 1.000000
0.933928 0.866209 1.000000
0.980896 0.942107 1.000000
0.997955 0.973510 1.000000
1.000000 0.987427 1.000000
0.520714 0.585779 1.000000
0.577966 0.616083 1.000000
0.715114 0.693294 1.000000
0.862791 0.807309 1.000000
0.946319 0.899077 1.000000
0.982788 0.949981 1.000000
0.998047 0.974792 1.000000
1.000000 0.987030 1.000000
0.939269 0.940887 1.000000
0.942321 0.942809 1.000000
0.952575 0.949371 1.000000
0.968139 0.960601 1.000000
0.982269 0.972015 1.000000
0.992981 0.982361 1.000000
0.999207 0.990265 1.000000
1.000000 0.995117 1.000000
0.991272 0.992096 1.000000
0.991943 0.992584 1.000000
0.993591 0.993805 1.000000
0.995239 0.994781 1.000000
0.997040 0.995880 1.000000
0.998779 0.997253 1.000000
0.999878 0.998535 1.000000
1.000000 0.999451 1.000000
0.997436 0.998199 1.000000
0.997589 0.998291 1.000000
0.998444 0.998840 1.000000
0.999573 0.999664 1.000000
1.000000 1.000000 1.000000
1.000000 1.000000 1.000000
1.000000 1.000000 1.000000
1.000000 1.000000 1.000000
0.999969 1.000000 1.000000
1.000000 1.000000 1.000000
1.000000 1.000000 1.000000
1.000000 1.000000 1.000000
1.000000 1.000000 1.000000
1.000000 1.000000 1.000000
1.000000 1.000000 1.000000
1.000000 1.000000 1.000000
1.000000 1.000000 1.000000
1.000000 1.000000 1.000000
1.000000 1.000000 1.000000
1.000000 1.000000 1.000000
1.000000 1.000000 1.000000
1.000000 1.000000 1.000000
1.000000 1.000000 1.000000
1.000000 1.000000 1.000000
1.000000 1.000000 1.000000
1.000000 1.000000 1.000000
1.000000 1.000000 1.000000
1.000000 1.000000 1.000000
1.000000 1.000000 1.000000
1.000000 1.000000 1.000000
1.000000 1.000000 1.000000
1.000000 1.000000 1.000000
0.533776 0.583001 1.000000
0.576379 0.607263 1.000000
0.687495 0.672938 1.000000
0.836088 0.791043 1.000000
0.928618 0.889158 1.000000
0.971557 0.944182 1.000000
0.991058 0.973419 1.000000
0.998779 0.986999 1.000000
0.693507 0.715694 1.000000
0.720302 0.733211 1.000000
0.792691 0.781155 1.000000
0.882231 0.854124 1.000000
0.943694 0.915770 1.000000
0.975891 0.954070 1.000000
0.991882 0.976318 1.000000
0.998840 0.987793 1.000000
0.940185 0.940215 1.000000
0.942931 0.942199 1.000000
0.951202 0.947967 1.000000
0.967132 0.961242 1.000000
0.979522 0.971862 1.000000
0.989166 0.980957 1.000000
0.995941 0.988830 1.000000
0.999420 0.993805 1.000000
0.990021 0.990387 1.000000
0.990417 0.990692 1.000000
0.991363 0.991302 1.000000
0.993347 0.992706 1.000000
0.995483 0.994324 1.000000
0.997436 0.995911 1.000000
0.999054 0.997528 1.000000
0.999878 0.998749 1.000000
0.997162 0.997620 1.000000
0.997436 0.997864 1.000000
0.998230 0.998413 1.000000
0.999451 0.999481 1.000000
0.999695 0.999664 1.000000
0.999908 0.999878 1.000000
1.000000 1.000000 1.000000
1.000000 1.000000 1.000000
0.999908 0.999908 1.000000
0.999908 0.999939 1.000000
1.000000 1.000000 1.000000
1.000000 1.000000 1.000000
1.000000 1.000000 1.000000
1.000000 1.000000 1.000000
1.000000 1.000000 1.000000
1.000000 1.000000 1.000000
1.000000 1.000000 1.000000
1.000000 1.000000 1.000000
1.000000 1.000000 1.000000
1.000000 1.000000 1.000000
1.000000 1.000000 1.000000
1.000000 1.000000 1.000000
1.000000 1.000000 1.000000
1.000000 1.000000 1.000000
1.000000 1.000000 1.000000
1.000000 1.000000 1.000000
1.000000 1.000000 1.000000
1.000000 1.000000 1.000000
1.000000 1.000000 1.000000
1.000000 1.000000 1.000000
1.000000 1.000000 1.000000
1.000000 1.000000 1.000000
