20 Preset/Dark Style/【3】LUT video cho PR-AE-FCPX/19Tones/City Subway 2.cube
# Created by Adobe Lightroom plugin Export LUT (1.24.0)
# www.johnrellis.com/lightroom/exportlut.htm
# Preset: City Subway 2
# Color profile: E:\lut插件\exportlut.1.24\exportlut.lrplugin\color profiles\Rec709gamma2.4.icc
LUT_3D_SIZE 5
DOMAIN_MIN 0.000000 0.000000 0.000000
DOMAIN_MAX 0.903226 0.903226 0.903226
0.118868 0.113588 0.106447
0.110140 0.113954 0.106569
0.154116 0.106691 0.103395
0.369604 0.000000 0.098512
1.000000 0.000000 0.000000
0.114260 0.109529 0.103029
0.114504 0.109804 0.103334
0.149691 0.114778 0.102296
0.419104 0.000000 0.099886
1.000000 0.000000 0.000000
0.197757 0.187900 0.178836
0.193362 0.183505 0.174258
0.220920 0.211368 0.204288
0.315007 0.255009 0.223636
1.000000 0.511498 0.182956
0.556115 0.574762 0.605676
0.561486 0.580011 0.610742
0.575280 0.593439 0.623621
0.495460 0.514122 0.545525
0.703029 0.687404 0.632136
0.968658 0.961242 0.954376
0.968750 0.961395 0.954498
0.949828 0.942260 0.935851
0.935119 0.927855 0.922393
0.851377 0.848875 0.851774
0.115206 0.111238 0.115145
0.120333 0.113710 0.115633
0.129061 0.122774 0.114443
0.165011 0.156161 0.146212
0.633753 0.000000 0.289372
0.114168 0.121645 0.133181
0.122744 0.125765 0.136416
0.151766 0.142000 0.137270
0.183444 0.173831 0.163882
0.752682 0.000000 0.318975
0.178195 0.184024 0.192294
0.183383 0.187686 0.194369
0.221836 0.221592 0.226169
0.360571 0.265751 0.280766
1.000000 0.274815 0.369024
0.658137 0.671839 0.696498
0.670375 0.683162 0.706783
0.690394 0.701656 0.723293
0.688685 0.700069 0.721920
0.757229 0.749813 0.718807
0.976196 0.969207 0.962493
0.975860 0.968872 0.962158
0.976776 0.969879 0.963165
0.971466 0.964233 0.957366
0.924620 0.917723 0.913024
0.060121 0.226780 0.486549
0.140108 0.245457 0.507836
0.289067 0.309819 0.539879
0.394690 0.382696 0.490883
0.460700 0.477943 0.507988
0.000000 0.300481 0.614557
0.114199 0.304295 0.602441
0.294957 0.343755 0.590082
0.427802 0.419745 0.554192
0.526146 0.545190 0.576684
0.000000 0.427955 0.732174
0.000000 0.433234 0.731991
0.257298 0.491707 0.754391
0.556176 0.587945 0.761990
0.721889 0.730587 0.748959
0.616541 0.760372 0.881376
0.603296 0.748043 0.871855
0.685695 0.790646 0.886534
0.802640 0.853208 0.907042
0.910246 0.908141 0.916411
0.988952 0.983734 0.978424
0.989441 0.984344 0.979156
0.990478 0.985626 0.980682
0.990661 0.985870 0.980957
0.985168 0.979217 0.973266
0.705867 0.728359 0.966735
0.739681 0.751553 0.968139
0.801907 0.790372 0.964630
0.872892 0.844175 0.957153
0.936828 0.912444 0.952850
0.733120 0.763912 0.969787
0.745663 0.769070 0.968475
0.797574 0.796475 0.964233
0.864714 0.840970 0.956085
0.935119 0.911284 0.953033
0.787045 0.843412 0.975769
0.796109 0.845548 0.974334
0.832273 0.857755 0.972320
0.884733 0.880919 0.965759
0.957580 0.941985 0.967529
0.861997 0.927062 0.985718
0.858824 0.925048 0.985138
0.877104 0.931579 0.984710
0.941619 0.954559 0.983490
0.980133 0.974151 0.981750
0.985229 0.986969 0.990661
0.985657 0.987152 0.990539
0.988159 0.988556 0.990478
0.992065 0.991089 0.991058
0.995331 0.993561 0.992187
0.981628 0.978210 0.994690
0.982238 0.978668 0.994629
0.985260 0.981323 0.994507
0.989014 0.984680 0.994202
0.992309 0.987823 0.993622
0.982788 0.979858 0.994842
0.983459 0.980407 0.994812
0.986206 0.982757 0.994720
0.989166 0.985138 0.994293
0.992432 0.988128 0.993713
0.987182 0.985626 0.995758
0.987366 0.985657 0.995666
0.988586 0.986389 0.995453
0.990692 0.987762 0.995026
0.993591 0.990265 0.994629
0.990692 0.990753 0.997009
0.990906 0.990814 0.996948
0.992218 0.991638 0.996826
0.993622 0.992340 0.996674
0.995758 0.993866 0.996368
0.993408 0.994324 0.997894
0.993469 0.994354 0.997864
0.994202 0.994903 0.997955
0.995300 0.995697 0.998077
0.997436 0.997192 0.998260
