20 Preset/Dark Style/【3】LUT video cho PR-AE-FCPX/19Tones/City DJI Empire.cube
# Created by Adobe Lightroom plugin Export LUT (1.24.0)
# www.johnrellis.com/lightroom/exportlut.htm
# Preset: City DJI Empire
# Color profile: E:\lut插件\exportlut.1.24\exportlut.lrplugin\color profiles\Rec709gamma2.4.icc
LUT_3D_SIZE 32
DOMAIN_MIN 0.0 0.0 0.0
DOMAIN_MAX 1.0 1.0 1.0
0.107240 0.109377 0.102113
0.107240 0.109377 0.102113
0.107240 0.109377 0.102113
0.116396 0.109285 0.103029
0.133181 0.110140 0.104921
0.173831 0.106508 0.107118
0.261570 0.081910 0.108125
0.421820 0.000000 0.106050
0.664576 0.000000 0.097719
0.940551 0.000000 0.067872
1.000000 0.000000 0.028443
1.000000 0.000000 0.041352
1.000000 0.000000 0.101320
1.000000 0.000000 0.151064
1.000000 0.000000 0.209964
1.000000 0.000000 0.312505
1.000000 0.243565 0.437690
1.000000 0.454292 0.546532
1.000000 0.583276 0.635462
1.000000 0.682216 0.709957
1.000000 0.755184 0.767391
1.000000 0.808621 0.811887
1.000000 0.846128 0.844694
1.000000 0.874205 0.869993
1.000000 0.895628 0.889586
1.000000 0.912810 0.905608
1.000000 0.927214 0.919188
1.000000 0.939239 0.930724
1.000000 0.949676 0.940917
1.000000 0.958587 0.949828
1.000000 0.966308 0.957763
1.000000 0.972778 0.964569
0.107240 0.109377 0.102113
0.107240 0.109377 0.102113
0.107240 0.109377 0.102113
0.116732 0.109560 0.102968
0.133181 0.110140 0.104921
0.171267 0.106752 0.106844
0.252293 0.089631 0.107820
0.401068 0.000000 0.105928
0.627680 0.000000 0.098787
0.899657 0.000000 0.074556
1.000000 0.000000 0.031098
1.000000 0.000000 0.031037
1.000000 0.000000 0.091371
1.000000 0.000000 0.138125
1.000000 0.000000 0.195224
1.000000 0.000000 0.292638
1.000000 0.156710 0.410040
1.000000 0.407507 0.514916
1.000000 0.544244 0.605890
1.000000 0.647883 0.682460
1.000000 0.725307 0.742611
1.000000 0.783444 0.789975
1.000000 0.825315 0.825895
1.000000 0.856962 0.854154
1.000000 0.881254 0.876310
1.000000 0.900877 0.894408
1.000000 0.917418 0.909850
1.000000 0.931426 0.923156
1.000000 0.943542 0.934905
1.000000 0.953826 0.945037
1.000000 0.962676 0.953979
1.000000 0.970001 0.961639
0.107240 0.109377 0.102113
0.107240 0.109377 0.102113
0.109712 0.109743 0.102022
0.118654 0.110262 0.103182
0.136110 0.111604 0.104616
0.175143 0.110475 0.106172
0.254551 0.099001 0.106264
0.396612 0.000000 0.104311
0.613581 0.000000 0.097017
0.879637 0.000000 0.066773
1.000000 0.000000 0.016632
1.000000 0.000000 0.006531
1.000000 0.000000 0.066163
1.000000 0.000000 0.126284
1.000000 0.000000 0.184329
1.000000 0.000000 0.280705
1.000000 0.127047 0.392370
1.000000 0.386511 0.493690
1.000000 0.522698 0.584039
1.000000 0.629084 0.663691
1.000000 0.710903 0.728084
1.000000 0.771939 0.778195
1.000000 0.815274 0.815549
1.000000 0.848692 0.845579
1.000000 0.874357 0.869200
1.000000 0.894560 0.887938
1.000000 0.912230 0.904540
1.000000 0.927276 0.918914
1.000000 0.940185 0.931395
1.000000 0.951324 0.942412
1.000000 0.960662 0.951843
1.000000 0.968414 0.959899
0.110994 0.113558 0.106294
0.111543 0.113497 0.106294
0.114809 0.114687 0.104341
0.125460 0.115572 0.102174
0.144198 0.118837 0.103243
0.186618 0.120363 0.103853
0.268803 0.114412 0.103120
0.410559 0.015930 0.099763
0.620752 0.000000 0.089479
0.876249 0.000000 0.040650
1.000000 0.000000 0.000000
1.000000 0.000000 0.000000
1.000000 0.000000 0.010712
1.000000 0.000000 0.108248
1.000000 0.000000 0.169406
1.000000 0.000000 0.270207
1.000000 0.143160 0.370031
1.000000 0.368292 0.464210
1.000000 0.495247 0.550744
1.000000 0.597436 0.629541
1.000000 0.679622 0.696010
1.000000 0.744442 0.750301
1.000000 0.794369 0.793729
1.000000 0.833036 0.828855
1.000000 0.863523 0.857420
1.000000 0.888029 0.880552
1.000000 0.908537 0.900145
1.000000 0.925200 0.916258
1.000000 0.939025 0.929778
1.000000 0.950500 0.941222
1.000000 0.959838 0.950774
1.000000 0.967468 0.958709
0.116732 0.119539 0.112123
0.118166 0.119661 0.111757
0.122103 0.121828 0.109102
0.133913 0.123537 0.104829
0.162173 0.129122 0.101839
0.200687 0.138277 0.100496
0.282597 0.138979 0.098512
0.416632 0.114778 0.091981
0.613855 0.000000 0.065248
0.855497 0.000000 0.000000
1.000000 0.000000 0.000000
1.000000 0.000000 0.000000
1.000000 0.000000 0.000000
1.000000 0.000000 0.040833
1.000000 0.000000 0.159243
1.000000 0.000000 0.256565
1.000000 0.228275 0.353552
1.000000 0.389990 0.447150
1.000000 0.502922 0.533776
1.000000 0.598108 0.613825
1.000000 0.677699 0.682826
1.000000 0.740780 0.738857
1.000000 0.790524 0.784360
1.000000 0.830289 0.822080
1.000000 0.861814 0.852720
1.000000 0.886900 0.877317
1.000000 0.907683 0.897795
1.000000 0.924376 0.914366
1.000000 0.938201 0.928222
1.000000 0.949645 0.939788
1.000000 0.958984 0.949462
1.000000 0.966644 0.957549
0.127535 0.129122 0.120882
0.128939 0.129732 0.120485
0.134035 0.132479 0.117647
0.148470 0.137606 0.112123
0.181552 0.143099 0.103975
0.251652 0.159579 0.095491
0.323857 0.176333 0.084962
0.451881 0.174868 0.051820
0.644923 0.115175 0.000000
0.873472 0.000000 0.000000
1.000000 0.000000 0.000000
1.000000 0.000000 0.000000
1.000000 0.000000 0.000000
1.000000 0.000000 0.000000
1.000000 0.000000 0.152041
1.000000 0.184512 0.254765
1.000000 0.344549 0.354498
1.000000 0.454597 0.449866
1.000000 0.548730 0.538872
1.000000 0.630060 0.617731
1.000000 0.701137 0.686702
1.000000 0.758328 0.742733
1.000000 0.898650 0.883268
1.000000 0.916167 0.902190
1.000000 0.929808 0.916838
1.000000 0.940795 0.928618
1.000000 0.949981 0.938506
1.000000 0.957549 0.946777
1.000000 0.964141 0.953979
1.000000 0.969696 0.960143
1.000000 0.974395 0.965484
1.000000 0.978302 0.970001
0.156954 0.155550 0.145174
0.158755 0.156558 0.144320
0.169406 0.162295 0.139071
0.195010 0.173434 0.127871
0.245640 0.190463 0.110079
0.372900 0.218570 0.049226
0.508934 0.250614 0.000000
0.632929 0.273808 0.000000
0.796353 0.265476 0.000000
0.998016 0.208743 0.000000
1.000000 0.139010 0.000000
1.000000 0.120638 0.000000
1.000000 0.205875 0.000000
1.000000 0.311833 0.000000
1.000000 0.393805 0.226017
1.000000 0.468055 0.342199
1.000000 0.539635 0.444556
1.000000 0.609064 0.536828
1.000000 0.675837 0.619959
1.000000 0.738643 0.693935
1.000000 0.793729 0.757626
1.000000 0.839109 0.810269
1.000000 0.874998 0.852171
1.000000 0.901915 0.882963
1.000000 0.921569 0.905211
1.000000 0.935790 0.921263
1.000000 0.946258 0.933074
1.000000 0.954528 0.942382
1.000000 0.961517 0.950286
1.000000 0.967315 0.956909
1.000000 0.972351 0.962707
1.000000 0.976593 0.967681
0.198764 0.193027 0.176394
0.201633 0.194614 0.174563
0.215854 0.203006 0.167208
0.246311 0.219425 0.152010
0.305241 0.245487 0.125185
0.408850 0.275914 0.050355
0.625696 0.313359 0.000000
0.775998 0.346288 0.000000
0.892271 0.372900 0.000000
0.993439 0.383612 0.000000
1.000000 0.381476 0.000000
1.000000 0.416266 0.000000
1.000000 0.448341 0.000000
1.000000 0.478279 0.000000
1.000000 0.509789 0.191684
1.000000 0.546807 0.314824
1.000000 0.590448 0.417365
1.000000 0.639277 0.508415
1.000000 0.692714 0.594659
1.000000 0.745815 0.671260
1.000000 0.795285 0.738369
1.000000 0.837919 0.794858
1.000000 0.872251 0.839719
1.000000 0.899016 0.873564
1.000000 0.918975 0.898161
1.000000 0.933471 0.915801
1.000000 0.944182 0.928618
1.000000 0.952819 0.938903
1.000000 0.960052 0.947509
1.000000 0.966094 0.954650
1.000000 0.971313 0.960876
1.000000 0.975677 0.966125
0.269108 0.262394 0.227024
0.273259 0.264866 0.224949
0.289555 0.274723 0.215274
0.326787 0.295537 0.195102
0.393500 0.326818 0.157961
0.501152 0.363531 0.069032
0.665919 0.393408 0.000000
0.899596 0.436164 0.000000
1.000000 0.488655 0.000000
1.000000 0.544305 0.000000
1.000000 0.578119 0.000000
1.000000 0.593225 0.000000
1.000000 0.600916 0.000000
1.000000 0.606897 0.000000
1.000000 0.615900 0.144717
1.000000 0.631342 0.294804
1.000000 0.655818 0.402350
1.000000 0.688167 0.496834
1.000000 0.726833 0.582666
1.000000 0.769100 0.661494
1.000000 0.810056 0.729793
1.000000 0.846311 0.787106
1.000000 0.876890 0.833249
1.000000 0.901366 0.868345
1.000000 0.920165 0.894194
1.000000 0.933959 0.912535
1.000000 0.944427 0.926146
1.000000 0.952911 0.937041
1.000000 0.960052 0.946014
1.000000 0.966003 0.953429
1.000000 0.971160 0.959838
1.000000 0.975433 0.965240
0.372137 0.364385 0.309026
0.376593 0.366705 0.305425
0.395422 0.376776 0.293523
0.437903 0.398901 0.268742
0.512718 0.433753 0.226566
0.638300 0.485359 0.149813
0.803220 0.537133 0.000000
0.973602 0.568688 0.000000
1.000000 0.623774 0.000000
1.000000 0.658686 0.000000
1.000000 0.686275 0.000000
1.000000 0.699763 0.000000
1.000000 0.701991 0.000000
1.000000 0.698543 0.000000
1.000000 0.698360 0.000000
1.000000 0.703883 0.261112
1.000000 0.718715 0.387579
1.000000 0.740749 0.490822
1.000000 0.769955 0.583276
1.000000 0.801053 0.661677
1.000000 0.831540 0.728420
1.000000 0.858854 0.782773
1.000000 0.882414 0.825742
1.000000 0.902495 0.859800
1.000000 0.918608 0.885222
1.000000 0.931518 0.904631
1.000000 0.942199 0.919890
1.000000 0.951080 0.932219
1.000000 0.958618 0.942382
1.000000 0.965057 0.950896
1.000000 0.970520 0.958038
1.000000 0.975128 0.964050
0.546838 0.525200 0.449744
0.553063 0.528588 0.446937
0.576165 0.541344 0.437049
0.626520 0.567895 0.413611
0.704921 0.606012 0.372412
0.804532 0.649012 0.307347
0.916777 0.688502 0.189853
1.000000 0.715480 0.000000
1.000000 0.734524 0.000000
1.000000 0.754269 0.000000
1.000000 0.768307 0.000000
1.000000 0.778805 0.000000
1.000000 0.781308 0.000000
1.000000 0.779385 0.000000
1.000000 0.772854 0.000000
1.000000 0.771084 0.230472
1.000000 0.776333 0.374701
1.000000 0.788357 0.483192
1.000000 0.806485 0.576501
1.000000 0.827939 0.655940
1.000000 0.850462 0.723171
1.000000 0.871855 0.777707
1.000000 0.891295 0.821378
1.000000 0.908507 0.856229
1.000000 0.922881 0.882658
1.000000 0.934630 0.902708
1.000000 0.944366 0.918364
1.000000 0.952697 0.931090
1.000000 0.959869 0.941650
1.000000 0.966003 0.950378
1.000000 0.971221 0.957671
1.000000 0.975616 0.963775
0.731685 0.695674 0.604883
0.735866 0.698146 0.602960
0.755612 0.708766 0.593866
0.790982 0.727382 0.575860
0.844450 0.753292 0.544518
0.908629 0.782223 0.499306
0.976165 0.809110 0.432593
1.000000 0.828183 0.336645
1.000000 0.834470 0.163577
1.000000 0.838102 0.000000
1.000000 0.839628 0.000000
1.000000 0.841306 0.000000
1.000000 0.896269 0.328649
1.000000 0.891936 0.323552
1.000000 0.887694 0.358190
1.000000 0.884123 0.485695
1.000000 0.885100 0.585107
1.000000 0.890257 0.666255
1.000000 0.898161 0.731533
1.000000 0.907713 0.784451
1.000000 0.917754 0.826230
1.000000 0.927550 0.858762
1.000000 0.936584 0.884001
1.000000 0.944732 0.903624
1.000000 0.951751 0.918853
1.000000 0.957641 0.930663
1.000000 0.962585 0.939940
1.000000 0.966888 0.947570
1.000000 0.970764 0.954070
1.000000 0.974304 0.959747
1.000000 0.977539 0.964813
1.000000 0.980468 0.969268
0.915007 0.884154 0.812100
0.916167 0.884459 0.810330
0.921782 0.886412 0.803464
0.934569 0.891569 0.790677
0.953613 0.898528 0.770230
0.978576 0.906798 0.740841
1.000000 0.915129 0.701930
1.000000 0.921416 0.648798
1.000000 0.923613 0.578851
1.000000 0.919066 0.485054
1.000000 0.912444 0.395727
1.000000 0.911284 0.398383
1.000000 0.910430 0.403632
1.000000 0.910216 0.424689
1.000000 0.908537 0.434089
1.000000 0.906371 0.437934
1.000000 0.904082 0.547204
1.000000 0.905150 0.634913
1.000000 0.909117 0.705806
1.000000 0.915007 0.762142
1.000000 0.922179 0.807462
1.000000 0.930144 0.844144
1.000000 0.937896 0.872374
1.000000 0.945220 0.894530
1.000000 0.951781 0.911742
1.000000 0.957549 0.925322
1.000000 0.962554 0.935973
1.000000 0.966949 0.944732
1.000000 0.970916 0.952117
1.000000 0.974578 0.958465
1.000000 0.977783 0.963867
1.000000 0.980713 0.968658
0.947021 0.922026 0.864927
0.947234 0.921782 0.863340
0.950469 0.922393 0.857939
0.957488 0.924712 0.849302
0.968505 0.928283 0.835813
0.984131 0.933074 0.816312
1.000000 0.938323 0.791257
1.000000 0.943023 0.759304
1.000000 0.945861 0.717617
1.000000 0.945403 0.664698
1.000000 0.939422 0.593011
1.000000 0.933715 0.545403
1.000000 0.931853 0.543847
1.000000 0.929900 0.542046
1.000000 0.928374 0.549645
1.000000 0.925628 0.547448
1.000000 0.922820 0.543694
1.000000 0.921080 0.609247
1.000000 0.922179 0.685481
1.000000 0.925170 0.745510
1.000000 0.929992 0.794614
1.000000 0.935973 0.834318
1.000000 0.942199 0.864927
1.000000 0.948455 0.889158
1.000000 0.954314 0.907927
1.000000 0.959503 0.922484
1.000000 0.964111 0.934020
1.000000 0.968231 0.943328
1.000000 0.971984 0.951171
1.000000 0.975463 0.957885
1.000000 0.978546 0.963561
1.000000 0.981353 0.968475
0.966491 0.946685 0.902373
0.966979 0.946777 0.901549
0.968750 0.947112 0.898405
0.972625 0.948119 0.892790
0.979156 0.949981 0.883970
0.988281 0.952575 0.871977
0.999939 0.955871 0.857053
1.000000 0.959045 0.838254
1.000000 0.961517 0.814939
1.000000 0.962341 0.785489
1.000000 0.960510 0.746883
1.000000 0.954955 0.695521
1.000000 0.950195 0.670619
1.000000 0.947814 0.663233
1.000000 0.945159 0.654688
1.000000 0.942748 0.651270
1.000000 0.939879 0.644282
1.000000 0.937072 0.637263
1.000000 0.935637 0.670802
1.000000 0.936492 0.734432
1.000000 0.939178 0.786069
1.000000 0.943114 0.827329
1.000000 0.947784 0.859770
1.000000 0.952697 0.885161
1.000000 0.957519 0.904875
1.000000 0.962036 0.920348
1.000000 0.966278 0.932738
1.000000 0.970214 0.942931
1.000000 0.973846 0.951415
1.000000 0.977234 0.958679
1.000000 0.980316 0.964813
1.000000 0.983032 0.969940
0.977569 0.961456 0.925994
0.977935 0.961669 0.925902
0.979309 0.962249 0.924498
0.981964 0.963348 0.921935
0.986114 0.964935 0.917662
0.991821 0.967102 0.912016
0.998779 0.969635 0.905119
1.000000 0.972076 0.896513
1.000000 0.973968 0.885649
1.000000 0.974884 0.871244
1.000000 0.974334 0.851438
1.000000 0.971588 0.822568
1.000000 0.966278 0.781430
1.000000 0.961761 0.761624
1.000000 0.958526 0.745571
1.000000 0.955200 0.729458
1.000000 0.952544 0.721187
1.000000 0.949981 0.713588
1.000000 0.947692 0.707668
1.000000 0.946410 0.719936
1.000000 0.947723 0.776211
1.000000 0.950378 0.821469
1.000000 0.953857 0.856321
1.000000 0.957824 0.883482
1.000000 0.961883 0.904479
1.000000 0.965820 0.920806
1.000000 0.969574 0.933837
1.000000 0.973022 0.944244
1.000000 0.976226 0.952728
1.000000 0.979126 0.959716
1.000000 0.981750 0.965576
1.000000 0.984131 0.970581
0.984375 0.971221 0.942779
0.984588 0.971283 0.942596
0.985473 0.971710 0.941833
0.987182 0.972473 0.940368
0.989837 0.973663 0.938018
0.993469 0.975158 0.934783
0.997833 0.976837 0.930816
1.000000 0.978546 0.925658
1.000000 0.979919 0.919188
1.000000 0.980774 0.911009
1.000000 0.980804 0.899870
1.000000 0.979767 0.884825
1.000000 0.977020 0.863096
1.000000 0.972412 0.831296
1.000000 0.969146 0.819760
1.000000 0.966278 0.805112
1.000000 0.963409 0.790707
1.000000 0.961242 0.783597
1.000000 0.959289 0.777890
1.000000 0.957488 0.773159
1.000000 0.956329 0.772213
1.000000 0.957671 0.817838
1.000000 0.959991 0.854368
1.000000 0.962951 0.882719
1.000000 0.966186 0.904509
1.000000 0.969512 0.921599
1.000000 0.972747 0.934997
1.000000 0.975738 0.945617
1.000000 0.978576 0.954223
1.000000 0.981170 0.961242
1.000000 0.983490 0.967041
1.000000 0.985657 0.971984
0.989471 0.978973 0.956847
0.989654 0.979156 0.956909
0.993591 0.985260 0.967926
0.994232 0.985565 0.967346
0.995300 0.986023 0.966400
0.996643 0.986603 0.965087
0.998444 0.987243 0.963256
1.000000 0.987884 0.961059
1.000000 0.988495 0.958434
1.000000 0.988891 0.955169
1.000000 0.989014 0.951019
1.000000 0.988678 0.945403
1.000000 0.987640 0.937255
1.000000 0.985565 0.925322
1.000000 0.982544 0.910033
1.000000 0.980255 0.900450
1.000000 0.977905 0.888518
1.000000 0.975463 0.876280
1.000000 0.973480 0.867979
1.000000 0.971649 0.860899
1.000000 0.970062 0.855283
1.000000 0.969024 0.852934
1.000000 0.969574 0.873564
1.000000 0.971130 0.896788
1.000000 0.972869 0.914458
1.000000 0.974792 0.928283
1.000000 0.976776 0.939361
1.000000 0.978851 0.948516
1.000000 0.980987 0.956298
1.000000 0.983093 0.962890
1.000000 0.985138 0.968536
1.000000 0.986999 0.973236
0.993286 0.985412 0.969177
0.993591 0.985840 0.969879
0.994110 0.986389 0.970459
0.994781 0.986969 0.970733
0.995666 0.987579 0.970581
0.996735 0.988128 0.969879
0.998077 0.988678 0.968688
0.999634 0.989197 0.967071
1.000000 0.989715 0.965179
1.000000 0.990082 0.962829
1.000000 0.990326 0.959930
1.000000 0.990265 0.956207
1.000000 0.989746 0.950988
1.000000 0.988678 0.943847
1.000000 0.986694 0.933532
1.000000 0.984222 0.922728
1.000000 0.982391 0.914488
1.000000 0.980499 0.905455
1.000000 0.978729 0.897185
1.000000 0.977325 0.892119
1.000000 0.976135 0.888151
1.000000 0.975158 0.885588
1.000000 0.974456 0.884550
1.000000 0.974731 0.895354
1.000000 0.975921 0.913542
1.000000 0.977356 0.927794
1.000000 0.978943 0.939147
1.000000 0.980652 0.948486
1.000000 0.982483 0.956420
1.000000 0.984375 0.963287
1.000000 0.986236 0.969024
1.000000 0.987915 0.973754
0.994476 0.987671 0.973785
0.994690 0.988006 0.974365
0.995087 0.988434 0.974884
0.995575 0.988922 0.975158
0.996246 0.989380 0.975128
0.997009 0.989807 0.974701
0.997986 0.990234 0.973907
0.999115 0.990631 0.972778
1.000000 0.991028 0.971466
1.000000 0.991394 0.969848
1.000000 0.991638 0.967926
1.000000 0.991699 0.965454
1.000000 0.991516 0.962219
1.000000 0.990997 0.957946
1.000000 0.989990 0.952148
1.000000 0.988281 0.943969
1.000000 0.986358 0.936797
1.000000 0.984924 0.930205
1.000000 0.983429 0.923461
1.000000 0.982055 0.917479
1.000000 0.981018 0.914031
1.000000 0.980194 0.911803
1.000000 0.979522 0.910338
1.000000 0.979034 0.909758
1.000000 0.978943 0.913512
1.000000 0.979919 0.927977
1.000000 0.981109 0.939361
1.000000 0.982513 0.948913
1.000000 0.984100 0.957061
1.000000 0.985718 0.963897
1.000000 0.987335 0.969665
1.000000 0.988830 0.974365
0.995483 0.989624 0.977874
0.995605 0.989837 0.978302
0.995880 0.990173 0.978668
0.996246 0.990509 0.978851
0.996674 0.990845 0.978851
0.997253 0.991180 0.978546
0.997955 0.991485 0.977966
0.998779 0.991821 0.977203
0.999786 0.992157 0.976287
1.000000 0.992493 0.975189
1.000000 0.992737 0.973877
1.000000 0.992859 0.972259
1.000000 0.992828 0.970214
1.000000 0.992615 0.967559
1.000000 0.992096 0.964141
1.000000 0.991211 0.959686
1.000000 0.989868 0.953826
1.000000 0.988586 0.949889
1.000000 0.987671 0.946258
1.000000 0.986816 0.943053
1.000000 0.986114 0.940673
1.000000 0.985687 0.940002
1.000000 0.985351 0.939757
1.000000 0.985138 0.940032
1.000000 0.985016 0.940612
1.000000 0.984924 0.941283
1.000000 0.985870 0.951141
1.000000 0.986908 0.959136
1.000000 0.988067 0.965759
1.000000 0.989258 0.971221
1.000000 0.990387 0.975647
1.000000 0.991455 0.979309
0.996765 0.992279 0.983398
0.996826 0.992340 0.983520
0.996918 0.992432 0.983551
0.997101 0.992554 0.983490
0.997375 0.992706 0.983307
0.997711 0.992859 0.982971
0.998199 0.993072 0.982544
0.998749 0.993286 0.981994
0.999420 0.993561 0.981384
1.000000 0.993805 0.980713
1.000000 0.994049 0.979919
1.000000 0.994202 0.978973
1.000000 0.994263 0.977752
1.000000 0.994171 0.976257
1.000000 0.993957 0.974365
1.000000 0.993530 0.971923
1.000000 0.992798 0.968902
1.000000 0.991791 0.964904
1.000000 0.990906 0.962554
1.000000 0.990204 0.959808
1.000000 0.989502 0.957183
1.000000 0.988891 0.955047
1.000000 0.988403 0.953826
1.000000 0.988006 0.952880
1.000000 0.987762 0.952758
1.000000 0.987671 0.953185
1.000000 0.987732 0.954162
1.000000 0.988403 0.960388
1.000000 0.989380 0.966918
1.000000 0.990326 0.972198
1.000000 0.991302 0.976501
1.000000 0.992187 0.980011
0.997223 0.993317 0.985718
0.997223 0.993378 0.985809
0.997345 0.993439 0.985840
0.997467 0.993530 0.985809
0.997681 0.993652 0.985687
0.997925 0.993805 0.985443
0.998291 0.993957 0.985138
0.998688 0.994141 0.984771
0.999176 0.994354 0.984344
0.999756 0.994568 0.983856
1.000000 0.994781 0.983307
1.000000 0.994934 0.982666
1.000000 0.995056 0.981842
1.000000 0.995087 0.980896
1.000000 0.994995 0.979736
1.000000 0.994781 0.978332
1.000000 0.994415 0.976623
1.000000 0.993866 0.974517
1.000000 0.993103 0.971801
1.000000 0.992523 0.970550
1.000000 0.992004 0.968780
1.000000 0.991547 0.967163
1.000000 0.991119 0.965881
1.000000 0.990814 0.965270
1.000000 0.989746 0.961028
1.000000 0.989563 0.960998
1.000000 0.989563 0.961639
1.000000 0.989685 0.962768
1.000000 0.990204 0.966705
1.000000 0.991058 0.972198
1.000000 0.991913 0.976654
1.000000 0.992737 0.980255
0.997772 0.994568 0.988525
0.997803 0.994659 0.988617
0.997833 0.994690 0.988647
0.997925 0.994751 0.988556
0.998047 0.994781 0.988403
0.998230 0.994842 0.988128
0.998444 0.994903 0.987793
0.998718 0.994995 0.987427
0.999084 0.995117 0.986969
0.999512 0.995270 0.986511
1.000000 0.995392 0.985962
1.000000 0.995514 0.985351
1.000000 0.995605 0.984680
1.000000 0.995636 0.983856
1.000000 0.995605 0.982849
1.000000 0.995453 0.981659
1.000000 0.995209 0.980285
1.000000 0.994873 0.978759
1.000000 0.994354 0.977050
1.000000 0.993744 0.975097
1.000000 0.993378 0.974395
1.000000 0.992981 0.973175
1.000000 0.992615 0.971954
1.000000 0.992218 0.970764
1.000000 0.991882 0.969848
1.000000 0.991547 0.969024
1.000000 0.991363 0.968811
1.000000 0.991363 0.969146
1.000000 0.991455 0.970001
1.000000 0.991791 0.972259
1.000000 0.992493 0.976684
1.000000 0.993225 0.980316
0.997925 0.995056 0.989654
0.997955 0.995117 0.989776
0.998016 0.995178 0.989807
0.998077 0.995239 0.989746
0.998169 0.995270 0.989685
0.998322 0.995361 0.989532
0.998505 0.995453 0.989349
0.998749 0.995575 0.989136
0.999023 0.995697 0.988922
0.999359 0.995850 0.988647
0.999725 0.996002 0.988312
1.000000 0.996124 0.987945
1.000000 0.996216 0.987518
1.000000 0.996277 0.986969
1.000000 0.996307 0.986297
1.000000 0.996246 0.985565
1.000000 0.996155 0.984680
1.000000 0.995972 0.983734
1.000000 0.995697 0.982727
1.000000 0.995361 0.981689
1.000000 0.994934 0.980560
1.000000 0.994629 0.980011
1.000000 0.994354 0.979156
1.000000 0.994049 0.978332
1.000000 0.993774 0.977539
1.000000 0.993561 0.976989
1.000000 0.993347 0.976562
1.000000 0.993286 0.976593
1.000000 0.993347 0.977111
1.000000 0.993469 0.977935
1.000000 0.993713 0.979095
1.000000 0.994263 0.982269
0.998199 0.995758 0.991211
0.998199 0.995789 0.991272
0.998230 0.995819 0.991272
0.998291 0.995850 0.991211
0.998352 0.995880 0.991150
0.998474 0.995941 0.991028
0.998596 0.996002 0.990906
0.998810 0.996094 0.990723
0.999023 0.996216 0.990539
0.999268 0.996338 0.990326
0.999573 0.996460 0.990082
0.999878 0.996582 0.989807
1.000000 0.996674 0.989502
1.000000 0.996765 0.989136
1.000000 0.996826 0.988678
1.000000 0.996796 0.988128
1.000000 0.996765 0.987518
1.000000 0.996674 0.986847
1.000000 0.996521 0.986206
1.000000 0.996338 0.985534
1.000000 0.996063 0.984833
1.000000 0.995758 0.984161
1.000000 0.995514 0.983612
1.000000 0.995270 0.982940
1.000000 0.995026 0.982238
1.000000 0.994781 0.981537
1.000000 0.994598 0.981079
1.000000 0.994415 0.980743
1.000000 0.994354 0.980774
1.000000 0.994476 0.981415
1.000000 0.994629 0.982269
1.000000 0.994873 0.983368
0.998383 0.996246 0.992370
0.998383 0.996277 0.992370
0.998413 0.996277 0.992401
0.998474 0.996307 0.992370
0.998505 0.996368 0.992340
0.998627 0.996460 0.992309
0.998749 0.996551 0.992309
0.998901 0.996674 0.992309
0.999084 0.996826 0.992309
0.999298 0.996979 0.992309
0.999512 0.997131 0.992309
0.999725 0.997284 0.992279
0.999969 0.997406 0.992218
1.000000 0.997528 0.992126
1.000000 0.997620 0.991943
1.000000 0.997650 0.991669
1.000000 0.997681 0.991394
1.000000 0.997650 0.991089
1.000000 0.997620 0.990784
1.000000 0.997528 0.990509
1.000000 0.997436 0.990204
1.000000 0.997284 0.989868
1.000000 0.997101 0.989563
1.000000 0.996948 0.989197
1.000000 0.996765 0.988708
1.000000 0.996582 0.988251
1.000000 0.996429 0.987823
1.000000 0.996307 0.987518
1.000000 0.996185 0.987304
1.000000 0.996155 0.987396
1.000000 0.996246 0.987854
1.000000 0.996399 0.988495
0.998718 0.997101 0.994171
0.998749 0.997101 0.994171
0.998718 0.997101 0.994171
0.998749 0.997131 0.994141
0.998810 0.997131 0.994079
0.998871 0.997192 0.994018
0.998932 0.997223 0.993988
0.999023 0.997284 0.993896
0.999176 0.997375 0.993835
0.999298 0.997467 0.993774
0.999481 0.997559 0.993683
0.999664 0.997650 0.993591
0.999847 0.997772 0.993500
1.000000 0.997833 0.993378
