20 Preset/Dark Style/【3】LUT video cho PR-AE-FCPX/19Tones/City Subway 2.cube
# Created by Adobe Lightroom plugin Export LUT (1.24.0)
# www.johnrellis.com/lightroom/exportlut.htm
# Preset: City Subway 2
# Color profile: E:\lut插件\exportlut.1.24\exportlut.lrplugin\color profiles\Rec709gamma2.4.icc
LUT_3D_SIZE 32
DOMAIN_MIN 0.0 0.0 0.0
DOMAIN_MAX 1.0 1.0 1.0
0.118868 0.113588 0.106447
0.118868 0.113588 0.106447
0.118868 0.113588 0.106447
0.117342 0.113741 0.106447
0.114870 0.113741 0.106508
0.112947 0.113649 0.106569
0.110689 0.113893 0.106569
0.110140 0.113954 0.106569
0.110414 0.113619 0.106294
0.111818 0.113191 0.105989
0.115358 0.112459 0.105684
0.121157 0.111788 0.104982
0.129732 0.110628 0.104585
0.140475 0.109071 0.103853
0.154116 0.106691 0.103395
0.170291 0.103365 0.102876
0.189456 0.098543 0.102358
0.212192 0.091218 0.101747
0.239902 0.074006 0.100984
0.273503 0.030640 0.100465
0.314427 0.000000 0.099580
0.369604 0.000000 0.098512
0.465705 0.000000 0.095766
0.572259 0.000000 0.091829
0.684504 0.000000 0.084718
0.799680 0.000000 0.067689
0.916594 0.000000 0.040284
1.000000 0.000000 0.008728
1.000000 0.000000 0.000000
1.000000 0.000000 0.000000
1.000000 0.000000 0.000000
1.000000 0.000000 0.000000
0.118868 0.113588 0.106447
0.118868 0.113588 0.106447
0.118868 0.113588 0.106447
0.117525 0.113436 0.106508
0.115084 0.113405 0.106569
0.112947 0.113649 0.106569
0.111269 0.113832 0.106569
0.110323 0.113619 0.106630
0.110628 0.113313 0.106325
0.111818 0.113191 0.105989
0.114809 0.112520 0.105684
0.120150 0.111910 0.104982
0.128054 0.110567 0.104646
0.138186 0.109102 0.103914
0.150881 0.107271 0.103395
0.166232 0.104280 0.102937
0.184665 0.099489 0.102449
0.206668 0.093233 0.101808
0.232975 0.079805 0.101106
0.264927 0.042481 0.100587
0.303166 0.000000 0.099825
0.354620 0.000000 0.098512
0.439643 0.000000 0.096437
0.533562 0.000000 0.093263
0.634058 0.000000 0.088441
0.740139 0.000000 0.078004
0.853941 0.000000 0.053956
0.968170 0.000000 0.024292
1.000000 0.000000 0.000000
1.000000 0.000000 0.000000
1.000000 0.000000 0.000000
1.000000 0.000000 0.000000
0.118532 0.113313 0.106508
0.118624 0.113313 0.106172
0.118624 0.113313 0.106172
0.118288 0.113039 0.106203
0.116060 0.112673 0.106325
0.113588 0.112673 0.106355
0.111940 0.112856 0.106386
0.110811 0.112978 0.106386
0.110903 0.112978 0.106050
0.111757 0.112581 0.105745
0.114565 0.112245 0.105379
0.119844 0.111635 0.105043
0.126741 0.110750 0.104311
0.136538 0.109346 0.103914
0.149172 0.107271 0.103456
0.163668 0.104829 0.102937
0.181552 0.100649 0.102052
0.202853 0.094484 0.101839
0.228458 0.083619 0.101137
0.259648 0.050629 0.100618
0.296757 0.000000 0.099947
0.350439 0.000000 0.098970
0.429328 0.000000 0.097017
0.517327 0.000000 0.093904
0.611170 0.000000 0.089815
0.711696 0.000000 0.081514
0.821256 0.000000 0.060883
0.936339 0.000000 0.032044
1.000000 0.000000 0.000000
1.000000 0.000000 0.000000
1.000000 0.000000 0.000000
1.000000 0.000000 0.000000
0.117037 0.112276 0.105348
0.117037 0.112276 0.105348
0.117220 0.111940 0.105379
0.117311 0.111940 0.105043
0.116426 0.111727 0.105104
0.115023 0.111574 0.105135
0.113191 0.111147 0.105592
0.112154 0.111269 0.105257
0.111971 0.111604 0.105196
0.112886 0.111818 0.105165
0.115114 0.111574 0.104799
0.119661 0.111360 0.104402
0.126986 0.110414 0.104005
0.135744 0.109499 0.103548
0.147219 0.107942 0.103059
0.161410 0.105287 0.102602
0.178134 0.101503 0.102083
0.198154 0.096345 0.101472
0.222080 0.088746 0.101106
0.250797 0.064210 0.100679
0.285496 0.019989 0.099947
0.339208 0.000000 0.099092
0.408362 0.000000 0.097566
0.488899 0.000000 0.095308
0.579339 0.000000 0.091371
0.680659 0.000000 0.084871
0.794583 0.000000 0.067475
0.916533 0.000000 0.036927
1.000000 0.000000 0.000000
1.000000 0.000000 0.000000
1.000000 0.000000 0.000000
1.000000 0.000000 0.000000
0.115633 0.110903 0.104219
0.115633 0.110903 0.104219
0.115389 0.110628 0.103914
0.115389 0.110628 0.103914
0.115389 0.110628 0.103914
0.115572 0.110292 0.103975
0.114504 0.110414 0.103975
0.113100 0.110262 0.104036
0.112459 0.110323 0.104372
0.113375 0.110536 0.104311
0.115389 0.110628 0.103914
0.120180 0.110689 0.103792
0.126345 0.110201 0.103334
0.135012 0.109621 0.102846
0.146151 0.108156 0.102724
0.159670 0.105989 0.102205
0.176120 0.103090 0.101595
0.195895 0.098207 0.101350
0.219272 0.091066 0.100984
0.247807 0.072358 0.100526
0.283268 0.028901 0.100099
0.338964 0.000000 0.099062
0.403662 0.000000 0.097627
0.480507 0.000000 0.095491
0.568414 0.000000 0.092103
0.668849 0.000000 0.086152
0.781491 0.000000 0.069581
0.902434 0.000000 0.039368
1.000000 0.000000 0.003326
1.000000 0.000000 0.000000
1.000000 0.000000 0.000000
1.000000 0.000000 0.000000
0.114504 0.109804 0.103334
0.114504 0.109804 0.103334
0.114504 0.109804 0.103334
0.114260 0.109529 0.103029
0.114260 0.109529 0.103029
0.114260 0.109529 0.103029
0.114260 0.109529 0.103029
0.114168 0.109529 0.103395
0.113191 0.109651 0.103029
0.113710 0.109590 0.103029
0.115999 0.109957 0.102937
0.119753 0.110140 0.102815
0.126497 0.110201 0.102632
0.135805 0.109834 0.102419
0.146761 0.108736 0.101900
0.160250 0.107210 0.101656
0.177157 0.104250 0.101411
0.196841 0.100160 0.101045
0.221103 0.093294 0.100649
0.249546 0.079469 0.100404
0.293919 0.026123 0.099702
0.349187 0.000000 0.098756
0.597223 0.000000 0.092134
0.719173 0.000000 0.084962
0.843473 0.000000 0.065858
0.961639 0.000000 0.036805
1.000000 0.000000 0.007568
1.000000 0.000000 0.000000
1.000000 0.000000 0.000000
1.000000 0.000000 0.000000
1.000000 0.000000 0.000000
1.000000 0.000000 0.000000
0.113466 0.109316 0.102724
0.113466 0.109316 0.102724
0.113466 0.109316 0.102724
0.113466 0.109316 0.102724
0.113466 0.109316 0.102724
0.113466 0.109316 0.102724
0.113466 0.109316 0.102724
0.113985 0.109255 0.102724
0.113985 0.109255 0.102724
0.114534 0.109194 0.102724
0.116609 0.109895 0.102571
0.122103 0.111116 0.102235
0.129702 0.111666 0.101961
0.141238 0.111543 0.101625
0.155154 0.110780 0.101289
0.171328 0.108919 0.100954
0.189334 0.106020 0.100954
0.210971 0.101656 0.100832
0.237552 0.094026 0.100618
0.283543 0.064240 0.100008
0.346319 0.000000 0.099336
0.427039 0.000000 0.098054
0.528405 0.000000 0.095491
0.648768 0.000000 0.090791
0.779477 0.000000 0.079805
0.907286 0.000000 0.050996
1.000000 0.000000 0.019715
1.000000 0.000000 0.000000
1.000000 0.000000 0.000000
1.000000 0.000000 0.000000
1.000000 0.000000 0.000000
1.000000 0.000000 0.000000
0.114260 0.109529 0.103029
0.114260 0.109529 0.103029
0.114260 0.109529 0.103029
0.114260 0.109529 0.103029
0.114076 0.109865 0.102968
0.114504 0.109804 0.103334
0.114504 0.109804 0.103334
0.114504 0.109804 0.103334
0.114870 0.110079 0.103304
0.114656 0.110414 0.103243
0.115724 0.110292 0.103243
0.119387 0.111421 0.103334
0.126711 0.113008 0.102907
0.136629 0.114656 0.102358
0.149691 0.114778 0.102296
0.165957 0.114046 0.101839
0.185489 0.112093 0.101656
0.209964 0.108431 0.101381
0.244572 0.101686 0.101320
0.288212 0.087312 0.101259
0.345342 0.018524 0.100801
0.419104 0.000000 0.099886
0.511986 0.000000 0.097780
0.622766 0.000000 0.093660
0.745571 0.000000 0.085603
0.868986 0.000000 0.062135
0.981872 0.000000 0.027710
1.000000 0.000000 0.000000
1.000000 0.000000 0.000000
1.000000 0.000000 0.000000
1.000000 0.000000 0.000000
1.000000 0.000000 0.000000
0.115633 0.110903 0.104219
0.115633 0.110903 0.104219
0.115633 0.110903 0.104219
0.115969 0.111177 0.104158
0.116426 0.111116 0.104494
0.116701 0.111391 0.104799
0.116762 0.112001 0.105043
0.117037 0.112276 0.105348
0.117037 0.112276 0.105348
0.117037 0.112276 0.105348
0.117678 0.112825 0.105226
0.119112 0.113588 0.105440
0.122774 0.114321 0.105562
0.131991 0.116426 0.105348
0.144808 0.119265 0.104891
0.161593 0.121157 0.104372
0.184451 0.121370 0.104128
0.213077 0.119631 0.104097
0.249271 0.114961 0.103731
0.293828 0.104524 0.103304
0.348333 0.078981 0.102876
0.418372 0.000000 0.101930
0.506035 0.000000 0.100221
0.610681 0.000000 0.096407
0.727260 0.000000 0.089723
0.846586 0.000000 0.069398
0.959289 0.000000 0.031617
1.000000 0.000000 0.000000
1.000000 0.000000 0.000000
1.000000 0.000000 0.000000
1.000000 0.000000 0.000000
1.000000 0.000000 0.000000
0.118807 0.113588 0.106783
0.118807 0.113588 0.106783
0.119112 0.113832 0.106752
0.119112 0.113832 0.106752
0.119356 0.114107 0.107027
0.119631 0.114351 0.107332
0.120119 0.114870 0.107912
0.120943 0.115663 0.108461
0.121736 0.116457 0.108980
0.121736 0.116457 0.108980
0.121492 0.116182 0.108705
0.122042 0.116701 0.108919
0.124575 0.118441 0.109255
0.128176 0.119387 0.109987
0.139986 0.123140 0.110689
0.157412 0.127810 0.110384
0.181247 0.133516 0.109834
0.209903 0.135073 0.109590
0.246036 0.133761 0.109163
0.291386 0.129122 0.108522
0.348608 0.116243 0.107454
0.418524 0.082918 0.105592
0.496071 0.000000 0.103914
0.587182 0.000000 0.100465
0.688991 0.000000 0.093812
0.797910 0.000000 0.080262
0.909880 0.000000 0.041108
1.000000 0.000000 0.000000
1.000000 0.000000 0.000000
1.000000 0.000000 0.000000
1.000000 0.000000 0.000000
1.000000 0.000000 0.000000
0.123476 0.117678 0.110018
0.123476 0.117678 0.110018
0.123232 0.117983 0.110292
0.123720 0.117922 0.110292
0.124208 0.118410 0.110842
0.124758 0.118929 0.111086
0.125460 0.119661 0.111910
0.126650 0.120912 0.112978
0.128573 0.122316 0.114229
0.130404 0.124208 0.116030
0.130678 0.124453 0.115969
0.130617 0.124453 0.116274
0.130739 0.124971 0.116213
0.133639 0.127504 0.116640
0.138613 0.129427 0.117433
0.149264 0.132540 0.118959
0.171115 0.138705 0.119051
0.199435 0.146120 0.118746
0.235874 0.154116 0.117891
0.278965 0.154543 0.116762
0.333043 0.150759 0.115816
0.399512 0.139712 0.114076
0.480018 0.113466 0.110811
0.574762 0.000000 0.105531
0.677882 0.000000 0.097749
0.784024 0.000000 0.083986
0.894072 0.000000 0.038636
0.999695 0.000000 0.000000
1.000000 0.000000 0.000000
1.000000 0.000000 0.000000
1.000000 0.000000 0.000000
1.000000 0.000000 0.000000
0.133120 0.126467 0.117983
0.133120 0.126467 0.117983
0.133333 0.126711 0.118227
0.133547 0.126925 0.118502
0.134249 0.127626 0.118959
0.134890 0.128298 0.119692
0.136416 0.129366 0.120638
0.137697 0.130678 0.121828
0.139803 0.132387 0.123445
0.141909 0.134493 0.125277
0.144320 0.136995 0.127474
0.144259 0.136538 0.127291
0.162875 0.153902 0.143954
0.161563 0.153506 0.142733
0.166781 0.158877 0.144442
0.176303 0.164736 0.146334
0.189975 0.168246 0.149874
0.227634 0.180148 0.152102
0.280034 0.195468 0.151919
0.348333 0.213901 0.150393
0.429114 0.229679 0.146487
0.515953 0.229129 0.141695
0.613977 0.221836 0.134890
0.722042 0.205661 0.124056
0.834623 0.177554 0.107424
0.941039 0.132509 0.074434
1.000000 0.040681 0.000000
1.000000 0.000000 0.000000
1.000000 0.084993 0.000000
1.000000 0.175265 0.000000
1.000000 0.249790 0.000000
1.000000 0.319310 0.000000
0.158846 0.150027 0.140139
0.158511 0.150088 0.140139
0.158175 0.149722 0.139742
0.157992 0.149538 0.139528
0.157839 0.149355 0.139345
0.157778 0.149355 0.139559
0.158328 0.149905 0.139925
0.159670 0.150942 0.141115
0.161746 0.153079 0.143008
0.164858 0.155978 0.146029
0.169497 0.160464 0.150332
0.175265 0.165866 0.155886
0.175845 0.166476 0.156588
0.176120 0.166812 0.156924
0.174807 0.165377 0.155367
0.180819 0.172976 0.158206
0.191409 0.180636 0.160952
0.204196 0.185214 0.164187
0.235538 0.194980 0.170138
0.290379 0.212284 0.170901
0.360357 0.232944 0.170260
0.446754 0.259098 0.167391
0.542504 0.278141 0.161044
0.644343 0.281987 0.152804
0.753140 0.282017 0.139742
0.864683 0.279179 0.120211
0.967346 0.277470 0.089265
1.000000 0.282933 0.000000
1.000000 0.303868 0.000000
1.000000 0.340307 0.000000
1.000000 0.385809 0.000000
1.000000 0.435157 0.000000
0.176303 0.166964 0.156893
0.176028 0.166629 0.156558
0.175265 0.165866 0.155886
0.174685 0.165225 0.155215
0.173892 0.164431 0.154543
0.173159 0.164004 0.154025
0.173312 0.164157 0.154208
0.174228 0.165103 0.155032
0.176455 0.167117 0.157046
0.179782 0.170291 0.160372
0.184787 0.174960 0.165316
0.190982 0.181186 0.171542
0.196536 0.186862 0.177676
0.196902 0.186954 0.177829
0.195285 0.185519 0.176242
0.191836 0.181857 0.172457
0.196689 0.188876 0.174899
0.207126 0.197574 0.177951
0.222477 0.205417 0.181979
0.244968 0.212131 0.189578
0.301579 0.231693 0.194125
0.376776 0.256840 0.195682
0.467689 0.287114 0.194888
0.576043 0.324590 0.190463
0.689387 0.352789 0.180911
0.802365 0.365393 0.166781
0.910887 0.378088 0.147127
1.000000 0.393225 0.119753
1.000000 0.416480 0.072633
1.000000 0.449989 0.000000
1.000000 0.491218 0.000000
1.000000 0.535607 0.000000
0.197757 0.187900 0.178836
0.197513 0.187625 0.178531
0.196536 0.186862 0.177676
0.195529 0.185489 0.176242
0.194034 0.184176 0.174807
0.192752 0.183108 0.173617
0.192508 0.182834 0.173342
0.193362 0.183505 0.174258
0.195529 0.185489 0.176242
0.198856 0.189059 0.180087
0.203891 0.194186 0.185550
0.210575 0.201022 0.192874
0.218082 0.208560 0.201175
0.222751 0.213352 0.206516
0.220920 0.211368 0.204288
0.216709 0.207065 0.199466
0.210575 0.201022 0.192874
0.214450 0.207218 0.194644
0.225834 0.217960 0.199191
0.243595 0.229160 0.204166
0.264042 0.236118 0.211032
0.315007 0.255009 0.223636
0.395666 0.284733 0.227970
0.493355 0.320317 0.230442
0.606836 0.362554 0.229496
0.731716 0.412238 0.223209
0.854002 0.454597 0.210910
0.960662 0.480323 0.197116
1.000000 0.511498 0.182956
1.000000 0.551019 0.174197
1.000000 0.595209 0.174472
1.000000 0.641016 0.186099
0.220890 0.211368 0.204410
0.221103 0.211582 0.204654
0.220920 0.211368 0.204288
0.220371 0.210819 0.203677
0.219669 0.210269 0.202976
0.219760 0.210117 0.202976
0.220706 0.211154 0.204044
0.222446 0.213046 0.206149
0.225467 0.216068 0.209628
0.229282 0.220127 0.213993
0.234073 0.225101 0.219669
0.239384 0.230625 0.225986
0.244846 0.236545 0.232761
0.250034 0.241978 0.239109
0.249546 0.241428 0.238437
0.243137 0.234714 0.230777
0.236606 0.227634 0.222660
0.229068 0.219913 0.213901
0.232120 0.225589 0.215183
0.244694 0.238956 0.221683
0.265446 0.254337 0.229557
0.290654 0.267277 0.239628
0.331365 0.283268 0.257847
0.418402 0.318517 0.269139
0.525322 0.360937 0.276341
0.649348 0.411444 0.281468
0.782864 0.469520 0.283024
0.911803 0.535210 0.281773
1.000000 0.597345 0.281163
1.000000 0.637568 0.282719
1.000000 0.678645 0.291173
1.000000 0.719203 0.307622
0.247990 0.239750 0.236515
0.247898 0.239658 0.236393
0.247745 0.239658 0.236301
0.247471 0.239384 0.235996
0.247379 0.239292 0.235904
0.247715 0.239475 0.236210
0.248936 0.240757 0.237766
0.250736 0.242710 0.239963
0.253666 0.245914 0.243656
0.257298 0.249851 0.248264
0.261875 0.254826 0.254093
0.266941 0.260502 0.260746
0.272465 0.266514 0.267765
0.277501 0.272282 0.274388
0.281834 0.277012 0.280034
0.277104 0.271702 0.273838
0.268772 0.262516 0.263035
0.260746 0.253605 0.252659
0.252384 0.244541 0.242161
0.254520 0.249546 0.242710
0.268864 0.266209 0.251926
0.292271 0.286015 0.262943
0.323033 0.305333 0.276341
0.359716 0.320684 0.293034
0.443336 0.357519 0.319432
0.561364 0.408240 0.332708
0.696345 0.467109 0.344396
0.836851 0.534020 0.355291
0.959869 0.606561 0.367590
1.000000 0.680842 0.384161
1.000000 0.751705 0.408789
1.000000 0.792355 0.432471
0.286412 0.282078 0.285954
0.287022 0.282933 0.286931
0.344671 0.348669 0.363928
0.344366 0.348363 0.363561
0.344091 0.347936 0.363134
0.343664 0.347509 0.362585
0.343664 0.347509 0.362585
0.344549 0.348577 0.363836
0.347112 0.351507 0.367254
0.350988 0.355962 0.372351
0.355413 0.360967 0.378180
0.360449 0.366705 0.384771
0.363775 0.370428 0.389105
0.366125 0.373144 0.392248
0.366735 0.373877 0.393011
0.365728 0.372808 0.391730
0.349401 0.354040 0.370153
0.332403 0.334508 0.347448
0.316808 0.316808 0.326757
0.301579 0.299290 0.306218
0.300755 0.301976 0.303075
0.318608 0.323857 0.315709
0.346380 0.349065 0.330022
0.384375 0.375372 0.346227
0.425452 0.394293 0.364385
0.494118 0.423072 0.396948
0.620111 0.477150 0.413245
0.760037 0.539940 0.427222
0.893614 0.609644 0.444099
0.998077 0.682795 0.464881
1.000000 0.755215 0.492866
1.000000 0.817044 0.527672
0.350347 0.355138 0.371405
0.356207 0.361913 0.379248
0.362646 0.369268 0.387671
0.368719 0.376074 0.395605
0.373144 0.381109 0.401343
0.374792 0.383154 0.403601
0.375433 0.383734 0.404303
0.375708 0.384131 0.404791
0.377356 0.386023 0.406897
0.380194 0.389227 0.410559
0.384192 0.393683 0.415656
0.388556 0.398596 0.421210
0.391547 0.402014 0.425086
0.393927 0.404669 0.428046
0.395026 0.405982 0.429511
0.395026 0.405982 0.429511
0.388861 0.399023 0.421637
0.372961 0.381048 0.401190
0.356909 0.362676 0.380163
0.341680 0.345129 0.359808
0.326635 0.327977 0.339818
0.327276 0.332341 0.338293
0.347845 0.358618 0.354376
0.378668 0.387976 0.371923
0.421393 0.419196 0.389532
0.466621 0.443488 0.410163
0.528832 0.469306 0.438148
0.646723 0.522240 0.472969
0.793973 0.592401 0.493935
0.924407 0.667445 0.518486
1.000000 0.743679 0.549645
1.000000 0.811612 0.586755
0.389960 0.400275 0.423102
0.396979 0.408087 0.431861
0.404761 0.416785 0.441596
0.411810 0.424750 0.450446
0.417121 0.430549 0.456916
0.419562 0.433295 0.459907
0.420233 0.434058 0.460731
0.420356 0.434180 0.460914
0.421607 0.435645 0.462440
0.423682 0.437842 0.464881
0.426612 0.441077 0.468421
0.430213 0.444984 0.472724
0.433082 0.448127 0.476081
0.435645 0.450996 0.479255
0.437110 0.452552 0.480903
0.437110 0.452552 0.480903
0.435798 0.451148 0.479377
0.422492 0.436530 0.463478
0.405310 0.417426 0.442359
0.388128 0.398138 0.420630
0.371923 0.379858 0.399817
0.355871 0.361456 0.378729
0.357855 0.367864 0.378668
0.381598 0.398444 0.397955
0.415229 0.431067 0.417212
0.461433 0.466224 0.437140
0.513420 0.496834 0.459541
0.575311 0.524468 0.486580
0.679835 0.574060 0.536828
0.830503 0.650904 0.565850
0.951720 0.729946 0.599145
1.000000 0.803189 0.637446
0.440009 0.455726 0.484321
0.447456 0.463691 0.492897
0.455177 0.471992 0.501762
0.462470 0.479774 0.509911
0.467720 0.485298 0.515770
0.470192 0.487922 0.518486
0.471168 0.488960 0.519615
0.471321 0.489113 0.519738
0.472480 0.490333 0.520989
0.474006 0.491920 0.522667
0.476905 0.494942 0.525780
0.480079 0.498268 0.529198
0.482765 0.500999 0.532067
0.485206 0.503532 0.534661
0.487129 0.505516 0.536675
0.488228 0.506737 0.537957
0.489784 0.508324 0.539574
0.487648 0.506065 0.537224
0.472572 0.490425 0.521111
0.457740 0.474769 0.504662
0.443366 0.459358 0.488258
0.428260 0.442939 0.470466
0.411810 0.424750 0.450446
0.420447 0.440040 0.457710
0.454841 0.481239 0.485084
0.501030 0.525048 0.512230
0.561578 0.571679 0.539666
0.633417 0.617914 0.571191
0.711116 0.660029 0.608331
0.807279 0.711696 0.660426
0.918669 0.782559 0.712947
0.993927 0.849607 0.752407
0.556115 0.574762 0.605676
0.560143 0.578668 0.609461
0.562951 0.581445 0.612116
0.564935 0.583429 0.614008
0.565118 0.583520 0.614130
0.564172 0.582605 0.613245
0.562676 0.581170 0.611872
0.561486 0.580011 0.610742
0.561883 0.580407 0.611109
0.563989 0.582513 0.613123
0.567010 0.585351 0.615900
0.570184 0.588464 0.618860
0.572229 0.590448 0.620752
0.574182 0.592370 0.622614
0.575280 0.593439 0.623621
0.575158 0.593286 0.623499
0.574365 0.592523 0.622736
0.573693 0.591852 0.622095
0.557549 0.576226 0.607050
0.537041 0.555993 0.587366
0.516381 0.535393 0.566949
0.495460 0.514122 0.545525
0.473732 0.491646 0.522362
0.450813 0.467384 0.496864
0.463508 0.487739 0.506706
0.501823 0.531731 0.534478
0.554101 0.580072 0.563958
0.623072 0.633417 0.595941
0.703029 0.687404 0.632136
0.780728 0.733883 0.673457
0.857847 0.777859 0.718929
0.937621 0.836454 0.781613
0.628382 0.644007 0.671046
0.631678 0.647120 0.673915
0.634821 0.650080 0.676631
0.636927 0.652033 0.678431
0.637446 0.652552 0.678889
0.636591 0.651667 0.678126
0.635370 0.650568 0.677089
0.634577 0.649836 0.676417
0.635004 0.650172 0.676753
0.636805 0.651911 0.678340
0.639307 0.654261 0.680476
0.642237 0.656977 0.682979
0.644587 0.659174 0.684962
0.647181 0.661616 0.687190
0.648737 0.663050 0.688502
0.649775 0.664057 0.689418
0.650294 0.664515 0.689845
0.650294 0.664515 0.689845
0.641047 0.655879 0.681971
0.620386 0.636469 0.664088
0.599573 0.616693 0.645655
0.577478 0.595483 0.625574
0.554223 0.572961 0.603906
0.528954 0.547967 0.579461
0.478065 0.496132 0.527031
0.500542 0.527611 0.545281
0.544549 0.575952 0.575372
0.603449 0.629236 0.607691
0.677516 0.686549 0.643183
0.760159 0.744320 0.682795
0.835264 0.792752 0.726741
0.900572 0.835111 0.771786
0.739467 0.746609 0.763027
0.744961 0.751614 0.767391
0.747311 0.753780 0.769314
0.746548 0.753109 0.768673
0.743130 0.749935 0.765927
0.737728 0.744991 0.761624
0.731380 0.739223 0.756527
0.725216 0.733639 0.751614
0.719631 0.728481 0.747097
0.715572 0.724788 0.743832
0.711727 0.721218 0.740719
0.709499 0.719173 0.738918
0.707576 0.717494 0.737392
0.705104 0.715145 0.735348
0.701381 0.711757 0.732326
0.697414 0.708125 0.729091
0.693904 0.704921 0.726223
0.691737 0.702876 0.724422
0.685847 0.697444 0.719600
0.669123 0.682033 0.705684
0.651057 0.665248 0.690486
0.630488 0.645960 0.672877
0.606683 0.623529 0.652003
0.579461 0.597467 0.627436
0.548089 0.566918 0.598047
0.517815 0.537011 0.568261
0.551934 0.581109 0.594507
0.600153 0.631220 0.624323
0.662318 0.685634 0.657313
0.737087 0.742977 0.694118
0.817136 0.799771 0.733883
0.882322 0.844755 0.777096
0.786709 0.789609 0.800412
0.791440 0.793881 0.804135
0.794461 0.796689 0.806546
0.795102 0.797269 0.807034
0.794278 0.796506 0.806394
0.792813 0.795163 0.805203
0.791531 0.793973 0.804196
0.790005 0.792630 0.803037
0.789456 0.792111 0.802579
0.789456 0.792111 0.802579
0.789181 0.791836 0.802365
0.789548 0.792203 0.802670
0.788602 0.791348 0.801907
0.786526 0.789425 0.800259
0.783200 0.786404 0.797635
0.779263 0.782864 0.794583
0.775082 0.779019 0.791257
0.771695 0.775937 0.788571
0.766049 0.770779 0.784115
0.750454 0.756588 0.771756
0.733913 0.741543 0.758602
0.715236 0.724453 0.743557
0.694057 0.705043 0.726314
0.669245 0.682155 0.705837
0.640345 0.655268 0.681392
0.607477 0.624262 0.652735
0.592096 0.612909 0.637690
0.635096 0.662440 0.667414
0.691615 0.717617 0.701106
0.757900 0.773312 0.736873
0.827817 0.826505 0.774166
0.891630 0.873381 0.811948
0.852049 0.849516 0.852323
0.854124 0.851438 0.853971
0.854978 0.852232 0.854704
0.854795 0.852049 0.854520
0.853788 0.851133 0.853727
0.852171 0.849638 0.852415
0.850523 0.848051 0.851041
0.848844 0.846555 0.849729
0.847745 0.845518 0.848844
0.847135 0.844938 0.848325
0.846464 0.844358 0.847837
0.846220 0.844114 0.847593
0.845548 0.843503 0.847105
0.843931 0.842008 0.845762
0.841215 0.839506 0.843595
0.837613 0.836179 0.840696
0.833890 0.832700 0.837705
0.830442 0.829557 0.834958
0.824277 0.823911 0.830076
0.811093 0.811856 0.819638
0.797330 0.799252 0.808774
0.781552 0.784909 0.796323
0.762325 0.767422 0.781186
0.739559 0.746731 0.763119
0.713130 0.722530 0.741848
0.681880 0.693812 0.716304
0.647425 0.661860 0.687404
0.653498 0.674098 0.689540
0.699214 0.723293 0.718929
0.758877 0.778561 0.753902
0.822660 0.831174 0.790066
0.882780 0.877317 0.826413
0.893004 0.887724 0.885954
0.894285 0.888914 0.887053
0.895109 0.889738 0.887755
0.895628 0.890196 0.888182
0.896239 0.890745 0.888670
0.897246 0.891722 0.889525
0.899931 0.894224 0.891814
0.903288 0.897429 0.894652
0.907500 0.901396 0.898222
0.912200 0.905882 0.902251
0.917021 0.910491 0.906432
0.921202 0.914458 0.910063
0.924651 0.917754 0.913054
0.926879 0.919921 0.915038
0.927794 0.920806 0.915862
0.927092 0.920134 0.915221
0.925719 0.918791 0.914000
0.924132 0.917266 0.912596
0.919341 0.912718 0.908476
0.912505 0.906126 0.902495
0.904997 0.899046 0.896117
0.896025 0.890562 0.888518
0.884764 0.879973 0.879118
0.870695 0.866850 0.867491
0.852811 0.850187 0.852903
0.830594 0.829709 0.835080
0.804074 0.805417 0.814084
0.772793 0.776944 0.789425
0.803098 0.812375 0.808988
0.841611 0.850858 0.833036
0.886259 0.890532 0.861784
0.925353 0.922698 0.888426
0.950988 0.943389 0.936950
0.951019 0.943450 0.937011
0.950866 0.943267 0.936828
0.950469 0.942901 0.936492
0.950072 0.942504 0.936095
0.949584 0.942046 0.935668
0.949401 0.941833 0.935454
0.949340 0.941802 0.935424
0.949554 0.941985 0.935607
0.949981 0.942443 0.936034
0.950622 0.943053 0.936584
0.951202 0.943633 0.937194
0.951720 0.944152 0.937652
0.951934 0.944335 0.937865
