20 Preset/Retro Movie Style/【3】LUT video cho PR-AE-FCPX/Lut Tone (2).cube
# Created by Adobe Lightroom plugin Export LUT (1.24.0)
# www.johnrellis.com/lightroom/exportlut.htm
# Preset: 焦糖色调-素材江湖02
# Color profile: E:\lut插件\exportlut.1.24\exportlut.lrplugin\color profiles\Rec709gamma2.4.icc
LUT_3D_SIZE 8
DOMAIN_MIN 0.000000 0.000000 0.000000
DOMAIN_MAX 0.903226 0.903226 0.903226
0.123720 0.139620 0.129580
0.124178 0.139590 0.129580
0.140139 0.139956 0.129976
0.204562 0.137972 0.128908
0.330297 0.130282 0.123812
0.495583 0.099428 0.110201
0.716609 0.000000 0.031373
0.894377 0.122652 0.000000
0.123934 0.139834 0.129793
0.124269 0.140017 0.129763
0.137362 0.140719 0.129915
0.185000 0.141939 0.129000
0.294408 0.141543 0.124331
0.449165 0.126314 0.113008
0.660182 0.075380 0.062898
0.846586 0.120699 0.000000
0.118898 0.152285 0.129946
0.125307 0.152377 0.129549
0.142367 0.150790 0.128450
0.177493 0.155642 0.127169
0.277012 0.166567 0.121065
0.449439 0.172457 0.103792
0.692500 0.185672 0.000000
0.876463 0.238743 0.000000
0.021363 0.212528 0.125582
0.086061 0.212894 0.125948
0.165042 0.222782 0.116182
0.250309 0.221469 0.112184
0.365270 0.237247 0.090913
0.462226 0.240879 0.060151
0.668818 0.278538 0.000000
0.848142 0.330724 0.000000
0.000000 0.363775 0.093324
0.000000 0.366522 0.098817
0.000000 0.393256 0.004486
0.338842 0.424659 0.000000
0.471809 0.382727 0.000000
0.562249 0.357671 0.000000
0.611444 0.338994 0.000000
0.786831 0.398871 0.000000
0.000000 0.556329 0.000000
0.000000 0.576898 0.021637
0.000000 0.597009 0.000000
0.347509 0.635096 0.000000
0.568872 0.627955 0.000000
0.685573 0.577600 0.000000
0.775906 0.548547 0.000000
0.844022 0.541924 0.000000
0.000000 0.745418 0.162997
0.000000 0.750851 0.189395
0.000000 0.758572 0.220066
0.348882 0.781003 0.156893
0.608942 0.801328 0.000000
0.750942 0.782132 0.000000
0.845548 0.734859 0.000000
0.925963 0.701198 0.000000
0.000000 0.910674 0.390661
0.000000 0.910643 0.404425
0.258518 0.912902 0.458442
0.479713 0.925017 0.457160
0.628626 0.914702 0.356298
0.797787 0.921599 0.295445
0.917357 0.912627 0.138491
0.995453 0.868528 0.000000
0.123964 0.139590 0.130343
0.124117 0.139590 0.129824
0.136995 0.140078 0.130007
0.179416 0.142153 0.129122
0.285527 0.142916 0.124697
0.434638 0.130617 0.114199
0.633112 0.087098 0.079500
0.813809 0.094392 0.000000
0.123720 0.140261 0.131014
0.125063 0.140383 0.130709
0.136080 0.141543 0.129824
0.175265 0.144778 0.128847
0.274723 0.148531 0.124392
0.419684 0.141573 0.114137
0.605127 0.113832 0.085176
0.781704 0.110018 0.000000
0.120424 0.150423 0.133242
0.122713 0.151308 0.132326
0.140597 0.150271 0.131136
0.171969 0.154757 0.128298
0.257786 0.165927 0.122316
0.408087 0.174197 0.108644
0.603326 0.174746 0.050477
0.796597 0.201602 0.000000
0.060731 0.197452 0.132418
0.087312 0.198703 0.131228
0.152224 0.208682 0.124056
0.222171 0.202976 0.122347
0.300877 0.209049 0.111330
0.384375 0.215854 0.098634
0.569207 0.239689 0.001801
0.764309 0.280674 0.000000
0.000000 0.343877 0.108125
0.000000 0.344121 0.112978
0.000000 0.361425 0.093812
0.299931 0.382361 0.000000
0.413733 0.337926 0.000000
0.503075 0.319951 0.000000
0.560601 0.309911 0.000000
0.736141 0.362554 0.000000
0.000000 0.520439 0.015290
0.000000 0.525566 0.053010
0.000000 0.546777 0.057923
0.294255 0.590967 0.000000
0.533043 0.593347 0.000000
0.659480 0.553216 0.000000
0.749386 0.524498 0.000000
0.813046 0.514366 0.000000
0.000000 0.712551 0.127016
0.000000 0.710384 0.142336
0.000000 0.717189 0.193179
0.282963 0.744869 0.127016
0.578973 0.777768 0.000000
0.724849 0.758633 0.000000
0.815244 0.706081 0.000000
0.891814 0.669276 0.000000
0.000000 0.890654 0.346014
0.000000 0.894194 0.367926
0.096834 0.896269 0.426795
0.440558 0.910155 0.434485
0.642329 0.924163 0.410681
0.800015 0.924651 0.334264
0.912474 0.909941 0.176394
0.990417 0.865446 0.000000
0.123537 0.141726 0.142672
0.127077 0.141909 0.140780
0.132662 0.142397 0.136202
0.184482 0.137728 0.135103
0.306310 0.145205 0.126955
0.452308 0.153109 0.108492
0.654994 0.151095 0.031830
0.837125 0.180575 0.000000
0.122866 0.143923 0.145052
0.127413 0.144015 0.142977
0.134066 0.144381 0.137758
0.186831 0.141878 0.136385
0.292729 0.150118 0.128328
0.438300 0.159548 0.109621
0.626825 0.159823 0.046571
0.810880 0.182803 0.000000
0.119997 0.156039 0.149203
0.124117 0.156100 0.148898
0.142916 0.156802 0.147433
0.194736 0.160342 0.141207
0.292180 0.169680 0.130190
0.442054 0.183841 0.107424
0.618402 0.202853 0.012909
0.803677 0.237430 0.000000
0.103365 0.190402 0.159548
0.103426 0.196017 0.161013
0.122133 0.218387 0.156191
0.241794 0.220645 0.150027
0.307439 0.213260 0.133242
0.433478 0.227085 0.106020
0.603388 0.258274 0.000000
0.786984 0.309911 0.000000
0.000000 0.326268 0.183627
0.000000 0.333135 0.179751
0.000000 0.357122 0.166506
0.291783 0.403357 0.114351
0.437476 0.362219 0.126284
0.505913 0.323583 0.056062
0.557519 0.306004 0.000000
0.749355 0.377295 0.000000
0.000000 0.501701 0.184726
0.000000 0.508843 0.179843
0.000000 0.528862 0.176242
0.237125 0.570153 0.145296
0.515435 0.586053 0.000000
0.647730 0.549035 0.000000
0.736385 0.516564 0.000000
0.808957 0.508873 0.000000
0.000000 0.709743 0.225772
0.000000 0.709194 0.218051
0.000000 0.713680 0.243931
0.244602 0.735958 0.264042
0.555230 0.771878 0.177462
0.721126 0.762448 0.085084
0.822141 0.719814 0.000000
0.905455 0.685512 0.000000
0.000000 0.888060 0.356023
0.000000 0.887114 0.356664
0.000000 0.889036 0.414405
0.412604 0.904631 0.486458
0.623255 0.920470 0.474189
0.796902 0.928344 0.430304
0.910765 0.915007 0.335821
0.991180 0.872313 0.033570
0.115938 0.147738 0.193759
0.125002 0.148348 0.191379
0.148165 0.150149 0.172915
0.159457 0.150484 0.156191
0.236179 0.142031 0.160586
0.508873 0.086183 0.149996
0.666468 0.114321 0.104799
0.811429 0.193179 0.000000
0.111299 0.152895 0.205631
0.123690 0.153750 0.201083
0.151705 0.154910 0.180789
0.165225 0.154269 0.160983
0.252232 0.144442 0.165164
0.522759 0.115663 0.154665
0.660578 0.131930 0.107088
0.806485 0.201816 0.000000
0.090974 0.176669 0.221836
0.104494 0.175875 0.221225
0.154452 0.174380 0.204501
0.182132 0.172213 0.177554
0.313695 0.162387 0.181186
0.531456 0.181430 0.168917
0.692226 0.204746 0.114046
0.833433 0.260105 0.000000
0.000000 0.237003 0.244022
0.012512 0.236332 0.242527
0.139742 0.238407 0.241215
0.244663 0.248997 0.240604
0.363836 0.247013 0.215610
0.493629 0.248814 0.180026
0.645899 0.263981 0.121614
0.805264 0.312352 0.000000
0.000000 0.312230 0.259617
0.000000 0.311223 0.258213
0.117678 0.320195 0.261143
0.228550 0.395850 0.278630
0.456764 0.399237 0.272129
0.495430 0.336492 0.198611
0.625025 0.344182 0.129915
0.791989 0.394781 0.000000
0.000000 0.468910 0.306645
0.000000 0.487953 0.315984
0.000000 0.515129 0.316289
0.132174 0.569207 0.319371
0.520256 0.621027 0.295109
0.653407 0.574975 0.289921
0.722011 0.520378 0.154604
0.798367 0.503990 0.000000
0.000000 0.679072 0.363195
0.000000 0.685451 0.364416
0.000000 0.706630 0.362493
0.000000 0.734951 0.388464
0.525322 0.775967 0.404639
0.721920 0.781582 0.365148
0.821378 0.736904 0.318181
0.906279 0.696590 0.000000
0.000000 0.889403 0.471473
0.000000 0.890013 0.471778
0.000000 0.894255 0.475441
0.250065 0.902861 0.527977
0.589715 0.917082 0.574670
0.787015 0.933959 0.558526
0.901915 0.921233 0.495369
0.988495 0.884367 0.391363
0.051026 0.169436 0.312596
0.098909 0.170932 0.310246
0.164462 0.172885 0.284947
0.212497 0.179477 0.244266
0.228367 0.171023 0.208499
0.282872 0.157351 0.197055
0.611170 0.000000 0.203311
0.862303 0.185183 0.190555
0.040742 0.181033 0.327001
0.099001 0.182681 0.325017
0.169314 0.183383 0.298680
0.221134 0.188296 0.255100
0.234928 0.176883 0.214481
0.294072 0.161257 0.202609
0.622736 0.000000 0.206546
0.859251 0.201511 0.192081
0.000000 0.221836 0.371405
0.012238 0.221744 0.367102
0.176211 0.221866 0.340215
0.242313 0.217929 0.285679
0.253269 0.200198 0.232944
0.331029 0.179477 0.220798
0.650721 0.138338 0.231815
0.835294 0.241459 0.190921
0.000000 0.290684 0.391730
0.000000 0.290440 0.390723
0.134707 0.292668 0.391363
0.278416 0.291112 0.357794
0.310704 0.268040 0.288853
0.453193 0.246494 0.280552
0.701259 0.311925 0.287144
0.830198 0.321630 0.196750
0.000000 0.374792 0.394537
0.000000 0.376318 0.395209
0.000000 0.379339 0.394629
0.259556 0.388647 0.396857
0.404547 0.399298 0.388647
0.537163 0.388739 0.348028
0.662318 0.381598 0.283207
0.807797 0.399390 0.189700
0.000000 0.428779 0.371527
0.000000 0.429908 0.371740
0.000000 0.427863 0.366766
0.208408 0.433570 0.365911
0.364904 0.528985 0.404883
0.603632 0.557336 0.427771
0.656001 0.485786 0.303441
0.794430 0.501335 0.198367
0.000000 0.582940 0.425635
0.000000 0.584680 0.424628
0.000000 0.601526 0.428016
0.000000 0.652918 0.450294
0.373602 0.720211 0.487526
0.674952 0.771572 0.500908
0.786831 0.727932 0.471473
0.861601 0.668788 0.272313
0.000000 0.821073 0.527489
0.000000 0.822812 0.526787
0.000000 0.832700 0.526635
0.000000 0.867399 0.548272
0.419135 0.890745 0.597528
0.717494 0.917449 0.643885
0.871397 0.916503 0.610651
0.961730 0.879820 0.534264
0.000000 0.247776 0.525322
0.061097 0.250584 0.524620
0.206332 0.249119 0.495125
0.298894 0.249790 0.443671
0.331121 0.247745 0.354925
0.323308 0.207065 0.283635
0.308659 0.173678 0.225315
0.718379 0.000000 0.314397
0.000000 0.246891 0.504234
0.047883 0.246647 0.497993
0.195041 0.245304 0.471778
0.282872 0.244327 0.422004
0.319371 0.243900 0.343328
0.317021 0.208164 0.279454
0.309514 0.175631 0.225834
0.708461 0.019989 0.307927
0.000000 0.302312 0.555535
0.022797 0.300908 0.548638
0.220249 0.301854 0.523369
0.305577 0.285557 0.458289
0.347723 0.276921 0.375677
0.342687 0.236057 0.303471
0.353277 0.194156 0.251286
0.747005 0.149508 0.327520
0.000000 0.390600 0.604822
0.000000 0.387945 0.599908
0.206119 0.384436 0.579339
0.356146 0.389776 0.547417
0.424109 0.370214 0.467262
0.413642 0.312444 0.371069
0.470039 0.253849 0.321630
0.832578 0.298131 0.382788
0.000000 0.457252 0.574914
0.000000 0.457374 0.574151
0.102296 0.459907 0.573968
0.313451 0.469947 0.579004
0.451270 0.460945 0.535424
0.465919 0.405158 0.433143
0.606928 0.368566 0.410040
0.863920 0.501732 0.462684
0.000000 0.533776 0.559808
0.000000 0.539544 0.565148
0.000000 0.540185 0.563165
0.249180 0.543877 0.561944
0.415412 0.553368 0.563714
0.566674 0.577234 0.567285
0.707393 0.574914 0.527550
0.845304 0.567102 0.439216
0.000000 0.635279 0.579797
0.000000 0.638605 0.582635
0.000000 0.637415 0.578271
0.104463 0.635401 0.570001
0.355749 0.632746 0.557733
0.562524 0.737087 0.627405
0.767086 0.748653 0.639124
0.828367 0.664179 0.449989
0.000000 0.754116 0.608148
0.000000 0.750088 0.602441
0.000000 0.752682 0.597894
0.000000 0.784482 0.612848
0.000000 0.831174 0.632288
0.564202 0.885527 0.689296
0.838102 0.919371 0.738247
0.935882 0.884672 0.682429
0.169558 0.337804 0.668910
0.199344 0.339269 0.666835
0.275639 0.338109 0.649378
0.364446 0.336767 0.615106
0.429419 0.329534 0.550774
0.439277 0.316045 0.450690
0.419806 0.242588 0.361089
0.398444 0.190921 0.283940
0.170077 0.343389 0.665400
0.199374 0.345068 0.663844
0.274022 0.343542 0.647028
0.359808 0.339086 0.610529
0.425147 0.330877 0.546899
0.434333 0.316411 0.446052
0.414557 0.243534 0.357275
0.389502 0.191165 0.278843
0.172702 0.384649 0.689601
0.209049 0.387121 0.686061
0.291844 0.387671 0.668635
0.375860 0.379644 0.632959
0.441627 0.365759 0.569574
0.455390 0.347509 0.470100
0.438025 0.269810 0.379889
0.410986 0.205051 0.293523
0.164645 0.463172 0.729671
0.194797 0.460273 0.724086
0.288396 0.457771 0.708919
0.399115 0.458167 0.678798
0.473030 0.438544 0.620111
0.500084 0.411688 0.525505
0.481270 0.325628 0.424445
0.443244 0.231449 0.316045
0.000000 0.544030 0.744350
0.049866 0.542748 0.742794
0.237064 0.543236 0.741329
0.373480 0.541802 0.729976
0.490852 0.531060 0.682795
0.541924 0.495216 0.593011
0.526696 0.406470 0.479438
0.582940 0.314672 0.408057
0.000000 0.624475 0.740505
0.000000 0.625116 0.740749
0.147158 0.626886 0.741207
0.325200 0.631006 0.742947
0.470405 0.638911 0.747494
0.595056 0.628901 0.708125
0.601495 0.550103 0.584649
0.759518 0.514916 0.563073
0.000000 0.709682 0.746426
0.000000 0.710780 0.747280
0.000000 0.711147 0.746181
0.239506 0.713008 0.745113
0.412268 0.716243 0.743404
0.565026 0.726711 0.746334
0.705715 0.740291 0.741238
0.848508 0.727169 0.685420
0.000000 0.821469 0.783322
0.000000 0.821530 0.782895
0.000000 0.820035 0.779446
0.000000 0.815122 0.769650
0.244297 0.811398 0.756710
0.452888 0.803098 0.732418
0.718105 0.892332 0.804501
0.911406 0.897917 0.819425
0.402747 0.516899 0.842252
0.413001 0.517815 0.840940
0.445441 0.514580 0.830259
0.501152 0.512871 0.811521
0.560113 0.506859 0.776394
0.602350 0.493690 0.715694
0.608179 0.457069 0.625940
0.600275 0.333410 0.523186
0.399420 0.519463 0.840177
0.409766 0.520470 0.839048
0.443702 0.518334 0.829465
0.498543 0.515282 0.810117
0.557702 0.508568 0.775021
0.600366 0.494728 0.714443
0.604974 0.456886 0.622766
0.595422 0.332830 0.518822
0.399207 0.545678 0.848936
0.414221 0.548913 0.847074
0.446693 0.545403 0.837461
0.504814 0.544579 0.821866
0.562829 0.534234 0.786831
0.605859 0.516320 0.726345
0.611658 0.479988 0.634150
0.603265 0.353216 0.529747
0.376196 0.585748 0.867308
0.389654 0.586969 0.866178
0.435370 0.588434 0.858518
0.508354 0.593378 0.842527
0.571191 0.582177 0.811765
0.620691 0.562463 0.756649
0.630091 0.529564 0.663722
0.623804 0.398810 0.557824
0.328618 0.648768 0.892576
0.344030 0.649256 0.891875
0.392859 0.646448 0.885832
0.479805 0.647089 0.873411
0.572564 0.646326 0.847318
0.634089 0.623499 0.798306
0.656458 0.588983 0.709499
0.650050 0.464271 0.597467
0.274144 0.722652 0.897581
0.287388 0.721736 0.896910
0.342138 0.719997 0.895567
0.432044 0.720119 0.895537
0.540581 0.720638 0.892943
0.651728 0.716335 0.862211
0.704250 0.683711 0.791836
0.695674 0.569085 0.668544
0.212894 0.808408 0.910399
0.232883 0.808225 0.910155
0.301183 0.807767 0.909514
0.400763 0.808408 0.909422
0.512871 0.809018 0.908751
0.638483 0.813230 0.909697
0.750423 0.802274 0.882048
0.745937 0.699763 0.755367
0.000000 0.888304 0.922728
0.000000 0.887999 0.922332
0.202426 0.887785 0.921599
0.335912 0.888609 0.921141
0.462318 0.889189 0.919585
0.591089 0.889647 0.916503
0.732113 0.892638 0.913329
0.867033 0.899107 0.905455
