20 Preset/Retro Movie Style/【3】LUT video cho PR-AE-FCPX/Lut Tone (4).cube
# Created by Adobe Lightroom plugin Export LUT (1.24.0)
# www.johnrellis.com/lightroom/exportlut.htm
# Preset: 焦糖色调-素材江湖04
# Color profile: E:\lut插件\exportlut.1.24\exportlut.lrplugin\color profiles\Rec709gamma2.4.icc
LUT_3D_SIZE 8
DOMAIN_MIN 0.000000 0.000000 0.000000
DOMAIN_MAX 0.903226 0.903226 0.903226
0.137057 0.153201 0.141238
0.140566 0.153658 0.141115
0.188357 0.159030 0.139773
0.282139 0.168246 0.136202
0.440925 0.177737 0.126253
0.701625 0.207218 0.087312
0.876768 0.285252 0.000000
0.983032 0.365728 0.000000
0.135714 0.155886 0.141756
0.142214 0.157046 0.141238
0.173159 0.161593 0.140688
0.250309 0.170932 0.138003
0.385626 0.183413 0.131563
0.618341 0.204746 0.108431
0.813718 0.263218 0.000000
0.946929 0.345617 0.000000
0.114015 0.182956 0.147829
0.126711 0.183078 0.141482
0.212497 0.207950 0.141451
0.254673 0.197238 0.142885
0.336584 0.204929 0.140078
0.571008 0.241062 0.120943
0.814664 0.315801 0.000000
0.954284 0.396277 0.000000
0.000000 0.228794 0.159854
0.041718 0.228916 0.153353
0.164797 0.215732 0.146517
0.474830 0.401984 0.126497
0.628138 0.397559 0.122072
0.467262 0.269688 0.139651
0.727474 0.344640 0.087678
0.904662 0.427070 0.000000
0.000000 0.286473 0.174136
0.000000 0.287205 0.168093
0.000000 0.281498 0.145998
0.235904 0.283452 0.149508
0.742702 0.628809 0.155367
0.845060 0.604181 0.193606
0.766049 0.458228 0.091676
0.793973 0.425422 0.000000
0.000000 0.352422 0.186282
0.000000 0.359869 0.181155
0.000000 0.361395 0.148318
0.137881 0.314916 0.138613
0.420356 0.460456 0.110719
0.880491 0.776516 0.401160
0.961608 0.783169 0.486000
0.955047 0.676356 0.291356
0.000000 0.445716 0.196658
0.000000 0.448157 0.189120
0.000000 0.444800 0.150790
0.000000 0.409064 0.092256
0.201602 0.326879 0.123018
0.673304 0.672419 0.082033
0.953063 0.870298 0.595422
1.000000 0.882353 0.666651
0.000000 0.642481 0.225620
0.000000 0.640986 0.211673
0.000000 0.638758 0.135439
0.000000 0.629603 0.000000
0.000000 0.508843 0.000000
0.338750 0.467597 0.000000
0.867643 0.843687 0.394141
1.000000 0.946075 0.740688
0.137057 0.153323 0.143709
0.140352 0.153628 0.143374
0.188693 0.155978 0.143435
0.267399 0.166232 0.143282
0.411261 0.177707 0.139132
0.628565 0.194034 0.121553
0.807126 0.246464 0.062440
0.934173 0.324376 0.000000
0.135531 0.155795 0.145327
0.140658 0.157290 0.145022
0.178622 0.162448 0.145113
0.253758 0.172000 0.144686
0.386419 0.185000 0.141176
0.593500 0.201968 0.126101
0.771267 0.243259 0.087556
0.907256 0.314488 0.000000
0.112734 0.183536 0.159274
0.123293 0.185061 0.153353
0.199283 0.201297 0.153353
0.234440 0.192447 0.150881
0.332067 0.205234 0.147829
0.527977 0.230961 0.135988
0.741268 0.276890 0.098848
0.903563 0.353613 0.000000
0.005188 0.224979 0.169253
0.052155 0.225711 0.163882
0.158633 0.219303 0.151949
0.386084 0.338537 0.157259
0.493660 0.321660 0.153658
0.409522 0.248692 0.148836
0.640162 0.300145 0.122225
0.845762 0.379339 0.001282
0.000000 0.285801 0.184237
0.000000 0.285771 0.178195
0.000000 0.283574 0.151431
0.221622 0.266911 0.154543
0.681086 0.574182 0.153170
0.795499 0.557519 0.175937
0.707698 0.415778 0.117556
0.752560 0.395209 0.064912
0.000000 0.345647 0.194430
0.000000 0.346807 0.188785
0.000000 0.350896 0.162081
0.127199 0.315435 0.143587
0.385473 0.428168 0.132052
0.863462 0.758968 0.384283
0.948730 0.766445 0.465980
0.936919 0.653773 0.267338
0.000000 0.429694 0.203891
0.000000 0.426673 0.196811
0.000000 0.424170 0.165316
0.000000 0.398871 0.107637
0.197024 0.325780 0.127779
0.643702 0.646479 0.071748
0.939910 0.853941 0.566735
1.000000 0.866178 0.638087
0.000000 0.608606 0.229526
0.000000 0.613458 0.219638
0.000000 0.609949 0.159091
0.000000 0.602808 0.000000
0.000000 0.544671 0.000000
0.328893 0.460365 0.000000
0.861662 0.838621 0.388708
1.000000 0.944182 0.739803
0.132113 0.155001 0.172610
0.141970 0.155306 0.171572
0.177005 0.154910 0.166934
0.298039 0.155673 0.172366
0.524956 0.169162 0.181094
0.736751 0.208316 0.174350
0.873777 0.282597 0.158297
0.975006 0.362432 0.140871
0.128481 0.162020 0.177707
0.139559 0.162234 0.176547
0.179141 0.163272 0.170809
0.300053 0.169589 0.176638
0.487007 0.187991 0.181369
0.695705 0.216464 0.173922
0.843992 0.276616 0.154604
0.955261 0.353552 0.133669
0.116823 0.182742 0.188205
0.129091 0.185519 0.188174
0.183200 0.198825 0.186679
0.270848 0.211429 0.186954
0.433326 0.231449 0.186374
0.639033 0.258366 0.176394
0.809812 0.309758 0.157290
0.935729 0.379980 0.138186
0.000000 0.233188 0.216068
0.000000 0.242008 0.217350
0.123415 0.252750 0.197116
0.363409 0.332433 0.214481
0.430915 0.298711 0.198276
0.510216 0.286473 0.177829
0.728634 0.342382 0.159945
0.891539 0.414191 0.140627
0.000000 0.308415 0.235904
0.000000 0.309514 0.230625
0.000000 0.315862 0.206363
0.215335 0.291356 0.176547
0.669032 0.574762 0.266087
0.764889 0.543359 0.260960
0.656214 0.385168 0.165011
0.798062 0.424842 0.128695
0.000000 0.369116 0.240635
0.000000 0.371221 0.236027
0.000000 0.375250 0.211490
0.000000 0.362005 0.160433
0.336858 0.387152 0.166232
0.841489 0.745968 0.435767
0.928283 0.755978 0.500237
0.919677 0.641688 0.300237
0.000000 0.460182 0.252415
0.000000 0.457679 0.245029
0.000000 0.452949 0.214450
0.000000 0.445747 0.133364
0.176333 0.365270 0.131624
0.611780 0.623987 0.144503
0.935546 0.857664 0.611444
0.999756 0.872496 0.676051
0.000000 0.626612 0.288853
0.000000 0.622522 0.277775
0.000000 0.618891 0.232181
0.000000 0.625849 0.004974
0.000000 0.576287 0.000000
0.310307 0.472267 0.000000
0.853544 0.835080 0.407019
1.000000 0.946746 0.760372
0.115419 0.160281 0.233829
0.131380 0.161593 0.235050
0.184054 0.167636 0.227695
0.238987 0.163363 0.209689
0.371496 0.144472 0.209323
0.833585 0.202029 0.301793
0.919066 0.325750 0.297948
0.990509 0.402533 0.292607
0.111025 0.171237 0.246281
0.131136 0.173159 0.245029
0.187930 0.177768 0.236149
0.246250 0.171939 0.216739
0.397192 0.151553 0.218540
0.831083 0.255863 0.315648
0.908324 0.333379 0.296300
0.984009 0.406195 0.290806
0.088045 0.202029 0.260807
0.110323 0.204776 0.260624
0.180484 0.209934 0.254795
0.260746 0.206516 0.234867
0.492317 0.208896 0.257267
0.790005 0.332006 0.320409
0.899626 0.404425 0.322759
0.980072 0.455024 0.313237
0.000000 0.244846 0.280095
0.000000 0.247471 0.280156
0.134585 0.261723 0.282597
0.293858 0.300999 0.286137
0.474464 0.328618 0.286809
0.656916 0.359472 0.283635
0.813809 0.408087 0.281621
0.933043 0.466499 0.285161
0.000000 0.320470 0.318029
0.000000 0.323552 0.318303
0.000000 0.346471 0.324712
0.118196 0.392065 0.291905
0.610712 0.544884 0.372564
0.670466 0.483284 0.322789
0.684382 0.406500 0.238285
0.865843 0.483772 0.249271
0.000000 0.432837 0.357214
0.000000 0.442481 0.359136
0.000000 0.444800 0.334905
0.000000 0.455421 0.279210
0.301762 0.393622 0.211582
0.815763 0.738186 0.524315
0.894194 0.737697 0.545525
0.879698 0.602991 0.319310
0.000000 0.510796 0.354559
0.000000 0.512474 0.349920
0.000000 0.514427 0.324620
0.000000 0.517571 0.261997
0.000000 0.475898 0.151095
0.536584 0.572045 0.193057
0.924315 0.858152 0.665003
0.986877 0.870573 0.708888
0.000000 0.678920 0.410529
0.000000 0.677638 0.402136
0.000000 0.674098 0.365209
0.000000 0.670283 0.273625
0.000000 0.647242 0.000000
0.265782 0.543603 0.000000
0.828458 0.820249 0.410895
1.000000 0.950835 0.792538
0.000000 0.175784 0.351049
0.049287 0.177401 0.352728
0.179080 0.181552 0.343084
0.281437 0.189120 0.325872
0.337377 0.166415 0.275944
0.381323 0.132540 0.225772
0.887022 0.152895 0.365118
1.000000 0.557855 0.538872
0.000000 0.187655 0.365515
0.005249 0.189670 0.367498
0.179873 0.192844 0.356817
0.287816 0.198947 0.335454
0.346075 0.173617 0.282841
0.400916 0.134737 0.233677
0.892271 0.213504 0.377813
1.000000 0.559686 0.536553
0.000000 0.232822 0.392706
0.000000 0.231754 0.391180
0.155856 0.231296 0.382696
0.298711 0.236973 0.361975
0.368444 0.206668 0.303593
0.472877 0.158511 0.264103
0.898833 0.369787 0.427314
0.984100 0.551720 0.512230
0.000000 0.285527 0.416052
0.000000 0.288029 0.415869
0.000000 0.302373 0.418708
0.293980 0.322545 0.412207
0.429053 0.301091 0.360693
0.651301 0.308171 0.365637
0.881468 0.543053 0.511528
0.959045 0.566796 0.493446
0.000000 0.344091 0.418708
0.000000 0.347692 0.420172
0.000000 0.361364 0.422736
0.202304 0.394507 0.427527
0.470314 0.454780 0.429938
0.652338 0.487800 0.429541
0.793820 0.518700 0.427192
0.910063 0.558038 0.429450
0.000000 0.398718 0.411536
0.000000 0.402533 0.413245
0.000000 0.413367 0.414191
0.000000 0.444587 0.422705
0.212009 0.504692 0.382422
0.733333 0.672145 0.532097
0.804135 0.643885 0.497841
0.821195 0.536553 0.328252
0.000000 0.532921 0.481605
0.000000 0.535149 0.478553
0.000000 0.552667 0.472297
0.000000 0.563500 0.434028
0.000000 0.572564 0.343389
0.374884 0.473426 0.224735
0.893553 0.836027 0.683253
0.954314 0.837339 0.695644
0.000000 0.680690 0.528069
0.000000 0.679286 0.521630
0.000000 0.676051 0.495705
0.000000 0.688655 0.449836
0.000000 0.684382 0.319677
0.000000 0.628260 0.000000
0.739254 0.757229 0.320012
0.989990 0.943969 0.807095
0.000000 0.203403 0.535058
0.000000 0.204532 0.535424
0.123445 0.206882 0.524926
0.325780 0.212772 0.518303
0.473335 0.221530 0.487404
0.471717 0.147066 0.364111
0.334630 0.129000 0.214633
0.939605 0.087068 0.431739
0.000000 0.211887 0.523339
0.000000 0.212284 0.520745
0.115846 0.214847 0.513817
0.309087 0.218601 0.498665
0.452979 0.226474 0.470283
0.463020 0.157748 0.359289
0.344488 0.130770 0.219150
0.933532 0.137972 0.430579
0.000000 0.266209 0.566552
0.000000 0.264347 0.564019
0.000000 0.267460 0.555871
0.315801 0.266423 0.525811
0.471015 0.274327 0.493629
0.498390 0.193118 0.387640
0.416327 0.127810 0.249027
0.950134 0.329686 0.478218
0.000000 0.356970 0.598383
0.000000 0.358984 0.596094
0.000000 0.368444 0.593103
0.333135 0.382116 0.586725
0.524102 0.392737 0.558679
0.582483 0.297826 0.460243
0.611383 0.155673 0.337102
0.965850 0.572839 0.599786
0.000000 0.403326 0.582818
0.000000 0.405829 0.582727
0.000000 0.419074 0.583459
0.217624 0.454108 0.587579
0.495277 0.493782 0.578302
0.613642 0.449928 0.511467
0.786191 0.454292 0.496437
0.953124 0.716121 0.689723
0.000000 0.459022 0.562951
0.000000 0.465583 0.567926
0.000000 0.475410 0.568139
0.000000 0.498512 0.569818
0.368597 0.540246 0.572107
0.648707 0.619318 0.589227
0.796658 0.659510 0.602716
0.905089 0.684565 0.602716
0.000000 0.542840 0.577874
0.000000 0.547967 0.581170
0.000000 0.557580 0.582483
0.000000 0.578149 0.584985
0.000000 0.613703 0.588159
0.386969 0.663661 0.522484
0.855711 0.811490 0.710933
0.905303 0.780484 0.663783
0.000000 0.665217 0.650629
0.000000 0.663722 0.647364
0.000000 0.671046 0.642329
0.000000 0.710750 0.638025
0.000000 0.728725 0.579553
0.000000 0.722011 0.419989
0.483467 0.603510 0.164157
0.975372 0.937713 0.831144
0.000000 0.239292 0.671901
0.000000 0.241367 0.673548
0.000000 0.243839 0.667201
0.329503 0.249363 0.657710
0.500114 0.257664 0.637232
0.629908 0.273045 0.602808
0.594690 0.053986 0.447242
0.396948 0.089479 0.245518
0.000000 0.245701 0.662257
0.000000 0.248142 0.664698
0.000000 0.250340 0.658869
0.315618 0.253758 0.646387
0.485389 0.260044 0.624933
0.613855 0.274235 0.589105
0.576776 0.101350 0.435279
0.385168 0.101869 0.240940
0.000000 0.290166 0.682185
0.000000 0.289708 0.681117
0.000000 0.298161 0.673152
0.319005 0.302342 0.659846
0.491035 0.308324 0.636316
0.624537 0.325689 0.603784
0.611444 0.145144 0.463478
0.407782 0.094942 0.249363
0.000000 0.387091 0.709163
0.000000 0.384894 0.705592
0.000000 0.383825 0.697841
0.325383 0.398749 0.687098
0.508629 0.405615 0.665309
0.647150 0.423316 0.636896
0.668391 0.242893 0.515923
0.436835 0.092866 0.258488
0.000000 0.448188 0.708186
0.000000 0.448615 0.705562
0.000000 0.459937 0.703120
0.231968 0.492317 0.703761
0.494972 0.508324 0.685328
0.643885 0.515343 0.656092
0.698909 0.380194 0.559686
0.697566 0.035035 0.378607
0.000000 0.503227 0.704250
0.000000 0.505852 0.705013
0.000000 0.516258 0.706722
0.000000 0.540307 0.709865
0.415930 0.585595 0.711482
0.655665 0.641382 0.708339
0.744259 0.590814 0.643183
0.888548 0.594568 0.625849
0.000000 0.573144 0.704005
0.000000 0.576349 0.705745
0.000000 0.583307 0.705653
0.000000 0.600183 0.706600
0.126619 0.628565 0.705837
0.550439 0.676783 0.707301
0.771389 0.746273 0.722255
0.891081 0.776242 0.729976
0.000000 0.653468 0.718593
0.000000 0.655116 0.718868
0.000000 0.666224 0.723751
0.000000 0.682490 0.726680
0.000000 0.705867 0.726528
0.000000 0.740078 0.722713
0.483223 0.778561 0.624964
0.950256 0.922667 0.850889
0.000000 0.306310 0.789883
0.000000 0.308751 0.790341
0.169833 0.310918 0.784085
0.376440 0.322057 0.777951
0.535149 0.340063 0.765805
0.666468 0.368139 0.746151
0.760189 0.355840 0.710658
0.754391 0.000000 0.568414
0.000000 0.310643 0.784268
0.000000 0.313237 0.784939
0.155673 0.316777 0.780453
0.367559 0.326116 0.773281
0.527703 0.342626 0.761074
0.659907 0.368750 0.741360
0.753079 0.356268 0.704524
0.743832 0.000000 0.560113
0.000000 0.340429 0.788205
0.000000 0.347143 0.787533
0.135866 0.354742 0.782071
0.371801 0.370031 0.779385
0.528038 0.382971 0.765133
0.657130 0.402655 0.743374
0.754330 0.403296 0.710536
0.753017 0.000000 0.570275
0.000000 0.404578 0.797330
0.000000 0.407294 0.797452
0.000000 0.413733 0.793576
0.363104 0.440284 0.787259
0.527398 0.454047 0.775296
0.660090 0.472114 0.756191
0.764828 0.497292 0.730800
0.780117 0.145541 0.599725
0.000000 0.484718 0.808988
0.000000 0.489265 0.809995
0.000000 0.491127 0.806516
0.241337 0.503685 0.800595
0.507866 0.534569 0.787320
0.650690 0.546014 0.768856
0.763302 0.566888 0.746120
0.806332 0.302007 0.636469
0.000000 0.528161 0.812650
0.000000 0.528496 0.811185
0.000000 0.534173 0.808072
0.000000 0.555230 0.806821
0.402136 0.603418 0.808316
0.645075 0.645258 0.799680
0.775265 0.666529 0.785580
0.838254 0.508904 0.700618
0.000000 0.595941 0.824460
0.000000 0.596796 0.824033
0.000000 0.601648 0.822904
0.000000 0.617273 0.823850
0.000000 0.649134 0.825956
0.565911 0.707424 0.829252
0.773404 0.764462 0.829770
0.845121 0.695033 0.758572
0.000000 0.685420 0.844388
0.000000 0.685847 0.843748
0.000000 0.690211 0.843076
0.000000 0.702388 0.843839
0.000000 0.722347 0.842802
0.348180 0.753353 0.839170
0.671107 0.797879 0.836393
0.874449 0.861173 0.847501
