20 Preset/Retro Movie Style/【3】LUT video cho PR-AE-FCPX/Lut Tone (4).cube
# Created by Adobe Lightroom plugin Export LUT (1.24.0)
# www.johnrellis.com/lightroom/exportlut.htm
# Preset: 焦糖色调-素材江湖04
# Color profile: E:\lut插件\exportlut.1.24\exportlut.lrplugin\color profiles\Rec709gamma2.4.icc
LUT_3D_SIZE 5
DOMAIN_MIN 0.000000 0.000000 0.000000
DOMAIN_MAX 0.903226 0.903226 0.903226
0.137057 0.153201 0.141238
0.171450 0.157259 0.140291
0.353246 0.173220 0.132357
0.760739 0.226169 0.044068
0.983032 0.365728 0.000000
0.121889 0.174411 0.145815
0.189700 0.190860 0.140261
0.282078 0.189944 0.139925
0.673213 0.250675 0.100740
0.969512 0.395575 0.000000
0.000000 0.255619 0.166934
0.088197 0.251987 0.146670
0.645716 0.540612 0.100771
0.661433 0.385504 0.116640
0.851713 0.426184 0.000000
0.000000 0.381231 0.190677
0.000000 0.383307 0.162356
0.197940 0.302678 0.138216
0.902373 0.804257 0.460548
0.976532 0.738613 0.401587
0.000000 0.642481 0.225620
0.000000 0.639155 0.166018
0.000000 0.543267 0.000000
0.535027 0.626886 0.000000
1.000000 0.946075 0.740688
0.134218 0.154269 0.160586
0.163638 0.154177 0.157961
0.387915 0.171450 0.167208
0.729122 0.212131 0.149294
0.952148 0.338964 0.095186
0.123201 0.173190 0.173831
0.168399 0.184573 0.172549
0.325475 0.205051 0.171695
0.667872 0.246586 0.154147
0.932738 0.362615 0.102327
0.000000 0.265965 0.210117
0.000000 0.270298 0.189425
0.518944 0.445258 0.202518
0.525017 0.315496 0.166842
0.854612 0.426459 0.114717
0.000000 0.401312 0.234928
0.000000 0.405432 0.210269
0.183169 0.343328 0.148135
0.884398 0.793362 0.497017
0.959442 0.725490 0.418433
0.000000 0.650507 0.282475
0.000000 0.645624 0.236942
0.000000 0.617975 0.000000
0.511009 0.617182 0.000000
1.000000 0.952453 0.769253
0.091890 0.166995 0.284794
0.165652 0.171939 0.279149
0.281315 0.166506 0.238621
0.778805 0.000000 0.298253
1.000000 0.465248 0.405127
0.000549 0.207279 0.315404
0.155367 0.206638 0.306004
0.306828 0.196414 0.261723
0.813046 0.246830 0.341741
0.988861 0.487282 0.406958
0.000000 0.289158 0.344060
0.000000 0.299992 0.345006
0.374548 0.371618 0.352483
0.691920 0.428016 0.351232
0.922728 0.513237 0.359838
0.000000 0.454902 0.413672
0.000000 0.473610 0.408301
0.000000 0.500328 0.320867
0.823270 0.754574 0.575830
0.881559 0.639734 0.398596
0.000000 0.666468 0.456550
0.000000 0.668482 0.433783
0.000000 0.665797 0.288396
0.307256 0.529137 0.000000
0.994293 0.944182 0.792233
0.000000 0.207187 0.555566
0.000000 0.210727 0.554223
0.393835 0.217563 0.527672
0.489082 0.140627 0.375433
0.836271 0.000000 0.376257
0.000000 0.245914 0.573571
0.000000 0.250004 0.566369
0.391211 0.256229 0.533318
0.502861 0.172824 0.388312
0.859922 0.000000 0.398047
0.000000 0.369543 0.595392
0.000000 0.378851 0.592706
0.374029 0.406409 0.577234
0.577630 0.326360 0.461646
0.932677 0.527184 0.567895
0.000000 0.496376 0.607599
0.000000 0.500755 0.603937
0.000000 0.542351 0.606928
0.681605 0.651789 0.622278
0.896422 0.699580 0.625910
0.000000 0.666560 0.669123
0.000000 0.671717 0.668177
0.000000 0.718502 0.665431
0.000000 0.742977 0.467597
0.970642 0.935393 0.837125
0.000000 0.306310 0.789883
0.052430 0.309667 0.785733
0.459724 0.330388 0.773007
0.695613 0.378058 0.740597
0.754391 0.000000 0.568414
0.000000 0.337499 0.788174
0.000000 0.343450 0.784665
0.452491 0.361517 0.771084
0.688502 0.401709 0.738064
0.755795 0.000000 0.571832
0.000000 0.443763 0.804105
0.000000 0.446540 0.799344
0.431830 0.481147 0.783688
0.678492 0.502495 0.749722
0.790494 0.220554 0.614038
0.000000 0.549493 0.821408
0.000000 0.554376 0.818875
0.010346 0.594141 0.816251
0.678309 0.674891 0.805570
0.838071 0.554284 0.711360
0.000000 0.685420 0.844388
0.000000 0.688502 0.843137
0.000000 0.711513 0.843809
0.453925 0.763272 0.838224
0.874449 0.861173 0.847501
