20 Preset/Retro Movie Style/【3】LUT video cho PR-AE-FCPX/Lut Tone (1).cube
# Created by Adobe Lightroom plugin Export LUT (1.24.0)
# www.johnrellis.com/lightroom/exportlut.htm
# Preset: 焦糖色调-素材江湖01
# Color profile: E:\lut插件\exportlut.1.24\exportlut.lrplugin\color profiles\Rec709gamma2.4.icc
LUT_3D_SIZE 32
DOMAIN_MIN 0.0 0.0 0.0
DOMAIN_MAX 1.0 1.0 1.0
0.139345 0.143160 0.138552
0.139345 0.143160 0.138552
0.139345 0.143160 0.138552
0.139345 0.143160 0.138552
0.139590 0.143343 0.138521
0.140017 0.143313 0.138521
0.142123 0.143526 0.138430
0.147219 0.144045 0.138247
0.155154 0.145052 0.137942
0.167422 0.146487 0.137423
0.184329 0.148531 0.136660
0.206912 0.151095 0.135775
0.235203 0.154055 0.134188
0.268956 0.157626 0.131960
0.307195 0.160952 0.129122
0.349157 0.164309 0.125399
0.394079 0.167453 0.120638
0.440986 0.170565 0.114534
0.489631 0.173587 0.106691
0.550378 0.178378 0.093446
0.607111 0.184726 0.063050
0.658717 0.193668 0.014343
0.704677 0.205142 0.000000
0.747433 0.219181 0.000000
0.787778 0.235630 0.000000
0.826413 0.254032 0.000000
0.863890 0.274571 0.000000
0.900633 0.296757 0.000000
0.936767 0.321111 0.000000
0.972442 0.347265 0.000000
1.000000 0.374945 0.000000
1.000000 0.404028 0.000000
0.139345 0.143160 0.138552
0.139345 0.143160 0.138552
0.139345 0.143160 0.138552
0.139345 0.143160 0.138552
0.139590 0.143343 0.138521
0.140017 0.143313 0.138521
0.142123 0.143526 0.138430
0.146853 0.144076 0.138247
0.154452 0.145144 0.137942
0.166262 0.146426 0.137453
0.182864 0.148348 0.136721
0.204623 0.150881 0.135653
0.232029 0.154086 0.134310
0.265202 0.157351 0.132204
0.302922 0.160800 0.129427
0.344335 0.164370 0.125765
0.389105 0.167697 0.121096
0.435706 0.170687 0.115175
0.484474 0.173678 0.107515
0.543084 0.178225 0.095125
0.598047 0.183993 0.070436
0.648585 0.192050 0.024384
0.693935 0.202701 0.000000
0.736385 0.215854 0.000000
0.776608 0.231144 0.000000
0.815518 0.248753 0.000000
0.853452 0.268772 0.000000
0.890837 0.290806 0.000000
0.927733 0.314946 0.000000
0.964172 0.341070 0.000000
1.000000 0.368963 0.000000
1.000000 0.398016 0.000000
0.139345 0.143160 0.138552
0.139345 0.143160 0.138552
0.139345 0.143160 0.138552
0.139193 0.143404 0.138521
0.139590 0.143343 0.138521
0.140017 0.143313 0.138521
0.142123 0.143526 0.138430
0.146853 0.144076 0.138247
0.154452 0.145144 0.137942
0.165835 0.146700 0.137423
0.181827 0.148898 0.136660
0.203342 0.151278 0.135622
0.230350 0.154604 0.134279
0.262821 0.158083 0.132204
0.299992 0.161593 0.129458
0.341253 0.165164 0.125856
0.385626 0.168765 0.121218
0.432319 0.171939 0.115297
0.481666 0.175143 0.107576
0.538689 0.179568 0.095644
0.592981 0.185214 0.072908
0.643091 0.193088 0.026673
0.688350 0.203220 0.000000
0.730709 0.215885 0.000000
0.770901 0.230655 0.000000
0.809628 0.247715 0.000000
0.847837 0.267155 0.000000
0.885466 0.289036 0.000000
0.922789 0.312871 0.000000
0.959655 0.338933 0.000000
0.995880 0.366705 0.000000
1.000000 0.395605 0.000000
0.139193 0.143404 0.138521
0.139193 0.143404 0.138521
0.139193 0.143404 0.138521
0.139193 0.143404 0.138521
0.139590 0.143343 0.138521
0.140414 0.143252 0.138521
0.142397 0.143709 0.138399
0.146944 0.144503 0.138186
0.154421 0.145815 0.137850
0.165713 0.147585 0.137301
0.181704 0.149752 0.136538
0.202670 0.152407 0.135470
0.229191 0.155825 0.134127
0.261265 0.159609 0.132021
0.297704 0.163516 0.129244
0.337957 0.167239 0.125704
0.381628 0.170871 0.121126
0.427283 0.174289 0.115358
0.477119 0.178042 0.107485
0.530907 0.182254 0.096407
0.582879 0.187655 0.077668
0.631891 0.194797 0.033783
0.677333 0.204379 0.000000
0.720546 0.216373 0.000000
0.762325 0.230838 0.000000
0.802914 0.248142 0.000000
0.842893 0.267979 0.000000
0.881956 0.289952 0.000000
0.920165 0.314153 0.000000
0.957427 0.340154 0.000000
0.993622 0.367315 0.000000
1.000000 0.395636 0.000000
0.139193 0.143404 0.138521
0.139193 0.143404 0.138521
0.139132 0.143404 0.138766
0.139528 0.143343 0.138766
0.139590 0.143343 0.138521
0.140932 0.143648 0.138430
0.142885 0.144076 0.138338
0.147311 0.145144 0.138094
0.154757 0.146395 0.137728
0.165988 0.148196 0.137209
0.181308 0.150637 0.136416
0.201907 0.153750 0.135256
0.227878 0.157443 0.133913
0.259495 0.161318 0.131807
0.295384 0.165743 0.128969
0.335729 0.169863 0.125338
0.379583 0.173617 0.120729
0.425483 0.177310 0.114839
0.476478 0.181399 0.106661
0.528496 0.185794 0.095735
0.579339 0.191196 0.076539
0.627558 0.198276 0.033448
0.672969 0.207645 0.000000
0.716487 0.219791 0.000000
0.758694 0.234775 0.000000
0.799771 0.252293 0.000000
0.839963 0.271702 0.000000
0.879179 0.293370 0.000000
0.917388 0.316930 0.000000
0.954589 0.342351 0.000000
0.990661 0.369116 0.000000
1.000000 0.396857 0.000000
0.139132 0.143404 0.138766
0.139132 0.143404 0.138766
0.138979 0.143618 0.138735
0.139406 0.143587 0.138705
0.140047 0.143740 0.138674
0.140993 0.144076 0.138613
0.143954 0.145296 0.138369
0.148928 0.146426 0.138094
0.156527 0.147890 0.137484
0.167483 0.149874 0.137148
0.183261 0.152621 0.136294
0.203861 0.156008 0.135073
0.230228 0.159884 0.133394
0.261631 0.164187 0.131167
0.297795 0.168704 0.128237
0.337835 0.173220 0.124453
0.381720 0.177401 0.119631
0.427802 0.181277 0.113558
0.480507 0.185916 0.104707
0.531640 0.190799 0.093294
0.581750 0.196628 0.069154
0.629541 0.203922 0.026764
0.730312 0.231327 0.000000
0.772488 0.247288 0.000000
0.812284 0.265446 0.000000
0.850370 0.285588 0.000000
0.886778 0.307286 0.000000
0.922087 0.329686 0.000000
0.956481 0.352819 0.000000
0.989899 0.377111 0.000000
1.000000 0.402136 0.000000
1.000000 0.427680 0.000000
0.138766 0.144533 0.138827
0.138766 0.144533 0.138827
0.138613 0.144778 0.138796
0.138949 0.144961 0.138521
0.140536 0.144778 0.138521
0.141970 0.145510 0.138399
0.145541 0.146822 0.138125
0.154086 0.149874 0.137484
0.163668 0.152010 0.136904
0.176394 0.154177 0.136233
0.191745 0.157107 0.135286
0.214145 0.161044 0.133822
0.242496 0.165347 0.131868
0.275273 0.170321 0.129244
0.312474 0.175143 0.125917
0.353216 0.179690 0.121736
0.397009 0.184054 0.116396
0.447028 0.188937 0.108888
0.501396 0.194369 0.098238
0.554833 0.200412 0.081361
0.607996 0.208042 0.038544
0.659480 0.217929 0.000000
0.708553 0.231052 0.000000
0.755306 0.247257 0.000000
0.799283 0.266178 0.000000
0.839872 0.286564 0.000000
0.877623 0.308049 0.000000
0.913298 0.330907 0.000000
0.947875 0.354986 0.000000
0.981506 0.378271 0.000000
1.000000 0.402655 0.000000
1.000000 0.427649 0.000000
0.136995 0.147066 0.138949
0.136995 0.147066 0.138949
0.137057 0.147066 0.138735
0.137667 0.147433 0.138430
0.139956 0.147433 0.138369
0.143008 0.147311 0.138338
0.147097 0.148989 0.137758
0.153536 0.151980 0.137148
0.169772 0.157778 0.135805
0.183993 0.160342 0.134981
0.201175 0.163485 0.133852
0.221225 0.166842 0.132509
0.244816 0.170596 0.130770
0.277531 0.175784 0.127993
0.314153 0.180789 0.124544
0.354131 0.185885 0.120150
0.398291 0.190646 0.114504
0.449958 0.196506 0.106111
0.501122 0.201938 0.095460
0.552056 0.208011 0.077668
0.603082 0.215427 0.033387
0.653193 0.225254 0.000000
0.701564 0.237736 0.000000
0.747799 0.253208 0.000000
0.791867 0.271183 0.000000
0.832639 0.290837 0.000000
0.870665 0.311925 0.000000
0.906828 0.334234 0.000000
0.941711 0.358099 0.000000
0.975402 0.382879 0.000000
1.000000 0.406867 0.000000
1.000000 0.431281 0.000000
0.134371 0.151064 0.139559
0.134218 0.151308 0.139528
0.134188 0.151522 0.139040
0.134249 0.151736 0.138308
0.137362 0.151858 0.138003
0.142519 0.151522 0.137942
0.147921 0.151583 0.137575
0.155306 0.155581 0.136782
0.167330 0.160555 0.135653
0.193729 0.170779 0.132998
0.214115 0.174044 0.131380
0.236271 0.177340 0.129763
0.260716 0.180758 0.127840
0.286839 0.184421 0.125521
0.318730 0.188998 0.122255
0.358556 0.194095 0.117617
0.406622 0.200412 0.110658
0.455634 0.205966 0.102388
0.504173 0.211734 0.091157
0.553399 0.218112 0.064637
0.602808 0.225711 0.020600
0.651392 0.235355 0.000000
0.698726 0.247623 0.000000
0.744228 0.262394 0.000000
0.787716 0.279698 0.000000
0.828336 0.298711 0.000000
0.866484 0.319158 0.000000
0.902739 0.340887 0.000000
0.937896 0.364050 0.000000
0.971649 0.388342 0.000000
1.000000 0.413581 0.000000
1.000000 0.438148 0.000000
0.129397 0.157656 0.140475
0.129397 0.157656 0.140475
0.129824 0.157809 0.139956
0.130129 0.158419 0.138705
0.132448 0.158999 0.137636
0.139254 0.158389 0.137362
0.147402 0.157778 0.137057
0.156435 0.158938 0.136660
0.168826 0.165560 0.134981
0.187411 0.173465 0.132937
0.227146 0.189425 0.128023
0.253056 0.192813 0.125704
0.279423 0.195865 0.123415
0.306981 0.198947 0.120790
0.336645 0.202335 0.117525
0.371221 0.206455 0.113039
0.415015 0.212314 0.105928
0.462837 0.218296 0.096315
0.510460 0.224216 0.081483
0.558434 0.230869 0.044862
0.605737 0.238468 0.002350
0.651575 0.247440 0.000000
0.696071 0.258824 0.000000
0.739040 0.272404 0.000000
0.780484 0.288182 0.000000
0.820279 0.305882 0.000000
0.858396 0.325231 0.000000
0.895201 0.346410 0.000000
0.931029 0.369329 0.000000
0.965759 0.393439 0.000000
0.999420 0.418647 0.000000
1.000000 0.444770 0.000000
0.122408 0.166537 0.141848
0.122469 0.166537 0.141634
0.122774 0.166873 0.141085
0.123171 0.167422 0.139620
0.123507 0.168338 0.137118
0.132509 0.168338 0.136965
0.144137 0.167361 0.136416
0.156649 0.166140 0.136141
0.169802 0.170047 0.135073
0.189303 0.180789 0.132143
0.216281 0.192386 0.128542
0.266117 0.212161 0.120516
0.303563 0.218570 0.115694
0.335576 0.221378 0.112093
0.369116 0.224491 0.107637
0.402899 0.227359 0.102419
0.436316 0.230076 0.095949
0.470039 0.233036 0.088411
0.515892 0.238987 0.061494
0.562219 0.245457 0.023011
0.607996 0.252873 0.000000
0.652247 0.261814 0.000000
0.695766 0.272862 0.000000
0.737972 0.285771 0.000000
0.778927 0.301122 0.000000
0.818326 0.317998 0.000000
0.856199 0.336889 0.000000
0.892943 0.357427 0.000000
0.928710 0.379461 0.000000
0.963500 0.403052 0.000000
0.997223 0.427497 0.000000
1.000000 0.452979 0.000000
0.110475 0.179110 0.143801
0.110567 0.179110 0.143587
0.110414 0.179477 0.142855
0.111330 0.180087 0.141146
0.112276 0.181064 0.138186
0.120577 0.182040 0.136202
0.135805 0.181003 0.135653
0.153048 0.179416 0.135378
0.170474 0.177554 0.134829
0.189731 0.186679 0.132082
0.218723 0.202365 0.127260
0.255894 0.218631 0.120821
0.346715 0.259556 0.097475
0.408118 0.273411 0.071839
0.445502 0.273381 0.053773
0.479591 0.273198 0.036744
0.511833 0.273106 0.017670
0.543511 0.273869 0.000000
0.574517 0.275395 0.000000
0.609918 0.279545 0.000000
0.653162 0.287572 0.000000
0.694362 0.297032 0.000000
0.734340 0.308080 0.000000
0.773281 0.321141 0.000000
0.810819 0.335973 0.000000
0.846921 0.352026 0.000000
0.881346 0.369268 0.000000
0.914611 0.387915 0.000000
0.947112 0.407721 0.000000
0.978973 0.428931 0.000000
1.000000 0.451118 0.000000
1.000000 0.474708 0.000000
0.076417 0.199741 0.147036
0.078004 0.199863 0.146792
0.079774 0.199985 0.145693
0.081361 0.200412 0.143618
0.085420 0.201205 0.139773
0.092012 0.202457 0.134463
0.119295 0.201358 0.134585
0.144320 0.199252 0.133883
0.168521 0.196750 0.133150
0.192935 0.195590 0.131960
0.223545 0.214603 0.126101
0.270207 0.240360 0.115694
0.326055 0.265263 0.100404
0.406043 0.296544 0.044587
0.477882 0.315160 0.000000
0.512505 0.311711 0.000000
0.543206 0.308568 0.000000
0.571893 0.306340 0.000000
0.599756 0.305303 0.000000
0.626917 0.305516 0.000000
0.653803 0.307134 0.000000
0.689326 0.313725 0.000000
0.728573 0.323796 0.000000
0.767025 0.335882 0.000000
0.804440 0.349676 0.000000
0.840635 0.365087 0.000000
0.875486 0.381720 0.000000
0.909392 0.399695 0.000000
0.942535 0.419074 0.000000
0.974945 0.439673 0.000000
1.000000 0.461555 0.000000
1.000000 0.484596 0.000000
0.000000 0.220035 0.150118
0.000000 0.220035 0.149905
0.000000 0.220005 0.148623
0.000000 0.220462 0.146151
0.000000 0.221073 0.142245
0.009155 0.222354 0.135592
0.080903 0.223545 0.133242
0.124697 0.221592 0.132235
0.158785 0.219394 0.131319
0.190829 0.216648 0.129885
0.222141 0.221622 0.126741
0.263798 0.246830 0.116915
0.322972 0.278782 0.097658
0.386725 0.306340 0.049165
0.466072 0.336034 0.000000
0.545434 0.359960 0.000000
0.575799 0.352789 0.000000
0.602380 0.346654 0.000000
0.627771 0.342657 0.000000
0.652094 0.339818 0.000000
0.676265 0.338903 0.000000
0.701320 0.340337 0.000000
0.727291 0.343755 0.000000
0.764767 0.354711 0.000000
0.802029 0.367681 0.000000
0.838132 0.382147 0.000000
0.872923 0.397864 0.000000
0.906798 0.415015 0.000000
0.940002 0.433478 0.000000
0.972625 0.453285 0.000000
1.000000 0.474464 0.000000
1.000000 0.496925 0.000000
0.000000 0.247532 0.154665
0.000000 0.247532 0.154269
0.000000 0.247623 0.152804
0.000000 0.247898 0.149813
0.000000 0.248569 0.145113
0.000000 0.249546 0.137728
0.000000 0.251011 0.130190
0.074830 0.249393 0.130037
0.137758 0.246403 0.128634
0.180850 0.242924 0.127077
0.219303 0.239078 0.125368
0.258457 0.252720 0.118746
0.311223 0.283665 0.101534
0.380163 0.320104 0.042573
0.446815 0.348089 0.000000
0.522454 0.375463 0.000000
0.607752 0.406165 0.000000
0.633967 0.395850 0.000000
0.657404 0.387518 0.000000
0.679347 0.381353 0.000000
0.701137 0.377325 0.000000
0.724086 0.376165 0.000000
0.747829 0.377356 0.000000
0.772610 0.380804 0.000000
0.800992 0.388312 0.000000
0.836759 0.401617 0.000000
0.871702 0.416602 0.000000
0.905974 0.433143 0.000000
0.939696 0.451148 0.000000
0.972961 0.470802 0.000000
1.000000 0.491768 0.000000
1.000000 0.514214 0.000000
0.000000 0.277531 0.159091
0.000000 0.277623 0.158663
0.000000 0.277684 0.157259
0.000000 0.278202 0.153933
0.000000 0.278874 0.148501
0.000000 0.280064 0.140322
0.000000 0.281895 0.128328
0.000000 0.282048 0.127016
0.088960 0.278935 0.125124
0.160067 0.275090 0.123140
0.210575 0.270359 0.120851
0.255222 0.264317 0.118593
0.301976 0.288731 0.105135
0.363165 0.323339 0.062379
0.436072 0.360906 0.000000
0.501518 0.387366 0.000000
0.572412 0.412848 0.000000
0.660395 0.450050 0.000000
0.683528 0.437446 0.000000
0.705043 0.427832 0.000000
0.725856 0.421027 0.000000
0.747555 0.417151 0.000000
0.769986 0.416144 0.000000
0.793179 0.417426 0.000000
0.817380 0.421210 0.000000
0.842618 0.427558 0.000000
0.873442 0.439185 0.000000
0.907713 0.454688 0.000000
0.941222 0.471656 0.000000
0.973999 0.490028 0.000000
1.000000 0.509667 0.000000
1.000000 0.530755 0.000000
0.000000 0.308507 0.164065
0.000000 0.308507 0.163668
0.000000 0.308721 0.161929
0.000000 0.309148 0.158511
0.000000 0.309789 0.152895
0.000000 0.310887 0.143923
0.000000 0.312474 0.130892
0.000000 0.313909 0.122805
0.000000 0.311345 0.121767
0.116121 0.306981 0.118959
0.190127 0.301732 0.116335
0.244816 0.295445 0.113375
0.292973 0.292210 0.108980
0.348089 0.325505 0.081361
0.414954 0.362280 0.000000
0.489509 0.400336 0.000000
0.555047 0.427497 0.000000
0.621363 0.452247 0.000000
0.709834 0.494453 0.000000
0.730861 0.480659 0.000000
0.751583 0.470344 0.000000
0.771939 0.463478 0.000000
0.792752 0.459358 0.000000
0.814389 0.457984 0.000000
0.836973 0.459388 0.000000
0.860349 0.463111 0.000000
0.884977 0.469642 0.000000
0.910674 0.478767 0.000000
0.943175 0.494087 0.000000
0.975830 0.511467 0.000000
1.000000 0.530236 0.000000
1.000000 0.550439 0.000000
0.000000 0.342840 0.169772
0.000000 0.343236 0.169650
0.000000 0.361151 0.170901
0.000000 0.361486 0.166842
0.000000 0.362066 0.160464
0.000000 0.362768 0.150118
0.000000 0.363867 0.134340
0.000000 0.365301 0.112642
0.000000 0.363989 0.115206
0.000000 0.358831 0.110964
0.156039 0.352819 0.106447
0.235569 0.345525 0.101808
0.297154 0.336309 0.096986
0.352117 0.342657 0.079652
0.415229 0.379156 0.000000
0.487282 0.418250 0.000000
0.562219 0.456672 0.000000
0.624048 0.483009 0.000000
0.684108 0.505760 0.000000
0.769223 0.549920 0.000000
0.787716 0.534325 0.000000
0.806485 0.522606 0.000000
0.824918 0.514366 0.000000
0.843717 0.508934 0.000000
0.862974 0.506004 0.000000
0.883146 0.505730 0.000000
0.904448 0.508263 0.000000
0.927092 0.513787 0.000000
0.951324 0.522423 0.000000
0.978027 0.534661 0.000000
1.000000 0.552087 0.000000
1.000000 0.571191 0.000000
0.000000 0.383734 0.177951
0.000000 0.385534 0.177768
0.000000 0.387457 0.176364
0.000000 0.389471 0.172671
0.000000 0.391180 0.166079
0.000000 0.392248 0.156222
0.000000 0.393317 0.140932
0.000000 0.394385 0.118227
0.000000 0.394659 0.111849
0.000000 0.389990 0.108095
0.034211 0.384070 0.102388
0.200748 0.377020 0.096345
0.276249 0.368078 0.089509
0.336431 0.357763 0.080659
0.394232 0.376074 0.018524
0.460975 0.414191 0.000000
0.534295 0.454200 0.000000
0.606256 0.492042 0.000000
0.665614 0.518212 0.000000
0.723445 0.541436 0.000000
0.804135 0.585351 0.000000
0.826383 0.574365 0.000000
0.844785 0.562829 0.000000
0.862669 0.554345 0.000000
0.880522 0.548547 0.000000
0.899138 0.545434 0.000000
0.918669 0.545159 0.000000
0.939544 0.547692 0.000000
0.961975 0.553613 0.000000
0.985992 0.562676 0.000000
1.000000 0.574884 0.000000
1.000000 0.591333 0.000000
0.000000 0.415930 0.185183
0.000000 0.417884 0.184878
0.000000 0.419989 0.183566
0.000000 0.422095 0.179934
0.000000 0.423865 0.173617
0.000000 0.424964 0.163394
0.000000 0.425849 0.148562
0.000000 0.426734 0.125978
0.000000 0.427405 0.103700
0.000000 0.424537 0.106111
0.000000 0.418708 0.099275
0.147494 0.411566 0.090761
0.248661 0.403204 0.078614
0.320500 0.393164 0.056550
0.380346 0.381750 0.035920
0.442267 0.413855 0.000000
0.511864 0.453559 0.000000
0.584588 0.494087 0.000000
0.652186 0.530266 0.000000
0.708614 0.556085 0.000000
0.762783 0.578607 0.000000
0.835660 0.618463 0.000000
0.862791 0.613733 0.000000
0.880400 0.602106 0.000000
0.897612 0.593164 0.000000
0.914885 0.587335 0.000000
0.932860 0.584192 0.000000
0.952056 0.583917 0.000000
0.972839 0.587121 0.000000
0.995239 0.593561 0.000000
1.000000 0.603265 0.000000
1.000000 0.616083 0.000000
0.000000 0.451118 0.193637
0.000000 0.452979 0.193759
0.000000 0.454902 0.192203
0.000000 0.456886 0.188907
0.000000 0.458534 0.182498
0.000000 0.459480 0.172519
0.000000 0.460334 0.158022
0.000000 0.460975 0.136568
0.000000 0.461891 0.101961
0.000000 0.461006 0.106111
0.000000 0.455390 0.096956
0.000000 0.448554 0.086336
0.211826 0.440345 0.061555
0.299535 0.430823 0.033539
0.368139 0.419867 0.006500
0.428565 0.415869 0.000000
0.495247 0.455573 0.000000
0.566339 0.496681 0.000000
0.637568 0.537835 0.000000
0.702358 0.573938 0.000000
0.756863 0.600397 0.000000
0.808560 0.623224 0.000000
0.873259 0.658808 0.000000
0.904234 0.659937 0.000000
0.921691 0.648890 0.000000
0.938872 0.640284 0.000000
0.955901 0.634730 0.000000
0.973968 0.632197 0.000000
0.993439 0.632868 0.000000
1.000000 0.636835 0.000000
1.000000 0.644221 0.000000
1.000000 0.654627 0.000000
0.000000 0.500450 0.208835
0.000000 0.501213 0.208225
0.000000 0.501946 0.207095
0.000000 0.502403 0.202792
0.000000 0.502861 0.196048
0.000000 0.502953 0.185733
0.000000 0.503136 0.171359
0.000000 0.503532 0.149966
0.000000 0.504112 0.117983
0.000000 0.504051 0.100130
0.000000 0.500175 0.099855
0.000000 0.493568 0.084718
0.157473 0.485817 0.049683
0.278050 0.476509 0.011078
0.358618 0.465919 0.000000
0.425513 0.453864 0.000000
0.487770 0.463783 0.000000
0.556023 0.504234 0.000000
0.624384 0.544457 0.000000
0.691798 0.584558 0.000000
0.750393 0.617548 0.000000
0.799832 0.641444 0.000000
0.846036 0.661402 0.000000
0.901976 0.691157 0.000000
0.934081 0.695644 0.000000
0.950713 0.684504 0.000000
0.967559 0.676081 0.000000
0.984680 0.671077 0.000000
1.000000 0.669306 0.000000
1.000000 0.670802 0.000000
1.000000 0.675349 0.000000
1.000000 0.683162 0.000000
0.000000 0.539055 0.222477
0.000000 0.539727 0.222538
0.000000 0.540398 0.220768
0.000000 0.540856 0.216678
0.000000 0.541253 0.210300
0.000000 0.541466 0.200473
0.000000 0.541588 0.186007
0.000000 0.541924 0.165805
0.000000 0.542443 0.136934
0.000000 0.542992 0.095338
0.000000 0.540703 0.108248
0.000000 0.534691 0.093477
0.000000 0.527398 0.058778
0.245640 0.518944 0.009522
0.342382 0.509178 0.000000
0.417456 0.498238 0.000000
0.482063 0.486061 0.000000
0.546227 0.510704 0.000000
0.613001 0.550927 0.000000
0.678645 0.590845 0.000000
0.742123 0.629664 0.000000
0.795529 0.660029 0.000000
0.840391 0.681788 0.000000
0.882139 0.699733 0.000000
0.926207 0.719478 0.000000
0.959197 0.727016 0.000000
0.975708 0.716579 0.000000
0.992523 0.708827 0.000000
1.000000 0.704524 0.000000
1.000000 0.703609 0.000000
1.000000 0.705989 0.000000
1.000000 0.711666 0.000000
0.000000 0.586084 0.243839
0.000000 0.587213 0.244053
0.000000 0.587762 0.242191
0.000000 0.587732 0.238163
0.000000 0.587243 0.231724
0.000000 0.586389 0.221195
0.000000 0.585412 0.207065
0.000000 0.584527 0.187808
0.000000 0.583734 0.160708
0.000000 0.583307 0.118441
0.000000 0.581079 0.117464
0.000000 0.575311 0.109377
0.000000 0.567803 0.088808
0.200504 0.559228 0.031434
0.319615 0.549187 0.000000
0.402991 0.538354 0.000000
0.472755 0.526390 0.000000
0.533623 0.513909 0.000000
0.598077 0.552667 0.000000
0.662043 0.592187 0.000000
0.724636 0.631128 0.000000
0.783688 0.668055 0.000000
0.831571 0.694881 0.000000
0.871855 0.713893 0.000000
0.908782 0.728817 0.000000
0.951171 0.749111 0.000000
0.983825 0.758419 0.000000
0.999817 0.748257 0.000000
1.000000 0.740963 0.000000
1.000000 0.737179 0.000000
1.000000 0.737057 0.000000
1.000000 0.740261 0.000000
0.000000 0.622156 0.261814
0.000000 0.623255 0.262181
0.000000 0.624048 0.260960
0.000000 0.624262 0.257206
0.000000 0.624353 0.251286
0.000000 0.624262 0.242252
0.000000 0.624201 0.229313
0.000000 0.624231 0.211337
0.000000 0.624475 0.187350
0.000000 0.624750 0.152529
0.000000 0.624109 0.128298
0.000000 0.620233 0.134890
0.000000 0.613458 0.116609
0.148257 0.605615 0.090974
0.302861 0.596490 0.019226
0.396674 0.586267 0.000000
0.472206 0.575280 0.000000
0.537224 0.563622 0.000000
0.596887 0.565332 0.000000
0.658808 0.604303 0.000000
0.719020 0.642359 0.000000
0.776242 0.678584 0.000000
0.829648 0.712337 0.000000
0.871458 0.735225 0.000000
0.907164 0.751431 0.000000
0.939971 0.764096 0.000000
0.977020 0.780606 0.000000
1.000000 0.791409 0.000000
1.000000 0.782315 0.000000
1.000000 0.776150 0.000000
1.000000 0.773281 0.000000
1.000000 0.773617 0.000000
0.000000 0.665766 0.287968
0.000000 0.666346 0.288060
0.000000 0.666621 0.286564
0.000000 0.666712 0.283085
0.000000 0.666621 0.276921
0.000000 0.666407 0.268101
0.000000 0.666163 0.256046
0.000000 0.666011 0.239719
0.000000 0.666011 0.218204
0.000000 0.666102 0.188388
0.000000 0.666102 0.145388
0.000000 0.663294 0.164706
0.000000 0.657282 0.148653
0.000000 0.650172 0.127352
0.284581 0.641871 0.099367
0.389258 0.632624 0.020111
0.470405 0.622553 0.000000
0.539025 0.612055 0.000000
0.600092 0.601373 0.000000
0.658289 0.617731 0.000000
0.716091 0.654749 0.000000
0.771084 0.689906 0.000000
0.822599 0.722683 0.000000
0.870207 0.752529 0.000000
0.905943 0.770932 0.000000
0.937224 0.784146 0.000000
0.966278 0.794461 0.000000
0.998627 0.807462 0.000000
1.000000 0.818814 0.000000
1.000000 0.811002 0.000000
1.000000 0.805631 0.000000
1.000000 0.803281 0.000000
0.000000 0.706844 0.315740
0.000000 0.707362 0.315953
0.000000 0.707759 0.314733
0.000000 0.708034 0.311345
0.000000 0.708400 0.306401
0.000000 0.709041 0.298863
0.000000 0.710323 0.288945
0.000000 0.711971 0.275731
0.000000 0.713954 0.257694
0.000000 0.716304 0.234134
0.000000 0.718746 0.201175
0.000000 0.718746 0.201846
0.000000 0.715938 0.202701
0.000855 0.711177 0.186862
0.301152 0.705165 0.167422
0.409918 0.697688 0.142061
0.492958 0.689509 0.106935
0.564080 0.680812 0.004334
0.627558 0.672023 0.000000
0.685328 0.663294 0.000000
0.738888 0.691035 0.000000
0.789670 0.723751 0.000000
0.836790 0.753719 0.000000
0.880308 0.780850 0.000000
0.920439 0.805234 0.000000
0.949310 0.818265 0.000000
0.975586 0.827909 0.000000
1.000000 0.835050 0.000000
1.000000 0.843809 0.000000
1.000000 0.853605 0.000000
1.000000 0.846311 0.000000
1.000000 0.841886 0.000000
0.000000 0.763851 0.363806
0.000000 0.763882 0.363592
0.000000 0.763790 0.361883
0.000000 0.763638 0.358892
0.000000 0.763516 0.353429
0.000000 0.763424 0.346044
0.000000 0.763516 0.336126
0.000000 0.763790 0.323125
0.000000 0.764309 0.306065
0.000000 0.764920 0.284154
0.000000 0.765682 0.255711
0.000000 0.765255 0.238285
0.000000 0.762020 0.248936
0.000000 0.757168 0.235111
