20 Preset/Retro Movie Style/【3】LUT video cho PR-AE-FCPX/Lut Tone (1).cube
# Created by Adobe Lightroom plugin Export LUT (1.24.0)
# www.johnrellis.com/lightroom/exportlut.htm
# Preset: 焦糖色调-素材江湖01
# Color profile: E:\lut插件\exportlut.1.24\exportlut.lrplugin\color profiles\Rec709gamma2.4.icc
LUT_3D_SIZE 5
DOMAIN_MIN 0.000000 0.000000 0.000000
DOMAIN_MAX 0.903226 0.903226 0.903226
0.139345 0.143160 0.138552
0.147219 0.144045 0.138247
0.307195 0.160952 0.129122
0.658717 0.193668 0.014343
0.936767 0.321111 0.000000
0.136995 0.147066 0.138949
0.153536 0.151980 0.137148
0.314153 0.180789 0.124544
0.653193 0.225254 0.000000
0.941711 0.358099 0.000000
0.000000 0.247532 0.154665
0.074830 0.249393 0.130037
0.446815 0.348089 0.000000
0.724086 0.376165 0.000000
0.939696 0.451148 0.000000
0.000000 0.500450 0.208835
0.000000 0.503532 0.149966
0.358618 0.465919 0.000000
0.799832 0.641444 0.000000
1.000000 0.669306 0.000000
0.000000 0.807095 0.404150
0.000000 0.808316 0.368750
0.281315 0.782803 0.251987
0.801724 0.762692 0.018585
1.000000 0.879911 0.208835
0.139620 0.143252 0.141512
0.145602 0.143069 0.140047
0.296300 0.145480 0.135378
0.615045 0.158785 0.087831
0.905638 0.282628 0.000000
0.135500 0.148653 0.147219
0.147311 0.152712 0.149416
0.308293 0.167453 0.135073
0.621424 0.192813 0.064332
0.909545 0.312413 0.000000
0.000000 0.255100 0.204440
0.000000 0.261845 0.177493
0.403388 0.324712 0.102998
0.678859 0.340307 0.000000
0.932494 0.432410 0.000000
0.000000 0.508751 0.282780
0.000000 0.512993 0.245274
0.311650 0.488167 0.121248
0.789975 0.637995 0.000000
0.997650 0.663844 0.000000
0.000000 0.808682 0.457588
0.000000 0.809354 0.428138
0.215488 0.805570 0.325383
0.799954 0.766598 0.169284
1.000000 0.886900 0.302678
0.157809 0.152316 0.231907
0.207309 0.152377 0.228916
0.302342 0.142428 0.193606
0.646387 0.000000 0.172366
0.905455 0.182345 0.110903
0.098634 0.179416 0.252232
0.170443 0.173953 0.256291
0.319463 0.172732 0.218051
0.631983 0.119936 0.197177
0.911376 0.239170 0.110750
0.000000 0.260075 0.304021
0.000000 0.268406 0.307347
0.315953 0.316442 0.319402
0.642969 0.330297 0.256474
0.928038 0.395850 0.089235
0.000000 0.523064 0.484993
0.000000 0.542016 0.481880
0.000000 0.552300 0.390692
0.745602 0.626581 0.315251
0.970886 0.642359 0.174441
0.000000 0.809995 0.617517
0.000000 0.812650 0.602350
0.000000 0.818448 0.516045
0.711788 0.786679 0.359564
1.000000 0.886748 0.460578
0.269902 0.223423 0.463905
0.342992 0.224857 0.462043
0.531731 0.239170 0.446662
0.641688 0.194980 0.357824
0.965576 0.087800 0.307530
0.185672 0.244663 0.474800
0.297856 0.255009 0.474922
0.518273 0.266728 0.458106
0.639918 0.242618 0.375433
0.954070 0.201114 0.327031
0.000000 0.353155 0.494942
0.000000 0.356451 0.493904
0.382300 0.359625 0.504814
0.637903 0.391089 0.447639
0.928496 0.398810 0.410071
0.000000 0.501793 0.570001
0.000000 0.505699 0.569482
0.287907 0.532616 0.576623
0.631525 0.598322 0.591485
0.930419 0.616602 0.499031
0.000000 0.774289 0.763485
0.000000 0.782162 0.768032
0.000000 0.821500 0.787289
0.540490 0.845975 0.688624
0.971984 0.894957 0.678737
0.562005 0.437049 0.737453
0.600153 0.438788 0.733761
0.723934 0.457404 0.723720
0.838285 0.515435 0.692103
0.924376 0.453468 0.599786
0.520623 0.446723 0.737392
0.567437 0.451301 0.735042
0.704005 0.466926 0.724666
0.837278 0.519097 0.699886
0.919890 0.471839 0.607080
0.305333 0.512139 0.747555
0.367407 0.501732 0.746792
0.608270 0.518944 0.746487
0.815427 0.557916 0.725643
0.916442 0.560876 0.656275
0.160159 0.628351 0.783780
0.221256 0.627253 0.781704
0.390387 0.632685 0.781155
0.702754 0.654292 0.793149
0.914244 0.722316 0.763302
0.104829 0.771633 0.854368
0.200809 0.773251 0.854276
0.401648 0.786923 0.859037
0.635492 0.817319 0.866148
0.893156 0.882506 0.882689
