20 Preset/Retro Movie Style/【3】LUT video cho PR-AE-FCPX/Lut Tone (2).cube
# Created by Adobe Lightroom plugin Export LUT (1.24.0)
# www.johnrellis.com/lightroom/exportlut.htm
# Preset: 焦糖色调-素材江湖02
# Color profile: E:\lut插件\exportlut.1.24\exportlut.lrplugin\color profiles\Rec709gamma2.4.icc
LUT_3D_SIZE 5
DOMAIN_MIN 0.000000 0.000000 0.000000
DOMAIN_MAX 0.903226 0.903226 0.903226
0.123720 0.139620 0.129580
0.133455 0.139986 0.130098
0.262455 0.135286 0.126925
0.539879 0.081636 0.104799
0.894377 0.122652 0.000000
0.120638 0.147585 0.129671
0.135378 0.146456 0.128817
0.228183 0.156832 0.125307
0.519707 0.157259 0.096162
0.892027 0.223911 0.000000
0.000000 0.277592 0.115358
0.090394 0.288426 0.103761
0.370184 0.304997 0.032258
0.498116 0.278752 0.000000
0.812009 0.361578 0.000000
0.000000 0.625238 0.005737
0.000000 0.641108 0.103120
0.502037 0.697200 0.000000
0.730404 0.622095 0.000000
0.867552 0.582513 0.000000
0.000000 0.910674 0.390661
0.105318 0.911681 0.443610
0.525475 0.906554 0.374945
0.828794 0.919890 0.274907
0.995453 0.868528 0.000000
0.123781 0.140749 0.137057
0.129244 0.141238 0.133516
0.233158 0.145083 0.128725
0.481270 0.146975 0.105043
0.813535 0.150332 0.000000
0.122133 0.149233 0.141176
0.134524 0.149599 0.140017
0.225467 0.158175 0.130892
0.467597 0.178134 0.099580
0.804044 0.209751 0.000000
0.000000 0.251438 0.159243
0.000000 0.267185 0.146273
0.315801 0.269291 0.126314
0.430213 0.247227 0.092409
0.784329 0.352148 0.000000
0.000000 0.600580 0.171572
0.000000 0.619165 0.186801
0.468940 0.683833 0.000000
0.716548 0.614740 0.000000
0.851255 0.566491 0.000000
0.000000 0.905577 0.382361
0.000000 0.905760 0.432746
0.546410 0.922026 0.487037
0.835996 0.930877 0.409583
1.000000 0.882353 0.000000
0.100740 0.155154 0.246006
0.146426 0.157229 0.226719
0.187564 0.157931 0.177035
0.482979 0.000000 0.174136
0.833799 0.165225 0.043122
0.054078 0.183322 0.279057
0.147555 0.182467 0.256901
0.209934 0.177981 0.197635
0.527489 0.125887 0.194675
0.833005 0.222538 0.052461
0.000000 0.297887 0.312078
0.041779 0.298680 0.309300
0.319158 0.317021 0.308019
0.544030 0.308873 0.241306
0.808133 0.351385 0.045777
0.000000 0.476844 0.350500
0.000000 0.492500 0.353063
0.282841 0.600671 0.385779
0.680110 0.614435 0.377417
0.788083 0.519249 0.017151
0.000000 0.851225 0.490394
0.000000 0.863157 0.493599
0.325536 0.891081 0.550195
0.794430 0.924712 0.582574
0.969879 0.875608 0.446296
0.000000 0.251987 0.534325
0.175174 0.255772 0.520714
0.328801 0.255650 0.431525
0.335851 0.211307 0.293584
0.616693 0.122194 0.310582
0.000000 0.287572 0.554711
0.184421 0.290471 0.534752
0.337835 0.280461 0.445319
0.345556 0.229191 0.304021
0.637171 0.151827 0.319951
0.000000 0.414649 0.600488
0.015351 0.415137 0.598566
0.382238 0.407233 0.541192
0.423224 0.331731 0.382635
0.776730 0.316472 0.397284
0.000000 0.586358 0.615137
0.000000 0.582147 0.608637
0.335760 0.589319 0.607630
0.599817 0.616541 0.608637
0.836576 0.593530 0.487648
0.000000 0.769802 0.652338
0.000000 0.767453 0.645899
0.000000 0.788510 0.645319
0.612451 0.892271 0.726741
0.929137 0.886839 0.717617
0.402747 0.516899 0.842252
0.434760 0.515251 0.833616
0.531640 0.510765 0.796628
0.607843 0.489418 0.695460
0.600275 0.333410 0.523186
0.405310 0.540856 0.846708
0.436927 0.538994 0.838895
0.532494 0.530846 0.802579
0.610590 0.504936 0.703059
0.603723 0.349096 0.529351
0.354467 0.613886 0.879759
0.402106 0.613672 0.872862
0.537438 0.616175 0.842222
0.632288 0.578576 0.752224
0.634241 0.426581 0.573632
0.269657 0.746639 0.902373
0.322728 0.745357 0.901244
0.482856 0.745785 0.901091
0.675471 0.737545 0.867674
0.704829 0.596368 0.685328
0.000000 0.888304 0.922728
0.165713 0.887755 0.921752
0.399603 0.889036 0.920653
0.625086 0.889982 0.915618
0.867033 0.899107 0.905455
