20 Preset/Retro Movie Style/【3】LUT video cho PR-AE-FCPX/Lut Tone (4).cube
# Created by Adobe Lightroom plugin Export LUT (1.24.0)
# www.johnrellis.com/lightroom/exportlut.htm
# Preset: 焦糖色调-素材江湖04
# Color profile: E:\lut插件\exportlut.1.24\exportlut.lrplugin\color profiles\Rec709gamma2.4.icc
LUT_3D_SIZE 32
DOMAIN_MIN 0.0 0.0 0.0
DOMAIN_MAX 1.0 1.0 1.0
0.137057 0.153201 0.141238
0.137057 0.153201 0.141238
0.137484 0.153170 0.141238
0.138582 0.153262 0.141207
0.140566 0.153658 0.141115
0.146395 0.154269 0.140902
0.156741 0.155520 0.140719
0.171450 0.157259 0.140291
0.188357 0.159030 0.139773
0.207187 0.161105 0.139315
0.228702 0.163210 0.138399
0.253452 0.165560 0.137392
0.282139 0.168246 0.136202
0.315557 0.170779 0.134493
0.353246 0.173220 0.132357
0.395270 0.175570 0.129549
0.440925 0.177737 0.126253
0.489876 0.180087 0.122103
0.542046 0.183200 0.116640
0.629023 0.192142 0.104311
0.701625 0.207218 0.087312
0.760739 0.226169 0.044068
0.806790 0.246006 0.000000
0.844846 0.265995 0.000000
0.876768 0.285252 0.000000
0.905180 0.304234 0.000000
0.931975 0.323735 0.000000
0.957702 0.344091 0.000000
0.983032 0.365728 0.000000
1.000000 0.388983 0.000000
1.000000 0.414221 0.000000
1.000000 0.441810 0.000000
0.137057 0.153201 0.141238
0.137057 0.153201 0.141238
0.137484 0.153170 0.141238
0.138582 0.153262 0.141207
0.140566 0.153658 0.141115
0.145571 0.154360 0.141146
0.155093 0.155489 0.140749
0.169528 0.157107 0.140383
0.185397 0.158877 0.139895
0.203250 0.160983 0.139467
0.223911 0.163149 0.138613
0.247684 0.165286 0.137697
0.275212 0.167880 0.136385
0.306859 0.170443 0.135103
0.343267 0.172976 0.132876
0.383978 0.175296 0.130373
0.428901 0.177554 0.127352
0.476967 0.179934 0.123293
0.529381 0.183017 0.118441
0.611170 0.190433 0.107576
0.680934 0.202670 0.093812
0.739376 0.219028 0.063294
0.785611 0.236942 0.020508
0.824369 0.255344 0.000000
0.857511 0.273747 0.000000
0.886839 0.292119 0.000000
0.914885 0.311406 0.000000
0.942107 0.331640 0.000000
0.968963 0.353491 0.000000
0.995697 0.377020 0.000000
1.000000 0.402472 0.000000
1.000000 0.430091 0.000000
0.136904 0.153414 0.141207
0.136904 0.153414 0.141207
0.137331 0.153384 0.141207
0.138277 0.153689 0.141146
0.140230 0.154086 0.141268
0.144900 0.154818 0.141085
0.153872 0.155825 0.140963
0.166842 0.157626 0.140597
0.182223 0.159487 0.140108
0.199680 0.161349 0.139528
0.219577 0.163516 0.138705
0.242527 0.165743 0.137850
0.268803 0.168215 0.136904
0.299260 0.170962 0.135470
0.334325 0.173678 0.133639
0.373693 0.176028 0.131106
0.417548 0.178592 0.128328
0.465248 0.180972 0.124819
0.519310 0.184176 0.119722
0.597375 0.191073 0.110018
0.666468 0.202121 0.097536
0.724910 0.217319 0.076051
0.772183 0.233829 0.034455
0.811887 0.251408 0.000000
0.845609 0.269078 0.000000
0.875608 0.286900 0.000000
0.904417 0.305638 0.000000
0.932494 0.325872 0.000000
0.960357 0.347753 0.000000
0.987976 0.371374 0.000000
1.000000 0.396796 0.000000
1.000000 0.424170 0.000000
0.136599 0.154238 0.141543
0.136660 0.154238 0.141329
0.137514 0.154147 0.141329
0.138857 0.154421 0.141268
0.141207 0.154788 0.141390
0.143984 0.155489 0.141451
0.151888 0.156832 0.141054
0.164218 0.158511 0.140749
0.178744 0.160525 0.140261
0.195621 0.162478 0.139681
0.214603 0.164523 0.139162
0.236362 0.166903 0.138155
0.261448 0.169436 0.137270
0.290227 0.172274 0.135988
0.323217 0.175021 0.134371
0.360327 0.177707 0.132387
0.401953 0.180423 0.129702
0.447303 0.183017 0.126741
0.502281 0.186496 0.121920
0.572534 0.192599 0.114168
0.637232 0.201266 0.104158
0.694820 0.213352 0.090944
0.744503 0.228122 0.061219
0.788113 0.244938 0.019959
0.826535 0.262974 0.000000
0.861173 0.282078 0.000000
0.893553 0.302159 0.000000
0.924590 0.323613 0.000000
0.954376 0.346288 0.000000
0.983032 0.370153 0.000000
1.000000 0.395026 0.000000
1.000000 0.421180 0.000000
0.135714 0.155886 0.141756
0.135561 0.156100 0.141726
0.136446 0.156008 0.141512
0.138796 0.156008 0.141482
0.142214 0.157046 0.141238
0.147860 0.158206 0.141176
0.152651 0.158663 0.141207
0.159457 0.159640 0.141146
0.173159 0.161593 0.140688
0.188693 0.163638 0.140169
0.206485 0.165988 0.139437
0.226780 0.168399 0.138735
0.250309 0.170932 0.138003
0.277592 0.173892 0.136812
0.308843 0.177005 0.135409
0.344884 0.180056 0.133791
0.385626 0.183413 0.131563
0.430854 0.186435 0.128573
0.488716 0.190738 0.123842
0.555322 0.196689 0.117006
0.618341 0.204746 0.108431
0.675502 0.215427 0.096895
0.726589 0.229129 0.077333
0.772671 0.245243 0.035828
0.813718 0.263218 0.000000
0.850645 0.282170 0.000000
0.884581 0.302129 0.000000
0.916564 0.323278 0.000000
0.946929 0.345617 0.000000
0.976074 0.368994 0.000000
1.000000 0.393469 0.000000
1.000000 0.419074 0.000000
0.133791 0.159152 0.142428
0.133791 0.159152 0.142428
0.134676 0.159274 0.141695
0.137697 0.158999 0.141482
0.142428 0.159701 0.141482
0.150759 0.162997 0.140993
0.163088 0.165347 0.140566
0.167849 0.164797 0.140749
0.172122 0.164309 0.140963
0.182986 0.165652 0.140658
0.199863 0.168002 0.139986
0.219455 0.170626 0.139528
0.241703 0.173526 0.138827
0.267826 0.176761 0.137728
0.298039 0.180026 0.136629
0.332921 0.183719 0.135103
0.372961 0.187442 0.132998
0.417762 0.191287 0.130312
0.480049 0.196933 0.125826
0.544671 0.203494 0.119448
0.607324 0.211643 0.111055
0.665309 0.222232 0.100008
0.828763 0.286046 0.000000
0.866880 0.306554 0.000000
0.899351 0.326452 0.000000
0.928496 0.346014 0.000000
0.955047 0.365545 0.000000
0.979889 0.385168 0.000000
1.000000 0.405646 0.000000
1.000000 0.427039 0.000000
1.000000 0.449531 0.000000
1.000000 0.473091 0.000000
0.128054 0.166751 0.144167
0.127962 0.166934 0.143923
0.128878 0.167269 0.142733
0.133120 0.167147 0.141329
0.142031 0.165652 0.141421
0.152255 0.169833 0.141176
0.171298 0.177340 0.140017
0.192386 0.180911 0.139681
0.196017 0.177188 0.140261
0.198428 0.174716 0.140658
0.199802 0.172824 0.140963
0.220157 0.175906 0.140383
0.243595 0.179446 0.139712
0.270726 0.183047 0.138918
0.301732 0.186984 0.137606
0.337224 0.191104 0.136355
0.377752 0.195438 0.134249
0.430945 0.201358 0.131106
0.500877 0.209598 0.125612
0.572625 0.219059 0.117769
0.643854 0.231632 0.105928
0.711299 0.249149 0.088777
0.772030 0.270573 0.040803
0.824125 0.294041 0.000000
0.867369 0.317113 0.000000
0.902922 0.338567 0.000000
0.933410 0.358892 0.000000
0.960510 0.378607 0.000000
0.986023 0.398810 0.000000
1.000000 0.419379 0.000000
1.000000 0.441169 0.000000
1.000000 0.464210 0.000000
0.121889 0.174411 0.145815
0.121950 0.174411 0.145602
0.122835 0.174899 0.144167
0.124819 0.175143 0.141421
0.136355 0.173953 0.141207
0.148592 0.171878 0.141573
0.163882 0.180179 0.141054
0.189700 0.190860 0.140261
0.220096 0.197543 0.139895
0.222843 0.191257 0.140688
0.223911 0.186587 0.141146
0.223331 0.182803 0.141451
0.229313 0.181888 0.141421
0.253910 0.185641 0.140780
0.282078 0.189944 0.139925
0.314488 0.194339 0.138796
0.352422 0.199313 0.137240
0.408392 0.207187 0.134340
0.470497 0.215183 0.130251
0.536584 0.224155 0.123781
0.605493 0.235508 0.114504
0.673213 0.250675 0.100740
0.737026 0.270237 0.076631
0.793088 0.292363 0.021576
0.840330 0.314763 0.000000
0.878996 0.335729 0.000000
0.912108 0.355840 0.000000
0.941802 0.375372 0.000000
0.969512 0.395575 0.000000
0.995422 0.416205 0.000000
1.000000 0.437873 0.000000
1.000000 0.460700 0.000000
0.114015 0.182956 0.147829
0.114717 0.182925 0.147402
0.115724 0.183200 0.146487
0.118441 0.183719 0.143923
0.126711 0.183078 0.141482
0.142672 0.180789 0.141848
0.156985 0.181613 0.142061
0.178408 0.193179 0.141695
0.212497 0.207950 0.141451
0.257511 0.221134 0.141451
0.259098 0.211460 0.142184
0.257939 0.203738 0.142885
0.254673 0.197238 0.142885
0.249760 0.191562 0.142489
0.264683 0.192844 0.142000
0.294347 0.197787 0.141268
0.336584 0.204929 0.140078
0.386236 0.212833 0.137758
0.442298 0.220981 0.134249
0.504570 0.230137 0.128847
0.571008 0.241062 0.120943
0.638819 0.255131 0.109743
0.704524 0.272984 0.093355
0.763760 0.294041 0.052705
0.814664 0.315801 0.000000
0.856596 0.336553 0.000000
0.892393 0.356420 0.000000
0.924529 0.376104 0.000000
0.954284 0.396277 0.000000
0.981903 0.416876 0.000000
1.000000 0.438239 0.000000
1.000000 0.460731 0.000000
0.104311 0.192325 0.150210
0.105074 0.192294 0.149783
0.106508 0.192416 0.148684
0.109682 0.192721 0.146456
0.114992 0.192691 0.141970
0.132662 0.190890 0.142061
0.151034 0.187228 0.142672
0.168093 0.192844 0.142916
0.196170 0.208408 0.143435
0.239902 0.228519 0.143862
0.305486 0.251652 0.142061
0.304326 0.237278 0.143557
0.299931 0.225803 0.144625
0.292821 0.215946 0.144564
0.284337 0.207584 0.144320
0.278843 0.201602 0.143923
0.316503 0.209018 0.142885
0.362127 0.217166 0.141299
0.414923 0.226230 0.138125
0.474159 0.235966 0.133577
0.537652 0.246952 0.127138
0.602808 0.259525 0.117891
0.665705 0.274815 0.105074
0.725154 0.293126 0.086519
0.777340 0.312474 0.039612
0.822568 0.332036 0.000000
0.862028 0.351537 0.000000
0.897856 0.371496 0.000000
0.931365 0.392340 0.000000
0.962676 0.414069 0.000000
0.992218 0.436500 0.000000
1.000000 0.460029 0.000000
0.093080 0.201114 0.152499
0.093935 0.201083 0.152316
0.095308 0.201328 0.151217
0.099672 0.201602 0.149020
0.105959 0.202213 0.145602
0.120516 0.200870 0.142824
0.141512 0.197879 0.143130
0.160678 0.193637 0.143832
0.182406 0.206577 0.144930
0.219852 0.228367 0.145541
0.277989 0.256626 0.144869
0.374853 0.295903 0.139010
0.369482 0.274510 0.142214
0.363317 0.258732 0.144198
0.357061 0.246494 0.145205
0.346380 0.234867 0.145418
0.331853 0.223758 0.145266
0.334539 0.219547 0.144167
0.382330 0.228885 0.142000
0.437171 0.238743 0.138338
0.497810 0.249912 0.133028
0.561639 0.262425 0.125307
0.626276 0.277165 0.114687
0.688411 0.294560 0.099763
0.745296 0.313909 0.072786
0.794766 0.333715 0.020478
0.838193 0.353552 0.000000
0.877134 0.373693 0.000000
0.913390 0.394842 0.000000
0.947234 0.416876 0.000000
0.978882 0.439673 0.000000
1.000000 0.463416 0.000000
0.067445 0.211521 0.155154
0.067018 0.211673 0.154910
0.072755 0.211856 0.154055
0.082124 0.212253 0.152102
0.093294 0.212772 0.148989
0.103151 0.212375 0.144015
0.128450 0.210117 0.143954
0.151827 0.205722 0.144533
0.171908 0.204593 0.145418
0.201877 0.225193 0.147127
0.252873 0.255863 0.146883
0.332403 0.296452 0.143374
0.575799 0.432227 0.106294
0.577173 0.402319 0.118105
0.563622 0.370184 0.127443
0.539788 0.338689 0.134005
0.507927 0.309056 0.138277
0.472175 0.282536 0.140841
0.435309 0.260075 0.142367
0.464546 0.262394 0.139162
0.532525 0.277775 0.131746
0.601312 0.294743 0.121828
0.666926 0.313603 0.107851
0.727535 0.334112 0.089204
0.780087 0.354650 0.043427
0.825345 0.374334 0.000000
0.864042 0.392889 0.000000
0.898985 0.411200 0.000000
0.931365 0.429908 0.000000
0.961944 0.449500 0.000000
0.990723 0.470222 0.000000
1.000000 0.492531 0.000000
0.000000 0.228794 0.159854
0.000000 0.228672 0.159487
0.002045 0.228702 0.158480
0.017517 0.228794 0.156466
0.041718 0.228916 0.153353
0.076020 0.228733 0.148318
0.108858 0.226108 0.145449
0.139895 0.221592 0.145846
0.164797 0.215732 0.146517
0.189364 0.223514 0.147921
0.237552 0.259403 0.148989
0.329381 0.319280 0.144289
0.474830 0.401984 0.126497
0.665309 0.506981 0.090822
0.674922 0.480049 0.101137
0.656825 0.438941 0.112184
0.628138 0.397559 0.122072
0.591943 0.358709 0.128847
0.551232 0.324010 0.134127
0.508598 0.294255 0.137606
0.467262 0.269688 0.139651
0.532372 0.285283 0.132570
0.601038 0.303258 0.121981
0.666926 0.323217 0.107546
0.727474 0.344640 0.087678
0.780697 0.365881 0.038392
0.826658 0.386450 0.000000
0.867247 0.406592 0.000000
0.904662 0.427070 0.000000
0.939635 0.448402 0.000000
0.972107 0.470344 0.000000
1.000000 0.493629 0.000000
0.000000 0.239719 0.162783
0.000000 0.239628 0.162448
0.000000 0.239567 0.161501
0.000000 0.239536 0.159731
0.000000 0.239628 0.156710
0.027008 0.239963 0.152499
0.073915 0.238346 0.146242
0.120241 0.235569 0.146090
0.152560 0.230381 0.146883
0.177462 0.224521 0.147768
0.212863 0.248142 0.149691
0.282444 0.300603 0.148501
0.407324 0.381781 0.134829
0.568719 0.475746 0.107637
0.731716 0.568872 0.115206
0.748104 0.547112 0.116030
0.728756 0.501762 0.109743
0.700923 0.456306 0.112428
0.666865 0.412329 0.117647
0.627436 0.371496 0.123690
0.585534 0.336004 0.129091
0.543328 0.305882 0.132876
0.536950 0.294041 0.131838
0.607416 0.314092 0.120424
0.674372 0.336034 0.104585
0.735592 0.359167 0.079805
0.789059 0.381933 0.022156
0.835874 0.403906 0.000000
0.877958 0.425910 0.000000
0.917144 0.448646 0.000000
0.953429 0.472084 0.000000
0.987243 0.496651 0.000000
0.000000 0.255619 0.166934
0.000000 0.255589 0.166567
0.000000 0.255528 0.165652
0.000000 0.255619 0.163729
0.000000 0.255833 0.160800
0.000000 0.256352 0.156497
0.000000 0.255711 0.148806
0.088197 0.251987 0.146670
0.133394 0.246769 0.147158
0.165957 0.239841 0.147982
0.191318 0.234195 0.148806
0.242832 0.278782 0.150149
0.338872 0.349950 0.143862
0.488716 0.446693 0.119509
0.645716 0.540612 0.100771
0.778134 0.616297 0.163149
0.800443 0.601404 0.163638
0.783688 0.556207 0.136446
0.760616 0.511498 0.119844
0.731563 0.467109 0.112642
0.698207 0.424628 0.112520
0.661433 0.385504 0.116640
0.622736 0.350591 0.121401
0.583703 0.320653 0.125154
0.616388 0.325902 0.117525
0.684657 0.350072 0.099580
0.746975 0.375463 0.060456
0.802426 0.400885 0.000610
0.851713 0.426184 0.000000
0.897002 0.452186 0.000000
0.938994 0.479133 0.000000
0.977478 0.507012 0.000000
0.000000 0.271794 0.170718
0.000000 0.271855 0.170687
0.000000 0.271916 0.169802
0.000000 0.272068 0.167758
0.000000 0.272465 0.164706
0.000000 0.273136 0.160281
0.000000 0.274174 0.153964
0.000000 0.270603 0.146456
0.100954 0.265599 0.146548
0.148135 0.257908 0.147524
0.179965 0.249088 0.148501
0.211917 0.257511 0.149813
0.282292 0.317540 0.148226
0.402625 0.404059 0.134310
0.560937 0.505089 0.103700
0.698909 0.587915 0.119142
0.808377 0.650172 0.207584
0.836667 0.643519 0.215457
0.822995 0.600305 0.178012
0.804807 0.557824 0.148165
0.783322 0.516991 0.125643
0.758114 0.477058 0.110872
0.729732 0.438849 0.104402
0.698695 0.402930 0.104646
0.666438 0.370428 0.107912
0.634791 0.342351 0.111574
0.704097 0.369604 0.089326
0.768399 0.398566 0.027832
0.824918 0.427070 0.000000
0.874907 0.454963 0.000000
0.920439 0.483131 0.000000
0.961761 0.511742 0.000000
0.000000 0.286473 0.174136
0.000000 0.286473 0.173983
0.000000 0.286595 0.173068
0.000000 0.286748 0.171084
0.000000 0.287205 0.168093
0.000000 0.287938 0.163790
0.000000 0.289158 0.157778
0.000000 0.287053 0.146456
0.000000 0.281498 0.145998
0.118502 0.274510 0.146273
0.162722 0.264744 0.147494
0.192416 0.254307 0.148592
0.235904 0.283452 0.149508
0.326696 0.358556 0.143160
0.466194 0.456092 0.121248
0.622675 0.556420 0.097810
0.742702 0.628809 0.155367
0.835447 0.682460 0.256779
0.868681 0.684260 0.277012
0.858366 0.643763 0.232944
0.845060 0.604181 0.193606
0.828794 0.565820 0.160037
0.810086 0.528557 0.130831
0.789029 0.492500 0.107088
0.766049 0.458228 0.091676
0.742336 0.426581 0.082826
0.719753 0.398779 0.080598
0.728054 0.392493 0.059419
0.793973 0.425422 0.000000
0.851164 0.457069 0.000000
0.902312 0.488197 0.000000
0.948058 0.519493 0.000000
0.000000 0.303105 0.177707
0.000000 0.303319 0.177462
0.000000 0.321477 0.180331
0.000000 0.321660 0.178103
0.000000 0.322057 0.174594
0.000000 0.322606 0.169314
0.000000 0.323400 0.161959
0.000000 0.322545 0.150668
0.000000 0.315526 0.142580
0.000000 0.306798 0.143130
0.134096 0.294896 0.144594
0.179843 0.281193 0.146273
0.208865 0.266789 0.147524
0.283268 0.335424 0.144625
0.414435 0.438819 0.126558
0.575433 0.547997 0.105226
0.713985 0.637507 0.150912
0.807950 0.694392 0.249363
0.878386 0.736843 0.357977
0.909667 0.742550 0.386206
0.902434 0.703914 0.330999
0.893278 0.665949 0.279149
0.881346 0.628565 0.232334
0.866972 0.591455 0.188083
0.850034 0.554925 0.146609
0.832029 0.520592 0.109468
0.813931 0.489174 0.065309
0.797726 0.461921 0.016846
0.786343 0.440589 0.000000
0.824308 0.457008 0.000000
0.881285 0.491310 0.000000
0.931853 0.525231 0.000000
0.000000 0.325292 0.182315
0.000000 0.327153 0.182254
0.000000 0.329107 0.181704
0.000000 0.331060 0.179965
0.000000 0.332677 0.176791
0.000000 0.333623 0.171817
0.000000 0.334447 0.164828
0.000000 0.335363 0.155520
0.000000 0.329259 0.140536
0.000000 0.320378 0.140932
0.073548 0.309941 0.141726
0.153841 0.296178 0.143740
0.192508 0.281254 0.145693
0.226169 0.283299 0.146731
0.319402 0.369696 0.139040
0.463813 0.478920 0.114565
0.618982 0.583093 0.108492
0.744350 0.664363 0.181125
0.829160 0.717067 0.286778
0.892058 0.756802 0.396368
0.926085 0.770077 0.439796
0.922271 0.736477 0.388373
0.916625 0.702052 0.336004
0.908507 0.667536 0.286412
0.898222 0.632746 0.237217
0.886168 0.598596 0.190005
0.873320 0.566583 0.145968
0.861082 0.537743 0.103517
0.852079 0.514092 0.029114
0.848234 0.497017 0.000000
0.852079 0.487709 0.000000
0.908507 0.524498 0.000000
0.000000 0.338109 0.184329
0.000000 0.340063 0.184390
0.000000 0.342260 0.183871
0.000000 0.344396 0.182071
0.000000 0.346014 0.179110
0.000000 0.347051 0.174197
0.000000 0.347692 0.167208
0.000000 0.348425 0.158358
0.000000 0.345129 0.143832
0.000000 0.336370 0.137789
0.000000 0.326055 0.138613
0.113558 0.312871 0.140352
0.170504 0.297673 0.142794
0.203616 0.281895 0.144686
0.252171 0.312383 0.143862
0.365148 0.411810 0.128695
0.520195 0.524498 0.099336
0.665553 0.621759 0.127626
0.777279 0.694850 0.222202
0.852018 0.742550 0.332219
0.906584 0.778500 0.440040
0.941955 0.797513 0.494270
0.939788 0.767636 0.446967
0.936553 0.736233 0.395331
0.931304 0.704128 0.343755
0.924529 0.671687 0.292088
0.916808 0.640284 0.241917
0.908965 0.610986 0.194919
0.902739 0.585901 0.151919
0.899870 0.566155 0.109743
0.902251 0.553185 0.036408
0.911467 0.548302 0.000000
0.000000 0.352422 0.186282
0.000000 0.354284 0.186648
0.000000 0.356359 0.185824
0.000000 0.358312 0.184237
0.000000 0.359869 0.181155
0.000000 0.360723 0.176181
0.000000 0.361334 0.169528
0.000000 0.361822 0.160769
0.000000 0.361395 0.148318
0.000000 0.353033 0.133272
0.000000 0.342535 0.134524
0.000000 0.330663 0.135683
0.137881 0.314916 0.138613
0.184756 0.298589 0.141146
0.213535 0.282109 0.143191
0.285344 0.347936 0.137514
0.420356 0.460456 0.110719
0.581018 0.574273 0.088838
0.714229 0.663813 0.168551
0.815122 0.732021 0.282719
0.880491 0.776516 0.401160
0.927977 0.811032 0.508721
0.963500 0.834531 0.569604
0.962768 0.809598 0.530571
0.961608 0.783169 0.486000
0.959869 0.755276 0.437110
0.957794 0.727230 0.386725
0.955871 0.700343 0.337133
0.955047 0.676356 0.291356
0.956329 0.656641 0.250858
0.961181 0.642939 0.217288
0.970642 0.636378 0.193423
0.000000 0.381231 0.190677
0.000000 0.382116 0.190555
0.000000 0.382910 0.189670
0.000000 0.383337 0.187503
0.000000 0.383490 0.183993
0.000000 0.383490 0.178805
0.000000 0.383307 0.171695
0.000000 0.383307 0.162356
0.000000 0.383673 0.150332
0.000000 0.377111 0.130129
0.000000 0.366400 0.126772
0.000000 0.354101 0.128511
0.037446 0.338720 0.131350
0.156374 0.320958 0.135073
0.197940 0.302678 0.138216
0.228702 0.294316 0.140169
0.334447 0.398535 0.122835
0.492226 0.522179 0.068391
0.645472 0.628595 0.109682
0.761929 0.706630 0.226322
0.848020 0.766049 0.346654
0.902373 0.804257 0.460548
0.942931 0.833951 0.554620
0.977630 0.858579 0.615656
0.976654 0.834989 0.577966
0.975830 0.810788 0.536828
0.975402 0.786130 0.492500
0.975372 0.761715 0.447272
0.976532 0.738613 0.401587
0.979095 0.718318 0.359442
0.984009 0.702266 0.322606
0.992065 0.691951 0.294041
0.000000 0.398779 0.192508
0.000000 0.399603 0.192386
0.000000 0.400305 0.191379
0.000000 0.400824 0.189212
0.000000 0.400977 0.185580
0.000000 0.400824 0.180514
0.000000 0.400549 0.173190
0.000000 0.400458 0.163668
0.000000 0.400580 0.151492
0.000000 0.397223 0.132815
0.000000 0.386877 0.117617
0.000000 0.374426 0.120119
0.000000 0.360418 0.122560
0.104402 0.342199 0.127260
0.173312 0.323156 0.131624
0.209537 0.303899 0.135164
0.259098 0.331273 0.132082
0.392126 0.453590 0.095125
0.560418 0.578912 0.000000
0.699031 0.673915 0.153902
0.801755 0.743618 0.286137
0.876249 0.796689 0.410224
0.922606 0.830686 0.517021
0.958495 0.857572 0.601221
0.988617 0.876890 0.649226
0.987823 0.854856 0.613642
0.987732 0.833188 0.576379
0.988220 0.811429 0.536919
0.989593 0.790494 0.497475
0.992584 0.770962 0.457801
0.997742 0.754421 0.420874
1.000000 0.742214 0.389502
0.000000 0.428931 0.195865
0.000000 0.430640 0.195773
0.000000 0.431373 0.194766
0.000000 0.431006 0.192264
0.000000 0.429816 0.188174
0.000000 0.428107 0.182254
0.000000 0.426062 0.174655
0.000000 0.424048 0.164492
0.000000 0.422278 0.151369
0.000000 0.420539 0.134157
0.000000 0.409064 0.106050
0.000000 0.395483 0.108370
0.000000 0.380713 0.112062
0.000000 0.362890 0.117617
0.133181 0.342596 0.123568
0.187625 0.322118 0.128908
0.218570 0.301823 0.133028
0.295140 0.371130 0.119478
0.447517 0.502007 0.015106
0.611139 0.620050 0.000000
0.736385 0.705287 0.192050
0.828305 0.768338 0.328649
0.894011 0.816159 0.449378
0.934966 0.846311 0.546715
0.967041 0.869902 0.622278
1.000000 0.896025 0.684840
0.999756 0.875975 0.652277
0.999878 0.855650 0.616632
1.000000 0.835843 0.579828
1.000000 0.817441 0.544457
1.000000 0.800992 0.510033
1.000000 0.787716 0.478706
0.000000 0.445716 0.196658
0.000000 0.447456 0.196689
0.000000 0.448493 0.195682
0.000000 0.448646 0.193118
0.000000 0.448157 0.189120
0.000000 0.447303 0.183230
0.000000 0.446479 0.175357
0.000000 0.445533 0.164645
0.000000 0.444800 0.150790
0.000000 0.444190 0.132082
0.000000 0.436561 0.101595
0.000000 0.424018 0.084504
0.000000 0.409064 0.092256
0.000000 0.392523 0.098177
0.000000 0.371130 0.108217
0.153231 0.349065 0.116365
0.201602 0.326879 0.123018
0.229313 0.305333 0.127993
0.351324 0.430793 0.079744
0.524163 0.567864 0.000000
0.673304 0.672419 0.082033
0.782742 0.746487 0.256291
0.861021 0.801144 0.394720
0.917266 0.843381 0.508324
0.953063 0.870298 0.595422
0.981537 0.891661 0.664393
1.000000 0.915099 0.720729
1.000000 0.900084 0.697932
1.000000 0.882353 0.666651
1.000000 0.865263 0.634272
1.000000 0.849821 0.603265
1.000000 0.836759 0.574456
0.000000 0.476448 0.199252
0.000000 0.477455 0.199100
0.000000 0.477852 0.197818
0.000000 0.477607 0.195163
0.000000 0.476814 0.190768
0.000000 0.475502 0.184421
0.000000 0.474037 0.175631
0.000000 0.472541 0.164157
0.000000 0.471107 0.149081
0.000000 0.469734 0.128603
0.000000 0.465217 0.096529
0.000000 0.453193 0.008911
0.000000 0.438514 0.029175
0.000000 0.421851 0.050568
0.000000 0.401862 0.079744
0.054475 0.378668 0.096681
0.172061 0.355169 0.107515
0.215427 0.331762 0.115969
0.266484 0.353796 0.109163
0.421241 0.498360 0.000000
0.594720 0.627405 0.000000
0.725368 0.716640 0.151369
0.820066 0.780453 0.316930
0.886931 0.827909 0.451026
0.935882 0.865232 0.552728
0.967224 0.888853 0.630915
0.992554 0.907744 0.693233
1.000000 0.928252 0.744015
1.000000 0.917021 0.728328
1.000000 0.901152 0.700282
1.000000 0.886290 0.671717
1.000000 0.873167 0.644221
0.000000 0.506950 0.201480
0.000000 0.507927 0.201144
0.000000 0.508568 0.200015
0.000000 0.508659 0.197116
0.000000 0.508751 0.192538
0.000000 0.509087 0.185672
0.000000 0.510674 0.176211
0.000000 0.512688 0.162936
0.000000 0.515282 0.144228
0.000000 0.518181 0.116548
0.000000 0.521141 0.039521
0.000000 0.514672 0.000000
0.000000 0.504723 0.000000
0.000000 0.491554 0.000000
0.000000 0.475196 0.000000
0.000000 0.451545 0.000000
0.077729 0.425605 0.000000
0.197086 0.398749 0.026886
0.246098 0.372381 0.071351
0.356817 0.462989 0.000000
0.548363 0.615015 0.000000
0.696407 0.716701 0.000000
0.801755 0.785428 0.277440
0.874601 0.834592 0.436255
0.926238 0.872496 0.551659
0.965850 0.903288 0.635218
0.990906 0.922362 0.700984
1.000000 0.937163 0.752682
1.000000 0.952239 0.794430
1.000000 0.943786 0.783841
1.000000 0.930053 0.758694
1.000000 0.917693 0.733852
0.000000 0.586236 0.213931
0.000000 0.586236 0.213535
0.000000 0.585657 0.211643
0.000000 0.584649 0.207828
0.000000 0.583246 0.201480
0.000000 0.581720 0.192416
0.000000 0.580255 0.179751
0.000000 0.578943 0.162264
0.000000 0.577905 0.137331
0.000000 0.576959 0.097597
0.000000 0.575921 0.000000
0.000000 0.570092 0.000000
0.000000 0.559380 0.000000
0.000000 0.545800 0.000000
