20 Preset/Retro Movie Style/【3】LUT video cho PR-AE-FCPX/Lut Tone (2).cube
# Created by Adobe Lightroom plugin Export LUT (1.24.0)
# www.johnrellis.com/lightroom/exportlut.htm
# Preset: 焦糖色调-素材江湖02
# Color profile: E:\lut插件\exportlut.1.24\exportlut.lrplugin\color profiles\Rec709gamma2.4.icc
LUT_3D_SIZE 32
DOMAIN_MIN 0.0 0.0 0.0
DOMAIN_MAX 1.0 1.0 1.0
0.123720 0.139620 0.129580
0.123720 0.139620 0.129580
0.123720 0.139620 0.129580
0.123720 0.139620 0.129580
0.124178 0.139590 0.129580
0.126314 0.139590 0.129793
0.129152 0.139773 0.129976
0.133455 0.139986 0.130098
0.140139 0.139956 0.129976
0.149050 0.140047 0.130007
0.162264 0.139712 0.129732
0.180728 0.138979 0.129580
0.204562 0.137972 0.128908
0.231907 0.136782 0.127962
0.262455 0.135286 0.126925
0.295232 0.133059 0.125338
0.330297 0.130282 0.123812
0.367834 0.126040 0.121553
0.408270 0.119509 0.118654
0.451240 0.110964 0.114931
0.495583 0.099428 0.110201
0.539879 0.081636 0.104799
0.594018 0.033936 0.095827
0.660914 0.000000 0.073671
0.716609 0.000000 0.031373
0.765377 0.000000 0.000000
0.810117 0.017304 0.000000
0.852537 0.087007 0.000000
0.894377 0.122652 0.000000
0.937438 0.158114 0.000000
0.982147 0.195804 0.000000
1.000000 0.236149 0.000000
0.123720 0.139620 0.129580
0.123720 0.139620 0.129580
0.123720 0.139620 0.129580
0.123720 0.139620 0.129580
0.124178 0.139590 0.129580
0.125856 0.139651 0.129793
0.128695 0.139803 0.129976
0.133181 0.139803 0.130129
0.138918 0.140108 0.129976
0.147311 0.140017 0.130068
0.159396 0.139864 0.129793
0.176638 0.139193 0.129671
0.198825 0.138155 0.129091
0.225345 0.137118 0.128206
0.254582 0.136049 0.127230
0.286717 0.134188 0.125704
0.321111 0.131716 0.124300
0.358007 0.127962 0.121859
0.397803 0.122194 0.119417
0.440070 0.114015 0.115969
0.483345 0.103975 0.111574
0.526879 0.090211 0.106233
0.579431 0.051026 0.098177
0.642847 0.000000 0.082643
0.696681 0.000000 0.047944
0.743954 0.000000 0.006592
0.788327 0.000000 0.000000
0.831144 0.046784 0.000000
0.873655 0.103578 0.000000
0.917388 0.139834 0.000000
0.963043 0.177859 0.000000
1.000000 0.218692 0.000000
0.123720 0.139620 0.129580
0.123720 0.139620 0.129580
0.123720 0.139620 0.129580
0.123720 0.139620 0.129580
0.124178 0.139590 0.129580
0.126314 0.139590 0.129793
0.128695 0.139803 0.129976
0.132753 0.139834 0.130129
0.138643 0.139895 0.130007
0.146700 0.139864 0.130098
0.158145 0.139803 0.129824
0.174380 0.139315 0.129702
0.195315 0.138796 0.129122
0.220066 0.138308 0.128237
0.248417 0.137423 0.127352
0.279728 0.135927 0.125856
0.313420 0.133883 0.124239
0.350256 0.130282 0.122194
0.389502 0.125551 0.119509
0.431495 0.118349 0.116152
0.475013 0.108949 0.111879
0.518486 0.097047 0.106966
0.572198 0.068727 0.099092
0.633509 0.018860 0.085542
0.685847 0.000000 0.053620
0.731991 0.000000 0.016449
0.775998 0.000000 0.000000
0.818936 0.044251 0.000000
0.861936 0.099641 0.000000
0.905974 0.134218 0.000000
0.951904 0.171298 0.000000
0.999329 0.211185 0.000000
0.123720 0.139620 0.129580
0.123720 0.139620 0.129580
0.123720 0.139620 0.129580
0.123720 0.139620 0.129580
0.124605 0.139528 0.129824
0.126314 0.139590 0.129793
0.129152 0.139773 0.129976
0.133181 0.139803 0.130129
0.138643 0.139895 0.130007
0.146304 0.139925 0.130098
0.157443 0.139895 0.129824
0.171756 0.140139 0.129671
0.191165 0.140200 0.129061
0.214817 0.140078 0.128176
0.241794 0.139559 0.127352
0.271489 0.138613 0.125948
0.303807 0.137087 0.124422
0.338506 0.134798 0.122469
0.376257 0.130892 0.120027
0.416754 0.125093 0.116945
0.458961 0.117739 0.112978
0.502007 0.108186 0.108400
0.557092 0.092439 0.100710
0.615991 0.057893 0.089143
0.669215 0.024598 0.062165
0.717708 0.012818 0.023682
0.764279 0.028809 0.000000
0.809903 0.071382 0.000000
0.854887 0.107240 0.000000
0.899687 0.139437 0.000000
0.945129 0.173739 0.000000
0.991058 0.210086 0.000000
0.123934 0.139834 0.129793
0.123934 0.139834 0.129793
0.123934 0.139834 0.129793
0.123934 0.139834 0.129793
0.124269 0.140017 0.129763
0.126436 0.140047 0.129732
0.128817 0.140261 0.129915
0.132448 0.140322 0.130068
0.137362 0.140719 0.129915
0.144350 0.140841 0.130007
0.153811 0.141268 0.129702
0.167269 0.141726 0.129549
0.185000 0.141939 0.129000
0.207034 0.142306 0.128145
0.232822 0.142550 0.127291
0.262181 0.142336 0.125856
0.294408 0.141543 0.124331
0.329229 0.139834 0.122408
0.366827 0.136782 0.119997
0.407141 0.132387 0.116884
0.449165 0.126314 0.113008
0.492103 0.118837 0.108492
0.549950 0.106111 0.100404
0.607111 0.092622 0.089174
0.660182 0.075380 0.062898
0.709133 0.066835 0.024323
0.756069 0.078981 0.000000
0.801755 0.097780 0.000000
0.846586 0.120699 0.000000
0.891081 0.147982 0.000000
0.936278 0.178317 0.000000
0.981872 0.212558 0.000000
0.123384 0.141238 0.129610
0.123384 0.141238 0.129610
0.123384 0.141238 0.129610
0.123232 0.141482 0.129580
0.125154 0.141299 0.129549
0.126711 0.140932 0.129580
0.128634 0.141176 0.129763
0.131655 0.141543 0.129915
0.136629 0.141939 0.129732
0.142733 0.142367 0.129793
0.151797 0.143069 0.129732
0.164553 0.143648 0.129335
0.181582 0.144472 0.128695
0.202762 0.145510 0.127779
0.228122 0.146181 0.126894
0.257115 0.146456 0.125460
0.289006 0.146487 0.123873
0.324041 0.145480 0.121859
0.361669 0.143771 0.119265
0.402075 0.140444 0.116060
0.444129 0.135988 0.112032
0.491920 0.129274 0.106752
0.638788 0.115572 0.064912
0.702907 0.116976 0.013825
0.758297 0.127016 0.000000
0.807645 0.143648 0.000000
0.852171 0.163546 0.000000
0.894011 0.185519 0.000000
0.934691 0.210513 0.000000
0.975158 0.237522 0.000000
1.000000 0.266514 0.000000
1.000000 0.296757 0.000000
0.121553 0.144289 0.129427
0.122042 0.144259 0.129427
0.122530 0.144198 0.129427
0.123812 0.144320 0.129366
0.126162 0.144106 0.129366
0.128328 0.144106 0.129335
0.130434 0.143465 0.129366
0.135348 0.144076 0.129183
0.138521 0.144381 0.129580
0.145022 0.145205 0.129580
0.155673 0.146334 0.129122
0.170260 0.147646 0.128511
0.189212 0.149264 0.127901
0.212345 0.150759 0.126802
0.238651 0.152132 0.125399
0.268101 0.153323 0.123903
0.300694 0.153475 0.122103
0.336034 0.153292 0.119753
0.374945 0.151980 0.116762
0.417548 0.149538 0.112886
0.463722 0.145937 0.108003
0.530938 0.140902 0.097932
0.602716 0.136599 0.078889
0.669825 0.137209 0.030121
0.729641 0.144839 0.000000
0.782162 0.158083 0.000000
0.828519 0.174533 0.000000
0.870756 0.192752 0.000000
0.911620 0.213931 0.000000
0.951781 0.237186 0.000000
0.992004 0.263493 0.000000
1.000000 0.291783 0.000000
0.120638 0.147585 0.129671
0.120638 0.147585 0.129671
0.122042 0.147463 0.129915
0.123415 0.147555 0.129610
0.126162 0.147555 0.129335
0.129305 0.147463 0.129030
0.132753 0.147372 0.128725
0.135378 0.146456 0.128817
0.141543 0.147524 0.128756
0.146975 0.147982 0.128817
0.152163 0.148440 0.128878
0.165316 0.150393 0.128450
0.182498 0.152346 0.127596
0.203433 0.154726 0.126436
0.228183 0.156832 0.125307
0.256168 0.158633 0.123842
0.287175 0.160067 0.121736
0.321386 0.160830 0.119417
0.359197 0.160952 0.116457
0.400763 0.160067 0.112612
0.454231 0.158663 0.106569
0.519707 0.157259 0.096162
0.586358 0.156283 0.077180
0.650660 0.158328 0.029847
0.709041 0.165255 0.000000
0.760922 0.176089 0.000000
0.807584 0.189548 0.000000
0.850614 0.205020 0.000000
0.892027 0.223911 0.000000
0.932921 0.244755 0.000000
0.973938 0.268894 0.000000
1.000000 0.295506 0.000000
0.118898 0.152285 0.129946
0.118898 0.152285 0.129946
0.120333 0.152163 0.130190
0.122194 0.152224 0.129885
0.125307 0.152377 0.129549
0.129488 0.152621 0.129183
0.133822 0.152438 0.128878
0.138369 0.152193 0.128573
0.142367 0.150790 0.128450
0.152316 0.152987 0.127565
0.160769 0.154025 0.127169
0.167636 0.154543 0.127413
0.177493 0.155642 0.127169
0.197208 0.158633 0.125948
0.220645 0.161440 0.124758
0.247135 0.164096 0.123262
0.277012 0.166567 0.121065
0.310155 0.168368 0.118685
0.346960 0.169650 0.115633
0.392065 0.170993 0.111025
0.449439 0.172457 0.103792
0.510369 0.173281 0.093416
0.573388 0.174838 0.070588
0.635370 0.178531 0.024720
0.692500 0.185672 0.000000
0.743648 0.195529 0.000000
0.790616 0.207675 0.000000
0.834318 0.221958 0.000000
0.876463 0.238743 0.000000
0.917754 0.258122 0.000000
0.959380 0.280369 0.000000
1.000000 0.305180 0.000000
0.115358 0.159213 0.129793
0.116091 0.158968 0.129824
0.116884 0.159121 0.130068
0.119753 0.159091 0.130007
0.123415 0.159182 0.129671
0.127901 0.159792 0.128969
0.134707 0.160159 0.128511
0.140566 0.159640 0.128206
0.147250 0.158999 0.127932
0.152285 0.157137 0.127871
0.166567 0.160311 0.126375
0.179080 0.162905 0.124971
0.187716 0.163027 0.125185
0.196231 0.163485 0.125063
0.212039 0.165469 0.124331
0.237827 0.169100 0.122683
0.267521 0.172671 0.120577
0.300420 0.175753 0.117983
0.341375 0.179507 0.114046
0.391180 0.183291 0.108186
0.444251 0.186191 0.100832
0.499733 0.188876 0.090150
0.556725 0.191745 0.065370
0.613092 0.195987 0.024475
0.666377 0.202060 0.000000
0.715694 0.210025 0.000000
0.762600 0.220615 0.000000
0.807828 0.233494 0.000000
0.852079 0.249149 0.000000
0.895781 0.267918 0.000000
0.939971 0.289769 0.000000
0.984070 0.314641 0.000000
0.109773 0.168032 0.129519
0.110323 0.168002 0.129519
0.111513 0.168276 0.129702
0.115389 0.168368 0.129885
0.119234 0.168978 0.129427
0.125032 0.169802 0.128664
0.133913 0.170871 0.127718
0.143526 0.171481 0.126864
0.151675 0.170901 0.126802
0.161349 0.170108 0.126162
0.168246 0.167269 0.126284
0.187015 0.171664 0.124239
0.202914 0.174350 0.122255
0.215183 0.175418 0.121248
0.224826 0.175265 0.121401
0.233585 0.174990 0.121614
0.259770 0.179019 0.119539
0.297032 0.184726 0.115999
0.338415 0.189914 0.111482
0.384131 0.194766 0.105898
0.433478 0.199222 0.098024
0.485725 0.203281 0.087648
0.540490 0.207736 0.058320
0.595666 0.213107 0.017945
0.648798 0.220005 0.000000
0.698116 0.228367 0.000000
0.745449 0.238682 0.000000
0.791562 0.251377 0.000000
0.836851 0.266545 0.000000
0.881621 0.284581 0.000000
0.926757 0.305791 0.000000
0.971923 0.329808 0.000000
0.098665 0.182132 0.128817
0.099092 0.182284 0.128786
0.101106 0.182498 0.128969
0.105806 0.182712 0.129335
0.111269 0.183688 0.128542
0.119417 0.184939 0.127596
0.130068 0.186862 0.126131
0.144320 0.189334 0.124422
0.157656 0.189303 0.123812
0.170443 0.188418 0.123384
0.183322 0.187564 0.122927
0.192294 0.182986 0.123140
0.243748 0.203250 0.115419
0.263706 0.204807 0.112856
0.285679 0.207370 0.110170
0.306584 0.209689 0.107393
0.323735 0.210330 0.105989
0.337072 0.209293 0.106111
0.384680 0.217166 0.098054
0.436561 0.224643 0.087068
0.490455 0.232212 0.057221
0.545129 0.240177 0.015839
0.599756 0.248814 0.000000
0.652430 0.258427 0.000000
0.701320 0.268833 0.000000
0.747463 0.280125 0.000000
0.790524 0.292149 0.000000
0.831601 0.304997 0.000000
0.871733 0.319249 0.000000
0.912444 0.336034 0.000000
0.953674 0.355291 0.000000
0.995666 0.377722 0.000000
0.021363 0.212528 0.125582
0.023041 0.212497 0.125826
0.034668 0.212345 0.126101
0.058473 0.212284 0.126528
0.086061 0.212894 0.125948
0.102083 0.214023 0.124361
0.119692 0.216129 0.122316
0.140566 0.219211 0.119509
0.165042 0.222782 0.116182
0.184482 0.221683 0.115877
0.204776 0.221347 0.114870
0.229099 0.224094 0.112764
0.250309 0.221469 0.112184
0.293797 0.232731 0.104158
0.324834 0.237583 0.097597
0.348638 0.238682 0.092775
0.365270 0.237247 0.090913
0.379980 0.235782 0.088777
0.390631 0.232822 0.089570
0.412512 0.233036 0.086915
0.462226 0.240879 0.060151
0.514061 0.249119 0.021942
0.566674 0.258061 0.000000
0.618738 0.268040 0.000000
0.668818 0.278538 0.000000
0.716060 0.289799 0.000000
0.761349 0.302220 0.000000
0.805112 0.315831 0.000000
0.848142 0.330724 0.000000
0.891234 0.348241 0.000000
0.934752 0.367926 0.000000
0.978759 0.390326 0.000000
0.000000 0.236210 0.122194
0.000000 0.235843 0.122286
0.000000 0.235355 0.122927
0.000000 0.235386 0.123354
0.006531 0.235721 0.123323
0.055573 0.237064 0.121279
0.097688 0.240818 0.118441
0.126162 0.246616 0.114229
0.159030 0.254185 0.108217
0.191928 0.260136 0.103426
0.221317 0.263005 0.100771
0.253361 0.266728 0.096986
0.287358 0.270603 0.091829
0.310124 0.262394 0.093690
0.356512 0.271336 0.075166
0.384405 0.271946 0.055848
0.405676 0.269810 0.043977
0.417914 0.264622 0.043854
0.429664 0.260716 0.042573
0.441169 0.257572 0.041047
0.447517 0.251957 0.050050
0.486732 0.257664 0.024353
0.538689 0.267338 0.000000
0.591424 0.278172 0.000000
0.642237 0.289769 0.000000
0.690730 0.302007 0.000000
0.737606 0.314885 0.000000
0.783230 0.329076 0.000000
0.828031 0.344823 0.000000
0.872923 0.362737 0.000000
0.918273 0.382940 0.000000
0.964324 0.406012 0.000000
0.000000 0.277592 0.115358
0.000000 0.277470 0.115389
0.000000 0.277134 0.115755
0.000000 0.276982 0.116518
0.000000 0.277348 0.117556
0.000000 0.279301 0.114534
0.000000 0.282811 0.110170
0.090394 0.288426 0.103761
0.142153 0.296483 0.094545
0.191653 0.307500 0.075196
0.232334 0.311803 0.059510
0.270878 0.314916 0.046998
0.310338 0.317906 0.031373
0.347509 0.318761 0.016724
0.370184 0.304997 0.032258
0.415625 0.310430 0.000000
0.439765 0.306859 0.000000
0.458747 0.301884 0.000000
0.468635 0.294102 0.000000
0.477943 0.287694 0.000000
0.488594 0.283268 0.000000
0.498116 0.278752 0.000000
0.512413 0.275792 0.000000
0.564904 0.287419 0.000000
0.616663 0.299687 0.000000
0.666499 0.313085 0.000000
0.715053 0.327489 0.000000
0.763607 0.343542 0.000000
0.812009 0.361578 0.000000
0.860655 0.381964 0.000000
0.910185 0.405280 0.000000
0.960266 0.431037 0.000000
0.000000 0.321263 0.105379
0.000000 0.321447 0.105562
0.000000 0.321569 0.106020
0.000000 0.322271 0.107362
0.000000 0.323247 0.109346
0.000000 0.326207 0.105684
0.000000 0.331579 0.098512
0.000000 0.339147 0.086915
0.098207 0.349157 0.051759
0.174624 0.361578 0.000610
0.240085 0.373358 0.000000
0.286564 0.373327 0.000000
0.329656 0.372686 0.000000
0.369818 0.370611 0.000000
0.403418 0.364050 0.000000
0.421546 0.343389 0.000000
0.464576 0.345251 0.000000
0.485756 0.338750 0.000000
0.502708 0.331762 0.000000
0.513909 0.323400 0.000000
0.523827 0.316320 0.000000
0.535698 0.311833 0.000000
0.549065 0.309178 0.000000
0.557733 0.303471 0.000000
0.595117 0.310796 0.000000
0.647761 0.326055 0.000000
0.698604 0.342535 0.000000
0.748959 0.360845 0.000000
0.799283 0.380377 0.000000
0.848997 0.401556 0.000000
0.898863 0.424720 0.000000
0.949035 0.450111 0.000000
0.000000 0.363775 0.093324
0.000000 0.363867 0.093202
0.000000 0.364263 0.094301
0.000000 0.365087 0.095949
0.000000 0.366522 0.098817
0.000000 0.369787 0.096834
0.000000 0.375402 0.085908
0.000000 0.383154 0.054261
0.000000 0.393256 0.004486
0.135775 0.405249 0.000000
0.223331 0.419348 0.000000
0.289555 0.426337 0.000000
0.338842 0.424659 0.000000
0.383307 0.421729 0.000000
0.423529 0.417243 0.000000
0.454536 0.406317 0.000000
0.471809 0.382727 0.000000
0.513939 0.383001 0.000000
0.533684 0.374670 0.000000
0.549493 0.365972 0.000000
0.562249 0.357671 0.000000
0.572900 0.350225 0.000000
0.585138 0.345312 0.000000
0.599481 0.342992 0.000000
0.611444 0.338994 0.000000
0.628107 0.337804 0.000000
0.681666 0.356298 0.000000
0.734585 0.376715 0.000000
0.786831 0.398871 0.000000
0.838743 0.422095 0.000000
0.890806 0.446906 0.000000
0.942840 0.473548 0.000000
0.000000 0.413092 0.063996
0.000000 0.413947 0.063661
0.000000 0.467567 0.029053
0.000000 0.468849 0.039796
0.000000 0.470741 0.057404
0.000000 0.473884 0.068177
0.000000 0.479713 0.022919
0.000000 0.487526 0.000000
0.000000 0.497871 0.000000
0.078187 0.510369 0.000000
0.232456 0.524163 0.000000
0.330571 0.538689 0.000000
0.393042 0.535973 0.000000
0.443030 0.529015 0.000000
0.486122 0.520317 0.000000
0.523522 0.510002 0.000000
0.548730 0.490852 0.000000
0.562341 0.460121 0.000000
0.597803 0.453681 0.000000
0.611749 0.438849 0.000000
0.623529 0.425360 0.000000
0.635401 0.414862 0.000000
0.644038 0.404761 0.000000
0.654383 0.397772 0.000000
0.665980 0.393286 0.000000
0.677241 0.388830 0.000000
0.687892 0.383917 0.000000
0.724819 0.395666 0.000000
0.776822 0.417975 0.000000
0.829038 0.442359 0.000000
0.882078 0.468452 0.000000
0.935515 0.495827 0.000000
0.000000 0.479072 0.008423
0.000000 0.484199 0.008118
0.000000 0.490211 0.009247
0.000000 0.496254 0.017853
0.000000 0.501823 0.036683
0.000000 0.505913 0.064668
0.000000 0.511772 0.022583
0.000000 0.518364 0.000000
0.000000 0.527184 0.000000
0.000000 0.537743 0.000000
0.189914 0.549767 0.000000
0.298253 0.562493 0.000000
0.382574 0.571099 0.000000
0.435431 0.564569 0.000000
0.481056 0.556786 0.000000
0.521019 0.547662 0.000000
0.556329 0.537713 0.000000
0.579919 0.518791 0.000000
0.595392 0.490394 0.000000
0.631586 0.485664 0.000000
0.646601 0.471901 0.000000
0.660731 0.460243 0.000000
0.674861 0.451148 0.000000
0.684260 0.441077 0.000000
0.694820 0.433936 0.000000
0.707393 0.429969 0.000000
0.720546 0.427131 0.000000
0.733730 0.423926 0.000000
0.757595 0.429236 0.000000
0.811826 0.455085 0.000000
0.866453 0.483070 0.000000
0.921874 0.512352 0.000000
0.000000 0.516442 0.000000
0.000000 0.521874 0.000000
0.000000 0.528008 0.000000
0.000000 0.534295 0.000000
0.000000 0.539788 0.021729
0.000000 0.544030 0.055940
0.000000 0.549004 0.037873
0.000000 0.554955 0.000000
0.000000 0.562524 0.000000
0.000000 0.571405 0.000000
0.145022 0.581781 0.000000
0.272709 0.592950 0.000000
0.366247 0.604395 0.000000
0.433997 0.606104 0.000000
0.482094 0.598932 0.000000
0.524071 0.590692 0.000000
0.561425 0.581659 0.000000
0.595056 0.572168 0.000000
0.616541 0.552605 0.000000
0.632715 0.526055 0.000000
0.668666 0.521660 0.000000
0.683955 0.508324 0.000000
0.698878 0.497383 0.000000
0.713680 0.488685 0.000000
0.724239 0.479225 0.000000
0.735409 0.472419 0.000000
0.748989 0.469184 0.000000
0.764431 0.468147 0.000000
0.781033 0.467811 0.000000
0.803311 0.473304 0.000000
0.851804 0.497444 0.000000
0.908568 0.528557 0.000000
0.000000 0.556329 0.000000
0.000000 0.561120 0.000000
0.000000 0.566644 0.000000
0.000000 0.572045 0.000000
0.000000 0.576898 0.021637
0.000000 0.580560 0.062989
0.000000 0.584680 0.077241
0.000000 0.590112 0.018280
0.000000 0.597009 0.000000
0.000000 0.605035 0.000000
0.069093 0.614435 0.000000
0.248966 0.624567 0.000000
0.347509 0.635096 0.000000
0.431495 0.645686 0.000000
0.483955 0.641138 0.000000
0.528222 0.634485 0.000000
0.568872 0.627955 0.000000
0.606378 0.621546 0.000000
0.641993 0.615778 0.000000
0.665553 0.599542 0.000000
0.685573 0.577600 0.000000
0.724300 0.576318 0.000000
0.741390 0.564721 0.000000
0.758724 0.555596 0.000000
0.775906 0.548547 0.000000
0.790311 0.541924 0.000000
0.804868 0.537560 0.000000
0.822812 0.537957 0.000000
0.844022 0.541924 0.000000
0.866941 0.547326 0.000000
0.895628 0.559136 0.000000
0.936553 0.581598 0.000000
0.000000 0.625238 0.005737
0.000000 0.627375 0.012268
0.000000 0.629114 0.026612
0.000000 0.631037 0.050843
0.000000 0.632776 0.084962
0.000000 0.634211 0.104860
0.000000 0.636378 0.121187
0.000000 0.641108 0.103120
0.000000 0.646937 0.062470
0.000000 0.654505 0.000000
0.040406 0.663111 0.000000
0.252262 0.672511 0.000000
0.350347 0.681849 0.000000
0.432654 0.691341 0.000000
0.502037 0.697200 0.000000
0.546532 0.690517 0.000000
0.587182 0.683742 0.000000
0.624659 0.676875 0.000000
0.659663 0.670039 0.000000
0.692927 0.663600 0.000000
0.712764 0.645167 0.000000
0.730404 0.622095 0.000000
0.765530 0.617731 0.000000
0.779446 0.603388 0.000000
0.795193 0.592828 0.000000
0.812161 0.585626 0.000000
0.829099 0.581079 0.000000
0.846281 0.579126 0.000000
0.867552 0.582513 0.000000
0.891417 0.588769 0.000000
0.917571 0.597375 0.000000
0.948760 0.612116 0.000000
0.000000 0.663691 0.065705
0.000000 0.665370 0.073915
0.000000 0.667079 0.087495
0.000000 0.668849 0.098634
0.000000 0.670405 0.113161
0.000000 0.671962 0.128969
0.000000 0.673854 0.147677
0.000000 0.677852 0.140627
0.000000 0.683284 0.124666
0.000000 0.690059 0.100374
0.000000 0.697658 0.023529
0.244144 0.706081 0.000000
0.343969 0.714931 0.000000
0.425116 0.723873 0.000000
0.499702 0.733028 0.000000
0.554925 0.733669 0.000000
0.596704 0.728115 0.000000
0.635218 0.722469 0.000000
0.671412 0.716762 0.000000
0.705806 0.711238 0.000000
0.738491 0.706081 0.000000
0.757168 0.687770 0.000000
0.774868 0.666133 0.000000
0.809323 0.661799 0.000000
0.809201 0.634058 0.000000
0.824826 0.623682 0.000000
0.843259 0.617914 0.000000
0.863157 0.615930 0.000000
0.882841 0.616480 0.000000
0.906798 0.622370 0.000000
0.933104 0.630701 0.000000
0.962554 0.642573 0.000000
0.000000 0.717922 0.139498
0.000000 0.720516 0.144167
0.000000 0.721889 0.149203
0.000000 0.722133 0.156008
0.000000 0.721767 0.164218
0.000000 0.720974 0.175143
0.000000 0.720119 0.188510
0.000000 0.720821 0.188998
0.000000 0.723140 0.175662
0.000000 0.726802 0.158114
0.000000 0.731197 0.134768
0.240787 0.736934 0.097963
0.336400 0.743282 0.000000
0.414466 0.749752 0.000000
0.484169 0.756130 0.000000
0.550866 0.762844 0.000000
0.592920 0.757137 0.000000
0.630854 0.750973 0.000000
0.667353 0.745693 0.000000
0.702815 0.741360 0.000000
0.736995 0.737392 0.000000
0.769284 0.733333 0.000000
0.785885 0.714412 0.000000
0.801968 0.692470 0.000000
0.833921 0.686305 0.000000
0.844999 0.670283 0.000000
0.859953 0.659541 0.000000
0.878172 0.653742 0.000000
0.899413 0.652796 0.000000
0.920897 0.654963 0.000000
0.946563 0.662623 0.000000
0.973877 0.671534 0.000000
0.000000 0.745418 0.162997
0.000000 0.747707 0.167453
0.000000 0.749416 0.172885
0.000000 0.750362 0.179965
0.000000 0.750851 0.189395
0.000000 0.751492 0.201297
0.000000 0.752529 0.216739
0.000000 0.754574 0.227451
0.000000 0.758572 0.220066
0.000000 0.763424 0.211063
0.115084 0.768826 0.198215
0.260380 0.774899 0.181430
0.348882 0.781003 0.156893
0.422919 0.787045 0.117281
0.489998 0.792844 0.000000
0.553399 0.798611 0.000000
0.608942 0.801328 0.000000
0.645838 0.795377 0.000000
0.681849 0.790249 0.000000
0.716915 0.785977 0.000000
0.750942 0.782132 0.000000
0.783566 0.778500 0.000000
0.814664 0.774563 0.000000
0.829648 0.755612 0.000000
0.845548 0.734859 0.000000
0.876982 0.728847 0.000000
0.889189 0.714199 0.000000
0.905180 0.704768 0.000000
0.925963 0.701198 0.000000
0.949645 0.702419 0.000000
0.974365 0.707210 0.000000
1.000000 0.715541 0.000000
0.000000 0.785794 0.209384
0.000000 0.786954 0.211856
0.000000 0.787655 0.215457
0.000000 0.788083 0.221225
0.000000 0.788235 0.229496
0.000000 0.788418 0.240330
0.000000 0.788907 0.254063
0.000000 0.789792 0.271092
0.000000 0.792905 0.264866
0.000000 0.796902 0.257694
0.158358 0.801389 0.248997
0.276707 0.806699 0.237552
0.358251 0.812192 0.222568
0.428290 0.817594 0.201511
0.492042 0.822660 0.170840
0.552880 0.827634 0.119142
0.611688 0.832761 0.000000
0.656214 0.831571 0.000000
0.691585 0.826810 0.000000
0.726101 0.822873 0.000000
0.759823 0.819333 0.000000
0.792294 0.815885 0.000000
0.823270 0.812070 0.000000
0.852873 0.807828 0.000000
0.865507 0.788083 0.000000
0.880217 0.767636 0.000000
0.909758 0.760586 0.000000
0.922332 0.746639 0.000000
0.938720 0.737789 0.000000
0.961242 0.736049 0.000000
0.986725 0.738796 0.000000
1.000000 0.745388 0.000000
0.000000 0.819028 0.246525
0.000000 0.819913 0.248905
0.000000 0.820768 0.252659
0.000000 0.821439 0.258732
0.000000 0.822446 0.267918
0.000000 0.824002 0.280735
0.000000 0.826993 0.299199
0.000000 0.830838 0.321813
0.000000 0.836759 0.330205
0.137148 0.843870 0.333104
0.267124 0.851499 0.336248
0.351354 0.859159 0.337346
0.421820 0.866392 0.336675
0.484779 0.872892 0.332433
0.543297 0.878569 0.323278
0.598077 0.883085 0.307774
0.651087 0.887175 0.286503
0.703761 0.891325 0.258793
0.737331 0.887907 0.238804
0.769863 0.884489 0.215549
0.801755 0.881376 0.186709
0.832975 0.878233 0.143130
0.863066 0.874693 0.000000
0.892149 0.870848 0.000000
0.920317 0.866484 0.000000
0.931121 0.847166 0.000000
0.945068 0.827939 0.000000
0.971496 0.818845 0.000000
0.985748 0.806332 0.000000
1.000000 0.798001 0.000000
1.000000 0.796811 0.000000
1.000000 0.800015 0.000000
0.000000 0.878538 0.341894
0.000000 0.878599 0.342382
0.000000 0.878447 0.344396
0.000000 0.878233 0.348363
0.000000 0.877989 0.355016
0.000000 0.877928 0.364660
0.000000 0.878202 0.377783
0.000000 0.878904 0.394507
0.158389 0.880888 0.403815
0.255131 0.884092 0.402838
0.327153 0.887755 0.401373
0.389532 0.891752 0.399512
0.447700 0.895872 0.396063
0.501762 0.899809 0.390692
