20 Preset/Retro Movie Style/【3】LUT video cho PR-AE-FCPX/Lut Tone (1).cube
# Created by Adobe Lightroom plugin Export LUT (1.24.0)
# www.johnrellis.com/lightroom/exportlut.htm
# Preset: 焦糖色调-素材江湖01
# Color profile: E:\lut插件\exportlut.1.24\exportlut.lrplugin\color profiles\Rec709gamma2.4.icc
LUT_3D_SIZE 8
DOMAIN_MIN 0.000000 0.000000 0.000000
DOMAIN_MAX 0.903226 0.903226 0.903226
0.139345 0.143160 0.138552
0.139590 0.143343 0.138521
0.155154 0.145052 0.137942
0.235203 0.154055 0.134188
0.394079 0.167453 0.120638
0.607111 0.184726 0.063050
0.787778 0.235630 0.000000
0.936767 0.321111 0.000000
0.139193 0.143404 0.138521
0.139590 0.143343 0.138521
0.154757 0.146395 0.137728
0.227878 0.157443 0.133913
0.379583 0.173617 0.120729
0.579339 0.191196 0.076539
0.758694 0.234775 0.000000
0.917388 0.316930 0.000000
0.134371 0.151064 0.139559
0.137362 0.151858 0.138003
0.167330 0.160555 0.135653
0.260716 0.180758 0.127840
0.406622 0.200412 0.110658
0.602808 0.225711 0.020600
0.787716 0.279698 0.000000
0.937896 0.364050 0.000000
0.076417 0.199741 0.147036
0.085420 0.201205 0.139773
0.168521 0.196750 0.133150
0.326055 0.265263 0.100404
0.543206 0.308568 0.000000
0.653803 0.307134 0.000000
0.804440 0.349676 0.000000
0.942535 0.419074 0.000000
0.000000 0.308507 0.164065
0.000000 0.309789 0.152895
0.000000 0.311345 0.121767
0.292973 0.292210 0.108980
0.555047 0.427497 0.000000
0.751583 0.470344 0.000000
0.836973 0.459388 0.000000
0.943175 0.494087 0.000000
0.000000 0.451118 0.193637
0.000000 0.458534 0.182498
0.000000 0.461891 0.101961
0.211826 0.440345 0.061555
0.495247 0.455573 0.000000
0.756863 0.600397 0.000000
0.921691 0.648890 0.000000
0.993439 0.632868 0.000000
0.000000 0.622156 0.261814
0.000000 0.624353 0.251286
0.000000 0.624475 0.187350
0.000000 0.613458 0.116609
0.472206 0.575280 0.000000
0.719020 0.642359 0.000000
0.907164 0.751431 0.000000
1.000000 0.782315 0.000000
0.000000 0.807095 0.404150
0.000000 0.807279 0.395087
0.000000 0.808988 0.354131
0.000000 0.808804 0.301183
0.490547 0.773037 0.217136
0.752102 0.753231 0.084413
0.917205 0.833646 0.147921
1.000000 0.879911 0.208835
0.139132 0.143404 0.138766
0.139528 0.143343 0.138766
0.154086 0.143862 0.138369
0.224094 0.150973 0.135134
0.373236 0.163272 0.123507
0.566186 0.175753 0.090852
0.743252 0.213748 0.000000
0.902190 0.298405 0.000000
0.139071 0.143404 0.138979
0.139895 0.143313 0.138979
0.154910 0.145296 0.138369
0.226108 0.154238 0.134524
0.373053 0.168215 0.122774
0.560967 0.182101 0.089937
0.732082 0.217411 0.000000
0.890471 0.297215 0.000000
0.133455 0.151858 0.143526
0.134188 0.153262 0.141512
0.165316 0.160006 0.136995
0.248844 0.175265 0.130648
0.391699 0.193118 0.115145
0.573632 0.213016 0.059571
0.746487 0.253574 0.000000
0.906004 0.335088 0.000000
0.080995 0.197360 0.155947
0.088136 0.199283 0.150240
0.156588 0.199374 0.136233
0.299382 0.249058 0.113619
0.488777 0.280339 0.034089
0.601495 0.279881 0.000000
0.761044 0.318700 0.000000
0.910918 0.389563 0.000000
0.000000 0.306645 0.179446
0.000000 0.307073 0.169436
0.000000 0.310857 0.129793
0.276860 0.285222 0.117647
0.525261 0.406470 0.000000
0.724178 0.447669 0.000000
0.814023 0.439277 0.000000
0.925811 0.476234 0.000000
0.000000 0.442481 0.209567
0.000000 0.443915 0.198703
0.000000 0.448188 0.137819
0.177432 0.433021 0.095827
0.475563 0.440894 0.000000
0.744320 0.590173 0.000000
0.911955 0.639063 0.000000
0.983917 0.622309 0.000000
0.000000 0.609979 0.273014
0.000000 0.608392 0.260533
0.000000 0.608301 0.204593
0.000000 0.602075 0.130068
0.451453 0.567987 0.000000
0.703731 0.629236 0.000000
0.895811 0.740261 0.000000
1.000000 0.772274 0.000000
0.000000 0.796597 0.406195
0.000000 0.798703 0.399939
0.000000 0.800107 0.360143
0.000000 0.801663 0.290562
0.491310 0.783413 0.245365
0.750271 0.757900 0.127687
0.913970 0.831296 0.163851
1.000000 0.878752 0.224399
0.140505 0.143252 0.145052
0.143526 0.143374 0.144533
0.152865 0.142794 0.142000
0.243870 0.137942 0.140444
0.384588 0.139895 0.133028
0.580316 0.141695 0.105715
0.758175 0.183688 0.000000
0.917205 0.281285 0.000000
0.137118 0.145510 0.147829
0.141207 0.144839 0.148287
0.155245 0.145052 0.144503
0.238193 0.143496 0.143313
0.382452 0.147433 0.133303
0.571679 0.152285 0.105928
0.747494 0.190158 0.000000
0.907927 0.282475 0.000000
0.131380 0.154269 0.155795
0.133608 0.155245 0.156619
0.155032 0.161471 0.159274
0.245335 0.169467 0.151003
0.405798 0.180148 0.132174
0.587854 0.192660 0.096132
0.757534 0.232853 0.000000
0.913634 0.317601 0.000000
0.027161 0.204562 0.197086
0.007630 0.211948 0.199039
0.097566 0.223362 0.179202
0.291752 0.253025 0.146334
0.472419 0.268589 0.119203
0.615747 0.272892 0.038514
0.776120 0.310643 0.000000
0.923400 0.382452 0.000000
0.000000 0.323461 0.246281
0.000000 0.324956 0.239628
0.000000 0.331823 0.204227
0.237675 0.323095 0.149813
0.522728 0.413153 0.056031
0.717037 0.440803 0.000000
0.807370 0.428443 0.000000
0.932586 0.471717 0.000000
0.000000 0.456458 0.283909
0.000000 0.458350 0.276890
0.000000 0.462165 0.237522
0.000000 0.460182 0.162142
0.449165 0.427619 0.106325
0.732876 0.586938 0.000000
0.904570 0.634119 0.000000
0.981781 0.619013 0.000000
0.000000 0.623896 0.351080
0.000000 0.622736 0.341619
0.000000 0.621363 0.300145
0.000000 0.621546 0.191684
0.414008 0.587549 0.137331
0.690486 0.623529 0.000000
0.895659 0.746395 0.000000
1.000000 0.778775 0.000000
0.000000 0.800961 0.466285
0.000000 0.800290 0.458167
0.000000 0.801511 0.426154
0.000000 0.807736 0.350958
0.442329 0.792966 0.303777
0.732601 0.768917 0.214939
0.909483 0.832029 0.241215
1.000000 0.882689 0.307164
0.148287 0.146609 0.186893
0.158694 0.146853 0.187015
0.194064 0.147829 0.183322
0.228550 0.143282 0.166415
0.439460 0.034699 0.153536
0.574945 0.020752 0.156130
0.743679 0.090822 0.119295
0.906920 0.217716 0.000000
0.136904 0.150149 0.195773
0.151339 0.151247 0.196628
0.195895 0.152163 0.191257
0.235355 0.148257 0.172549
0.440833 0.081544 0.159152
0.571649 0.088472 0.161715
0.743221 0.116884 0.119936
0.906340 0.228641 0.000000
0.110597 0.173373 0.209079
0.116030 0.174166 0.210269
0.159182 0.170382 0.215061
0.246464 0.176944 0.195743
0.429877 0.159426 0.186923
0.587793 0.165682 0.173831
0.768185 0.198520 0.123079
0.924071 0.285374 0.000000
0.005402 0.211521 0.239445
0.028809 0.213230 0.240299
0.116732 0.222873 0.245151
0.240604 0.249149 0.252659
0.425330 0.260380 0.229618
0.602564 0.263584 0.187167
0.770993 0.289342 0.118959
0.926055 0.357458 0.000000
0.000000 0.315892 0.316503
0.000000 0.320592 0.318914
0.000000 0.344091 0.331548
0.105074 0.377844 0.299229
0.488533 0.411292 0.238712
0.680140 0.427222 0.208530
0.797024 0.419989 0.112032
0.940398 0.465278 0.000000
0.000000 0.493507 0.417090
0.000000 0.499886 0.416907
0.000000 0.501762 0.391669
0.000000 0.506859 0.329473
0.401831 0.481575 0.237583
0.717494 0.590509 0.231785
0.891569 0.628870 0.147921
0.974243 0.613336 0.000000
0.000000 0.644190 0.472999
0.000000 0.645502 0.468482
0.000000 0.647944 0.443519
0.000000 0.650904 0.381231
0.316533 0.637324 0.283421
0.663172 0.612543 0.205509
0.888945 0.753048 0.274388
1.000000 0.783108 0.231998
0.000000 0.815396 0.571801
0.000000 0.815518 0.566461
0.000000 0.816526 0.543389
0.000000 0.819028 0.490150
0.313695 0.816007 0.409216
0.687770 0.789029 0.329381
0.896513 0.829587 0.332494
1.000000 0.889616 0.419745
0.173098 0.162722 0.290074
0.191623 0.162997 0.290623
0.255070 0.162722 0.285740
0.334600 0.171878 0.271794
0.396765 0.142214 0.231907
0.667659 0.000000 0.192416
0.774166 0.000000 0.200320
0.901244 0.162570 0.202670
0.156039 0.169986 0.299840
0.179660 0.171084 0.301061
0.251865 0.170871 0.295628
0.345342 0.177218 0.284154
0.401892 0.152987 0.239139
0.665766 0.000000 0.200107
0.771878 0.000000 0.207248
0.901671 0.181674 0.204105
0.002472 0.204837 0.314031
0.075532 0.201144 0.315709
0.200168 0.199680 0.320592
0.342718 0.206180 0.309422
0.410498 0.196933 0.264652
0.643702 0.067445 0.229465
0.754818 0.160159 0.233585
0.898863 0.237430 0.206424
0.000000 0.252049 0.338445
0.000000 0.253422 0.339147
0.062440 0.261173 0.343420
0.250767 0.266361 0.352361
0.427558 0.293004 0.323217
0.621637 0.267765 0.297124
0.746151 0.289097 0.280858
0.912993 0.332006 0.212741
0.000000 0.319554 0.375616
0.000000 0.322179 0.376959
0.000000 0.332433 0.380316
0.208713 0.355322 0.386450
0.404822 0.391943 0.391302
0.596948 0.402808 0.361028
0.769253 0.410925 0.301732
0.927825 0.444831 0.216037
0.000000 0.427222 0.434546
0.000000 0.431739 0.437140
0.000000 0.447211 0.444404
0.000000 0.482277 0.462135
0.299718 0.522789 0.433814
0.650568 0.560143 0.378332
0.839536 0.599756 0.364141
0.947997 0.588678 0.252018
0.000000 0.642512 0.593866
0.000000 0.645777 0.592584
0.000000 0.660334 0.587579
0.000000 0.665522 0.552300
0.118044 0.668116 0.473671
0.584161 0.632441 0.356512
0.862150 0.746273 0.416083
0.996674 0.772183 0.379065
0.000000 0.812924 0.676478
0.000000 0.813016 0.672602
0.000000 0.814115 0.656550
0.000000 0.821988 0.627314
0.000000 0.825071 0.556451
0.582422 0.811673 0.461463
0.859953 0.809598 0.404273
0.998474 0.889708 0.521843
0.247013 0.209812 0.434577
0.269200 0.210361 0.434424
0.345006 0.210819 0.430030
0.459663 0.217136 0.424201
0.522393 0.260929 0.384009
0.602197 0.178531 0.334447
0.856352 0.000000 0.283635
0.958770 0.134035 0.292058
0.227604 0.216068 0.432685
0.250278 0.216068 0.431678
0.329534 0.216495 0.427253
0.443732 0.220462 0.418708
0.515587 0.260136 0.383093
0.593896 0.189151 0.334600
0.848051 0.000000 0.284764
0.950866 0.152865 0.293797
0.095094 0.241642 0.452247
0.140566 0.240269 0.452705
0.287968 0.254978 0.454047
0.427375 0.256535 0.440101
0.539666 0.285191 0.417426
0.603937 0.246891 0.362463
0.849363 0.061891 0.312169
0.945220 0.246677 0.321538
0.000000 0.322576 0.469734
0.000000 0.323125 0.469032
0.092866 0.325444 0.471595
0.348943 0.324254 0.483894
0.555688 0.350561 0.473701
0.627283 0.351537 0.422553
0.843320 0.302617 0.378698
0.938903 0.363409 0.375952
0.000000 0.376959 0.489448
0.000000 0.378515 0.489693
0.000000 0.386084 0.491920
0.230747 0.402991 0.496986
0.425025 0.417212 0.504784
0.615167 0.458259 0.477241
0.797818 0.433967 0.442908
0.909270 0.455604 0.420600
0.000000 0.458259 0.524895
0.000000 0.462409 0.527703
0.000000 0.469856 0.529412
0.178836 0.485512 0.533227
0.386542 0.511162 0.538567
0.589288 0.556909 0.550042
0.773892 0.572198 0.516045
0.937011 0.585382 0.446357
0.000000 0.586938 0.601282
0.000000 0.591424 0.604547
0.000000 0.603937 0.611688
0.000000 0.629328 0.626337
0.309361 0.670344 0.650050
0.522210 0.704982 0.612848
0.819913 0.738857 0.565240
0.967742 0.766384 0.552758
0.000000 0.785763 0.762814
0.000000 0.786740 0.762844
0.000000 0.794583 0.766812
0.000000 0.824430 0.771328
0.000000 0.836240 0.734737
0.468940 0.838193 0.654200
0.782254 0.810880 0.536889
0.978454 0.893828 0.646662
0.386938 0.296452 0.583001
0.406470 0.298589 0.584436
0.469245 0.300084 0.579767
0.568475 0.308202 0.573388
0.668482 0.330297 0.561028
0.685634 0.399512 0.500877
0.778408 0.287388 0.455543
0.976715 0.183688 0.407416
0.364691 0.297246 0.575891
0.385809 0.299809 0.577996
0.451514 0.301213 0.573907
0.551476 0.306554 0.565606
0.654231 0.326085 0.552667
0.674434 0.390478 0.493385
0.762325 0.282536 0.446021
0.962554 0.167453 0.396857
0.291386 0.319615 0.591119
0.320409 0.323186 0.591241
0.413886 0.333043 0.588617
0.530419 0.337285 0.580102
0.645289 0.353002 0.565850
0.688197 0.411261 0.517571
0.772335 0.334722 0.472908
0.972168 0.268650 0.428473
0.112703 0.393988 0.607691
0.157687 0.389776 0.606653
0.268681 0.376440 0.606744
0.464546 0.394598 0.610010
0.624048 0.408606 0.597681
0.719081 0.456458 0.571984
0.784360 0.422583 0.521050
0.976654 0.377386 0.473152
0.000000 0.457313 0.617639
0.000000 0.455970 0.615412
0.028962 0.457557 0.613581
0.262699 0.465827 0.615259
0.510277 0.460395 0.623713
0.708186 0.498604 0.612634
0.775051 0.505699 0.564477
0.970703 0.486000 0.527611
0.000000 0.523003 0.643732
0.000000 0.524376 0.644404
0.000000 0.529015 0.646052
0.231815 0.538781 0.649287
0.404974 0.554986 0.653285
0.602686 0.576898 0.665888
0.778836 0.630915 0.646632
0.940703 0.613245 0.610895
0.000000 0.614679 0.691066
0.000000 0.617212 0.692866
0.000000 0.621759 0.694118
0.192538 0.632624 0.697841
0.396887 0.649531 0.701961
0.574853 0.678614 0.709224
0.753079 0.725093 0.721096
0.914427 0.735348 0.680079
0.000000 0.734340 0.765957
0.000000 0.735988 0.766781
0.000000 0.744900 0.772122
0.000000 0.761746 0.781521
0.319890 0.789303 0.796902
0.532616 0.829404 0.819425
0.711025 0.861387 0.783017
0.946868 0.895445 0.769986
0.562005 0.437049 0.737453
0.574029 0.439246 0.737942
0.613092 0.439521 0.732357
0.683436 0.449317 0.727443
0.763821 0.467659 0.718379
0.834684 0.500420 0.705165
0.835416 0.552911 0.644923
0.924376 0.453468 0.599786
0.546685 0.435035 0.732815
0.559564 0.437293 0.733486
0.602106 0.439307 0.729580
0.673548 0.447639 0.723873
0.756222 0.465309 0.714839
0.829252 0.497597 0.701778
0.829557 0.550256 0.640436
0.918578 0.450019 0.595209
0.499123 0.446296 0.737057
0.515770 0.450050 0.737179
0.568627 0.455360 0.733577
0.653712 0.467659 0.732235
0.743130 0.481422 0.721736
0.821805 0.509270 0.707149
0.826261 0.569604 0.649012
0.916838 0.475654 0.607691
0.374884 0.470008 0.744259
0.390448 0.468910 0.745449
0.462470 0.470771 0.745205
0.597101 0.498848 0.744961
0.712184 0.512413 0.737026
0.810666 0.539696 0.725277
0.835447 0.600214 0.678431
0.918212 0.530785 0.639124
0.201755 0.554162 0.750698
0.220829 0.555657 0.751766
0.297124 0.547723 0.751186
0.436805 0.530510 0.754849
0.629847 0.550378 0.756100
0.775570 0.573175 0.745357
0.849149 0.627192 0.719966
0.916655 0.600763 0.681270
0.140352 0.605585 0.770504
0.157259 0.604364 0.769131
0.223697 0.602533 0.766354
0.323095 0.604669 0.765774
0.442298 0.613428 0.768460
0.683894 0.628138 0.782895
0.858549 0.685328 0.783566
0.917815 0.701686 0.749996
0.080171 0.680079 0.806699
0.121553 0.680110 0.806394
0.212497 0.680995 0.805783
0.324834 0.686427 0.807401
0.448951 0.697322 0.810941
0.591241 0.719265 0.818387
0.770657 0.746761 0.830472
0.905058 0.793301 0.811643
0.104829 0.771633 0.854368
0.136324 0.771756 0.854124
0.226688 0.774228 0.854582
0.341100 0.781613 0.857298
0.463661 0.793149 0.860594
0.598779 0.811093 0.864683
0.749599 0.840970 0.871916
0.893156 0.882506 0.882689
