20 Preset/Emotion Style/【2】XMP cho Photoshop - Lightroom CC/Tone 4.xmp
<x:xmpmeta xmlns:x="adobe:ns:meta/" x:xmptk="Adobe XMP Core 5.6-c140 79.160451, 2017/05/06-01:08:21        ">
 <rdf:RDF xmlns:rdf="http://www.w3.org/1999/02/22-rdf-syntax-ns#">
  <rdf:Description rdf:about=""
    xmlns:crs="http://ns.adobe.com/camera-raw-settings/1.0/"
   crs:PresetType="Normal"
   crs:Cluster=""
   crs:UUID="241CB7E7188DEE439A08D7BAE11612B1"
   crs:SupportsAmount="False"
   crs:SupportsColor="True"
   crs:SupportsMonochrome="True"
   crs:SupportsHighDynamicRange="True"
   crs:SupportsNormalDynamicRange="True"
   crs:SupportsSceneReferred="True"
   crs:SupportsOutputReferred="True"
   crs:CameraModelRestriction=""
   crs:Copyright=""
   crs:ContactInfo=""
   crs:Version="12.0"
   crs:ProcessVersion="6.7"
   crs:WhiteBalance="Custom"
   crs:Temperature="4174"
   crs:Tint="-21"
   crs:Saturation="0"
   crs:Sharpness="0"
   crs:LuminanceSmoothing="0"
   crs:ColorNoiseReduction="25"
   crs:VignetteAmount="0"
   crs:ShadowTint="-2"
   crs:RedHue="+35"
   crs:RedSaturation="+40"
   crs:GreenHue="+55"
   crs:GreenSaturation="-10"
   crs:BlueHue="-10"
   crs:BlueSaturation="-12"
   crs:Vibrance="+30"
   crs:HueAdjustmentRed="+10"
   crs:HueAdjustmentOrange="+4"
   crs:HueAdjustmentYellow="+10"
   crs:HueAdjustmentGreen="+15"
   crs:HueAdjustmentAqua="+10"
   crs:HueAdjustmentBlue="-5"
   crs:HueAdjustmentPurple="+20"
   crs:HueAdjustmentMagenta="+20"
   crs:SaturationAdjustmentRed="-20"
   crs:SaturationAdjustmentOrange="-25"
   crs:SaturationAdjustmentYellow="-15"
   crs:SaturationAdjustmentGreen="-45"
   crs:SaturationAdjustmentAqua="0"
   crs:SaturationAdjustmentBlue="-25"
   crs:SaturationAdjustmentPurple="-35"
   crs:SaturationAdjustmentMagenta="-15"
   crs:LuminanceAdjustmentRed="-10"
   crs:LuminanceAdjustmentOrange="0"
   crs:LuminanceAdjustmentYellow="+10"
   crs:LuminanceAdjustmentGreen="0"
   crs:LuminanceAdjustmentAqua="+10"
   crs:LuminanceAdjustmentBlue="-15"
   crs:LuminanceAdjustmentPurple="+20"
   crs:LuminanceAdjustmentMagenta="+15"
   crs:SplitToningShadowHue="0"
   crs:SplitToningShadowSaturation="0"
   crs:SplitToningHighlightHue="0"
   crs:SplitToningHighlightSaturation="0"
   crs:SplitToningBalance="0"
   crs:ParametricShadows="0"
   crs:ParametricDarks="0"
   crs:ParametricLights="0"
   crs:ParametricHighlights="0"
   crs:ParametricShadowSplit="20"
   crs:ParametricMidtoneSplit="48"
   crs:ParametricHighlightSplit="75"
   crs:SharpenRadius="+1.0"
   crs:SharpenDetail="25"
   crs:SharpenEdgeMasking="0"
   crs:PostCropVignetteAmount="0"
   crs:GrainAmount="16"
   crs:GrainSize="40"
   crs:GrainFrequency="65"
   crs:ColorNoiseReductionDetail="50"
   crs:AutoLateralCA="0"
   crs:Exposure2012="+0.98"
   crs:Contrast2012="-4"
   crs:Highlights2012="-59"
   crs:Shadows2012="+4"
   crs:Whites2012="-30"
   crs:Blacks2012="+15"
   crs:Clarity2012="-2"
   crs:ConvertToGrayscale="False"
   crs:OverrideLookVignette="False"
   crs:ToneCurveName2012="Custom"
   crs:CameraProfile="Default Color"
   crs:HasSettings="True">
   <crs:Name>
    <rdf:Alt>
     <rdf:li xml:lang="x-default">Tone 4</rdf:li>
    </rdf:Alt>
   </crs:Name>
   <crs:ShortName>
    <rdf:Alt>
     <rdf:li xml:lang="x-default"/>
    </rdf:Alt>
   </crs:ShortName>
   <crs:SortName>
    <rdf:Alt>
     <rdf:li xml:lang="x-default"/>
    </rdf:Alt>
   </crs:SortName>
   <crs:Group>
    <rdf:Alt>
     <rdf:li xml:lang="x-default">Emotion Style</rdf:li>
    </rdf:Alt>
   </crs:Group>
   <crs:Description>
    <rdf:Alt>
     <rdf:li xml:lang="x-default"/>
    </rdf:Alt>
   </crs:Description>
   <crs:ToneCurvePV2012>
    <rdf:Seq>
     <rdf:li>0, 15</rdf:li>
     <rdf:li>23, 24</rdf:li>
     <rdf:li>77, 74</rdf:li>
     <rdf:li>133, 133</rdf:li>
     <rdf:li>188, 189</rdf:li>
     <rdf:li>255, 245</rdf:li>
    </rdf:Seq>
   </crs:ToneCurvePV2012>
   <crs:ToneCurvePV2012Red>
    <rdf:Seq>
     <rdf:li>0, 0</rdf:li>
     <rdf:li>28, 8</rdf:li>
     <rdf:li>82, 59</rdf:li>
     <rdf:li>116, 120</rdf:li>
     <rdf:li>175, 201</rdf:li>
     <rdf:li>255, 255</rdf:li>
    </rdf:Seq>
   </crs:ToneCurvePV2012Red>
   <crs:ToneCurvePV2012Green>
    <rdf:Seq>
     <rdf:li>0, 0</rdf:li>
     <rdf:li>35, 17</rdf:li>
     <rdf:li>80, 65</rdf:li>
     <rdf:li>115, 119</rdf:li>
     <rdf:li>177, 204</rdf:li>
     <rdf:li>255, 255</rdf:li>
    </rdf:Seq>
   </crs:ToneCurvePV2012Green>
   <crs:ToneCurvePV2012Blue>
    <rdf:Seq>
     <rdf:li>0, 0</rdf:li>
     <rdf:li>32, 19</rdf:li>
     <rdf:li>77, 68</rdf:li>
     <rdf:li>110, 117</rdf:li>
     <rdf:li>173, 200</rdf:li>
     <rdf:li>255, 255</rdf:li>
    </rdf:Seq>
   </crs:ToneCurvePV2012Blue>
   <crs:Look
    crs:Name=""/>
  </rdf:Description>
 </rdf:RDF>
</x:xmpmeta>
