20 Preset/Japan Style/【1】LRtemplate Lightroom bản cũ/Japan TONE/Japan Style TONE (17).lrtemplate
s = {
	id = "1D995C90-00B3-4CBD-AD5B-A2F76C913C8C",
	internalName = "17日系清新素材江湖",
	title = "17日系清新（素材江湖）",
	type = "Develop",
	value = {
		settings = {
			AutoLateralCA = 1,
			Blacks2012 = 100,
			BlueHue = 0,
			BlueSaturation = 29,
			CameraProfile = "Adobe Standard",
			ChromaticAberrationB = 0,
			ChromaticAberrationR = 0,
			Clarity2012 = 0,
			ColorNoiseReduction = 25,
			ColorNoiseReductionDetail = 50,
			ColorNoiseReductionSmoothness = 50,
			Contrast2012 = 20,
			ConvertToGrayscale = false,
			CropConstrainToWarp = 0,
			Defringe = 0,
			DefringeGreenAmount = 0,
			DefringeGreenHueHi = 60,
			DefringeGreenHueLo = 40,
			DefringePurpleAmount = 0,
			DefringePurpleHueHi = 70,
			DefringePurpleHueLo = 30,
			Dehaze = 0,
			EnableCalibration = true,
			EnableColorAdjustments = true,
			EnableDetail = true,
			EnableEffects = true,
			EnableLensCorrections = true,
			EnableSplitToning = true,
			Exposure2012 = 0.4,
			GrainAmount = 12,
			GrainFrequency = 41,
			GrainSize = 47,
			GreenHue = 5,
			GreenSaturation = 0,
			Highlights2012 = -26,
			HueAdjustmentAqua = 15,
			HueAdjustmentBlue = 5,
			HueAdjustmentGreen = 15,
			HueAdjustmentMagenta = 0,
			HueAdjustmentOrange = 3,
			HueAdjustmentPurple = 30,
			HueAdjustmentRed = 0,
			HueAdjustmentYellow = 1,
			IncrementalTemperature = -4,
			IncrementalTint = -3,
			LensManualDistortionAmount = 0,
			LuminanceAdjustmentAqua = -10,
			LuminanceAdjustmentBlue = -21,
			LuminanceAdjustmentGreen = -10,
			LuminanceAdjustmentMagenta = -15,
			LuminanceAdjustmentOrange = 22,
			LuminanceAdjustmentPurple = 5,
			LuminanceAdjustmentRed = -25,
			LuminanceAdjustmentYellow = 13,
			LuminanceNoiseReductionContrast = 0,
			LuminanceNoiseReductionDetail = 50,
			LuminanceSmoothing = 0,
			ParametricDarks = 0,
			ParametricHighlightSplit = 75,
			ParametricHighlights = 0,
			ParametricLights = 0,
			ParametricMidtoneSplit = 50,
			ParametricShadowSplit = 25,
			ParametricShadows = 0,
			PostCropVignetteAmount = 0,
			PostCropVignetteFeather = 50,
			PostCropVignetteHighlightContrast = 0,
			PostCropVignetteMidpoint = 50,
			PostCropVignetteRoundness = 0,
			PostCropVignetteStyle = 1,
			ProcessVersion = "10.0",
			RedHue = 5,
			RedSaturation = -5,
			Saturation = -1,
			SaturationAdjustmentAqua = -55,
			SaturationAdjustmentBlue = -1,
			SaturationAdjustmentGreen = -52,
			SaturationAdjustmentMagenta = -40,
			SaturationAdjustmentOrange = -4,
			SaturationAdjustmentPurple = -40,
			SaturationAdjustmentRed = -5,
			SaturationAdjustmentYellow = 0,
			ShadowTint = -2,
			Shadows2012 = 15,
			SharpenDetail = 25,
			SharpenEdgeMasking = 0,
			SharpenRadius = 1,
			Sharpness = 25,
			SplitToningBalance = 0,
			SplitToningHighlightHue = 201,
			SplitToningHighlightSaturation = 5,
			SplitToningShadowHue = 125,
			SplitToningShadowSaturation = 5,
			ToneCurveName2012 = "Custom",
			ToneCurvePV2012 = {
				0,
				13,
				60,
				63,
				74,
				77,
				255,
				251,
			},
			ToneCurvePV2012Blue = {
				0,
				0,
				29,
				20,
				116,
				134,
				181,
				196,
				255,
				255,
			},
			ToneCurvePV2012Green = {
				0,
				0,
				28,
				21,
				116,
				133,
				181,
				196,
				255,
				255,
			},
			ToneCurvePV2012Red = {
				0,
				0,
				31,
				22,
				116,
				132,
				181,
				196,
				255,
				255,
			},
			Vibrance = 38,
			VignetteAmount = 0,
			VignetteMidpoint = 50,
			WhiteBalance = "Custom",
			Whites2012 = -48,
		},
		uuid = "88718960-1F65-47D6-9D7E-746F7D66BB7D",
	},
	version = 0,
}
