20 Preset/Japan Style/【1】LRtemplate Lightroom bản cũ/Japan TONE/Japan Style TONE (25).lrtemplate
s = {
	id = "2771505C-03C3-41C2-A728-BE2DC0C61C9A",
	internalName = "25日系绿色低饱和",
	title = "25日系绿色低饱和（素材江湖）",
	type = "Develop",
	value = {
		settings = {
			AutoLateralCA = 0,
			Blacks2012 = 30,
			BlueHue = -15,
			BlueSaturation = 25,
			CameraProfile = "Fuji Astia 100F - C",
			ChromaticAberrationB = 0,
			ChromaticAberrationR = 0,
			Clarity2012 = 0,
			ColorNoiseReduction = 0,
			ColorNoiseReductionDetail = 50,
			ColorNoiseReductionSmoothness = 50,
			Contrast2012 = 0,
			ConvertToGrayscale = false,
			CropConstrainToWarp = 0,
			Defringe = 0,
			DefringeGreenAmount = 0,
			DefringeGreenHueHi = 60,
			DefringeGreenHueLo = 40,
			DefringePurpleAmount = 0,
			DefringePurpleHueHi = 70,
			DefringePurpleHueLo = 30,
			Dehaze = 0,
			EnableCalibration = true,
			EnableColorAdjustments = true,
			EnableDetail = true,
			EnableEffects = true,
			EnableLensCorrections = true,
			EnableSplitToning = true,
			Exposure2012 = -0.33,
			GrainAmount = 15,
			GrainFrequency = 50,
			GrainSize = 30,
			GreenHue = 100,
			GreenSaturation = -41,
			Highlights2012 = -25,
			HueAdjustmentAqua = 0,
			HueAdjustmentBlue = 5,
			HueAdjustmentGreen = 40,
			HueAdjustmentMagenta = 15,
			HueAdjustmentOrange = -2,
			HueAdjustmentPurple = 30,
			HueAdjustmentRed = 12,
			HueAdjustmentYellow = 57,
			IncrementalTemperature = -3,
			IncrementalTint = 10,
			LensManualDistortionAmount = 0,
			LuminanceAdjustmentAqua = -11,
			LuminanceAdjustmentBlue = -10,
			LuminanceAdjustmentGreen = -55,
			LuminanceAdjustmentMagenta = -25,
			LuminanceAdjustmentOrange = 15,
			LuminanceAdjustmentPurple = -10,
			LuminanceAdjustmentRed = -20,
			LuminanceAdjustmentYellow = 0,
			LuminanceNoiseReductionContrast = 0,
			LuminanceNoiseReductionDetail = 50,
			LuminanceSmoothing = 0,
			ParametricDarks = 0,
			ParametricHighlightSplit = 75,
			ParametricHighlights = 0,
			ParametricLights = 0,
			ParametricMidtoneSplit = 60,
			ParametricShadowSplit = 14,
			ParametricShadows = 0,
			PostCropVignetteAmount = 0,
			PostCropVignetteFeather = 50,
			PostCropVignetteHighlightContrast = 0,
			PostCropVignetteMidpoint = 50,
			PostCropVignetteRoundness = 0,
			PostCropVignetteStyle = 1,
			ProcessVersion = "6.7",
			RedHue = 10,
			RedSaturation = 5,
			Saturation = -5,
			SaturationAdjustmentAqua = -49,
			SaturationAdjustmentBlue = 0,
			SaturationAdjustmentGreen = -77,
			SaturationAdjustmentMagenta = -20,
			SaturationAdjustmentOrange = -42,
			SaturationAdjustmentPurple = -10,
			SaturationAdjustmentRed = -10,
			SaturationAdjustmentYellow = 0,
			ShadowTint = 5,
			Shadows2012 = 20,
			SharpenDetail = 25,
			SharpenEdgeMasking = 0,
			SharpenRadius = 1.2,
			Sharpness = 40,
			SplitToningBalance = 0,
			SplitToningHighlightHue = 59,
			SplitToningHighlightSaturation = 4,
			SplitToningShadowHue = 165,
			SplitToningShadowSaturation = 0,
			ToneCurveName2012 = "Custom",
			ToneCurvePV2012 = {
				0,
				15,
				73,
				69,
				126,
				126,
				255,
				255,
			},
			ToneCurvePV2012Blue = {
				0,
				0,
				37,
				26,
				119,
				124,
				181,
				200,
				255,
				255,
			},
			ToneCurvePV2012Green = {
				0,
				0,
				40,
				25,
				116,
				124,
				181,
				199,
				255,
				255,
			},
			ToneCurvePV2012Red = {
				0,
				0,
				43,
				24,
				117,
				123,
				182,
				198,
				255,
				255,
			},
			Vibrance = 0,
			VignetteAmount = 0,
			VignetteMidpoint = 50,
			WhiteBalance = "Custom",
			Whites2012 = 0,
		},
		uuid = "0FF843C3-2500-4C9D-A263-0625BDDF17A4",
	},
	version = 0,
}
