20 Preset/Japan Style/【1】LRtemplate Lightroom bản cũ/Japan TONE/Japan Style TONE (1).lrtemplate
s = {
	id = "41BD89EF-59EE-4ED6-B265-6C40A50E70D1",
	internalName = "01日系常用（素材江湖）",
	title = "01日系常用（素材江湖）",
	type = "Develop",
	value = {
		settings = {
			AutoLateralCA = 0,
			Blacks2012 = 25,
			BlueHue = 0,
			BlueSaturation = 0,
			CameraProfile = "Embedded",
			ChromaticAberrationB = 0,
			ChromaticAberrationR = 0,
			Clarity2012 = 0,
			ColorNoiseReduction = 25,
			ColorNoiseReductionDetail = 50,
			ColorNoiseReductionSmoothness = 50,
			Contrast2012 = 17,
			ConvertToGrayscale = false,
			CropConstrainToWarp = 0,
			Defringe = 0,
			DefringeGreenAmount = 0,
			DefringeGreenHueHi = 60,
			DefringeGreenHueLo = 40,
			DefringePurpleAmount = 5,
			DefringePurpleHueHi = 70,
			DefringePurpleHueLo = 30,
			Dehaze = 0,
			EnableCalibration = true,
			EnableColorAdjustments = true,
			EnableDetail = true,
			EnableEffects = true,
			EnableLensCorrections = true,
			EnableSplitToning = true,
			Exposure2012 = 0.7,
			GrainAmount = 15,
			GrainFrequency = 40,
			GrainSize = 30,
			GreenHue = 0,
			GreenSaturation = 0,
			Highlights2012 = -100,
			HueAdjustmentAqua = 0,
			HueAdjustmentBlue = -5,
			HueAdjustmentGreen = 0,
			HueAdjustmentMagenta = 0,
			HueAdjustmentOrange = 7,
			HueAdjustmentPurple = 0,
			HueAdjustmentRed = 1,
			HueAdjustmentYellow = 0,
			IncrementalTemperature = -6,
			IncrementalTint = -11,
			LensManualDistortionAmount = 0,
			LuminanceAdjustmentAqua = 0,
			LuminanceAdjustmentBlue = -3,
			LuminanceAdjustmentGreen = 23,
			LuminanceAdjustmentMagenta = 0,
			LuminanceAdjustmentOrange = -8,
			LuminanceAdjustmentPurple = 0,
			LuminanceAdjustmentRed = 0,
			LuminanceAdjustmentYellow = -9,
			LuminanceNoiseReductionContrast = 0,
			LuminanceNoiseReductionDetail = 50,
			LuminanceSmoothing = 0,
			ParametricDarks = 0,
			ParametricHighlightSplit = 75,
			ParametricHighlights = 0,
			ParametricLights = 0,
			ParametricMidtoneSplit = 50,
			ParametricShadowSplit = 25,
			ParametricShadows = 0,
			PostCropVignetteAmount = 0,
			PostCropVignetteFeather = 50,
			PostCropVignetteHighlightContrast = 0,
			PostCropVignetteMidpoint = 50,
			PostCropVignetteRoundness = 0,
			PostCropVignetteStyle = 1,
			ProcessVersion = "10.0",
			RedHue = 0,
			RedSaturation = 0,
			Saturation = 8,
			SaturationAdjustmentAqua = 0,
			SaturationAdjustmentBlue = -17,
			SaturationAdjustmentGreen = -47,
			SaturationAdjustmentMagenta = 0,
			SaturationAdjustmentOrange = 0,
			SaturationAdjustmentPurple = 0,
			SaturationAdjustmentRed = -4,
			SaturationAdjustmentYellow = -13,
			ShadowTint = 0,
			Shadows2012 = 15,
			SharpenDetail = 25,
			SharpenEdgeMasking = 0,
			SharpenRadius = 1,
			Sharpness = 0,
			SplitToningBalance = 0,
			SplitToningHighlightHue = 0,
			SplitToningHighlightSaturation = 0,
			SplitToningShadowHue = 0,
			SplitToningShadowSaturation = 0,
			ToneCurveName2012 = "Custom",
			ToneCurvePV2012 = {
				0,
				5,
				255,
				251,
			},
			ToneCurvePV2012Blue = {
				0,
				0,
				29,
				20,
				116,
				134,
				181,
				196,
				255,
				255,
			},
			ToneCurvePV2012Green = {
				0,
				0,
				28,
				21,
				116,
				133,
				181,
				196,
				255,
				255,
			},
			ToneCurvePV2012Red = {
				0,
				0,
				31,
				22,
				116,
				132,
				181,
				196,
				255,
				255,
			},
			Vibrance = 0,
			VignetteAmount = 0,
			VignetteMidpoint = 50,
			WhiteBalance = "Custom",
			Whites2012 = -10,
		},
		uuid = "A0F6A00E-7E64-4F14-A357-EA9C17DE10B8",
	},
	version = 0,
}
