20 Preset/Japan Style/【1】LRtemplate Lightroom bản cũ/Japan TONE/Japan Style TONE (26).lrtemplate
s = {
	id = "1FEF3D22-0F7A-40F0-A250-E9668685E762",
	internalName = "26日系绿偏橘",
	title = "26日系绿偏橘（素材江湖）",
	type = "Develop",
	value = {
		settings = {
			AutoLateralCA = 0,
			Blacks2012 = 41,
			BlueHue = -10,
			BlueSaturation = -10,
			CameraProfile = "Adobe Standard",
			ChromaticAberrationB = 0,
			ChromaticAberrationR = 0,
			Clarity2012 = 0,
			ColorNoiseReduction = 25,
			ColorNoiseReductionDetail = 50,
			ColorNoiseReductionSmoothness = 50,
			Contrast2012 = 0,
			ConvertToGrayscale = false,
			CropConstrainToWarp = 0,
			Defringe = 0,
			DefringeGreenAmount = 0,
			DefringeGreenHueHi = 60,
			DefringeGreenHueLo = 40,
			DefringePurpleAmount = 0,
			DefringePurpleHueHi = 70,
			DefringePurpleHueLo = 30,
			Dehaze = 0,
			EnableCalibration = true,
			EnableColorAdjustments = true,
			EnableDetail = true,
			EnableEffects = true,
			EnableLensCorrections = true,
			EnableSplitToning = true,
			Exposure2012 = 0.33,
			GrainAmount = 0,
			GrainFrequency = 50,
			GrainSize = 45,
			GreenHue = 50,
			GreenSaturation = -25,
			Highlights2012 = -51,
			HueAdjustmentAqua = -39,
			HueAdjustmentBlue = -4,
			HueAdjustmentGreen = -99,
			HueAdjustmentMagenta = 0,
			HueAdjustmentOrange = -4,
			HueAdjustmentPurple = 0,
			HueAdjustmentRed = -10,
			HueAdjustmentYellow = -42,
			LensManualDistortionAmount = 0,
			LuminanceAdjustmentAqua = 0,
			LuminanceAdjustmentBlue = -15,
			LuminanceAdjustmentGreen = -10,
			LuminanceAdjustmentMagenta = 0,
			LuminanceAdjustmentOrange = 4,
			LuminanceAdjustmentPurple = 0,
			LuminanceAdjustmentRed = -3,
			LuminanceAdjustmentYellow = -14,
			LuminanceNoiseReductionContrast = 0,
			LuminanceNoiseReductionDetail = 50,
			LuminanceSmoothing = 0,
			ParametricDarks = 0,
			ParametricHighlightSplit = 75,
			ParametricHighlights = 0,
			ParametricLights = 0,
			ParametricMidtoneSplit = 50,
			ParametricShadowSplit = 25,
			ParametricShadows = 0,
			PostCropVignetteAmount = 0,
			PostCropVignetteFeather = 50,
			PostCropVignetteHighlightContrast = 0,
			PostCropVignetteMidpoint = 50,
			PostCropVignetteRoundness = 0,
			PostCropVignetteStyle = 1,
			ProcessVersion = "6.7",
			RedHue = 35,
			RedSaturation = 5,
			Saturation = -20,
			SaturationAdjustmentAqua = -50,
			SaturationAdjustmentBlue = -5,
			SaturationAdjustmentGreen = -36,
			SaturationAdjustmentMagenta = 0,
			SaturationAdjustmentOrange = 18,
			SaturationAdjustmentPurple = 0,
			SaturationAdjustmentRed = -24,
			SaturationAdjustmentYellow = -23,
			ShadowTint = 0,
			Shadows2012 = 49,
			SharpenDetail = 25,
			SharpenEdgeMasking = 0,
			SharpenRadius = 1,
			Sharpness = 35,
			SplitToningBalance = 0,
			SplitToningHighlightHue = 34,
			SplitToningHighlightSaturation = 0,
			SplitToningShadowHue = 50,
			SplitToningShadowSaturation = 15,
			ToneCurveName2012 = "Custom",
			ToneCurvePV2012 = {
				0,
				19,
				56,
				68,
				185,
				175,
				255,
				224,
			},
			ToneCurvePV2012Blue = {
				0,
				0,
				39,
				13,
				87,
				65,
				123,
				124,
				183,
				199,
				255,
				255,
			},
			ToneCurvePV2012Green = {
				0,
				0,
				40,
				14,
				83,
				59,
				123,
				126,
				172,
				185,
				255,
				255,
			},
			ToneCurvePV2012Red = {
				0,
				0,
				40,
				12,
				84,
				58,
				123,
				125,
				186,
				196,
				255,
				255,
			},
			Vibrance = 19,
			VignetteAmount = 0,
			VignetteMidpoint = 50,
			WhiteBalance = "As Shot",
			Whites2012 = -38,
		},
		uuid = "9BB78C62-5750-4E4A-9E4B-71E63195B798",
	},
	version = 0,
}
