20 Preset/Japan Style/【1】LRtemplate Lightroom bản cũ/Japan TONE/Japan Style TONE (30).lrtemplate
s = {
	id = "7B85B11D-991A-4BE7-AB4A-D6F1711308EE",
	internalName = "30日系岩井俊二风（素材江湖）",
	title = "30日系岩井俊二风（素材江湖）",
	type = "Develop",
	value = {
		settings = {
			AutoLateralCA = 0,
			Blacks2012 = 19,
			BlueHue = -44,
			BlueSaturation = 33,
			CameraProfile = "Embedded",
			ChromaticAberrationB = 0,
			ChromaticAberrationR = 0,
			Clarity2012 = -14,
			ColorNoiseReduction = 14,
			ColorNoiseReductionDetail = 50,
			ColorNoiseReductionSmoothness = 50,
			Contrast2012 = 35,
			ConvertToGrayscale = false,
			CropConstrainToWarp = 0,
			Defringe = 0,
			DefringeGreenAmount = 0,
			DefringeGreenHueHi = 60,
			DefringeGreenHueLo = 40,
			DefringePurpleAmount = 0,
			DefringePurpleHueHi = 70,
			DefringePurpleHueLo = 30,
			Dehaze = 0,
			EnableCalibration = true,
			EnableColorAdjustments = true,
			EnableDetail = true,
			EnableEffects = true,
			EnableLensCorrections = true,
			EnableSplitToning = true,
			Exposure2012 = 0,
			GrainAmount = 0,
			GrainFrequency = 50,
			GrainSize = 25,
			GreenHue = 46,
			GreenSaturation = 0,
			Highlights2012 = -39,
			HueAdjustmentAqua = 0,
			HueAdjustmentBlue = 0,
			HueAdjustmentGreen = 0,
			HueAdjustmentMagenta = 0,
			HueAdjustmentOrange = 0,
			HueAdjustmentPurple = 0,
			HueAdjustmentRed = 0,
			HueAdjustmentYellow = 0,
			IncrementalTemperature = 0,
			IncrementalTint = 69,
			LensManualDistortionAmount = 0,
			LuminanceAdjustmentAqua = 0,
			LuminanceAdjustmentBlue = 0,
			LuminanceAdjustmentGreen = 0,
			LuminanceAdjustmentMagenta = 0,
			LuminanceAdjustmentOrange = 0,
			LuminanceAdjustmentPurple = 0,
			LuminanceAdjustmentRed = 0,
			LuminanceAdjustmentYellow = 0,
			LuminanceNoiseReductionContrast = 25,
			LuminanceNoiseReductionDetail = 50,
			LuminanceSmoothing = 37,
			ParametricDarks = 52,
			ParametricHighlightSplit = 90,
			ParametricHighlights = 0,
			ParametricLights = 0,
			ParametricMidtoneSplit = 59,
			ParametricShadowSplit = 10,
			ParametricShadows = 0,
			PostCropVignetteAmount = -7,
			PostCropVignetteFeather = 50,
			PostCropVignetteHighlightContrast = 0,
			PostCropVignetteMidpoint = 50,
			PostCropVignetteRoundness = 0,
			PostCropVignetteStyle = 1,
			ProcessVersion = "6.7",
			RedHue = 49,
			RedSaturation = 0,
			Saturation = -15,
			SaturationAdjustmentAqua = -14,
			SaturationAdjustmentBlue = -14,
			SaturationAdjustmentGreen = -14,
			SaturationAdjustmentMagenta = -14,
			SaturationAdjustmentOrange = -12,
			SaturationAdjustmentPurple = -14,
			SaturationAdjustmentRed = -12,
			SaturationAdjustmentYellow = -13,
			ShadowTint = 0,
			Shadows2012 = 17,
			SharpenDetail = 60,
			SharpenEdgeMasking = 0,
			SharpenRadius = 0.5,
			Sharpness = 54,
			SplitToningBalance = 0,
			SplitToningHighlightHue = 78,
			SplitToningHighlightSaturation = 28,
			SplitToningShadowHue = 236,
			SplitToningShadowSaturation = 20,
			ToneCurveName2012 = "Linear",
			ToneCurvePV2012 = {
				0,
				0,
				255,
				255,
			},
			ToneCurvePV2012Blue = {
				0,
				0,
				255,
				255,
			},
			ToneCurvePV2012Green = {
				0,
				0,
				255,
				255,
			},
			ToneCurvePV2012Red = {
				0,
				0,
				255,
				255,
			},
			Vibrance = 20,
			VignetteAmount = -48,
			VignetteMidpoint = 0,
			WhiteBalance = "Custom",
			Whites2012 = -5,
		},
		uuid = "122B1772-47A1-4E05-B2E8-AFD140F4F62B",
	},
	version = 0,
}
