20 Preset/Rover Style/【3】LUT video cho PR-AE-FCPX/Rover 02.cube
# Created by Adobe Lightroom plugin Export LUT (1.24.0)
# www.johnrellis.com/lightroom/exportlut.htm
# Preset: Rover 02
# Color profile: E:\lut插件\exportlut.1.24\exportlut.lrplugin\color profiles\Rec709gamma2.4.icc
LUT_3D_SIZE 32
DOMAIN_MIN 0.0 0.0 0.0
DOMAIN_MAX 1.0 1.0 1.0
0.053346 0.037018 0.052613
0.055329 0.036805 0.052583
0.059571 0.038514 0.053407
0.074983 0.042298 0.055970
0.089845 0.046143 0.060639
0.100221 0.052705 0.065919
0.112428 0.059144 0.071046
0.128847 0.065064 0.074586
0.150912 0.067262 0.078645
0.177951 0.068574 0.080018
0.211002 0.066346 0.082002
0.249180 0.058717 0.082307
0.292790 0.044831 0.083284
0.341344 0.021057 0.082521
0.394079 0.000000 0.081453
0.450050 0.000000 0.079835
0.507591 0.000000 0.078218
0.564355 0.000000 0.077699
0.618311 0.000000 0.078889
0.668208 0.000000 0.079957
0.712673 0.000000 0.084443
0.751675 0.082795 0.090333
0.786374 0.137697 0.096529
0.817838 0.181827 0.105226
0.846159 0.221897 0.115602
0.870970 0.259770 0.129091
0.892760 0.296300 0.143954
0.911925 0.330449 0.161959
0.928832 0.363531 0.181704
0.944274 0.395819 0.203372
0.958556 0.426825 0.227115
0.971618 0.456794 0.253056
0.054322 0.037995 0.053590
0.054322 0.037995 0.053590
0.059846 0.040711 0.054231
0.075959 0.043275 0.056947
0.090211 0.047120 0.061616
0.100282 0.054902 0.066743
0.112490 0.061311 0.071870
0.129061 0.066041 0.075563
0.151003 0.069459 0.078462
0.178439 0.069337 0.079927
0.211368 0.067109 0.081910
0.249546 0.060456 0.082826
0.293187 0.045380 0.083162
0.341680 0.025940 0.082734
0.394415 0.000000 0.081849
0.450202 0.000000 0.080049
0.507836 0.000000 0.078523
0.564263 0.000000 0.078218
0.618341 0.000000 0.079011
0.668360 0.000000 0.080690
0.712490 0.000000 0.084504
0.751522 0.086061 0.090547
0.785916 0.138949 0.097169
0.817655 0.182467 0.105440
0.845914 0.222782 0.115694
0.870756 0.260380 0.128939
0.892576 0.296788 0.144259
0.911742 0.331090 0.161959
0.928618 0.364141 0.181521
0.944152 0.395972 0.203067
0.958343 0.426917 0.227237
0.971466 0.457099 0.252873
0.057527 0.043091 0.057343
0.056825 0.044312 0.057191
0.061463 0.044831 0.059266
0.079561 0.049348 0.060548
0.090120 0.054871 0.065064
0.101076 0.061189 0.070375
0.113466 0.066438 0.074495
0.130739 0.070710 0.078157
0.152651 0.075105 0.079255
0.180179 0.075746 0.081331
0.213169 0.074281 0.082521
0.251804 0.067689 0.083314
0.295109 0.055787 0.083375
0.343847 0.034028 0.083009
0.396612 0.005402 0.081605
0.452399 0.000000 0.080507
0.509636 0.000000 0.079316
0.566125 0.000000 0.078492
0.619745 0.000000 0.079042
0.669276 0.000000 0.081971
0.713313 0.000000 0.086122
0.752071 0.100679 0.091707
0.786526 0.147463 0.097658
0.817868 0.188724 0.106233
0.846098 0.227543 0.117006
0.870726 0.264530 0.129976
0.892485 0.299809 0.145754
0.911589 0.334112 0.162905
0.928496 0.366735 0.182650
0.943908 0.398474 0.204257
0.958190 0.429084 0.227939
0.971252 0.458717 0.253819
0.065156 0.056489 0.066651
0.067140 0.056245 0.066651
0.071778 0.056794 0.068727
0.078309 0.059266 0.072786
0.091249 0.067720 0.072297
0.102541 0.072847 0.074342
0.116274 0.077424 0.078309
0.133852 0.080812 0.079805
0.156497 0.083009 0.081605
0.184482 0.084199 0.082765
0.217746 0.083955 0.083711
0.256260 0.081270 0.084901
0.300053 0.073610 0.084535
0.348425 0.056306 0.084382
0.401160 0.030243 0.082551
0.456611 0.000000 0.081453
0.513359 0.000000 0.081270
0.569360 0.000000 0.080507
0.622675 0.000000 0.081880
0.671504 0.000000 0.084291
0.714809 0.061860 0.088869
0.753201 0.121492 0.093446
0.787167 0.161959 0.099733
0.818296 0.199832 0.108309
0.846250 0.237064 0.119142
0.870787 0.272618 0.132509
0.892454 0.307286 0.147707
0.911406 0.340246 0.165805
0.928283 0.372198 0.184970
0.943633 0.403510 0.206729
0.957794 0.433295 0.230747
0.970855 0.462470 0.256779
0.077394 0.072541 0.079316
0.076692 0.073762 0.079225
0.080323 0.074281 0.079805
0.085878 0.076539 0.081636
0.090974 0.079011 0.084749
0.102327 0.086458 0.084749
0.119936 0.089845 0.082643
0.138888 0.091768 0.083314
0.162356 0.093477 0.084169
0.190860 0.095186 0.085634
0.224308 0.095674 0.086275
0.263340 0.095674 0.086824
0.307256 0.093446 0.086610
0.355505 0.088594 0.086549
0.407935 0.077302 0.085237
0.463539 0.050996 0.083894
0.519768 0.028565 0.083253
0.574792 0.017090 0.083925
0.627161 0.028595 0.084291
0.675074 0.079713 0.088197
0.717556 0.115541 0.091554
0.755215 0.149020 0.096834
0.788510 0.182773 0.104158
0.819486 0.217655 0.111971
0.846921 0.251926 0.122835
0.871122 0.285405 0.136599
0.892454 0.318334 0.151644
0.911192 0.350072 0.169863
0.927886 0.380926 0.189090
0.943206 0.410925 0.210941
0.957336 0.440101 0.234684
0.970275 0.468482 0.260807
0.083711 0.088563 0.087800
0.084962 0.088472 0.087800
0.087861 0.088685 0.088594
0.091157 0.089509 0.089693
0.095766 0.091005 0.091493
0.101167 0.093141 0.094789
0.116152 0.100313 0.094606
0.144015 0.106538 0.090242
0.169955 0.107881 0.088930
0.199771 0.109590 0.088746
0.233738 0.111482 0.089113
0.273320 0.112459 0.089082
0.317082 0.112947 0.088746
0.365698 0.111177 0.088502
0.418128 0.108156 0.087892
0.472908 0.104280 0.086580
0.528283 0.100801 0.087556
0.582483 0.102510 0.088014
0.633509 0.111513 0.089540
0.680079 0.128420 0.091920
0.721309 0.152590 0.096071
0.758145 0.180240 0.101381
0.792660 0.211490 0.108766
0.822629 0.242008 0.118013
0.849180 0.273747 0.129610
0.872740 0.304753 0.143221
0.893492 0.335393 0.158968
0.911803 0.365393 0.176303
0.928161 0.394598 0.196323
0.943206 0.423133 0.218265
0.957153 0.451057 0.241855
0.970031 0.478035 0.267643
0.089387 0.100526 0.094759
0.089998 0.100465 0.095155
0.091463 0.101015 0.095827
0.095369 0.101656 0.096803
0.100465 0.103548 0.098756
0.107759 0.106050 0.101900
0.116182 0.109194 0.106142
0.135592 0.119356 0.107851
0.174472 0.130190 0.099702
0.209262 0.133333 0.095796
0.246494 0.133791 0.091951
0.286351 0.136294 0.092073
0.330846 0.137819 0.091524
0.379492 0.138674 0.090852
0.431617 0.138888 0.090547
0.485695 0.138521 0.090181
0.540124 0.140688 0.090730
0.592645 0.145876 0.091737
0.641871 0.155489 0.093996
0.686915 0.170962 0.097078
0.727047 0.191226 0.101564
0.762600 0.214694 0.107607
0.794461 0.240513 0.115846
0.823850 0.268376 0.124941
0.849973 0.297398 0.136110
0.872953 0.325505 0.150454
0.893309 0.353979 0.165957
0.911284 0.381903 0.183902
0.927337 0.409430 0.203647
0.942321 0.436255 0.225376
0.956176 0.462684 0.248905
0.968872 0.488563 0.274968
0.093233 0.117678 0.104646
0.093935 0.117617 0.104646
0.096407 0.118257 0.105165
0.100160 0.119326 0.106294
0.106386 0.120974 0.108248
0.115145 0.123598 0.111513
0.125185 0.127199 0.115999
0.136995 0.131777 0.122225
0.160372 0.145174 0.126314
0.207553 0.161227 0.115084
0.255711 0.168429 0.106600
0.299229 0.169039 0.100282
0.346197 0.169162 0.094972
0.395209 0.171695 0.094148
0.447059 0.173617 0.094118
0.500023 0.176272 0.094179
0.552911 0.180667 0.095247
0.603479 0.187655 0.097078
0.650965 0.198337 0.100221
0.693965 0.212833 0.103304
0.732174 0.230350 0.108980
0.766293 0.250980 0.115785
0.797299 0.273808 0.123598
0.825559 0.298558 0.133761
0.850889 0.324224 0.145174
0.873228 0.350256 0.159701
0.893034 0.376104 0.175265
0.910552 0.401556 0.193423
0.926421 0.427039 0.213413
0.941192 0.452155 0.235233
0.954894 0.476936 0.258671
0.967529 0.501274 0.284459
0.098299 0.140871 0.117494
0.098878 0.140841 0.117800
0.101289 0.141329 0.117952
0.105898 0.142519 0.119692
0.113588 0.144533 0.121492
0.123751 0.147250 0.124392
0.135744 0.150820 0.129122
0.149294 0.156069 0.135409
0.164889 0.162325 0.143709
0.191379 0.177676 0.151400
0.246281 0.198795 0.137636
0.308568 0.211795 0.124269
0.358282 0.213230 0.114290
0.411566 0.211673 0.102480
0.464485 0.213230 0.098146
0.516136 0.217899 0.099550
0.567376 0.223758 0.101198
0.615778 0.231296 0.103883
0.660822 0.241978 0.107576
0.701595 0.255344 0.112642
0.737881 0.271641 0.117586
0.770413 0.289525 0.125673
0.800443 0.309545 0.133700
0.827543 0.331579 0.144503
0.851804 0.354742 0.156710
0.873381 0.377752 0.170993
0.892576 0.401007 0.187137
0.909636 0.424414 0.205173
0.925383 0.447425 0.224826
0.939910 0.470436 0.246769
0.953491 0.493446 0.270054
0.965911 0.516289 0.296147
0.104097 0.170535 0.134127
0.104372 0.170687 0.134340
0.107424 0.171176 0.134920
0.113313 0.172519 0.136263
0.121553 0.174441 0.138369
0.133425 0.176852 0.140932
0.147250 0.180636 0.145327
0.163516 0.185916 0.152071
0.181216 0.192050 0.160067
0.199954 0.199741 0.169986
0.228275 0.216129 0.182437
0.291386 0.242161 0.166476
0.362829 0.259983 0.149447
0.421912 0.264927 0.136446
0.478096 0.264897 0.121981
0.533471 0.263645 0.106203
0.582513 0.270024 0.109194
0.628687 0.277714 0.112367
0.670985 0.288090 0.117220
0.709499 0.300023 0.122530
0.743832 0.314702 0.128908
0.774838 0.330205 0.136934
0.803311 0.348028 0.146578
0.829313 0.366979 0.156924
0.852445 0.387121 0.169955
0.873259 0.407416 0.184329
0.891783 0.428260 0.200595
0.908507 0.448707 0.218784
0.923949 0.469581 0.238895
0.938384 0.490730 0.260349
0.951720 0.511681 0.283909
0.964050 0.532921 0.309514
0.111971 0.206058 0.154543
0.112886 0.206149 0.154513
0.116426 0.206607 0.155154
0.122713 0.207828 0.156405
0.132570 0.209964 0.158572
0.145510 0.212436 0.161685
0.160861 0.215915 0.165347
0.179141 0.220676 0.171328
0.198489 0.226932 0.179294
0.220096 0.234440 0.188968
0.242649 0.243381 0.200137
0.272862 0.260136 0.216556
0.341588 0.290043 0.200198
0.418067 0.311315 0.181613
0.486763 0.322148 0.164309
0.541405 0.323827 0.150088
0.594202 0.324224 0.133272
0.641382 0.326818 0.123690
0.681178 0.335943 0.128847
0.716976 0.346777 0.135561
0.749538 0.358770 0.143008
0.779019 0.372351 0.151278
0.806271 0.387762 0.160555
0.830808 0.404273 0.172244
0.853056 0.421302 0.185153
0.872984 0.439124 0.199985
0.890929 0.456947 0.216800
0.907225 0.475013 0.234806
0.922423 0.493446 0.255131
0.936584 0.512566 0.276463
0.949798 0.531640 0.299962
0.961975 0.551019 0.325444
0.123873 0.246433 0.177768
0.125093 0.246494 0.177890
0.128908 0.246921 0.178408
0.135683 0.248020 0.179721
0.146487 0.249882 0.181765
0.160006 0.252384 0.184512
0.177340 0.255741 0.188571
0.196933 0.259770 0.193179
0.218601 0.265751 0.200900
0.241886 0.272953 0.210117
0.266606 0.281621 0.220920
0.292515 0.291630 0.233402
0.327398 0.310246 0.251011
0.397833 0.342138 0.237827
0.474891 0.366003 0.218723
0.549584 0.382696 0.198459
0.600031 0.385809 0.184298
0.647303 0.387152 0.168368
0.690303 0.388769 0.151278
0.725643 0.395758 0.151431
0.756130 0.405951 0.159213
0.783932 0.416907 0.168460
0.809689 0.429603 0.178500
0.832944 0.443153 0.190860
0.853941 0.457740 0.204471
0.872984 0.472267 0.219669
0.890196 0.487587 0.236210
0.906065 0.503166 0.254551
0.920989 0.519493 0.274144
0.934844 0.536187 0.295689
0.947692 0.553460 0.319036
0.959655 0.571099 0.344182
0.141878 0.290837 0.203616
0.142763 0.290959 0.203555
0.146304 0.291447 0.204349
0.153719 0.292638 0.205753
0.165255 0.293980 0.207309
0.179965 0.296513 0.210208
0.197665 0.299596 0.213993
0.218051 0.303349 0.218204
0.240848 0.308537 0.224369
0.266117 0.315129 0.233066
0.292668 0.323308 0.243534
0.320684 0.332616 0.255375
0.349248 0.343359 0.268681
0.385626 0.361639 0.286168
0.453010 0.393713 0.277287
0.527489 0.418921 0.258122
0.597681 0.437201 0.237949
0.647944 0.444587 0.222354
0.688716 0.447150 0.208316
0.726406 0.449073 0.193088
0.760555 0.451270 0.178622
0.787015 0.459937 0.188357
0.811429 0.470039 0.198917
0.833646 0.480903 0.211185
0.853788 0.492439 0.225284
0.872129 0.504540 0.240269
0.888762 0.517449 0.257053
0.904265 0.531060 0.275242
0.918883 0.545159 0.294957
0.932525 0.560052 0.316075
0.945190 0.575525 0.339117
0.956878 0.591516 0.364385
0.166079 0.337774 0.231022
0.166262 0.337957 0.231205
0.170626 0.338231 0.231540
0.178073 0.339330 0.232761
0.188876 0.340764 0.234745
0.204166 0.342748 0.236942
0.222049 0.345525 0.240391
0.243015 0.349096 0.244633
0.266667 0.353002 0.249729
0.292668 0.358862 0.257176
0.320470 0.366064 0.266911
0.349340 0.374853 0.278019
0.379004 0.384375 0.290532
0.408820 0.395422 0.304784
0.444923 0.413428 0.322454
0.506126 0.444038 0.318090
0.575006 0.469703 0.299382
0.636927 0.488106 0.280308
0.686885 0.498909 0.263188
0.722652 0.501610 0.250858
0.755947 0.503319 0.237766
0.786709 0.505272 0.224735
0.812924 0.509453 0.221805
0.834012 0.517906 0.234470
0.853239 0.527092 0.248783
0.870909 0.536950 0.263523
0.887083 0.547570 0.280797
0.902312 0.559136 0.298589
0.916594 0.571527 0.317845
0.929900 0.584466 0.339025
0.942382 0.598169 0.361608
0.953796 0.612604 0.386938
0.196750 0.385779 0.259464
0.197910 0.385962 0.259403
0.201083 0.386236 0.260075
0.208652 0.386969 0.261051
0.219760 0.388464 0.262913
0.234928 0.389868 0.265110
0.252750 0.392401 0.268223
0.273411 0.395392 0.272190
0.296666 0.398840 0.276646
0.322332 0.403174 0.282444
0.349981 0.409461 0.291264
0.379309 0.417151 0.301854
0.408759 0.425757 0.313756
0.438270 0.435431 0.326940
0.467475 0.446204 0.341558
0.501305 0.463233 0.359350
0.555047 0.491615 0.359808
0.615686 0.516320 0.342168
0.670283 0.533898 0.324315
0.718715 0.546746 0.306920
0.750851 0.549706 0.295720
0.780209 0.551843 0.285252
0.807584 0.553491 0.275334
0.832792 0.555138 0.266361
0.852537 0.560723 0.274479
0.869413 0.568658 0.289647
0.885283 0.577569 0.306096
0.900114 0.587213 0.324071
0.914092 0.597742 0.343114
0.927092 0.609155 0.364233
0.939300 0.621271 0.386725
0.950500 0.634150 0.411353
0.237034 0.432898 0.288548
0.237736 0.432990 0.288670
0.240909 0.433478 0.289250
0.247959 0.433997 0.290288
0.257755 0.435004 0.291447
0.271794 0.436500 0.293797
0.288884 0.438483 0.296757
0.308721 0.441138 0.300542
0.331090 0.444068 0.304692
0.355200 0.447547 0.309941
0.381048 0.452125 0.316564
0.409613 0.458778 0.326757
0.438270 0.466224 0.337835
0.466896 0.474617 0.350286
0.495033 0.483833 0.363928
0.521935 0.494118 0.378851
0.551904 0.509270 0.396826
0.596796 0.534783 0.402319
0.650111 0.557794 0.385657
0.698360 0.574456 0.369268
0.741604 0.586755 0.353887
0.774075 0.592126 0.342962
0.800076 0.594141 0.335119
0.824338 0.595911 0.327886
0.847013 0.597559 0.321599
0.867796 0.599603 0.318456
0.883207 0.606867 0.334630
0.897704 0.615015 0.352178
0.911406 0.623865 0.370581
0.924102 0.633783 0.391211
0.935943 0.644312 0.413519
0.946868 0.655879 0.437903
0.282200 0.477974 0.318395
0.282628 0.478065 0.318425
0.285954 0.478370 0.319036
0.291661 0.478950 0.319890
0.300694 0.479652 0.321141
0.313024 0.480995 0.323461
0.328557 0.482551 0.326055
0.346899 0.484657 0.329473
0.367468 0.487068 0.333501
0.390021 0.489937 0.338445
0.413855 0.493233 0.343938
0.439857 0.498146 0.352026
0.467231 0.504601 0.362768
0.494362 0.511833 0.374640
0.520623 0.519707 0.387457
0.545922 0.528313 0.401434
0.569726 0.537499 0.416480
0.595270 0.550744 0.434394
0.632380 0.573571 0.444953
0.679377 0.595270 0.429755
0.722683 0.611292 0.415412
0.760891 0.622736 0.402289
0.792966 0.629877 0.392004
0.816098 0.631922 0.386603
0.837797 0.633722 0.381659
0.858549 0.635554 0.377874
0.878264 0.637842 0.375463
0.895201 0.642084 0.381598
0.908415 0.649622 0.400336
0.920806 0.658045 0.420600
0.932403 0.667231 0.442267
0.942931 0.677516 0.466438
0.329747 0.519860 0.349035
0.330785 0.519921 0.349126
0.334295 0.520989 0.350164
0.339330 0.521416 0.351171
0.347601 0.522087 0.352453
0.358343 0.523125 0.354406
0.371832 0.524285 0.356909
0.388159 0.525780 0.359869
0.406622 0.527764 0.363867
0.427100 0.529900 0.368231
0.448768 0.532433 0.373419
0.471473 0.535576 0.379309
0.496223 0.540917 0.389227
0.520989 0.546777 0.400305
0.545373 0.553368 0.412482
0.568536 0.560815 0.425757
0.590600 0.568719 0.439887
0.611292 0.577417 0.455146
0.632685 0.588891 0.472572
0.663447 0.609247 0.487739
0.705501 0.629999 0.474647
0.743435 0.644770 0.462745
0.777005 0.655421 0.452399
0.807401 0.663050 0.442878
0.829038 0.665797 0.438911
0.849027 0.667994 0.436469
0.868315 0.670222 0.434760
0.886778 0.672724 0.434272
0.904143 0.675563 0.436103
0.917327 0.681697 0.451667
0.928496 0.689784 0.473030
0.938750 0.698878 0.496468
0.378882 0.558068 0.380652
0.379522 0.558251 0.380987
0.381842 0.558465 0.381170
0.386450 0.558709 0.382147
0.393408 0.559533 0.383581
0.402808 0.560143 0.385107
0.414801 0.561089 0.387518
0.428656 0.562280 0.390448
0.444953 0.563775 0.394110
0.462898 0.565728 0.398413
0.482124 0.567834 0.403174
0.502159 0.570245 0.408728
0.523308 0.573510 0.415839
0.545678 0.578790 0.426429
0.567712 0.584649 0.438025
0.589044 0.591089 0.450690
0.609400 0.597986 0.464027
0.628687 0.605554 0.478584
0.646876 0.613672 0.493843
0.665187 0.623804 0.510796
0.690272 0.641901 0.530480
0.726925 0.660914 0.519768
0.760220 0.674525 0.510277
0.790158 0.684443 0.502007
0.817533 0.691859 0.495064
0.840146 0.696223 0.491066
0.858610 0.698970 0.490608
0.876432 0.701595 0.491127
0.893431 0.704433 0.493416
0.909575 0.707668 0.497383
0.924376 0.711727 0.505028
0.934264 0.719753 0.528008
0.427344 0.593378 0.413489
0.428199 0.593469 0.413825
0.429908 0.593591 0.414008
0.433509 0.594049 0.414893
0.439429 0.594446 0.416175
0.447150 0.595087 0.417853
0.457191 0.595911 0.420142
0.469490 0.596826 0.422858
0.483253 0.598138 0.426215
0.498665 0.599542 0.430121
0.514946 0.601373 0.434699
0.532464 0.603388 0.439887
0.550469 0.605768 0.445594
0.569726 0.609674 0.454292
0.589624 0.614801 0.465278
0.609064 0.620417 0.477302
0.627771 0.626581 0.490089
0.645747 0.633204 0.503838
0.662593 0.640223 0.518425
0.678279 0.647578 0.533684
0.693477 0.656092 0.550256
0.712917 0.671382 0.573266
0.744778 0.688685 0.564874
0.773892 0.701320 0.557641
0.800961 0.710903 0.551659
0.826596 0.718441 0.546288
0.849577 0.724208 0.542748
0.866636 0.727169 0.544335
0.882994 0.730312 0.547448
0.898680 0.733577 0.551873
0.913390 0.737453 0.558618
0.927123 0.741848 0.567773
0.473213 0.626581 0.448096
0.473610 0.626612 0.448096
0.475257 0.626825 0.448554
0.478523 0.627070 0.449317
0.482948 0.627527 0.450385
0.489418 0.627985 0.451850
0.497993 0.628565 0.453864
0.507897 0.629511 0.456428
0.519707 0.630488 0.459724
0.532403 0.631830 0.463325
0.546532 0.633356 0.467597
0.561700 0.635004 0.472358
0.577356 0.637140 0.478035
0.593317 0.639307 0.483833
0.610986 0.643702 0.494331
0.628504 0.648524 0.505577
0.645533 0.653742 0.517784
0.661830 0.659297 0.530816
0.677272 0.665187 0.544640
0.691676 0.671473 0.559228
0.704982 0.678035 0.574487
0.717311 0.685115 0.590112
0.733089 0.698329 0.613123
0.760037 0.713863 0.608667
0.786313 0.725978 0.603632
0.811215 0.735592 0.599664
0.834775 0.743221 0.596460
0.856870 0.749447 0.594476
0.873716 0.753292 0.597101
0.888701 0.756893 0.602167
0.902953 0.760800 0.608728
0.916411 0.765042 0.617304
0.515404 0.658076 0.484230
0.515923 0.658137 0.484199
0.517082 0.658198 0.484504
0.519615 0.658381 0.485298
0.523552 0.658625 0.486244
0.529015 0.659052 0.487739
0.535851 0.659602 0.489540
0.543969 0.660243 0.491890
0.553674 0.661006 0.494697
0.564752 0.662104 0.498268
0.576898 0.663203 0.502251
0.589624 0.664546 0.506676
0.602991 0.666224 0.511894
0.617060 0.668025 0.517479
0.631647 0.670527 0.524834
0.647211 0.674525 0.535607
0.662348 0.678859 0.547143
0.677089 0.683619 0.559655
0.691035 0.688502 0.572564
0.704067 0.693782 0.586023
0.716243 0.699367 0.599939
0.727443 0.705165 0.614069
0.737728 0.711116 0.628138
0.751095 0.722683 0.648798
0.773800 0.736690 0.648646
0.797848 0.748531 0.645502
0.820829 0.757992 0.643214
0.842618 0.765621 0.642054
0.863035 0.771939 0.641962
0.880308 0.776761 0.644800
0.894041 0.780758 0.651392
0.907103 0.785153 0.659663
0.554528 0.685969 0.521111
0.554742 0.685969 0.521050
0.555749 0.686061 0.521416
0.557946 0.686183 0.522179
0.561059 0.686397 0.523003
0.565362 0.686671 0.524346
0.571069 0.687160 0.526177
0.578119 0.687648 0.528283
0.586114 0.688289 0.530907
0.595361 0.689113 0.534325
0.605432 0.689998 0.537957
0.616205 0.691157 0.542199
0.627741 0.692348 0.546807
0.639643 0.693843 0.552056
0.651881 0.695430 0.557794
0.665095 0.698299 0.566705
0.678584 0.701961 0.577630
0.691585 0.705898 0.588983
0.704067 0.710140 0.600855
0.715938 0.714565 0.613062
0.726955 0.719356 0.625574
0.737301 0.724300 0.638392
0.746914 0.729549 0.651148
0.755856 0.734981 0.663966
0.767666 0.745144 0.681819
0.787167 0.757900 0.684810
0.809232 0.769284 0.683192
0.830411 0.778531 0.682582
0.850431 0.786160 0.683162
0.869444 0.792599 0.684657
0.886870 0.798245 0.687739
0.899474 0.802762 0.695857
0.591211 0.711086 0.559289
0.591455 0.711116 0.559319
0.592279 0.711208 0.559686
0.593835 0.711299 0.560266
0.596399 0.711452 0.561059
0.599969 0.711635 0.562249
0.604578 0.711940 0.563836
0.610132 0.712337 0.565759
0.616724 0.712825 0.568261
0.624323 0.713436 0.571221
0.632654 0.714168 0.574578
0.641718 0.714992 0.578210
0.651270 0.716030 0.582605
0.661402 0.717189 0.587396
0.671656 0.718471 0.592370
0.682124 0.719966 0.597894
0.693874 0.723049 0.607691
0.705440 0.726406 0.617884
0.716487 0.730007 0.628534
0.727199 0.733913 0.639521
0.737331 0.738155 0.650843
0.746914 0.742580 0.662226
0.756039 0.747250 0.673671
0.764706 0.752163 0.685206
0.772763 0.757229 0.696681
0.783536 0.766384 0.712459
0.800259 0.777768 0.717739
0.820554 0.788693 0.717647
0.840055 0.797726 0.718593
0.858518 0.805356 0.720668
0.875914 0.812039 0.724025
0.892210 0.818173 0.728756
0.624292 0.733364 0.596887
0.624445 0.733425 0.597040
0.625177 0.733486 0.597253
0.626398 0.733608 0.597772
0.628534 0.733669 0.598535
0.631373 0.733913 0.599695
0.635065 0.734127 0.601038
0.639704 0.734463 0.602838
0.644953 0.734951 0.604913
0.651057 0.735439 0.607477
0.657923 0.736110 0.610498
0.665370 0.736812 0.613794
0.673274 0.737697 0.617548
0.681697 0.738705 0.621729
0.690364 0.739864 0.626246
0.699306 0.741085 0.631037
0.708827 0.743038 0.637476
0.718898 0.746029 0.646509
0.728847 0.749294 0.656062
0.738552 0.752865 0.665827
0.747921 0.756588 0.675807
0.756924 0.760586 0.685969
0.765530 0.764797 0.696254
0.773770 0.769162 0.706538
0.781582 0.773678 0.717067
0.788998 0.778347 0.727596
0.798764 0.786557 0.741878
0.812955 0.796597 0.749020
0.831662 0.807126 0.750240
0.849607 0.816037 0.752590
0.866545 0.823789 0.756283
0.882444 0.830564 0.760708
0.653346 0.754391 0.633234
0.653620 0.754391 0.633204
0.653956 0.754421 0.633387
0.655116 0.754513 0.633936
0.656764 0.754665 0.634607
0.658930 0.754788 0.635401
0.661952 0.755093 0.636713
0.665705 0.755367 0.638239
0.670008 0.755795 0.640070
0.675013 0.756283 0.642359
0.680629 0.756863 0.644862
0.686854 0.757504 0.647639
0.693416 0.758358 0.651057
0.700526 0.759243 0.654566
0.707912 0.760281 0.658442
0.715541 0.761440 0.662623
0.723415 0.762753 0.667262
0.732113 0.765072 0.674281
0.741085 0.768002 0.682643
0.749874 0.771176 0.691310
0.758480 0.774533 0.700099
0.766964 0.778103 0.709346
0.775082 0.781796 0.718624
0.783017 0.785702 0.728206
0.790555 0.789761 0.737850
0.797757 0.793973 0.747494
0.804654 0.798276 0.757107
0.813504 0.805509 0.769589
0.825528 0.814420 0.777737
0.842771 0.824643 0.780301
0.859159 0.833280 0.783566
0.874571 0.840696 0.787503
0.678614 0.774533 0.667323
0.678767 0.774563 0.667384
0.679164 0.774624 0.667597
0.680018 0.774716 0.667933
0.681422 0.774838 0.668544
0.683253 0.775021 0.669337
0.685786 0.775265 0.670405
0.688838 0.775601 0.671901
0.692470 0.775998 0.673457
0.696681 0.776486 0.675502
0.701472 0.777066 0.677790
0.706630 0.777768 0.680293
0.712337 0.778500 0.683162
0.718379 0.779385 0.686397
0.724788 0.780301 0.689693
0.731441 0.781369 0.693324
0.738308 0.782559 0.697322
0.745480 0.783902 0.701686
0.753597 0.786496 0.709194
0.761746 0.789303 0.716976
0.769802 0.792294 0.725063
0.777707 0.795438 0.733394
0.785428 0.798764 0.741939
0.792966 0.802274 0.750607
0.800229 0.805844 0.759274
0.807187 0.809659 0.767971
0.813840 0.813535 0.776638
0.820218 0.817563 0.785183
0.828336 0.824002 0.795926
0.838315 0.831540 0.804196
0.853849 0.841001 0.807004
0.868742 0.849271 0.810727
0.701472 0.794308 0.699977
0.701534 0.794308 0.700038
0.701961 0.794339 0.700191
0.702632 0.794400 0.700435
0.703731 0.794522 0.700954
0.705348 0.794675 0.701717
0.707362 0.794919 0.702602
0.709926 0.795163 0.703731
0.713039 0.795499 0.705135
0.716609 0.795895 0.706813
0.720638 0.796414 0.708858
0.725093 0.797024 0.711055
0.730068 0.797665 0.713497
0.735317 0.798428 0.716243
