20 Preset/Rover Style/【3】LUT video cho PR-AE-FCPX/Rover C -.cube
# Created by Adobe Lightroom plugin Export LUT (1.24.0)
# www.johnrellis.com/lightroom/exportlut.htm
# Preset: Rover C -
# Color profile: E:\lut插件\exportlut.1.24\exportlut.lrplugin\color profiles\Rec709gamma2.4.icc
LUT_3D_SIZE 8
DOMAIN_MIN 0.000000 0.000000 0.000000
DOMAIN_MAX 0.903226 0.903226 0.903226
0.000000 0.000000 0.000000
0.099641 0.033814 0.033539
0.184848 0.101259 0.101106
0.280735 0.140078 0.139803
0.380011 0.189883 0.189822
0.476997 0.245853 0.245762
0.576623 0.302617 0.302708
0.694545 0.367132 0.367041
0.092195 0.118349 0.092073
0.126741 0.126864 0.101595
0.203159 0.143404 0.122744
0.292027 0.171817 0.156680
0.387091 0.214450 0.203555
0.481788 0.263920 0.256107
0.580591 0.316320 0.310399
0.697627 0.378424 0.373449
0.170199 0.235569 0.169711
0.189456 0.239231 0.174533
0.253635 0.253544 0.193515
0.329534 0.267979 0.217899
0.412665 0.292790 0.252537
0.500847 0.326085 0.293126
0.596887 0.367285 0.340002
0.710018 0.422370 0.398657
0.263005 0.354955 0.263188
0.273503 0.356939 0.265782
0.314427 0.365026 0.276921
0.380682 0.380560 0.298009
0.455299 0.396887 0.322515
0.534874 0.417578 0.351873
0.627283 0.449561 0.390753
0.731655 0.496620 0.445228
0.353765 0.473671 0.353826
0.360876 0.474922 0.355566
0.389227 0.480323 0.363043
0.439490 0.491127 0.377569
0.507408 0.507500 0.399298
0.582513 0.524895 0.423896
0.666194 0.550378 0.458991
0.759274 0.591119 0.512230
0.446754 0.595392 0.446723
0.451820 0.596307 0.448035
0.473487 0.600122 0.453803
0.513176 0.607813 0.465705
0.568780 0.619471 0.484047
0.635279 0.635279 0.509178
0.708644 0.656672 0.543267
0.791684 0.691585 0.593103
0.563378 0.719631 0.563348
0.566918 0.720272 0.564416
0.582391 0.722927 0.569360
0.611383 0.728298 0.579126
0.653315 0.736721 0.594293
0.704982 0.748318 0.614679
0.763119 0.763119 0.640009
0.830198 0.787411 0.677638
0.697322 0.844968 0.697353
0.699855 0.845426 0.698238
0.710353 0.847379 0.702144
0.730739 0.851316 0.709957
0.760800 0.857542 0.722133
0.799191 0.866239 0.738705
0.843503 0.877501 0.759640
0.891234 0.891264 0.784543
0.010193 0.009033 0.090242
0.100099 0.044007 0.100404
0.188846 0.108461 0.129366
0.285710 0.158206 0.172030
0.382971 0.206638 0.216556
0.478798 0.258030 0.265629
0.577905 0.310979 0.316747
0.695430 0.372473 0.377478
0.094545 0.120516 0.120424
0.128969 0.128969 0.128969
0.206394 0.152682 0.152529
0.295842 0.185611 0.185580
0.389380 0.227481 0.227420
0.483314 0.273930 0.273869
0.581750 0.323400 0.323430
0.698482 0.383337 0.383246
0.178592 0.237613 0.191958
0.195926 0.240879 0.195834
0.254398 0.254612 0.212192
0.329900 0.272007 0.235904
0.413611 0.298222 0.268040
0.501793 0.331334 0.306096
0.597772 0.371954 0.350378
0.710506 0.425818 0.407019
0.267430 0.355962 0.275059
0.277592 0.357824 0.277806
0.316686 0.365698 0.288090
0.381140 0.381231 0.307866
0.455299 0.398138 0.331548
0.535241 0.419623 0.360296
0.627802 0.451820 0.398291
0.731868 0.498756 0.451759
0.356176 0.474189 0.361364
0.363195 0.475441 0.363104
0.390845 0.480812 0.370214
0.440589 0.491493 0.384100
0.507927 0.507836 0.405280
0.582605 0.525536 0.429786
0.666407 0.551415 0.464485
0.759274 0.592279 0.517174
0.448157 0.595789 0.452064
0.453315 0.596643 0.453315
0.474739 0.600488 0.459266
0.514122 0.608087 0.470649
0.569360 0.619776 0.488777
0.635462 0.635523 0.513603
0.708675 0.657130 0.547387
0.791775 0.692164 0.596460
0.564385 0.719814 0.566827
0.567895 0.720424 0.568017
0.583215 0.723079 0.572869
0.612177 0.728420 0.582483
0.653742 0.736904 0.597314
0.705318 0.748501 0.617487
0.763272 0.763272 0.642481
0.830320 0.787716 0.679957
0.697597 0.845029 0.699214
0.700069 0.845518 0.700099
0.710567 0.847471 0.703975
0.730892 0.851408 0.711727
0.760952 0.857664 0.723751
0.799283 0.866361 0.740322
0.843595 0.877562 0.761013
0.891325 0.891356 0.785702
0.042237 0.043427 0.157137
0.102205 0.070893 0.163607
0.190372 0.116304 0.190494
0.289891 0.167636 0.225254
0.386755 0.222477 0.265202
0.482673 0.276799 0.310033
0.581872 0.327764 0.354986
0.698146 0.384710 0.409003
0.111482 0.130190 0.184146
0.136355 0.136141 0.189822
0.209659 0.160403 0.209689
0.300175 0.198001 0.238560
0.393133 0.243717 0.275395
0.487160 0.292027 0.317388
0.585504 0.338994 0.360540
0.701015 0.394720 0.414008
0.187533 0.241367 0.241337
0.204044 0.245029 0.244968
0.258061 0.258061 0.258061
0.332647 0.280003 0.279973
0.416449 0.308995 0.309087
0.504509 0.343053 0.343206
0.600732 0.383032 0.383062
0.712459 0.434791 0.434791
0.275700 0.358862 0.311101
0.286046 0.360784 0.313542
0.322484 0.368414 0.322362
0.383246 0.383215 0.339361
0.456580 0.401892 0.361486
0.536645 0.425422 0.389044
0.629786 0.458412 0.424933
0.732876 0.504936 0.475288
0.363073 0.476356 0.388373
0.369757 0.477546 0.389837
0.396185 0.482795 0.396277
0.444129 0.493233 0.409003
0.509209 0.509239 0.428443
0.583368 0.527672 0.451820
0.667048 0.554986 0.485878
0.759487 0.596368 0.536217
0.453773 0.597192 0.472908
0.458778 0.598077 0.474128
0.479438 0.601831 0.479438
0.517998 0.609339 0.490455
0.571832 0.620844 0.507469
0.636378 0.636408 0.530999
0.709133 0.658625 0.562951
0.792264 0.694179 0.609918
0.567956 0.720455 0.580835
0.571466 0.721065 0.581842
0.586450 0.723751 0.586450
0.614832 0.729091 0.595575
0.655756 0.737545 0.609613
0.706600 0.749111 0.628779
0.763882 0.763912 0.652735
0.831235 0.788937 0.689204
0.698207 0.845365 0.706538
0.700679 0.845853 0.707454
0.711177 0.847776 0.711238
0.731441 0.851743 0.718685
0.761440 0.858030 0.730404
0.799710 0.866728 0.746395
0.844022 0.878019 0.766598
0.891783 0.891783 0.790677
0.088746 0.088594 0.238895
0.118074 0.097414 0.243870
0.196048 0.129519 0.263096
0.292546 0.177279 0.292607
0.390387 0.230137 0.324590
0.485145 0.282475 0.359411
0.585473 0.335973 0.401129
0.701930 0.394354 0.452491
0.127749 0.143343 0.260441
0.148836 0.148806 0.264073
0.214786 0.170199 0.278538
0.302922 0.206058 0.302800
0.396612 0.250401 0.332341
0.489906 0.297673 0.365881
0.589441 0.348058 0.406867
0.704707 0.404547 0.457435
0.200504 0.247105 0.304509
0.215396 0.251072 0.307561
0.264439 0.264347 0.318059
0.336400 0.286015 0.336522
0.420020 0.316106 0.361120
0.507927 0.352392 0.391608
0.605463 0.394018 0.429328
0.715541 0.444190 0.476448
0.282628 0.362646 0.362554
0.292424 0.364599 0.364508
0.328496 0.372503 0.372503
0.387091 0.387091 0.387091
0.459571 0.407782 0.407630
0.539940 0.433570 0.433570
0.633234 0.466926 0.467018
0.734554 0.512627 0.512596
0.369909 0.479652 0.429908
0.376593 0.480934 0.431373
0.403265 0.486213 0.437781
0.449470 0.496468 0.449348
0.512047 0.511986 0.466590
0.585229 0.531640 0.488808
0.668544 0.560479 0.521355
0.760464 0.601526 0.566705
0.462440 0.599664 0.508202
0.467353 0.600519 0.509361
0.487343 0.604181 0.514366
0.524254 0.611505 0.524315
0.576104 0.622766 0.539574
0.638239 0.638209 0.560449
0.710475 0.661524 0.589837
0.793698 0.697108 0.632624
0.572442 0.721706 0.604883
0.575921 0.722316 0.605798
0.590509 0.724941 0.609979
0.618189 0.730343 0.618189
0.658381 0.738735 0.631098
0.708400 0.750332 0.648707
0.765194 0.765164 0.670832
0.833249 0.791196 0.705928
0.697688 0.846006 0.719661
0.700252 0.846464 0.720485
0.710750 0.848447 0.723995
0.731136 0.852445 0.731136
0.761349 0.858732 0.742275
0.799832 0.867491 0.757504
0.844511 0.878843 0.776852
0.892699 0.892729 0.799924
0.117372 0.117525 0.327886
0.140291 0.124331 0.331060
0.208011 0.149722 0.343816
0.296178 0.190677 0.364721
0.392218 0.239902 0.392218
0.489235 0.291051 0.422858
0.590448 0.342931 0.459083
0.706264 0.400916 0.506920
0.148684 0.161929 0.341955
0.166720 0.166323 0.344427
0.224949 0.184848 0.354925
0.306554 0.217350 0.373236
0.398749 0.259220 0.398779
0.493782 0.305699 0.428199
0.594385 0.354864 0.464027
0.709010 0.411078 0.511009
0.219638 0.260349 0.377295
0.231266 0.262882 0.379309
0.273686 0.273503 0.386816
0.340948 0.293828 0.401343
0.423072 0.322911 0.423194
0.511742 0.358740 0.449531
0.610315 0.399756 0.483925
0.719478 0.450385 0.527764
0.293126 0.366644 0.423346
0.302251 0.368811 0.425238
0.336858 0.377600 0.432502
0.392859 0.392920 0.445502
0.463508 0.413458 0.463508
0.544274 0.439979 0.486763
0.637415 0.473365 0.518242
0.737179 0.517479 0.558495
0.376959 0.483528 0.483497
0.383398 0.484749 0.484718
0.409308 0.490242 0.490333
0.455207 0.500694 0.500725
0.516167 0.516167 0.516167
0.588464 0.536950 0.537011
0.671107 0.565026 0.564996
0.762844 0.602564 0.602655
0.468757 0.602930 0.552758
0.473762 0.603754 0.553979
0.493935 0.607385 0.558495
0.530297 0.614557 0.567254
0.580163 0.625696 0.580133
0.641077 0.641138 0.598047
0.713436 0.664698 0.624231
0.796689 0.698482 0.661097
0.574945 0.723629 0.636957
0.578241 0.724208 0.637629
0.591455 0.726711 0.640650
0.618402 0.732021 0.647364
0.659022 0.740505 0.659022
0.709682 0.752224 0.675044
0.767178 0.767178 0.695338
0.836942 0.794034 0.728359
0.692317 0.846891 0.737179
0.694972 0.847349 0.737972
0.705928 0.849363 0.741268
0.727169 0.853391 0.747982
0.758511 0.859800 0.758572
0.798428 0.868681 0.772976
0.844572 0.880156 0.791348
0.894194 0.894194 0.813382
0.148928 0.148745 0.418402
0.166842 0.153872 0.420569
0.225650 0.174502 0.429450
0.306798 0.209140 0.445075
0.397894 0.252842 0.467140
0.494881 0.301152 0.494789
0.597620 0.352605 0.528893
0.712428 0.410407 0.573205
0.172763 0.184146 0.428046
0.188266 0.187961 0.429755
0.240421 0.204135 0.437598
0.316350 0.232792 0.452003
0.404517 0.270970 0.472847
0.499733 0.315465 0.499611
0.601526 0.364141 0.533043
0.714931 0.420294 0.576623
0.235355 0.273594 0.456123
0.246067 0.275853 0.457649
0.285924 0.285740 0.463874
0.349645 0.304570 0.475990
0.429297 0.332036 0.494392
0.518700 0.367041 0.518730
0.617029 0.407965 0.550134
0.724971 0.458900 0.590723
0.307500 0.377417 0.496651
0.315801 0.379522 0.498207
0.348211 0.387884 0.504509
0.400855 0.400824 0.514672
0.470497 0.420600 0.530694
0.552209 0.446845 0.552117
0.642908 0.480354 0.579644
0.742031 0.524743 0.616236
0.385260 0.490394 0.548943
0.391699 0.491798 0.550286
0.416693 0.497261 0.555077
0.461585 0.507439 0.564019
0.521813 0.521904 0.576867
0.594232 0.542504 0.594141
0.675471 0.569024 0.617945
0.767025 0.603113 0.649683
0.477882 0.608576 0.608637
0.482612 0.609430 0.609430
0.501701 0.612848 0.612879
0.536156 0.619593 0.619532
0.584131 0.630060 0.630091
0.645167 0.645167 0.645167
0.717525 0.666163 0.666163
0.800687 0.695491 0.695460
0.579217 0.726802 0.679652
0.582361 0.727382 0.680262
0.595361 0.729915 0.682948
0.620874 0.734951 0.688350
0.658869 0.743008 0.696864
0.710079 0.754757 0.710109
0.770138 0.770108 0.728481
0.842039 0.796506 0.757687
0.692775 0.848997 0.767971
0.694911 0.849424 0.768399
0.704067 0.851255 0.770321
0.722194 0.854917 0.774014
0.751919 0.861082 0.781277
0.794766 0.870207 0.794797
0.843900 0.881956 0.811978
0.896330 0.896300 0.832700
0.181186 0.180941 0.529931
0.196902 0.185275 0.531670
0.251194 0.202182 0.538323
0.329686 0.231907 0.550896
0.420356 0.270756 0.569329
0.517845 0.316228 0.592340
0.618799 0.366949 0.618830
0.720363 0.423102 0.648493
0.199008 0.209567 0.536828
0.213077 0.213107 0.538170
0.262913 0.226963 0.544366
0.337652 0.252384 0.556359
0.426184 0.287327 0.573907
0.522240 0.329686 0.596277
0.621973 0.378210 0.622095
0.722774 0.432624 0.651331
0.249851 0.289525 0.559350
0.260563 0.291783 0.560479
0.301030 0.301030 0.565789
0.366705 0.318883 0.575982
0.448280 0.345342 0.591394
0.539300 0.379706 0.611261
0.634852 0.421149 0.634821
0.732174 0.470375 0.662684
0.314458 0.390570 0.593408
0.322911 0.392065 0.594446
0.355261 0.398596 0.598596
0.411322 0.411414 0.607019
0.484535 0.431098 0.619837
0.568170 0.458015 0.636652
0.656977 0.492195 0.657038
0.748714 0.534295 0.683070
0.393652 0.504295 0.634791
0.399542 0.505211 0.635584
0.423560 0.508934 0.638636
0.466316 0.515465 0.644099
0.530022 0.530114 0.654170
0.605615 0.551293 0.668330
0.686183 0.577752 0.686244
0.773190 0.610590 0.711482
0.490486 0.623835 0.682521
0.494667 0.624506 0.683070
0.511833 0.627039 0.685267
0.543572 0.631586 0.689570
0.589746 0.638758 0.696437
0.650935 0.650965 0.707424
0.724239 0.671656 0.724208
0.805814 0.698238 0.748470
0.587121 0.735012 0.735012
0.590112 0.735531 0.735561
0.602655 0.737606 0.737606
0.627192 0.741909 0.741909
0.664149 0.748867 0.748867
0.713313 0.759304 0.759274
0.774197 0.774197 0.774197
0.847074 0.795865 0.795865
0.696101 0.852079 0.808316
0.698238 0.852476 0.808713
0.707362 0.854307 0.810575
0.725338 0.858030 0.814237
0.753048 0.863951 0.820066
0.790799 0.872435 0.828244
0.841581 0.884245 0.841611
0.899229 0.899229 0.860594
0.216587 0.216526 0.676478
0.231510 0.220249 0.677546
0.284581 0.234653 0.681819
0.363745 0.261021 0.690028
0.456397 0.297734 0.702083
0.555169 0.343084 0.717586
0.656550 0.395605 0.735866
0.756039 0.454749 0.756039
0.228458 0.239628 0.680323
0.242710 0.242527 0.681270
0.292943 0.255283 0.685328
0.369757 0.278874 0.693233
0.460639 0.312779 0.704860
0.558648 0.355566 0.719966
0.659083 0.406073 0.737911
0.757839 0.463844 0.757778
0.266331 0.310338 0.693721
0.278050 0.312444 0.694484
0.321691 0.321630 0.698146
0.391821 0.339513 0.705043
0.477668 0.366644 0.715694
0.571679 0.402564 0.729519
0.669093 0.446876 0.746120
0.764858 0.499336 0.764767
0.318395 0.404944 0.714687
0.327764 0.406531 0.715419
0.364874 0.413367 0.718410
0.426856 0.426856 0.724422
0.505943 0.448035 0.733516
0.594720 0.477272 0.745693
0.687037 0.514763 0.760464
0.777768 0.557183 0.777737
0.390936 0.516930 0.742061
0.396399 0.516960 0.742336
0.418555 0.517082 0.743435
0.469886 0.525322 0.747707
0.542321 0.542412 0.755581
0.624475 0.565332 0.766293
0.710414 0.593927 0.779904
0.796231 0.627192 0.796201
0.499550 0.644953 0.778073
0.503044 0.645014 0.778317
0.518181 0.645289 0.779110
0.546685 0.645686 0.780941
0.589258 0.645716 0.783597
0.659754 0.659693 0.792447
0.740444 0.682460 0.805661
0.821500 0.709377 0.821530
0.606134 0.762356 0.819455
0.608759 0.762539 0.819699
0.619593 0.763363 0.820676
0.641138 0.764981 0.822721
0.674037 0.767575 0.826017
0.718807 0.771145 0.830900
0.780209 0.780209 0.839658
0.855589 0.801602 0.855589
0.708278 0.865202 0.865202
0.710170 0.865507 0.865507
0.718379 0.866697 0.866697
0.734737 0.869200 0.869200
0.760464 0.873289 0.873320
0.796292 0.879606 0.879606
0.843412 0.888975 0.888975
0.903227 0.903227 0.903227
