20 Preset/Rover Style/【3】LUT video cho PR-AE-FCPX/Rover X Reset.cube
# Created by Adobe Lightroom plugin Export LUT (1.24.0)
# www.johnrellis.com/lightroom/exportlut.htm
# Preset: Rover X Reset
# Color profile: E:\lut插件\exportlut.1.24\exportlut.lrplugin\color profiles\Rec709gamma2.4.icc
LUT_3D_SIZE 5
DOMAIN_MIN 0.000000 0.000000 0.000000
DOMAIN_MAX 0.903226 0.903226 0.903226
0.000000 0.000000 0.000000
0.225834 0.000122 0.000458
0.451575 0.001221 0.000824
0.677394 0.001556 0.000000
0.903258 0.000000 0.000000
0.000000 0.225864 0.000336
0.225925 0.225742 0.000000
0.451606 0.225864 0.000183
0.677424 0.225772 0.000214
0.903227 0.225834 0.000366
0.000000 0.451637 0.000153
0.225742 0.451637 0.000000
0.451606 0.451575 0.000153
0.677394 0.451637 0.000000
0.903227 0.451606 0.000183
0.000000 0.677424 0.000092
0.225834 0.677424 0.000000
0.451606 0.677424 0.001068
0.677455 0.677455 0.000000
0.903197 0.677424 0.000122
0.001526 0.903227 0.000977
0.225803 0.903227 0.000305
0.451575 0.903197 0.000000
0.677424 0.903227 0.000000
0.903227 0.903227 0.000855
0.000427 0.000000 0.225772
0.225864 0.000092 0.225834
0.451637 0.000000 0.225772
0.677485 0.000092 0.225742
0.903227 0.000671 0.225895
0.000275 0.225834 0.225803
0.225772 0.225772 0.225772
0.451545 0.225986 0.225772
0.677424 0.225895 0.225895
0.903227 0.225681 0.225834
0.001282 0.451637 0.225803
0.225772 0.451637 0.225834
0.451637 0.451575 0.225803
0.677455 0.451575 0.225772
0.903258 0.451606 0.225925
0.000793 0.677394 0.225803
0.225772 0.677455 0.225834
0.451545 0.677424 0.225772
0.677455 0.677455 0.225864
0.903227 0.677424 0.225803
0.000275 0.903227 0.225772
0.225864 0.903227 0.225803
0.451637 0.903227 0.225742
0.677455 0.903227 0.225956
0.903197 0.903227 0.225864
0.000000 0.000000 0.451637
0.225772 0.000092 0.451606
0.451606 0.000000 0.451606
0.677424 0.001312 0.451667
0.903227 0.000000 0.451637
0.000000 0.225864 0.451606
0.225528 0.225895 0.451667
0.451667 0.225834 0.451575
0.677363 0.225925 0.451575
0.903227 0.225803 0.451606
0.000244 0.451637 0.451575
0.225864 0.451637 0.451606
0.451637 0.451637 0.451637
0.677455 0.451637 0.451667
0.903258 0.451606 0.451575
0.000763 0.677424 0.451637
0.225742 0.677424 0.451606
0.451545 0.677455 0.451606
0.677394 0.677424 0.451606
0.903227 0.677424 0.451667
0.000946 0.903227 0.451606
0.225834 0.903197 0.451606
0.451575 0.903227 0.451606
0.677424 0.903227 0.451667
0.903227 0.903227 0.451606
0.000000 0.000519 0.677424
0.226047 0.000000 0.677424
0.451575 0.001740 0.677424
0.677485 0.000000 0.677424
0.903227 0.000031 0.677424
0.000000 0.225772 0.677424
0.225803 0.225925 0.677424
0.451698 0.225772 0.677424
0.677424 0.225834 0.677424
0.903227 0.225742 0.677455
0.001007 0.451606 0.677424
0.225772 0.451606 0.677424
0.451514 0.451606 0.677424
0.677394 0.451667 0.677424
0.903227 0.451575 0.677424
0.000000 0.677424 0.677424
0.225803 0.677424 0.677424
0.451606 0.677424 0.677424
0.677424 0.677424 0.677424
0.903227 0.677455 0.677424
0.000000 0.903227 0.677424
0.225772 0.903227 0.677424
0.451606 0.903227 0.677424
0.677394 0.903227 0.677424
0.903227 0.903227 0.677455
0.000427 0.000092 0.903227
0.225864 0.000214 0.903227
0.451637 0.000092 0.903227
0.677424 0.000427 0.903227
0.903197 0.000031 0.903197
0.001007 0.225742 0.903227
0.225895 0.225864 0.903227
0.451575 0.225772 0.903227
0.677455 0.225772 0.903227
0.903227 0.225956 0.903197
0.001282 0.451637 0.903227
0.225620 0.451606 0.903227
0.451545 0.451606 0.903227
0.677424 0.451606 0.903227
0.903227 0.451606 0.903227
0.000000 0.677455 0.903227
0.225986 0.677455 0.903227
0.451698 0.677424 0.903227
0.677485 0.677424 0.903227
0.903227 0.677424 0.903227
0.002258 0.903227 0.903227
0.225864 0.903227 0.903227
0.451637 0.903227 0.903227
0.677394 0.903227 0.903227
0.903227 0.903227 0.903227
