20 Preset/Rover Style/【3】LUT video cho PR-AE-FCPX/Rover 05.cube
# Created by Adobe Lightroom plugin Export LUT (1.24.0)
# www.johnrellis.com/lightroom/exportlut.htm
# Preset: Rover 05
# Color profile: E:\lut插件\exportlut.1.24\exportlut.lrplugin\color profiles\Rec709gamma2.4.icc
LUT_3D_SIZE 8
DOMAIN_MIN 0.000000 0.000000 0.000000
DOMAIN_MAX 0.903226 0.903226 0.903226
0.013092 0.027222 0.011841
0.046357 0.037934 0.014252
0.106966 0.065003 0.024353
0.184909 0.075807 0.032959
0.350011 0.000000 0.039124
0.610468 0.000000 0.032166
0.832609 0.000000 0.026276
0.950652 0.261357 0.118166
0.033967 0.077974 0.029358
0.050416 0.079622 0.030945
0.114015 0.086244 0.029328
0.191531 0.089906 0.035584
0.352941 0.007446 0.040192
0.604181 0.000000 0.032990
0.820615 0.000000 0.022522
0.941772 0.265537 0.111788
0.085023 0.129976 0.083986
0.093935 0.129183 0.083314
0.125704 0.134920 0.092714
0.256260 0.145113 0.057862
0.442786 0.106172 0.035950
0.678950 0.000000 0.018067
0.857298 0.227756 0.012421
0.950469 0.394018 0.159579
0.136812 0.233555 0.152224
0.145785 0.230167 0.150027
0.178164 0.223331 0.145449
0.280705 0.269566 0.186404
0.551965 0.360754 0.150668
0.771817 0.361273 0.000000
0.876829 0.436255 0.089723
0.948119 0.517937 0.240085
0.224613 0.430182 0.266361
0.234440 0.425330 0.262974
0.270512 0.408026 0.250278
0.354589 0.415473 0.260319
0.508202 0.489113 0.339574
0.700587 0.582238 0.351995
0.854368 0.608057 0.302464
0.942199 0.625910 0.350530
0.409552 0.605524 0.417212
0.419928 0.607691 0.419562
0.432898 0.594110 0.404181
0.454749 0.566644 0.373816
0.557763 0.598444 0.422492
0.671656 0.659693 0.521386
0.782773 0.725307 0.580438
0.899535 0.755093 0.575433
0.582208 0.723201 0.572076
0.583856 0.722347 0.570550
0.584497 0.714656 0.557855
0.587304 0.699153 0.532311
0.600092 0.677943 0.499702
0.693629 0.720485 0.584436
0.766354 0.765225 0.666468
0.840787 0.814450 0.723629
0.698695 0.814298 0.701534
0.698573 0.813230 0.699702
0.698878 0.809354 0.692866
0.700313 0.801572 0.679042
0.693263 0.779416 0.642267
0.728450 0.784970 0.655085
0.795041 0.821988 0.726497
0.847745 0.853819 0.787503
0.019654 0.039368 0.028107
0.036652 0.050904 0.027344
0.105379 0.073182 0.032349
0.182773 0.088441 0.037385
0.342260 0.015137 0.039429
0.591302 0.000000 0.033265
0.808255 0.000000 0.023682
0.934356 0.230930 0.100465
0.037354 0.081056 0.039918
0.057588 0.085847 0.043000
0.113558 0.092195 0.044343
0.193790 0.096742 0.043946
0.356512 0.034882 0.040864
0.600702 0.000000 0.032197
0.805905 0.000000 0.021271
0.928954 0.245640 0.098299
0.094209 0.132235 0.095277
0.100191 0.133272 0.094911
0.129763 0.137881 0.101503
0.251957 0.143587 0.082918
0.430396 0.118105 0.058503
0.661616 0.000000 0.017853
0.832853 0.196933 0.003693
0.936431 0.366247 0.132418
0.147555 0.233402 0.163363
0.150210 0.231449 0.158663
0.180545 0.224277 0.153140
0.268742 0.258122 0.186252
0.516503 0.329107 0.153872
0.735164 0.321965 0.036469
0.855619 0.400977 0.000061
0.935790 0.492439 0.203616
0.236576 0.432959 0.279118
0.240513 0.427039 0.272557
0.273686 0.407691 0.258274
0.345892 0.404944 0.260075
0.491341 0.472114 0.331701
0.687648 0.565789 0.340490
0.845274 0.593256 0.293736
0.936461 0.614191 0.326696
0.408057 0.602319 0.419806
0.412177 0.599664 0.416907
0.426673 0.587335 0.403143
0.450965 0.562097 0.375586
0.550072 0.590631 0.418677
0.666865 0.654627 0.518242
0.779355 0.720424 0.575097
0.896757 0.749599 0.568505
0.578058 0.719783 0.570123
0.576928 0.717220 0.566003
0.577478 0.709255 0.553063
0.581811 0.694545 0.529015
0.593835 0.672602 0.495033
0.688655 0.715572 0.579156
0.760983 0.759335 0.659846
0.836240 0.808560 0.715297
0.695216 0.811246 0.698604
0.696162 0.811002 0.698024
0.696284 0.806943 0.691035
0.697780 0.799222 0.677333
0.699245 0.784756 0.651911
0.729458 0.786130 0.657740
0.794156 0.821256 0.726192
0.847074 0.853147 0.787106
0.037751 0.065187 0.066011
0.052918 0.073548 0.065705
0.094179 0.090730 0.074311
0.174533 0.098207 0.096773
0.359564 0.067079 0.100710
0.614130 0.000000 0.099214
0.828305 0.000000 0.050599
0.941558 0.301335 0.118837
0.053162 0.091249 0.087587
0.075959 0.093996 0.088014
0.105409 0.104280 0.090547
0.190921 0.108217 0.103456
0.370184 0.095003 0.108003
0.622370 0.000000 0.106813
0.824308 0.072786 0.063722
0.937346 0.312413 0.117556
0.095857 0.139986 0.123354
0.107149 0.142733 0.125460
0.149416 0.154116 0.134493
0.256260 0.161166 0.135439
0.442390 0.155642 0.136324
0.675105 0.153902 0.131167
0.840208 0.263066 0.108644
0.939239 0.398627 0.149172
0.170565 0.261723 0.212558
0.182437 0.264591 0.213901
0.219150 0.269169 0.211093
0.303258 0.288914 0.232944
0.554314 0.342992 0.208835
0.736080 0.362951 0.185824
0.854704 0.438056 0.194705
0.939727 0.514153 0.230991
0.290105 0.464759 0.340948
0.300420 0.464240 0.339544
0.326177 0.458534 0.326421
0.375677 0.432624 0.304906
0.519524 0.500267 0.381079
0.704097 0.581079 0.386816
0.846952 0.595361 0.353094
0.930755 0.626886 0.387823
0.460822 0.622583 0.474281
0.466835 0.622736 0.474128
0.469062 0.614679 0.456550
0.487648 0.590600 0.428595
0.559564 0.598779 0.445350
0.671229 0.660304 0.540185
0.782650 0.723964 0.590143
0.897002 0.751431 0.590234
0.613123 0.733028 0.610101
0.611261 0.731228 0.605951
0.604211 0.723903 0.589166
0.605646 0.709285 0.565515
0.609369 0.684474 0.525963
0.692653 0.719631 0.593927
0.765591 0.764950 0.673579
0.841794 0.814481 0.726833
0.709682 0.818204 0.718349
0.707851 0.816953 0.715236
0.705470 0.813138 0.706722
0.707515 0.806577 0.694911
0.708125 0.792416 0.670344
0.729702 0.787381 0.663478
0.795956 0.823362 0.732387
0.849119 0.855436 0.792691
0.050752 0.088258 0.114443
0.069459 0.091127 0.116793
0.109041 0.103792 0.123323
0.160159 0.121431 0.137819
0.291417 0.135317 0.181216
0.584710 0.000000 0.186862
0.809659 0.160342 0.208103
0.928161 0.340520 0.224216
0.063905 0.102815 0.132479
0.083162 0.105409 0.134096
0.121248 0.117220 0.139315
0.176211 0.134951 0.152499
0.315038 0.146334 0.193668
0.604791 0.000000 0.194217
0.811856 0.203098 0.218723
0.926909 0.361425 0.235233
0.082521 0.144442 0.174929
0.096040 0.146883 0.177920
0.155642 0.162905 0.189670
0.230167 0.189090 0.201694
0.412360 0.200229 0.240909
0.668910 0.240146 0.255955
0.831632 0.348577 0.276951
0.929656 0.450385 0.295293
0.155642 0.275486 0.273503
0.171054 0.278965 0.275761
0.234348 0.296910 0.287572
0.353674 0.335485 0.313115
0.544305 0.361212 0.317082
0.710780 0.408789 0.326146
0.833402 0.475837 0.343603
0.922118 0.543908 0.373663
0.361669 0.521172 0.441596
0.370886 0.519829 0.439551
0.409247 0.519066 0.435889
0.464240 0.518090 0.426032
0.558312 0.541039 0.456855
0.729671 0.597070 0.456855
0.840787 0.608881 0.451514
0.915923 0.648920 0.487922
0.523308 0.658045 0.552544
0.532647 0.660945 0.555871
0.546807 0.657496 0.550286
0.564324 0.649256 0.533196
0.588281 0.625513 0.504112
0.686702 0.678431 0.585748
0.793454 0.733608 0.620356
0.898161 0.752499 0.623560
0.639734 0.749722 0.652674
0.641718 0.749508 0.652094
0.648646 0.747463 0.648798
0.650599 0.739712 0.631952
0.651240 0.717617 0.597711
0.702022 0.729427 0.622278
0.772091 0.773190 0.694881
0.849363 0.820951 0.740810
0.729335 0.831174 0.748806
0.729915 0.830655 0.747951
0.732723 0.828824 0.744961
0.728389 0.822660 0.729854
0.726619 0.808774 0.706233
0.727779 0.788357 0.671382
0.797696 0.825925 0.741543
0.852873 0.859556 0.802579
0.028168 0.104097 0.185641
0.050599 0.106752 0.189212
0.115084 0.117830 0.199802
0.194003 0.144961 0.219364
0.291264 0.168917 0.248234
0.485023 0.204959 0.322515
0.750607 0.190341 0.374304
0.911711 0.308293 0.376104
0.037354 0.117250 0.205386
0.063752 0.119966 0.208743
0.126406 0.130953 0.218387
0.209354 0.158328 0.235904
0.310216 0.184604 0.264103
0.500633 0.226322 0.336431
0.758206 0.222812 0.382849
0.909453 0.347295 0.388830
0.052155 0.160128 0.258793
0.090150 0.163424 0.263218
0.158236 0.177615 0.274998
0.264195 0.212894 0.294804
0.376654 0.252659 0.319951
0.549187 0.304326 0.380774
0.778500 0.324620 0.409308
0.897826 0.461158 0.431098
0.091859 0.263767 0.344182
0.116793 0.267094 0.346838
0.190768 0.281590 0.359869
0.350988 0.336889 0.393988
0.486763 0.405554 0.419623
0.645624 0.444678 0.461341
0.799496 0.500694 0.473243
0.891814 0.574121 0.497810
0.301884 0.495399 0.474464
0.318791 0.498970 0.477028
0.381109 0.512078 0.485298
0.478218 0.536492 0.502007
0.585840 0.571344 0.526543
0.707790 0.593225 0.532586
0.807187 0.624537 0.546258
0.891417 0.660243 0.566125
0.558770 0.678706 0.615320
0.566186 0.680049 0.617029
0.580163 0.677821 0.613367
0.604181 0.674159 0.606287
0.632197 0.667964 0.591913
0.695155 0.689540 0.623957
0.807492 0.734218 0.644465
0.896605 0.745083 0.650477
0.665614 0.768582 0.700404
0.665980 0.767514 0.698726
0.669459 0.764553 0.693660
0.681361 0.761685 0.688075
0.691157 0.752834 0.670985
0.703548 0.733394 0.644617
0.775540 0.778134 0.714168
0.856626 0.822324 0.748775
0.737423 0.839780 0.772702
0.738033 0.839292 0.771908
0.740993 0.837613 0.769223
0.749996 0.836606 0.767056
0.749966 0.828763 0.750393
0.746029 0.807858 0.715755
0.794034 0.824277 0.746609
0.852995 0.860075 0.808865
0.000000 0.124971 0.301793
0.000000 0.127657 0.305943
0.094087 0.137972 0.318669
0.215671 0.163851 0.347051
0.372381 0.225986 0.386481
0.507103 0.263737 0.421057
0.675959 0.358526 0.496773
0.832273 0.452827 0.562158
0.000000 0.135775 0.313573
0.000000 0.138064 0.316472
0.106416 0.148653 0.328740
0.224979 0.174594 0.354528
0.379339 0.237491 0.391424
0.511254 0.278355 0.425299
0.674922 0.371008 0.498451
0.830961 0.459693 0.562036
0.000000 0.181827 0.376165
0.000000 0.184909 0.378607
0.148226 0.198795 0.390295
0.279393 0.230961 0.409003
0.440162 0.310094 0.441321
0.558648 0.363836 0.469917
0.693721 0.450141 0.532555
0.836637 0.516381 0.583124
0.000000 0.267887 0.439063
0.000000 0.273106 0.442939
0.195529 0.300847 0.463203
0.367620 0.358434 0.494423
0.530877 0.449256 0.523552
0.625330 0.509636 0.547021
0.721309 0.568109 0.592279
0.849699 0.602411 0.622095
0.222385 0.467445 0.530022
0.241550 0.470161 0.531395
0.310094 0.480629 0.537652
0.413367 0.500572 0.551110
0.573358 0.562066 0.584009
0.667536 0.620539 0.608392
0.757412 0.647150 0.638819
0.864683 0.673732 0.649348
0.502342 0.656092 0.630732
0.512261 0.658869 0.633326
0.540551 0.663935 0.637018
0.588678 0.674098 0.644770
0.648432 0.689784 0.657221
0.716854 0.715480 0.679866
0.800778 0.733852 0.690822
0.878691 0.754330 0.703883
0.683986 0.786679 0.746242
0.687831 0.787961 0.747768
0.699702 0.790646 0.750790
0.720790 0.795132 0.755734
0.732845 0.790311 0.746670
0.744564 0.779049 0.727138
0.787900 0.793118 0.748836
0.876036 0.828855 0.770565
0.767056 0.858061 0.815244
0.766873 0.857450 0.814176
0.768063 0.856077 0.811582
0.771939 0.854307 0.807431
0.777676 0.849912 0.798917
0.781399 0.840116 0.780728
0.789822 0.824125 0.756527
0.856687 0.864317 0.822293
0.000000 0.149996 0.449805
0.000000 0.152865 0.454505
0.000000 0.163699 0.466651
0.236576 0.189059 0.490974
0.425452 0.248783 0.523125
0.588220 0.387152 0.559014
0.679408 0.424903 0.580591
0.773556 0.519707 0.627832
0.000000 0.159213 0.454444
0.000000 0.162356 0.459297
0.000000 0.173098 0.470741
0.244358 0.198550 0.492470
0.427436 0.259159 0.522850
0.585290 0.392981 0.556359
0.674098 0.427375 0.576013
0.768399 0.517021 0.622278
0.000000 0.202701 0.496040
0.000000 0.205692 0.498482
0.117647 0.219364 0.507683
0.296574 0.252079 0.526574
0.469886 0.324376 0.552453
0.610773 0.456092 0.583215
0.691981 0.495399 0.603449
0.775601 0.572808 0.646876
0.000000 0.287297 0.544335
0.000000 0.291386 0.546685
0.189395 0.313787 0.559899
0.361700 0.358953 0.577478
0.524865 0.437903 0.599329
0.648585 0.550683 0.627222
0.715419 0.590814 0.645228
0.784421 0.641230 0.679866
0.000000 0.423621 0.586145
0.000000 0.422889 0.585534
0.163912 0.424781 0.586938
0.363745 0.465827 0.609094
0.549737 0.540826 0.637446
0.673213 0.625116 0.663020
0.733669 0.666285 0.681758
0.798215 0.703059 0.716091
0.410620 0.625971 0.664820
0.418830 0.627039 0.665461
0.449928 0.630091 0.667475
0.503166 0.636072 0.671443
0.573083 0.644831 0.677455
0.695033 0.696101 0.708034
0.766537 0.743191 0.735164
0.834379 0.761776 0.759243
0.630365 0.759091 0.744381
0.634089 0.760159 0.745388
0.646357 0.762570 0.747311
0.670253 0.768032 0.751797
0.704372 0.776455 0.758602
0.748592 0.789853 0.769772
0.802640 0.810422 0.788144
0.872251 0.825895 0.798734
0.764736 0.862058 0.835660
0.766659 0.862516 0.836179
0.775662 0.865049 0.839048
0.790890 0.868711 0.843107
0.812985 0.874266 0.849454
0.821378 0.871092 0.842802
0.824735 0.859312 0.822782
0.864652 0.872892 0.843717
0.000000 0.189731 0.612818
0.000000 0.192660 0.615503
0.075624 0.203830 0.621912
0.318334 0.234134 0.637324
0.498543 0.306493 0.657343
0.637507 0.439246 0.677882
0.724086 0.569635 0.697719
0.780209 0.593225 0.708431
0.000000 0.197940 0.613397
0.000000 0.201083 0.616144
0.106294 0.213107 0.623285
0.322210 0.244175 0.637812
0.499611 0.316625 0.657313
0.637018 0.446174 0.677760
0.722805 0.573266 0.696773
0.778164 0.594629 0.706691
0.000000 0.236484 0.628931
0.000000 0.239841 0.630762
0.166018 0.254520 0.636866
0.353552 0.294194 0.652491
0.517357 0.369543 0.668788
0.644892 0.488106 0.686488
0.728359 0.606195 0.706081
0.780087 0.622583 0.715389
0.000000 0.306401 0.650904
0.000000 0.311864 0.653620
0.196078 0.330724 0.659297
0.377081 0.374456 0.671321
0.535332 0.450935 0.686641
0.658717 0.553613 0.704005
0.741482 0.658656 0.726162
0.787411 0.669032 0.734493
0.000000 0.394324 0.662440
0.000000 0.397986 0.664698
0.000000 0.409949 0.670893
0.345525 0.454871 0.687251
0.532189 0.525383 0.703395
0.665278 0.611048 0.721492
0.752529 0.697200 0.746151
0.798550 0.717037 0.758175
0.174746 0.574365 0.706508
0.186618 0.572808 0.705684
0.233555 0.567437 0.703609
0.307836 0.558434 0.701534
0.472328 0.580591 0.713680
0.663111 0.666255 0.745052
0.769009 0.743038 0.776303
0.820005 0.775845 0.794217
0.550591 0.739498 0.775174
0.553216 0.739376 0.775051
0.564355 0.739162 0.774716
0.587457 0.739559 0.775113
0.622156 0.740200 0.775814
0.667536 0.740627 0.777371
0.775448 0.785824 0.805356
0.844541 0.831724 0.831083
0.719661 0.843168 0.838437
0.720974 0.843290 0.838468
0.727596 0.844480 0.839231
0.741909 0.847562 0.841550
0.763485 0.852262 0.844999
0.792752 0.859129 0.850126
0.830747 0.869718 0.858671
0.878050 0.886870 0.874083
