20 Preset/Rover Style/【3】LUT video cho PR-AE-FCPX/Rover 07 BW.cube
# Created by Adobe Lightroom plugin Export LUT (1.24.0)
# www.johnrellis.com/lightroom/exportlut.htm
# Preset: Rover 07 BW
# Color profile: E:\lut插件\exportlut.1.24\exportlut.lrplugin\color profiles\Rec709gamma2.4.icc
LUT_3D_SIZE 5
DOMAIN_MIN 0.000000 0.000000 0.000000
DOMAIN_MAX 0.903226 0.903226 0.903226
0.107851 0.107851 0.107851
0.105226 0.105226 0.105226
0.126467 0.126467 0.126467
0.213687 0.213687 0.213687
0.423835 0.423835 0.423835
0.126680 0.126680 0.126680
0.135866 0.135866 0.135866
0.192264 0.192264 0.192264
0.291386 0.291386 0.291386
0.486915 0.486915 0.486915
0.387640 0.387640 0.387640
0.433478 0.433478 0.433478
0.420172 0.420172 0.420172
0.553155 0.553155 0.553155
0.633204 0.633204 0.633204
0.640314 0.640314 0.640314
0.645197 0.645197 0.645197
0.659663 0.659663 0.659663
0.653285 0.653285 0.653285
0.675959 0.675959 0.675959
0.697780 0.697780 0.697780
0.699214 0.699214 0.699214
0.707637 0.707637 0.707637
0.714107 0.714107 0.714107
0.712581 0.712581 0.712581
0.104921 0.104921 0.104921
0.105501 0.105501 0.105501
0.152621 0.152621 0.152621
0.273320 0.273320 0.273320
0.482856 0.482856 0.482856
0.121523 0.121523 0.121523
0.153689 0.153689 0.153689
0.217502 0.217502 0.217502
0.356054 0.356054 0.356054
0.534295 0.534295 0.534295
0.380102 0.380102 0.380102
0.429572 0.429572 0.429572
0.455634 0.455634 0.455634
0.575250 0.575250 0.575250
0.640345 0.640345 0.640345
0.638636 0.638636 0.638636
0.644038 0.644038 0.644038
0.659236 0.659236 0.659236
0.655268 0.655268 0.655268
0.676997 0.676997 0.676997
0.697475 0.697475 0.697475
0.699001 0.699001 0.699001
0.705196 0.705196 0.705196
0.713222 0.713222 0.713222
0.711543 0.711543 0.711543
0.132479 0.132479 0.132479
0.135653 0.135653 0.135653
0.155917 0.155917 0.155917
0.278172 0.278172 0.278172
0.511040 0.511040 0.511040
0.197024 0.197024 0.197024
0.209995 0.209995 0.209995
0.217075 0.217075 0.217075
0.357397 0.357397 0.357397
0.553155 0.553155 0.553155
0.334569 0.334569 0.334569
0.371405 0.371405 0.371405
0.490974 0.490974 0.490974
0.573510 0.573510 0.573510
0.643336 0.643336 0.643336
0.619654 0.619654 0.619654
0.630823 0.630823 0.630823
0.655268 0.655268 0.655268
0.660121 0.660121 0.660121
0.680659 0.680659 0.680659
0.694606 0.694606 0.694606
0.696407 0.696407 0.696407
0.704067 0.704067 0.704067
0.717037 0.717037 0.717037
0.715175 0.715175 0.715175
0.248051 0.248051 0.248051
0.248783 0.248783 0.248783
0.250828 0.250828 0.250828
0.292088 0.292088 0.292088
0.513603 0.513603 0.513603
0.347295 0.347295 0.347295
0.346441 0.346441 0.346441
0.340276 0.340276 0.340276
0.376349 0.376349 0.376349
0.555566 0.555566 0.555566
0.492103 0.492103 0.492103
0.511833 0.511833 0.511833
0.569818 0.569818 0.569818
0.568017 0.568017 0.568017
0.637232 0.637232 0.637232
0.615503 0.615503 0.615503
0.623194 0.623194 0.623194
0.644526 0.644526 0.644526
0.666987 0.666987 0.666987
0.680232 0.680232 0.680232
0.684260 0.684260 0.684260
0.686061 0.686061 0.686061
0.693660 0.693660 0.693660
0.711910 0.711910 0.711910
0.719661 0.719661 0.719661
0.516350 0.516350 0.516350
0.514305 0.514305 0.514305
0.507683 0.507683 0.507683
0.484901 0.484901 0.484901
0.524834 0.524834 0.524834
0.558801 0.558801 0.558801
0.556878 0.556878 0.556878
0.548913 0.548913 0.548913
0.526970 0.526970 0.526970
0.554223 0.554223 0.554223
0.622248 0.622248 0.622248
0.630152 0.630152 0.630152
0.636225 0.636225 0.636225
0.624811 0.624811 0.624811
0.630274 0.630274 0.630274
0.656886 0.656886 0.656886
0.658381 0.658381 0.658381
0.665126 0.665126 0.665126
0.676051 0.676051 0.676051
0.676905 0.676905 0.676905
0.683162 0.683162 0.683162
0.684016 0.684016 0.684016
0.688685 0.688685 0.688685
0.698909 0.698909 0.698909
0.722438 0.722438 0.722438
