20 Preset/Rover Style/【3】LUT video cho PR-AE-FCPX/Rover Contrast -.cube
# Created by Adobe Lightroom plugin Export LUT (1.24.0)
# www.johnrellis.com/lightroom/exportlut.htm
# Preset: Rover Contrast -
# Color profile: E:\lut插件\exportlut.1.24\exportlut.lrplugin\color profiles\Rec709gamma2.4.icc
LUT_3D_SIZE 32
DOMAIN_MIN 0.0 0.0 0.0
DOMAIN_MAX 1.0 1.0 1.0
0.000000 0.000000 0.000000
0.016449 0.000397 0.000000
0.078309 0.001221 0.000549
0.123842 0.000519 0.000275
0.164187 0.000732 0.000732
0.203403 0.001434 0.000793
0.242008 0.001892 0.001556
0.279789 0.003326 0.003998
0.316716 0.003815 0.002777
0.352819 0.005493 0.005554
0.387823 0.011444 0.010834
0.421973 0.016388 0.013825
0.455238 0.019257 0.020264
0.487556 0.026551 0.026093
0.518883 0.034363 0.034150
0.549340 0.041901 0.042359
0.579004 0.052827 0.052552
0.607691 0.064851 0.065217
0.635431 0.077394 0.078218
0.662409 0.087221 0.088258
0.688472 0.094881 0.094728
0.713741 0.101839 0.101198
0.738216 0.108125 0.108400
0.761898 0.114931 0.114717
0.784878 0.121401 0.121370
0.807065 0.128176 0.128420
0.828855 0.135134 0.135286
0.851499 0.141787 0.141726
0.875242 0.147799 0.148013
0.900114 0.153994 0.153780
0.926238 0.159487 0.159243
0.953643 0.164828 0.164645
0.000671 0.016693 0.000000
0.014557 0.015137 0.000000
0.079622 0.015503 0.000824
0.124117 0.013855 0.000000
0.164370 0.014069 0.000031
0.203403 0.015930 0.001068
0.242100 0.015198 0.001984
0.279881 0.016632 0.003296
0.316655 0.019532 0.004059
0.352667 0.021424 0.005676
0.387823 0.023804 0.011444
0.422004 0.026307 0.014710
0.455238 0.030396 0.019867
0.487495 0.040101 0.026520
0.518883 0.046693 0.034730
0.549279 0.054475 0.042969
0.578943 0.064179 0.053315
0.607538 0.076631 0.065980
0.635431 0.085359 0.078584
0.662379 0.092073 0.088472
0.688441 0.098054 0.094697
0.713741 0.104280 0.101595
0.738155 0.111086 0.108339
0.761868 0.117372 0.114992
0.784817 0.123629 0.121614
0.807034 0.130526 0.128634
0.828824 0.137057 0.135500
0.851469 0.143587 0.141939
0.875212 0.149508 0.148196
0.900084 0.155398 0.153811
0.926207 0.160647 0.159487
0.953643 0.165927 0.164675
0.001068 0.080262 0.000000
0.016907 0.080476 0.000946
0.079866 0.079500 0.000000
0.124117 0.080568 0.000000
0.163668 0.079622 0.000000
0.203067 0.079316 0.000336
0.241794 0.078828 0.002380
0.279667 0.077333 0.002991
0.316442 0.078035 0.005188
0.352453 0.079255 0.007965
0.387579 0.080110 0.011597
0.421729 0.081819 0.013733
0.454932 0.083742 0.021332
0.487190 0.087068 0.028595
0.518669 0.089326 0.036957
0.549157 0.092164 0.044038
0.578729 0.095338 0.055695
0.607416 0.098726 0.067536
0.635218 0.102388 0.079744
0.662165 0.106752 0.088808
0.688228 0.111940 0.095735
0.713466 0.117311 0.102541
0.738003 0.121920 0.109041
0.761715 0.127443 0.115969
0.784695 0.133059 0.122499
0.806851 0.138705 0.129030
0.828672 0.144686 0.136141
0.851347 0.150546 0.142550
0.875151 0.155825 0.148592
0.900023 0.161410 0.154391
0.926116 0.166629 0.159976
0.953582 0.171237 0.165042
0.000244 0.123537 0.000458
0.017426 0.123354 0.000244
0.078309 0.123323 0.000183
0.123110 0.123507 0.000916
0.163577 0.122469 0.000855
0.202701 0.121889 0.001373
0.241459 0.121157 0.003723
0.279179 0.121035 0.005341
0.315892 0.120394 0.008026
0.352056 0.119722 0.010254
0.387243 0.119203 0.013214
0.421393 0.119356 0.017945
0.454475 0.120241 0.024414
0.486854 0.120699 0.032136
0.518334 0.120912 0.037690
0.548699 0.122347 0.047364
0.578363 0.123934 0.058167
0.606958 0.125856 0.071473
0.634852 0.128176 0.083009
0.661799 0.130678 0.090913
0.687892 0.133669 0.096712
0.713161 0.137148 0.103975
0.737667 0.140932 0.110628
0.761349 0.144930 0.117281
0.784329 0.149264 0.123507
0.806516 0.153872 0.130526
0.828367 0.158846 0.137545
0.851072 0.163424 0.143709
0.874876 0.168185 0.149691
0.899840 0.172824 0.155489
0.926024 0.177127 0.160891
0.953491 0.181704 0.166049
0.003357 0.162722 0.001617
0.014527 0.163058 0.003357
0.080049 0.162570 0.002472
0.122408 0.162783 0.002075
0.162325 0.162387 0.001892
0.202335 0.161685 0.003662
0.240757 0.160922 0.005219
0.278294 0.160342 0.007324
0.315343 0.159091 0.010590
0.351415 0.158297 0.014252
0.386450 0.157290 0.017853
0.420722 0.156588 0.023194
0.453773 0.156497 0.029175
0.486275 0.155764 0.035370
0.517510 0.155673 0.044678
0.548119 0.155612 0.053956
0.577691 0.156252 0.066377
0.606409 0.156832 0.078004
0.634180 0.157687 0.086854
0.661158 0.159030 0.093416
0.687282 0.160922 0.100191
0.712581 0.162905 0.106569
0.737087 0.165194 0.112947
0.760830 0.167849 0.119478
0.783780 0.171084 0.126192
0.806027 0.174380 0.132601
0.827878 0.177768 0.139406
0.850675 0.181521 0.145510
0.874540 0.185428 0.151431
0.899596 0.189120 0.157168
0.925811 0.192905 0.162509
0.953307 0.196780 0.167605
0.006500 0.201419 0.004852
0.020386 0.201480 0.006744
0.079988 0.201205 0.005890
0.121523 0.201297 0.006775
0.161440 0.201266 0.007416
0.201022 0.200839 0.006958
0.239902 0.200259 0.008515
0.277745 0.199100 0.011353
0.314366 0.197879 0.015106
0.350317 0.196658 0.020722
0.385534 0.195315 0.023774
0.419776 0.193820 0.030182
0.452949 0.192874 0.034821
0.485267 0.191867 0.042786
0.516686 0.191165 0.052705
0.547112 0.190341 0.061799
0.576776 0.189914 0.075135
0.605554 0.189609 0.083986
0.633387 0.189822 0.091402
0.660365 0.190005 0.097169
0.686427 0.190799 0.103914
0.711757 0.191623 0.109895
0.736324 0.192721 0.116182
0.760037 0.194308 0.122927
0.782986 0.196292 0.129305
0.805264 0.198306 0.135439
0.827237 0.200870 0.142123
0.850156 0.203372 0.148165
0.874052 0.206424 0.154391
0.899168 0.209323 0.159670
0.925475 0.212558 0.164889
0.953094 0.215640 0.169741
0.015198 0.238865 0.012879
0.026398 0.238865 0.012665
0.083101 0.238956 0.014740
0.122683 0.238804 0.014832
0.160525 0.238712 0.014679
0.199466 0.238560 0.015229
0.238193 0.238346 0.016480
0.276555 0.237644 0.017884
0.313420 0.236027 0.021424
0.349462 0.234287 0.025818
0.384283 0.232822 0.030854
0.418524 0.231235 0.036744
0.451789 0.229587 0.044831
0.484108 0.228000 0.052766
0.515496 0.226719 0.061494
0.546075 0.225315 0.073762
0.575738 0.224338 0.082887
0.604425 0.223301 0.090333
0.632227 0.222599 0.096437
0.659174 0.222263 0.101991
0.685389 0.222049 0.107973
0.710750 0.222019 0.113924
0.735286 0.222354 0.120394
0.759060 0.222965 0.126528
0.782040 0.223758 0.132662
0.804288 0.224918 0.139437
0.826383 0.226261 0.145815
0.849393 0.228153 0.151522
0.873442 0.230320 0.157229
0.898650 0.232425 0.162631
0.925078 0.234928 0.167758
0.952758 0.237552 0.172519
0.022370 0.275364 0.022309
0.034302 0.275242 0.022248
0.088289 0.275334 0.020935
0.122988 0.275181 0.022309
0.160220 0.275212 0.023163
0.198123 0.275090 0.023926
0.236362 0.274815 0.023255
0.274510 0.274388 0.025666
0.312200 0.273808 0.027802
0.348058 0.272007 0.032990
0.383124 0.270054 0.039216
0.417151 0.268009 0.047639
0.450385 0.266056 0.054566
0.482734 0.264256 0.063416
0.514153 0.262364 0.075807
0.544579 0.260655 0.084321
0.574243 0.258915 0.090791
0.602960 0.257542 0.095583
0.630915 0.256107 0.101991
0.657923 0.254978 0.107240
0.684047 0.253971 0.113527
0.709438 0.253391 0.119326
0.734005 0.252873 0.124910
0.757748 0.252598 0.131502
0.780789 0.252689 0.137758
0.803098 0.252964 0.143984
0.825315 0.253574 0.149813
0.848508 0.254398 0.155489
0.872679 0.255924 0.161288
0.898039 0.257664 0.166506
0.924590 0.259464 0.171359
0.952422 0.261601 0.175662
0.033173 0.310796 0.034577
0.048341 0.310765 0.034363
0.091096 0.310735 0.033356
0.123842 0.310643 0.034760
0.160342 0.310521 0.037079
0.197086 0.310430 0.036866
0.234470 0.310124 0.037690
0.272068 0.309850 0.039033
0.309422 0.309514 0.041047
0.346685 0.308782 0.044343
0.381598 0.306676 0.050538
0.415564 0.304479 0.061189
0.448829 0.302159 0.068360
0.481025 0.300023 0.079133
0.512474 0.297734 0.087007
0.542931 0.295598 0.092439
0.572625 0.293523 0.097230
0.601312 0.291508 0.103212
0.629297 0.289677 0.108064
0.656306 0.287938 0.113954
0.682460 0.286534 0.119448
0.707851 0.285130 0.125002
0.732448 0.283940 0.130800
0.756252 0.283055 0.136812
0.779294 0.282444 0.143008
0.801633 0.281834 0.148989
0.824063 0.281773 0.154696
0.847440 0.282170 0.160403
0.871794 0.282963 0.165713
0.897307 0.284092 0.170657
0.924010 0.285527 0.175387
0.951965 0.287236 0.179568
0.051209 0.345006 0.052857
0.066377 0.344976 0.052644
0.096376 0.344884 0.051820
0.126650 0.344884 0.054200
0.161440 0.344640 0.054719
0.196780 0.344549 0.053590
0.233097 0.344305 0.055726
0.269841 0.344091 0.058412
0.306554 0.343816 0.060639
0.343267 0.343359 0.063844
0.380011 0.342687 0.066865
0.413825 0.340246 0.077790
0.446967 0.337926 0.083711
0.479164 0.335241 0.089509
0.510613 0.332860 0.094972
0.541100 0.330175 0.099153
0.570703 0.327886 0.104921
0.599512 0.325322 0.109560
0.627375 0.323033 0.115389
0.654444 0.320867 0.120363
0.680629 0.318853 0.126131
0.706050 0.316960 0.131655
0.730648 0.315312 0.137118
0.754513 0.313787 0.143069
0.777554 0.312505 0.148775
0.799985 0.311223 0.154330
0.822599 0.310735 0.160464
0.846220 0.310521 0.165682
0.870817 0.310765 0.170871
0.896483 0.311620 0.175631
0.923369 0.312505 0.179934
0.951537 0.313848 0.184146
0.077363 0.377966 0.077729
0.085878 0.377966 0.077516
0.103426 0.377966 0.076570
0.131044 0.377874 0.078126
0.163455 0.377752 0.079072
0.197208 0.377569 0.079286
0.232395 0.377386 0.079347
0.268132 0.377081 0.081331
0.303716 0.376867 0.082979
0.340002 0.376440 0.085206
0.375952 0.376043 0.086336
0.411902 0.375525 0.089143
0.445075 0.372839 0.093294
0.477180 0.370092 0.097597
0.508598 0.367224 0.102388
0.538994 0.364508 0.106813
0.568627 0.361639 0.112428
0.597436 0.358953 0.116976
0.625299 0.356237 0.122499
0.652369 0.353674 0.127474
0.678614 0.351080 0.133272
0.704005 0.348821 0.138491
0.728664 0.346624 0.143740
0.752529 0.344549 0.149477
0.775662 0.342687 0.155367
0.798093 0.341131 0.161166
0.820981 0.340032 0.166445
0.844877 0.339300 0.171572
0.869657 0.339208 0.176425
0.895598 0.339635 0.181033
0.922667 0.340307 0.185183
0.951019 0.341375 0.188937
0.092317 0.409918 0.092927
0.096284 0.409918 0.092836
0.112428 0.409857 0.092958
0.136080 0.409827 0.093141
0.166201 0.409644 0.093416
0.198123 0.409491 0.093996
0.231907 0.409369 0.094423
0.266545 0.409064 0.095644
0.301762 0.408728 0.096773
0.336889 0.408362 0.097749
0.372198 0.407935 0.098970
0.407446 0.407538 0.099886
0.442695 0.406989 0.101808
0.475105 0.404273 0.106203
0.506401 0.401221 0.110353
0.536767 0.398169 0.115206
0.566400 0.395087 0.120119
0.595117 0.392004 0.125093
0.623011 0.388983 0.130068
0.650019 0.386053 0.135317
0.676265 0.383215 0.140536
0.701717 0.380377 0.145632
0.726406 0.377783 0.151308
0.750301 0.375280 0.156558
0.773404 0.373022 0.162173
0.796017 0.370855 0.167788
0.819211 0.369451 0.173098
0.843351 0.368444 0.177890
0.868437 0.368109 0.182589
0.894621 0.368078 0.186648
0.921904 0.368566 0.190616
0.950469 0.369451 0.194369
0.105959 0.440650 0.105684
0.109255 0.440620 0.105623
0.121492 0.440650 0.105684
0.143435 0.440497 0.105898
0.170199 0.440436 0.106081
0.200534 0.440345 0.106600
0.232700 0.440101 0.107515
0.266026 0.439857 0.107607
0.300023 0.439521 0.108705
0.334325 0.439185 0.109621
0.368688 0.438849 0.110414
0.403296 0.438331 0.112123
0.437903 0.437781 0.113344
0.472328 0.437263 0.115297
0.504082 0.434577 0.119203
0.534386 0.431220 0.123842
0.564019 0.427955 0.128450
0.592676 0.424628 0.133394
0.620478 0.421332 0.138399
0.647517 0.418036 0.143435
0.673793 0.414862 0.148470
0.699214 0.411749 0.153719
0.723934 0.408728 0.159152
0.747829 0.405890 0.164370
0.770993 0.403113 0.169650
0.793820 0.400641 0.175143
0.817380 0.398901 0.179995
0.841733 0.397681 0.184787
0.867124 0.396948 0.188907
0.893553 0.396857 0.192905
0.921111 0.397131 0.196597
0.949920 0.397894 0.200015
0.118593 0.470344 0.118471
0.120943 0.470344 0.118410
0.132113 0.470283 0.118257
0.151400 0.470192 0.118990
0.175082 0.470192 0.119173
0.203983 0.470008 0.119112
0.234226 0.469795 0.119631
0.266056 0.469581 0.120119
0.298955 0.469215 0.121187
0.332158 0.468910 0.122072
0.365576 0.468513 0.123201
0.399329 0.468086 0.124208
0.433295 0.467567 0.125429
0.467048 0.467048 0.127291
0.500694 0.466407 0.129061
0.531914 0.463783 0.132326
0.561425 0.460273 0.137453
0.590051 0.456672 0.142000
0.617853 0.453162 0.147158
0.644862 0.449592 0.151797
0.671138 0.446113 0.156832
0.696559 0.442695 0.162051
0.721248 0.439368 0.166934
0.745174 0.436133 0.172366
0.768368 0.433021 0.177584
0.791501 0.430274 0.182467
0.815396 0.428260 0.187503
0.840116 0.426825 0.191562
0.865751 0.426062 0.195804
0.892515 0.425757 0.199527
0.920317 0.425940 0.202762
0.949401 0.426581 0.205875
0.130953 0.498909 0.131441
0.133425 0.498909 0.131411
0.142824 0.498848 0.131533
0.159274 0.498756 0.131716
0.181491 0.498665 0.131930
0.207797 0.498543 0.132418
0.236484 0.498329 0.132906
0.266911 0.498146 0.133120
0.298466 0.497841 0.133822
0.330449 0.497475 0.134768
0.363012 0.497108 0.135592
0.395941 0.496681 0.136843
0.429053 0.496132 0.138552
0.461982 0.495613 0.139620
0.495064 0.495003 0.141115
0.527977 0.494392 0.142916
0.558740 0.491981 0.146212
0.587335 0.488258 0.150912
0.615045 0.484474 0.155520
0.642023 0.480690 0.160739
0.668299 0.476905 0.165408
0.693721 0.473243 0.170291
0.718410 0.469612 0.175357
0.742336 0.466072 0.180606
0.765591 0.462593 0.185519
0.789090 0.459724 0.190555
0.813321 0.457588 0.194705
0.838376 0.456062 0.199008
0.864439 0.455116 0.202670
0.891417 0.454780 0.206210
0.919585 0.454841 0.209293
0.948882 0.455512 0.212253
0.144778 0.526360 0.144625
0.146548 0.526360 0.144564
0.154513 0.526299 0.144686
0.169009 0.526299 0.144808
0.188846 0.526146 0.144839
0.212924 0.526024 0.145296
0.239658 0.525841 0.145998
0.268528 0.525658 0.145998
0.298711 0.525353 0.146914
0.329625 0.525078 0.147585
0.361059 0.524620 0.148684
0.393103 0.524193 0.149691
0.425177 0.523766 0.150790
0.457374 0.523217 0.152346
0.489723 0.522637 0.153567
0.521965 0.521996 0.155154
0.554314 0.521324 0.156832
0.584558 0.519066 0.159762
0.612146 0.515129 0.164736
0.639094 0.511131 0.169589
0.665278 0.507195 0.174258
0.690761 0.503197 0.178988
0.715450 0.499336 0.183902
0.739345 0.495521 0.188998
0.762753 0.491920 0.193820
0.786679 0.488930 0.198428
0.811276 0.486763 0.202670
0.836698 0.485176 0.206546
0.863066 0.484108 0.209934
0.890379 0.483742 0.213046
0.918822 0.483864 0.215946
0.948486 0.484535 0.218540
0.157717 0.552850 0.157900
0.159426 0.552819 0.157870
0.166415 0.552819 0.157931
0.178714 0.552758 0.157931
0.196811 0.552667 0.158297
0.218814 0.552483 0.158602
0.243839 0.552331 0.159060
0.271061 0.552148 0.159518
0.299840 0.551873 0.160159
0.329259 0.551568 0.160830
0.359808 0.551202 0.161837
0.390600 0.550774 0.162661
0.421881 0.550317 0.163607
0.453346 0.549767 0.164889
0.484810 0.549218 0.166110
0.516381 0.548608 0.167636
0.547845 0.547906 0.168978
0.579400 0.547234 0.170901
0.609277 0.545190 0.173648
0.636133 0.541039 0.178653
0.662257 0.536889 0.183017
0.687617 0.532738 0.187778
0.712245 0.528649 0.192813
0.736202 0.524529 0.197635
0.759915 0.520836 0.202213
0.784176 0.517906 0.206729
0.809201 0.515709 0.210666
0.835019 0.514061 0.214023
0.861692 0.513115 0.217319
0.889372 0.512749 0.220249
0.918151 0.512902 0.222599
0.948119 0.513664 0.224887
0.171267 0.578241 0.171420
0.173190 0.578271 0.171359
0.178439 0.578241 0.171267
0.189700 0.578149 0.171603
0.205844 0.578088 0.171786
0.225528 0.577996 0.172030
0.249088 0.577783 0.172305
0.274510 0.577569 0.172793
0.301518 0.577356 0.173251
0.329961 0.577050 0.174075
0.359167 0.576654 0.174716
0.388922 0.576257 0.175692
0.419074 0.575830 0.176608
0.449714 0.575341 0.177676
0.480415 0.574731 0.178927
0.511101 0.574182 0.180392
0.542016 0.573480 0.181888
0.572808 0.572808 0.183291
0.603571 0.572076 0.185275
0.633051 0.570336 0.187655
0.659083 0.566003 0.192355
0.684413 0.561669 0.197086
0.709010 0.557397 0.201572
0.732967 0.553124 0.206607
0.757076 0.549462 0.211154
0.781827 0.546593 0.215091
0.807218 0.544427 0.218601
0.833433 0.542870 0.221744
0.860410 0.542046 0.224857
0.888457 0.541711 0.227359
0.917540 0.541985 0.229496
0.947906 0.542870 0.231357
0.184817 0.602747 0.184848
0.185824 0.602747 0.184848
0.190951 0.602686 0.184756
0.200473 0.602655 0.184909
0.215122 0.602564 0.185245
0.233341 0.602411 0.185519
0.254826 0.602289 0.185763
0.278569 0.602045 0.186099
0.304112 0.601831 0.186557
0.331151 0.601526 0.187198
0.359167 0.601190 0.187961
0.387732 0.600824 0.188907
0.417090 0.600336 0.189853
0.446571 0.599878 0.190738
0.476448 0.599329 0.192111
0.506493 0.598749 0.193240
0.536461 0.598108 0.194705
0.566583 0.597436 0.196109
0.596765 0.596674 0.197757
0.626703 0.595911 0.199496
0.655940 0.594507 0.201816
0.681147 0.590051 0.206394
0.705684 0.585504 0.211032
0.729885 0.581262 0.215549
0.754421 0.577844 0.219699
0.779568 0.575036 0.223301
0.805325 0.572992 0.226627
0.831907 0.571557 0.229709
0.859281 0.570794 0.232273
0.887694 0.570672 0.234440
0.917144 0.571099 0.236484
0.947814 0.572107 0.237888
0.198367 0.626215 0.198398
0.199741 0.626215 0.198367
0.203952 0.626154 0.198306
0.212314 0.626154 0.198581
0.225254 0.626062 0.198764
0.241703 0.625910 0.199039
0.261387 0.625788 0.199161
0.283757 0.625574 0.199588
0.307713 0.625360 0.200198
0.333227 0.625055 0.200809
0.359960 0.624750 0.201297
0.387518 0.624323 0.202243
0.415625 0.623926 0.202976
0.444129 0.623468 0.204044
0.473121 0.622950 0.205051
0.502190 0.622370 0.206210
0.531518 0.621759 0.207584
0.560876 0.621088 0.208835
0.590295 0.620417 0.210452
0.619684 0.619654 0.211917
0.648920 0.618830 0.213748
0.677882 0.617762 0.215824
0.702358 0.613153 0.220188
0.726894 0.609064 0.224613
0.751858 0.605798 0.228397
0.777401 0.603204 0.231785
0.803555 0.601343 0.234562
0.830503 0.600061 0.237308
0.858274 0.599542 0.239628
0.887022 0.599542 0.241520
0.916869 0.600244 0.243198
0.947936 0.601434 0.244144
0.212100 0.648798 0.211978
0.212924 0.648798 0.211948
0.216770 0.648768 0.211887
0.224338 0.648737 0.212131
0.235630 0.648646 0.212222
0.250675 0.648524 0.212467
0.268620 0.648402 0.212711
0.289189 0.648188 0.213016
0.311955 0.647974 0.213596
0.335973 0.647669 0.214084
0.361303 0.647395 0.214694
0.387701 0.646998 0.215579
0.414832 0.646601 0.216220
0.442390 0.646113 0.217227
0.470283 0.645655 0.218235
0.498604 0.645106 0.219364
0.527001 0.644526 0.220584
0.555627 0.643854 0.221714
0.584314 0.643183 0.223148
0.613031 0.642451 0.224582
0.641749 0.641749 0.226200
0.670436 0.641016 0.227909
0.699092 0.640223 0.229587
0.724147 0.636561 0.233402
0.749538 0.633539 0.236942
0.775448 0.631189 0.239994
0.801999 0.629572 0.242527
0.829282 0.628534 0.244816
0.857420 0.628199 0.246952
0.886564 0.628473 0.248569
0.916808 0.629389 0.249699
0.948211 0.630823 0.250553
0.225406 0.670680 0.225376
0.226230 0.670649 0.225376
0.229526 0.670619 0.225437
0.236271 0.670558 0.225559
0.246738 0.670527 0.225620
0.260227 0.670405 0.225956
0.276585 0.670283 0.226230
0.295720 0.670130 0.226383
0.316594 0.669947 0.226810
0.339666 0.669703 0.227390
0.363714 0.669429 0.227970
0.388891 0.669093 0.228580
0.414740 0.668788 0.229282
0.441291 0.668452 0.230198
0.468391 0.668025 0.231022
0.495888 0.667597 0.231968
0.523583 0.667140 0.232975
0.551598 0.666682 0.234195
0.579675 0.666163 0.235416
0.607935 0.665614 0.236606
0.636164 0.665126 0.237980
0.664546 0.664546 0.239414
0.692897 0.663996 0.240940
0.721279 0.663447 0.242527
0.747433 0.661036 0.245487
0.773709 0.658991 0.248173
0.800626 0.657618 0.250462
0.828305 0.656916 0.252506
0.856840 0.656825 0.254093
0.886351 0.657374 0.255253
0.916930 0.658564 0.256138
0.948730 0.660365 0.256687
0.237949 0.693355 0.237888
0.238529 0.693324 0.237888
0.241489 0.693355 0.237797
0.247807 0.693294 0.238041
0.256962 0.693263 0.238102
0.269352 0.693172 0.238285
0.284733 0.693080 0.238407
0.302403 0.692988 0.238682
0.322148 0.692866 0.239078
0.343847 0.692683 0.239597
0.366766 0.692500 0.240024
0.390845 0.692256 0.240543
0.415930 0.692012 0.241093
0.441596 0.691768 0.241855
0.467994 0.691493 0.242679
0.494606 0.691188 0.243534
0.521813 0.690883 0.244450
0.549187 0.690578 0.245365
0.576837 0.690211 0.246372
0.604639 0.689845 0.247532
0.632563 0.689479 0.248661
0.660639 0.689113 0.249882
0.688716 0.688746 0.251255
0.716884 0.688380 0.252598
0.745144 0.688014 0.253971
0.772213 0.686732 0.256138
0.799527 0.685664 0.258091
0.827573 0.685267 0.259861
0.856443 0.685542 0.261082
0.886351 0.686366 0.261936
0.917357 0.687892 0.262516
0.949523 0.690028 0.262364
0.248997 0.717403 0.249058
0.249638 0.717403 0.249058
0.252476 0.717403 0.249088
0.258061 0.717372 0.249088
0.266697 0.717342 0.249241
0.278172 0.717311 0.249332
0.292302 0.717250 0.249546
0.308904 0.717189 0.249882
0.327886 0.717067 0.250156
0.348486 0.716976 0.250492
0.370397 0.716854 0.250889
0.393744 0.716732 0.251255
0.417853 0.716579 0.251835
0.442908 0.716426 0.252415
0.468544 0.716243 0.252995
0.494697 0.716060 0.253758
0.521355 0.715846 0.254520
0.548333 0.715633 0.255436
0.575494 0.715450 0.256229
0.602991 0.715236 0.257298
0.630671 0.715023 0.258213
0.658473 0.714809 0.259312
0.686366 0.714626 0.260472
0.714412 0.714443 0.261570
0.742550 0.714260 0.262730
0.770779 0.714076 0.264134
0.798703 0.713649 0.265537
0.827085 0.713619 0.266850
0.856382 0.714229 0.267704
0.886656 0.715480 0.268223
0.918029 0.717342 0.268254
0.950622 0.719844 0.267979
0.259007 0.742916 0.259068
0.259617 0.742916 0.259037
0.262242 0.742947 0.259068
0.267369 0.742916 0.259098
0.275456 0.742885 0.259220
0.286107 0.742885 0.259403
0.299504 0.742855 0.259586
0.315618 0.742794 0.259709
0.333532 0.742763 0.259831
0.353277 0.742702 0.260166
0.374487 0.742641 0.260502
0.397101 0.742580 0.260929
0.420691 0.742489 0.261387
0.445045 0.742397 0.261906
0.470192 0.742336 0.262394
0.495888 0.742245 0.263005
0.522087 0.742184 0.263737
0.548669 0.742092 0.264378
0.575616 0.742031 0.265202
0.602747 0.741939 0.265965
0.630243 0.741848 0.266819
0.657862 0.741817 0.267704
0.685664 0.741787 0.268620
0.713619 0.741756 0.269535
0.741695 0.741695 0.270573
0.769924 0.741726 0.271611
0.798276 0.741756 0.272618
0.826963 0.742061 0.273686
0.856596 0.743069 0.274113
0.887236 0.744686 0.274266
0.919005 0.746975 0.273930
0.952026 0.749905 0.272953
0.267521 0.770047 0.267552
0.268315 0.770047 0.267643
0.270634 0.770016 0.267613
0.275456 0.770047 0.267582
0.283146 0.770047 0.267704
0.293431 0.770016 0.267887
0.306249 0.770047 0.267857
0.321508 0.770016 0.268132
0.338811 0.770016 0.268345
0.358007 0.769986 0.268650
0.378759 0.769986 0.268925
0.400763 0.769955 0.269169
0.423743 0.769986 0.269535
0.447730 0.769986 0.269902
0.472511 0.769986 0.270542
0.497841 0.770016 0.270878
0.523735 0.770016 0.271550
0.550072 0.770016 0.272038
0.576837 0.770077 0.272557
0.603876 0.770108 0.273259
0.631128 0.770199 0.274052
0.658686 0.770260 0.274754
0.686458 0.770321 0.275517
0.714443 0.770443 0.276280
0.742519 0.770626 0.277165
0.770779 0.770779 0.277928
0.799161 0.770993 0.278782
0.827726 0.771206 0.279698
0.857176 0.772091 0.280095
0.888212 0.774166 0.279789
0.920317 0.776913 0.279026
0.953765 0.780270 0.277775
0.274998 0.798856 0.274846
0.275486 0.798856 0.274998
0.277806 0.798856 0.274937
0.282506 0.798856 0.274937
0.289769 0.798886 0.274937
0.299565 0.798886 0.274998
0.312078 0.798917 0.275151
0.327001 0.798917 0.275334
0.343847 0.798947 0.275425
0.362585 0.799008 0.275669
0.382879 0.799039 0.275944
0.404364 0.799100 0.276097
0.427192 0.799161 0.276341
0.450843 0.799222 0.276768
0.475349 0.799283 0.277073
0.500542 0.799374 0.277440
0.526177 0.799496 0.277928
0.552422 0.799619 0.278355
0.579004 0.799771 0.278782
0.605982 0.799893 0.279393
0.633173 0.800107 0.279942
0.660761 0.800320 0.280430
0.688563 0.800534 0.281071
0.716609 0.800809 0.281712
0.744808 0.801083 0.282322
0.773190 0.801419 0.282841
0.801785 0.801755 0.283574
0.830533 0.802152 0.284245
0.859434 0.802609 0.284794
0.889494 0.803891 0.284886
0.921996 0.807095 0.283665
0.955840 0.811002 0.281865
0.280583 0.829557 0.280552
0.281132 0.829557 0.280522
0.283513 0.829557 0.280583
0.287938 0.829557 0.280644
0.295109 0.829587 0.280644
0.304875 0.829618 0.280797
0.317021 0.829679 0.280919
0.331487 0.829709 0.280797
0.348241 0.829770 0.281041
0.366644 0.829831 0.281102
0.386725 0.829953 0.281407
0.408026 0.830045 0.281529
0.430732 0.830167 0.281804
0.454108 0.830289 0.281987
