20 Preset/Rover Style/【3】LUT video cho PR-AE-FCPX/Rover Contrast -.cube
# Created by Adobe Lightroom plugin Export LUT (1.24.0)
# www.johnrellis.com/lightroom/exportlut.htm
# Preset: Rover Contrast -
# Color profile: E:\lut插件\exportlut.1.24\exportlut.lrplugin\color profiles\Rec709gamma2.4.icc
LUT_3D_SIZE 8
DOMAIN_MIN 0.000000 0.000000 0.000000
DOMAIN_MAX 0.903226 0.903226 0.903226
0.000000 0.000000 0.000000
0.164187 0.000732 0.000732
0.316716 0.003815 0.002777
0.455238 0.019257 0.020264
0.579004 0.052827 0.052552
0.688472 0.094881 0.094728
0.784878 0.121401 0.121370
0.875242 0.147799 0.148013
0.003357 0.162722 0.001617
0.162325 0.162387 0.001892
0.315343 0.159091 0.010590
0.453773 0.156497 0.029175
0.577691 0.156252 0.066377
0.687282 0.160922 0.100191
0.783780 0.171084 0.126192
0.874540 0.185428 0.151431
0.033173 0.310796 0.034577
0.160342 0.310521 0.037079
0.309422 0.309514 0.041047
0.448829 0.302159 0.068360
0.572625 0.293523 0.097230
0.682460 0.286534 0.119448
0.779294 0.282444 0.143008
0.871794 0.282963 0.165713
0.105959 0.440650 0.105684
0.170199 0.440436 0.106081
0.300023 0.439521 0.108705
0.437903 0.437781 0.113344
0.564019 0.427955 0.128450
0.673793 0.414862 0.148470
0.770993 0.403113 0.169650
0.867124 0.396948 0.188907
0.157717 0.552850 0.157900
0.196811 0.552667 0.158297
0.299840 0.551873 0.160159
0.421881 0.550317 0.163607
0.547845 0.547906 0.168978
0.662257 0.536889 0.183017
0.759915 0.520836 0.202213
0.861692 0.513115 0.217319
0.212100 0.648798 0.211978
0.235630 0.648646 0.212222
0.311955 0.647974 0.213596
0.414832 0.646601 0.216220
0.527001 0.644526 0.220584
0.641749 0.641749 0.226200
0.749538 0.633539 0.236942
0.857420 0.628199 0.246952
0.259007 0.742916 0.259068
0.275456 0.742885 0.259220
0.333532 0.742763 0.259831
0.420691 0.742489 0.261387
0.522087 0.742184 0.263737
0.630243 0.741848 0.266819
0.741695 0.741695 0.270573
0.856596 0.743069 0.274113
0.284642 0.862303 0.284550
0.298833 0.862394 0.284550
0.351629 0.862638 0.284825
0.433967 0.863218 0.285374
0.532677 0.864195 0.286076
0.640406 0.865599 0.286870
0.753445 0.867643 0.287724
0.870420 0.870420 0.288457
0.000610 0.001190 0.162814
0.162936 0.004028 0.162753
0.315190 0.023896 0.160678
0.452888 0.076967 0.163424
0.576593 0.102632 0.167056
0.686030 0.125246 0.174655
0.782467 0.148409 0.186069
0.873167 0.170993 0.200351
0.011841 0.162600 0.162356
0.162417 0.162417 0.162417
0.313451 0.162905 0.162875
0.451728 0.164187 0.164553
0.575402 0.168673 0.168704
0.684932 0.176699 0.176486
0.781460 0.188144 0.188144
0.872526 0.202579 0.202518
0.075380 0.310399 0.165011
0.165377 0.310216 0.165225
0.309331 0.309422 0.166079
0.447242 0.303716 0.169314
0.570733 0.297276 0.175692
0.680415 0.292363 0.185000
0.777188 0.290196 0.197513
0.869963 0.291722 0.211276
0.122042 0.440253 0.178805
0.178683 0.440101 0.178988
0.302525 0.439246 0.179934
0.437751 0.437751 0.181979
0.562585 0.428717 0.189548
0.672145 0.417029 0.200717
0.769223 0.406622 0.214176
0.865568 0.401465 0.227543
0.171115 0.552422 0.206119
0.206424 0.552239 0.206424
0.304204 0.551537 0.207279
0.423560 0.550042 0.209842
0.547814 0.547814 0.213565
0.661189 0.537285 0.223178
0.758602 0.522240 0.237308
0.860502 0.515221 0.248600
0.222446 0.648432 0.244266
0.244663 0.648249 0.244572
0.317479 0.647608 0.245701
0.417548 0.646326 0.247684
0.528130 0.644312 0.251102
0.641627 0.641657 0.255619
0.748745 0.633783 0.264195
0.856687 0.629023 0.272129
0.266941 0.742672 0.282353
0.282322 0.742641 0.282506
0.338628 0.742489 0.283055
0.423774 0.742275 0.284245
0.523766 0.742000 0.286198
0.630945 0.741726 0.288792
0.741695 0.741665 0.292058
0.856229 0.743252 0.294865
0.289464 0.862181 0.303410
0.303502 0.862242 0.303502
0.355016 0.862547 0.303624
0.436255 0.863096 0.304173
0.534081 0.864103 0.304509
0.641108 0.865568 0.305241
0.753750 0.867613 0.305882
0.870420 0.870390 0.306340
0.008484 0.010132 0.311101
0.157717 0.016236 0.311009
0.310674 0.036713 0.310613
0.450385 0.092836 0.304906
0.571923 0.136416 0.301732
0.678523 0.182650 0.307012
0.773983 0.212802 0.312535
0.865599 0.232364 0.317327
0.050477 0.162814 0.310430
0.163058 0.163088 0.310369
0.310033 0.165530 0.310063
0.448280 0.174014 0.305730
0.569726 0.193423 0.304448
0.676692 0.220981 0.310155
0.773098 0.237888 0.313359
0.865080 0.253025 0.318212
0.096834 0.309331 0.309392
0.172915 0.309239 0.309300
0.309239 0.309239 0.309239
0.442329 0.309422 0.309361
0.564172 0.310430 0.310369
0.672999 0.312779 0.312688
0.769467 0.316533 0.316564
0.863066 0.321752 0.321843
0.157717 0.439033 0.309331
0.203586 0.438758 0.310552
0.311467 0.438209 0.311376
0.437324 0.437293 0.311864
0.558038 0.431647 0.314153
0.666255 0.425025 0.317937
0.762631 0.419379 0.323125
0.859739 0.417517 0.328710
0.211185 0.550958 0.319677
0.237705 0.550805 0.319768
0.320165 0.550256 0.320104
0.429541 0.549126 0.321050
0.547387 0.547356 0.322515
0.657130 0.538750 0.326940
0.753689 0.527428 0.333501
0.856107 0.523156 0.338750
0.257542 0.646998 0.336645
0.275242 0.646876 0.336797
0.337255 0.646326 0.337255
0.428351 0.645228 0.338323
0.532403 0.643488 0.340063
0.641230 0.641260 0.342412
0.745724 0.634730 0.347112
0.853849 0.632288 0.351019
0.294591 0.741604 0.356909
0.307805 0.741604 0.357031
0.357397 0.741543 0.357305
0.435706 0.741421 0.357977
0.530327 0.741329 0.359106
0.633570 0.741268 0.360449
0.741512 0.741482 0.362219
0.854917 0.743984 0.363317
0.306828 0.861692 0.367346
0.319554 0.861753 0.367346
0.367437 0.862058 0.367498
0.444556 0.862699 0.367620
0.539239 0.863767 0.367651
0.643915 0.865324 0.367803
0.754849 0.867521 0.367834
0.870420 0.870420 0.367590
0.041657 0.041260 0.441566
0.155612 0.049134 0.441474
0.298009 0.083589 0.441108
0.440375 0.108827 0.440345
0.568627 0.143038 0.432807
0.675441 0.187839 0.423529
0.768643 0.234257 0.421302
0.857908 0.276371 0.427832
0.096315 0.165499 0.440833
0.166903 0.166903 0.440742
0.300694 0.171725 0.440375
0.439796 0.179934 0.439796
0.566583 0.197208 0.432807
0.673487 0.226474 0.424933
0.766720 0.262150 0.423713
0.856596 0.297368 0.430640
0.141360 0.305486 0.439033
0.193301 0.306889 0.438880
0.309575 0.309758 0.438422
0.438148 0.311589 0.438178
0.559808 0.316930 0.433692
0.666102 0.328649 0.430671
0.759396 0.346532 0.433082
0.852750 0.362097 0.438575
0.173068 0.437324 0.437293
0.213169 0.437263 0.437293
0.317876 0.437171 0.437171
0.437079 0.437079 0.437079
0.551934 0.437232 0.437232
0.657404 0.437964 0.437903
0.752193 0.439460 0.439429
0.851041 0.441291 0.441291
0.235813 0.549767 0.433997
0.260868 0.549554 0.434577
0.339513 0.548699 0.437018
0.438941 0.547784 0.438849
0.546868 0.546868 0.439338
0.650996 0.541741 0.441016
0.745968 0.536278 0.443549
0.849638 0.535454 0.445319
0.304143 0.644770 0.444648
0.317479 0.644648 0.444739
0.367071 0.644251 0.444953
0.445411 0.643458 0.445472
0.539544 0.642206 0.446143
0.640711 0.640711 0.447181
0.741238 0.636683 0.449256
0.849943 0.637415 0.450263
0.332525 0.740017 0.453285
0.343145 0.740017 0.453254
0.384680 0.740047 0.453376
0.453620 0.740139 0.453651
0.540490 0.740291 0.454047
0.637720 0.740658 0.454597
0.741268 0.741268 0.455146
0.853422 0.745418 0.454749
0.327520 0.861143 0.455024
0.338994 0.861265 0.455024
0.382574 0.861601 0.454994
0.454932 0.862303 0.454871
0.545586 0.863462 0.454719
0.647303 0.865171 0.454383
0.756222 0.867521 0.453803
0.870603 0.870603 0.452857
0.093111 0.093263 0.554528
0.160281 0.097536 0.554406
0.287541 0.112886 0.554009
0.420813 0.136080 0.553338
0.552300 0.162356 0.552270
0.670863 0.195438 0.544854
0.764431 0.240330 0.530785
0.856382 0.279911 0.526848
0.123964 0.174197 0.553796
0.175814 0.175662 0.553674
0.293095 0.182162 0.553338
0.422461 0.193851 0.552667
0.551812 0.208957 0.551781
0.669184 0.231937 0.544549
0.762692 0.267124 0.531487
0.855161 0.300389 0.528191
0.187716 0.309667 0.551415
0.219638 0.310216 0.551354
0.312016 0.312016 0.551080
0.428046 0.315648 0.550622
0.549981 0.321019 0.549950
0.662562 0.331121 0.543603
0.755917 0.349218 0.534356
0.850858 0.367803 0.533715
0.219150 0.430213 0.549218
0.247257 0.430945 0.549065
0.332372 0.433875 0.548638
0.437537 0.437507 0.548058
0.547662 0.439063 0.547692
0.652949 0.442939 0.543694
0.745480 0.450935 0.540490
0.845121 0.458289 0.542779
0.253483 0.546990 0.546990
0.275334 0.546960 0.546990
0.347173 0.546899 0.546899
0.444495 0.546685 0.546746
0.546624 0.546624 0.546624
0.644709 0.546715 0.546746
0.738033 0.547234 0.547234
0.844175 0.547539 0.547539
0.313939 0.644007 0.541405
0.328435 0.643824 0.541711
0.381537 0.643091 0.543206
0.461189 0.641871 0.546105
0.548150 0.640894 0.548150
0.640223 0.640223 0.548455
0.737240 0.639582 0.548913
0.847471 0.642329 0.548547
0.355749 0.739010 0.546929
0.366186 0.738979 0.547295
0.406592 0.738888 0.548791
0.470100 0.739010 0.549767
0.549798 0.739498 0.549798
0.641535 0.740230 0.549767
0.741207 0.741238 0.549645
0.853574 0.747066 0.548272
0.330236 0.861387 0.546227
0.341405 0.861479 0.546197
0.384192 0.861814 0.546075
0.455421 0.862608 0.545830
0.545373 0.863828 0.545373
0.646784 0.865599 0.544732
0.755978 0.867979 0.543786
0.871061 0.871031 0.542443
0.126070 0.126589 0.651423
0.172976 0.129610 0.651362
0.281926 0.143221 0.650965
0.404364 0.164218 0.650294
0.527337 0.190097 0.649256
0.647974 0.217502 0.648005
0.758877 0.248600 0.642237
0.854704 0.284703 0.632532
0.152743 0.188510 0.650752
0.190524 0.190341 0.650660
0.289982 0.197604 0.650294
0.407630 0.210727 0.649683
0.528374 0.228305 0.648737
0.647517 0.248814 0.647547
0.757321 0.274052 0.641749
0.853666 0.304326 0.632990
0.216464 0.313634 0.648280
0.240360 0.314275 0.648219
0.316869 0.316899 0.648005
0.420050 0.321996 0.647456
0.532036 0.329442 0.646723
0.645747 0.339208 0.645747
0.751553 0.353002 0.640192
0.850065 0.370092 0.634913
0.267613 0.430671 0.645289
0.287388 0.432013 0.645197
0.354040 0.437263 0.644617
0.439246 0.439185 0.644282
0.538445 0.442145 0.643763
0.643153 0.446113 0.643153
0.743008 0.452552 0.638788
0.845518 0.459052 0.638544
0.298619 0.537530 0.642725
0.314641 0.538048 0.642634
0.371923 0.539910 0.642298
0.455665 0.543450 0.641657
0.547021 0.546990 0.641077
0.640803 0.548241 0.640803
0.736324 0.550225 0.639673
0.844511 0.550103 0.642206
0.332250 0.640497 0.640467
0.345281 0.640436 0.640436
0.392859 0.640375 0.640375
0.467018 0.640223 0.640223
0.552514 0.640101 0.640101
0.640070 0.640070 0.640070
0.737667 0.639979 0.639979
0.851347 0.639582 0.639582
0.361273 0.738888 0.640345
0.371283 0.738888 0.640497
0.409644 0.738857 0.640986
0.472267 0.739071 0.641566
0.548272 0.739803 0.640620
0.639002 0.740749 0.639002
0.741543 0.741573 0.638697
0.858274 0.746365 0.637385
0.318151 0.862211 0.644160
0.328405 0.862364 0.643854
0.367468 0.862974 0.642298
0.432929 0.864225 0.638636
0.522942 0.865873 0.634272
0.633661 0.867369 0.633692
0.750332 0.869352 0.632837
0.871855 0.871855 0.631678
0.157473 0.157534 0.745785
0.191409 0.160250 0.745724
0.284184 0.171359 0.745480
0.396460 0.189700 0.744991
0.512810 0.213199 0.744350
0.628779 0.238987 0.743496
0.742550 0.264927 0.742580
0.853269 0.290227 0.741543
0.179355 0.206332 0.745296
0.208438 0.208225 0.745235
0.293065 0.215213 0.745022
0.400885 0.227970 0.744594
0.514946 0.245518 0.743923
0.629419 0.265965 0.743130
0.742306 0.287449 0.742306
0.852506 0.308995 0.741360
0.238163 0.319921 0.743587
0.257603 0.320562 0.743526
0.323522 0.323522 0.743374
0.417456 0.329107 0.743038
0.522850 0.337469 0.742580
0.631983 0.347906 0.742000
0.741360 0.359960 0.741360
0.849699 0.372717 0.740902
0.301061 0.437903 0.741299
0.314397 0.438209 0.741268
0.363622 0.439368 0.741176
0.441596 0.441627 0.740993
0.535210 0.444953 0.740780
0.636164 0.449439 0.740444
0.740108 0.454658 0.740139
0.846586 0.459785 0.741054
0.327306 0.538537 0.740444
0.340398 0.539178 0.740383
0.388708 0.541680 0.740108
0.463447 0.545953 0.739712
0.547539 0.547539 0.739590
0.640742 0.548730 0.739590
0.739651 0.549920 0.739651
0.847074 0.549554 0.742855
0.348363 0.639490 0.740352
0.359594 0.639704 0.740291
0.401678 0.640436 0.740230
0.469398 0.641444 0.740108
0.550378 0.641749 0.740169
0.639796 0.639826 0.740597
0.740871 0.638911 0.740841
0.855436 0.636347 0.744350
0.360418 0.741268 0.741238
0.370031 0.741299 0.741268
0.407019 0.741299 0.741299
0.467842 0.741360 0.741360
0.543481 0.741543 0.741543
0.635035 0.741695 0.741726
0.741787 0.741787 0.741787
0.865324 0.741634 0.741604
0.302251 0.863279 0.750973
0.312871 0.863401 0.750851
0.353796 0.864042 0.750362
0.422644 0.865263 0.749294
0.511742 0.867063 0.747097
0.616327 0.869322 0.743130
0.739803 0.871153 0.739773
0.872709 0.872709 0.739193
0.180850 0.180789 0.864317
0.209384 0.183078 0.864286
0.293553 0.191348 0.864195
0.401282 0.206149 0.863981
0.516045 0.225650 0.863645
0.632288 0.247257 0.863310
0.748104 0.269139 0.863005
0.862760 0.289494 0.862791
0.197757 0.221592 0.864103
0.222995 0.223026 0.864073
0.301793 0.228977 0.863951
0.405859 0.239933 0.863737
0.518456 0.254734 0.863493
0.633417 0.272160 0.863188
0.748470 0.290257 0.862913
0.862760 0.307683 0.862760
0.246769 0.325872 0.863249
0.264988 0.326482 0.863218
0.329076 0.329076 0.863157
0.421790 0.334051 0.863066
0.527245 0.341253 0.862882
0.637720 0.350195 0.862760
0.749966 0.359991 0.862638
0.862669 0.369543 0.862669
0.298070 0.440040 0.862425
0.312047 0.440253 0.862425
0.362890 0.441199 0.862425
0.443000 0.443030 0.862425
0.539330 0.445686 0.862425
0.643763 0.448920 0.862516
0.752224 0.452399 0.862669
0.863005 0.455299 0.862974
0.324743 0.545006 0.862882
0.337255 0.545312 0.862882
0.383825 0.546380 0.862852
0.456916 0.546807 0.862974
0.547082 0.547021 0.863157
0.647425 0.547021 0.863432
0.753811 0.546471 0.863890
0.864469 0.544823 0.864469
0.327550 0.647883 0.864805
0.339147 0.647852 0.864836
0.382696 0.647700 0.864897
0.452247 0.646509 0.865202
0.536126 0.641901 0.865873
0.638605 0.638605 0.866514
0.750607 0.636255 0.867094
0.867796 0.633112 0.867796
0.310979 0.755550 0.867826
0.322179 0.755459 0.867857
0.364660 0.754910 0.868009
0.432624 0.753384 0.868406
0.519982 0.750576 0.869047
0.622522 0.746181 0.869963
0.741329 0.741329 0.870848
0.871305 0.739620 0.871336
0.242893 0.871641 0.871641
0.257725 0.871672 0.871672
0.311192 0.871763 0.871794
0.393866 0.871977 0.871977
0.493782 0.872282 0.872282
0.606500 0.872648 0.872648
0.732021 0.872984 0.872984
0.873167 0.873167 0.873167
