20 Preset/Rover Style/【3】LUT video cho PR-AE-FCPX/Rover 06 P.cube
# Created by Adobe Lightroom plugin Export LUT (1.24.0)
# www.johnrellis.com/lightroom/exportlut.htm
# Preset: Rover 06 P
# Color profile: E:\lut插件\exportlut.1.24\exportlut.lrplugin\color profiles\Rec709gamma2.4.icc
LUT_3D_SIZE 32
DOMAIN_MIN 0.0 0.0 0.0
DOMAIN_MAX 1.0 1.0 1.0
0.015015 0.028443 0.036469
0.015015 0.028443 0.036469
0.016297 0.029419 0.036316
0.021241 0.029938 0.037263
0.027161 0.031464 0.039216
0.034058 0.033936 0.042115
0.044953 0.035981 0.045014
0.060090 0.037568 0.046754
0.079408 0.039673 0.049470
0.094789 0.040467 0.050996
0.108370 0.042329 0.053285
0.125948 0.042451 0.056458
0.149294 0.039857 0.058015
0.179812 0.029755 0.061372
0.217624 0.010071 0.063783
0.263890 0.000000 0.066407
0.318303 0.000000 0.068482
0.381201 0.000000 0.069368
0.449470 0.000000 0.069978
0.519493 0.000000 0.069886
0.586358 0.000000 0.070130
0.648402 0.000000 0.070069
0.711147 0.000000 0.074830
0.761471 0.000000 0.079438
0.802152 0.000000 0.086854
0.834806 0.000000 0.093690
0.861204 0.000000 0.103151
0.882597 0.000000 0.116182
0.899962 0.000000 0.133364
0.914031 0.000000 0.156954
0.925444 0.163058 0.187716
0.934051 0.261723 0.228672
0.014313 0.029633 0.036316
0.014313 0.029633 0.036316
0.017273 0.030396 0.037293
0.020233 0.031159 0.038239
0.026459 0.032654 0.039063
0.035340 0.034913 0.041962
0.046937 0.035737 0.045014
0.059388 0.038758 0.046601
0.079408 0.039673 0.049470
0.093751 0.041901 0.051972
0.107179 0.042756 0.053315
0.125002 0.042908 0.056489
0.147799 0.040742 0.058045
0.177523 0.031525 0.061433
0.214786 0.012970 0.063905
0.260410 0.000000 0.066743
0.314336 0.000000 0.068879
0.376196 0.000000 0.069917
0.444251 0.000000 0.069551
0.513970 0.000000 0.069612
0.580987 0.000000 0.070283
0.642878 0.000000 0.070497
0.704677 0.000000 0.074098
0.754726 0.000000 0.079072
0.795895 0.000000 0.085206
0.829068 0.000000 0.092409
0.856413 0.000000 0.101228
0.878782 0.000000 0.113436
0.896971 0.000000 0.130037
0.911711 0.000000 0.152193
0.923735 0.140505 0.181949
0.932952 0.248112 0.221225
0.015259 0.032807 0.039246
0.015259 0.032807 0.039246
0.017243 0.032563 0.039246
0.021485 0.034302 0.040040
0.027405 0.035798 0.041993
0.035309 0.037079 0.043915
0.046479 0.039124 0.045686
0.061646 0.040711 0.047425
0.080812 0.041627 0.050294
0.094636 0.043854 0.051667
0.107637 0.045930 0.053986
0.125368 0.046052 0.057160
0.148104 0.043915 0.058717
0.177798 0.034699 0.060975
0.215030 0.014923 0.064698
0.260349 0.000000 0.066133
0.314000 0.000000 0.068299
0.375738 0.000000 0.069368
0.443366 0.000000 0.070008
0.512749 0.000000 0.070130
0.579644 0.000000 0.069581
0.642756 0.000000 0.070436
0.703090 0.000000 0.073182
0.752621 0.000000 0.079286
0.793393 0.000000 0.084993
0.826627 0.000000 0.091676
0.854154 0.000000 0.100069
0.876799 0.000000 0.112123
0.895323 0.000000 0.128176
0.910369 0.000000 0.150484
0.922484 0.137301 0.179934
0.931884 0.245335 0.218753
0.017426 0.039094 0.044007
0.017121 0.039094 0.045136
0.019104 0.038880 0.045106
0.022095 0.039643 0.046082
0.028595 0.041138 0.045747
0.036835 0.042420 0.046540
0.048005 0.044465 0.048310
0.065126 0.045838 0.050050
0.083192 0.046754 0.051759
0.096620 0.048737 0.053132
0.109895 0.050599 0.055451
0.128023 0.051484 0.057313
0.150881 0.048890 0.060029
0.181003 0.039979 0.062074
0.218387 0.019318 0.064637
0.263035 0.000000 0.068330
0.315892 0.000000 0.069062
0.376684 0.000000 0.070008
0.443366 0.000000 0.070588
0.511772 0.000000 0.070680
0.577661 0.000000 0.070161
0.641291 0.000000 0.070527
0.699702 0.000000 0.073823
0.748806 0.000000 0.078981
0.790066 0.000000 0.084565
0.824369 0.000000 0.090944
0.852659 0.000000 0.099886
0.875792 0.000000 0.112306
0.894530 0.000000 0.128389
0.909453 0.000000 0.151034
0.921508 0.152010 0.180575
0.930755 0.250950 0.218753
0.019593 0.047578 0.050690
0.019593 0.047578 0.050690
0.021271 0.047364 0.051820
0.024537 0.048127 0.051667
0.026795 0.050080 0.052461
0.037293 0.051148 0.052125
0.053040 0.052735 0.051606
0.070466 0.054108 0.052216
0.087312 0.056001 0.053773
0.099519 0.057771 0.055116
0.112886 0.059388 0.057435
0.131777 0.059632 0.059266
0.155856 0.056886 0.061769
0.185885 0.048280 0.063661
0.223972 0.026825 0.067140
0.269566 0.000000 0.068116
0.323003 0.000000 0.070680
0.383948 0.000000 0.071046
0.450294 0.000000 0.071199
0.517754 0.000000 0.070497
0.582818 0.000000 0.071595
0.646418 0.000000 0.071901
0.702663 0.000000 0.074769
0.750393 0.000000 0.079255
0.791012 0.000000 0.084565
0.824826 0.000000 0.091371
0.852537 0.000000 0.100526
0.875242 0.000000 0.112215
0.893553 0.000000 0.129763
0.908263 0.000000 0.152163
0.920104 0.174472 0.182040
0.929168 0.263188 0.220706
0.022278 0.060426 0.059052
0.022278 0.060426 0.059052
0.024262 0.060212 0.059052
0.027527 0.060975 0.058869
0.032471 0.061494 0.059846
0.038697 0.063020 0.060639
0.051759 0.066041 0.059968
0.076600 0.068910 0.056825
0.092409 0.068940 0.057404
0.104128 0.071687 0.058595
0.119631 0.073182 0.060700
0.139651 0.073274 0.061219
0.164950 0.069734 0.064607
0.196811 0.058991 0.066224
0.235966 0.038056 0.068940
0.282750 0.000000 0.070405
0.337499 0.000000 0.070924
0.399268 0.000000 0.071626
0.465187 0.000000 0.072694
0.531456 0.000000 0.072175
0.595239 0.000000 0.071778
0.658015 0.000000 0.072541
0.748959 0.000000 0.078981
0.791531 0.000000 0.084291
0.825406 0.000000 0.091188
0.852384 0.000000 0.100587
0.873899 0.000000 0.113649
0.891173 0.000000 0.130495
0.904906 0.082521 0.152895
0.916106 0.202365 0.181674
0.924773 0.275242 0.217685
0.931182 0.336400 0.261021
0.026307 0.080537 0.069581
0.026307 0.080537 0.069581
0.029999 0.080262 0.070710
0.033265 0.080720 0.070527
0.040192 0.080934 0.071473
0.047700 0.082490 0.072114
0.058167 0.084504 0.073732
0.078340 0.086580 0.072908
0.096895 0.089204 0.067964
0.115602 0.089967 0.064210
0.134798 0.089082 0.065217
0.158389 0.088869 0.066255
0.186893 0.086122 0.067872
0.222293 0.077699 0.069551
0.264500 0.051637 0.071107
0.313756 0.005554 0.072267
0.370642 0.000000 0.072511
0.432563 0.000000 0.072297
0.497383 0.000000 0.072389
0.561975 0.000000 0.071687
0.630152 0.000000 0.071229
0.692012 0.000000 0.072633
0.743771 0.000000 0.077028
0.787228 0.000000 0.082368
0.822293 0.000000 0.090700
0.849638 0.000000 0.099886
0.871122 0.000000 0.113283
0.888060 0.000000 0.131197
0.901579 0.147280 0.154147
0.912657 0.227878 0.182559
0.921294 0.291691 0.219059
0.927794 0.348089 0.261692
0.031159 0.093935 0.080903
0.032837 0.093874 0.081605
0.034119 0.094209 0.081514
0.039368 0.094392 0.081392
0.048310 0.094423 0.082002
0.059480 0.095125 0.083101
0.071229 0.096559 0.083986
0.084413 0.098207 0.084810
0.095613 0.100496 0.085298
0.116884 0.104097 0.079957
0.144289 0.105745 0.073396
0.172457 0.104250 0.070893
0.204410 0.100710 0.070008
0.241154 0.096284 0.070710
0.284520 0.084321 0.072511
0.334295 0.041474 0.072297
0.390661 0.000000 0.072297
0.452186 0.000000 0.071534
0.514977 0.000000 0.071046
0.580713 0.000000 0.070100
0.644892 0.000000 0.069398
0.700862 0.000000 0.070008
0.748745 0.000000 0.073274
0.789425 0.000000 0.080018
0.822354 0.000000 0.089174
0.848386 0.000000 0.100038
0.868925 0.000000 0.114443
0.885283 0.116182 0.133150
0.898405 0.201633 0.158053
0.909178 0.262730 0.187991
0.917632 0.317693 0.225162
0.924071 0.368048 0.268345
0.034882 0.110262 0.090333
0.034882 0.110262 0.090333
0.038849 0.110109 0.090333
0.043091 0.110597 0.090608
0.052979 0.110903 0.091341
0.068452 0.111360 0.091554
0.081270 0.112764 0.092470
0.092409 0.114778 0.092775
0.102785 0.117128 0.093782
0.116945 0.119966 0.094850
0.145388 0.125582 0.089937
0.181888 0.128176 0.084138
0.223941 0.126436 0.076387
0.265415 0.118837 0.071931
0.311315 0.108705 0.071687
0.362188 0.092439 0.070924
0.418555 0.031128 0.069734
0.478187 0.000000 0.067933
0.542138 0.000000 0.066773
0.605005 0.000000 0.065248
0.662715 0.000000 0.063874
0.712917 0.000000 0.063569
0.756435 0.000000 0.067811
0.793668 0.000000 0.075563
0.824033 0.000000 0.088869
0.848142 0.000000 0.100221
0.867460 0.130709 0.117464
0.882872 0.198886 0.138338
0.895323 0.253452 0.165194
0.905486 0.302525 0.197024
0.913634 0.349187 0.235935
0.919829 0.393622 0.279362
0.027863 0.133700 0.099367
0.027863 0.133700 0.099367
0.033539 0.133547 0.099702
0.041749 0.133822 0.099977
0.055207 0.134218 0.100160
0.073915 0.134737 0.100313
0.090150 0.135775 0.101015
0.100465 0.138125 0.101411
0.112673 0.140810 0.102388
0.127779 0.144350 0.103426
0.144869 0.147280 0.105745
0.183017 0.155062 0.098939
0.229740 0.158511 0.092164
0.285374 0.156588 0.083253
0.338231 0.147280 0.072175
0.394232 0.127657 0.064363
0.451209 0.109529 0.063050
0.513848 0.065339 0.059998
0.574701 0.000000 0.056214
0.631403 0.000000 0.053132
0.682033 0.000000 0.051514
0.725460 0.000000 0.051820
0.763577 0.000000 0.056184
0.796323 0.000000 0.067384
0.823575 0.102266 0.084810
0.845853 0.161807 0.100649
0.864042 0.210788 0.119448
0.878782 0.255283 0.143984
0.890867 0.297917 0.172641
0.900786 0.339605 0.207370
0.908751 0.380407 0.247623
0.914977 0.419928 0.292363
0.012299 0.164828 0.109743
0.014588 0.164797 0.109438
0.019532 0.164889 0.109712
0.031006 0.165194 0.109865
0.048005 0.165988 0.110231
0.076204 0.166720 0.110536
0.095827 0.167758 0.111360
0.110719 0.169558 0.111910
0.125826 0.173159 0.112612
0.143404 0.177279 0.113313
0.164096 0.181796 0.114290
0.186618 0.185611 0.117342
0.232822 0.195315 0.109041
0.290227 0.199954 0.098909
0.357824 0.198245 0.088045
0.427985 0.189090 0.067506
0.490150 0.172152 0.047822
0.550256 0.150668 0.039399
0.604608 0.138003 0.035309
0.654566 0.127932 0.031769
0.698573 0.125826 0.029816
0.736965 0.134981 0.031067
0.770993 0.155215 0.037842
0.800229 0.182742 0.054963
0.824704 0.213870 0.084627
0.844999 0.245792 0.104768
0.861631 0.279026 0.127962
0.875334 0.312261 0.155734
0.886625 0.346197 0.187228
0.896025 0.381079 0.224491
0.903624 0.415808 0.266178
0.909697 0.449714 0.311620
0.000000 0.207889 0.121096
0.000000 0.207980 0.121340
0.000000 0.208286 0.121492
0.003540 0.208438 0.121645
0.031037 0.209110 0.121859
0.072694 0.209873 0.122286
0.100221 0.211307 0.122957
0.122713 0.212955 0.124025
0.141817 0.216464 0.124788
0.163333 0.220981 0.125582
0.187076 0.226291 0.126406
0.215030 0.233097 0.127993
0.266209 0.257298 0.137728
0.330663 0.272465 0.126894
0.406867 0.281132 0.109621
0.484535 0.282933 0.088319
0.558953 0.278264 0.035798
0.615717 0.267002 0.002106
0.665614 0.254246 0.000000
0.706447 0.252354 0.000000
0.740536 0.260258 0.000000
0.770108 0.271885 0.003388
0.795773 0.286809 0.033417
0.817685 0.305058 0.079622
0.836240 0.324834 0.107942
0.851743 0.345556 0.134432
0.864561 0.367681 0.163455
0.875364 0.390906 0.195285
0.884611 0.415167 0.229740
0.892515 0.440681 0.267613
0.899168 0.466438 0.308293
0.904601 0.492958 0.352728
0.000000 0.272679 0.139254
0.000000 0.272862 0.139193
0.000000 0.272557 0.139254
0.000000 0.272282 0.139223
0.000000 0.272221 0.139528
0.063752 0.272435 0.139895
0.108614 0.272862 0.140291
0.138552 0.275364 0.142123
0.168093 0.279240 0.143496
0.195285 0.286503 0.145541
0.226169 0.295567 0.147555
0.261845 0.305882 0.150851
0.302342 0.317357 0.154147
0.341436 0.324132 0.162387
0.408240 0.341405 0.152682
0.483711 0.351812 0.130465
0.555230 0.355383 0.105104
0.618952 0.353979 0.057191
0.670192 0.348089 0.000000
0.709712 0.339879 0.000000
0.744686 0.330877 0.000000
0.771176 0.339483 0.000000
0.794247 0.350896 0.029480
0.814420 0.364630 0.090028
0.831632 0.379950 0.121370
0.846281 0.396155 0.151156
0.858579 0.413855 0.182864
0.869047 0.432990 0.216983
0.878202 0.453101 0.252293
0.886137 0.474311 0.290959
0.892760 0.496345 0.332341
0.898375 0.519005 0.375341
0.000000 0.344274 0.164370
0.000000 0.343847 0.163973
0.000000 0.343114 0.163973
0.000000 0.342870 0.163943
0.000000 0.342657 0.164187
0.066590 0.342535 0.164462
0.120027 0.343328 0.165560
0.158236 0.344701 0.166842
0.194491 0.346868 0.168826
0.227634 0.352026 0.171633
0.261814 0.360082 0.174899
0.299474 0.369696 0.179019
0.340337 0.380194 0.184329
0.383398 0.390387 0.190066
0.419379 0.394629 0.201144
0.479530 0.409308 0.194644
0.547662 0.419440 0.171786
0.608057 0.423560 0.146944
0.660914 0.424475 0.120027
0.706722 0.422644 0.085695
0.739528 0.416663 0.039216
0.768826 0.411048 0.017670
0.792905 0.410864 0.061616
0.811398 0.420935 0.112490
0.827359 0.432380 0.144533
0.840940 0.445075 0.177218
0.852689 0.458717 0.210208
0.862821 0.473671 0.244999
0.871794 0.489784 0.281254
0.879545 0.507378 0.319432
0.886168 0.525872 0.360174
0.891844 0.545342 0.402350
0.000000 0.418372 0.203067
0.000000 0.418158 0.203250
0.000000 0.417548 0.202731
0.000000 0.416510 0.202579
0.048798 0.415351 0.202090
0.118929 0.414130 0.201785
0.158022 0.413672 0.202609
0.195468 0.414069 0.204196
0.232944 0.415351 0.206180
0.270848 0.417945 0.209964
0.305333 0.424109 0.214328
0.342107 0.432349 0.220249
0.380652 0.440864 0.227176
0.420294 0.449348 0.234501
0.459510 0.457557 0.241978
0.489845 0.458442 0.253452
0.540063 0.470283 0.252171
0.596948 0.479561 0.230655
0.647120 0.484260 0.209171
0.690974 0.485573 0.187015
0.729580 0.484932 0.164157
0.760189 0.482124 0.148318
0.785000 0.478065 0.139315
0.806943 0.473945 0.149325
0.822660 0.479622 0.178408
0.835538 0.488838 0.210483
0.846708 0.499397 0.244175
0.856657 0.511345 0.278691
0.865476 0.524865 0.315190
0.873014 0.539879 0.354253
0.879637 0.555962 0.394537
0.885405 0.572992 0.435645
0.120729 0.483162 0.254612
0.122133 0.483192 0.254887
0.132113 0.482826 0.254459
0.147433 0.482399 0.254673
0.168826 0.481819 0.254643
0.194797 0.481270 0.255009
0.224247 0.481178 0.256168
0.256168 0.481819 0.258152
0.289952 0.482826 0.261112
0.324559 0.484230 0.264652
0.358984 0.486763 0.269352
0.391089 0.491646 0.274754
0.424170 0.497017 0.281010
0.457343 0.502037 0.287205
0.490364 0.507042 0.293584
0.522454 0.511803 0.300175
0.545983 0.510643 0.310338
0.585138 0.519768 0.314092
0.632746 0.527977 0.294987
0.675166 0.532433 0.277226
0.712886 0.534691 0.260258
0.745907 0.535027 0.244297
0.774624 0.534203 0.230137
0.795987 0.531487 0.224918
0.814664 0.528832 0.234318
0.830381 0.528923 0.252445
0.841032 0.537285 0.285435
0.850645 0.546929 0.318914
0.859068 0.557733 0.354376
0.866484 0.569848 0.390936
0.873167 0.582849 0.427893
0.879118 0.597009 0.465370
0.228611 0.536706 0.312657
0.230167 0.536553 0.312383
0.234745 0.536400 0.312352
0.242710 0.536126 0.312627
0.256413 0.535576 0.312596
0.274083 0.535119 0.313115
0.295903 0.534966 0.314794
0.320897 0.534997 0.316594
0.348058 0.535241 0.318883
0.377264 0.535576 0.322087
0.408209 0.536248 0.326085
0.436622 0.538689 0.331121
0.465064 0.542321 0.336797
0.493324 0.545892 0.342718
0.520684 0.549401 0.348669
0.547539 0.552758 0.354498
0.573205 0.556085 0.360601
0.591150 0.554345 0.369482
0.621546 0.561486 0.377752
0.661341 0.568811 0.361975
0.697444 0.573205 0.347936
0.729335 0.575586 0.335485
0.757656 0.576471 0.324071
0.782559 0.576440 0.314305
0.802792 0.574945 0.309178
0.819089 0.573510 0.318761
0.834134 0.572869 0.332982
0.844663 0.578393 0.360601
0.852811 0.587366 0.394720
0.860166 0.597375 0.428748
0.866789 0.608453 0.463416
0.873106 0.620417 0.497078
0.323796 0.581079 0.375036
0.325078 0.581201 0.375280
0.362768 0.596643 0.400885
0.368109 0.596338 0.400702
0.376104 0.595850 0.400824
0.386969 0.595270 0.401190
0.401129 0.594415 0.401404
0.418067 0.593835 0.402716
0.437598 0.593439 0.404395
0.458839 0.593103 0.406744
0.481483 0.592920 0.409735
0.504631 0.592645 0.412573
0.524865 0.594354 0.416938
0.545220 0.596094 0.420661
0.565270 0.597650 0.424384
0.584985 0.599237 0.428321
0.604242 0.600610 0.431708
0.623072 0.602136 0.435309
0.635431 0.599359 0.441657
0.656916 0.603662 0.450507
0.688655 0.609186 0.438209
0.717586 0.612543 0.427527
0.743679 0.614343 0.418189
0.767208 0.614832 0.409888
0.788479 0.614374 0.401709
0.807828 0.613489 0.395514
0.822232 0.612360 0.403235
0.835508 0.612024 0.416144
0.846891 0.614282 0.435431
0.854154 0.622309 0.465888
0.861082 0.631434 0.496345
0.867643 0.641596 0.526635
0.412207 0.620050 0.440833
0.415351 0.621149 0.443091
0.420478 0.622278 0.445411
0.426612 0.623224 0.447822
0.434760 0.623560 0.449195
0.443427 0.623438 0.450294
0.454139 0.622919 0.450629
0.466682 0.622217 0.451209
0.481300 0.621668 0.452399
0.497688 0.621149 0.454108
0.515343 0.620722 0.456153
0.533837 0.620386 0.458595
0.551659 0.620386 0.460975
0.568170 0.621698 0.464698
0.584741 0.623011 0.468025
0.601373 0.624262 0.471504
0.617823 0.625513 0.474922
0.634089 0.626947 0.478401
0.650233 0.628595 0.482734
0.660761 0.626398 0.488502
0.677394 0.629969 0.499245
0.704189 0.635309 0.491768
0.728878 0.638788 0.484688
0.751308 0.640681 0.478614
0.771878 0.641535 0.472877
0.791196 0.641901 0.467811
0.809354 0.642023 0.463722
0.823667 0.642023 0.471107
0.835904 0.642847 0.484443
0.847684 0.644587 0.499977
0.855711 0.651270 0.525139
0.862638 0.660090 0.552392
0.470802 0.645289 0.488533
0.473671 0.646174 0.490669
0.477516 0.647181 0.492744
0.482521 0.647974 0.494606
0.488533 0.648371 0.496376
0.495003 0.648280 0.497139
0.503014 0.647822 0.497353
0.512200 0.647242 0.498054
0.523033 0.646723 0.498756
0.535302 0.646174 0.499794
0.549004 0.645655 0.501213
0.563195 0.645167 0.502831
0.578119 0.644587 0.504570
0.591943 0.645075 0.507225
0.605524 0.646113 0.510002
0.619074 0.647120 0.513054
0.632685 0.648035 0.515862
0.646235 0.649195 0.519066
0.659846 0.650507 0.522759
0.673304 0.652003 0.526665
0.682063 0.650507 0.531975
0.695491 0.653223 0.541405
0.716884 0.657923 0.538384
0.737972 0.661219 0.533898
0.757717 0.663447 0.529839
0.776333 0.664851 0.526604
0.794034 0.665888 0.523735
0.811063 0.666773 0.522026
0.825589 0.667964 0.529656
0.837186 0.669673 0.542931
0.848508 0.672328 0.557855
0.858305 0.677180 0.576806
0.521508 0.666651 0.531792
0.523491 0.667384 0.533288
0.526329 0.668055 0.534874
0.530175 0.668605 0.536461
0.534356 0.668910 0.537652
0.539391 0.668818 0.538445
0.545129 0.668574 0.538933
0.551965 0.668055 0.539117
0.560174 0.667567 0.539666
0.569360 0.667048 0.540276
0.579736 0.666712 0.541558
0.590906 0.666224 0.542962
0.602594 0.665705 0.544182
0.614496 0.665248 0.545586
0.625360 0.666041 0.548180
0.636439 0.666926 0.550744
0.648005 0.667994 0.553887
0.659449 0.669276 0.557397
0.671138 0.670710 0.561273
0.682765 0.672480 0.565667
0.694270 0.674495 0.570367
0.702113 0.673945 0.576013
0.712856 0.676295 0.584619
0.730068 0.680903 0.585473
0.748501 0.684718 0.583581
0.766171 0.687556 0.581964
0.783047 0.689815 0.581018
0.799405 0.691676 0.580804
0.815274 0.693538 0.582238
0.830259 0.695674 0.589746
0.841703 0.698116 0.601770
0.853025 0.701167 0.614832
0.574548 0.688594 0.578607
0.575189 0.688869 0.579217
0.576349 0.688991 0.579614
0.578058 0.688991 0.580011
0.580285 0.688869 0.580102
0.583246 0.688533 0.580011
0.586938 0.688167 0.580041
0.591608 0.687770 0.580072
0.597528 0.687373 0.580529
0.604334 0.687037 0.581140
0.611963 0.686702 0.582055
0.620325 0.686336 0.582910
0.629023 0.685969 0.583856
0.638148 0.685512 0.584924
0.647242 0.685481 0.586389
0.655879 0.686122 0.588434
0.664668 0.686824 0.590478
0.673732 0.687709 0.593103
0.682948 0.688716 0.595666
0.692287 0.689876 0.598657
0.701595 0.691188 0.601831
0.710903 0.692714 0.605371
0.717342 0.692073 0.609430
0.725978 0.693721 0.615778
0.740352 0.697871 0.617731
0.756985 0.701839 0.616876
0.773220 0.705074 0.616632
0.789090 0.707881 0.616999
0.804654 0.710445 0.618341
0.819883 0.712978 0.622095
0.834562 0.715694 0.629541
0.846952 0.718593 0.639734
0.608331 0.703639 0.609857
0.608759 0.703792 0.610254
0.609644 0.703914 0.610620
0.610864 0.703914 0.610803
0.612573 0.703883 0.611078
0.614771 0.703639 0.611109
0.617700 0.703334 0.611078
0.621088 0.703090 0.611231
0.625422 0.702754 0.611414
0.630701 0.702510 0.611933
0.636439 0.702266 0.612543
0.642908 0.701991 0.613306
0.649683 0.701747 0.614038
0.656947 0.701472 0.615015
0.664515 0.701167 0.615991
0.671687 0.701564 0.617456
0.679011 0.702327 0.619532
0.686488 0.703182 0.621576
0.694179 0.704158 0.623896
0.702052 0.705257 0.626307
0.710018 0.706508 0.629084
0.718044 0.707942 0.632013
0.726070 0.709407 0.635004
0.731807 0.709194 0.638544
0.737728 0.708644 0.640497
0.750088 0.712520 0.643336
0.765530 0.716793 0.643519
0.780819 0.720455 0.644312
0.795956 0.723781 0.645838
0.811093 0.726894 0.648249
0.825956 0.730129 0.653773
0.840513 0.733486 0.661189
0.639612 0.719539 0.640101
0.640253 0.719844 0.640589
0.640864 0.719905 0.640833
0.641566 0.719814 0.640803
0.642390 0.719539 0.640497
0.643488 0.719142 0.640040
0.645106 0.718654 0.639521
0.647272 0.718135 0.639094
0.650019 0.717617 0.638727
0.653559 0.717159 0.638636
0.657527 0.716670 0.638544
0.662226 0.716304 0.638758
0.667323 0.715877 0.638941
0.672877 0.715450 0.639277
0.678614 0.714961 0.639612
0.684688 0.714534 0.639979
0.690486 0.715023 0.641138
0.696681 0.715694 0.642664
0.703212 0.716640 0.644617
0.710079 0.717708 0.646754
0.717159 0.718959 0.649256
0.724300 0.720272 0.651820
0.731380 0.721584 0.654261
0.738460 0.722896 0.656703
0.743526 0.722621 0.659266
0.749874 0.723415 0.663142
0.760525 0.726955 0.666377
0.775021 0.731258 0.666957
0.789548 0.735164 0.668330
0.804257 0.738857 0.670680
0.818997 0.742489 0.673915
0.833433 0.746456 0.680720
0.659998 0.731807 0.660548
0.660456 0.732082 0.660975
0.661036 0.732235 0.661341
0.661738 0.732204 0.661341
0.662593 0.732143 0.661402
0.663813 0.731930 0.661280
0.665370 0.731777 0.661311
0.667506 0.731533 0.661250
0.670100 0.731350 0.661402
0.673152 0.731167 0.661555
0.676661 0.730953 0.661830
0.680568 0.730739 0.662196
0.684810 0.730465 0.662440
0.689357 0.730159 0.662715
0.694057 0.729793 0.662898
0.699092 0.729397 0.663172
0.704250 0.729366 0.663813
0.709316 0.729976 0.665003
0.714870 0.730739 0.666438
0.720699 0.731716 0.668147
0.726802 0.732876 0.670130
0.733059 0.734127 0.672328
0.739437 0.735409 0.674495
0.745937 0.736690 0.676722
0.752407 0.738003 0.678920
0.757198 0.737911 0.681331
0.762966 0.738735 0.684871
0.772396 0.742123 0.688777
0.786282 0.746853 0.690394
0.800412 0.751278 0.692744
0.814755 0.755581 0.695949
0.828855 0.760037 0.701076
0.679683 0.745357 0.681117
0.679927 0.745510 0.681331
0.680262 0.745541 0.681453
0.680720 0.745480 0.681422
0.681392 0.745357 0.681361
0.682368 0.745205 0.681270
0.683650 0.745022 0.681239
0.685298 0.744778 0.681178
0.687373 0.744594 0.681209
0.689815 0.744472 0.681361
0.692714 0.744259 0.681483
0.695918 0.744106 0.681727
0.699489 0.743923 0.682033
0.703334 0.743679 0.682246
0.707393 0.743374 0.682490
0.711666 0.743038 0.682704
0.716213 0.742733 0.682979
0.720729 0.743099 0.683803
0.725582 0.743832 0.685145
0.730678 0.744747 0.686641
0.736110 0.745815 0.688411
0.741695 0.746975 0.690303
0.747402 0.748165 0.692226
0.753262 0.749386 0.694148
0.759182 0.750576 0.696162
0.765133 0.751827 0.698085
0.769711 0.751888 0.700343
0.774929 0.752529 0.703548
0.783352 0.755795 0.707881
0.796994 0.761013 0.710384
0.810666 0.765988 0.713588
0.824491 0.770718 0.717311
0.696468 0.757931 0.699123
0.696651 0.758053 0.699306
0.696986 0.758114 0.699458
0.697444 0.758145 0.699519
0.698177 0.758145 0.699641
0.699153 0.758206 0.699825
0.700679 0.758389 0.700252
0.702602 0.758602 0.700832
0.704921 0.758938 0.701564
0.707607 0.759304 0.702388
0.710689 0.759731 0.703334
0.714015 0.760067 0.704250
0.717494 0.760403 0.705104
0.721157 0.760616 0.705867
0.724880 0.760678 0.706538
0.728695 0.760586 0.706905
0.732692 0.760433 0.707301
0.736843 0.760433 0.707820
0.741054 0.761196 0.708980
0.745541 0.762081 0.710384
0.750240 0.763119 0.711971
0.755215 0.764218 0.713619
0.760311 0.765316 0.715297
0.765530 0.766476 0.717067
0.770871 0.767636 0.718776
0.776333 0.768826 0.720516
0.781918 0.770016 0.722347
0.786282 0.770230 0.724483
0.791012 0.770809 0.727413
0.798306 0.773709 0.731746
0.811154 0.779141 0.734707
0.824186 0.784451 0.738491
0.716548 0.774044 0.721157
0.716609 0.774075 0.721218
0.716762 0.774044 0.721187
0.717037 0.773953 0.721126
0.717464 0.773892 0.721065
0.718166 0.773770 0.721004
0.719112 0.773709 0.721096
0.720363 0.773678 0.721187
0.721981 0.773678 0.721431
0.723842 0.773709 0.721675
0.726040 0.773770 0.722042
0.728511 0.773861 0.722438
0.731289 0.773892 0.722866
0.734249 0.773922 0.723262
