20 Preset/Rover Style/【3】LUT video cho PR-AE-FCPX/Rover X Reset.cube
# Created by Adobe Lightroom plugin Export LUT (1.24.0)
# www.johnrellis.com/lightroom/exportlut.htm
# Preset: Rover X Reset
# Color profile: E:\lut插件\exportlut.1.24\exportlut.lrplugin\color profiles\Rec709gamma2.4.icc
LUT_3D_SIZE 8
DOMAIN_MIN 0.000000 0.000000 0.000000
DOMAIN_MAX 0.903226 0.903226 0.903226
0.000000 0.000000 0.000000
0.129122 0.000244 0.000000
0.258030 0.000000 0.000000
0.387060 0.000183 0.000275
0.516197 0.000000 0.000000
0.645136 0.000305 0.000000
0.774228 0.000061 0.000000
0.903258 0.000000 0.000000
0.000610 0.129091 0.000000
0.128969 0.128908 0.000000
0.258061 0.129061 0.000153
0.387030 0.129397 0.000793
0.516136 0.129397 0.000305
0.645167 0.129152 0.000397
0.774228 0.129091 0.000397
0.903227 0.129305 0.000000
0.000000 0.258152 0.000244
0.129122 0.258091 0.000275
0.258030 0.258061 0.000000
0.387152 0.258061 0.000000
0.516136 0.258061 0.000214
0.645167 0.258152 0.000000
0.774166 0.258183 0.000000
0.903227 0.258030 0.000427
0.000885 0.387091 0.000305
0.128878 0.387091 0.000183
0.258091 0.387060 0.000946
0.387213 0.387060 0.000000
0.516228 0.387060 0.000092
0.645167 0.387091 0.000031
0.774197 0.387091 0.000061
0.903227 0.387060 0.000305
0.000153 0.516197 0.000000
0.128878 0.516167 0.000000
0.258030 0.516197 0.000275
0.387091 0.516167 0.000061
0.516045 0.516136 0.000000
0.645197 0.516106 0.000000
0.774197 0.516106 0.000000
0.903227 0.516136 0.000946
0.002472 0.645167 0.000427
0.128786 0.645167 0.000305
0.258183 0.645197 0.000000
0.387152 0.645197 0.000549
0.516136 0.645197 0.000092
0.645197 0.645197 0.000000
0.774166 0.645197 0.001160
0.903197 0.645167 0.000458
0.000244 0.774197 0.001465
0.129610 0.774197 0.001343
0.258030 0.774197 0.000000
0.387091 0.774197 0.000000
0.516197 0.774197 0.001282
0.645197 0.774197 0.001190
0.774197 0.774197 0.000092
0.903227 0.774197 0.000214
0.001526 0.903227 0.000977
0.129091 0.903227 0.000000
0.258000 0.903227 0.000488
0.387152 0.903197 0.001404
0.516136 0.903227 0.000793
0.645197 0.903227 0.000702
0.774228 0.903227 0.000000
0.903227 0.903227 0.000855
0.000000 0.000214 0.129061
0.129122 0.000488 0.129030
0.258030 0.000122 0.128969
0.387152 0.000183 0.129122
0.516197 0.000214 0.129030
0.645197 0.000305 0.129000
0.774166 0.000519 0.129000
0.903227 0.000000 0.129061
0.000580 0.129122 0.128969
0.128969 0.128969 0.128969
0.258061 0.129091 0.129091
0.387121 0.128908 0.129061
0.516167 0.128908 0.128939
0.645197 0.129152 0.128908
0.774197 0.128939 0.128939
0.903258 0.129305 0.128939
0.001556 0.258152 0.128878
0.129122 0.258091 0.129122
0.258030 0.258061 0.129030
0.387060 0.258091 0.128969
0.516167 0.258183 0.129091
0.645136 0.258091 0.129091
0.774166 0.258091 0.129091
0.903227 0.258061 0.128908
0.000000 0.387091 0.129122
0.128878 0.387121 0.129122
0.258122 0.387091 0.129030
0.387182 0.387152 0.128908
0.516106 0.387121 0.129091
0.645167 0.387091 0.129061
0.774197 0.387091 0.129091
0.903227 0.387060 0.129152
0.001526 0.516106 0.129061
0.129030 0.516136 0.129030
0.258122 0.516136 0.128908
0.387091 0.516167 0.129091
0.516167 0.516136 0.129274
0.645228 0.516167 0.128969
0.774228 0.516167 0.128969
0.903227 0.516136 0.129030
0.000732 0.645167 0.128908
0.129397 0.645136 0.129183
0.258213 0.645167 0.129305
0.387091 0.645167 0.128969
0.516136 0.645197 0.129091
0.645136 0.645197 0.129061
0.774228 0.645197 0.129061
0.903227 0.645167 0.128908
0.001770 0.774197 0.129122
0.128786 0.774197 0.129122
0.258091 0.774197 0.129030
0.387091 0.774197 0.128939
0.516167 0.774197 0.129091
0.645197 0.774197 0.129091
0.774228 0.774197 0.129091
0.903197 0.774197 0.129152
0.000000 0.903227 0.129030
0.129030 0.903227 0.129274
0.258030 0.903227 0.128908
0.387060 0.903197 0.129397
0.516136 0.903227 0.129000
0.645136 0.903227 0.128969
0.774228 0.903227 0.128969
0.903258 0.903227 0.129030
0.000214 0.000183 0.258061
0.129183 0.000427 0.258061
0.258061 0.000061 0.258030
0.387060 0.000366 0.258091
0.516167 0.001343 0.258152
0.645197 0.000275 0.258030
0.774228 0.000244 0.258061
0.903258 0.000000 0.258061
0.000000 0.129183 0.258030
0.128939 0.128969 0.258122
0.258091 0.129091 0.258091
0.387091 0.129152 0.258061
0.516197 0.128908 0.258030
0.645167 0.128908 0.258122
0.774197 0.129183 0.258091
0.903258 0.129274 0.258122
0.000000 0.258061 0.258213
0.128725 0.258122 0.258091
0.258061 0.258061 0.258061
0.387091 0.258091 0.258030
0.516136 0.258091 0.258091
0.645136 0.258213 0.258152
0.774197 0.258091 0.258091
0.903227 0.258061 0.258091
0.000000 0.387091 0.258000
0.129305 0.387091 0.258183
0.258122 0.387091 0.258061
0.387121 0.387091 0.258030
0.516136 0.387152 0.258061
0.645136 0.387152 0.258152
0.774197 0.387091 0.258061
0.903227 0.387121 0.258091
0.000000 0.516136 0.258061
0.129091 0.516136 0.258061
0.257969 0.516167 0.258000
0.387152 0.516106 0.258091
0.516075 0.516136 0.258061
0.645167 0.516167 0.258122
0.774228 0.516136 0.258030
0.903227 0.516136 0.258061
0.000000 0.645167 0.258091
0.129000 0.645167 0.258122
0.257939 0.645167 0.258061
0.387182 0.645167 0.258122
0.516136 0.645197 0.258091
0.645167 0.645167 0.258091
0.774197 0.645167 0.258091
0.903227 0.645167 0.258122
0.002716 0.774197 0.258091
0.128847 0.774197 0.258091
0.258091 0.774197 0.258061
0.387091 0.774197 0.258122
0.516197 0.774228 0.258061
0.645167 0.774197 0.258061
0.774228 0.774197 0.258091
0.903227 0.774197 0.258091
0.000061 0.903227 0.258061
0.129122 0.903227 0.258030
0.258000 0.903227 0.258213
0.387030 0.903227 0.258183
0.516136 0.903227 0.258030
0.645136 0.903227 0.258030
0.774136 0.903227 0.257939
0.903197 0.903197 0.258061
0.001801 0.000092 0.387121
0.129244 0.000000 0.387121
0.258213 0.000000 0.387091
0.387152 0.000275 0.387091
0.516167 0.001465 0.387121
0.645075 0.002045 0.387121
0.774228 0.000366 0.387060
0.903227 0.000031 0.387060
0.001160 0.128878 0.387121
0.128939 0.128969 0.387121
0.258091 0.129122 0.387091
0.387121 0.128908 0.387121
0.516106 0.128969 0.387060
0.645228 0.128908 0.387152
0.774197 0.128939 0.387091
0.903227 0.129305 0.387152
0.002136 0.258061 0.387091
0.129091 0.258091 0.387152
0.257877 0.258091 0.387060
0.387060 0.258091 0.387091
0.516136 0.258091 0.387091
0.645136 0.258122 0.387091
0.774197 0.258122 0.387091
0.903227 0.258061 0.387091
0.000305 0.387152 0.387091
0.128908 0.387121 0.387091
0.258091 0.387091 0.387121
0.387091 0.387091 0.387091
0.516106 0.387121 0.387091
0.645228 0.387091 0.387060
0.774228 0.387091 0.387060
0.903227 0.387091 0.387152
0.001404 0.516106 0.387121
0.129000 0.516136 0.387121
0.258122 0.516167 0.387030
0.387121 0.516136 0.387091
0.516106 0.516136 0.387121
0.645228 0.516106 0.387121
0.774197 0.516136 0.387121
0.903258 0.516136 0.387060
0.000610 0.645167 0.387091
0.128817 0.645197 0.387091
0.257908 0.645167 0.387060
0.387060 0.645197 0.387091
0.516258 0.645136 0.387091
0.645167 0.645167 0.387091
0.774228 0.645167 0.387121
0.903227 0.645167 0.387091
0.001617 0.774197 0.387152
0.128817 0.774197 0.387091
0.258091 0.774197 0.387060
0.387091 0.774197 0.387091
0.516197 0.774228 0.387060
0.645167 0.774197 0.387121
0.774166 0.774166 0.387091
0.903227 0.774197 0.387091
0.000671 0.903197 0.387060
0.129061 0.903227 0.387121
0.258000 0.903227 0.387091
0.387121 0.903227 0.387121
0.516167 0.903227 0.387152
0.645136 0.903227 0.387182
0.774166 0.903227 0.387121
0.903227 0.903227 0.387121
0.000000 0.000122 0.516167
0.129580 0.000153 0.516136
0.258061 0.000031 0.516106
0.387060 0.000305 0.516136
0.516136 0.000336 0.516136
0.645136 0.000427 0.516136
0.774197 0.000427 0.516136
0.903227 0.000000 0.516136
0.000702 0.129122 0.516106
0.129000 0.128939 0.516106
0.258091 0.129091 0.516136
0.387152 0.129366 0.516136
0.516167 0.128878 0.516167
0.645197 0.129122 0.516197
0.774197 0.128908 0.516167
0.903227 0.129305 0.516106
0.000000 0.258061 0.516197
0.129519 0.258061 0.516167
0.258061 0.258061 0.516136
0.387060 0.258091 0.516167
0.516197 0.258061 0.516167
0.645197 0.258061 0.516167
0.774228 0.258061 0.516136
0.903227 0.258030 0.516106
0.000000 0.387152 0.516167
0.128817 0.387091 0.516167
0.258122 0.387091 0.516136
0.387091 0.387091 0.516167
0.516014 0.387182 0.516106
0.645167 0.387091 0.516136
0.774197 0.387091 0.516167
0.903227 0.387121 0.516136
0.000000 0.516106 0.516136
0.129488 0.516106 0.516136
0.258244 0.516136 0.516197
0.387121 0.516106 0.516167
0.516167 0.516167 0.516167
0.645197 0.516136 0.516136
0.774197 0.516136 0.516167
0.903227 0.516136 0.516136
0.000549 0.645167 0.516136
0.128817 0.645167 0.516136
0.258061 0.645167 0.516167
0.387152 0.645197 0.516167
0.516136 0.645197 0.516136
0.645197 0.645167 0.516136
0.774197 0.645167 0.516167
0.903197 0.645197 0.516167
0.001892 0.774197 0.516136
0.128817 0.774197 0.516136
0.258061 0.774197 0.516167
0.387091 0.774197 0.516167
0.516197 0.774197 0.516167
0.645167 0.774197 0.516136
0.774197 0.774166 0.516106
0.903197 0.774197 0.516197
0.001617 0.903227 0.516167
0.129488 0.903227 0.516167
0.258000 0.903227 0.516136
0.387060 0.903227 0.516136
0.516136 0.903227 0.516136
0.645136 0.903227 0.516106
0.774197 0.903227 0.516167
0.903227 0.903227 0.516167
0.000000 0.000580 0.645167
0.129000 0.000000 0.645197
0.258122 0.000244 0.645167
0.387243 0.000000 0.645167
0.516075 0.000000 0.645167
0.645197 0.000000 0.645167
0.774228 0.000000 0.645167
0.903227 0.000092 0.645167
0.002014 0.128878 0.645197
0.129213 0.129000 0.645167
0.258244 0.128878 0.645167
0.387030 0.129244 0.645167
0.516136 0.129000 0.645197
0.645197 0.128969 0.645197
0.774197 0.129213 0.645167
0.903197 0.129152 0.645167
0.000000 0.258091 0.645167
0.128908 0.258122 0.645197
0.258061 0.258183 0.645167
0.387182 0.258183 0.645167
0.516106 0.258122 0.645167
0.645197 0.258000 0.645167
0.774228 0.258000 0.645197
0.903258 0.258152 0.645197
0.000214 0.387091 0.645167
0.129335 0.387060 0.645167
0.258030 0.387091 0.645167
0.387121 0.387152 0.645197
0.516197 0.387091 0.645167
0.645197 0.387182 0.645136
0.774228 0.387121 0.645167
0.903197 0.387152 0.645167
0.001312 0.516075 0.645167
0.129030 0.516167 0.645197
0.258213 0.516167 0.645167
0.387060 0.516167 0.645167
0.516167 0.516136 0.645167
0.645167 0.516136 0.645167
0.774197 0.516136 0.645167
0.903197 0.516167 0.645197
0.001068 0.645197 0.645167
0.129671 0.645167 0.645167
0.258000 0.645167 0.645167
0.387152 0.645167 0.645167
0.516167 0.645167 0.645167
0.645167 0.645167 0.645167
0.774197 0.645167 0.645167
0.903227 0.645167 0.645167
0.000153 0.774197 0.645136
0.129458 0.774197 0.645197
0.258000 0.774197 0.645167
0.387030 0.774197 0.645167
0.516197 0.774166 0.645197
0.645136 0.774197 0.645167
0.774166 0.774197 0.645167
0.903227 0.774197 0.645197
0.000000 0.903227 0.645167
0.128878 0.903227 0.645167
0.258122 0.903227 0.645167
0.387121 0.903227 0.645167
0.516106 0.903227 0.645167
0.645167 0.903227 0.645197
0.774197 0.903227 0.645197
0.903227 0.903227 0.645197
0.000000 0.000000 0.774197
0.129427 0.000000 0.774197
0.258091 0.000397 0.774197
0.387182 0.000458 0.774197
0.516167 0.000000 0.774228
0.645167 0.000000 0.774197
0.774197 0.000000 0.774228
0.903227 0.000244 0.774197
0.000000 0.128969 0.774197
0.129397 0.129244 0.774197
0.257939 0.129213 0.774228
0.387030 0.129000 0.774228
0.516197 0.128969 0.774197
0.645136 0.129030 0.774197
0.774228 0.129000 0.774197
0.903227 0.129122 0.774197
0.000000 0.258122 0.774197
0.129061 0.258030 0.774197
0.258091 0.258091 0.774197
0.387243 0.258000 0.774197
0.516167 0.258122 0.774197
0.645167 0.258030 0.774197
0.774258 0.258000 0.774197
0.903227 0.258183 0.774197
0.000000 0.387121 0.774197
0.129397 0.387121 0.774228
0.258000 0.387121 0.774197
0.387030 0.387121 0.774197
0.516136 0.387060 0.774228
0.645197 0.387121 0.774197
0.774136 0.387091 0.774197
0.903197 0.387091 0.774197
0.001221 0.516167 0.774228
0.129183 0.516136 0.774197
0.258244 0.516106 0.774197
0.387121 0.516167 0.774197
0.516136 0.516136 0.774228
0.645167 0.516136 0.774197
0.774228 0.516136 0.774197
0.903227 0.516136 0.774197
0.000458 0.645167 0.774166
0.129152 0.645167 0.774197
0.257969 0.645167 0.774197
0.387152 0.645167 0.774197
0.516136 0.645167 0.774197
0.645197 0.645167 0.774197
0.774258 0.645167 0.774197
0.903227 0.645167 0.774197
0.001495 0.774197 0.774197
0.129244 0.774228 0.774197
0.258152 0.774197 0.774197
0.387213 0.774197 0.774197
0.516106 0.774197 0.774197
0.645228 0.774197 0.774197
0.774197 0.774197 0.774197
0.903227 0.774197 0.774197
0.000793 0.903227 0.774166
0.128939 0.903227 0.774197
0.258091 0.903227 0.774197
0.387182 0.903227 0.774197
0.516228 0.903227 0.774197
0.645167 0.903227 0.774197
0.774197 0.903227 0.774197
0.903227 0.903227 0.774197
0.000427 0.000092 0.903227
0.129061 0.001526 0.903227
0.258000 0.001160 0.903227
0.387060 0.000275 0.903227
0.516136 0.000275 0.903227
0.645167 0.000397 0.903227
0.774228 0.001343 0.903227
0.903197 0.000031 0.903197
0.000000 0.129152 0.903227
0.129000 0.128939 0.903227
0.258122 0.129061 0.903227
0.387213 0.129091 0.903227
0.516106 0.128908 0.903227
0.645197 0.128908 0.903227
0.774197 0.128878 0.903227
0.903227 0.129030 0.903227
0.002441 0.258030 0.903227
0.128786 0.258091 0.903227
0.258244 0.258030 0.903227
0.387060 0.258091 0.903227
0.516136 0.258091 0.903227
0.645167 0.258091 0.903227
0.774197 0.258091 0.903227
0.903227 0.258030 0.903227
0.000000 0.387091 0.903227
0.128969 0.387091 0.903227
0.258091 0.387121 0.903227
0.387121 0.387091 0.903227
0.516106 0.387091 0.903227
0.645167 0.387091 0.903227
0.774197 0.387152 0.903227
0.903227 0.387121 0.903227
0.000000 0.516167 0.903227
0.129122 0.516136 0.903227
0.258061 0.516197 0.903227
0.387152 0.516106 0.903227
0.516136 0.516136 0.903227
0.645197 0.516106 0.903227
0.774228 0.516167 0.903227
0.903227 0.516167 0.903227
0.000000 0.645167 0.903227
0.128878 0.645167 0.903227
0.258305 0.645167 0.903227
0.387091 0.645167 0.903227
0.516106 0.645167 0.903197
0.645197 0.645197 0.903227
0.774197 0.645197 0.903227
0.903227 0.645197 0.903227
0.000977 0.774197 0.903227
0.128908 0.774197 0.903227
0.258122 0.774197 0.903227
0.387121 0.774197 0.903227
0.516167 0.774197 0.903227
0.645167 0.774197 0.903227
0.774197 0.774197 0.903227
0.903227 0.774197 0.903227
0.002258 0.903227 0.903227
0.129122 0.903227 0.903227
0.258030 0.903227 0.903227
0.387152 0.903227 0.903227
0.516136 0.903227 0.903227
0.645167 0.903197 0.903227
0.774166 0.903227 0.903227
0.903227 0.903227 0.903227
