20 Preset/Rover Style/【3】LUT video cho PR-AE-FCPX/Rover 07 BW.cube
# Created by Adobe Lightroom plugin Export LUT (1.24.0)
# www.johnrellis.com/lightroom/exportlut.htm
# Preset: Rover 07 BW
# Color profile: E:\lut插件\exportlut.1.24\exportlut.lrplugin\color profiles\Rec709gamma2.4.icc
LUT_3D_SIZE 32
DOMAIN_MIN 0.0 0.0 0.0
DOMAIN_MAX 1.0 1.0 1.0
0.107851 0.107851 0.107851
0.107851 0.107851 0.107851
0.107851 0.107851 0.107851
0.107851 0.107851 0.107851
0.107851 0.107851 0.107851
0.106966 0.106966 0.106966
0.105806 0.105806 0.105806
0.105226 0.105226 0.105226
0.105226 0.105226 0.105226
0.106081 0.106081 0.106081
0.107851 0.107851 0.107851
0.110384 0.110384 0.110384
0.114168 0.114168 0.114168
0.119539 0.119539 0.119539
0.126467 0.126467 0.126467
0.134798 0.134798 0.134798
0.144381 0.144381 0.144381
0.156100 0.156100 0.156100
0.169619 0.169619 0.169619
0.183444 0.183444 0.183444
0.197787 0.197787 0.197787
0.213687 0.213687 0.213687
0.231754 0.231754 0.231754
0.253269 0.253269 0.253269
0.279088 0.279088 0.279088
0.310399 0.310399 0.310399
0.346441 0.346441 0.346441
0.384833 0.384833 0.384833
0.423835 0.423835 0.423835
0.461646 0.461646 0.461646
0.496742 0.496742 0.496742
0.529229 0.529229 0.529229
0.107851 0.107851 0.107851
0.107851 0.107851 0.107851
0.107851 0.107851 0.107851
0.107851 0.107851 0.107851
0.107851 0.107851 0.107851
0.106966 0.106966 0.106966
0.105806 0.105806 0.105806
0.104921 0.104921 0.104921
0.105226 0.105226 0.105226
0.106386 0.106386 0.106386
0.108125 0.108125 0.108125
0.110933 0.110933 0.110933
0.114961 0.114961 0.114961
0.120546 0.120546 0.120546
0.127596 0.127596 0.127596
0.136049 0.136049 0.136049
0.145907 0.145907 0.145907
0.158480 0.158480 0.158480
0.172183 0.172183 0.172183
0.186130 0.186130 0.186130
0.200809 0.200809 0.200809
0.217288 0.217288 0.217288
0.236240 0.236240 0.236240
0.258579 0.258579 0.258579
0.285649 0.285649 0.285649
0.318059 0.318059 0.318059
0.354711 0.354711 0.354711
0.393378 0.393378 0.393378
0.431952 0.431952 0.431952
0.469032 0.469032 0.469032
0.503349 0.503349 0.503349
0.535180 0.535180 0.535180
0.107851 0.107851 0.107851
0.107851 0.107851 0.107851
0.107851 0.107851 0.107851
0.107851 0.107851 0.107851
0.107851 0.107851 0.107851
0.106966 0.106966 0.106966
0.105501 0.105501 0.105501
0.104921 0.104921 0.104921
0.105226 0.105226 0.105226
0.106386 0.106386 0.106386
0.108431 0.108431 0.108431
0.111208 0.111208 0.111208
0.115480 0.115480 0.115480
0.121309 0.121309 0.121309
0.128511 0.128511 0.128511
0.137270 0.137270 0.137270
0.149050 0.149050 0.149050
0.162417 0.162417 0.162417
0.176150 0.176150 0.176150
0.189944 0.189944 0.189944
0.205081 0.205081 0.205081
0.221744 0.221744 0.221744
0.241032 0.241032 0.241032
0.264225 0.264225 0.264225
0.292149 0.292149 0.292149
0.325261 0.325261 0.325261
0.362127 0.362127 0.362127
0.400580 0.400580 0.400580
0.438849 0.438849 0.438849
0.475227 0.475227 0.475227
0.509026 0.509026 0.509026
0.540215 0.540215 0.540215
0.107851 0.107851 0.107851
0.107851 0.107851 0.107851
0.107851 0.107851 0.107851
0.107851 0.107851 0.107851
0.107851 0.107851 0.107851
0.106691 0.106691 0.106691
0.105501 0.105501 0.105501
0.104921 0.104921 0.104921
0.105501 0.105501 0.105501
0.106691 0.106691 0.106691
0.108705 0.108705 0.108705
0.111757 0.111757 0.111757
0.116274 0.116274 0.116274
0.122255 0.122255 0.122255
0.131167 0.131167 0.131167
0.142855 0.142855 0.142855
0.156283 0.156283 0.156283
0.169924 0.169924 0.169924
0.183566 0.183566 0.183566
0.198032 0.198032 0.198032
0.213565 0.213565 0.213565
0.231174 0.231174 0.231174
0.251438 0.251438 0.251438
0.275273 0.275273 0.275273
0.303777 0.303777 0.303777
0.336797 0.336797 0.336797
0.372778 0.372778 0.372778
0.409888 0.409888 0.409888
0.446784 0.446784 0.446784
0.482124 0.482124 0.482124
0.515221 0.515221 0.515221
0.546044 0.546044 0.546044
0.106081 0.106081 0.106081
0.106081 0.106081 0.106081
0.106081 0.106081 0.106081
0.106081 0.106081 0.106081
0.105501 0.105501 0.105501
0.104921 0.104921 0.104921
0.105226 0.105226 0.105226
0.105501 0.105501 0.105501
0.106691 0.106691 0.106691
0.108431 0.108431 0.108431
0.111208 0.111208 0.111208
0.115755 0.115755 0.115755
0.122469 0.122469 0.122469
0.131380 0.131380 0.131380
0.142092 0.142092 0.142092
0.154208 0.154208 0.154208
0.167178 0.167178 0.167178
0.179843 0.179843 0.179843
0.193301 0.193301 0.193301
0.207858 0.207858 0.207858
0.224125 0.224125 0.224125
0.242527 0.242527 0.242527
0.263401 0.263401 0.263401
0.288212 0.288212 0.288212
0.317540 0.317540 0.317540
0.350683 0.350683 0.350683
0.386053 0.386053 0.386053
0.422278 0.422278 0.422278
0.458106 0.458106 0.458106
0.492348 0.492348 0.492348
0.524315 0.524315 0.524315
0.554101 0.554101 0.554101
0.106081 0.106081 0.106081
0.106081 0.106081 0.106081
0.106081 0.106081 0.106081
0.106386 0.106386 0.106386
0.107851 0.107851 0.107851
0.107546 0.107546 0.107546
0.109834 0.109834 0.109834
0.112856 0.112856 0.112856
0.114961 0.114961 0.114961
0.118044 0.118044 0.118044
0.122713 0.122713 0.122713
0.128969 0.128969 0.128969
0.136873 0.136873 0.136873
0.146456 0.146456 0.146456
0.157290 0.157290 0.157290
0.168399 0.168399 0.168399
0.179965 0.179965 0.179965
0.192264 0.192264 0.192264
0.205661 0.205661 0.205661
0.220462 0.220462 0.220462
0.237278 0.237278 0.237278
0.256199 0.256199 0.256199
0.252201 0.252201 0.252201
0.274418 0.274418 0.274418
0.300999 0.300999 0.300999
0.332036 0.332036 0.332036
0.366583 0.366583 0.366583
0.402716 0.402716 0.402716
0.439673 0.439673 0.439673
0.475044 0.475044 0.475044
0.508873 0.508873 0.508873
0.540642 0.540642 0.540642
0.111208 0.111208 0.111208
0.111208 0.111208 0.111208
0.111208 0.111208 0.111208
0.112032 0.112032 0.112032
0.115206 0.115206 0.115206
0.118044 0.118044 0.118044
0.115755 0.115755 0.115755
0.120058 0.120058 0.120058
0.127596 0.127596 0.127596
0.132692 0.132692 0.132692
0.137270 0.137270 0.137270
0.143252 0.143252 0.143252
0.150668 0.150668 0.150668
0.159487 0.159487 0.159487
0.169009 0.169009 0.169009
0.179416 0.179416 0.179416
0.190463 0.190463 0.190463
0.202609 0.202609 0.202609
0.215640 0.215640 0.215640
0.230076 0.230076 0.230076
0.245731 0.245731 0.245731
0.262486 0.262486 0.262486
0.281193 0.281193 0.281193
0.303380 0.303380 0.303380
0.329625 0.329625 0.329625
0.360021 0.360021 0.360021
0.393256 0.393256 0.393256
0.428229 0.428229 0.428229
0.462867 0.462867 0.462867
0.496162 0.496162 0.496162
0.527703 0.527703 0.527703
0.557183 0.557183 0.557183
0.126680 0.126680 0.126680
0.127138 0.127138 0.127138
0.128511 0.128511 0.128511
0.130953 0.130953 0.130953
0.135866 0.135866 0.135866
0.142855 0.142855 0.142855
0.139712 0.139712 0.139712
0.135866 0.135866 0.135866
0.142275 0.142275 0.142275
0.152285 0.152285 0.152285
0.163851 0.163851 0.163851
0.169467 0.169467 0.169467
0.175845 0.175845 0.175845
0.183444 0.183444 0.183444
0.192264 0.192264 0.192264
0.202365 0.202365 0.202365
0.213687 0.213687 0.213687
0.226474 0.226474 0.226474
0.240848 0.240848 0.240848
0.256535 0.256535 0.256535
0.273320 0.273320 0.273320
0.291386 0.291386 0.291386
0.311650 0.311650 0.311650
0.334813 0.334813 0.334813
0.361303 0.361303 0.361303
0.390967 0.390967 0.390967
0.422827 0.422827 0.422827
0.455207 0.455207 0.455207
0.486915 0.486915 0.486915
0.517571 0.517571 0.517571
0.546227 0.546227 0.546227
0.572839 0.572839 0.572839
0.150851 0.150851 0.150851
0.151217 0.151217 0.151217
0.152804 0.152804 0.152804
0.156100 0.156100 0.156100
0.161288 0.161288 0.161288
0.168399 0.168399 0.168399
0.169772 0.169772 0.169772
0.166537 0.166537 0.166537
0.162417 0.162417 0.162417
0.168551 0.168551 0.168551
0.178714 0.178714 0.178714
0.190341 0.190341 0.190341
0.203311 0.203311 0.203311
0.210697 0.210697 0.210697
0.219944 0.219944 0.219944
0.230686 0.230686 0.230686
0.243168 0.243168 0.243168
0.257206 0.257206 0.257206
0.272862 0.272862 0.272862
0.289738 0.289738 0.289738
0.307988 0.307988 0.307988
0.327031 0.327031 0.327031
0.347570 0.347570 0.347570
0.370703 0.370703 0.370703
0.396124 0.396124 0.396124
0.423957 0.423957 0.423957
0.453193 0.453193 0.453193
0.482490 0.482490 0.482490
0.511131 0.511131 0.511131
0.538659 0.538659 0.538659
0.564477 0.564477 0.564477
0.588220 0.588220 0.588220
0.176852 0.176852 0.176852
0.177279 0.177279 0.177279
0.178866 0.178866 0.178866
0.181796 0.181796 0.181796
0.186526 0.186526 0.186526
0.193149 0.193149 0.193149
0.201877 0.201877 0.201877
0.199008 0.199008 0.199008
0.195438 0.195438 0.195438
0.190738 0.190738 0.190738
0.197024 0.197024 0.197024
0.208865 0.208865 0.208865
0.223514 0.223514 0.223514
0.240665 0.240665 0.240665
0.257969 0.257969 0.257969
0.269230 0.269230 0.269230
0.282322 0.282322 0.282322
0.296941 0.296941 0.296941
0.313268 0.313268 0.313268
0.330755 0.330755 0.330755
0.349340 0.349340 0.349340
0.368688 0.368688 0.368688
0.389532 0.389532 0.389532
0.412421 0.412421 0.412421
0.436713 0.436713 0.436713
0.462135 0.462135 0.462135
0.488045 0.488045 0.488045
0.513512 0.513512 0.513512
0.538476 0.538476 0.538476
0.562036 0.562036 0.562036
0.583948 0.583948 0.583948
0.603815 0.603815 0.603815
0.206943 0.206943 0.206943
0.207401 0.207401 0.207401
0.208774 0.208774 0.208774
0.211582 0.211582 0.211582
0.216312 0.216312 0.216312
0.223087 0.223087 0.223087
0.232456 0.232456 0.232456
0.238590 0.238590 0.238590
0.234409 0.234409 0.234409
0.229099 0.229099 0.229099
0.223087 0.223087 0.223087
0.229679 0.229679 0.229679
0.245548 0.245548 0.245548
0.264134 0.264134 0.264134
0.286534 0.286534 0.286534
0.312749 0.312749 0.312749
0.332677 0.332677 0.332677
0.347448 0.347448 0.347448
0.363256 0.363256 0.363256
0.379858 0.379858 0.379858
0.396826 0.396826 0.396826
0.414527 0.414527 0.414527
0.433356 0.433356 0.433356
0.453315 0.453315 0.453315
0.474617 0.474617 0.474617
0.496559 0.496559 0.496559
0.519036 0.519036 0.519036
0.541100 0.541100 0.541100
0.562432 0.562432 0.562432
0.582696 0.582696 0.582696
0.601068 0.601068 0.601068
0.617700 0.617700 0.617700
0.241886 0.241886 0.241886
0.242344 0.242344 0.242344
0.243717 0.243717 0.243717
0.246891 0.246891 0.246891
0.251957 0.251957 0.251957
0.259403 0.259403 0.259403
0.269627 0.269627 0.269627
0.282933 0.282933 0.282933
0.283818 0.283818 0.283818
0.277714 0.277714 0.277714
0.270726 0.270726 0.270726
0.262974 0.262974 0.262974
0.248417 0.248417 0.248417
0.266819 0.266819 0.266819
0.287694 0.287694 0.287694
0.312291 0.312291 0.312291
0.340032 0.340032 0.340032
0.369574 0.369574 0.369574
0.385077 0.385077 0.385077
0.400488 0.400488 0.400488
0.416205 0.416205 0.416205
0.432624 0.432624 0.432624
0.450690 0.450690 0.450690
0.469764 0.469764 0.469764
0.489937 0.489937 0.489937
0.510887 0.510887 0.510887
0.532464 0.532464 0.532464
0.553643 0.553643 0.553643
0.574060 0.574060 0.574060
0.592889 0.592889 0.592889
0.609979 0.609979 0.609979
0.625086 0.625086 0.625086
0.271763 0.271763 0.271763
0.272313 0.272313 0.272313
0.274479 0.274479 0.274479
0.278477 0.278477 0.278477
0.284703 0.284703 0.284703
0.293797 0.293797 0.293797
0.305333 0.305333 0.305333
0.319829 0.319829 0.319829
0.335576 0.335576 0.335576
0.328557 0.328557 0.328557
0.319707 0.319707 0.319707
0.309300 0.309300 0.309300
0.298131 0.298131 0.298131
0.301671 0.301671 0.301671
0.324895 0.324895 0.324895
0.348791 0.348791 0.348791
0.375830 0.375830 0.375830
0.404211 0.404211 0.404211
0.432502 0.432502 0.432502
0.456245 0.456245 0.456245
0.469093 0.469093 0.469093
0.482582 0.482582 0.482582
0.497475 0.497475 0.497475
0.513298 0.513298 0.513298
0.529900 0.529900 0.529900
0.547051 0.547051 0.547051
0.564538 0.564538 0.564538
0.581598 0.581598 0.581598
0.597711 0.597711 0.597711
0.612604 0.612604 0.612604
0.626062 0.626062 0.626062
0.637903 0.637903 0.637903
0.327398 0.327398 0.327398
0.328008 0.328008 0.328008
0.330663 0.330663 0.330663
0.335393 0.335393 0.335393
0.342382 0.342382 0.342382
0.352056 0.352056 0.352056
0.363775 0.363775 0.363775
0.377783 0.377783 0.377783
0.393500 0.393500 0.393500
0.400824 0.400824 0.400824
0.392432 0.392432 0.392432
0.382177 0.382177 0.382177
0.370703 0.370703 0.370703
0.358648 0.358648 0.358648
0.360540 0.360540 0.360540
0.387732 0.387732 0.387732
0.412543 0.412543 0.412543
0.437995 0.437995 0.437995
0.463294 0.463294 0.463294
0.487617 0.487617 0.487617
0.510491 0.510491 0.510491
0.525963 0.525963 0.525963
0.537865 0.537865 0.537865
0.550591 0.550591 0.550591
0.563958 0.563958 0.563958
0.577661 0.577661 0.577661
0.591485 0.591485 0.591485
0.604791 0.604791 0.604791
0.617426 0.617426 0.617426
0.628992 0.628992 0.628992
0.639307 0.639307 0.639307
0.648249 0.648249 0.648249
0.387640 0.387640 0.387640
0.388190 0.388190 0.388190
0.390631 0.390631 0.390631
0.395056 0.395056 0.395056
0.401923 0.401923 0.401923
0.410712 0.410712 0.410712
0.421363 0.421363 0.421363
0.433478 0.433478 0.433478
0.446906 0.446906 0.446906
0.460853 0.460853 0.460853
0.459571 0.459571 0.459571
0.451087 0.451087 0.451087
0.441382 0.441382 0.441382
0.430976 0.430976 0.430976
0.420172 0.420172 0.420172
0.420813 0.420813 0.420813
0.448127 0.448127 0.448127
0.470344 0.470344 0.470344
0.492012 0.492012 0.492012
0.513054 0.513054 0.513054
0.533349 0.533349 0.533349
0.553155 0.553155 0.553155
0.572229 0.572229 0.572229
0.582391 0.582391 0.582391
0.592767 0.592767 0.592767
0.603296 0.603296 0.603296
0.613733 0.613733 0.613733
0.623774 0.623774 0.623774
0.633204 0.633204 0.633204
0.641688 0.641688 0.641688
0.649195 0.649195 0.649195
0.655848 0.655848 0.655848
0.446784 0.446784 0.446784
0.447120 0.447120 0.447120
0.448646 0.448646 0.448646
0.452003 0.452003 0.452003
0.456794 0.456794 0.456794
0.463294 0.463294 0.463294
0.471077 0.471077 0.471077
0.480232 0.480232 0.480232
0.490394 0.490394 0.490394
0.501671 0.501671 0.501671
0.512627 0.512627 0.512627
0.506798 0.506798 0.506798
0.500603 0.500603 0.500603
0.493721 0.493721 0.493721
0.486213 0.486213 0.486213
0.478248 0.478248 0.478248
0.477546 0.477546 0.477546
0.502007 0.502007 0.502007
0.520378 0.520378 0.520378
0.537987 0.537987 0.537987
0.555230 0.555230 0.555230
0.572290 0.572290 0.572290
0.588678 0.588678 0.588678
0.603815 0.603815 0.603815
0.615503 0.615503 0.615503
0.623285 0.623285 0.623285
0.631098 0.631098 0.631098
0.638514 0.638514 0.638514
0.645411 0.645411 0.645411
0.651759 0.651759 0.651759
0.657435 0.657435 0.657435
0.662593 0.662593 0.662593
0.498451 0.498451 0.498451
0.498634 0.498634 0.498634
0.499855 0.499855 0.499855
0.502220 0.502220 0.502220
0.505791 0.505791 0.505791
0.510674 0.510674 0.510674
0.516625 0.516625 0.516625
0.523735 0.523735 0.523735
0.531823 0.531823 0.531823
0.540642 0.540642 0.540642
0.550408 0.550408 0.550408
0.554437 0.554437 0.554437
0.549920 0.549920 0.549920
0.544732 0.544732 0.544732
0.539147 0.539147 0.539147
0.533288 0.533288 0.533288
0.526696 0.526696 0.526696
0.524407 0.524407 0.524407
0.545556 0.545556 0.545556
0.560571 0.560571 0.560571
0.575311 0.575311 0.575311
0.589624 0.589624 0.589624
0.603449 0.603449 0.603449
0.616266 0.616266 0.616266
0.628016 0.628016 0.628016
0.638392 0.638392 0.638392
0.644678 0.644678 0.644678
0.649958 0.649958 0.649958
0.654932 0.654932 0.654932
0.659602 0.659602 0.659602
0.663874 0.663874 0.663874
0.667842 0.667842 0.667842
0.539330 0.539330 0.539330
0.539391 0.539391 0.539391
0.525200 0.525200 0.525200
0.527062 0.527062 0.527062
0.530022 0.530022 0.530022
0.534112 0.534112 0.534112
0.539330 0.539330 0.539330
0.545281 0.545281 0.545281
0.552056 0.552056 0.552056
0.559503 0.559503 0.559503
0.567529 0.567529 0.567529
0.576226 0.576226 0.576226
0.576104 0.576104 0.576104
0.572778 0.572778 0.572778
0.569299 0.569299 0.569299
0.565698 0.565698 0.565698
0.561700 0.561700 0.561700
0.557214 0.557214 0.557214
0.554894 0.554894 0.554894
0.574212 0.574212 0.574212
0.587945 0.587945 0.587945
0.600916 0.600916 0.600916
0.613123 0.613123 0.613123
0.624598 0.624598 0.624598
0.635248 0.635248 0.635248
0.644495 0.644495 0.644495
0.652369 0.652369 0.652369
0.658381 0.658381 0.658381
0.662226 0.662226 0.662226
0.665797 0.665797 0.665797
0.669154 0.669154 0.669154
0.672511 0.672511 0.672511
0.569879 0.569879 0.569879
0.568933 0.568933 0.568933
0.568292 0.568292 0.568292
0.568597 0.568597 0.568597
0.569970 0.569970 0.569970
0.572595 0.572595 0.572595
0.576318 0.576318 0.576318
0.580896 0.580896 0.580896
0.585992 0.585992 0.585992
0.591608 0.591608 0.591608
0.597620 0.597620 0.597620
0.603967 0.603967 0.603967
0.609888 0.609888 0.609888
0.607752 0.607752 0.607752
0.605463 0.605463 0.605463
0.602991 0.602991 0.602991
0.600244 0.600244 0.600244
0.597070 0.597070 0.597070
0.593469 0.593469 0.593469
0.590265 0.590265 0.590265
0.605402 0.605402 0.605402
0.615961 0.615961 0.615961
0.625971 0.625971 0.625971
0.635370 0.635370 0.635370
0.643854 0.643854 0.643854
0.651362 0.651362 0.651362
0.657832 0.657832 0.657832
0.663325 0.663325 0.663325
0.668025 0.668025 0.668025
0.671229 0.671229 0.671229
0.674128 0.674128 0.674128
0.677058 0.677058 0.677058
0.601312 0.601312 0.601312
0.600519 0.600519 0.600519
0.600000 0.600000 0.600000
0.600031 0.600031 0.600031
0.600916 0.600885 0.600885
0.602686 0.602686 0.602686
0.605341 0.605341 0.605341
0.608637 0.608637 0.608637
0.612329 0.612329 0.612329
0.616388 0.616388 0.616388
0.620752 0.620752 0.620752
0.625330 0.625330 0.625330
0.630213 0.630213 0.630213
0.632380 0.632380 0.632380
0.630945 0.630945 0.630945
0.629328 0.629328 0.629328
0.627588 0.627588 0.627588
0.625666 0.625666 0.625666
0.623407 0.623407 0.623407
0.620722 0.620722 0.620722
0.617700 0.617700 0.617700
0.628901 0.628901 0.628901
0.636988 0.636988 0.636988
0.644373 0.644373 0.644373
0.651118 0.651118 0.651118
0.657160 0.657160 0.657160
0.662501 0.662501 0.662501
0.667109 0.667109 0.667109
0.671260 0.671260 0.671260
0.675166 0.675166 0.675166
0.678676 0.678676 0.678676
0.681544 0.681544 0.681544
0.625391 0.625391 0.625391
0.624842 0.624842 0.624842
0.624475 0.624475 0.624475
0.624537 0.624537 0.624537
0.625147 0.625147 0.625147
0.626368 0.626368 0.626368
0.628229 0.628229 0.628229
0.630426 0.630426 0.630426
0.633021 0.633021 0.633021
0.635798 0.635798 0.635798
0.638819 0.638819 0.638819
0.641962 0.641962 0.641962
0.645258 0.645258 0.645258
0.648585 0.648585 0.648585
0.648615 0.648615 0.648615
0.647639 0.647639 0.647639
0.646479 0.646479 0.646479
0.645106 0.645106 0.645106
0.643488 0.643488 0.643488
0.641566 0.641566 0.641566
0.639307 0.639307 0.639307
0.636683 0.636683 0.636683
0.643854 0.643854 0.643854
0.649958 0.649958 0.649958
0.655421 0.655421 0.655421
0.660456 0.660456 0.660456
0.664973 0.664973 0.664973
0.669093 0.669093 0.669093
0.672908 0.672908 0.672908
0.676600 0.676600 0.676600
0.680385 0.680385 0.680385
0.684504 0.684504 0.684504
0.640314 0.640314 0.640314
0.640162 0.640162 0.640162
0.640223 0.640223 0.640223
0.640589 0.640589 0.640589
0.641291 0.641291 0.641291
0.642329 0.642329 0.642329
0.643641 0.643641 0.643641
0.645197 0.645197 0.645197
0.646967 0.646967 0.646967
0.648859 0.648859 0.648859
0.650874 0.650874 0.650874
0.653040 0.653040 0.653040
0.655299 0.655299 0.655299
0.657618 0.657618 0.657618
0.659663 0.659663 0.659663
0.659052 0.659052 0.659052
0.658412 0.658412 0.658412
0.657679 0.657679 0.657679
0.656794 0.656794 0.656794
0.655787 0.655787 0.655787
0.654658 0.654658 0.654658
0.653285 0.653285 0.653285
0.651789 0.651789 0.651789
0.656489 0.656489 0.656489
0.661097 0.661097 0.661097
0.665126 0.665126 0.665126
0.668879 0.668879 0.668879
0.672450 0.672450 0.672450
0.675959 0.675959 0.675959
0.679530 0.679530 0.679530
0.683345 0.683345 0.683345
0.687587 0.687587 0.687587
0.654078 0.654078 0.654078
0.653986 0.653986 0.653986
0.654017 0.654017 0.654017
0.654231 0.654231 0.654231
0.654658 0.654658 0.654658
0.655299 0.655299 0.655299
0.656153 0.656153 0.656153
0.657160 0.657160 0.657160
0.658320 0.658320 0.658320
0.659541 0.659541 0.659541
0.660853 0.660853 0.660853
0.662318 0.662318 0.662318
0.663813 0.663813 0.663813
0.665400 0.665400 0.665400
0.667048 0.667048 0.667048
0.667750 0.667750 0.667750
0.667323 0.667323 0.667323
0.666835 0.666835 0.666835
0.666316 0.666316 0.666316
0.665675 0.665675 0.665675
0.664942 0.664942 0.664942
0.664149 0.664149 0.664149
0.663203 0.663203 0.663203
0.662226 0.662226 0.662226
0.666041 0.666041 0.666041
0.669520 0.669520 0.669520
0.672755 0.672755 0.672755
0.675990 0.675990 0.675990
0.679316 0.679316 0.679316
0.682887 0.682887 0.682887
0.686793 0.686793 0.686793
0.691218 0.691218 0.691218
0.662867 0.662867 0.662867
0.662745 0.662745 0.662745
0.662776 0.662776 0.662776
0.662989 0.662989 0.662989
0.663386 0.663386 0.663386
0.663966 0.663966 0.663966
0.664668 0.664668 0.664668
0.665461 0.665461 0.665461
0.666377 0.666377 0.666377
0.667353 0.667353 0.667353
0.668421 0.668421 0.668421
0.669520 0.669520 0.669520
0.670741 0.670741 0.670741
0.672023 0.672023 0.672023
0.673365 0.673365 0.673365
0.674769 0.674769 0.674769
0.674891 0.674891 0.674891
0.674617 0.674617 0.674617
0.674220 0.674220 0.674220
0.673762 0.673762 0.673762
0.673243 0.673243 0.673243
0.672694 0.672694 0.672694
0.672114 0.672114 0.672114
0.671534 0.671534 0.671534
0.670954 0.670954 0.670954
0.673182 0.673182 0.673182
0.676265 0.676265 0.676265
0.679377 0.679377 0.679377
0.682734 0.682734 0.682734
0.686458 0.686458 0.686458
0.690608 0.690608 0.690608
0.695338 0.695338 0.695338
0.670893 0.670893 0.670893
0.670802 0.670802 0.670802
0.670802 0.670802 0.670802
0.670893 0.670893 0.670893
0.671138 0.671138 0.671138
0.671473 0.671473 0.671473
0.671931 0.671931 0.671931
0.672450 0.672450 0.672450
0.673030 0.673030 0.673030
0.673732 0.673732 0.673732
0.674495 0.674495 0.674495
0.675349 0.675349 0.675349
0.676326 0.676326 0.676326
0.677363 0.677363 0.677363
0.678553 0.678553 0.678553
0.679835 0.679835 0.679835
0.680995 0.680995 0.680995
0.680781 0.680781 0.680781
0.680507 0.680507 0.680507
0.680140 0.680140 0.680140
0.679744 0.679744 0.679744
0.679316 0.679316 0.679316
0.678859 0.678859 0.678859
0.678370 0.678370 0.678370
0.677913 0.677913 0.677913
0.677455 0.677455 0.677455
0.679255 0.679255 0.679255
0.682277 0.682277 0.682277
0.685725 0.685725 0.685725
0.689540 0.689540 0.689540
0.693935 0.693935 0.693935
0.699062 0.699062 0.699062
0.677150 0.677150 0.677150
0.677119 0.677119 0.677119
0.677150 0.677150 0.677150
0.677241 0.677241 0.677241
0.677455 0.677455 0.677455
0.677760 0.677760 0.677760
0.678126 0.678126 0.678126
0.678584 0.678584 0.678584
0.679133 0.679133 0.679133
0.679713 0.679713 0.679713
0.680446 0.680446 0.680446
0.681209 0.681209 0.681209
0.682124 0.682124 0.682124
0.683131 0.683131 0.683131
0.684291 0.684291 0.684291
0.685542 0.685542 0.685542
0.686946 0.686946 0.686946
0.687587 0.687587 0.687587
0.687373 0.687373 0.687373
0.687068 0.687068 0.687068
0.686732 0.686732 0.686732
0.686366 0.686366 0.686366
0.685969 0.685969 0.685969
0.685603 0.685603 0.685603
0.685237 0.685237 0.685237
0.684901 0.684901 0.684901
0.684504 0.684504 0.684504
0.686275 0.686275 0.686275
0.689631 0.689631 0.689631
0.693721 0.693721 0.693721
0.698482 0.698482 0.698482
0.703700 0.703700 0.703700
0.683680 0.683680 0.683680
0.683650 0.683650 0.683650
0.683680 0.683680 0.683680
0.683772 0.683772 0.683772
0.683925 0.683925 0.683925
0.684138 0.684138 0.684138
0.684352 0.684352 0.684352
0.684627 0.684627 0.684627
0.684962 0.684962 0.684962
0.685328 0.685328 0.685328
0.685817 0.685817 0.685817
0.686366 0.686366 0.686366
0.687098 0.687098 0.687098
0.687953 0.687953 0.687953
0.688960 0.688960 0.688960
0.690150 0.690150 0.690150
0.691493 0.691493 0.691493
0.692927 0.692927 0.692927
0.693050 0.693050 0.693050
0.692805 0.692805 0.692805
0.692531 0.692531 0.692531
0.692226 0.692226 0.692226
0.691951 0.691951 0.691951
0.691676 0.691676 0.691676
0.691402 0.691402 0.691402
0.691188 0.691188 0.691188
0.690944 0.690944 0.690944
0.690700 0.690700 0.690700
0.692531 0.692531 0.692531
0.696223 0.696223 0.696223
0.700801 0.700801 0.700801
0.706172 0.706172 0.706172
0.689387 0.689387 0.689387
0.689418 0.689418 0.689418
0.689509 0.689509 0.689509
0.689601 0.689601 0.689601
0.689815 0.689815 0.689815
0.690120 0.690120 0.690120
0.690486 0.690486 0.690486
0.690883 0.690883 0.690883
0.691371 0.691371 0.691371
0.691951 0.691951 0.691951
0.692592 0.692592 0.692592
0.693324 0.693324 0.693324
0.694209 0.694209 0.694209
0.695186 0.695186 0.695186
