20 Preset/Rover Style/【3】LUT video cho PR-AE-FCPX/Rover C --.cube
# Created by Adobe Lightroom plugin Export LUT (1.24.0)
# www.johnrellis.com/lightroom/exportlut.htm
# Preset: Rover C --
# Color profile: E:\lut插件\exportlut.1.24\exportlut.lrplugin\color profiles\Rec709gamma2.4.icc
LUT_3D_SIZE 32
DOMAIN_MIN 0.0 0.0 0.0
DOMAIN_MAX 1.0 1.0 1.0
0.000000 0.000000 0.000000
0.003937 0.001740 0.001953
0.021302 0.007446 0.006470
0.056458 0.017700 0.016815
0.097871 0.035462 0.035676
0.118135 0.061524 0.061250
0.137636 0.083650 0.083436
0.158389 0.094911 0.094392
0.179751 0.103548 0.103914
0.201785 0.113130 0.113161
0.224765 0.123323 0.122957
0.248051 0.133761 0.133486
0.272160 0.144594 0.144564
0.296361 0.156710 0.156527
0.320592 0.169162 0.168948
0.344671 0.182620 0.182528
0.368780 0.196353 0.196384
0.392645 0.210636 0.210636
0.416175 0.224857 0.225193
0.439704 0.239597 0.239536
0.463142 0.254002 0.254093
0.486549 0.268315 0.268559
0.510002 0.282658 0.282872
0.534447 0.297246 0.297398
0.560143 0.312139 0.312352
0.586969 0.327733 0.327703
0.615320 0.343999 0.343847
0.645289 0.360845 0.360845
0.675746 0.378607 0.378576
0.706325 0.397498 0.397436
0.737209 0.417517 0.417548
0.768032 0.439124 0.439185
0.005463 0.007080 0.004578
0.008423 0.007813 0.005554
0.025483 0.013550 0.011200
0.060639 0.023774 0.021546
0.098482 0.043000 0.039155
0.118776 0.067811 0.064881
0.138643 0.087434 0.084962
0.159060 0.096254 0.095735
0.180728 0.105348 0.104646
0.202609 0.114687 0.113802
0.225376 0.124208 0.123934
0.248661 0.134554 0.133822
0.272465 0.145357 0.145327
0.296788 0.157717 0.157351
0.321050 0.170230 0.169650
0.345037 0.183444 0.183169
0.368963 0.197269 0.197116
0.392767 0.211612 0.211276
0.416388 0.225834 0.225406
0.439796 0.240421 0.240177
0.463294 0.254643 0.254185
0.486671 0.268833 0.268589
0.510216 0.283207 0.282963
0.534691 0.297734 0.297459
0.560296 0.312688 0.312413
0.587182 0.328313 0.328099
0.615412 0.344488 0.344305
0.645441 0.361273 0.361151
0.675868 0.379034 0.378851
0.706508 0.397803 0.397681
0.737301 0.417884 0.417853
0.768124 0.439551 0.439490
0.021881 0.036011 0.020630
0.025818 0.037720 0.022583
0.043915 0.042267 0.027253
0.078859 0.054688 0.038422
0.103273 0.073121 0.058442
0.122591 0.088624 0.079957
0.142519 0.096803 0.091432
0.162661 0.104433 0.100160
0.183566 0.112337 0.108614
0.205173 0.121218 0.117311
0.227726 0.130282 0.126986
0.250675 0.140017 0.137087
0.274296 0.150668 0.147951
0.298589 0.162448 0.159518
0.322423 0.174716 0.172274
0.346502 0.187442 0.185550
0.370245 0.201022 0.199222
0.393896 0.215152 0.213291
0.417426 0.228855 0.227176
0.440833 0.243168 0.241794
0.464149 0.257511 0.256138
0.487373 0.271489 0.270298
0.510887 0.285344 0.284428
0.535302 0.299962 0.298894
0.560967 0.314763 0.313817
0.587762 0.330205 0.329076
0.616114 0.346197 0.345464
0.646113 0.363073 0.362097
0.676448 0.380713 0.379736
0.707027 0.399481 0.398627
0.737697 0.419379 0.418677
0.768521 0.440894 0.440314
0.058045 0.089357 0.058930
0.063294 0.089570 0.058747
0.079530 0.091707 0.064393
0.094911 0.095460 0.077028
0.112062 0.101045 0.087953
0.130617 0.106569 0.094453
0.150149 0.112612 0.100832
0.169741 0.118746 0.108186
0.189792 0.125673 0.115480
0.210819 0.133028 0.123812
0.232639 0.141085 0.132876
0.255131 0.150240 0.142794
0.278355 0.160494 0.153231
0.301946 0.171572 0.164981
0.325414 0.182986 0.177218
0.349065 0.195438 0.190097
0.372625 0.208560 0.203464
0.396002 0.221805 0.217563
0.419409 0.235294 0.231266
0.442634 0.249119 0.245457
0.465736 0.262760 0.259373
0.489021 0.276341 0.273381
0.512322 0.290135 0.287266
0.536706 0.304265 0.301488
0.562249 0.318791 0.316228
0.589136 0.333989 0.331395
0.617426 0.349950 0.347478
0.647272 0.366522 0.364233
0.677485 0.384070 0.381781
0.707912 0.402655 0.400580
0.738460 0.422492 0.420630
0.769284 0.443946 0.442084
0.094209 0.117861 0.093812
0.095125 0.118074 0.094545
0.101259 0.119203 0.095766
0.111940 0.122347 0.099184
0.126955 0.126528 0.103822
0.143832 0.131014 0.108980
0.161257 0.134859 0.114382
0.179629 0.139406 0.120363
0.198856 0.144289 0.126833
0.219089 0.150546 0.133944
0.240085 0.157717 0.142275
0.261967 0.165743 0.151522
0.284398 0.175113 0.161898
0.307378 0.185122 0.173007
0.330327 0.196017 0.185214
0.353307 0.207736 0.197635
0.376379 0.219883 0.210452
0.399451 0.232212 0.223850
0.422370 0.244877 0.237278
0.445411 0.258000 0.250492
0.468482 0.271061 0.264591
0.491524 0.284123 0.277989
0.514672 0.297246 0.291569
0.539025 0.310918 0.305516
0.564446 0.325231 0.320134
0.591211 0.340154 0.335119
0.619409 0.355657 0.350835
0.649134 0.372015 0.367498
0.679164 0.389380 0.385016
0.709468 0.407782 0.403540
0.739925 0.427436 0.423590
0.770504 0.448768 0.445045
0.112886 0.146304 0.112917
0.113954 0.146639 0.113466
0.118196 0.147768 0.114076
0.127810 0.149996 0.117037
0.141360 0.153719 0.120638
0.158083 0.158267 0.126192
0.175967 0.162234 0.131167
0.192782 0.164828 0.135622
0.210758 0.168307 0.141176
0.229648 0.173037 0.147829
0.249760 0.178927 0.155337
0.270603 0.185855 0.164126
0.292302 0.194156 0.173617
0.314214 0.203220 0.184329
0.336614 0.213077 0.195834
0.358953 0.223575 0.207248
0.381506 0.234623 0.219669
0.404150 0.246067 0.232425
0.426673 0.258091 0.245396
0.449256 0.270085 0.258183
0.471992 0.282322 0.271183
0.494820 0.294591 0.284520
0.517876 0.307042 0.297459
0.542107 0.320165 0.311192
0.567376 0.333989 0.325414
0.594079 0.348516 0.340124
0.622248 0.363653 0.355718
0.651759 0.379675 0.372229
0.681605 0.396826 0.389654
0.711543 0.414862 0.407965
0.741787 0.434394 0.427832
0.772122 0.455421 0.449256
0.132265 0.175174 0.131746
0.132906 0.175265 0.131991
0.136843 0.176272 0.133181
0.145052 0.178164 0.135561
0.156374 0.180972 0.138552
0.171786 0.184848 0.143313
0.189883 0.189883 0.149447
0.208438 0.194003 0.155093
0.225010 0.196048 0.159304
0.242527 0.199435 0.165408
0.261448 0.204013 0.171756
0.281254 0.209903 0.180056
0.301854 0.216953 0.188754
0.322881 0.224765 0.198367
0.344305 0.233433 0.208804
0.366003 0.242618 0.220188
0.387884 0.252537 0.231662
0.409949 0.263035 0.243442
0.432105 0.273686 0.255406
0.454261 0.284794 0.267521
0.476753 0.296086 0.280125
0.499214 0.307561 0.292393
0.522118 0.319432 0.304967
0.546075 0.331945 0.318425
0.571283 0.345159 0.332311
0.597986 0.359045 0.346654
0.625940 0.373816 0.362005
0.655268 0.389532 0.378088
0.684627 0.406287 0.395422
0.714351 0.423987 0.413672
0.744259 0.443214 0.433417
0.774319 0.464088 0.454688
0.152895 0.204379 0.153017
0.153811 0.204440 0.153201
0.157229 0.205356 0.154147
0.163699 0.206668 0.155947
0.173678 0.209171 0.158755
0.187137 0.212375 0.162905
0.203037 0.216464 0.167910
0.221408 0.221530 0.174105
0.240238 0.226261 0.180270
0.256901 0.228397 0.185092
0.274754 0.231693 0.191226
0.293217 0.236484 0.198184
0.312779 0.242252 0.206149
0.332830 0.248875 0.215213
0.353460 0.256443 0.224369
0.374334 0.264347 0.234623
0.395514 0.273106 0.245304
0.416876 0.282414 0.256138
0.438758 0.292241 0.267277
0.460548 0.302159 0.278752
0.482490 0.312322 0.290471
0.504570 0.322972 0.302037
0.527276 0.334081 0.314397
0.551110 0.345922 0.327062
0.576165 0.358556 0.340551
0.602747 0.372015 0.354650
0.630671 0.386328 0.369757
0.659480 0.401465 0.385473
0.688502 0.417823 0.402380
0.717800 0.435279 0.420661
0.747280 0.454170 0.440192
0.777035 0.474586 0.461494
0.175509 0.233951 0.175601
0.176486 0.234104 0.175540
0.179110 0.234775 0.176516
0.184421 0.235966 0.177981
0.193149 0.237827 0.180362
0.204685 0.240391 0.184054
0.218814 0.243961 0.188113
0.235050 0.248112 0.193606
0.253208 0.253239 0.200290
0.272282 0.258305 0.206973
0.288914 0.260807 0.212039
0.306584 0.264500 0.218265
0.324895 0.269139 0.225101
0.343908 0.274693 0.233433
0.363836 0.281010 0.241978
0.383764 0.288060 0.251072
0.404364 0.295781 0.260349
0.425269 0.303807 0.270420
0.446540 0.312413 0.280827
0.467903 0.321447 0.291478
0.489296 0.330907 0.302373
0.511009 0.340612 0.313481
0.533532 0.350866 0.324895
0.557061 0.362036 0.337407
0.582055 0.374090 0.350439
0.608362 0.386999 0.364111
0.636194 0.400763 0.378698
0.664454 0.415595 0.394263
0.692958 0.431495 0.411048
0.721859 0.448554 0.429023
0.750912 0.467048 0.448524
0.780209 0.487190 0.469551
0.198672 0.263767 0.198947
0.199374 0.263890 0.199313
0.201816 0.264347 0.199741
0.206729 0.265446 0.200961
0.213657 0.266880 0.203128
0.223972 0.269139 0.205997
0.236149 0.272038 0.210025
0.250645 0.275731 0.214755
0.267155 0.280034 0.220462
0.284916 0.285008 0.226932
0.304051 0.290288 0.234012
0.320592 0.293065 0.239322
0.337896 0.297154 0.245762
0.356329 0.301579 0.252720
0.375280 0.307164 0.260319
0.394537 0.313024 0.268223
0.414374 0.319738 0.277287
0.434638 0.326848 0.286137
0.455177 0.334508 0.295659
0.476020 0.342565 0.305364
0.497230 0.351141 0.315831
0.518425 0.359899 0.326085
0.540703 0.369635 0.337285
0.564080 0.380163 0.349004
0.588830 0.391516 0.361578
0.615076 0.403906 0.374853
0.642451 0.417304 0.389166
0.670130 0.431617 0.404425
0.698177 0.447059 0.420874
0.726528 0.463752 0.438788
0.755032 0.481788 0.458045
0.783841 0.501610 0.479225
0.223026 0.293400 0.223209
0.223728 0.293523 0.223056
0.225406 0.294011 0.223880
0.229618 0.294774 0.224826
0.236057 0.296147 0.226780
0.244541 0.298070 0.229465
0.255314 0.300603 0.232517
0.268070 0.303777 0.236851
0.282628 0.307439 0.241550
0.299138 0.311742 0.247501
0.316716 0.316716 0.254063
0.335546 0.322332 0.261326
0.352239 0.325444 0.266728
0.369482 0.329259 0.272801
0.387610 0.333928 0.279606
0.406287 0.339055 0.286717
0.425391 0.344823 0.294652
0.445075 0.351293 0.303105
0.465064 0.357916 0.311955
0.485481 0.365179 0.320775
0.505913 0.372839 0.330266
0.526818 0.381018 0.339879
0.548852 0.389960 0.350622
0.572045 0.399908 0.361761
0.596735 0.410834 0.374029
0.622644 0.422736 0.387060
0.649378 0.435615 0.400885
0.676478 0.449378 0.415900
0.703883 0.464302 0.432258
0.731624 0.480659 0.449989
0.759670 0.498299 0.469184
0.787961 0.517723 0.490089
0.247318 0.323003 0.247318
0.247501 0.323125 0.247501
0.249485 0.323461 0.247807
0.252628 0.324254 0.248936
0.258396 0.325444 0.250217
0.265812 0.327092 0.252476
0.275303 0.329259 0.255467
0.286625 0.331975 0.259098
0.300053 0.335210 0.263554
0.314672 0.339117 0.268742
0.330938 0.343450 0.274266
0.348394 0.348516 0.280644
0.367010 0.353857 0.287968
0.383825 0.357549 0.293431
0.401221 0.361395 0.299657
0.419074 0.365942 0.306218
0.437598 0.370886 0.313207
0.456519 0.376501 0.320806
0.475898 0.382544 0.328801
0.495552 0.389044 0.337133
0.515648 0.395911 0.345861
0.536217 0.403296 0.355108
0.558007 0.411810 0.364996
0.580987 0.421210 0.375830
0.605493 0.431708 0.387671
0.631067 0.443091 0.400153
0.657038 0.455451 0.413916
0.683406 0.468788 0.428870
0.710231 0.483314 0.444923
0.737362 0.499123 0.462470
0.764767 0.516442 0.481422
0.792386 0.535546 0.502586
0.271031 0.352667 0.271305
0.271489 0.352697 0.271122
0.273075 0.353063 0.271733
0.275914 0.353674 0.272740
0.280797 0.354681 0.273808
0.287388 0.356207 0.275792
0.295811 0.358068 0.278508
0.305974 0.360540 0.281743
0.318029 0.363439 0.285557
0.331548 0.366857 0.290043
0.346532 0.370794 0.294865
0.362860 0.375189 0.300755
0.380102 0.380133 0.307256
0.398444 0.385595 0.314122
0.415595 0.389471 0.320134
0.432837 0.393317 0.325811
0.450599 0.397803 0.332494
0.468849 0.402747 0.339208
0.487648 0.408057 0.346715
0.506767 0.413886 0.354345
0.526207 0.420050 0.362310
0.546593 0.426917 0.371069
0.568170 0.434974 0.380804
0.591028 0.444038 0.391272
0.615106 0.453956 0.402533
0.639948 0.464820 0.414862
0.665217 0.476753 0.428199
0.690791 0.489693 0.442878
0.716915 0.503685 0.458747
0.743404 0.519158 0.476295
0.770169 0.536095 0.495247
0.797177 0.554894 0.516411
0.294804 0.382238 0.294835
0.294926 0.382330 0.294987
0.296574 0.382544 0.295171
0.299229 0.383093 0.296056
0.303349 0.384070 0.297307
0.309148 0.385443 0.299016
0.316838 0.387091 0.301122
0.326177 0.389197 0.304143
0.336980 0.391791 0.307500
0.349401 0.394873 0.311376
0.363134 0.398383 0.315984
0.378302 0.402380 0.321202
0.394598 0.406928 0.327062
0.411810 0.411872 0.333471
0.430182 0.417304 0.340276
0.447333 0.421454 0.346380
0.464454 0.425299 0.352270
0.482185 0.429572 0.358312
0.500267 0.434363 0.365087
0.518883 0.439521 0.372320
0.537774 0.445258 0.379919
0.557824 0.451759 0.388251
0.579187 0.459327 0.397314
0.601953 0.467933 0.407538
0.625391 0.477455 0.418372
0.649287 0.487892 0.430640
0.673762 0.499245 0.443854
0.698726 0.511681 0.458320
0.724086 0.525444 0.474128
0.749935 0.540490 0.491463
0.775906 0.557061 0.510552
0.802304 0.575433 0.531640
0.317998 0.411688 0.318212
0.318242 0.411780 0.318334
0.319554 0.411963 0.318578
0.321996 0.412482 0.319219
0.325841 0.413336 0.320348
0.331212 0.414466 0.321843
0.337987 0.416052 0.324041
0.346471 0.418006 0.326452
0.356420 0.420325 0.329412
0.367834 0.423102 0.333135
0.380713 0.426307 0.337163
0.394659 0.429908 0.342168
0.409857 0.434028 0.347356
0.426276 0.438514 0.353124
0.443549 0.443519 0.359533
0.461707 0.448951 0.366217
0.479133 0.453346 0.372503
0.496132 0.457221 0.378302
0.513756 0.461402 0.384405
0.531670 0.466041 0.390875
0.550256 0.471290 0.398047
0.570123 0.477455 0.406043
0.591241 0.484840 0.414923
0.613184 0.492988 0.424628
0.635737 0.501915 0.435370
0.658961 0.511894 0.447303
0.682704 0.522820 0.460426
0.707027 0.534874 0.474800
0.731624 0.548180 0.490608
0.756649 0.562860 0.508019
0.782010 0.579156 0.527153
0.807797 0.596796 0.547723
0.341283 0.441108 0.341253
0.341405 0.441199 0.341344
0.342565 0.441444 0.341802
0.344945 0.441901 0.342199
0.348119 0.442634 0.343450
0.353185 0.443732 0.344701
0.359350 0.445106 0.346715
0.367254 0.446876 0.348852
0.376318 0.449012 0.351751
0.386786 0.451575 0.354803
0.398627 0.454444 0.358740
0.411810 0.457710 0.363134
0.426123 0.461585 0.367895
0.441505 0.465705 0.373175
0.457923 0.470253 0.379156
0.475135 0.475227 0.385473
0.493294 0.480659 0.392096
0.511070 0.485237 0.398383
0.527916 0.488991 0.404150
0.545251 0.493172 0.410254
0.563714 0.498177 0.417151
0.583246 0.504143 0.424720
0.603632 0.510979 0.433448
0.624842 0.518639 0.442908
0.646571 0.527214 0.453651
0.669001 0.536675 0.465431
0.692073 0.547265 0.478431
0.715480 0.558923 0.492805
0.739376 0.571893 0.508476
0.763638 0.586236 0.525841
0.788479 0.601801 0.544518
0.813809 0.618860 0.564630
0.364446 0.470619 0.364263
0.364508 0.470649 0.364324
0.365545 0.470893 0.364813
0.367407 0.471290 0.365362
0.370733 0.471962 0.366247
0.375189 0.472908 0.367346
0.380957 0.474159 0.369116
0.387915 0.475898 0.371344
0.396551 0.477790 0.374029
0.406195 0.480110 0.376745
0.417426 0.482765 0.380224
0.429633 0.485847 0.384222
0.443153 0.489326 0.388861
0.457710 0.493141 0.393530
0.473182 0.497383 0.399084
0.489723 0.501976 0.404913
0.506859 0.506920 0.411078
0.525048 0.512291 0.417884
0.542870 0.517113 0.424384
0.559808 0.520989 0.430121
0.577783 0.525658 0.436805
0.596643 0.531212 0.444099
0.616297 0.537652 0.452857
0.636622 0.544854 0.462318
0.657679 0.552972 0.472938
0.679316 0.562158 0.484627
0.701534 0.572381 0.497688
0.724239 0.583703 0.511894
0.747402 0.596246 0.527733
0.771115 0.610010 0.544640
0.795407 0.625025 0.562707
0.820249 0.641321 0.582300
0.387152 0.499947 0.387366
0.387610 0.500053 0.387274
0.388342 0.500267 0.387610
0.390143 0.500603 0.388159
0.393072 0.501274 0.388983
0.397101 0.502129 0.390204
0.402502 0.503410 0.391608
0.409186 0.504753 0.393561
0.417060 0.506645 0.395941
0.426154 0.508751 0.398718
0.436378 0.511254 0.401923
0.448066 0.514031 0.405585
0.460761 0.517205 0.409705
0.474434 0.520775 0.414282
0.489113 0.524651 0.419318
0.504845 0.528985 0.424903
0.521324 0.533654 0.430671
0.538689 0.538720 0.436988
0.556634 0.544060 0.443854
0.574609 0.549096 0.450690
0.591943 0.553460 0.457191
0.610132 0.558556 0.464820
0.628901 0.564599 0.473091
0.648585 0.571466 0.482521
0.668910 0.579217 0.493080
0.689723 0.588006 0.504814
0.711208 0.597864 0.517906
0.733242 0.608820 0.532006
0.755856 0.620844 0.547326
0.778958 0.634028 0.563836
0.802701 0.648463 0.581476
0.827024 0.664271 0.600641
0.410224 0.529686 0.410376
0.410559 0.529778 0.410437
0.411261 0.529900 0.410559
0.413001 0.530327 0.411017
0.415808 0.530938 0.411810
0.419409 0.531762 0.412940
0.424506 0.532860 0.414496
0.430579 0.534264 0.416327
0.437873 0.535973 0.418463
0.446448 0.538048 0.421057
0.456306 0.540337 0.424109
0.467262 0.543053 0.427527
0.479225 0.546044 0.431373
0.492317 0.549310 0.435767
0.506432 0.553033 0.440620
0.521416 0.557000 0.445716
0.537102 0.561242 0.451484
0.553460 0.565820 0.457588
0.570703 0.570642 0.464210
0.588281 0.575769 0.471290
0.606226 0.581018 0.478553
0.623621 0.585901 0.486091
0.641688 0.591485 0.494545
0.660670 0.598077 0.503960
0.680201 0.605615 0.514458
0.700374 0.614069 0.526207
0.721218 0.623529 0.538903
0.742672 0.633936 0.552697
0.764645 0.645441 0.567437
0.787320 0.658137 0.583490
0.810483 0.672084 0.600855
0.834195 0.687282 0.619532
0.434272 0.560662 0.434363
0.434516 0.560723 0.434424
0.435218 0.560845 0.434546
0.436896 0.561242 0.435035
0.439490 0.561761 0.435920
0.442908 0.562585 0.436835
0.447608 0.563531 0.438270
0.453407 0.564874 0.440040
0.460273 0.566400 0.442145
0.468513 0.568231 0.444587
0.477577 0.570336 0.447517
0.487984 0.572717 0.450752
0.499397 0.575494 0.454566
0.511528 0.578454 0.458747
0.524895 0.581811 0.463478
0.539086 0.585412 0.468421
0.553979 0.589288 0.473884
0.569696 0.593469 0.479896
0.585901 0.597894 0.486366
0.602564 0.602655 0.493141
0.619684 0.607630 0.500664
0.637232 0.612909 0.508324
0.654688 0.618280 0.516869
0.672908 0.624537 0.526207
0.691798 0.631769 0.536553
0.711391 0.639857 0.547845
0.731624 0.648890 0.560113
0.752499 0.658930 0.573388
0.773922 0.669978 0.587915
0.796017 0.682216 0.603449
0.818570 0.695674 0.620569
0.841764 0.710353 0.638819
0.459968 0.591791 0.459937
0.459998 0.591821 0.459998
0.460853 0.591913 0.460121
0.462196 0.592309 0.460578
0.464637 0.592737 0.461219
0.467933 0.593408 0.462287
0.472175 0.594446 0.463752
0.477577 0.595514 0.465400
0.484230 0.596948 0.467475
0.491737 0.598535 0.469856
0.500328 0.600488 0.472724
0.510063 0.602655 0.475929
0.520806 0.605188 0.479438
0.532494 0.607843 0.483497
0.545006 0.610864 0.488136
0.558312 0.614099 0.493019
0.572473 0.617700 0.498421
0.587182 0.621485 0.504295
0.602472 0.625574 0.510460
0.618341 0.629938 0.517235
0.634577 0.634577 0.524468
0.651148 0.639429 0.531823
0.667933 0.644587 0.539666
0.685512 0.650629 0.548638
0.703883 0.657465 0.558709
0.722835 0.665309 0.569665
0.742458 0.673976 0.581628
0.762722 0.683650 0.594537
0.783597 0.694331 0.608698
0.805081 0.706142 0.623896
0.827115 0.719142 0.640589
0.849699 0.733364 0.658534
0.487190 0.622797 0.487343
0.487495 0.622827 0.487251
0.488045 0.622950 0.487495
0.489509 0.623255 0.487984
0.491646 0.623713 0.488655
0.494728 0.624292 0.489754
0.498817 0.625116 0.490913
0.503777 0.626184 0.492592
0.509758 0.627436 0.494575
0.516869 0.628962 0.496986
0.524895 0.630671 0.499733
0.534112 0.632654 0.502708
0.544091 0.634821 0.506340
0.554925 0.637415 0.510491
0.566705 0.640101 0.514824
0.579187 0.643091 0.519615
0.592401 0.646387 0.524712
0.606287 0.649897 0.530419
0.620691 0.653651 0.536370
0.635584 0.657679 0.542626
0.650843 0.661982 0.549279
0.666499 0.666529 0.556390
0.682429 0.671290 0.563745
0.698604 0.676265 0.571283
0.716213 0.682826 0.580804
0.734585 0.690272 0.591485
0.753658 0.698726 0.603113
0.773312 0.708064 0.615778
0.793606 0.718441 0.629572
0.814572 0.729824 0.644556
0.836027 0.742428 0.660792
0.857939 0.756130 0.678462
0.516716 0.653681 0.516808
0.516747 0.653773 0.516899
0.517510 0.653834 0.517021
0.518700 0.654108 0.517449
0.520775 0.654505 0.518059
0.523613 0.655116 0.518975
0.527306 0.655848 0.520317
0.531975 0.656764 0.521935
0.537560 0.657954 0.523735
0.544030 0.659358 0.526085
0.551446 0.660914 0.528679
0.559747 0.662745 0.531609
0.569024 0.664759 0.534874
0.579065 0.667048 0.538781
0.589990 0.669581 0.542779
0.601587 0.672358 0.547356
0.613916 0.675380 0.552209
0.626825 0.678645 0.557519
0.640192 0.682124 0.563012
0.654231 0.685847 0.568963
0.668605 0.689815 0.575219
0.683375 0.694026 0.581903
0.698451 0.698451 0.588769
0.713832 0.703120 0.596002
0.729366 0.708034 0.603479
0.746731 0.714839 0.613306
0.765194 0.722988 0.624689
0.784329 0.732082 0.637110
0.804013 0.742123 0.650568
0.824308 0.753170 0.665370
0.845243 0.765347 0.681361
0.866606 0.778683 0.698665
0.547295 0.684718 0.547356
0.547417 0.684749 0.547417
0.547997 0.684810 0.547539
0.549157 0.685084 0.547967
0.550988 0.685451 0.548547
0.553552 0.685969 0.549432
0.556878 0.686641 0.550652
0.561059 0.687526 0.552056
0.566155 0.688563 0.553857
0.572229 0.689845 0.555962
0.578882 0.691310 0.558495
0.586664 0.692988 0.561303
0.595087 0.694850 0.564416
0.604425 0.696956 0.567803
0.614435 0.699306 0.571618
0.625116 0.701900 0.575830
0.636530 0.704646 0.580468
0.648585 0.707698 0.585412
0.661128 0.710933 0.590570
0.674281 0.714382 0.596155
0.687800 0.718074 0.602106
0.701656 0.721981 0.608392
0.715938 0.726101 0.614862
0.730465 0.730465 0.621729
0.745205 0.735012 0.628840
0.760098 0.739742 0.636255
0.777096 0.746761 0.646235
0.795621 0.755581 0.658473
0.814755 0.765347 0.671748
0.834501 0.776089 0.686183
0.854765 0.787900 0.701869
0.875578 0.800839 0.718929
0.578485 0.715785 0.578515
0.578576 0.715785 0.578576
0.579156 0.715908 0.578729
0.580194 0.716091 0.579095
0.581781 0.716457 0.579706
0.584192 0.716915 0.580499
0.587243 0.717586 0.581567
0.591089 0.718379 0.583032
0.595727 0.719326 0.584649
0.601129 0.720485 0.586603
0.607385 0.721859 0.588922
0.614435 0.723384 0.591424
0.622156 0.725124 0.594446
0.630732 0.727077 0.597742
0.639979 0.729244 0.601251
0.649958 0.731624 0.605188
0.660578 0.734218 0.609583
0.671687 0.736995 0.614191
0.683497 0.740017 0.619104
0.695735 0.743221 0.624445
0.708370 0.746639 0.630030
0.721431 0.750271 0.635920
0.734829 0.754116 0.642115
0.748501 0.758206 0.648524
0.762417 0.762448 0.655268
0.776516 0.766903 0.662348
0.790829 0.771511 0.669581
0.807248 0.778561 0.679774
0.825834 0.788052 0.692836
0.844999 0.798520 0.707088
0.864683 0.809995 0.722591
0.884916 0.822599 0.739315
0.610376 0.747005 0.610559
0.610529 0.747005 0.610468
0.611017 0.747066 0.610681
0.611963 0.747311 0.610956
0.613489 0.747616 0.611536
0.615625 0.748013 0.612268
0.618463 0.748653 0.613306
0.621912 0.749355 0.614618
0.626093 0.750301 0.616205
0.631067 0.751339 0.618067
0.636866 0.752590 0.620203
0.643244 0.753994 0.622614
0.650416 0.755642 0.625452
0.658289 0.757443 0.628534
0.666865 0.759426 0.631830
0.676081 0.761624 0.635554
0.685847 0.764065 0.639704
0.696254 0.766629 0.643977
0.707179 0.769406 0.648646
0.718624 0.772396 0.653681
0.730434 0.775601 0.658961
0.742641 0.778988 0.664576
0.755184 0.782559 0.670436
0.768032 0.786343 0.676631
0.781155 0.790311 0.683101
0.794430 0.794461 0.689754
0.807919 0.798825 0.696712
0.821469 0.803311 0.703914
0.837217 0.810239 0.713985
0.855833 0.820401 0.727993
0.874937 0.831601 0.743160
0.894621 0.843839 0.759731
0.643336 0.778317 0.643336
0.643397 0.778347 0.643427
0.643824 0.778439 0.643549
0.644648 0.778622 0.643915
0.646052 0.778897 0.644343
0.648035 0.779294 0.645106
0.650538 0.779873 0.646113
0.653773 0.780514 0.647242
0.657527 0.781338 0.648768
0.662104 0.782376 0.650507
0.667353 0.783536 0.652491
0.673243 0.784848 0.654780
0.679866 0.786313 0.657404
0.687129 0.787991 0.660334
0.694972 0.789853 0.663478
0.703426 0.791897 0.667048
0.712581 0.794095 0.670893
0.722194 0.796506 0.675044
0.732326 0.799100 0.679438
0.742885 0.801877 0.684199
0.753902 0.804837 0.689235
0.765347 0.807980 0.694514
0.777035 0.811337 0.700069
0.789029 0.814847 0.705989
0.801389 0.818540 0.712123
0.813840 0.822416 0.718441
0.826474 0.826505 0.725124
0.839292 0.830716 0.731930
0.852110 0.835142 0.739010
0.866941 0.841764 0.748775
0.885527 0.852628 0.763729
0.904662 0.864591 0.780026
0.677211 0.809781 0.677302
0.677363 0.809781 0.677363
0.677760 0.809873 0.677516
0.678523 0.810025 0.677729
0.679744 0.810300 0.678279
0.681544 0.810666 0.678920
0.683833 0.811185 0.679896
0.686763 0.811795 0.680934
0.690272 0.812589 0.682399
0.694392 0.813504 0.683986
0.699153 0.814572 0.685939
0.704524 0.815793 0.688106
0.710597 0.817166 0.690547
0.717189 0.818723 0.693294
