20 Preset/Rover Style/【3】LUT video cho PR-AE-FCPX/Rover C --.cube
# Created by Adobe Lightroom plugin Export LUT (1.24.0)
# www.johnrellis.com/lightroom/exportlut.htm
# Preset: Rover C --
# Color profile: E:\lut插件\exportlut.1.24\exportlut.lrplugin\color profiles\Rec709gamma2.4.icc
LUT_3D_SIZE 5
DOMAIN_MIN 0.000000 0.000000 0.000000
DOMAIN_MAX 0.903226 0.903226 0.903226
0.000000 0.000000 0.000000
0.158389 0.094911 0.094392
0.320592 0.169162 0.168948
0.486549 0.268315 0.268559
0.675746 0.378607 0.378576
0.152895 0.204379 0.153017
0.221408 0.221530 0.174105
0.353460 0.256443 0.224369
0.504570 0.322972 0.302037
0.688502 0.417823 0.402380
0.317998 0.411688 0.318212
0.346471 0.418006 0.326452
0.443549 0.443519 0.359533
0.570123 0.477455 0.406043
0.731624 0.548180 0.490608
0.487190 0.622797 0.487343
0.503777 0.626184 0.492592
0.566705 0.640101 0.514824
0.666499 0.666529 0.556390
0.793606 0.718441 0.629572
0.712367 0.841245 0.712367
0.720943 0.843137 0.715908
0.755337 0.851133 0.730404
0.815213 0.866850 0.758206
0.890623 0.890623 0.798520
0.034760 0.033692 0.133425
0.161776 0.104646 0.161501
0.328832 0.198276 0.231449
0.491951 0.293584 0.314000
0.679133 0.392676 0.408362
0.168276 0.210056 0.210056
0.225772 0.225772 0.225772
0.357824 0.272953 0.272801
0.508385 0.338872 0.339025
0.690944 0.428626 0.428748
0.326482 0.414374 0.345800
0.352880 0.420417 0.352941
0.445167 0.445167 0.382513
0.571527 0.481758 0.427436
0.732296 0.553338 0.508904
0.492256 0.624018 0.503502
0.508476 0.627344 0.508507
0.569696 0.641077 0.529534
0.667292 0.667353 0.568688
0.794308 0.719997 0.639368
0.712978 0.841611 0.718227
0.721523 0.843503 0.721584
0.755825 0.851499 0.735775
0.815610 0.867216 0.762936
0.891051 0.891081 0.802396
0.104341 0.105104 0.269566
0.177493 0.133120 0.285985
0.334478 0.214267 0.334508
0.497902 0.307195 0.394781
0.686488 0.408606 0.479500
0.196628 0.228000 0.320745
0.240116 0.240177 0.329808
0.364416 0.285679 0.364233
0.515282 0.354925 0.417578
0.697627 0.444007 0.497200
0.338689 0.421149 0.421210
0.364721 0.427436 0.427375
0.451637 0.451637 0.451637
0.577813 0.493385 0.493385
0.735042 0.563561 0.563653
0.505333 0.628138 0.556268
0.520745 0.631312 0.560662
0.577996 0.644770 0.577935
0.670710 0.670680 0.610529
0.797757 0.724422 0.672633
0.710750 0.842802 0.738399
0.719509 0.844724 0.741543
0.754604 0.852811 0.754604
0.815702 0.868772 0.779904
0.892851 0.892882 0.816983
0.160922 0.160800 0.423316
0.213535 0.179385 0.431617
0.348516 0.241245 0.461738
0.511162 0.325566 0.511192
0.697719 0.425086 0.584314
0.228244 0.254582 0.453407
0.264988 0.264958 0.459693
0.377813 0.304662 0.484474
0.529290 0.370703 0.529168
0.707881 0.459297 0.597589
0.357214 0.434516 0.530999
0.380743 0.440864 0.536309
0.463600 0.463630 0.555779
0.589715 0.505608 0.589624
0.743008 0.570886 0.644739
0.518669 0.637476 0.637537
0.532647 0.640406 0.640375
0.585412 0.652461 0.652430
0.677424 0.677424 0.677424
0.804807 0.722438 0.722438
0.708980 0.846220 0.782040
0.716426 0.847959 0.783841
0.747127 0.855375 0.791287
0.811398 0.871489 0.811429
0.896605 0.896605 0.845548
0.223850 0.223484 0.649775
0.270970 0.237186 0.654414
0.404028 0.286992 0.672084
0.570306 0.366430 0.702663
0.741787 0.468360 0.741695
0.263584 0.293553 0.665003
0.303014 0.303044 0.668910
0.424079 0.340581 0.684535
0.583154 0.407385 0.712520
0.749142 0.500053 0.749050
0.358923 0.456184 0.708095
0.387518 0.461921 0.710903
0.486244 0.486152 0.722774
0.626764 0.533532 0.744625
0.775692 0.598260 0.775662
0.541619 0.674342 0.777371
0.552697 0.674891 0.778225
0.596857 0.676600 0.782010
0.690455 0.690425 0.794278
0.823056 0.734890 0.823056
0.724300 0.862455 0.862455
0.730892 0.863615 0.863615
0.758602 0.868711 0.868711
0.813779 0.880125 0.880095
0.903227 0.903227 0.903227
