20 Preset/Rover Style/【3】LUT video cho PR-AE-FCPX/Rover 01 .cube
# Created by Adobe Lightroom plugin Export LUT (1.24.0)
# www.johnrellis.com/lightroom/exportlut.htm
# Preset: Rover 01 
# Color profile: E:\lut插件\exportlut.1.24\exportlut.lrplugin\color profiles\Rec709gamma2.4.icc
LUT_3D_SIZE 8
DOMAIN_MIN 0.000000 0.000000 0.000000
DOMAIN_MAX 0.903226 0.903226 0.903226
0.000000 0.000000 0.000000
0.023743 0.010620 0.003723
0.098360 0.033783 0.013306
0.191989 0.034455 0.021759
0.412421 0.000000 0.018860
0.667475 0.000000 0.000000
0.825528 0.000000 0.083345
0.895689 0.250553 0.202060
0.011505 0.035187 0.013062
0.022889 0.041566 0.017609
0.101961 0.055909 0.016876
0.194980 0.058595 0.023682
0.408179 0.000000 0.017884
0.658289 0.000000 0.000000
0.813382 0.000000 0.068086
0.889586 0.252842 0.194522
0.040467 0.106874 0.057801
0.059297 0.107210 0.060670
0.109438 0.126314 0.086580
0.257603 0.148226 0.051972
0.468055 0.111818 0.019593
0.692622 0.080354 0.000000
0.825406 0.214847 0.110719
0.886961 0.357336 0.240848
0.048432 0.211002 0.126925
0.090486 0.209415 0.127382
0.147524 0.210666 0.133455
0.307836 0.317845 0.213230
0.580560 0.405921 0.208011
0.728420 0.350622 0.157015
0.818936 0.394873 0.212711
0.871702 0.466682 0.306004
0.129580 0.390570 0.234012
0.156649 0.387366 0.233158
0.226841 0.377935 0.232547
0.354376 0.419409 0.278813
0.549645 0.538598 0.420142
0.691066 0.602533 0.455421
0.783413 0.582483 0.415351
0.844083 0.572503 0.424292
0.325719 0.538628 0.369635
0.339879 0.540124 0.372473
0.370153 0.531060 0.367193
0.415076 0.512810 0.356390
0.556085 0.585107 0.458473
0.668513 0.666896 0.587091
0.740658 0.713802 0.636744
0.801358 0.714168 0.622827
0.486030 0.642206 0.497383
0.489693 0.641382 0.496651
0.500298 0.635035 0.490211
0.519432 0.622400 0.477302
0.562554 0.620050 0.483772
0.666621 0.688502 0.604150
0.730861 0.742977 0.691249
0.776333 0.777981 0.733455
0.598108 0.716884 0.607721
0.598993 0.716152 0.606683
0.603265 0.713039 0.602472
0.611994 0.707149 0.594324
0.616541 0.690791 0.569696
0.675074 0.717708 0.626215
0.738888 0.766812 0.712490
0.779110 0.800320 0.768765
0.003326 0.009216 0.014466
0.021546 0.017121 0.017548
0.096712 0.037385 0.023072
0.185367 0.051881 0.035035
0.395453 0.000000 0.031922
0.646967 0.000000 0.004028
0.805631 0.000000 0.053590
0.886137 0.225681 0.181430
0.010895 0.040497 0.023621
0.028534 0.048402 0.028962
0.101472 0.065583 0.034760
0.194553 0.074067 0.041962
0.404639 0.000000 0.035492
0.649012 0.000000 0.011475
0.800870 0.000000 0.051575
0.881773 0.237156 0.179507
0.043977 0.111421 0.077028
0.063905 0.113588 0.080049
0.111666 0.129030 0.096712
0.248783 0.143282 0.081361
0.457710 0.121553 0.062745
0.674220 0.094423 0.064088
0.807645 0.197086 0.112856
0.879423 0.334417 0.216953
0.045167 0.215793 0.138338
0.090700 0.214572 0.138643
0.148959 0.211704 0.141878
0.289982 0.301976 0.213199
0.547814 0.374517 0.200626
0.701686 0.318120 0.155642
0.803677 0.372900 0.207828
0.863859 0.450111 0.295750
0.138338 0.396765 0.248173
0.162081 0.392676 0.246311
0.230655 0.381537 0.243778
0.345342 0.410376 0.279362
0.535241 0.525017 0.411627
0.682429 0.589868 0.443458
0.777890 0.570642 0.405921
0.839750 0.565454 0.419623
0.326757 0.538689 0.375860
0.335576 0.536736 0.374762
0.367254 0.528496 0.370550
0.413886 0.511955 0.361364
0.549523 0.578820 0.455085
0.665095 0.663081 0.584375
0.738186 0.709926 0.632654
0.799832 0.709834 0.617914
0.483680 0.640558 0.498421
0.485145 0.638422 0.495888
0.495796 0.631922 0.489265
0.516442 0.620203 0.477882
0.557061 0.615320 0.480049
0.663020 0.684749 0.600183
0.727749 0.739193 0.687007
0.773983 0.774441 0.728664
0.595483 0.715145 0.606683
0.597345 0.714961 0.606592
0.601465 0.711757 0.602228
0.610193 0.705837 0.594171
0.621790 0.695216 0.578759
0.675105 0.717922 0.627344
0.738247 0.766140 0.712093
0.778714 0.799893 0.768490
0.011322 0.028168 0.058015
0.025422 0.033143 0.062715
0.091554 0.054902 0.082612
0.198398 0.058595 0.103304
0.422065 0.000000 0.108858
0.666804 0.000000 0.133394
0.810117 0.099580 0.176913
0.882628 0.300084 0.249912
0.019257 0.058961 0.079774
0.036896 0.066865 0.083101
0.098299 0.085481 0.094514
0.208774 0.087404 0.108858
0.428473 0.000000 0.116457
0.665034 0.000000 0.141146
0.805264 0.136995 0.180056
0.878813 0.309514 0.251926
0.033875 0.122560 0.115846
0.056611 0.127169 0.119722
0.125490 0.146151 0.135531
0.261936 0.155154 0.140139
0.484718 0.151644 0.151888
0.686152 0.173953 0.176211
0.805997 0.269688 0.220279
0.871244 0.383520 0.295201
0.000000 0.248142 0.193545
0.053620 0.253422 0.197238
0.177676 0.267369 0.211276
0.319463 0.328893 0.271672
0.557366 0.370672 0.259861
0.704067 0.361456 0.253910
0.798367 0.418189 0.302495
0.854765 0.486458 0.373785
0.160525 0.431708 0.306798
0.189944 0.433295 0.309087
0.280522 0.433051 0.318883
0.368048 0.427466 0.324407
0.548455 0.538903 0.452216
0.684016 0.591394 0.471229
0.773587 0.568444 0.437537
0.831785 0.582879 0.468605
0.355077 0.562921 0.420813
0.371283 0.563561 0.424994
0.409003 0.557336 0.426062
0.449805 0.541161 0.415351
0.553002 0.581048 0.474952
0.664912 0.663935 0.596155
0.737270 0.708339 0.637476
0.798001 0.708461 0.626093
0.512169 0.656306 0.535882
0.513512 0.654566 0.533623
0.521416 0.648035 0.526299
0.538354 0.636439 0.514153
0.559960 0.617731 0.494636
0.663661 0.685542 0.608301
0.729213 0.741512 0.694118
0.775418 0.776150 0.733242
0.606256 0.722469 0.624994
0.606714 0.721401 0.623560
0.610437 0.718196 0.619318
0.619501 0.713100 0.612696
0.630060 0.702663 0.597986
0.672877 0.716365 0.628260
0.738247 0.766506 0.714595
0.779416 0.800839 0.771084
0.005646 0.050599 0.123995
0.019806 0.057252 0.129000
0.090669 0.080659 0.146975
0.184298 0.097597 0.180453
0.410559 0.012482 0.238712
0.667414 0.000000 0.251133
0.798489 0.215274 0.297948
0.863218 0.371283 0.366918
0.009125 0.085420 0.143404
0.025666 0.088350 0.147768
0.099580 0.098390 0.164523
0.200809 0.114565 0.197543
0.432044 0.084230 0.251652
0.672938 0.000000 0.260166
0.796597 0.247044 0.308171
0.860563 0.386511 0.374884
0.000000 0.135805 0.190127
0.011841 0.140017 0.195285
0.124727 0.159274 0.217960
0.252506 0.186618 0.251377
0.495125 0.203220 0.294835
0.688808 0.263371 0.315221
0.795315 0.364935 0.364630
0.853300 0.454505 0.418555
0.000000 0.275669 0.290074
0.000000 0.281682 0.294194
0.178012 0.308598 0.314733
0.355413 0.362799 0.355962
0.549401 0.379980 0.362432
0.689723 0.415778 0.382513
0.780270 0.468269 0.417700
0.837552 0.526360 0.466682
0.213016 0.483864 0.415503
0.239750 0.484840 0.416236
0.328771 0.491310 0.422705
0.442390 0.501701 0.439948
0.565240 0.557733 0.507774
0.686427 0.586236 0.507652
0.765713 0.575463 0.496345
0.818906 0.608820 0.536309
0.411872 0.596643 0.498878
0.425940 0.599603 0.502953
0.460945 0.600427 0.506340
0.516991 0.597955 0.512840
0.566430 0.593133 0.515465
0.669184 0.670649 0.621363
0.737972 0.707057 0.647700
0.795834 0.703487 0.636896
0.529015 0.672450 0.574151
0.533867 0.672694 0.575250
0.552544 0.672755 0.578668
0.579461 0.667292 0.579400
0.595697 0.651057 0.561120
0.665492 0.687953 0.623102
0.730922 0.744411 0.704616
0.776822 0.776699 0.737545
0.613794 0.734798 0.648066
0.615900 0.734646 0.648341
0.626703 0.733852 0.651057
0.636866 0.728420 0.646418
0.645747 0.718013 0.632654
0.665461 0.711269 0.625910
0.737270 0.766049 0.717647
0.780758 0.802579 0.775601
0.000000 0.085054 0.239811
0.000000 0.088563 0.246921
0.000000 0.098116 0.270481
0.197482 0.115846 0.316167
0.400366 0.127382 0.369604
0.623651 0.190188 0.426917
0.777646 0.286931 0.453620
0.845640 0.423133 0.482979
0.000000 0.102693 0.263767
0.000000 0.105440 0.270176
0.011810 0.115572 0.291447
0.212833 0.135134 0.332280
0.416114 0.156374 0.382696
0.628077 0.226261 0.435798
0.776272 0.314122 0.460517
0.843137 0.438270 0.488655
0.000000 0.160311 0.321752
0.000000 0.164096 0.327672
0.094118 0.183139 0.346899
0.267826 0.216098 0.382879
0.460365 0.259709 0.421881
0.638056 0.326909 0.461921
0.769070 0.395666 0.480415
0.827420 0.501152 0.517113
0.000000 0.287907 0.397742
0.000000 0.293187 0.401678
0.178622 0.317967 0.418280
0.362341 0.374151 0.453346
0.520897 0.424872 0.486641
0.663691 0.465614 0.512108
0.758846 0.512444 0.523217
0.815763 0.564538 0.552941
0.225315 0.482216 0.489113
0.252995 0.486519 0.491920
0.340520 0.501671 0.502495
0.458381 0.529320 0.523003
0.571679 0.566644 0.552392
0.671931 0.577386 0.555596
0.746731 0.598413 0.569421
0.803891 0.626642 0.592493
0.434485 0.618677 0.569238
0.445533 0.620111 0.570977
0.480659 0.622309 0.573571
0.534203 0.624903 0.576501
0.595361 0.628412 0.585016
0.667872 0.671077 0.639979
0.738064 0.694789 0.649592
0.793881 0.689479 0.642329
0.549889 0.689418 0.623346
0.552514 0.688899 0.622797
0.565484 0.687831 0.621912
0.594415 0.688411 0.625116
0.629175 0.685451 0.628443
0.658930 0.682795 0.630060
0.729885 0.744259 0.712764
0.777066 0.772183 0.736049
0.611444 0.742519 0.669398
0.613581 0.742336 0.669398
0.622736 0.741848 0.670100
0.642054 0.742763 0.674098
0.662104 0.737636 0.672755
0.671809 0.722469 0.653376
0.731411 0.761013 0.715755
0.780056 0.802090 0.778103
0.000000 0.111360 0.414740
0.000000 0.114199 0.420081
0.000000 0.124483 0.436591
0.198459 0.147524 0.472419
0.429847 0.196506 0.516991
0.615473 0.269352 0.547295
0.735317 0.391699 0.578576
0.811307 0.495064 0.604242
0.000000 0.127962 0.423316
0.000000 0.130495 0.427008
0.000000 0.141390 0.443122
0.211521 0.165866 0.474525
0.433173 0.217136 0.516533
0.613581 0.289158 0.547112
0.731624 0.403113 0.578180
0.808988 0.500572 0.604028
0.000000 0.199649 0.471015
0.000000 0.204440 0.474098
0.004547 0.220798 0.486854
0.285618 0.252750 0.507561
0.476600 0.316411 0.540887
0.626734 0.383398 0.566979
0.727443 0.470314 0.593805
0.802945 0.542199 0.617121
0.000000 0.320897 0.515282
0.000000 0.326879 0.517906
0.229191 0.355810 0.532036
0.395575 0.408545 0.555962
0.537560 0.463569 0.582238
0.645411 0.512016 0.603418
0.722683 0.563531 0.623713
0.794827 0.604181 0.640986
0.264225 0.484352 0.564202
0.284520 0.487648 0.565667
0.356298 0.501335 0.572412
0.458686 0.526879 0.586023
0.571008 0.569696 0.609949
0.653468 0.603693 0.630671
0.726650 0.627558 0.646540
0.790951 0.650599 0.655085
0.447883 0.615961 0.617517
0.458930 0.618555 0.619654
0.492866 0.624384 0.623926
0.547814 0.635859 0.632532
0.610193 0.653162 0.645930
0.672694 0.678828 0.667994
0.734035 0.688380 0.673426
0.787198 0.702327 0.683680
0.572808 0.706874 0.676387
0.577447 0.707912 0.677546
0.592859 0.710231 0.680171
0.620356 0.715145 0.685542
0.648829 0.716121 0.685237
0.681666 0.714900 0.685603
0.732326 0.748409 0.728359
0.781674 0.766354 0.737484
0.630762 0.759731 0.713710
0.631739 0.759304 0.713069
0.637385 0.758633 0.711788
0.649470 0.758022 0.710231
0.668940 0.756680 0.708553
0.694759 0.752438 0.708003
0.720943 0.752468 0.711635
0.780453 0.803006 0.783597
0.000000 0.152071 0.568536
0.000000 0.155612 0.572442
0.000000 0.169131 0.581903
0.241154 0.200015 0.600519
0.456733 0.262119 0.623865
0.622034 0.369207 0.648524
0.719234 0.446571 0.659754
0.776181 0.535454 0.669459
0.000000 0.168154 0.569085
0.000000 0.172274 0.572992
0.000000 0.185977 0.581933
0.252934 0.216495 0.598657
0.457893 0.277073 0.621027
0.618067 0.376928 0.644739
0.714534 0.448524 0.655512
0.772671 0.533074 0.665309
0.000000 0.244541 0.591974
0.000000 0.248234 0.593835
0.125338 0.264317 0.600214
0.325811 0.299687 0.613519
0.492195 0.359045 0.631098
0.626612 0.444800 0.652399
0.713832 0.505333 0.664698
0.769100 0.574456 0.676967
0.102358 0.359045 0.616388
0.152255 0.363348 0.617365
0.280003 0.388373 0.623346
0.414435 0.428321 0.634150
0.536950 0.475990 0.648371
0.640467 0.538598 0.667292
0.712459 0.581353 0.679591
0.764492 0.624750 0.692348
0.285557 0.486671 0.634058
0.299077 0.487770 0.633875
0.356054 0.496223 0.635889
0.455665 0.523430 0.646143
0.566796 0.568994 0.661494
0.649226 0.610071 0.678614
0.710811 0.640101 0.692531
0.762936 0.670588 0.708980
0.447425 0.610040 0.665003
0.455146 0.611353 0.665675
0.484871 0.616510 0.667964
0.534386 0.626703 0.672694
0.594476 0.642145 0.680262
0.665217 0.673945 0.699336
0.719875 0.699428 0.717342
0.772000 0.715633 0.729915
0.564874 0.697566 0.700923
0.569299 0.698665 0.701747
0.583795 0.701381 0.703700
0.610559 0.707362 0.708095
0.645380 0.716335 0.714992
0.686946 0.730007 0.726009
0.732326 0.750027 0.743465
0.779141 0.758083 0.748775
0.637263 0.767391 0.746670
0.639460 0.767819 0.747097
0.649317 0.769924 0.749264
0.665797 0.772915 0.752163
0.689113 0.777371 0.756527
0.711025 0.778164 0.755642
0.735103 0.774746 0.752346
0.781613 0.804898 0.791867
0.000000 0.232547 0.688014
0.000000 0.237400 0.689418
0.170993 0.253788 0.692256
0.355718 0.294011 0.699519
0.510521 0.361059 0.708614
0.629480 0.451087 0.719020
0.712886 0.542443 0.730861
0.768795 0.589136 0.735531
0.000000 0.247257 0.687007
0.000000 0.252262 0.688411
0.195224 0.269657 0.691798
0.363561 0.308202 0.698512
0.512535 0.372534 0.707424
0.628840 0.458747 0.717830
0.711299 0.545983 0.729519
0.766995 0.590112 0.733974
0.130465 0.314488 0.691096
0.171267 0.318517 0.691920
0.274754 0.335210 0.694423
0.406806 0.374304 0.701747
0.530877 0.429358 0.709285
0.633051 0.500145 0.718807
0.710719 0.575341 0.731197
0.764218 0.610956 0.736080
0.242252 0.401831 0.696468
0.275273 0.410529 0.697322
0.358038 0.433631 0.699580
0.453864 0.463813 0.705135
0.553918 0.507958 0.712825
0.641932 0.561822 0.722896
0.712032 0.619257 0.736355
0.761898 0.645655 0.742397
0.299779 0.488991 0.700191
0.316045 0.492226 0.701045
0.368414 0.501610 0.702937
0.469551 0.533135 0.708766
0.570764 0.576684 0.716365
0.647852 0.615808 0.727077
0.712520 0.658412 0.741756
0.760800 0.682033 0.750698
0.430243 0.600519 0.714199
0.434974 0.600397 0.713863
0.457130 0.601617 0.713497
0.500237 0.606653 0.714351
0.568017 0.624018 0.720272
0.655116 0.666621 0.735744
0.717739 0.702327 0.753475
0.764279 0.726009 0.765652
0.550652 0.694392 0.739071
0.553582 0.694697 0.739101
0.565576 0.696040 0.739467
0.589654 0.699855 0.741115
0.623316 0.706172 0.744228
0.665034 0.716091 0.749874
0.723415 0.742947 0.765957
0.769192 0.765377 0.780636
0.632380 0.761624 0.767880
0.633936 0.761807 0.767941
0.641352 0.763088 0.768704
0.656611 0.766171 0.770809
0.678767 0.771023 0.774044
0.707332 0.778073 0.778988
0.741817 0.788693 0.787045
0.780972 0.805051 0.801144
