20 Preset/Rover Style/【3】LUT video cho PR-AE-FCPX/Rover 01 P.cube
# Created by Adobe Lightroom plugin Export LUT (1.24.0)
# www.johnrellis.com/lightroom/exportlut.htm
# Preset: Rover 01 P
# Color profile: E:\lut插件\exportlut.1.24\exportlut.lrplugin\color profiles\Rec709gamma2.4.icc
LUT_3D_SIZE 5
DOMAIN_MIN 0.000000 0.000000 0.000000
DOMAIN_MAX 0.903226 0.903226 0.903226
0.011261 0.024048 0.012299
0.034455 0.030304 0.014405
0.205997 0.026551 0.012757
0.638025 0.000000 0.000000
0.841520 0.166323 0.147402
0.019928 0.061860 0.022797
0.054658 0.080720 0.031769
0.261082 0.091676 0.010620
0.657404 0.000000 0.000000
0.838499 0.274632 0.180972
0.000000 0.285771 0.121370
0.116243 0.281773 0.127504
0.428443 0.424140 0.269352
0.700496 0.451057 0.244205
0.808560 0.478676 0.325017
0.355474 0.571160 0.385595
0.390448 0.566735 0.385565
0.497505 0.560601 0.400763
0.662379 0.658503 0.576471
0.771878 0.699580 0.599817
0.585657 0.700069 0.587182
0.591852 0.698085 0.585779
0.609064 0.684779 0.571466
0.681971 0.714473 0.629236
0.768215 0.786160 0.740169
0.015930 0.027710 0.020752
0.033692 0.034424 0.028504
0.223545 0.015656 0.046174
0.630762 0.000000 0.061799
0.828092 0.201144 0.175723
0.018769 0.077821 0.052247
0.070954 0.091218 0.068147
0.280827 0.100343 0.080903
0.649500 0.000000 0.103456
0.823972 0.289708 0.216312
0.000000 0.313176 0.175937
0.105501 0.318791 0.188296
0.414343 0.411566 0.296086
0.680964 0.429084 0.275547
0.799252 0.494148 0.371099
0.381933 0.585138 0.426612
0.414984 0.581567 0.427161
0.503502 0.564660 0.423865
0.661433 0.658320 0.584131
0.770138 0.697230 0.604211
0.590265 0.705043 0.599329
0.596185 0.702815 0.597559
0.619165 0.694728 0.591241
0.683131 0.716457 0.634302
0.770504 0.789059 0.745480
0.005188 0.039460 0.115206
0.034272 0.045289 0.138369
0.244083 0.016297 0.232609
0.652766 0.000000 0.310887
0.803922 0.382940 0.402716
0.000000 0.094423 0.188724
0.000000 0.102083 0.210330
0.311131 0.126619 0.293034
0.661585 0.228977 0.347356
0.796811 0.432959 0.430182
0.000000 0.361883 0.379309
0.000000 0.381598 0.391699
0.451942 0.449653 0.436011
0.661952 0.486793 0.455024
0.776730 0.548638 0.502434
0.416205 0.614862 0.524468
0.445411 0.613489 0.523766
0.549035 0.614069 0.537865
0.661341 0.660975 0.612543
0.761776 0.683558 0.616999
0.582849 0.717189 0.624964
0.592920 0.717617 0.626795
0.629938 0.714260 0.632288
0.671839 0.707668 0.631983
0.768734 0.787686 0.749111
0.000000 0.076509 0.383551
0.000000 0.082856 0.405829
0.221592 0.100465 0.475929
0.624445 0.204746 0.549187
0.762875 0.470314 0.582483
0.000000 0.126314 0.436866
0.000000 0.135714 0.450660
0.278325 0.179477 0.502251
0.630854 0.303593 0.559899
0.757931 0.501793 0.589899
0.000000 0.343847 0.522515
0.089174 0.357702 0.527245
0.425055 0.432441 0.558434
0.635828 0.508232 0.592004
0.751644 0.594293 0.622370
0.446601 0.616938 0.617090
0.472480 0.619989 0.618799
0.559014 0.635676 0.629755
0.661738 0.665583 0.652613
0.757809 0.682521 0.661891
0.595911 0.743618 0.695918
0.602625 0.743648 0.695277
0.630121 0.744015 0.692775
0.685328 0.741238 0.693507
0.769741 0.790127 0.762844
0.000000 0.160006 0.623774
0.000000 0.170047 0.628626
0.307378 0.224582 0.649287
0.599359 0.369970 0.675990
0.747066 0.513909 0.696895
0.000000 0.206699 0.629938
0.000000 0.218692 0.634363
0.340917 0.277165 0.651728
0.601617 0.407752 0.675654
0.743526 0.533288 0.697261
0.000000 0.359045 0.648310
0.163821 0.373419 0.651087
0.425330 0.437537 0.662257
0.611475 0.520165 0.681727
0.739132 0.602411 0.708431
0.403998 0.584253 0.680232
0.422217 0.584710 0.679988
0.497505 0.592950 0.682856
0.630945 0.637934 0.704799
0.748959 0.695064 0.742000
0.588952 0.735683 0.741238
0.595727 0.736751 0.741970
0.626642 0.744167 0.747829
0.682856 0.758999 0.759152
0.766415 0.789059 0.783841
