20 Preset/Rover Style/【3】LUT video cho PR-AE-FCPX/Rover 04 .cube
# Created by Adobe Lightroom plugin Export LUT (1.24.0)
# www.johnrellis.com/lightroom/exportlut.htm
# Preset: Rover 04 
# Color profile: E:\lut插件\exportlut.1.24\exportlut.lrplugin\color profiles\Rec709gamma2.4.icc
LUT_3D_SIZE 32
DOMAIN_MIN 0.0 0.0 0.0
DOMAIN_MAX 1.0 1.0 1.0
0.000000 0.000000 0.000000
0.000977 0.000977 0.000977
0.002258 0.001953 0.000824
0.006897 0.002472 0.002899
0.013092 0.006165 0.005676
0.022950 0.009400 0.009552
0.036805 0.012207 0.013428
0.057465 0.016510 0.015808
0.087251 0.018036 0.018311
0.105196 0.019959 0.020417
0.127199 0.018311 0.023529
0.156863 0.012665 0.025910
0.195956 0.000000 0.026520
0.243870 0.000000 0.028046
0.299565 0.000000 0.028199
0.362615 0.000000 0.027466
0.430213 0.000000 0.024994
0.497871 0.000000 0.020508
0.562768 0.000000 0.014313
0.622431 0.000000 0.009552
0.674525 0.000000 0.004730
0.718715 0.000000 0.003235
0.759091 0.000000 0.006958
0.793454 0.000000 0.016754
0.822263 0.000000 0.036011
0.846098 0.000000 0.072084
0.865934 0.000000 0.098207
0.882536 0.000000 0.120424
0.896391 0.000000 0.145541
0.908049 0.111116 0.173953
0.917876 0.205814 0.205020
0.925689 0.272801 0.240177
0.000275 0.002167 0.000824
0.000275 0.002167 0.000824
0.001251 0.003143 0.001801
0.007874 0.003449 0.003876
0.014374 0.007141 0.005524
0.022950 0.009400 0.009552
0.036103 0.013397 0.013275
0.059449 0.016266 0.015808
0.086793 0.019226 0.018158
0.105104 0.019959 0.021546
0.126558 0.019745 0.023407
0.156222 0.013123 0.024811
0.194583 0.000000 0.026429
0.242191 0.000000 0.028107
0.297734 0.000000 0.028321
0.360418 0.000000 0.027497
0.427527 0.000000 0.025269
0.494911 0.000000 0.020874
0.560174 0.000000 0.014679
0.620050 0.000000 0.010101
0.672358 0.000000 0.005432
0.716487 0.000000 0.002838
0.756710 0.000000 0.005982
0.790768 0.000000 0.016510
0.819669 0.000000 0.034546
0.843748 0.000000 0.067781
0.863951 0.000000 0.096284
0.880858 0.000000 0.118013
0.894926 0.000000 0.143465
0.906950 0.096193 0.171054
0.916991 0.199008 0.201724
0.925048 0.267308 0.236576
0.000214 0.006531 0.004761
0.000000 0.006531 0.005890
0.001190 0.007507 0.005737
0.006989 0.010224 0.005249
0.012604 0.011719 0.008301
0.022492 0.014954 0.012207
0.038605 0.017517 0.014923
0.059998 0.020630 0.017456
0.088441 0.022156 0.019959
0.106752 0.022675 0.022217
0.128145 0.023438 0.023896
0.157748 0.016602 0.025299
0.196170 0.000397 0.028016
0.243565 0.000000 0.028565
0.299107 0.000000 0.028443
0.361273 0.000000 0.027649
0.428351 0.000000 0.025086
0.495766 0.000000 0.020508
0.560296 0.000000 0.014252
0.619654 0.000000 0.009461
0.672084 0.000000 0.004181
0.716060 0.000000 0.002747
0.756130 0.000000 0.005768
0.789883 0.000000 0.015381
0.818601 0.000000 0.032898
0.842618 0.000000 0.064485
0.862852 0.000000 0.095979
0.879789 0.000000 0.117281
0.894072 0.000000 0.142397
0.906065 0.103182 0.170260
0.916167 0.201022 0.201144
0.924346 0.268040 0.235874
0.000336 0.017426 0.013428
0.000336 0.017426 0.013428
0.001617 0.018402 0.013275
0.002289 0.019379 0.015381
0.011353 0.022827 0.014740
0.023560 0.023682 0.015503
0.041962 0.026032 0.017090
0.065339 0.028901 0.019623
0.091279 0.030213 0.020966
0.109590 0.030488 0.023224
0.131685 0.030579 0.024872
0.162539 0.023377 0.027192
0.201419 0.006836 0.028595
0.248692 0.000000 0.028931
0.304051 0.000000 0.028748
0.365484 0.000000 0.027436
0.431617 0.000000 0.024445
0.497627 0.000000 0.019654
0.561547 0.000000 0.013672
0.620111 0.000000 0.007538
0.671809 0.000000 0.003204
0.715999 0.000000 0.002106
0.754910 0.000000 0.003784
0.788327 0.000000 0.013184
0.817075 0.000000 0.031861
0.841367 0.000000 0.065278
0.861845 0.000000 0.095857
0.879026 0.000000 0.117983
0.893248 0.000000 0.143618
0.905303 0.124727 0.171359
0.915343 0.210361 0.202182
0.923461 0.273564 0.236301
0.000031 0.031678 0.022766
0.001709 0.031464 0.023896
0.002991 0.032441 0.023743
0.004242 0.033417 0.023590
0.008911 0.033936 0.025666
0.020539 0.039368 0.024720
0.046113 0.041077 0.021729
0.075471 0.041108 0.022278
0.096315 0.041962 0.023621
0.114412 0.043000 0.025696
0.138369 0.041535 0.027283
0.169741 0.033967 0.028260
0.209415 0.017121 0.029267
0.256901 0.000000 0.029358
0.311864 0.000000 0.028443
0.373754 0.000000 0.026215
0.438941 0.000000 0.022370
0.504295 0.000000 0.016449
0.566644 0.000000 0.010895
0.624048 0.000000 0.004761
0.674556 0.000000 0.000488
0.718349 0.000000 0.000000
0.756069 0.000000 0.002441
0.788754 0.000000 0.012055
0.817136 0.000000 0.032532
0.841123 0.000000 0.066560
0.861265 0.000000 0.096529
0.878141 0.000000 0.119905
0.892271 0.000000 0.145235
0.904143 0.152316 0.173129
0.914122 0.224979 0.203891
0.922087 0.284245 0.238407
0.001526 0.051301 0.033631
0.003510 0.051057 0.033600
0.004761 0.052064 0.033448
0.007019 0.054017 0.034272
0.013245 0.055512 0.035065
0.021881 0.055604 0.037140
0.039338 0.063752 0.035706
0.081849 0.069001 0.028473
0.103304 0.065126 0.027955
0.123445 0.062440 0.028016
0.148928 0.061128 0.029206
0.182437 0.052186 0.029755
0.223209 0.033295 0.030274
0.271000 0.000000 0.029267
0.326604 0.000000 0.028504
0.387427 0.000000 0.024994
0.451820 0.000000 0.019440
0.515435 0.000000 0.013214
0.576410 0.000000 0.007080
0.631708 0.000000 0.000702
0.680079 0.000000 0.000000
0.723110 0.000000 0.000000
0.774319 0.000000 0.004120
0.804959 0.000000 0.020661
0.830625 0.000000 0.050660
0.851957 0.000000 0.089723
0.869627 0.000000 0.112123
0.884459 0.000000 0.136507
0.896818 0.154299 0.162997
0.907225 0.220035 0.192081
0.915831 0.274266 0.223911
0.922698 0.323552 0.258732
0.006897 0.081636 0.048280
0.008881 0.081483 0.048280
0.010163 0.082094 0.048127
0.016663 0.083040 0.047791
0.024475 0.084596 0.047303
0.036072 0.085115 0.050355
0.047669 0.085634 0.053376
0.078950 0.091066 0.051118
0.108003 0.095430 0.041260
0.139193 0.094759 0.033356
0.169680 0.088472 0.031220
0.205661 0.082734 0.030732
0.248234 0.066102 0.029877
0.297826 0.030976 0.028229
0.353613 0.000000 0.024170
0.414038 0.000000 0.018555
0.476081 0.000000 0.013153
0.536767 0.000000 0.005768
0.594202 0.000000 0.000000
0.646693 0.000000 0.000000
0.694667 0.000000 0.000000
0.736446 0.000000 0.000000
0.771878 0.000000 0.000000
0.802579 0.000000 0.017548
0.828458 0.000000 0.049958
0.849760 0.000000 0.090425
0.867308 0.000000 0.113710
0.881926 0.124636 0.139071
0.894072 0.192386 0.165682
0.904479 0.244175 0.194736
0.913085 0.291783 0.226688
0.919982 0.337102 0.261295
0.019013 0.100984 0.065309
0.019013 0.100984 0.065309
0.022278 0.101228 0.065156
0.026093 0.102174 0.064668
0.035737 0.103975 0.063722
0.052155 0.104738 0.065309
0.070283 0.105440 0.068025
0.086641 0.106020 0.072999
0.103731 0.112856 0.073335
0.139498 0.120180 0.054322
0.185275 0.121736 0.039063
0.225620 0.115145 0.031403
0.269627 0.102083 0.025910
0.319402 0.091554 0.022278
0.374731 0.051850 0.017212
0.432776 0.000000 0.010590
0.492500 0.000000 0.002930
0.550225 0.000000 0.000000
0.605158 0.000000 0.000000
0.655940 0.000000 0.000000
0.701167 0.000000 0.000000
0.739925 0.000000 0.000000
0.773404 0.000000 0.000000
0.802518 0.000000 0.015991
0.827329 0.000000 0.051026
0.847929 0.000000 0.092836
0.865019 0.127749 0.118105
0.879393 0.183108 0.142977
0.891325 0.229923 0.170779
0.901518 0.273106 0.200015
0.910033 0.314763 0.232029
0.916869 0.355993 0.267277
0.021485 0.127321 0.086488
0.022766 0.127565 0.086397
0.026032 0.127749 0.086275
0.030426 0.128908 0.085786
0.042298 0.130648 0.085725
0.062318 0.132876 0.084627
0.086702 0.133822 0.086702
0.100923 0.134554 0.089235
0.114534 0.135042 0.092164
0.136049 0.143709 0.093965
0.182315 0.155428 0.075929
0.238010 0.159152 0.046693
0.294713 0.153414 0.025391
0.345617 0.139132 0.013275
0.399878 0.118593 0.002777
0.455940 0.100954 0.000000
0.512505 0.057710 0.000000
0.567132 0.000000 0.000000
0.619318 0.000000 0.000000
0.667323 0.000000 0.000000
0.708736 0.000000 0.000000
0.744228 0.000000 0.000000
0.775509 0.000000 0.000000
0.803128 0.012634 0.013275
0.826596 0.113741 0.056336
0.846342 0.158297 0.098054
0.862760 0.196567 0.124086
0.876646 0.233310 0.150149
0.888273 0.269413 0.178378
0.898283 0.305119 0.207828
0.906615 0.341436 0.240238
0.913359 0.378271 0.275486
0.017456 0.164126 0.102785
0.018738 0.164279 0.102754
0.023285 0.164584 0.102632
0.032776 0.166018 0.102205
0.050233 0.167330 0.101717
0.077882 0.169833 0.100862
0.098939 0.172488 0.100557
0.118227 0.172824 0.103273
0.136202 0.173495 0.106752
0.153658 0.174075 0.110658
0.177218 0.182803 0.115389
0.233158 0.199802 0.096498
0.298070 0.206271 0.064576
0.370031 0.203494 0.018524
0.425299 0.189151 0.000000
0.479713 0.168032 0.000000
0.533532 0.149416 0.000000
0.586969 0.139498 0.000000
0.635706 0.131807 0.000000
0.678950 0.127016 0.000000
0.716274 0.129702 0.000000
0.748623 0.137453 0.000000
0.777218 0.153414 0.000000
0.802853 0.173342 0.015717
0.824735 0.197024 0.067109
0.843473 0.221836 0.103975
0.859373 0.248600 0.130068
0.872923 0.276524 0.157809
0.884398 0.305760 0.185916
0.894194 0.336919 0.217014
0.902525 0.368750 0.249516
0.909270 0.401709 0.285222
0.028046 0.209903 0.124117
0.029328 0.210025 0.124086
0.036713 0.210452 0.123659
0.052735 0.211643 0.123232
0.078920 0.213596 0.122805
0.097902 0.216098 0.122164
0.117067 0.219455 0.121096
0.139651 0.221408 0.122225
0.162509 0.222110 0.125795
0.184543 0.222446 0.130251
0.204807 0.223453 0.135225
0.232334 0.232517 0.142000
0.294957 0.253239 0.120821
0.365698 0.262272 0.094453
0.440375 0.262486 0.034791
0.504265 0.252903 0.000000
0.556970 0.235080 0.000000
0.606043 0.213901 0.000000
0.649744 0.207980 0.000000
0.688533 0.208621 0.000000
0.722255 0.211795 0.000000
0.751949 0.218509 0.000000
0.778775 0.228611 0.000000
0.802701 0.241886 0.023194
0.823423 0.258335 0.082277
0.841154 0.276860 0.113893
0.856352 0.297307 0.141329
0.869322 0.319646 0.168826
0.880430 0.343999 0.198062
0.890013 0.370642 0.229313
0.898100 0.398474 0.262364
0.904753 0.427680 0.298222
0.078706 0.265751 0.151125
0.078889 0.265934 0.151278
0.086915 0.266453 0.151064
0.095674 0.267460 0.150484
0.108064 0.269230 0.149996
0.124666 0.271733 0.149203
0.144167 0.275212 0.148196
0.167880 0.279454 0.147158
0.194400 0.280064 0.150088
0.220401 0.280400 0.154696
0.245335 0.280644 0.160220
0.269017 0.282078 0.166354
0.314122 0.302617 0.181338
0.381598 0.327092 0.161746
0.455695 0.338994 0.132418
0.526970 0.341802 0.098543
0.591363 0.335912 0.018677
0.635462 0.320439 0.000000
0.674830 0.303319 0.000000
0.709834 0.286168 0.000000
0.739101 0.289769 0.000000
0.764950 0.295445 0.000000
0.788510 0.303044 0.009400
0.809171 0.313359 0.072145
0.827146 0.325200 0.110109
0.842710 0.338964 0.138033
0.856168 0.354437 0.165743
0.867674 0.371923 0.193393
0.877745 0.391485 0.222690
0.886625 0.412879 0.253117
0.894224 0.435828 0.285710
0.900511 0.460548 0.320958
0.134554 0.333349 0.188144
0.135592 0.333593 0.188205
0.139193 0.333745 0.187961
0.146029 0.334447 0.187350
0.155825 0.335729 0.186374
0.171420 0.337499 0.185702
0.189853 0.340246 0.184176
0.213077 0.344549 0.183383
0.240879 0.348516 0.183536
0.270573 0.349187 0.188724
0.299626 0.350500 0.195163
0.327825 0.352270 0.202609
0.354528 0.354406 0.210819
0.386664 0.363653 0.221073
0.449439 0.387671 0.206180
0.517021 0.400275 0.177798
0.580011 0.403143 0.147341
0.634455 0.399420 0.113252
0.675471 0.387732 0.076692
0.708278 0.372198 0.015930
0.738094 0.355657 0.000000
0.764248 0.346868 0.000000
0.786313 0.353063 0.029450
0.805844 0.360662 0.094728
0.822995 0.369970 0.125246
0.838041 0.381079 0.152956
0.851102 0.393713 0.180362
0.862425 0.408362 0.208408
0.872404 0.424903 0.237797
0.881132 0.443458 0.269230
0.888762 0.463478 0.301732
0.895140 0.485084 0.336614
0.204379 0.398505 0.229770
0.204654 0.398352 0.229831
0.207065 0.398383 0.229557
0.212467 0.398901 0.228946
0.220584 0.399786 0.228092
0.232883 0.401099 0.226871
0.248631 0.403235 0.226230
0.268070 0.406012 0.224704
0.292454 0.409552 0.223514
0.320226 0.411383 0.226017
0.348730 0.411933 0.232059
0.376776 0.412909 0.239109
0.403479 0.413947 0.247044
0.427771 0.415412 0.255711
0.455787 0.421851 0.265782
0.508659 0.442695 0.254978
0.566979 0.454658 0.228946
0.618677 0.457679 0.202121
0.664729 0.454719 0.174563
0.703792 0.446693 0.146242
0.732082 0.433112 0.127291
0.758602 0.419501 0.107607
0.782986 0.405554 0.089540
0.802609 0.405341 0.114778
0.818936 0.412696 0.143893
0.833341 0.421393 0.172152
0.845884 0.431708 0.199222
0.857023 0.443580 0.227481
0.866941 0.457496 0.256565
0.875578 0.473274 0.287724
0.883024 0.490822 0.320592
0.889555 0.509728 0.354894
0.279789 0.457588 0.276371
0.280247 0.457557 0.276371
0.282231 0.457557 0.276005
0.285435 0.457496 0.275151
0.291508 0.457679 0.273960
0.300481 0.458442 0.273014
0.312840 0.459571 0.271702
0.329015 0.461524 0.270573
0.348455 0.464240 0.269444
0.371771 0.467445 0.268650
0.397925 0.467720 0.273472
0.423682 0.468147 0.280278
0.448463 0.468391 0.287449
0.471351 0.468788 0.295171
0.492012 0.468849 0.303044
0.514397 0.472786 0.312139
0.556725 0.490272 0.306950
0.604517 0.500908 0.282811
0.647974 0.504112 0.258946
0.687068 0.502098 0.235019
0.722560 0.496284 0.210086
0.749844 0.486305 0.192020
0.773281 0.474769 0.178012
0.794980 0.463264 0.164950
0.814633 0.451911 0.166567
0.828458 0.458656 0.193606
0.840665 0.467048 0.221073
0.851469 0.477089 0.249424
0.861295 0.488930 0.278752
0.869841 0.502770 0.309941
0.877379 0.518212 0.342687
0.883879 0.535119 0.376684
0.352514 0.506889 0.323796
0.353033 0.507042 0.324010
0.354223 0.507012 0.323491
0.357305 0.507347 0.323125
0.362402 0.507622 0.322515
0.369635 0.508263 0.321813
0.379339 0.509361 0.321294
0.392523 0.511040 0.320531
0.408148 0.512993 0.319829
0.426612 0.515312 0.319280
0.447578 0.517174 0.320104
0.469337 0.516381 0.325475
0.490089 0.515740 0.331243
0.509514 0.514794 0.337133
0.527520 0.513970 0.343481
0.543572 0.513024 0.349859
0.560632 0.515038 0.358068
0.593347 0.529076 0.357000
0.633112 0.538781 0.335485
0.669917 0.542260 0.314366
0.704494 0.541558 0.293492
0.735775 0.537774 0.273228
0.762692 0.531029 0.255283
0.783627 0.521569 0.243931
0.803037 0.512230 0.233768
0.821317 0.501793 0.230167
0.835447 0.500328 0.246830
0.846067 0.508782 0.274662
0.855619 0.518761 0.303380
0.864103 0.530449 0.333745
0.871580 0.543542 0.364965
0.878080 0.558312 0.397986
0.418860 0.546868 0.370916
0.418952 0.546807 0.370794
0.420203 0.546899 0.370855
0.422522 0.547143 0.370397
0.426337 0.547387 0.370153
0.431678 0.547906 0.369177
0.439094 0.548608 0.368719
0.449073 0.549676 0.368200
0.460792 0.551080 0.367926
0.474617 0.552667 0.367285
0.490852 0.554589 0.367071
0.508202 0.554833 0.369177
0.525536 0.553918 0.374029
0.541955 0.552911 0.379217
0.557366 0.551934 0.384405
0.571435 0.550744 0.389532
0.584100 0.549676 0.395117
0.597436 0.550591 0.402136
0.622370 0.562066 0.405310
0.656062 0.571313 0.386694
0.688380 0.575433 0.368597
0.718288 0.575860 0.351415
0.745785 0.573358 0.334966
0.771084 0.568658 0.318395
0.790646 0.561547 0.307958
0.808194 0.554040 0.299931
0.824918 0.546288 0.296300
0.840635 0.537835 0.301091
0.849943 0.546471 0.329656
0.858305 0.556512 0.358709
0.865721 0.568109 0.389654
0.872404 0.580804 0.420630
0.477058 0.580255 0.416815
0.477577 0.580377 0.417121
0.490303 0.587488 0.427131
0.491920 0.587610 0.426978
0.494545 0.587793 0.426429
0.498299 0.588098 0.425971
0.503227 0.588586 0.425360
0.509789 0.589166 0.424903
0.517937 0.590051 0.424353
0.527733 0.591089 0.423926
0.538750 0.592309 0.422950
0.551568 0.593713 0.422492
0.564630 0.592645 0.425635
0.577386 0.591363 0.429236
0.589471 0.589929 0.432715
0.600946 0.588403 0.436469
0.611414 0.586816 0.440009
0.621027 0.585260 0.443885
0.630793 0.585046 0.449073
0.649592 0.593957 0.454536
0.677943 0.602686 0.439033
0.705074 0.606714 0.424292
0.730434 0.607507 0.410437
0.754269 0.605859 0.396887
0.776364 0.602258 0.383246
0.795834 0.597070 0.371771
0.811826 0.591150 0.364782
0.827268 0.585199 0.361608
0.841581 0.579248 0.367407
0.852689 0.580682 0.384558
0.860075 0.590692 0.413733
0.866789 0.601984 0.443732
0.526360 0.610346 0.461585
0.527520 0.610895 0.462531
0.529076 0.611566 0.463447
0.531060 0.612177 0.463844
0.533898 0.612818 0.464546
0.536950 0.613184 0.464332
0.540612 0.613550 0.463508
0.545403 0.613977 0.462959
0.551446 0.614588 0.462470
0.558862 0.615442 0.462287
0.567254 0.616358 0.461524
0.577111 0.617365 0.461158
0.587701 0.617792 0.461433
0.598474 0.616693 0.464271
0.609033 0.615473 0.467231
0.619043 0.614191 0.470436
0.628473 0.612970 0.473640
0.637476 0.611688 0.477089
0.645777 0.610681 0.480964
0.653864 0.610315 0.485451
0.667994 0.617151 0.493538
0.693050 0.626093 0.481209
0.716426 0.630426 0.469947
0.738552 0.631891 0.458961
0.759426 0.631220 0.448310
0.779507 0.629053 0.437568
0.798917 0.625849 0.426886
0.814206 0.621698 0.421668
0.828489 0.617792 0.420539
0.841733 0.613947 0.427588
0.854582 0.611048 0.436713
0.861387 0.621057 0.465034
0.562676 0.633143 0.498329
0.563714 0.633692 0.499275
0.564874 0.634211 0.499886
0.566583 0.634852 0.500755
0.568658 0.635309 0.501030
0.571130 0.635615 0.501061
0.573968 0.635981 0.500664
0.577539 0.636255 0.500267
0.582086 0.636744 0.499825
0.587549 0.637293 0.499397
0.593988 0.637964 0.498787
0.601434 0.638727 0.498421
0.609583 0.639490 0.497719
0.618524 0.639185 0.498970
0.627405 0.638239 0.501610
0.635981 0.637201 0.504234
0.644343 0.636042 0.506859
0.652247 0.635065 0.509819
0.659815 0.634089 0.513024
0.666865 0.633326 0.516655
0.673304 0.632746 0.520470
0.684504 0.638331 0.529046
0.705562 0.646662 0.520653
0.725734 0.651087 0.511589
0.745174 0.653132 0.503014
0.764096 0.653498 0.494789
0.782498 0.652735 0.486549
0.800504 0.651026 0.478737
0.816281 0.648829 0.474006
0.829648 0.646509 0.475013
0.841947 0.644587 0.483406
0.853941 0.643427 0.493690
0.594537 0.653071 0.533288
0.595270 0.653468 0.534081
0.596216 0.653864 0.534600
0.597620 0.654322 0.535302
0.599023 0.654749 0.535576
0.600885 0.654963 0.535515
0.603113 0.655238 0.535424
0.605798 0.655482 0.534905
0.609247 0.655848 0.534722
0.613275 0.656275 0.534203
0.618158 0.656825 0.533745
0.623743 0.657435 0.533471
0.630030 0.658076 0.533043
0.636988 0.658747 0.532372
0.644434 0.657984 0.534569
0.651728 0.657099 0.536797
0.658961 0.656428 0.539452
0.666011 0.655665 0.542168
0.672816 0.655146 0.545342
0.679347 0.654688 0.548791
0.685481 0.654383 0.552392
0.691127 0.654231 0.556390
0.700191 0.658930 0.564050
0.717372 0.666529 0.559869
0.735042 0.671321 0.553521
0.752346 0.674281 0.547509
0.769558 0.675807 0.541711
0.786404 0.676417 0.536248
0.803037 0.676326 0.531365
0.819333 0.675837 0.527306
0.831662 0.675166 0.531395
0.843198 0.674891 0.540826
0.625330 0.672663 0.569818
0.625605 0.672786 0.570062
0.626032 0.672908 0.570275
0.626734 0.672999 0.570336
0.627558 0.673152 0.570275
0.628626 0.673243 0.569848
0.630152 0.673335 0.569512
0.632136 0.673518 0.569268
0.634607 0.673793 0.568872
0.637720 0.674189 0.568597
0.641260 0.674617 0.568322
0.645533 0.675105 0.567987
0.650263 0.675654 0.567681
0.655543 0.676204 0.567193
0.661341 0.676356 0.567498
0.667353 0.675654 0.569329
0.673274 0.675013 0.571252
0.679194 0.674342 0.573419
0.684962 0.673701 0.575616
0.690517 0.673213 0.578241
0.695796 0.672786 0.580926
0.700771 0.672419 0.583825
0.705348 0.672145 0.586847
0.712734 0.675715 0.592950
0.726894 0.682643 0.591333
0.742702 0.687770 0.586633
0.758541 0.691402 0.582483
0.774289 0.693904 0.578851
0.789975 0.695613 0.575677
0.805539 0.696742 0.573144
0.820981 0.697597 0.571344
0.834012 0.698085 0.576043
0.647547 0.687953 0.598230
0.647791 0.688075 0.598474
0.648066 0.688197 0.598566
0.648615 0.688289 0.598627
0.649287 0.688411 0.598566
0.650141 0.688502 0.598413
0.651270 0.688624 0.598108
0.652796 0.688746 0.597864
0.654719 0.689052 0.597589
0.657130 0.689357 0.597528
0.659846 0.689723 0.597162
0.663142 0.690181 0.597070
0.666835 0.690639 0.596704
0.671015 0.691188 0.596429
0.675685 0.691737 0.596155
0.680690 0.691585 0.597162
0.685786 0.691005 0.598718
0.690822 0.690547 0.600580
0.695796 0.690089 0.602441
0.700649 0.689662 0.604547
0.705348 0.689357 0.606897
0.709987 0.689052 0.609308
0.714199 0.688869 0.611933
0.718227 0.688685 0.614557
0.723751 0.690730 0.617975
0.735775 0.697108 0.618128
0.750240 0.702602 0.615076
0.764950 0.706783 0.612543
0.779660 0.710048 0.610590
0.794400 0.712673 0.609308
0.809232 0.714870 0.608728
0.824125 0.716854 0.608972
0.667567 0.703517 0.625544
0.667750 0.703670 0.625849
0.667994 0.703792 0.626062
0.668269 0.703792 0.625849
0.668666 0.703761 0.625696
0.669184 0.703731 0.625269
0.669917 0.703670 0.624750
0.670924 0.703639 0.624353
0.672236 0.703700 0.623804
0.673884 0.703822 0.623407
0.675929 0.703975 0.622889
0.678370 0.704311 0.622583
0.681178 0.704585 0.622095
0.684413 0.704921 0.621668
0.687984 0.705287 0.621180
0.692012 0.705684 0.620752
0.696284 0.705135 0.621851
0.700618 0.704646 0.623224
0.704982 0.704250 0.624872
0.709438 0.703944 0.626642
0.713802 0.703731 0.628717
0.717922 0.703548 0.630793
0.721981 0.703334 0.632929
0.725673 0.703151 0.635065
0.729183 0.702876 0.637110
0.734585 0.705379 0.641199
0.744839 0.711116 0.642664
0.758236 0.716823 0.640711
0.771969 0.721401 0.639368
0.785916 0.725246 0.638819
0.800015 0.728664 0.639063
0.814359 0.731746 0.640101
0.682399 0.716640 0.647333
0.682582 0.716793 0.647517
0.682826 0.716915 0.647730
0.683070 0.716976 0.647669
0.683467 0.717037 0.647578
0.684047 0.717067 0.647486
0.684779 0.717159 0.647272
0.685725 0.717250 0.647028
0.686976 0.717464 0.646906
0.688472 0.717678 0.646723
0.690242 0.717922 0.646509
0.692348 0.718227 0.646265
0.694728 0.718563 0.646052
0.697353 0.718898 0.645716
0.700374 0.719203 0.645289
0.703670 0.719570 0.644862
0.707301 0.719631 0.645014
0.711116 0.719203 0.646052
0.714961 0.718898 0.647425
0.718898 0.718654 0.648951
0.722835 0.718471 0.650660
0.726711 0.718318 0.652461
0.730465 0.718166 0.654383
0.734066 0.718074 0.656306
0.737423 0.717952 0.658259
0.740658 0.717861 0.660243
0.745541 0.720058 0.663966
0.754452 0.725399 0.666560
0.767056 0.731350 0.665919
0.780087 0.736477 0.665949
0.793515 0.740993 0.666773
0.807218 0.745144 0.668391
0.696803 0.730129 0.669062
0.696895 0.730190 0.669154
0.697047 0.730220 0.669154
0.697292 0.730282 0.669154
0.697566 0.730282 0.669062
0.697993 0.730312 0.668879
0.698634 0.730404 0.668727
0.699428 0.730465 0.668513
0.700404 0.730587 0.668299
0.701656 0.730800 0.668177
0.703151 0.731014 0.667964
0.704860 0.731319 0.667811
0.706874 0.731594 0.667628
0.709102 0.731960 0.667445
0.711635 0.732265 0.667109
0.714443 0.732601 0.666773
0.717556 0.732967 0.666407
0.720912 0.732815 0.667048
0.724331 0.732540 0.668177
0.727932 0.732326 0.669581
0.731563 0.732204 0.671077
0.735134 0.732113 0.672694
0.738643 0.731991 0.674311
0.742031 0.731930 0.675990
0.745296 0.731838 0.677729
0.748409 0.731777 0.679561
0.751369 0.731777 0.681361
0.755734 0.733669 0.684718
0.763516 0.738582 0.688106
0.775662 0.744961 0.688685
0.788296 0.750576 0.689906
0.801389 0.755612 0.691737
0.709865 0.742763 0.688991
0.709957 0.742824 0.689082
0.710079 0.742885 0.689174
0.710323 0.742947 0.689204
0.710628 0.743038 0.689204
0.711116 0.743160 0.689235
0.711818 0.743435 0.689387
0.712734 0.743709 0.689570
0.713863 0.744106 0.689876
0.715206 0.744533 0.690211
0.716793 0.745052 0.690547
0.718502 0.745571 0.690852
0.720424 0.746120 0.691127
0.722530 0.746578 0.691310
0.724788 0.747066 0.691279
0.727199 0.747494 0.691188
0.729915 0.747860 0.691066
0.732845 0.748287 0.690974
0.735958 0.748074 0.692012
0.739223 0.747951 0.693202
0.742458 0.747860 0.694514
0.745785 0.747829 0.695949
0.748959 0.747768 0.697383
0.752163 0.747738 0.698909
0.755245 0.747707 0.700435
0.758236 0.747738 0.701991
0.761135 0.747768 0.703700
0.763882 0.747860 0.705470
0.767880 0.749599 0.708431
0.774472 0.753780 0.712276
0.786343 0.760525 0.713649
0.798672 0.766598 0.715846
0.724300 0.757137 0.711055
0.724331 0.757107 0.711086
0.724392 0.757137 0.711086
0.724514 0.757137 0.711025
0.724758 0.757137 0.710964
0.725093 0.757198 0.710872
0.725612 0.757259 0.710842
0.726223 0.757412 0.710811
0.727016 0.757626 0.710780
0.727993 0.757839 0.710780
0.729152 0.758114 0.710811
0.730495 0.758450 0.710903
0.732021 0.758816 0.710933
0.733761 0.759182 0.710903
