20 Preset/Rover Style/【3】LUT video cho PR-AE-FCPX/Rover 05.cube
# Created by Adobe Lightroom plugin Export LUT (1.24.0)
# www.johnrellis.com/lightroom/exportlut.htm
# Preset: Rover 05
# Color profile: E:\lut插件\exportlut.1.24\exportlut.lrplugin\color profiles\Rec709gamma2.4.icc
LUT_3D_SIZE 32
DOMAIN_MIN 0.0 0.0 0.0
DOMAIN_MAX 1.0 1.0 1.0
0.013092 0.027222 0.011841
0.014374 0.028199 0.011688
0.018921 0.029938 0.011353
0.029358 0.033173 0.012970
0.046357 0.037934 0.014252
0.064607 0.045838 0.017334
0.082734 0.052308 0.020569
0.095277 0.059113 0.022461
0.106966 0.065003 0.024353
0.121004 0.070314 0.026001
0.137758 0.075349 0.028382
0.158877 0.077119 0.031586
0.184909 0.075807 0.032959
0.216220 0.069459 0.035645
0.253758 0.053376 0.037201
0.298070 0.024720 0.038025
0.350011 0.000000 0.039124
0.410254 0.000000 0.037964
0.475868 0.000000 0.036286
0.543969 0.000000 0.034485
0.610468 0.000000 0.032166
0.671351 0.000000 0.028870
0.725704 0.000000 0.026398
0.785092 0.000000 0.024933
0.832609 0.000000 0.026276
0.870634 0.000000 0.035554
0.901823 0.047272 0.059663
0.927886 0.189242 0.092439
0.950652 0.261357 0.118166
0.970886 0.322118 0.151400
0.989014 0.376898 0.191379
1.000000 0.426612 0.238956
0.012940 0.030610 0.011383
0.014923 0.030365 0.011383
0.021149 0.031891 0.012177
0.030640 0.034150 0.012818
0.046632 0.040101 0.015076
0.063874 0.047028 0.017182
0.083528 0.053285 0.020386
0.095033 0.060304 0.022309
0.106172 0.066438 0.024201
0.119753 0.071962 0.027008
0.136507 0.076020 0.028412
0.157565 0.078035 0.030488
0.182681 0.077577 0.033051
0.213840 0.070710 0.035889
0.250614 0.056214 0.037507
0.294316 0.028351 0.038544
0.345586 0.000000 0.038605
0.405005 0.000000 0.038880
0.470314 0.000000 0.037537
0.537926 0.000000 0.035096
0.604150 0.000000 0.032288
0.665095 0.000000 0.028779
0.719997 0.000000 0.026917
0.778408 0.000000 0.024201
0.825772 0.000000 0.025940
0.864225 0.000000 0.033539
0.896178 0.000000 0.052125
0.922942 0.173007 0.087526
0.946349 0.248600 0.112673
0.967254 0.311498 0.143740
0.985931 0.367620 0.183993
1.000000 0.418402 0.230625
0.017975 0.038880 0.014679
0.017975 0.038880 0.014679
0.020935 0.039612 0.015656
0.033295 0.043854 0.014832
0.048005 0.048829 0.017243
0.066682 0.053346 0.019654
0.084230 0.059846 0.021759
0.096345 0.065431 0.023804
0.107515 0.070344 0.025849
0.120455 0.076112 0.027497
0.137667 0.078523 0.029053
0.158389 0.080507 0.031006
0.183444 0.079469 0.033692
0.214206 0.074861 0.035279
0.250889 0.060334 0.036866
0.293980 0.033387 0.037964
0.345129 0.000000 0.039033
0.404089 0.000000 0.038209
0.468818 0.000000 0.038056
0.536309 0.000000 0.035523
0.602564 0.000000 0.032593
0.663661 0.000000 0.028779
0.719081 0.000000 0.026551
0.776394 0.000000 0.024720
0.823178 0.000000 0.025147
0.861295 0.000000 0.031434
0.893309 0.000000 0.050752
0.920409 0.170718 0.084565
0.944091 0.246281 0.109743
0.965209 0.309087 0.141268
0.984070 0.365057 0.180362
1.000000 0.415930 0.226902
0.025360 0.056825 0.021118
0.025360 0.056825 0.021118
0.028321 0.057588 0.022095
0.032563 0.059327 0.022889
0.050141 0.064088 0.021912
0.070863 0.066224 0.022339
0.087892 0.070283 0.023590
0.098726 0.074678 0.024659
0.110109 0.078920 0.026703
0.123812 0.081483 0.028504
0.140414 0.083101 0.031189
0.161501 0.084077 0.032105
0.186587 0.084138 0.034485
0.217166 0.080446 0.036042
0.253422 0.068330 0.037476
0.296422 0.040711 0.038575
0.346715 0.000000 0.039490
0.404700 0.000000 0.038605
0.468177 0.000000 0.037293
0.534630 0.000000 0.034882
0.599695 0.000000 0.033173
0.660365 0.000000 0.029664
0.717311 0.000000 0.026947
0.772915 0.000000 0.024170
0.819577 0.000000 0.024872
0.858732 0.000000 0.029572
0.891478 0.015045 0.048035
0.919036 0.180423 0.083680
0.943023 0.253056 0.110170
0.964172 0.314244 0.141970
0.982940 0.368750 0.181338
0.999695 0.417823 0.226291
0.033967 0.077974 0.029358
0.033967 0.077974 0.029358
0.035981 0.077729 0.029358
0.042206 0.078828 0.030152
0.050416 0.079622 0.030945
0.070558 0.083803 0.029633
0.091707 0.084321 0.026612
0.102174 0.084932 0.027008
0.114015 0.086244 0.029328
0.127626 0.088350 0.031128
0.145113 0.089448 0.032502
0.166171 0.090211 0.034394
0.191531 0.089906 0.035584
0.222385 0.087526 0.036957
0.258701 0.079622 0.039185
0.302098 0.052827 0.039857
0.352941 0.007446 0.040192
0.410986 0.000000 0.039857
0.474006 0.000000 0.037873
0.539818 0.000000 0.035798
0.604181 0.000000 0.032990
0.663539 0.000000 0.029541
0.721340 0.000000 0.026398
0.774929 0.000000 0.023621
0.820615 0.000000 0.022522
0.858885 0.000000 0.028717
0.890990 0.104311 0.048371
0.918212 0.198550 0.084108
0.941772 0.265537 0.111788
0.962707 0.323339 0.144137
0.981384 0.375189 0.182803
0.998108 0.422705 0.227787
0.044862 0.090578 0.038422
0.044862 0.090578 0.038422
0.048127 0.090883 0.038270
0.053376 0.091066 0.038087
0.061585 0.091554 0.038880
0.072450 0.092317 0.041779
0.088380 0.095399 0.040162
0.105837 0.096559 0.033051
0.120363 0.094911 0.032685
0.135470 0.095430 0.033448
0.153506 0.096071 0.034760
0.175357 0.096986 0.036316
0.201511 0.096376 0.037263
0.233036 0.094118 0.038239
0.270787 0.088930 0.039796
0.314733 0.068605 0.040833
0.366339 0.021088 0.040314
0.425116 0.000000 0.039734
0.488350 0.000000 0.038483
0.552422 0.000000 0.036072
0.615045 0.000000 0.032563
0.673304 0.000000 0.027771
0.769314 0.000000 0.021515
0.818967 0.000000 0.020600
0.858640 0.000000 0.026307
0.890837 0.161227 0.049256
0.917235 0.230808 0.086519
0.939849 0.288273 0.113771
0.959747 0.339544 0.145846
0.977478 0.386084 0.183719
0.993378 0.428687 0.226291
1.000000 0.468116 0.272831
0.060609 0.102510 0.050324
0.060609 0.102510 0.050324
0.061891 0.102815 0.050172
0.067842 0.102602 0.050141
0.077089 0.102632 0.049958
0.085054 0.103578 0.052674
0.092287 0.105043 0.056245
0.103151 0.108949 0.057221
0.125368 0.111482 0.046479
0.149172 0.110140 0.039277
0.171908 0.106691 0.037110
0.195926 0.106874 0.038178
0.224369 0.106264 0.039307
0.258793 0.102998 0.040467
0.298558 0.096956 0.040894
0.344793 0.083162 0.041321
0.398169 0.033265 0.040925
0.457496 0.000000 0.039002
0.519677 0.000000 0.037018
0.583001 0.000000 0.034058
0.643885 0.000000 0.030121
0.707362 0.000000 0.024201
0.765530 0.000000 0.019928
0.814969 0.000000 0.016083
0.855314 0.111482 0.022614
0.887388 0.193668 0.044862
0.913756 0.253056 0.086397
0.936065 0.304601 0.113771
0.955810 0.351751 0.146792
0.973541 0.394537 0.183566
0.989471 0.435004 0.225956
1.000000 0.472816 0.271733
0.074189 0.114900 0.065675
0.074495 0.114900 0.064546
0.076478 0.114839 0.064546
0.080812 0.114656 0.064515
0.087007 0.114351 0.064485
0.092256 0.114839 0.066224
0.098787 0.116640 0.070588
0.106783 0.118441 0.075929
0.119570 0.122988 0.079591
0.146914 0.127474 0.064179
0.180301 0.127687 0.051026
0.209018 0.123354 0.044648
0.241917 0.117586 0.039368
0.276463 0.115358 0.040589
0.316838 0.110414 0.041016
0.363714 0.100496 0.041230
0.416999 0.077485 0.039307
0.475105 0.006683 0.037720
0.535576 0.000000 0.034607
0.596246 0.000000 0.031373
0.658869 0.000000 0.026398
0.718654 0.000000 0.019745
0.771908 0.000000 0.013519
0.817380 0.095796 0.011627
0.855222 0.173739 0.018280
0.886076 0.231907 0.042420
0.911406 0.282017 0.089235
0.933227 0.327428 0.117494
0.952758 0.370062 0.150607
0.970336 0.409674 0.188052
0.986236 0.447333 0.230716
1.000000 0.483009 0.276738
0.085023 0.129976 0.083986
0.086885 0.129641 0.083375
0.088014 0.129610 0.083375
0.090242 0.129458 0.083345
0.093935 0.129183 0.083314
0.099062 0.128573 0.082673
0.106355 0.129702 0.085481
0.115389 0.132113 0.089021
0.125704 0.134920 0.092714
0.140932 0.140658 0.097230
0.174289 0.147494 0.088045
0.215702 0.149599 0.072847
0.256260 0.145113 0.057862
0.297490 0.135439 0.046204
0.342412 0.127108 0.038727
0.389929 0.119142 0.038148
0.442786 0.106172 0.035950
0.498909 0.084352 0.033967
0.557427 0.020722 0.029816
0.619471 0.000000 0.024842
0.678950 0.000000 0.018067
0.732326 0.025269 0.011414
0.780697 0.121279 0.003693
0.822232 0.177035 0.003052
0.857298 0.227756 0.012421
0.886076 0.273564 0.045502
0.910277 0.315984 0.093935
0.931487 0.355840 0.123873
0.950469 0.394018 0.159579
0.967834 0.429816 0.197299
0.983520 0.464240 0.239750
0.997681 0.497261 0.285924
0.096315 0.147768 0.097475
0.096651 0.147555 0.097139
0.097688 0.147280 0.096803
0.099672 0.147127 0.096773
0.103395 0.146456 0.096498
0.108431 0.145480 0.095827
0.115053 0.144961 0.095796
0.125002 0.147494 0.098817
0.136294 0.150729 0.102785
0.149844 0.154696 0.108003
0.167025 0.161624 0.115663
0.206577 0.171939 0.104829
0.255772 0.176608 0.093996
0.311498 0.174075 0.078737
0.361975 0.163088 0.059693
0.418189 0.144930 0.039704
0.473274 0.135561 0.029511
0.529229 0.126101 0.025910
0.589960 0.118563 0.020203
0.647364 0.119265 0.013184
0.699580 0.134188 0.003571
0.746670 0.161563 0.000000
0.788876 0.195956 0.000000
0.825437 0.233860 0.000000
0.857023 0.272435 0.005402
0.883970 0.309911 0.045838
0.907134 0.346654 0.096712
0.927916 0.382208 0.130648
0.946960 0.416266 0.166293
0.964355 0.449470 0.206088
0.980163 0.481575 0.249668
0.994415 0.512810 0.296300
0.106874 0.168399 0.111330
0.107454 0.168368 0.111330
0.108278 0.168124 0.111360
0.110811 0.167788 0.111086
0.115206 0.167178 0.110506
0.120058 0.166323 0.109957
0.125887 0.165194 0.108827
0.135439 0.165835 0.110048
0.148196 0.169558 0.114748
0.162814 0.174197 0.119722
0.179751 0.179934 0.126436
0.201633 0.189395 0.135988
0.246555 0.203067 0.126070
0.305058 0.211337 0.112154
0.376043 0.212467 0.095735
0.438575 0.203861 0.078950
0.503105 0.188785 0.048371
0.566613 0.173068 0.018128
0.621729 0.176364 0.000000
0.671931 0.186831 0.000000
0.717922 0.204593 0.000000
0.759701 0.228428 0.000000
0.797482 0.257053 0.000000
0.830747 0.288212 0.000000
0.859556 0.320592 0.005280
0.884703 0.352514 0.057282
0.906615 0.383795 0.107668
0.926726 0.414466 0.142763
0.945159 0.444465 0.180941
0.962066 0.474250 0.221988
0.977691 0.503319 0.265293
0.991638 0.531914 0.312108
0.119448 0.194888 0.128634
0.119966 0.194858 0.128634
0.121492 0.194491 0.128176
0.124331 0.194034 0.127962
0.127718 0.193088 0.127352
0.133608 0.191989 0.126711
0.140261 0.190677 0.125551
0.147829 0.188632 0.124239
0.161135 0.192172 0.128115
0.177310 0.197604 0.133669
0.195956 0.204501 0.140749
0.217136 0.212284 0.149264
0.263066 0.240116 0.171054
0.323308 0.263798 0.162936
0.402106 0.281498 0.144167
0.487709 0.291905 0.120729
0.564599 0.293004 0.094789
0.625330 0.286534 0.051209
0.682063 0.278813 0.000000
0.728939 0.285985 0.000000
0.766873 0.305974 0.000000
0.799771 0.327642 0.000000
0.829068 0.351476 0.000000
0.855344 0.375799 0.000000
0.878447 0.400153 0.068116
0.899046 0.423529 0.115969
0.917754 0.446906 0.151003
0.935149 0.469825 0.185763
0.951202 0.493019 0.223270
0.966278 0.516503 0.262058
0.980072 0.540215 0.304784
0.992554 0.564477 0.349584
0.136812 0.233555 0.152224
0.137240 0.233524 0.152224
0.138949 0.232670 0.151614
0.141604 0.231632 0.150790
0.145785 0.230167 0.150027
0.151278 0.228153 0.148531
0.158785 0.225681 0.147066
0.166903 0.223362 0.145510
0.178164 0.223331 0.145449
0.197635 0.231113 0.152499
0.221012 0.241337 0.161501
0.248417 0.254063 0.172549
0.280705 0.269566 0.186404
0.321691 0.291447 0.203830
0.387488 0.321416 0.199496
0.469551 0.345068 0.177127
0.551965 0.360754 0.150668
0.627710 0.370825 0.116670
0.680171 0.368811 0.088808
0.728237 0.365423 0.015778
0.771817 0.361273 0.000000
0.803616 0.377081 0.000000
0.830564 0.396338 0.000000
0.854948 0.416449 0.003174
0.876829 0.436255 0.089723
0.896666 0.456306 0.130404
0.915068 0.476692 0.166567
0.932158 0.497169 0.202396
0.948119 0.517937 0.240085
0.963012 0.539330 0.280095
0.976684 0.560998 0.322911
0.989014 0.583276 0.367163
0.153475 0.277501 0.177157
0.153780 0.277317 0.177035
0.155154 0.275853 0.176059
0.158206 0.274907 0.175570
0.162509 0.272648 0.174228
0.169650 0.270115 0.172702
0.177279 0.267124 0.170535
0.186435 0.264042 0.168856
0.196963 0.260472 0.166476
0.213535 0.263737 0.169314
0.237888 0.275029 0.178531
0.267430 0.289128 0.190127
0.301640 0.305913 0.204044
0.339971 0.325139 0.220737
0.384771 0.349798 0.241154
0.448707 0.381750 0.241550
0.527916 0.408515 0.217716
0.601282 0.426764 0.190677
0.668238 0.439857 0.159854
0.720516 0.443549 0.130007
0.761746 0.441505 0.103365
0.799741 0.439277 0.050294
0.832639 0.441169 0.000000
0.856229 0.457313 0.036988
0.876860 0.473915 0.111971
0.895903 0.490822 0.151308
0.913603 0.508232 0.187320
0.930144 0.526024 0.224521
0.945769 0.544427 0.261997
0.960266 0.563592 0.302525
0.973754 0.583154 0.344152
0.985748 0.603510 0.387823
0.170901 0.328679 0.205234
0.171695 0.328099 0.204715
0.172946 0.326879 0.204074
0.176211 0.324773 0.202792
0.181430 0.322026 0.201358
0.187961 0.318273 0.198886
0.196414 0.314183 0.196384
0.206058 0.309789 0.193454
0.217411 0.305211 0.190707
0.228916 0.300237 0.187503
0.254002 0.310918 0.195895
0.284977 0.325780 0.207980
0.320623 0.342992 0.222293
0.359686 0.362341 0.239292
0.400793 0.383398 0.259007
0.446021 0.408484 0.281590
0.504326 0.440528 0.288823
0.575341 0.467933 0.265690
0.641230 0.486976 0.240574
0.700587 0.499794 0.213687
0.751400 0.506950 0.186252
0.788022 0.506126 0.169009
0.821775 0.504601 0.151766
0.852964 0.503105 0.133669
0.877348 0.509697 0.137301
0.895567 0.524193 0.175845
0.912657 0.539391 0.212772
0.928923 0.555200 0.249638
0.944121 0.571862 0.288670
0.958465 0.589441 0.329442
0.971588 0.607752 0.372045
0.983307 0.626947 0.415900
0.193668 0.379980 0.234684
0.194369 0.379736 0.234501
0.196201 0.378607 0.233768
0.199374 0.377173 0.233005
0.204562 0.374365 0.231174
0.211582 0.370977 0.228733
0.220676 0.367132 0.226108
0.231083 0.363134 0.223514
0.242924 0.357702 0.219760
0.255314 0.352392 0.216464
0.272129 0.350500 0.215518
0.304021 0.364782 0.227665
0.339178 0.380865 0.241825
0.376837 0.398596 0.258305
0.416632 0.417609 0.277073
0.456611 0.437629 0.298161
0.498726 0.461494 0.322179
0.550042 0.492195 0.336797
0.613397 0.518395 0.315770
0.672969 0.537011 0.294194
0.725795 0.549981 0.273075
0.773251 0.558587 0.251682
0.808988 0.560479 0.237583
0.839536 0.560143 0.227237
0.868223 0.559533 0.218357
0.895293 0.559289 0.211002
0.912932 0.570947 0.242313
0.928435 0.584833 0.280247
0.943084 0.599420 0.318914
0.956756 0.614710 0.358434
0.969177 0.630884 0.399390
0.980316 0.647974 0.441047
0.224613 0.430182 0.266361
0.224796 0.430091 0.266300
0.226841 0.429328 0.265904
0.229709 0.427497 0.264378
0.234440 0.425330 0.262974
0.241062 0.421790 0.260349
0.249088 0.417853 0.257267
0.259434 0.413245 0.253941
0.270512 0.408026 0.250278
0.282414 0.401617 0.245731
0.295171 0.394598 0.240970
0.319371 0.399786 0.246128
0.354589 0.415473 0.260319
0.392126 0.432258 0.276829
0.431067 0.450507 0.295933
0.470222 0.469459 0.316686
0.508202 0.489113 0.339574
0.545953 0.510918 0.365057
0.590478 0.539483 0.387091
0.647456 0.564294 0.369177
0.700587 0.582238 0.351995
0.747860 0.594720 0.336187
0.790524 0.603235 0.320745
0.826200 0.607507 0.308232
0.854368 0.608057 0.302464
0.881132 0.608728 0.298161
0.906889 0.609216 0.295384
0.928130 0.612970 0.311803
0.942199 0.625910 0.350530
0.955230 0.639673 0.389380
0.967102 0.654261 0.429053
0.977752 0.669825 0.469398
0.265354 0.480873 0.302403
0.266270 0.481239 0.302739
0.288304 0.501762 0.319005
0.290440 0.500267 0.317662
0.294224 0.497871 0.315648
0.299046 0.494209 0.312444
0.305608 0.489815 0.308782
0.313787 0.484810 0.304692
0.322667 0.478614 0.299229
0.333074 0.471931 0.293828
0.343786 0.463996 0.287388
0.354925 0.454871 0.280186
0.388647 0.467750 0.293706
0.425818 0.483223 0.310887
0.462928 0.499001 0.329686
0.499733 0.515618 0.350408
0.534661 0.532464 0.372869
0.567712 0.549737 0.396124
0.599359 0.568017 0.421210
0.635950 0.592950 0.448341
0.684840 0.614618 0.433875
0.729793 0.630060 0.420813
0.770809 0.640833 0.408942
0.808103 0.648066 0.397589
0.842618 0.652827 0.385870
0.869047 0.653620 0.381170
0.893706 0.653803 0.378363
0.917540 0.654108 0.377874
0.940124 0.653681 0.387396
0.953826 0.663630 0.420783
0.965026 0.676661 0.458869
0.974975 0.690883 0.498085
0.318883 0.532708 0.345342
0.321233 0.534295 0.346899
0.324651 0.535576 0.348211
0.328527 0.536004 0.348363
0.332769 0.535271 0.347753
0.337530 0.532952 0.345464
0.342412 0.528832 0.341466
0.348486 0.524041 0.336828
0.355779 0.518547 0.331731
0.364324 0.512230 0.325902
0.373266 0.504845 0.319432
0.382300 0.495827 0.311131
0.398871 0.492836 0.309606
0.434516 0.506859 0.326146
0.470680 0.522026 0.345037
0.506218 0.537469 0.365301
0.540002 0.553429 0.387060
0.572564 0.570031 0.410101
0.603784 0.587243 0.434730
0.632746 0.604730 0.460487
0.664057 0.627436 0.492134
0.707576 0.648157 0.482979
0.747799 0.662928 0.474037
0.784848 0.673335 0.465492
0.819089 0.680751 0.457313
0.851560 0.686061 0.449500
0.879210 0.688594 0.445014
0.902678 0.689540 0.445624
0.925109 0.690852 0.448585
0.946166 0.691524 0.461067
0.962463 0.696681 0.485786
0.971984 0.709743 0.523583
0.364080 0.570245 0.381048
0.366003 0.571618 0.382238
0.369390 0.572747 0.383459
0.372961 0.573388 0.384192
0.376593 0.572869 0.383520
0.380102 0.570550 0.381079
0.383917 0.567224 0.377539
0.388647 0.562799 0.372778
0.394354 0.557855 0.367834
0.400549 0.551781 0.361517
0.407416 0.544671 0.354101
0.415106 0.536736 0.346441
0.422217 0.527459 0.337133
0.446967 0.532250 0.344427
0.481636 0.546258 0.362860
0.515160 0.560693 0.382635
0.548302 0.575891 0.404120
0.579675 0.591424 0.426520
0.609613 0.607172 0.450111
0.637568 0.623102 0.475013
0.663447 0.639033 0.500847
0.690913 0.659663 0.532586
0.727535 0.678553 0.530785
0.763485 0.692500 0.524712
0.797360 0.702876 0.519188
0.829496 0.710628 0.513817
0.859953 0.716243 0.508995
0.888884 0.720211 0.505150
0.910765 0.722164 0.508873
0.931823 0.724178 0.514977
0.951019 0.726162 0.530632
0.968841 0.728450 0.549462
0.409552 0.605524 0.417212
0.411505 0.606897 0.418860
0.413794 0.607660 0.419440
0.416541 0.608057 0.419837
0.419928 0.607691 0.419562
0.422248 0.605615 0.417151
0.425299 0.602716 0.413733
0.428809 0.599084 0.409613
0.432898 0.594110 0.404181
0.437720 0.588769 0.398291
0.443336 0.582513 0.391241
0.449104 0.575341 0.383398
0.454749 0.566644 0.373816
0.460670 0.557122 0.363806
0.492988 0.569940 0.381384
0.525689 0.583764 0.401160
0.557763 0.598444 0.422492
0.588647 0.613306 0.445136
0.618158 0.628534 0.469306
0.645899 0.644099 0.494850
0.671656 0.659693 0.521386
0.695033 0.675044 0.547997
0.718929 0.693660 0.577752
0.749996 0.711299 0.582940
0.782773 0.725307 0.580438
0.813931 0.735958 0.578119
0.843778 0.744137 0.576318
0.872374 0.750362 0.575433
0.899535 0.755093 0.575433
0.921721 0.758328 0.580255
0.940764 0.761257 0.588678
0.957641 0.764309 0.605982
0.465187 0.645655 0.463844
0.466011 0.646113 0.464393
0.466773 0.646052 0.464302
0.467933 0.645594 0.463722
0.468879 0.644221 0.461921
0.469917 0.641962 0.458961
0.471473 0.639307 0.455421
0.473610 0.635920 0.451240
0.476356 0.631952 0.446235
0.479561 0.627375 0.440253
0.483619 0.621729 0.433265
0.487984 0.615595 0.425696
0.492348 0.608270 0.416876
0.496773 0.599420 0.406378
0.510216 0.597162 0.405127
0.541070 0.609857 0.424384
0.571069 0.622797 0.445014
0.599939 0.636133 0.466896
0.627527 0.649500 0.489845
0.653651 0.663142 0.513909
0.677455 0.676692 0.538354
0.699580 0.690394 0.562951
0.719600 0.703731 0.587060
0.740261 0.719631 0.613336
0.766934 0.735897 0.621942
0.797086 0.749447 0.620813
0.826322 0.760159 0.620600
0.854490 0.768673 0.621118
0.881315 0.775418 0.622675
0.906432 0.780789 0.625238
0.928985 0.785031 0.629603
0.946197 0.788571 0.640681
0.506218 0.673640 0.500267
0.506889 0.673945 0.500694
0.507591 0.673884 0.500633
0.508202 0.673274 0.499702
0.509056 0.672328 0.498360
0.509545 0.670649 0.495827
0.510369 0.668086 0.492195
0.511681 0.665278 0.488045
0.513481 0.661952 0.483436
0.515648 0.657893 0.477638
0.518517 0.653468 0.471504
0.521538 0.648157 0.464210
0.524620 0.641657 0.455329
0.528130 0.634455 0.445716
0.531548 0.625910 0.434516
0.552697 0.631037 0.443885
0.581567 0.643183 0.464454
0.609277 0.655390 0.486061
0.635798 0.667903 0.508690
0.660670 0.680537 0.532128
0.683772 0.693111 0.555688
0.705104 0.705715 0.579095
0.724544 0.718196 0.602075
0.742611 0.730648 0.624384
0.758694 0.742061 0.643427
0.782315 0.757412 0.654871
0.810666 0.770871 0.655482
0.838285 0.781704 0.656764
0.864561 0.790494 0.659266
0.889616 0.797665 0.662715
0.913054 0.803647 0.667323
0.934844 0.808804 0.672816
0.551293 0.702632 0.541924
0.552148 0.703120 0.542657
0.552605 0.703029 0.542412
0.552667 0.702327 0.541314
0.552239 0.700954 0.539117
0.551995 0.699001 0.536156
0.551293 0.696529 0.532219
0.550866 0.693477 0.527398
0.551049 0.690120 0.522240
0.551568 0.686183 0.516136
0.551965 0.681544 0.508721
0.553124 0.676417 0.500847
0.554498 0.670558 0.492012
0.556359 0.663905 0.482246
0.557916 0.655909 0.470649
0.560876 0.647913 0.459510
0.587793 0.658564 0.478828
0.614252 0.669703 0.499428
0.639734 0.681239 0.521477
0.663966 0.693111 0.544366
0.686519 0.705104 0.567224
0.707301 0.716945 0.589746
0.726497 0.728695 0.611688
0.744198 0.740230 0.632563
0.760525 0.751583 0.652522
0.777737 0.764767 0.673365
0.798428 0.778958 0.686946
0.824826 0.791897 0.688411
0.850462 0.802487 0.691127
0.874846 0.811276 0.694942
0.897978 0.818753 0.699977
0.919615 0.825254 0.706172
0.582208 0.723201 0.572076
0.583062 0.723629 0.572747
0.583642 0.723751 0.572930
0.583703 0.723201 0.571984
0.583856 0.722347 0.570550
0.583703 0.720974 0.568200
0.583825 0.719234 0.565484
0.584039 0.717098 0.561944
0.584497 0.714656 0.557855
0.584985 0.711574 0.552728
0.585718 0.708125 0.547143
0.586481 0.704036 0.540398
0.587304 0.699153 0.532311
0.588067 0.693446 0.523003
0.588708 0.686824 0.512261
0.589624 0.679225 0.500206
0.600092 0.677943 0.499702
0.625025 0.687953 0.519707
0.649104 0.698543 0.540826
0.672084 0.709468 0.562554
0.693629 0.720485 0.584436
0.713710 0.731746 0.605890
0.732448 0.743038 0.627008
0.750027 0.754238 0.647272
0.766354 0.765225 0.666468
0.781735 0.776059 0.685084
0.797848 0.788510 0.704799
0.816251 0.801816 0.720333
0.840787 0.814450 0.723629
0.864378 0.824918 0.727962
0.886748 0.833829 0.733364
0.907805 0.841520 0.739803
0.614771 0.745724 0.605646
0.614954 0.745815 0.605676
0.615351 0.745785 0.605676
0.615137 0.745235 0.604608
0.615137 0.744381 0.603265
0.614954 0.743191 0.601312
0.614954 0.741665 0.598810
0.614832 0.739681 0.595544
0.614862 0.737392 0.591638
0.614923 0.734676 0.587030
0.615076 0.731441 0.581567
0.615534 0.727901 0.575525
0.615839 0.723751 0.568322
0.616327 0.718990 0.560204
0.616571 0.713344 0.550622
0.616663 0.706722 0.539178
0.617151 0.699519 0.527062
0.634638 0.704341 0.537987
0.657435 0.714107 0.558221
0.679255 0.724239 0.578912
0.700069 0.734737 0.599908
0.719509 0.745388 0.620417
0.737758 0.756100 0.640375
0.754910 0.766751 0.659663
0.770993 0.777279 0.678279
0.786191 0.787594 0.696284
0.800595 0.797635 0.713741
0.815579 0.809018 0.732021
0.831662 0.821195 0.748898
0.854582 0.833585 0.753475
0.876402 0.844053 0.759182
0.897032 0.853025 0.765774
0.641779 0.766262 0.635035
0.642084 0.766445 0.635309
0.642206 0.766415 0.635157
0.642298 0.766018 0.634485
0.642512 0.765469 0.633631
0.642695 0.764706 0.632227
0.643458 0.763943 0.630945
0.644312 0.762875 0.629084
0.645411 0.761746 0.627008
0.646693 0.760281 0.624445
0.648157 0.758572 0.621454
0.649439 0.756283 0.617365
0.650721 0.753506 0.612451
0.651575 0.749874 0.606104
0.652033 0.745480 0.598230
0.652399 0.740230 0.589105
0.652491 0.734218 0.578485
0.654536 0.728847 0.569085
0.675868 0.738064 0.588586
0.696254 0.747677 0.608209
0.715663 0.757626 0.627802
0.734188 0.767788 0.647303
0.751522 0.777890 0.666011
0.768002 0.787930 0.684260
0.783566 0.797696 0.701930
0.798337 0.807218 0.719112
0.812375 0.816464 0.735775
0.825437 0.825437 0.751888
0.838926 0.835386 0.768246
0.852384 0.846006 0.785153
0.872892 0.857542 0.790555
0.892485 0.867460 0.796902
0.674403 0.793149 0.672663
0.674372 0.793118 0.672541
0.674342 0.792813 0.672084
0.674189 0.792386 0.671321
0.674159 0.791745 0.670314
0.674006 0.790860 0.668879
0.673976 0.789639 0.666835
0.673976 0.788266 0.664576
0.674311 0.786740 0.662074
0.674464 0.784756 0.658747
0.674891 0.782620 0.655085
0.675349 0.780087 0.650782
0.675837 0.777188 0.645869
0.676143 0.773739 0.639857
