20 Preset/Rover Style/【3】LUT video cho PR-AE-FCPX/Rover 02.cube
# Created by Adobe Lightroom plugin Export LUT (1.24.0)
# www.johnrellis.com/lightroom/exportlut.htm
# Preset: Rover 02
# Color profile: E:\lut插件\exportlut.1.24\exportlut.lrplugin\color profiles\Rec709gamma2.4.icc
LUT_3D_SIZE 8
DOMAIN_MIN 0.000000 0.000000 0.000000
DOMAIN_MAX 0.903226 0.903226 0.903226
0.053346 0.037018 0.052613
0.089845 0.046143 0.060639
0.150912 0.067262 0.078645
0.292790 0.044831 0.083284
0.507591 0.000000 0.078218
0.712673 0.000000 0.084443
0.846159 0.221897 0.115602
0.928832 0.363531 0.181704
0.077394 0.072541 0.079316
0.090974 0.079011 0.084749
0.162356 0.093477 0.084169
0.307256 0.093446 0.086610
0.519768 0.028565 0.083253
0.717556 0.115541 0.091554
0.846921 0.251926 0.122835
0.927886 0.380926 0.189090
0.098299 0.140871 0.117494
0.113588 0.144533 0.121492
0.164889 0.162325 0.143709
0.358282 0.213230 0.114290
0.567376 0.223758 0.101198
0.737881 0.271641 0.117586
0.851804 0.354742 0.156710
0.925383 0.447425 0.224826
0.141878 0.290837 0.203616
0.165255 0.293980 0.207309
0.240848 0.308537 0.224369
0.349248 0.343359 0.268681
0.597681 0.437201 0.237949
0.760555 0.451270 0.178622
0.853788 0.492439 0.225284
0.918883 0.545159 0.294957
0.282200 0.477974 0.318395
0.300694 0.479652 0.321141
0.367468 0.487068 0.333501
0.467231 0.504601 0.362768
0.569726 0.537499 0.416480
0.722683 0.611292 0.415412
0.837797 0.633722 0.381659
0.908415 0.649622 0.400336
0.473213 0.626581 0.448096
0.482948 0.627527 0.450385
0.519707 0.630488 0.459724
0.577356 0.637140 0.478035
0.645533 0.653742 0.517784
0.704982 0.678035 0.574487
0.786313 0.725978 0.603632
0.873716 0.753292 0.597101
0.624292 0.733364 0.596887
0.628534 0.733669 0.598535
0.644953 0.734951 0.604913
0.673274 0.737697 0.617548
0.708827 0.743038 0.637476
0.747921 0.756588 0.675807
0.781582 0.773678 0.717067
0.831662 0.807126 0.750240
0.723262 0.812955 0.731289
0.725154 0.813138 0.732113
0.733181 0.814054 0.735897
0.748135 0.816037 0.743435
0.768368 0.819089 0.754360
0.794003 0.825803 0.773800
0.820798 0.836362 0.800290
0.844083 0.848325 0.826200
0.062684 0.047272 0.081636
0.089509 0.055329 0.086152
0.152834 0.069551 0.093935
0.294682 0.062501 0.104158
0.507012 0.000000 0.110109
0.709041 0.050111 0.123110
0.842374 0.233127 0.150149
0.925902 0.369268 0.205570
0.079500 0.080262 0.091524
0.096010 0.087251 0.095979
0.164340 0.097108 0.102510
0.308873 0.101259 0.108583
0.519158 0.080140 0.114382
0.714565 0.137057 0.128115
0.843717 0.260807 0.156497
0.925109 0.385962 0.212802
0.105135 0.150118 0.134249
0.120882 0.155856 0.138827
0.174075 0.172671 0.160128
0.360754 0.213352 0.134371
0.564965 0.228977 0.134371
0.734463 0.277043 0.151492
0.848447 0.358465 0.184146
0.922667 0.450141 0.244450
0.154482 0.299413 0.220371
0.175479 0.303319 0.223178
0.250553 0.316716 0.238834
0.357153 0.349859 0.280766
0.600549 0.438788 0.251377
0.757107 0.450813 0.203799
0.850828 0.492897 0.244938
0.916564 0.546166 0.309453
0.292271 0.483223 0.329717
0.310826 0.484840 0.332525
0.375738 0.491554 0.344030
0.472816 0.507988 0.371649
0.572625 0.540246 0.423926
0.723873 0.612238 0.421576
0.836881 0.633051 0.389807
0.906615 0.649958 0.410834
0.478309 0.628626 0.455482
0.487648 0.629389 0.457740
0.523400 0.632288 0.466590
0.579980 0.638788 0.484504
0.646967 0.654932 0.523125
0.705653 0.679072 0.578790
0.786618 0.726589 0.606683
0.873075 0.753170 0.600702
0.625940 0.733913 0.601007
0.629999 0.734157 0.602472
0.646235 0.735348 0.608698
0.674250 0.738186 0.621118
0.709255 0.743374 0.640131
0.748135 0.756893 0.677882
0.781704 0.773922 0.718624
0.831937 0.807340 0.751034
0.723323 0.813077 0.732662
0.725307 0.813321 0.733577
0.733333 0.814237 0.737301
0.748226 0.816220 0.744747
0.768734 0.819516 0.756008
0.794156 0.826047 0.774807
0.820920 0.836515 0.801022
0.844205 0.848478 0.826780
0.075074 0.073243 0.121798
0.091341 0.079011 0.126345
0.151705 0.091890 0.148257
0.311803 0.084291 0.176150
0.507286 0.000000 0.178744
0.703090 0.121004 0.204379
0.834928 0.257450 0.233005
0.918791 0.384344 0.275151
0.088624 0.098146 0.137819
0.100923 0.100923 0.143618
0.165713 0.114931 0.163607
0.321721 0.115602 0.182986
0.519066 0.102785 0.188724
0.708034 0.169467 0.212253
0.836271 0.282048 0.237797
0.918059 0.400031 0.281193
0.104158 0.169436 0.183047
0.125460 0.176364 0.188327
0.204654 0.205600 0.211093
0.366064 0.218143 0.211002
0.561547 0.239414 0.218967
0.727382 0.290257 0.235264
0.840909 0.370245 0.261326
0.915709 0.459846 0.306981
0.168582 0.321080 0.266636
0.194614 0.327184 0.271427
0.280583 0.348333 0.288670
0.387884 0.375708 0.322454
0.607263 0.436225 0.294713
0.749783 0.453681 0.282170
0.843931 0.498238 0.311803
0.910033 0.551812 0.362646
0.322179 0.497658 0.368688
0.340642 0.500481 0.372045
0.404944 0.511101 0.384222
0.494697 0.523400 0.405615
0.586542 0.553460 0.454170
0.730892 0.618250 0.448859
0.836118 0.630793 0.418097
0.900664 0.652735 0.451850
0.497047 0.635950 0.485115
0.506737 0.637293 0.487953
0.539422 0.641627 0.496132
0.592309 0.647395 0.512291
0.654139 0.661006 0.544976
0.709224 0.684138 0.596979
0.788968 0.729732 0.619715
0.871489 0.753292 0.615930
0.633936 0.736843 0.619104
0.638758 0.737392 0.621241
0.652613 0.738888 0.625727
0.679255 0.741512 0.636774
0.712398 0.746304 0.653407
0.749905 0.759121 0.687434
0.782864 0.776059 0.726345
0.833829 0.809354 0.756161
0.725582 0.814450 0.740566
0.726558 0.814755 0.740536
0.734401 0.815671 0.743984
0.749264 0.817624 0.751095
0.769772 0.820859 0.761746
0.794644 0.826871 0.778714
0.821530 0.837369 0.804196
0.844877 0.849363 0.829404
0.021820 0.096986 0.212284
0.064424 0.100740 0.218570
0.162112 0.117067 0.243259
0.310246 0.146853 0.280888
0.535393 0.173922 0.327123
0.708705 0.156710 0.316899
0.823209 0.257725 0.321569
0.907439 0.392920 0.360204
0.054566 0.122652 0.232242
0.095613 0.126772 0.237369
0.178714 0.144656 0.258335
0.324132 0.175143 0.292332
0.543542 0.200931 0.333379
0.710506 0.188937 0.319524
0.824491 0.285771 0.328649
0.906676 0.409735 0.366369
0.113466 0.204593 0.272923
0.138888 0.211307 0.277958
0.224338 0.235813 0.300420
0.369818 0.270390 0.329931
0.568597 0.287663 0.351110
0.714137 0.299260 0.336400
0.828122 0.381323 0.357122
0.904082 0.469306 0.390967
0.180453 0.345525 0.338109
0.206577 0.351263 0.341650
0.297826 0.374792 0.357488
0.439734 0.419684 0.388647
0.606958 0.428809 0.380804
0.735348 0.458930 0.385809
0.830808 0.504112 0.403326
0.898772 0.557275 0.437293
0.341466 0.518761 0.428260
0.360693 0.521508 0.431037
0.429755 0.533013 0.442878
0.527733 0.552972 0.466041
0.608667 0.575616 0.502678
0.739834 0.619898 0.489418
0.829984 0.627741 0.477119
0.890379 0.655695 0.513298
0.513512 0.647211 0.529717
0.522362 0.648676 0.532067
0.556878 0.653742 0.541131
0.610590 0.662959 0.558862
0.665400 0.671901 0.581537
0.715572 0.693233 0.626734
0.794644 0.734768 0.640497
0.871183 0.751339 0.635767
0.635676 0.740963 0.641627
0.640284 0.741482 0.643458
0.658473 0.743801 0.651026
0.686091 0.747982 0.662806
0.717708 0.752438 0.676967
0.752804 0.763180 0.703517
0.785183 0.779873 0.739620
0.837858 0.812711 0.764431
0.722133 0.816190 0.748836
0.724636 0.816556 0.750057
0.734829 0.817960 0.755154
0.750179 0.820371 0.762051
0.770901 0.823453 0.771878
0.795041 0.828305 0.785183
0.822507 0.838834 0.809720
0.846189 0.851011 0.834134
0.000000 0.136843 0.340551
0.000000 0.141817 0.345373
0.178958 0.162234 0.364416
0.342931 0.200381 0.399023
0.531884 0.248203 0.434333
0.707332 0.335485 0.480995
0.825528 0.364080 0.479591
0.898314 0.415839 0.468330
0.000000 0.166812 0.354803
0.087007 0.171450 0.358892
0.200473 0.190646 0.375799
0.357214 0.227146 0.407385
0.539635 0.273411 0.441108
0.708186 0.356390 0.485573
0.824338 0.379644 0.481941
0.897093 0.426429 0.469825
0.150362 0.258396 0.387945
0.175875 0.263523 0.392187
0.258915 0.280461 0.407721
0.401007 0.315709 0.434302
0.565393 0.360845 0.465309
0.712734 0.422156 0.501244
0.819852 0.434241 0.490639
0.890013 0.472084 0.480018
0.231052 0.381598 0.431434
0.253666 0.386633 0.434363
0.335241 0.406653 0.446448
0.463722 0.445533 0.475776
0.599115 0.485481 0.506218
0.722744 0.508415 0.523308
0.815640 0.506523 0.499245
0.882780 0.558495 0.517601
0.368750 0.531090 0.496895
0.384894 0.534112 0.499275
0.445563 0.546471 0.509453
0.537133 0.569635 0.529747
0.634760 0.603723 0.561578
0.734127 0.608911 0.553979
0.813382 0.625696 0.557946
0.877501 0.653193 0.576684
0.519463 0.659266 0.585565
0.528038 0.660761 0.587579
0.561425 0.665766 0.594507
0.614954 0.673915 0.606256
0.677089 0.688533 0.629419
0.723354 0.704707 0.661219
0.803098 0.735805 0.662379
0.871641 0.743893 0.657923
0.633326 0.746670 0.673243
0.637415 0.747127 0.674159
0.653376 0.749020 0.678279
0.683742 0.753536 0.688594
0.720943 0.760830 0.704768
0.755062 0.768124 0.722469
0.788266 0.784878 0.756344
0.844938 0.816403 0.773709
0.709987 0.818326 0.758633
0.712856 0.818601 0.759609
0.724331 0.819944 0.764126
0.745266 0.822904 0.773220
0.770352 0.827176 0.784726
0.795651 0.831662 0.796506
0.823239 0.840696 0.816648
0.847959 0.853208 0.840482
0.000000 0.203769 0.477089
0.085756 0.208713 0.480354
0.227604 0.228916 0.493782
0.386603 0.266300 0.518456
0.564477 0.325841 0.553246
0.700160 0.393896 0.580591
0.801358 0.490059 0.617945
0.875700 0.542992 0.633112
0.095521 0.231083 0.485389
0.139162 0.235630 0.488258
0.249851 0.254032 0.500175
0.399390 0.289525 0.523278
0.570031 0.346777 0.557061
0.701259 0.411261 0.584100
0.799985 0.501915 0.620569
0.874632 0.549889 0.634577
0.218265 0.320836 0.508415
0.233951 0.321935 0.511345
0.313664 0.337194 0.521904
0.441657 0.369299 0.541985
0.588769 0.420783 0.572900
0.705745 0.474311 0.599268
0.795590 0.546471 0.632715
0.869322 0.578027 0.641413
0.302403 0.428992 0.532494
0.321874 0.433906 0.535668
0.395666 0.454200 0.549157
0.498421 0.482673 0.571740
0.613764 0.522759 0.600000
0.712490 0.562341 0.626093
0.789517 0.612421 0.655543
0.862394 0.619226 0.651362
0.415625 0.554345 0.580804
0.428351 0.556847 0.582544
0.476081 0.566796 0.589837
0.550195 0.585412 0.603967
0.640009 0.617029 0.632807
0.720333 0.647211 0.659571
0.792935 0.662348 0.672663
0.860258 0.656733 0.653437
0.532372 0.662989 0.640620
0.539788 0.664332 0.642023
0.568688 0.669795 0.647547
0.617121 0.680385 0.658320
0.674647 0.696681 0.675380
0.733669 0.719753 0.700649
0.799619 0.723110 0.695277
0.861112 0.734554 0.699977
0.632105 0.752163 0.713741
0.636072 0.752895 0.714778
0.652125 0.755673 0.718807
0.680598 0.761624 0.727108
0.716457 0.768490 0.736233
0.758358 0.778408 0.752041
0.793057 0.792020 0.777432
0.855131 0.817716 0.784726
0.706142 0.823117 0.784146
0.708339 0.823331 0.784482
0.717250 0.824369 0.786191
0.734463 0.826566 0.789883
0.761593 0.830533 0.797787
0.795346 0.836820 0.811887
0.823575 0.843198 0.825711
0.850675 0.856535 0.849302
0.206088 0.298802 0.622248
0.237003 0.304417 0.625666
0.330724 0.322698 0.633692
0.463874 0.359411 0.649897
0.601617 0.416480 0.671839
0.715999 0.492195 0.697780
0.792538 0.548516 0.711116
0.845762 0.619745 0.728969
0.227176 0.315770 0.620020
0.255314 0.321386 0.623774
0.340673 0.338231 0.631708
0.465675 0.371466 0.646418
0.598627 0.424475 0.667597
0.711421 0.494942 0.692683
0.787991 0.547265 0.705409
0.842130 0.615930 0.723140
0.306767 0.391638 0.636286
0.324834 0.395087 0.637964
0.391394 0.408698 0.643915
0.496864 0.436927 0.656733
0.610590 0.480934 0.674983
0.713283 0.539879 0.699519
0.786526 0.586816 0.714900
0.840574 0.646571 0.735622
0.391791 0.493263 0.652766
0.406287 0.496223 0.654322
0.460578 0.509209 0.661036
0.538964 0.529595 0.674342
0.631220 0.562829 0.691310
0.719173 0.608728 0.714748
0.784787 0.644190 0.730953
0.838010 0.685786 0.751492
0.455451 0.581353 0.668666
0.462898 0.581689 0.668177
0.497261 0.586572 0.670375
0.564477 0.603967 0.682887
0.646052 0.632837 0.703365
0.720607 0.665339 0.725368
0.781704 0.691920 0.743954
0.837339 0.725032 0.768490
0.545953 0.672877 0.704768
0.552270 0.674037 0.705623
0.575677 0.678065 0.708492
0.616175 0.686030 0.714290
0.667109 0.698238 0.723598
0.730007 0.723690 0.748226
0.788388 0.747768 0.771695
0.844724 0.758267 0.782223
0.631800 0.750729 0.749996
0.635981 0.751827 0.751217
0.649653 0.754238 0.753597
0.675257 0.759640 0.759121
0.709194 0.767880 0.767391
0.751003 0.780575 0.780545
0.798367 0.799802 0.800870
0.852995 0.804074 0.799527
0.699397 0.823911 0.809445
0.701869 0.824430 0.810056
0.713161 0.827146 0.813413
0.731868 0.830808 0.817899
0.757839 0.836027 0.824186
0.788540 0.841550 0.830564
0.824277 0.849119 0.841611
0.854215 0.860777 0.860472
0.384924 0.419135 0.744686
0.401221 0.423743 0.746090
0.455634 0.437446 0.748623
0.542596 0.469093 0.756130
0.636164 0.515099 0.766781
0.721248 0.571801 0.780270
0.790768 0.631098 0.795468
0.842252 0.668330 0.803311
0.390997 0.429358 0.742580
0.406958 0.433814 0.744045
0.459846 0.447883 0.747250
0.543725 0.477150 0.754330
0.635370 0.520989 0.765072
0.719936 0.575525 0.778653
0.788998 0.632380 0.793606
0.840421 0.668330 0.801297
0.425086 0.477790 0.744656
0.437293 0.480842 0.745602
0.482460 0.492073 0.748318
0.559136 0.519768 0.757137
0.641749 0.555596 0.766751
0.720394 0.601556 0.779538
0.787747 0.652094 0.795438
0.838437 0.683040 0.803616
0.469306 0.546838 0.747738
0.481483 0.550469 0.749111
0.513939 0.556878 0.753017
0.577508 0.576867 0.760311
0.651514 0.606500 0.770779
0.723568 0.644160 0.784360
0.788052 0.686030 0.801907
0.837308 0.710079 0.810605
0.485878 0.604944 0.750149
0.494759 0.606867 0.751461
0.524834 0.611963 0.754299
0.589807 0.631647 0.762783
0.657069 0.655085 0.774411
0.723537 0.683894 0.788632
0.786160 0.718105 0.807553
0.836790 0.741634 0.819669
0.549920 0.682338 0.768612
0.553155 0.682094 0.768215
0.569268 0.682460 0.767697
0.601617 0.685603 0.768917
0.653590 0.696986 0.776822
0.724880 0.726802 0.798062
0.788998 0.759060 0.820279
0.841123 0.783444 0.836393
0.627680 0.757961 0.800168
0.630121 0.758145 0.800229
0.641077 0.759091 0.800687
0.662989 0.762203 0.802884
0.694484 0.767514 0.806821
0.735073 0.776455 0.813779
0.792660 0.799283 0.833341
0.844755 0.820798 0.850614
0.697902 0.822324 0.835843
0.699611 0.822477 0.835935
0.707454 0.823667 0.836851
0.723659 0.826627 0.839384
0.747219 0.831235 0.843229
0.777584 0.837827 0.848814
0.814176 0.847776 0.857633
0.855985 0.863218 0.871946
