20 Preset/Rover Style/【3】LUT video cho PR-AE-FCPX/Rover Contrast _.cube
# Created by Adobe Lightroom plugin Export LUT (1.24.0)
# www.johnrellis.com/lightroom/exportlut.htm
# Preset: Rover Contrast +
# Color profile: E:\lut插件\exportlut.1.24\exportlut.lrplugin\color profiles\Rec709gamma2.4.icc
LUT_3D_SIZE 32
DOMAIN_MIN 0.0 0.0 0.0
DOMAIN_MAX 1.0 1.0 1.0
0.000000 0.000000 0.000000
0.009216 0.000092 0.000000
0.039857 0.001099 0.000214
0.094179 0.000000 0.000122
0.125582 0.000824 0.000092
0.156710 0.001312 0.000397
0.188235 0.000305 0.000000
0.219913 0.000824 0.000305
0.251560 0.000000 0.000000
0.283482 0.000000 0.000000
0.315251 0.000000 0.000397
0.347143 0.000214 0.000000
0.379095 0.000000 0.000000
0.411322 0.000000 0.000000
0.443549 0.000000 0.000000
0.475837 0.000000 0.000000
0.508385 0.000000 0.000000
0.540917 0.000000 0.000000
0.573602 0.000000 0.000000
0.606470 0.000000 0.000000
0.639399 0.000000 0.000000
0.672511 0.000000 0.000000
0.705745 0.000000 0.000000
0.739071 0.000000 0.000000
0.772610 0.000000 0.000000
0.806180 0.000000 0.000000
0.839902 0.000000 0.000000
0.873442 0.000000 0.000000
0.906798 0.000000 0.000000
0.939879 0.000000 0.000000
0.972839 0.000000 0.000000
1.000000 0.000000 0.000000
0.000000 0.008942 0.000000
0.007935 0.008057 0.000000
0.040528 0.008850 0.000275
0.094423 0.007568 0.000183
0.125917 0.007385 0.000305
0.156954 0.007843 0.000610
0.188327 0.008057 0.000000
0.220066 0.007355 0.000519
0.251560 0.008148 0.000000
0.283330 0.008362 0.000000
0.315160 0.007691 0.000458
0.347112 0.006989 0.000000
0.379126 0.006928 0.000000
0.411322 0.008118 0.000000
0.443549 0.007111 0.000000
0.475807 0.005890 0.000000
0.508324 0.005524 0.000000
0.540887 0.004273 0.000000
0.573663 0.002228 0.000000
0.606531 0.000580 0.000000
0.639429 0.000000 0.000000
0.672541 0.000000 0.000000
0.705715 0.000000 0.000000
0.739071 0.000000 0.000000
0.772580 0.000000 0.000000
0.806210 0.000000 0.000000
0.839902 0.000000 0.000000
0.873472 0.000000 0.000000
0.906798 0.000000 0.000000
0.939910 0.000000 0.000000
0.972869 0.000000 0.000000
1.000000 0.000000 0.000000
0.000031 0.041352 0.000031
0.008942 0.041444 0.000977
0.042573 0.041047 0.000366
0.094636 0.042145 0.000000
0.125216 0.042420 0.000000
0.156771 0.042664 0.000000
0.188418 0.042664 0.000000
0.219913 0.042176 0.000336
0.251499 0.041779 0.000000
0.283421 0.041749 0.000122
0.315221 0.042298 0.000000
0.347173 0.041566 0.000000
0.379065 0.041749 0.000000
0.411200 0.041932 0.000000
0.443519 0.040711 0.000000
0.475898 0.040253 0.000000
0.508354 0.040131 0.000000
0.540978 0.038636 0.000000
0.573693 0.036805 0.000000
0.606500 0.035401 0.000000
0.639460 0.034913 0.000000
0.672511 0.034150 0.000000
0.705715 0.030274 0.000000
0.739132 0.028168 0.000000
0.772610 0.027100 0.000000
0.806210 0.023224 0.000000
0.839933 0.020417 0.000000
0.873472 0.017365 0.000000
0.906828 0.013825 0.000000
0.939940 0.011658 0.000000
0.972839 0.007263 0.000000
1.000000 0.003601 0.000000
0.001251 0.094118 0.000000
0.008484 0.094209 0.000000
0.041810 0.094057 0.000000
0.093935 0.094118 0.000000
0.125765 0.093629 0.000031
0.156832 0.093812 0.000336
0.188510 0.093812 0.000000
0.220035 0.094392 0.000000
0.251591 0.094240 0.000488
0.283360 0.094301 0.000000
0.315343 0.093996 0.000000
0.347173 0.094575 0.000000
0.379126 0.094972 0.000000
0.411322 0.094636 0.000000
0.443610 0.094209 0.000000
0.475898 0.094545 0.000000
0.508446 0.094026 0.000000
0.541009 0.093568 0.000000
0.573724 0.093690 0.000000
0.606561 0.093080 0.000000
0.639490 0.092988 0.000000
0.672602 0.092164 0.000000
0.705806 0.091554 0.000000
0.739101 0.090578 0.000000
0.772610 0.090150 0.000000
0.806241 0.088991 0.000000
0.839933 0.088411 0.000000
0.873503 0.086091 0.000000
0.906798 0.084169 0.000000
0.939940 0.082094 0.000000
0.972869 0.079194 0.000000
1.000000 0.077150 0.000000
0.000000 0.125460 0.000000
0.008179 0.125490 0.000336
0.041810 0.125399 0.000000
0.093935 0.125429 0.000000
0.125124 0.125429 0.000000
0.156802 0.125216 0.000092
0.188357 0.125490 0.000397
0.219974 0.125887 0.000000
0.251682 0.125734 0.000122
0.283543 0.126009 0.000000
0.315373 0.125856 0.000000
0.347356 0.125917 0.000000
0.379187 0.126253 0.000000
0.411414 0.126253 0.000000
0.443610 0.126284 0.000000
0.476051 0.126131 0.000000
0.508476 0.126375 0.000000
0.541100 0.126040 0.000000
0.573785 0.125887 0.000000
0.606592 0.125795 0.000000
0.639551 0.125673 0.000000
0.672633 0.125429 0.000000
0.705867 0.125032 0.000000
0.739223 0.124575 0.000000
0.772702 0.124331 0.000000
0.806332 0.124086 0.000000
0.840055 0.123171 0.000000
0.873533 0.122255 0.000000
0.906828 0.122042 0.000000
0.940002 0.121157 0.000000
0.972900 0.120272 0.000000
1.000000 0.119692 0.000000
0.000000 0.156954 0.000000
0.008301 0.156954 0.000488
0.041932 0.156893 0.000000
0.093965 0.156893 0.000000
0.125917 0.157046 0.000000
0.157107 0.156924 0.000000
0.188602 0.157137 0.000000
0.220188 0.157198 0.000000
0.251652 0.157351 0.000122
0.283482 0.157534 0.000336
0.315404 0.157595 0.000000
0.347387 0.157656 0.000000
0.379339 0.157839 0.000000
0.411475 0.157870 0.000000
0.443763 0.158053 0.000000
0.476051 0.158022 0.000000
0.508598 0.158114 0.000000
0.541161 0.158267 0.000000
0.573877 0.158114 0.000000
0.606714 0.158267 0.000000
0.639643 0.158175 0.000000
0.672724 0.158206 0.000000
0.705959 0.157870 0.000000
0.739345 0.157534 0.000000
0.772732 0.157626 0.000000
0.806424 0.157412 0.000000
0.840146 0.156924 0.000000
0.873625 0.156435 0.000000
0.906920 0.156313 0.000000
0.940002 0.155764 0.000000
0.972900 0.155367 0.000000
1.000000 0.154788 0.000000
0.002441 0.188449 0.000610
0.007691 0.188510 0.000458
0.042298 0.188602 0.000824
0.094789 0.188571 0.000580
0.125704 0.188602 0.000732
0.157168 0.188632 0.000000
0.188479 0.188663 0.000336
0.220127 0.188724 0.000000
0.251957 0.188754 0.000061
0.283757 0.188907 0.000000
0.315465 0.189151 0.000000
0.347387 0.189364 0.000000
0.379461 0.189487 0.000000
0.411658 0.189487 0.000000
0.443824 0.189792 0.000000
0.476204 0.189853 0.000000
0.508751 0.189944 0.000000
0.541314 0.190066 0.000000
0.573938 0.190127 0.000000
0.606775 0.190372 0.000000
0.639796 0.190402 0.000000
0.672877 0.190433 0.000000
0.706111 0.190463 0.000000
0.739437 0.190555 0.000000
0.772946 0.190372 0.000000
0.806516 0.190433 0.000000
0.840238 0.190066 0.000000
0.873686 0.190005 0.000000
0.906981 0.189914 0.000000
0.940063 0.189334 0.000000
0.972961 0.189029 0.000000
1.000000 0.188937 0.000000
0.000000 0.220279 0.000000
0.005554 0.220218 0.000000
0.042451 0.220249 0.000000
0.094270 0.220127 0.000000
0.125948 0.220340 0.000000
0.157382 0.220371 0.000000
0.188937 0.220371 0.000000
0.220310 0.220310 0.000000
0.252079 0.220493 0.000000
0.283848 0.220615 0.000000
0.315801 0.220768 0.000000
0.347570 0.220920 0.000000
0.379675 0.221134 0.000000
0.411780 0.221408 0.000000
0.444038 0.221622 0.000000
0.476295 0.221836 0.000000
0.508812 0.221897 0.000000
0.541405 0.222232 0.000000
0.574182 0.222354 0.000000
0.606989 0.222538 0.000000
0.639887 0.222599 0.000000
0.672999 0.222843 0.000000
0.706233 0.222995 0.000000
0.739528 0.223056 0.000000
0.773037 0.223148 0.000000
0.806729 0.223117 0.000000
0.840330 0.223270 0.000000
0.873808 0.222965 0.000000
0.907042 0.222904 0.000000
0.940124 0.222721 0.000000
0.973022 0.222354 0.000000
1.000000 0.222141 0.000000
0.000000 0.252171 0.000000
0.005219 0.252201 0.000000
0.038849 0.252171 0.000000
0.093477 0.252171 0.000000
0.125734 0.252110 0.000000
0.157382 0.252232 0.000000
0.188937 0.252232 0.000000
0.220798 0.252140 0.000000
0.252171 0.252232 0.000000
0.283970 0.252232 0.000000
0.315862 0.252445 0.000000
0.347692 0.252689 0.000000
0.379767 0.252964 0.000000
0.411933 0.253147 0.000000
0.444221 0.253422 0.000000
0.476509 0.253696 0.000000
0.508995 0.253941 0.000000
0.541619 0.254093 0.000000
0.574334 0.254429 0.000000
0.607202 0.254551 0.000000
0.640131 0.254887 0.000000
0.673182 0.255100 0.000000
0.706386 0.255222 0.000000
0.739742 0.255436 0.000000
0.773281 0.255619 0.000000
0.806882 0.255711 0.000000
0.840513 0.255802 0.000000
0.873930 0.255802 0.000000
0.907164 0.255741 0.000000
0.940185 0.255711 0.000000
0.973053 0.255436 0.000000
1.000000 0.255375 0.000000
0.000000 0.284123 0.000000
0.004395 0.284154 0.000000
0.038727 0.284031 0.000000
0.093172 0.284092 0.000000
0.125795 0.283970 0.000000
0.157137 0.284092 0.000000
0.189242 0.284062 0.000000
0.220829 0.284184 0.000000
0.252537 0.284184 0.000000
0.284154 0.284215 0.000000
0.316014 0.284154 0.000000
0.347906 0.284428 0.000000
0.379858 0.284825 0.000000
0.412055 0.285008 0.000000
0.444404 0.285374 0.000000
0.476722 0.285588 0.000000
0.509239 0.285985 0.000000
0.541833 0.286107 0.000000
0.574517 0.286442 0.000000
0.607385 0.286748 0.000000
0.640284 0.287114 0.000000
0.673426 0.287266 0.000000
0.706630 0.287633 0.000000
0.740017 0.287877 0.000000
0.773465 0.288121 0.000000
0.807156 0.288243 0.000000
0.840696 0.288426 0.000000
0.874113 0.288518 0.000000
0.907317 0.288579 0.000000
0.940276 0.288548 0.000000
0.973114 0.288365 0.000000
1.000000 0.288212 0.000000
0.000000 0.316045 0.000000
0.003265 0.316075 0.000000
0.036194 0.316106 0.000000
0.092470 0.316106 0.000000
0.125582 0.316075 0.000000
0.157259 0.316136 0.000000
0.189395 0.316106 0.000000
0.221073 0.316136 0.000000
0.252659 0.316228 0.000000
0.284550 0.316228 0.000000
0.316197 0.316258 0.000000
0.347936 0.316289 0.000000
0.380194 0.316594 0.000000
0.412268 0.316899 0.000000
0.444678 0.317144 0.000000
0.476967 0.317632 0.000000
0.509422 0.317876 0.000000
0.542107 0.318273 0.000000
0.574792 0.318578 0.000000
0.607630 0.318944 0.000000
0.640589 0.319188 0.000000
0.673640 0.319524 0.000000
0.706874 0.319982 0.000000
0.740261 0.320195 0.000000
0.773770 0.320592 0.000000
0.807370 0.320867 0.000000
0.840879 0.321111 0.000000
0.874266 0.321202 0.000000
0.907408 0.321172 0.000000
0.940429 0.321233 0.000000
0.973205 0.321141 0.000000
1.000000 0.320989 0.000000
0.000000 0.348302 0.000000
0.000000 0.348333 0.000000
0.035157 0.348302 0.000000
0.092195 0.348302 0.000000
0.124941 0.348272 0.000000
0.156924 0.348272 0.000000
0.189151 0.348363 0.000000
0.221103 0.348363 0.000000
0.253117 0.348363 0.000000
0.284855 0.348425 0.000000
0.316655 0.348486 0.000000
0.348516 0.348516 0.000000
0.380316 0.348577 0.000000
0.412512 0.348882 0.000000
0.444831 0.349218 0.000000
0.477211 0.349554 0.000000
0.509697 0.349920 0.000000
0.542351 0.350256 0.000000
0.575036 0.350683 0.000000
0.607843 0.351080 0.000000
0.640833 0.351476 0.000000
0.673915 0.351843 0.000000
0.707210 0.352270 0.000000
0.740536 0.352636 0.000000
0.774014 0.353063 0.000000
0.807645 0.353368 0.000000
0.841093 0.353704 0.000000
0.874388 0.353857 0.000000
0.907561 0.353979 0.000000
0.940490 0.353918 0.000000
0.973266 0.353857 0.000000
1.000000 0.353796 0.000000
0.000000 0.380529 0.000000
0.000000 0.380560 0.000000
0.032746 0.380621 0.000000
0.091585 0.380560 0.000000
0.124361 0.380621 0.000000
0.157076 0.380652 0.000000
0.189181 0.380621 0.000000
0.221256 0.380682 0.000000
0.253208 0.380743 0.000000
0.285252 0.380743 0.000000
0.317021 0.380835 0.000000
0.349035 0.380804 0.000000
0.380957 0.380926 0.000000
0.412848 0.380987 0.000000
0.445075 0.381262 0.000000
0.477455 0.381537 0.000000
0.510033 0.382055 0.000000
0.542565 0.382483 0.000000
0.575311 0.382849 0.000000
0.608179 0.383307 0.000000
0.641169 0.383703 0.000000
0.674220 0.384131 0.000000
0.707515 0.384619 0.000000
0.740841 0.385046 0.000000
0.774380 0.385504 0.000000
0.807980 0.385840 0.000000
0.841367 0.386267 0.000000
0.874601 0.386481 0.000000
0.907683 0.386511 0.000000
0.940612 0.386542 0.000000
0.973327 0.386572 0.000000
1.000000 0.386389 0.000000
0.000000 0.413092 0.000000
0.000000 0.413092 0.000000
0.030579 0.413001 0.000000
0.090852 0.413062 0.000000
0.123507 0.413092 0.000000
0.156832 0.413123 0.000000
0.188907 0.413153 0.000000
0.221256 0.413184 0.000000
0.253483 0.413123 0.000000
0.285435 0.413184 0.000000
0.317296 0.413245 0.000000
0.349401 0.413336 0.000000
0.381506 0.413397 0.000000
0.413519 0.413428 0.000000
0.445441 0.413550 0.000000
0.477729 0.413764 0.000000
0.510307 0.414221 0.000000
0.542901 0.414649 0.000000
0.575677 0.415106 0.000000
0.608484 0.415564 0.000000
0.641505 0.416052 0.000000
0.674586 0.416541 0.000000
0.707851 0.417029 0.000000
0.741238 0.417548 0.000000
0.774746 0.418036 0.000000
0.808255 0.418463 0.000000
0.841642 0.418799 0.000000
0.874815 0.418982 0.000000
0.907836 0.419135 0.000000
0.940734 0.419196 0.000000
0.973388 0.419165 0.000000
1.000000 0.419074 0.000000
0.000000 0.445655 0.000000
0.000000 0.445655 0.000000
0.025360 0.445624 0.000000
0.088441 0.445624 0.000000
0.123293 0.445655 0.000000
0.156344 0.445686 0.000000
0.188815 0.445716 0.000000
0.221164 0.445747 0.000000
0.253666 0.445747 0.000000
0.285649 0.445777 0.000000
0.317693 0.445838 0.000000
0.349859 0.445899 0.000000
0.381994 0.445899 0.000000
0.413947 0.445991 0.000000
0.446143 0.446082 0.000000
0.478218 0.446204 0.000000
0.510582 0.446448 0.000000
0.543267 0.446967 0.000000
0.575952 0.447456 0.000000
0.608820 0.447944 0.000000
0.641840 0.448463 0.000000
0.674983 0.448981 0.000000
0.708248 0.449531 0.000000
0.741634 0.450050 0.000000
0.775113 0.450538 0.000000
0.808560 0.451026 0.000000
0.841855 0.451453 0.000000
0.874998 0.451606 0.000000
0.908019 0.451728 0.000000
0.940826 0.451820 0.000000
0.973480 0.451820 0.000000
1.000000 0.451698 0.000000
0.000000 0.478401 0.000000
0.000000 0.478401 0.000000
0.020752 0.478340 0.000000
0.087739 0.478401 0.000000
0.122072 0.478401 0.000000
0.155825 0.478431 0.000000
0.188357 0.478431 0.000000
0.220981 0.478492 0.000000
0.253605 0.478553 0.000000
0.285740 0.478553 0.000000
0.317937 0.478584 0.000000
0.350195 0.478645 0.000000
0.382391 0.478737 0.000000
0.414496 0.478767 0.000000
0.446693 0.478859 0.000000
0.478950 0.478920 0.000000
0.511162 0.479072 0.000000
0.543572 0.479347 0.000000
0.576318 0.479835 0.000000
0.609186 0.480323 0.000000
0.642237 0.480964 0.000000
0.675380 0.481453 0.000000
0.708644 0.482063 0.000000
0.742031 0.482612 0.000000
0.775509 0.483223 0.000000
0.808896 0.483650 0.000000
0.842130 0.484047 0.000000
0.875212 0.484260 0.000000
0.908141 0.484352 0.000000
0.940917 0.484443 0.000000
0.973541 0.484352 0.000000
1.000000 0.484260 0.000000
0.000000 0.511345 0.000000
0.000000 0.511315 0.000000
0.013336 0.511315 0.000000
0.081514 0.511315 0.000000
0.120394 0.511345 0.000000
0.154574 0.511345 0.000000
0.187808 0.511315 0.000000
0.220859 0.511406 0.000000
0.253513 0.511467 0.000000
0.285618 0.511498 0.000000
0.318273 0.511528 0.000000
0.350500 0.511589 0.000000
0.382879 0.511681 0.000000
0.415167 0.511711 0.000000
0.447395 0.511772 0.000000
0.479652 0.511894 0.000000
0.511833 0.511925 0.000000
0.544213 0.512047 0.000000
0.576715 0.512322 0.000000
0.609613 0.512871 0.000000
0.642695 0.513420 0.000000
0.675807 0.514031 0.000000
0.709041 0.514672 0.000000
0.742489 0.515282 0.000000
0.775906 0.515862 0.000000
0.809140 0.516320 0.000000
0.842374 0.516686 0.000000
0.875395 0.516869 0.000000
0.908293 0.516991 0.000000
0.941009 0.517052 0.000000
0.973602 0.516930 0.000000
1.000000 0.516838 0.000000
0.000000 0.544335 0.000000
0.000000 0.544335 0.000000
0.003021 0.544366 0.000000
0.076905 0.544366 0.000000
0.119020 0.544396 0.000000
0.153262 0.544427 0.000000
0.187198 0.544457 0.000000
0.220493 0.544457 0.000000
0.253239 0.544488 0.000000
0.285893 0.544549 0.000000
0.318425 0.544579 0.000000
0.350805 0.544640 0.000000
0.383246 0.544732 0.000000
0.415656 0.544762 0.000000
0.447974 0.544823 0.000000
0.480354 0.544945 0.000000
0.512779 0.544976 0.000000
0.545098 0.545098 0.000000
0.577478 0.545251 0.000000
0.610010 0.545464 0.000000
0.643061 0.546075 0.000000
0.676234 0.546746 0.000000
0.709499 0.547356 0.000000
0.742885 0.548028 0.000000
0.776242 0.548547 0.000000
0.809476 0.549004 0.000000
0.842588 0.549310 0.000000
0.875608 0.549493 0.000000
0.908415 0.549645 0.000000
0.941070 0.549645 0.000000
0.973602 0.549584 0.000000
1.000000 0.549462 0.000000
0.000000 0.577600 0.000000
0.000000 0.577600 0.000000
0.000000 0.577600 0.000000
0.065583 0.577600 0.000000
0.116609 0.577630 0.000000
0.152071 0.577630 0.000000
0.186191 0.577691 0.000000
0.219821 0.577661 0.000000
0.252750 0.577722 0.000000
0.285679 0.577783 0.000000
0.318425 0.577813 0.000000
0.350988 0.577905 0.000000
0.383642 0.577935 0.000000
0.416052 0.577996 0.000000
0.448615 0.578058 0.000000
0.481086 0.578149 0.000000
0.513481 0.578241 0.000000
0.545922 0.578332 0.000000
0.578454 0.578424 0.000000
0.610864 0.578546 0.000000
0.643549 0.578790 0.000000
0.676692 0.579461 0.000000
0.709987 0.580072 0.000000
0.743374 0.580774 0.000000
0.776638 0.581323 0.000000
0.809812 0.581720 0.000000
0.842832 0.581994 0.000000
0.875792 0.582147 0.000000
0.908537 0.582238 0.000000
0.941161 0.582238 0.000000
0.973632 0.582177 0.000000
1.000000 0.581994 0.000000
0.000000 0.610986 0.000000
0.000000 0.611017 0.000000
0.000000 0.610956 0.000000
0.056855 0.611017 0.000000
0.113863 0.611017 0.000000
0.150423 0.611017 0.000000
0.185367 0.611048 0.000000
0.219333 0.611078 0.000000
0.252415 0.611109 0.000000
0.285527 0.611170 0.000000
0.318395 0.611231 0.000000
0.351263 0.611231 0.000000
0.383978 0.611322 0.000000
0.416571 0.611353 0.000000
0.449165 0.611475 0.000000
0.481697 0.611566 0.000000
0.514305 0.611627 0.000000
0.546838 0.611719 0.000000
0.579461 0.611841 0.000000
0.611994 0.611933 0.000000
0.644465 0.612085 0.000000
0.677180 0.612268 0.000000
0.710445 0.613001 0.000000
0.743771 0.613550 0.000000
0.776974 0.614069 0.000000
0.810117 0.614405 0.000000
0.843046 0.614679 0.000000
0.875944 0.614801 0.000000
0.908629 0.614893 0.000000
0.941192 0.614832 0.000000
0.973632 0.614740 0.000000
1.000000 0.614527 0.000000
0.000000 0.644526 0.000000
0.000000 0.644587 0.000000
0.000000 0.644526 0.000000
0.045289 0.644556 0.000000
0.109590 0.644587 0.000000
0.148318 0.644587 0.000000
0.183688 0.644617 0.000000
0.218112 0.644648 0.000000
0.252018 0.644678 0.000000
0.285130 0.644678 0.000000
0.318242 0.644770 0.000000
0.351263 0.644831 0.000000
0.384192 0.644923 0.000000
0.416999 0.644923 0.000000
0.449622 0.645045 0.000000
0.482338 0.645136 0.000000
0.515038 0.645228 0.000000
0.547692 0.645289 0.000000
0.580285 0.645411 0.000000
0.613001 0.645502 0.000000
0.645624 0.645655 0.000000
0.678309 0.645747 0.000000
0.710964 0.645838 0.000000
0.744167 0.646418 0.000000
0.777279 0.646876 0.000000
0.810330 0.647181 0.000000
0.843259 0.647395 0.000000
0.876036 0.647486 0.000000
0.908690 0.647517 0.000000
0.941253 0.647425 0.000000
0.973602 0.647333 0.000000
1.000000 0.647059 0.000000
0.000000 0.678279 0.000000
0.000000 0.678279 0.000000
0.000000 0.678248 0.000000
0.027771 0.678279 0.000000
0.106081 0.678309 0.000000
0.146120 0.678279 0.000000
0.182010 0.678309 0.000000
0.216983 0.678370 0.000000
0.251011 0.678370 0.000000
0.284886 0.678401 0.000000
0.318090 0.678462 0.000000
0.351293 0.678462 0.000000
0.384192 0.678553 0.000000
0.417090 0.678614 0.000000
0.450050 0.678645 0.000000
0.482887 0.678706 0.000000
0.515587 0.678767 0.000000
0.548394 0.678889 0.000000
0.581018 0.678920 0.000000
0.613794 0.679011 0.000000
0.646448 0.679072 0.000000
0.679164 0.679194 0.000000
0.711849 0.679255 0.000000
0.744564 0.679316 0.000000
0.777615 0.679652 0.000000
0.810544 0.679957 0.000000
0.843381 0.680110 0.000000
0.876097 0.680171 0.000000
0.908751 0.680140 0.000000
0.941222 0.680018 0.000000
0.973541 0.679866 0.000000
1.000000 0.679561 0.000000
0.000000 0.711788 0.000000
0.000000 0.711788 0.000000
0.000000 0.711818 0.000000
0.015381 0.711788 0.000000
0.101747 0.711788 0.000000
0.142794 0.711818 0.000000
0.180575 0.711818 0.000000
0.215854 0.711849 0.000000
0.250004 0.711910 0.000000
0.284245 0.711910 0.000000
0.317784 0.711910 0.000000
0.350927 0.711971 0.000000
0.384192 0.711940 0.000000
0.417182 0.712032 0.000000
0.450233 0.712062 0.000000
0.483040 0.712123 0.000000
0.515923 0.712154 0.000000
0.548699 0.712215 0.000000
0.581476 0.712245 0.000000
0.614252 0.712306 0.000000
0.646998 0.712337 0.000000
0.679744 0.712398 0.000000
0.712428 0.712459 0.000000
0.745113 0.712520 0.000000
0.777859 0.712520 0.000000
0.810697 0.712734 0.000000
0.843503 0.712825 0.000000
0.876188 0.712825 0.000000
0.908751 0.712795 0.000000
0.941161 0.712612 0.000000
0.973480 0.712398 0.000000
1.000000 0.712093 0.000000
0.000000 0.745083 0.000000
0.000000 0.745083 0.000000
0.000000 0.745083 0.000000
0.000031 0.745083 0.000000
0.097108 0.745113 0.000000
0.140505 0.745113 0.000000
0.178317 0.745113 0.000000
0.214145 0.745113 0.000000
0.249088 0.745113 0.000000
0.283421 0.745144 0.000000
0.317021 0.745174 0.000000
0.350683 0.745205 0.000000
0.383917 0.745205 0.000000
0.417151 0.745235 0.000000
0.450111 0.745235 0.000000
0.483040 0.745266 0.000000
0.515984 0.745296 0.000000
0.548882 0.745327 0.000000
0.581689 0.745357 0.000000
0.614435 0.745357 0.000000
0.647303 0.745388 0.000000
0.679988 0.745418 0.000000
0.712734 0.745449 0.000000
0.745449 0.745480 0.000000
0.778164 0.745480 0.000000
0.810880 0.745480 0.000000
0.843595 0.745510 0.000000
0.876219 0.745510 0.000000
0.908751 0.745357 0.000000
0.941131 0.745174 0.000000
0.973388 0.744900 0.000000
1.000000 0.744564 0.000000
0.000000 0.778134 0.000000
0.000000 0.778134 0.000000
0.000000 0.778164 0.000000
0.000000 0.778134 0.000000
0.092958 0.778103 0.000000
0.137484 0.778134 0.000000
0.176181 0.778164 0.000000
0.213260 0.778134 0.000000
0.248142 0.778164 0.000000
0.282597 0.778134 0.000000
0.316533 0.778164 0.000000
0.350134 0.778164 0.000000
0.383490 0.778164 0.000000
0.416785 0.778164 0.000000
0.449928 0.778195 0.000000
0.482948 0.778195 0.000000
0.515923 0.778225 0.000000
0.548791 0.778225 0.000000
0.581720 0.778225 0.000000
0.614466 0.778225 0.000000
0.647303 0.778225 0.000000
0.680079 0.778225 0.000000
0.712795 0.778225 0.000000
0.745541 0.778256 0.000000
0.778225 0.778225 0.000000
0.810910 0.778225 0.000000
0.843626 0.778195 0.000000
0.876188 0.778134 0.000000
0.908659 0.777981 0.000000
0.941009 0.777707 0.000000
0.973236 0.777401 0.000000
1.000000 0.777005 0.000000
0.000000 0.810941 0.000000
0.000000 0.810941 0.000000
0.000000 0.810910 0.000000
0.000000 0.810941 0.000000
0.088075 0.810910 0.000000
0.135470 0.810910 0.000000
0.174685 0.810941 0.000000
0.211765 0.810941 0.000000
0.247044 0.810910 0.000000
0.281621 0.810941 0.000000
0.315923 0.810910 0.000000
0.349645 0.810910 0.000000
0.382971 0.810910 0.000000
0.416358 0.810941 0.000000
0.449531 0.810910 0.000000
0.482643 0.810910 0.000000
0.515648 0.810910 0.000000
0.548638 0.810880 0.000000
0.581537 0.810880 0.000000
0.614374 0.810880 0.000000
0.647150 0.810880 0.000000
0.679896 0.810849 0.000000
0.712642 0.810819 0.000000
0.745418 0.810788 0.000000
0.778103 0.810788 0.000000
0.810758 0.810758 0.000000
0.843412 0.810727 0.000000
0.876097 0.810666 0.000000
0.908598 0.810544 0.000000
0.940887 0.810239 0.000000
0.973022 0.809873 0.000000
1.000000 0.809384 0.000000
0.000000 0.843473 0.000000
0.000000 0.843473 0.000000
0.000000 0.843473 0.000000
0.000000 0.843473 0.000000
0.080568 0.843473 0.000000
0.132296 0.843473 0.000000
0.173251 0.843473 0.000000
0.210513 0.843442 0.000000
0.246250 0.843442 0.000000
0.280949 0.843442 0.000000
0.315160 0.843442 0.000000
0.348913 0.843442 0.000000
0.382513 0.843412 0.000000
0.415930 0.843412 0.000000
0.449134 0.843381 0.000000
0.482338 0.843351 0.000000
0.515312 0.843381 0.000000
0.548333 0.843351 0.000000
0.581201 0.843320 0.000000
0.614069 0.843290 0.000000
0.646784 0.843290 0.000000
0.679561 0.843259 0.000000
0.712306 0.843198 0.000000
0.745052 0.843168 0.000000
0.777737 0.843107 0.000000
0.810391 0.843076 0.000000
0.843015 0.843015 0.000000
0.875639 0.842924 0.000000
0.908263 0.842893 0.000000
0.940734 0.842710 0.000000
0.972808 0.842283 0.000000
1.000000 0.841794 0.000000
0.000000 0.875792 0.000000
0.000000 0.875792 0.000000
0.000000 0.875792 0.000000
0.000000 0.875761 0.000000
0.072938 0.875792 0.000000
0.130617 0.875761 0.000000
0.171817 0.875761 0.000000
0.209262 0.875761 0.000000
0.245335 0.875761 0.000000
0.280278 0.875731 0.000000
0.314611 0.875731 0.000000
0.348425 0.875700 0.000000
0.382116 0.875669 0.000000
0.415351 0.875669 0.000000
