20 Preset/Rover Style/【3】LUT video cho PR-AE-FCPX/Rover C --.cube
# Created by Adobe Lightroom plugin Export LUT (1.24.0)
# www.johnrellis.com/lightroom/exportlut.htm
# Preset: Rover C --
# Color profile: E:\lut插件\exportlut.1.24\exportlut.lrplugin\color profiles\Rec709gamma2.4.icc
LUT_3D_SIZE 8
DOMAIN_MIN 0.000000 0.000000 0.000000
DOMAIN_MAX 0.903226 0.903226 0.903226
0.000000 0.000000 0.000000
0.097871 0.035462 0.035676
0.179751 0.103548 0.103914
0.272160 0.144594 0.144564
0.368780 0.196353 0.196384
0.463142 0.254002 0.254093
0.560143 0.312139 0.312352
0.675746 0.378607 0.378576
0.094209 0.117861 0.093812
0.126955 0.126528 0.103822
0.198856 0.144289 0.126833
0.284398 0.175113 0.161898
0.376379 0.219883 0.210452
0.468482 0.271061 0.264591
0.564446 0.325231 0.320134
0.679164 0.389380 0.385016
0.175509 0.233951 0.175601
0.193149 0.237827 0.180362
0.253208 0.253239 0.200290
0.324895 0.269139 0.225101
0.404364 0.295781 0.260349
0.489296 0.330907 0.302373
0.582055 0.374090 0.350439
0.692958 0.431495 0.411048
0.271031 0.352667 0.271305
0.280797 0.354681 0.273808
0.318029 0.363439 0.285557
0.380102 0.380133 0.307256
0.450599 0.397803 0.332494
0.526207 0.420050 0.362310
0.615106 0.453956 0.402533
0.716915 0.503685 0.458747
0.364446 0.470619 0.364263
0.370733 0.471962 0.366247
0.396551 0.477790 0.374029
0.443153 0.489326 0.388861
0.506859 0.506920 0.411078
0.577783 0.525658 0.436805
0.657679 0.552972 0.472938
0.747402 0.596246 0.527733
0.459968 0.591791 0.459937
0.464637 0.592737 0.461219
0.484230 0.596948 0.467475
0.520806 0.605188 0.479438
0.572473 0.617700 0.498421
0.634577 0.634577 0.524468
0.703883 0.657465 0.558709
0.783597 0.694331 0.608698
0.578485 0.715785 0.578515
0.581781 0.716457 0.579706
0.595727 0.719326 0.584649
0.622156 0.725124 0.594446
0.660578 0.734218 0.609583
0.708370 0.746639 0.630030
0.762417 0.762448 0.655268
0.825834 0.788052 0.692836
0.712367 0.841245 0.712367
0.714626 0.841764 0.713344
0.724147 0.843870 0.717189
0.742733 0.848112 0.724910
0.770199 0.854795 0.736995
0.805417 0.864103 0.753414
0.846342 0.876066 0.774075
0.890623 0.890623 0.798520
0.009613 0.010498 0.086793
0.098421 0.045899 0.098512
0.183658 0.111238 0.129732
0.278111 0.162478 0.174533
0.372351 0.212680 0.221378
0.465339 0.265782 0.272465
0.561791 0.320256 0.325414
0.676844 0.383795 0.388159
0.096345 0.120119 0.119875
0.128969 0.128969 0.128969
0.202731 0.154086 0.153872
0.288670 0.188846 0.188937
0.379217 0.232700 0.232609
0.470466 0.280827 0.280888
0.565850 0.332189 0.332219
0.680171 0.394202 0.394049
0.183963 0.236149 0.195193
0.199527 0.239841 0.199496
0.254093 0.254307 0.216800
0.325689 0.273198 0.241184
0.405646 0.301152 0.274784
0.490486 0.336156 0.314397
0.583093 0.378607 0.360052
0.693629 0.434913 0.418708
0.275059 0.353765 0.282109
0.284581 0.355749 0.284367
0.320256 0.364263 0.295384
0.380713 0.380804 0.315892
0.450752 0.399054 0.340368
0.526726 0.422095 0.370214
0.615808 0.456245 0.409400
0.717311 0.505699 0.464881
0.366522 0.471229 0.371099
0.372900 0.472602 0.372686
0.398138 0.478370 0.380194
0.444190 0.489845 0.394690
0.507286 0.507256 0.416663
0.577996 0.526299 0.441810
0.657862 0.554040 0.477852
0.747494 0.597375 0.532036
0.461311 0.592218 0.464668
0.466102 0.593133 0.466163
0.485389 0.597314 0.472114
0.521813 0.605402 0.484016
0.573022 0.617975 0.502617
0.634791 0.634852 0.528222
0.703975 0.657923 0.562127
0.783688 0.694881 0.611597
0.579461 0.715969 0.581689
0.582635 0.716670 0.582788
0.596490 0.719539 0.587671
0.622827 0.725307 0.597345
0.661067 0.734401 0.612268
0.708644 0.746822 0.632380
0.762570 0.762631 0.657527
0.826047 0.788357 0.694881
0.712581 0.841367 0.713924
0.714809 0.841855 0.714900
0.724361 0.843961 0.718685
0.742855 0.848203 0.726375
0.770321 0.854917 0.738369
0.805539 0.864225 0.754726
0.846433 0.876158 0.775204
0.890715 0.890715 0.799527
0.046052 0.045411 0.150027
0.101076 0.073762 0.156527
0.185367 0.119173 0.185214
0.282292 0.172122 0.223148
0.376684 0.228580 0.266117
0.469947 0.284184 0.312840
0.566155 0.336797 0.360601
0.680110 0.395789 0.416815
0.114137 0.130190 0.179019
0.136660 0.136629 0.184573
0.206241 0.162051 0.206027
0.293492 0.201419 0.237491
0.383703 0.248783 0.276616
0.474830 0.298833 0.321111
0.570123 0.347448 0.366400
0.683223 0.405402 0.421942
0.192477 0.240360 0.240238
0.207767 0.244114 0.243870
0.258061 0.258061 0.258061
0.328588 0.281407 0.281529
0.408972 0.311955 0.311925
0.493690 0.347845 0.347845
0.586603 0.389715 0.389624
0.695949 0.443824 0.443793
0.283543 0.356878 0.314000
0.292638 0.358923 0.316686
0.326085 0.367071 0.326055
0.383032 0.382940 0.343847
0.452155 0.402960 0.367224
0.528527 0.427955 0.396063
0.617975 0.462928 0.433570
0.718532 0.512016 0.485908
0.373175 0.473610 0.395117
0.379187 0.474891 0.396551
0.403418 0.480537 0.403357
0.447669 0.491707 0.416785
0.508843 0.508721 0.436957
0.578759 0.528588 0.461555
0.658717 0.557641 0.496895
0.748013 0.601343 0.548791
0.466651 0.593774 0.483345
0.471321 0.594720 0.484535
0.490150 0.598779 0.490120
0.525628 0.606775 0.501488
0.575616 0.619104 0.519280
0.635798 0.635798 0.543236
0.704494 0.659541 0.575769
0.784390 0.696925 0.623285
0.582696 0.716732 0.593805
0.585901 0.717403 0.594903
0.599481 0.720302 0.599451
0.625330 0.726040 0.608637
0.662867 0.735103 0.622919
0.709865 0.747494 0.642267
0.763241 0.763272 0.666285
0.826993 0.789609 0.702937
0.713130 0.841733 0.720302
0.715389 0.842222 0.721157
0.724880 0.844327 0.724941
0.743313 0.848600 0.732357
0.770718 0.855314 0.744045
0.805936 0.864622 0.759915
0.846860 0.876616 0.779965
0.891203 0.891203 0.803799
0.091371 0.090578 0.226596
0.117525 0.099916 0.232181
0.191806 0.132906 0.253330
0.285405 0.182193 0.285405
0.380743 0.236362 0.320012
0.472694 0.290043 0.357855
0.570245 0.345006 0.401984
0.684260 0.405524 0.456458
0.130587 0.144442 0.250248
0.149905 0.149996 0.254368
0.211795 0.172213 0.270176
0.296818 0.209628 0.296818
0.387427 0.255772 0.328466
0.477790 0.304601 0.364935
0.574395 0.356756 0.408240
0.687373 0.415381 0.461677
0.205447 0.246433 0.298405
0.219089 0.250767 0.301823
0.264683 0.264805 0.313298
0.333043 0.287633 0.332738
0.413001 0.319402 0.359503
0.497597 0.357305 0.392157
0.591699 0.400977 0.431952
0.699489 0.453315 0.481819
0.290288 0.361028 0.360815
0.299260 0.363043 0.363043
0.332219 0.371527 0.371496
0.387091 0.387091 0.387091
0.455482 0.409094 0.409003
0.532158 0.436469 0.436561
0.621942 0.471656 0.471748
0.720485 0.519738 0.519829
0.380041 0.477150 0.432563
0.386175 0.478523 0.434241
0.410468 0.484230 0.440833
0.453132 0.495094 0.453193
0.511772 0.511742 0.471321
0.580865 0.532708 0.494820
0.660487 0.563378 0.528923
0.749447 0.606287 0.575708
0.475319 0.596460 0.515007
0.479561 0.597436 0.516320
0.497841 0.601343 0.521416
0.531853 0.609155 0.531884
0.579644 0.621302 0.547753
0.637751 0.637781 0.569085
0.706203 0.662470 0.599542
0.786099 0.699794 0.643183
0.586725 0.718105 0.614740
0.589868 0.718776 0.615747
0.603082 0.721645 0.620020
0.628382 0.727443 0.628412
0.665339 0.736446 0.641657
0.711757 0.748836 0.659480
0.764584 0.764614 0.682033
0.829191 0.791989 0.717556
0.712520 0.842405 0.731472
0.714778 0.842924 0.732296
0.724392 0.845029 0.735836
0.742977 0.849332 0.743038
0.770626 0.856077 0.754177
0.806088 0.865446 0.769406
0.847410 0.877470 0.788693
0.892180 0.892180 0.811734
0.120241 0.120333 0.312383
0.141176 0.127108 0.316014
0.204990 0.153658 0.329931
0.289677 0.195682 0.352789
0.382940 0.246281 0.382940
0.477302 0.298833 0.416175
0.575250 0.352453 0.455177
0.689113 0.412238 0.506035
0.152041 0.163546 0.328069
0.168612 0.168185 0.330632
0.223026 0.187503 0.342016
0.301213 0.221347 0.362066
0.390051 0.264775 0.389899
0.482277 0.312902 0.422065
0.579461 0.363714 0.460426
0.692073 0.422034 0.510430
0.224857 0.260441 0.366918
0.235538 0.263218 0.368719
0.274571 0.274449 0.377050
0.337804 0.295872 0.392859
0.416358 0.326482 0.416358
0.501793 0.363867 0.445045
0.596735 0.406989 0.481392
0.703761 0.459785 0.528283
0.300694 0.365393 0.416754
0.309056 0.367712 0.418647
0.340978 0.377020 0.426642
0.393256 0.393286 0.440620
0.459876 0.415076 0.460060
0.536889 0.443061 0.484871
0.626612 0.478340 0.518303
0.723507 0.524620 0.560876
0.387091 0.481300 0.481209
0.393042 0.482704 0.482582
0.416693 0.488533 0.488655
0.459113 0.499672 0.499794
0.516167 0.516167 0.516167
0.584558 0.538293 0.538231
0.663416 0.567895 0.567956
0.751949 0.607355 0.607416
0.481514 0.600031 0.555200
0.486030 0.600885 0.556359
0.504387 0.604761 0.561181
0.537621 0.612482 0.570275
0.583764 0.624384 0.583825
0.640864 0.640864 0.602594
0.709377 0.665766 0.629938
0.789212 0.701259 0.668238
0.589197 0.720180 0.643091
0.592035 0.720851 0.643946
0.604120 0.723507 0.646937
0.628687 0.729213 0.654017
0.666133 0.738308 0.666194
0.713130 0.750820 0.682734
0.766720 0.766781 0.703578
0.833036 0.794949 0.737301
0.707576 0.843259 0.746456
0.709957 0.843748 0.747189
0.719936 0.845914 0.750637
0.739315 0.850248 0.757443
0.768032 0.857115 0.768063
0.804868 0.866606 0.782742
0.847562 0.878843 0.801236
0.893736 0.893706 0.823362
0.152621 0.152651 0.399420
0.168795 0.157748 0.401678
0.223850 0.179049 0.411505
0.300938 0.214725 0.428779
0.389014 0.259617 0.452949
0.483101 0.309270 0.482948
0.582879 0.362432 0.519524
0.695735 0.422156 0.567407
0.177188 0.186740 0.409888
0.191043 0.190890 0.411902
0.239384 0.207706 0.420386
0.311620 0.237339 0.436316
0.396399 0.276860 0.459174
0.488289 0.322911 0.488289
0.587030 0.373419 0.524102
0.698543 0.431556 0.571221
0.241428 0.274540 0.440864
0.250797 0.276982 0.442451
0.287266 0.287358 0.449287
0.347356 0.307286 0.462501
0.423133 0.336034 0.482429
0.508934 0.372656 0.508934
0.604028 0.415473 0.542779
0.709712 0.468666 0.586297
0.315648 0.376745 0.484932
0.323552 0.379004 0.486519
0.353002 0.387915 0.493507
0.401740 0.401648 0.504631
0.467323 0.422644 0.521782
0.545006 0.450477 0.544976
0.632502 0.485756 0.574762
0.728756 0.532189 0.613764
0.395819 0.488533 0.541527
0.401709 0.490028 0.542840
0.424628 0.495918 0.548119
0.465888 0.506828 0.557946
0.522301 0.522271 0.571801
0.590570 0.544152 0.590539
0.668116 0.572229 0.616052
0.756222 0.608148 0.649775
0.490608 0.606043 0.606104
0.495003 0.606928 0.606897
0.512200 0.610651 0.610620
0.543664 0.617884 0.617853
0.588098 0.629053 0.628962
0.645167 0.645167 0.645167
0.713527 0.667475 0.667536
0.793118 0.698390 0.698390
0.593530 0.723629 0.681453
0.596338 0.724239 0.682124
0.608240 0.726955 0.684993
0.631312 0.732357 0.690761
0.666255 0.740993 0.699733
0.713771 0.753506 0.713771
0.769802 0.769863 0.732967
0.838163 0.797604 0.763272
0.708186 0.845487 0.773709
0.710140 0.845945 0.774166
0.718441 0.847868 0.776150
0.734859 0.851804 0.780087
0.761959 0.858366 0.787686
0.801572 0.868162 0.801572
0.847105 0.880735 0.819181
0.895933 0.895933 0.840238
0.186496 0.186313 0.505669
0.200381 0.190768 0.507500
0.250278 0.208072 0.514977
0.324498 0.238651 0.528893
0.411505 0.278630 0.549279
0.506249 0.325383 0.575250
0.604944 0.377539 0.604822
0.704341 0.435248 0.637720
0.204440 0.213870 0.513237
0.217594 0.217472 0.514824
0.263127 0.231815 0.521782
0.333349 0.258244 0.534905
0.417975 0.294560 0.554498
0.511101 0.338384 0.579553
0.608545 0.388312 0.608545
0.706966 0.444343 0.640955
0.257420 0.291569 0.537835
0.267094 0.293858 0.539208
0.303685 0.303685 0.545281
0.364874 0.322484 0.556847
0.442451 0.350347 0.574212
0.529992 0.386297 0.596521
0.622827 0.429450 0.622797
0.717494 0.480598 0.653468
0.324590 0.390814 0.576196
0.331823 0.392432 0.577417
0.361151 0.399359 0.582147
0.412970 0.413031 0.591638
0.481880 0.433936 0.605859
0.561852 0.462287 0.624720
0.647333 0.498299 0.647211
0.735927 0.542016 0.675776
0.405097 0.503197 0.622675
0.410407 0.504204 0.623346
0.432349 0.508263 0.626825
0.471290 0.515404 0.632868
0.531060 0.530999 0.643977
0.602441 0.553582 0.659632
0.679316 0.581476 0.679286
0.762844 0.615961 0.706569
0.503929 0.622004 0.675166
0.507774 0.622675 0.675746
0.523186 0.625422 0.678248
0.552087 0.630396 0.682948
0.594324 0.638209 0.690425
0.651362 0.651331 0.702327
0.720607 0.673335 0.720607
0.798428 0.701472 0.746517
0.601740 0.732296 0.732235
0.604456 0.732784 0.732815
0.615747 0.735042 0.735042
0.638025 0.739651 0.739620
0.671931 0.747127 0.747097
0.717281 0.758267 0.758297
0.774197 0.774197 0.774197
0.843168 0.797208 0.797208
0.711757 0.848753 0.809873
0.713680 0.849180 0.810300
0.721889 0.851133 0.812253
0.738155 0.855100 0.816159
0.763394 0.861418 0.822416
0.798032 0.870451 0.831174
0.845182 0.883055 0.845182
0.898985 0.898985 0.864927
0.223850 0.223484 0.649775
0.237278 0.227237 0.651087
0.286320 0.242039 0.656031
0.360815 0.269200 0.665705
0.449744 0.307073 0.679774
0.545617 0.353582 0.697719
0.644678 0.407599 0.718685
0.741787 0.468360 0.741695
0.235752 0.245487 0.654292
0.248722 0.248569 0.655329
0.294957 0.261753 0.660212
0.367498 0.286137 0.669368
0.454475 0.321324 0.683040
0.549462 0.365515 0.700465
0.647486 0.417578 0.721004
0.743771 0.476997 0.743709
0.275456 0.313848 0.669886
0.285588 0.316075 0.670863
0.325841 0.325689 0.674952
0.391394 0.344549 0.683101
0.473213 0.373053 0.695369
0.564050 0.410559 0.711391
0.658656 0.456672 0.730373
0.751705 0.510796 0.751675
0.329534 0.406226 0.694148
0.338140 0.407904 0.694942
0.371801 0.415229 0.698421
0.429633 0.429572 0.705348
0.504509 0.452003 0.715816
0.589593 0.482887 0.729763
0.678645 0.522148 0.746609
0.766232 0.566094 0.766232
0.404303 0.516655 0.725429
0.409125 0.516716 0.725734
0.428626 0.517144 0.726925
0.475959 0.525994 0.731899
0.544121 0.544182 0.740841
0.622156 0.568536 0.753048
0.704463 0.598657 0.768490
0.786831 0.633539 0.786740
0.514458 0.644068 0.766262
0.517632 0.644190 0.766476
0.530816 0.644587 0.767453
0.556390 0.645197 0.769406
0.594537 0.645624 0.772366
0.660700 0.660700 0.782345
0.737453 0.684871 0.797116
0.814755 0.713283 0.814725
0.622065 0.760678 0.812467
0.624384 0.760891 0.812711
0.634028 0.761807 0.813779
0.653193 0.763668 0.816037
0.682918 0.766598 0.819638
0.723598 0.770687 0.824949
0.780636 0.780606 0.834592
0.852018 0.803311 0.851987
0.724300 0.862455 0.862455
0.726040 0.862760 0.862730
0.733364 0.864042 0.864073
0.748074 0.866728 0.866728
0.771298 0.871183 0.871183
0.804013 0.877958 0.877958
0.847410 0.887999 0.888029
0.903227 0.903227 0.903227
