20 Preset/Rover Style/【3】LUT video cho PR-AE-FCPX/Rover 05 P.cube
# Created by Adobe Lightroom plugin Export LUT (1.24.0)
# www.johnrellis.com/lightroom/exportlut.htm
# Preset: Rover 05 P
# Color profile: E:\lut插件\exportlut.1.24\exportlut.lrplugin\color profiles\Rec709gamma2.4.icc
LUT_3D_SIZE 5
DOMAIN_MIN 0.000000 0.000000 0.000000
DOMAIN_MAX 0.903226 0.903226 0.903226
0.013092 0.027222 0.011841
0.080568 0.047211 0.017945
0.234958 0.028290 0.026459
0.658595 0.000000 0.006622
0.886564 0.000000 0.141970
0.054292 0.102419 0.047089
0.092164 0.104738 0.052979
0.302831 0.093660 0.020691
0.694026 0.000000 0.000000
0.884825 0.242741 0.168765
0.150881 0.336645 0.199649
0.196994 0.319524 0.187991
0.387610 0.370428 0.243412
0.734829 0.448951 0.143893
0.862730 0.496071 0.279637
0.483497 0.618463 0.466743
0.488930 0.611261 0.456794
0.515709 0.583215 0.420233
0.649042 0.636378 0.519249
0.790249 0.696773 0.554345
0.667231 0.743069 0.646937
0.667170 0.740536 0.642603
0.663264 0.725978 0.618250
0.696895 0.727108 0.623590
0.762600 0.763180 0.691554
0.027802 0.050324 0.041138
0.063020 0.069764 0.043458
0.250858 0.054047 0.060304
0.663691 0.000000 0.015198
0.878386 0.096834 0.138796
0.064118 0.110597 0.089631
0.108522 0.119936 0.096223
0.315831 0.114015 0.094148
0.692622 0.000000 0.049500
0.876677 0.254612 0.160403
0.202914 0.362982 0.259892
0.238865 0.360662 0.249790
0.400641 0.381964 0.281315
0.729091 0.439796 0.212314
0.861082 0.499550 0.279515
0.520623 0.630884 0.505150
0.517784 0.625757 0.492103
0.533104 0.595392 0.450813
0.653010 0.641230 0.535210
0.791257 0.698512 0.565484
0.674769 0.747280 0.657923
0.673579 0.744747 0.652888
0.673396 0.733791 0.634180
0.699458 0.729946 0.630365
0.765042 0.766110 0.697261
0.032074 0.088472 0.141604
0.091310 0.097505 0.151064
0.216373 0.133028 0.185611
0.623743 0.014923 0.282689
0.855772 0.338933 0.330907
0.014832 0.131014 0.206119
0.118288 0.142702 0.216129
0.287236 0.194644 0.247013
0.662013 0.221103 0.323308
0.848081 0.411475 0.368475
0.219120 0.404028 0.395056
0.294377 0.418799 0.403143
0.496162 0.476661 0.437842
0.702174 0.509575 0.442786
0.827085 0.562188 0.467842
0.578149 0.660243 0.584131
0.584466 0.657801 0.580529
0.608148 0.650996 0.567071
0.669490 0.660792 0.587427
0.796902 0.701259 0.600336
0.691798 0.758877 0.688838
0.694148 0.758206 0.687587
0.695888 0.752010 0.674586
0.698085 0.731075 0.640803
0.766751 0.768551 0.706905
0.000000 0.124422 0.369146
0.000000 0.135164 0.382452
0.316075 0.197177 0.426856
0.568658 0.329656 0.474830
0.751125 0.500145 0.560906
0.000000 0.172183 0.420020
0.012604 0.185367 0.429023
0.373907 0.264958 0.462104
0.588281 0.402869 0.498970
0.752743 0.531273 0.572930
0.095857 0.362707 0.504631
0.202274 0.371435 0.507347
0.487343 0.472999 0.541100
0.635309 0.564782 0.566918
0.766171 0.620111 0.614893
0.561517 0.656092 0.626856
0.575158 0.658412 0.628077
0.625849 0.670130 0.636439
0.698177 0.694575 0.656306
0.792538 0.709865 0.663111
0.722164 0.783047 0.741329
0.723445 0.782559 0.740200
0.728511 0.780117 0.734585
0.734646 0.769223 0.714717
0.774655 0.778378 0.731044
0.000000 0.209476 0.605921
0.144015 0.224735 0.609766
0.437354 0.314855 0.625422
0.640040 0.509026 0.642725
0.727687 0.591699 0.657252
0.000000 0.251865 0.612726
0.210300 0.269444 0.616358
0.456764 0.360296 0.629358
0.643091 0.531395 0.645655
0.727138 0.607263 0.660517
0.157382 0.377630 0.631006
0.272618 0.400336 0.634485
0.491127 0.481758 0.645472
0.656123 0.596887 0.661128
0.733700 0.659754 0.680140
0.431159 0.605402 0.671534
0.442084 0.603449 0.670314
0.491157 0.598260 0.667781
0.666072 0.665126 0.691310
0.757717 0.729274 0.722713
0.684565 0.767636 0.750362
0.688228 0.768215 0.750698
0.705684 0.772671 0.754177
0.739162 0.781674 0.761105
0.795407 0.802701 0.779385
