20 Preset/Rover Style/【3】LUT video cho PR-AE-FCPX/Rover 01 P.cube
# Created by Adobe Lightroom plugin Export LUT (1.24.0)
# www.johnrellis.com/lightroom/exportlut.htm
# Preset: Rover 01 P
# Color profile: E:\lut插件\exportlut.1.24\exportlut.lrplugin\color profiles\Rec709gamma2.4.icc
LUT_3D_SIZE 32
DOMAIN_MIN 0.0 0.0 0.0
DOMAIN_MAX 1.0 1.0 1.0
0.011261 0.024048 0.012299
0.011261 0.024048 0.012299
0.013245 0.023835 0.012299
0.014527 0.024811 0.012146
0.017487 0.025574 0.013123
0.020752 0.026307 0.012940
0.026978 0.027832 0.013733
0.034455 0.030304 0.014405
0.047944 0.032136 0.015015
0.068635 0.034272 0.015442
0.090883 0.037232 0.015534
0.107881 0.040375 0.015229
0.131502 0.042206 0.014282
0.163882 0.039673 0.013550
0.205997 0.026551 0.012757
0.257206 0.000000 0.009216
0.317235 0.000000 0.005341
0.383062 0.000000 0.000000
0.450446 0.000000 0.000000
0.514855 0.000000 0.000000
0.578027 0.000000 0.000000
0.638025 0.000000 0.000000
0.685786 0.000000 0.000000
0.724941 0.000000 0.000000
0.757565 0.000000 0.000000
0.784390 0.000000 0.003265
0.806760 0.000000 0.063142
0.825650 0.006989 0.110811
0.841520 0.166323 0.147402
0.854978 0.235477 0.186343
0.866270 0.296269 0.230076
0.875364 0.353582 0.278233
0.011261 0.024048 0.012299
0.013245 0.023835 0.012299
0.013245 0.023835 0.012299
0.014527 0.024811 0.012146
0.017487 0.025574 0.013123
0.020020 0.027527 0.012787
0.026246 0.029023 0.013611
0.034455 0.030304 0.014405
0.045930 0.032349 0.015015
0.066651 0.034485 0.015442
0.089387 0.037659 0.015534
0.106691 0.040803 0.015229
0.129274 0.043305 0.014313
0.161379 0.040253 0.013764
0.202762 0.028473 0.013031
0.253452 0.000000 0.009552
0.312383 0.000000 0.005951
0.377478 0.000000 0.000000
0.444923 0.000000 0.000000
0.509606 0.000000 0.000000
0.572320 0.000000 0.000000
0.631373 0.000000 0.000000
0.679042 0.000000 0.000000
0.718349 0.000000 0.000000
0.751247 0.000000 0.000000
0.778958 0.000000 0.000000
0.802274 0.000000 0.048646
0.821958 0.000000 0.103182
0.838560 0.150637 0.140108
0.852537 0.224002 0.179263
0.864439 0.286351 0.222599
0.874052 0.344335 0.269993
0.012512 0.025025 0.012146
0.012238 0.025025 0.013275
0.012238 0.025025 0.013275
0.013489 0.026001 0.013123
0.018738 0.026551 0.012940
0.020996 0.028504 0.013764
0.025238 0.030243 0.014588
0.035431 0.031281 0.015381
0.047211 0.033326 0.014862
0.067201 0.036652 0.015137
0.090608 0.038422 0.015381
0.107088 0.041779 0.015076
0.129335 0.045502 0.015137
0.161135 0.042664 0.013458
0.202090 0.031312 0.012726
0.252415 0.003418 0.009308
0.310796 0.000000 0.005585
0.376013 0.000000 0.000000
0.442847 0.000000 0.000000
0.507439 0.000000 0.000000
0.570581 0.000000 0.000000
0.628931 0.000000 0.000000
0.676020 0.000000 0.000000
0.715450 0.000000 0.000000
0.748531 0.000000 0.000000
0.776211 0.000000 0.000000
0.799863 0.000000 0.042145
0.819883 0.000000 0.100008
0.836851 0.146853 0.136416
0.851102 0.220951 0.176455
0.863218 0.282933 0.218784
0.873014 0.341070 0.266361
0.012787 0.027222 0.012970
0.012787 0.027222 0.012970
0.013764 0.028199 0.013947
0.015747 0.027955 0.013947
0.018311 0.029908 0.013642
0.021271 0.030671 0.014588
0.027802 0.032197 0.014252
0.037995 0.033234 0.015045
0.050752 0.036255 0.015534
0.070741 0.039612 0.015808
0.091676 0.042573 0.015869
0.109071 0.045472 0.015564
0.131594 0.049928 0.015473
0.163363 0.047852 0.013611
0.204227 0.036072 0.011749
0.253910 0.009369 0.009277
0.311009 0.000000 0.005341
0.374670 0.000000 0.000000
0.440986 0.000000 0.000000
0.504753 0.000000 0.000000
0.567132 0.000000 0.000000
0.623560 0.000000 0.000000
0.670314 0.000000 0.000000
0.710170 0.000000 0.000000
0.744137 0.000000 0.000000
0.773251 0.000000 0.000000
0.797787 0.000000 0.039734
0.818387 0.000000 0.100252
0.835721 0.154818 0.136873
0.850095 0.225528 0.175937
0.862181 0.285771 0.218845
0.871885 0.342168 0.265415
0.015320 0.031342 0.014618
0.015320 0.031342 0.014618
0.015015 0.031342 0.015747
0.016297 0.032319 0.015595
0.017578 0.033295 0.015442
0.023072 0.036011 0.016083
0.031586 0.037293 0.015747
0.040101 0.038605 0.015412
0.054841 0.041382 0.015869
0.077821 0.043305 0.015167
0.094606 0.047242 0.016205
0.112093 0.052125 0.015595
0.135286 0.055909 0.014343
0.167147 0.054139 0.014557
0.208499 0.043183 0.012329
0.258366 0.019287 0.009216
0.315831 0.000000 0.003571
0.378882 0.000000 0.000000
0.444190 0.000000 0.000000
0.506981 0.000000 0.000000
0.569665 0.000000 0.000000
0.623896 0.000000 0.000000
0.669764 0.000000 0.000000
0.709285 0.000000 0.000000
0.743160 0.000000 0.000000
0.772335 0.000000 0.000000
0.796719 0.000000 0.042481
0.817197 0.046693 0.101228
0.834409 0.168704 0.138613
0.848722 0.233524 0.177096
0.860685 0.291264 0.219547
0.870451 0.345525 0.265476
0.016815 0.036683 0.017243
0.016815 0.036683 0.017243
0.016114 0.037873 0.017090
0.018097 0.037659 0.017090
0.020356 0.039612 0.017914
0.022614 0.041566 0.018738
0.030976 0.046235 0.017945
0.048005 0.048829 0.017243
0.064454 0.049226 0.016876
0.084535 0.052094 0.017151
0.100069 0.056580 0.016907
0.118349 0.061769 0.016083
0.142977 0.066163 0.015595
0.176608 0.065095 0.013001
0.218692 0.055390 0.011170
0.268894 0.032044 0.007294
0.326696 0.000000 0.001678
0.389990 0.000000 0.000000
0.454108 0.000000 0.000000
0.516777 0.000000 0.000000
0.577447 0.000000 0.000000
0.629725 0.000000 0.000000
0.710140 0.000000 0.000000
0.744564 0.000000 0.000000
0.773098 0.000000 0.000000
0.796445 0.000000 0.051209
0.815854 0.127352 0.106264
0.832029 0.192874 0.141360
0.845518 0.247654 0.178500
0.856901 0.298589 0.218418
0.866453 0.346899 0.260685
0.874083 0.393286 0.305241
0.017487 0.046601 0.019287
0.017487 0.046601 0.019287
0.018463 0.047578 0.020264
0.019715 0.048554 0.020081
0.024964 0.049104 0.019928
0.028199 0.052033 0.021729
0.034974 0.057893 0.024170
0.049409 0.067475 0.023713
0.081819 0.072633 0.020081
0.097200 0.075380 0.019013
0.112306 0.076539 0.017884
0.134157 0.079927 0.016663
0.163577 0.081453 0.015534
0.200687 0.080385 0.014008
0.245548 0.071168 0.009461
0.297154 0.047333 0.004730
0.355169 0.003235 0.000000
0.417151 0.000000 0.000000
0.479072 0.000000 0.000000
0.544274 0.000000 0.000000
0.604273 0.000000 0.000000
0.656001 0.000000 0.000000
0.699611 0.000000 0.000000
0.736751 0.000000 0.000000
0.767544 0.000000 0.000000
0.791958 0.056184 0.048890
0.811887 0.153231 0.105135
0.828244 0.208499 0.140810
0.841855 0.257786 0.177707
0.853422 0.304814 0.216556
0.863066 0.351141 0.258793
0.870939 0.395850 0.303136
0.019928 0.061860 0.022797
0.019928 0.061860 0.022797
0.021607 0.061646 0.023926
0.024872 0.062409 0.023743
0.027131 0.064363 0.024567
0.034638 0.066835 0.025208
0.041382 0.072694 0.027680
0.054658 0.080720 0.031769
0.080964 0.089906 0.032288
0.103426 0.095033 0.024781
0.127108 0.097383 0.022126
0.150118 0.096162 0.020417
0.177920 0.094209 0.017884
0.215915 0.094514 0.015290
0.261082 0.091676 0.010620
0.312627 0.080751 0.004608
0.369726 0.043214 0.000000
0.429938 0.000000 0.000000
0.492958 0.000000 0.000000
0.554162 0.000000 0.000000
0.609247 0.000000 0.000000
0.657404 0.000000 0.000000
0.698817 0.000000 0.000000
0.734524 0.000000 0.000000
0.764553 0.020233 0.000000
0.788785 0.132265 0.054139
0.808560 0.184695 0.108522
0.824887 0.230320 0.143557
0.838499 0.274632 0.180972
0.850126 0.317815 0.219272
0.859770 0.361425 0.261418
0.867857 0.403601 0.305119
0.022492 0.082338 0.028656
0.022492 0.082338 0.028656
0.024475 0.082185 0.028626
0.027436 0.082673 0.029603
0.033661 0.083589 0.030396
0.041871 0.084413 0.031189
0.051179 0.088716 0.033326
0.066682 0.093019 0.038239
0.086030 0.099336 0.043183
0.104433 0.110811 0.047211
0.135958 0.119173 0.030365
0.174655 0.124178 0.023346
0.206180 0.121767 0.018921
0.240543 0.116152 0.015564
0.282139 0.110292 0.010071
0.333318 0.105379 0.002136
0.389685 0.094514 0.000000
0.450202 0.061616 0.000000
0.511131 0.007019 0.000000
0.567071 0.000000 0.000000
0.617578 0.000000 0.000000
0.662287 0.000000 0.000000
0.701198 0.000000 0.000000
0.734798 0.089723 0.000000
0.763302 0.138643 0.006867
0.786740 0.179416 0.070497
0.805966 0.218967 0.115633
0.821988 0.257908 0.151125
0.835416 0.296818 0.187015
0.846830 0.336278 0.225742
0.856474 0.376257 0.267430
0.864622 0.415686 0.310185
0.024537 0.098177 0.037049
0.026520 0.098085 0.037049
0.028504 0.098024 0.037018
0.033051 0.098604 0.036713
0.039979 0.098726 0.037659
0.049470 0.099458 0.038300
0.064179 0.101045 0.040711
0.079957 0.106630 0.045838
0.093507 0.114260 0.051789
0.108644 0.124788 0.062196
0.135958 0.142428 0.071565
0.180880 0.154269 0.038666
0.231815 0.160494 0.020874
0.276829 0.157992 0.012940
0.316991 0.149447 0.007294
0.359686 0.135866 0.000336
0.415808 0.127626 0.000000
0.475135 0.120119 0.000000
0.531090 0.112032 0.000000
0.582086 0.105653 0.000000
0.627863 0.105928 0.000000
0.667842 0.115267 0.000000
0.702968 0.134615 0.000000
0.733883 0.160189 0.006928
0.760311 0.189059 0.050263
0.782650 0.218540 0.095827
0.801602 0.249454 0.123171
0.817746 0.281956 0.155306
0.831144 0.317418 0.192691
0.842741 0.353979 0.231449
0.852506 0.391608 0.273625
0.860899 0.428901 0.316472
0.020813 0.117830 0.046052
0.022797 0.117800 0.046021
0.024079 0.118044 0.045869
0.031006 0.118105 0.046815
0.040497 0.118685 0.047456
0.052949 0.119448 0.049073
0.069642 0.120668 0.051484
0.088472 0.125399 0.055116
0.100954 0.134554 0.062470
0.119936 0.146517 0.074556
0.144289 0.161898 0.088563
0.182650 0.186465 0.100221
0.240543 0.202426 0.060121
0.303624 0.208957 0.018189
0.364446 0.208682 0.000000
0.410254 0.198154 0.000000
0.454688 0.183810 0.000000
0.497963 0.165377 0.000000
0.548577 0.163882 0.000000
0.594720 0.165286 0.000000
0.636378 0.169986 0.000000
0.672847 0.179751 0.000000
0.705470 0.194858 0.020691
0.734371 0.214237 0.058259
0.759396 0.236973 0.096956
0.780575 0.261204 0.120943
0.798642 0.287449 0.147066
0.814145 0.315068 0.174350
0.827573 0.344335 0.204196
0.838956 0.377264 0.242802
0.848722 0.411475 0.284062
0.857115 0.445655 0.326360
0.000000 0.145998 0.057374
0.001282 0.145937 0.057343
0.004242 0.146090 0.058320
0.011749 0.146578 0.058961
0.025208 0.146914 0.059571
0.046571 0.147494 0.062135
0.073060 0.148836 0.064057
0.094301 0.149874 0.067048
0.110689 0.160433 0.078187
0.132174 0.173892 0.088502
0.159548 0.190860 0.098604
0.195010 0.211856 0.112642
0.272557 0.266056 0.144625
0.349706 0.290623 0.115908
0.426612 0.298497 0.067903
0.490852 0.298833 0.049561
0.533806 0.287297 0.051637
0.569909 0.271122 0.048554
0.603357 0.253574 0.040589
0.636683 0.242832 0.041169
0.670680 0.251194 0.069612
0.700587 0.261753 0.094392
0.727108 0.275700 0.111513
0.750393 0.291966 0.130648
0.770474 0.310246 0.152438
0.787716 0.329625 0.174044
0.802579 0.350164 0.196933
0.815671 0.371771 0.221683
0.827298 0.394934 0.247715
0.838071 0.419715 0.276921
0.846952 0.447852 0.314366
0.854826 0.476875 0.354070
0.000000 0.189029 0.080720
0.000000 0.188876 0.080110
0.000000 0.188754 0.080079
0.000000 0.188693 0.081361
0.000000 0.188663 0.082521
0.027741 0.188724 0.084199
0.072969 0.188785 0.085725
0.102205 0.189487 0.088380
0.123476 0.194736 0.092531
0.149477 0.210605 0.102144
0.183230 0.232670 0.115999
0.227390 0.260075 0.135470
0.281468 0.292821 0.160403
0.352575 0.337102 0.192874
0.427955 0.362799 0.173861
0.497139 0.366888 0.132265
0.551415 0.365728 0.127504
0.591852 0.355932 0.125460
0.620661 0.340612 0.124514
0.647333 0.323644 0.120912
0.672114 0.306676 0.115877
0.698116 0.306249 0.124269
0.723293 0.317845 0.140261
0.745541 0.331518 0.158450
0.764950 0.346654 0.177310
0.781827 0.363439 0.198032
0.796506 0.381628 0.220523
0.809354 0.401190 0.245090
0.821042 0.422034 0.270970
0.831876 0.444282 0.298558
0.841886 0.467323 0.327825
0.850309 0.493080 0.364721
0.000000 0.231083 0.097230
0.000000 0.231083 0.097230
0.000000 0.230625 0.097383
0.000000 0.230716 0.097963
0.000000 0.230930 0.099214
0.000000 0.231296 0.100557
0.065461 0.231632 0.102144
0.107149 0.232670 0.104738
0.135348 0.233921 0.107607
0.165316 0.247654 0.117556
0.200961 0.269963 0.132967
0.245945 0.297063 0.153597
0.299504 0.328557 0.179873
0.359197 0.362615 0.212039
0.426429 0.403571 0.250797
0.490486 0.427649 0.242161
0.548852 0.429511 0.202853
0.595026 0.426184 0.190005
0.632685 0.419623 0.185122
0.656062 0.404974 0.184421
0.678126 0.389868 0.180911
0.699855 0.375647 0.176547
0.720333 0.361212 0.172183
0.741451 0.371710 0.188632
0.759915 0.384771 0.206851
0.776150 0.399298 0.226902
0.790494 0.414893 0.248539
0.803159 0.431708 0.271641
0.814755 0.450294 0.297063
0.825650 0.469795 0.322942
0.835843 0.490150 0.350561
0.845396 0.511406 0.379797
0.000000 0.285771 0.121370
0.000000 0.285740 0.121645
0.000000 0.285100 0.121279
0.000000 0.284154 0.121553
0.000000 0.283299 0.122530
0.000000 0.282475 0.123384
0.062104 0.282078 0.125032
0.116243 0.281773 0.127504
0.149264 0.281895 0.130404
0.181216 0.284916 0.135561
0.218479 0.306828 0.152102
0.264439 0.333318 0.173831
0.316869 0.362524 0.200320
0.372900 0.393042 0.232547
0.428443 0.424140 0.269352
0.485451 0.459236 0.309911
0.538994 0.482094 0.311681
0.586938 0.483589 0.275334
0.626551 0.479713 0.254398
0.658167 0.473518 0.250340
0.681270 0.463233 0.246891
0.700496 0.451057 0.244205
0.719112 0.439155 0.240818
0.737148 0.427375 0.237064
0.754513 0.421424 0.238102
0.770108 0.433845 0.257603
0.784176 0.447395 0.278294
0.796689 0.462562 0.301427
0.808560 0.478676 0.325017
0.819638 0.496254 0.350530
0.830106 0.515007 0.377661
0.840024 0.534600 0.405921
0.000000 0.339025 0.150576
0.000000 0.339269 0.150881
0.000000 0.338872 0.150973
0.000000 0.338201 0.151339
0.000000 0.337499 0.152010
0.000000 0.336889 0.153353
0.085573 0.336278 0.155184
0.131167 0.336126 0.157259
0.169131 0.335790 0.160189
0.203128 0.335485 0.163638
0.239780 0.345617 0.174777
0.284733 0.369085 0.196384
0.333989 0.394537 0.222904
0.385107 0.420661 0.252995
0.435737 0.447303 0.287205
0.483253 0.473884 0.324102
0.530510 0.503380 0.362799
0.574243 0.525292 0.372839
0.614038 0.527031 0.340917
0.649195 0.523156 0.315435
0.676387 0.519219 0.312871
0.699245 0.512688 0.309697
0.715877 0.503471 0.309056
0.732387 0.494118 0.306737
0.748318 0.485359 0.304112
0.763912 0.476722 0.301366
0.778073 0.479713 0.311376
0.790585 0.492561 0.332738
0.802487 0.506401 0.354894
0.813657 0.521569 0.378210
0.824247 0.537774 0.402899
0.834318 0.554864 0.428534
0.000000 0.387915 0.183383
0.000000 0.388067 0.183322
0.000000 0.387640 0.183413
0.000000 0.387274 0.183719
0.000000 0.386328 0.184176
0.038666 0.385595 0.185275
0.118349 0.384985 0.187411
0.158724 0.383886 0.188815
0.194400 0.383215 0.191714
0.227451 0.382177 0.194430
0.259800 0.381140 0.198093
0.301701 0.398627 0.217075
0.348333 0.421302 0.243107
0.396246 0.444862 0.272953
0.443244 0.468818 0.305486
0.487861 0.492592 0.340063
0.528374 0.515892 0.375311
0.566827 0.541070 0.411566
0.603082 0.562158 0.428412
0.636042 0.564263 0.401617
0.667048 0.561089 0.375341
0.690822 0.558373 0.372808
0.712123 0.554314 0.370184
0.727504 0.547539 0.370336
0.742092 0.540581 0.369207
0.756252 0.534051 0.368353
0.770321 0.528038 0.367224
0.784268 0.522667 0.366217
0.796475 0.532403 0.383917
0.807767 0.545922 0.406256
0.818601 0.560296 0.428992
0.828916 0.575708 0.453010
0.000000 0.433967 0.221378
0.000000 0.434577 0.222232
0.104463 0.451392 0.238743
0.122469 0.450752 0.238590
0.144259 0.450294 0.239750
0.168460 0.448646 0.239597
0.194827 0.447486 0.240818
0.222446 0.445899 0.242069
0.251164 0.444068 0.243931
0.279515 0.442298 0.246067
0.307958 0.440040 0.248234
0.338170 0.441871 0.255039
0.382300 0.461555 0.281102
0.425879 0.481910 0.310246
0.467842 0.502159 0.340795
0.507195 0.522240 0.372137
0.542870 0.541833 0.404120
0.574304 0.560876 0.435096
0.603601 0.581262 0.466804
0.631739 0.599969 0.487160
0.658106 0.601556 0.464759
0.683619 0.599512 0.443793
0.704921 0.596674 0.436133
0.723110 0.593561 0.434150
0.738308 0.588464 0.432441
0.750881 0.582940 0.431495
0.763638 0.577539 0.430060
0.776516 0.572717 0.429023
0.789425 0.569238 0.429145
0.802182 0.568536 0.432837
0.813138 0.581384 0.454017
0.823758 0.595087 0.475685
0.162631 0.478859 0.266819
0.168063 0.480385 0.268803
0.176211 0.481453 0.270054
0.187991 0.482582 0.272404
0.202914 0.482734 0.273625
0.220493 0.481880 0.274449
0.239902 0.480385 0.274784
0.260960 0.478431 0.275181
0.284184 0.476753 0.276555
0.308324 0.474678 0.278050
0.332921 0.472419 0.279789
0.357122 0.469734 0.281468
0.390112 0.478309 0.296330
0.431312 0.496742 0.323888
0.470832 0.515343 0.352636
0.508293 0.533867 0.382574
0.542260 0.552117 0.412818
0.572595 0.570153 0.442939
0.599969 0.587915 0.472663
0.624689 0.605737 0.501671
0.648829 0.624231 0.526055
0.671626 0.626856 0.508751
0.693965 0.626093 0.491890
0.713985 0.624048 0.482063
0.730526 0.622217 0.480934
0.746426 0.619409 0.478706
0.757931 0.615351 0.479286
0.769924 0.611749 0.479225
0.782071 0.608972 0.479957
0.794369 0.607294 0.481605
0.806821 0.606378 0.484443
0.818540 0.612268 0.495644
0.231357 0.510246 0.303288
0.234897 0.511833 0.305608
0.241001 0.512749 0.306889
0.249638 0.513573 0.308812
0.260014 0.513756 0.309972
0.272709 0.513176 0.310857
0.287205 0.511986 0.311528
0.303502 0.510033 0.311315
0.321904 0.508049 0.311925
0.341253 0.506310 0.313176
0.361791 0.503777 0.313848
0.382879 0.501030 0.315068
0.403510 0.497871 0.315801
0.440528 0.512993 0.339818
0.477638 0.529992 0.367315
0.512596 0.546990 0.395850
0.544671 0.563928 0.424414
0.573724 0.580774 0.453010
0.599664 0.596948 0.480995
0.622553 0.612604 0.508293
0.643214 0.628138 0.534722
0.664179 0.646235 0.561608
0.683894 0.649561 0.547936
0.703822 0.649989 0.534112
0.722866 0.648768 0.522789
0.738399 0.648035 0.522332
0.753384 0.646906 0.521233
0.765560 0.644556 0.521813
0.776699 0.642756 0.523552
0.788296 0.641505 0.525597
0.800076 0.641291 0.528832
0.812070 0.642023 0.532921
0.289952 0.539330 0.340734
0.293004 0.540154 0.341985
0.297581 0.541100 0.343633
0.303777 0.541741 0.345190
0.311894 0.541680 0.345861
0.321019 0.541100 0.346502
0.332006 0.540032 0.347021
0.344579 0.538170 0.346410
0.359472 0.536278 0.346593
0.375311 0.534295 0.347143
0.392432 0.532097 0.347814
0.409796 0.529534 0.348302
0.427405 0.526421 0.348333
0.450141 0.528344 0.355627
0.485115 0.544060 0.381933
0.518151 0.560052 0.409186
0.549065 0.576226 0.437232
0.576928 0.592065 0.464912
0.601831 0.607568 0.492348
0.624445 0.622736 0.519280
0.644312 0.637354 0.545281
0.662287 0.651820 0.569848
0.681300 0.669123 0.594476
0.698787 0.674311 0.587213
0.716670 0.676204 0.577173
0.734493 0.676265 0.567193
0.749111 0.676783 0.567102
0.763302 0.676936 0.567254
0.776211 0.676783 0.568383
0.786862 0.676326 0.571527
0.797940 0.676600 0.574945
0.809293 0.677607 0.579095
0.355474 0.571160 0.385595
0.356664 0.571466 0.386145
0.358801 0.571557 0.386664
0.362158 0.571374 0.386938
0.367102 0.570733 0.386786
0.373083 0.569604 0.386267
0.380804 0.568261 0.385779
0.390448 0.566735 0.385565
0.401312 0.564965 0.385229
0.414435 0.563165 0.385534
0.427863 0.560845 0.385229
0.442176 0.558373 0.385077
0.457008 0.555749 0.385321
0.471717 0.552453 0.384619
0.497505 0.560601 0.400763
0.528222 0.575372 0.426886
0.556390 0.590021 0.452918
0.582238 0.604517 0.479225
0.605554 0.618555 0.504753
0.626673 0.632258 0.529839
0.645502 0.645594 0.553979
0.662379 0.658503 0.576471
0.677821 0.671382 0.597406
0.695460 0.687526 0.618494
0.711177 0.693721 0.615656
0.727321 0.696223 0.607721
0.743679 0.697261 0.600031
0.758267 0.698360 0.598566
0.771878 0.699580 0.599817
0.785336 0.700679 0.601343
0.795956 0.701289 0.605127
0.806699 0.702388 0.609430
0.399817 0.593378 0.418189
0.400732 0.593805 0.419074
0.402289 0.593774 0.419196
0.404822 0.593591 0.419348
0.408789 0.592950 0.419104
0.413672 0.592248 0.419165
0.419654 0.591058 0.418738
0.427161 0.589776 0.418463
0.435920 0.588251 0.417975
0.446235 0.586297 0.417487
0.457313 0.584405 0.417365
0.469032 0.582177 0.417060
0.481270 0.579583 0.416541
0.493660 0.576623 0.415625
0.506523 0.573724 0.415290
0.535119 0.587579 0.440223
0.561975 0.601373 0.465644
0.586175 0.614771 0.490578
0.608637 0.628107 0.515557
0.628931 0.641016 0.539666
0.647242 0.653712 0.562799
0.663874 0.666224 0.584436
0.679255 0.678737 0.604425
0.693690 0.691096 0.622980
0.708370 0.704036 0.639002
0.722835 0.711116 0.639704
0.737789 0.714229 0.633478
0.753109 0.716091 0.627771
0.767575 0.717769 0.625635
0.780697 0.719814 0.627893
0.793912 0.721889 0.630488
0.805631 0.723781 0.634607
0.445136 0.616388 0.454383
0.446387 0.616876 0.455360
0.447486 0.616724 0.455329
0.449165 0.616480 0.455329
0.451209 0.615656 0.454566
0.454078 0.614557 0.453651
0.457679 0.613123 0.452247
0.462684 0.611444 0.451057
0.468696 0.609613 0.449653
0.476143 0.607660 0.448737
0.484260 0.605463 0.447608
0.493172 0.602991 0.446143
0.502831 0.600336 0.444739
0.512902 0.597589 0.443702
0.523125 0.594354 0.442023
0.539239 0.596765 0.449622
0.564263 0.609369 0.473396
0.587701 0.621973 0.497719
0.609247 0.634485 0.521477
0.629053 0.646906 0.544976
0.647120 0.659236 0.567651
0.663691 0.671443 0.588647
0.678920 0.683528 0.607935
0.693141 0.695430 0.625879
0.706508 0.707027 0.642573
0.721645 0.721126 0.660182
0.734981 0.728725 0.663661
0.748775 0.732113 0.658564
0.763088 0.734493 0.654139
0.777401 0.736538 0.651545
0.790097 0.739315 0.654810
0.803037 0.742245 0.658503
0.475654 0.632532 0.480232
0.476722 0.632959 0.481147
0.477760 0.633021 0.481331
0.479133 0.632807 0.481209
0.481331 0.632349 0.481178
0.483711 0.631586 0.480507
0.487190 0.630640 0.479866
0.491737 0.629511 0.479255
0.497139 0.628321 0.478584
0.503288 0.626764 0.477729
0.510124 0.625147 0.476997
0.517632 0.623194 0.475990
0.525811 0.620996 0.474983
0.533959 0.618311 0.473091
0.542443 0.615564 0.471534
0.550958 0.612207 0.469215
0.570611 0.620142 0.485908
0.592767 0.631891 0.509026
0.613397 0.643732 0.532158
0.632441 0.655573 0.554864
0.650080 0.667445 0.576471
0.666285 0.679408 0.596582
0.681392 0.691310 0.615290
0.695613 0.703059 0.632929
0.708919 0.714565 0.649622
0.721462 0.725734 0.665858
0.735653 0.739101 0.682734
0.748135 0.747494 0.689174
0.761196 0.751400 0.685664
0.774685 0.754543 0.682979
0.788663 0.757259 0.681209
0.801175 0.760739 0.684962
0.507073 0.649744 0.508629
0.507469 0.649866 0.508843
0.508019 0.649866 0.509056
0.509026 0.649592 0.508782
0.510552 0.649012 0.508171
0.512535 0.648402 0.507805
0.515099 0.647517 0.507042
0.518547 0.646509 0.506340
0.522576 0.645319 0.505486
0.527459 0.643915 0.504540
0.533013 0.642420 0.503655
0.539117 0.640711 0.502647
0.545586 0.638819 0.501427
0.552392 0.636530 0.499855
0.559380 0.633967 0.497963
0.566613 0.630884 0.495308
0.575738 0.629358 0.495796
0.596918 0.640589 0.518334
0.616999 0.651942 0.541131
0.635554 0.663386 0.563104
0.652674 0.674952 0.583856
0.668605 0.686671 0.603357
0.683528 0.698390 0.621668
0.697597 0.709926 0.638849
0.710750 0.721126 0.655299
0.723171 0.732021 0.671412
0.735042 0.742672 0.687007
0.748257 0.755215 0.702998
0.760037 0.764065 0.711666
0.772519 0.768551 0.709773
0.785489 0.772366 0.708614
0.798611 0.775662 0.708125
0.533257 0.664759 0.533379
0.533562 0.664881 0.533532
0.534203 0.664912 0.533806
0.535149 0.664759 0.533837
0.536461 0.664424 0.533471
0.538415 0.664057 0.533288
0.541192 0.663783 0.533501
0.544884 0.663355 0.533715
0.549157 0.662989 0.534173
0.553979 0.662440 0.534295
0.559289 0.661738 0.534417
0.564996 0.660822 0.534264
0.570977 0.659693 0.534020
0.577081 0.658076 0.533043
0.583124 0.656184 0.531731
0.589197 0.653834 0.529778
0.595239 0.651209 0.527489
0.607935 0.654780 0.536706
0.627131 0.665766 0.558801
0.644862 0.677089 0.579858
0.661341 0.688594 0.599573
0.676814 0.700221 0.618280
0.691310 0.711696 0.635798
0.705043 0.722927 0.652735
0.717983 0.733913 0.669184
0.730282 0.744564 0.685145
0.741878 0.754849 0.700496
0.752865 0.764797 0.715206
0.765072 0.776303 0.730220
0.776089 0.785153 0.740200
0.787533 0.789639 0.739223
0.799466 0.793668 0.739162
0.564416 0.684108 0.564599
0.564569 0.684108 0.564691
0.564843 0.683955 0.564477
0.565240 0.683650 0.564080
0.566125 0.683375 0.563897
0.567285 0.682734 0.563226
0.569055 0.682216 0.562890
0.571344 0.681483 0.562341
0.574029 0.680659 0.561730
0.577295 0.679713 0.561059
0.580987 0.678676 0.560418
0.585046 0.677516 0.559625
0.589471 0.676051 0.558495
0.594171 0.674464 0.557244
