20 Preset/Rover Style/【3】LUT video cho PR-AE-FCPX/Rover 05 P.cube
# Created by Adobe Lightroom plugin Export LUT (1.24.0)
# www.johnrellis.com/lightroom/exportlut.htm
# Preset: Rover 05 P
# Color profile: E:\lut插件\exportlut.1.24\exportlut.lrplugin\color profiles\Rec709gamma2.4.icc
LUT_3D_SIZE 8
DOMAIN_MIN 0.000000 0.000000 0.000000
DOMAIN_MAX 0.903226 0.903226 0.903226
0.013092 0.027222 0.011841
0.036316 0.033478 0.013916
0.093416 0.050843 0.020294
0.162905 0.058961 0.025696
0.339605 0.000000 0.024262
0.604028 0.000000 0.008972
0.789303 0.000000 0.032013
0.886564 0.000000 0.141970
0.027161 0.062165 0.022614
0.036347 0.064424 0.024384
0.098482 0.073701 0.022553
0.171908 0.077150 0.026642
0.348180 0.000000 0.024262
0.603662 0.000000 0.007416
0.783505 0.000000 0.028412
0.881651 0.000000 0.139467
0.062593 0.116487 0.060609
0.078370 0.115999 0.060517
0.108522 0.120333 0.071412
0.237797 0.132174 0.029664
0.437598 0.041077 0.005524
0.660273 0.000000 0.000000
0.807614 0.000000 0.047425
0.882383 0.278935 0.175753
0.114199 0.231144 0.140017
0.126223 0.228000 0.137911
0.167269 0.220676 0.132998
0.265965 0.256168 0.167575
0.526543 0.330388 0.116548
0.723507 0.295811 0.000000
0.817685 0.346960 0.093538
0.871153 0.433631 0.239170
0.231937 0.441840 0.273533
0.241062 0.437324 0.269291
0.277775 0.422309 0.255894
0.361242 0.423407 0.262730
0.489754 0.470283 0.327886
0.651026 0.536675 0.329412
0.786130 0.545525 0.278111
0.854917 0.553643 0.328954
0.438453 0.588403 0.428565
0.444739 0.589166 0.429511
0.453071 0.579553 0.416938
0.468849 0.559747 0.391180
0.544518 0.575402 0.423529
0.626001 0.611383 0.486702
0.713802 0.657130 0.521386
0.807034 0.678523 0.513024
0.578088 0.678340 0.552880
0.578851 0.677546 0.551446
0.578851 0.672236 0.542351
0.580194 0.661372 0.523766
0.590082 0.646662 0.500786
0.652338 0.669612 0.550591
0.701717 0.694759 0.601251
0.755123 0.728054 0.637018
0.667231 0.743069 0.646937
0.667170 0.742336 0.645686
0.667170 0.739620 0.641016
0.667659 0.734096 0.631342
0.663386 0.720485 0.608179
0.685695 0.722072 0.613367
0.727810 0.742611 0.653651
0.762600 0.763180 0.691554
0.018006 0.035248 0.023072
0.029511 0.044068 0.021637
0.093233 0.058564 0.024903
0.164858 0.074311 0.027893
0.338903 0.000000 0.024872
0.595270 0.000000 0.007935
0.776272 0.000000 0.025086
0.878019 0.000000 0.131106
0.029175 0.067262 0.030915
0.043885 0.072236 0.033326
0.099641 0.081880 0.033478
0.177249 0.086763 0.030701
0.355138 0.000000 0.022400
0.604486 0.000000 0.005493
0.775998 0.000000 0.024445
0.874998 0.000000 0.130983
0.077455 0.120211 0.080568
0.086366 0.121523 0.079255
0.114107 0.124819 0.086915
0.239322 0.131136 0.050294
0.433936 0.074128 0.016297
0.651728 0.000000 0.000000
0.794034 0.000000 0.029419
0.875700 0.260166 0.160098
0.129152 0.234897 0.155245
0.133333 0.233097 0.150149
0.172396 0.224979 0.143648
0.262028 0.252293 0.173342
0.509728 0.314458 0.127718
0.704829 0.274266 0.000000
0.806363 0.325566 0.046082
0.866300 0.415961 0.217044
0.248508 0.446876 0.289036
0.253056 0.442084 0.283055
0.285222 0.425666 0.267857
0.358740 0.419745 0.267521
0.482582 0.463020 0.327703
0.645411 0.529351 0.327459
0.781674 0.538140 0.279454
0.852873 0.546166 0.315221
0.441505 0.588556 0.434089
0.443977 0.586572 0.431586
0.453193 0.577752 0.420325
0.469673 0.559167 0.396368
0.541741 0.572625 0.424262
0.624353 0.609735 0.487831
0.712764 0.655360 0.520623
0.805814 0.675898 0.511406
0.577569 0.677241 0.553674
0.576989 0.675624 0.551080
0.576867 0.670283 0.541955
0.578973 0.659907 0.524407
0.587732 0.644678 0.500206
0.650263 0.667659 0.549432
0.699489 0.692256 0.598993
0.753140 0.725338 0.633692
0.666224 0.742000 0.646540
0.666590 0.741665 0.645808
0.666590 0.738857 0.641138
0.667109 0.733364 0.631617
0.667079 0.723445 0.613855
0.686397 0.722805 0.615229
0.727535 0.742428 0.653986
0.762417 0.762936 0.691707
0.031495 0.055207 0.050568
0.040833 0.060853 0.050721
0.081575 0.080262 0.056123
0.161318 0.086488 0.084993
0.368139 0.000000 0.084627
0.619806 0.000000 0.073579
0.790463 0.000000 0.042145
0.880919 0.151644 0.146334
0.042054 0.081544 0.069062
0.056367 0.085389 0.070192
0.094240 0.094789 0.075074
0.180545 0.095613 0.092470
0.382483 0.000000 0.092348
0.627527 0.000000 0.086976
0.788968 0.000000 0.055085
0.878325 0.181247 0.147311
0.078584 0.129397 0.111757
0.092409 0.132174 0.113954
0.137148 0.144045 0.123293
0.255711 0.147311 0.122377
0.457527 0.120851 0.119570
0.666377 0.023682 0.114046
0.799435 0.160616 0.106172
0.875792 0.301061 0.173587
0.155703 0.267338 0.212741
0.171145 0.270268 0.214145
0.216129 0.276066 0.210971
0.304112 0.289830 0.228885
0.548699 0.332921 0.195010
0.705837 0.325475 0.171847
0.803342 0.375158 0.187839
0.866941 0.437629 0.234745
0.312688 0.476143 0.354955
0.322972 0.475654 0.353918
0.347784 0.471168 0.342046
0.393835 0.448768 0.320165
0.509331 0.489937 0.378851
0.660090 0.546227 0.375921
0.781582 0.545556 0.340368
0.846952 0.561852 0.365667
0.485206 0.604242 0.478828
0.489631 0.604089 0.478645
0.491127 0.598383 0.465675
0.503197 0.581018 0.443427
0.554192 0.582361 0.451606
0.630854 0.617273 0.509178
0.716518 0.660548 0.537438
0.805295 0.679286 0.533135
0.603967 0.686580 0.582757
0.602502 0.685451 0.579919
0.597620 0.680568 0.568444
0.597986 0.670619 0.551904
0.599878 0.653132 0.523156
0.654994 0.671839 0.562646
0.703212 0.696834 0.610407
0.757382 0.730037 0.642451
0.676387 0.747097 0.660273
0.675227 0.746334 0.658259
0.673610 0.743648 0.652461
0.674464 0.738674 0.644007
0.674189 0.728908 0.627100
0.687648 0.724300 0.620539
0.729122 0.744259 0.659022
0.763973 0.764920 0.696315
0.040009 0.078004 0.105501
0.056794 0.081605 0.107515
0.099763 0.094575 0.114046
0.150698 0.111238 0.128878
0.302647 0.118746 0.178592
0.603571 0.000000 0.189395
0.781979 0.020386 0.212650
0.869810 0.263371 0.237308
0.046876 0.094148 0.124544
0.065217 0.096468 0.125856
0.110658 0.107301 0.131350
0.168215 0.124971 0.145174
0.329870 0.131014 0.193210
0.620233 0.000000 0.198581
0.782559 0.145052 0.224399
0.867796 0.290257 0.248051
0.035126 0.137026 0.174472
0.063020 0.139254 0.177859
0.146487 0.156619 0.191196
0.233738 0.186191 0.204288
0.436103 0.195804 0.248173
0.666590 0.230777 0.262943
0.788754 0.311589 0.282444
0.861936 0.389899 0.301610
0.135531 0.285618 0.286412
0.157626 0.289891 0.288945
0.236515 0.310277 0.301427
0.370489 0.351446 0.327398
0.551659 0.368597 0.327123
0.686122 0.400000 0.333196
0.781491 0.444739 0.348180
0.847074 0.492073 0.371984
0.389654 0.521904 0.447333
0.397681 0.521141 0.445991
0.432166 0.521050 0.443915
0.478828 0.520165 0.436164
0.547387 0.529686 0.452918
0.683558 0.566125 0.445045
0.775143 0.565148 0.434333
0.831022 0.591577 0.461097
0.532525 0.629847 0.537682
0.538293 0.631434 0.539452
0.549554 0.629206 0.536004
0.562982 0.623468 0.524041
0.580499 0.605585 0.502037
0.646113 0.634760 0.549645
0.726070 0.671229 0.567224
0.805875 0.683223 0.565087
0.624262 0.698207 0.613001
0.625696 0.697993 0.612726
0.630671 0.696742 0.610773
0.631586 0.691310 0.599023
0.631373 0.676173 0.575158
0.664210 0.680537 0.586603
0.709194 0.704128 0.628473
0.764065 0.736324 0.654932
0.689387 0.756130 0.681086
0.689876 0.755795 0.680568
0.691951 0.754604 0.678584
0.689113 0.750088 0.668055
0.687953 0.740414 0.652064
0.688472 0.726528 0.628901
0.731197 0.747036 0.667140
0.766903 0.768490 0.704585
0.000000 0.096132 0.191318
0.011597 0.098939 0.195224
0.101381 0.109255 0.207370
0.193851 0.137362 0.229862
0.308812 0.163394 0.262425
0.512139 0.211765 0.339208
0.728573 0.240482 0.385229
0.845212 0.339086 0.395575
0.000000 0.109010 0.214969
0.006287 0.111727 0.218631
0.111727 0.122805 0.229374
0.212192 0.152499 0.249577
0.330114 0.182101 0.280217
0.525200 0.238437 0.353094
0.732143 0.271550 0.394903
0.842130 0.369238 0.406806
0.000000 0.156558 0.280095
0.000000 0.160342 0.284672
0.147951 0.176669 0.297459
0.277470 0.218112 0.317174
0.403662 0.265721 0.341772
0.565637 0.330510 0.398810
0.741726 0.367102 0.424994
0.828336 0.462348 0.447028
0.000000 0.277989 0.371710
0.088258 0.282231 0.374243
0.195712 0.299504 0.386419
0.376623 0.361089 0.415381
0.502953 0.428504 0.435187
0.631342 0.464820 0.469154
0.749844 0.503166 0.479530
0.817746 0.546593 0.494331
0.348730 0.506371 0.483101
0.363745 0.509300 0.484840
0.417426 0.519890 0.491035
0.497169 0.539544 0.503471
0.581292 0.566461 0.521752
0.674556 0.577539 0.522759
0.749599 0.594507 0.528954
0.810666 0.615351 0.539422
0.564508 0.648341 0.588525
0.569665 0.649195 0.589746
0.581659 0.648463 0.588251
0.598871 0.645655 0.582879
0.619806 0.641779 0.573571
0.659327 0.650385 0.587854
0.739864 0.677913 0.595483
0.806851 0.682277 0.594324
0.645594 0.712551 0.648310
0.646021 0.711971 0.647425
0.648768 0.710201 0.644404
0.656886 0.708125 0.640589
0.663478 0.702022 0.629084
0.670649 0.687922 0.609674
0.714931 0.711299 0.647517
0.772457 0.741085 0.666133
0.696529 0.764096 0.700282
0.697047 0.763790 0.699794
0.699275 0.762692 0.698054
0.705013 0.761654 0.695979
0.705135 0.755764 0.683986
0.702449 0.740810 0.660121
0.731319 0.748592 0.675044
0.768582 0.770809 0.712551
0.000000 0.118502 0.334112
0.000000 0.121279 0.338445
0.000000 0.132540 0.351751
0.221073 0.162173 0.379034
0.399390 0.238529 0.412665
0.530571 0.289220 0.441291
0.659632 0.395911 0.496590
0.772885 0.478828 0.544182
0.000000 0.130770 0.349096
0.000000 0.133272 0.352026
0.034089 0.145602 0.364385
0.234897 0.176333 0.388220
0.409491 0.255192 0.419257
0.535485 0.308049 0.446662
0.659113 0.409369 0.499763
0.772152 0.486000 0.545739
0.000000 0.185061 0.409766
0.000000 0.188693 0.411963
0.143404 0.206088 0.421973
0.303166 0.246525 0.437720
0.466377 0.339788 0.461219
0.568444 0.397711 0.482033
0.668391 0.476020 0.526207
0.773251 0.528923 0.563043
0.000000 0.285679 0.464332
0.000000 0.292668 0.467689
0.231388 0.325902 0.482643
0.400305 0.388037 0.503197
0.537713 0.470497 0.521477
0.611933 0.519524 0.537560
0.684382 0.564660 0.569757
0.778012 0.591302 0.592340
0.304112 0.484657 0.532616
0.318669 0.487098 0.533532
0.372473 0.496895 0.537713
0.454688 0.514702 0.546410
0.575586 0.563592 0.568719
0.645106 0.606683 0.585168
0.711147 0.626062 0.606561
0.788174 0.642390 0.613977
0.528374 0.632807 0.603021
0.534813 0.634607 0.604425
0.554925 0.638483 0.606958
0.589746 0.646204 0.612207
0.632959 0.657923 0.620752
0.681392 0.675898 0.635584
0.739467 0.684871 0.639551
0.794827 0.695888 0.644892
0.658961 0.725154 0.680476
0.661341 0.725917 0.681392
0.669551 0.727779 0.683497
0.684932 0.731441 0.687617
0.693263 0.728267 0.681453
0.701411 0.720638 0.668086
0.726772 0.725460 0.676783
0.789609 0.749416 0.687007
0.716365 0.778927 0.732692
0.716396 0.778561 0.732052
0.717433 0.777615 0.730190
0.720058 0.776120 0.726833
0.724239 0.772763 0.720363
0.727169 0.765286 0.706752
0.732113 0.752224 0.687739
0.773007 0.776364 0.726467
0.000000 0.151644 0.484565
0.000000 0.155428 0.488533
0.000000 0.169375 0.497505
0.266880 0.204532 0.515160
0.455604 0.287602 0.536065
0.589899 0.432563 0.556359
0.660609 0.464881 0.570062
0.726741 0.537438 0.599634
0.000000 0.162325 0.486336
0.000000 0.166262 0.490639
0.000000 0.180606 0.499092
0.273869 0.215396 0.514397
0.455543 0.296757 0.533715
0.585565 0.433265 0.552270
0.654749 0.463539 0.564721
0.722072 0.532311 0.593835
0.000000 0.217807 0.519585
0.000000 0.221988 0.521233
0.170077 0.239750 0.527001
0.335912 0.283665 0.538964
0.492561 0.367956 0.553399
0.603876 0.485725 0.570886
0.666407 0.517296 0.584619
0.726345 0.575006 0.612665
0.095949 0.318700 0.554223
0.148775 0.324407 0.555627
0.273442 0.352880 0.563317
0.411200 0.401862 0.573297
0.538811 0.473426 0.585443
0.632502 0.559258 0.602319
0.682338 0.588952 0.614313
0.731075 0.625208 0.636500
0.218021 0.447913 0.579858
0.231205 0.447578 0.579065
0.285618 0.450965 0.579431
0.427680 0.491554 0.593072
0.561273 0.551751 0.610224
0.650233 0.612451 0.625971
0.694118 0.641810 0.638087
0.739315 0.668910 0.661311
0.473579 0.609735 0.629480
0.479072 0.610620 0.629908
0.499184 0.613428 0.631159
0.534966 0.618860 0.633692
0.582849 0.626673 0.637446
0.668116 0.664332 0.657343
0.717433 0.696956 0.675013
0.764309 0.709590 0.691707
0.625177 0.707393 0.681941
0.627832 0.708278 0.682734
0.636103 0.710018 0.683955
0.652369 0.713954 0.686976
0.675257 0.719844 0.691493
0.705257 0.729122 0.699092
0.742092 0.743709 0.712123
0.791531 0.752316 0.717311
0.714076 0.782101 0.748440
0.715419 0.782498 0.748898
0.721492 0.784665 0.751278
0.731868 0.787747 0.754543
0.747158 0.792294 0.759548
0.754116 0.790158 0.754635
0.757107 0.780667 0.738582
0.781247 0.786313 0.748013
0.000000 0.209476 0.605921
0.000000 0.214176 0.607752
0.190463 0.231052 0.611109
0.357977 0.276707 0.620172
0.509361 0.363867 0.630274
0.619135 0.480079 0.639887
0.685908 0.575921 0.650935
0.727687 0.591699 0.657252
0.000000 0.218692 0.605219
0.000000 0.223636 0.607202
0.203220 0.241520 0.611353
0.362188 0.286778 0.619532
0.509880 0.371740 0.629450
0.618372 0.484169 0.639033
0.684535 0.577203 0.649622
0.725765 0.591485 0.655360
0.087984 0.266514 0.614801
0.140780 0.271153 0.615930
0.254856 0.291020 0.619043
0.396063 0.341985 0.628107
0.525933 0.419715 0.635615
0.624537 0.514427 0.644038
0.688472 0.600000 0.655207
0.726497 0.610895 0.660700
0.184909 0.345678 0.627710
0.218875 0.352972 0.629358
0.306798 0.374212 0.632166
0.428138 0.419715 0.638331
0.544274 0.486122 0.645960
0.636286 0.562127 0.655268
0.698116 0.636591 0.668269
0.731167 0.644129 0.673579
0.126558 0.418982 0.634150
0.171542 0.423529 0.635523
0.274662 0.438666 0.638605
0.424292 0.485206 0.647303
0.548699 0.541405 0.655940
0.642786 0.602747 0.666102
0.705959 0.663386 0.681331
0.738399 0.677790 0.689570
0.358953 0.565179 0.659449
0.362310 0.564111 0.658839
0.378485 0.560662 0.657130
0.412940 0.556115 0.655512
0.515831 0.578607 0.662745
0.645136 0.642908 0.682277
0.718685 0.696468 0.703243
0.753811 0.719539 0.716213
0.575250 0.692073 0.703914
0.576898 0.692073 0.703822
0.583886 0.692012 0.703487
0.598901 0.692866 0.703731
0.621637 0.693996 0.704250
0.652094 0.695491 0.705501
0.724147 0.727108 0.725307
0.771267 0.759365 0.744442
0.684565 0.767636 0.750362
0.685389 0.767697 0.750362
0.689723 0.768551 0.750942
0.699062 0.770962 0.752865
0.713375 0.774594 0.755642
0.733181 0.779904 0.759731
0.759854 0.788388 0.766629
0.795407 0.802701 0.779385
