20 Preset/Rover Style/【3】LUT video cho PR-AE-FCPX/Rover 04 .cube
# Created by Adobe Lightroom plugin Export LUT (1.24.0)
# www.johnrellis.com/lightroom/exportlut.htm
# Preset: Rover 04 
# Color profile: E:\lut插件\exportlut.1.24\exportlut.lrplugin\color profiles\Rec709gamma2.4.icc
LUT_3D_SIZE 5
DOMAIN_MIN 0.000000 0.000000 0.000000
DOMAIN_MAX 0.903226 0.903226 0.903226
0.000000 0.000000 0.000000
0.057465 0.016510 0.015808
0.299565 0.000000 0.028199
0.718715 0.000000 0.003235
0.896391 0.000000 0.145541
0.019013 0.100984 0.065309
0.086641 0.106020 0.072999
0.374731 0.051850 0.017212
0.739925 0.000000 0.000000
0.891325 0.229923 0.170779
0.279789 0.457588 0.276371
0.329015 0.461524 0.270573
0.492012 0.468849 0.303044
0.749844 0.486305 0.192020
0.861295 0.488930 0.278752
0.625330 0.672663 0.569818
0.632136 0.673518 0.569268
0.661341 0.676356 0.567498
0.700771 0.672419 0.583825
0.789975 0.695613 0.575677
0.736751 0.769833 0.729824
0.738552 0.770260 0.729824
0.744900 0.770382 0.727138
0.762783 0.772946 0.731228
0.782681 0.774075 0.741299
0.000000 0.012055 0.054841
0.044038 0.027741 0.060822
0.316808 0.000000 0.066316
0.718379 0.000000 0.000000
0.889220 0.055512 0.144778
0.019806 0.108400 0.105165
0.106111 0.123354 0.112703
0.389837 0.100465 0.100099
0.735012 0.000000 0.025055
0.884520 0.249943 0.166079
0.321599 0.452247 0.319097
0.360662 0.462043 0.317815
0.495613 0.468666 0.333410
0.743465 0.475868 0.247318
0.859586 0.492653 0.279911
0.633143 0.671687 0.583703
0.637873 0.673213 0.582147
0.663935 0.676661 0.579675
0.701320 0.673243 0.592889
0.790280 0.695491 0.583673
0.738277 0.769741 0.733303
0.739193 0.770230 0.732509
0.747158 0.772305 0.732753
0.764065 0.774502 0.735195
0.783932 0.775631 0.744900
0.000000 0.035340 0.199161
0.000000 0.048524 0.210727
0.308934 0.024659 0.247105
0.725948 0.000000 0.282506
0.877440 0.274205 0.288701
0.000000 0.124300 0.271061
0.076112 0.140475 0.278172
0.388586 0.182620 0.302007
0.735134 0.201938 0.315129
0.868132 0.363989 0.325811
0.293797 0.464149 0.423743
0.365454 0.473274 0.428290
0.548241 0.508385 0.449805
0.728634 0.514488 0.435187
0.836240 0.541680 0.440803
0.646204 0.670771 0.616022
0.651301 0.671260 0.616114
0.672297 0.676814 0.618494
0.704921 0.677974 0.623468
0.794217 0.691798 0.606928
0.738308 0.769039 0.741268
0.740688 0.769741 0.741939
0.748165 0.772335 0.742519
0.763943 0.775692 0.742428
0.784146 0.775998 0.750332
0.000000 0.075227 0.469673
0.000000 0.081392 0.477272
0.356634 0.111055 0.502403
0.677241 0.234592 0.528893
0.827237 0.423590 0.547631
0.000000 0.161410 0.504601
0.000000 0.173434 0.508995
0.415717 0.232670 0.526024
0.682704 0.347692 0.545037
0.818692 0.475380 0.560998
0.202823 0.428107 0.566949
0.288029 0.433722 0.567681
0.535607 0.499001 0.580774
0.688808 0.556756 0.593957
0.799588 0.595972 0.606775
0.610315 0.666499 0.650660
0.620752 0.667720 0.651057
0.658259 0.674159 0.655299
0.712276 0.687556 0.665858
0.793454 0.690089 0.659510
0.743465 0.770504 0.759396
0.745022 0.771115 0.759792
0.751675 0.773953 0.761471
0.765377 0.778470 0.762051
0.786893 0.779294 0.764157
0.000000 0.141512 0.686427
0.000000 0.152132 0.687648
0.415717 0.216770 0.693050
0.668635 0.395727 0.697719
0.789944 0.514061 0.699702
0.000000 0.220188 0.689906
0.111757 0.233829 0.690944
0.453101 0.300847 0.694575
0.670771 0.449378 0.698054
0.784298 0.543908 0.701076
0.208408 0.412177 0.700221
0.316594 0.430579 0.700099
0.529320 0.496223 0.700649
0.678737 0.571588 0.705104
0.772671 0.624903 0.712642
0.536095 0.642084 0.722927
0.544549 0.640833 0.722011
0.581262 0.636805 0.719478
0.689509 0.668910 0.726772
0.773556 0.705898 0.742550
0.706264 0.765225 0.775692
0.709163 0.765621 0.775845
0.722377 0.768460 0.777829
0.748165 0.773922 0.781430
0.791806 0.785153 0.789639
