20 Preset/Rover Style/【3】LUT video cho PR-AE-FCPX/Rover 02.cube
# Created by Adobe Lightroom plugin Export LUT (1.24.0)
# www.johnrellis.com/lightroom/exportlut.htm
# Preset: Rover 02
# Color profile: E:\lut插件\exportlut.1.24\exportlut.lrplugin\color profiles\Rec709gamma2.4.icc
LUT_3D_SIZE 5
DOMAIN_MIN 0.000000 0.000000 0.000000
DOMAIN_MAX 0.903226 0.903226 0.903226
0.053346 0.037018 0.052613
0.128847 0.065064 0.074586
0.394079 0.000000 0.081453
0.751675 0.082795 0.090333
0.928832 0.363531 0.181704
0.093233 0.117678 0.104646
0.136995 0.131777 0.122225
0.447059 0.173617 0.094118
0.766293 0.250980 0.115785
0.926421 0.427039 0.213413
0.196750 0.385779 0.259464
0.273411 0.395392 0.272190
0.467475 0.446204 0.341558
0.780209 0.551843 0.285252
0.914092 0.597742 0.343114
0.515404 0.658076 0.484230
0.543969 0.660243 0.491890
0.631647 0.670527 0.524834
0.727443 0.705165 0.614069
0.863035 0.771939 0.641962
0.723262 0.812955 0.731289
0.730495 0.813748 0.734615
0.757443 0.817197 0.748104
0.800992 0.828397 0.780484
0.844083 0.848325 0.826200
0.076661 0.065766 0.108125
0.128237 0.083986 0.125246
0.397528 0.019593 0.150088
0.742885 0.148989 0.189059
0.920836 0.380133 0.255253
0.098329 0.138003 0.151431
0.165042 0.163424 0.172610
0.446784 0.187747 0.180667
0.757412 0.270054 0.209323
0.918761 0.438117 0.279088
0.230014 0.405707 0.303227
0.305730 0.420020 0.316228
0.488045 0.463478 0.375219
0.779507 0.547051 0.322179
0.907988 0.601556 0.388586
0.532311 0.664027 0.510735
0.557580 0.666957 0.517082
0.639216 0.676020 0.546319
0.729732 0.708736 0.627832
0.863828 0.772976 0.651942
0.724331 0.814237 0.737606
0.731655 0.815000 0.740871
0.758755 0.818662 0.754147
0.801663 0.829252 0.784115
0.844755 0.849210 0.828702
0.000000 0.113375 0.274601
0.136660 0.130709 0.294896
0.420752 0.191348 0.358160
0.748104 0.255619 0.402045
0.900145 0.394324 0.405005
0.114565 0.205631 0.319493
0.196994 0.222293 0.336522
0.458717 0.283391 0.387488
0.748562 0.331090 0.411902
0.897398 0.452155 0.426490
0.267582 0.443610 0.418982
0.344030 0.459907 0.430182
0.553460 0.521691 0.477668
0.759823 0.544976 0.471778
0.888273 0.606683 0.507591
0.549859 0.679225 0.580957
0.577173 0.682643 0.587549
0.660975 0.696620 0.616602
0.737636 0.721218 0.671046
0.864103 0.770230 0.680995
0.717250 0.817105 0.753201
0.727138 0.818357 0.757565
0.759640 0.823392 0.772763
0.801968 0.831479 0.794614
0.846921 0.851926 0.836942
0.020844 0.224430 0.512779
0.213443 0.242588 0.523827
0.487831 0.312993 0.564996
0.730159 0.433570 0.616541
0.864469 0.574304 0.666102
0.204227 0.308843 0.534142
0.287785 0.323613 0.543206
0.516625 0.385382 0.579522
0.731289 0.487251 0.628016
0.861021 0.596155 0.671778
0.365362 0.498451 0.575891
0.415290 0.507713 0.580468
0.576043 0.555718 0.618708
0.730678 0.613947 0.660182
0.854002 0.657008 0.686641
0.563043 0.688594 0.671992
0.585626 0.692439 0.675868
0.658442 0.708705 0.692653
0.751278 0.742000 0.728969
0.858335 0.752712 0.727077
0.706081 0.824643 0.792111
0.714290 0.825620 0.793545
0.745968 0.829801 0.799832
0.802304 0.839689 0.819181
0.851560 0.857572 0.851957
0.384924 0.419135 0.744686
0.438209 0.432532 0.747585
0.589837 0.490669 0.761227
0.740566 0.587549 0.784329
0.842252 0.668330 0.803311
0.416602 0.463935 0.744625
0.462104 0.475624 0.747616
0.596765 0.524132 0.760708
0.739162 0.607965 0.783597
0.839658 0.680079 0.804013
0.474189 0.573785 0.748959
0.511620 0.583093 0.751827
0.617853 0.615473 0.765377
0.738399 0.670436 0.788205
0.836515 0.724269 0.814115
0.574029 0.704860 0.778195
0.587030 0.705318 0.777951
0.639490 0.710903 0.780484
0.741421 0.744686 0.805844
0.841642 0.792447 0.839567
0.697902 0.822324 0.835843
0.704738 0.823209 0.836484
0.734585 0.828763 0.841184
0.786160 0.839933 0.850706
0.855985 0.863218 0.871946
