20 Preset/Rover Style/【3】LUT video cho PR-AE-FCPX/Rover 06 P.cube
# Created by Adobe Lightroom plugin Export LUT (1.24.0)
# www.johnrellis.com/lightroom/exportlut.htm
# Preset: Rover 06 P
# Color profile: E:\lut插件\exportlut.1.24\exportlut.lrplugin\color profiles\Rec709gamma2.4.icc
LUT_3D_SIZE 8
DOMAIN_MIN 0.000000 0.000000 0.000000
DOMAIN_MAX 0.903226 0.903226 0.903226
0.015015 0.028443 0.036469
0.027161 0.031464 0.039216
0.079408 0.039673 0.049470
0.149294 0.039857 0.058015
0.318303 0.000000 0.068482
0.586358 0.000000 0.070130
0.802152 0.000000 0.086854
0.899962 0.000000 0.133364
0.019593 0.047578 0.050690
0.026795 0.050080 0.052461
0.087312 0.056001 0.053773
0.155856 0.056886 0.061769
0.323003 0.000000 0.070680
0.582818 0.000000 0.071595
0.791012 0.000000 0.084565
0.893553 0.000000 0.129763
0.034882 0.110262 0.090333
0.052979 0.110903 0.091341
0.102785 0.117128 0.093782
0.223941 0.126436 0.076387
0.418555 0.031128 0.069734
0.662715 0.000000 0.063874
0.824033 0.000000 0.088869
0.895323 0.253452 0.165194
0.000000 0.272679 0.139254
0.000000 0.272221 0.139528
0.168093 0.279240 0.143496
0.302342 0.317357 0.154147
0.555230 0.355383 0.105104
0.744686 0.330877 0.000000
0.831632 0.379950 0.121370
0.878202 0.453101 0.252293
0.228611 0.536706 0.312657
0.256413 0.535576 0.312596
0.348058 0.535241 0.318883
0.465064 0.542321 0.336797
0.573205 0.556085 0.360601
0.697444 0.573205 0.347936
0.802792 0.574945 0.309178
0.852811 0.587366 0.394720
0.521508 0.666651 0.531792
0.534356 0.668910 0.537652
0.560174 0.667567 0.539666
0.602594 0.665705 0.544182
0.648005 0.667994 0.553887
0.694270 0.674495 0.570367
0.748501 0.684718 0.583581
0.815274 0.693538 0.582238
0.659998 0.731807 0.660548
0.662593 0.732143 0.661402
0.670100 0.731350 0.661402
0.684810 0.730465 0.662440
0.704250 0.729366 0.663813
0.726802 0.732876 0.670130
0.752407 0.738003 0.678920
0.786282 0.746853 0.690394
0.732021 0.787228 0.738308
0.732906 0.787167 0.738369
0.737148 0.787259 0.738979
0.745541 0.787778 0.740658
0.753109 0.784207 0.737301
0.768826 0.786618 0.741665
0.786831 0.791287 0.748348
0.806058 0.795834 0.754910
0.013550 0.031556 0.048463
0.024018 0.034821 0.050080
0.077577 0.042084 0.053712
0.146395 0.053742 0.062074
0.310155 0.000000 0.069490
0.568841 0.000000 0.069917
0.778927 0.000000 0.082399
0.888151 0.000000 0.122164
0.018463 0.048554 0.059602
0.029908 0.052766 0.062196
0.087190 0.060121 0.065614
0.157595 0.067872 0.067994
0.325750 0.000000 0.071382
0.579889 0.000000 0.070771
0.777127 0.000000 0.082155
0.884215 0.000000 0.121248
0.035615 0.110994 0.097047
0.053559 0.112612 0.097810
0.103426 0.118624 0.100740
0.218662 0.125185 0.090425
0.408698 0.066835 0.078187
0.643641 0.000000 0.062623
0.803220 0.000000 0.079500
0.886748 0.216464 0.145510
0.000000 0.264286 0.146639
0.005341 0.265019 0.147189
0.164614 0.272190 0.151461
0.280430 0.297459 0.158755
0.517144 0.325414 0.117342
0.714504 0.297887 0.002289
0.817258 0.344244 0.087556
0.873136 0.426093 0.217624
0.219638 0.531395 0.318822
0.245518 0.529381 0.317601
0.335393 0.526696 0.320226
0.448157 0.529534 0.332128
0.555047 0.541131 0.350195
0.686946 0.560479 0.336706
0.797208 0.564385 0.302098
0.850950 0.577417 0.372503
0.511040 0.662135 0.527398
0.518639 0.661952 0.528405
0.546502 0.660945 0.530938
0.592737 0.659907 0.537133
0.641413 0.663020 0.548363
0.690547 0.671015 0.567559
0.746059 0.681544 0.580102
0.813413 0.689876 0.577020
0.654627 0.728573 0.656641
0.655695 0.727962 0.655940
0.663447 0.727108 0.655848
0.679316 0.726619 0.657618
0.700710 0.726436 0.660548
0.723720 0.729946 0.667048
0.749050 0.734493 0.674800
0.783139 0.743099 0.685664
0.728786 0.784787 0.735531
0.730251 0.785183 0.736202
0.734401 0.785183 0.736721
0.742977 0.785733 0.738460
0.755123 0.786191 0.740475
0.769436 0.787259 0.743038
0.786343 0.790829 0.748257
0.805478 0.795315 0.754696
0.016754 0.039094 0.080079
0.023682 0.041566 0.081880
0.064485 0.051148 0.088563
0.148989 0.055573 0.101137
0.331823 0.000000 0.100862
0.598413 0.000000 0.098878
0.797299 0.000000 0.085420
0.892546 0.000000 0.132998
0.019837 0.058228 0.090639
0.030426 0.060273 0.092134
0.080537 0.073091 0.096345
0.162905 0.072999 0.105562
0.345068 0.000000 0.105776
0.606409 0.000000 0.103029
0.794583 0.000000 0.088380
0.889281 0.000000 0.132692
0.030121 0.114534 0.118746
0.046601 0.117830 0.120241
0.109834 0.131197 0.126375
0.225650 0.137331 0.126833
0.428534 0.110811 0.124819
0.661158 0.000000 0.117189
0.810544 0.057191 0.103853
0.886656 0.269169 0.157565
0.000000 0.283360 0.196170
0.000000 0.288273 0.197818
0.173434 0.302373 0.201877
0.304448 0.323400 0.214420
0.548821 0.346288 0.185367
0.715969 0.343145 0.168063
0.816007 0.388098 0.179416
0.873167 0.450324 0.240208
0.242954 0.538750 0.376043
0.267765 0.539300 0.376440
0.353277 0.541100 0.380591
0.466957 0.542382 0.392309
0.566033 0.555322 0.411200
0.692012 0.572045 0.396429
0.792721 0.571374 0.370825
0.848173 0.586175 0.402319
0.518669 0.664057 0.551934
0.526482 0.664393 0.553368
0.552453 0.663508 0.555169
0.594842 0.661891 0.559075
0.641596 0.663539 0.567193
0.688533 0.671687 0.583978
0.745296 0.683406 0.594690
0.812497 0.692256 0.594079
0.658228 0.730861 0.666529
0.659449 0.730373 0.665980
0.666224 0.729183 0.665217
0.680751 0.728206 0.665888
0.701289 0.727443 0.667781
0.724300 0.731075 0.674098
0.750027 0.736629 0.682734
0.785611 0.746426 0.693538
0.729061 0.785763 0.739162
0.729732 0.785489 0.738918
0.733761 0.785428 0.739284
0.743008 0.786526 0.741665
0.755062 0.786862 0.743465
0.770016 0.788113 0.746395
0.787106 0.791958 0.751766
0.806210 0.796475 0.757992
0.013581 0.048737 0.113893
0.022675 0.050752 0.116487
0.076997 0.062379 0.126223
0.143069 0.079713 0.141176
0.311162 0.035157 0.172030
0.594079 0.000000 0.173251
0.785641 0.000000 0.178195
0.883543 0.121920 0.197055
0.011872 0.071687 0.128084
0.024231 0.074464 0.130251
0.086519 0.084993 0.138552
0.159762 0.095338 0.153231
0.335210 0.072786 0.182406
0.610224 0.000000 0.180117
0.788266 0.000000 0.187930
0.881865 0.184726 0.207553
0.000000 0.121431 0.162936
0.015076 0.124392 0.165743
0.109285 0.139467 0.179843
0.214633 0.162722 0.197635
0.426062 0.168978 0.225956
0.662745 0.154940 0.226932
0.804929 0.247135 0.248508
0.877226 0.344793 0.268101
0.000000 0.281956 0.269535
0.000000 0.286748 0.272190
0.158907 0.309361 0.284916
0.325261 0.353338 0.312016
0.536614 0.366552 0.312657
0.694820 0.391333 0.319677
0.796262 0.434668 0.334661
0.857633 0.483986 0.360967
0.264836 0.556481 0.472511
0.288609 0.556054 0.471534
0.373175 0.558373 0.471534
0.484535 0.565270 0.479011
0.577386 0.573388 0.492226
0.699977 0.586206 0.479225
0.780972 0.586542 0.473121
0.832975 0.605005 0.496742
0.538750 0.671290 0.596429
0.549615 0.673213 0.600092
0.571527 0.672572 0.600153
0.609216 0.672511 0.603082
0.650843 0.671717 0.606806
0.690181 0.677638 0.616480
0.746883 0.688838 0.621149
0.810758 0.694972 0.620447
0.659846 0.733242 0.680385
0.662165 0.733455 0.680812
0.670619 0.733608 0.681666
0.685573 0.733577 0.683040
0.705013 0.732723 0.684291
0.726833 0.734554 0.688045
0.751003 0.739376 0.694667
0.788602 0.749813 0.703456
0.730129 0.788876 0.747189
0.731136 0.788876 0.747280
0.735592 0.788968 0.747890
0.743801 0.789181 0.748959
0.755581 0.789151 0.750179
0.770687 0.789456 0.752041
0.787839 0.793484 0.757351
0.807492 0.798520 0.763912
0.000000 0.066163 0.182193
0.000000 0.068635 0.186954
0.027436 0.080385 0.202945
0.154726 0.092470 0.237583
0.314672 0.089448 0.275761
0.562768 0.057588 0.342443
0.764920 0.000000 0.368505
0.868986 0.222538 0.366796
0.000000 0.087251 0.202823
0.000000 0.088716 0.207736
0.024994 0.095003 0.223148
0.167849 0.107912 0.255802
0.336004 0.113313 0.294133
0.575311 0.134371 0.358312
0.767575 0.141817 0.379553
0.867063 0.259556 0.374914
0.000000 0.137972 0.262547
0.000000 0.141176 0.268254
0.035584 0.153475 0.286046
0.218540 0.181613 0.321202
0.405188 0.212955 0.356664
0.606439 0.270970 0.405280
0.770809 0.296269 0.413855
0.854551 0.373114 0.408148
0.000000 0.272526 0.365759
0.000000 0.277287 0.369024
0.087129 0.298741 0.383093
0.313787 0.354467 0.424781
0.500359 0.410163 0.459052
0.653620 0.446021 0.483803
0.770565 0.464363 0.472816
0.831540 0.513481 0.487007
0.203983 0.522210 0.511894
0.237491 0.525383 0.514000
0.335363 0.536156 0.521141
0.460456 0.555230 0.534691
0.574823 0.579767 0.553368
0.679957 0.585168 0.551873
0.756680 0.596582 0.555047
0.814908 0.612177 0.562585
0.524559 0.668788 0.629328
0.532647 0.669398 0.630274
0.555810 0.668727 0.628962
0.594415 0.668605 0.627375
0.642206 0.671138 0.630213
0.685939 0.677913 0.640467
0.749325 0.688716 0.641749
0.806668 0.691432 0.641657
0.656153 0.734371 0.696681
0.657404 0.734005 0.696132
0.664027 0.733547 0.695033
0.680049 0.734310 0.695857
0.701839 0.734920 0.697566
0.725032 0.734737 0.699336
0.749020 0.739345 0.704829
0.790494 0.749508 0.709865
0.721798 0.788113 0.751705
0.722927 0.788052 0.751675
0.727718 0.788052 0.751980
0.738888 0.789792 0.754818
0.752163 0.790280 0.756466
0.768093 0.790311 0.757931
0.786007 0.793088 0.761837
0.805966 0.797879 0.767697
0.000000 0.088411 0.334813
0.000000 0.090120 0.341070
0.000000 0.096132 0.361089
0.057679 0.107942 0.403632
0.348699 0.123476 0.464607
0.571069 0.143313 0.497414
0.730526 0.294408 0.544701
0.818692 0.411841 0.571038
0.000000 0.100160 0.348791
0.000000 0.101564 0.353368
0.000000 0.108675 0.372595
0.096864 0.123659 0.411566
0.357641 0.147250 0.467628
0.573297 0.178347 0.500023
0.727260 0.316289 0.545953
0.815854 0.422156 0.571038
0.000000 0.159243 0.420691
0.000000 0.162112 0.424140
0.000000 0.175296 0.440864
0.184573 0.201358 0.467872
0.426337 0.253483 0.512383
0.608240 0.314427 0.537774
0.727169 0.423011 0.572076
0.808164 0.486915 0.588006
0.000000 0.287205 0.489296
0.000000 0.293309 0.493416
0.000000 0.324041 0.513481
0.320714 0.375891 0.544701
0.518212 0.442298 0.575036
0.643763 0.496193 0.593347
0.724758 0.553582 0.614588
0.799130 0.572107 0.617639
0.140017 0.501732 0.573175
0.181857 0.504356 0.574060
0.290227 0.515160 0.578454
0.418891 0.534203 0.587549
0.564477 0.574426 0.611933
0.660334 0.609064 0.630762
0.728511 0.625849 0.641352
0.795651 0.629206 0.634913
0.497108 0.650507 0.646448
0.507103 0.652216 0.648035
0.535637 0.655268 0.650050
0.581720 0.661250 0.654353
0.634485 0.670344 0.661006
0.688472 0.685054 0.673213
0.744259 0.688869 0.674067
0.797116 0.693782 0.675013
0.652003 0.735622 0.717617
0.655024 0.736324 0.718441
0.664454 0.737667 0.719905
0.681819 0.740383 0.722683
0.701198 0.740932 0.721096
0.725521 0.741299 0.720058
0.750607 0.743740 0.723201
0.799161 0.752468 0.724483
0.720729 0.791226 0.767727
0.721279 0.791043 0.767330
0.724910 0.791043 0.766812
0.733211 0.791836 0.766720
0.746334 0.792599 0.766629
0.764981 0.793271 0.768124
0.784848 0.794156 0.770321
0.805753 0.799008 0.775662
0.000000 0.107240 0.523033
0.000000 0.109529 0.528954
0.000000 0.116884 0.541863
0.000000 0.131960 0.567864
0.358862 0.155825 0.600580
0.606531 0.248753 0.634638
0.723659 0.338781 0.641230
0.785092 0.472267 0.651148
0.000000 0.118837 0.523339
0.000000 0.121553 0.529564
0.000000 0.129610 0.541955
0.000000 0.145632 0.565057
0.359716 0.173495 0.596063
0.598566 0.260746 0.628229
0.715511 0.340581 0.634089
0.780087 0.465766 0.644343
0.000000 0.180056 0.563012
0.000000 0.183078 0.565393
0.000000 0.194949 0.573724
0.143740 0.221012 0.591791
0.421454 0.269200 0.615076
0.618372 0.368170 0.641291
0.718624 0.440558 0.649165
0.774929 0.534447 0.660212
0.000000 0.309239 0.602930
0.000000 0.313329 0.604456
0.000000 0.335180 0.612970
0.304814 0.373114 0.626459
0.498604 0.430121 0.642390
0.640681 0.511467 0.662287
0.718898 0.557916 0.670375
0.767514 0.607935 0.679713
0.000000 0.472206 0.628595
0.000000 0.471778 0.627466
0.165164 0.475929 0.627283
0.372808 0.507652 0.640772
0.539544 0.554772 0.658045
0.651514 0.602869 0.675013
0.716884 0.633112 0.685084
0.765682 0.663569 0.699672
0.442725 0.630976 0.674525
0.450935 0.631769 0.674922
0.480873 0.634363 0.675837
0.530694 0.639246 0.677699
0.590753 0.646601 0.680323
0.673915 0.673915 0.697536
0.731258 0.697475 0.713619
0.777829 0.706020 0.720943
0.624292 0.717556 0.720272
0.627619 0.718349 0.721004
0.637415 0.719661 0.721889
0.655940 0.722744 0.724208
0.681086 0.727291 0.727474
0.712459 0.734554 0.732937
0.749569 0.746151 0.742428
0.796384 0.748714 0.742550
0.708675 0.787594 0.778225
0.710140 0.787961 0.778592
0.716884 0.789975 0.780606
0.728267 0.792660 0.783139
0.744961 0.796567 0.786770
0.761929 0.798215 0.786099
0.783230 0.798856 0.785031
0.806271 0.801572 0.788113
0.000000 0.142123 0.662501
0.000000 0.144778 0.664668
0.000000 0.152285 0.668574
0.000000 0.170230 0.679683
0.407019 0.207980 0.693416
0.610071 0.307622 0.706752
0.722286 0.445869 0.717159
0.780728 0.510735 0.716609
0.000000 0.153231 0.661128
0.000000 0.156191 0.663386
0.000000 0.164889 0.668330
0.000000 0.183841 0.678584
0.410681 0.224094 0.691981
0.608759 0.321233 0.705135
0.719265 0.451789 0.715023
0.777859 0.511864 0.714229
0.000000 0.208499 0.670130
0.000000 0.211673 0.671382
0.000000 0.222873 0.675105
0.203098 0.253330 0.686122
0.448432 0.304601 0.696254
0.615961 0.395026 0.706386
0.716548 0.505180 0.716609
0.772274 0.549828 0.716335
0.000000 0.314641 0.681361
0.000000 0.320500 0.683040
0.000000 0.335882 0.686213
0.300664 0.370794 0.693202
0.491005 0.425635 0.701503
0.626886 0.500481 0.710719
0.716304 0.581476 0.722774
0.766537 0.608240 0.723568
0.000000 0.437140 0.685664
0.000000 0.440772 0.686885
0.000000 0.449653 0.689479
0.340856 0.486091 0.696834
0.512535 0.530816 0.704555
0.632654 0.581750 0.714290
0.715572 0.636652 0.728267
0.764340 0.658595 0.733425
0.308995 0.595666 0.704891
0.314061 0.594507 0.704219
0.341802 0.591516 0.702541
0.398047 0.588373 0.700954
0.512169 0.602838 0.706722
0.644953 0.649409 0.723568
0.723842 0.688899 0.742733
0.772732 0.709682 0.753506
0.579614 0.705196 0.741360
0.581598 0.705104 0.741238
0.590295 0.704982 0.740810
0.608972 0.705837 0.740963
0.635737 0.707240 0.741329
0.669429 0.709377 0.742367
0.732204 0.731594 0.759121
0.784939 0.754543 0.775296
0.687129 0.771908 0.781765
0.688045 0.771969 0.781735
0.692775 0.772793 0.782193
0.703029 0.775082 0.783780
0.718441 0.778470 0.786007
0.739498 0.783291 0.789151
0.767666 0.790707 0.794339
0.804257 0.802548 0.803494
