20 Preset/Rover Style/【3】LUT video cho PR-AE-FCPX/Rover C -.cube
# Created by Adobe Lightroom plugin Export LUT (1.24.0)
# www.johnrellis.com/lightroom/exportlut.htm
# Preset: Rover C -
# Color profile: E:\lut插件\exportlut.1.24\exportlut.lrplugin\color profiles\Rec709gamma2.4.icc
LUT_3D_SIZE 32
DOMAIN_MIN 0.0 0.0 0.0
DOMAIN_MAX 1.0 1.0 1.0
0.000000 0.000000 0.000000
0.003937 0.001740 0.001953
0.024018 0.006043 0.006622
0.061433 0.016052 0.015808
0.099641 0.033814 0.033539
0.121523 0.056794 0.057130
0.141512 0.081025 0.080018
0.163180 0.092226 0.092103
0.184848 0.101259 0.101106
0.208255 0.109926 0.110109
0.231785 0.119570 0.119478
0.255985 0.129427 0.129671
0.280735 0.140078 0.139803
0.305669 0.151400 0.151339
0.330510 0.163424 0.163607
0.355291 0.176425 0.176333
0.380011 0.189883 0.189822
0.404395 0.203708 0.203952
0.428717 0.217533 0.217594
0.452827 0.231601 0.231907
0.476997 0.245853 0.245762
0.500847 0.259953 0.259861
0.525078 0.273838 0.273960
0.550317 0.288029 0.287907
0.576623 0.302617 0.302708
0.604181 0.317754 0.317906
0.633356 0.333471 0.333440
0.663874 0.349889 0.349798
0.694545 0.367132 0.367041
0.725399 0.385473 0.385473
0.756497 0.404944 0.404852
0.787594 0.425849 0.425788
0.005463 0.007080 0.004578
0.006714 0.008057 0.004425
0.027466 0.013306 0.011200
0.065919 0.022126 0.019409
0.100984 0.039918 0.038270
0.121859 0.064302 0.061738
0.142550 0.084077 0.082368
0.163943 0.094423 0.093019
0.185794 0.103151 0.101900
0.208591 0.111696 0.110811
0.232242 0.121126 0.120424
0.256504 0.130526 0.130007
0.280980 0.141115 0.140566
0.306035 0.152895 0.151736
0.330999 0.164553 0.163821
0.355627 0.177279 0.177188
0.380194 0.190829 0.190433
0.404547 0.204746 0.204074
0.428809 0.218448 0.218204
0.452979 0.232670 0.232090
0.477089 0.246433 0.246189
0.501122 0.260258 0.260197
0.525292 0.274418 0.274052
0.550469 0.288548 0.288334
0.576745 0.303044 0.302800
0.604364 0.318273 0.318029
0.633478 0.334020 0.333898
0.664088 0.350286 0.350195
0.694697 0.367498 0.367346
0.725490 0.385809 0.385595
0.756527 0.405310 0.405127
0.787716 0.426184 0.426123
0.019898 0.036225 0.020630
0.023713 0.039155 0.020172
0.044495 0.042267 0.024994
0.081544 0.054231 0.037263
0.105074 0.071473 0.054047
0.124910 0.087831 0.077790
0.145754 0.095430 0.089845
0.166934 0.102541 0.097230
0.188663 0.109987 0.105684
0.211337 0.118379 0.114137
0.234867 0.127047 0.122805
0.258457 0.136477 0.132601
0.282811 0.146426 0.143130
0.307469 0.157717 0.154452
0.332341 0.169253 0.166384
0.356939 0.181643 0.178988
0.381323 0.194797 0.192630
0.405646 0.208194 0.206119
0.429786 0.221744 0.219913
0.453773 0.235630 0.233677
0.477821 0.249546 0.247807
0.501732 0.263157 0.261692
0.525841 0.276768 0.275578
0.551019 0.290898 0.289494
0.577295 0.305364 0.304234
0.604944 0.320317 0.319036
0.634211 0.335821 0.334783
0.664637 0.352239 0.351110
0.695216 0.369329 0.368261
0.725978 0.387579 0.386511
0.756954 0.406836 0.405982
0.787961 0.427741 0.426978
0.055268 0.089540 0.054414
0.059510 0.090181 0.055207
0.077607 0.091859 0.059876
0.095338 0.095460 0.072480
0.113680 0.100893 0.083742
0.132784 0.106325 0.091951
0.152926 0.111574 0.098695
0.173404 0.117556 0.105196
0.194369 0.124025 0.112490
0.216526 0.130892 0.120302
0.238987 0.138338 0.128969
0.262638 0.146853 0.138369
0.286442 0.156680 0.148440
0.310765 0.167178 0.159396
0.335241 0.178073 0.170993
0.359319 0.190036 0.183780
0.383459 0.202579 0.196963
0.407568 0.215457 0.210025
0.431617 0.228397 0.223728
0.455451 0.241947 0.237491
0.479286 0.255131 0.251164
0.503227 0.268315 0.264805
0.527276 0.281743 0.278172
0.552270 0.295415 0.292119
0.578515 0.309606 0.306401
0.606104 0.324468 0.321447
0.635279 0.339849 0.337133
0.665644 0.355871 0.353338
0.696071 0.372808 0.370367
0.726833 0.390845 0.388556
0.757687 0.410163 0.407813
0.788754 0.430854 0.428779
0.092195 0.118349 0.092073
0.093141 0.118837 0.091951
0.099397 0.119997 0.093721
0.111116 0.122744 0.096803
0.126741 0.126864 0.101595
0.145083 0.130922 0.106264
0.163577 0.134371 0.110964
0.182925 0.138521 0.116640
0.203159 0.143404 0.122744
0.224399 0.148806 0.129763
0.245914 0.155459 0.137789
0.268742 0.163119 0.146792
0.292027 0.171817 0.156680
0.315740 0.181430 0.167575
0.339513 0.191684 0.179049
0.363287 0.202670 0.190768
0.387091 0.214450 0.203555
0.410681 0.226444 0.216464
0.434363 0.238621 0.229404
0.458106 0.251102 0.242649
0.481788 0.263920 0.256107
0.505394 0.276493 0.269261
0.529412 0.289220 0.282536
0.554345 0.302556 0.296300
0.580591 0.316320 0.310399
0.608087 0.330846 0.324895
0.637201 0.345800 0.340307
0.667323 0.361608 0.356359
0.697627 0.378424 0.373449
0.728176 0.396216 0.391547
0.758907 0.415259 0.410803
0.789792 0.435920 0.431617
0.109285 0.147280 0.109285
0.110903 0.147585 0.110170
0.115908 0.148440 0.111147
0.125704 0.150881 0.113893
0.140658 0.154055 0.117433
0.158511 0.158297 0.122103
0.177371 0.161959 0.127047
0.195285 0.164401 0.131685
0.214328 0.167514 0.136538
0.234195 0.172030 0.143496
0.255070 0.177127 0.150576
0.276860 0.183841 0.158938
0.299413 0.191531 0.168154
0.322118 0.199924 0.178103
0.345312 0.209293 0.189395
0.368414 0.219242 0.200687
0.391730 0.229770 0.212558
0.415076 0.240787 0.224735
0.438270 0.252232 0.237369
0.461677 0.263676 0.250156
0.484993 0.275547 0.262852
0.508537 0.287480 0.275517
0.532311 0.299474 0.288334
0.557153 0.312200 0.301732
0.583246 0.325536 0.315465
0.610834 0.339513 0.329808
0.639857 0.354192 0.345068
0.669703 0.369665 0.360937
0.699825 0.386206 0.377691
0.730098 0.403632 0.395605
0.760616 0.422522 0.414923
0.791318 0.442817 0.435706
0.127932 0.176394 0.128023
0.128603 0.176516 0.128237
0.133700 0.177432 0.128969
0.142000 0.179171 0.131228
0.154452 0.181704 0.134371
0.170962 0.185336 0.138705
0.190158 0.190127 0.144442
0.209506 0.193973 0.150179
0.227176 0.195560 0.154421
0.246189 0.198611 0.159640
0.265843 0.202914 0.166140
0.286931 0.208316 0.174166
0.308293 0.214817 0.182681
0.330205 0.222110 0.191867
0.352361 0.230228 0.202152
0.374823 0.238987 0.212894
0.397620 0.248356 0.223880
0.420386 0.258335 0.235691
0.443214 0.268589 0.247166
0.466346 0.279149 0.259312
0.489418 0.289982 0.271305
0.512505 0.301091 0.283207
0.536126 0.312352 0.295903
0.560906 0.324468 0.308598
0.586877 0.337194 0.322271
0.614282 0.350652 0.336187
0.643183 0.364843 0.351171
0.672786 0.380011 0.366674
0.702602 0.396155 0.383307
0.732540 0.413275 0.401190
0.762844 0.431739 0.420172
0.793179 0.451820 0.441047
0.148074 0.205905 0.147799
0.148989 0.205966 0.147982
0.152712 0.206760 0.149020
0.159823 0.208011 0.150698
0.170901 0.210178 0.153872
0.185183 0.213169 0.157473
0.202487 0.217014 0.161959
0.221744 0.221744 0.168338
0.241794 0.226078 0.174838
0.259525 0.227970 0.179202
0.278233 0.231022 0.185000
0.297887 0.235355 0.191562
0.318425 0.240635 0.199374
0.339269 0.246921 0.208103
0.360937 0.253788 0.217227
0.382513 0.261326 0.227268
0.404578 0.269474 0.237583
0.426825 0.278264 0.247929
0.449409 0.287663 0.259007
0.471931 0.297093 0.270176
0.494606 0.306920 0.281590
0.517571 0.317113 0.292821
0.540948 0.327672 0.304631
0.565576 0.338994 0.317082
0.591394 0.351141 0.330358
0.618677 0.364141 0.344060
0.647517 0.377905 0.358526
0.676600 0.392523 0.373785
0.705989 0.408118 0.390265
0.735653 0.425025 0.407904
0.765560 0.443153 0.426886
0.795590 0.462776 0.447578
0.170199 0.235569 0.169711
0.170809 0.235752 0.169986
0.173648 0.236393 0.170687
0.179629 0.237461 0.172061
0.189456 0.239231 0.174533
0.201968 0.241611 0.177920
0.217014 0.244907 0.181888
0.234318 0.248936 0.187045
0.253635 0.253544 0.193515
0.273716 0.258183 0.200015
0.291173 0.260472 0.205203
0.310063 0.263828 0.211215
0.329534 0.267979 0.217899
0.349645 0.273106 0.225925
0.370397 0.279026 0.234318
0.391241 0.285649 0.242863
0.412665 0.292790 0.252537
0.434424 0.300389 0.262119
0.456489 0.308568 0.272190
0.478553 0.317174 0.282444
0.500847 0.326085 0.293126
0.523339 0.335363 0.303899
0.546563 0.345037 0.315435
0.571038 0.355840 0.327062
0.596887 0.367285 0.340002
0.623987 0.379675 0.353185
0.652430 0.392950 0.367437
0.681086 0.407050 0.382513
0.710018 0.422370 0.398657
0.739284 0.438727 0.416236
0.768734 0.456489 0.435035
0.798428 0.475837 0.455421
0.192294 0.265599 0.192508
0.193057 0.265721 0.192752
0.195560 0.266178 0.193332
0.201022 0.267124 0.194614
0.209293 0.268376 0.196780
0.219760 0.270573 0.199619
0.233219 0.273259 0.203464
0.248875 0.276677 0.207889
0.266423 0.280766 0.213230
0.285374 0.285374 0.219547
0.305425 0.290288 0.226413
0.323064 0.292851 0.231846
0.341588 0.296422 0.238071
0.360876 0.300511 0.244511
0.380835 0.305699 0.252384
0.401160 0.311070 0.260105
0.421912 0.317418 0.268742
0.443000 0.323949 0.277592
0.464424 0.331212 0.286687
0.486183 0.338872 0.296452
0.507988 0.346960 0.306310
0.530053 0.355291 0.316564
0.553216 0.364508 0.327214
0.577539 0.374456 0.338689
0.603052 0.385412 0.350805
0.630152 0.397192 0.363714
0.658015 0.409979 0.377508
0.686183 0.423621 0.392432
0.714656 0.438453 0.408453
0.743496 0.454383 0.425574
0.772427 0.471626 0.444373
0.801694 0.490608 0.464729
0.216159 0.295506 0.215915
0.216434 0.295567 0.216159
0.218784 0.295964 0.216648
0.223117 0.296727 0.217899
0.230289 0.298039 0.219577
0.239414 0.299779 0.222293
0.251469 0.302129 0.225467
0.265232 0.305028 0.229465
0.280949 0.308446 0.234073
0.298405 0.312444 0.239750
0.317052 0.317082 0.246098
0.337011 0.322362 0.253239
0.354742 0.325200 0.258488
0.373175 0.328618 0.264378
0.392248 0.332830 0.271092
0.411902 0.337713 0.278080
0.431983 0.343023 0.285863
0.452705 0.348913 0.293980
0.473610 0.355261 0.302434
0.494697 0.362066 0.311315
0.516075 0.369207 0.320531
0.537865 0.376898 0.329808
0.560754 0.385412 0.340215
0.584894 0.394842 0.350927
0.610437 0.405371 0.362768
0.637171 0.416663 0.375433
0.664302 0.428931 0.388983
0.691981 0.441993 0.403510
0.719783 0.456306 0.419409
0.748135 0.471809 0.436408
0.776577 0.488716 0.455146
0.805356 0.507286 0.475441
0.239536 0.325170 0.239719
0.240085 0.325261 0.239902
0.242100 0.325689 0.240208
0.245823 0.326299 0.241001
0.251865 0.327459 0.242771
0.260227 0.328954 0.244724
0.270451 0.330938 0.247745
0.282933 0.333501 0.251133
0.297154 0.336614 0.255406
0.313054 0.340124 0.260380
0.330266 0.344152 0.266178
0.348699 0.348943 0.272313
0.368475 0.353948 0.279240
0.386450 0.357336 0.284489
0.404852 0.360845 0.290654
0.423835 0.364965 0.297063
0.443244 0.369635 0.303655
0.463142 0.374731 0.311162
0.483467 0.380377 0.319158
0.504051 0.386450 0.327184
0.525078 0.392920 0.335576
0.546441 0.399908 0.344579
0.569207 0.407843 0.354162
0.593225 0.416754 0.364813
0.618585 0.426703 0.376226
0.644617 0.437598 0.388403
0.671260 0.449317 0.401801
0.698177 0.461982 0.416083
0.725551 0.475837 0.431739
0.753262 0.490852 0.448493
0.781125 0.507347 0.467018
0.809293 0.525566 0.487495
0.263005 0.354955 0.263188
0.263493 0.354986 0.262974
0.265049 0.355383 0.263706
0.268376 0.355932 0.264286
0.273503 0.356939 0.265782
0.280888 0.358282 0.267887
0.290227 0.360021 0.269993
0.301274 0.362341 0.273289
0.314427 0.365026 0.276921
0.328985 0.368200 0.281193
0.344823 0.371862 0.286229
0.362219 0.375952 0.291905
0.380682 0.380560 0.298009
0.400031 0.385687 0.304814
0.418128 0.389288 0.310338
0.436408 0.392767 0.316289
0.455299 0.396887 0.322515
0.474647 0.401343 0.329198
0.494331 0.406378 0.336339
0.514366 0.411749 0.343938
0.534874 0.417578 0.351873
0.556023 0.424048 0.360357
0.578546 0.431586 0.369574
0.602502 0.440101 0.379644
0.627283 0.449561 0.390753
0.652735 0.459846 0.402441
0.678706 0.471138 0.415534
0.704952 0.483375 0.429786
0.731655 0.496620 0.445228
0.758694 0.511376 0.462043
0.786038 0.527489 0.480629
0.813596 0.545342 0.501061
0.286229 0.384710 0.285985
0.286351 0.384802 0.286137
0.287816 0.385016 0.286656
0.290990 0.385534 0.287236
0.295567 0.386419 0.288579
0.302068 0.387671 0.290349
0.310399 0.389197 0.292485
0.320531 0.391241 0.294957
0.332219 0.393591 0.298405
0.345617 0.396521 0.302098
0.360449 0.399756 0.306859
0.376776 0.403479 0.311925
0.393988 0.407721 0.317388
0.412482 0.412360 0.323461
0.431678 0.417395 0.330114
0.449958 0.421302 0.336156
0.468208 0.424781 0.341650
0.486763 0.428687 0.347936
0.505943 0.433143 0.354345
0.525566 0.437934 0.361486
0.545525 0.443244 0.368780
0.566552 0.449287 0.376898
0.588891 0.456489 0.385748
0.612421 0.464607 0.395514
0.636530 0.473579 0.406256
0.661250 0.483436 0.417914
0.686458 0.494179 0.430640
0.712093 0.505882 0.444678
0.738186 0.518883 0.459998
0.764553 0.533196 0.476814
0.791226 0.548943 0.495338
0.818143 0.566461 0.515923
0.308873 0.414374 0.308934
0.309087 0.414435 0.308751
0.310491 0.414618 0.309392
0.313085 0.415076 0.310063
0.317357 0.415869 0.310887
0.323339 0.416907 0.312413
0.330663 0.418433 0.314427
0.339849 0.420233 0.316899
0.350866 0.422370 0.319921
0.363073 0.424933 0.323461
0.376898 0.427924 0.327398
0.392096 0.431342 0.331914
0.408362 0.435126 0.337224
0.425666 0.439399 0.342687
0.443977 0.444038 0.349035
0.463325 0.449104 0.355627
0.481819 0.453132 0.361608
0.499916 0.456733 0.367041
0.518334 0.460639 0.373083
0.537438 0.464851 0.379461
0.557092 0.469764 0.386328
0.577935 0.475563 0.394079
0.600000 0.482429 0.402777
0.622766 0.490028 0.412329
0.646113 0.498482 0.422736
0.670130 0.507805 0.434333
0.694667 0.518120 0.446967
0.719631 0.529534 0.460792
0.744961 0.542107 0.476051
0.770657 0.556023 0.492988
0.796689 0.571496 0.511437
0.822965 0.588586 0.531975
0.331456 0.444007 0.331334
0.331731 0.444007 0.331456
0.332952 0.444251 0.331609
0.335363 0.444678 0.332372
0.339269 0.445319 0.333318
0.344366 0.446418 0.334691
0.351446 0.447669 0.336461
0.359869 0.449348 0.338628
0.369848 0.451331 0.341405
0.381262 0.453620 0.344579
0.394202 0.456367 0.348272
0.408179 0.459449 0.352544
0.423621 0.463020 0.357244
0.440131 0.466896 0.362402
0.457343 0.471107 0.368048
0.475715 0.475776 0.373999
0.494972 0.480873 0.380621
0.513664 0.485115 0.386847
0.531548 0.488594 0.392279
0.549981 0.492378 0.398352
0.569451 0.497108 0.405005
0.590051 0.502586 0.412238
0.611414 0.508995 0.420600
0.633478 0.516106 0.430152
0.656123 0.524163 0.440284
0.679286 0.533074 0.451789
0.703120 0.543053 0.464363
0.727413 0.554009 0.478157
0.752010 0.566247 0.493568
0.777066 0.579828 0.510369
0.802396 0.594842 0.528801
0.828244 0.611322 0.548943
0.353765 0.473671 0.353826
0.354070 0.473640 0.353887
0.355322 0.473915 0.354070
0.357397 0.474250 0.354650
0.360876 0.474922 0.355566
0.365820 0.475776 0.356725
0.371954 0.476997 0.358526
0.380041 0.478492 0.360571
0.389227 0.480323 0.363043
0.399847 0.482490 0.365881
0.411810 0.485023 0.369238
0.425025 0.487831 0.373114
0.439490 0.491127 0.377569
0.455116 0.494606 0.382208
0.471778 0.498573 0.387396
0.489265 0.502892 0.393164
0.507408 0.507500 0.399298
0.526574 0.512566 0.405798
0.545495 0.517082 0.412024
0.563531 0.520592 0.417487
0.582513 0.524895 0.423896
0.602350 0.530053 0.431220
0.623011 0.536004 0.439582
0.644282 0.542809 0.448646
0.666194 0.550378 0.458991
0.688716 0.558984 0.470405
0.711788 0.568566 0.483070
0.735317 0.579217 0.496742
0.759274 0.591119 0.512230
0.783597 0.604334 0.528985
0.808499 0.618708 0.547021
0.833799 0.634485 0.566522
0.376165 0.503166 0.376135
0.376379 0.503288 0.376349
0.377386 0.503410 0.376410
0.379431 0.503777 0.376928
0.382635 0.504387 0.377783
0.387182 0.505180 0.378851
0.393072 0.506310 0.380316
0.400275 0.507622 0.382269
0.408698 0.509392 0.384497
0.418738 0.511376 0.387335
0.429999 0.513695 0.390417
0.442573 0.516289 0.393927
0.456123 0.519280 0.397955
0.470832 0.522637 0.402197
0.486641 0.526238 0.407080
0.503380 0.530266 0.412421
0.520958 0.534569 0.418189
0.539361 0.539330 0.424201
0.558343 0.544305 0.431037
0.577417 0.549035 0.437629
0.595727 0.553002 0.443915
0.614862 0.557824 0.451087
0.634699 0.563348 0.459266
0.655329 0.569757 0.468513
0.676509 0.576989 0.478798
0.698360 0.585229 0.490089
0.720668 0.594476 0.502586
0.743496 0.604883 0.516655
0.766781 0.616327 0.531792
0.790616 0.628992 0.548058
0.814908 0.642878 0.565850
0.839750 0.658106 0.584863
0.398596 0.533104 0.398444
0.398657 0.533227 0.398535
0.399512 0.533318 0.398871
0.401495 0.533623 0.399145
0.404578 0.534234 0.399969
0.408545 0.534997 0.401160
0.414191 0.536034 0.402472
0.420813 0.537377 0.404089
0.428931 0.538933 0.406378
0.438331 0.540856 0.408759
0.448768 0.543023 0.411902
0.460761 0.545525 0.415167
0.473762 0.548272 0.418952
0.487770 0.551385 0.423194
0.502800 0.554864 0.427771
0.518853 0.558526 0.432837
0.535515 0.562493 0.438331
0.553124 0.566766 0.444160
0.571283 0.571313 0.450782
0.590021 0.576074 0.457435
0.608972 0.580987 0.464698
0.627436 0.585473 0.471839
0.646571 0.590661 0.479927
0.666499 0.596765 0.489235
0.686976 0.603754 0.499489
0.708095 0.611688 0.510948
0.729763 0.620630 0.523461
0.751919 0.630549 0.537163
0.774716 0.641566 0.551751
0.797940 0.653742 0.567864
0.821805 0.667109 0.585107
0.846036 0.681788 0.603723
0.421881 0.564172 0.421851
0.422095 0.564263 0.421942
0.423041 0.564355 0.422004
0.424781 0.564721 0.422583
0.427405 0.565240 0.423194
0.431220 0.565942 0.424414
0.436561 0.566857 0.425605
0.442878 0.568048 0.427222
0.450507 0.569512 0.429389
0.459174 0.571221 0.431708
0.469154 0.573205 0.434455
0.480323 0.575402 0.437873
0.492805 0.577935 0.441291
0.506096 0.580743 0.445380
0.520317 0.583886 0.449866
0.535546 0.587182 0.454749
0.551507 0.590845 0.460151
0.568200 0.594751 0.465919
0.585473 0.598871 0.472175
0.603296 0.603296 0.478767
0.621546 0.607965 0.485878
0.640070 0.612909 0.493599
0.658595 0.617884 0.501823
0.677790 0.623651 0.511040
0.697688 0.630426 0.521172
0.718135 0.638025 0.532433
0.739071 0.646601 0.544732
0.760800 0.656123 0.558007
0.782986 0.666682 0.572290
0.805722 0.678431 0.587945
0.829007 0.691310 0.604883
0.852720 0.705470 0.623072
0.446754 0.595392 0.446723
0.446754 0.595453 0.446754
0.447669 0.595575 0.446906
0.449256 0.595850 0.447364
0.451820 0.596307 0.448035
0.455390 0.596918 0.448920
0.460273 0.597833 0.450385
0.466224 0.598871 0.451911
0.473487 0.600122 0.453803
0.481483 0.601678 0.456245
0.491035 0.603479 0.458991
0.501549 0.605493 0.462104
0.513176 0.607813 0.465705
0.525841 0.610285 0.469490
0.539239 0.613153 0.473854
0.553643 0.616175 0.478645
0.568780 0.619471 0.484047
0.584558 0.623102 0.489448
0.601007 0.626856 0.495644
0.617914 0.630915 0.502220
0.635279 0.635279 0.509178
0.652888 0.639826 0.516625
0.670863 0.644617 0.524346
0.689418 0.650233 0.533288
0.708644 0.656672 0.543267
0.728511 0.664027 0.554223
0.748989 0.672206 0.566125
0.770047 0.681392 0.579065
0.791684 0.691585 0.593103
0.813870 0.702907 0.608362
0.836576 0.715389 0.624964
0.859709 0.729122 0.642969
0.473060 0.626520 0.473335
0.473426 0.626551 0.473182
0.474159 0.626612 0.473487
0.475685 0.626886 0.474006
0.478065 0.627344 0.474647
0.481544 0.627924 0.475563
0.485847 0.628687 0.476753
0.491432 0.629633 0.478279
0.498024 0.630823 0.480323
0.505821 0.632197 0.482643
0.514549 0.633814 0.485206
0.524437 0.635645 0.488350
0.535271 0.637751 0.491646
0.547112 0.640040 0.495552
0.559899 0.642603 0.499825
0.573297 0.645380 0.504601
0.587610 0.648432 0.509758
0.602655 0.651698 0.515221
0.618036 0.655207 0.521111
0.634028 0.658991 0.527337
0.650446 0.662959 0.534020
0.667262 0.667201 0.541039
0.684230 0.671687 0.548272
0.701534 0.676356 0.555810
0.720027 0.682460 0.565423
0.739315 0.689509 0.575982
0.759152 0.697505 0.587640
0.779690 0.706355 0.600214
0.800809 0.716213 0.614008
0.822446 0.727138 0.628962
0.844511 0.739254 0.645289
0.867063 0.752499 0.662959
0.501793 0.657496 0.501884
0.501946 0.657557 0.501793
0.502739 0.657649 0.502098
0.504082 0.657893 0.502556
0.506249 0.658259 0.503227
0.509453 0.658778 0.504173
0.513481 0.659480 0.505364
0.518700 0.660365 0.506889
0.524743 0.661494 0.508782
0.531975 0.662745 0.511070
0.540215 0.664149 0.513634
0.549371 0.665858 0.516533
0.559411 0.667750 0.519799
0.570367 0.669856 0.523583
0.582269 0.672206 0.527764
0.594842 0.674800 0.532250
0.608118 0.677607 0.537041
0.622156 0.680629 0.542290
0.636713 0.683894 0.547753
0.651728 0.687373 0.553552
0.667170 0.691066 0.559899
0.683070 0.695003 0.566461
0.699214 0.699153 0.573327
0.715602 0.703517 0.580529
0.732204 0.708125 0.588006
0.750454 0.714565 0.597894
0.769802 0.722286 0.609186
0.789731 0.730892 0.621698
0.810269 0.740444 0.635187
0.831296 0.751034 0.649836
0.852811 0.762753 0.665949
0.874815 0.775601 0.683314
0.532250 0.688502 0.532128
0.532280 0.688594 0.532189
0.532952 0.688655 0.532494
0.534264 0.688899 0.532799
0.536248 0.689235 0.533410
0.539117 0.689693 0.534325
0.542870 0.690333 0.535424
0.547448 0.691157 0.536919
0.553063 0.692103 0.538689
0.559716 0.693324 0.540887
0.567132 0.694667 0.543206
0.575555 0.696254 0.545983
0.584833 0.697932 0.549157
0.595056 0.699916 0.552605
0.605890 0.702052 0.556420
0.617639 0.704433 0.560601
0.630030 0.707057 0.565179
0.643122 0.709865 0.570092
0.656672 0.712886 0.575250
0.670771 0.716121 0.580926
0.685298 0.719570 0.586725
0.700313 0.723201 0.593011
0.715572 0.727077 0.599451
0.731136 0.731136 0.606317
0.746914 0.735439 0.613397
0.762875 0.739895 0.620752
0.780758 0.746487 0.630823
0.800107 0.754879 0.643030
0.820035 0.764187 0.656306
0.840513 0.774502 0.670832
0.861479 0.785855 0.686671
0.882841 0.798337 0.703822
0.563378 0.719631 0.563348
0.563409 0.719631 0.563378
0.564019 0.719753 0.563561
0.565087 0.719936 0.563958
0.566918 0.720272 0.564416
0.569543 0.720699 0.565270
0.572961 0.721279 0.566369
0.577264 0.722042 0.567773
0.582391 0.722927 0.569360
0.588251 0.724025 0.571252
0.595148 0.725246 0.573571
0.602869 0.726680 0.576226
0.611383 0.728298 0.579126
0.620783 0.730129 0.582483
0.630854 0.732113 0.586053
0.641749 0.734310 0.589960
0.653315 0.736721 0.594293
0.665370 0.739315 0.598779
0.678096 0.742153 0.603754
0.691371 0.745144 0.609003
0.704982 0.748318 0.614679
0.719112 0.751736 0.620447
0.733455 0.755337 0.626703
0.748196 0.759152 0.633234
0.763119 0.763119 0.640009
0.778195 0.767330 0.647089
0.793484 0.771664 0.654383
0.810819 0.778378 0.664485
0.830198 0.787411 0.677638
0.850126 0.797421 0.691890
0.870451 0.808499 0.707454
0.891325 0.820615 0.724361
0.595178 0.750820 0.595270
0.595270 0.750851 0.595178
0.595758 0.750942 0.595422
0.596857 0.751125 0.595697
0.598566 0.751431 0.596307
0.600855 0.751797 0.597101
0.603906 0.752377 0.598047
0.607874 0.753017 0.599298
0.612451 0.753872 0.600824
0.617914 0.754879 0.602686
0.624201 0.756008 0.604944
0.631250 0.757351 0.607263
0.639124 0.758846 0.610132
0.647822 0.760525 0.613123
0.657099 0.762387 0.616541
0.667201 0.764431 0.620233
0.677882 0.766659 0.624384
0.689143 0.769070 0.628687
0.700984 0.771664 0.633326
0.713375 0.774441 0.638422
0.726192 0.777432 0.643732
0.739345 0.780636 0.649256
0.752895 0.783963 0.655177
0.766751 0.787533 0.661372
0.780880 0.791257 0.667811
0.795163 0.795132 0.674556
0.809598 0.799252 0.681514
0.824094 0.803494 0.688777
0.840696 0.810086 0.698939
0.860014 0.819852 0.713008
0.879820 0.830594 0.728389
0.900114 0.842435 0.745083
0.627985 0.782132 0.628046
0.628168 0.782162 0.628168
0.628565 0.782254 0.628260
0.629603 0.782437 0.628534
0.631067 0.782681 0.629145
0.633143 0.783078 0.629816
0.636042 0.783566 0.630762
0.639582 0.784176 0.631952
0.643824 0.784939 0.633478
0.648798 0.785885 0.635218
0.654536 0.786984 0.637201
0.661006 0.788205 0.639521
0.668299 0.789548 0.642115
0.676173 0.791165 0.644984
0.684810 0.792813 0.648219
0.694087 0.794736 0.651820
0.704005 0.796811 0.655604
0.714473 0.799039 0.659785
0.725460 0.801450 0.664210
0.736965 0.804044 0.668940
0.748867 0.806821 0.673945
0.761227 0.809781 0.679286
0.773892 0.812894 0.684962
0.786893 0.816220 0.690822
0.800137 0.819699 0.697017
0.813535 0.823331 0.703456
0.827146 0.827176 0.710109
0.840879 0.831144 0.717037
0.854673 0.835325 0.724239
0.870329 0.841642 0.734066
0.889586 0.852110 0.749203
0.909361 0.863645 0.765743
0.662013 0.813535 0.662043
0.662135 0.813535 0.662135
0.662562 0.813626 0.662257
0.663447 0.813748 0.662470
0.664790 0.814054 0.662989
0.666804 0.814389 0.663691
0.669337 0.814847 0.664607
0.672511 0.815427 0.665705
0.676387 0.816159 0.667140
0.680934 0.817014 0.668788
0.686183 0.817990 0.670741
0.692164 0.819120 0.672908
0.698726 0.820401 0.675380
0.705989 0.821836 0.678126
