20 Preset/Rover Style/【3】LUT video cho PR-AE-FCPX/Rover 05 P.cube
# Created by Adobe Lightroom plugin Export LUT (1.24.0)
# www.johnrellis.com/lightroom/exportlut.htm
# Preset: Rover 05 P
# Color profile: E:\lut插件\exportlut.1.24\exportlut.lrplugin\color profiles\Rec709gamma2.4.icc
LUT_3D_SIZE 32
DOMAIN_MIN 0.0 0.0 0.0
DOMAIN_MAX 1.0 1.0 1.0
0.013092 0.027222 0.011841
0.014374 0.028199 0.011688
0.017639 0.028962 0.011505
0.023865 0.030457 0.012329
0.036316 0.033478 0.013916
0.048066 0.037690 0.015381
0.063050 0.042664 0.016663
0.080568 0.047211 0.017945
0.093416 0.050843 0.020294
0.104494 0.055970 0.021210
0.118746 0.059113 0.023194
0.138003 0.060853 0.023560
0.162905 0.058961 0.025696
0.195163 0.049439 0.026032
0.234958 0.028290 0.026459
0.282933 0.000000 0.026429
0.339605 0.000000 0.024262
0.404364 0.000000 0.021912
0.473579 0.000000 0.017517
0.541558 0.000000 0.012421
0.604028 0.000000 0.008972
0.658595 0.000000 0.006622
0.704616 0.000000 0.007752
0.750698 0.000000 0.015625
0.789303 0.000000 0.032013
0.821134 0.000000 0.059968
0.847349 0.000000 0.092683
0.868956 0.000000 0.115663
0.886564 0.000000 0.141970
0.901030 0.159884 0.173342
0.912718 0.248478 0.210636
0.921569 0.319158 0.254276
0.013672 0.029389 0.011536
0.013672 0.029389 0.011536
0.016907 0.030152 0.011383
0.025147 0.031434 0.012177
0.037598 0.034455 0.013764
0.049317 0.038666 0.015229
0.064027 0.043641 0.017639
0.081178 0.048188 0.018921
0.093172 0.052033 0.020172
0.104494 0.055970 0.021210
0.118074 0.060548 0.023041
0.137148 0.061311 0.023590
0.161929 0.059632 0.025727
0.193637 0.050782 0.026062
0.232914 0.031739 0.026398
0.280491 0.000000 0.026581
0.336797 0.000000 0.024598
0.400977 0.000000 0.022370
0.469978 0.000000 0.018067
0.537774 0.000000 0.013092
0.600458 0.000000 0.008850
0.654963 0.000000 0.006897
0.701442 0.000000 0.008026
0.747097 0.000000 0.014832
0.785367 0.000000 0.030152
0.817502 0.000000 0.057191
0.844114 0.000000 0.090211
0.866239 0.000000 0.111910
0.884398 0.000000 0.138094
0.899229 0.146395 0.169223
0.911345 0.239719 0.206394
0.920684 0.311376 0.249027
0.015473 0.034730 0.013031
0.015167 0.034730 0.014160
0.018433 0.035492 0.014008
0.026246 0.037964 0.013519
0.036988 0.041230 0.013977
0.049165 0.044251 0.016724
0.064851 0.048005 0.018158
0.082124 0.051331 0.019593
0.093751 0.055207 0.020813
0.105348 0.060121 0.021729
0.119203 0.062287 0.022705
0.138155 0.065217 0.024079
0.162875 0.062348 0.025238
0.194522 0.054475 0.026581
0.233677 0.034211 0.027039
0.281193 0.000000 0.025910
0.337041 0.000000 0.024964
0.401465 0.000000 0.022705
0.469459 0.000000 0.017365
0.537499 0.000000 0.013336
0.600183 0.000000 0.008820
0.654475 0.000000 0.006592
0.701106 0.000000 0.007691
0.746151 0.000000 0.014496
0.784085 0.000000 0.028931
0.816007 0.000000 0.054536
0.842649 0.000000 0.088960
0.864805 0.000000 0.111299
0.883177 0.000000 0.137026
0.898222 0.146426 0.168002
0.910399 0.238834 0.204379
0.919860 0.310338 0.247166
0.021027 0.047364 0.017975
0.021027 0.047364 0.017975
0.022309 0.048341 0.017823
0.027253 0.048859 0.018769
0.035615 0.053559 0.017975
0.052094 0.053925 0.017609
0.068513 0.056519 0.019196
0.084413 0.059846 0.020600
0.095766 0.063478 0.020722
0.107454 0.065980 0.023041
0.121828 0.068910 0.023865
0.141146 0.071412 0.024079
0.166537 0.067628 0.025208
0.198398 0.058869 0.026520
0.237491 0.039918 0.026642
0.284703 0.003204 0.026459
0.340368 0.000000 0.024323
0.403601 0.000000 0.021668
0.470924 0.000000 0.017334
0.537591 0.000000 0.012177
0.599451 0.000000 0.008759
0.653468 0.000000 0.005310
0.700923 0.000000 0.007782
0.744717 0.000000 0.013703
0.782498 0.000000 0.029023
0.814694 0.000000 0.053681
0.841642 0.000000 0.089662
0.864012 0.000000 0.111269
0.882444 0.000000 0.137636
0.897490 0.159457 0.168734
0.909575 0.245731 0.205631
0.918944 0.314000 0.247105
0.027161 0.062165 0.022614
0.027161 0.062165 0.022614
0.028443 0.063142 0.022461
0.033387 0.063691 0.023407
0.036347 0.064424 0.024384
0.049989 0.069642 0.023407
0.073976 0.070344 0.021729
0.089326 0.071046 0.021149
0.098482 0.073701 0.022553
0.110750 0.076997 0.023590
0.126009 0.078798 0.024384
0.146273 0.079072 0.024720
0.171908 0.077150 0.026642
0.204379 0.068971 0.026429
0.244022 0.049012 0.026337
0.292149 0.010895 0.025727
0.348180 0.000000 0.024262
0.411048 0.000000 0.019867
0.477821 0.000000 0.016144
0.543481 0.000000 0.011475
0.603662 0.000000 0.007416
0.656672 0.000000 0.005737
0.703975 0.000000 0.006653
0.746487 0.000000 0.013001
0.783505 0.000000 0.028412
0.815122 0.000000 0.055879
0.841581 0.000000 0.090517
0.863584 0.000000 0.113039
0.881651 0.000000 0.139467
0.896391 0.179171 0.170321
0.908385 0.256870 0.207034
0.917510 0.322515 0.249851
0.032563 0.079530 0.029053
0.032563 0.079530 0.029053
0.034546 0.079377 0.029053
0.039796 0.079713 0.028870
0.044739 0.080049 0.029847
0.052949 0.080842 0.030640
0.067842 0.084718 0.029511
0.092256 0.087037 0.024872
0.103792 0.086030 0.024414
0.117159 0.086915 0.024445
0.133883 0.088075 0.025055
0.154879 0.088533 0.026154
0.182101 0.087282 0.026551
0.215793 0.080842 0.026062
0.256657 0.061189 0.026459
0.305180 0.020356 0.025360
0.362310 0.000000 0.022675
0.425513 0.000000 0.018677
0.491218 0.000000 0.013672
0.555047 0.000000 0.009033
0.613153 0.000000 0.005127
0.663996 0.000000 0.003418
0.731930 0.000000 0.008972
0.772519 0.000000 0.023072
0.806241 0.000000 0.047669
0.833982 0.000000 0.085237
0.856565 0.000000 0.107332
0.874907 0.035859 0.133455
0.889952 0.182803 0.162417
0.902159 0.253941 0.196872
0.911894 0.314031 0.235752
0.919219 0.368322 0.278782
0.043030 0.091920 0.036835
0.043030 0.091920 0.036835
0.045014 0.091859 0.036835
0.048981 0.091676 0.036805
0.056214 0.091798 0.036622
0.064118 0.092287 0.038575
0.074311 0.093477 0.041321
0.088228 0.096559 0.040833
0.107027 0.099458 0.032929
0.127382 0.099916 0.027832
0.149081 0.097475 0.025666
0.173098 0.097688 0.026154
0.202853 0.096071 0.025879
0.239078 0.091310 0.025666
0.282689 0.076722 0.023774
0.333104 0.029694 0.021271
0.391180 0.000000 0.018402
0.453895 0.000000 0.013642
0.517327 0.000000 0.009186
0.578241 0.000000 0.004669
0.633570 0.000000 0.001740
0.685298 0.000000 0.002350
0.731472 0.000000 0.006195
0.771206 0.000000 0.021607
0.804959 0.000000 0.046571
0.832364 0.000000 0.083742
0.854582 0.000000 0.108492
0.872618 0.130526 0.134371
0.887297 0.210025 0.164096
0.899443 0.271061 0.198245
0.909026 0.326848 0.237766
0.916472 0.377600 0.280247
0.054292 0.102419 0.047089
0.054292 0.102419 0.047089
0.056275 0.102327 0.047089
0.060243 0.102205 0.047059
0.067475 0.102296 0.046876
0.075685 0.102693 0.047669
0.085603 0.103609 0.049287
0.092164 0.104738 0.052979
0.102388 0.108736 0.053956
0.126497 0.113832 0.042969
0.158816 0.115602 0.032136
0.187228 0.112337 0.027863
0.220981 0.107485 0.024689
0.258732 0.102846 0.022461
0.302831 0.093660 0.020691
0.353674 0.061524 0.017945
0.411261 0.000000 0.013550
0.472175 0.000000 0.008331
0.533440 0.000000 0.003235
0.591028 0.000000 0.000000
0.645014 0.000000 0.000000
0.694026 0.000000 0.000000
0.736751 0.000000 0.003326
0.773983 0.000000 0.019257
0.805814 0.000000 0.045655
0.831785 0.000000 0.087037
0.853117 0.100954 0.110658
0.870573 0.183169 0.137881
0.884825 0.242741 0.168765
0.896605 0.295995 0.203494
0.906096 0.345769 0.242863
0.913481 0.392828 0.285771
0.062593 0.116487 0.060609
0.064607 0.116426 0.060578
0.066590 0.116365 0.060578
0.072541 0.116182 0.060548
0.078370 0.115999 0.060517
0.085969 0.115663 0.059358
0.092500 0.116670 0.061921
0.100252 0.118288 0.066255
0.108522 0.120333 0.071412
0.122011 0.125185 0.077913
0.153719 0.132631 0.059205
0.196506 0.135683 0.041535
0.237797 0.132174 0.029664
0.281346 0.122866 0.020722
0.329229 0.111055 0.013184
0.381201 0.095186 0.009705
0.437598 0.041077 0.005524
0.496132 0.000000 0.000488
0.553582 0.000000 0.000000
0.609522 0.000000 0.000000
0.660273 0.000000 0.000000
0.704311 0.000000 0.000000
0.743465 0.000000 0.000000
0.778103 0.000000 0.017182
0.807614 0.000000 0.047425
0.831998 0.113313 0.090608
0.852110 0.178622 0.115908
0.868711 0.231022 0.144228
0.882383 0.278935 0.175753
0.893675 0.325139 0.211795
0.902922 0.369390 0.251469
0.910216 0.411902 0.294438
0.076692 0.134737 0.081605
0.075959 0.135012 0.081514
0.078645 0.134707 0.080873
0.084047 0.134249 0.080964
0.088655 0.134035 0.080232
0.093477 0.133486 0.079591
0.100862 0.132967 0.079530
0.109987 0.134859 0.082643
0.120272 0.137453 0.087465
0.132296 0.140322 0.091615
0.148196 0.145785 0.097322
0.188266 0.156863 0.084688
0.240146 0.162234 0.059571
0.298802 0.159457 0.033112
0.352026 0.147616 0.016480
0.410468 0.125734 0.000000
0.467323 0.104585 0.000000
0.523095 0.062654 0.000000
0.579583 0.000000 0.000000
0.630884 0.000000 0.000000
0.675624 0.000000 0.000000
0.714778 0.000000 0.000000
0.749905 0.000000 0.000000
0.781094 0.089296 0.009705
0.808011 0.142977 0.045380
0.830686 0.187900 0.091554
0.849851 0.230503 0.119203
0.865721 0.271794 0.149722
0.879026 0.312474 0.182956
0.890105 0.353185 0.219944
0.899168 0.393347 0.260838
0.906554 0.431952 0.304051
0.088319 0.157870 0.097322
0.089174 0.157839 0.096925
0.089906 0.157809 0.096925
0.093263 0.157443 0.096590
0.097993 0.156802 0.096284
0.104402 0.156039 0.095583
0.110994 0.155001 0.094911
0.120974 0.155612 0.096071
0.133516 0.158755 0.099825
0.147799 0.162264 0.103883
0.163699 0.166690 0.109316
0.184543 0.174655 0.117464
0.231662 0.188815 0.105074
0.294133 0.197513 0.087678
0.369482 0.197604 0.043275
0.432380 0.185611 0.013672
0.494514 0.165682 0.000000
0.554894 0.137179 0.000000
0.604822 0.127565 0.000000
0.649714 0.123110 0.000000
0.689265 0.126711 0.000000
0.724483 0.139254 0.000000
0.756374 0.160678 0.000000
0.784909 0.187381 0.002625
0.809689 0.217197 0.047242
0.830564 0.249241 0.097658
0.848447 0.281529 0.127230
0.863340 0.315373 0.159701
0.875975 0.349798 0.194430
0.886564 0.385382 0.233188
0.895476 0.420386 0.274296
0.902678 0.454963 0.317479
0.099367 0.188205 0.115023
0.099916 0.187900 0.114809
0.101167 0.187839 0.114809
0.104829 0.187350 0.114565
0.109773 0.186343 0.113558
0.116793 0.185367 0.112764
0.125185 0.184237 0.111910
0.134218 0.182528 0.110903
0.148562 0.185245 0.114168
0.164950 0.189792 0.118990
0.183871 0.195102 0.125399
0.204166 0.201450 0.132631
0.242985 0.221836 0.149294
0.302190 0.243687 0.137972
0.381903 0.259434 0.115297
0.466011 0.265934 0.083314
0.538750 0.260685 0.016114
0.594720 0.246433 0.000000
0.645045 0.228122 0.000000
0.687068 0.218967 0.000000
0.719905 0.228489 0.000000
0.749264 0.241489 0.000000
0.776059 0.258244 0.000000
0.799557 0.277836 0.019287
0.819821 0.299779 0.086671
0.837186 0.323552 0.122011
0.851926 0.348730 0.154665
0.864591 0.374578 0.188052
0.875456 0.402136 0.224674
0.884825 0.430426 0.262821
0.892790 0.459144 0.302678
0.899382 0.488380 0.344762
0.114199 0.231144 0.140017
0.114199 0.231144 0.140017
0.116457 0.230472 0.139467
0.120455 0.229282 0.138827
0.126223 0.228000 0.137911
0.133791 0.226139 0.136385
0.143038 0.223636 0.134737
0.153811 0.221408 0.133150
0.167269 0.220676 0.132998
0.187167 0.227024 0.139101
0.210056 0.235080 0.146944
0.236332 0.244572 0.156161
0.265965 0.256168 0.167575
0.302129 0.272831 0.182010
0.365881 0.299504 0.173953
0.446998 0.320348 0.148287
0.526543 0.330388 0.116548
0.596765 0.332586 0.064027
0.643549 0.322118 0.003662
0.685512 0.309728 0.000000
0.723507 0.295811 0.000000
0.752865 0.299260 0.000000
0.777249 0.312932 0.000000
0.798795 0.328954 0.017639
0.817685 0.346960 0.093538
0.834134 0.366583 0.131594
0.848264 0.387640 0.166781
0.860472 0.409979 0.202060
0.871153 0.433631 0.239170
0.880400 0.458381 0.278019
0.888243 0.484138 0.318608
0.894835 0.510185 0.359930
0.130159 0.280491 0.167788
0.129885 0.280095 0.167208
0.132479 0.279210 0.166690
0.137331 0.277714 0.165743
0.143496 0.275975 0.164706
0.152438 0.273533 0.163210
0.162661 0.270420 0.160891
0.174289 0.267399 0.158999
0.187289 0.263432 0.156313
0.205905 0.266392 0.159091
0.231113 0.275181 0.167422
0.259800 0.285801 0.177066
0.291844 0.298405 0.189090
0.326574 0.312596 0.203159
0.365484 0.330999 0.219974
0.425574 0.358129 0.216739
0.501793 0.380804 0.190524
0.571221 0.392828 0.161501
0.631800 0.397681 0.129091
0.677272 0.392828 0.098360
0.713741 0.383642 0.049012
0.747860 0.373877 0.000000
0.778531 0.364538 0.000000
0.798367 0.377752 0.027863
0.816037 0.392432 0.106050
0.831449 0.408576 0.146151
0.844816 0.426001 0.183047
0.856504 0.444892 0.220157
0.866850 0.465156 0.257755
0.875853 0.486885 0.297032
0.883665 0.509239 0.336522
0.890227 0.532647 0.377081
0.150881 0.336645 0.199649
0.151125 0.336522 0.199680
0.154208 0.335393 0.198825
0.158633 0.333501 0.197910
0.165408 0.330999 0.195956
0.173648 0.327581 0.193454
0.184726 0.323583 0.190707
0.196994 0.319524 0.187991
0.210575 0.314855 0.184543
0.225101 0.309667 0.181247
0.251865 0.318181 0.189273
0.282322 0.329290 0.199374
0.315953 0.341894 0.212039
0.351629 0.355718 0.226932
0.387610 0.370428 0.243412
0.425666 0.388586 0.261967
0.477852 0.413672 0.265446
0.544823 0.436133 0.241001
0.604211 0.449104 0.215640
0.657160 0.454902 0.188632
0.702052 0.455055 0.161563
0.734829 0.448951 0.143893
0.765011 0.442023 0.126253
0.792569 0.434333 0.109163
0.814115 0.434455 0.124178
0.828580 0.447578 0.165286
0.841337 0.462226 0.202884
0.852628 0.478279 0.241123
0.862730 0.496071 0.279637
0.871580 0.515282 0.318791
0.879240 0.535576 0.358495
0.885893 0.556634 0.397894
0.184634 0.391394 0.235050
0.185641 0.391363 0.235264
0.187167 0.390173 0.234012
0.191806 0.388983 0.233036
0.197330 0.386572 0.231144
0.205631 0.383459 0.228641
0.216220 0.380255 0.226352
0.228092 0.376074 0.223026
0.241581 0.370977 0.218967
0.256260 0.365759 0.215122
0.275334 0.363561 0.213962
0.306859 0.373663 0.225040
0.339757 0.384863 0.237522
0.374029 0.397101 0.251804
0.408362 0.409705 0.267704
0.441932 0.423285 0.285313
0.476234 0.439307 0.304540
0.518883 0.461433 0.314733
0.577050 0.483131 0.293980
0.629389 0.495918 0.272465
0.676844 0.503014 0.250950
0.719265 0.506157 0.229068
0.750515 0.503075 0.214969
0.777432 0.498177 0.204196
0.801938 0.493294 0.194614
0.824857 0.486915 0.192721
0.838254 0.496742 0.227420
0.849058 0.510735 0.266117
0.858732 0.525902 0.304265
0.867216 0.542473 0.342199
0.874754 0.559930 0.380041
0.881407 0.578332 0.417182
0.231937 0.441840 0.273533
0.231601 0.441352 0.272862
0.233097 0.440742 0.272282
0.236484 0.439551 0.271366
0.241062 0.437324 0.269291
0.248051 0.434791 0.267094
0.256321 0.431159 0.263676
0.266667 0.427100 0.260288
0.277775 0.422309 0.255894
0.290318 0.416602 0.251041
0.303716 0.410071 0.245518
0.328679 0.413245 0.250370
0.361242 0.423407 0.262730
0.394141 0.434333 0.277043
0.426917 0.445960 0.292638
0.459174 0.457893 0.309575
0.489754 0.470283 0.327886
0.519310 0.484413 0.347875
0.553674 0.503624 0.363775
0.604242 0.523705 0.346349
0.651026 0.536675 0.329412
0.693294 0.544884 0.312993
0.731197 0.548852 0.297185
0.762081 0.548669 0.284337
0.786130 0.545525 0.278111
0.808164 0.542290 0.272618
0.828946 0.538933 0.272831
0.845518 0.540490 0.291539
0.854917 0.553643 0.328954
0.863127 0.568200 0.366400
0.870512 0.583703 0.402808
0.877195 0.600031 0.438056
0.286442 0.487709 0.314549
0.287205 0.487434 0.314153
0.305150 0.499550 0.326360
0.307256 0.498421 0.325261
0.310216 0.496590 0.323156
0.314488 0.493843 0.320378
0.319402 0.490272 0.316442
0.326329 0.486305 0.312108
0.334539 0.481697 0.307347
0.343938 0.475959 0.301640
0.353796 0.469429 0.295048
0.364446 0.461799 0.287510
0.394873 0.470161 0.299840
0.425757 0.479133 0.313573
0.456031 0.488655 0.328649
0.484993 0.498421 0.344427
0.512322 0.508324 0.361212
0.537743 0.518791 0.378637
0.561669 0.530083 0.397040
0.588373 0.545861 0.415808
0.631952 0.564355 0.402380
0.672816 0.576959 0.389929
0.709346 0.584497 0.377844
0.742092 0.588556 0.366491
0.771450 0.589593 0.354620
0.792935 0.587671 0.350164
0.812955 0.585473 0.346807
0.831937 0.583642 0.348028
0.849638 0.582238 0.359258
0.859251 0.592279 0.390173
0.866575 0.605859 0.424720
0.873198 0.620325 0.458320
0.346868 0.529473 0.358770
0.348547 0.530297 0.359350
0.350896 0.530968 0.360266
0.353246 0.530724 0.359777
0.356878 0.530083 0.359258
0.360296 0.528191 0.357031
0.363745 0.525109 0.353185
0.368475 0.521782 0.349432
0.374182 0.517418 0.344274
0.380896 0.512413 0.338476
0.388556 0.506645 0.332097
0.396399 0.499733 0.324193
0.411872 0.497230 0.322911
0.440436 0.505150 0.335943
0.469001 0.513603 0.350286
0.496101 0.522362 0.365393
0.522057 0.531487 0.381476
0.546288 0.541222 0.398108
0.569085 0.551324 0.415320
0.590570 0.562005 0.433082
0.613153 0.576226 0.453773
0.651820 0.594049 0.444923
0.687709 0.606043 0.436103
0.719936 0.613672 0.427955
0.748898 0.618097 0.420142
0.775509 0.620233 0.412268
0.797543 0.620417 0.407752
0.816220 0.619806 0.407294
0.833829 0.619776 0.411017
0.850156 0.620325 0.423835
0.862669 0.625605 0.444556
0.869261 0.638758 0.477211
0.394812 0.560388 0.394598
0.396246 0.561059 0.395209
0.398444 0.561791 0.396246
0.400336 0.561761 0.396094
0.403326 0.561151 0.395483
0.405829 0.559625 0.393683
0.408301 0.557305 0.390478
0.411444 0.553918 0.386389
0.415320 0.550256 0.381750
0.419928 0.545556 0.375860
0.424994 0.540520 0.369482
0.430762 0.534447 0.361975
0.437263 0.527398 0.353521
0.457527 0.530114 0.359655
0.483864 0.537774 0.373510
0.508751 0.545708 0.387610
0.532921 0.554040 0.402747
0.555871 0.562860 0.418158
0.577478 0.572015 0.433936
0.598016 0.581689 0.450538
0.617151 0.591547 0.467292
0.637385 0.604608 0.487068
0.669123 0.620172 0.484016
0.700526 0.631525 0.478126
0.729061 0.639063 0.472694
0.755093 0.643885 0.467323
0.779507 0.647120 0.462409
0.802121 0.649165 0.458412
0.819425 0.650111 0.460517
0.835813 0.651514 0.467323
0.850889 0.653864 0.481270
0.865202 0.656703 0.496620
0.438453 0.588403 0.428565
0.439582 0.589288 0.429694
0.440955 0.589471 0.429908
0.442878 0.589685 0.430121
0.444739 0.589166 0.429511
0.446174 0.587579 0.427283
0.448341 0.585595 0.424842
0.450202 0.582818 0.421088
0.453071 0.579553 0.416938
0.456519 0.575708 0.411902
0.460121 0.571069 0.405921
0.464576 0.565911 0.399329
0.468849 0.559747 0.391180
0.474525 0.553185 0.383154
0.498329 0.560174 0.395850
0.521874 0.567559 0.409430
0.544518 0.575402 0.423529
0.566247 0.583703 0.438331
0.587335 0.592584 0.453956
0.607202 0.601862 0.470008
0.626001 0.611383 0.486702
0.643214 0.620935 0.503502
0.660639 0.632410 0.522118
0.686610 0.646296 0.524407
0.713802 0.657130 0.521386
0.739071 0.664881 0.518700
0.762875 0.670619 0.516258
0.785489 0.675074 0.514427
0.807034 0.678523 0.513024
0.824369 0.681086 0.515892
0.839261 0.684047 0.526055
0.853147 0.687617 0.540551
0.483497 0.618463 0.466743
0.484138 0.618677 0.466987
0.484718 0.618616 0.466987
0.485054 0.618097 0.466102
0.485725 0.617060 0.464668
0.486641 0.615686 0.462928
0.487678 0.613764 0.460365
0.488930 0.611261 0.456794
0.490669 0.608392 0.452827
0.493050 0.605097 0.448341
0.495583 0.600977 0.442878
0.498512 0.596521 0.436713
0.501671 0.591089 0.429450
0.504997 0.584771 0.420966
0.515709 0.583215 0.420233
0.536919 0.589929 0.432624
0.557794 0.596918 0.445777
0.578027 0.604364 0.459663
0.597284 0.612055 0.473884
0.615747 0.620020 0.488685
0.633021 0.628138 0.503899
0.649042 0.636378 0.519249
0.663722 0.644587 0.534783
0.678431 0.654414 0.551629
0.699580 0.666438 0.557000
0.723903 0.676783 0.555352
0.747066 0.684932 0.554467
0.769131 0.691463 0.554101
0.790249 0.696773 0.554345
0.810452 0.701320 0.555169
0.828641 0.705013 0.557824
0.842557 0.708858 0.569909
0.517601 0.640558 0.496620
0.517845 0.640711 0.496834
0.518151 0.640528 0.496468
0.518608 0.640192 0.495979
0.519036 0.639338 0.494728
0.519585 0.638331 0.493263
0.520104 0.636561 0.490547
0.520989 0.634607 0.487648
0.522148 0.632227 0.484199
0.523674 0.629419 0.480079
0.525231 0.625971 0.474983
0.527092 0.621973 0.469154
0.529320 0.617395 0.462470
0.531792 0.611994 0.454871
0.534295 0.605951 0.446418
0.549889 0.609003 0.453040
0.569268 0.615473 0.465492
0.588190 0.622156 0.478645
0.606287 0.629145 0.492226
0.623621 0.636286 0.506371
0.640040 0.643610 0.520714
0.655177 0.651057 0.535393
0.669215 0.658503 0.550103
0.682063 0.665980 0.564508
0.693416 0.673030 0.577081
0.711025 0.683680 0.584558
0.733516 0.694179 0.584375
0.755062 0.702754 0.584924
0.775692 0.709865 0.586267
0.795712 0.715938 0.588098
0.814908 0.721248 0.590692
0.833371 0.726040 0.594202
0.551843 0.661952 0.527886
0.552392 0.662287 0.528374
0.552544 0.662074 0.528069
0.552514 0.661646 0.527276
0.552453 0.660731 0.525841
0.552239 0.659510 0.523888
0.551965 0.657954 0.521386
0.551873 0.656001 0.518181
0.551995 0.653681 0.514549
0.552178 0.650904 0.510033
0.552758 0.647822 0.505180
0.553735 0.644251 0.499611
0.554772 0.640131 0.493263
0.555810 0.635309 0.485725
0.557061 0.629786 0.477241
0.560357 0.624872 0.470161
0.578241 0.630488 0.481788
0.595727 0.636408 0.493996
0.612848 0.642695 0.506889
0.629297 0.649195 0.520348
0.644923 0.656001 0.534234
0.659571 0.662837 0.548333
0.673030 0.669642 0.562036
0.685298 0.676356 0.575341
0.696529 0.682979 0.588159
0.707942 0.690730 0.601495
0.722866 0.700435 0.610132
0.743587 0.710842 0.611017
0.763790 0.719570 0.612512
0.783322 0.727108 0.614954
0.802335 0.733730 0.618036
0.820706 0.739712 0.622034
0.578088 0.678340 0.552880
0.578637 0.678584 0.553307
0.578912 0.678492 0.553185
0.579004 0.678218 0.552697
0.578851 0.677546 0.551446
0.578759 0.676631 0.549920
0.578851 0.675471 0.548028
0.578759 0.673915 0.545251
0.578851 0.672236 0.542351
0.579217 0.670192 0.538903
0.579370 0.667659 0.534539
0.579736 0.664790 0.529564
0.580194 0.661372 0.523766
0.580682 0.657374 0.517113
0.581231 0.652766 0.509392
0.581903 0.647364 0.500603
0.590082 0.646662 0.500786
0.606287 0.652003 0.512413
0.622187 0.657649 0.524773
0.637568 0.663539 0.537530
0.652338 0.669612 0.550591
0.666011 0.675868 0.563561
0.678798 0.682155 0.576501
0.690700 0.688411 0.589075
0.701717 0.694759 0.601251
0.712062 0.701106 0.613123
0.722652 0.708522 0.625177
0.735592 0.717494 0.634974
0.755123 0.728054 0.637018
0.774166 0.737087 0.639857
0.792813 0.745083 0.643458
0.810880 0.752255 0.648005
0.603754 0.694636 0.577996
0.604089 0.694759 0.578302
0.604028 0.694667 0.577966
0.604120 0.694331 0.577569
0.604028 0.693812 0.576593
0.603754 0.692988 0.575128
0.603571 0.691920 0.573236
0.603479 0.690639 0.571038
0.603388 0.689143 0.568444
0.603326 0.687282 0.565118
0.603235 0.685115 0.561364
0.603296 0.682704 0.557061
0.603357 0.679835 0.551904
0.603326 0.676417 0.545800
0.603479 0.672602 0.539117
0.603479 0.668055 0.530938
0.603632 0.662989 0.522118
0.616022 0.665919 0.529412
0.630976 0.671015 0.541131
0.645380 0.676417 0.553185
0.659174 0.682033 0.565423
0.672206 0.687800 0.577722
0.684413 0.693629 0.589746
0.695918 0.699580 0.601526
0.706661 0.705562 0.612970
0.716732 0.711543 0.624079
0.726253 0.717617 0.634821
0.736172 0.724636 0.645960
0.747463 0.732906 0.656733
0.766018 0.743679 0.660029
0.784268 0.753140 0.664210
0.802029 0.761410 0.668849
0.625422 0.709651 0.600397
0.625666 0.709834 0.600702
0.625727 0.709712 0.600488
0.625727 0.709438 0.600000
0.625818 0.709071 0.599390
0.625849 0.708553 0.598413
0.626093 0.707881 0.597253
0.626459 0.707118 0.595911
0.626856 0.706111 0.594110
0.627436 0.705013 0.592126
0.628046 0.703639 0.589654
0.628412 0.701869 0.586358
0.628962 0.699855 0.582788
0.629206 0.697322 0.578149
0.629267 0.694209 0.572412
0.629053 0.690547 0.565698
0.629084 0.686549 0.558282
0.631281 0.683375 0.552758
0.645014 0.688106 0.563806
0.658167 0.693050 0.574975
0.670924 0.698268 0.586358
0.683040 0.703700 0.597650
0.694575 0.709224 0.608789
0.705501 0.714870 0.619806
0.715785 0.720516 0.630396
0.725521 0.726192 0.640711
0.734829 0.731899 0.650874
0.743587 0.737606 0.660975
0.752804 0.744259 0.671534
0.762356 0.751736 0.682918
0.779751 0.762356 0.687037
0.796902 0.771786 0.691920
0.649012 0.727626 0.626093
0.649073 0.727596 0.626062
0.649073 0.727443 0.625849
0.649012 0.727199 0.625452
0.648890 0.726741 0.624720
0.648707 0.726101 0.623529
0.648676 0.725399 0.622400
0.648615 0.724422 0.620813
0.648554 0.723323 0.618860
0.648615 0.722042 0.616693
0.648676 0.720577 0.614160
0.648737 0.718746 0.610956
0.648737 0.716732 0.607355
0.648707 0.714351 0.603143
