20 Preset/Rover Style/【3】LUT video cho PR-AE-FCPX/Rover 05.cube
# Created by Adobe Lightroom plugin Export LUT (1.24.0)
# www.johnrellis.com/lightroom/exportlut.htm
# Preset: Rover 05
# Color profile: E:\lut插件\exportlut.1.24\exportlut.lrplugin\color profiles\Rec709gamma2.4.icc
LUT_3D_SIZE 5
DOMAIN_MIN 0.000000 0.000000 0.000000
DOMAIN_MAX 0.903226 0.903226 0.903226
0.013092 0.027222 0.011841
0.095277 0.059113 0.022461
0.253758 0.053376 0.037201
0.671351 0.000000 0.028870
0.950652 0.261357 0.118166
0.074189 0.114900 0.065675
0.106783 0.118441 0.075929
0.316838 0.110414 0.041016
0.718654 0.000000 0.019745
0.952758 0.370062 0.150607
0.170901 0.328679 0.205234
0.206058 0.309789 0.193454
0.400793 0.383398 0.259007
0.788022 0.506126 0.169009
0.944121 0.571862 0.288670
0.465187 0.645655 0.463844
0.473610 0.635920 0.451240
0.510216 0.597162 0.405127
0.699580 0.690394 0.562951
0.881315 0.775418 0.622675
0.698695 0.814298 0.701534
0.698634 0.810636 0.695064
0.691951 0.787381 0.656428
0.746212 0.794522 0.673548
0.847745 0.853819 0.787503
0.032410 0.058350 0.053498
0.082551 0.082246 0.056794
0.256229 0.094331 0.083955
0.668391 0.000000 0.052644
0.936126 0.273381 0.108339
0.085389 0.121675 0.101595
0.121798 0.131289 0.109163
0.312993 0.136568 0.110292
0.706935 0.039277 0.089387
0.937774 0.362524 0.132876
0.206882 0.347692 0.253574
0.236637 0.343969 0.243473
0.398291 0.379858 0.283055
0.772946 0.478401 0.221500
0.940612 0.572137 0.288762
0.510369 0.661067 0.511620
0.507225 0.654170 0.494270
0.529259 0.612238 0.440131
0.701625 0.693263 0.577905
0.881987 0.775174 0.631739
0.709133 0.819730 0.716884
0.707057 0.816068 0.709224
0.707424 0.800351 0.681819
0.749783 0.798795 0.683040
0.851652 0.857969 0.795590
0.047028 0.095735 0.145876
0.101503 0.106203 0.154330
0.215610 0.142306 0.185245
0.608972 0.038117 0.272557
0.916625 0.374243 0.311986
0.074739 0.138552 0.199954
0.132143 0.149569 0.208530
0.274296 0.195651 0.236728
0.662257 0.195529 0.306676
0.914366 0.444648 0.354101
0.205295 0.382757 0.374914
0.273014 0.397864 0.383825
0.482124 0.462196 0.425055
0.740078 0.520165 0.439063
0.906279 0.606897 0.480568
0.580346 0.697719 0.613184
0.587732 0.693507 0.607019
0.619959 0.683925 0.587366
0.714137 0.709438 0.631830
0.887327 0.770687 0.661860
0.730892 0.833371 0.757443
0.734463 0.832425 0.755825
0.736660 0.823972 0.737392
0.740841 0.794461 0.688411
0.851225 0.858061 0.803037
0.000000 0.129732 0.330327
0.000000 0.138979 0.343908
0.292058 0.189914 0.394476
0.551232 0.293339 0.457527
0.803433 0.475654 0.580224
0.000000 0.169436 0.381933
0.086488 0.180240 0.392462
0.342718 0.242252 0.434699
0.580285 0.363470 0.487495
0.807706 0.515770 0.594385
0.000000 0.335271 0.485573
0.135866 0.342382 0.490394
0.459205 0.444373 0.542107
0.653864 0.564324 0.582940
0.833951 0.637263 0.650080
0.546258 0.688197 0.664973
0.565332 0.690730 0.666499
0.637079 0.706477 0.678950
0.739742 0.741085 0.709133
0.874998 0.770962 0.727047
0.775753 0.863005 0.826139
0.777493 0.862364 0.824674
0.784909 0.859464 0.817929
0.792691 0.845426 0.791897
0.858152 0.865934 0.826749
0.000000 0.189731 0.612818
0.000000 0.199893 0.619409
0.411292 0.263249 0.647211
0.664393 0.477913 0.683314
0.780209 0.593225 0.708431
0.000000 0.224399 0.625116
0.075776 0.236698 0.631495
0.430854 0.308904 0.656123
0.668879 0.510613 0.689326
0.780575 0.616510 0.714351
0.000000 0.344366 0.656458
0.033753 0.362799 0.663783
0.457527 0.447852 0.685725
0.685267 0.603998 0.714900
0.791653 0.691463 0.744564
0.319005 0.625177 0.725368
0.341802 0.622065 0.723842
0.428992 0.611170 0.720638
0.692164 0.697444 0.758389
0.825376 0.789731 0.802884
0.719661 0.843168 0.838437
0.725307 0.844022 0.838926
0.751858 0.849760 0.843168
0.801450 0.861357 0.851865
0.878050 0.886870 0.874083
