20 Preset/Rover Style/【3】LUT video cho PR-AE-FCPX/Rover X Reset.cube
# Created by Adobe Lightroom plugin Export LUT (1.24.0)
# www.johnrellis.com/lightroom/exportlut.htm
# Preset: Rover X Reset
# Color profile: E:\lut插件\exportlut.1.24\exportlut.lrplugin\color profiles\Rec709gamma2.4.icc
LUT_3D_SIZE 32
DOMAIN_MIN 0.0 0.0 0.0
DOMAIN_MAX 1.0 1.0 1.0
0.000000 0.000000 0.000000
0.009216 0.000092 0.000000
0.043824 0.000641 0.000183
0.096681 0.000122 0.000000
0.129122 0.000244 0.000000
0.161196 0.000580 0.000000
0.193606 0.000214 0.000244
0.225834 0.000122 0.000458
0.258030 0.000000 0.000000
0.290471 0.000000 0.000000
0.322576 0.000305 0.000366
0.354894 0.001495 0.000000
0.387060 0.000183 0.000275
0.419379 0.001068 0.000122
0.451575 0.001221 0.000824
0.483833 0.000000 0.000122
0.516197 0.000000 0.000000
0.548394 0.000977 0.000031
0.580682 0.000000 0.000000
0.612940 0.000000 0.000366
0.645136 0.000305 0.000000
0.677394 0.001556 0.000000
0.709682 0.000000 0.000214
0.741939 0.000458 0.000000
0.774228 0.000061 0.000000
0.806485 0.000000 0.000061
0.838712 0.000000 0.000580
0.870970 0.000671 0.000061
0.903258 0.000000 0.000000
0.935454 0.001251 0.000000
0.967742 0.001373 0.000000
1.000000 0.000580 0.000214
0.000000 0.008942 0.000000
0.007935 0.008057 0.000000
0.044526 0.008392 0.000244
0.096895 0.007874 0.000000
0.129274 0.007996 0.000000
0.161318 0.008331 0.000061
0.193698 0.007965 0.000305
0.225895 0.007874 0.000519
0.258030 0.008850 0.000000
0.290318 0.008972 0.000000
0.322637 0.008057 0.000427
0.354864 0.008240 0.000000
0.387091 0.007935 0.000336
0.419379 0.010010 0.001160
0.451606 0.008972 0.000885
0.483833 0.008911 0.000031
0.516167 0.007935 0.000000
0.548302 0.009186 0.000122
0.580682 0.008637 0.000000
0.612940 0.008423 0.000122
0.645167 0.008057 0.000000
0.677424 0.008118 0.000000
0.709682 0.008789 0.000122
0.741909 0.009644 0.000000
0.774197 0.006836 0.000000
0.806455 0.008576 0.000000
0.838712 0.008850 0.000488
0.870970 0.009613 0.000000
0.903258 0.008453 0.000000
0.935485 0.009003 0.000000
0.967742 0.008148 0.000092
1.000000 0.008301 0.000275
0.000000 0.044739 0.000000
0.008789 0.044831 0.000519
0.044434 0.044190 0.000000
0.097078 0.045869 0.000000
0.129091 0.045014 0.000000
0.161196 0.045319 0.000000
0.193576 0.044953 0.000000
0.225834 0.044892 0.000000
0.258000 0.044648 0.000214
0.290288 0.044770 0.000183
0.322667 0.046021 0.000000
0.354925 0.045045 0.000000
0.387030 0.044923 0.000000
0.419287 0.046052 0.000824
0.451606 0.044770 0.001678
0.483864 0.045686 0.000000
0.516136 0.044953 0.000519
0.548425 0.044526 0.000000
0.580682 0.044434 0.000000
0.612940 0.044221 0.000000
0.645136 0.045075 0.000427
0.677424 0.045106 0.000427
0.709682 0.043397 0.000000
0.741970 0.044007 0.000580
0.774258 0.044587 0.000427
0.806455 0.044373 0.000000
0.838743 0.043244 0.000275
0.870970 0.044221 0.000000
0.903288 0.044038 0.000000
0.935515 0.045563 0.000488
0.967742 0.045136 0.000000
1.000000 0.044099 0.000000
0.000000 0.096834 0.000000
0.009186 0.096864 0.000000
0.044495 0.096651 0.000031
0.096651 0.096895 0.000000
0.129274 0.096498 0.000000
0.161318 0.096620 0.000000
0.193668 0.096498 0.000061
0.225834 0.096895 0.000153
0.258000 0.096803 0.000336
0.290288 0.096834 0.000305
0.322637 0.096529 0.000183
0.354925 0.096925 0.000000
0.387091 0.097230 0.000946
0.419287 0.097292 0.000946
0.451698 0.096773 0.000000
0.483833 0.096834 0.000000
0.516136 0.096895 0.000000
0.548363 0.096834 0.000000
0.580682 0.096742 0.000000
0.612970 0.096986 0.000000
0.645197 0.096864 0.000000
0.677485 0.096468 0.000000
0.709712 0.096712 0.000000
0.741939 0.096651 0.000000
0.774166 0.096956 0.000000
0.806455 0.096712 0.000000
0.838743 0.097139 0.000092
0.870970 0.096651 0.000000
0.903227 0.096742 0.000000
0.935515 0.096773 0.000000
0.967742 0.096559 0.000000
1.000000 0.096620 0.000031
0.000610 0.129091 0.000000
0.007538 0.129152 0.000458
0.045167 0.128969 0.000000
0.096864 0.129122 0.000000
0.128969 0.128908 0.000000
0.161410 0.128939 0.000000
0.193668 0.129122 0.000000
0.225681 0.129152 0.000000
0.258061 0.129061 0.000153
0.290349 0.129091 0.000122
0.322667 0.128878 0.000031
0.354955 0.129152 0.000519
0.387030 0.129397 0.000793
0.419440 0.129061 0.000000
0.451575 0.129122 0.000519
0.483925 0.129030 0.000000
0.516136 0.129397 0.000305
0.548425 0.129305 0.000000
0.580652 0.128786 0.000000
0.612909 0.129000 0.000000
0.645167 0.129152 0.000397
0.677424 0.129152 0.000366
0.709682 0.129030 0.000000
0.741939 0.128969 0.000549
0.774228 0.129091 0.000397
0.806485 0.129213 0.000000
0.838712 0.129061 0.000092
0.870970 0.129000 0.000000
0.903227 0.129305 0.000000
0.935515 0.129030 0.000000
0.967773 0.128847 0.000000
1.000000 0.129213 0.000000
0.000000 0.161318 0.000000
0.008911 0.161318 0.000397
0.044556 0.161227 0.000000
0.096559 0.161318 0.000519
0.129335 0.161501 0.000305
0.161318 0.161196 0.000000
0.193606 0.161349 0.000000
0.225834 0.161318 0.000000
0.257939 0.161501 0.001068
0.290227 0.161501 0.001038
0.322576 0.161349 0.000946
0.354955 0.161166 0.000610
0.387060 0.161349 0.000000
0.419318 0.161318 0.000000
0.451667 0.161471 0.000275
0.483833 0.161288 0.000000
0.516136 0.161349 0.000397
0.548425 0.161257 0.000000
0.580713 0.161227 0.000519
0.612940 0.161227 0.000000
0.645136 0.161349 0.000305
0.677424 0.161379 0.000305
0.709712 0.161227 0.000000
0.741970 0.161196 0.000458
0.774166 0.161349 0.000336
0.806455 0.161257 0.000000
0.838743 0.161257 0.000000
0.870970 0.161227 0.000000
0.903227 0.161440 0.000427
0.935454 0.161318 0.000549
0.967712 0.161563 0.000458
1.000000 0.161196 0.000000
0.002625 0.193454 0.001099
0.009857 0.193484 0.000916
0.046448 0.193545 0.001282
0.097566 0.193484 0.001038
0.129274 0.193515 0.000977
0.161318 0.193576 0.001099
0.193423 0.193545 0.001343
0.225864 0.193668 0.000275
0.258091 0.193484 0.000610
0.290532 0.193454 0.000580
0.322515 0.193545 0.000336
0.354833 0.193698 0.000000
0.387091 0.193515 0.000244
0.419379 0.193515 0.000244
0.451575 0.193515 0.000000
0.483864 0.193484 0.000092
0.516167 0.193515 0.000000
0.548394 0.193484 0.000153
0.580652 0.193484 0.000000
0.612848 0.193637 0.000061
0.645228 0.193515 0.000000
0.677455 0.193545 0.000000
0.709712 0.193606 0.000031
0.741970 0.193698 0.000000
0.774197 0.193515 0.000000
0.806455 0.193606 0.000000
0.838712 0.193484 0.000549
0.870970 0.193606 0.000031
0.903197 0.193759 0.000000
0.935485 0.193484 0.000000
0.967742 0.193545 0.000000
0.999969 0.193576 0.000183
0.000000 0.225864 0.000336
0.007782 0.225772 0.000305
0.046662 0.225772 0.000000
0.096864 0.225742 0.000427
0.129091 0.225895 0.000214
0.161501 0.225895 0.000305
0.193606 0.225864 0.000000
0.225925 0.225742 0.000000
0.258030 0.225834 0.000000
0.290318 0.225864 0.000000
0.322728 0.225864 0.000000
0.354833 0.225772 0.000366
0.387152 0.225864 0.000000
0.419440 0.225834 0.000000
0.451606 0.225864 0.000183
0.483833 0.225834 0.000458
0.516167 0.225742 0.000305
0.548363 0.225864 0.000000
0.580713 0.225925 0.000122
0.612940 0.225803 0.000000
0.645167 0.225772 0.000214
0.677424 0.225772 0.000214
0.709712 0.225803 0.000000
0.741939 0.225803 0.000244
0.774166 0.225895 0.000092
0.806485 0.225803 0.000427
0.838712 0.225956 0.000000
0.871000 0.225681 0.000000
0.903227 0.225834 0.000366
0.935485 0.225834 0.000275
0.967742 0.225772 0.000519
1.000000 0.225772 0.000000
0.000000 0.258152 0.000244
0.008545 0.258152 0.000061
0.044160 0.258122 0.000000
0.096681 0.258061 0.000336
0.129122 0.258091 0.000275
0.161532 0.258091 0.000366
0.193637 0.258061 0.000000
0.225864 0.258061 0.000000
0.258030 0.258061 0.000000
0.290318 0.258061 0.000000
0.322606 0.258091 0.000000
0.354803 0.258091 0.000275
0.387152 0.258061 0.000000
0.419318 0.258183 0.000000
0.451667 0.258152 0.000092
0.483803 0.258152 0.000397
0.516136 0.258061 0.000214
0.548363 0.258061 0.000580
0.580682 0.258030 0.000336
0.613001 0.258000 0.000610
0.645167 0.258152 0.000000
0.677394 0.258091 0.000122
0.709682 0.258030 0.000000
0.741909 0.258122 0.000153
0.774166 0.258183 0.000000
0.806455 0.258030 0.000488
0.838712 0.258061 0.000000
0.870970 0.258122 0.000458
0.903227 0.258030 0.000427
0.935454 0.258152 0.000214
0.967712 0.258122 0.000427
1.000000 0.258213 0.000458
0.000000 0.290440 0.000366
0.008087 0.290440 0.000183
0.044404 0.290288 0.000000
0.096284 0.290440 0.000305
0.129183 0.290257 0.000549
0.161288 0.290288 0.000000
0.193423 0.290288 0.000000
0.225834 0.290349 0.000000
0.258122 0.290410 0.000000
0.290288 0.290349 0.000000
0.322637 0.290288 0.000000
0.354833 0.290288 0.000549
0.387121 0.290440 0.000000
0.419318 0.290349 0.000000
0.451667 0.290410 0.000214
0.483833 0.290349 0.000000
0.516106 0.290440 0.000183
0.548425 0.290318 0.000000
0.580652 0.290318 0.000458
0.612940 0.290288 0.000000
0.645197 0.290349 0.000244
0.677424 0.290288 0.000397
0.709651 0.290410 0.000000
0.741970 0.290288 0.000427
0.774166 0.290349 0.000275
0.806455 0.290318 0.000000
0.838712 0.290349 0.001099
0.870970 0.290288 0.000000
0.903258 0.290379 0.000366
0.935485 0.290410 0.000336
0.967742 0.290288 0.000000
1.000000 0.290288 0.000885
0.000000 0.322545 0.000549
0.009033 0.322545 0.000366
0.043915 0.322576 0.000000
0.096590 0.322545 0.000488
0.129091 0.322576 0.000427
0.161166 0.322576 0.000549
0.193606 0.322545 0.000000
0.225834 0.322545 0.000000
0.257969 0.322606 0.000000
0.290318 0.322545 0.000031
0.322606 0.322576 0.000000
0.354803 0.322576 0.000427
0.387152 0.322545 0.000000
0.419348 0.322545 0.000000
0.451698 0.322545 0.000397
0.483864 0.322667 0.000000
0.516136 0.322545 0.000366
0.548455 0.322667 0.000000
0.580652 0.322606 0.000336
0.612940 0.322637 0.000000
0.645197 0.322545 0.000275
0.677424 0.322576 0.000275
0.709682 0.322667 0.000000
0.741939 0.322576 0.000275
0.774258 0.322545 0.000305
0.806485 0.322576 0.000458
0.838682 0.322698 0.000000
0.870970 0.322576 0.000610
0.903227 0.322606 0.000397
0.935515 0.322606 0.001465
0.967742 0.322637 0.000427
1.000000 0.322576 0.000000
0.000000 0.354864 0.000000
0.008331 0.354864 0.000000
0.045624 0.354803 0.000061
0.096376 0.354864 0.000000
0.129091 0.354803 0.000000
0.161166 0.354833 0.000000
0.193210 0.354864 0.000000
0.225742 0.354864 0.000183
0.258122 0.354833 0.000366
0.290227 0.354864 0.000336
0.322576 0.354803 0.000244
0.354772 0.354894 0.000000
0.387091 0.354864 0.000000
0.419379 0.354833 0.000000
0.451606 0.354864 0.000000
0.483864 0.354894 0.000000
0.516167 0.354864 0.000000
0.548394 0.354833 0.000000
0.580652 0.354833 0.000000
0.612879 0.354894 0.000000
0.645167 0.354864 0.000000
0.677363 0.354833 0.000000
0.709682 0.354833 0.000000
0.741939 0.354894 0.000000
0.774166 0.354864 0.000000
0.806455 0.354833 0.000000
0.838682 0.354925 0.000153
0.870970 0.354894 0.000000
0.903258 0.354894 0.000702
0.935515 0.354833 0.000000
0.967712 0.354864 0.000000
0.999969 0.354894 0.001068
0.000885 0.387091 0.000305
0.008118 0.387091 0.000122
0.044739 0.387121 0.000488
0.096986 0.387091 0.000244
0.128878 0.387091 0.000183
0.161349 0.387091 0.000275
0.193454 0.387091 0.000549
0.225742 0.387091 0.000000
0.258091 0.387060 0.000946
0.290379 0.387091 0.000916
0.322606 0.387152 0.000000
0.354864 0.387091 0.000183
0.387213 0.387060 0.000000
0.419379 0.387091 0.000580
0.451575 0.387091 0.000153
0.483894 0.387030 0.000580
0.516228 0.387060 0.000092
0.548394 0.387091 0.000488
0.580621 0.387121 0.000092
0.612879 0.387121 0.000366
0.645167 0.387091 0.000031
0.677394 0.387091 0.000031
0.709682 0.387060 0.000519
0.741939 0.387121 0.000061
0.774197 0.387091 0.000061
0.806485 0.387060 0.000366
0.838743 0.387121 0.000702
0.870970 0.387121 0.000366
0.903227 0.387060 0.000305
0.935485 0.387152 0.000092
0.967742 0.387152 0.000183
1.000000 0.387091 0.000519
0.000000 0.419409 0.000397
0.007141 0.419409 0.000214
0.047456 0.419318 0.000000
0.097566 0.419348 0.000488
0.128664 0.419409 0.000275
0.161563 0.419409 0.000000
0.193454 0.419379 0.000000
0.225650 0.419409 0.000000
0.258091 0.419348 0.000061
0.290379 0.419348 0.000031
0.322515 0.419379 0.000000
0.354864 0.419379 0.000427
0.387182 0.419348 0.000000
0.419440 0.419379 0.000000
0.451637 0.419409 0.000244
0.483864 0.419348 0.000000
0.516197 0.419409 0.000214
0.548394 0.419348 0.000000
0.580652 0.419379 0.001465
0.612909 0.419318 0.000000
0.645167 0.419348 0.000275
0.677424 0.419348 0.000275
0.709682 0.419348 0.000000
0.741970 0.419379 0.000275
0.774166 0.419409 0.000153
0.806455 0.419379 0.000000
0.838743 0.419318 0.001099
0.870970 0.419318 0.000000
0.903227 0.419348 0.000580
0.935485 0.419379 0.001465
0.967712 0.419379 0.000000
0.999969 0.419379 0.000000
0.000000 0.451637 0.000153
0.008087 0.451637 0.000000
0.045380 0.451606 0.000488
0.096284 0.451637 0.000092
0.128969 0.451606 0.001343
0.161135 0.451606 0.000305
0.193515 0.451606 0.001678
0.225742 0.451637 0.000000
0.258122 0.451606 0.000000
0.290288 0.451575 0.000000
0.322454 0.451606 0.000000
0.354742 0.451667 0.000031
0.387121 0.451575 0.001709
0.419318 0.451575 0.000580
0.451606 0.451575 0.000153
0.483925 0.451606 0.000275
0.516136 0.451606 0.000122
0.548425 0.451667 0.000183
0.580652 0.451637 0.000122
0.612909 0.451606 0.001526
0.645167 0.451637 0.000000
0.677394 0.451637 0.000000
0.709712 0.451667 0.000214
0.741939 0.451606 0.001190
0.774197 0.451575 0.000061
0.806424 0.451606 0.000244
0.838712 0.451637 0.000000
0.870970 0.451606 0.000397
0.903227 0.451606 0.000183
0.935485 0.451637 0.001251
0.967742 0.451606 0.000336
1.000000 0.451606 0.001648
0.000549 0.483864 0.000122
0.009766 0.483864 0.000000
0.045075 0.483864 0.000458
0.097536 0.483864 0.000031
0.128969 0.483833 0.000153
0.161410 0.483864 0.000244
0.193454 0.483833 0.001648
0.225834 0.483925 0.000000
0.258030 0.483925 0.000000
0.290318 0.483925 0.000000
0.322545 0.483833 0.000610
0.354803 0.483803 0.000305
0.387152 0.483925 0.000244
0.419348 0.483864 0.001526
0.451545 0.483894 0.001099
0.483833 0.483864 0.001373
0.516197 0.483925 0.000000
0.548455 0.483864 0.000275
0.580621 0.483864 0.001190
0.612879 0.483864 0.001465
0.645136 0.483925 0.000824
0.677455 0.483833 0.001129
0.709712 0.483894 0.000153
0.741970 0.483833 0.001129
0.774197 0.483894 0.000000
0.806455 0.483864 0.000183
0.838712 0.483925 0.000000
0.870970 0.483894 0.000183
0.903258 0.483864 0.000122
0.935485 0.483864 0.000061
0.967742 0.483833 0.000275
1.000000 0.483864 0.001617
0.000153 0.516197 0.000000
0.008087 0.516167 0.000000
0.046693 0.516167 0.000000
0.096284 0.516167 0.000000
0.128878 0.516167 0.000000
0.161471 0.516136 0.000000
0.193637 0.516075 0.000336
0.225925 0.516167 0.000244
0.258030 0.516197 0.000275
0.290074 0.516167 0.000427
0.322667 0.516106 0.001434
0.354772 0.516136 0.000946
0.387091 0.516167 0.000061
0.419379 0.516136 0.000061
0.451575 0.516167 0.000000
0.483925 0.516167 0.000000
0.516045 0.516136 0.000000
0.548394 0.516136 0.000000
0.580682 0.516136 0.000000
0.612909 0.516136 0.001160
0.645197 0.516106 0.000000
0.677424 0.516136 0.000000
0.709682 0.516136 0.000000
0.741939 0.516136 0.000000
0.774197 0.516106 0.000000
0.806424 0.516136 0.001007
0.838743 0.516167 0.000214
0.870970 0.516136 0.000031
0.903227 0.516136 0.000946
0.935485 0.516136 0.000885
0.967712 0.516136 0.000000
0.999969 0.516106 0.000305
0.000214 0.548363 0.000488
0.011444 0.548363 0.000305
0.044343 0.548394 0.000000
0.096742 0.548394 0.000427
0.129000 0.548425 0.000214
0.161105 0.548425 0.000336
0.193820 0.548425 0.000000
0.226108 0.548363 0.000000
0.258183 0.548394 0.000000
0.290410 0.548394 0.000946
0.322637 0.548394 0.000000
0.354833 0.548394 0.000366
0.387030 0.548425 0.000000
0.419409 0.548425 0.000000
0.451637 0.548363 0.000336
0.483864 0.548455 0.000336
0.516136 0.548394 0.000305
0.548425 0.548394 0.000000
0.580682 0.548425 0.001282
0.612909 0.548425 0.000000
0.645167 0.548394 0.000214
0.677455 0.548425 0.000061
0.709682 0.548394 0.000000
0.741909 0.548425 0.000092
0.774166 0.548394 0.001404
0.806455 0.548394 0.000427
0.838712 0.548425 0.000000
0.871000 0.548394 0.000000
0.903227 0.548425 0.000214
0.935454 0.548425 0.000305
0.967712 0.548394 0.000519
1.000000 0.548425 0.000000
0.000000 0.580652 0.000336
0.008545 0.580652 0.000122
0.046174 0.580621 0.000000
0.095766 0.580652 0.000275
0.128817 0.580682 0.000061
0.161196 0.580652 0.000458
0.193545 0.580652 0.000000
0.225803 0.580652 0.000000
0.257969 0.580652 0.000000
0.290227 0.580682 0.000000
0.322576 0.580652 0.000000
0.354772 0.580682 0.000214
0.387213 0.580652 0.000580
0.419287 0.580682 0.000000
0.451606 0.580652 0.000183
0.483925 0.580682 0.000275
0.516045 0.580682 0.000153
0.548333 0.580652 0.000519
0.580713 0.580652 0.000244
0.612909 0.580652 0.000549
0.645197 0.580682 0.001007
0.677455 0.580652 0.000031
0.709712 0.580652 0.000519
0.741970 0.580652 0.000061
0.774197 0.580682 0.000000
0.806455 0.580682 0.000244
0.838712 0.580682 0.000000
0.871000 0.580621 0.001678
0.903227 0.580652 0.000336
0.935485 0.580652 0.000275
0.967742 0.580652 0.001465
1.000000 0.580682 0.000549
0.000000 0.612909 0.000397
0.011109 0.612909 0.000214
0.046723 0.612879 0.000000
0.096376 0.612940 0.000183
0.129030 0.612909 0.001404
0.161318 0.612909 0.000549
0.193606 0.612909 0.000000
0.226047 0.612909 0.000000
0.258000 0.612909 0.001038
0.290288 0.612909 0.001007
0.322545 0.612940 0.000000
0.354864 0.612909 0.000427
0.387152 0.612909 0.000671
0.419348 0.612879 0.000824
0.451637 0.612909 0.000244
0.483833 0.612909 0.000519
0.516136 0.612909 0.000214
0.548394 0.612940 0.000427
0.580713 0.612940 0.000183
0.612970 0.612940 0.000000
0.645106 0.612940 0.000122
0.677455 0.612940 0.000000
0.709651 0.612940 0.000000
0.741939 0.612909 0.000305
0.774166 0.612909 0.000153
0.806485 0.612909 0.001617
0.838712 0.612909 0.000000
0.871000 0.612879 0.000000
0.903227 0.612909 0.000427
0.935485 0.612909 0.000366
0.967742 0.612909 0.000427
1.000000 0.612940 0.000000
0.002472 0.645167 0.000427
0.007721 0.645167 0.000244
0.045319 0.645167 0.000000
0.096834 0.645167 0.000366
0.128786 0.645167 0.000305
0.161074 0.645167 0.000580
0.193332 0.645197 0.000000
0.225711 0.645167 0.000000
0.258183 0.645197 0.000000
0.290227 0.645167 0.000000
0.322515 0.645167 0.000000
0.354833 0.645167 0.000305
0.387152 0.645197 0.000549
0.419440 0.645167 0.000702
0.451606 0.645197 0.001251
0.483894 0.645197 0.001526
0.516136 0.645197 0.000092
0.548394 0.645167 0.000000
0.580621 0.645167 0.000366
0.612879 0.645197 0.000000
0.645197 0.645197 0.000000
0.677424 0.645167 0.000153
0.709682 0.645167 0.000000
0.741970 0.645167 0.000153
0.774166 0.645197 0.001160
0.806485 0.645167 0.000336
0.838712 0.645167 0.000000
0.871000 0.645167 0.000000
0.903197 0.645167 0.000458
0.935485 0.645167 0.001526
0.967742 0.645197 0.000305
1.000000 0.645167 0.000000
0.000000 0.677424 0.000092
0.008179 0.677455 0.000000
0.044221 0.677424 0.000427
0.096559 0.677424 0.000031
0.129061 0.677424 0.000000
0.161563 0.677394 0.001373
0.193515 0.677424 0.001465
0.225834 0.677424 0.000000
0.257939 0.677455 0.000000
0.290440 0.677424 0.000702
0.322698 0.677424 0.000458
0.354925 0.677394 0.001251
0.387030 0.677424 0.000366
0.419287 0.677455 0.000214
0.451606 0.677424 0.001068
0.483894 0.677424 0.000214
0.516136 0.677424 0.000000
0.548455 0.677455 0.001251
0.580652 0.677424 0.001160
0.612970 0.677424 0.000153
0.645136 0.677424 0.000000
0.677455 0.677455 0.000000
0.709651 0.677424 0.000305
0.741909 0.677424 0.000000
0.774258 0.677424 0.000977
0.806455 0.677455 0.000031
0.838712 0.677424 0.000671
0.870970 0.677424 0.000305
0.903197 0.677424 0.000122
0.935485 0.677424 0.000031
0.967712 0.677424 0.000122
1.000000 0.677424 0.000458
0.002106 0.709651 0.001526
0.007355 0.709682 0.001343
0.044251 0.709682 0.000580
0.097383 0.709682 0.001465
0.129152 0.709682 0.001404
0.161288 0.709682 0.000366
0.193942 0.709682 0.000000
0.225895 0.709682 0.000000
0.257969 0.709712 0.000000
0.290440 0.709682 0.000824
0.322637 0.709682 0.000000
0.354833 0.709682 0.000275
0.387091 0.709682 0.000000
0.419348 0.709682 0.000671
0.451728 0.709651 0.000214
0.483894 0.709682 0.000366
0.516197 0.709682 0.001160
0.548394 0.709712 0.000275
0.580652 0.709682 0.000183
0.612940 0.709682 0.000458
0.645167 0.709712 0.001099
0.677455 0.709712 0.000000
0.709651 0.709682 0.000458
0.741909 0.709682 0.000122
0.774197 0.709682 0.000153
0.806455 0.709712 0.000183
0.838743 0.709712 0.000000
0.870970 0.709712 0.001434
0.903197 0.709712 0.000122
0.935485 0.709682 0.000336
0.967742 0.709682 0.001556
1.000000 0.709682 0.000000
0.000610 0.741939 0.000855
0.009827 0.741939 0.000641
0.044434 0.741939 0.001038
0.097566 0.741939 0.000763
0.129274 0.741939 0.000732
0.161685 0.741939 0.000000
0.193454 0.741939 0.000000
0.225711 0.741939 0.000183
0.258091 0.741939 0.000336
0.290379 0.741939 0.000305
0.322515 0.741939 0.000092
0.354864 0.741939 0.000000
0.387091 0.741939 0.000000
0.419440 0.741970 0.000000
0.451575 0.741939 0.000000
0.483803 0.741939 0.000000
0.516167 0.741939 0.000000
0.548425 0.741970 0.000000
0.580621 0.741970 0.000000
0.612909 0.741939 0.000000
0.645197 0.741970 0.000427
0.677424 0.741939 0.000580
0.709682 0.741939 0.000000
0.741909 0.741970 0.000458
0.774197 0.741939 0.000000
0.806455 0.741939 0.000916
0.838682 0.741939 0.000275
0.870939 0.741939 0.000916
0.903227 0.741939 0.000000
0.935485 0.741939 0.000000
0.967742 0.741939 0.000000
1.000000 0.741939 0.000000
0.000244 0.774197 0.001465
0.009461 0.774197 0.001282
0.045350 0.774228 0.001495
0.097444 0.774197 0.001404
0.129610 0.774197 0.001343
0.161227 0.774197 0.001465
0.193362 0.774197 0.001709
0.226108 0.774197 0.000793
0.258030 0.774197 0.000000
0.290379 0.774197 0.000000
0.322637 0.774197 0.000000
0.354803 0.774228 0.000061
0.387091 0.774197 0.000000
0.419440 0.774197 0.000610
0.451637 0.774197 0.000183
0.483864 0.774197 0.000458
0.516197 0.774197 0.001282
0.548394 0.774197 0.000519
0.580652 0.774197 0.001282
0.612940 0.774197 0.000397
0.645197 0.774197 0.001190
0.677424 0.774197 0.000061
0.709682 0.774197 0.000397
0.741939 0.774197 0.000092
0.774197 0.774197 0.000092
0.806455 0.774166 0.001556
0.838712 0.774197 0.000000
0.870939 0.774197 0.001556
0.903227 0.774197 0.000214
0.935485 0.774166 0.000458
0.967742 0.774197 0.000366
1.000000 0.774166 0.000000
0.000000 0.806455 0.000000
0.010651 0.806455 0.000488
0.044282 0.806455 0.000000
0.096590 0.806455 0.000000
0.129061 0.806455 0.000000
0.161563 0.806455 0.000793
0.193576 0.806455 0.000000
0.225803 0.806455 0.000000
0.258152 0.806455 0.000183
0.290349 0.806424 0.000305
0.322606 0.806455 0.001190
0.354894 0.806424 0.000000
0.387060 0.806455 0.000000
0.419318 0.806455 0.000000
0.451606 0.806455 0.000519
0.483894 0.806455 0.000000
0.516106 0.806455 0.000488
0.548425 0.806455 0.000000
0.580713 0.806455 0.000000
0.612970 0.806455 0.000000
0.645228 0.806455 0.000397
0.677424 0.806455 0.000397
0.709682 0.806424 0.001038
0.742000 0.806455 0.000549
0.774228 0.806455 0.001556
0.806455 0.806455 0.000000
0.838712 0.806455 0.000122
0.870970 0.806455 0.000885
0.903227 0.806455 0.000000
0.935485 0.806455 0.000000
0.967742 0.806455 0.000000
1.000000 0.806424 0.000061
0.002350 0.838682 0.000855
0.010559 0.838712 0.001648
0.045441 0.838712 0.000916
0.097230 0.838712 0.000641
0.129030 0.838712 0.000610
0.161196 0.838712 0.000000
0.193576 0.838712 0.000000
0.225864 0.838682 0.001312
0.258061 0.838682 0.000366
0.290288 0.838712 0.000183
0.322576 0.838712 0.001068
0.354803 0.838712 0.000000
0.387060 0.838712 0.000000
0.419318 0.838712 0.000000
0.451667 0.838682 0.000000
0.483894 0.838712 0.000000
0.516136 0.838712 0.000519
0.548425 0.838712 0.000000
0.580682 0.838712 0.000000
0.612970 0.838712 0.000946
0.645136 0.838712 0.000458
0.677424 0.838712 0.000458
0.709682 0.838712 0.000000
0.741939 0.838712 0.000458
0.774197 0.838712 0.000458
0.806455 0.838712 0.000000
0.838682 0.838682 0.000305
0.870970 0.838682 0.001099
0.903258 0.838712 0.000000
0.935515 0.838712 0.000000
0.967742 0.838712 0.000000
1.000000 0.838712 0.000000
0.000000 0.870970 0.000183
0.008911 0.870970 0.000000
0.045502 0.870970 0.000336
0.096803 0.870939 0.000244
0.129061 0.870970 0.000061
0.161440 0.870970 0.001282
0.193515 0.870970 0.001526
0.225895 0.870939 0.000000
0.258091 0.870970 0.000641
0.290440 0.870970 0.000000
0.322667 0.870970 0.001648
0.354803 0.870970 0.000031
0.387243 0.870970 0.000427
0.419318 0.870970 0.000458
