20 Preset/Rover Style/【3】LUT video cho PR-AE-FCPX/Rover 06 P.cube
# Created by Adobe Lightroom plugin Export LUT (1.24.0)
# www.johnrellis.com/lightroom/exportlut.htm
# Preset: Rover 06 P
# Color profile: E:\lut插件\exportlut.1.24\exportlut.lrplugin\color profiles\Rec709gamma2.4.icc
LUT_3D_SIZE 5
DOMAIN_MIN 0.000000 0.000000 0.000000
DOMAIN_MAX 0.903226 0.903226 0.903226
0.015015 0.028443 0.036469
0.060090 0.037568 0.046754
0.217624 0.010071 0.063783
0.648402 0.000000 0.070069
0.899962 0.000000 0.133364
0.031159 0.093935 0.080903
0.084413 0.098207 0.084810
0.284520 0.084321 0.072511
0.700862 0.000000 0.070008
0.898405 0.201633 0.158053
0.000000 0.418372 0.203067
0.195468 0.414069 0.204196
0.459510 0.457557 0.241978
0.760189 0.482124 0.148318
0.865476 0.524865 0.315190
0.574548 0.688594 0.578607
0.591608 0.687770 0.580072
0.647242 0.685481 0.586389
0.710903 0.692714 0.605371
0.804654 0.710445 0.618341
0.732021 0.787228 0.738308
0.735653 0.787167 0.738735
0.746395 0.783871 0.736019
0.773159 0.787778 0.743313
0.806058 0.795834 0.754910
0.015229 0.037385 0.070222
0.046448 0.045899 0.078431
0.222293 0.023041 0.090455
0.648829 0.000000 0.078950
0.889006 0.000000 0.126406
0.031556 0.096437 0.101778
0.088136 0.106172 0.107393
0.286198 0.103487 0.108156
0.688746 0.000000 0.090700
0.887907 0.201144 0.144747
0.000000 0.413703 0.250858
0.195224 0.418402 0.253239
0.438514 0.442573 0.277440
0.745022 0.466255 0.215274
0.863218 0.525414 0.312108
0.577630 0.688838 0.593072
0.594568 0.688441 0.594842
0.647883 0.685969 0.599695
0.708949 0.692531 0.615442
0.803525 0.710597 0.626307
0.731716 0.787533 0.740841
0.735164 0.787381 0.741054
0.750088 0.787716 0.743160
0.775265 0.790066 0.748348
0.807950 0.798215 0.759701
0.001678 0.055146 0.141665
0.045350 0.066194 0.152987
0.213993 0.088472 0.193057
0.641535 0.000000 0.255406
0.874632 0.204837 0.277470
0.000000 0.112734 0.191012
0.057099 0.121370 0.203586
0.278782 0.156558 0.247105
0.676692 0.132235 0.296757
0.867521 0.333654 0.325048
0.000000 0.408698 0.397345
0.171878 0.424903 0.406989
0.467689 0.485023 0.447944
0.711940 0.509758 0.452277
0.834501 0.557610 0.478645
0.580438 0.690700 0.636988
0.593561 0.689204 0.635126
0.647242 0.690150 0.639155
0.705989 0.695308 0.649348
0.803372 0.709346 0.649866
0.725307 0.787442 0.747768
0.730007 0.787900 0.748714
0.746761 0.788846 0.751400
0.772824 0.789334 0.754330
0.805753 0.797116 0.764218
0.000000 0.091432 0.375036
0.000000 0.097261 0.395270
0.201450 0.119722 0.467262
0.615991 0.179660 0.536706
0.803525 0.437659 0.596246
0.000000 0.140902 0.434058
0.000000 0.150301 0.448341
0.273991 0.195315 0.504662
0.633722 0.301366 0.558862
0.796506 0.485389 0.605158
0.000000 0.371069 0.537316
0.000000 0.381720 0.540215
0.436042 0.467048 0.583948
0.658717 0.549310 0.616480
0.784878 0.605829 0.641718
0.544579 0.672206 0.669978
0.562585 0.673548 0.670588
0.626398 0.682551 0.676997
0.705562 0.701717 0.692287
0.794949 0.706844 0.691768
0.720851 0.792172 0.772702
0.724453 0.792416 0.772488
0.739834 0.793973 0.772244
0.769986 0.795315 0.772946
0.805844 0.799527 0.778347
0.000000 0.142123 0.662501
0.000000 0.149477 0.666957
0.269627 0.184604 0.686519
0.646204 0.343877 0.710018
0.780728 0.510735 0.716609
0.000000 0.190982 0.668330
0.000000 0.200900 0.672633
0.321141 0.250004 0.689143
0.647059 0.404974 0.709285
0.774563 0.542351 0.717006
0.000000 0.370275 0.683833
0.000000 0.387762 0.686915
0.417731 0.451698 0.697658
0.651453 0.554955 0.712856
0.764309 0.632807 0.727169
0.412146 0.632319 0.715114
0.428687 0.630671 0.713893
0.499641 0.627649 0.711360
0.669520 0.672053 0.730678
0.775174 0.720821 0.758450
0.687129 0.771908 0.781765
0.691127 0.772457 0.781979
0.710140 0.776669 0.784878
0.745846 0.784848 0.790219
0.804257 0.802548 0.803494
