20 Preset/Rover Style/【3】LUT video cho PR-AE-FCPX/Rover Contrast _.cube
# Created by Adobe Lightroom plugin Export LUT (1.24.0)
# www.johnrellis.com/lightroom/exportlut.htm
# Preset: Rover Contrast +
# Color profile: E:\lut插件\exportlut.1.24\exportlut.lrplugin\color profiles\Rec709gamma2.4.icc
LUT_3D_SIZE 8
DOMAIN_MIN 0.000000 0.000000 0.000000
DOMAIN_MAX 0.903226 0.903226 0.903226
0.000000 0.000000 0.000000
0.125582 0.000824 0.000092
0.251560 0.000000 0.000000
0.379095 0.000000 0.000000
0.508385 0.000000 0.000000
0.639399 0.000000 0.000000
0.772610 0.000000 0.000000
0.906798 0.000000 0.000000
0.000000 0.125460 0.000000
0.125124 0.125429 0.000000
0.251682 0.125734 0.000122
0.379187 0.126253 0.000000
0.508476 0.126375 0.000000
0.639551 0.125673 0.000000
0.772702 0.124331 0.000000
0.906828 0.122042 0.000000
0.000000 0.252171 0.000000
0.125734 0.252110 0.000000
0.252171 0.252232 0.000000
0.379767 0.252964 0.000000
0.508995 0.253941 0.000000
0.640131 0.254887 0.000000
0.773281 0.255619 0.000000
0.907164 0.255741 0.000000
0.000000 0.380529 0.000000
0.124361 0.380621 0.000000
0.253208 0.380743 0.000000
0.380957 0.380926 0.000000
0.510033 0.382055 0.000000
0.641169 0.383703 0.000000
0.774380 0.385504 0.000000
0.907683 0.386511 0.000000
0.000000 0.511345 0.000000
0.120394 0.511345 0.000000
0.253513 0.511467 0.000000
0.382879 0.511681 0.000000
0.511833 0.511925 0.000000
0.642695 0.513420 0.000000
0.775906 0.515862 0.000000
0.908293 0.516991 0.000000
0.000000 0.644526 0.000000
0.109590 0.644587 0.000000
0.252018 0.644678 0.000000
0.384192 0.644923 0.000000
0.515038 0.645228 0.000000
0.645624 0.645655 0.000000
0.777279 0.646876 0.000000
0.908690 0.647517 0.000000
0.000000 0.778134 0.000000
0.092958 0.778103 0.000000
0.248142 0.778164 0.000000
0.383490 0.778164 0.000000
0.515923 0.778225 0.000000
0.647303 0.778225 0.000000
0.778225 0.778225 0.000000
0.908659 0.777981 0.000000
0.000000 0.907836 0.000000
0.065522 0.907836 0.000000
0.244572 0.907805 0.000000
0.381628 0.907713 0.000000
0.514397 0.907591 0.000000
0.645808 0.907408 0.000000
0.776547 0.907164 0.000000
0.906828 0.906828 0.000000
0.000183 0.000702 0.125368
0.125795 0.000336 0.125429
0.251652 0.000000 0.125368
0.379339 0.000000 0.125551
0.508629 0.000000 0.124849
0.639643 0.000000 0.123934
0.772763 0.000000 0.121981
0.906981 0.000000 0.118990
0.002106 0.125307 0.125277
0.125338 0.125338 0.125338
0.251774 0.125643 0.125429
0.379553 0.125185 0.125246
0.508751 0.124727 0.124727
0.639826 0.123659 0.123476
0.772946 0.121401 0.121401
0.907073 0.118654 0.118227
0.000000 0.252140 0.125277
0.125246 0.252201 0.125277
0.252140 0.252293 0.125124
0.379919 0.252781 0.124666
0.509270 0.253544 0.124025
0.640314 0.254276 0.122316
0.773465 0.254765 0.119966
0.907347 0.254704 0.116121
0.000000 0.380682 0.123781
0.123293 0.380682 0.123537
0.253025 0.380713 0.123537
0.380926 0.380957 0.123079
0.510063 0.381964 0.122042
0.641352 0.383520 0.119692
0.774533 0.385168 0.116182
0.907866 0.386023 0.112245
0.000000 0.511315 0.118715
0.118807 0.511345 0.118685
0.252903 0.511498 0.118227
0.382788 0.511650 0.117830
0.511955 0.511955 0.117311
0.642786 0.513420 0.114321
0.776089 0.515740 0.109041
0.908385 0.516777 0.104707
0.000000 0.644617 0.107088
0.107485 0.644617 0.107057
0.251164 0.644709 0.107057
0.383764 0.644923 0.105867
0.514916 0.645258 0.104677
0.645624 0.645655 0.102510
0.777401 0.646876 0.097871
0.908782 0.647395 0.093599
0.000000 0.778164 0.087770
0.086061 0.778164 0.087709
0.247288 0.778164 0.086519
0.383062 0.778225 0.084901
0.515709 0.778225 0.083680
0.647211 0.778256 0.080995
0.778256 0.778225 0.076814
0.908721 0.777951 0.072908
0.000000 0.907866 0.057252
0.057160 0.907866 0.058259
0.243687 0.907836 0.056519
0.381079 0.907744 0.057435
0.514122 0.907622 0.054597
0.645655 0.907439 0.053498
0.776486 0.907164 0.052857
0.906828 0.906798 0.051759
0.000000 0.000183 0.252110
0.126162 0.000000 0.252140
0.252140 0.000000 0.252110
0.379522 0.000000 0.252689
0.509026 0.000000 0.253117
0.640467 0.000000 0.252598
0.773739 0.000000 0.251743
0.907805 0.000000 0.250980
0.000000 0.125612 0.252171
0.125154 0.125185 0.252201
0.252140 0.125124 0.252232
0.379828 0.124300 0.252598
0.509331 0.121035 0.252720
0.640650 0.115358 0.252140
0.773831 0.109895 0.251682
0.907866 0.103059 0.250797
0.000000 0.252232 0.252354
0.123873 0.252293 0.252262
0.252293 0.252293 0.252293
0.380377 0.252232 0.252201
0.509911 0.252079 0.252079
0.641047 0.251896 0.251865
0.774319 0.251133 0.251133
0.908110 0.250095 0.250248
0.000000 0.380774 0.252232
0.119966 0.380743 0.252232
0.252079 0.380804 0.251926
0.380957 0.380957 0.251865
0.510552 0.381720 0.251621
0.641993 0.382635 0.251102
0.775326 0.383581 0.250034
0.908507 0.384009 0.249027
0.000000 0.511467 0.250889
0.110719 0.511528 0.250889
0.250645 0.511650 0.250706
0.381994 0.511742 0.250584
0.511925 0.511955 0.250401
0.643275 0.513268 0.249607
0.776638 0.515099 0.248142
0.908904 0.515801 0.247044
0.000000 0.644770 0.247776
0.093202 0.644770 0.247776
0.247654 0.644862 0.247562
0.382300 0.645075 0.247379
0.514336 0.645380 0.247105
0.645655 0.645716 0.246494
0.777737 0.646723 0.245335
0.909117 0.646998 0.244602
0.000000 0.778286 0.243229
0.047395 0.778286 0.243198
0.243168 0.778286 0.243107
0.381262 0.778286 0.242985
0.514855 0.778317 0.242679
0.646845 0.778317 0.242374
0.778256 0.778256 0.241917
0.908873 0.777829 0.241733
0.000000 0.907927 0.240726
0.023255 0.907927 0.240726
0.240665 0.907866 0.240787
0.379644 0.907774 0.240757
0.513359 0.907652 0.240574
0.645289 0.907439 0.240604
0.776303 0.907164 0.240421
0.906798 0.906798 0.240543
0.000000 0.000000 0.380529
0.126314 0.000000 0.380529
0.253452 0.000000 0.380560
0.380652 0.000000 0.380591
0.509392 0.000000 0.381476
0.640742 0.000000 0.382696
0.774411 0.000000 0.383185
0.908659 0.000000 0.382452
0.000000 0.124849 0.380560
0.124910 0.124941 0.380621
0.253300 0.124483 0.380591
0.380743 0.123262 0.380682
0.509575 0.120729 0.381415
0.641047 0.113893 0.382574
0.774655 0.099977 0.382940
0.908843 0.068360 0.382116
0.000000 0.252628 0.380743
0.121584 0.252476 0.380835
0.252171 0.252201 0.380804
0.380865 0.252018 0.380896
0.510369 0.251286 0.381384
0.641901 0.249454 0.381872
0.775601 0.245731 0.381598
0.909300 0.241917 0.380713
0.000000 0.380957 0.380957
0.118013 0.380957 0.380957
0.251102 0.381018 0.381018
0.380987 0.380987 0.380987
0.511315 0.380957 0.380926
0.643122 0.380835 0.380835
0.776699 0.380621 0.380591
0.909545 0.380255 0.380316
0.000000 0.511650 0.381476
0.103120 0.511711 0.381353
0.247593 0.511803 0.380987
0.380804 0.511894 0.380682
0.512047 0.512078 0.380652
0.644129 0.512871 0.380346
0.777646 0.513878 0.379858
0.909728 0.514031 0.379492
0.000000 0.645075 0.379675
0.031067 0.645106 0.379675
0.240909 0.645167 0.379614
0.379522 0.645319 0.379583
0.513420 0.645502 0.379370
0.645777 0.645777 0.379126
0.778378 0.646448 0.378790
0.909606 0.646265 0.378607
0.000000 0.778531 0.377996
0.000000 0.778531 0.377996
0.235874 0.778470 0.377966
0.377905 0.778500 0.377874
0.513237 0.778470 0.377813
0.646235 0.778378 0.377783
0.778286 0.778286 0.377600
0.909087 0.777646 0.377722
0.000000 0.907988 0.377539
0.000000 0.907988 0.377661
0.236210 0.907958 0.377630
0.377722 0.907866 0.377661
0.512352 0.907713 0.377752
0.644739 0.907500 0.377752
0.776089 0.907195 0.377844
0.906798 0.906767 0.377935
0.000000 0.000000 0.511131
0.126070 0.000000 0.511131
0.254490 0.000000 0.511162
0.382879 0.000000 0.511284
0.511406 0.000000 0.511376
0.641382 0.000000 0.512352
0.775021 0.000000 0.514488
0.908904 0.000000 0.515282
0.000000 0.124117 0.511192
0.123690 0.123812 0.511192
0.254032 0.122988 0.511254
0.382788 0.121431 0.511315
0.511437 0.118166 0.511437
0.641627 0.112367 0.512444
0.775235 0.097658 0.514458
0.909026 0.062257 0.515099
0.000000 0.252171 0.511528
0.116365 0.252201 0.511528
0.251865 0.251865 0.511498
0.382177 0.251377 0.511559
0.511681 0.250614 0.511681
0.642420 0.248905 0.512566
0.776181 0.245029 0.514092
0.909606 0.240330 0.514244
0.000000 0.381903 0.511772
0.107332 0.381842 0.511772
0.248997 0.381415 0.511833
0.380987 0.380926 0.511894
0.511864 0.380743 0.511925
0.643732 0.380041 0.512566
0.777615 0.378515 0.513207
0.910369 0.376989 0.512840
0.000000 0.512016 0.512016
0.096529 0.512016 0.512016
0.246067 0.512078 0.512139
0.379828 0.512108 0.512108
0.512139 0.512139 0.512139
0.645075 0.512047 0.512047
0.778866 0.511955 0.511986
0.910460 0.511925 0.511925
0.000000 0.645197 0.513024
0.004486 0.645228 0.512932
0.236820 0.645350 0.512718
0.376410 0.645563 0.512230
0.511803 0.645777 0.511833
0.645899 0.645869 0.511742
0.778958 0.645991 0.511681
0.909972 0.645502 0.511772
0.000000 0.778653 0.512078
0.000000 0.778683 0.511986
0.227970 0.778683 0.511711
0.374182 0.778653 0.511498
0.511528 0.778561 0.511498
0.645624 0.778439 0.511498
0.778286 0.778286 0.511498
0.909056 0.777401 0.511772
0.000000 0.907988 0.512108
0.000000 0.907988 0.512108
0.235294 0.907927 0.512139
0.377203 0.907836 0.512169
0.512230 0.907683 0.512230
0.644739 0.907439 0.512291
0.776181 0.907134 0.512474
0.906737 0.906737 0.512688
0.000000 0.000000 0.644251
0.124056 0.000000 0.644282
0.255589 0.000000 0.644312
0.385382 0.000000 0.644373
0.514794 0.000000 0.644526
0.644678 0.000000 0.644678
0.775845 0.000000 0.645533
0.909117 0.000000 0.646998
0.000000 0.121492 0.644343
0.121370 0.121065 0.644343
0.254948 0.119631 0.644373
0.384955 0.117006 0.644465
0.514733 0.112459 0.644587
0.644770 0.105409 0.644739
0.776028 0.093812 0.645624
0.909209 0.053376 0.646967
0.000000 0.251682 0.644587
0.108431 0.251499 0.644617
0.251164 0.251225 0.644678
0.383581 0.250370 0.644739
0.514305 0.249088 0.644831
0.644984 0.247135 0.644953
0.776852 0.244114 0.645869
0.909697 0.239902 0.646693
0.000000 0.381994 0.644984
0.085145 0.381720 0.645045
0.244083 0.380987 0.645136
0.380713 0.380652 0.645197
0.513512 0.380163 0.645228
0.645380 0.379492 0.645319
0.778103 0.378180 0.646113
0.910277 0.376806 0.646113
0.000000 0.513573 0.645441
0.034241 0.513603 0.645472
0.239872 0.513237 0.645502
0.377569 0.512688 0.645594
0.512078 0.512016 0.645686
0.645747 0.511772 0.645747
0.779110 0.511376 0.645960
0.910430 0.511437 0.645533
0.000000 0.645838 0.645808
0.000000 0.645777 0.645808
0.232944 0.645838 0.645838
0.375067 0.645838 0.645838
0.510948 0.645869 0.645869
0.645899 0.645899 0.645899
0.778897 0.645899 0.645899
0.909361 0.645960 0.645960
0.000000 0.778683 0.645808
0.000000 0.778683 0.645808
0.226658 0.778683 0.645716
0.373602 0.778653 0.645594
0.511864 0.778500 0.645777
0.646052 0.778378 0.646082
0.778195 0.778256 0.646143
0.908385 0.777523 0.646326
0.000000 0.907897 0.645228
0.000000 0.907866 0.645258
0.240635 0.907774 0.645472
0.381994 0.907591 0.646082
0.516075 0.907378 0.646815
0.646906 0.907164 0.646937
0.777035 0.906950 0.647059
0.906615 0.906615 0.647211
0.000000 0.000000 0.777829
0.120455 0.000000 0.777829
0.255619 0.000000 0.777859
0.386755 0.000000 0.777890
0.517082 0.000000 0.778012
0.647456 0.000000 0.778073
0.778195 0.000000 0.778164
0.909239 0.000000 0.778286
0.000000 0.117372 0.777890
0.117800 0.117311 0.777859
0.254459 0.115236 0.777920
0.385962 0.111666 0.777981
0.516838 0.105653 0.778012
0.647364 0.096986 0.778103
0.778225 0.082124 0.778195
0.909361 0.044190 0.778286
0.000000 0.250584 0.778042
0.101045 0.250370 0.778042
0.249882 0.250004 0.778103
0.384070 0.248875 0.778134
0.515801 0.247349 0.778195
0.647089 0.245151 0.778256
0.778378 0.242344 0.778347
0.909667 0.239322 0.778378
0.000000 0.380865 0.778317
0.034546 0.380774 0.778347
0.241459 0.380591 0.778347
0.380102 0.380255 0.778347
0.514031 0.379553 0.778408
0.646509 0.378759 0.778439
0.778439 0.377691 0.778500
0.910094 0.376715 0.778347
0.000000 0.513573 0.778439
0.000000 0.513420 0.778470
0.234501 0.512993 0.778470
0.375830 0.512291 0.778561
0.511955 0.511925 0.778592
0.645777 0.511742 0.778561
0.778561 0.511467 0.778561
0.910033 0.511498 0.778042
0.000000 0.645960 0.778408
0.000000 0.645960 0.778439
0.229740 0.645838 0.778439
0.374456 0.645624 0.778470
0.511406 0.645563 0.778439
0.645930 0.645930 0.778408
0.778378 0.646052 0.778378
0.908782 0.646540 0.777798
0.000000 0.778286 0.778256
0.000000 0.778286 0.778286
0.227665 0.778286 0.778286
0.374823 0.778286 0.778256
0.512688 0.778256 0.778256
0.646784 0.778225 0.778225
0.778225 0.778225 0.778225
0.907378 0.778225 0.778195
0.000000 0.907744 0.776852
0.037781 0.907713 0.776883
0.244602 0.907622 0.776944
0.383886 0.907439 0.777157
0.517998 0.907195 0.777462
0.649378 0.906920 0.778042
0.778439 0.906706 0.778439
0.906523 0.906523 0.778531
0.000000 0.000000 0.907622
0.117159 0.000000 0.907622
0.254368 0.000000 0.907652
0.385931 0.000000 0.907683
0.516503 0.000000 0.907683
0.646815 0.000000 0.907713
0.777249 0.000000 0.907774
0.907744 0.000000 0.907774
0.000000 0.113863 0.907652
0.113161 0.113283 0.907683
0.253483 0.111849 0.907683
0.385412 0.108492 0.907683
0.516197 0.102480 0.907713
0.646723 0.094179 0.907744
0.777218 0.079744 0.907774
0.907774 0.049561 0.907805
0.000000 0.249546 0.907744
0.097719 0.249454 0.907744
0.249088 0.248966 0.907744
0.383368 0.248112 0.907744
0.515129 0.246738 0.907774
0.646174 0.244816 0.907805
0.777005 0.242618 0.907805
0.907805 0.240055 0.907805
0.000000 0.380499 0.907836
0.040101 0.380407 0.907836
0.241917 0.380316 0.907836
0.379980 0.379950 0.907836
0.513329 0.379492 0.907836
0.645350 0.378882 0.907805
0.776669 0.378210 0.907805
0.907774 0.377539 0.907774
0.000000 0.512444 0.907774
0.000000 0.512352 0.907774
0.235752 0.512230 0.907774
0.377203 0.512016 0.907774
0.511955 0.511986 0.907774
0.644709 0.511955 0.907713
0.776486 0.512078 0.907652
0.907561 0.512352 0.907561
0.000000 0.644678 0.907530
0.000000 0.644648 0.907530
0.236057 0.644648 0.907500
0.377874 0.644831 0.907500
0.513817 0.645594 0.907378
0.646174 0.646143 0.907286
0.776944 0.646540 0.907195
0.907134 0.646998 0.907134
0.000000 0.776211 0.907134
0.007507 0.776211 0.907134
0.240909 0.776303 0.907103
0.381750 0.776516 0.907073
0.516564 0.776974 0.906950
0.648524 0.777615 0.906828
0.778256 0.778256 0.906706
0.906676 0.778500 0.906676
0.000000 0.906645 0.906645
0.106081 0.906645 0.906645
0.253727 0.906615 0.906645
0.388464 0.906615 0.906584
0.520287 0.906554 0.906584
0.650477 0.906523 0.906523
0.779324 0.906493 0.906493
0.906462 0.906462 0.906462
