20 Preset/Rover Style/【3】LUT video cho PR-AE-FCPX/Rover C -.cube
# Created by Adobe Lightroom plugin Export LUT (1.24.0)
# www.johnrellis.com/lightroom/exportlut.htm
# Preset: Rover C -
# Color profile: E:\lut插件\exportlut.1.24\exportlut.lrplugin\color profiles\Rec709gamma2.4.icc
LUT_3D_SIZE 5
DOMAIN_MIN 0.000000 0.000000 0.000000
DOMAIN_MAX 0.903226 0.903226 0.903226
0.000000 0.000000 0.000000
0.163180 0.092226 0.092103
0.330510 0.163424 0.163607
0.500847 0.259953 0.259861
0.694545 0.367132 0.367041
0.148074 0.205905 0.147799
0.221744 0.221744 0.168338
0.360937 0.253788 0.217227
0.517571 0.317113 0.292821
0.705989 0.408118 0.390265
0.308873 0.414374 0.308934
0.339849 0.420233 0.316899
0.443977 0.444038 0.349035
0.577935 0.475563 0.394079
0.744961 0.542107 0.476051
0.473060 0.626520 0.473335
0.491432 0.629633 0.478279
0.559899 0.642603 0.499825
0.667262 0.667201 0.541039
0.800809 0.716213 0.614008
0.697322 0.844968 0.697353
0.706844 0.846708 0.700893
0.744594 0.854124 0.715511
0.809781 0.868833 0.743587
0.891234 0.891264 0.784543
0.031373 0.031952 0.139925
0.165652 0.102113 0.165866
0.337896 0.193027 0.230716
0.505516 0.285771 0.309331
0.697261 0.381537 0.399634
0.163394 0.211063 0.211276
0.225772 0.225772 0.225772
0.364263 0.270329 0.270237
0.520592 0.333165 0.333165
0.708034 0.419013 0.419165
0.317815 0.416754 0.339696
0.346654 0.422431 0.346654
0.445624 0.445533 0.374701
0.579156 0.479713 0.418036
0.745418 0.547204 0.496498
0.478462 0.627588 0.491402
0.496315 0.630671 0.496345
0.563043 0.643458 0.516747
0.667964 0.667964 0.555352
0.801236 0.717861 0.625299
0.698085 0.845274 0.704158
0.707546 0.847013 0.707607
0.745144 0.854459 0.721767
0.810208 0.869169 0.749111
0.891630 0.891661 0.789090
0.102358 0.102541 0.283330
0.180575 0.129885 0.298283
0.342626 0.208652 0.342779
0.510765 0.299199 0.398230
0.703883 0.397345 0.478035
0.191836 0.227817 0.330205
0.239353 0.239384 0.338293
0.370245 0.282597 0.370092
0.526696 0.348913 0.419562
0.713832 0.434363 0.494606
0.330022 0.423011 0.422919
0.358160 0.428931 0.428870
0.451637 0.451637 0.451637
0.584649 0.490944 0.490913
0.747494 0.557733 0.557733
0.492226 0.631312 0.550561
0.509270 0.634272 0.554955
0.571557 0.646845 0.571527
0.671107 0.671077 0.602869
0.804410 0.722194 0.663294
0.695827 0.846433 0.727810
0.705409 0.848203 0.730892
0.743862 0.855741 0.743862
0.810208 0.870634 0.768948
0.893370 0.893400 0.806027
0.157015 0.156680 0.443580
0.213870 0.174960 0.451118
0.355688 0.234958 0.478492
0.523796 0.316777 0.523796
0.714260 0.413306 0.591333
0.222477 0.253025 0.470924
0.262943 0.262760 0.476448
0.382818 0.300725 0.499214
0.540398 0.363836 0.540520
0.723445 0.448951 0.603601
0.347417 0.435737 0.542168
0.373388 0.441566 0.547051
0.462745 0.462837 0.564782
0.595880 0.502464 0.595758
0.754940 0.564630 0.647303
0.505364 0.640101 0.640131
0.520989 0.642786 0.642847
0.578668 0.654017 0.653986
0.677424 0.677424 0.677424
0.811521 0.719905 0.719875
0.693477 0.849668 0.777340
0.701747 0.851316 0.778988
0.735531 0.858305 0.786007
0.805386 0.873350 0.805356
0.896971 0.896971 0.838743
0.216587 0.216526 0.676478
0.268589 0.229892 0.680323
0.409033 0.278172 0.695521
0.580560 0.355505 0.721920
0.756039 0.454749 0.756039
0.255009 0.289433 0.689540
0.298344 0.298405 0.692866
0.427100 0.334325 0.706264
0.591852 0.398444 0.730495
0.762570 0.488014 0.762509
0.346410 0.455909 0.726894
0.377935 0.461219 0.729397
0.483955 0.483955 0.739651
0.631464 0.528679 0.758785
0.786252 0.590661 0.786191
0.526482 0.675410 0.787930
0.538903 0.675868 0.788724
0.588434 0.677089 0.792172
0.689601 0.689601 0.803189
0.829099 0.731563 0.829099
0.708278 0.865202 0.865202
0.715602 0.866270 0.866300
0.746395 0.871031 0.871000
0.807004 0.881621 0.881651
0.903227 0.903227 0.903227
