20 Preset/Rover Style/【3】LUT video cho PR-AE-FCPX/Rover 01 P.cube
# Created by Adobe Lightroom plugin Export LUT (1.24.0)
# www.johnrellis.com/lightroom/exportlut.htm
# Preset: Rover 01 P
# Color profile: E:\lut插件\exportlut.1.24\exportlut.lrplugin\color profiles\Rec709gamma2.4.icc
LUT_3D_SIZE 8
DOMAIN_MIN 0.000000 0.000000 0.000000
DOMAIN_MAX 0.903226 0.903226 0.903226
0.011261 0.024048 0.012299
0.017487 0.025574 0.013123
0.047944 0.032136 0.015015
0.131502 0.042206 0.014282
0.317235 0.000000 0.005341
0.578027 0.000000 0.000000
0.757565 0.000000 0.000000
0.841520 0.166323 0.147402
0.015320 0.031342 0.014618
0.017578 0.033295 0.015442
0.054841 0.041382 0.015869
0.135286 0.055909 0.014343
0.315831 0.000000 0.003571
0.569665 0.000000 0.000000
0.743160 0.000000 0.000000
0.834409 0.168704 0.138613
0.022492 0.082338 0.028656
0.033661 0.083589 0.030396
0.086030 0.099336 0.043183
0.206180 0.121767 0.018921
0.389685 0.094514 0.000000
0.617578 0.000000 0.000000
0.763302 0.138643 0.006867
0.835416 0.296818 0.187015
0.000000 0.189029 0.080720
0.000000 0.188663 0.082521
0.123476 0.194736 0.092531
0.281468 0.292821 0.160403
0.551415 0.365728 0.127504
0.672114 0.306676 0.115877
0.764950 0.346654 0.177310
0.821042 0.422034 0.270970
0.000000 0.387915 0.183383
0.000000 0.386328 0.184176
0.194400 0.383215 0.191714
0.348333 0.421302 0.243107
0.528374 0.515892 0.375311
0.667048 0.561089 0.375341
0.742092 0.540581 0.369207
0.796475 0.532403 0.383917
0.289952 0.539330 0.340734
0.311894 0.541680 0.345861
0.359472 0.536278 0.346593
0.427405 0.526421 0.348333
0.549065 0.576226 0.437232
0.644312 0.637354 0.545281
0.716670 0.676204 0.577173
0.776211 0.676783 0.568383
0.475654 0.632532 0.480232
0.481331 0.632349 0.481178
0.497139 0.628321 0.478584
0.525811 0.620996 0.474983
0.570611 0.620142 0.485908
0.650080 0.667445 0.576471
0.708919 0.714565 0.649622
0.761196 0.751400 0.685664
0.585657 0.700069 0.587182
0.587121 0.699458 0.586664
0.594263 0.697383 0.585260
0.607568 0.693538 0.582574
0.618921 0.681270 0.568597
0.666407 0.702846 0.610498
0.723262 0.747677 0.680964
0.768215 0.786160 0.740169
0.011933 0.025025 0.014405
0.017853 0.026520 0.016358
0.046632 0.033326 0.017121
0.130007 0.047211 0.020508
0.308080 0.000000 0.012787
0.560021 0.000000 0.000000
0.733669 0.000000 0.000000
0.829496 0.126528 0.123171
0.015686 0.032319 0.017884
0.018921 0.035248 0.019654
0.057160 0.044312 0.021057
0.139834 0.058778 0.022553
0.319890 0.000000 0.012970
0.564080 0.000000 0.000000
0.728908 0.000000 0.000000
0.824674 0.145693 0.120668
0.020356 0.087892 0.036500
0.033783 0.089387 0.039094
0.088014 0.101595 0.055695
0.199313 0.117281 0.037110
0.384253 0.098543 0.015106
0.600275 0.000000 0.000000
0.743191 0.117311 0.047578
0.825559 0.271092 0.165164
0.000000 0.190890 0.093080
0.000000 0.191379 0.094575
0.123201 0.194217 0.101900
0.262394 0.275181 0.161959
0.516350 0.334142 0.128969
0.642329 0.275608 0.115023
0.747738 0.322606 0.169589
0.812375 0.402045 0.257847
0.000000 0.391852 0.197513
0.000000 0.389380 0.197574
0.191196 0.383612 0.201938
0.336553 0.410559 0.242649
0.512840 0.501427 0.365179
0.658045 0.547478 0.362341
0.735531 0.528191 0.359930
0.791531 0.524529 0.379034
0.284703 0.537072 0.344213
0.299504 0.536217 0.345098
0.350011 0.531273 0.346288
0.421515 0.522881 0.349615
0.541894 0.569818 0.432715
0.640650 0.633387 0.542046
0.713893 0.671748 0.572351
0.773068 0.671656 0.563806
0.470069 0.630213 0.479286
0.473060 0.628656 0.477729
0.489448 0.624475 0.474983
0.520134 0.617700 0.472419
0.565606 0.616022 0.481880
0.646265 0.663600 0.572198
0.705104 0.709987 0.644800
0.757748 0.746365 0.679225
0.581994 0.697963 0.585229
0.584497 0.697932 0.585687
0.591424 0.695735 0.584009
0.605158 0.691890 0.581445
0.622889 0.685176 0.575830
0.666682 0.703304 0.611902
0.722530 0.746944 0.680568
0.767605 0.785519 0.739742
0.016022 0.028687 0.025116
0.017670 0.030640 0.028199
0.050690 0.037720 0.040162
0.150271 0.037720 0.070619
0.351476 0.000000 0.073793
0.598199 0.000000 0.096681
0.749477 0.000000 0.140963
0.829465 0.243992 0.214694
0.015869 0.039582 0.034943
0.022461 0.042054 0.038972
0.065644 0.052369 0.053651
0.161624 0.054780 0.078248
0.360510 0.000000 0.083650
0.597681 0.000000 0.104158
0.744503 0.000000 0.142977
0.825498 0.253300 0.215549
0.016571 0.095979 0.084810
0.030213 0.099550 0.088777
0.098177 0.114687 0.100404
0.218051 0.127535 0.107912
0.426764 0.122591 0.117006
0.626093 0.127810 0.140322
0.749599 0.217594 0.184695
0.819852 0.335698 0.259770
0.000000 0.224674 0.154513
0.000000 0.230014 0.156313
0.130434 0.244663 0.168521
0.292363 0.302464 0.226017
0.520775 0.336065 0.216861
0.652857 0.323919 0.219547
0.747524 0.375891 0.268620
0.805692 0.445533 0.338415
0.000000 0.424567 0.260838
0.000000 0.426123 0.262394
0.223819 0.427771 0.278782
0.360143 0.428565 0.296117
0.526482 0.515404 0.410712
0.658625 0.552117 0.408179
0.730129 0.529412 0.397803
0.785794 0.544030 0.428443
0.297856 0.556115 0.385809
0.324315 0.556481 0.392828
0.381292 0.552392 0.399054
0.446082 0.543114 0.399084
0.544884 0.572045 0.453712
0.640375 0.634180 0.554498
0.713436 0.670130 0.577661
0.770016 0.670466 0.574914
0.491279 0.641962 0.511772
0.494087 0.640528 0.510338
0.507774 0.636103 0.506737
0.534478 0.628992 0.502495
0.568170 0.618555 0.496254
0.647242 0.664790 0.580774
0.706874 0.712642 0.652430
0.760037 0.748714 0.684779
0.588220 0.704250 0.599878
0.589410 0.703426 0.598962
0.596155 0.701137 0.597253
0.610468 0.698085 0.595789
0.627741 0.691157 0.589929
0.665583 0.702876 0.614374
0.722896 0.747707 0.683894
0.768643 0.786954 0.743191
0.014862 0.034974 0.077333
0.019959 0.037446 0.083680
0.065187 0.044129 0.102937
0.151736 0.050629 0.143160
0.363134 0.000000 0.198001
0.612970 0.000000 0.213931
0.745541 0.174105 0.266423
0.813748 0.333013 0.334691
0.011200 0.048463 0.097963
0.021363 0.050263 0.102235
0.072175 0.061372 0.121096
0.169589 0.068757 0.162264
0.388342 0.000000 0.212772
0.620417 0.000000 0.223972
0.744320 0.209384 0.276951
0.811368 0.348821 0.342840
0.000000 0.103792 0.149783
0.000000 0.106142 0.155459
0.081209 0.120150 0.179446
0.225986 0.142336 0.219699
0.456916 0.169467 0.259251
0.641291 0.238102 0.287480
0.746609 0.334905 0.336675
0.805661 0.420569 0.388067
0.000000 0.248997 0.266026
0.000000 0.255070 0.270085
0.088899 0.281559 0.289281
0.321324 0.331518 0.322911
0.512230 0.354253 0.334142
0.645655 0.388373 0.355688
0.733639 0.437018 0.388861
0.791379 0.492653 0.434119
0.000000 0.473365 0.387976
0.000000 0.474067 0.388434
0.253880 0.479438 0.392950
0.411963 0.487861 0.410803
0.542229 0.532952 0.472602
0.653986 0.551904 0.469306
0.722347 0.541924 0.462928
0.776638 0.572808 0.498360
0.357977 0.583856 0.469123
0.376379 0.586847 0.473762
0.420172 0.586938 0.476326
0.494453 0.585443 0.487892
0.558190 0.584161 0.497536
0.644465 0.640742 0.581476
0.714778 0.669215 0.591821
0.765866 0.666011 0.589899
0.498329 0.654749 0.544701
0.504051 0.655055 0.546014
0.525109 0.655177 0.549584
0.562280 0.651514 0.556237
0.590967 0.641871 0.549462
0.649714 0.668269 0.596948
0.708797 0.716060 0.664149
0.762478 0.749355 0.689693
0.587854 0.715816 0.617975
0.590173 0.715755 0.618250
0.604486 0.715206 0.622950
0.620264 0.711330 0.622248
0.636896 0.704097 0.616236
0.661067 0.700221 0.616114
0.722194 0.747921 0.688258
0.770474 0.789425 0.749447
0.000000 0.045747 0.173068
0.000000 0.047211 0.181460
0.000000 0.054688 0.211337
0.146975 0.052491 0.269078
0.369818 0.000000 0.341039
0.590814 0.117250 0.387671
0.734554 0.253147 0.414801
0.799588 0.398932 0.453468
0.000000 0.062745 0.202579
0.000000 0.064912 0.210544
0.000000 0.074464 0.237461
0.159701 0.080659 0.288823
0.388220 0.002686 0.355810
0.596643 0.167910 0.398352
0.733455 0.283421 0.422705
0.797360 0.414221 0.459449
0.000000 0.115908 0.276463
0.000000 0.117678 0.283177
0.000000 0.131746 0.306798
0.208469 0.156100 0.349737
0.441016 0.185214 0.399268
0.608087 0.288304 0.427314
0.726223 0.371069 0.448341
0.782589 0.475959 0.488746
0.000000 0.245884 0.371893
0.000000 0.250980 0.375952
0.000000 0.274388 0.394049
0.306310 0.327306 0.428016
0.502739 0.380011 0.463294
0.630274 0.440345 0.481666
0.716243 0.490211 0.496864
0.773739 0.535302 0.521569
0.000000 0.462837 0.472389
0.122805 0.467048 0.474678
0.270970 0.481666 0.484016
0.416541 0.506737 0.500145
0.543328 0.537102 0.520775
0.636744 0.549218 0.525719
0.707759 0.567926 0.537224
0.765316 0.592920 0.555993
0.372412 0.599695 0.542290
0.385595 0.600763 0.543359
0.428168 0.601831 0.544488
0.493080 0.602777 0.544854
0.569238 0.605859 0.554101
0.642054 0.640192 0.601648
0.709163 0.658442 0.606409
0.760433 0.653010 0.599695
0.511681 0.667659 0.591669
0.514763 0.667201 0.591180
0.530053 0.666255 0.590143
0.563714 0.667079 0.593591
0.607813 0.665461 0.600610
0.644617 0.665156 0.606928
0.707271 0.715541 0.673487
0.763119 0.742916 0.686915
0.579522 0.721920 0.637476
0.582086 0.721828 0.637659
0.592645 0.721706 0.638453
0.614801 0.723690 0.643183
0.643397 0.720394 0.646906
0.663325 0.709743 0.637446
0.716670 0.743374 0.688289
0.769253 0.788540 0.752590
0.000000 0.069184 0.346502
0.000000 0.070832 0.353826
0.000000 0.078737 0.377752
0.083192 0.088197 0.425177
0.361791 0.097902 0.480201
0.593194 0.155154 0.521752
0.706294 0.345006 0.541070
0.774716 0.463020 0.566125
0.000000 0.086122 0.361089
0.000000 0.087831 0.366339
0.000000 0.093355 0.388373
0.100801 0.104097 0.428595
0.366308 0.123598 0.480354
0.592248 0.184176 0.521294
0.702632 0.357671 0.540887
0.772396 0.468330 0.565850
0.000000 0.142031 0.426734
0.000000 0.145754 0.430640
0.000000 0.158480 0.446387
0.185580 0.182834 0.471473
0.419409 0.232395 0.510277
0.609277 0.307774 0.542107
0.698573 0.432532 0.558068
0.767239 0.511101 0.580133
0.000000 0.268223 0.486641
0.000000 0.273136 0.489631
0.023865 0.298955 0.503960
0.324163 0.350744 0.528069
0.495918 0.407233 0.554223
0.627832 0.462043 0.576440
0.693812 0.531914 0.589075
0.761166 0.573938 0.605798
0.151766 0.449866 0.541070
0.188754 0.453376 0.542290
0.289097 0.467872 0.548547
0.412726 0.494118 0.560479
0.534997 0.532525 0.579919
0.630854 0.565270 0.599603
0.695979 0.597070 0.611688
0.758877 0.620050 0.620905
0.400366 0.592554 0.592920
0.413306 0.595087 0.594812
0.451026 0.600275 0.598383
0.510643 0.610254 0.605280
0.578271 0.624842 0.615503
0.644984 0.646143 0.632105
0.703395 0.655909 0.637568
0.759182 0.668788 0.645624
0.532616 0.682734 0.646662
0.537530 0.683711 0.647669
0.553643 0.685664 0.649561
0.582238 0.689845 0.653590
0.616114 0.690852 0.652491
0.657496 0.690394 0.653895
0.709621 0.720119 0.692287
0.764797 0.736812 0.696895
0.591516 0.738674 0.682765
0.592706 0.738308 0.682155
0.599634 0.737789 0.680690
0.614618 0.737819 0.679225
0.638972 0.737606 0.678004
0.674830 0.735225 0.681605
0.707820 0.736873 0.688716
0.769528 0.789639 0.760220
0.000000 0.101869 0.506737
0.000000 0.104616 0.512322
0.000000 0.112520 0.524956
0.000000 0.131319 0.549462
0.363806 0.169680 0.579553
0.572564 0.264652 0.610407
0.698299 0.365820 0.626795
0.748836 0.488106 0.629572
0.000000 0.112398 0.506920
0.000000 0.115480 0.512749
0.000000 0.123903 0.524681
0.000000 0.143099 0.546319
0.360967 0.181033 0.574640
0.564385 0.267491 0.603998
0.691402 0.360479 0.619837
0.743893 0.479255 0.622156
0.000000 0.174899 0.541924
0.000000 0.177768 0.544060
0.000000 0.189914 0.551873
0.192020 0.217411 0.568170
0.408270 0.266972 0.589441
0.581537 0.352422 0.613886
0.692622 0.433082 0.630579
0.741970 0.528801 0.636774
0.000000 0.293004 0.578424
0.000000 0.296330 0.579278
0.113100 0.317540 0.585382
0.325566 0.358373 0.597498
0.476844 0.406439 0.612329
0.604150 0.472450 0.632074
0.692531 0.525963 0.646937
0.738613 0.585199 0.654475
0.182284 0.440162 0.601160
0.200748 0.440528 0.600549
0.276982 0.449073 0.602319
0.390417 0.474372 0.611841
0.516197 0.517327 0.625910
0.612726 0.557519 0.642359
0.687922 0.592126 0.657404
0.737942 0.633967 0.672267
0.392798 0.575891 0.632746
0.402319 0.577325 0.633478
0.435645 0.582513 0.635920
0.491005 0.592523 0.640681
0.557519 0.607477 0.647730
0.632776 0.636225 0.664912
0.696956 0.661219 0.683711
0.750271 0.682399 0.695766
0.527092 0.669886 0.670985
0.532067 0.671107 0.672114
0.547234 0.673823 0.674006
0.575341 0.679683 0.678431
0.611872 0.688197 0.684840
0.656092 0.701045 0.694911
0.707576 0.720119 0.710689
0.759823 0.729335 0.716335
0.596338 0.746487 0.720699
0.598688 0.747066 0.721187
0.609522 0.750057 0.724086
0.626917 0.753658 0.727169
0.652064 0.758724 0.731197
0.680293 0.760250 0.729702
0.716121 0.758206 0.728298
0.770443 0.791836 0.772091
0.000000 0.160006 0.623774
0.000000 0.163638 0.626001
0.000000 0.173953 0.630365
0.187411 0.201816 0.642023
0.404974 0.255314 0.656611
0.566857 0.343328 0.671778
0.676783 0.447608 0.688075
0.747066 0.513909 0.696895
0.000000 0.169528 0.622522
0.000000 0.173190 0.624842
0.000000 0.184939 0.630060
0.195956 0.212192 0.640833
0.405982 0.264958 0.654994
0.565362 0.349706 0.669978
0.674006 0.448829 0.685603
0.744564 0.512505 0.693996
0.000000 0.223453 0.631769
0.000000 0.226688 0.633082
0.000000 0.239139 0.636927
0.266392 0.274754 0.648493
0.436072 0.326452 0.659388
0.573602 0.398627 0.671870
0.673945 0.484627 0.687678
0.741756 0.537743 0.696407
0.000000 0.310491 0.643824
0.000000 0.318944 0.645319
0.191440 0.341009 0.648707
0.339818 0.372564 0.656367
0.474678 0.418616 0.666255
0.587915 0.476997 0.678340
0.676570 0.542351 0.694697
0.740108 0.581811 0.704616
0.133333 0.419226 0.652583
0.167056 0.422431 0.653803
0.244541 0.429511 0.655879
0.372137 0.459144 0.662959
0.499367 0.503685 0.671626
0.595819 0.545556 0.683742
0.677058 0.593774 0.701289
0.739925 0.626337 0.715175
0.351598 0.550561 0.670771
0.356176 0.550011 0.670283
0.381018 0.550286 0.669825
0.432013 0.554833 0.671229
0.507713 0.570275 0.678096
0.608789 0.613977 0.696132
0.685054 0.652369 0.718624
0.747280 0.681788 0.736782
0.500511 0.656916 0.702419
0.503532 0.657160 0.702480
0.516625 0.658442 0.702968
0.543084 0.662593 0.705440
0.581018 0.669520 0.709987
0.627832 0.680446 0.718013
0.692653 0.706905 0.737209
0.752743 0.732082 0.755825
0.588952 0.735683 0.741238
0.590600 0.735836 0.741329
0.598444 0.737301 0.742428
0.615167 0.741360 0.745571
0.639948 0.747402 0.750301
0.673121 0.756100 0.756954
0.715267 0.769284 0.767330
0.766415 0.789059 0.783841
