20 Preset/Rover Style/【3】LUT video cho PR-AE-FCPX/Rover Contrast -.cube
# Created by Adobe Lightroom plugin Export LUT (1.24.0)
# www.johnrellis.com/lightroom/exportlut.htm
# Preset: Rover Contrast -
# Color profile: E:\lut插件\exportlut.1.24\exportlut.lrplugin\color profiles\Rec709gamma2.4.icc
LUT_3D_SIZE 5
DOMAIN_MIN 0.000000 0.000000 0.000000
DOMAIN_MAX 0.903226 0.903226 0.903226
0.000000 0.000000 0.000000
0.279789 0.003326 0.003998
0.518883 0.034363 0.034150
0.713741 0.101839 0.101198
0.875242 0.147799 0.148013
0.022370 0.275364 0.022309
0.274510 0.274388 0.025666
0.514153 0.262364 0.075807
0.709438 0.253391 0.119326
0.872679 0.255924 0.161288
0.130953 0.498909 0.131441
0.266911 0.498146 0.133120
0.495064 0.495003 0.141115
0.693721 0.473243 0.170291
0.864439 0.455116 0.202670
0.225406 0.670680 0.225376
0.295720 0.670130 0.226383
0.468391 0.668025 0.231022
0.664546 0.664546 0.239414
0.856840 0.656825 0.254093
0.284642 0.862303 0.284550
0.334997 0.862547 0.284794
0.481819 0.863645 0.285588
0.668208 0.866056 0.287053
0.870420 0.870420 0.288457
0.007294 0.004822 0.275639
0.275456 0.023285 0.275334
0.513695 0.112673 0.268406
0.705501 0.178714 0.276890
0.867948 0.215824 0.286687
0.074495 0.274357 0.274388
0.274266 0.274266 0.274266
0.507591 0.275364 0.275181
0.701900 0.280156 0.280217
0.865934 0.290745 0.290745
0.176761 0.497475 0.282536
0.282933 0.496895 0.282933
0.494636 0.494606 0.284794
0.688685 0.478218 0.293980
0.859495 0.466102 0.306706
0.258824 0.669368 0.317174
0.317784 0.668910 0.317815
0.476020 0.667140 0.319951
0.664271 0.664240 0.324468
0.854490 0.659113 0.331853
0.301579 0.861814 0.348058
0.348241 0.862089 0.348180
0.488197 0.863310 0.348455
0.670466 0.865873 0.349065
0.870390 0.870451 0.349065
0.067567 0.068269 0.500145
0.257755 0.093507 0.499794
0.498451 0.134859 0.498451
0.697932 0.202548 0.481331
0.857206 0.278050 0.476143
0.156405 0.274754 0.497780
0.276249 0.276555 0.497566
0.496712 0.283574 0.496620
0.691188 0.306828 0.484077
0.852720 0.346563 0.483467
0.213291 0.494362 0.494301
0.304845 0.494209 0.494209
0.494026 0.494026 0.494026
0.674464 0.494606 0.494606
0.846403 0.496254 0.496254
0.324743 0.666133 0.494423
0.372778 0.665492 0.497200
0.499428 0.664454 0.499397
0.663416 0.663447 0.500328
0.849180 0.665949 0.500786
0.333165 0.861112 0.500969
0.373053 0.861418 0.500847
0.500450 0.862852 0.500481
0.674525 0.865812 0.499672
0.870756 0.870756 0.497902
0.134676 0.134798 0.673487
0.253117 0.146609 0.673182
0.461402 0.184237 0.671931
0.669886 0.231235 0.669856
0.854276 0.285985 0.659541
0.206485 0.283482 0.671199
0.286778 0.286809 0.670924
0.469978 0.299260 0.669978
0.668269 0.320562 0.668299
0.851011 0.351049 0.660639
0.293614 0.484352 0.666407
0.350744 0.487831 0.665949
0.495338 0.495369 0.664973
0.664302 0.499855 0.664302
0.844602 0.505089 0.665248
0.347234 0.663416 0.663416
0.388800 0.663355 0.663386
0.512016 0.663203 0.663233
0.663264 0.663264 0.663264
0.854917 0.662867 0.662867
0.315068 0.862455 0.670192
0.352026 0.863005 0.669093
0.471778 0.865354 0.663294
0.658045 0.868376 0.658076
0.872099 0.872068 0.656489
0.180850 0.180789 0.864317
0.269169 0.188510 0.864225
0.458289 0.215396 0.863828
0.661341 0.252720 0.863249
0.862760 0.289494 0.862791
0.233036 0.297459 0.863462
0.300572 0.300420 0.863401
0.469825 0.311803 0.863157
0.664637 0.330297 0.862821
0.862669 0.350958 0.862669
0.317693 0.494575 0.862394
0.361639 0.494942 0.862425
0.496651 0.496590 0.862516
0.672633 0.499031 0.862821
0.863554 0.500328 0.863523
0.326024 0.674311 0.865446
0.366766 0.674037 0.865568
0.489570 0.670710 0.866209
0.662104 0.662074 0.867613
0.868711 0.657588 0.868711
0.242893 0.871641 0.871641
0.294591 0.871733 0.871733
0.442084 0.872129 0.872129
0.636591 0.872740 0.872740
0.873167 0.873167 0.873167
