20 Preset/Rover Style/【3】LUT video cho PR-AE-FCPX/Rover 07 BW.cube
# Created by Adobe Lightroom plugin Export LUT (1.24.0)
# www.johnrellis.com/lightroom/exportlut.htm
# Preset: Rover 07 BW
# Color profile: E:\lut插件\exportlut.1.24\exportlut.lrplugin\color profiles\Rec709gamma2.4.icc
LUT_3D_SIZE 8
DOMAIN_MIN 0.000000 0.000000 0.000000
DOMAIN_MAX 0.903226 0.903226 0.903226
0.107851 0.107851 0.107851
0.107851 0.107851 0.107851
0.105226 0.105226 0.105226
0.114168 0.114168 0.114168
0.144381 0.144381 0.144381
0.197787 0.197787 0.197787
0.279088 0.279088 0.279088
0.423835 0.423835 0.423835
0.106081 0.106081 0.106081
0.105501 0.105501 0.105501
0.106691 0.106691 0.106691
0.122469 0.122469 0.122469
0.167178 0.167178 0.167178
0.224125 0.224125 0.224125
0.317540 0.317540 0.317540
0.458106 0.458106 0.458106
0.150851 0.150851 0.150851
0.161288 0.161288 0.161288
0.162417 0.162417 0.162417
0.203311 0.203311 0.203311
0.243168 0.243168 0.243168
0.307988 0.307988 0.307988
0.396124 0.396124 0.396124
0.511131 0.511131 0.511131
0.271763 0.271763 0.271763
0.284703 0.284703 0.284703
0.335576 0.335576 0.335576
0.298131 0.298131 0.298131
0.375830 0.375830 0.375830
0.469093 0.469093 0.469093
0.529900 0.529900 0.529900
0.597711 0.597711 0.597711
0.498451 0.498451 0.498451
0.505791 0.505791 0.505791
0.531823 0.531823 0.531823
0.549920 0.549920 0.549920
0.526696 0.526696 0.526696
0.575311 0.575311 0.575311
0.628016 0.628016 0.628016
0.654932 0.654932 0.654932
0.625391 0.625391 0.625391
0.625147 0.625147 0.625147
0.633021 0.633021 0.633021
0.645258 0.645258 0.645258
0.646479 0.646479 0.646479
0.639307 0.639307 0.639307
0.655421 0.655421 0.655421
0.672908 0.672908 0.672908
0.670893 0.670893 0.670893
0.671138 0.671138 0.671138
0.673030 0.673030 0.673030
0.676326 0.676326 0.676326
0.680995 0.680995 0.680995
0.679744 0.679744 0.679744
0.677913 0.677913 0.677913
0.685725 0.685725 0.685725
0.697780 0.697780 0.697780
0.698177 0.698177 0.698177
0.699733 0.699733 0.699733
0.702724 0.702724 0.702724
0.710597 0.710597 0.710597
0.714473 0.714473 0.714473
0.713191 0.713191 0.713191
0.712581 0.712581 0.712581
0.107271 0.107271 0.107271
0.107546 0.107546 0.107546
0.105806 0.105806 0.105806
0.121309 0.121309 0.121309
0.167330 0.167330 0.167330
0.225956 0.225956 0.225956
0.321447 0.321447 0.321447
0.462623 0.462623 0.462623
0.106386 0.106386 0.106386
0.104921 0.104921 0.104921
0.112581 0.112581 0.112581
0.140688 0.140688 0.140688
0.186007 0.186007 0.186007
0.247440 0.247440 0.247440
0.352209 0.352209 0.352209
0.488319 0.488319 0.488319
0.151217 0.151217 0.151217
0.163210 0.163210 0.163210
0.170687 0.170687 0.170687
0.215976 0.215976 0.215976
0.267857 0.267857 0.267857
0.341741 0.341741 0.341741
0.437873 0.437873 0.437873
0.539605 0.539605 0.539605
0.287266 0.287266 0.287266
0.301335 0.301335 0.301335
0.351934 0.351934 0.351934
0.328191 0.328191 0.328191
0.414618 0.414618 0.414618
0.504997 0.504997 0.504997
0.559258 0.559258 0.559258
0.614557 0.614557 0.614557
0.502617 0.502617 0.502617
0.510887 0.510887 0.510887
0.538048 0.538048 0.538048
0.562371 0.562371 0.562371
0.543175 0.543175 0.543175
0.588190 0.588190 0.588190
0.635035 0.635035 0.635035
0.658869 0.658869 0.658869
0.628870 0.628870 0.628870
0.630579 0.630579 0.630579
0.637598 0.637598 0.637598
0.648371 0.648371 0.648371
0.649866 0.649866 0.649866
0.642542 0.642542 0.642542
0.657710 0.657710 0.657710
0.674372 0.674372 0.674372
0.672175 0.672175 0.672175
0.672755 0.672755 0.672755
0.674617 0.674617 0.674617
0.677699 0.677699 0.677699
0.682216 0.682216 0.682216
0.680995 0.680995 0.680995
0.679408 0.679408 0.679408
0.687587 0.687587 0.687587
0.699123 0.699123 0.699123
0.699275 0.699275 0.699275
0.700893 0.700893 0.700893
0.703944 0.703944 0.703944
0.709285 0.709285 0.709285
0.714229 0.714229 0.714229
0.713680 0.713680 0.713680
0.713100 0.713100 0.713100
0.105226 0.105226 0.105226
0.104921 0.104921 0.104921
0.104921 0.104921 0.104921
0.124392 0.124392 0.124392
0.179294 0.179294 0.179294
0.254643 0.254643 0.254643
0.357946 0.357946 0.357946
0.482918 0.482918 0.482918
0.108125 0.108125 0.108125
0.110109 0.110109 0.110109
0.112306 0.112306 0.112306
0.145907 0.145907 0.145907
0.199130 0.199130 0.199130
0.279789 0.279789 0.279789
0.386755 0.386755 0.386755
0.504479 0.504479 0.504479
0.140505 0.140505 0.140505
0.149233 0.149233 0.149233
0.181247 0.181247 0.181247
0.214237 0.214237 0.214237
0.271611 0.271611 0.271611
0.362615 0.362615 0.362615
0.462867 0.462867 0.462867
0.554406 0.554406 0.554406
0.251530 0.251530 0.251530
0.263645 0.263645 0.263645
0.319829 0.319829 0.319829
0.336797 0.336797 0.336797
0.424720 0.424720 0.424720
0.501671 0.501671 0.501671
0.565179 0.565179 0.565179
0.617945 0.617945 0.617945
0.481880 0.481880 0.481880
0.491127 0.491127 0.491127
0.524041 0.524041 0.524041
0.564141 0.564141 0.564141
0.544915 0.544915 0.544915
0.591333 0.591333 0.591333
0.636957 0.636957 0.636957
0.659937 0.659937 0.659937
0.623743 0.623743 0.623743
0.625971 0.625971 0.625971
0.634821 0.634821 0.634821
0.646662 0.646662 0.646662
0.651911 0.651911 0.651911
0.645167 0.645167 0.645167
0.659510 0.659510 0.659510
0.674922 0.674922 0.674922
0.670741 0.670741 0.670741
0.671443 0.671443 0.671443
0.673610 0.673610 0.673610
0.676967 0.676967 0.676967
0.681666 0.681666 0.681666
0.681300 0.681300 0.681300
0.679377 0.679377 0.679377
0.687465 0.687465 0.687465
0.698360 0.698360 0.698360
0.698970 0.698970 0.698970
0.700649 0.700649 0.700649
0.703395 0.703395 0.703395
0.708827 0.708827 0.708827
0.714443 0.714443 0.714443
0.713680 0.713680 0.713680
0.713039 0.713039 0.713039
0.113405 0.113405 0.113405
0.113405 0.113405 0.113405
0.115755 0.115755 0.115755
0.128054 0.128054 0.128054
0.181643 0.181643 0.181643
0.252476 0.252476 0.252476
0.374121 0.374121 0.374121
0.516869 0.516869 0.516869
0.135653 0.135653 0.135653
0.135866 0.135866 0.135866
0.136660 0.136660 0.136660
0.146456 0.146456 0.146456
0.196170 0.196170 0.196170
0.271061 0.271061 0.271061
0.396429 0.396429 0.396429
0.530175 0.530175 0.530175
0.179965 0.179965 0.179965
0.187472 0.187472 0.187472
0.213016 0.213016 0.213016
0.215885 0.215885 0.215885
0.265843 0.265843 0.265843
0.350561 0.350561 0.350561
0.461036 0.461036 0.461036
0.564996 0.564996 0.564996
0.242527 0.242527 0.242527
0.251164 0.251164 0.251164
0.288426 0.288426 0.288426
0.366369 0.366369 0.366369
0.431647 0.431647 0.431647
0.499794 0.499794 0.499794
0.565423 0.565423 0.565423
0.622400 0.622400 0.622400
0.422614 0.422614 0.422614
0.435309 0.435309 0.435309
0.479438 0.479438 0.479438
0.541436 0.541436 0.541436
0.552544 0.552544 0.552544
0.598535 0.598535 0.598535
0.635920 0.635920 0.635920
0.659052 0.659052 0.659052
0.604913 0.604913 0.604913
0.606073 0.606073 0.606073
0.619532 0.619532 0.619532
0.638087 0.638087 0.638087
0.651911 0.651911 0.651911
0.646723 0.646723 0.646723
0.661433 0.661433 0.661433
0.675959 0.675959 0.675959
0.667414 0.667414 0.667414
0.667964 0.667964 0.667964
0.670405 0.670405 0.670405
0.674495 0.674495 0.674495
0.679408 0.679408 0.679408
0.681422 0.681422 0.681422
0.679744 0.679744 0.679744
0.688380 0.688380 0.688380
0.695155 0.695155 0.695155
0.695674 0.695674 0.695674
0.697780 0.697780 0.697780
0.701564 0.701564 0.701564
0.707179 0.707179 0.707179
0.714931 0.714931 0.714931
0.714260 0.714260 0.714260
0.713069 0.713069 0.713069
0.160281 0.160281 0.160281
0.160281 0.160281 0.160281
0.163546 0.163546 0.163546
0.165591 0.165591 0.165591
0.185336 0.185336 0.185336
0.254032 0.254032 0.254032
0.374395 0.374395 0.374395
0.509026 0.509026 0.509026
0.183017 0.183017 0.183017
0.181918 0.181918 0.181918
0.182742 0.182742 0.182742
0.183566 0.183566 0.183566
0.200443 0.200443 0.200443
0.272068 0.272068 0.272068
0.394079 0.394079 0.394079
0.521202 0.521202 0.521202
0.240940 0.240940 0.240940
0.249393 0.249393 0.249393
0.260990 0.260990 0.260990
0.258824 0.258824 0.258824
0.274418 0.274418 0.274418
0.363622 0.363622 0.363622
0.470527 0.470527 0.470527
0.566705 0.566705 0.566705
0.314763 0.314763 0.314763
0.325017 0.325017 0.325017
0.365942 0.365942 0.365942
0.429572 0.429572 0.429572
0.433478 0.433478 0.433478
0.497139 0.497139 0.497139
0.561425 0.561425 0.561425
0.619287 0.619287 0.619287
0.439155 0.439155 0.439155
0.446296 0.446296 0.446296
0.475532 0.475532 0.475532
0.523033 0.523033 0.523033
0.576928 0.576928 0.576928
0.607507 0.607507 0.607507
0.635798 0.635798 0.635798
0.658289 0.658289 0.658289
0.582391 0.582391 0.582391
0.585809 0.585809 0.585809
0.601984 0.601984 0.601984
0.626917 0.626917 0.626917
0.651606 0.651606 0.651606
0.653498 0.653498 0.653498
0.665980 0.665980 0.665980
0.677760 0.677760 0.677760
0.661891 0.661891 0.661891
0.662898 0.662898 0.662898
0.666285 0.666285 0.666285
0.671382 0.671382 0.671382
0.677943 0.677943 0.677943
0.683650 0.683650 0.683650
0.681910 0.681910 0.681910
0.691798 0.691798 0.691798
0.692378 0.692378 0.692378
0.692988 0.692988 0.692988
0.695308 0.695308 0.695308
0.699184 0.699184 0.699184
0.705806 0.705806 0.705806
0.713985 0.713985 0.713985
0.717250 0.717250 0.717250
0.715908 0.715908 0.715908
0.217807 0.217807 0.217807
0.217594 0.217594 0.217594
0.221103 0.221103 0.221103
0.222995 0.222995 0.222995
0.224002 0.224002 0.224002
0.258640 0.258640 0.258640
0.372168 0.372168 0.372168
0.506584 0.506584 0.506584
0.247623 0.247623 0.247623
0.248142 0.248142 0.248142
0.249210 0.249210 0.249210
0.249210 0.249210 0.249210
0.246983 0.246983 0.246983
0.282261 0.282261 0.282261
0.397498 0.397498 0.397498
0.523095 0.523095 0.523095
0.340673 0.340673 0.340673
0.341009 0.341009 0.341009
0.340154 0.340154 0.340154
0.341527 0.341527 0.341527
0.335576 0.335576 0.335576
0.367803 0.367803 0.367803
0.467414 0.467414 0.467414
0.563653 0.563653 0.563653
0.411841 0.411841 0.411841
0.423072 0.423072 0.423072
0.461463 0.461463 0.461463
0.486397 0.486397 0.486397
0.479255 0.479255 0.479255
0.493477 0.493477 0.493477
0.554528 0.554528 0.554528
0.612024 0.612024 0.612024
0.513176 0.513176 0.513176
0.518669 0.518669 0.518669
0.539147 0.539147 0.539147
0.571649 0.571649 0.571649
0.605005 0.605005 0.605005
0.605890 0.605890 0.605890
0.631342 0.631342 0.631342
0.653559 0.653559 0.653559
0.593713 0.593713 0.593713
0.595178 0.595178 0.595178
0.605707 0.605707 0.605707
0.622492 0.622492 0.622492
0.641810 0.641810 0.641810
0.658045 0.658045 0.658045
0.666407 0.666407 0.666407
0.675532 0.675532 0.675532
0.651179 0.651179 0.651179
0.651820 0.651820 0.651820
0.655604 0.655604 0.655604
0.661891 0.661891 0.661891
0.671229 0.671229 0.671229
0.681178 0.681178 0.681178
0.683436 0.683436 0.683436
0.694270 0.694270 0.694270
0.686244 0.686244 0.686244
0.686885 0.686885 0.686885
0.689052 0.689052 0.689052
0.693050 0.693050 0.693050
0.700221 0.700221 0.700221
0.711025 0.711025 0.711025
0.720821 0.720821 0.720821
0.718837 0.718837 0.718837
0.354162 0.354162 0.354162
0.356268 0.356268 0.356268
0.356542 0.356542 0.356542
0.356054 0.356054 0.356054
0.352209 0.352209 0.352209
0.344640 0.344640 0.344640
0.403052 0.403052 0.403052
0.515068 0.515068 0.515068
0.374395 0.374395 0.374395
0.376837 0.376837 0.376837
0.375952 0.375952 0.375952
0.373022 0.373022 0.373022
0.366369 0.366369 0.366369
0.354711 0.354711 0.354711
0.408087 0.408087 0.408087
0.513664 0.513664 0.513664
0.470619 0.470619 0.470619
0.470039 0.470039 0.470039
0.466560 0.466560 0.466560
0.461036 0.461036 0.461036
0.450996 0.450996 0.450996
0.437537 0.437537 0.437537
0.479438 0.479438 0.479438
0.562585 0.562585 0.562585
0.544152 0.544152 0.544152
0.549493 0.549493 0.549493
0.568231 0.568231 0.568231
0.568811 0.568811 0.568811
0.561517 0.561517 0.561517
0.552850 0.552850 0.552850
0.571130 0.571130 0.571130
0.616358 0.616358 0.616358
0.583185 0.583185 0.583185
0.584802 0.584802 0.584802
0.594934 0.594934 0.594934
0.616846 0.616846 0.616846
0.631342 0.631342 0.631342
0.626246 0.626246 0.626246
0.630091 0.630091 0.630091
0.652461 0.652461 0.652461
0.627131 0.627131 0.627131
0.628748 0.628748 0.628748
0.634546 0.634546 0.634546
0.644221 0.644221 0.644221
0.655482 0.655482 0.655482
0.666102 0.666102 0.666102
0.666346 0.666346 0.666346
0.673945 0.673945 0.673945
0.657771 0.657771 0.657771
0.658595 0.658595 0.658595
0.660914 0.660914 0.660914
0.665187 0.665187 0.665187
0.670588 0.670588 0.670588
0.677211 0.677211 0.677211
0.686091 0.686091 0.686091
0.694484 0.694484 0.694484
0.680385 0.680385 0.680385
0.680781 0.680781 0.680781
0.682643 0.682643 0.682643
0.685786 0.685786 0.685786
0.690730 0.690730 0.690730
0.700618 0.700618 0.700618
0.717189 0.717189 0.717189
0.721675 0.721675 0.721675
0.516350 0.516350 0.516350
0.517113 0.517113 0.517113
0.513451 0.513451 0.513451
0.510491 0.510491 0.510491
0.503075 0.503075 0.503075
0.489082 0.489082 0.489082
0.483101 0.483101 0.483101
0.524834 0.524834 0.524834
0.525902 0.525902 0.525902
0.526574 0.526574 0.526574
0.524041 0.524041 0.524041
0.520012 0.520012 0.520012
0.512230 0.512230 0.512230
0.498329 0.498329 0.498329
0.489693 0.489693 0.489693
0.528191 0.528191 0.528191
0.570916 0.570916 0.570916
0.570672 0.570672 0.570672
0.567651 0.567651 0.567651
0.566461 0.566461 0.566461
0.557977 0.557977 0.557977
0.544091 0.544091 0.544091
0.532860 0.532860 0.532860
0.561913 0.561913 0.561913
0.617304 0.617304 0.617304
0.620294 0.620294 0.620294
0.620844 0.620844 0.620844
0.618647 0.618647 0.618647
0.613825 0.613825 0.613825
0.605524 0.605524 0.605524
0.594354 0.594354 0.594354
0.610681 0.610681 0.610681
0.628992 0.628992 0.628992
0.631006 0.631006 0.631006
0.636744 0.636744 0.636744
0.649287 0.649287 0.649287
0.651362 0.651362 0.651362
0.647242 0.647242 0.647242
0.641566 0.641566 0.641566
0.647852 0.647852 0.647852
0.650324 0.650324 0.650324
0.650629 0.650629 0.650629
0.652583 0.652583 0.652583
0.657221 0.657221 0.657221
0.664851 0.664851 0.664851
0.671717 0.671717 0.671717
0.670741 0.670741 0.670741
0.672511 0.672511 0.672511
0.669490 0.669490 0.669490
0.669734 0.669734 0.669734
0.670924 0.670924 0.670924
0.673518 0.673518 0.673518
0.677485 0.677485 0.677485
0.683314 0.683314 0.683314
0.691554 0.691554 0.691554
0.691188 0.691188 0.691188
0.683162 0.683162 0.683162
0.683345 0.683345 0.683345
0.684413 0.684413 0.684413
0.686885 0.686885 0.686885
0.690852 0.690852 0.690852
0.696895 0.696895 0.696895
0.706447 0.706447 0.706447
0.722438 0.722438 0.722438
