20 Preset/Rover Style/【3】LUT video cho PR-AE-FCPX/Rover Contrast _.cube
# Created by Adobe Lightroom plugin Export LUT (1.24.0)
# www.johnrellis.com/lightroom/exportlut.htm
# Preset: Rover Contrast +
# Color profile: E:\lut插件\exportlut.1.24\exportlut.lrplugin\color profiles\Rec709gamma2.4.icc
LUT_3D_SIZE 5
DOMAIN_MIN 0.000000 0.000000 0.000000
DOMAIN_MAX 0.903226 0.903226 0.903226
0.000000 0.000000 0.000000
0.219913 0.000824 0.000305
0.443549 0.000000 0.000000
0.672511 0.000000 0.000000
0.906798 0.000000 0.000000
0.000000 0.220279 0.000000
0.220310 0.220310 0.000000
0.444038 0.221622 0.000000
0.672999 0.222843 0.000000
0.907042 0.222904 0.000000
0.000000 0.445655 0.000000
0.221164 0.445747 0.000000
0.446143 0.446082 0.000000
0.674983 0.448981 0.000000
0.908019 0.451728 0.000000
0.000000 0.678279 0.000000
0.216983 0.678370 0.000000
0.450050 0.678645 0.000000
0.679164 0.679194 0.000000
0.908751 0.680140 0.000000
0.000000 0.907836 0.000000
0.208408 0.907805 0.000000
0.448188 0.907652 0.000000
0.678492 0.907378 0.000000
0.906828 0.906828 0.000000
0.000031 0.000000 0.220157
0.220371 0.000000 0.220310
0.444068 0.000000 0.220951
0.673396 0.000000 0.219944
0.907561 0.000000 0.218418
0.000000 0.220493 0.220432
0.220371 0.220371 0.220371
0.444526 0.220432 0.220310
0.673823 0.219669 0.219638
0.907774 0.217624 0.217716
0.000000 0.445808 0.219333
0.219181 0.445869 0.219272
0.446113 0.446113 0.219028
0.675563 0.448432 0.217441
0.908537 0.450477 0.214878
0.000000 0.678401 0.212650
0.212680 0.678492 0.212619
0.448981 0.678767 0.211978
0.679225 0.679225 0.211063
0.909026 0.679866 0.209049
0.000000 0.907897 0.204868
0.204898 0.907866 0.204898
0.447181 0.907713 0.204685
0.678279 0.907378 0.204685
0.906798 0.906798 0.204593
0.000000 0.000000 0.445533
0.222171 0.000000 0.445533
0.445686 0.000000 0.445716
0.674250 0.000000 0.447974
0.908782 0.000000 0.449104
0.000000 0.220432 0.445747
0.219883 0.220127 0.445808
0.445899 0.219242 0.445869
0.675044 0.215335 0.447639
0.909361 0.205173 0.448005
0.000000 0.446174 0.446113
0.216037 0.446174 0.446204
0.446235 0.446235 0.446235
0.677485 0.446143 0.446143
0.910185 0.445808 0.445777
0.000000 0.678859 0.446174
0.196170 0.678981 0.445624
0.445167 0.679164 0.445228
0.679286 0.679347 0.445045
0.909697 0.678859 0.445014
0.000000 0.908019 0.444892
0.195865 0.907988 0.444831
0.444862 0.907774 0.444892
0.677577 0.907408 0.445075
0.906737 0.906767 0.445350
0.000000 0.000000 0.677943
0.223178 0.000000 0.678004
0.450752 0.000000 0.678126
0.678401 0.000000 0.678370
0.909148 0.000000 0.679866
0.000000 0.218997 0.678218
0.218570 0.218479 0.678218
0.449866 0.216312 0.678340
0.678553 0.212100 0.678584
0.909575 0.203586 0.679744
0.000000 0.447791 0.678859
0.203922 0.447272 0.678889
0.445930 0.445991 0.679042
0.679164 0.445167 0.679133
0.910430 0.444038 0.678981
0.000000 0.679316 0.679316
0.189487 0.679316 0.679347
0.442573 0.679316 0.679347
0.679347 0.679347 0.679347
0.908812 0.679438 0.679408
0.000000 0.907836 0.678218
0.203281 0.907774 0.678401
0.450111 0.907439 0.679316
0.680079 0.907042 0.680110
0.906615 0.906615 0.680354
0.000000 0.000000 0.907622
0.221134 0.000000 0.907652
0.451331 0.000000 0.907683
0.679408 0.000000 0.907744
0.907744 0.000000 0.907774
0.000000 0.216526 0.907713
0.216281 0.216037 0.907713
0.449866 0.213840 0.907744
0.679042 0.209689 0.907805
0.907774 0.204288 0.907774
0.000000 0.446113 0.907836
0.200351 0.445991 0.907836
0.445686 0.445686 0.907836
0.677882 0.445258 0.907774
0.907713 0.444953 0.907713
0.000000 0.677638 0.907439
0.197910 0.677638 0.907439
0.446876 0.678157 0.907317
0.679561 0.679530 0.907134
0.906981 0.680201 0.906981
0.000000 0.906645 0.906645
0.219181 0.906645 0.906645
0.454505 0.906584 0.906584
0.682826 0.906523 0.906523
0.906462 0.906462 0.906462
