20 Preset/Rover Style/【3】LUT video cho PR-AE-FCPX/Rover 01 .cube
# Created by Adobe Lightroom plugin Export LUT (1.24.0)
# www.johnrellis.com/lightroom/exportlut.htm
# Preset: Rover 01 
# Color profile: E:\lut插件\exportlut.1.24\exportlut.lrplugin\color profiles\Rec709gamma2.4.icc
LUT_3D_SIZE 5
DOMAIN_MIN 0.000000 0.000000 0.000000
DOMAIN_MAX 0.903226 0.903226 0.903226
0.000000 0.000000 0.000000
0.083406 0.027893 0.011444
0.285710 0.000000 0.023346
0.720912 0.000000 0.003418
0.895689 0.250553 0.202060
0.031189 0.092805 0.041260
0.090425 0.104799 0.063203
0.332738 0.103761 0.028992
0.732021 0.000000 0.000000
0.890379 0.337224 0.233982
0.054292 0.298283 0.174746
0.159762 0.288975 0.174533
0.449256 0.444709 0.320623
0.743679 0.496742 0.292241
0.858000 0.520317 0.362219
0.377935 0.572381 0.408209
0.400885 0.565393 0.403784
0.485267 0.552300 0.404486
0.686610 0.688746 0.618433
0.791531 0.735225 0.657252
0.598108 0.716884 0.607721
0.601740 0.714046 0.603815
0.609979 0.696620 0.578363
0.693996 0.731502 0.651179
0.779110 0.800320 0.768765
0.009430 0.023316 0.041779
0.070405 0.042725 0.058259
0.286900 0.016754 0.087312
0.702480 0.000000 0.113344
0.883330 0.267002 0.212528
0.033417 0.102876 0.093263
0.100404 0.117922 0.105165
0.337591 0.124819 0.113924
0.714778 0.109041 0.141817
0.877073 0.343206 0.251896
0.007721 0.328649 0.225010
0.181582 0.332372 0.234836
0.437171 0.434363 0.343908
0.727016 0.470710 0.315160
0.847318 0.533715 0.408453
0.413977 0.592798 0.453559
0.435157 0.586542 0.449409
0.492256 0.556909 0.426581
0.685847 0.688624 0.625879
0.790707 0.732937 0.659510
0.606836 0.722835 0.623407
0.609979 0.719753 0.619226
0.623774 0.707790 0.602808
0.694545 0.732662 0.655360
0.780697 0.802213 0.772580
0.000000 0.068421 0.172366
0.033906 0.085695 0.192996
0.276951 0.109133 0.266545
0.698573 0.096071 0.351873
0.851743 0.412116 0.431434
0.000000 0.129397 0.235691
0.067903 0.143404 0.254246
0.337011 0.188113 0.320348
0.705043 0.258701 0.381262
0.843595 0.462165 0.459205
0.000000 0.383642 0.397253
0.207980 0.403235 0.410346
0.481941 0.478187 0.466041
0.703059 0.513390 0.482033
0.819364 0.581628 0.536339
0.463905 0.632166 0.553979
0.487892 0.630976 0.553735
0.571893 0.631525 0.565118
0.686336 0.691737 0.652399
0.788693 0.720089 0.664027
0.611536 0.737087 0.656214
0.620356 0.737087 0.657588
0.647608 0.731533 0.657343
0.679561 0.720485 0.646998
0.779629 0.801450 0.775570
0.000000 0.118441 0.450202
0.000000 0.127962 0.465888
0.313634 0.175662 0.520317
0.646326 0.309392 0.576745
0.797330 0.505486 0.621576
0.000000 0.182681 0.487129
0.000000 0.195468 0.498054
0.365881 0.258122 0.539696
0.649653 0.384527 0.587213
0.792111 0.536461 0.628717
0.128054 0.393683 0.551019
0.240238 0.408026 0.555932
0.483345 0.485512 0.590173
0.658595 0.559106 0.624933
0.783749 0.627405 0.659571
0.488441 0.641657 0.643488
0.512352 0.645106 0.645716
0.592706 0.662837 0.658930
0.689235 0.698482 0.688777
0.783780 0.715694 0.699611
0.637263 0.764431 0.725826
0.642725 0.764218 0.725154
0.664668 0.763516 0.722744
0.705196 0.758175 0.719539
0.780697 0.803372 0.785367
0.000000 0.232547 0.688014
0.103334 0.247745 0.691127
0.436713 0.324285 0.703975
0.653468 0.475502 0.722072
0.768795 0.589136 0.735531
0.017060 0.294224 0.690425
0.223301 0.309972 0.693263
0.461616 0.379950 0.704402
0.654566 0.508751 0.721736
0.765530 0.606409 0.736324
0.259892 0.440528 0.698451
0.334661 0.457588 0.700496
0.516045 0.521935 0.709285
0.661494 0.599115 0.726223
0.760800 0.662623 0.745632
0.469001 0.629267 0.721370
0.486000 0.630426 0.721187
0.552483 0.639246 0.723079
0.672877 0.686275 0.742306
0.765408 0.736355 0.769406
0.632380 0.761624 0.767880
0.638788 0.762600 0.768399
0.666896 0.768399 0.772305
0.715450 0.780331 0.780636
0.780972 0.805051 0.801144
