20 Preset/Rover Style/【3】LUT video cho PR-AE-FCPX/Rover 01 .cube
# Created by Adobe Lightroom plugin Export LUT (1.24.0)
# www.johnrellis.com/lightroom/exportlut.htm
# Preset: Rover 01 
# Color profile: E:\lut插件\exportlut.1.24\exportlut.lrplugin\color profiles\Rec709gamma2.4.icc
LUT_3D_SIZE 32
DOMAIN_MIN 0.0 0.0 0.0
DOMAIN_MAX 1.0 1.0 1.0
0.000000 0.000000 0.000000
0.000977 0.000977 0.000977
0.006226 0.001495 0.000793
0.012726 0.005188 0.002441
0.023743 0.010620 0.003723
0.039429 0.016571 0.007141
0.058686 0.023285 0.009247
0.083406 0.027893 0.011444
0.098360 0.033783 0.013306
0.114565 0.037690 0.015106
0.133761 0.042054 0.017487
0.159457 0.041352 0.019471
0.191989 0.034455 0.021759
0.234104 0.017090 0.022522
0.285710 0.000000 0.023346
0.345464 0.000000 0.022461
0.412421 0.000000 0.018860
0.480995 0.000000 0.014466
0.546685 0.000000 0.008240
0.607721 0.000000 0.002869
0.667475 0.000000 0.000000
0.720912 0.000000 0.003418
0.763180 0.000000 0.016754
0.797757 0.000000 0.041108
0.825528 0.000000 0.083345
0.848325 0.000000 0.109102
0.867063 0.105623 0.136934
0.882628 0.189059 0.167666
0.895689 0.250553 0.202060
0.906310 0.305913 0.240787
0.914458 0.358038 0.284062
0.919982 0.408026 0.331365
0.000275 0.002167 0.000824
0.000275 0.002167 0.000824
0.004517 0.003906 0.001648
0.014008 0.006165 0.002258
0.024720 0.011597 0.004700
0.038727 0.017762 0.006989
0.058686 0.023285 0.009247
0.082948 0.029084 0.011292
0.098360 0.033783 0.013306
0.113527 0.038117 0.015137
0.132479 0.042725 0.017517
0.157412 0.042695 0.019532
0.189883 0.036225 0.021851
0.231205 0.019226 0.022797
0.281621 0.000000 0.023865
0.340734 0.000000 0.021973
0.407294 0.000000 0.018494
0.475654 0.000000 0.014405
0.541772 0.000000 0.008545
0.603143 0.000000 0.003388
0.662348 0.000000 0.000000
0.715328 0.000000 0.001953
0.757412 0.000000 0.013550
0.792294 0.000000 0.035218
0.820676 0.000000 0.074525
0.844144 0.000000 0.104463
0.863645 0.074769 0.131136
0.879820 0.176577 0.161196
0.893431 0.240635 0.195651
0.904662 0.296788 0.233829
0.913268 0.350042 0.277073
0.919280 0.400824 0.324193
0.001373 0.008728 0.002167
0.003052 0.008484 0.003296
0.006317 0.009247 0.003143
0.015106 0.012726 0.003632
0.024537 0.017151 0.006226
0.039246 0.022126 0.008637
0.059510 0.027649 0.009766
0.083925 0.032258 0.011963
0.098207 0.037171 0.014008
0.113924 0.041291 0.015808
0.132815 0.045869 0.018189
0.158083 0.045655 0.019043
0.189883 0.039612 0.021393
0.230686 0.024262 0.023346
0.280766 0.000000 0.023316
0.339574 0.000000 0.022431
0.405371 0.000000 0.019043
0.473610 0.000000 0.014679
0.539788 0.000000 0.007752
0.601099 0.000000 0.002502
0.660700 0.000000 0.000000
0.712856 0.000000 0.000763
0.754788 0.000000 0.011078
0.789700 0.000000 0.034516
0.818265 0.000000 0.072175
0.841917 0.000000 0.102022
0.861631 0.071412 0.128725
0.878141 0.174777 0.159365
0.892058 0.238437 0.193057
0.903471 0.294835 0.231540
0.912352 0.347601 0.273960
0.918547 0.398383 0.321141
0.005646 0.020386 0.007263
0.007630 0.020142 0.007263
0.008606 0.021118 0.008240
0.011841 0.024048 0.010040
0.023194 0.029480 0.010224
0.042206 0.031830 0.009522
0.063569 0.034943 0.012055
0.086641 0.039551 0.013153
0.100313 0.044251 0.015167
0.115450 0.049561 0.016815
0.134676 0.052735 0.018219
0.160189 0.052033 0.020203
0.191928 0.046784 0.022370
0.232395 0.032410 0.023011
0.282414 0.002197 0.023804
0.339910 0.000000 0.022675
0.404852 0.000000 0.019074
0.472114 0.000000 0.013703
0.537285 0.000000 0.007599
0.597711 0.000000 0.001251
0.657130 0.000000 0.000000
0.707820 0.000000 0.000092
0.749660 0.000000 0.009552
0.785183 0.000000 0.029969
0.814694 0.000000 0.066163
0.839261 0.000000 0.100862
0.859800 0.095094 0.128176
0.876799 0.181735 0.158541
0.890990 0.243473 0.193057
0.902556 0.298528 0.231388
0.911376 0.350347 0.274357
0.917662 0.399359 0.320165
0.011505 0.035187 0.013062
0.010773 0.036378 0.012909
0.014466 0.035920 0.014008
0.016693 0.037903 0.014832
0.022889 0.041566 0.017609
0.039063 0.048737 0.016297
0.067292 0.051179 0.015412
0.088960 0.051209 0.015991
0.101961 0.055909 0.016876
0.117922 0.060792 0.017365
0.137881 0.063264 0.019867
0.162905 0.063569 0.021698
0.194980 0.058595 0.023682
0.235813 0.045319 0.023987
0.285100 0.019440 0.024170
0.343328 0.000000 0.022339
0.408179 0.000000 0.017884
0.474983 0.000000 0.012726
0.539208 0.000000 0.006226
0.599115 0.000000 0.000122
0.658289 0.000000 0.000000
0.707607 0.000000 0.000000
0.748470 0.000000 0.008881
0.783871 0.000000 0.029725
0.813382 0.000000 0.068086
0.838071 0.000000 0.102327
0.858549 0.123903 0.129274
0.875456 0.195743 0.160250
0.889586 0.252842 0.194522
0.901061 0.305425 0.232731
0.910002 0.355169 0.275090
0.916320 0.402930 0.320623
0.015595 0.052399 0.019654
0.014893 0.053590 0.019501
0.018555 0.053132 0.020630
0.022797 0.054871 0.021424
0.029999 0.057374 0.023224
0.039734 0.063996 0.026642
0.062409 0.074830 0.026978
0.092164 0.078737 0.022187
0.106722 0.076387 0.021668
0.122927 0.077424 0.021485
0.143435 0.079438 0.022675
0.169772 0.079255 0.023133
0.202701 0.077333 0.024445
0.244419 0.066468 0.024994
0.294621 0.042908 0.024079
0.352605 0.000000 0.021210
0.417182 0.000000 0.016510
0.483314 0.000000 0.009857
0.546441 0.000000 0.004211
0.607385 0.000000 0.000000
0.663905 0.000000 0.000000
0.711452 0.000000 0.000000
0.781521 0.000000 0.029694
0.811734 0.000000 0.071534
0.836210 0.074952 0.103487
0.856138 0.161654 0.131716
0.872435 0.217411 0.161990
0.885985 0.266697 0.195041
0.897185 0.313115 0.230869
0.905974 0.358007 0.270603
0.912566 0.401251 0.312749
0.917113 0.442267 0.356786
0.022065 0.078859 0.029419
0.022065 0.078859 0.029419
0.025727 0.078584 0.030518
0.030976 0.078920 0.030365
0.038911 0.079713 0.032288
0.049592 0.084443 0.036683
0.066224 0.089204 0.043030
0.090364 0.095918 0.044343
0.112184 0.099123 0.037263
0.134981 0.097841 0.032532
0.157687 0.094820 0.030304
0.186679 0.094759 0.029999
0.223026 0.094148 0.028840
0.267552 0.090333 0.027649
0.319677 0.078340 0.023346
0.379248 0.034058 0.017914
0.442817 0.000000 0.011810
0.505974 0.000000 0.004242
0.566674 0.000000 0.000000
0.630152 0.000000 0.000000
0.685725 0.000000 0.000000
0.732357 0.000000 0.002106
0.772000 0.000000 0.022095
0.804593 0.000000 0.062989
0.830961 0.126650 0.102144
0.851835 0.186435 0.131624
0.868650 0.234226 0.161929
0.882414 0.278843 0.194583
0.893797 0.322332 0.230716
0.902770 0.364508 0.269902
0.909636 0.405737 0.311681
0.914488 0.445258 0.355108
0.031189 0.092805 0.041260
0.032166 0.093172 0.042237
0.036133 0.092988 0.042237
0.041077 0.093202 0.043183
0.049989 0.093233 0.044129
0.062409 0.095033 0.047700
0.076905 0.099397 0.053590
0.090425 0.104799 0.063203
0.108064 0.115145 0.068513
0.136019 0.120089 0.055818
0.169711 0.120790 0.046174
0.199771 0.116823 0.040650
0.235355 0.110567 0.036316
0.280125 0.109346 0.033631
0.332738 0.103761 0.028992
0.390814 0.091585 0.021942
0.452979 0.048219 0.014069
0.514000 0.000000 0.003296
0.577325 0.000000 0.000000
0.636408 0.000000 0.000000
0.687953 0.000000 0.000000
0.732021 0.000000 0.000000
0.769986 0.009125 0.022095
0.801755 0.120699 0.067079
0.827634 0.171878 0.104982
0.848417 0.216770 0.134279
0.865080 0.257725 0.165316
0.878904 0.297673 0.198337
0.890379 0.337224 0.233982
0.899474 0.376837 0.272923
0.906615 0.415290 0.313878
0.911711 0.452827 0.357122
0.040467 0.106874 0.057801
0.040467 0.106874 0.057801
0.044434 0.106752 0.057771
0.051392 0.106844 0.058717
0.059297 0.107210 0.060670
0.073457 0.107424 0.061433
0.085664 0.111635 0.068116
0.095827 0.118013 0.076814
0.109438 0.126314 0.086580
0.133242 0.140871 0.093538
0.169375 0.149081 0.082216
0.214939 0.152255 0.064240
0.257603 0.148226 0.051972
0.300572 0.139101 0.041840
0.350591 0.129366 0.033509
0.408148 0.122591 0.026459
0.468055 0.111818 0.019593
0.530358 0.098146 0.010712
0.590692 0.079591 0.003296
0.644923 0.060700 0.000000
0.692622 0.080354 0.000000
0.733944 0.109377 0.005280
0.770047 0.142336 0.026764
0.800381 0.178500 0.078004
0.825406 0.214847 0.110719
0.845609 0.250431 0.139559
0.861997 0.285771 0.171603
0.875639 0.321202 0.204623
0.886961 0.357336 0.240848
0.896086 0.393439 0.279271
0.903197 0.429236 0.320256
0.908415 0.464424 0.363256
0.046937 0.124666 0.077913
0.047974 0.124361 0.076936
0.050935 0.124544 0.077913
0.056184 0.124666 0.077729
0.068788 0.124575 0.079164
0.081575 0.124453 0.079744
0.091524 0.126253 0.082368
0.102388 0.132967 0.089143
0.116640 0.141970 0.095705
0.135653 0.153811 0.104891
0.168032 0.174716 0.116548
0.214237 0.186954 0.104250
0.270054 0.192691 0.091096
0.328222 0.189853 0.071229
0.377966 0.178653 0.054688
0.428992 0.161379 0.039307
0.489662 0.153109 0.029908
0.549584 0.149142 0.025177
0.605158 0.147402 0.020569
0.655268 0.150698 0.019471
0.698817 0.160861 0.024628
0.736629 0.177249 0.037995
0.769650 0.199435 0.064729
0.797910 0.224582 0.092927
0.821653 0.251713 0.115145
0.841245 0.281071 0.145205
0.857450 0.311620 0.176150
0.871122 0.343420 0.210056
0.882536 0.376440 0.246586
0.891844 0.410193 0.285863
0.899199 0.443793 0.326909
0.904753 0.476753 0.369543
0.049409 0.145907 0.092470
0.052094 0.145632 0.092531
0.054078 0.145571 0.092531
0.062989 0.145602 0.092866
0.077882 0.145480 0.093233
0.088960 0.145693 0.094240
0.098207 0.145571 0.094881
0.109133 0.150637 0.099184
0.124453 0.160555 0.106294
0.145449 0.173739 0.115938
0.172213 0.190707 0.128420
0.216159 0.219791 0.146700
0.273716 0.236545 0.132082
0.339269 0.243809 0.115145
0.411688 0.244175 0.097658
0.467048 0.233829 0.086976
0.518669 0.217411 0.068086
0.567254 0.197360 0.047883
0.617853 0.200259 0.050050
0.663600 0.206485 0.054841
0.703670 0.216922 0.069306
0.738643 0.230961 0.087831
0.769650 0.249638 0.100893
0.796262 0.270695 0.118166
0.818875 0.293767 0.138033
0.838071 0.317723 0.159609
0.853910 0.343420 0.187930
0.867277 0.371618 0.221866
0.878538 0.401129 0.258244
0.887755 0.431617 0.296971
0.895140 0.462165 0.337713
0.900786 0.492561 0.379980
0.051331 0.172457 0.106600
0.053010 0.172396 0.106935
0.058991 0.172305 0.106935
0.069886 0.172274 0.107210
0.085176 0.171939 0.107515
0.095613 0.171847 0.108431
0.106294 0.171572 0.109590
0.118074 0.171359 0.110689
0.134920 0.182650 0.118166
0.156710 0.197421 0.128511
0.185641 0.215946 0.141756
0.222690 0.239506 0.159243
0.306096 0.299413 0.200198
0.380713 0.326390 0.189609
0.454994 0.336400 0.170047
0.524163 0.336553 0.150637
0.579675 0.327794 0.135042
0.622614 0.311528 0.124178
0.661219 0.293584 0.114595
0.697078 0.283970 0.111788
0.730648 0.295232 0.122377
0.759731 0.308782 0.134524
0.785092 0.324224 0.150027
0.806882 0.341436 0.167178
0.825620 0.359808 0.187350
0.841581 0.379065 0.208774
0.855406 0.398810 0.231083
0.867552 0.419745 0.256626
0.877287 0.443763 0.291447
0.885496 0.468544 0.328038
0.891997 0.494179 0.366583
0.897154 0.520226 0.406287
0.048432 0.211002 0.126925
0.049409 0.211124 0.127169
0.058045 0.210880 0.127199
0.074098 0.210269 0.127291
0.090486 0.209415 0.127382
0.102693 0.208560 0.127718
0.116457 0.207401 0.128359
0.130556 0.206332 0.129152
0.147524 0.210666 0.133455
0.172763 0.228763 0.145541
0.207156 0.252293 0.162234
0.251774 0.281956 0.184543
0.307836 0.317845 0.213230
0.382391 0.367315 0.252018
0.455207 0.396857 0.248661
0.521141 0.405829 0.228000
0.580560 0.405921 0.208011
0.632074 0.398993 0.188693
0.667292 0.383917 0.176974
0.699092 0.368048 0.166354
0.728420 0.350622 0.157015
0.755428 0.351476 0.162478
0.779629 0.364599 0.176699
0.800595 0.379431 0.194461
0.818936 0.394873 0.212711
0.834714 0.411414 0.233677
0.848508 0.428962 0.255894
0.860746 0.447547 0.280522
0.871702 0.466682 0.306004
0.880247 0.488838 0.340948
0.887114 0.511925 0.378485
0.892424 0.535821 0.417426
0.045808 0.250034 0.147646
0.047486 0.250004 0.147860
0.058625 0.249302 0.147372
0.079500 0.248783 0.147646
0.094423 0.248447 0.148074
0.110658 0.247288 0.148409
0.127016 0.246403 0.149264
0.143862 0.245457 0.150057
0.161837 0.244083 0.151339
0.187137 0.258396 0.161746
0.222171 0.282628 0.179324
0.266850 0.312078 0.201694
0.321172 0.346593 0.230442
0.382269 0.384405 0.265415
0.452705 0.431525 0.309209
0.516991 0.460945 0.314183
0.571862 0.468360 0.292943
0.620905 0.468269 0.272465
0.664851 0.462989 0.252750
0.698177 0.450813 0.237613
0.725551 0.436469 0.226261
0.751064 0.422004 0.216678
0.774624 0.407324 0.209567
0.794949 0.417884 0.224674
0.812680 0.431281 0.243198
0.828122 0.445319 0.262943
0.841642 0.460792 0.285283
0.853880 0.476448 0.308110
0.864836 0.493324 0.333043
0.874601 0.510948 0.359289
0.881895 0.531212 0.393561
0.887419 0.553063 0.431495
0.054292 0.298283 0.174746
0.056550 0.298405 0.174868
0.071077 0.297673 0.174533
0.089601 0.296330 0.174014
0.106081 0.294743 0.173983
0.122499 0.292882 0.173800
0.140932 0.291051 0.174258
0.159762 0.288975 0.174533
0.179171 0.286748 0.175113
0.200320 0.287297 0.177676
0.235904 0.311620 0.195621
0.280522 0.340612 0.218753
0.333501 0.373297 0.247471
0.390814 0.408392 0.281559
0.449256 0.444709 0.320623
0.511192 0.486915 0.364996
0.565698 0.515648 0.377508
0.610254 0.522026 0.357641
0.651331 0.522026 0.337835
0.688533 0.517144 0.318853
0.719844 0.508629 0.302831
0.743679 0.496742 0.292241
0.766171 0.484474 0.283146
0.787228 0.472602 0.275517
0.806149 0.466346 0.275303
0.821164 0.478279 0.295140
0.834714 0.491310 0.315862
0.846921 0.505364 0.338384
0.858000 0.520317 0.362219
0.867765 0.536400 0.388128
0.876310 0.553399 0.415717
0.882414 0.572930 0.450141
0.090852 0.345861 0.203555
0.092805 0.346014 0.203769
0.099519 0.344976 0.203342
0.110262 0.344427 0.203403
0.124788 0.342901 0.203159
0.142519 0.341009 0.202976
0.161166 0.338994 0.202853
0.181033 0.336858 0.203006
0.201755 0.334508 0.203708
0.222751 0.331701 0.204288
0.251377 0.341527 0.213504
0.295537 0.368780 0.236728
0.345434 0.398596 0.264439
0.398749 0.430121 0.296941
0.452522 0.462654 0.333288
0.503990 0.495064 0.371862
0.555840 0.531487 0.414435
0.601923 0.559594 0.433814
0.639094 0.565240 0.415717
0.673396 0.565362 0.398444
0.705074 0.561913 0.382513
0.734340 0.556085 0.367468
0.756435 0.547143 0.357916
0.776394 0.537530 0.350591
0.795193 0.528313 0.344305
0.812955 0.519554 0.340215
0.828000 0.521843 0.349218
0.840146 0.533959 0.370611
0.851041 0.547051 0.393286
0.860807 0.561089 0.417487
0.869322 0.575921 0.443000
0.876616 0.591760 0.469764
0.129580 0.390570 0.234012
0.131685 0.390387 0.234043
0.136233 0.389593 0.233555
0.144137 0.388830 0.233677
0.156649 0.387366 0.233158
0.171267 0.385443 0.232944
0.188327 0.383215 0.232761
0.207675 0.380804 0.232670
0.226841 0.377935 0.232547
0.247135 0.374792 0.232517
0.267002 0.370642 0.232151
0.306340 0.391211 0.251469
0.354376 0.419409 0.278813
0.405097 0.449042 0.310582
0.455695 0.479011 0.344884
0.504814 0.509178 0.381811
0.549645 0.538598 0.420142
0.592462 0.570336 0.460578
0.631647 0.597589 0.485603
0.661891 0.602167 0.469886
0.691066 0.602533 0.455421
0.718410 0.600458 0.442390
0.743862 0.596216 0.430549
0.765499 0.589929 0.421271
0.783413 0.582483 0.415351
0.800443 0.575738 0.410986
0.816861 0.569360 0.408026
0.832517 0.563714 0.406653
0.844083 0.572503 0.424292
0.853788 0.585016 0.447028
0.862272 0.598474 0.471107
0.869718 0.612604 0.495857
0.179599 0.432929 0.267185
0.181186 0.433265 0.267796
0.203555 0.448371 0.281285
0.209201 0.447242 0.280644
0.218173 0.445686 0.280156
0.228733 0.443946 0.279759
0.242618 0.441230 0.278752
0.257816 0.437934 0.277592
0.274601 0.434333 0.276371
0.292180 0.430274 0.275425
0.310124 0.425910 0.274357
0.333165 0.426795 0.278294
0.379156 0.452705 0.306096
0.427344 0.479835 0.337316
0.474434 0.507195 0.370428
0.519432 0.534142 0.405585
0.560052 0.560296 0.441291
0.595789 0.585504 0.476600
0.629175 0.611414 0.512596
0.660121 0.635523 0.540459
0.684260 0.639124 0.527337
0.708034 0.639765 0.515496
0.730861 0.637964 0.504479
0.752743 0.634730 0.494514
0.773617 0.630243 0.484840
0.789517 0.623987 0.479316
0.804776 0.618250 0.475166
0.819638 0.613031 0.472389
0.833799 0.608942 0.471992
0.846830 0.607721 0.475898
0.855344 0.619623 0.498024
0.862821 0.632441 0.520897
0.236912 0.476356 0.306371
0.239048 0.477485 0.307683
0.243107 0.478431 0.308598
0.249241 0.478859 0.309545
0.257206 0.478492 0.309972
0.266117 0.476936 0.309331
0.277165 0.474281 0.307958
0.289921 0.471229 0.306828
0.304051 0.467994 0.305730
0.318669 0.463600 0.303899
0.334691 0.459327 0.302495
0.350317 0.454047 0.300420
0.382422 0.465370 0.314946
0.427649 0.490730 0.344396
0.473335 0.516716 0.376898
0.516747 0.542290 0.410590
0.556268 0.567193 0.445167
0.591882 0.591608 0.479713
0.622766 0.614405 0.513573
0.650416 0.636927 0.547387
0.677241 0.660426 0.578851
0.697932 0.664515 0.568811
0.718532 0.665980 0.559655
0.738827 0.665370 0.550896
0.758297 0.663508 0.542931
0.777310 0.660426 0.535180
0.793271 0.656367 0.530053
0.807248 0.652277 0.527520
0.820798 0.648859 0.526726
0.833799 0.646387 0.527794
0.846128 0.645228 0.531395
0.855985 0.650233 0.543572
0.281285 0.508171 0.337285
0.283635 0.509514 0.338811
0.287419 0.510399 0.340002
0.292668 0.510979 0.340978
0.299138 0.510521 0.341253
0.306371 0.509117 0.340673
0.315251 0.507012 0.339818
0.325536 0.504082 0.338323
0.336950 0.500877 0.336858
0.349493 0.496681 0.334569
0.362646 0.492256 0.332311
0.376287 0.487190 0.329961
0.389837 0.481270 0.326757
0.431556 0.503288 0.353918
0.475410 0.527825 0.385046
0.517021 0.551965 0.417670
0.555413 0.575799 0.451331
0.589960 0.599023 0.484901
0.620264 0.620752 0.517815
0.646387 0.640925 0.549889
0.669276 0.660304 0.580774
0.692531 0.682673 0.612787
0.710445 0.687160 0.605249
0.728573 0.689296 0.598230
0.746365 0.689723 0.591547
0.763851 0.688930 0.585382
0.780850 0.687221 0.579797
0.796719 0.684901 0.575525
0.809384 0.682338 0.574884
0.821683 0.680537 0.575799
0.833555 0.679561 0.578363
0.844785 0.679652 0.582879
0.325719 0.538628 0.369635
0.327703 0.539605 0.370733
0.330510 0.540398 0.371679
0.335027 0.540642 0.372442
0.339879 0.540124 0.372473
0.345556 0.538933 0.371893
0.352544 0.536950 0.370794
0.360815 0.534295 0.369116
0.370153 0.531060 0.367193
0.380591 0.527367 0.365057
0.391760 0.523125 0.362402
0.403357 0.518364 0.359686
0.415076 0.512810 0.356390
0.435828 0.515312 0.362463
0.478035 0.538628 0.393042
0.518486 0.561822 0.425177
0.556085 0.585107 0.458473
0.589990 0.607507 0.491676
0.620050 0.628717 0.524712
0.645991 0.648432 0.556664
0.668513 0.666896 0.587091
0.688075 0.684230 0.614984
0.708949 0.704952 0.643854
0.724880 0.710903 0.641413
0.740658 0.713802 0.636744
0.756344 0.715084 0.632227
0.771725 0.715297 0.628229
0.786679 0.714900 0.625147
0.801358 0.714168 0.622827
0.813413 0.713130 0.623316
0.824369 0.712642 0.625696
0.834958 0.712856 0.629450
0.377935 0.572381 0.408209
0.378912 0.572747 0.408850
0.380529 0.572900 0.409186
0.382513 0.572473 0.408942
0.385748 0.571405 0.408179
0.389685 0.569757 0.406928
0.394690 0.567834 0.405707
0.400885 0.565393 0.403784
0.408209 0.562371 0.401556
0.416876 0.559045 0.399512
0.425757 0.555200 0.396582
0.435492 0.550713 0.393591
0.445319 0.545739 0.390173
0.454963 0.539788 0.385840
0.485267 0.552300 0.404486
0.523980 0.574426 0.435981
0.559960 0.596551 0.468360
0.592309 0.617456 0.500725
0.621057 0.637171 0.532372
0.646082 0.655573 0.563348
0.667750 0.672694 0.592096
0.686610 0.688746 0.618433
0.703365 0.703883 0.642084
0.722072 0.722499 0.666865
0.736263 0.729091 0.667964
0.750179 0.732021 0.664363
0.764157 0.733761 0.661250
0.777951 0.734737 0.658900
0.791531 0.735225 0.657252
0.804807 0.735409 0.656550
0.816770 0.735500 0.657374
0.826780 0.735775 0.660548
0.416419 0.597436 0.438514
0.417243 0.597650 0.438880
0.418463 0.597559 0.438880
0.420386 0.597314 0.438972
0.422889 0.596460 0.438331
0.425910 0.595178 0.437324
0.429938 0.593225 0.435645
0.434730 0.590875 0.433692
0.440467 0.588312 0.431586
0.447608 0.585260 0.429328
0.454780 0.581689 0.426429
0.462959 0.577722 0.423346
0.471138 0.573175 0.419806
0.479652 0.567864 0.415686
0.488350 0.562463 0.411444
0.526299 0.584070 0.442878
0.561608 0.605432 0.475135
0.593133 0.625483 0.507012
0.621546 0.644526 0.538659
0.646204 0.662257 0.569116
0.667659 0.678706 0.597284
0.686580 0.694301 0.623163
0.703273 0.709102 0.646326
0.718349 0.722927 0.667140
0.733455 0.737575 0.686732
0.746212 0.744747 0.690791
0.758724 0.747951 0.688258
0.771359 0.750118 0.686336
0.783932 0.751644 0.685145
0.796231 0.752834 0.684871
0.808347 0.753841 0.685451
0.820096 0.754910 0.686946
0.456947 0.623285 0.471901
0.457862 0.623682 0.472389
0.458686 0.623621 0.472419
0.459724 0.622950 0.471839
0.461067 0.621942 0.470710
0.462776 0.620325 0.469093
0.465187 0.618402 0.467079
0.468299 0.616022 0.464729
0.472236 0.613123 0.461860
0.476905 0.609949 0.458839
0.482307 0.606409 0.455451
0.488411 0.602411 0.451881
0.494850 0.597986 0.447913
0.501457 0.592706 0.443000
0.507958 0.586938 0.437781
0.526055 0.590967 0.446052
0.560113 0.611139 0.477485
0.591363 0.630518 0.509026
0.619257 0.648768 0.540154
0.644160 0.666102 0.570672
0.665705 0.682277 0.598749
0.684749 0.697566 0.624353
0.701595 0.712001 0.647364
0.716640 0.725399 0.667811
0.730037 0.737819 0.686671
0.744717 0.752377 0.706508
0.756130 0.759762 0.712581
0.767208 0.762905 0.710842
0.778531 0.765286 0.709743
0.789792 0.767269 0.709590
0.801022 0.768978 0.710231
0.811978 0.770687 0.711849
0.486030 0.642206 0.497383
0.486702 0.642542 0.497841
0.487556 0.642603 0.498116
0.488563 0.642176 0.497627
0.489693 0.641382 0.496651
0.491371 0.640253 0.495521
0.493843 0.638911 0.494209
0.496742 0.637110 0.492287
0.500298 0.635035 0.490211
0.504295 0.632471 0.487556
0.509148 0.629633 0.484779
0.514275 0.626429 0.481544
0.519432 0.622400 0.477302
0.525109 0.618006 0.472877
0.530602 0.612818 0.467536
0.536248 0.607111 0.461677
0.562554 0.620050 0.483772
0.593164 0.638636 0.515190
0.620722 0.656245 0.546349
0.645075 0.672816 0.576287
0.666621 0.688502 0.604150
0.685481 0.703456 0.629267
0.702327 0.717586 0.651911
0.717372 0.730831 0.672450
0.730861 0.742977 0.691249
0.742947 0.754208 0.708553
0.756069 0.767178 0.726406
0.766354 0.774685 0.734157
0.776333 0.777981 0.733455
0.786465 0.780728 0.733425
0.796567 0.783108 0.734218
0.806638 0.785275 0.735714
0.516228 0.661616 0.524895
0.516594 0.661799 0.525292
0.517144 0.661738 0.525292
0.517662 0.661311 0.524743
0.518761 0.660670 0.524102
0.520012 0.659663 0.522789
0.521508 0.658412 0.521263
0.523522 0.656733 0.519249
0.526177 0.654841 0.517082
0.529412 0.652766 0.514763
0.533135 0.650141 0.511864
0.537102 0.647181 0.508415
0.541405 0.643915 0.504753
0.546044 0.640040 0.500420
0.550561 0.635431 0.495064
0.555291 0.630365 0.489296
0.563378 0.627649 0.487495
0.593927 0.645686 0.519310
0.621302 0.662745 0.550591
0.645655 0.678859 0.580591
0.667018 0.694118 0.608026
0.686000 0.708797 0.633143
0.702754 0.722591 0.655482
0.717830 0.735531 0.675868
0.731289 0.747402 0.694606
0.743343 0.758267 0.711757
0.754177 0.768338 0.727443
0.765835 0.779660 0.743191
0.775296 0.787106 0.752010
0.784390 0.790555 0.752163
0.793545 0.793545 0.752926
0.802670 0.796201 0.754360
0.542840 0.678859 0.550530
0.543145 0.678981 0.550774
0.543572 0.678950 0.550835
0.544213 0.678614 0.550469
0.545068 0.678126 0.549828
0.546410 0.677638 0.549248
0.548333 0.676936 0.548516
0.550713 0.676051 0.547509
0.553857 0.675166 0.546685
0.557183 0.673945 0.545373
0.561089 0.672480 0.543664
0.565057 0.670680 0.541619
0.569207 0.668421 0.538811
0.573449 0.665705 0.535546
0.577508 0.662226 0.530999
0.581720 0.658228 0.526055
0.585626 0.653559 0.519890
0.602014 0.659174 0.532219
0.629023 0.675532 0.564050
0.652735 0.691035 0.593744
0.673518 0.705867 0.620661
0.692042 0.720058 0.645075
0.708400 0.733303 0.666743
0.723110 0.745632 0.686793
0.736233 0.756893 0.705135
0.747982 0.767208 0.721736
0.758511 0.776608 0.736843
0.768002 0.785214 0.750393
0.778042 0.794675 0.763699
0.786374 0.801633 0.772549
0.794278 0.804929 0.773159
0.802274 0.807919 0.774472
0.574945 0.699763 0.582910
0.575097 0.699763 0.582971
0.575189 0.699641 0.582757
0.575494 0.699275 0.582361
0.575891 0.698726 0.581537
0.576562 0.698024 0.580529
0.577630 0.697139 0.579370
0.578882 0.696071 0.577874
0.580743 0.694911 0.576410
0.582635 0.693416 0.574365
0.585138 0.691798 0.572290
0.587671 0.689845 0.569543
0.590661 0.687648 0.566644
0.593591 0.684962 0.562768
