20 Preset/Rover Style/【3】LUT video cho PR-AE-FCPX/Rover 04 .cube
# Created by Adobe Lightroom plugin Export LUT (1.24.0)
# www.johnrellis.com/lightroom/exportlut.htm
# Preset: Rover 04 
# Color profile: E:\lut插件\exportlut.1.24\exportlut.lrplugin\color profiles\Rec709gamma2.4.icc
LUT_3D_SIZE 8
DOMAIN_MIN 0.000000 0.000000 0.000000
DOMAIN_MAX 0.903226 0.903226 0.903226
0.000000 0.000000 0.000000
0.013092 0.006165 0.005676
0.087251 0.018036 0.018311
0.195956 0.000000 0.026520
0.430213 0.000000 0.024994
0.674525 0.000000 0.004730
0.822263 0.000000 0.036011
0.896391 0.000000 0.145541
0.000031 0.031678 0.022766
0.008911 0.033936 0.025666
0.096315 0.041962 0.023621
0.209415 0.017121 0.029267
0.438941 0.000000 0.022370
0.674556 0.000000 0.000488
0.817136 0.000000 0.032532
0.892271 0.000000 0.145235
0.021485 0.127321 0.086488
0.042298 0.130648 0.085725
0.114534 0.135042 0.092164
0.294713 0.153414 0.025391
0.512505 0.057710 0.000000
0.708736 0.000000 0.000000
0.826596 0.113741 0.056336
0.888273 0.269413 0.178378
0.134554 0.333349 0.188144
0.155825 0.335729 0.186374
0.240879 0.348516 0.183536
0.354528 0.354406 0.210819
0.580011 0.403143 0.147341
0.738094 0.355657 0.000000
0.822995 0.369970 0.125246
0.872404 0.424903 0.237797
0.418860 0.546868 0.370916
0.426337 0.547387 0.370153
0.460792 0.551080 0.367926
0.525536 0.553918 0.374029
0.584100 0.549676 0.395117
0.688380 0.575433 0.368597
0.790646 0.561547 0.307958
0.849943 0.546471 0.329656
0.594537 0.653071 0.533288
0.599023 0.654749 0.535576
0.609247 0.655848 0.534722
0.630030 0.658076 0.533043
0.658961 0.656428 0.539452
0.685481 0.654383 0.552392
0.735042 0.671321 0.553521
0.803037 0.676326 0.531365
0.682399 0.716640 0.647333
0.683467 0.717037 0.647578
0.686976 0.717464 0.646906
0.694728 0.718563 0.646052
0.707301 0.719631 0.645014
0.722835 0.718471 0.650660
0.737423 0.717952 0.658259
0.767056 0.731350 0.665919
0.736751 0.769833 0.729824
0.737148 0.769924 0.729793
0.739284 0.770474 0.729885
0.743862 0.771725 0.730312
0.749050 0.771359 0.727443
0.759823 0.772793 0.729915
0.771633 0.773373 0.735378
0.782681 0.774075 0.741299
0.000000 0.004089 0.022065
0.007752 0.010712 0.022095
0.086641 0.022370 0.025635
0.197330 0.014984 0.029236
0.427283 0.000000 0.023407
0.667109 0.000000 0.002197
0.812131 0.000000 0.028565
0.890318 0.000000 0.138430
0.000000 0.034821 0.034791
0.012268 0.040986 0.038209
0.097597 0.049989 0.039368
0.214939 0.031617 0.035370
0.442603 0.000000 0.019867
0.672724 0.000000 0.000000
0.810819 0.000000 0.025635
0.887419 0.000000 0.139803
0.041291 0.128389 0.098848
0.059815 0.133669 0.098787
0.120180 0.140139 0.103822
0.294011 0.149722 0.061036
0.509056 0.094392 0.000122
0.700954 0.000000 0.000000
0.817136 0.116457 0.037507
0.883513 0.260960 0.168246
0.159823 0.327947 0.202884
0.170718 0.331792 0.199741
0.244205 0.345495 0.196262
0.348058 0.347295 0.217166
0.567651 0.389563 0.157717
0.726009 0.338872 0.038300
0.815366 0.358770 0.107668
0.869047 0.414527 0.224216
0.426856 0.543755 0.380163
0.429419 0.544274 0.376837
0.460365 0.547173 0.373266
0.521233 0.549310 0.375708
0.578332 0.543908 0.394263
0.684565 0.570062 0.367651
0.787564 0.556237 0.310765
0.848539 0.541802 0.320897
0.593133 0.650538 0.533440
0.595605 0.650874 0.533349
0.605798 0.652216 0.532586
0.627100 0.654963 0.531731
0.656886 0.654139 0.538415
0.684077 0.652857 0.552453
0.734127 0.669856 0.552972
0.802243 0.674281 0.530327
0.680842 0.714717 0.645930
0.681392 0.714595 0.645319
0.684840 0.714992 0.644526
0.692744 0.716365 0.644038
0.705959 0.718196 0.643763
0.721584 0.717006 0.649409
0.736019 0.716152 0.656275
0.765866 0.729488 0.663355
0.735500 0.768490 0.728542
0.736263 0.768826 0.728878
0.738277 0.769345 0.728878
0.742855 0.770626 0.729366
0.750088 0.772366 0.729671
0.760189 0.773220 0.731014
0.771450 0.773251 0.735561
0.782528 0.773861 0.741360
0.000000 0.014954 0.071382
0.007446 0.019165 0.072847
0.078248 0.034333 0.081117
0.215427 0.000000 0.095705
0.454353 0.000000 0.084657
0.682918 0.000000 0.058747
0.817533 0.000000 0.033234
0.890318 0.128206 0.150637
0.000000 0.045411 0.091035
0.014282 0.050935 0.091890
0.094636 0.069734 0.095918
0.235904 0.022583 0.102388
0.468330 0.000000 0.093874
0.687404 0.000000 0.076783
0.815915 0.000000 0.030152
0.887724 0.169986 0.152865
0.011200 0.139345 0.134005
0.051118 0.143954 0.136294
0.147829 0.162600 0.145571
0.313848 0.160739 0.137575
0.530694 0.134585 0.125826
0.710475 0.129885 0.112612
0.818845 0.197787 0.102632
0.882231 0.294774 0.178012
0.213016 0.336278 0.251194
0.230655 0.342107 0.254459
0.287724 0.362280 0.259190
0.382422 0.370886 0.269505
0.593896 0.394110 0.223819
0.727504 0.368170 0.191806
0.813016 0.391730 0.197452
0.868589 0.431037 0.236667
0.454994 0.544274 0.416236
0.462440 0.545617 0.416999
0.487770 0.551568 0.416541
0.538079 0.558190 0.414771
0.590631 0.554162 0.430549
0.691707 0.576226 0.403845
0.785519 0.557794 0.357977
0.844297 0.553552 0.359014
0.604639 0.650141 0.552667
0.607630 0.650721 0.553338
0.614984 0.652583 0.551873
0.632593 0.655146 0.550286
0.659815 0.655512 0.553582
0.685542 0.654475 0.565850
0.735409 0.671382 0.564721
0.802731 0.675105 0.545068
0.685725 0.715297 0.655421
0.686488 0.715267 0.655177
0.688045 0.715724 0.652796
0.695003 0.716823 0.651911
0.707118 0.718746 0.650874
0.722744 0.718135 0.655756
0.737240 0.717830 0.662989
0.767910 0.731716 0.669490
0.737850 0.768673 0.733150
0.737972 0.768673 0.732784
0.738949 0.769284 0.731838
0.743587 0.770932 0.732692
0.750515 0.772610 0.732876
0.760769 0.774105 0.734096
0.772244 0.774166 0.738582
0.783230 0.774777 0.744167
0.000000 0.027741 0.140963
0.000000 0.030823 0.144167
0.085420 0.047486 0.154513
0.201694 0.049165 0.173037
0.452735 0.000000 0.209293
0.692103 0.000000 0.191958
0.815824 0.000000 0.195956
0.884581 0.214481 0.210849
0.000000 0.061952 0.165866
0.000000 0.066529 0.168032
0.099947 0.082307 0.175662
0.226566 0.090852 0.191012
0.475624 0.000000 0.221683
0.699245 0.000000 0.200931
0.815183 0.029145 0.207675
0.882322 0.248295 0.221500
0.000000 0.145632 0.226047
0.000000 0.148318 0.229007
0.148836 0.170596 0.238773
0.306889 0.198795 0.249607
0.544213 0.192477 0.264256
0.715969 0.218173 0.252201
0.814237 0.292485 0.260624
0.874601 0.356054 0.269474
0.150210 0.354040 0.322271
0.184543 0.357580 0.323522
0.287755 0.373571 0.331456
0.429786 0.403845 0.347723
0.599817 0.403326 0.334234
0.717769 0.416236 0.328801
0.799527 0.440833 0.331090
0.856107 0.470924 0.342321
0.492561 0.548394 0.464729
0.498573 0.549432 0.465675
0.523491 0.555169 0.470680
0.562463 0.567132 0.476509
0.607843 0.569238 0.482765
0.705348 0.581384 0.456855
0.781308 0.564416 0.430579
0.832364 0.577142 0.443915
0.620111 0.652613 0.581109
0.623804 0.654170 0.583215
0.632044 0.655604 0.584192
0.646235 0.659144 0.584527
0.667842 0.661860 0.583246
0.690089 0.659937 0.590936
0.739651 0.674830 0.585809
0.802090 0.674220 0.569177
0.689326 0.716060 0.667018
0.690364 0.716365 0.667353
0.694270 0.717250 0.667964
0.700191 0.719051 0.667353
0.710506 0.720974 0.666102
0.725338 0.721126 0.668055
0.739010 0.720302 0.673640
0.771267 0.734310 0.677760
0.739498 0.770016 0.739742
0.739986 0.770138 0.739803
0.742306 0.770687 0.740230
0.745510 0.772061 0.739742
0.751766 0.773587 0.739528
0.761563 0.775662 0.739528
0.773312 0.775662 0.743709
0.784573 0.776394 0.749203
0.000000 0.044617 0.271061
0.000000 0.047456 0.274998
0.000000 0.058289 0.286748
0.228946 0.067781 0.307317
0.434668 0.000000 0.331640
0.657893 0.043122 0.369268
0.804135 0.153994 0.364050
0.871427 0.305272 0.359716
0.000000 0.081392 0.294713
0.000000 0.083680 0.298192
0.000000 0.091920 0.307378
0.252323 0.107332 0.324102
0.454505 0.106203 0.346105
0.664240 0.152865 0.379339
0.802976 0.211063 0.372961
0.867887 0.334722 0.369818
0.000000 0.159762 0.354986
0.000000 0.163485 0.357549
0.134768 0.185245 0.364599
0.328130 0.219730 0.376898
0.512230 0.256260 0.391943
0.680446 0.302495 0.412268
0.795315 0.345159 0.402869
0.851591 0.428290 0.410559
0.000000 0.344549 0.427100
0.084474 0.347692 0.428565
0.243137 0.360388 0.435065
0.430396 0.403052 0.449104
0.575067 0.444709 0.460456
0.696559 0.466896 0.468666
0.779263 0.492744 0.460700
0.836027 0.515221 0.460121
0.426795 0.546838 0.508324
0.439429 0.548425 0.509361
0.484779 0.554345 0.513054
0.551812 0.565545 0.520409
0.621057 0.581323 0.531701
0.700984 0.581109 0.522911
0.765408 0.586084 0.518669
0.818814 0.595270 0.519066
0.621210 0.649500 0.599573
0.624994 0.650080 0.600671
0.638483 0.651637 0.603845
0.651850 0.654963 0.606744
0.670008 0.661067 0.609339
0.692866 0.663355 0.614252
0.747097 0.673610 0.604669
0.803189 0.666377 0.589349
0.692622 0.715724 0.680018
0.693172 0.715755 0.679866
0.695949 0.716304 0.679835
0.702907 0.718318 0.681178
0.712276 0.721096 0.681239
0.726101 0.723018 0.680232
0.739895 0.721706 0.684443
0.775631 0.734737 0.684108
0.738003 0.769100 0.744747
0.738552 0.769223 0.744808
0.740871 0.769772 0.745266
0.746304 0.771725 0.747189
0.752193 0.773739 0.747127
0.761196 0.775937 0.746761
0.773465 0.776638 0.749020
0.784878 0.776822 0.753628
0.000000 0.067750 0.434302
0.000000 0.069917 0.436835
0.000000 0.078981 0.445014
0.238224 0.090089 0.460334
0.466957 0.138186 0.481331
0.645563 0.190890 0.496895
0.763729 0.314855 0.514946
0.840665 0.402502 0.519341
0.000000 0.096620 0.444556
0.000000 0.098421 0.446296
0.000000 0.105745 0.453651
0.258488 0.123629 0.467659
0.477028 0.175479 0.485725
0.647486 0.228611 0.500542
0.760891 0.338781 0.517632
0.837766 0.416815 0.521965
0.000000 0.188357 0.487556
0.000000 0.191867 0.488533
0.118593 0.207401 0.493843
0.338079 0.239231 0.501457
0.524407 0.302983 0.513878
0.661189 0.356237 0.524804
0.754360 0.431952 0.539025
0.827237 0.480354 0.541497
0.000000 0.338689 0.530602
0.041169 0.344213 0.531731
0.271122 0.369207 0.537621
0.445014 0.415686 0.546593
0.580468 0.466163 0.556268
0.674525 0.503868 0.564904
0.746609 0.539666 0.575769
0.812650 0.560937 0.574884
0.388434 0.533532 0.576074
0.400916 0.534905 0.576562
0.447913 0.540337 0.578302
0.518273 0.549676 0.582513
0.613733 0.577020 0.592706
0.683345 0.602136 0.601953
0.745937 0.613764 0.608331
0.802548 0.622766 0.603082
0.584100 0.647852 0.627405
0.588891 0.648829 0.628290
0.604273 0.651026 0.629511
0.630426 0.655238 0.632227
0.663050 0.661585 0.636591
0.699428 0.671565 0.644923
0.748379 0.672755 0.641016
0.796689 0.675959 0.638605
0.687434 0.715816 0.692409
0.689265 0.716335 0.693141
0.695613 0.717556 0.694942
0.707820 0.720241 0.699001
0.718105 0.723201 0.701717
0.728664 0.726253 0.701167
0.743130 0.726131 0.701869
0.785763 0.735317 0.695827
0.741939 0.770169 0.756252
0.742245 0.770169 0.756100
0.743771 0.770718 0.756283
0.747372 0.772213 0.757076
0.753353 0.774289 0.757900
0.761929 0.776913 0.758053
0.774228 0.779141 0.757961
0.786313 0.778653 0.761593
0.000000 0.096529 0.577386
0.000000 0.099031 0.579583
0.000000 0.106844 0.583734
0.259648 0.126223 0.592584
0.482612 0.185885 0.603143
0.646876 0.308812 0.613458
0.746731 0.373053 0.617731
0.801785 0.467201 0.615808
0.000000 0.119142 0.578790
0.000000 0.122133 0.581079
0.000000 0.131624 0.585199
0.275578 0.154513 0.592401
0.487648 0.212863 0.601923
0.645014 0.325841 0.610986
0.742519 0.383795 0.614618
0.798306 0.470283 0.612879
0.000000 0.212650 0.600122
0.000000 0.216159 0.600855
0.136049 0.230655 0.602960
0.352605 0.263279 0.607874
0.525322 0.322637 0.613855
0.654597 0.415198 0.621149
0.739132 0.461952 0.625940
0.791196 0.524804 0.627405
0.067842 0.351476 0.623407
0.152163 0.355871 0.623499
0.306523 0.383215 0.624720
0.447761 0.418830 0.627924
0.571527 0.464881 0.632044
0.667353 0.524804 0.639216
0.734066 0.554772 0.644282
0.781125 0.589990 0.648219
0.336584 0.506065 0.640345
0.347204 0.505821 0.639643
0.391913 0.507256 0.639063
0.493874 0.529168 0.642542
0.601129 0.567529 0.648188
0.676509 0.602350 0.655299
0.729427 0.623682 0.661341
0.775296 0.644465 0.671168
0.549950 0.637110 0.669093
0.553887 0.637568 0.669306
0.569299 0.639155 0.669642
0.596155 0.641810 0.670344
0.631464 0.644892 0.671290
0.689326 0.663996 0.680293
0.735348 0.682399 0.690211
0.782712 0.689265 0.696407
0.659449 0.710903 0.707393
0.661250 0.711391 0.707881
0.667323 0.712398 0.708461
0.679316 0.714626 0.709987
0.696529 0.717861 0.712093
0.718929 0.722866 0.715694
0.746334 0.730495 0.721950
0.789181 0.731960 0.719478
0.728939 0.768002 0.761379
0.729976 0.768276 0.761715
0.734615 0.769772 0.763516
0.742855 0.772000 0.766171
0.755337 0.775326 0.770413
0.766140 0.778897 0.773770
0.775448 0.781796 0.773068
0.789029 0.781827 0.773617
0.000000 0.141512 0.686427
0.000000 0.144594 0.687160
0.000000 0.156252 0.688075
0.316381 0.188235 0.691310
0.504692 0.255985 0.694575
0.642695 0.364721 0.697078
0.728664 0.472847 0.699397
0.789944 0.514061 0.699702
0.000000 0.162264 0.686030
0.000000 0.165957 0.686885
0.000000 0.179110 0.688136
0.330236 0.211276 0.690883
0.509728 0.276799 0.693935
0.643061 0.379614 0.696223
0.727169 0.481025 0.698299
0.787869 0.518883 0.698390
0.000000 0.246342 0.690852
0.000000 0.249882 0.691157
0.215518 0.265049 0.691737
0.388251 0.302037 0.694789
0.536156 0.360845 0.696315
0.649012 0.443244 0.697719
0.725551 0.524529 0.700557
0.782345 0.552178 0.701076
0.190768 0.365179 0.696986
0.239231 0.374609 0.697139
0.338354 0.394385 0.697322
0.454414 0.424567 0.698665
0.567010 0.470283 0.700282
0.658473 0.526329 0.702632
0.725612 0.585992 0.707301
0.775570 0.602136 0.708431
0.275059 0.473548 0.702846
0.296117 0.476326 0.703090
0.363317 0.485176 0.703059
0.481178 0.516503 0.704097
0.588098 0.557336 0.705409
0.665766 0.593713 0.708980
0.726101 0.633906 0.715480
0.771115 0.648280 0.718898
0.487098 0.611353 0.716060
0.489540 0.610651 0.715602
0.501610 0.608423 0.714321
0.527092 0.605097 0.712764
0.587457 0.614191 0.713802
0.673121 0.650294 0.720912
0.730587 0.679530 0.731075
0.772732 0.695094 0.737667
0.630701 0.706996 0.742947
0.631861 0.706966 0.742824
0.637079 0.706783 0.742428
0.647822 0.706935 0.742275
0.664118 0.706783 0.741970
0.686458 0.705745 0.741665
0.734554 0.720821 0.749966
0.778531 0.738643 0.759884
0.706264 0.765225 0.775692
0.706966 0.765286 0.775662
0.710292 0.765835 0.775998
0.717372 0.767391 0.777096
0.728328 0.769680 0.778622
0.743496 0.772885 0.780758
0.764218 0.777707 0.784085
0.791806 0.785153 0.789639
