20 Preset/Ocident style/【1】LRtemplate Lightroom bản cũ/Ocident style 4/TONE (6).lrtemplate
s = {
	id = "E31ED497-8B37-4F9D-822C-DD6E411B2284",
	internalName = "Pictor 9 C",
	title = "Pictor 9 C",
	type = "Develop",
	value = {
		settings = {
			AutoLateralCA = 0,
			Blacks2012 = 40,
			ChromaticAberrationB = 0,
			ChromaticAberrationR = 0,
			Clarity2012 = 0,
			ColorNoiseReduction = 0,
			ColorNoiseReductionDetail = 50,
			ColorNoiseReductionSmoothness = 50,
			Contrast2012 = 0,
			ConvertToGrayscale = false,
			CropConstrainToWarp = 0,
			Defringe = 0,
			DefringeGreenAmount = 0,
			DefringeGreenHueHi = 60,
			DefringeGreenHueLo = 40,
			DefringePurpleAmount = 0,
			DefringePurpleHueHi = 70,
			DefringePurpleHueLo = 30,
			Dehaze = 21,
			EnableColorAdjustments = true,
			EnableDetail = true,
			EnableEffects = true,
			EnableLensCorrections = true,
			EnableSplitToning = true,
			GrainAmount = 17,
			GrainFrequency = 85,
			GrainSize = 24,
			Highlights2012 = -53,
			HueAdjustmentAqua = 0,
			HueAdjustmentBlue = -24,
			HueAdjustmentGreen = 15,
			HueAdjustmentMagenta = 0,
			HueAdjustmentOrange = -25,
			HueAdjustmentPurple = 0,
			HueAdjustmentRed = -10,
			HueAdjustmentYellow = 13,
			LensManualDistortionAmount = 0,
			LensProfileEnable = 0,
			LensProfileSetup = "LensDefaults",
			LuminanceAdjustmentAqua = 0,
			LuminanceAdjustmentBlue = 0,
			LuminanceAdjustmentGreen = -10,
			LuminanceAdjustmentMagenta = 0,
			LuminanceAdjustmentOrange = -10,
			LuminanceAdjustmentPurple = 0,
			LuminanceAdjustmentRed = -15,
			LuminanceAdjustmentYellow = -14,
			LuminanceNoiseReductionContrast = 0,
			LuminanceNoiseReductionDetail = 50,
			LuminanceSmoothing = 0,
			ParametricDarks = 0,
			ParametricHighlightSplit = 75,
			ParametricHighlights = 0,
			ParametricLights = 0,
			ParametricMidtoneSplit = 50,
			ParametricShadowSplit = 25,
			ParametricShadows = 0,
			ProcessVersion = "6.7",
			Saturation = -35,
			SaturationAdjustmentAqua = -5,
			SaturationAdjustmentBlue = 10,
			SaturationAdjustmentGreen = -60,
			SaturationAdjustmentMagenta = 0,
			SaturationAdjustmentOrange = -4,
			SaturationAdjustmentPurple = 0,
			SaturationAdjustmentRed = -8,
			SaturationAdjustmentYellow = -55,
			Shadows2012 = 52,
			SharpenDetail = 25,
			SharpenEdgeMasking = 0,
			SharpenRadius = 1,
			Sharpness = 35,
			SplitToningBalance = 0,
			SplitToningHighlightHue = 34,
			SplitToningHighlightSaturation = 0,
			SplitToningShadowHue = 196,
			SplitToningShadowSaturation = 9,
			ToneCurveName2012 = "Custom",
			ToneCurvePV2012 = {
				0,
				37,
				67,
				74,
				176,
				164,
				255,
				224,
			},
			ToneCurvePV2012Blue = {
				0,
				0,
				39,
				13,
				87,
				65,
				123,
				124,
				183,
				199,
				255,
				255,
			},
			ToneCurvePV2012Green = {
				0,
				0,
				40,
				14,
				83,
				59,
				123,
				126,
				172,
				185,
				255,
				255,
			},
			ToneCurvePV2012Red = {
				0,
				0,
				40,
				12,
				84,
				58,
				119,
				113,
				182,
				200,
				255,
				255,
			},
			Vibrance = 0,
			VignetteAmount = 0,
			VignetteMidpoint = 50,
			Whites2012 = -33,
		},
		uuid = "AF10136B-77B1-456E-A1BF-9171A659EA42",
	},
	version = 0,
}
