20 Preset/Ocident style/【1】LRtemplate Lightroom bản cũ/Ocident style 4/TONE (7).lrtemplate
s = {
	id = "C8D84071-F357-4F04-AF69-E521386B01EC",
	internalName = "Pictor 10 C",
	title = "Pictor 10 C",
	type = "Develop",
	value = {
		settings = {
			AutoLateralCA = 0,
			Blacks2012 = 22,
			ChromaticAberrationB = 0,
			ChromaticAberrationR = 0,
			Clarity2012 = 0,
			ColorNoiseReduction = 25,
			ColorNoiseReductionDetail = 50,
			ColorNoiseReductionSmoothness = 50,
			Contrast2012 = 4,
			ConvertToGrayscale = false,
			CropConstrainToWarp = 0,
			Defringe = 0,
			DefringeGreenAmount = 0,
			DefringeGreenHueHi = 60,
			DefringeGreenHueLo = 40,
			DefringePurpleAmount = 0,
			DefringePurpleHueHi = 70,
			DefringePurpleHueLo = 30,
			Dehaze = 0,
			EnableColorAdjustments = true,
			EnableDetail = true,
			EnableEffects = true,
			EnableLensCorrections = true,
			EnableSplitToning = true,
			GrainAmount = 0,
			GrainFrequency = 50,
			GrainSize = 19,
			Highlights2012 = -73,
			HueAdjustmentAqua = -100,
			HueAdjustmentBlue = 4,
			HueAdjustmentGreen = -100,
			HueAdjustmentMagenta = 0,
			HueAdjustmentOrange = -20,
			HueAdjustmentPurple = 0,
			HueAdjustmentRed = -10,
			HueAdjustmentYellow = -50,
			LensManualDistortionAmount = 0,
			LensProfileEnable = 0,
			LensProfileSetup = "LensDefaults",
			LuminanceAdjustmentAqua = 0,
			LuminanceAdjustmentBlue = 1,
			LuminanceAdjustmentGreen = 30,
			LuminanceAdjustmentMagenta = 0,
			LuminanceAdjustmentOrange = -10,
			LuminanceAdjustmentPurple = 0,
			LuminanceAdjustmentRed = -15,
			LuminanceAdjustmentYellow = 43,
			LuminanceNoiseReductionContrast = 0,
			LuminanceNoiseReductionDetail = 50,
			LuminanceSmoothing = 0,
			ParametricDarks = 0,
			ParametricHighlightSplit = 75,
			ParametricHighlights = 0,
			ParametricLights = 0,
			ParametricMidtoneSplit = 50,
			ParametricShadowSplit = 25,
			ParametricShadows = 0,
			ProcessVersion = "6.7",
			Saturation = -35,
			SaturationAdjustmentAqua = -18,
			SaturationAdjustmentBlue = -29,
			SaturationAdjustmentGreen = -30,
			SaturationAdjustmentMagenta = 0,
			SaturationAdjustmentOrange = 19,
			SaturationAdjustmentPurple = 0,
			SaturationAdjustmentRed = -8,
			SaturationAdjustmentYellow = 86,
			Shadows2012 = 14,
			SharpenDetail = 11,
			SharpenEdgeMasking = 0,
			SharpenRadius = 0.8,
			Sharpness = 34,
			SplitToningBalance = 0,
			SplitToningHighlightHue = 34,
			SplitToningHighlightSaturation = 0,
			SplitToningShadowHue = 47,
			SplitToningShadowSaturation = 13,
			ToneCurveName2012 = "Custom",
			ToneCurvePV2012 = {
				0,
				5,
				54,
				64,
				104,
				104,
				177,
				163,
				255,
				236,
			},
			ToneCurvePV2012Blue = {
				0,
				0,
				39,
				13,
				87,
				65,
				123,
				124,
				183,
				199,
				255,
				255,
			},
			ToneCurvePV2012Green = {
				0,
				0,
				40,
				14,
				83,
				59,
				123,
				126,
				172,
				185,
				255,
				255,
			},
			ToneCurvePV2012Red = {
				0,
				0,
				40,
				12,
				84,
				58,
				123,
				125,
				186,
				196,
				255,
				255,
			},
			Vibrance = 0,
			VignetteAmount = 0,
			VignetteMidpoint = 50,
			Whites2012 = -48,
		},
		uuid = "C619540C-709B-409D-94A3-744BD7530841",
	},
	version = 0,
}
