20 Preset/Street 2/【3】LUT video cho PR-AE-FCPX/Tone 1 (1).cube
# Created by Adobe Lightroom plugin Export LUT (1.24.0)
# www.johnrellis.com/lightroom/exportlut.htm
# Preset: 青橙风光-素材江湖01
# Color profile: C:\Program Files (x86)\Common Files\Adobe\Color\Profiles\Recommended\VideoHD.icc
LUT_3D_SIZE 32
DOMAIN_MIN 0.0 0.0 0.0
DOMAIN_MAX 1.0 1.0 1.0
0.115389 0.115389 0.115389
0.115389 0.115389 0.115389
0.115389 0.115389 0.115389
0.127108 0.114839 0.115816
0.150973 0.113710 0.117189
0.183505 0.113588 0.115816
0.221653 0.114687 0.113436
0.265751 0.117403 0.109529
0.315740 0.121889 0.104860
0.371710 0.129458 0.097383
0.433722 0.140200 0.083680
0.500572 0.154238 0.043519
0.570397 0.170047 0.000000
0.640986 0.187747 0.000000
0.709651 0.206485 0.000000
0.772824 0.225071 0.000000
0.828946 0.242863 0.000000
0.880461 0.260136 0.000000
0.948608 0.281956 0.000000
0.999237 0.299413 0.000000
1.000000 0.313176 0.000000
1.000000 0.324285 0.000000
1.000000 0.333196 0.000000
1.000000 0.340337 0.000000
1.000000 0.346227 0.000000
1.000000 0.351202 0.000000
1.000000 0.355566 0.000000
1.000000 0.359319 0.000000
1.000000 0.362585 0.000000
1.000000 0.365576 0.000000
1.000000 0.368017 0.000000
1.000000 0.370092 0.000000
0.115389 0.115389 0.115389
0.115389 0.115389 0.115389
0.115389 0.115389 0.115389
0.127749 0.114473 0.115846
0.151614 0.113924 0.116823
0.183108 0.114290 0.115145
0.219669 0.115541 0.113100
0.262089 0.117800 0.109682
0.309789 0.122988 0.105196
0.364172 0.130037 0.098238
0.424506 0.140566 0.086915
0.489570 0.153353 0.050355
0.558190 0.168826 0.000000
0.628077 0.186282 0.000000
0.696925 0.204990 0.000000
0.761440 0.223819 0.000000
0.818631 0.241550 0.000000
0.871611 0.258640 0.000000
0.938079 0.280034 0.000000
0.988098 0.297093 0.000000
1.000000 0.310613 0.000000
1.000000 0.321508 0.000000
1.000000 0.330327 0.000000
1.000000 0.337652 0.000000
1.000000 0.343786 0.000000
1.000000 0.348882 0.000000
1.000000 0.353246 0.000000
1.000000 0.357305 0.000000
1.000000 0.360662 0.000000
1.000000 0.363867 0.000000
1.000000 0.366644 0.000000
1.000000 0.368750 0.000000
0.115389 0.115389 0.115389
0.115389 0.115389 0.115389
0.116457 0.115267 0.115389
0.132113 0.115114 0.115358
0.157046 0.116060 0.114565
0.186862 0.117708 0.113313
0.221683 0.119997 0.111391
0.261723 0.123537 0.108827
0.308568 0.128817 0.104311
0.361730 0.136568 0.097139
0.420996 0.146334 0.085389
0.485542 0.159304 0.047913
0.552941 0.174166 0.000000
0.621820 0.191409 0.000000
0.690242 0.209476 0.000000
0.754513 0.227939 0.000000
0.812314 0.245090 0.000000
0.867277 0.262425 0.000000
0.931853 0.282750 0.000000
0.981506 0.299229 0.000000
1.000000 0.312352 0.000000
1.000000 0.323278 0.000000
1.000000 0.332006 0.000000
1.000000 0.338994 0.000000
1.000000 0.344945 0.000000
1.000000 0.349584 0.000000
1.000000 0.354009 0.000000
1.000000 0.358038 0.000000
1.000000 0.361486 0.000000
1.000000 0.364599 0.000000
1.000000 0.367285 0.000000
1.000000 0.369482 0.000000
0.113375 0.121370 0.115785
0.113619 0.121920 0.115389
0.120424 0.123690 0.114412
0.137819 0.123812 0.113680
0.161929 0.125154 0.113100
0.191470 0.127230 0.111635
0.226291 0.130098 0.109529
0.265599 0.134432 0.106630
0.312169 0.140322 0.101656
0.364599 0.148562 0.093965
0.423102 0.158968 0.078035
0.485664 0.171603 0.037537
0.552331 0.186709 0.000000
0.619623 0.203281 0.000000
0.685939 0.220127 0.000000
0.749386 0.237766 0.000000
0.805936 0.254032 0.000000
0.862486 0.270878 0.000000
0.922515 0.289647 0.000000
0.969787 0.304173 0.000000
1.000000 0.316228 0.000000
1.000000 0.326390 0.000000
1.000000 0.334508 0.000000
1.000000 0.341741 0.000000
1.000000 0.347723 0.000000
1.000000 0.352728 0.000000
1.000000 0.357397 0.000000
1.000000 0.361303 0.000000
1.000000 0.364630 0.000000
1.000000 0.367559 0.000000
1.000000 0.370031 0.000000
1.000000 0.371954 0.000000
0.115419 0.134401 0.115511
0.116121 0.134829 0.115419
0.124086 0.136721 0.113436
0.142153 0.138827 0.111330
0.165164 0.139315 0.110536
0.195560 0.141543 0.108949
0.230655 0.144625 0.106508
0.269352 0.149416 0.102907
0.314549 0.156100 0.097688
0.365972 0.165072 0.088960
0.422675 0.175601 0.065156
0.484382 0.188754 0.021942
0.549340 0.203555 0.000000
0.616236 0.219547 0.000000
0.682582 0.236576 0.000000
0.746029 0.253452 0.000000
0.803647 0.269200 0.000000
0.863737 0.286229 0.000000
0.920623 0.302434 0.000000
0.966400 0.315709 0.000000
1.000000 0.326543 0.000000
1.000000 0.335424 0.000000
1.000000 0.343053 0.000000
1.000000 0.349218 0.000000
1.000000 0.354711 0.000000
1.000000 0.359564 0.000000
1.000000 0.363531 0.000000
1.000000 0.366949 0.000000
1.000000 0.370062 0.000000
1.000000 0.372564 0.000000
1.000000 0.374426 0.000000
1.000000 0.376074 0.000000
0.119753 0.148470 0.114412
0.121401 0.148959 0.113649
0.128664 0.150851 0.111849
0.144320 0.154482 0.108064
0.167239 0.155459 0.107088
0.198184 0.159335 0.105226
0.236210 0.165225 0.101625
0.278599 0.170748 0.096895
0.326513 0.178622 0.089479
0.377935 0.188540 0.070161
0.434394 0.200107 0.035157
0.495796 0.213809 0.000000
0.559899 0.228824 0.000000
0.626123 0.245029 0.000000
0.691798 0.261265 0.000000
0.754299 0.277104 0.000000
0.810666 0.291508 0.000000
0.873838 0.308751 0.000000
0.927611 0.322942 0.000000
0.971252 0.334203 0.000000
1.000000 0.343175 0.000000
1.000000 0.350713 0.000000
1.000000 0.376226 0.000000
1.000000 0.379706 0.000000
1.000000 0.382361 0.000000
1.000000 0.384497 0.000000
1.000000 0.386145 0.000000
1.000000 0.387274 0.000000
1.000000 0.388251 0.000000
1.000000 0.388952 0.000000
1.000000 0.389227 0.000000
1.000000 0.389197 0.000000
0.128511 0.170077 0.113527
0.130190 0.170626 0.113039
0.137270 0.172702 0.110750
0.153445 0.177218 0.105776
0.178653 0.181704 0.100313
0.208499 0.184360 0.097566
0.252110 0.194705 0.090822
0.304143 0.207340 0.074403
0.358251 0.218570 0.044800
0.420722 0.231632 0.002930
0.485695 0.245731 0.000000
0.549828 0.260990 0.000000
0.614740 0.276158 0.000000
0.679133 0.291234 0.000000
0.740383 0.305241 0.000000
0.795285 0.317327 0.000000
0.852995 0.330846 0.000000
0.914702 0.346471 0.000000
0.963500 0.357977 0.000000
1.000000 0.366705 0.000000
1.000000 0.374151 0.000000
1.000000 0.380377 0.000000
1.000000 0.385840 0.000000
1.000000 0.389899 0.000000
1.000000 0.392950 0.000000
1.000000 0.394903 0.000000
1.000000 0.395972 0.000000
1.000000 0.396521 0.000000
1.000000 0.396979 0.000000
1.000000 0.396857 0.000000
1.000000 0.396612 0.000000
1.000000 0.396124 0.000000
0.136385 0.188663 0.115602
0.137789 0.189303 0.115084
0.144411 0.191379 0.113130
0.159365 0.195895 0.108797
0.183200 0.202884 0.100282
0.213474 0.207584 0.095369
0.249607 0.213169 0.088746
0.301213 0.228763 0.058808
0.361181 0.246677 0.010163
0.420844 0.261570 0.000000
0.488167 0.278080 0.000000
0.560266 0.295323 0.000000
0.627893 0.310491 0.000000
0.689662 0.324132 0.000000
0.748013 0.336553 0.000000
0.800504 0.346654 0.000000
0.864622 0.362310 0.000000
0.917937 0.373724 0.000000
0.962158 0.381781 0.000000
1.000000 0.388312 0.000000
1.000000 0.393957 0.000000
1.000000 0.398566 0.000000
1.000000 0.402411 0.000000
1.000000 0.405432 0.000000
1.000000 0.407416 0.000000
1.000000 0.408270 0.000000
1.000000 0.408606 0.000000
1.000000 0.408270 0.000000
1.000000 0.407782 0.000000
1.000000 0.407263 0.000000
1.000000 0.406378 0.000000
1.000000 0.405341 0.000000
0.145480 0.210880 0.117586
0.147372 0.211551 0.117037
0.153323 0.213443 0.115053
0.166995 0.217838 0.110964
0.189181 0.224857 0.103456
0.220249 0.232975 0.094057
0.255161 0.239841 0.084321
0.300755 0.249851 0.055146
0.359136 0.269474 0.001129
0.426520 0.291051 0.000000
0.492378 0.308690 0.000000
0.562432 0.327092 0.000000
0.634760 0.344854 0.000000
0.705776 0.360693 0.000000
0.763455 0.372381 0.000000
0.825376 0.386725 0.000000
0.880827 0.397803 0.000000
0.927062 0.405005 0.000000
0.966949 0.410010 0.000000
1.000000 0.414099 0.000000
1.000000 0.417487 0.000000
1.000000 0.420508 0.000000
1.000000 0.422614 0.000000
1.000000 0.424140 0.000000
1.000000 0.424842 0.000000
1.000000 0.424567 0.000000
1.000000 0.423713 0.000000
1.000000 0.422644 0.000000
1.000000 0.421302 0.000000
1.000000 0.419837 0.000000
1.000000 0.418280 0.000000
1.000000 0.416449 0.000000
0.155734 0.236179 0.117952
0.157595 0.236606 0.117464
0.163607 0.238529 0.115663
0.176547 0.242832 0.111391
0.197086 0.249607 0.104311
0.227726 0.259678 0.091554
0.263157 0.267826 0.074830
0.304570 0.277592 0.039704
0.357977 0.291600 0.000000
0.421393 0.313542 0.000000
0.493446 0.337316 0.000000
0.561242 0.355688 0.000000
0.631403 0.373663 0.000000
0.701411 0.390082 0.000000
0.778531 0.409094 0.000000
0.845640 0.422675 0.000000
0.895689 0.431495 0.000000
0.938659 0.437507 0.000000
0.976104 0.441688 0.000000
1.000000 0.443458 0.000000
1.000000 0.444221 0.000000
1.000000 0.444526 0.000000
1.000000 0.444404 0.000000
1.000000 0.443763 0.000000
1.000000 0.442603 0.000000
1.000000 0.441138 0.000000
1.000000 0.439368 0.000000
1.000000 0.437415 0.000000
1.000000 0.435462 0.000000
1.000000 0.433326 0.000000
1.000000 0.431220 0.000000
1.000000 0.428840 0.000000
0.165499 0.262089 0.117006
0.167208 0.262455 0.116487
0.173190 0.264744 0.114382
0.185916 0.269230 0.110292
0.206394 0.276280 0.102022
0.235416 0.286687 0.088655
0.273228 0.298985 0.048341
0.314611 0.309178 0.010285
0.358770 0.318456 0.000000
0.424933 0.340673 0.000000
0.492927 0.364294 0.000000
0.568017 0.389136 0.000000
0.640284 0.409491 0.000000
0.718532 0.431220 0.000000
0.788632 0.447150 0.000000
0.851102 0.458076 0.000000
0.905303 0.464729 0.000000
0.948791 0.467872 0.000000
0.982818 0.469551 0.000000
1.000000 0.470283 0.000000
1.000000 0.470405 0.000000
1.000000 0.469886 0.000000
1.000000 0.468147 0.000000
1.000000 0.465949 0.000000
1.000000 0.463508 0.000000
1.000000 0.460792 0.000000
1.000000 0.458045 0.000000
1.000000 0.455085 0.000000
1.000000 0.452125 0.000000
1.000000 0.449104 0.000000
1.000000 0.446265 0.000000
1.000000 0.443183 0.000000
0.177829 0.293675 0.113069
0.179538 0.294316 0.112337
0.185550 0.296239 0.110109
0.198184 0.300877 0.105257
0.218265 0.308232 0.096162
0.246983 0.318730 0.074281
0.285100 0.333196 0.013642
0.328527 0.346075 0.000000
0.376806 0.359655 0.000000
0.428443 0.371679 0.000000
0.501610 0.397101 0.000000
0.581598 0.427588 0.000000
0.735988 0.503990 0.000000
0.808530 0.520226 0.000000
0.870756 0.529076 0.000000
0.923491 0.532219 0.000000
0.967498 0.531426 0.000000
1.000000 0.528283 0.000000
1.000000 0.523644 0.000000
1.000000 0.519005 0.000000
1.000000 0.514458 0.000000
1.000000 0.510216 0.000000
1.000000 0.506188 0.000000
1.000000 0.502403 0.000000
1.000000 0.496956 0.000000
1.000000 0.491524 0.000000
1.000000 0.485908 0.000000
1.000000 0.480690 0.000000
1.000000 0.475715 0.000000
1.000000 0.470863 0.000000
1.000000 0.466194 0.000000
1.000000 0.461707 0.000000
0.196445 0.342840 0.102022
0.197971 0.343145 0.101350
0.204318 0.344915 0.098604
0.218326 0.349157 0.090547
0.238865 0.355657 0.069642
0.267369 0.365332 0.023438
0.305821 0.379217 0.000000
0.352422 0.396033 0.000000
0.402258 0.410224 0.000000
0.467842 0.434882 0.000000
0.542260 0.461006 0.000000
0.636286 0.498360 0.000000
0.721614 0.528405 0.000000
0.799954 0.550256 0.000000
0.863066 0.560327 0.000000
0.914305 0.562890 0.000000
0.957336 0.561120 0.000000
0.993927 0.556664 0.000000
1.000000 0.550866 0.000000
1.000000 0.544274 0.000000
1.000000 0.537377 0.000000
1.000000 0.531823 0.000000
1.000000 0.526482 0.000000
1.000000 0.521660 0.000000
1.000000 0.517144 0.000000
1.000000 0.511711 0.000000
1.000000 0.505455 0.000000
1.000000 0.499367 0.000000
1.000000 0.493690 0.000000
1.000000 0.488258 0.000000
1.000000 0.482826 0.000000
1.000000 0.477668 0.000000
0.209964 0.376623 0.089631
0.210758 0.376715 0.089082
0.217502 0.378363 0.083436
0.230289 0.381994 0.066468
0.250462 0.388678 0.032715
0.279576 0.400275 0.000000
0.318395 0.416327 0.000000
0.366949 0.436957 0.000000
0.422797 0.458228 0.000000
0.485328 0.480537 0.000000
0.557946 0.507530 0.000000
0.636896 0.532921 0.000000
0.721309 0.560998 0.000000
0.792844 0.579828 0.000000
0.856596 0.591516 0.000000
0.907012 0.593713 0.000000
0.948516 0.590723 0.000000
0.984253 0.585321 0.000000
1.000000 0.578759 0.000000
1.000000 0.571283 0.000000
1.000000 0.563531 0.000000
1.000000 0.555932 0.000000
1.000000 0.548821 0.000000
1.000000 0.542840 0.000000
1.000000 0.537377 0.000000
1.000000 0.532219 0.000000
1.000000 0.526238 0.000000
1.000000 0.519371 0.000000
1.000000 0.512810 0.000000
1.000000 0.506523 0.000000
1.000000 0.500542 0.000000
1.000000 0.494606 0.000000
0.229435 0.425513 0.032624
0.231083 0.425971 0.029755
0.237400 0.427497 0.019135
0.250584 0.431434 0.000000
0.271092 0.437903 0.000000
0.299413 0.447517 0.000000
0.336278 0.461219 0.000000
0.382635 0.479561 0.000000
0.438819 0.502647 0.000000
0.498695 0.523064 0.000000
0.566674 0.547295 0.000000
0.641169 0.572686 0.000000
0.718502 0.593469 0.000000
0.789639 0.610895 0.000000
0.849119 0.620539 0.000000
0.900084 0.623713 0.000000
0.941985 0.620905 0.000000
0.976898 0.614740 0.000000
1.000000 0.607202 0.000000
1.000000 0.598962 0.000000
1.000000 0.590448 0.000000
1.000000 0.582116 0.000000
1.000000 0.573754 0.000000
1.000000 0.565484 0.000000
1.000000 0.558556 0.000000
1.000000 0.552392 0.000000
1.000000 0.546593 0.000000
1.000000 0.540337 0.000000
1.000000 0.533074 0.000000
1.000000 0.526238 0.000000
1.000000 0.519615 0.000000
1.000000 0.513176 0.000000
0.247684 0.470100 0.000000
0.249912 0.470924 0.000000
0.256382 0.472847 0.000000
0.269291 0.476783 0.000000
0.290166 0.483589 0.000000
0.317876 0.493446 0.000000
0.354498 0.507347 0.000000
0.399756 0.525383 0.000000
0.454841 0.547814 0.000000
0.515984 0.570886 0.000000
0.579828 0.591455 0.000000
0.648859 0.613214 0.000000
0.713436 0.627039 0.000000
0.785336 0.641566 0.000000
0.841367 0.648280 0.000000
0.888884 0.649683 0.000000
0.931518 0.647608 0.000000
0.967803 0.642054 0.000000
0.998932 0.634272 0.000000
1.000000 0.625757 0.000000
1.000000 0.617121 0.000000
1.000000 0.608331 0.000000
1.000000 0.599664 0.000000
1.000000 0.590906 0.000000
1.000000 0.582269 0.000000
1.000000 0.573999 0.000000
1.000000 0.567407 0.000000
1.000000 0.561212 0.000000
1.000000 0.554162 0.000000
1.000000 0.546410 0.000000
1.000000 0.538872 0.000000
1.000000 0.531579 0.000000
0.265019 0.510369 0.000000
0.267033 0.510918 0.000000
0.272923 0.512749 0.000000
0.285954 0.516777 0.000000
0.305547 0.523186 0.000000
0.332403 0.532677 0.000000
0.367559 0.545403 0.000000
0.410498 0.561913 0.000000
0.461707 0.581903 0.000000
0.520287 0.604486 0.000000
0.580835 0.623194 0.000000
0.644862 0.641932 0.000000
0.712551 0.661006 0.000000
0.770718 0.668208 0.000000
0.835935 0.676875 0.000000
0.882231 0.677272 0.000000
0.923033 0.674586 0.000000
0.960113 0.669520 0.000000
0.992554 0.662348 0.000000
1.000000 0.653285 0.000000
1.000000 0.644129 0.000000
1.000000 0.634882 0.000000
1.000000 0.625666 0.000000
1.000000 0.616480 0.000000
1.000000 0.607355 0.000000
1.000000 0.598444 0.000000
1.000000 0.589685 0.000000
1.000000 0.581628 0.000000
1.000000 0.575036 0.000000
1.000000 0.567041 0.000000
1.000000 0.558801 0.000000
1.000000 0.550744 0.000000
0.284123 0.553399 0.000000
0.285588 0.554162 0.000000
0.310094 0.594079 0.000000
0.323217 0.598016 0.000000
0.343511 0.604120 0.000000
0.371221 0.612573 0.000000
0.405798 0.623438 0.000000
0.448463 0.637415 0.000000
0.497780 0.653925 0.000000
0.554345 0.672908 0.000000
0.615229 0.691676 0.000000
0.676326 0.706630 0.000000
0.739712 0.720912 0.000000
0.804562 0.734279 0.000000
0.853605 0.731044 0.000000
0.904906 0.727626 0.000000
0.940246 0.719966 0.000000
0.972320 0.710903 0.000000
1.000000 0.700862 0.000000
1.000000 0.690150 0.000000
1.000000 0.678584 0.000000
1.000000 0.667567 0.000000
1.000000 0.656703 0.000000
1.000000 0.645960 0.000000
1.000000 0.635248 0.000000
1.000000 0.624811 0.000000
1.000000 0.614832 0.000000
1.000000 0.605035 0.000000
1.000000 0.595850 0.000000
1.000000 0.587945 0.000000
1.000000 0.578882 0.000000
1.000000 0.570092 0.000000
0.307591 0.605463 0.000000
0.310643 0.609339 0.000000
0.318334 0.614649 0.000000
0.332189 0.621271 0.000000
0.351995 0.628901 0.000000
0.378027 0.637263 0.000000
0.410529 0.647181 0.000000
0.449561 0.658961 0.000000
0.494850 0.673091 0.000000
0.545983 0.689296 0.000000
0.602533 0.707057 0.000000
0.660731 0.721645 0.000000
0.719661 0.734157 0.000000
0.780179 0.746212 0.000000
0.841154 0.757259 0.000000
0.884031 0.748989 0.000000
0.929107 0.742916 0.000000
0.961486 0.734463 0.000000
0.991455 0.725063 0.000000
1.000000 0.714931 0.000000
1.000000 0.704128 0.000000
1.000000 0.693019 0.000000
1.000000 0.681880 0.000000
1.000000 0.670741 0.000000
1.000000 0.659693 0.000000
1.000000 0.648707 0.000000
1.000000 0.638117 0.000000
1.000000 0.627924 0.000000
1.000000 0.618128 0.000000
1.000000 0.608637 0.000000
1.000000 0.598383 0.000000
1.000000 0.588952 0.000000
0.321355 0.635492 0.000000
0.324498 0.639338 0.000000
0.331914 0.644587 0.000000
0.344488 0.650690 0.000000
0.363775 0.657923 0.000000
0.387915 0.665553 0.000000
0.418067 0.674159 0.000000
0.454078 0.684382 0.000000
0.495857 0.696620 0.000000
0.543114 0.710536 0.000000
0.595270 0.725826 0.000000
0.651240 0.741176 0.000000
0.706416 0.752071 0.000000
0.763546 0.762753 0.000000
0.821317 0.772763 0.000000
0.873991 0.776974 0.000000
0.915526 0.768368 0.000000
0.954833 0.759915 0.000000
0.984375 0.750240 0.000000
1.000000 0.739956 0.000000
1.000000 0.729183 0.000000
1.000000 0.718135 0.000000
1.000000 0.706813 0.000000
1.000000 0.695460 0.000000
1.000000 0.683955 0.000000
1.000000 0.672663 0.000000
1.000000 0.661524 0.000000
1.000000 0.650782 0.000000
1.000000 0.640467 0.000000
1.000000 0.630549 0.000000
1.000000 0.620752 0.000000
1.000000 0.608453 0.000000
0.335973 0.666560 0.000000
0.338964 0.669917 0.000000
0.345525 0.674372 0.000000
0.357458 0.679835 0.000000
0.374945 0.686091 0.000000
0.397681 0.692805 0.000000
0.425666 0.700465 0.000000
0.459236 0.709468 0.000000
0.497902 0.720180 0.000000
0.541833 0.732357 0.000000
0.590326 0.745541 0.000000
0.642542 0.759335 0.000000
0.695766 0.770809 0.000000
0.749508 0.780148 0.000000
0.804654 0.789242 0.000000
0.860319 0.797848 0.000000
0.905516 0.795834 0.000000
0.946990 0.787991 0.000000
0.982605 0.778744 0.000000
1.000000 0.768948 0.000000
1.000000 0.758663 0.000000
1.000000 0.747768 0.000000
1.000000 0.736385 0.000000
1.000000 0.724941 0.000000
1.000000 0.713161 0.000000
1.000000 0.701320 0.000000
1.000000 0.689570 0.000000
1.000000 0.678035 0.000000
1.000000 0.666926 0.000000
1.000000 0.656153 0.000000
1.000000 0.645533 0.000000
1.000000 0.633478 0.000000
0.361608 0.716426 0.000000
0.363592 0.717922 0.000000
0.368750 0.719997 0.000000
0.378943 0.722744 0.000000
0.394110 0.726497 0.000000
0.414527 0.731014 0.000000
0.440589 0.736934 0.000000
0.471717 0.744259 0.000000
0.508080 0.753140 0.000000
0.548943 0.763424 0.000000
0.594141 0.774655 0.000000
0.643000 0.786435 0.000000
0.694636 0.798184 0.000000
0.745571 0.806119 0.000000
0.797787 0.813687 0.000000
0.850584 0.820859 0.000000
0.903929 0.827573 0.000000
0.941711 0.819242 0.000000
0.979431 0.809140 0.000000
1.000000 0.797452 0.000000
1.000000 0.785824 0.000000
1.000000 0.773861 0.000000
1.000000 0.761563 0.000000
1.000000 0.749020 0.000000
1.000000 0.736751 0.000000
1.000000 0.724666 0.000000
1.000000 0.712642 0.000000
1.000000 0.700862 0.000000
1.000000 0.689326 0.000000
1.000000 0.678035 0.000000
1.000000 0.666926 0.000000
1.000000 0.655360 0.000000
0.376165 0.745754 0.000000
0.378058 0.746975 0.000000
0.383276 0.748806 0.000000
0.392554 0.751278 0.000000
0.406775 0.754482 0.000000
0.425879 0.758480 0.000000
0.449744 0.763485 0.000000
0.479164 0.769833 0.000000
0.512779 0.777462 0.000000
0.551049 0.786282 0.000000
0.593072 0.795926 0.000000
0.638697 0.806119 0.000000
0.686793 0.816464 0.000000
0.736782 0.825437 0.000000
0.786282 0.832151 0.000000
0.836820 0.838621 0.000000
0.888212 0.844816 0.000000
0.939727 0.850553 0.000000
0.972107 0.837766 0.000000
1.000000 0.825681 0.000000
1.000000 0.813107 0.000000
1.000000 0.800717 0.000000
1.000000 0.788022 0.000000
1.000000 0.775082 0.000000
1.000000 0.758877 0.000000
1.000000 0.746395 0.000000
1.000000 0.734310 0.000000
1.000000 0.722408 0.000000
1.000000 0.710597 0.000000
1.000000 0.699001 0.000000
1.000000 0.687587 0.000000
1.000000 0.676265 0.000000
0.398352 0.784543 0.000000
0.400671 0.786313 0.000000
0.404944 0.787716 0.000000
0.413336 0.789090 0.000000
0.425849 0.790585 0.000000
0.442786 0.792630 0.000000
0.463996 0.795346 0.000000
0.489906 0.799130 0.000000
0.520409 0.804013 0.000000
0.554864 0.810086 0.000000
0.592798 0.816861 0.000000
0.634607 0.824674 0.000000
0.679164 0.832761 0.000000
0.725734 0.840848 0.000000
0.772549 0.846220 0.000000
0.819913 0.851011 0.000000
0.868070 0.855772 0.000000
0.916777 0.860594 0.000000
0.963928 0.863432 0.000000
0.993317 0.848600 0.000000
1.000000 0.835660 0.000000
1.000000 0.822904 0.000000
1.000000 0.810025 0.000000
1.000000 0.796750 0.000000
1.000000 0.783108 0.000000
1.000000 0.769406 0.000000
1.000000 0.756466 0.000000
1.000000 0.743923 0.000000
1.000000 0.731655 0.000000
1.000000 0.719692 0.000000
1.000000 0.707942 0.000000
1.000000 0.696376 0.000000
0.409613 0.805997 0.000000
0.411688 0.807614 0.000000
0.416022 0.809110 0.000000
0.423896 0.810666 0.000000
0.435828 0.812589 0.000000
0.451667 0.815061 0.000000
0.472419 0.818387 0.000000
0.497566 0.822721 0.000000
0.526848 0.827909 0.000000
0.559747 0.833921 0.000000
0.596033 0.840421 0.000000
0.635492 0.847379 0.000000
0.677058 0.854429 0.000000
0.721370 0.861387 0.000000
0.766629 0.867369 0.000000
0.811673 0.871122 0.000000
0.857694 0.874815 0.000000
0.904204 0.878599 0.000000
0.951354 0.882475 0.000000
0.991333 0.879484 0.000000
1.000000 0.864439 0.000000
1.000000 0.849760 0.000000
1.000000 0.836332 0.000000
1.000000 0.822690 0.000000
1.000000 0.808865 0.000000
1.000000 0.794827 0.000000
1.000000 0.780911 0.000000
1.000000 0.767605 0.000000
1.000000 0.754849 0.000000
1.000000 0.742275 0.000000
1.000000 0.729976 0.000000
1.000000 0.717739 0.000000
0.427314 0.835080 0.000000
0.428656 0.835904 0.000000
0.432471 0.836790 0.000000
0.439460 0.837827 0.000000
0.450172 0.839231 0.000000
0.464820 0.841123 0.000000
0.483833 0.843687 0.000000
0.506706 0.846983 0.000000
0.533684 0.851041 0.000000
0.564111 0.855894 0.000000
0.598169 0.861234 0.000000
0.634760 0.867094 0.000000
0.674220 0.873075 0.000000
0.715480 0.878965 0.000000
0.758663 0.884581 0.000000
0.802182 0.888334 0.000000
0.846036 0.891264 0.000000
0.890776 0.894285 0.000000
0.935943 0.897429 0.000000
0.981598 0.900572 0.000000
1.000000 0.891966 0.000000
1.000000 0.876707 0.000000
1.000000 0.860655 0.000000
1.000000 0.846647 0.000000
1.000000 0.832334 0.000000
1.000000 0.817929 0.000000
1.000000 0.803525 0.000000
1.000000 0.789273 0.000000
1.000000 0.775723 0.000000
1.000000 0.762936 0.000000
1.000000 0.750240 0.000000
1.000000 0.737697 0.000000
0.441871 0.859403 0.000000
0.443244 0.860044 0.000000
0.446723 0.860929 0.000000
0.453407 0.862028 0.000000
0.463630 0.863676 0.000000
0.478096 0.866178 0.000000
0.497017 0.869902 0.000000
0.519921 0.874479 0.000000
0.546777 0.879911 0.000000
0.577050 0.885954 0.000000
0.610529 0.892454 0.000000
0.646326 0.898924 0.000000
0.684535 0.905211 0.000000
0.724086 0.910979 0.000000
0.765194 0.916167 0.000000
0.807492 0.920317 0.000000
0.849760 0.922271 0.000000
0.892454 0.924132 0.000000
0.935607 0.926024 0.000000
0.979217 0.927855 0.000000
1.000000 0.929442 0.000000
1.000000 0.914702 0.000000
1.000000 0.897429 0.000000
1.000000 0.879393 0.000000
1.000000 0.863951 0.000000
1.000000 0.848386 0.000000
1.000000 0.832853 0.000000
1.000000 0.817533 0.000000
1.000000 0.802396 0.000000
1.000000 0.787961 0.000000
1.000000 0.774166 0.000000
1.000000 0.760433 0.000000
0.475593 0.899901 0.000000
0.476265 0.899962 0.000000
0.478889 0.900175 0.000000
0.484321 0.900572 0.000000
0.492836 0.901335 0.000000
0.505089 0.902464 0.000000
0.520592 0.904234 0.000000
0.540185 0.906554 0.000000
0.562982 0.909422 0.000000
0.589258 0.912779 0.000000
0.618647 0.916533 0.000000
0.650538 0.920562 0.000000
0.684932 0.924681 0.000000
0.721218 0.928649 0.000000
