20 Preset/Street 2/【3】LUT video cho PR-AE-FCPX/Tone 1 (2).cube
# Created by Adobe Lightroom plugin Export LUT (1.24.0)
# www.johnrellis.com/lightroom/exportlut.htm
# Preset: 青橙风光-素材江湖02
# Color profile: C:\Program Files (x86)\Common Files\Adobe\Color\Profiles\Recommended\VideoHD.icc
LUT_3D_SIZE 32
DOMAIN_MIN 0.0 0.0 0.0
DOMAIN_MAX 1.0 1.0 1.0
0.224949 0.203494 0.223148
0.224949 0.203494 0.223148
0.224949 0.203494 0.223148
0.225132 0.203464 0.223148
0.233860 0.203098 0.223758
0.247379 0.202243 0.224399
0.265263 0.201755 0.224155
0.287480 0.201877 0.223301
0.314885 0.202518 0.222171
0.348425 0.204166 0.220340
0.389380 0.206729 0.217868
0.435981 0.211185 0.214817
0.487648 0.217411 0.210971
0.543969 0.225681 0.205844
0.603113 0.235477 0.199283
0.663233 0.246921 0.191104
0.721889 0.259556 0.181277
0.777432 0.272587 0.169863
0.847715 0.289128 0.151705
0.905547 0.304051 0.131533
0.952514 0.316320 0.109285
0.991485 0.326909 0.078706
1.000000 0.335668 0.010651
1.000000 0.343236 0.000000
1.000000 0.349615 0.000000
1.000000 0.355200 0.000000
1.000000 0.360021 0.000000
1.000000 0.364263 0.000000
1.000000 0.367987 0.000000
1.000000 0.371221 0.000000
1.000000 0.373938 0.000000
1.000000 0.376257 0.000000
0.224949 0.203494 0.223148
0.224949 0.203494 0.223148
0.224949 0.203494 0.223148
0.225132 0.203464 0.223148
0.233860 0.203098 0.223758
0.247196 0.202243 0.224399
0.264561 0.201999 0.224002
0.286168 0.202121 0.223209
0.312871 0.202792 0.221958
0.345434 0.204318 0.220310
0.385138 0.206943 0.217899
0.430457 0.211215 0.215091
0.480995 0.217350 0.211398
0.536370 0.225284 0.206485
0.594720 0.235080 0.200137
0.654841 0.246525 0.192111
0.714107 0.258946 0.182467
0.770352 0.271946 0.171176
0.838376 0.288090 0.154025
0.895354 0.302312 0.135164
0.941985 0.314549 0.114382
0.980865 0.324804 0.090059
1.000000 0.333745 0.031067
1.000000 0.341283 0.000000
1.000000 0.347845 0.000000
1.000000 0.353307 0.000000
1.000000 0.358312 0.000000
1.000000 0.362768 0.000000
1.000000 0.366613 0.000000
1.000000 0.370031 0.000000
1.000000 0.372992 0.000000
1.000000 0.375372 0.000000
0.224949 0.203494 0.223148
0.224949 0.203494 0.223148
0.224949 0.203494 0.223148
0.226291 0.203464 0.223270
0.235233 0.202914 0.223728
0.249180 0.202670 0.223697
0.266728 0.202762 0.223148
0.287907 0.203311 0.222416
0.314336 0.204288 0.221134
0.346288 0.206027 0.219577
0.384314 0.209293 0.217533
0.428626 0.213809 0.214847
0.478462 0.220157 0.211154
0.533043 0.228275 0.206241
0.591119 0.237888 0.199954
0.650568 0.249302 0.192050
0.709743 0.261723 0.182406
0.767361 0.274907 0.170871
0.833310 0.290379 0.154330
0.889647 0.304387 0.135866
0.936339 0.316381 0.115450
0.975494 0.326635 0.091463
1.000000 0.335149 0.035615
1.000000 0.342596 0.000000
1.000000 0.348913 0.000000
1.000000 0.354223 0.000000
1.000000 0.359289 0.000000
1.000000 0.363653 0.000000
1.000000 0.367498 0.000000
1.000000 0.370916 0.000000
1.000000 0.373724 0.000000
1.000000 0.376165 0.000000
0.224949 0.203494 0.223148
0.224949 0.203494 0.223148
0.224949 0.203769 0.223239
0.229618 0.204105 0.222995
0.239353 0.204532 0.222751
0.253300 0.205203 0.222354
0.270695 0.205783 0.221836
0.291417 0.206882 0.221164
0.317174 0.208377 0.220157
0.348272 0.210971 0.218753
0.386175 0.214572 0.216739
0.429603 0.219486 0.213993
0.479072 0.226322 0.210208
0.532769 0.234836 0.205234
0.589624 0.244572 0.198917
0.648096 0.255985 0.190951
0.706050 0.268132 0.181430
0.764370 0.281285 0.169619
0.825956 0.295720 0.154086
0.879728 0.308690 0.136690
0.925261 0.319799 0.117525
0.964324 0.329717 0.094820
0.998016 0.337987 0.044587
1.000000 0.345312 0.000000
1.000000 0.351751 0.000000
1.000000 0.357336 0.000000
1.000000 0.362463 0.000000
1.000000 0.366796 0.000000
1.000000 0.370520 0.000000
1.000000 0.373816 0.000000
1.000000 0.376501 0.000000
1.000000 0.378607 0.000000
0.223331 0.208743 0.223392
0.223667 0.208835 0.223362
0.225040 0.209201 0.223301
0.230991 0.210269 0.222202
0.241215 0.210605 0.221958
0.255955 0.211002 0.221561
0.272831 0.211856 0.221042
0.293400 0.213138 0.220310
0.318975 0.215213 0.219242
0.350042 0.218143 0.217746
0.387030 0.222354 0.215640
0.430426 0.228061 0.212711
0.478950 0.235447 0.208804
0.532464 0.244541 0.203586
0.589136 0.254948 0.196994
0.647608 0.266697 0.188724
0.706050 0.278904 0.178775
0.766537 0.292515 0.166049
0.825681 0.306126 0.150454
0.877897 0.318303 0.132906
0.922637 0.328740 0.113313
0.961181 0.337743 0.089876
0.994842 0.345495 0.031861
1.000000 0.352270 0.000000
1.000000 0.358282 0.000000
1.000000 0.363653 0.000000
1.000000 0.368292 0.000000
1.000000 0.372229 0.000000
1.000000 0.375647 0.000000
1.000000 0.378485 0.000000
1.000000 0.380774 0.000000
1.000000 0.382696 0.000000
0.224247 0.215274 0.223392
0.224369 0.215396 0.223362
0.226200 0.216037 0.223026
0.231632 0.217777 0.221592
0.242130 0.218692 0.220890
0.256931 0.219760 0.220401
0.276219 0.221286 0.219699
0.299107 0.222751 0.218845
0.325109 0.225467 0.217624
0.356970 0.229496 0.215854
0.394720 0.234714 0.213443
0.438392 0.241520 0.210178
0.487373 0.249943 0.205783
0.540917 0.259922 0.200107
0.597681 0.271000 0.192874
0.656306 0.283207 0.183902
0.713924 0.295323 0.173281
0.776486 0.309514 0.158846
0.833616 0.322271 0.142306
0.884001 0.333379 0.123568
0.927367 0.342901 0.101930
0.965026 0.350927 0.062287
1.000000 0.373205 0.000000
1.000000 0.377905 0.000000
1.000000 0.381598 0.000000
1.000000 0.384833 0.000000
1.000000 0.387396 0.000000
1.000000 0.389532 0.000000
1.000000 0.391241 0.000000
1.000000 0.392554 0.000000
1.000000 0.393439 0.000000
1.000000 0.393866 0.000000
0.225864 0.225254 0.222995
0.226261 0.225589 0.222934
0.228702 0.226596 0.222141
0.234531 0.228641 0.220645
0.245487 0.231144 0.219059
0.260044 0.231785 0.218601
0.281804 0.235599 0.217472
0.310063 0.240238 0.215885
0.342016 0.244572 0.214084
0.381598 0.250614 0.211460
0.423499 0.257969 0.208103
0.470954 0.266972 0.203647
0.522698 0.277134 0.197940
0.577630 0.288182 0.190799
0.634302 0.299779 0.182071
0.690639 0.311406 0.171695
0.749874 0.324163 0.158267
0.813107 0.338415 0.139803
0.868559 0.350378 0.118502
0.916747 0.360266 0.092470
0.959655 0.368688 0.025605
0.998199 0.375982 0.000000
1.000000 0.382391 0.000000
1.000000 0.387671 0.000000
1.000000 0.391699 0.000000
1.000000 0.394812 0.000000
1.000000 0.396826 0.000000
1.000000 0.398352 0.000000
1.000000 0.399603 0.000000
1.000000 0.400366 0.000000
1.000000 0.400702 0.000000
1.000000 0.400732 0.000000
0.228794 0.235416 0.222080
0.229160 0.235843 0.221897
0.231724 0.236790 0.221225
0.237125 0.238956 0.219669
0.247227 0.242344 0.217563
0.262028 0.244694 0.216556
0.280674 0.246677 0.215732
0.308324 0.253574 0.213748
0.343938 0.262242 0.210941
0.382818 0.269932 0.207828
0.429969 0.279484 0.203494
0.483589 0.290288 0.197787
0.534966 0.300999 0.191318
0.588891 0.312383 0.183352
0.644282 0.323980 0.173678
0.698878 0.335058 0.162417
0.762325 0.349462 0.145480
0.819181 0.361364 0.126223
0.870420 0.371221 0.103029
0.915801 0.379492 0.057160
0.956878 0.386542 0.000000
0.994293 0.392584 0.000000
1.000000 0.397803 0.000000
1.000000 0.402075 0.000000
1.000000 0.405341 0.000000
1.000000 0.407477 0.000000
1.000000 0.408911 0.000000
1.000000 0.409674 0.000000
1.000000 0.410163 0.000000
1.000000 0.410376 0.000000
1.000000 0.410132 0.000000
1.000000 0.409705 0.000000
0.231754 0.247745 0.223270
0.232486 0.248081 0.223087
0.234806 0.248997 0.222416
0.240269 0.251286 0.220951
0.249699 0.255009 0.218662
0.264500 0.259281 0.216068
0.282963 0.262699 0.214450
0.308110 0.267124 0.212345
0.342565 0.278050 0.208438
0.386755 0.291234 0.203311
0.433326 0.302770 0.197971
0.486824 0.315557 0.191165
0.546105 0.328985 0.182467
0.607233 0.342107 0.171878
0.661524 0.353399 0.160678
0.722438 0.367193 0.144564
0.779507 0.378973 0.125643
0.831296 0.388586 0.103029
0.878355 0.396399 0.058381
0.920775 0.402777 0.000000
0.959533 0.408179 0.000000
0.995239 0.412818 0.000000
1.000000 0.416663 0.000000
1.000000 0.419593 0.000000
1.000000 0.421759 0.000000
1.000000 0.422889 0.000000
1.000000 0.423346 0.000000
1.000000 0.423407 0.000000
1.000000 0.423163 0.000000
1.000000 0.422492 0.000000
1.000000 0.421698 0.000000
1.000000 0.420508 0.000000
0.235233 0.262547 0.224247
0.235813 0.262760 0.224063
0.238102 0.263798 0.223484
0.243626 0.266178 0.222110
0.252628 0.270024 0.219883
0.267216 0.275731 0.216617
0.286351 0.280369 0.214298
0.310246 0.285893 0.211673
0.342443 0.293706 0.208164
0.384375 0.308019 0.202213
0.436011 0.324926 0.194308
0.488136 0.338903 0.186038
0.545892 0.353948 0.175387
0.607904 0.369268 0.162051
0.679835 0.387579 0.141695
0.744778 0.401526 0.118868
0.797604 0.411353 0.093660
0.846738 0.419318 0.028656
0.890745 0.425299 0.000000
0.930327 0.429694 0.000000
0.966003 0.432929 0.000000
0.998291 0.435370 0.000000
1.000000 0.437171 0.000000
1.000000 0.438392 0.000000
1.000000 0.438941 0.000000
1.000000 0.438941 0.000000
1.000000 0.438544 0.000000
1.000000 0.437781 0.000000
1.000000 0.436896 0.000000
1.000000 0.435676 0.000000
1.000000 0.434363 0.000000
1.000000 0.432624 0.000000
0.238743 0.278874 0.225315
0.239322 0.279088 0.225162
0.241794 0.280430 0.224491
0.247044 0.283085 0.223056
0.256168 0.287327 0.220676
0.270420 0.293645 0.217197
0.291081 0.301427 0.213046
0.315496 0.307836 0.210178
0.343389 0.313451 0.207034
0.387091 0.328191 0.200351
0.436378 0.345678 0.191836
0.494759 0.365454 0.180148
0.554040 0.382605 0.167208
0.621515 0.402075 0.148684
0.689265 0.419501 0.124605
0.752956 0.433112 0.092531
0.812161 0.443641 0.002686
0.861784 0.450690 0.000000
0.902190 0.455207 0.000000
0.938506 0.457435 0.000000
0.971618 0.458747 0.000000
1.000000 0.459419 0.000000
1.000000 0.459815 0.000000
1.000000 0.459632 0.000000
1.000000 0.458900 0.000000
1.000000 0.457893 0.000000
1.000000 0.456489 0.000000
1.000000 0.454841 0.000000
1.000000 0.452979 0.000000
1.000000 0.450996 0.000000
1.000000 0.448890 0.000000
1.000000 0.446479 0.000000
0.242893 0.299657 0.225620
0.243626 0.300084 0.225376
0.245975 0.301396 0.224704
0.251682 0.304265 0.223270
0.260807 0.309056 0.220829
0.275364 0.315892 0.217197
0.296849 0.325536 0.211734
0.323247 0.334356 0.207004
0.354559 0.343694 0.202243
0.389624 0.351812 0.197238
0.442756 0.371038 0.186801
0.503441 0.394415 0.172396
0.622095 0.452430 0.125154
0.693324 0.472633 0.081117
0.758572 0.486885 0.000000
0.819028 0.497047 0.000000
0.872129 0.502739 0.000000
0.918822 0.505119 0.000000
0.959838 0.505089 0.000000
0.990906 0.504021 0.000000
1.000000 0.502342 0.000000
1.000000 0.500450 0.000000
1.000000 0.497200 0.000000
1.000000 0.493904 0.000000
1.000000 0.490394 0.000000
1.000000 0.486671 0.000000
1.000000 0.482734 0.000000
1.000000 0.478920 0.000000
1.000000 0.475196 0.000000
1.000000 0.471473 0.000000
1.000000 0.467750 0.000000
1.000000 0.463996 0.000000
0.248966 0.331731 0.224643
0.249424 0.331975 0.224582
0.252506 0.333196 0.223728
0.258671 0.336248 0.222019
0.268894 0.340917 0.219394
0.284215 0.347936 0.215274
0.306432 0.357855 0.209262
0.335973 0.370336 0.201450
0.369207 0.380682 0.195590
0.413458 0.397375 0.186313
0.466346 0.415595 0.173861
0.538903 0.445533 0.150027
0.613428 0.474495 0.115541
0.689570 0.500053 0.013336
0.755337 0.515740 0.000000
0.814023 0.525414 0.000000
0.865354 0.530236 0.000000
0.910216 0.531548 0.000000
0.950103 0.530755 0.000000
0.985595 0.528313 0.000000
1.000000 0.524956 0.000000
1.000000 0.521874 0.000000
1.000000 0.518853 0.000000
1.000000 0.515648 0.000000
1.000000 0.511070 0.000000
1.000000 0.506584 0.000000
1.000000 0.501976 0.000000
1.000000 0.497414 0.000000
1.000000 0.492927 0.000000
1.000000 0.488563 0.000000
1.000000 0.484108 0.000000
1.000000 0.479774 0.000000
0.253483 0.357702 0.223209
0.254032 0.357824 0.223026
0.257450 0.359136 0.222141
0.263676 0.362005 0.220493
0.274205 0.366949 0.217472
0.289952 0.375158 0.213138
0.312810 0.386694 0.206546
0.343511 0.401678 0.197116
0.381353 0.417365 0.186954
0.425269 0.433661 0.176089
0.478553 0.453986 0.160098
0.540551 0.474952 0.137850
0.615869 0.503929 0.092592
0.686122 0.527245 0.000000
0.753048 0.544976 0.000000
0.810849 0.554711 0.000000
0.860044 0.558373 0.000000
0.903441 0.558831 0.000000
0.942626 0.557244 0.000000
0.977569 0.554040 0.000000
1.000000 0.549950 0.000000
1.000000 0.545342 0.000000
1.000000 0.540948 0.000000
1.000000 0.536950 0.000000
1.000000 0.533074 0.000000
1.000000 0.528130 0.000000
1.000000 0.522576 0.000000
1.000000 0.517174 0.000000
1.000000 0.511864 0.000000
1.000000 0.506706 0.000000
1.000000 0.501579 0.000000
1.000000 0.496498 0.000000
0.259770 0.393225 0.220096
0.260746 0.393561 0.219852
0.263859 0.394873 0.218875
0.270726 0.397894 0.216861
0.282292 0.402991 0.213504
0.298863 0.410468 0.208652
0.321660 0.421118 0.201541
0.352239 0.435431 0.191165
0.391547 0.453803 0.176242
0.435584 0.469978 0.163302
0.487343 0.489326 0.144472
0.546471 0.510582 0.115663
0.616419 0.533867 0.024842
0.686427 0.556390 0.000000
0.749264 0.572442 0.000000
0.807675 0.583459 0.000000
0.857115 0.587488 0.000000
0.899199 0.587091 0.000000
0.937316 0.584558 0.000000
0.971740 0.580621 0.000000
1.000000 0.575799 0.000000
1.000000 0.570672 0.000000
1.000000 0.565087 0.000000
1.000000 0.559258 0.000000
1.000000 0.554192 0.000000
1.000000 0.549493 0.000000
1.000000 0.544030 0.000000
1.000000 0.537896 0.000000
1.000000 0.531884 0.000000
1.000000 0.526055 0.000000
1.000000 0.520378 0.000000
1.000000 0.514672 0.000000
0.266148 0.428168 0.215579
0.267185 0.428717 0.215366
0.270756 0.430335 0.214298
0.277958 0.433570 0.212039
0.289982 0.439063 0.208438
0.307347 0.446967 0.202823
0.331121 0.458198 0.194705
0.362127 0.473030 0.182803
0.401892 0.491737 0.165316
0.448524 0.511406 0.143404
0.499580 0.529625 0.118837
0.557549 0.550103 0.057923
0.614618 0.565087 0.000000
0.685847 0.585748 0.000000
0.745571 0.599420 0.000000
0.800046 0.608637 0.000000
0.850004 0.613519 0.000000
0.893248 0.613855 0.000000
0.930816 0.610956 0.000000
0.965240 0.606653 0.000000
0.997101 0.601709 0.000000
1.000000 0.596155 0.000000
1.000000 0.590265 0.000000
1.000000 0.584009 0.000000
1.000000 0.577447 0.000000
1.000000 0.571008 0.000000
1.000000 0.565667 0.000000
1.000000 0.559594 0.000000
1.000000 0.552697 0.000000
1.000000 0.546044 0.000000
1.000000 0.539422 0.000000
1.000000 0.532860 0.000000
0.272526 0.462165 0.210239
0.273625 0.462654 0.209903
0.277012 0.464118 0.208804
0.284825 0.467506 0.206332
0.297063 0.472999 0.202182
0.314580 0.480934 0.196078
0.338354 0.491859 0.187106
0.369177 0.506065 0.173983
0.407446 0.523522 0.155001
0.454108 0.544488 0.124636
0.504509 0.562829 0.087678
0.559747 0.581476 0.000000
0.620233 0.600977 0.000000
0.675227 0.611170 0.000000
0.744137 0.627710 0.000000
0.796780 0.635859 0.000000
0.844297 0.639796 0.000000
0.888243 0.640681 0.000000
0.927153 0.638453 0.000000
0.960906 0.633600 0.000000
0.992645 0.628199 0.000000
1.000000 0.622126 0.000000
1.000000 0.615686 0.000000
1.000000 0.609003 0.000000
1.000000 0.601984 0.000000
1.000000 0.594812 0.000000
1.000000 0.587518 0.000000
1.000000 0.580835 0.000000
1.000000 0.574029 0.000000
1.000000 0.566552 0.000000
1.000000 0.559136 0.000000
1.000000 0.551812 0.000000
0.280034 0.499367 0.203037
0.280827 0.499947 0.202731
0.290990 0.527367 0.196078
0.299382 0.530938 0.192935
0.313695 0.536645 0.187472
0.333257 0.544701 0.179263
0.359167 0.555383 0.167391
0.392279 0.569329 0.149386
0.432410 0.586175 0.120943
0.480140 0.605768 0.036439
0.533288 0.625513 0.000000
0.588098 0.641627 0.000000
0.646876 0.657923 0.000000
0.709316 0.674250 0.000000
0.761929 0.677913 0.000000
0.820951 0.683772 0.000000
0.863096 0.682979 0.000000
0.902037 0.679957 0.000000
0.938048 0.675288 0.000000
0.970916 0.669093 0.000000
1.000000 0.661372 0.000000
1.000000 0.653681 0.000000
1.000000 0.645808 0.000000
1.000000 0.637568 0.000000
1.000000 0.629114 0.000000
1.000000 0.620600 0.000000
1.000000 0.612177 0.000000
1.000000 0.603815 0.000000
1.000000 0.595514 0.000000
1.000000 0.587274 0.000000
1.000000 0.579095 0.000000
1.000000 0.571008 0.000000
0.289464 0.544457 0.192660
0.290898 0.547356 0.191775
0.295811 0.551598 0.189517
0.305119 0.557336 0.185611
0.318944 0.564385 0.179629
0.338323 0.572564 0.170932
0.363592 0.582757 0.158175
0.394903 0.594995 0.138979
0.432471 0.609735 0.108766
0.476722 0.626734 0.002716
0.527062 0.645777 0.000000
0.579980 0.662043 0.000000
0.635523 0.676814 0.000000
0.694270 0.691798 0.000000
0.755276 0.706233 0.000000
0.803159 0.705043 0.000000
0.855528 0.706600 0.000000
0.894163 0.703822 0.000000
0.930327 0.699458 0.000000
0.963958 0.693782 0.000000
0.994781 0.686915 0.000000
1.000000 0.679011 0.000000
1.000000 0.670771 0.000000
1.000000 0.662165 0.000000
1.000000 0.653285 0.000000
1.000000 0.644282 0.000000
1.000000 0.635309 0.000000
1.000000 0.626429 0.000000
1.000000 0.617731 0.000000
1.000000 0.608759 0.000000
1.000000 0.598657 0.000000
1.000000 0.589929 0.000000
0.296544 0.576532 0.182925
0.298222 0.579553 0.181918
0.303105 0.583978 0.179263
0.311925 0.589441 0.175418
0.325963 0.596277 0.168643
0.345129 0.603937 0.159213
0.369299 0.612909 0.145296
0.399481 0.623774 0.124697
0.435248 0.636896 0.088502
0.476783 0.651850 0.000000
0.524224 0.668818 0.000000
0.576654 0.686641 0.000000
0.629419 0.700069 0.000000
0.685298 0.713588 0.000000
0.743130 0.726497 0.000000
0.797391 0.734188 0.000000
0.844907 0.732113 0.000000
0.890929 0.729946 0.000000
0.926146 0.725124 0.000000
0.959167 0.719112 0.000000
0.989868 0.712001 0.000000
1.000000 0.704219 0.000000
1.000000 0.695735 0.000000
1.000000 0.686763 0.000000
1.000000 0.677485 0.000000
1.000000 0.668086 0.000000
1.000000 0.658564 0.000000
1.000000 0.649256 0.000000
1.000000 0.640040 0.000000
1.000000 0.631006 0.000000
1.000000 0.620600 0.000000
1.000000 0.608972 0.000000
0.304265 0.610193 0.170993
0.306096 0.612848 0.169986
0.310735 0.616754 0.167239
0.319738 0.621668 0.162905
0.333349 0.627741 0.155825
0.352056 0.634607 0.145449
0.375555 0.642786 0.129641
0.404303 0.652552 0.105379
0.438544 0.664302 0.027100
0.478218 0.677913 0.000000
0.523308 0.693263 0.000000
0.573114 0.709834 0.000000
0.625055 0.724056 0.000000
0.677821 0.735836 0.000000
0.733181 0.747524 0.000000
0.790066 0.758877 0.000000
0.837827 0.760250 0.000000
0.885832 0.758358 0.000000
0.927581 0.754177 0.000000
0.960967 0.748348 0.000000
0.992126 0.741451 0.000000
1.000000 0.733577 0.000000
1.000000 0.724819 0.000000
1.000000 0.715633 0.000000
1.000000 0.705959 0.000000
1.000000 0.695949 0.000000
1.000000 0.685817 0.000000
1.000000 0.675715 0.000000
1.000000 0.665766 0.000000
1.000000 0.655879 0.000000
1.000000 0.645808 0.000000
1.000000 0.633509 0.000000
0.317571 0.658961 0.152499
0.318700 0.660273 0.151644
0.323064 0.662196 0.149569
0.331640 0.665064 0.144778
0.344762 0.669276 0.136782
0.362829 0.674434 0.124605
0.385809 0.681270 0.105013
0.414069 0.689876 0.049409
0.447517 0.700404 0.000000
0.485878 0.712795 0.000000
0.528954 0.726314 0.000000
0.576410 0.740688 0.000000
0.627619 0.755245 0.000000
0.678492 0.765591 0.000000
0.731258 0.775631 0.000000
0.785702 0.785306 0.000000
0.841489 0.794553 0.000000
0.882902 0.789731 0.000000
0.927276 0.785031 0.000000
0.963256 0.777554 0.000000
0.992615 0.769192 0.000000
1.000000 0.760098 0.000000
1.000000 0.750271 0.000000
1.000000 0.739925 0.000000
1.000000 0.729702 0.000000
1.000000 0.719356 0.000000
1.000000 0.708919 0.000000
1.000000 0.698451 0.000000
1.000000 0.688106 0.000000
1.000000 0.677790 0.000000
1.000000 0.667445 0.000000
1.000000 0.655543 0.000000
0.326848 0.692622 0.135103
0.328038 0.693721 0.134279
0.332494 0.695521 0.131716
0.340734 0.698268 0.125826
0.353552 0.702022 0.116548
0.371221 0.706813 0.100832
0.393530 0.713069 0.057252
0.420996 0.720821 0.000000
0.453071 0.730159 0.000000
0.489876 0.740841 0.000000
0.530663 0.752560 0.000000
0.575494 0.765103 0.000000
0.623987 0.777920 0.000000
0.674434 0.789395 0.000000
0.725063 0.798337 0.000000
0.777310 0.807065 0.000000
0.831113 0.815549 0.000000
0.885740 0.823514 0.000000
0.922454 0.814298 0.000000
0.962707 0.806607 0.000000
0.994354 0.797299 0.000000
1.000000 0.787594 0.000000
1.000000 0.777157 0.000000
1.000000 0.766262 0.000000
1.000000 0.752255 0.000000
1.000000 0.741482 0.000000
1.000000 0.730892 0.000000
1.000000 0.720272 0.000000
1.000000 0.709590 0.000000
1.000000 0.698909 0.000000
1.000000 0.688289 0.000000
1.000000 0.676905 0.000000
0.340612 0.735714 0.111452
0.342351 0.737331 0.110750
0.346380 0.738857 0.107362
0.354589 0.740627 0.099947
0.366674 0.742824 0.085451
0.383520 0.745846 0.036469
0.404547 0.749813 0.000000
0.430213 0.755032 0.000000
0.460334 0.761685 0.000000
0.494606 0.769619 0.000000
0.532647 0.778500 0.000000
0.574701 0.788510 0.000000
0.619928 0.798978 0.000000
0.667933 0.809506 0.000000
0.716182 0.817166 0.000000
0.765286 0.824033 0.000000
0.816068 0.830900 0.000000
0.867918 0.837705 0.000000
0.918700 0.842496 0.000000
0.952361 0.830930 0.000000
0.989380 0.821530 0.000000
1.000000 0.811246 0.000000
1.000000 0.800473 0.000000
1.000000 0.789029 0.000000
1.000000 0.777066 0.000000
1.000000 0.764828 0.000000
1.000000 0.753292 0.000000
1.000000 0.742092 0.000000
1.000000 0.730953 0.000000
1.000000 0.719905 0.000000
1.000000 0.708949 0.000000
1.000000 0.697719 0.000000
0.349706 0.763973 0.082399
0.351415 0.765438 0.080385
0.355505 0.766964 0.072572
0.363226 0.768826 0.050752
0.375280 0.771298 0.013825
0.391363 0.774563 0.000000
0.412268 0.778866 0.000000
0.437629 0.784360 0.000000
0.467018 0.790921 0.000000
0.500359 0.798520 0.000000
0.537224 0.806790 0.000000
0.577569 0.815702 0.000000
0.620722 0.824887 0.000000
0.666651 0.834073 0.000000
0.714076 0.842283 0.000000
0.761349 0.847959 0.000000
0.809934 0.853544 0.000000
0.859556 0.859098 0.000000
0.910307 0.864622 0.000000
0.953948 0.863371 0.000000
0.986725 0.851164 0.000000
1.000000 0.839231 0.000000
1.000000 0.827665 0.000000
1.000000 0.815702 0.000000
1.000000 0.803281 0.000000
1.000000 0.790585 0.000000
1.000000 0.777768 0.000000
1.000000 0.765621 0.000000
1.000000 0.753994 0.000000
1.000000 0.742428 0.000000
1.000000 0.730709 0.000000
1.000000 0.718929 0.000000
0.363165 0.798856 0.019776
0.364324 0.799619 0.016815
0.368170 0.800595 0.005707
0.375555 0.801938 0.000000
0.386725 0.803830 0.000000
0.402319 0.806424 0.000000
0.422034 0.809934 0.000000
0.446204 0.814267 0.000000
0.474037 0.819608 0.000000
0.505791 0.825864 0.000000
0.541131 0.832853 0.000000
0.579431 0.840391 0.000000
0.620478 0.848264 0.000000
0.663996 0.856107 0.000000
0.709865 0.863706 0.000000
0.755795 0.869291 0.000000
0.802396 0.873869 0.000000
0.850156 0.878416 0.000000
0.898772 0.882963 0.000000
0.948211 0.887388 0.000000
0.984527 0.880247 0.000000
1.000000 0.867369 0.000000
1.000000 0.853391 0.000000
1.000000 0.840848 0.000000
1.000000 0.827848 0.000000
1.000000 0.814603 0.000000
1.000000 0.801236 0.000000
1.000000 0.787869 0.000000
1.000000 0.775235 0.000000
1.000000 0.763210 0.000000
1.000000 0.751186 0.000000
1.000000 0.739040 0.000000
0.375463 0.829648 0.000000
0.376623 0.830259 0.000000
0.380316 0.831205 0.000000
0.387427 0.832547 0.000000
0.398505 0.834592 0.000000
0.413916 0.837613 0.000000
0.433722 0.841917 0.000000
0.457740 0.847288 0.000000
0.485878 0.853605 0.000000
0.517479 0.860716 0.000000
0.552789 0.868376 0.000000
0.590753 0.876188 0.000000
0.631189 0.883909 0.000000
0.673671 0.891203 0.000000
0.717952 0.898009 0.000000
0.763546 0.903838 0.000000
0.808682 0.907164 0.000000
0.854826 0.910338 0.000000
0.901610 0.913420 0.000000
0.949035 0.916320 0.000000
0.996612 0.918883 0.000000
1.000000 0.905394 0.000000
1.000000 0.889982 0.000000
1.000000 0.873503 0.000000
1.000000 0.859190 0.000000
1.000000 0.844663 0.000000
1.000000 0.830106 0.000000
1.000000 0.815549 0.000000
1.000000 0.801114 0.000000
1.000000 0.787350 0.000000
1.000000 0.774319 0.000000
1.000000 0.761196 0.000000
0.400610 0.875273 0.058930
0.401190 0.875395 0.057649
0.404486 0.875669 0.045930
0.410681 0.876341 0.020569
0.420783 0.877440 0.000000
0.434760 0.879149 0.000000
0.452705 0.881529 0.000000
0.474617 0.884611 0.000000
0.499886 0.888334 0.000000
0.529046 0.892729 0.000000
0.561089 0.897581 0.000000
0.596063 0.902770 0.000000
0.633600 0.908141 0.000000
0.673243 0.913420 0.000000
