20 Preset/Street 2/【3】LUT video cho PR-AE-FCPX/Tone 1 (11).cube
# Created by Adobe Lightroom plugin Export LUT (1.24.0)
# www.johnrellis.com/lightroom/exportlut.htm
# Preset: 青橙风光-素材江湖11
# Color profile: C:\Program Files (x86)\Common Files\Adobe\Color\Profiles\Recommended\VideoHD.icc
LUT_3D_SIZE 5
DOMAIN_MIN 0.000000 0.000000 0.000000
DOMAIN_MAX 0.903226 0.903226 0.903226
0.198123 0.157137 0.155978
0.250614 0.151827 0.158541
0.461372 0.088991 0.159457
0.765469 0.000000 0.140658
1.000000 0.000000 0.106783
0.203830 0.191745 0.155886
0.272557 0.179629 0.151095
0.471412 0.162570 0.145510
0.779049 0.093629 0.114778
1.000000 0.000000 0.027985
0.285191 0.337499 0.113619
0.348516 0.340093 0.100130
0.571038 0.334630 0.000000
0.835294 0.352880 0.000000
1.000000 0.309087 0.000000
0.402594 0.594079 0.000000
0.460578 0.600488 0.000000
0.654444 0.624201 0.000000
0.872374 0.541436 0.000000
1.000000 0.514549 0.000000
0.449470 0.886442 0.000000
0.508202 0.887144 0.000000
0.682673 0.867460 0.000000
0.959075 0.868009 0.000000
1.000000 0.691188 0.000000
0.208103 0.174228 0.187442
0.232731 0.165164 0.192264
0.407568 0.133761 0.210544
0.720943 0.000000 0.175082
0.996216 0.000000 0.126009
0.211765 0.196445 0.190616
0.251194 0.202060 0.200412
0.450324 0.174166 0.186435
0.733883 0.102083 0.157870
1.000000 0.000000 0.094606
0.239384 0.347356 0.166049
0.309728 0.349645 0.154818
0.533989 0.320134 0.120821
0.787320 0.330144 0.000000
1.000000 0.313146 0.000000
0.345098 0.599573 0.000000
0.418341 0.607080 0.000000
0.637903 0.628656 0.000000
0.862882 0.539300 0.000000
1.000000 0.515923 0.000000
0.429816 0.884703 0.000000
0.490578 0.884489 0.000000
0.686824 0.888151 0.000000
0.968566 0.883635 0.000000
1.000000 0.698695 0.000000
0.206394 0.248203 0.286961
0.223362 0.250767 0.303746
0.377661 0.195987 0.344884
0.563684 0.188479 0.421546
0.945861 0.000000 0.442664
0.218875 0.276799 0.301732
0.248722 0.281804 0.313817
0.401831 0.236637 0.366461
0.613489 0.224002 0.435950
0.974304 0.000000 0.412116
0.218692 0.386450 0.360388
0.276219 0.398749 0.375341
0.501976 0.460365 0.454078
0.773983 0.393622 0.391424
1.000000 0.318151 0.324620
0.197757 0.657069 0.350744
0.266911 0.648371 0.336095
0.500420 0.656611 0.291539
0.851041 0.569482 0.212528
1.000000 0.501549 0.000000
0.000000 0.875669 0.000000
0.193942 0.877440 0.000000
0.544701 0.883421 0.000000
0.903593 0.883207 0.000000
1.000000 0.697780 0.000000
0.138949 0.393988 0.473030
0.175692 0.397925 0.490181
0.293706 0.369421 0.544976
0.575860 0.264347 0.581506
0.775021 0.265507 0.648432
0.175662 0.414160 0.479377
0.209781 0.415412 0.490059
0.323522 0.401099 0.546319
0.577386 0.295506 0.580957
0.777401 0.303044 0.650690
0.180423 0.471443 0.509575
0.234714 0.474250 0.514702
0.391669 0.500359 0.554345
0.616236 0.438483 0.619471
0.818570 0.462867 0.695827
0.028138 0.647669 0.603052
0.205722 0.650813 0.608240
0.444953 0.683284 0.650782
0.745357 0.767056 0.757443
0.968444 0.677516 0.668940
0.244205 0.885618 0.618402
0.311833 0.886931 0.621332
0.477760 0.894896 0.627314
0.677821 0.899260 0.524773
1.000000 0.747890 0.374670
0.267552 0.673671 0.787198
0.294377 0.669459 0.789090
0.403876 0.656672 0.804868
0.503807 0.567407 0.826535
0.784207 0.470100 0.843442
0.268589 0.675471 0.778073
0.297185 0.672572 0.781125
0.401495 0.659907 0.796597
0.500328 0.573663 0.820096
0.781399 0.480690 0.839048
0.248508 0.700923 0.781918
0.290135 0.698421 0.779995
0.418341 0.695644 0.785061
0.542779 0.648310 0.813596
0.789792 0.555627 0.843259
0.217868 0.770230 0.807523
0.259983 0.766934 0.805753
0.404273 0.763546 0.807706
0.615351 0.774166 0.823850
0.830747 0.728145 0.873899
0.224247 0.895872 0.845487
0.280644 0.895140 0.846067
0.456916 0.897032 0.854826
0.670985 0.900542 0.873045
0.924224 0.941497 0.937407
