20 Preset/Street 2/【3】LUT video cho PR-AE-FCPX/Tone 1 (3).cube
# Created by Adobe Lightroom plugin Export LUT (1.24.0)
# www.johnrellis.com/lightroom/exportlut.htm
# Preset: 青橙风光-素材江湖03
# Color profile: C:\Program Files (x86)\Common Files\Adobe\Color\Profiles\Recommended\VideoHD.icc
LUT_3D_SIZE 8
DOMAIN_MIN 0.000000 0.000000 0.000000
DOMAIN_MAX 0.903226 0.903226 0.903226
0.111482 0.123384 0.099184
0.150393 0.121035 0.099245
0.300267 0.092226 0.097169
0.565728 0.000000 0.079011
0.902129 0.000000 0.000000
1.000000 0.000000 0.000000
1.000000 0.000000 0.000000
1.000000 0.206424 0.000000
0.123934 0.142580 0.108827
0.140139 0.142336 0.106447
0.268376 0.141970 0.099245
0.497566 0.028901 0.083680
0.831571 0.000000 0.000000
1.000000 0.000000 0.000000
1.000000 0.000000 0.000000
1.000000 0.234958 0.000000
0.179690 0.196201 0.132448
0.190158 0.194736 0.129183
0.225467 0.194705 0.121035
0.449897 0.223484 0.068818
0.781674 0.206790 0.000000
1.000000 0.290501 0.000000
1.000000 0.378790 0.000000
1.000000 0.404486 0.000000
0.260472 0.272679 0.167910
0.269596 0.270024 0.164675
0.303899 0.274418 0.152773
0.411078 0.291020 0.129580
0.803220 0.409522 0.000000
1.000000 0.533837 0.000000
1.000000 0.566613 0.000000
1.000000 0.561028 0.000000
0.394141 0.387762 0.210941
0.403235 0.385412 0.207553
0.441901 0.386084 0.195956
0.523430 0.408637 0.165652
0.658076 0.428717 0.099519
0.965270 0.582238 0.000000
1.000000 0.678706 0.000000
1.000000 0.694026 0.000000
0.572320 0.543542 0.279088
0.596765 0.557702 0.284184
0.634455 0.554498 0.270420
0.693019 0.577020 0.242863
0.781643 0.605615 0.178073
0.907805 0.647059 0.003937
1.000000 0.763577 0.000000
1.000000 0.794369 0.000000
0.790951 0.779782 0.451057
0.801114 0.783597 0.453101
0.825589 0.779660 0.437507
0.864134 0.784756 0.416876
0.908476 0.797238 0.375189
0.966033 0.811948 0.334386
1.000000 0.823728 0.347509
1.000000 0.857633 0.416510
0.928985 0.934966 0.785122
0.931334 0.934783 0.783780
0.942321 0.935058 0.781552
0.961456 0.935393 0.780606
0.971862 0.923369 0.711788
0.992920 0.928466 0.720821
1.000000 0.930663 0.737850
1.000000 0.924773 0.739834
0.121004 0.139681 0.118959
0.133303 0.130770 0.118105
0.264530 0.111421 0.099428
0.463416 0.029389 0.089326
0.801175 0.000000 0.000000
1.000000 0.000000 0.000000
1.000000 0.000000 0.000000
1.000000 0.182406 0.000000
0.122103 0.145205 0.117678
0.139437 0.152834 0.123537
0.249516 0.151217 0.108003
0.444831 0.125612 0.088563
0.775082 0.000000 0.000000
1.000000 0.000000 0.000000
1.000000 0.000000 0.000000
1.000000 0.219883 0.000000
0.179019 0.207126 0.151095
0.191073 0.206180 0.147829
0.225284 0.200595 0.132784
0.413153 0.219150 0.086427
0.727260 0.209445 0.000000
1.000000 0.256962 0.000000
1.000000 0.338994 0.000000
1.000000 0.381170 0.000000
0.252537 0.274571 0.178622
0.262028 0.272923 0.175570
0.298222 0.275334 0.164950
0.372503 0.276066 0.140139
0.688777 0.343084 0.000000
0.982208 0.454231 0.000000
1.000000 0.516381 0.000000
1.000000 0.533776 0.000000
0.385138 0.389044 0.221927
0.392279 0.385290 0.217990
0.427588 0.379217 0.205478
0.493812 0.393103 0.177798
0.603418 0.395666 0.120607
0.915618 0.531609 0.000000
1.000000 0.649104 0.000000
1.000000 0.677546 0.000000
0.544884 0.526024 0.280247
0.554620 0.526238 0.277958
0.592981 0.524468 0.266239
0.655787 0.546166 0.243778
0.749355 0.578668 0.190341
0.883513 0.620142 0.000000
1.000000 0.747433 0.000000
1.000000 0.784054 0.000000
0.756649 0.748165 0.425635
0.758846 0.742641 0.417548
0.783322 0.737514 0.401678
0.829496 0.745785 0.384833
0.886900 0.772671 0.355108
0.950958 0.789914 0.298192
1.000000 0.802090 0.293217
1.000000 0.843229 0.350683
0.917479 0.925383 0.755398
0.921721 0.927001 0.760128
0.933379 0.926970 0.756283
0.955688 0.927489 0.755795
0.972992 0.930663 0.746426
0.993133 0.930205 0.728786
1.000000 0.928954 0.729946
1.000000 0.922850 0.731044
0.138643 0.174563 0.163546
0.139834 0.168276 0.163149
0.191531 0.152377 0.162936
0.326574 0.149844 0.166323
0.839445 0.000000 0.102846
1.000000 0.000000 0.000000
1.000000 0.205509 0.000000
1.000000 0.274022 0.000000
0.145602 0.186435 0.164736
0.155612 0.188022 0.170932
0.203067 0.171359 0.172702
0.376257 0.151308 0.171603
0.806546 0.000000 0.105135
1.000000 0.000000 0.000000
1.000000 0.238346 0.000000
1.000000 0.297612 0.000000
0.175723 0.217838 0.179568
0.188846 0.225223 0.185916
0.253666 0.259312 0.216709
0.480201 0.245304 0.179507
0.788266 0.222385 0.089754
1.000000 0.300664 0.000000
1.000000 0.386114 0.000000
1.000000 0.411841 0.000000
0.247654 0.310460 0.229252
0.265721 0.323827 0.237095
0.344427 0.339544 0.244144
0.444251 0.342199 0.217288
0.757321 0.397375 0.085481
1.000000 0.482277 0.000000
1.000000 0.544182 0.000000
1.000000 0.553491 0.000000
0.405585 0.448432 0.300511
0.415808 0.446448 0.296178
0.462928 0.440589 0.280491
0.547112 0.452125 0.256168
0.670771 0.463600 0.208255
0.939300 0.565118 0.000000
1.000000 0.655909 0.000000
1.000000 0.684535 0.000000
0.550439 0.568292 0.350713
0.561303 0.569574 0.348882
0.598840 0.566125 0.335576
0.664790 0.571527 0.312902
0.756924 0.605280 0.274876
0.887449 0.642237 0.205234
1.000000 0.744106 0.000000
1.000000 0.785580 0.000000
0.753536 0.777951 0.497902
0.756771 0.773800 0.490639
0.778683 0.765286 0.470466
0.828000 0.759274 0.446052
0.883207 0.784726 0.422095
0.949187 0.805203 0.383978
1.000000 0.809934 0.317296
1.000000 0.850767 0.384466
0.908232 0.928496 0.780667
0.909911 0.927489 0.776608
0.921294 0.927245 0.772152
0.947051 0.931121 0.778164
0.967193 0.932494 0.770291
0.989593 0.933501 0.753109
1.000000 0.931151 0.739895
1.000000 0.924956 0.740627
0.151858 0.205814 0.206332
0.155093 0.203983 0.209049
0.175753 0.188113 0.211368
0.252934 0.173709 0.211551
0.292149 0.197604 0.196109
0.963073 0.000000 0.232486
1.000000 0.000000 0.060426
1.000000 0.261662 0.000000
0.161898 0.221561 0.215579
0.169650 0.222721 0.221134
0.185977 0.203983 0.224369
0.267918 0.186557 0.223636
0.320928 0.206424 0.208499
1.000000 0.000000 0.226627
1.000000 0.000000 0.041047
1.000000 0.297368 0.000000
0.186954 0.257389 0.231510
0.196384 0.263218 0.237858
0.239231 0.278172 0.268956
0.326238 0.244450 0.270970
0.568994 0.231327 0.287633
1.000000 0.147433 0.263737
1.000000 0.350134 0.044526
1.000000 0.422950 0.000000
0.242283 0.319005 0.274235
0.255222 0.327153 0.282261
0.326452 0.370489 0.325994
0.535149 0.492439 0.454505
0.835996 0.474037 0.370153
1.000000 0.491279 0.254734
1.000000 0.527947 0.000000
1.000000 0.552270 0.000000
0.385382 0.463233 0.380682
0.399054 0.473701 0.388098
0.467903 0.528679 0.426368
0.623865 0.585016 0.467994
0.757656 0.604120 0.436713
0.980529 0.657191 0.306737
1.000000 0.690089 0.000000
1.000000 0.689082 0.000000
0.549340 0.655695 0.489845
0.579217 0.675990 0.511833
0.637079 0.690333 0.526757
0.710079 0.683131 0.496040
0.803647 0.703944 0.468849
0.913573 0.727260 0.434180
1.000000 0.781765 0.326085
1.000000 0.792386 0.000000
0.737911 0.820493 0.624964
0.745266 0.821530 0.624475
0.772122 0.821439 0.615442
0.825498 0.821012 0.596551
0.887663 0.827268 0.573510
0.945678 0.842435 0.551446
1.000000 0.841367 0.505882
1.000000 0.858213 0.436194
0.900389 0.939483 0.836240
0.902281 0.939269 0.835019
0.911406 0.938842 0.831144
0.931548 0.939086 0.826322
0.958526 0.938384 0.817380
0.979400 0.940520 0.806241
1.000000 0.937499 0.782467
1.000000 0.928405 0.755825
0.164767 0.248051 0.268376
0.169467 0.247501 0.272343
0.177554 0.229587 0.272099
0.227817 0.209079 0.268925
0.315587 0.185916 0.261631
0.361700 0.207675 0.239811
0.904509 0.000000 0.364904
1.000000 0.000000 0.306798
0.172274 0.260960 0.278264
0.178531 0.262150 0.284398
0.187900 0.244816 0.285771
0.234989 0.219150 0.279637
0.329076 0.193790 0.272465
0.374731 0.215579 0.247379
0.941253 0.000000 0.378454
1.000000 0.000000 0.319860
0.194125 0.300328 0.300267
0.200320 0.301579 0.305272
0.230228 0.304417 0.326696
0.265110 0.265751 0.326848
0.385901 0.232456 0.318364
0.424231 0.251743 0.277317
1.000000 0.000000 0.417456
1.000000 0.337285 0.374945
0.234226 0.355871 0.336492
0.244297 0.361517 0.342870
0.292790 0.390265 0.376104
0.411017 0.439307 0.459297
0.550774 0.375708 0.459419
0.756954 0.385107 0.459297
1.000000 0.528313 0.543725
1.000000 0.531243 0.377356
0.329168 0.445167 0.403632
0.343664 0.454261 0.413062
0.408545 0.493233 0.454414
0.556512 0.589532 0.556878
0.777829 0.765682 0.739925
0.962005 0.738125 0.656764
1.000000 0.713954 0.540276
1.000000 0.681209 0.362249
0.493812 0.576471 0.512413
0.504448 0.586175 0.520897
0.544762 0.621424 0.549706
0.635309 0.703578 0.615381
0.779232 0.767453 0.669368
0.892363 0.803891 0.678004
1.000000 0.823026 0.594385
1.000000 0.810910 0.423285
0.638361 0.806516 0.660090
0.642298 0.807980 0.659144
0.677729 0.821195 0.672297
0.782254 0.853147 0.735805
0.849088 0.851316 0.709468
0.916716 0.863096 0.695521
0.978820 0.867063 0.678584
1.000000 0.873045 0.597955
0.861204 0.934600 0.848234
0.865110 0.934905 0.850065
0.877195 0.935607 0.852110
0.901427 0.939818 0.856168
0.932036 0.940459 0.849393
0.963531 0.942229 0.842069
0.989715 0.942565 0.829862
1.000000 0.932372 0.794491
0.165835 0.327794 0.400244
0.172854 0.327428 0.404639
0.184146 0.303319 0.395270
0.213291 0.262119 0.382422
0.311498 0.231022 0.366217
0.410101 0.190036 0.338476
0.467811 0.211704 0.308782
0.878752 0.139223 0.457343
0.173007 0.327672 0.390173
0.179232 0.326055 0.392218
0.192020 0.307744 0.389441
0.213993 0.265904 0.379095
0.308721 0.234745 0.362066
0.408881 0.195041 0.337438
0.465827 0.216342 0.307622
0.885435 0.131594 0.456489
0.194949 0.370703 0.419501
0.202121 0.369848 0.422370
0.231662 0.366674 0.437354
0.244541 0.315404 0.424201
0.336400 0.269017 0.402564
0.456580 0.220768 0.376471
0.515892 0.244694 0.338811
0.997284 0.183139 0.525078
0.248569 0.450141 0.468360
0.256840 0.451026 0.469795
0.291722 0.454658 0.486610
0.370123 0.463966 0.536126
0.426581 0.381628 0.523827
0.589868 0.311040 0.492164
0.637232 0.331975 0.423896
1.000000 0.446143 0.647486
0.312596 0.499641 0.494453
0.322148 0.503380 0.498756
0.364691 0.522850 0.521050
0.459480 0.572686 0.578210
0.610925 0.641382 0.681758
0.750240 0.552697 0.670069
0.902953 0.565026 0.644709
1.000000 0.773831 0.778225
0.427558 0.592340 0.559380
0.441718 0.603296 0.571038
0.484749 0.627375 0.596429
0.577386 0.683803 0.655756
0.731655 0.786435 0.761807
0.898924 0.908873 0.891936
0.983948 0.896666 0.860624
1.000000 0.871000 0.798093
0.628748 0.773007 0.718624
0.640925 0.780728 0.727230
0.676081 0.798428 0.747311
0.737575 0.834287 0.783474
0.818814 0.882933 0.830594
0.900481 0.910521 0.861143
0.951812 0.918975 0.861784
1.000000 0.916594 0.818112
0.822171 0.925597 0.862028
0.822110 0.925383 0.860716
0.830594 0.928191 0.861936
0.854398 0.937011 0.870542
0.903746 0.947051 0.895598
0.939391 0.948211 0.889433
0.972198 0.952056 0.886717
1.000000 0.947997 0.874571
0.180697 0.476967 0.628473
0.194095 0.476967 0.633753
0.207370 0.450782 0.626795
0.227573 0.393164 0.614923
0.333349 0.325750 0.583276
0.467018 0.252445 0.531823
0.564324 0.171756 0.469123
0.619745 0.200565 0.420020
0.183383 0.470375 0.610773
0.195407 0.471656 0.617517
0.214694 0.449195 0.613489
0.230076 0.391150 0.597223
0.323095 0.323461 0.566003
0.450477 0.253391 0.513542
0.544976 0.178988 0.452125
0.597162 0.204868 0.403510
0.220554 0.513481 0.634913
0.229465 0.510552 0.635523
0.261143 0.494728 0.635126
0.275059 0.439429 0.621576
0.330327 0.354131 0.588434
0.468177 0.279942 0.539086
0.582910 0.198093 0.485176
0.653651 0.229862 0.443824
0.285466 0.587243 0.668544
0.289342 0.581140 0.664790
0.314000 0.567559 0.663935
0.370245 0.546166 0.675135
0.372045 0.442481 0.652796
0.517449 0.352148 0.609400
0.658045 0.254398 0.554528
0.733974 0.294926 0.506218
0.346136 0.639155 0.678279
0.349767 0.635920 0.675227
0.374823 0.636164 0.677211
0.426337 0.639185 0.692317
0.511009 0.621942 0.722103
0.568292 0.491127 0.694118
0.742794 0.379706 0.643885
0.826322 0.423468 0.589227
0.427436 0.701198 0.709773
0.434241 0.703456 0.712062
0.461311 0.710536 0.720211
0.517266 0.727413 0.738796
0.612482 0.760494 0.773678
0.758175 0.807645 0.837034
0.872892 0.714107 0.824582
0.972992 0.752834 0.805905
0.562554 0.797360 0.772488
0.571221 0.800961 0.776150
0.596765 0.807797 0.783230
0.652491 0.824765 0.800870
0.742855 0.853880 0.831662
0.857816 0.902617 0.884825
0.953735 0.961028 0.952544
0.997803 0.952178 0.934783
0.789670 0.908812 0.874296
0.794095 0.910002 0.875914
0.814054 0.915923 0.883909
0.843198 0.923857 0.894957
0.879179 0.935485 0.910094
0.915068 0.952941 0.926696
0.957305 0.964416 0.939910
0.984466 0.967285 0.940337
0.535698 0.754788 0.888182
0.541802 0.754025 0.889433
0.531518 0.730770 0.886717
0.522911 0.684474 0.886564
0.516258 0.586694 0.884367
0.638178 0.498390 0.869413
0.785885 0.358556 0.843748
0.891112 0.173129 0.788174
0.519066 0.747829 0.881895
0.525933 0.747524 0.883391
0.525139 0.729091 0.882475
0.513512 0.681178 0.881224
0.502739 0.581628 0.878630
0.626398 0.493324 0.862669
0.771969 0.351690 0.832517
0.874083 0.166140 0.770687
0.529625 0.764828 0.880125
0.532891 0.762814 0.880613
0.538201 0.748318 0.879728
0.545800 0.716243 0.883360
0.525261 0.620386 0.879118
0.618219 0.515343 0.862608
0.767208 0.376440 0.833951
0.877256 0.200595 0.774716
0.558740 0.799893 0.880491
0.563195 0.799252 0.881407
0.569329 0.789090 0.881376
0.592767 0.770535 0.884337
0.578912 0.699062 0.883238
0.621637 0.580529 0.874357
0.772549 0.443641 0.851316
0.900542 0.274144 0.800626
0.606409 0.843809 0.881712
0.610376 0.843900 0.882841
0.610040 0.836118 0.882322
0.625147 0.823423 0.884337
0.652247 0.794522 0.886839
0.626368 0.674006 0.883879
0.765164 0.541222 0.866606
0.923278 0.376287 0.828946
0.662013 0.872648 0.888853
0.659693 0.871031 0.887724
0.658991 0.867277 0.885466
0.672847 0.865263 0.885618
0.703883 0.863859 0.889769
0.757595 0.847929 0.901884
0.790555 0.742580 0.902434
0.955871 0.595056 0.884337
0.752407 0.910216 0.907713
0.752895 0.909972 0.907500
0.756344 0.909087 0.907042
0.769802 0.909728 0.908385
0.793606 0.911681 0.911467
0.832792 0.917418 0.918730
0.887663 0.923552 0.934874
0.944732 0.862730 0.924987
0.838437 0.943664 0.930358
0.838804 0.943542 0.930205
0.843229 0.943908 0.930724
0.854856 0.945647 0.932952
0.872465 0.948180 0.936217
0.898283 0.952636 0.941863
0.936736 0.963073 0.954711
0.983398 0.986297 0.983276
