20 Preset/Street 2/【3】LUT video cho PR-AE-FCPX/Tone 1 (3).cube
# Created by Adobe Lightroom plugin Export LUT (1.24.0)
# www.johnrellis.com/lightroom/exportlut.htm
# Preset: 青橙风光-素材江湖03
# Color profile: C:\Program Files (x86)\Common Files\Adobe\Color\Profiles\Recommended\VideoHD.icc
LUT_3D_SIZE 32
DOMAIN_MIN 0.0 0.0 0.0
DOMAIN_MAX 1.0 1.0 1.0
0.111482 0.123384 0.099184
0.111482 0.123384 0.099184
0.111482 0.123384 0.099184
0.120027 0.123049 0.099428
0.150393 0.121035 0.099245
0.182650 0.117800 0.099245
0.218418 0.112337 0.098665
0.257603 0.103273 0.098177
0.300267 0.092226 0.097169
0.349920 0.057465 0.095644
0.410620 0.000000 0.093660
0.483223 0.000000 0.089143
0.565728 0.000000 0.079011
0.654047 0.000000 0.055482
0.741817 0.000000 0.023377
0.824979 0.000000 0.000000
0.902129 0.000000 0.000000
0.970977 0.000000 0.000000
1.000000 0.000000 0.000000
1.000000 0.000000 0.000000
1.000000 0.000000 0.000000
1.000000 0.000000 0.000000
1.000000 0.000000 0.000000
1.000000 0.000000 0.000000
1.000000 0.000000 0.000000
1.000000 0.001312 0.000000
1.000000 0.134310 0.000000
1.000000 0.176577 0.000000
1.000000 0.206424 0.000000
1.000000 0.230259 0.000000
1.000000 0.250431 0.000000
1.000000 0.268284 0.000000
0.111482 0.123384 0.099184
0.111482 0.123384 0.099184
0.111482 0.123384 0.099184
0.120546 0.122988 0.099397
0.150027 0.121096 0.099245
0.181582 0.118044 0.098878
0.215885 0.112764 0.098756
0.253239 0.105013 0.097841
0.294072 0.096468 0.097200
0.341650 0.073548 0.096254
0.399268 0.003204 0.094087
0.469276 0.000000 0.090059
0.549554 0.000000 0.082124
0.636164 0.000000 0.061036
0.723171 0.000000 0.029511
0.807584 0.000000 0.000000
0.886442 0.000000 0.000000
0.957244 0.000000 0.000000
1.000000 0.000000 0.000000
1.000000 0.000000 0.000000
1.000000 0.000000 0.000000
1.000000 0.000000 0.000000
1.000000 0.000000 0.000000
1.000000 0.000000 0.000000
1.000000 0.000000 0.000000
1.000000 0.000000 0.000000
1.000000 0.102846 0.000000
1.000000 0.158022 0.000000
1.000000 0.192905 0.000000
1.000000 0.219455 0.000000
1.000000 0.241855 0.000000
1.000000 0.260960 0.000000
0.111482 0.123384 0.099184
0.111482 0.123384 0.099184
0.111482 0.123384 0.099184
0.124269 0.122835 0.099336
0.152438 0.121004 0.099184
0.181491 0.119783 0.098970
0.213443 0.117342 0.098878
0.248631 0.113130 0.098421
0.288029 0.106630 0.097444
0.333959 0.093843 0.096223
0.390082 0.044984 0.094209
0.458289 0.000000 0.090761
0.536034 0.000000 0.083101
0.620996 0.000000 0.063569
0.708217 0.000000 0.032959
0.792142 0.000000 0.000000
0.871885 0.000000 0.000000
0.944640 0.000000 0.000000
1.000000 0.000000 0.000000
1.000000 0.000000 0.000000
1.000000 0.000000 0.000000
1.000000 0.000000 0.000000
1.000000 0.000000 0.000000
1.000000 0.000000 0.000000
1.000000 0.000000 0.000000
1.000000 0.000000 0.000000
1.000000 0.108156 0.000000
1.000000 0.160586 0.000000
1.000000 0.194522 0.000000
1.000000 0.221500 0.000000
1.000000 0.243076 0.000000
1.000000 0.261906 0.000000
0.114626 0.129335 0.101991
0.114900 0.129580 0.102296
0.116030 0.129946 0.102571
0.123049 0.130282 0.101595
0.148165 0.133577 0.099855
0.176272 0.133089 0.099977
0.207919 0.131289 0.099550
0.242252 0.127993 0.098848
0.281193 0.122377 0.098054
0.325933 0.113649 0.096834
0.380438 0.096529 0.094850
0.445502 0.022492 0.090883
0.521508 0.000000 0.082734
0.604150 0.000000 0.063813
0.689815 0.000000 0.034363
0.772854 0.000000 0.000000
0.852110 0.000000 0.000000
0.925048 0.000000 0.000000
0.990417 0.000000 0.000000
1.000000 0.000000 0.000000
1.000000 0.000000 0.000000
1.000000 0.000000 0.000000
1.000000 0.000000 0.000000
1.000000 0.000000 0.000000
1.000000 0.000000 0.000000
1.000000 0.002350 0.000000
1.000000 0.137148 0.000000
1.000000 0.180423 0.000000
1.000000 0.210697 0.000000
1.000000 0.234806 0.000000
1.000000 0.254154 0.000000
1.000000 0.270756 0.000000
0.123934 0.142580 0.108827
0.124239 0.142794 0.108797
0.127687 0.142916 0.108675
0.132998 0.143282 0.107790
0.140139 0.142336 0.106447
0.167330 0.146487 0.103273
0.197879 0.147189 0.101045
0.231174 0.145327 0.100343
0.268376 0.141970 0.099245
0.311345 0.136294 0.097810
0.362982 0.126009 0.095308
0.424872 0.106569 0.091463
0.497566 0.028901 0.083680
0.579034 0.000000 0.064424
0.664607 0.000000 0.035035
0.749203 0.000000 0.000000
0.831571 0.000000 0.000000
0.908019 0.000000 0.000000
0.975830 0.000000 0.000000
1.000000 0.000000 0.000000
1.000000 0.000000 0.000000
1.000000 0.000000 0.000000
1.000000 0.000000 0.000000
1.000000 0.000000 0.000000
1.000000 0.000000 0.000000
1.000000 0.133944 0.000000
1.000000 0.179294 0.000000
1.000000 0.210910 0.000000
1.000000 0.234958 0.000000
1.000000 0.254917 0.000000
1.000000 0.271122 0.000000
1.000000 0.285710 0.000000
0.134920 0.154269 0.114412
0.135805 0.154208 0.114412
0.138460 0.154360 0.114015
0.143648 0.154421 0.113863
0.148745 0.154726 0.112093
0.157382 0.153597 0.110475
0.187503 0.158968 0.107485
0.221530 0.161776 0.102693
0.258000 0.161013 0.100160
0.300237 0.158053 0.098207
0.350164 0.152346 0.095155
0.410803 0.141451 0.090639
0.482094 0.119844 0.082490
0.562127 0.056245 0.060365
0.648066 0.000000 0.028046
0.734035 0.000000 0.000000
0.817685 0.000000 0.000000
0.896117 0.000000 0.000000
0.966369 0.000000 0.000000
1.000000 0.000000 0.000000
1.000000 0.000000 0.000000
1.000000 0.000000 0.000000
1.000000 0.203006 0.000000
1.000000 0.237095 0.000000
1.000000 0.261021 0.000000
1.000000 0.279332 0.000000
1.000000 0.293492 0.000000
1.000000 0.305486 0.000000
1.000000 0.315587 0.000000
1.000000 0.324620 0.000000
1.000000 0.332372 0.000000
1.000000 0.339117 0.000000
0.151308 0.169894 0.120668
0.151888 0.170016 0.120638
0.154665 0.169924 0.120272
0.160159 0.169894 0.120150
0.164614 0.170504 0.118715
0.171267 0.170138 0.116823
0.181979 0.169070 0.114900
0.218173 0.176059 0.110964
0.258000 0.180148 0.104860
0.304356 0.183322 0.097536
0.359167 0.180758 0.093080
0.424994 0.174411 0.085664
0.500786 0.161501 0.065888
0.584161 0.138216 0.034394
0.670497 0.096284 0.000000
0.754818 0.000000 0.000000
0.836698 0.000000 0.000000
0.912749 0.000000 0.000000
0.984985 0.000000 0.000000
1.000000 0.000000 0.000000
1.000000 0.122438 0.000000
1.000000 0.191104 0.000000
1.000000 0.237003 0.000000
1.000000 0.270115 0.000000
1.000000 0.294011 0.000000
1.000000 0.311192 0.000000
1.000000 0.322942 0.000000
1.000000 0.332189 0.000000
1.000000 0.340063 0.000000
1.000000 0.346807 0.000000
1.000000 0.352605 0.000000
1.000000 0.357885 0.000000
0.164706 0.181765 0.125368
0.165225 0.181888 0.125338
0.167453 0.181827 0.124727
0.172580 0.181949 0.124544
0.176303 0.182040 0.123323
0.182254 0.182681 0.121859
0.190005 0.182437 0.119936
0.202609 0.181369 0.117983
0.240970 0.189609 0.113985
0.284855 0.195071 0.106538
0.337774 0.199832 0.097475
0.401007 0.202121 0.085267
0.473182 0.197299 0.064149
0.553368 0.187655 0.030365
0.638422 0.171908 0.000000
0.722988 0.151736 0.000000
0.805814 0.130709 0.000000
0.884337 0.115145 0.000000
0.972869 0.137545 0.000000
1.000000 0.177554 0.000000
1.000000 0.220859 0.000000
1.000000 0.258915 0.000000
1.000000 0.290318 0.000000
1.000000 0.315709 0.000000
1.000000 0.335119 0.000000
1.000000 0.348180 0.000000
1.000000 0.357549 0.000000
1.000000 0.364294 0.000000
1.000000 0.369879 0.000000
1.000000 0.374853 0.000000
1.000000 0.378759 0.000000
1.000000 0.382605 0.000000
0.179690 0.196201 0.132448
0.179995 0.196170 0.132448
0.182071 0.195987 0.131930
0.186374 0.195560 0.130892
0.190158 0.194736 0.129183
0.194675 0.195010 0.126864
0.201663 0.195377 0.124910
0.211521 0.195346 0.123140
0.225467 0.194705 0.121035
0.268009 0.204166 0.116640
0.318120 0.211826 0.107912
0.378759 0.218173 0.095583
0.449897 0.223484 0.068818
0.528435 0.223697 0.023041
0.612055 0.218326 0.000000
0.696742 0.211521 0.000000
0.781674 0.206790 0.000000
0.877104 0.215366 0.000000
0.959960 0.233463 0.000000
1.000000 0.260105 0.000000
1.000000 0.290501 0.000000
1.000000 0.318822 0.000000
1.000000 0.343389 0.000000
1.000000 0.363470 0.000000
1.000000 0.378790 0.000000
1.000000 0.388830 0.000000
1.000000 0.395636 0.000000
1.000000 0.400671 0.000000
1.000000 0.404486 0.000000
1.000000 0.407111 0.000000
1.000000 0.409491 0.000000
1.000000 0.411414 0.000000
0.195529 0.211978 0.140383
0.196017 0.211673 0.140200
0.197360 0.211551 0.139742
0.201297 0.211032 0.138796
0.205905 0.209781 0.137301
0.209781 0.209812 0.134524
0.215274 0.209476 0.131167
0.223392 0.208957 0.128176
0.234409 0.209018 0.126070
0.250187 0.208682 0.123781
0.297307 0.219883 0.119203
0.353704 0.228916 0.108156
0.421149 0.237186 0.092470
0.498360 0.244572 0.047181
0.582574 0.252110 0.000000
0.676387 0.256809 0.000000
0.773983 0.265385 0.000000
0.865934 0.279911 0.000000
0.947448 0.300237 0.000000
1.000000 0.324926 0.000000
1.000000 0.349920 0.000000
1.000000 0.371893 0.000000
1.000000 0.390448 0.000000
1.000000 0.405402 0.000000
1.000000 0.416571 0.000000
1.000000 0.424475 0.000000
1.000000 0.429755 0.000000
1.000000 0.433631 0.000000
1.000000 0.436439 0.000000
1.000000 0.438575 0.000000
1.000000 0.440253 0.000000
1.000000 0.441352 0.000000
0.211124 0.227054 0.147707
0.211582 0.227024 0.147707
0.213321 0.226719 0.147280
0.216800 0.226383 0.146395
0.222171 0.225834 0.145052
0.226139 0.225315 0.142824
0.231815 0.225406 0.139620
0.238956 0.225437 0.136263
0.248203 0.224674 0.131899
0.261448 0.224826 0.128908
0.280613 0.225223 0.126650
0.334112 0.238132 0.120882
0.398413 0.249210 0.107027
0.478553 0.261448 0.082002
0.570397 0.275242 0.000000
0.666133 0.291661 0.000000
0.759396 0.312261 0.000000
0.848478 0.329931 0.000000
0.928191 0.351354 0.000000
0.996490 0.374945 0.000000
1.000000 0.398260 0.000000
1.000000 0.418433 0.000000
1.000000 0.435431 0.000000
1.000000 0.448463 0.000000
1.000000 0.458045 0.000000
1.000000 0.464820 0.000000
1.000000 0.468971 0.000000
1.000000 0.471626 0.000000
1.000000 0.473213 0.000000
1.000000 0.473976 0.000000
1.000000 0.474464 0.000000
1.000000 0.474220 0.000000
0.230198 0.244755 0.155978
0.230625 0.244724 0.155795
0.232090 0.244572 0.155367
0.235477 0.244327 0.154726
0.240665 0.243778 0.153475
0.246006 0.242771 0.151888
0.251347 0.243595 0.148775
0.258640 0.244144 0.145083
0.268162 0.244358 0.140749
0.279637 0.243961 0.135836
0.295781 0.244053 0.131716
0.322728 0.247257 0.128878
0.442939 0.287663 0.118257
0.541100 0.309972 0.082643
0.644190 0.334295 0.000000
0.744869 0.363439 0.000000
0.837919 0.397375 0.000000
0.919982 0.434638 0.000000
0.988190 0.466651 0.000000
1.000000 0.489601 0.000000
1.000000 0.506920 0.000000
1.000000 0.519280 0.000000
1.000000 0.527550 0.000000
1.000000 0.533104 0.000000
1.000000 0.535546 0.000000
1.000000 0.535576 0.000000
1.000000 0.533715 0.000000
1.000000 0.531090 0.000000
1.000000 0.528038 0.000000
1.000000 0.524712 0.000000
1.000000 0.521508 0.000000
1.000000 0.518486 0.000000
0.260472 0.272679 0.167910
0.260685 0.272679 0.167727
0.262058 0.272068 0.167300
0.265141 0.271214 0.165957
0.269596 0.270024 0.164675
0.275456 0.267826 0.162814
0.281987 0.269291 0.160037
0.291356 0.271641 0.156832
0.303899 0.274418 0.152773
0.320012 0.277379 0.147829
0.341253 0.280491 0.141726
0.368902 0.283818 0.134707
0.411078 0.291020 0.129580
0.505943 0.318334 0.113832
0.609949 0.346166 0.035004
0.710201 0.376226 0.000000
0.803220 0.409522 0.000000
0.885924 0.444739 0.000000
0.956023 0.480354 0.000000
1.000000 0.513939 0.000000
1.000000 0.533837 0.000000
1.000000 0.547631 0.000000
1.000000 0.557275 0.000000
1.000000 0.563470 0.000000
1.000000 0.566613 0.000000
1.000000 0.567437 0.000000
1.000000 0.566369 0.000000
1.000000 0.563958 0.000000
1.000000 0.561028 0.000000
1.000000 0.557733 0.000000
1.000000 0.554162 0.000000
1.000000 0.550652 0.000000
0.291661 0.300481 0.178744
0.291539 0.300114 0.178531
0.292790 0.299504 0.177981
0.295506 0.298619 0.176974
0.300298 0.297368 0.175296
0.307195 0.295903 0.173068
0.313573 0.295171 0.170748
0.322271 0.297154 0.167086
0.334203 0.299962 0.162844
0.350042 0.303349 0.157778
0.370764 0.307469 0.151614
0.397131 0.311589 0.143801
0.429175 0.315221 0.134493
0.475746 0.323583 0.126894
0.574212 0.354009 0.105043
0.674830 0.385595 0.000000
0.767117 0.418524 0.000000
0.851041 0.453254 0.000000
0.924743 0.488777 0.000000
0.985321 0.522606 0.000000
1.000000 0.552758 0.000000
1.000000 0.575891 0.000000
1.000000 0.587182 0.000000
1.000000 0.594934 0.000000
1.000000 0.599176 0.000000
1.000000 0.600610 0.000000
1.000000 0.599725 0.000000
1.000000 0.597559 0.000000
1.000000 0.594446 0.000000
1.000000 0.590997 0.000000
1.000000 0.587243 0.000000
1.000000 0.583368 0.000000
0.326116 0.330571 0.190005
0.326329 0.330297 0.189609
0.327123 0.329381 0.188937
0.329290 0.327977 0.187747
0.333349 0.325933 0.185885
0.339330 0.323796 0.183444
0.346105 0.321019 0.181094
0.354376 0.323003 0.177279
0.366094 0.325902 0.172854
0.381872 0.329931 0.167758
0.402380 0.334844 0.161501
0.428077 0.340337 0.153689
0.458564 0.345556 0.143801
0.493172 0.349432 0.131411
0.541924 0.358495 0.120943
0.638117 0.391485 0.090028
0.733181 0.426490 0.000000
0.818662 0.461769 0.000000
0.894926 0.497627 0.000000
0.959319 0.532097 0.000000
1.000000 0.563897 0.000000
1.000000 0.590906 0.000000
1.000000 0.612940 0.000000
1.000000 0.624720 0.000000
1.000000 0.629816 0.000000
1.000000 0.632074 0.000000
1.000000 0.632227 0.000000
1.000000 0.630762 0.000000
1.000000 0.628321 0.000000
1.000000 0.625391 0.000000
1.000000 0.622126 0.000000
1.000000 0.618494 0.000000
0.359655 0.358984 0.200381
0.360143 0.359075 0.200198
0.361578 0.358495 0.199619
0.364141 0.357610 0.198520
0.368811 0.356146 0.196750
0.375647 0.354681 0.194736
0.385687 0.353216 0.191897
0.394141 0.354040 0.189090
0.406958 0.358190 0.184665
0.423224 0.362951 0.179416
0.442847 0.368200 0.172915
0.465980 0.373358 0.164584
0.492775 0.378271 0.154147
0.522271 0.381750 0.141451
0.554131 0.383551 0.125673
0.599878 0.391760 0.112276
0.691341 0.426917 0.054383
0.781094 0.464637 0.000000
0.860533 0.501427 0.000000
0.930083 0.537926 0.000000
0.987762 0.572656 0.000000
1.000000 0.602655 0.000000
1.000000 0.627039 0.000000
1.000000 0.646601 0.000000
1.000000 0.660578 0.000000
1.000000 0.664179 0.000000
1.000000 0.665248 0.000000
1.000000 0.664210 0.000000
1.000000 0.661921 0.000000
1.000000 0.658717 0.000000
1.000000 0.654932 0.000000
1.000000 0.650782 0.000000
0.394141 0.387762 0.210941
0.394629 0.387579 0.210819
0.395911 0.387182 0.210239
0.398596 0.386389 0.209201
0.403235 0.385412 0.207553
0.410193 0.384161 0.205356
0.420142 0.383001 0.202884
0.429603 0.381842 0.200137
0.441901 0.386084 0.195956
0.457191 0.391150 0.190677
0.476234 0.396857 0.184054
0.498207 0.402869 0.175784
0.523430 0.408637 0.165652
0.551110 0.413550 0.152834
0.580926 0.416999 0.136751
0.612909 0.419287 0.117586
0.658076 0.428717 0.099519
0.745510 0.467262 0.001160
0.830777 0.507927 0.000000
0.903197 0.545556 0.000000
0.965270 0.582238 0.000000
1.000000 0.614740 0.000000
1.000000 0.641199 0.000000
1.000000 0.662318 0.000000
1.000000 0.678706 0.000000
1.000000 0.691279 0.000000
1.000000 0.696040 0.000000
1.000000 0.695827 0.000000
1.000000 0.694026 0.000000
1.000000 0.691066 0.000000
1.000000 0.687373 0.000000
1.000000 0.683192 0.000000
0.435859 0.422705 0.224643
0.436683 0.423102 0.224826
0.481392 0.459327 0.240055
0.484413 0.458503 0.238773
0.489387 0.457252 0.236606
0.496376 0.455756 0.234073
0.505913 0.453986 0.230625
0.516747 0.450782 0.227054
0.529137 0.454688 0.222354
0.545495 0.460975 0.216281
0.564691 0.467964 0.208804
0.586633 0.475196 0.199435
0.609949 0.481697 0.187503
0.634882 0.487160 0.172183
0.660853 0.490913 0.153231
0.687709 0.492714 0.128695
0.716182 0.493172 0.096651
0.756985 0.502281 0.037446
0.834592 0.542565 0.000000
0.906432 0.582361 0.000000
0.964965 0.617090 0.000000
1.000000 0.647486 0.000000
1.000000 0.671931 0.000000
1.000000 0.690761 0.000000
1.000000 0.704738 0.000000
1.000000 0.715023 0.000000
1.000000 0.722560 0.000000
1.000000 0.727077 0.000000
1.000000 0.724819 0.000000
1.000000 0.721736 0.000000
1.000000 0.718044 0.000000
1.000000 0.713832 0.000000
0.493599 0.471992 0.245701
0.498085 0.475624 0.247349
0.504021 0.479377 0.248753
0.511254 0.482277 0.249149
0.518883 0.484138 0.248600
0.526909 0.483864 0.246494
0.536217 0.482460 0.243290
0.547601 0.480720 0.238926
0.557733 0.480171 0.235050
0.571954 0.485847 0.229343
0.589319 0.492744 0.222477
0.609064 0.500145 0.213870
0.630182 0.506767 0.202792
0.653071 0.513024 0.189151
0.677211 0.518151 0.171908
0.702541 0.521904 0.149935
0.729458 0.524346 0.120882
0.759426 0.527794 0.083436
0.800443 0.539361 0.000000
0.873808 0.581567 0.000000
0.939696 0.621912 0.000000
0.991577 0.656031 0.000000
1.000000 0.683192 0.000000
1.000000 0.703914 0.000000
1.000000 0.719234 0.000000
1.000000 0.730465 0.000000
1.000000 0.738705 0.000000
1.000000 0.744625 0.000000
1.000000 0.748989 0.000000
1.000000 0.748196 0.000000
1.000000 0.744961 0.000000
1.000000 0.741238 0.000000
0.530541 0.504936 0.260563
0.535576 0.508965 0.262364
0.542077 0.513237 0.264073
0.549218 0.516808 0.265110
0.557122 0.519127 0.264927
0.564935 0.519310 0.262913
0.573663 0.518334 0.259861
0.584283 0.516686 0.255772
0.594354 0.513359 0.251957
0.606958 0.518700 0.246342
0.622400 0.525322 0.239719
0.640314 0.532677 0.231571
0.659785 0.539818 0.221378
0.681147 0.546899 0.208591
0.703944 0.553246 0.193088
0.727810 0.558556 0.173251
0.752804 0.562554 0.147738
0.778836 0.565270 0.111940
0.809110 0.571283 0.061738
0.848447 0.584161 0.000000
0.914183 0.625757 0.000000
0.971160 0.663813 0.000000
1.000000 0.694057 0.000000
1.000000 0.716915 0.000000
1.000000 0.733730 0.000000
1.000000 0.745968 0.000000
1.000000 0.754818 0.000000
1.000000 0.761196 0.000000
1.000000 0.766018 0.000000
1.000000 0.769375 0.000000
1.000000 0.770230 0.000000
1.000000 0.766812 0.000000
0.572320 0.543542 0.279088
0.576928 0.547601 0.281163
0.582757 0.551904 0.283177
0.589624 0.555383 0.284337
0.596765 0.557702 0.284184
0.604120 0.558099 0.282322
0.612390 0.557275 0.279118
0.622309 0.555962 0.275181
0.634455 0.554498 0.270420
0.644617 0.555505 0.266331
0.658778 0.562066 0.260014
0.674922 0.569421 0.252323
0.693019 0.577020 0.242863
0.712703 0.584497 0.231357
0.734157 0.591882 0.217227
0.756985 0.598718 0.199741
0.781643 0.605615 0.178073
0.808133 0.612116 0.149935
0.836728 0.619074 0.112520
0.869108 0.630426 0.080995
0.907805 0.647059 0.003937
0.963989 0.688594 0.014984
1.000000 0.721157 0.000000
1.000000 0.745846 0.000000
1.000000 0.763577 0.000000
1.000000 0.775906 0.000000
1.000000 0.784329 0.000000
1.000000 0.790219 0.000000
1.000000 0.794369 0.000000
1.000000 0.797116 0.000000
1.000000 0.798550 0.000000
1.000000 0.798947 0.000000
0.645502 0.616999 0.320409
0.647700 0.618982 0.321721
0.650507 0.620447 0.322148
0.653712 0.620996 0.321599
0.658106 0.620569 0.319829
0.663264 0.619257 0.316960
0.669886 0.617639 0.313207
0.679042 0.615991 0.308690
0.690394 0.614740 0.303838
0.700893 0.613062 0.299687
0.714168 0.620111 0.294163
0.729335 0.627680 0.287266
0.745876 0.635462 0.278752
0.763699 0.643091 0.268315
0.782712 0.650385 0.255344
0.802853 0.657313 0.239811
0.824033 0.663416 0.220920
0.846494 0.669245 0.197757
0.870024 0.674556 0.168612
0.895445 0.681910 0.145083
0.922026 0.690211 0.128084
0.952514 0.702632 0.115724
0.993957 0.734493 0.149599
1.000000 0.758083 0.124361
1.000000 0.776547 0.080568
1.000000 0.790005 0.001129
1.000000 0.799588 0.000000
1.000000 0.806332 0.000000
1.000000 0.811093 0.000000
1.000000 0.814237 0.064820
1.000000 0.816098 0.111788
1.000000 0.816831 0.139925
0.691707 0.666957 0.352453
0.693690 0.668605 0.353704
0.696071 0.670039 0.354376
0.699428 0.670710 0.353857
0.703548 0.670680 0.352514
0.708522 0.669764 0.349767
0.715084 0.668421 0.346197
0.723629 0.667170 0.341772
0.734463 0.666316 0.337133
0.745907 0.664210 0.332647
0.757198 0.668788 0.328222
0.770901 0.676112 0.322179
0.785763 0.683742 0.315099
0.801999 0.691371 0.306096
0.819364 0.698787 0.295628
0.837613 0.706050 0.282811
0.857053 0.713039 0.267765
0.877165 0.719265 0.249607
0.898009 0.725124 0.227817
0.919554 0.730953 0.206973
0.941558 0.738705 0.200412
0.963073 0.744839 0.194308
0.987152 0.753750 0.196597
1.000000 0.778012 0.237369
1.000000 0.785702 0.211063
1.000000 0.800107 0.202701
1.000000 0.811154 0.202396
1.000000 0.819059 0.207919
1.000000 0.824765 0.218814
1.000000 0.828763 0.234073
1.000000 0.831571 0.252689
1.000000 0.833158 0.271855
0.755398 0.738766 0.410559
0.758297 0.741756 0.413611
0.760433 0.742916 0.414282
0.762325 0.742306 0.412757
0.764218 0.740169 0.409247
0.766751 0.736965 0.404181
0.770382 0.733150 0.397925
0.775570 0.729213 0.390997
0.783047 0.725612 0.383764
0.792752 0.722713 0.376226
0.799649 0.719356 0.369848
0.809720 0.723659 0.362982
0.820890 0.728389 0.354894
0.833127 0.732998 0.345373
0.846250 0.737331 0.333928
0.860319 0.741634 0.321019
0.875700 0.746090 0.306432
0.892515 0.750912 0.290593
0.910704 0.756130 0.273350
0.929778 0.761593 0.255192
0.948974 0.769223 0.253513
0.967742 0.775235 0.252201
0.985687 0.778988 0.249882
1.000000 0.784543 0.254734
1.000000 0.802396 0.294011
1.000000 0.814450 0.297093
1.000000 0.824491 0.295781
1.000000 0.832456 0.300908
1.000000 0.838376 0.310613
1.000000 0.842802 0.324193
1.000000 0.846036 0.341436
1.000000 0.848325 0.360815
0.790951 0.779782 0.451057
0.793576 0.782315 0.453895
0.795895 0.783871 0.455390
0.798245 0.784146 0.455116
0.801114 0.783597 0.453101
0.804868 0.782559 0.450111
0.810056 0.781430 0.446357
0.816922 0.780392 0.441962
0.825589 0.779660 0.437507
0.836057 0.779263 0.432685
0.845121 0.775845 0.427802
0.854276 0.780331 0.423041
0.864134 0.784756 0.416876
0.874418 0.788602 0.409064
0.885069 0.791775 0.399115
0.896391 0.794522 0.387823
0.908476 0.797238 0.375189
0.921630 0.800137 0.361669
0.935851 0.803372 0.347906
0.950958 0.806821 0.334386
0.966033 0.811948 0.334386
0.980987 0.816373 0.336492
0.995483 0.819425 0.338445
1.000000 0.820768 0.339147
1.000000 0.823728 0.347509
1.000000 0.836393 0.389105
1.000000 0.844724 0.399390
1.000000 0.851530 0.403876
1.000000 0.857633 0.416510
1.000000 0.862181 0.432013
1.000000 0.865537 0.449714
1.000000 0.868132 0.469856
0.836454 0.831205 0.519982
0.837552 0.832303 0.521782
0.838926 0.832792 0.522240
0.840665 0.832609 0.521355
0.842741 0.831998 0.519188
0.845884 0.830961 0.515740
0.850217 0.829740 0.511711
0.855802 0.828672 0.507073
0.862882 0.827726 0.502220
0.871672 0.827115 0.497414
0.881621 0.826230 0.491798
0.888151 0.825620 0.487892
0.895964 0.828611 0.483009
0.904112 0.831174 0.476326
0.912627 0.833097 0.467720
0.921630 0.834684 0.457557
0.931212 0.836149 0.446448
0.941833 0.837797 0.434791
0.953368 0.839719 0.423560
0.965698 0.841917 0.412787
0.977478 0.845640 0.415961
0.989349 0.848692 0.419501
1.000000 0.850675 0.422156
1.000000 0.851499 0.424048
1.000000 0.850889 0.424170
1.000000 0.851743 0.432197
1.000000 0.860746 0.472633
1.000000 0.866331 0.484932
1.000000 0.871092 0.491341
1.000000 0.876310 0.508965
1.000000 0.880430 0.529290
1.000000 0.883635 0.550774
0.868864 0.867399 0.588830
0.869718 0.868070 0.590326
0.870848 0.868589 0.591333
0.872587 0.868864 0.591333
0.875120 0.869108 0.591058
0.878935 0.869596 0.590936
0.884398 0.871092 0.592950
0.891417 0.872953 0.595727
0.899687 0.875425 0.599420
0.909209 0.878141 0.603662
0.919799 0.881010 0.608087
0.927886 0.881956 0.612421
0.934966 0.885924 0.615839
0.941894 0.889067 0.616541
0.948821 0.891295 0.614588
0.955657 0.892424 0.608606
0.962737 0.893034 0.600763
0.970459 0.893462 0.591974
0.978698 0.894011 0.583673
0.987243 0.894743 0.577661
0.994842 0.896269 0.581628
1.000000 0.897429 0.585657
1.000000 0.897826 0.588342
1.000000 0.897459 0.589899
1.000000 0.896239 0.589960
1.000000 0.894102 0.588434
1.000000 0.893217 0.595087
1.000000 0.898314 0.630243
1.000000 0.900969 0.642023
1.000000 0.902983 0.647486
1.000000 0.906401 0.664790
1.000000 0.909026 0.681910
0.910307 0.914061 0.717159
0.910369 0.914031 0.717220
0.910796 0.913909 0.716426
0.911589 0.913634 0.715175
0.912993 0.913298 0.713497
0.915068 0.912902 0.711391
0.918029 0.912688 0.709499
0.921904 0.912566 0.707820
0.926696 0.912627 0.706325
0.932525 0.912871 0.705135
0.939208 0.913207 0.703944
0.945861 0.912779 0.702846
0.950134 0.913146 0.701686
0.954864 0.914305 0.699367
