20 Preset/Street 2/【3】LUT video cho PR-AE-FCPX/Tone 1 (32).cube
# Created by Adobe Lightroom plugin Export LUT (1.24.0)
# www.johnrellis.com/lightroom/exportlut.htm
# Preset: 青橙风光-素材江湖32
# Color profile: C:\Program Files (x86)\Common Files\Adobe\Color\Profiles\Recommended\VideoHD.icc
LUT_3D_SIZE 32
DOMAIN_MIN 0.0 0.0 0.0
DOMAIN_MAX 1.0 1.0 1.0
0.075471 0.145327 0.163241
0.075471 0.145327 0.163241
0.075471 0.145327 0.163241
0.085237 0.145022 0.163241
0.099031 0.144472 0.163180
0.112703 0.145205 0.163333
0.128664 0.146395 0.163912
0.147921 0.147341 0.165164
0.171054 0.148013 0.166293
0.199283 0.148287 0.167086
0.234348 0.147158 0.168368
0.277226 0.144503 0.169284
0.329076 0.138033 0.169986
0.390051 0.124880 0.170474
0.458625 0.099031 0.170779
0.531731 0.000000 0.170626
0.606622 0.000000 0.170260
0.679500 0.000000 0.169558
0.754665 0.000000 0.168124
0.830625 0.000000 0.166567
0.891600 0.000000 0.164981
0.941131 0.000000 0.164614
0.981353 0.000000 0.164553
1.000000 0.000000 0.165927
1.000000 0.000000 0.168093
1.000000 0.114870 0.172183
1.000000 0.179141 0.178103
1.000000 0.227634 0.186038
1.000000 0.268956 0.197086
1.000000 0.308049 0.211063
1.000000 0.343786 0.229129
1.000000 0.378485 0.250736
0.075471 0.145327 0.163241
0.075471 0.145327 0.163241
0.075471 0.145327 0.163241
0.086488 0.144991 0.163241
0.099214 0.144900 0.163119
0.112215 0.145693 0.163455
0.127962 0.146670 0.164065
0.146242 0.147738 0.165133
0.169100 0.148501 0.166293
0.197024 0.148653 0.167086
0.230686 0.148165 0.168368
0.272892 0.145480 0.169162
0.323552 0.139864 0.170047
0.383490 0.127901 0.170596
0.450752 0.104463 0.170840
0.523613 0.019409 0.170901
0.598718 0.000000 0.170413
0.671992 0.000000 0.169680
0.747250 0.000000 0.168429
0.821744 0.000000 0.166751
0.882170 0.000000 0.165560
0.931670 0.000000 0.164492
0.972168 0.000000 0.164675
1.000000 0.000000 0.165255
1.000000 0.000000 0.167453
1.000000 0.092439 0.170718
1.000000 0.165988 0.175692
1.000000 0.216495 0.183322
1.000000 0.260136 0.193423
1.000000 0.299626 0.206943
1.000000 0.336706 0.224155
1.000000 0.371893 0.245426
0.075471 0.145327 0.163241
0.075471 0.145327 0.163241
0.074769 0.145571 0.163210
0.086580 0.146059 0.163302
0.097292 0.146944 0.163668
0.110506 0.147951 0.163760
0.126009 0.148959 0.164584
0.144778 0.149783 0.165652
0.167483 0.150759 0.166781
0.194980 0.151034 0.167575
0.228885 0.150607 0.168490
0.270542 0.148653 0.169436
0.320592 0.143374 0.170352
0.379492 0.133181 0.170687
0.446479 0.112825 0.171084
0.518822 0.052888 0.170993
0.593469 0.000000 0.170687
0.666835 0.000000 0.169924
0.743313 0.000000 0.168551
0.816617 0.000000 0.166812
0.876829 0.000000 0.165469
0.926421 0.000000 0.164523
0.967163 0.000000 0.164248
1.000000 0.000000 0.165225
1.000000 0.000000 0.166995
1.000000 0.103883 0.170016
1.000000 0.171054 0.174868
1.000000 0.219760 0.182040
1.000000 0.262242 0.191806
1.000000 0.300877 0.205112
1.000000 0.337133 0.222141
1.000000 0.371954 0.243046
0.067292 0.148684 0.163790
0.067597 0.148684 0.163607
0.074220 0.148745 0.163973
0.083925 0.149294 0.163851
0.095460 0.150607 0.163973
0.107851 0.151827 0.164828
0.124117 0.152987 0.165560
0.143069 0.153994 0.166629
0.166201 0.154940 0.167361
0.193698 0.155642 0.168307
0.227726 0.155642 0.169162
0.268956 0.154177 0.169924
0.318761 0.150179 0.170748
0.377111 0.141756 0.171359
0.443091 0.125521 0.171511
0.514305 0.094697 0.171389
0.588067 0.000000 0.171084
0.660426 0.000000 0.170260
0.737331 0.000000 0.168826
0.807462 0.000000 0.167147
0.866026 0.000000 0.165713
0.915404 0.000000 0.164584
0.957153 0.000000 0.164126
0.993713 0.000000 0.164828
1.000000 0.000000 0.166018
1.000000 0.133883 0.169223
1.000000 0.189334 0.174075
1.000000 0.233524 0.181613
1.000000 0.273655 0.191623
1.000000 0.310704 0.205081
1.000000 0.345190 0.221775
1.000000 0.377813 0.242527
0.065126 0.153597 0.165072
0.066804 0.153567 0.165225
0.070192 0.153475 0.165591
0.080903 0.154238 0.165469
0.092073 0.155398 0.165255
0.105715 0.156893 0.166201
0.120882 0.158480 0.167300
0.140200 0.159854 0.168093
0.163333 0.161196 0.168795
0.191104 0.162478 0.169650
0.224735 0.163027 0.170291
0.265904 0.162692 0.171084
0.315160 0.160128 0.171817
0.373602 0.154177 0.172122
0.439368 0.142061 0.172457
0.510491 0.121401 0.172091
0.584833 0.078157 0.171664
0.657771 0.000000 0.170779
0.736721 0.000000 0.168978
0.804715 0.000000 0.166964
0.862089 0.000000 0.165499
0.910948 0.000000 0.164340
0.952575 0.000000 0.164004
0.989593 0.000000 0.164218
1.000000 0.123568 0.165896
1.000000 0.175845 0.168887
1.000000 0.218051 0.173861
1.000000 0.256168 0.181674
1.000000 0.291936 0.191867
1.000000 0.325750 0.205173
1.000000 0.357305 0.222324
1.000000 0.388037 0.242618
0.058137 0.160067 0.167544
0.060121 0.160037 0.167514
0.064454 0.160128 0.168032
0.075349 0.160464 0.168490
0.087861 0.161654 0.168276
0.101015 0.163180 0.167971
0.117739 0.165560 0.168734
0.137209 0.167758 0.169772
0.161044 0.170047 0.170840
0.189883 0.172000 0.171542
0.224308 0.173434 0.172213
0.266392 0.174502 0.172610
0.316655 0.173617 0.173098
0.375463 0.169986 0.173648
0.441871 0.161929 0.173434
0.513878 0.147372 0.173251
0.588098 0.125032 0.172396
0.665187 0.091798 0.170901
0.742214 0.007752 0.169009
0.807889 0.000000 0.166995
0.863920 0.000000 0.165103
0.911711 0.044404 0.163760
0.998962 0.183719 0.164065
1.000000 0.215915 0.167178
1.000000 0.246494 0.171633
1.000000 0.275578 0.178836
1.000000 0.303441 0.187991
1.000000 0.330846 0.199313
1.000000 0.357580 0.213230
1.000000 0.383490 0.230106
1.000000 0.408881 0.249454
1.000000 0.433967 0.271061
0.045289 0.170504 0.170962
0.046967 0.170474 0.171145
0.053315 0.170535 0.171633
0.065034 0.170474 0.172457
0.080873 0.171725 0.172244
0.097108 0.173312 0.171939
0.114321 0.175387 0.171450
0.138308 0.179446 0.171969
0.163973 0.182895 0.172946
0.195651 0.186679 0.174289
0.235111 0.190188 0.175082
0.281559 0.192813 0.175479
0.336004 0.193637 0.175692
0.398199 0.192294 0.175357
0.467018 0.186954 0.175113
0.538781 0.178103 0.174289
0.612116 0.166232 0.172854
0.696864 0.155520 0.170504
0.770962 0.152071 0.167788
0.834470 0.158022 0.165438
0.889586 0.174868 0.163210
0.937530 0.198154 0.162356
0.979217 0.225132 0.163180
1.000000 0.253696 0.165835
1.000000 0.280980 0.170932
1.000000 0.307317 0.178256
1.000000 0.331945 0.187289
1.000000 0.355291 0.199100
1.000000 0.378729 0.213230
1.000000 0.401587 0.229374
1.000000 0.424506 0.248447
1.000000 0.447333 0.269963
0.027588 0.182406 0.174502
0.029267 0.182376 0.174685
0.034638 0.182284 0.174990
0.049287 0.182345 0.175967
0.067964 0.182986 0.176333
0.090089 0.184848 0.175784
0.107729 0.187106 0.175479
0.130007 0.189731 0.174838
0.159426 0.195529 0.174990
0.191745 0.200687 0.176211
0.231662 0.206577 0.177554
0.280949 0.212314 0.178775
0.336339 0.216007 0.178592
0.398962 0.217563 0.178073
0.467323 0.216709 0.177218
0.538781 0.213443 0.175753
0.620844 0.211307 0.173648
0.699367 0.211032 0.170871
0.768551 0.215030 0.167575
0.829007 0.224002 0.164950
0.882292 0.238132 0.162783
0.929351 0.256199 0.161868
0.970520 0.277348 0.162875
1.000000 0.299901 0.165805
1.000000 0.323217 0.171084
1.000000 0.344701 0.179049
1.000000 0.365148 0.188998
1.000000 0.385534 0.200687
1.000000 0.405676 0.215183
1.000000 0.425910 0.231907
1.000000 0.446113 0.250950
1.000000 0.466621 0.272679
0.000000 0.198306 0.178683
0.000000 0.198428 0.178805
0.006928 0.198337 0.179294
0.019593 0.198398 0.180240
0.042878 0.198459 0.181460
0.074525 0.200381 0.181064
0.099672 0.202701 0.180545
0.123293 0.205631 0.179690
0.150576 0.209079 0.178561
0.187839 0.217197 0.178286
0.228519 0.225132 0.179141
0.277775 0.233585 0.180331
0.336950 0.241428 0.181521
0.403571 0.247562 0.181674
0.472267 0.250797 0.180056
0.552300 0.255253 0.177676
0.631464 0.259007 0.174746
0.704707 0.264561 0.171115
0.769741 0.272374 0.167636
0.827420 0.283024 0.164492
0.878660 0.296818 0.162264
0.924041 0.312596 0.161959
0.964263 0.330327 0.163485
0.999969 0.349126 0.167239
1.000000 0.367864 0.173556
1.000000 0.386175 0.182010
1.000000 0.403265 0.192691
1.000000 0.420203 0.205509
1.000000 0.437324 0.220462
1.000000 0.454414 0.237613
1.000000 0.472114 0.256931
1.000000 0.490242 0.278355
0.000000 0.219974 0.183566
0.000000 0.219821 0.183749
0.000000 0.219699 0.184054
0.000000 0.219577 0.184970
0.000000 0.219608 0.186465
0.036408 0.220706 0.186923
0.085664 0.223209 0.186069
0.114046 0.226352 0.185122
0.143801 0.229923 0.183963
0.177676 0.234195 0.182437
0.223148 0.244877 0.181369
0.272587 0.255772 0.181399
0.331151 0.266819 0.182315
0.401587 0.278508 0.182895
0.484443 0.291417 0.182925
0.564691 0.300908 0.180484
0.640620 0.309453 0.176638
0.710933 0.319219 0.171908
0.773312 0.330114 0.168002
0.828367 0.341527 0.165011
0.876738 0.354101 0.163180
0.919371 0.367224 0.163058
0.957153 0.380865 0.165682
0.991180 0.395605 0.169467
1.000000 0.410163 0.176455
1.000000 0.424109 0.185672
1.000000 0.438392 0.197116
1.000000 0.452827 0.210025
1.000000 0.467903 0.225620
1.000000 0.483223 0.243229
1.000000 0.499062 0.263127
1.000000 0.515129 0.285374
0.000000 0.246769 0.188540
0.000000 0.246860 0.188510
0.000000 0.246860 0.189090
0.000000 0.246830 0.189944
0.000000 0.246983 0.191623
0.000000 0.247532 0.193332
0.029999 0.250278 0.192508
0.098116 0.253910 0.191257
0.134829 0.258061 0.189883
0.172488 0.263127 0.187961
0.213657 0.268040 0.185702
0.270024 0.282444 0.183352
0.333654 0.298955 0.182712
0.406439 0.315129 0.182467
0.486244 0.331029 0.181888
0.569268 0.346746 0.181094
0.648676 0.362554 0.179507
0.715084 0.374304 0.174777
0.774166 0.385992 0.170535
0.826413 0.397162 0.167605
0.872862 0.408240 0.166201
0.913909 0.419562 0.166934
0.950988 0.431342 0.170535
0.984436 0.442847 0.176059
1.000000 0.454597 0.184421
1.000000 0.466560 0.194156
1.000000 0.478157 0.206363
1.000000 0.490364 0.220157
1.000000 0.502739 0.236179
1.000000 0.515953 0.253941
1.000000 0.529625 0.274144
1.000000 0.543542 0.296422
0.000000 0.283574 0.193820
0.000000 0.283726 0.193759
0.000000 0.283787 0.194308
0.000000 0.283909 0.195529
0.000000 0.284245 0.197360
0.000000 0.284459 0.199863
0.000000 0.287144 0.199924
0.028046 0.290898 0.198520
0.116793 0.295659 0.196597
0.164248 0.302434 0.194491
0.213748 0.310491 0.191592
0.267185 0.318669 0.188052
0.374762 0.364202 0.182803
0.457679 0.387121 0.179416
0.541985 0.408148 0.176791
0.624079 0.429023 0.175387
0.698909 0.449042 0.175875
0.764614 0.467170 0.179080
0.818784 0.479683 0.181277
0.864103 0.487922 0.181338
0.904051 0.495521 0.183749
0.939513 0.502434 0.188663
0.971527 0.509270 0.195010
1.000000 0.516320 0.203799
1.000000 0.523400 0.214450
1.000000 0.530510 0.225559
1.000000 0.537469 0.237949
1.000000 0.545037 0.251591
1.000000 0.553246 0.267430
1.000000 0.562127 0.284703
1.000000 0.571984 0.303471
1.000000 0.582727 0.324529
0.000000 0.341619 0.199924
0.000000 0.341619 0.200046
0.000000 0.341070 0.200717
0.000000 0.340673 0.201999
0.000000 0.340215 0.204044
0.000000 0.341375 0.207187
0.000000 0.344213 0.210269
0.000000 0.350072 0.208347
0.044923 0.357427 0.206027
0.154177 0.366003 0.203098
0.220676 0.376226 0.199191
0.286625 0.387457 0.194369
0.356115 0.398505 0.188327
0.441199 0.418280 0.179782
0.527733 0.444007 0.175174
0.608453 0.466590 0.171756
0.681758 0.486946 0.172366
0.746304 0.504112 0.176455
0.803372 0.519188 0.185061
0.853208 0.532525 0.197696
0.892271 0.538293 0.200107
0.927459 0.543908 0.204501
0.959442 0.549096 0.211307
0.988800 0.554772 0.219455
1.000000 0.560479 0.229465
1.000000 0.566155 0.240696
1.000000 0.571984 0.253666
1.000000 0.578363 0.267185
1.000000 0.585199 0.282628
1.000000 0.592920 0.299626
1.000000 0.601221 0.318395
1.000000 0.610437 0.339391
0.000000 0.407019 0.205661
0.000000 0.406775 0.205722
0.000000 0.406378 0.206607
0.000000 0.405829 0.207858
0.000000 0.405249 0.210269
0.000000 0.405158 0.213779
0.000000 0.405798 0.218540
0.000000 0.409216 0.218143
0.000000 0.415076 0.215366
0.119112 0.422736 0.211765
0.208865 0.431739 0.207309
0.283635 0.441871 0.201724
0.356603 0.451911 0.194949
0.429236 0.461128 0.186648
0.513024 0.478553 0.175784
0.593957 0.502129 0.170932
0.666072 0.522210 0.169162
0.729366 0.538872 0.174685
0.786038 0.553429 0.184482
0.835813 0.565759 0.197482
0.880003 0.576776 0.214267
0.917815 0.584924 0.227390
0.949645 0.589349 0.233707
0.979004 0.593866 0.241611
1.000000 0.598383 0.251164
1.000000 0.602930 0.262089
1.000000 0.607507 0.274388
1.000000 0.612360 0.287602
1.000000 0.617975 0.302220
1.000000 0.624262 0.318975
1.000000 0.631250 0.337530
1.000000 0.639033 0.357946
0.000000 0.476661 0.211612
0.000000 0.476417 0.211948
0.000000 0.475563 0.212619
0.000000 0.474586 0.214298
0.000000 0.473030 0.217075
0.000000 0.471504 0.220920
0.000000 0.471168 0.226261
0.000000 0.472267 0.230381
0.000000 0.476875 0.226810
0.000000 0.483070 0.222873
0.195010 0.490913 0.218418
0.281254 0.499672 0.212253
0.358190 0.508385 0.205325
0.431952 0.516197 0.196994
0.502495 0.522332 0.186648
0.579583 0.536278 0.174838
0.651820 0.555932 0.171664
0.714961 0.572198 0.174289
0.770779 0.585901 0.184543
0.820462 0.597742 0.199466
0.864683 0.608179 0.216312
0.904509 0.618097 0.236545
0.940215 0.627222 0.258061
0.969909 0.631617 0.268620
0.996551 0.635035 0.277470
1.000000 0.638483 0.287358
1.000000 0.642176 0.299016
1.000000 0.646326 0.312078
1.000000 0.650965 0.327153
1.000000 0.656519 0.343755
1.000000 0.662776 0.362554
1.000000 0.669764 0.383062
0.000000 0.541985 0.220249
0.000000 0.542199 0.220523
0.000000 0.541833 0.221561
0.000000 0.541405 0.223301
0.000000 0.540551 0.226505
0.000000 0.540063 0.230838
0.000000 0.540459 0.236820
0.000000 0.541405 0.244846
0.000000 0.545006 0.244083
0.000000 0.549767 0.239597
0.191836 0.554986 0.234745
0.286137 0.560540 0.228763
0.364904 0.565728 0.221622
0.437018 0.569970 0.212833
0.503990 0.573175 0.202579
0.566491 0.575555 0.191196
0.635096 0.585809 0.178378
0.698482 0.600763 0.179294
0.754543 0.614557 0.186893
0.804685 0.626246 0.200992
0.849546 0.636957 0.219181
0.890227 0.646723 0.240574
0.926696 0.655787 0.263401
0.959594 0.664179 0.287297
0.988525 0.671046 0.308812
1.000000 0.673854 0.318456
1.000000 0.676844 0.329412
1.000000 0.679957 0.341833
1.000000 0.683619 0.355932
1.000000 0.687831 0.371283
1.000000 0.692531 0.388495
1.000000 0.697932 0.407202
0.000000 0.602228 0.233188
0.000000 0.602197 0.233402
0.000000 0.601862 0.234470
0.000000 0.601495 0.236149
0.000000 0.601007 0.239902
0.000000 0.600732 0.244419
0.000000 0.600824 0.250767
0.000000 0.601129 0.258976
0.000000 0.602533 0.265080
0.000000 0.605859 0.260655
0.196536 0.609491 0.255833
0.294499 0.613336 0.249973
0.373388 0.616815 0.243320
0.443183 0.619623 0.235416
0.507591 0.621759 0.225650
0.567407 0.622827 0.214725
0.623377 0.623560 0.202396
0.684718 0.631128 0.191196
0.740841 0.642542 0.195529
0.790799 0.654108 0.207309
0.836240 0.664607 0.223758
0.877165 0.674037 0.245701
0.914061 0.682734 0.269291
0.947295 0.690791 0.293980
0.977325 0.698238 0.319463
1.000000 0.705409 0.346075
1.000000 0.709468 0.362737
1.000000 0.712001 0.374090
1.000000 0.714809 0.387182
1.000000 0.718135 0.401587
1.000000 0.721981 0.417975
1.000000 0.726253 0.435615
0.000000 0.659052 0.253758
0.000000 0.659327 0.254093
0.000000 0.685939 0.270054
0.000000 0.685573 0.272282
0.000000 0.684932 0.275486
0.000000 0.684108 0.280766
0.000000 0.683345 0.287388
0.000000 0.682490 0.295811
0.000000 0.682185 0.306126
0.157992 0.683314 0.305394
0.270634 0.684840 0.300420
0.350591 0.686213 0.294682
0.418921 0.687037 0.287663
0.481056 0.687129 0.279026
0.538293 0.686519 0.269749
0.591913 0.685145 0.258793
0.642725 0.683131 0.245640
0.690974 0.681056 0.231662
0.742763 0.684474 0.221225
0.789944 0.691127 0.227939
0.833280 0.699641 0.243046
0.872892 0.707637 0.261387
0.908476 0.714870 0.285435
0.940673 0.721401 0.309789
0.969665 0.727230 0.334783
0.996002 0.732662 0.359625
1.000000 0.737972 0.384771
1.000000 0.743191 0.410285
1.000000 0.744778 0.421027
1.000000 0.746975 0.434028
1.000000 0.749844 0.448768
1.000000 0.753201 0.464973
0.000000 0.714839 0.286137
0.000000 0.716976 0.288090
0.000000 0.719112 0.290837
0.000000 0.720851 0.294591
0.000000 0.721767 0.298955
0.000000 0.721736 0.304387
0.000000 0.720943 0.310643
0.000000 0.719936 0.318395
0.000000 0.719142 0.328191
0.202762 0.718807 0.334203
0.291691 0.719692 0.329961
0.362829 0.720363 0.324590
0.425055 0.720577 0.318273
0.482887 0.720363 0.310460
0.536645 0.719814 0.302281
0.588006 0.718593 0.292119
0.636896 0.717098 0.281041
0.683589 0.715419 0.269047
0.728786 0.713619 0.255833
0.776761 0.716884 0.246616
0.819608 0.721767 0.255161
0.859586 0.730068 0.272404
0.896056 0.737179 0.292088
0.928588 0.743465 0.316594
0.957946 0.748989 0.341161
0.984649 0.754025 0.366369
1.000000 0.758877 0.391669
1.000000 0.763729 0.417365
1.000000 0.768917 0.443763
1.000000 0.772763 0.463966
1.000000 0.774990 0.477516
1.000000 0.777707 0.492653
0.000000 0.751949 0.314733
0.000000 0.753872 0.316960
0.000000 0.755825 0.319921
0.000000 0.757412 0.323857
0.000000 0.758358 0.328527
0.000000 0.758206 0.333501
0.000000 0.757473 0.339452
0.000000 0.756435 0.346746
0.155825 0.755398 0.355840
0.256992 0.754330 0.366217
0.325261 0.754299 0.364294
0.385321 0.754513 0.359350
0.440803 0.754391 0.353429
0.493019 0.754086 0.346654
0.542870 0.753292 0.338994
0.590600 0.752132 0.330175
0.636713 0.750668 0.320134
0.680934 0.748867 0.308598
0.723781 0.747097 0.296941
0.765133 0.745449 0.284489
0.809079 0.747921 0.276310
0.847288 0.750790 0.285130
0.883848 0.758145 0.304112
0.917205 0.764279 0.325170
0.946960 0.769589 0.348730
0.973846 0.774411 0.374029
0.998291 0.778836 0.398688
1.000000 0.783261 0.424353
1.000000 0.787900 0.450752
1.000000 0.792935 0.477546
1.000000 0.798398 0.505608
1.000000 0.801022 0.520989
0.000000 0.786160 0.347692
0.000000 0.787747 0.349828
0.000000 0.789212 0.352697
0.000000 0.790494 0.356481
0.000000 0.791012 0.360571
0.000000 0.790829 0.365270
0.000000 0.790158 0.370642
0.147127 0.789120 0.377478
0.240604 0.788113 0.385626
0.307774 0.786984 0.395483
0.363958 0.786160 0.401251
0.413397 0.786007 0.396490
0.461524 0.785702 0.391180
0.507683 0.785092 0.384771
0.552850 0.784329 0.377813
0.596948 0.783383 0.370275
0.640314 0.782376 0.361883
0.682582 0.781369 0.352514
0.723812 0.780484 0.343053
0.764126 0.779812 0.333074
0.803250 0.779171 0.322667
0.844144 0.781796 0.316686
0.878264 0.783169 0.326482
0.911864 0.789792 0.347784
0.942138 0.795254 0.370062
0.969177 0.799924 0.394171
0.993500 0.804135 0.419959
1.000000 0.808225 0.446235
1.000000 0.812497 0.472480
1.000000 0.816983 0.499611
1.000000 0.821653 0.526879
1.000000 0.826688 0.553979
0.000000 0.825620 0.396338
0.000000 0.826139 0.397284
0.000000 0.826444 0.398779
0.000000 0.826352 0.400671
0.000000 0.826047 0.403540
0.151156 0.825193 0.406867
0.216800 0.824155 0.411627
0.272251 0.823026 0.417517
0.322484 0.821927 0.424933
0.370367 0.820829 0.433967
0.415534 0.819730 0.444556
0.455665 0.819303 0.442237
0.495003 0.818753 0.437263
0.534386 0.817990 0.431403
0.573632 0.817075 0.424689
0.612451 0.815915 0.417548
0.650996 0.814572 0.409430
0.689113 0.813169 0.400885
0.726680 0.811795 0.391638
0.763455 0.810422 0.381781
0.799680 0.808927 0.371160
0.834745 0.807523 0.360388
0.871550 0.808774 0.353704
0.901274 0.807706 0.361028
0.931273 0.812833 0.381964
0.958770 0.817380 0.403845
0.983795 0.821439 0.427283
1.000000 0.825437 0.453651
1.000000 0.829374 0.480079
1.000000 0.833402 0.506737
1.000000 0.837644 0.533501
1.000000 0.842069 0.560510
0.181308 0.851682 0.433204
0.186526 0.852110 0.434119
0.199924 0.852293 0.435431
0.219455 0.852323 0.437476
0.245304 0.851957 0.440009
0.275151 0.851255 0.443061
0.308690 0.850340 0.447456
0.343786 0.849302 0.452735
0.380713 0.848264 0.459602
0.418555 0.847166 0.467994
0.456184 0.846036 0.477577
0.491341 0.845182 0.482429
0.523796 0.844694 0.477668
0.557397 0.844022 0.472511
0.591394 0.843229 0.466987
0.625910 0.842222 0.460426
0.660395 0.841245 0.453681
0.695003 0.839994 0.445808
0.729458 0.838804 0.437751
0.763607 0.837491 0.428931
0.797452 0.836149 0.419684
0.830625 0.834806 0.409857
0.863188 0.833310 0.399176
0.897032 0.834195 0.393011
0.920165 0.828244 0.391638
0.947417 0.832456 0.412482
0.972992 0.836545 0.434424
0.996216 0.840330 0.457618
1.000000 0.844144 0.484291
1.000000 0.847959 0.510948
1.000000 0.851987 0.538109
1.000000 0.856260 0.565209
0.321538 0.878996 0.478309
0.325750 0.879545 0.479927
0.331365 0.879698 0.480995
0.340581 0.879332 0.482185
0.352544 0.878538 0.483650
0.368780 0.877440 0.485542
0.388373 0.876066 0.488167
0.411475 0.874510 0.491890
0.437598 0.872892 0.496925
0.466011 0.871275 0.503136
0.495277 0.869566 0.510582
0.525811 0.867887 0.519371
0.552026 0.866911 0.515618
0.579217 0.865812 0.510307
0.607416 0.864530 0.503899
0.636530 0.863157 0.496986
0.666682 0.861753 0.489570
0.697536 0.860410 0.482246
0.728939 0.859220 0.474556
0.760616 0.858183 0.466804
0.792172 0.857115 0.458839
0.823514 0.855924 0.450172
0.854307 0.854459 0.440314
0.884276 0.852659 0.429297
0.915373 0.852750 0.422095
0.938872 0.848692 0.425269
0.963378 0.851804 0.445228
0.986694 0.855161 0.466682
1.000000 0.858488 0.489662
1.000000 0.861906 0.515343
1.000000 0.865629 0.542168
1.000000 0.869657 0.569665
0.390082 0.897429 0.510582
0.393500 0.897887 0.511894
0.397833 0.898070 0.513237
0.404883 0.897948 0.514580
0.414740 0.897490 0.516258
0.427710 0.896818 0.518822
0.444343 0.896025 0.522210
0.463844 0.895079 0.526299
0.485969 0.894072 0.531579
0.510063 0.893004 0.538018
0.535058 0.891722 0.545098
0.561364 0.890410 0.553460
0.585504 0.889281 0.556634
0.608057 0.888334 0.551873
0.631739 0.887205 0.546075
0.656367 0.885893 0.539910
0.682185 0.884520 0.533135
0.708949 0.883238 0.526055
0.736629 0.882048 0.519249
0.764981 0.880980 0.512108
0.793790 0.879850 0.504753
0.822538 0.878752 0.496620
0.851072 0.877531 0.488136
0.879393 0.876005 0.478553
0.907317 0.874266 0.468025
0.936370 0.874235 0.461006
0.957702 0.869474 0.463142
0.979797 0.871885 0.483345
1.000000 0.875090 0.505730
1.000000 0.878294 0.528923
1.000000 0.881682 0.554620
1.000000 0.885435 0.582391
0.456733 0.916869 0.547814
0.458198 0.917052 0.548425
0.460822 0.917082 0.549187
0.465827 0.916838 0.550347
0.473243 0.916411 0.551843
0.483009 0.915770 0.553857
0.495705 0.914977 0.556481
0.511040 0.914061 0.560113
0.528527 0.913054 0.564569
0.548150 0.911955 0.570031
0.569451 0.910735 0.576623
0.591638 0.909514 0.583948
0.614405 0.908141 0.592035
0.633234 0.907317 0.588128
0.653315 0.906279 0.583062
0.674189 0.905119 0.577234
0.696498 0.903899 0.571283
0.719844 0.902708 0.564965
0.744289 0.901549 0.558526
0.769650 0.900542 0.552087
0.795590 0.899565 0.545495
0.821897 0.898466 0.538231
0.848173 0.897246 0.530419
0.874388 0.895842 0.521935
0.900542 0.894194 0.512474
0.926360 0.892393 0.502037
0.953674 0.892302 0.494911
0.973175 0.887144 0.496498
0.993225 0.888640 0.515770
1.000000 0.891905 0.539147
1.000000 0.895232 0.563409
1.000000 0.898894 0.590234
0.506950 0.933257 0.580072
0.508141 0.933379 0.580560
0.510521 0.933379 0.581384
0.514733 0.933318 0.582544
0.521202 0.933074 0.584375
0.530358 0.932769 0.586908
0.542229 0.932586 0.590600
0.556786 0.932403 0.595483
0.573449 0.932189 0.601404
0.592004 0.931914 0.608270
0.611872 0.931640 0.616205
0.632288 0.931182 0.624475
0.653010 0.930571 0.633265
0.671687 0.930022 0.636683
0.688685 0.929595 0.633387
0.706172 0.928832 0.628870
0.724636 0.927886 0.623682
0.744289 0.926909 0.618311
0.764981 0.925994 0.612818
0.786770 0.925109 0.607263
0.809201 0.924224 0.601465
0.832303 0.923217 0.595178
0.855528 0.922087 0.588312
0.879118 0.920806 0.580774
0.902831 0.919371 0.572473
0.926665 0.917845 0.564019
0.950591 0.916228 0.554742
0.975982 0.916136 0.548516
0.993500 0.911070 0.550927
1.000000 0.911406 0.568627
1.000000 0.914672 0.593317
1.000000 0.918334 0.620172
0.569299 0.952972 0.624903
0.569696 0.952972 0.624903
0.570947 0.952850 0.625299
0.573785 0.952605 0.625879
0.578149 0.952239 0.626947
0.584497 0.951751 0.628717
0.592737 0.951232 0.631006
0.603052 0.950591 0.634150
0.615167 0.949920 0.638178
0.628992 0.949187 0.642817
0.644221 0.948333 0.648524
0.660456 0.947448 0.654749
0.677424 0.946441 0.661677
0.694789 0.945281 0.668849
