20 Preset/Street 2/【3】LUT video cho PR-AE-FCPX/Tone 1 (1).cube
# Created by Adobe Lightroom plugin Export LUT (1.24.0)
# www.johnrellis.com/lightroom/exportlut.htm
# Preset: 青橙风光-素材江湖01
# Color profile: C:\Program Files (x86)\Common Files\Adobe\Color\Profiles\Recommended\VideoHD.icc
LUT_3D_SIZE 5
DOMAIN_MIN 0.000000 0.000000 0.000000
DOMAIN_MAX 0.903226 0.903226 0.903226
0.115389 0.115389 0.115389
0.265751 0.117403 0.109529
0.709651 0.206485 0.000000
1.000000 0.324285 0.000000
1.000000 0.362585 0.000000
0.136385 0.188663 0.115602
0.301213 0.228763 0.058808
0.748013 0.336553 0.000000
1.000000 0.398566 0.000000
1.000000 0.407782 0.000000
0.229435 0.425513 0.032624
0.382635 0.479561 0.000000
0.849119 0.620539 0.000000
1.000000 0.582116 0.000000
1.000000 0.533074 0.000000
0.361608 0.716426 0.000000
0.471717 0.744259 0.000000
0.797787 0.813687 0.000000
1.000000 0.773861 0.000000
1.000000 0.689326 0.000000
0.494942 0.923644 0.037903
0.554192 0.929839 0.000000
0.742519 0.936461 0.000000
1.000000 0.950683 0.000000
1.000000 0.842863 0.000000
0.107729 0.134127 0.198642
0.190707 0.143862 0.192966
0.578546 0.155489 0.165988
1.000000 0.298955 0.000000
1.000000 0.369238 0.000000
0.101381 0.208682 0.213993
0.220066 0.220066 0.220066
0.645930 0.272831 0.149966
1.000000 0.365362 0.000000
1.000000 0.405097 0.000000
0.156710 0.436530 0.227085
0.281041 0.445014 0.196536
0.768887 0.571801 0.000000
1.000000 0.555322 0.000000
1.000000 0.524773 0.000000
0.273198 0.693721 0.197269
0.402686 0.726131 0.158938
0.760403 0.807889 0.000000
1.000000 0.774289 0.000000
1.000000 0.687617 0.000000
0.460945 0.915709 0.274571
0.522606 0.922210 0.246830
0.730068 0.945098 0.000000
1.000000 0.956054 0.000000
1.000000 0.848264 0.000000
0.000000 0.246036 0.490425
0.000000 0.259373 0.495125
0.421149 0.228519 0.427863
0.798703 0.296147 0.497627
1.000000 0.401099 0.413550
0.000000 0.347143 0.517510
0.000000 0.337774 0.519951
0.456001 0.302983 0.462043
0.830961 0.366430 0.488563
1.000000 0.440833 0.418433
0.000000 0.555749 0.576349
0.044495 0.560418 0.577356
0.579156 0.579156 0.579156
0.941314 0.592218 0.532219
1.000000 0.572107 0.443610
0.466621 0.784268 0.627832
0.495277 0.772305 0.613489
0.586175 0.755306 0.522545
0.976898 0.804166 0.547753
1.000000 0.734279 0.482734
0.507744 0.907774 0.585809
0.514122 0.905974 0.564263
0.631373 0.917205 0.504143
0.940826 0.950500 0.459388
1.000000 0.872557 0.414374
0.000000 0.414649 0.791501
0.000000 0.437354 0.794553
0.284489 0.437476 0.785489
0.679377 0.381689 0.690028
0.887297 0.533379 0.748989
0.000000 0.486854 0.794675
0.000000 0.486671 0.796292
0.308354 0.478492 0.786007
0.681025 0.422675 0.690730
0.894560 0.557702 0.746426
0.000000 0.615137 0.802579
0.000000 0.617792 0.800992
0.465492 0.641840 0.799191
0.719509 0.588556 0.725216
0.942229 0.675898 0.759731
0.384192 0.810849 0.831540
0.450721 0.810391 0.829160
0.641077 0.817655 0.828794
0.823728 0.823728 0.823728
1.000000 0.827237 0.801083
0.719417 0.942473 0.856443
0.731868 0.941192 0.855650
0.773739 0.935576 0.848478
0.805234 0.923308 0.766262
1.000000 0.932006 0.800076
0.000000 0.589044 0.945281
0.000000 0.594995 0.944823
0.329229 0.633448 0.941588
0.691951 0.691463 0.922759
0.870085 0.628687 0.879942
0.000000 0.610620 0.943969
0.000000 0.616297 0.943786
0.359838 0.652827 0.939544
0.698085 0.706172 0.921141
0.868894 0.641566 0.878294
0.000000 0.675410 0.944182
0.000000 0.677607 0.943053
0.431373 0.716823 0.938811
0.725002 0.763119 0.924193
0.876585 0.706630 0.883970
0.000000 0.794949 0.945586
0.230777 0.797177 0.944457
0.511986 0.811368 0.942382
0.761013 0.846098 0.940673
0.905333 0.822965 0.909178
0.568322 0.933104 0.953094
0.601831 0.934630 0.953399
0.711849 0.940642 0.954833
0.846952 0.950378 0.957458
0.957763 0.957763 0.957763
