20 Preset/Street 2/【3】LUT video cho PR-AE-FCPX/Tone 1 (19).cube
# Created by Adobe Lightroom plugin Export LUT (1.24.0)
# www.johnrellis.com/lightroom/exportlut.htm
# Preset: 青橙风光-素材江湖19
# Color profile: C:\Program Files (x86)\Common Files\Adobe\Color\Profiles\Recommended\VideoHD.icc
LUT_3D_SIZE 32
DOMAIN_MIN 0.0 0.0 0.0
DOMAIN_MAX 1.0 1.0 1.0
0.115389 0.115389 0.115389
0.115389 0.115389 0.115389
0.115389 0.115389 0.115389
0.121798 0.114931 0.115602
0.140139 0.114229 0.116487
0.161257 0.115816 0.118074
0.183627 0.119295 0.119753
0.208713 0.123201 0.121401
0.237766 0.127565 0.122530
0.270390 0.132815 0.123293
0.308324 0.139528 0.123659
0.351873 0.147616 0.123323
0.400000 0.157412 0.122011
0.451972 0.168948 0.119081
0.506554 0.182040 0.114809
0.562249 0.196872 0.108797
0.618494 0.212528 0.100679
0.675349 0.229709 0.089906
0.749142 0.251957 0.054902
0.810758 0.272557 0.021057
0.862669 0.290867 0.000000
0.906706 0.307073 0.000000
0.942840 0.321660 0.000000
0.974304 0.334874 0.019867
1.000000 0.347082 0.060273
1.000000 0.359228 0.097597
1.000000 0.371099 0.122194
1.000000 0.383490 0.147646
1.000000 0.396399 0.173892
1.000000 0.410712 0.202396
1.000000 0.426307 0.233158
1.000000 0.444007 0.266392
0.115389 0.115389 0.115389
0.115389 0.115389 0.115389
0.115389 0.115389 0.115389
0.122103 0.115175 0.115572
0.140566 0.114168 0.116487
0.160678 0.116518 0.117983
0.182681 0.119783 0.119722
0.207095 0.123598 0.121401
0.235111 0.128023 0.122591
0.267338 0.133028 0.123171
0.304143 0.139559 0.123659
0.346838 0.147585 0.123476
0.394079 0.157351 0.122072
0.445441 0.168673 0.119387
0.499214 0.181338 0.115511
0.554986 0.195834 0.109499
0.611200 0.211429 0.102113
0.668513 0.228367 0.091493
0.740047 0.250187 0.059815
0.800290 0.269718 0.026093
0.851621 0.287633 0.003723
0.895659 0.303685 0.000000
0.932128 0.317967 0.000000
0.964050 0.331212 0.010010
0.992462 0.343420 0.043671
1.000000 0.355108 0.089113
1.000000 0.366888 0.113649
1.000000 0.379217 0.139284
1.000000 0.392157 0.165591
1.000000 0.406226 0.194034
1.000000 0.421881 0.224887
1.000000 0.439368 0.257816
0.115389 0.115389 0.115389
0.115389 0.115389 0.115389
0.115389 0.115389 0.115389
0.124941 0.114839 0.115877
0.141085 0.116762 0.117037
0.160555 0.119692 0.118441
0.182040 0.122988 0.120150
0.206332 0.126711 0.121553
0.234134 0.130800 0.122774
0.265660 0.136172 0.123323
0.302312 0.142641 0.123842
0.344579 0.150515 0.123445
0.391394 0.159945 0.122133
0.442054 0.170993 0.119570
0.495521 0.184115 0.115633
0.550591 0.198215 0.109926
0.606744 0.213993 0.101839
0.665064 0.230655 0.091432
0.734646 0.251713 0.061646
0.794278 0.270878 0.027314
0.845579 0.288548 0.003571
0.889799 0.304204 0.000000
0.926726 0.318547 0.000000
0.958984 0.331395 0.006714
0.987488 0.343359 0.035340
1.000000 0.354772 0.083436
1.000000 0.366552 0.109468
1.000000 0.378668 0.135195
1.000000 0.391424 0.161654
1.000000 0.405432 0.189975
1.000000 0.420691 0.220584
1.000000 0.437751 0.253696
0.114199 0.118746 0.115541
0.114015 0.119051 0.115511
0.117159 0.119570 0.115358
0.127138 0.120638 0.116518
0.142184 0.123079 0.118166
0.161135 0.125887 0.119570
0.182834 0.128908 0.121004
0.206485 0.132753 0.122042
0.234623 0.136751 0.122927
0.265995 0.142061 0.123751
0.302647 0.148592 0.123903
0.343969 0.156741 0.123415
0.390570 0.166354 0.122011
0.440528 0.177859 0.119326
0.493141 0.190188 0.115267
0.547326 0.204532 0.109499
0.602350 0.219547 0.101778
0.661372 0.236484 0.090913
0.726772 0.255985 0.062654
0.783810 0.273869 0.030152
0.833829 0.290318 0.005097
0.877684 0.305669 0.000000
0.915892 0.319463 0.000000
0.949798 0.332403 0.000000
0.980377 0.344488 0.026215
1.000000 0.356390 0.075776
1.000000 0.368475 0.106661
1.000000 0.380835 0.133333
1.000000 0.393439 0.160800
1.000000 0.407355 0.189364
1.000000 0.422248 0.219730
1.000000 0.438575 0.251804
0.114534 0.129030 0.115511
0.115145 0.128969 0.115206
0.121157 0.129122 0.115663
0.130892 0.129335 0.116304
0.144198 0.130922 0.118410
0.162264 0.133791 0.120607
0.182834 0.136965 0.121981
0.206699 0.140475 0.123018
0.234104 0.144808 0.123568
0.265171 0.150607 0.124239
0.301457 0.157198 0.124331
0.342687 0.165591 0.123445
0.388434 0.175387 0.121920
0.438270 0.186923 0.119081
0.490913 0.200015 0.114626
0.545220 0.214176 0.108583
0.601038 0.229343 0.100221
0.662226 0.246525 0.088655
0.725429 0.265354 0.056977
0.781125 0.282322 0.026184
0.830228 0.298192 0.001190
0.873838 0.312505 0.000000
0.912108 0.325902 0.000000
0.946563 0.338140 0.000000
0.977691 0.350103 0.022339
1.000000 0.361883 0.072145
1.000000 0.373388 0.105745
1.000000 0.385290 0.132784
1.000000 0.397650 0.160433
1.000000 0.410834 0.188540
1.000000 0.425055 0.218875
1.000000 0.440955 0.250492
0.117617 0.139864 0.115145
0.119051 0.139712 0.115419
0.124392 0.139895 0.115572
0.133822 0.140078 0.116243
0.145968 0.140047 0.117739
0.163577 0.142916 0.120211
0.185092 0.147127 0.122164
0.209110 0.151034 0.123873
0.236728 0.156191 0.124971
0.268650 0.162264 0.125124
0.304906 0.169680 0.124605
0.346746 0.178744 0.123568
0.392798 0.189425 0.121218
0.442664 0.201541 0.118074
0.495460 0.214786 0.113008
0.550195 0.229007 0.106752
0.605829 0.243992 0.097902
0.670344 0.262516 0.081331
0.731746 0.280400 0.045686
0.786069 0.296513 0.015076
0.834165 0.311437 0.000000
0.877104 0.325139 0.000000
0.969482 0.361151 0.012696
0.998199 0.372107 0.059998
1.000000 0.382452 0.100191
1.000000 0.392828 0.125582
1.000000 0.403326 0.150576
1.000000 0.414191 0.175845
1.000000 0.425788 0.202518
1.000000 0.438544 0.229984
1.000000 0.452522 0.259098
1.000000 0.467781 0.289281
0.124575 0.153780 0.115663
0.126009 0.153658 0.115663
0.130922 0.153811 0.115816
0.140414 0.154116 0.116426
0.152834 0.154757 0.117464
0.167849 0.155123 0.119539
0.190951 0.160861 0.121340
0.218967 0.167636 0.123232
0.248875 0.173800 0.124361
0.284672 0.181521 0.125490
0.325200 0.190951 0.124819
0.369970 0.201816 0.122652
0.418372 0.213840 0.119326
0.469520 0.226749 0.114534
0.522667 0.240513 0.108186
0.576715 0.254765 0.099886
0.636744 0.271214 0.088258
0.704372 0.290776 0.051637
0.764309 0.308568 0.014343
0.817929 0.324163 0.000000
0.866758 0.339117 0.000000
0.910918 0.352972 0.000000
0.949645 0.365942 0.000000
0.983948 0.378180 0.035676
1.000000 0.389166 0.092897
1.000000 0.399847 0.120607
1.000000 0.409644 0.146670
1.000000 0.419928 0.171939
1.000000 0.430793 0.198489
1.000000 0.442481 0.225254
1.000000 0.455390 0.253941
1.000000 0.469825 0.283818
0.130861 0.167147 0.118318
0.132204 0.167056 0.118318
0.136843 0.167208 0.118471
0.145357 0.167666 0.118715
0.157565 0.168429 0.119081
0.172885 0.169558 0.119539
0.190311 0.170993 0.121736
0.217746 0.179019 0.122469
0.250401 0.188510 0.122499
0.285222 0.197177 0.122957
0.326726 0.207889 0.122927
0.374487 0.220218 0.121889
0.423835 0.233127 0.118441
0.474525 0.246403 0.112856
0.527245 0.260319 0.105867
0.580499 0.274296 0.096681
0.645899 0.293400 0.076936
0.707973 0.310979 0.037293
0.764126 0.326696 0.003571
0.815244 0.341222 0.000000
0.862547 0.354742 0.000000
0.905638 0.367376 0.000000
0.944060 0.379217 0.000000
0.978241 0.390234 0.032441
1.000000 0.400702 0.090120
1.000000 0.410346 0.118837
1.000000 0.419471 0.145480
1.000000 0.428840 0.171023
1.000000 0.438819 0.197360
1.000000 0.449714 0.224338
1.000000 0.461891 0.252781
1.000000 0.475502 0.282719
0.138094 0.182742 0.121157
0.139132 0.182834 0.121401
0.143435 0.182956 0.121553
0.151675 0.183505 0.121767
0.163333 0.184482 0.122042
0.178988 0.185977 0.122560
0.196628 0.187930 0.123415
0.218692 0.191470 0.125460
0.250462 0.201816 0.125124
0.289769 0.214572 0.123873
0.330602 0.226261 0.122347
0.377142 0.239628 0.119661
0.428626 0.254063 0.115846
0.483833 0.269291 0.110597
0.537133 0.283787 0.102174
0.597955 0.301518 0.089296
0.659144 0.319127 0.057649
0.716976 0.335119 0.019928
0.769711 0.349218 0.000000
0.818479 0.362219 0.000000
0.863828 0.374426 0.000000
0.905333 0.385840 0.000000
0.942596 0.396460 0.000000
0.975952 0.406195 0.033875
1.000000 0.415534 0.092836
1.000000 0.423987 0.121645
1.000000 0.432410 0.148013
1.000000 0.440894 0.173831
1.000000 0.450019 0.199863
1.000000 0.459937 0.226780
1.000000 0.471321 0.255192
1.000000 0.484047 0.284581
0.145815 0.200778 0.124147
0.147005 0.200717 0.123873
0.150820 0.200961 0.124239
0.158816 0.201572 0.124147
0.170352 0.202792 0.124575
0.185550 0.204318 0.125032
0.203922 0.206546 0.125368
0.224918 0.209842 0.126009
0.251865 0.215763 0.128634
0.289220 0.228885 0.126864
0.334722 0.244785 0.124056
0.380041 0.258579 0.120790
0.430274 0.273594 0.116548
0.484779 0.289433 0.110658
0.549218 0.309575 0.101320
0.614771 0.329107 0.089387
0.673487 0.346258 0.047974
0.729091 0.362005 0.001801
0.779904 0.375189 0.000000
0.826352 0.386877 0.000000
0.868894 0.397406 0.000000
0.906981 0.406622 0.000000
0.941344 0.415045 0.000000
0.972320 0.422980 0.036561
1.000000 0.430304 0.094026
1.000000 0.437690 0.121920
1.000000 0.444953 0.148318
1.000000 0.452613 0.174258
1.000000 0.461189 0.200809
1.000000 0.470619 0.228244
1.000000 0.481392 0.256931
1.000000 0.493599 0.286839
0.153811 0.219821 0.125612
0.154391 0.219913 0.125582
0.158419 0.220340 0.125856
0.166567 0.221073 0.125948
0.178164 0.222568 0.126223
0.193515 0.224552 0.126436
0.212467 0.227359 0.126711
0.234165 0.231296 0.127199
0.256748 0.234134 0.128634
0.293278 0.246006 0.129702
0.336339 0.262089 0.126497
0.386999 0.280461 0.121736
0.438209 0.297246 0.116518
0.497475 0.316747 0.109163
0.559289 0.336431 0.099214
0.622492 0.355444 0.087068
0.685206 0.373602 0.057527
0.741268 0.388525 0.026947
0.788907 0.400702 0.000000
0.832609 0.411444 0.000000
0.872984 0.420935 0.000000
0.909148 0.428687 0.000000
0.942138 0.435981 0.000000
0.972290 0.442786 0.054871
0.999481 0.449195 0.101900
1.000000 0.455421 0.129824
1.000000 0.461891 0.155184
1.000000 0.468605 0.181430
1.000000 0.476234 0.207279
1.000000 0.484779 0.234775
1.000000 0.494759 0.263127
1.000000 0.506188 0.293095
0.162753 0.242618 0.126650
0.164157 0.242741 0.126558
0.167788 0.243259 0.126558
0.175753 0.244266 0.126772
0.187625 0.246098 0.126833
0.203433 0.248539 0.127016
0.223087 0.252018 0.126833
0.245975 0.256443 0.126833
0.272129 0.262181 0.127047
0.299413 0.266880 0.129122
0.343450 0.282902 0.128542
0.395605 0.304143 0.123323
0.495644 0.354620 0.109438
0.560815 0.377539 0.098482
0.625971 0.398627 0.084657
0.689845 0.417609 0.056550
0.747921 0.432868 0.039460
0.800931 0.445258 0.042359
0.848783 0.455665 0.064973
0.887419 0.462776 0.069245
0.920378 0.468452 0.078279
0.949920 0.473304 0.090120
0.976928 0.477821 0.101564
1.000000 0.481971 0.123445
1.000000 0.485908 0.147433
1.000000 0.489937 0.170413
1.000000 0.493996 0.192782
1.000000 0.498787 0.215549
1.000000 0.504540 0.238926
1.000000 0.511345 0.263890
1.000000 0.519738 0.290135
1.000000 0.529961 0.318517
0.175662 0.275761 0.125673
0.176333 0.275883 0.125582
0.180575 0.276158 0.125612
0.189151 0.277195 0.125429
0.201633 0.278599 0.125734
0.218112 0.281102 0.125643
0.239109 0.284550 0.125673
0.263249 0.289403 0.125277
0.290929 0.295872 0.125063
0.326329 0.306889 0.124208
0.367132 0.319829 0.125856
0.426123 0.345006 0.122774
0.490211 0.372351 0.112581
0.559808 0.400122 0.099214
0.625330 0.422889 0.084535
0.686702 0.441535 0.058442
0.742733 0.456062 0.046845
0.793179 0.467384 0.052827
0.839353 0.476692 0.077424
0.880613 0.484169 0.099092
0.916899 0.490028 0.118349
0.945617 0.493782 0.123354
0.972045 0.497292 0.131685
0.996643 0.500908 0.141543
1.000000 0.504387 0.154421
1.000000 0.507652 0.177340
1.000000 0.511223 0.199588
1.000000 0.515373 0.222507
1.000000 0.520470 0.245945
1.000000 0.526879 0.271153
1.000000 0.534600 0.297704
1.000000 0.543999 0.325750
0.186160 0.302525 0.123507
0.187045 0.302403 0.123537
0.191226 0.302861 0.123445
0.199527 0.303685 0.123293
0.212222 0.305547 0.123262
0.229343 0.309178 0.122927
0.251286 0.314183 0.122408
0.277317 0.320897 0.121889
0.308019 0.329442 0.120546
0.343084 0.340337 0.119265
0.383886 0.353887 0.117647
0.431708 0.369787 0.120394
0.494301 0.396124 0.114839
0.558923 0.422339 0.101839
0.625483 0.447456 0.085237
0.685878 0.466407 0.061219
0.739132 0.479927 0.056886
0.787503 0.490517 0.065248
0.832395 0.499245 0.089387
0.872770 0.505943 0.106600
0.909026 0.511254 0.125765
0.941924 0.515953 0.147402
0.970245 0.519707 0.162570
0.994415 0.522423 0.170626
1.000000 0.525109 0.180056
1.000000 0.527916 0.191073
1.000000 0.530816 0.211276
1.000000 0.534264 0.233768
1.000000 0.538598 0.257145
1.000000 0.544213 0.281651
1.000000 0.551324 0.308171
1.000000 0.560113 0.336095
0.200137 0.337713 0.118715
0.200839 0.337896 0.118593
0.204746 0.338323 0.118746
0.213718 0.339269 0.118410
0.227085 0.341222 0.118074
0.244419 0.344121 0.117800
0.266148 0.348638 0.117281
0.292454 0.354772 0.116060
0.322942 0.363012 0.114565
0.358526 0.373663 0.112490
0.398840 0.386786 0.110231
0.443122 0.401129 0.108461
0.498360 0.421057 0.112062
0.561700 0.446571 0.104891
0.624140 0.470283 0.090974
0.684871 0.490852 0.072724
0.737972 0.505058 0.067842
0.784726 0.514946 0.083772
0.828000 0.522820 0.099123
0.867369 0.528923 0.115633
0.902983 0.533593 0.135103
0.935515 0.537835 0.154910
0.965240 0.541375 0.176455
0.992340 0.545068 0.197604
1.000000 0.547326 0.208408
1.000000 0.549218 0.217563
1.000000 0.551507 0.227939
1.000000 0.554559 0.248264
1.000000 0.558679 0.272099
1.000000 0.564080 0.297246
1.000000 0.571191 0.324468
1.000000 0.579950 0.353368
0.213779 0.371771 0.111818
0.214542 0.372137 0.111513
0.219303 0.372686 0.111513
0.227848 0.374029 0.111025
0.241520 0.376379 0.110414
0.259281 0.379797 0.109926
0.281773 0.384924 0.108614
0.308812 0.391669 0.107240
0.340398 0.400519 0.105165
0.376226 0.411231 0.102235
0.416266 0.423682 0.099550
0.460639 0.437964 0.095613
0.503441 0.448676 0.099031
0.564782 0.471443 0.104128
0.623224 0.492836 0.096071
0.679316 0.511345 0.086244
0.732631 0.526696 0.082582
0.780240 0.537682 0.092897
0.822477 0.545403 0.107118
0.861448 0.551171 0.124392
0.897124 0.555840 0.144076
0.929870 0.559838 0.164828
0.959838 0.563409 0.185794
0.987274 0.566674 0.206790
1.000000 0.569848 0.228153
1.000000 0.573114 0.248966
1.000000 0.574823 0.258030
1.000000 0.576959 0.268742
1.000000 0.580316 0.290440
1.000000 0.585046 0.315129
1.000000 0.591150 0.341253
1.000000 0.598901 0.369055
0.227085 0.404395 0.101961
0.228580 0.404517 0.102083
0.232670 0.405249 0.101900
0.241123 0.406653 0.101472
0.254398 0.409064 0.100771
0.272282 0.412757 0.099886
0.294896 0.417823 0.098054
0.321752 0.424628 0.095857
0.352758 0.432959 0.093294
0.387793 0.443183 0.090211
0.427497 0.455177 0.085176
0.470710 0.468971 0.076905
0.517906 0.484047 0.065827
0.561730 0.493965 0.087312
0.624842 0.516960 0.100649
0.678340 0.534447 0.096223
0.728725 0.548760 0.095827
0.776577 0.560693 0.103304
0.820096 0.569390 0.117647
0.857969 0.574701 0.135988
0.893034 0.579095 0.155459
0.925505 0.582666 0.175998
0.955291 0.585870 0.196353
0.982666 0.588769 0.218112
1.000000 0.591547 0.239506
1.000000 0.594507 0.260777
1.000000 0.597742 0.282597
1.000000 0.600488 0.299321
1.000000 0.602777 0.311467
1.000000 0.607050 0.335973
1.000000 0.612604 0.361425
1.000000 0.619837 0.388830
0.241917 0.439368 0.088411
0.242863 0.439704 0.088380
0.257145 0.462623 0.068391
0.266423 0.464210 0.067414
0.280583 0.466865 0.064637
0.299626 0.470680 0.060426
0.323217 0.475837 0.054932
0.351659 0.482673 0.048432
0.384161 0.491371 0.039368
0.421485 0.501823 0.030030
0.462287 0.513878 0.020478
0.506859 0.527428 0.012909
0.554314 0.541497 0.008331
0.604425 0.556268 0.008301
0.648890 0.564080 0.081270
0.705562 0.580163 0.118257
0.750484 0.590448 0.123323
0.793118 0.598749 0.132631
0.833066 0.605066 0.146181
0.869352 0.609308 0.163241
0.901122 0.611353 0.181796
0.931151 0.613367 0.201328
0.959075 0.615045 0.220890
0.984680 0.616510 0.240940
1.000000 0.617792 0.260533
1.000000 0.619196 0.279759
1.000000 0.620935 0.298985
1.000000 0.623194 0.318822
1.000000 0.626429 0.339818
1.000000 0.629572 0.358373
1.000000 0.634516 0.383124
1.000000 0.641108 0.409827
0.259159 0.480842 0.040955
0.261509 0.483162 0.037324
0.266880 0.486244 0.033478
0.276585 0.489876 0.029694
0.290745 0.493965 0.026001
0.309239 0.498268 0.022126
0.332525 0.503380 0.016175
0.359930 0.509636 0.008698
0.391211 0.517510 0.001709
0.426734 0.527184 0.000000
0.465888 0.538384 0.000000
0.508202 0.550774 0.000000
0.553765 0.564019 0.000000
0.601343 0.577508 0.000000
0.650263 0.591089 0.000000
0.693538 0.597131 0.096895
0.745083 0.609979 0.133303
0.786893 0.618463 0.143832
0.826505 0.625177 0.157809
0.863127 0.630060 0.173983
0.896361 0.633234 0.192569
0.926390 0.635187 0.212406
0.954192 0.636713 0.232395
0.979614 0.637812 0.251896
1.000000 0.638636 0.271244
1.000000 0.639673 0.290501
1.000000 0.640864 0.309758
1.000000 0.642573 0.329198
1.000000 0.645197 0.349371
1.000000 0.648768 0.371038
1.000000 0.655085 0.403143
1.000000 0.661097 0.429145
0.272099 0.511162 0.000000
0.274235 0.513603 0.000000
0.280125 0.516838 0.000000
0.289250 0.520500 0.000000
0.303197 0.524834 0.000000
0.321477 0.529137 0.000000
0.343572 0.534051 0.000000
0.370367 0.540032 0.000000
0.400885 0.547478 0.000000
0.434913 0.556268 0.000000
0.472847 0.566674 0.000000
0.513909 0.578149 0.000000
0.557366 0.590234 0.000000
0.603235 0.602686 0.000000
0.650416 0.615229 0.000000
0.694545 0.624140 0.033570
0.739345 0.631495 0.119997
0.785885 0.641291 0.155673
0.823911 0.647364 0.169924
0.859312 0.651789 0.186007
0.892088 0.654810 0.204593
0.922271 0.656916 0.224765
0.949828 0.658289 0.244694
0.975158 0.659266 0.264866
0.998199 0.659785 0.283757
1.000000 0.660273 0.302495
1.000000 0.661036 0.321355
1.000000 0.662287 0.340978
1.000000 0.664332 0.360784
1.000000 0.667262 0.381659
1.000000 0.672114 0.408057
1.000000 0.680903 0.447822
0.285771 0.543542 0.000000
0.288396 0.545861 0.000000
0.293492 0.548791 0.000000
0.302831 0.552300 0.000000
0.315831 0.556329 0.000000
0.333715 0.560449 0.000000
0.355444 0.565240 0.000000
0.381201 0.570977 0.000000
0.410925 0.578027 0.000000
0.444160 0.586236 0.000000
0.480812 0.595605 0.000000
0.520134 0.606012 0.000000
0.561883 0.616938 0.000000
0.605737 0.628321 0.000000
0.651484 0.640131 0.000000
0.698421 0.652064 0.000000
0.738003 0.656825 0.095247
0.785000 0.666224 0.151766
0.827329 0.673793 0.187991
0.862455 0.678614 0.206180
0.895171 0.682094 0.226963
0.925261 0.684565 0.248234
0.952422 0.686000 0.270024
0.977661 0.687251 0.291783
1.000000 0.688014 0.312657
1.000000 0.688655 0.332921
1.000000 0.689265 0.352117
1.000000 0.690425 0.372107
1.000000 0.692317 0.392309
1.000000 0.694911 0.413031
1.000000 0.698360 0.434241
1.000000 0.705928 0.470100
0.307530 0.590875 0.000000
0.308995 0.591974 0.000000
0.313115 0.593378 0.000000
0.321386 0.595178 0.000000
0.334234 0.597620 0.000000
0.350896 0.600641 0.000000
0.372045 0.604517 0.000000
0.397345 0.609613 0.000000
0.426093 0.615839 0.000000
0.458839 0.623407 0.000000
0.494301 0.632013 0.000000
0.532769 0.641505 0.000000
0.573510 0.651423 0.000000
0.616266 0.661799 0.000000
0.660334 0.672450 0.000000
0.705684 0.683284 0.006775
0.751827 0.694118 0.083009
0.787198 0.694820 0.140352
0.830289 0.701686 0.193851
0.866239 0.705379 0.225986
0.896635 0.707271 0.245274
0.924651 0.708309 0.265202
0.950408 0.708522 0.285557
0.973663 0.708217 0.305821
0.996002 0.708309 0.325902
1.000000 0.708675 0.345769
1.000000 0.709102 0.365637
1.000000 0.710079 0.385657
1.000000 0.711543 0.405676
1.000000 0.713680 0.425940
1.000000 0.716548 0.446571
1.000000 0.721767 0.475135
0.322118 0.624140 0.000000
0.323430 0.625025 0.000000
0.327672 0.626307 0.000000
0.335637 0.628138 0.000000
0.348211 0.630396 0.000000
0.364355 0.633204 0.000000
0.384466 0.636805 0.000000
0.409277 0.641382 0.000000
0.437110 0.647211 0.000000
0.469001 0.654017 0.000000
0.503410 0.661830 0.000000
0.540520 0.670466 0.000000
0.579828 0.679652 0.000000
0.621424 0.689326 0.000000
0.664118 0.699306 0.000000
0.708034 0.709377 0.008637
0.752621 0.719387 0.094514
0.797604 0.729244 0.130220
0.829984 0.727504 0.183871
0.868284 0.731411 0.235538
0.899504 0.733028 0.265568
0.926482 0.733364 0.285679
0.951202 0.733089 0.306188
0.973846 0.732357 0.326360
0.990784 0.726894 0.335851
1.000000 0.726589 0.355352
1.000000 0.726864 0.375402
1.000000 0.727565 0.395361
1.000000 0.728817 0.415534
1.000000 0.730617 0.435584
1.000000 0.733150 0.456306
1.000000 0.736629 0.478645
0.341650 0.665278 0.000000
0.343420 0.666621 0.000000
0.347143 0.667781 0.000000
0.354925 0.668788 0.000000
0.366094 0.669947 0.000000
0.381598 0.671504 0.000000
0.400671 0.673579 0.000000
0.423407 0.676539 0.000000
0.449928 0.680537 0.000000
0.479927 0.685634 0.000000
0.512200 0.691463 0.000000
0.547417 0.698421 0.000000
0.584955 0.705928 0.000000
0.623957 0.713802 0.000000
0.664210 0.721736 0.000000
0.705440 0.729793 0.000000
0.747524 0.738094 0.089265
0.790219 0.746609 0.127657
0.831510 0.753780 0.162631
0.861967 0.751095 0.217563
0.896635 0.753292 0.269139
0.924193 0.753536 0.296147
0.948272 0.752712 0.315892
0.970123 0.751186 0.334997
0.989868 0.749111 0.353277
1.000000 0.746822 0.370794
1.000000 0.745815 0.388678
1.000000 0.745754 0.407691
1.000000 0.746242 0.426642
1.000000 0.747463 0.446143
1.000000 0.749416 0.465797
1.000000 0.751797 0.485481
0.354772 0.693843 0.000000
0.356329 0.695155 0.000000
0.360418 0.696407 0.000000
0.367529 0.697658 0.000000
0.378698 0.699245 0.000000
0.393744 0.701289 0.000000
0.412665 0.704097 0.000000
0.435737 0.707790 0.000000
0.462165 0.712306 0.000000
0.491432 0.717739 0.000000
0.523430 0.723598 0.000000
0.558007 0.730129 0.000000
0.594324 0.736934 0.000000
0.632288 0.743801 0.000000
0.671015 0.750637 0.000000
0.710567 0.757443 0.031922
0.750881 0.764431 0.108614
0.791775 0.771664 0.144198
0.832822 0.779110 0.177066
0.868070 0.781521 0.213352
0.897704 0.779141 0.265629
0.927764 0.779110 0.315496
0.951263 0.777829 0.338720
0.972320 0.775906 0.358373
0.991485 0.773648 0.376867
1.000000 0.771145 0.394934
1.000000 0.768673 0.412055
1.000000 0.767575 0.430030
1.000000 0.767849 0.448829
1.000000 0.768704 0.467872
1.000000 0.769986 0.486549
1.000000 0.771633 0.504753
0.372076 0.729519 0.000000
0.373480 0.730190 0.000000
0.377081 0.730892 0.000000
0.383856 0.731868 0.000000
0.394141 0.733120 0.000000
0.408759 0.734768 0.000000
0.426947 0.737057 0.000000
0.448859 0.740017 0.000000
0.474067 0.743679 0.000000
0.502312 0.748135 0.000000
0.533501 0.753109 0.000000
0.566522 0.758633 0.000000
0.601526 0.764462 0.000000
0.637781 0.770382 0.000000
0.675288 0.776211 0.000000
0.713313 0.782071 0.070192
0.752010 0.788022 0.122469
0.791348 0.794186 0.157565
0.830808 0.800595 0.189273
0.870268 0.807218 0.220157
0.899413 0.805020 0.258274
0.927550 0.802853 0.309972
0.953368 0.801114 0.357702
0.973541 0.798489 0.376867
0.991852 0.795651 0.395453
1.000000 0.792599 0.412573
1.000000 0.789639 0.429511
1.000000 0.786740 0.445472
1.000000 0.785458 0.462806
1.000000 0.785855 0.481025
1.000000 0.786740 0.499123
1.000000 0.787930 0.516503
0.387793 0.761440 0.000000
0.389044 0.762020 0.000000
0.392370 0.762753 0.000000
0.399176 0.763729 0.000000
0.409369 0.765225 0.000000
0.423987 0.767391 0.000000
0.442664 0.770748 0.000000
0.464851 0.774868 0.000000
0.490639 0.779812 0.000000
0.519371 0.785458 0.000000
0.551171 0.791592 0.000000
0.584710 0.797879 0.000000
0.620111 0.804135 0.000000
0.656306 0.810086 0.039734
0.693294 0.815702 0.117769
0.730465 0.820706 0.153231
0.767697 0.825589 0.184207
0.805447 0.830472 0.213199
0.843046 0.835538 0.242283
0.880369 0.840726 0.270909
0.917082 0.845884 0.300511
0.939879 0.839353 0.337987
0.963622 0.835935 0.386969
0.983978 0.832334 0.428168
1.000000 0.828641 0.445686
1.000000 0.824918 0.462104
1.000000 0.821347 0.477607
1.000000 0.817838 0.492164
1.000000 0.814603 0.506004
1.000000 0.812680 0.520470
1.000000 0.812741 0.536187
1.000000 0.812955 0.550927
0.415015 0.807431 0.000000
0.415930 0.807523 0.000000
0.418555 0.807675 0.000000
0.424720 0.808133 0.000000
0.434394 0.808835 0.000000
0.447791 0.809934 0.000000
0.464759 0.811612 0.000000
0.485328 0.813840 0.000000
0.508721 0.816587 0.000000
0.535668 0.819883 0.000000
0.564874 0.823545 0.000000
0.596002 0.827573 0.000000
0.629084 0.831815 0.011475
0.663203 0.836027 0.106844
