20 Preset/Street 2/【3】LUT video cho PR-AE-FCPX/Tone 1 (4).cube
# Created by Adobe Lightroom plugin Export LUT (1.24.0)
# www.johnrellis.com/lightroom/exportlut.htm
# Preset: 青橙风光-素材江湖04
# Color profile: C:\Program Files (x86)\Common Files\Adobe\Color\Profiles\Recommended\VideoHD.icc
LUT_3D_SIZE 8
DOMAIN_MIN 0.000000 0.000000 0.000000
DOMAIN_MAX 0.903226 0.903226 0.903226
0.056580 0.096407 0.101076
0.097108 0.100282 0.106172
0.176608 0.112581 0.125032
0.297154 0.114199 0.138766
0.481422 0.038209 0.152895
0.746242 0.000000 0.170962
1.000000 0.000000 0.213199
1.000000 0.358465 0.315007
0.042237 0.123995 0.101289
0.107546 0.113893 0.103395
0.193545 0.126772 0.122866
0.322148 0.126528 0.137026
0.510002 0.075563 0.150881
0.756832 0.000000 0.167300
0.999847 0.000000 0.198459
1.000000 0.329686 0.285161
0.113924 0.218051 0.117220
0.153536 0.194461 0.129793
0.279088 0.187472 0.095735
0.590509 0.231907 0.086030
0.790524 0.224643 0.117281
0.986999 0.265202 0.147036
1.000000 0.382940 0.222354
1.000000 0.510094 0.354070
0.215305 0.401831 0.101411
0.261082 0.370489 0.127474
0.343236 0.319524 0.158328
0.766171 0.402472 0.000000
1.000000 0.550530 0.000000
1.000000 0.670710 0.042969
1.000000 0.647578 0.282261
1.000000 0.670832 0.422583
0.449287 0.652918 0.000000
0.479011 0.626459 0.000000
0.534142 0.529503 0.170626
0.723354 0.568475 0.090486
1.000000 0.656977 0.000000
1.000000 0.678004 0.000000
1.000000 0.761349 0.192752
1.000000 0.802823 0.504295
0.663264 0.849546 0.000000
0.695949 0.849485 0.056519
0.745754 0.798734 0.184573
0.763119 0.683162 0.284215
0.973144 0.801846 0.084413
1.000000 0.796139 0.000000
1.000000 0.755062 0.000000
1.000000 0.819852 0.370581
0.831144 0.952880 0.374640
0.843565 0.950500 0.385840
0.877104 0.934478 0.400885
0.917205 0.900481 0.436286
0.969421 0.883787 0.448127
1.000000 0.899840 0.345129
1.000000 0.851682 0.000000
1.000000 0.786465 0.000000
0.920653 0.998291 0.697322
0.925658 0.997131 0.700649
0.945342 0.992584 0.718624
0.974640 0.984466 0.755215
0.994751 0.962097 0.745388
1.000000 0.962402 0.731930
1.000000 0.944610 0.576593
1.000000 0.888884 0.227512
0.065156 0.112245 0.122438
0.083467 0.106233 0.117922
0.164309 0.112978 0.122591
0.288426 0.122713 0.135714
0.475166 0.089693 0.149508
0.712001 0.000000 0.165042
0.954070 0.000000 0.191440
1.000000 0.258000 0.259190
0.000000 0.127047 0.133333
0.089937 0.123232 0.129732
0.183810 0.130556 0.127260
0.325292 0.135653 0.134676
0.522606 0.097902 0.148348
0.750698 0.000000 0.163455
0.956420 0.000000 0.187015
1.000000 0.257847 0.247257
0.000000 0.239689 0.125795
0.129397 0.217441 0.145327
0.260807 0.191440 0.126375
0.545708 0.221592 0.096284
0.761074 0.225132 0.114809
0.938811 0.237949 0.139956
1.000000 0.309361 0.185519
1.000000 0.434241 0.286107
0.112764 0.408484 0.121279
0.216892 0.380774 0.141543
0.311498 0.307012 0.182559
0.665309 0.353033 0.000000
1.000000 0.460395 0.000000
1.000000 0.605188 0.000000
1.000000 0.584649 0.190311
1.000000 0.613184 0.337652
0.400641 0.661524 0.000000
0.439857 0.632685 0.001160
0.514000 0.530877 0.181582
0.669032 0.531456 0.155886
0.992035 0.613306 0.000000
1.000000 0.649866 0.000000
1.000000 0.741115 0.049836
1.000000 0.783505 0.450996
0.620722 0.841154 0.000000
0.643366 0.829953 0.011719
0.704463 0.776364 0.177371
0.728420 0.655665 0.279973
0.949584 0.778866 0.135866
1.000000 0.789273 0.000000
1.000000 0.748623 0.000000
1.000000 0.812253 0.334356
0.802701 0.946715 0.343908
0.811307 0.941283 0.341131
0.848173 0.922759 0.355383
0.894011 0.884947 0.396521
0.952422 0.867369 0.426001
1.000000 0.892210 0.334874
1.000000 0.845823 0.000000
1.000000 0.781247 0.000000
0.908354 0.996155 0.662745
0.915221 0.995453 0.673274
0.936400 0.990387 0.689937
0.968566 0.981567 0.728481
0.995636 0.967651 0.773220
1.000000 0.964050 0.748379
1.000000 0.945006 0.589563
1.000000 0.888060 0.209476
0.062989 0.159213 0.187900
0.094026 0.150698 0.180056
0.142184 0.130129 0.172854
0.318181 0.044343 0.168917
0.438392 0.118654 0.173129
0.784085 0.000000 0.169406
1.000000 0.126436 0.196445
1.000000 0.342229 0.282597
0.069734 0.171725 0.197116
0.104036 0.167300 0.194003
0.154025 0.150301 0.188357
0.313207 0.112795 0.174990
0.476783 0.131807 0.179843
0.807126 0.000000 0.170504
1.000000 0.165682 0.190249
1.000000 0.344366 0.271489
0.000000 0.269200 0.273777
0.000000 0.266148 0.270634
0.205661 0.249088 0.256168
0.428809 0.247684 0.238926
0.713558 0.237186 0.213016
0.964569 0.286198 0.171420
1.000000 0.370794 0.189364
1.000000 0.467720 0.298894
0.000000 0.542260 0.245640
0.000000 0.539086 0.207462
0.332006 0.442481 0.265202
0.669703 0.420539 0.240848
0.989899 0.541436 0.222080
1.000000 0.624994 0.226169
1.000000 0.619348 0.216953
1.000000 0.639338 0.364660
0.000000 0.785061 0.000000
0.000000 0.764523 0.155947
0.515801 0.665126 0.262181
0.650538 0.559319 0.306340
0.990875 0.663050 0.138827
1.000000 0.694148 0.000000
1.000000 0.751339 0.193454
1.000000 0.789395 0.464057
0.516960 0.894224 0.259434
0.562554 0.885527 0.268223
0.678187 0.839353 0.294316
0.753170 0.727474 0.343450
0.921965 0.780423 0.329015
1.000000 0.804135 0.133028
1.000000 0.766995 0.000000
1.000000 0.813809 0.344305
0.764034 0.965118 0.450568
0.776761 0.960632 0.447333
0.825101 0.942779 0.446662
0.885374 0.906889 0.463233
0.931365 0.863645 0.492287
1.000000 0.899596 0.467475
1.000000 0.861234 0.159792
1.000000 0.784665 0.000000
0.886778 1.000000 0.697597
0.892515 0.999359 0.696925
0.917235 0.994049 0.709102
0.956359 0.985657 0.748318
0.989197 0.971466 0.785122
1.000000 0.966888 0.786954
1.000000 0.952209 0.682368
1.000000 0.887480 0.215579
0.074281 0.221592 0.282689
0.110109 0.213169 0.275639
0.166598 0.204837 0.244144
0.238193 0.165499 0.256229
0.553368 0.000000 0.269749
0.613550 0.000000 0.206424
0.844755 0.000000 0.235721
1.000000 0.305852 0.271611
0.103639 0.245945 0.306828
0.128359 0.238590 0.300023
0.185092 0.226566 0.269413
0.258885 0.184451 0.275547
0.564630 0.000000 0.273259
0.617945 0.000000 0.211917
0.875120 0.000000 0.243961
1.000000 0.335271 0.276890
0.000000 0.334325 0.370916
0.000000 0.333562 0.369268
0.240757 0.314397 0.362066
0.328618 0.263706 0.339940
0.601190 0.063111 0.296849
0.700832 0.196933 0.281224
1.000000 0.308904 0.308965
1.000000 0.487800 0.339117
0.000000 0.579248 0.566522
0.000000 0.574853 0.562402
0.000000 0.562768 0.552056
0.541863 0.527214 0.531487
0.794827 0.519219 0.490608
0.979767 0.536126 0.449744
1.000000 0.583215 0.419440
1.000000 0.639063 0.410132
0.000000 0.902129 0.666682
0.000000 0.894896 0.641016
0.000000 0.868498 0.530327
0.664820 0.743801 0.531792
0.939788 0.749264 0.560723
1.000000 0.809140 0.632532
1.000000 0.845640 0.674922
1.000000 0.806607 0.572412
0.000000 0.984070 0.391241
0.000000 0.984649 0.377996
0.350744 0.949462 0.469490
0.767636 0.876127 0.550408
0.882597 0.811032 0.558587
1.000000 0.853819 0.585046
1.000000 0.847959 0.596551
1.000000 0.861448 0.616907
0.533318 1.000000 0.519310
0.594324 0.995727 0.545586
0.751217 0.978119 0.629419
0.858030 0.950225 0.627405
0.921416 0.897642 0.623560
1.000000 0.916564 0.657740
1.000000 0.894163 0.583581
1.000000 0.830808 0.362249
0.845975 1.000000 0.779507
0.854154 1.000000 0.780972
0.884306 1.000000 0.785367
0.930938 0.995361 0.798947
0.975128 0.981170 0.818906
1.000000 0.970214 0.835996
1.000000 0.963531 0.795041
1.000000 0.903349 0.496376
0.135561 0.315953 0.426062
0.160922 0.311803 0.422858
0.222019 0.292454 0.393103
0.275334 0.290043 0.334417
0.377264 0.200870 0.364233
0.770504 0.000000 0.419928
0.883116 0.000000 0.314458
1.000000 0.000000 0.285069
0.165286 0.348791 0.456611
0.188693 0.343969 0.453620
0.241306 0.316411 0.421881
0.296117 0.307195 0.354589
0.399237 0.216068 0.381415
0.788968 0.000000 0.427680
0.884489 0.000000 0.315160
1.000000 0.000000 0.294926
0.194949 0.451667 0.534081
0.240635 0.449226 0.533959
0.317540 0.413672 0.507225
0.379217 0.378210 0.437110
0.474189 0.285679 0.442206
0.835386 0.000000 0.440620
0.872862 0.000000 0.316808
0.991058 0.139773 0.332464
0.000000 0.614527 0.654047
0.000000 0.612055 0.651118
0.324102 0.607355 0.641993
0.550561 0.573754 0.627192
0.633845 0.483742 0.585840
0.865751 0.242374 0.483589
0.866880 0.311833 0.396185
1.000000 0.492927 0.464668
0.000000 0.859586 0.815244
0.000000 0.858732 0.815030
0.000000 0.849668 0.810697
0.368139 0.829923 0.801999
0.793454 0.796750 0.784085
0.925383 0.778744 0.742885
1.000000 0.775113 0.704311
1.000000 0.783688 0.675441
0.000000 0.997681 0.861173
0.000000 0.997375 0.860410
0.000000 0.985718 0.828061
0.000000 0.956970 0.744961
0.813931 0.874174 0.732387
0.975677 0.889830 0.800351
1.000000 0.920378 0.856107
1.000000 0.932403 0.868467
0.000000 1.000000 0.717800
0.000000 1.000000 0.707240
0.000000 1.000000 0.667384
0.598077 0.996857 0.686763
0.879057 0.947692 0.762203
0.957214 0.916320 0.765927
1.000000 0.927520 0.806241
1.000000 0.908812 0.781979
0.000000 1.000000 0.560967
0.224460 1.000000 0.589776
0.630335 1.000000 0.693446
0.855985 1.000000 0.826444
0.938262 0.992401 0.847471
0.985107 0.971313 0.859434
1.000000 0.971252 0.861784
1.000000 0.936614 0.773709
0.326238 0.492775 0.646876
0.340520 0.487953 0.643793
0.371984 0.454566 0.612543
0.438270 0.430030 0.552636
0.444709 0.418280 0.462074
0.585565 0.244236 0.517937
0.955657 0.000000 0.600916
1.000000 0.000000 0.535454
0.329656 0.498634 0.643244
0.339605 0.490913 0.637079
0.372473 0.459693 0.609705
0.434394 0.431373 0.551934
0.443091 0.417151 0.461524
0.579126 0.252811 0.513848
0.945190 0.000000 0.590692
1.000000 0.000000 0.520287
0.417670 0.604486 0.715602
0.426825 0.596124 0.710536
0.460853 0.563439 0.689113
0.499367 0.505669 0.627070
0.518181 0.478187 0.528405
0.636439 0.321111 0.563409
0.985351 0.000000 0.615442
1.000000 0.000000 0.513909
0.434638 0.746456 0.794308
0.456367 0.740627 0.791501
0.545556 0.727810 0.788113
0.635950 0.693568 0.771511
0.671290 0.635615 0.687434
0.755337 0.496803 0.681514
1.000000 0.000000 0.665858
1.000000 0.000000 0.523247
0.000000 0.854856 0.860990
0.000000 0.852781 0.859556
0.390295 0.846067 0.854704
0.645472 0.838010 0.845670
0.779446 0.808316 0.827665
0.828367 0.720546 0.789029
1.000000 0.451759 0.665034
1.000000 0.475441 0.551354
0.000000 0.967895 0.920714
0.000000 0.967864 0.922210
0.000000 0.961303 0.920348
0.452796 0.948852 0.917144
0.742245 0.932891 0.912047
0.911040 0.922759 0.910002
0.973754 0.915251 0.893400
1.000000 0.910796 0.877653
0.000000 1.000000 0.942107
0.000000 1.000000 0.942535
0.000000 1.000000 0.941405
0.330266 1.000000 0.937133
0.738582 0.998627 0.902403
0.924346 0.957458 0.891722
1.000000 0.960388 0.922972
1.000000 0.967346 0.938262
0.000000 1.000000 0.855528
0.000000 1.000000 0.851987
0.000000 1.000000 0.841337
0.475013 1.000000 0.830167
0.787594 1.000000 0.847593
0.953002 0.990814 0.903319
1.000000 0.977020 0.911254
1.000000 0.968566 0.912535
0.563073 0.695216 0.830747
0.572351 0.693782 0.830716
0.587396 0.670863 0.817777
0.622614 0.638911 0.789456
0.664332 0.614679 0.723903
0.620294 0.579431 0.606470
0.785122 0.320104 0.682307
1.000000 0.000000 0.759426
0.554009 0.691554 0.824247
0.564355 0.691463 0.825132
0.579919 0.668452 0.812284
0.608209 0.629175 0.780728
0.650874 0.603021 0.712947
0.605737 0.564416 0.593072
0.762020 0.313848 0.662440
1.000000 0.000000 0.737942
0.613855 0.758297 0.853086
0.616754 0.753231 0.850828
0.624964 0.728328 0.838376
0.642206 0.682826 0.811307
0.678492 0.644282 0.748531
0.647028 0.603693 0.634607
0.798886 0.377783 0.699855
1.000000 0.000000 0.766140
0.667720 0.838804 0.885344
0.671901 0.834806 0.883055
0.700862 0.825223 0.877836
0.717311 0.790646 0.861204
0.736477 0.737972 0.818784
0.732479 0.696193 0.727840
0.854124 0.502800 0.763668
1.000000 0.000000 0.790372
0.644770 0.896147 0.906859
0.653223 0.893767 0.904479
0.694789 0.887480 0.899596
0.752865 0.874510 0.895720
0.795926 0.843992 0.878813
0.804562 0.793271 0.818173
0.880369 0.655024 0.814817
1.000000 0.025971 0.798245
0.487129 0.948119 0.943297
0.512383 0.947387 0.943053
0.596063 0.943816 0.941344
0.712398 0.937865 0.937621
0.824460 0.930510 0.930053
0.890318 0.914824 0.918669
0.914031 0.863584 0.894560
1.000000 0.653559 0.807095
0.000000 1.000000 0.974640
0.000000 1.000000 0.974853
0.374456 1.000000 0.974212
0.604395 0.996124 0.973205
0.770260 0.986786 0.971191
0.886931 0.978546 0.968811
0.966888 0.972625 0.966888
1.000000 0.966278 0.955474
0.000000 1.000000 0.975280
0.000000 1.000000 0.975250
0.000000 1.000000 0.975433
0.448981 1.000000 0.975494
0.721584 1.000000 0.975647
0.877684 1.000000 0.960449
0.975311 0.992493 0.957641
1.000000 0.989593 0.973663
0.807431 0.879179 0.933165
0.809995 0.878813 0.933043
0.810086 0.869627 0.928344
0.818326 0.857450 0.921416
0.837186 0.846860 0.905211
0.847837 0.832364 0.872557
0.814176 0.813016 0.806607
0.980499 0.547723 0.878386
0.801419 0.876432 0.930816
0.804288 0.876249 0.930846
0.806638 0.868498 0.926970
0.813657 0.854826 0.919402
0.832151 0.842679 0.902892
0.843473 0.827268 0.869352
0.807095 0.803616 0.798795
0.972992 0.532341 0.869657
0.812345 0.890166 0.935027
0.813474 0.888884 0.934447
0.814450 0.880888 0.930449
0.825986 0.871916 0.925750
0.837308 0.854551 0.909667
0.847776 0.836057 0.876341
0.816800 0.812345 0.809720
0.971496 0.560662 0.872801
0.831083 0.914580 0.944060
0.834958 0.914733 0.944121
0.837308 0.908782 0.941161
0.843229 0.897887 0.935729
0.848936 0.878355 0.923735
0.863767 0.862974 0.896757
0.844694 0.841306 0.841154
0.972595 0.635401 0.886839
0.825772 0.936767 0.952819
0.829648 0.936675 0.953033
0.838376 0.933196 0.951385
0.860441 0.928954 0.949218
0.869841 0.913359 0.940154
0.877226 0.890837 0.919310
0.872709 0.870695 0.874357
0.966552 0.724971 0.900420
0.794949 0.961181 0.968048
0.797574 0.960418 0.967224
0.813260 0.958190 0.964660
0.847135 0.955444 0.960754
0.880369 0.948669 0.958007
0.907927 0.937530 0.951781
0.917052 0.921660 0.926726
0.962768 0.851865 0.928801
0.710140 0.988769 0.988312
0.717128 0.988312 0.988037
0.745907 0.986481 0.987030
0.798215 0.983703 0.985565
0.859342 0.980255 0.983032
0.918914 0.977020 0.978943
0.955627 0.969085 0.972686
0.968444 0.938964 0.957916
0.409064 1.000000 1.000000
0.436988 1.000000 1.000000
0.540093 1.000000 1.000000
0.677974 1.000000 1.000000
0.797574 1.000000 1.000000
0.888426 1.000000 1.000000
0.954406 1.000000 1.000000
0.998840 0.999054 0.998871
