20 Preset/Street 2/【3】LUT video cho PR-AE-FCPX/Tone 1 (22).cube
# Created by Adobe Lightroom plugin Export LUT (1.24.0)
# www.johnrellis.com/lightroom/exportlut.htm
# Preset: 青橙风光-素材江湖22
# Color profile: C:\Program Files (x86)\Common Files\Adobe\Color\Profiles\Recommended\VideoHD.icc
LUT_3D_SIZE 32
DOMAIN_MIN 0.0 0.0 0.0
DOMAIN_MAX 1.0 1.0 1.0
0.056580 0.096407 0.101076
0.056580 0.096407 0.101076
0.056580 0.096407 0.101076
0.056580 0.096407 0.101076
0.081178 0.098756 0.104219
0.098451 0.103914 0.110323
0.110658 0.108766 0.116030
0.123842 0.112367 0.120302
0.138247 0.115419 0.124361
0.152834 0.118349 0.128176
0.168917 0.121157 0.132021
0.186587 0.124514 0.136233
0.205905 0.127993 0.140352
0.226841 0.131136 0.144656
0.249180 0.134371 0.149020
0.272862 0.137545 0.153658
0.298344 0.140352 0.158297
0.325994 0.142885 0.163302
0.355901 0.144808 0.168582
0.389349 0.146090 0.173953
0.434913 0.146639 0.181582
0.488991 0.145632 0.190311
0.542016 0.144045 0.199039
0.595575 0.141970 0.208438
0.648829 0.141604 0.218387
0.702480 0.145418 0.229191
0.757595 0.154513 0.241978
0.814664 0.172641 0.257237
0.874754 0.201877 0.276127
0.936614 0.243717 0.300603
0.995483 0.299229 0.333043
1.000000 0.367803 0.376074
0.056580 0.096407 0.101076
0.056580 0.096407 0.101076
0.056580 0.096407 0.101076
0.056580 0.096407 0.101076
0.079927 0.098817 0.104219
0.098116 0.103609 0.110048
0.109621 0.108888 0.115724
0.123110 0.112154 0.120058
0.136873 0.115358 0.123842
0.151400 0.118044 0.127718
0.167056 0.120943 0.131594
0.184543 0.124147 0.135622
0.203647 0.127718 0.139773
0.224247 0.131044 0.144106
0.246189 0.134463 0.148501
0.269688 0.137331 0.153201
0.294987 0.140291 0.157900
0.322210 0.142916 0.162753
0.351812 0.144900 0.167880
0.384375 0.146365 0.173220
0.428168 0.147127 0.180362
0.478553 0.146395 0.188571
0.528557 0.145113 0.196719
0.579126 0.142885 0.205478
0.630304 0.142184 0.214725
0.681819 0.143618 0.224796
0.735775 0.149935 0.236790
0.792477 0.164797 0.251011
0.852506 0.189975 0.268803
0.916014 0.228092 0.291691
0.977966 0.280430 0.321996
1.000000 0.346929 0.362646
0.056580 0.096407 0.101076
0.056580 0.096407 0.101076
0.056580 0.096407 0.101076
0.056580 0.096407 0.101076
0.081788 0.099092 0.104524
0.097871 0.103975 0.110018
0.109621 0.108888 0.115724
0.122408 0.111940 0.119814
0.135836 0.115206 0.123598
0.150790 0.118685 0.127657
0.166659 0.121859 0.131746
0.184115 0.125307 0.135744
0.203342 0.128573 0.139925
0.223911 0.132113 0.144198
0.245945 0.135256 0.148623
0.269291 0.138369 0.153109
0.294621 0.141329 0.157778
0.322026 0.143862 0.162631
0.351629 0.146059 0.167788
0.384039 0.147372 0.173281
0.427832 0.148379 0.180423
0.476875 0.148043 0.188388
0.525322 0.146700 0.196262
0.574456 0.145296 0.204593
0.623713 0.144137 0.213504
0.674189 0.144839 0.223392
0.727138 0.151125 0.234745
0.783291 0.164187 0.248569
0.843168 0.187350 0.265660
0.906462 0.223239 0.287846
0.969207 0.273442 0.317052
1.000000 0.338170 0.356237
0.056825 0.097169 0.101350
0.056825 0.097169 0.101350
0.057099 0.097902 0.101595
0.060060 0.098177 0.101900
0.084169 0.101411 0.105531
0.097780 0.106325 0.110994
0.109377 0.110811 0.116091
0.122255 0.114412 0.120363
0.136324 0.117800 0.124361
0.151278 0.121157 0.128145
0.167910 0.124361 0.132143
0.185397 0.127932 0.136110
0.204807 0.131289 0.140444
0.225803 0.134585 0.144717
0.247745 0.137850 0.149081
0.271122 0.141024 0.153506
0.296178 0.143709 0.158206
0.323369 0.146212 0.163058
0.352514 0.148501 0.168002
0.384314 0.149966 0.173342
0.427008 0.150851 0.180392
0.472755 0.150820 0.187625
0.518944 0.149874 0.195315
0.566888 0.148684 0.203433
0.616632 0.147890 0.212284
0.668544 0.148989 0.222141
0.723629 0.155062 0.233890
0.781064 0.167880 0.248081
0.842008 0.191409 0.265324
0.905364 0.226474 0.287388
0.966827 0.275059 0.315923
1.000000 0.336217 0.353124
0.054871 0.111635 0.104005
0.056855 0.111543 0.104005
0.055848 0.111910 0.104311
0.073243 0.110994 0.105684
0.089143 0.107637 0.106020
0.098146 0.110842 0.111360
0.108431 0.115785 0.117281
0.121706 0.118868 0.121218
0.136324 0.122011 0.124910
0.151827 0.125429 0.128878
0.168582 0.128695 0.132815
0.187198 0.132143 0.136934
0.207034 0.135439 0.140993
0.228458 0.138674 0.145418
0.251286 0.142184 0.149874
0.275700 0.145266 0.154604
0.301701 0.148013 0.159365
0.329473 0.150607 0.164248
0.359564 0.152590 0.169253
0.393347 0.154086 0.174868
0.436500 0.155123 0.181704
0.480507 0.155337 0.188907
0.525475 0.155032 0.196323
0.572625 0.153719 0.204410
0.621973 0.153567 0.213260
0.673518 0.156008 0.223178
0.727657 0.162509 0.234836
0.784268 0.175937 0.248875
0.843381 0.198917 0.265934
0.905089 0.232975 0.287358
0.964996 0.279271 0.315099
1.000000 0.337957 0.351263
0.054383 0.123995 0.108492
0.053681 0.124300 0.108461
0.062043 0.123781 0.108827
0.083894 0.121950 0.110567
0.094575 0.119509 0.112703
0.102022 0.115969 0.111849
0.113344 0.118227 0.116243
0.123262 0.125307 0.122560
0.138186 0.129183 0.126589
0.155062 0.132357 0.130434
0.172976 0.135622 0.134493
0.192599 0.138979 0.138705
0.213687 0.142336 0.143038
0.236545 0.145724 0.147433
0.260563 0.149081 0.152132
0.286168 0.152163 0.156832
0.313481 0.155001 0.161715
0.342779 0.157259 0.166751
0.373938 0.159304 0.171817
0.412421 0.160861 0.178073
0.455787 0.161868 0.185031
0.499733 0.162142 0.192172
0.631617 0.167117 0.215000
0.685267 0.171481 0.225620
0.738003 0.180301 0.237308
0.790402 0.194095 0.250553
0.842863 0.214817 0.265782
0.896239 0.242679 0.284245
0.948211 0.279393 0.306859
0.996857 0.325383 0.335393
1.000000 0.379034 0.371130
1.000000 0.439582 0.414923
0.074647 0.139284 0.114015
0.076631 0.139254 0.114015
0.085695 0.138216 0.114717
0.095766 0.136202 0.116152
0.104921 0.133516 0.117952
0.111116 0.131289 0.117891
0.120607 0.127321 0.117159
0.137240 0.128450 0.120668
0.150607 0.136416 0.127352
0.167178 0.145754 0.134890
0.188693 0.149264 0.138979
0.211643 0.152682 0.143404
0.235721 0.156161 0.147951
0.260868 0.159365 0.152743
0.287144 0.162203 0.157382
0.314611 0.164706 0.162264
0.343725 0.166964 0.167056
0.374609 0.168734 0.172152
0.411170 0.170565 0.177951
0.459785 0.172457 0.185672
0.510826 0.174075 0.193973
0.564294 0.175326 0.203037
0.620600 0.177646 0.213016
0.677852 0.183139 0.224094
0.733730 0.192081 0.236332
0.787716 0.206668 0.249760
0.839200 0.226261 0.264744
0.890379 0.251682 0.282231
0.940826 0.284947 0.303624
0.987884 0.326452 0.329961
1.000000 0.375982 0.363165
1.000000 0.432685 0.404273
0.091279 0.151797 0.117830
0.093019 0.151492 0.117861
0.097383 0.150393 0.118318
0.104372 0.148684 0.119081
0.112947 0.145876 0.120882
0.119722 0.143313 0.121767
0.127657 0.141268 0.121401
0.138338 0.136904 0.121035
0.159487 0.136965 0.123812
0.176059 0.145907 0.130892
0.196719 0.156710 0.138735
0.221317 0.166506 0.146426
0.247318 0.170016 0.151034
0.274235 0.173037 0.155734
0.302159 0.175784 0.160647
0.331090 0.177981 0.165408
0.361791 0.179965 0.170443
0.394629 0.181552 0.175662
0.439246 0.184085 0.182589
0.485512 0.186221 0.190036
0.533776 0.188174 0.197818
0.584588 0.190372 0.206516
0.637415 0.193973 0.216159
0.691005 0.200656 0.226780
0.744106 0.211215 0.238773
0.794675 0.225315 0.251804
0.843870 0.244022 0.266392
0.892760 0.268193 0.283452
0.940856 0.299596 0.304082
0.986114 0.338323 0.329747
1.000000 0.384466 0.361700
1.000000 0.438178 0.401465
0.100740 0.168704 0.123629
0.101839 0.168307 0.123690
0.106020 0.167178 0.123873
0.113436 0.164706 0.124239
0.122652 0.160891 0.125124
0.130526 0.156008 0.125887
0.137453 0.154604 0.124910
0.147463 0.152377 0.124819
0.160037 0.148013 0.124697
0.186587 0.147189 0.126986
0.207584 0.157595 0.134401
0.232761 0.169253 0.142916
0.262058 0.182589 0.152255
0.293553 0.191592 0.159976
0.324193 0.194125 0.164828
0.355291 0.195987 0.169863
0.389197 0.197879 0.175021
0.432044 0.200961 0.181857
0.475380 0.203250 0.188510
0.520226 0.205234 0.195712
0.566522 0.207584 0.203494
0.614984 0.211154 0.211765
0.664454 0.216434 0.221439
0.714595 0.224460 0.231937
0.764096 0.236240 0.243687
0.811490 0.250889 0.256596
0.857603 0.269383 0.271061
0.903563 0.293065 0.288121
0.948425 0.322728 0.308629
0.990509 0.359167 0.333684
1.000000 0.402319 0.365209
1.000000 0.452461 0.403815
0.110292 0.188968 0.129641
0.111452 0.188449 0.129732
0.115206 0.187045 0.130007
0.123568 0.184207 0.130220
0.132784 0.180087 0.130678
0.142092 0.174594 0.131624
0.148989 0.170596 0.131014
0.158206 0.167971 0.129030
0.169894 0.165103 0.127932
0.184939 0.160403 0.127840
0.218112 0.158419 0.129854
0.242863 0.169467 0.137636
0.272251 0.182345 0.146578
0.306554 0.196780 0.156497
0.346746 0.213016 0.167849
0.389349 0.220584 0.175601
0.432959 0.224094 0.182193
0.476844 0.226993 0.188907
0.520470 0.229313 0.195773
0.564324 0.231601 0.203159
0.607843 0.234714 0.210483
0.650965 0.238712 0.218631
0.694026 0.244511 0.227268
0.737331 0.252598 0.237156
0.780270 0.262913 0.248051
0.822873 0.276768 0.260166
0.865629 0.293889 0.274052
0.908934 0.316167 0.290715
0.951629 0.344366 0.311192
0.992279 0.379126 0.336400
1.000000 0.420569 0.367834
1.000000 0.468727 0.406836
0.121340 0.210239 0.135286
0.122011 0.210086 0.135317
0.126436 0.208652 0.135592
0.134157 0.205966 0.135866
0.143923 0.201663 0.136446
0.154543 0.195956 0.137301
0.162875 0.188174 0.138308
0.172122 0.186862 0.136446
0.183597 0.184482 0.133974
0.197818 0.180453 0.131624
0.216159 0.175296 0.131258
0.253849 0.172671 0.133150
0.286961 0.183719 0.141176
0.324804 0.198734 0.150881
0.370611 0.216159 0.162173
0.423590 0.235569 0.175021
0.481880 0.257877 0.189731
0.525566 0.260685 0.196597
0.567987 0.263005 0.203525
0.609277 0.265568 0.210636
0.649439 0.268742 0.218173
0.689143 0.273350 0.226291
0.729152 0.280125 0.235080
0.768887 0.288243 0.245029
0.808469 0.299168 0.256046
0.847929 0.313024 0.268345
0.887541 0.330236 0.282597
0.926818 0.351629 0.299596
0.965270 0.378180 0.320317
1.000000 0.410956 0.345922
1.000000 0.449744 0.377417
1.000000 0.494484 0.416175
0.134585 0.236637 0.140902
0.135897 0.236240 0.140993
0.140017 0.234806 0.141329
0.148196 0.231876 0.141756
0.158602 0.227420 0.142245
0.169802 0.221530 0.143282
0.180575 0.214084 0.144137
0.189212 0.208011 0.144198
0.200839 0.206851 0.141878
0.215518 0.204288 0.139467
0.233982 0.200290 0.136629
0.258396 0.195163 0.135012
0.345373 0.205478 0.139132
0.406989 0.218997 0.148440
0.463325 0.238865 0.160739
0.524224 0.262181 0.175174
0.586511 0.289067 0.191562
0.648585 0.320684 0.210513
0.703090 0.348425 0.228763
0.738582 0.351293 0.237247
0.772549 0.355016 0.246098
0.805051 0.360449 0.255497
0.836912 0.367102 0.265537
0.868925 0.376043 0.276982
0.900053 0.387335 0.289433
0.930175 0.400702 0.303471
0.958648 0.416205 0.319432
0.986145 0.435431 0.337865
1.000000 0.458381 0.359716
1.000000 0.486549 0.386572
1.000000 0.519768 0.419013
1.000000 0.558892 0.458656
0.157473 0.276493 0.148196
0.157839 0.276219 0.148287
0.162264 0.274022 0.148470
0.170871 0.270115 0.148867
0.181552 0.264347 0.149538
0.193668 0.256962 0.150332
0.206973 0.248997 0.151583
0.218143 0.239780 0.153048
0.230503 0.238071 0.152224
0.249088 0.238926 0.150088
0.272862 0.238956 0.147372
0.302892 0.236759 0.144472
0.339483 0.230838 0.141176
0.404883 0.226596 0.141451
0.482246 0.239658 0.150027
0.541100 0.261814 0.163210
0.599786 0.287602 0.178622
0.656947 0.316991 0.196139
0.711940 0.350469 0.216159
0.764126 0.387091 0.239017
0.802396 0.405219 0.255436
0.831662 0.408576 0.264744
0.860716 0.413642 0.275029
0.889250 0.420600 0.286381
0.917052 0.429664 0.299077
0.944091 0.441291 0.313481
0.970031 0.455299 0.329778
0.994873 0.472389 0.348577
1.000000 0.493446 0.371008
1.000000 0.519341 0.398291
1.000000 0.549828 0.430915
1.000000 0.585382 0.469947
0.182040 0.317876 0.154452
0.183322 0.316930 0.154360
0.187594 0.314427 0.154574
0.195743 0.310124 0.155123
0.206821 0.303777 0.155856
0.219608 0.295476 0.156710
0.233036 0.285527 0.157870
0.244877 0.274113 0.159365
0.254276 0.264012 0.160342
0.272557 0.266026 0.158297
0.296452 0.267735 0.155734
0.326299 0.268132 0.152865
0.362707 0.265660 0.149081
0.405066 0.258335 0.144930
0.472480 0.250584 0.143008
0.558618 0.262516 0.150607
0.614099 0.286961 0.164858
0.667536 0.314824 0.181125
0.719814 0.346715 0.199802
0.769070 0.382025 0.221805
0.816098 0.420020 0.246891
0.861204 0.461524 0.276371
0.888518 0.468177 0.289036
0.914061 0.473518 0.300999
0.938628 0.480751 0.314397
0.962310 0.490242 0.329168
0.984710 0.501793 0.345922
1.000000 0.516442 0.365057
1.000000 0.534813 0.387854
1.000000 0.557671 0.415045
1.000000 0.584741 0.447547
1.000000 0.616968 0.486519
0.211551 0.361303 0.159609
0.212375 0.360632 0.159670
0.216037 0.357946 0.159945
0.223911 0.352575 0.160220
0.235111 0.344671 0.160952
0.247196 0.335119 0.162142
0.260349 0.323735 0.163394
0.273075 0.311131 0.165011
0.283635 0.297337 0.166598
0.297154 0.292729 0.166506
0.320928 0.295933 0.164065
0.350774 0.298436 0.160891
0.386572 0.299413 0.157351
0.427985 0.296361 0.152682
0.473762 0.287358 0.147219
0.538720 0.276432 0.143252
0.631250 0.288243 0.149630
0.682155 0.315312 0.165377
0.731228 0.346014 0.183444
0.778317 0.379858 0.204349
0.823331 0.416754 0.228519
0.867063 0.457160 0.257053
0.906401 0.499184 0.290196
0.937652 0.530541 0.319951
0.958770 0.535180 0.333593
0.979034 0.542168 0.348882
0.998535 0.551934 0.366430
1.000000 0.564965 0.386847
1.000000 0.581598 0.410895
1.000000 0.602655 0.439887
1.000000 0.628351 0.474311
1.000000 0.658503 0.514977
0.243107 0.402533 0.163485
0.244266 0.402258 0.163760
0.248356 0.399786 0.163882
0.255924 0.395087 0.164706
0.266728 0.388006 0.165713
0.279698 0.378546 0.166964
0.294255 0.367498 0.168826
0.308324 0.354681 0.170748
0.320684 0.340002 0.172793
0.328008 0.323125 0.175204
0.351446 0.327214 0.172885
0.379980 0.330785 0.169528
0.413062 0.332677 0.165652
0.450813 0.331975 0.160800
0.492103 0.326696 0.155001
0.536645 0.315618 0.148531
0.597040 0.302129 0.142153
0.693263 0.314824 0.147707
0.740658 0.344457 0.165164
0.786557 0.377661 0.185245
0.831266 0.414252 0.209110
0.874449 0.454353 0.236942
0.913573 0.496468 0.270237
0.947601 0.539635 0.308263
0.975769 0.583276 0.351324
0.995178 0.599756 0.376349
1.000000 0.607568 0.394812
1.000000 0.617884 0.415717
1.000000 0.631647 0.440192
1.000000 0.648798 0.468757
1.000000 0.669581 0.501823
1.000000 0.694514 0.540429
0.278172 0.443244 0.166964
0.279362 0.442451 0.167178
0.282597 0.440497 0.167514
0.289616 0.436194 0.168215
0.300145 0.429084 0.169070
0.313054 0.420142 0.170596
0.327184 0.409033 0.172549
0.341405 0.395697 0.174838
0.354009 0.380346 0.176974
0.364111 0.363195 0.179385
0.376226 0.353552 0.180392
0.403693 0.358587 0.177493
0.435645 0.362524 0.173587
0.471931 0.364569 0.168978
0.511437 0.363348 0.163027
0.554253 0.357946 0.156435
0.599634 0.346685 0.148501
0.656245 0.332341 0.141268
0.755306 0.346654 0.144656
0.799405 0.379034 0.164950
0.842771 0.415137 0.188357
0.884520 0.454444 0.215976
0.922515 0.495979 0.249393
0.955596 0.538567 0.288060
0.983062 0.581872 0.331823
1.000000 0.625086 0.380377
1.000000 0.661860 0.427741
1.000000 0.669825 0.449317
1.000000 0.680873 0.474128
1.000000 0.694850 0.502617
1.000000 0.712398 0.535393
1.000000 0.733211 0.573175
0.320653 0.488716 0.170871
0.321111 0.489113 0.171145
0.359991 0.522210 0.176028
0.366644 0.517418 0.176791
0.376013 0.510124 0.177859
0.387854 0.499947 0.179538
0.401007 0.487037 0.181430
0.414618 0.471443 0.183719
0.427131 0.454078 0.186618
0.437354 0.434119 0.189212
0.442878 0.411780 0.192172
0.466041 0.412726 0.190707
0.498207 0.418402 0.186648
0.533471 0.422431 0.181552
0.571130 0.423835 0.175357
0.610712 0.421698 0.167697
0.652033 0.414832 0.158755
0.695125 0.402319 0.148898
0.744503 0.385657 0.139284
0.841825 0.401892 0.140383
0.879637 0.436652 0.167788
0.915801 0.474220 0.198642
0.948425 0.513420 0.234592
0.976349 0.553552 0.275547
0.998962 0.593378 0.320348
1.000000 0.633051 0.368963
1.000000 0.671839 0.421454
1.000000 0.709926 0.476967
1.000000 0.728634 0.513359
1.000000 0.738796 0.540002
1.000000 0.752407 0.571466
1.000000 0.769039 0.607111
0.375830 0.545434 0.177279
0.380102 0.547906 0.177737
0.386542 0.549798 0.178927
0.396002 0.548394 0.179782
0.406989 0.544152 0.181521
0.418830 0.535729 0.182986
0.431647 0.523705 0.184970
0.444190 0.508782 0.186893
0.456580 0.491493 0.189395
0.466987 0.472297 0.191989
0.474556 0.450843 0.194583
0.481544 0.433387 0.197360
0.511498 0.440009 0.193576
0.544457 0.445869 0.189059
0.580072 0.449897 0.183474
0.617609 0.451545 0.176638
0.657343 0.450111 0.168429
0.698909 0.444587 0.158511
0.742733 0.434272 0.147799
0.789792 0.418769 0.136660
0.885985 0.439307 0.139071
0.925200 0.475471 0.171145
0.956786 0.513909 0.209049
0.983673 0.552941 0.251072
1.000000 0.591974 0.296941
1.000000 0.630732 0.346532
1.000000 0.668757 0.400031
1.000000 0.706233 0.456611
1.000000 0.742977 0.516289
1.000000 0.775204 0.574334
1.000000 0.785702 0.604028
1.000000 0.799039 0.638209
0.414405 0.583886 0.182040
0.418952 0.586664 0.182986
0.425818 0.588281 0.183658
0.434302 0.588067 0.185153
0.444862 0.584131 0.186374
0.455818 0.576440 0.187961
0.467720 0.565332 0.189548
0.479805 0.551049 0.191318
0.491707 0.534630 0.193515
0.502251 0.515557 0.195895
0.510460 0.494301 0.198367
0.515557 0.471046 0.201022
0.531792 0.465431 0.201053
0.563073 0.472908 0.197147
0.596674 0.479072 0.192355
0.632136 0.483467 0.185946
0.669856 0.485573 0.178195
0.709041 0.484810 0.168948
0.750484 0.480629 0.158328
0.793912 0.472114 0.146181
0.839170 0.457984 0.133150
0.926787 0.481147 0.142336
0.966003 0.516075 0.179568
0.992004 0.554253 0.224399
1.000000 0.592462 0.272618
1.000000 0.630152 0.323613
1.000000 0.667323 0.378668
1.000000 0.703883 0.436347
1.000000 0.740108 0.497688
1.000000 0.775265 0.561639
1.000000 0.808499 0.626947
1.000000 0.826627 0.670802
0.456397 0.625116 0.188571
0.460487 0.627710 0.189609
0.466133 0.629328 0.190585
0.474220 0.628687 0.191958
0.483406 0.625391 0.193240
0.493690 0.618189 0.194583
0.504662 0.607538 0.195468
0.516045 0.594293 0.196933
0.527764 0.578943 0.198520
0.538567 0.560510 0.200412
0.547723 0.540032 0.203037
0.553887 0.517388 0.205264
0.554681 0.492256 0.208713
0.584070 0.500755 0.205356
0.616114 0.508659 0.201114
0.650202 0.515740 0.195682
0.687007 0.521660 0.189090
0.726223 0.526055 0.181064
0.767483 0.528466 0.171817
0.811276 0.528161 0.159701
0.856474 0.523980 0.146120
0.902129 0.515038 0.134249
0.976776 0.539147 0.156588
1.000000 0.573754 0.204929
1.000000 0.612299 0.260716
1.000000 0.649653 0.318395
1.000000 0.685878 0.378241
1.000000 0.721462 0.441077
1.000000 0.756374 0.506340
1.000000 0.789883 0.573632
1.000000 0.821500 0.641321
1.000000 0.850584 0.706386
0.520134 0.688685 0.206424
0.522057 0.689845 0.207279
0.525200 0.689265 0.208011
0.529870 0.686488 0.208225
0.536400 0.681056 0.208347
0.544366 0.673152 0.208347
0.553765 0.662806 0.208621
0.564385 0.649928 0.208865
0.575341 0.635035 0.209598
0.586481 0.618067 0.210849
0.596307 0.598535 0.212131
0.604150 0.576745 0.214023
0.608453 0.552087 0.215732
0.619257 0.539879 0.217258
0.649165 0.549157 0.213535
0.681209 0.557855 0.209232
0.715419 0.565545 0.203433
0.751278 0.571923 0.196506
0.788937 0.576684 0.187808
0.828305 0.579217 0.177188
0.868223 0.578332 0.164950
0.908110 0.573236 0.151156
0.947631 0.564599 0.146487
1.000000 0.583856 0.177523
1.000000 0.613947 0.230808
1.000000 0.650233 0.292302
1.000000 0.685847 0.355138
1.000000 0.720790 0.419989
1.000000 0.755184 0.487831
1.000000 0.788144 0.556817
1.000000 0.819303 0.626459
1.000000 0.848356 0.693904
0.562707 0.732143 0.222019
0.564202 0.732967 0.222751
0.567193 0.732509 0.223362
0.571588 0.730190 0.223392
0.577447 0.725612 0.223331
0.584924 0.718654 0.222751
0.593713 0.709255 0.222354
0.603571 0.697688 0.221866
0.614343 0.683803 0.221683
0.625391 0.667720 0.221988
0.635676 0.650050 0.222690
0.644312 0.629297 0.223148
0.650690 0.606287 0.224216
0.651301 0.578302 0.226444
0.675715 0.583917 0.225437
0.706355 0.594110 0.221958
0.738766 0.603937 0.217838
0.773068 0.612848 0.212406
0.808713 0.620508 0.205417
0.845060 0.625971 0.197391
0.881773 0.628809 0.188205
0.917998 0.628260 0.177310
0.953429 0.623011 0.165011
0.987884 0.616907 0.173678
1.000000 0.621759 0.203525
1.000000 0.647791 0.259556
1.000000 0.682734 0.325719
1.000000 0.717037 0.392859
1.000000 0.750942 0.462562
1.000000 0.783780 0.533837
1.000000 0.815152 0.606256
1.000000 0.844785 0.677485
0.618189 0.785946 0.253269
0.620508 0.787533 0.254948
0.622889 0.787076 0.255283
0.626093 0.784237 0.254520
0.630060 0.779080 0.252445
0.635279 0.771786 0.249943
0.641474 0.762142 0.246860
0.649042 0.750393 0.243748
0.657679 0.736507 0.241215
0.666651 0.720943 0.238834
0.675257 0.702419 0.236942
0.683223 0.682155 0.235721
0.689265 0.659113 0.235050
0.692897 0.633753 0.234562
0.697261 0.613672 0.235630
0.724178 0.623011 0.232883
0.753262 0.632380 0.229191
0.784421 0.641718 0.224674
0.817288 0.650477 0.219486
0.851438 0.658412 0.214023
0.885740 0.664149 0.207401
0.919249 0.666743 0.199191
0.951385 0.664973 0.189487
0.981903 0.659571 0.184024
1.000000 0.653285 0.201511
1.000000 0.662776 0.240787
1.000000 0.683772 0.298772
1.000000 0.716091 0.367620
1.000000 0.748409 0.438544
1.000000 0.780270 0.510979
1.000000 0.811093 0.584955
1.000000 0.840604 0.658595
0.653651 0.818875 0.277287
0.655909 0.819913 0.278691
0.658595 0.819791 0.279301
0.661799 0.818173 0.279210
0.666194 0.814481 0.277470
0.671931 0.809415 0.275303
0.679164 0.802731 0.272526
0.687922 0.794186 0.269596
0.697871 0.784085 0.266575
0.708309 0.771969 0.263676
0.718441 0.757534 0.260655
0.728084 0.740963 0.258152
0.736202 0.721492 0.255711
0.742000 0.698512 0.253086
0.744472 0.672511 0.251011
0.758724 0.667659 0.251804
0.785122 0.677241 0.249546
0.813016 0.686702 0.246830
0.842405 0.695613 0.243992
0.872587 0.704005 0.241093
0.902739 0.710536 0.238254
0.932128 0.714626 0.233921
0.960510 0.715450 0.228244
0.987732 0.712581 0.221469
1.000000 0.708888 0.233646
1.000000 0.701778 0.252354
1.000000 0.707332 0.293645
1.000000 0.724208 0.354070
1.000000 0.755184 0.428412
1.000000 0.785733 0.503929
1.000000 0.815274 0.579889
1.000000 0.843748 0.655238
0.699641 0.856229 0.318578
0.700771 0.856565 0.319188
0.702632 0.856077 0.319127
0.705318 0.854429 0.318120
0.708980 0.851682 0.316381
0.713893 0.847471 0.313115
0.720272 0.842039 0.309758
0.728023 0.835142 0.305394
0.736965 0.826810 0.301030
0.746761 0.817136 0.296757
0.756924 0.805295 0.292027
0.767025 0.791684 0.287419
0.776364 0.775845 0.282872
0.783932 0.756893 0.278233
0.789303 0.734829 0.273991
0.790585 0.709957 0.272709
0.814084 0.719081 0.272007
0.838956 0.727993 0.271397
0.864744 0.736660 0.271183
0.891112 0.744594 0.270878
0.917357 0.751278 0.270848
0.942992 0.755795 0.269688
0.967559 0.757595 0.267185
0.991119 0.756039 0.262791
1.000000 0.752895 0.268467
1.000000 0.748592 0.286961
1.000000 0.740475 0.305180
1.000000 0.742641 0.345586
1.000000 0.755459 0.405585
1.000000 0.785122 0.483864
1.000000 0.814023 0.562188
1.000000 0.842344 0.640803
0.739223 0.884977 0.361486
0.740261 0.885252 0.362280
0.741817 0.885069 0.362799
0.744564 0.883970 0.361883
0.748562 0.882322 0.360998
0.754452 0.879820 0.359228
0.762478 0.877165 0.358373
0.772061 0.873930 0.357580
0.783261 0.870085 0.356939
0.795590 0.865324 0.356146
0.808652 0.859617 0.355108
0.821592 0.852537 0.353124
0.834073 0.843687 0.350042
0.845396 0.832609 0.345495
0.855009 0.818906 0.339940
0.862425 0.801877 0.332952
0.871824 0.792844 0.333288
0.891630 0.799802 0.336767
0.911711 0.806363 0.340856
0.932128 0.812100 0.345068
0.952148 0.816556 0.349065
0.971679 0.819181 0.352209
0.990417 0.819577 0.353521
1.000000 0.817655 0.352850
1.000000 0.813962 0.355077
1.000000 0.810330 0.372259
1.000000 0.804166 0.389075
1.000000 0.795621 0.405768
1.000000 0.794522 0.444221
1.000000 0.802609 0.502556
1.000000 0.829496 0.583917
1.000000 0.856046 0.663630
0.796811 0.921141 0.447822
0.796963 0.921111 0.447974
0.797726 0.920592 0.447028
0.799527 0.919585 0.445686
0.802365 0.918090 0.443397
0.806607 0.915923 0.440223
0.812131 0.913268 0.436927
0.818967 0.910063 0.433326
0.827176 0.906249 0.429419
0.836393 0.901793 0.425299
0.846525 0.896483 0.420691
0.857115 0.890257 0.415442
0.867857 0.883024 0.409857
0.878264 0.874327 0.403113
