20 Preset/Street 2/【3】LUT video cho PR-AE-FCPX/Tone 1 (19).cube
# Created by Adobe Lightroom plugin Export LUT (1.24.0)
# www.johnrellis.com/lightroom/exportlut.htm
# Preset: 青橙风光-素材江湖19
# Color profile: C:\Program Files (x86)\Common Files\Adobe\Color\Profiles\Recommended\VideoHD.icc
LUT_3D_SIZE 8
DOMAIN_MIN 0.000000 0.000000 0.000000
DOMAIN_MAX 0.903226 0.903226 0.903226
0.115389 0.115389 0.115389
0.140139 0.114229 0.116487
0.237766 0.127565 0.122530
0.400000 0.157412 0.122011
0.618494 0.212528 0.100679
0.862669 0.290867 0.000000
1.000000 0.347082 0.060273
1.000000 0.396399 0.173892
0.114534 0.129030 0.115511
0.144198 0.130922 0.118410
0.234104 0.144808 0.123568
0.388434 0.175387 0.121920
0.601038 0.229343 0.100221
0.830228 0.298192 0.001190
0.977691 0.350103 0.022339
1.000000 0.397650 0.160433
0.138094 0.182742 0.121157
0.163333 0.184482 0.122042
0.250462 0.201816 0.125124
0.428626 0.254063 0.115846
0.659144 0.319127 0.057649
0.863828 0.374426 0.000000
1.000000 0.415534 0.092836
1.000000 0.450019 0.199863
0.175662 0.275761 0.125673
0.201633 0.278599 0.125734
0.290929 0.295872 0.125063
0.490211 0.372351 0.112581
0.742733 0.456062 0.046845
0.916899 0.490028 0.118349
1.000000 0.504387 0.154421
1.000000 0.520470 0.245945
0.227085 0.404395 0.101961
0.254398 0.409064 0.100771
0.352758 0.432959 0.093294
0.517906 0.484047 0.065827
0.728725 0.548760 0.095827
0.893034 0.579095 0.155459
1.000000 0.591547 0.239506
1.000000 0.602777 0.311467
0.285771 0.543542 0.000000
0.315831 0.556329 0.000000
0.410925 0.578027 0.000000
0.561883 0.616938 0.000000
0.738003 0.656825 0.095247
0.895171 0.682094 0.226963
1.000000 0.688014 0.312657
1.000000 0.692317 0.392309
0.354772 0.693843 0.000000
0.378698 0.699245 0.000000
0.462165 0.712306 0.000000
0.594324 0.736934 0.000000
0.750881 0.764431 0.108614
0.897704 0.779141 0.265629
0.991485 0.773648 0.376867
1.000000 0.767849 0.448829
0.434119 0.839414 0.000000
0.452735 0.840818 0.000000
0.524773 0.847623 0.000000
0.640131 0.860105 0.118379
0.762814 0.861173 0.195346
0.903990 0.877623 0.315373
1.000000 0.868559 0.461036
1.000000 0.850401 0.531579
0.116793 0.119570 0.133333
0.130922 0.118532 0.131441
0.217777 0.129976 0.131014
0.360235 0.162936 0.132723
0.575341 0.219974 0.112093
0.805661 0.291844 0.011597
0.960021 0.343267 0.004059
1.000000 0.388067 0.143771
0.109255 0.132448 0.134035
0.136019 0.136019 0.136019
0.218845 0.148836 0.138033
0.365820 0.179324 0.135042
0.577539 0.235569 0.113802
0.800534 0.304234 0.011566
0.950500 0.351171 0.000000
1.000000 0.392401 0.136477
0.135653 0.188174 0.144106
0.154269 0.189456 0.142611
0.241459 0.202304 0.147616
0.407996 0.246677 0.146792
0.619501 0.303990 0.121035
0.822965 0.361578 0.049836
0.967468 0.404303 0.020020
1.000000 0.438422 0.168124
0.155337 0.271672 0.142824
0.184360 0.274907 0.143252
0.279179 0.292638 0.145388
0.448737 0.346227 0.148135
0.676295 0.417853 0.132540
0.863310 0.460761 0.142733
0.982361 0.483009 0.154177
1.000000 0.505058 0.209903
0.204166 0.399847 0.126802
0.233371 0.403296 0.126925
0.334508 0.423377 0.125582
0.492134 0.466072 0.125338
0.694118 0.525750 0.141512
0.866331 0.562737 0.178439
0.990326 0.581140 0.248051
1.000000 0.594446 0.308873
0.261204 0.530327 0.044709
0.288548 0.535882 0.041016
0.385382 0.557733 0.032105
0.538567 0.599176 0.053132
0.719570 0.644495 0.137087
0.882994 0.675441 0.245609
0.991516 0.683528 0.323705
1.000000 0.688472 0.396857
0.328832 0.678187 0.000000
0.352026 0.679683 0.000000
0.437537 0.692897 0.000000
0.573175 0.720516 0.000000
0.735683 0.753902 0.134798
0.886015 0.771450 0.270176
0.981994 0.766476 0.374517
1.000000 0.760983 0.442054
0.410559 0.827970 0.000000
0.431952 0.831357 0.000000
0.506249 0.838315 0.000000
0.625269 0.852049 0.119600
0.764126 0.866758 0.237247
0.902373 0.879271 0.338262
0.998688 0.868650 0.470588
1.000000 0.850767 0.539269
0.104067 0.135409 0.202609
0.098604 0.141146 0.202487
0.192203 0.145296 0.194125
0.324620 0.152987 0.215824
0.556054 0.186099 0.193240
0.795254 0.272251 0.194491
0.958434 0.346654 0.200656
1.000000 0.406470 0.226932
0.073884 0.160433 0.203616
0.107515 0.160739 0.205417
0.197910 0.161257 0.199374
0.338231 0.165103 0.208164
0.557244 0.210330 0.198428
0.786954 0.286625 0.197452
0.949584 0.353643 0.198856
1.000000 0.410529 0.223697
0.101778 0.209903 0.215366
0.131136 0.212284 0.216678
0.220279 0.220279 0.220279
0.381201 0.246281 0.223850
0.605066 0.297704 0.224094
0.814450 0.356451 0.219394
0.961578 0.406592 0.225559
1.000000 0.450965 0.252171
0.132692 0.313268 0.233585
0.159792 0.315984 0.232517
0.244877 0.317693 0.217533
0.443671 0.363867 0.244450
0.676173 0.430762 0.268040
0.855253 0.470314 0.277134
0.978515 0.497017 0.286809
1.000000 0.522545 0.311192
0.144106 0.440009 0.222324
0.173434 0.436194 0.216587
0.283909 0.438178 0.208560
0.479896 0.484993 0.231479
0.693477 0.542840 0.273106
0.861784 0.577050 0.312322
0.982574 0.599725 0.366583
1.000000 0.613642 0.398505
0.181613 0.547265 0.188602
0.203830 0.544732 0.183505
0.329015 0.560357 0.187503
0.506096 0.600610 0.210391
0.705531 0.651789 0.258640
0.868620 0.680903 0.346563
0.979034 0.695155 0.415106
1.000000 0.707576 0.480537
0.232639 0.679408 0.123812
0.269505 0.681605 0.127626
0.383520 0.694179 0.145815
0.540459 0.721065 0.186679
0.715511 0.754940 0.252934
0.875608 0.778073 0.356207
0.974762 0.778714 0.457099
1.000000 0.778500 0.519432
0.334539 0.824979 0.017487
0.360632 0.825895 0.051087
0.453468 0.833402 0.133669
0.592889 0.850309 0.219120
0.744167 0.866117 0.307073
0.890227 0.881285 0.405768
0.991363 0.875700 0.526299
1.000000 0.859861 0.589136
0.000000 0.177676 0.327764
0.000000 0.187198 0.330938
0.113558 0.181125 0.330083
0.292882 0.179751 0.297337
0.420478 0.209232 0.343114
0.724910 0.146548 0.297948
0.911528 0.303502 0.315099
1.000000 0.400244 0.346563
0.000000 0.216953 0.337499
0.000000 0.216678 0.338750
0.111177 0.198093 0.338720
0.302129 0.195407 0.306340
0.440497 0.222690 0.351476
0.731228 0.208682 0.305058
0.912291 0.322728 0.321752
1.000000 0.411749 0.351843
0.000000 0.266819 0.347784
0.000000 0.266728 0.349340
0.138979 0.263981 0.353338
0.325322 0.252140 0.328435
0.512993 0.275090 0.360815
0.765560 0.327214 0.343999
0.937316 0.411322 0.370550
1.000000 0.472572 0.393835
0.000000 0.362860 0.376196
0.000000 0.364294 0.377081
0.187289 0.371954 0.381140
0.384680 0.384680 0.384680
0.603540 0.422400 0.394537
0.796689 0.465827 0.403754
0.942077 0.508141 0.417609
1.000000 0.545983 0.437354
0.088869 0.520684 0.413611
0.154482 0.519158 0.411749
0.279271 0.516777 0.405585
0.406592 0.506157 0.370733
0.666346 0.568475 0.437110
0.838254 0.611139 0.486152
0.956817 0.636988 0.515068
1.000000 0.649287 0.522240
0.218387 0.641718 0.414679
0.237003 0.644068 0.410834
0.293065 0.626246 0.377203
0.430549 0.617487 0.349493
0.675624 0.671382 0.415442
0.847379 0.704402 0.498360
0.956359 0.726131 0.556512
1.000000 0.744961 0.603815
0.211185 0.732723 0.357458
0.229496 0.730434 0.350561
0.290227 0.718349 0.320195
0.458900 0.726223 0.320500
0.676936 0.763668 0.390173
0.859831 0.797086 0.484749
0.957122 0.798886 0.573480
1.000000 0.803922 0.620874
0.255894 0.843778 0.316899
0.268406 0.842069 0.308293
0.317784 0.835386 0.272343
0.512016 0.848478 0.319432
0.700404 0.866148 0.402167
0.863737 0.883238 0.500008
0.976379 0.886412 0.604852
1.000000 0.875731 0.666041
0.000000 0.256748 0.508782
0.000000 0.266148 0.512352
0.000000 0.265446 0.511437
0.243259 0.242863 0.492012
0.426825 0.226383 0.433936
0.544152 0.269505 0.465492
0.803250 0.275059 0.492531
0.994659 0.376318 0.455756
0.000000 0.296422 0.519829
0.000000 0.302556 0.521935
0.000000 0.285100 0.520928
0.246464 0.259861 0.498939
0.433600 0.240940 0.440406
0.551690 0.283818 0.472358
0.810971 0.289830 0.491127
0.995117 0.393530 0.462165
0.000000 0.352697 0.529656
0.000000 0.351202 0.530785
0.000000 0.342077 0.532219
0.250309 0.319799 0.521874
0.452308 0.295506 0.458473
0.569512 0.334661 0.489906
0.835691 0.342443 0.477333
0.993530 0.449073 0.481666
0.000000 0.432746 0.548028
0.000000 0.432532 0.548425
0.000000 0.434058 0.551873
0.295232 0.435981 0.554925
0.501091 0.408362 0.504997
0.667567 0.433845 0.525933
0.874754 0.482704 0.506920
1.000000 0.550408 0.534874
0.000000 0.553674 0.574762
0.000000 0.555077 0.575555
0.000000 0.558679 0.576226
0.372595 0.564935 0.575891
0.568170 0.568170 0.568170
0.752834 0.599054 0.578271
0.898466 0.631312 0.590600
1.000000 0.659174 0.602777
0.209018 0.679377 0.582269
0.252232 0.681178 0.583551
0.354681 0.679591 0.581262
0.456580 0.668116 0.568902
0.549371 0.645472 0.517113
0.792172 0.711971 0.615412
0.917937 0.751339 0.670497
1.000000 0.772335 0.696284
0.379065 0.788022 0.600031
0.386725 0.785397 0.596216
0.421515 0.777249 0.583185
0.452277 0.760098 0.535851
0.558434 0.746120 0.484443
0.802945 0.793881 0.586328
0.926146 0.812650 0.669093
1.000000 0.823606 0.705226
0.394812 0.866087 0.566949
0.393683 0.864530 0.559777
0.393439 0.858213 0.528588
0.421851 0.850095 0.472145
0.583398 0.852018 0.463203
0.807614 0.876890 0.572442
0.950256 0.893706 0.670985
1.000000 0.887205 0.731167
0.000000 0.352789 0.699580
0.000000 0.359930 0.701198
0.000000 0.373266 0.699031
0.000000 0.337316 0.690974
0.405310 0.330663 0.657191
0.569085 0.291112 0.578698
0.676875 0.342077 0.593469
0.875120 0.409644 0.651392
0.000000 0.376959 0.694331
0.000000 0.381750 0.694392
0.000000 0.381170 0.692103
0.000000 0.347601 0.684291
0.400580 0.336553 0.649195
0.564202 0.298283 0.573571
0.673213 0.348455 0.590478
0.873747 0.411872 0.645960
0.000000 0.438178 0.702907
0.000000 0.436866 0.703578
0.000000 0.431586 0.706661
0.000000 0.409216 0.696986
0.416876 0.393622 0.664576
0.582452 0.349615 0.590997
0.693324 0.399207 0.610590
0.892973 0.455543 0.648859
0.000000 0.511620 0.719875
0.000000 0.510460 0.718776
0.000000 0.510063 0.719112
0.101564 0.515007 0.723964
0.471809 0.510887 0.704555
0.626001 0.455726 0.632929
0.732418 0.499001 0.652979
0.929747 0.541924 0.657527
0.000000 0.596460 0.720821
0.000000 0.596612 0.720516
0.000000 0.598566 0.720485
0.267613 0.604852 0.720974
0.511498 0.613306 0.717006
0.657923 0.573663 0.661616
0.790402 0.595911 0.675105
0.956390 0.640345 0.663020
0.000000 0.705715 0.730068
0.000000 0.708614 0.732357
0.132113 0.710262 0.731563
0.398260 0.713680 0.730190
0.570581 0.717037 0.726375
0.721828 0.721828 0.721828
0.867491 0.751766 0.737270
0.972107 0.774044 0.747463
0.399512 0.821347 0.747524
0.422736 0.822965 0.749386
0.492653 0.824826 0.751431
0.598627 0.828763 0.756771
0.659541 0.815915 0.741482
0.702693 0.784970 0.676173
0.893400 0.834562 0.768338
0.977813 0.856596 0.801144
0.557702 0.899687 0.757992
0.560266 0.898436 0.755978
0.578302 0.894957 0.750912
0.612146 0.888975 0.740230
0.621668 0.873594 0.691585
0.688991 0.861479 0.626398
0.907042 0.897032 0.742794
0.988983 0.903685 0.804074
0.000000 0.430945 0.826505
0.000000 0.436133 0.828061
0.000000 0.451514 0.827848
0.000000 0.449226 0.824491
0.288426 0.448890 0.810636
0.548791 0.429145 0.771664
0.690120 0.368353 0.701259
0.777584 0.415503 0.696773
0.000000 0.443244 0.821256
0.000000 0.448280 0.823239
0.000000 0.462348 0.823239
0.000000 0.452857 0.817990
0.273960 0.446723 0.804074
0.541283 0.428107 0.763607
0.680201 0.366796 0.691157
0.767269 0.411872 0.687007
0.000000 0.497169 0.827573
0.000000 0.499245 0.827268
0.000000 0.499580 0.825406
0.000000 0.494423 0.821927
0.295384 0.482826 0.807706
0.554101 0.471321 0.770443
0.693812 0.410651 0.704128
0.787167 0.460395 0.707546
0.000000 0.560143 0.833341
0.000000 0.559045 0.832090
0.000000 0.557977 0.830198
0.000000 0.563012 0.829129
0.375128 0.564569 0.818570
0.588647 0.556390 0.788266
0.717220 0.490242 0.726162
0.808988 0.535546 0.732601
0.000000 0.627680 0.831205
0.000000 0.626581 0.829709
0.000000 0.626703 0.827939
0.000000 0.631312 0.827085
0.432319 0.645167 0.823453
0.622522 0.645380 0.802090
0.734463 0.578546 0.741146
0.830472 0.620935 0.759121
0.000000 0.715755 0.833219
0.000000 0.716579 0.833371
0.000000 0.719295 0.833310
0.282048 0.725063 0.833005
0.502464 0.733364 0.831449
0.674128 0.747341 0.829007
0.776883 0.705043 0.780209
0.882261 0.725399 0.791104
0.114504 0.818692 0.843503
0.189639 0.819883 0.844236
0.321355 0.821439 0.843992
0.466285 0.825162 0.844053
0.604059 0.829160 0.842771
0.727504 0.833188 0.840330
0.833341 0.833341 0.833341
0.944182 0.855741 0.845121
0.484169 0.907256 0.849149
0.499550 0.907683 0.849699
0.560052 0.910246 0.853330
0.644129 0.912566 0.856870
0.738460 0.916320 0.862547
0.790249 0.909209 0.852781
0.812650 0.882994 0.790646
0.965393 0.922026 0.874998
0.000000 0.520623 0.916258
0.000000 0.523583 0.916747
0.000000 0.530419 0.915404
0.000000 0.546593 0.914916
0.271550 0.564782 0.907836
0.557031 0.597070 0.891997
0.690059 0.565148 0.866300
0.808377 0.494759 0.820096
0.000000 0.524804 0.913664
0.000000 0.527733 0.914244
0.000000 0.535302 0.913634
0.000000 0.549615 0.912566
0.268101 0.566430 0.905547
0.554894 0.598169 0.889830
0.686152 0.563958 0.863066
0.803830 0.491890 0.815488
0.000000 0.554467 0.914153
0.000000 0.556298 0.914214
0.000000 0.562158 0.913268
0.000000 0.576226 0.913207
0.304479 0.591608 0.905425
0.567285 0.621424 0.889708
0.690761 0.586572 0.863493
0.805539 0.514733 0.816617
0.000000 0.594812 0.914092
0.000000 0.596490 0.914305
0.000000 0.600916 0.913329
0.000000 0.613733 0.912200
0.351995 0.635096 0.906920
0.576837 0.654322 0.894194
0.705348 0.634028 0.869047
0.813748 0.562890 0.823758
0.000000 0.645930 0.913481
0.000000 0.646876 0.913878
0.000000 0.647028 0.912871
0.000000 0.657069 0.911620
0.366033 0.680140 0.907774
0.588891 0.698573 0.897948
0.721981 0.691188 0.875395
0.824063 0.623987 0.832364
0.000000 0.716823 0.912657
0.000000 0.716365 0.911986
0.000000 0.716335 0.910399
0.000000 0.720150 0.909178
0.353857 0.730465 0.908476
0.612421 0.761074 0.907103
0.761166 0.774807 0.894194
0.847776 0.717433 0.853574
0.000000 0.803983 0.915221
0.000000 0.804227 0.914946
0.000000 0.805631 0.914061
0.274815 0.810300 0.913512
0.489021 0.818540 0.912871
0.652308 0.830961 0.912993
0.794278 0.849729 0.914427
0.871550 0.810605 0.874449
0.319280 0.898558 0.923827
0.339422 0.898863 0.923766
0.414008 0.900786 0.924163
0.519921 0.904326 0.924773
0.633265 0.909209 0.925475
0.742397 0.915160 0.926329
0.842588 0.922087 0.927642
0.924559 0.924559 0.924559
