20 Preset/Street 2/【3】LUT video cho PR-AE-FCPX/Tone 1 (6).cube
# Created by Adobe Lightroom plugin Export LUT (1.24.0)
# www.johnrellis.com/lightroom/exportlut.htm
# Preset: 青橙风光-素材江湖06
# Color profile: C:\Program Files (x86)\Common Files\Adobe\Color\Profiles\Recommended\VideoHD.icc
LUT_3D_SIZE 8
DOMAIN_MIN 0.000000 0.000000 0.000000
DOMAIN_MAX 0.903226 0.903226 0.903226
0.024994 0.091463 0.107088
0.097993 0.092714 0.110353
0.255802 0.067597 0.125002
0.557244 0.000000 0.129061
0.926696 0.000000 0.106752
1.000000 0.000000 0.000000
1.000000 0.191958 0.000000
1.000000 0.337804 0.149050
0.023743 0.117586 0.118563
0.091951 0.113527 0.113924
0.238163 0.121706 0.117037
0.502190 0.000000 0.120638
0.868498 0.000000 0.093385
1.000000 0.000000 0.000000
1.000000 0.209567 0.000000
1.000000 0.341100 0.092866
0.121675 0.187137 0.150118
0.139956 0.182132 0.150118
0.213230 0.187808 0.130220
0.541314 0.255100 0.000000
0.884123 0.261204 0.000000
1.000000 0.365515 0.000000
1.000000 0.443091 0.000000
1.000000 0.477943 0.000000
0.222812 0.295781 0.194430
0.233402 0.282322 0.191501
0.298283 0.291264 0.167788
0.532219 0.347265 0.099214
0.966125 0.552331 0.000000
1.000000 0.646998 0.000000
1.000000 0.635737 0.000000
1.000000 0.618189 0.000000
0.407599 0.456733 0.234165
0.412757 0.441505 0.231449
0.451209 0.421729 0.216861
0.612085 0.481117 0.136873
0.846738 0.561700 0.000000
1.000000 0.711177 0.000000
1.000000 0.767056 0.000000
1.000000 0.747707 0.000000
0.625483 0.644556 0.282841
0.647822 0.650172 0.285924
0.659022 0.603296 0.272801
0.756680 0.647456 0.215122
0.893950 0.714473 0.000000
1.000000 0.769162 0.000000
1.000000 0.824033 0.000000
1.000000 0.834012 0.000000
0.846036 0.856199 0.421790
0.853635 0.854520 0.421210
0.866667 0.831601 0.396918
0.902617 0.824094 0.362646
0.963775 0.849119 0.308659
1.000000 0.869444 0.273045
1.000000 0.869108 0.198184
1.000000 0.875425 0.202213
0.962432 0.963287 0.722103
0.965301 0.962310 0.719142
0.977813 0.958923 0.711574
0.996857 0.952422 0.708125
1.000000 0.943664 0.641444
1.000000 0.948302 0.647028
1.000000 0.945159 0.633967
1.000000 0.927184 0.571038
0.014862 0.113497 0.139254
0.057893 0.100801 0.137942
0.218570 0.092378 0.121706
0.454108 0.000000 0.124056
0.832822 0.000000 0.102632
1.000000 0.000000 0.000000
1.000000 0.130282 0.000000
1.000000 0.300450 0.061433
0.000000 0.121553 0.141482
0.053071 0.124666 0.146853
0.215091 0.130312 0.123964
0.451911 0.102724 0.116060
0.820401 0.000000 0.084291
1.000000 0.000000 0.000000
1.000000 0.194278 0.000000
1.000000 0.315801 0.000000
0.083955 0.206058 0.180270
0.128267 0.196323 0.176852
0.204105 0.188968 0.145357
0.487160 0.243046 0.035279
0.830869 0.255558 0.000000
1.000000 0.332738 0.000000
1.000000 0.402991 0.000000
1.000000 0.448402 0.000000
0.200839 0.303105 0.212039
0.218631 0.291295 0.208804
0.279881 0.287358 0.190555
0.447456 0.305943 0.121187
0.857267 0.456336 0.000000
1.000000 0.580591 0.000000
1.000000 0.593530 0.000000
1.000000 0.591913 0.000000
0.394476 0.465888 0.250950
0.399298 0.448524 0.246921
0.424323 0.408209 0.233433
0.565423 0.453925 0.172549
0.779385 0.505516 0.000000
1.000000 0.670741 0.000000
1.000000 0.747646 0.000000
1.000000 0.736049 0.000000
0.595575 0.631983 0.291691
0.601862 0.621942 0.288640
0.616999 0.577508 0.276219
0.710750 0.610132 0.232425
0.861357 0.679652 0.000000
1.000000 0.749996 0.000000
1.000000 0.814878 0.000000
1.000000 0.828244 0.000000
0.814633 0.836667 0.404608
0.814603 0.827237 0.394629
0.826627 0.799527 0.371130
0.865660 0.787198 0.340978
0.945892 0.827756 0.272618
1.000000 0.854826 0.227543
1.000000 0.856779 0.101289
1.000000 0.867308 0.049958
0.952148 0.956847 0.689662
0.956420 0.957092 0.693660
0.969390 0.952911 0.683101
0.991760 0.944488 0.672389
1.000000 0.949462 0.671717
1.000000 0.949706 0.655573
1.000000 0.943908 0.625299
1.000000 0.925872 0.561303
0.000000 0.165835 0.214817
0.000000 0.158602 0.215335
0.142092 0.128359 0.221073
0.308690 0.131533 0.226291
0.842557 0.000000 0.179538
1.000000 0.000000 0.000000
1.000000 0.286564 0.000000
1.000000 0.365209 0.000000
0.000000 0.176516 0.213352
0.000000 0.179202 0.224949
0.148989 0.151797 0.233860
0.354009 0.138094 0.233127
0.821347 0.000000 0.176608
1.000000 0.166781 0.000000
1.000000 0.310246 0.000000
1.000000 0.378515 0.000000
0.000000 0.231815 0.259342
0.000000 0.236332 0.264897
0.174868 0.252445 0.287083
0.488960 0.249790 0.242222
0.856352 0.261173 0.140932
1.000000 0.390539 0.000000
1.000000 0.450996 0.000000
1.000000 0.476387 0.000000
0.000000 0.416297 0.299535
0.000000 0.415839 0.299962
0.305303 0.365454 0.305394
0.506798 0.376989 0.257023
0.890410 0.499580 0.000000
1.000000 0.606531 0.000000
1.000000 0.622034 0.000000
1.000000 0.611139 0.000000
0.381109 0.586297 0.362676
0.407965 0.568963 0.354986
0.472206 0.503746 0.328191
0.594018 0.505974 0.287358
0.820035 0.561791 0.167178
1.000000 0.685023 0.000000
1.000000 0.752316 0.000000
1.000000 0.742245 0.000000
0.599481 0.713008 0.389746
0.611353 0.703883 0.385107
0.640162 0.655482 0.361547
0.696651 0.620233 0.325353
0.851560 0.693385 0.245762
1.000000 0.749081 0.000000
1.000000 0.812589 0.000000
1.000000 0.829099 0.000000
0.812467 0.874357 0.500359
0.814878 0.867247 0.489906
0.829038 0.840818 0.457069
0.852323 0.790097 0.412390
0.934905 0.832547 0.369177
1.000000 0.857176 0.265263
1.000000 0.860685 0.138643
1.000000 0.871519 0.153780
0.938933 0.962707 0.732784
0.941375 0.961028 0.726314
0.954650 0.956634 0.713893
0.982147 0.951476 0.708003
1.000000 0.949493 0.683619
1.000000 0.950866 0.662837
1.000000 0.945647 0.636866
1.000000 0.927367 0.572015
0.000000 0.218967 0.288029
0.000000 0.217746 0.294347
0.000000 0.185916 0.309117
0.243595 0.160464 0.326116
0.319188 0.198093 0.299870
0.991608 0.000000 0.350896
1.000000 0.022889 0.271916
1.000000 0.370825 0.000000
0.000000 0.236118 0.297307
0.000000 0.239231 0.308324
0.000000 0.210483 0.324743
0.260868 0.178500 0.343511
0.355444 0.209842 0.317876
1.000000 0.000000 0.348760
1.000000 0.198459 0.267857
1.000000 0.396338 0.000000
0.000000 0.275212 0.317144
0.000000 0.278325 0.320684
0.102876 0.299718 0.365667
0.315221 0.252476 0.394965
0.607935 0.252201 0.409857
1.000000 0.278416 0.408148
1.000000 0.435554 0.279149
1.000000 0.501244 0.000000
0.000000 0.427619 0.449378
0.000000 0.431800 0.454047
0.000000 0.456947 0.481239
0.494789 0.509972 0.544457
0.862821 0.519432 0.475196
1.000000 0.559228 0.366827
1.000000 0.598352 0.187198
1.000000 0.618006 0.000000
0.000000 0.772427 0.620233
0.000000 0.763943 0.605951
0.261082 0.738399 0.557763
0.627893 0.636835 0.531121
0.844999 0.675380 0.492500
1.000000 0.743954 0.354406
1.000000 0.767880 0.000000
1.000000 0.747433 0.000000
0.504204 0.870512 0.597284
0.567224 0.872953 0.616571
0.668269 0.840452 0.608179
0.742123 0.754696 0.531731
0.858762 0.762020 0.486702
1.000000 0.802457 0.431342
1.000000 0.830472 0.237522
1.000000 0.830533 0.000000
0.786984 0.925872 0.681483
0.794675 0.923308 0.676448
0.821073 0.909087 0.647181
0.864744 0.875761 0.588678
0.923308 0.857328 0.536461
1.000000 0.881193 0.498726
1.000000 0.874144 0.373327
1.000000 0.873777 0.183108
0.921752 0.976898 0.824155
0.924285 0.975921 0.821134
0.935912 0.972076 0.809628
0.960204 0.964752 0.789548
0.991852 0.953796 0.759182
1.000000 0.955627 0.726284
1.000000 0.947509 0.648737
1.000000 0.929808 0.589502
0.000000 0.293492 0.387335
0.000000 0.294804 0.395941
0.000000 0.274205 0.408118
0.072786 0.229526 0.434546
0.397253 0.177066 0.456214
0.481941 0.217502 0.409583
0.995697 0.000000 0.534203
1.000000 0.177737 0.508324
0.000000 0.307836 0.395758
0.000000 0.312200 0.407446
0.000000 0.294438 0.422614
0.083101 0.243320 0.445747
0.416297 0.190646 0.470832
0.498543 0.231601 0.420508
1.000000 0.000000 0.543999
1.000000 0.284581 0.521996
0.000000 0.341894 0.403571
0.000000 0.346258 0.412360
0.000000 0.360082 0.451514
0.103304 0.303136 0.486061
0.476387 0.254154 0.515740
0.543694 0.292027 0.453468
1.000000 0.230167 0.568170
1.000000 0.501549 0.569055
0.000000 0.435065 0.477485
0.000000 0.436683 0.479377
0.044373 0.447486 0.491218
0.353979 0.499336 0.570855
0.617609 0.441230 0.624323
0.817288 0.468727 0.609064
1.000000 0.611353 0.664515
1.000000 0.619837 0.542107
0.000000 0.663081 0.652674
0.000000 0.667994 0.657557
0.000000 0.684565 0.675074
0.488594 0.721340 0.714534
0.768765 0.777493 0.776059
0.969146 0.776242 0.722744
1.000000 0.766171 0.631800
1.000000 0.733639 0.464424
0.165164 0.926268 0.834501
0.264134 0.924163 0.830228
0.431220 0.911162 0.805234
0.608759 0.887053 0.756100
0.791562 0.805447 0.699184
0.944701 0.847410 0.711086
1.000000 0.864897 0.628779
1.000000 0.846616 0.384344
0.658961 0.967468 0.797635
0.662501 0.965484 0.791592
0.707027 0.956970 0.782132
0.822354 0.937896 0.801205
0.877043 0.890684 0.710353
0.958221 0.891569 0.677241
1.000000 0.896513 0.648432
1.000000 0.884398 0.467384
0.877806 0.987182 0.873777
0.882933 0.986175 0.874998
0.897551 0.982177 0.872068
0.923003 0.976745 0.860349
0.957549 0.964172 0.827329
0.997314 0.957061 0.798245
1.000000 0.954650 0.758572
1.000000 0.928466 0.595575
0.000000 0.433936 0.555749
0.000000 0.436011 0.563317
0.000000 0.410040 0.565972
0.000000 0.350500 0.580682
0.322210 0.286107 0.613794
0.629725 0.174533 0.625971
0.694179 0.239506 0.560204
1.000000 0.355352 0.678553
0.000000 0.425757 0.538872
0.000000 0.425605 0.543664
0.000000 0.408515 0.553277
0.000000 0.354650 0.570153
0.307439 0.289799 0.601221
0.616999 0.189609 0.616754
0.682887 0.249027 0.553033
1.000000 0.348730 0.672328
0.000000 0.463691 0.550072
0.000000 0.465003 0.555505
0.000000 0.471717 0.582696
0.000000 0.422126 0.598108
0.332555 0.342779 0.628962
0.661646 0.259770 0.650172
0.727810 0.315892 0.586084
1.000000 0.432258 0.708675
0.000000 0.523278 0.566949
0.000000 0.519188 0.563317
0.042298 0.532494 0.587976
0.311894 0.569268 0.659266
0.419440 0.486030 0.706569
0.767453 0.431434 0.736629
0.819638 0.471839 0.663752
1.000000 0.636652 0.778958
0.000000 0.653315 0.668788
0.000000 0.652705 0.668757
0.139742 0.652674 0.670710
0.385107 0.657862 0.678920
0.604913 0.710506 0.754238
0.826902 0.669184 0.805722
0.938170 0.693050 0.776364
1.000000 0.827604 0.841154
0.000000 0.853971 0.814908
0.066102 0.859068 0.820249
0.338384 0.861692 0.825681
0.544884 0.868894 0.838743
0.742245 0.882872 0.861967
0.903258 0.916808 0.905394
0.997223 0.916594 0.887175
1.000000 0.897276 0.836576
0.699336 0.981537 0.932616
0.716976 0.982025 0.934783
0.762478 0.982513 0.939483
0.818997 0.979675 0.936156
0.864652 0.968933 0.913542
0.916686 0.930175 0.868528
0.988525 0.941039 0.876371
1.000000 0.933043 0.817197
0.834318 1.000000 0.924834
0.835447 1.000000 0.923186
0.846891 0.999115 0.919127
0.871580 0.995850 0.913603
0.925872 0.986419 0.921691
0.960418 0.968109 0.883024
1.000000 0.966125 0.869200
1.000000 0.955230 0.833829
0.000000 0.643824 0.758083
0.000000 0.646662 0.764553
0.000000 0.624872 0.767056
0.000000 0.574182 0.776577
0.204990 0.450721 0.789425
0.609339 0.360998 0.799100
0.846799 0.215183 0.790829
0.879881 0.289738 0.712459
0.000000 0.626307 0.737575
0.000000 0.630915 0.745480
0.000000 0.613794 0.750790
0.000000 0.562036 0.757107
0.176608 0.444862 0.769619
0.579858 0.353948 0.778408
0.818784 0.212284 0.768887
0.850004 0.279606 0.688350
0.000000 0.658167 0.744076
0.000000 0.656855 0.746365
0.111513 0.646876 0.753841
0.181857 0.604211 0.762387
0.253880 0.497322 0.773312
0.584985 0.399420 0.788418
0.846891 0.287816 0.792416
0.894591 0.357366 0.725826
0.165347 0.702388 0.746120
0.170199 0.697414 0.744472
0.228275 0.690181 0.750515
0.345464 0.685939 0.776516
0.386206 0.610101 0.793515
0.608484 0.503136 0.818692
0.887572 0.422644 0.830228
0.934020 0.482887 0.766812
0.190555 0.749538 0.760311
0.202213 0.742275 0.754604
0.270695 0.726619 0.742611
0.368292 0.717128 0.744137
0.512688 0.730831 0.796963
0.605951 0.629694 0.832486
0.900450 0.581323 0.853208
0.951446 0.641077 0.804288
0.283146 0.860502 0.841215
0.304509 0.860105 0.841276
0.372656 0.856382 0.839750
0.475288 0.848692 0.836393
0.594598 0.833585 0.828367
0.770047 0.854398 0.870054
0.918883 0.833433 0.904143
0.980072 0.855070 0.886473
0.571252 0.954711 0.919219
0.586481 0.955047 0.920287
0.626917 0.953857 0.921263
0.700587 0.952361 0.924193
0.789853 0.950866 0.929046
0.883238 0.954284 0.940215
0.963653 0.970092 0.964111
1.000000 0.967010 0.952331
0.810330 1.000000 0.969482
0.816190 1.000000 0.970123
0.841337 1.000000 0.973144
0.877714 1.000000 0.977661
0.918151 1.000000 0.981262
0.944671 0.997131 0.969757
0.973724 0.979217 0.946075
1.000000 0.981720 0.949187
0.630610 0.873838 0.920409
0.637324 0.873930 0.921782
0.624781 0.861082 0.920928
0.616968 0.837339 0.924315
0.608942 0.780087 0.930236
0.669490 0.675654 0.938231
0.869810 0.581720 0.944121
1.000000 0.470527 0.938384
0.605737 0.866819 0.914214
0.613916 0.867277 0.915892
0.612116 0.857450 0.916716
0.600946 0.832059 0.919493
0.593622 0.774075 0.925566
0.653956 0.666499 0.933989
0.859648 0.567987 0.938872
1.000000 0.451575 0.931762
0.605402 0.871885 0.909880
0.608942 0.870939 0.910613
0.613458 0.862882 0.911437
0.627008 0.848631 0.918303
0.610193 0.794766 0.922515
0.641505 0.681392 0.930541
0.849760 0.589807 0.936400
1.000000 0.480446 0.930968
0.616846 0.884825 0.904540
0.622187 0.884825 0.905760
0.628382 0.879362 0.907225
0.656153 0.870848 0.913420
0.651118 0.834836 0.919158
0.652888 0.737087 0.929656
0.840238 0.653529 0.937652
1.000000 0.558221 0.935760
0.635004 0.900237 0.896117
0.640375 0.900816 0.897704
0.640528 0.896544 0.898558
0.659541 0.890440 0.903838
0.696101 0.876127 0.912444
0.692775 0.815732 0.921752
0.817044 0.725521 0.934905
0.996277 0.655421 0.938567
0.667231 0.929747 0.917754
0.663813 0.927947 0.916045
0.660883 0.922271 0.911101
0.672877 0.913817 0.904509
0.703273 0.903044 0.899382
0.781582 0.900237 0.922789
0.826200 0.846525 0.942473
0.979797 0.813535 0.950347
0.745113 0.966125 0.950286
0.745998 0.965637 0.949889
0.751614 0.963684 0.948425
0.769863 0.960754 0.946868
0.797696 0.955779 0.944030
0.835203 0.947753 0.938842
0.898894 0.945617 0.950561
0.971710 0.925719 0.963928
0.820096 0.995758 0.978332
0.821469 0.995575 0.978241
0.830411 0.994965 0.978363
0.850645 0.994202 0.979278
0.878691 0.992950 0.980407
0.913695 0.991516 0.982055
0.955077 0.991302 0.985901
0.997498 0.997955 0.997528
