20 Preset/Street 2/【3】LUT video cho PR-AE-FCPX/Tone 1 (26).cube
# Created by Adobe Lightroom plugin Export LUT (1.24.0)
# www.johnrellis.com/lightroom/exportlut.htm
# Preset: 青橙风光-素材江湖26
# Color profile: C:\Program Files (x86)\Common Files\Adobe\Color\Profiles\Recommended\VideoHD.icc
LUT_3D_SIZE 32
DOMAIN_MIN 0.0 0.0 0.0
DOMAIN_MAX 1.0 1.0 1.0
0.056580 0.096407 0.101076
0.056580 0.096407 0.101076
0.063203 0.096529 0.101747
0.085756 0.098116 0.103548
0.099794 0.100679 0.106752
0.113313 0.103914 0.111025
0.127169 0.106966 0.114412
0.141848 0.109255 0.117403
0.156100 0.111147 0.119966
0.170626 0.113283 0.122652
0.186374 0.114717 0.125246
0.202426 0.116274 0.127687
0.219974 0.117556 0.130220
0.238682 0.118471 0.132845
0.258946 0.118563 0.135317
0.280949 0.118410 0.137789
0.305394 0.117128 0.140505
0.332982 0.114900 0.143160
0.363958 0.110201 0.145724
0.399786 0.101595 0.148318
0.453498 0.074647 0.151949
0.516472 0.000000 0.155520
0.580987 0.000000 0.159121
0.648219 0.000000 0.162478
0.716335 0.000000 0.165774
0.785641 0.000000 0.169284
0.855833 0.000000 0.173434
0.925566 0.000000 0.178927
0.993103 0.000000 0.186343
1.000000 0.000000 0.197971
1.000000 0.000000 0.216495
1.000000 0.110140 0.245182
0.056580 0.096407 0.101076
0.056580 0.096407 0.101076
0.065187 0.096437 0.101747
0.085756 0.098116 0.103548
0.099794 0.100679 0.106752
0.112551 0.104341 0.110994
0.126070 0.107454 0.114382
0.140627 0.109438 0.117403
0.154574 0.111727 0.119936
0.169100 0.113588 0.122652
0.184482 0.115145 0.125002
0.200870 0.116365 0.127474
0.217929 0.117800 0.130007
0.236332 0.118593 0.132662
0.256260 0.119173 0.135134
0.278325 0.118807 0.137636
0.302617 0.118044 0.140108
0.329503 0.115724 0.142855
0.359960 0.111299 0.145480
0.394629 0.103761 0.148135
0.445594 0.083040 0.151553
0.503655 0.004395 0.154940
0.563867 0.000000 0.158175
0.627131 0.000000 0.161288
0.692195 0.000000 0.164523
0.759121 0.000000 0.168063
0.828550 0.000000 0.171817
0.899382 0.000000 0.176638
0.969329 0.000000 0.183383
1.000000 0.000000 0.193515
1.000000 0.000000 0.209964
1.000000 0.000000 0.235996
0.059174 0.098177 0.102998
0.061158 0.098085 0.102998
0.063020 0.098421 0.102205
0.082673 0.101167 0.104585
0.097108 0.104128 0.108064
0.110323 0.107576 0.112215
0.125093 0.109865 0.115297
0.139437 0.111818 0.118013
0.153872 0.114015 0.120516
0.168948 0.115389 0.122988
0.184329 0.116945 0.125582
0.200626 0.118441 0.127993
0.217777 0.119539 0.130556
0.236454 0.120272 0.132967
0.256535 0.120790 0.135409
0.278355 0.120790 0.137881
0.302556 0.119783 0.140383
0.329747 0.117678 0.143069
0.360082 0.113405 0.145693
0.394629 0.106081 0.148348
0.445380 0.088228 0.151553
0.501762 0.016236 0.155032
0.559777 0.000000 0.158022
0.620905 0.000000 0.161135
0.683833 0.000000 0.164218
0.748806 0.000000 0.167605
0.817288 0.000000 0.171176
0.887877 0.000000 0.175784
0.958404 0.000000 0.182162
1.000000 0.000000 0.191684
1.000000 0.000000 0.207126
1.000000 0.000000 0.231662
0.066896 0.104494 0.109621
0.066896 0.104494 0.109621
0.068147 0.104799 0.109560
0.081514 0.106081 0.105959
0.094667 0.109316 0.110018
0.107393 0.112978 0.114351
0.123018 0.115328 0.117037
0.138308 0.116793 0.119417
0.153719 0.118441 0.121950
0.169009 0.119997 0.124331
0.185336 0.121004 0.126650
0.202029 0.122316 0.129061
0.219913 0.123140 0.131563
0.238804 0.123964 0.134127
0.259159 0.124300 0.136538
0.281163 0.124147 0.138766
0.305364 0.123079 0.141238
0.332189 0.120790 0.143709
0.362188 0.117006 0.146273
0.396612 0.109987 0.148714
0.444770 0.094606 0.152010
0.496895 0.042237 0.155093
0.551812 0.000000 0.157931
0.610925 0.000000 0.160891
0.673945 0.000000 0.164065
0.740597 0.000000 0.167330
0.811734 0.000000 0.171023
0.884367 0.000000 0.175570
0.956146 0.000000 0.182040
1.000000 0.000000 0.191470
1.000000 0.000000 0.206363
1.000000 0.000000 0.229587
0.077485 0.112367 0.117525
0.078981 0.112306 0.117525
0.078981 0.112306 0.117525
0.082155 0.113130 0.116182
0.093690 0.114046 0.111604
0.106996 0.116915 0.113832
0.119112 0.122011 0.119997
0.135653 0.123842 0.121950
0.152193 0.125277 0.124086
0.168948 0.126497 0.126436
0.185733 0.127596 0.128664
0.203555 0.128573 0.130983
0.222293 0.129366 0.133181
0.242191 0.130037 0.135653
0.263706 0.129915 0.138003
0.286900 0.129702 0.140352
0.312230 0.128511 0.142702
0.340185 0.126040 0.145266
0.371099 0.122103 0.147707
0.408911 0.114382 0.150301
0.456123 0.099947 0.153262
0.506401 0.058839 0.156130
0.559869 0.000000 0.158938
0.617639 0.000000 0.161624
0.679744 0.000000 0.164675
0.745907 0.000000 0.167910
0.815457 0.000000 0.171542
0.886320 0.000000 0.176028
0.956329 0.000000 0.182162
1.000000 0.000000 0.191440
1.000000 0.000000 0.205753
1.000000 0.000000 0.228183
0.085847 0.119478 0.124453
0.086305 0.119142 0.124483
0.086305 0.119142 0.124483
0.086488 0.119142 0.124208
0.092531 0.121401 0.121096
0.103517 0.122316 0.115816
0.120241 0.125277 0.116579
0.134279 0.130495 0.123232
0.151461 0.134615 0.127871
0.170291 0.135927 0.129763
0.188876 0.137057 0.131838
0.208347 0.137758 0.134035
0.228824 0.138430 0.136294
0.250584 0.138857 0.138643
0.273899 0.138643 0.140780
0.298985 0.137911 0.143191
0.326207 0.136599 0.145357
0.355871 0.133639 0.147707
0.388617 0.128695 0.149966
0.431647 0.119753 0.152682
0.479438 0.105043 0.155550
0.529992 0.071107 0.158114
0.690181 0.000000 0.165957
0.757839 0.000000 0.169192
0.824247 0.000000 0.172671
0.888701 0.000000 0.176669
0.950408 0.000000 0.182132
1.000000 0.000000 0.189578
1.000000 0.000000 0.200717
1.000000 0.000000 0.217380
1.000000 0.184390 0.241184
1.000000 0.271702 0.273899
0.093690 0.129641 0.134859
0.094057 0.129366 0.134646
0.094179 0.128878 0.133974
0.093324 0.128206 0.132845
0.096010 0.128847 0.131228
0.105013 0.131563 0.126314
0.117861 0.132570 0.120729
0.139071 0.136172 0.119722
0.156710 0.142306 0.127077
0.178500 0.149844 0.135378
0.201938 0.152682 0.138491
0.225376 0.153872 0.140505
0.249516 0.154025 0.142458
0.275029 0.153689 0.144472
0.301671 0.152804 0.146304
0.329564 0.150912 0.148226
0.359625 0.148074 0.150271
0.392309 0.143862 0.152071
0.434363 0.137057 0.154665
0.487465 0.124666 0.157412
0.545037 0.104067 0.160281
0.607965 0.038727 0.163210
0.675319 0.000000 0.166110
0.745846 0.000000 0.169345
0.816342 0.000000 0.172702
0.882506 0.000000 0.176761
0.943267 0.000000 0.181735
0.999481 0.000000 0.188815
1.000000 0.000000 0.199039
1.000000 0.087404 0.214115
1.000000 0.195987 0.235935
1.000000 0.273686 0.266117
0.100679 0.138552 0.143404
0.100679 0.138552 0.143404
0.100374 0.137881 0.142824
0.099947 0.137026 0.141573
0.099763 0.135439 0.139956
0.105867 0.137728 0.135317
0.116182 0.140475 0.130312
0.130587 0.141573 0.124056
0.154757 0.145327 0.121736
0.175143 0.152132 0.129397
0.200900 0.160861 0.138155
0.232364 0.170260 0.146914
0.259983 0.170901 0.148287
0.288548 0.170657 0.149752
0.318090 0.169406 0.151339
0.348547 0.167330 0.152743
0.381353 0.163851 0.154391
0.419471 0.159335 0.156222
0.467384 0.152041 0.158694
0.518181 0.141268 0.160739
0.572930 0.124880 0.163149
0.631891 0.099062 0.165682
0.694545 0.018097 0.168215
0.760281 0.000000 0.170871
0.826047 0.000000 0.174014
0.887785 0.000000 0.177737
0.945281 0.000000 0.182620
0.998596 0.000000 0.189334
1.000000 0.017151 0.199222
1.000000 0.155245 0.213901
1.000000 0.226596 0.235019
1.000000 0.292363 0.264469
0.108034 0.148287 0.153109
0.108125 0.148287 0.152895
0.107851 0.147677 0.152377
0.107454 0.146914 0.151247
0.107271 0.145480 0.149752
0.108858 0.144564 0.146670
0.117189 0.147158 0.139956
0.128908 0.149874 0.134371
0.144411 0.151217 0.127749
0.172366 0.155642 0.123507
0.196994 0.163455 0.131746
0.227481 0.173312 0.140566
0.266361 0.185245 0.150576
0.307256 0.192599 0.157015
0.341222 0.191501 0.157748
0.375677 0.188724 0.158846
0.416266 0.185550 0.160189
0.462562 0.180911 0.161837
0.509880 0.173709 0.163516
0.559319 0.164157 0.165164
0.611933 0.151247 0.166995
0.667536 0.135470 0.168795
0.725826 0.115389 0.170993
0.786801 0.091035 0.173342
0.846891 0.046265 0.176181
0.903502 0.029358 0.179904
0.956420 0.066499 0.184695
1.000000 0.116518 0.191714
1.000000 0.164096 0.201816
1.000000 0.214359 0.216739
1.000000 0.267674 0.237949
1.000000 0.322362 0.267063
0.116426 0.158968 0.163272
0.116701 0.158755 0.163088
0.116274 0.158419 0.162600
0.115846 0.157321 0.161410
0.115419 0.155856 0.159915
0.114839 0.153780 0.157687
0.119570 0.154971 0.152651
0.129671 0.157504 0.145388
0.142458 0.159792 0.138216
0.159823 0.161379 0.131472
0.191409 0.166567 0.125124
0.220035 0.175509 0.133333
0.256046 0.186709 0.142519
0.302373 0.199832 0.152499
0.361517 0.214878 0.163912
0.415656 0.218235 0.167056
0.464454 0.215793 0.167819
0.513268 0.211124 0.168551
0.562066 0.204471 0.169558
0.611231 0.196811 0.170535
0.660151 0.187442 0.171603
0.709285 0.178012 0.172763
0.759884 0.168643 0.174289
0.811704 0.160922 0.176059
0.862760 0.156771 0.178561
0.912840 0.158785 0.181857
0.960998 0.170077 0.186465
1.000000 0.190921 0.193454
1.000000 0.221927 0.203677
1.000000 0.260502 0.218875
1.000000 0.304845 0.240879
1.000000 0.353521 0.270512
0.125734 0.169436 0.173342
0.125246 0.169497 0.173342
0.125490 0.168948 0.172885
0.124727 0.168002 0.171664
0.123934 0.166690 0.170108
0.123812 0.164767 0.168215
0.123507 0.162509 0.165286
0.132235 0.166049 0.158663
0.143923 0.168826 0.150851
0.158602 0.171115 0.142367
0.177859 0.173281 0.135195
0.211826 0.179110 0.128084
0.248966 0.190036 0.134920
0.296269 0.204196 0.144228
0.357458 0.220798 0.154849
0.434913 0.239048 0.166506
0.517784 0.255680 0.177249
0.567376 0.251408 0.176730
0.615564 0.246128 0.176455
0.662013 0.240024 0.176608
0.707485 0.233890 0.176944
0.753048 0.228794 0.177462
0.799405 0.224887 0.178347
0.845731 0.222965 0.180056
0.891569 0.224063 0.182589
0.936278 0.230045 0.186007
0.979370 0.241062 0.191287
1.000000 0.259037 0.198886
1.000000 0.283574 0.210239
1.000000 0.315190 0.226444
1.000000 0.352270 0.249363
1.000000 0.393896 0.279942
0.136263 0.181735 0.184970
0.136049 0.181613 0.184817
0.135653 0.181003 0.184298
0.135531 0.180240 0.183444
0.134615 0.178927 0.181888
0.133700 0.176944 0.179751
0.133028 0.174411 0.177127
0.136446 0.174807 0.172488
0.147250 0.178592 0.165011
0.161227 0.181888 0.156466
0.178927 0.185000 0.147280
0.202243 0.188724 0.139620
0.267765 0.209110 0.132418
0.331243 0.226993 0.136721
0.406012 0.246799 0.146487
0.496925 0.269596 0.157137
0.596857 0.296300 0.169528
0.697383 0.330083 0.185061
0.764279 0.344976 0.192142
0.804746 0.340581 0.190799
0.842802 0.336584 0.190127
0.879118 0.333776 0.190524
0.914183 0.332525 0.192081
0.949218 0.334417 0.194888
0.982605 0.338964 0.199283
1.000000 0.346044 0.205325
1.000000 0.355535 0.213474
1.000000 0.369055 0.224613
1.000000 0.387121 0.239750
1.000000 0.409918 0.259709
1.000000 0.437629 0.285679
1.000000 0.470863 0.319127
0.152163 0.199527 0.201755
0.152041 0.199405 0.201480
0.151644 0.198611 0.200900
0.151064 0.197879 0.199893
0.150027 0.196292 0.198276
0.149081 0.194156 0.196017
0.147829 0.191440 0.193057
0.146731 0.188479 0.189914
0.156771 0.192752 0.183627
0.171420 0.198276 0.175357
0.190249 0.203586 0.165652
0.214176 0.208774 0.155062
0.246342 0.215488 0.145785
0.300633 0.226810 0.134401
0.379309 0.248112 0.134768
0.463905 0.270573 0.143404
0.558801 0.295933 0.152895
0.656580 0.326268 0.164797
0.751095 0.363684 0.180636
0.835782 0.407080 0.203952
0.870359 0.402716 0.202701
0.902739 0.398810 0.202243
0.933867 0.396429 0.203128
0.964660 0.396582 0.205509
0.994141 0.398779 0.209964
1.000000 0.403693 0.216251
1.000000 0.411078 0.225101
1.000000 0.421912 0.236942
1.000000 0.436652 0.252598
1.000000 0.456214 0.273472
1.000000 0.480049 0.299931
1.000000 0.508873 0.333532
0.169619 0.217960 0.218845
0.169436 0.217624 0.218631
0.168704 0.216831 0.217777
0.167697 0.215366 0.216220
0.166049 0.213169 0.214023
0.164279 0.210575 0.211307
0.162539 0.207431 0.207980
0.160739 0.203708 0.204196
0.162325 0.202518 0.199252
0.176272 0.208621 0.191623
0.194186 0.215122 0.182559
0.216251 0.221439 0.171756
0.244236 0.227848 0.159945
0.281407 0.235660 0.149325
0.340551 0.247440 0.135317
0.431403 0.270970 0.130678
0.520439 0.295415 0.137636
0.615473 0.323491 0.146151
0.710231 0.357916 0.157595
0.798184 0.398383 0.175051
0.875639 0.443122 0.202029
0.927550 0.469276 0.222446
0.955810 0.465797 0.222538
0.983062 0.464332 0.224674
1.000000 0.464698 0.228916
1.000000 0.467079 0.235538
1.000000 0.471656 0.244511
1.000000 0.479286 0.256687
1.000000 0.490517 0.272770
1.000000 0.506401 0.294041
1.000000 0.526390 0.320867
1.000000 0.551232 0.354772
0.187900 0.236362 0.235966
0.187716 0.236149 0.235538
0.186740 0.235050 0.234592
0.185367 0.233341 0.232700
0.183230 0.230655 0.230137
0.181094 0.227512 0.226993
0.178256 0.223758 0.223148
0.175753 0.219913 0.218967
0.173220 0.215335 0.214511
0.181796 0.218753 0.207950
0.198825 0.226169 0.199557
0.220279 0.233768 0.189334
0.246464 0.241093 0.177249
0.278996 0.248661 0.164462
0.320775 0.257450 0.151797
0.383368 0.268772 0.135225
0.484565 0.295079 0.123598
0.576410 0.322271 0.129030
0.670710 0.354406 0.136507
0.761227 0.392676 0.148104
0.842985 0.435554 0.168795
0.913939 0.482033 0.201205
0.970977 0.530022 0.246036
0.998077 0.533501 0.254459
1.000000 0.531365 0.257664
1.000000 0.531243 0.263798
1.000000 0.533471 0.272709
1.000000 0.539055 0.285313
1.000000 0.548272 0.302434
1.000000 0.561913 0.324987
1.000000 0.580133 0.353918
1.000000 0.602808 0.389899
0.206516 0.254459 0.252445
0.206149 0.254398 0.252354
0.205722 0.253452 0.251469
0.204379 0.252049 0.249851
0.202396 0.249546 0.247440
0.200076 0.246555 0.244450
0.197574 0.243015 0.240909
0.194614 0.239017 0.236698
0.191958 0.234379 0.231998
0.190311 0.230533 0.226810
0.207034 0.238712 0.218326
0.227268 0.246952 0.208286
0.251743 0.255039 0.196292
0.280461 0.262211 0.182071
0.315923 0.270146 0.167880
0.360388 0.278508 0.153323
0.424353 0.289311 0.134218
0.533227 0.318853 0.113985
0.626764 0.349462 0.117037
0.719448 0.385962 0.122774
0.807004 0.428046 0.136110
0.884550 0.474311 0.162417
0.949126 0.522423 0.203159
0.998199 0.570367 0.257206
1.000000 0.600214 0.299901
1.000000 0.598474 0.305241
1.000000 0.598749 0.313634
1.000000 0.601678 0.325750
1.000000 0.607813 0.342168
1.000000 0.617609 0.363836
1.000000 0.631098 0.391058
1.000000 0.648646 0.424598
0.226322 0.273350 0.269749
0.226291 0.273198 0.269688
0.225620 0.272465 0.268864
0.224430 0.271000 0.267338
0.222385 0.268528 0.264897
0.219821 0.265599 0.261814
0.216892 0.261845 0.258030
0.213840 0.257725 0.253788
0.210330 0.252659 0.248753
0.206851 0.247257 0.243168
0.213169 0.248539 0.236271
0.232761 0.257725 0.226749
0.256352 0.266880 0.215274
0.283940 0.275669 0.201846
0.316136 0.283330 0.185794
0.356207 0.292638 0.170748
0.404822 0.301915 0.153994
0.469825 0.312566 0.131594
0.586328 0.346471 0.097993
0.679652 0.381353 0.097322
0.770993 0.422858 0.101564
0.854276 0.468605 0.120882
0.925139 0.516533 0.158022
0.981292 0.564843 0.210544
1.000000 0.611231 0.274601
1.000000 0.655268 0.346136
1.000000 0.661219 0.364721
1.000000 0.662074 0.375555
1.000000 0.665705 0.390997
1.000000 0.672480 0.411322
1.000000 0.682795 0.437324
1.000000 0.696712 0.469306
0.251469 0.296178 0.290623
0.251560 0.296239 0.290684
0.272618 0.314702 0.307591
0.271122 0.312902 0.305791
0.268284 0.309972 0.302831
0.264714 0.306188 0.298985
0.260807 0.301610 0.294316
0.255619 0.295933 0.288487
0.250797 0.289921 0.282383
0.245548 0.282994 0.275547
0.239841 0.275395 0.268040
0.258732 0.284459 0.258183
0.283726 0.295323 0.245518
0.313237 0.305852 0.230686
0.346410 0.315373 0.213352
0.383825 0.323247 0.192844
0.429755 0.333806 0.174624
0.483101 0.343572 0.152682
0.547936 0.353796 0.122591
0.668910 0.394507 0.015625
0.759915 0.435889 0.000000
0.843961 0.481361 0.017334
0.916411 0.528557 0.101869
0.974121 0.575189 0.164279
1.000000 0.618585 0.233310
1.000000 0.659480 0.307042
1.000000 0.698177 0.384283
1.000000 0.721401 0.437629
1.000000 0.721340 0.448920
1.000000 0.724697 0.466041
1.000000 0.731502 0.488930
1.000000 0.741817 0.518212
0.287144 0.327367 0.319219
0.289097 0.329046 0.320745
0.290867 0.330358 0.321965
0.291600 0.330510 0.321935
0.290562 0.329198 0.320562
0.287846 0.326238 0.317388
0.283482 0.321569 0.312627
0.278141 0.315831 0.306798
0.272587 0.309422 0.300389
0.266575 0.302281 0.293126
0.260441 0.294774 0.285557
0.262394 0.292332 0.276921
0.286503 0.303655 0.265080
0.314397 0.315068 0.251286
0.346166 0.325933 0.235080
0.381933 0.335729 0.216068
0.422461 0.345037 0.194766
0.472175 0.357519 0.175448
0.528710 0.369268 0.150332
0.592859 0.380285 0.114900
0.716548 0.427039 0.000000
0.806485 0.473243 0.000000
0.885710 0.521111 0.000000
0.950866 0.568780 0.086488
0.999451 0.613214 0.172671
1.000000 0.654292 0.252262
1.000000 0.692622 0.332555
1.000000 0.729183 0.415320
1.000000 0.764584 0.499489
1.000000 0.768856 0.520104
1.000000 0.773037 0.539910
1.000000 0.780270 0.565667
0.314763 0.350347 0.340459
0.317144 0.352209 0.342168
0.319188 0.353796 0.343542
0.320256 0.354406 0.343969
0.319585 0.353521 0.342840
0.316899 0.350561 0.339757
0.312322 0.345861 0.334966
0.306859 0.340246 0.329259
0.300725 0.333623 0.322637
0.293919 0.326268 0.315068
0.287236 0.318151 0.306981
0.279789 0.309545 0.298344
0.294438 0.315221 0.287724
0.321813 0.327581 0.274479
0.352728 0.339696 0.259068
0.387732 0.351202 0.240879
0.426398 0.361761 0.219577
0.471168 0.373541 0.198245
0.524071 0.387610 0.175967
0.582483 0.401129 0.146517
0.645289 0.413611 0.101656
0.764462 0.464332 0.000000
0.852628 0.514000 0.000000
0.925139 0.563043 0.000000
0.981048 0.609033 0.081025
1.000000 0.650782 0.189792
1.000000 0.689021 0.277562
1.000000 0.725063 0.364691
1.000000 0.759640 0.452735
1.000000 0.792996 0.541711
1.000000 0.810697 0.594568
1.000000 0.815244 0.615808
0.347509 0.377295 0.365362
0.350103 0.379400 0.367285
0.352178 0.380957 0.368627
0.353307 0.381445 0.368902
0.352300 0.380407 0.367651
0.349554 0.377508 0.364691
0.345251 0.372961 0.360052
0.339422 0.367193 0.354101
0.333135 0.360540 0.347417
0.326055 0.353155 0.339879
0.318669 0.344823 0.331456
0.310338 0.335851 0.322362
0.305669 0.328527 0.312444
0.332586 0.341650 0.299992
0.363378 0.355138 0.285161
0.398108 0.368353 0.267796
0.437079 0.381628 0.247745
0.480842 0.394171 0.223850
0.532952 0.411475 0.202976
0.590997 0.429694 0.176577
0.653498 0.448157 0.139101
0.719478 0.466285 0.045655
0.830961 0.520806 0.000000
0.914366 0.574731 0.000000
0.975463 0.623987 0.000000
1.000000 0.667079 0.124483
1.000000 0.705257 0.238987
1.000000 0.740169 0.337316
1.000000 0.772915 0.433143
1.000000 0.804105 0.528344
1.000000 0.833433 0.618738
1.000000 0.858366 0.694118
0.405707 0.424659 0.409125
0.406867 0.425391 0.409918
0.406897 0.425605 0.409888
0.406043 0.424384 0.408789
0.403082 0.421790 0.405982
0.399054 0.417670 0.401892
0.393683 0.412451 0.396582
0.387518 0.406439 0.390448
0.380713 0.399329 0.383154
0.373358 0.391730 0.375433
0.365209 0.383215 0.366644
0.356603 0.373785 0.357153
0.347173 0.363317 0.346654
0.357214 0.365484 0.334661
0.388434 0.380316 0.319707
0.423285 0.395178 0.302586
0.461891 0.409796 0.282109
0.504112 0.424140 0.258305
0.551385 0.440162 0.233890
0.604547 0.459388 0.209598
0.661463 0.479072 0.177218
0.720912 0.498482 0.129976
0.781155 0.515892 0.000000
0.878233 0.566979 0.000000
0.952239 0.618860 0.000000
1.000000 0.664118 0.000000
1.000000 0.703853 0.160342
1.000000 0.739223 0.277440
1.000000 0.771542 0.381262
1.000000 0.801663 0.481758
1.000000 0.830259 0.579065
1.000000 0.856748 0.666987
0.449866 0.461128 0.442847
0.450874 0.461891 0.443641
0.451057 0.461982 0.443641
0.450263 0.461189 0.442603
0.447944 0.458625 0.440101
0.444129 0.454963 0.436286
0.438941 0.449714 0.431006
0.432654 0.443519 0.424628
0.426276 0.436774 0.417700
0.418799 0.428901 0.409705
0.410864 0.420508 0.401038
0.402045 0.410864 0.391272
0.392493 0.400488 0.380713
0.381933 0.388739 0.369146
0.410681 0.403143 0.355383
0.445930 0.419684 0.338750
0.484779 0.436469 0.319188
0.526696 0.453162 0.296300
0.571679 0.469581 0.269444
0.622248 0.490883 0.247013
0.676234 0.513024 0.218509
0.731930 0.534661 0.180789
0.788296 0.555016 0.122621
0.843381 0.572503 0.000000
0.915587 0.608087 0.000000
0.980652 0.656703 0.000000
1.000000 0.698970 0.000000
1.000000 0.735592 0.199283
1.000000 0.768276 0.317845
1.000000 0.798093 0.426215
1.000000 0.826291 0.531090
1.000000 0.852873 0.628443
0.513115 0.515496 0.493050
0.515160 0.517296 0.494667
0.515587 0.517449 0.494850
0.513634 0.515373 0.492744
0.509575 0.511620 0.488899
0.504173 0.506157 0.483650
0.497536 0.499336 0.476814
0.489357 0.491402 0.468757
0.480720 0.482582 0.460060
0.471839 0.473213 0.450599
0.461677 0.462776 0.440009
0.451392 0.451911 0.429084
0.440528 0.440223 0.417212
0.428962 0.427527 0.404517
0.430243 0.423438 0.390295
0.462806 0.439673 0.373419
0.498878 0.456214 0.353979
0.538384 0.473365 0.331884
0.581140 0.490974 0.306462
0.628870 0.512779 0.284581
0.680354 0.536584 0.260288
0.733089 0.559899 0.229282
0.785397 0.581415 0.188083
0.836149 0.600061 0.124636
0.884184 0.614496 0.000000
0.953643 0.654749 0.000000
1.000000 0.697414 0.000000
1.000000 0.734615 0.040345
1.000000 0.767117 0.247898
1.000000 0.796262 0.367163
1.000000 0.823362 0.478431
1.000000 0.849241 0.583978
0.556512 0.555596 0.529595
0.558495 0.557366 0.531243
0.559167 0.558007 0.531731
0.558129 0.556847 0.530541
0.555657 0.554131 0.527764
0.552148 0.549920 0.523735
0.547539 0.544976 0.518639
0.542229 0.538689 0.512413
0.536187 0.531823 0.505333
0.529412 0.524102 0.497353
0.521965 0.515160 0.488350
0.513298 0.505211 0.478096
0.503838 0.493965 0.466651
0.492500 0.481147 0.453681
0.480354 0.467079 0.439643
0.500664 0.475929 0.423163
0.535485 0.493690 0.403876
0.573144 0.512078 0.381933
0.614160 0.531243 0.357244
0.658991 0.553552 0.334752
0.706600 0.578180 0.312840
0.755154 0.602441 0.286320
0.803464 0.625177 0.253178
0.850401 0.645563 0.210117
0.894652 0.662104 0.147005
0.936034 0.674586 0.000000
0.990692 0.706996 0.000000
1.000000 0.743008 0.000000
1.000000 0.775479 0.178042
1.000000 0.803494 0.320958
1.000000 0.828763 0.441077
1.000000 0.852903 0.553979
0.614496 0.612940 0.582391
0.615625 0.614008 0.583368
0.615473 0.613886 0.583093
0.614313 0.612512 0.581598
0.612085 0.609674 0.578759
0.608606 0.605646 0.574640
0.604273 0.600336 0.569268
0.599420 0.594415 0.563226
0.593774 0.587427 0.556054
0.587701 0.579706 0.548028
0.580652 0.570703 0.538903
0.573236 0.560967 0.529076
0.564660 0.550103 0.518029
0.555047 0.537621 0.505516
0.543999 0.523735 0.491585
0.538201 0.513542 0.476387
0.571313 0.532372 0.457649
0.607568 0.552026 0.436378
0.646387 0.572412 0.412512
0.688197 0.595270 0.391516
0.731777 0.619898 0.372107
0.775967 0.644007 0.349279
0.819486 0.666438 0.321691
0.861845 0.686671 0.288121
0.901701 0.703243 0.245701
0.938262 0.715755 0.188937
0.972412 0.724392 0.084993
1.000000 0.748531 0.000000
1.000000 0.777829 0.000000
1.000000 0.805875 0.250919
1.000000 0.830533 0.386542
1.000000 0.853635 0.508659
0.666896 0.668299 0.633875
0.667781 0.669032 0.634546
0.667903 0.669215 0.634607
0.667445 0.668330 0.633692
0.666316 0.666865 0.631983
0.665126 0.665064 0.629938
0.664576 0.663508 0.628107
0.663996 0.661860 0.626093
0.663600 0.660029 0.623682
0.663233 0.658015 0.621057
0.662470 0.655207 0.617395
0.660914 0.651057 0.612512
0.658350 0.645350 0.606043
0.654353 0.637629 0.597498
0.648615 0.627619 0.586816
0.640925 0.614740 0.573388
0.654536 0.619867 0.556603
0.688014 0.640833 0.536095
0.723476 0.661952 0.513054
0.759945 0.684565 0.494697
0.796902 0.707576 0.477790
0.833890 0.729427 0.458198
0.869383 0.748898 0.435218
0.902800 0.765225 0.408576
0.933959 0.777890 0.376684
0.963012 0.787015 0.338384
0.990478 0.792844 0.292027
1.000000 0.795529 0.233158
1.000000 0.808469 0.190616
1.000000 0.826810 0.223087
1.000000 0.848447 0.376867
1.000000 0.868803 0.507836
0.746365 0.756741 0.718685
0.746365 0.756741 0.718624
0.745815 0.756008 0.717952
0.744808 0.754696 0.716426
0.743252 0.752560 0.714168
0.741268 0.749783 0.711208
0.739315 0.746822 0.707881
0.736904 0.743282 0.703914
0.734554 0.739376 0.699519
0.731991 0.735012 0.694636
0.729061 0.729915 0.688869
0.726040 0.724269 0.682460
0.722438 0.717525 0.674891
0.718105 0.709468 0.665949
