20 Preset/Street 2/【3】LUT video cho PR-AE-FCPX/Tone 1 (21).cube
# Created by Adobe Lightroom plugin Export LUT (1.24.0)
# www.johnrellis.com/lightroom/exportlut.htm
# Preset: 青橙风光-素材江湖21
# Color profile: C:\Program Files (x86)\Common Files\Adobe\Color\Profiles\Recommended\VideoHD.icc
LUT_3D_SIZE 8
DOMAIN_MIN 0.000000 0.000000 0.000000
DOMAIN_MAX 0.903226 0.903226 0.903226
0.111482 0.123384 0.099184
0.138369 0.121920 0.099458
0.243870 0.116457 0.100069
0.393256 0.104921 0.102144
0.640345 0.000000 0.085481
0.930785 0.000000 0.000000
1.000000 0.177249 0.000000
1.000000 0.338506 0.000000
0.118715 0.136507 0.105440
0.132692 0.137026 0.103975
0.212284 0.148287 0.109407
0.348577 0.146853 0.108492
0.579797 0.094423 0.095888
0.869444 0.000000 0.000000
1.000000 0.182620 0.000000
1.000000 0.340002 0.000000
0.161440 0.177920 0.125002
0.170077 0.177554 0.122896
0.197147 0.178073 0.117250
0.289555 0.205173 0.130434
0.499489 0.223331 0.122530
0.817777 0.242100 0.018921
1.000000 0.348455 0.000000
1.000000 0.448615 0.000000
0.219883 0.234897 0.153170
0.227237 0.233921 0.151553
0.250645 0.237095 0.144930
0.315221 0.244938 0.131685
0.507256 0.295933 0.135744
0.725704 0.367590 0.145541
0.994293 0.468513 0.000000
1.000000 0.557397 0.000000
0.302190 0.309483 0.184298
0.309178 0.308721 0.182803
0.336095 0.310124 0.176852
0.390173 0.323735 0.162661
0.485023 0.331060 0.134768
0.698817 0.400519 0.115389
0.903044 0.514672 0.140230
1.000000 0.644709 0.226078
0.413489 0.403632 0.219852
0.428199 0.409674 0.220737
0.458564 0.408118 0.214176
0.506249 0.422675 0.200168
0.585016 0.442390 0.170596
0.704616 0.464759 0.107546
0.918517 0.588739 0.059937
1.000000 0.710414 0.275120
0.579644 0.550896 0.281712
0.588617 0.553277 0.281254
0.613062 0.550835 0.273014
0.655573 0.559258 0.259525
0.715969 0.584039 0.230381
0.803555 0.616358 0.178927
0.910582 0.650355 0.008667
1.000000 0.757076 0.260655
0.797513 0.787228 0.449073
0.802121 0.787106 0.447272
0.823606 0.789090 0.442969
0.861936 0.793545 0.437964
0.879362 0.786252 0.388281
0.932036 0.811643 0.373846
0.983886 0.829709 0.369055
1.000000 0.836271 0.383032
0.117922 0.134463 0.113344
0.126711 0.128328 0.113252
0.225010 0.123476 0.103670
0.335332 0.139559 0.106935
0.560357 0.091676 0.097292
0.844480 0.000000 0.000000
1.000000 0.131868 0.000000
1.000000 0.308751 0.000000
0.118257 0.138705 0.112245
0.132113 0.145113 0.117464
0.203983 0.152712 0.115419
0.315099 0.161044 0.112001
0.532341 0.141939 0.102785
0.816037 0.005371 0.009033
1.000000 0.168582 0.000000
1.000000 0.317266 0.000000
0.161746 0.186007 0.138552
0.171084 0.186221 0.136843
0.198062 0.184573 0.128420
0.280858 0.204685 0.133303
0.459480 0.223362 0.126070
0.752560 0.233310 0.074861
1.000000 0.304051 0.000000
1.000000 0.415473 0.000000
0.215854 0.237797 0.161624
0.223117 0.237308 0.159792
0.248936 0.239750 0.153780
0.300420 0.241642 0.140780
0.448768 0.274907 0.140047
0.645350 0.328466 0.145632
0.927245 0.411933 0.000000
1.000000 0.517632 0.000000
0.299077 0.312810 0.192020
0.305089 0.311315 0.189975
0.331487 0.309392 0.183749
0.377935 0.319066 0.169741
0.461067 0.322087 0.145266
0.658656 0.378180 0.125673
0.867124 0.483345 0.134768
1.000000 0.618097 0.196475
0.402045 0.399451 0.224186
0.409216 0.399573 0.222995
0.439460 0.398840 0.217105
0.488441 0.412238 0.205020
0.567773 0.433051 0.179171
0.691096 0.457832 0.126894
0.900908 0.570397 0.044770
1.000000 0.694240 0.251835
0.558221 0.535943 0.280125
0.561486 0.532921 0.276951
0.584985 0.530083 0.268925
0.630213 0.538079 0.257267
0.697047 0.568475 0.233219
0.785214 0.600671 0.185611
0.890074 0.628656 0.027771
1.000000 0.738064 0.226261
0.775967 0.768215 0.432410
0.783963 0.771786 0.434821
0.805295 0.773037 0.429358
0.846616 0.776883 0.424048
0.888182 0.799985 0.413977
0.933379 0.816007 0.388647
0.982116 0.827054 0.362768
1.000000 0.833616 0.375280
0.133944 0.163455 0.148928
0.134035 0.159915 0.148836
0.176455 0.148836 0.151003
0.278325 0.155459 0.155947
0.636042 0.000000 0.131014
0.873350 0.000000 0.074403
1.000000 0.220981 0.000000
1.000000 0.355566 0.000000
0.137636 0.171664 0.149020
0.145663 0.173220 0.153994
0.183780 0.163851 0.157565
0.308202 0.160464 0.159365
0.603571 0.071046 0.137118
0.843137 0.056733 0.091402
1.000000 0.235508 0.000000
1.000000 0.363348 0.000000
0.160159 0.195010 0.159457
0.169711 0.200259 0.164157
0.212985 0.223514 0.184146
0.340856 0.230350 0.176669
0.551873 0.232883 0.160708
0.799527 0.247959 0.116884
1.000000 0.329870 0.000000
1.000000 0.436072 0.000000
0.210910 0.258885 0.193912
0.222385 0.267216 0.198703
0.272892 0.279240 0.204685
0.338598 0.282780 0.191043
0.499550 0.316197 0.193759
0.708064 0.360327 0.179538
0.946502 0.435584 0.082948
1.000000 0.535729 0.000000
0.311376 0.351781 0.239475
0.318761 0.351110 0.237461
0.353368 0.349279 0.229679
0.413977 0.357519 0.216526
0.509483 0.364111 0.193179
0.695796 0.416632 0.185458
0.879362 0.503624 0.182895
1.000000 0.624994 0.207279
0.412024 0.432563 0.267857
0.420172 0.433265 0.266819
0.450721 0.431800 0.259739
0.504936 0.435584 0.247013
0.583886 0.457862 0.225376
0.706874 0.483314 0.187961
0.904570 0.586084 0.175601
1.000000 0.695949 0.253635
0.563714 0.566094 0.325170
0.567620 0.563653 0.322179
0.589960 0.558618 0.312047
0.637263 0.554314 0.297551
0.702693 0.584894 0.277409
0.793668 0.620844 0.242435
0.903014 0.653803 0.178561
1.000000 0.748226 0.245487
0.763729 0.778195 0.467201
0.767300 0.776547 0.463539
0.788907 0.777279 0.457588
0.837675 0.787533 0.456092
0.882475 0.803037 0.446967
0.931121 0.823484 0.431861
0.981415 0.834226 0.402167
1.000000 0.836606 0.384161
0.146029 0.189609 0.184390
0.147799 0.188235 0.185794
0.165530 0.178012 0.190066
0.231144 0.170840 0.194461
0.269749 0.195804 0.187320
0.784207 0.000000 0.210910
1.000000 0.000000 0.145571
1.000000 0.282506 0.000000
0.152865 0.201236 0.189517
0.159243 0.202518 0.193851
0.173220 0.190616 0.198703
0.241184 0.181582 0.202457
0.290440 0.203433 0.196628
0.828031 0.000000 0.207797
1.000000 0.000000 0.149691
1.000000 0.310918 0.000000
0.172763 0.227817 0.200015
0.180026 0.232151 0.204288
0.211551 0.243626 0.225498
0.276707 0.225101 0.231785
0.450141 0.226749 0.244816
0.950530 0.000000 0.231998
1.000000 0.297276 0.183902
1.000000 0.422278 0.067750
0.210086 0.266911 0.224338
0.218570 0.272313 0.229221
0.261997 0.299779 0.255314
0.391028 0.371374 0.327214
0.611688 0.376226 0.306889
0.828977 0.395972 0.276585
1.000000 0.453346 0.229740
1.000000 0.532433 0.168246
0.297185 0.359777 0.287816
0.306462 0.367254 0.292851
0.353552 0.404852 0.317174
0.474647 0.444526 0.344579
0.586084 0.455421 0.323735
0.753292 0.500969 0.327703
0.917266 0.572595 0.333532
1.000000 0.648096 0.303502
0.415015 0.494911 0.355840
0.437934 0.508476 0.368750
0.489815 0.522362 0.381018
0.553704 0.517998 0.361700
0.638941 0.534173 0.341588
0.754849 0.556481 0.314366
0.922454 0.638392 0.327794
1.000000 0.726955 0.390814
0.562799 0.621546 0.420233
0.569909 0.622492 0.419104
0.597772 0.622339 0.411414
0.653590 0.621576 0.395636
0.726467 0.633509 0.375677
0.814145 0.669276 0.352544
0.916716 0.695766 0.314580
1.000000 0.773861 0.379858
0.746731 0.808377 0.550378
0.751583 0.808103 0.548516
0.773251 0.808072 0.541650
0.817441 0.810361 0.531243
0.874022 0.813748 0.516045
0.923430 0.835325 0.506859
0.975219 0.847898 0.488533
1.000000 0.848295 0.455116
0.158328 0.221103 0.226749
0.161837 0.221225 0.229831
0.168887 0.210117 0.232700
0.209354 0.198489 0.236118
0.287236 0.186099 0.238834
0.328557 0.209110 0.225132
0.736660 0.000000 0.300816
1.000000 0.000000 0.276310
0.164920 0.230838 0.233188
0.169772 0.232029 0.237644
0.177829 0.221866 0.241764
0.215183 0.206729 0.243687
0.296513 0.193393 0.246433
0.338170 0.215793 0.230961
0.771511 0.000000 0.310338
1.000000 0.000000 0.285313
0.182650 0.259556 0.247868
0.187442 0.261112 0.251682
0.209689 0.265843 0.269352
0.238010 0.242863 0.275334
0.335058 0.225223 0.277623
0.374823 0.246250 0.254246
0.903807 0.000000 0.341711
1.000000 0.222873 0.321782
0.210025 0.296727 0.269688
0.216587 0.301122 0.274449
0.249088 0.322545 0.298039
0.330724 0.358648 0.356695
0.442878 0.322911 0.365850
0.616815 0.331182 0.369665
1.000000 0.361791 0.415015
1.000000 0.481483 0.362219
0.267796 0.354894 0.310124
0.277195 0.361181 0.316503
0.320745 0.388647 0.344640
0.430182 0.454780 0.414069
0.627100 0.584253 0.551293
0.825925 0.586206 0.514336
0.988647 0.608942 0.471839
1.000000 0.645411 0.427253
0.379797 0.444984 0.381231
0.388678 0.452277 0.387579
0.424109 0.480751 0.410437
0.504356 0.547478 0.460853
0.646387 0.608453 0.505669
0.774777 0.642847 0.500755
0.918029 0.700771 0.517144
1.000000 0.764248 0.557092
0.470253 0.611780 0.459998
0.475563 0.615686 0.460853
0.512963 0.637720 0.475715
0.629114 0.689754 0.537743
0.713100 0.686519 0.508904
0.808225 0.711421 0.489357
0.910979 0.736629 0.469123
1.000000 0.794339 0.515465
0.665522 0.807584 0.603479
0.675959 0.810117 0.608820
0.708064 0.815274 0.616205
0.760555 0.823758 0.614862
0.830076 0.826047 0.597284
0.899290 0.838621 0.585046
0.956329 0.856046 0.577691
1.000000 0.857389 0.553460
0.168246 0.265019 0.295293
0.172305 0.265476 0.298741
0.178653 0.253178 0.297337
0.196750 0.230900 0.296361
0.264164 0.215183 0.294224
0.349432 0.194827 0.289006
0.396185 0.216281 0.270176
0.673945 0.184329 0.341711
0.172183 0.268437 0.293950
0.175906 0.268315 0.296544
0.183841 0.259220 0.298772
0.198764 0.235447 0.298314
0.265385 0.219272 0.295537
0.352453 0.199008 0.291417
0.398993 0.220493 0.272221
0.690303 0.181857 0.347082
0.185458 0.295323 0.310765
0.189639 0.295872 0.313878
0.208652 0.297765 0.328649
0.220768 0.270390 0.328893
0.286290 0.246220 0.325170
0.389105 0.221805 0.321080
0.437079 0.244205 0.295720
0.813474 0.174807 0.400549
0.213077 0.345159 0.339483
0.218479 0.347662 0.342382
0.242374 0.355474 0.359808
0.299168 0.369818 0.403693
0.347906 0.324498 0.407385
0.487037 0.289158 0.402075
0.526940 0.308019 0.355138
1.000000 0.274784 0.513664
0.252903 0.384710 0.363653
0.259525 0.388403 0.367956
0.290257 0.406348 0.388190
0.363653 0.449134 0.437507
0.496468 0.509545 0.531090
0.627466 0.452918 0.535119
0.774411 0.457282 0.516655
1.000000 0.596551 0.623163
0.328466 0.451148 0.409949
0.338750 0.458503 0.417609
0.374548 0.480049 0.440345
0.455329 0.529503 0.493019
0.597101 0.627314 0.596521
0.804807 0.800198 0.775540
0.939940 0.800504 0.745663
1.000000 0.802304 0.707301
0.461402 0.569116 0.507317
0.471290 0.576379 0.514794
0.505821 0.599054 0.538598
0.568566 0.651148 0.586511
0.666987 0.741634 0.659541
0.809262 0.804990 0.713741
0.902800 0.824308 0.708492
0.981384 0.853300 0.730526
0.564599 0.768582 0.631617
0.567437 0.770077 0.631220
0.587610 0.783536 0.637354
0.637140 0.816068 0.656062
0.767666 0.855406 0.726375
0.855406 0.858122 0.708034
0.929259 0.875547 0.707362
0.987793 0.881895 0.704067
0.162875 0.338811 0.419257
0.168429 0.339269 0.423407
0.178470 0.325017 0.419837
0.193790 0.293950 0.413214
0.252445 0.260929 0.397894
0.340063 0.227512 0.374609
0.425330 0.193576 0.350988
0.472267 0.213809 0.323552
0.167788 0.336645 0.409247
0.171939 0.337713 0.414099
0.184237 0.326329 0.413611
0.197665 0.295232 0.405463
0.249699 0.261631 0.390845
0.334600 0.229099 0.368231
0.419013 0.196475 0.345678
0.463813 0.216190 0.318242
0.179019 0.362463 0.424903
0.184024 0.361486 0.426429
0.204349 0.355962 0.431403
0.218906 0.326543 0.426551
0.256718 0.282414 0.410986
0.349706 0.247227 0.389349
0.448768 0.210483 0.370123
0.502464 0.232425 0.342473
0.202762 0.409277 0.448371
0.207126 0.407172 0.447761
0.227481 0.403113 0.452918
0.271702 0.398505 0.473274
0.284581 0.340124 0.464271
0.389105 0.294621 0.444190
0.512627 0.247532 0.423621
0.566094 0.271244 0.384009
0.237400 0.447578 0.458503
0.241764 0.447059 0.458167
0.263432 0.452491 0.465736
0.307591 0.464576 0.489143
0.387976 0.469917 0.536004
0.444434 0.390723 0.524559
0.602686 0.331212 0.504387
0.652186 0.348791 0.445167
0.287083 0.492714 0.483131
0.292851 0.495308 0.486244
0.316686 0.505943 0.498665
0.367651 0.529931 0.526818
0.460517 0.577142 0.582208
0.617548 0.650172 0.691859
0.765560 0.568841 0.688289
0.898436 0.571710 0.651484
0.370825 0.568231 0.533776
0.377966 0.572717 0.538506
0.404059 0.585809 0.552422
0.461006 0.617548 0.586053
0.561852 0.677882 0.649470
0.727474 0.786831 0.762234
0.901122 0.911131 0.894469
0.975158 0.905211 0.874388
0.508019 0.707149 0.646265
0.515282 0.711360 0.650690
0.547295 0.730983 0.671351
0.605585 0.762051 0.704829
0.691096 0.809506 0.754757
0.790494 0.871733 0.809964
0.898253 0.908080 0.850187
0.959380 0.920867 0.857359
0.204318 0.523247 0.690730
0.213840 0.522210 0.693202
0.221592 0.498848 0.683101
0.233555 0.454688 0.672938
0.256138 0.377050 0.652247
0.400427 0.322026 0.613275
0.520714 0.244480 0.563439
0.601984 0.166171 0.502464
0.197604 0.515953 0.676112
0.207736 0.515465 0.679072
0.223697 0.497322 0.674250
0.233738 0.453193 0.662562
0.250706 0.375860 0.642298
0.392523 0.321508 0.603998
0.509850 0.245518 0.552361
0.589990 0.171084 0.491737
0.207950 0.530449 0.672145
0.215152 0.528466 0.672969
0.240177 0.514336 0.670161
0.262211 0.482063 0.670863
0.271153 0.403082 0.647700
0.387488 0.335973 0.607080
0.510369 0.259464 0.557549
0.598138 0.182712 0.498848
0.225406 0.564019 0.673121
0.232853 0.563409 0.675105
0.256291 0.552636 0.674739
0.304021 0.533684 0.680751
0.314733 0.464179 0.666285
0.387976 0.375128 0.633173
0.525139 0.293095 0.585077
0.629053 0.207492 0.526970
0.256107 0.612573 0.674983
0.261326 0.612787 0.677394
0.274784 0.603418 0.676692
0.314702 0.588983 0.682002
0.378424 0.558251 0.690486
0.379675 0.442084 0.666773
0.536889 0.351934 0.621912
0.672541 0.255436 0.568597
0.295048 0.644312 0.680232
0.296849 0.642023 0.678157
0.310155 0.637812 0.675288
0.343664 0.638819 0.680110
0.400183 0.643885 0.697169
0.499611 0.626123 0.735317
0.579706 0.491188 0.717220
0.768704 0.373541 0.670130
0.361669 0.701228 0.708400
0.364935 0.700893 0.708278
0.378851 0.700801 0.708919
0.413581 0.706905 0.716884
0.473091 0.720394 0.733639
0.571984 0.750637 0.768215
0.729244 0.790616 0.832731
0.872160 0.666255 0.814511
0.477485 0.785641 0.760067
0.480140 0.785672 0.760128
0.496681 0.788846 0.763455
0.535271 0.799161 0.774105
0.598322 0.815824 0.791348
0.697261 0.844053 0.821012
0.837003 0.895354 0.876707
0.958038 0.964782 0.957061
