20 Preset/Street 2/【3】LUT video cho PR-AE-FCPX/Tone 1 (26).cube
# Created by Adobe Lightroom plugin Export LUT (1.24.0)
# www.johnrellis.com/lightroom/exportlut.htm
# Preset: 青橙风光-素材江湖26
# Color profile: C:\Program Files (x86)\Common Files\Adobe\Color\Profiles\Recommended\VideoHD.icc
LUT_3D_SIZE 8
DOMAIN_MIN 0.000000 0.000000 0.000000
DOMAIN_MAX 0.903226 0.903226 0.903226
0.056580 0.096407 0.101076
0.099794 0.100679 0.106752
0.156100 0.111147 0.119966
0.219974 0.117556 0.130220
0.305394 0.117128 0.140505
0.453498 0.074647 0.151949
0.716335 0.000000 0.165774
0.993103 0.000000 0.186343
0.077485 0.112367 0.117525
0.093690 0.114046 0.111604
0.152193 0.125277 0.124086
0.222293 0.129366 0.133181
0.312230 0.128511 0.142702
0.456123 0.099947 0.153262
0.679744 0.000000 0.164675
0.956329 0.000000 0.182162
0.108034 0.148287 0.153109
0.107271 0.145480 0.149752
0.144411 0.151217 0.127749
0.266361 0.185245 0.150576
0.416266 0.185550 0.160189
0.611933 0.151247 0.166995
0.846891 0.046265 0.176181
1.000000 0.164096 0.201816
0.152163 0.199527 0.201755
0.150027 0.196292 0.198276
0.156771 0.192752 0.183627
0.246342 0.215488 0.145785
0.558801 0.295933 0.152895
0.870359 0.402716 0.202701
0.994141 0.398779 0.209964
1.000000 0.436652 0.252598
0.226322 0.273350 0.269749
0.222385 0.268528 0.264897
0.210330 0.252659 0.248753
0.256352 0.266880 0.215274
0.404822 0.301915 0.153994
0.770993 0.422858 0.101564
1.000000 0.611231 0.274601
1.000000 0.665705 0.390997
0.347509 0.377295 0.365362
0.352300 0.380407 0.367651
0.333135 0.360540 0.347417
0.305669 0.328527 0.312444
0.437079 0.381628 0.247745
0.653498 0.448157 0.139101
0.975463 0.623987 0.000000
1.000000 0.772915 0.433143
0.556512 0.555596 0.529595
0.555657 0.554131 0.527764
0.536187 0.531823 0.505333
0.503838 0.493965 0.466651
0.535485 0.493690 0.403876
0.706600 0.578180 0.312840
0.894652 0.662104 0.147005
1.000000 0.775479 0.178042
0.796231 0.812711 0.775296
0.794644 0.810483 0.772671
0.790066 0.802884 0.763302
0.783688 0.789334 0.746365
0.736965 0.720882 0.673182
0.832883 0.786435 0.630396
0.938476 0.844785 0.571466
1.000000 0.861357 0.448219
0.068849 0.113436 0.121736
0.081849 0.108309 0.117983
0.147585 0.112337 0.119753
0.210300 0.123903 0.130587
0.297826 0.125734 0.140902
0.428473 0.103731 0.151278
0.633814 0.000000 0.162112
0.905272 0.000000 0.177218
0.074708 0.117372 0.123140
0.089937 0.122683 0.129305
0.146365 0.127810 0.127901
0.217319 0.134676 0.134127
0.311650 0.135622 0.143893
0.447242 0.112886 0.153414
0.635309 0.000000 0.162966
0.888640 0.000000 0.176242
0.113893 0.156466 0.162112
0.115114 0.156802 0.162081
0.144747 0.156100 0.138064
0.249882 0.179690 0.147189
0.394049 0.187015 0.159457
0.564874 0.160616 0.165225
0.758694 0.078981 0.171756
0.983276 0.006439 0.187808
0.157076 0.205356 0.208316
0.155032 0.201968 0.204807
0.154330 0.194034 0.191287
0.229038 0.207187 0.149355
0.464302 0.261692 0.153109
0.773342 0.343542 0.191653
0.917266 0.336339 0.192630
1.000000 0.373816 0.219791
0.232853 0.279789 0.276890
0.227451 0.274022 0.271031
0.212985 0.256260 0.252995
0.246006 0.262089 0.218875
0.369757 0.282841 0.153353
0.716793 0.387976 0.116823
0.997711 0.574823 0.246830
1.000000 0.635157 0.354681
0.343664 0.374578 0.363897
0.339513 0.370520 0.359655
0.321782 0.352239 0.340826
0.294285 0.320623 0.308812
0.417212 0.370581 0.249912
0.628962 0.430579 0.141115
0.959930 0.604700 0.000000
1.000000 0.758267 0.406928
0.538201 0.539055 0.515557
0.530022 0.530724 0.507378
0.509392 0.508537 0.485023
0.479164 0.474006 0.449348
0.509453 0.474495 0.395453
0.679225 0.553094 0.298894
0.869505 0.633875 0.132540
1.000000 0.756191 0.124727
0.780484 0.795834 0.758206
0.782071 0.796963 0.759091
0.776089 0.787716 0.748074
0.768978 0.773159 0.730343
0.755764 0.743832 0.696407
0.835904 0.790433 0.635462
0.936339 0.841184 0.564446
1.000000 0.858213 0.438697
0.088289 0.146670 0.162478
0.095674 0.141329 0.158053
0.113283 0.131228 0.150790
0.206760 0.120180 0.154849
0.293156 0.126925 0.148531
0.463325 0.110811 0.154574
0.688136 0.000000 0.165713
0.950469 0.000000 0.181765
0.090455 0.155734 0.169375
0.101350 0.153140 0.168154
0.120180 0.143801 0.161135
0.212680 0.130861 0.158541
0.305211 0.137545 0.153750
0.480018 0.123018 0.156710
0.687160 0.000000 0.166354
0.939025 0.000000 0.180972
0.108614 0.172305 0.178683
0.116548 0.176699 0.183169
0.151003 0.195224 0.202609
0.253086 0.193637 0.190860
0.395087 0.190066 0.178714
0.599268 0.175235 0.168002
0.793240 0.124331 0.174258
0.999451 0.130861 0.190707
0.179110 0.227024 0.232731
0.185580 0.233677 0.238865
0.199161 0.245151 0.248295
0.266789 0.248966 0.200961
0.526635 0.300420 0.204868
0.794888 0.362005 0.202090
0.944091 0.366979 0.198734
1.000000 0.401556 0.230289
0.280705 0.323583 0.322515
0.286687 0.327733 0.326390
0.273564 0.313329 0.310643
0.270787 0.294469 0.269841
0.425605 0.325109 0.195468
0.743374 0.409644 0.146639
1.000000 0.580163 0.248386
1.000000 0.642786 0.362890
0.411597 0.430793 0.422156
0.406775 0.426490 0.417456
0.382666 0.403662 0.393622
0.341772 0.362554 0.351171
0.430915 0.391424 0.290196
0.639918 0.444099 0.173739
0.956115 0.599207 0.000000
1.000000 0.760616 0.413397
0.592248 0.592554 0.569635
0.584527 0.584436 0.561425
0.559533 0.556970 0.533959
0.521935 0.514275 0.490517
0.509026 0.483009 0.431403
0.685603 0.567956 0.334722
0.876982 0.639429 0.127291
1.000000 0.767269 0.165621
0.796384 0.814664 0.780301
0.793179 0.810697 0.775845
0.786252 0.801022 0.764401
0.781582 0.790372 0.750484
0.766415 0.760189 0.715328
0.833951 0.793362 0.651148
0.938170 0.844083 0.569787
1.000000 0.861112 0.445197
0.104524 0.186160 0.212375
0.111788 0.181857 0.209171
0.131472 0.173281 0.193759
0.153384 0.159396 0.190738
0.275364 0.126467 0.202090
0.379736 0.077852 0.173648
0.579248 0.000000 0.171450
0.916655 0.000000 0.178683
0.112001 0.197971 0.223636
0.119417 0.193820 0.220554
0.139590 0.184329 0.206363
0.162081 0.169375 0.200504
0.286564 0.133333 0.207095
0.389624 0.084932 0.173861
0.602045 0.000000 0.175051
0.929259 0.000000 0.180209
0.080232 0.235233 0.246799
0.098116 0.237827 0.250736
0.164401 0.231052 0.253452
0.195346 0.209079 0.236484
0.337987 0.165805 0.225681
0.460060 0.143069 0.197055
0.748745 0.026551 0.196597
1.000000 0.166812 0.194308
0.158907 0.264012 0.267521
0.167330 0.268498 0.272068
0.209995 0.291752 0.295903
0.324804 0.349981 0.356909
0.506310 0.321080 0.312474
0.689265 0.298802 0.273442
0.892546 0.313695 0.239628
1.000000 0.397803 0.228519
0.335973 0.361303 0.367468
0.341314 0.366064 0.371893
0.371344 0.392004 0.396063
0.407874 0.419165 0.418433
0.526940 0.423743 0.322759
0.829679 0.523857 0.347967
1.000000 0.638758 0.411353
1.000000 0.643519 0.365850
0.485542 0.492439 0.488106
0.499672 0.505058 0.499641
0.516594 0.518669 0.511467
0.500084 0.498024 0.488533
0.489296 0.461006 0.405493
0.706996 0.521141 0.286900
0.977203 0.648920 0.255772
1.000000 0.765896 0.431312
0.653620 0.658747 0.638331
0.657618 0.662287 0.641657
0.667781 0.670161 0.648554
0.629389 0.624262 0.600763
0.569696 0.549798 0.525170
0.707149 0.613916 0.431220
0.894957 0.673884 0.247868
1.000000 0.774289 0.201450
0.836759 0.858518 0.830716
0.835111 0.856565 0.828397
0.827634 0.848020 0.818143
0.815091 0.831693 0.798459
0.795956 0.801572 0.762570
0.820523 0.798489 0.705440
0.935363 0.849424 0.598688
1.000000 0.865324 0.454383
0.128450 0.243351 0.287877
0.136782 0.238743 0.284154
0.157687 0.222995 0.267094
0.179477 0.216709 0.239017
0.205417 0.188327 0.237095
0.367010 0.126101 0.262760
0.529412 0.000000 0.237278
0.766629 0.000000 0.196597
0.136049 0.254948 0.299657
0.144350 0.251835 0.297520
0.166262 0.235874 0.281224
0.187991 0.225223 0.248905
0.213657 0.195865 0.245151
0.380835 0.129000 0.268498
0.537041 0.000000 0.237675
0.767971 0.000000 0.197971
0.125917 0.306065 0.341192
0.147555 0.305516 0.342840
0.191318 0.286229 0.329564
0.222873 0.261021 0.291386
0.250797 0.228977 0.279545
0.428717 0.147066 0.287175
0.559442 0.000000 0.235294
0.772183 0.000000 0.203769
0.088930 0.363806 0.374182
0.108248 0.367895 0.378668
0.172396 0.388281 0.401251
0.324163 0.380255 0.415625
0.366125 0.330449 0.377722
0.539605 0.218997 0.330663
0.631312 0.130983 0.247044
0.951110 0.129274 0.248905
0.262211 0.407080 0.405066
0.274022 0.412726 0.410834
0.323613 0.436133 0.434791
0.431495 0.489021 0.489296
0.600793 0.583246 0.584741
0.758816 0.520043 0.498146
0.918517 0.488960 0.422370
1.000000 0.525383 0.376532
0.512047 0.505699 0.509606
0.523552 0.513024 0.517296
0.543969 0.531029 0.534569
0.580407 0.569482 0.568933
0.608942 0.595819 0.588006
0.746059 0.618280 0.483925
0.971191 0.737453 0.554223
1.000000 0.823697 0.664698
0.679500 0.679805 0.668391
0.678859 0.679561 0.667781
0.682704 0.685054 0.671290
0.703822 0.709468 0.691096
0.690608 0.686641 0.665309
0.691432 0.644038 0.555962
0.894957 0.713130 0.411719
1.000000 0.795468 0.420966
0.823758 0.847684 0.822171
0.824491 0.848264 0.822629
0.828672 0.851713 0.825956
0.844846 0.865782 0.840238
0.827298 0.843595 0.813504
0.797879 0.796109 0.757504
0.909239 0.850340 0.670405
1.000000 0.860594 0.472663
0.189792 0.353338 0.432685
0.198886 0.347204 0.427771
0.220584 0.320867 0.401404
0.250980 0.295323 0.360204
0.253666 0.279973 0.303624
0.290166 0.225010 0.305882
0.506279 0.099275 0.350713
0.805814 0.000000 0.372168
0.190982 0.351202 0.426764
0.197940 0.345464 0.421576
0.220401 0.323827 0.400824
0.249729 0.296910 0.361334
0.255863 0.281743 0.305913
0.290715 0.227787 0.306798
0.502617 0.108339 0.348241
0.790005 0.000000 0.362432
0.222538 0.415656 0.480842
0.230106 0.408057 0.475135
0.256596 0.380835 0.453895
0.281224 0.336797 0.409155
0.297154 0.314855 0.344945
0.329076 0.256291 0.338689
0.553368 0.119722 0.372595
0.811917 0.000000 0.361456
0.129915 0.511131 0.540368
0.174472 0.506828 0.539117
0.290288 0.498238 0.542504
0.387762 0.465919 0.529747
0.415259 0.410986 0.455451
0.439765 0.339757 0.426947
0.674372 0.165866 0.431739
0.872618 0.000000 0.359533
0.245853 0.549889 0.552361
0.257633 0.552544 0.555291
0.306371 0.566552 0.570367
0.398810 0.599329 0.606043
0.560540 0.584741 0.621393
0.593439 0.500725 0.560418
0.766537 0.299443 0.467597
0.895171 0.000000 0.314092
0.425513 0.586236 0.575067
0.438361 0.594507 0.583032
0.473091 0.609735 0.598474
0.544060 0.643671 0.632715
0.654200 0.704402 0.693202
0.803738 0.808743 0.795377
0.921386 0.744808 0.706386
1.000000 0.717067 0.627619
0.693111 0.714961 0.702052
0.702205 0.722133 0.709285
0.729030 0.740627 0.728359
0.775479 0.775998 0.764584
0.796201 0.804898 0.789853
0.800443 0.808621 0.788449
0.899382 0.812772 0.678096
1.000000 0.877409 0.757809
0.844144 0.860746 0.843198
0.843565 0.860288 0.842649
0.845487 0.863096 0.844846
0.852934 0.872221 0.852750
0.862638 0.883330 0.861723
0.855924 0.872099 0.846860
0.874327 0.858640 0.775784
1.000000 0.882811 0.644709
0.373907 0.544945 0.650752
0.382269 0.541222 0.649470
0.394232 0.508995 0.624994
0.409583 0.458320 0.579339
0.432471 0.420356 0.504997
0.382055 0.382086 0.404669
0.423651 0.271092 0.405371
0.684321 0.000000 0.474647
0.359136 0.525231 0.630854
0.368719 0.523949 0.631525
0.381811 0.497505 0.610742
0.396338 0.450080 0.566766
0.417548 0.410712 0.493690
0.369451 0.372381 0.395148
0.407477 0.267338 0.393805
0.655299 0.000000 0.455116
0.395666 0.580713 0.670130
0.399145 0.574060 0.665705
0.409216 0.542718 0.642847
0.424537 0.489601 0.599207
0.441199 0.436866 0.523796
0.403296 0.396521 0.423438
0.444404 0.292210 0.422675
0.712917 0.000000 0.490120
0.401404 0.664546 0.718288
0.411383 0.658259 0.714504
0.458381 0.641688 0.706722
0.485786 0.586389 0.671962
0.497719 0.507347 0.601923
0.487770 0.460639 0.497017
0.518975 0.349554 0.482033
0.789578 0.110903 0.535882
0.306828 0.731472 0.734981
0.309239 0.728389 0.732662
0.355535 0.722133 0.731838
0.482094 0.698177 0.730037
0.574426 0.639460 0.701595
0.584894 0.552819 0.600427
0.604150 0.442664 0.556634
0.879118 0.221408 0.583246
0.447059 0.750515 0.737972
0.453681 0.752193 0.739803
0.478737 0.757900 0.746181
0.527276 0.770016 0.760037
0.602167 0.789822 0.782956
0.735317 0.770047 0.790494
0.763394 0.670649 0.725673
0.964385 0.410132 0.618097
0.603662 0.785275 0.760525
0.610498 0.788418 0.763668
0.629511 0.794186 0.769986
0.670039 0.807828 0.784634
0.731838 0.829374 0.808011
0.815702 0.865965 0.847562
0.909758 0.921599 0.908690
0.979400 0.878294 0.846525
0.809628 0.858579 0.836912
0.813474 0.860685 0.839292
0.830655 0.870848 0.850584
0.856992 0.885466 0.867399
0.891508 0.905547 0.891142
0.906310 0.920439 0.906493
0.906737 0.920562 0.903502
0.973236 0.924529 0.841581
0.683864 0.809415 0.865812
0.686641 0.807431 0.865263
0.682307 0.786526 0.854734
0.686641 0.753536 0.838102
0.692134 0.702785 0.802152
0.694911 0.652644 0.725795
0.619776 0.593744 0.602808
0.685206 0.386084 0.608820
0.670710 0.797940 0.858701
0.674128 0.796139 0.858305
0.673640 0.777676 0.849332
0.676356 0.742519 0.831113
0.681636 0.690455 0.792813
0.684688 0.641444 0.716121
0.608179 0.581231 0.591913
0.668299 0.377173 0.594507
0.672908 0.803616 0.859739
0.673823 0.800381 0.858305
0.671839 0.782010 0.849027
0.683558 0.756649 0.837034
0.681483 0.700160 0.800443
0.686763 0.648463 0.724239
0.618463 0.588281 0.602289
0.674128 0.389746 0.600732
0.683925 0.837247 0.871641
0.690150 0.836728 0.871794
0.691188 0.822232 0.864836
0.696010 0.793332 0.851347
0.698024 0.740597 0.821927
0.706386 0.682826 0.757717
0.655756 0.621271 0.640528
0.703334 0.428687 0.629114
0.641169 0.869566 0.878843
0.648768 0.868956 0.879362
0.665766 0.860502 0.876463
0.706905 0.846799 0.872435
0.719966 0.802731 0.850645
0.719722 0.727291 0.799435
0.699397 0.663386 0.691188
0.737270 0.486427 0.665217
0.637324 0.894133 0.881621
0.635279 0.892973 0.880644
0.635157 0.890471 0.879118
0.648371 0.889525 0.880217
0.712184 0.872770 0.878935
0.773556 0.835142 0.864378
0.782101 0.768093 0.796506
0.809354 0.621210 0.749752
0.714839 0.906249 0.886687
0.715541 0.906004 0.886564
0.719844 0.905608 0.886656
0.734188 0.906828 0.889189
0.758328 0.909545 0.894102
0.795621 0.915038 0.903410
0.862486 0.896666 0.901701
0.875181 0.816831 0.851591
0.803922 0.921569 0.899413
0.804654 0.921477 0.899382
0.810452 0.922362 0.900694
0.824704 0.925383 0.904875
0.845914 0.929870 0.911131
0.875517 0.936980 0.920928
0.918273 0.951019 0.939269
0.976135 0.980377 0.976165
