20 Preset/Street 2/【3】LUT video cho PR-AE-FCPX/Tone 1 (25).cube
# Created by Adobe Lightroom plugin Export LUT (1.24.0)
# www.johnrellis.com/lightroom/exportlut.htm
# Preset: 青橙风光-素材江湖25
# Color profile: C:\Program Files (x86)\Common Files\Adobe\Color\Profiles\Recommended\VideoHD.icc
LUT_3D_SIZE 8
DOMAIN_MIN 0.000000 0.000000 0.000000
DOMAIN_MAX 0.903226 0.903226 0.903226
0.087373 0.120455 0.126711
0.123079 0.124727 0.132601
0.199496 0.138918 0.150607
0.272953 0.150301 0.164858
0.357946 0.158145 0.179202
0.483253 0.155734 0.195193
0.691157 0.117891 0.216587
0.929259 0.094942 0.243748
0.100893 0.139834 0.145449
0.115999 0.142489 0.139254
0.191348 0.156252 0.155093
0.270298 0.163668 0.167971
0.358099 0.169711 0.181704
0.480354 0.167971 0.196567
0.657649 0.145235 0.214420
0.891569 0.123354 0.239322
0.142367 0.189242 0.191043
0.143160 0.186435 0.187198
0.188235 0.192172 0.163119
0.297490 0.219364 0.187716
0.418219 0.225284 0.201968
0.578180 0.221988 0.215091
0.776852 0.221286 0.232486
0.980011 0.265568 0.259312
0.201999 0.251194 0.247837
0.200259 0.247501 0.243565
0.211826 0.245335 0.230106
0.309209 0.266575 0.193362
0.539574 0.321172 0.211917
0.758663 0.386267 0.258976
0.898741 0.394110 0.266575
1.000000 0.435767 0.294224
0.286229 0.328649 0.316320
0.283299 0.324498 0.311925
0.276860 0.310918 0.297063
0.328527 0.327245 0.272129
0.472511 0.356542 0.216434
0.735592 0.435187 0.212222
0.937713 0.547356 0.294865
1.000000 0.619165 0.374517
0.399756 0.424262 0.399969
0.405310 0.427466 0.401953
0.394110 0.411597 0.384924
0.380224 0.384863 0.355261
0.502647 0.437995 0.315557
0.685847 0.491615 0.233951
0.943023 0.621088 0.216983
1.000000 0.725734 0.397528
0.563806 0.571038 0.527550
0.563928 0.569726 0.525628
0.552361 0.551965 0.506889
0.535241 0.521569 0.474556
0.570031 0.524163 0.432288
0.716823 0.597864 0.371496
0.885985 0.672297 0.280491
1.000000 0.765896 0.301122
0.756985 0.779782 0.719112
0.755612 0.777340 0.715938
0.752468 0.768673 0.704402
0.749233 0.752621 0.682856
0.715297 0.689693 0.613642
0.809110 0.749325 0.572625
0.917205 0.812375 0.526970
1.000000 0.838712 0.454566
0.095125 0.140932 0.151308
0.104768 0.134829 0.145998
0.188968 0.140597 0.149844
0.260380 0.157717 0.164950
0.347509 0.166445 0.179416
0.461463 0.166110 0.193973
0.624689 0.144961 0.210788
0.847196 0.096895 0.233310
0.098116 0.146212 0.152865
0.113741 0.153567 0.160800
0.185611 0.160525 0.160708
0.263920 0.170199 0.169100
0.355261 0.177127 0.182986
0.471778 0.175753 0.196689
0.621424 0.159182 0.211521
0.829557 0.126833 0.232212
0.150149 0.198672 0.202853
0.152682 0.199588 0.202823
0.188815 0.199680 0.178927
0.285740 0.215518 0.184756
0.402899 0.226139 0.200839
0.542046 0.222568 0.212100
0.702296 0.214176 0.225162
0.907927 0.230838 0.246616
0.206699 0.256321 0.254887
0.205264 0.253513 0.251377
0.209659 0.246738 0.238468
0.292393 0.262272 0.202487
0.468421 0.292882 0.205112
0.672480 0.345617 0.246647
0.817075 0.348669 0.252445
0.974884 0.384649 0.273045
0.291814 0.334264 0.323491
0.287602 0.329198 0.318120
0.278630 0.313970 0.301671
0.317235 0.321752 0.275059
0.446509 0.345556 0.223178
0.689052 0.406561 0.210697
0.902251 0.514244 0.281437
1.000000 0.589227 0.351232
0.395941 0.421729 0.399664
0.393439 0.418341 0.395941
0.383398 0.403876 0.380072
0.369299 0.377966 0.352453
0.484749 0.427863 0.316655
0.669490 0.481331 0.239475
0.926940 0.603418 0.212619
1.000000 0.710079 0.380041
0.549554 0.557916 0.517784
0.543816 0.551202 0.511101
0.531518 0.533623 0.492470
0.515953 0.506004 0.462684
0.550011 0.508934 0.426032
0.696590 0.581598 0.369024
0.863828 0.648127 0.269718
1.000000 0.748104 0.280125
0.742763 0.764858 0.705257
0.744259 0.765499 0.705135
0.740139 0.755673 0.692561
0.736446 0.739437 0.671015
0.730556 0.708614 0.632593
0.811063 0.753750 0.581872
0.914702 0.808774 0.521782
1.000000 0.835996 0.448951
0.113558 0.184909 0.204410
0.124147 0.178073 0.199161
0.149264 0.168399 0.191318
0.262364 0.158511 0.197391
0.349371 0.170962 0.193149
0.488136 0.178592 0.199374
0.666712 0.162081 0.216678
0.889342 0.143526 0.239811
0.119112 0.197147 0.212772
0.134585 0.193668 0.211521
0.159548 0.184604 0.204074
0.267765 0.172641 0.203006
0.356481 0.183261 0.199130
0.494240 0.188815 0.203006
0.661646 0.175265 0.217380
0.876249 0.161990 0.238987
0.147463 0.219242 0.224857
0.157656 0.224155 0.229953
0.199588 0.243381 0.250584
0.297917 0.239963 0.238499
0.414862 0.236515 0.227390
0.564355 0.235203 0.221256
0.730983 0.233646 0.229831
0.925536 0.253849 0.250553
0.232120 0.278630 0.282841
0.238956 0.285435 0.288701
0.256962 0.298222 0.297978
0.329320 0.305669 0.262394
0.514916 0.334356 0.265263
0.692988 0.361059 0.266758
0.846098 0.372686 0.258701
0.994873 0.408789 0.280735
0.335637 0.373480 0.366827
0.341650 0.377203 0.370245
0.335485 0.366705 0.357061
0.343206 0.352941 0.324285
0.493965 0.388128 0.273838
0.718654 0.437171 0.255406
0.907988 0.520226 0.282322
1.000000 0.598444 0.357671
0.450324 0.469429 0.451057
0.447608 0.466194 0.447272
0.432441 0.448432 0.427558
0.409522 0.415778 0.392187
0.495369 0.446509 0.354192
0.684474 0.504936 0.285374
0.924285 0.603388 0.231632
1.000000 0.712612 0.383856
0.591913 0.603021 0.565087
0.586511 0.596521 0.558373
0.569940 0.574517 0.535546
0.548089 0.540551 0.499336
0.549798 0.516381 0.454353
0.702205 0.597406 0.404852
0.874235 0.663142 0.296117
1.000000 0.758022 0.294499
0.758114 0.784756 0.730434
0.755184 0.780697 0.725704
0.749630 0.770291 0.712337
0.747524 0.757137 0.693660
0.739132 0.724910 0.653223
0.806851 0.758175 0.607111
0.915770 0.812009 0.530419
1.000000 0.838834 0.453254
0.143801 0.228946 0.259831
0.152224 0.224369 0.256657
0.176699 0.219944 0.243809
0.204257 0.207645 0.241947
0.338293 0.176059 0.252964
0.442054 0.150423 0.225772
0.589136 0.150637 0.225711
0.861387 0.149386 0.236759
0.155886 0.245975 0.274540
0.163577 0.241733 0.271611
0.187625 0.232853 0.257755
0.215091 0.219791 0.252903
0.349279 0.185611 0.258885
0.451057 0.157412 0.227604
0.603143 0.161288 0.230106
0.868620 0.171023 0.239261
0.139284 0.287816 0.299229
0.153658 0.290105 0.303014
0.219699 0.282078 0.305547
0.253300 0.263554 0.290318
0.397803 0.226078 0.281437
0.504784 0.214511 0.254734
0.703182 0.215000 0.255772
0.941527 0.267277 0.257053
0.220127 0.318791 0.321477
0.229252 0.322820 0.325750
0.272953 0.343603 0.347417
0.378820 0.392462 0.399390
0.512749 0.362615 0.357122
0.643824 0.341344 0.322637
0.802731 0.342748 0.298070
0.989868 0.402777 0.285985
0.391333 0.406470 0.411902
0.395605 0.410651 0.415656
0.420325 0.433783 0.435706
0.455940 0.459754 0.454200
0.568475 0.475837 0.397528
0.772061 0.521294 0.400244
0.929900 0.580407 0.414862
1.000000 0.598810 0.373816
0.509819 0.521721 0.510765
0.521447 0.532860 0.520256
0.536889 0.545006 0.529992
0.532677 0.530846 0.511650
0.540673 0.505943 0.451942
0.732418 0.573754 0.392309
0.940398 0.653193 0.375860
1.000000 0.726101 0.432044
0.641688 0.659602 0.628077
0.645655 0.662837 0.630915
0.657618 0.670558 0.637263
0.631037 0.633021 0.595331
0.595758 0.573083 0.531212
0.718349 0.636133 0.482277
0.889830 0.702419 0.391547
1.000000 0.770077 0.353277
0.799588 0.831327 0.789548
0.797940 0.829221 0.786770
0.790433 0.819486 0.773709
0.778805 0.800595 0.747921
0.764218 0.766232 0.703761
0.793942 0.761196 0.651118
0.909422 0.823911 0.589105
1.000000 0.842252 0.458442
0.183047 0.286656 0.334295
0.190372 0.284489 0.332891
0.211002 0.272465 0.320043
0.238071 0.269749 0.294163
0.267796 0.244938 0.294957
0.431006 0.191623 0.317266
0.569329 0.120912 0.289769
0.748531 0.000000 0.255619
0.192996 0.303136 0.349554
0.200687 0.300481 0.348028
0.221653 0.286015 0.333989
0.247959 0.278782 0.304387
0.277958 0.253666 0.303807
0.443305 0.197299 0.323308
0.576013 0.127840 0.291203
0.749874 0.000000 0.257694
0.198245 0.354223 0.388708
0.215915 0.353491 0.390204
0.253330 0.335973 0.379400
0.286900 0.315221 0.346990
0.316869 0.289220 0.337407
0.484413 0.222690 0.342779
0.595850 0.158633 0.293400
0.751949 0.096742 0.265660
0.197147 0.411139 0.420356
0.208133 0.414710 0.424323
0.255161 0.432136 0.443885
0.382025 0.422950 0.456092
0.424231 0.385595 0.425727
0.575616 0.299565 0.387335
0.654749 0.245396 0.313268
0.880827 0.258854 0.308415
0.331762 0.450965 0.448798
0.341985 0.455940 0.453834
0.384680 0.475410 0.473976
0.473884 0.518395 0.518334
0.610620 0.593011 0.593927
0.721981 0.526513 0.511131
0.846189 0.485328 0.441505
0.994781 0.500420 0.398932
0.541253 0.531243 0.534325
0.550866 0.537224 0.540703
0.566094 0.552575 0.554894
0.593713 0.586084 0.583032
0.622095 0.611872 0.598322
0.752255 0.649805 0.547173
0.929503 0.711391 0.562829
1.000000 0.768002 0.601862
0.668879 0.677668 0.661952
0.668177 0.677485 0.661219
0.670985 0.683223 0.663691
0.690578 0.705959 0.679866
0.687648 0.689052 0.657008
0.703609 0.659541 0.576745
0.886381 0.738399 0.513909
1.000000 0.790066 0.504448
0.784787 0.821500 0.785245
0.785794 0.822171 0.785794
0.791348 0.825986 0.789151
0.810575 0.840360 0.803494
0.794339 0.814817 0.768826
0.772030 0.760769 0.700130
0.885863 0.825040 0.649470
0.996490 0.850095 0.543145
0.251713 0.383001 0.459144
0.258793 0.379614 0.456764
0.277592 0.360601 0.438270
0.308721 0.341070 0.405432
0.320470 0.334478 0.359045
0.358160 0.287358 0.363928
0.550408 0.205386 0.399298
0.782925 0.000000 0.405646
0.253880 0.387243 0.459083
0.259373 0.382605 0.455146
0.278935 0.364324 0.438666
0.308476 0.343053 0.406836
0.321782 0.335546 0.360540
0.358618 0.290227 0.364782
0.547692 0.210117 0.397772
0.770718 0.000000 0.398322
0.286656 0.446571 0.507347
0.293523 0.440925 0.503685
0.317327 0.419226 0.488380
0.340612 0.380896 0.450690
0.362799 0.367071 0.397162
0.396399 0.320348 0.395087
0.590173 0.230472 0.420661
0.790097 0.000000 0.400610
0.242069 0.534447 0.560998
0.265110 0.530571 0.559991
0.347265 0.522728 0.563226
0.432349 0.495338 0.554101
0.467201 0.453468 0.494942
0.494423 0.401648 0.473976
0.687922 0.285435 0.474708
0.842100 0.115602 0.405005
0.318212 0.571283 0.572869
0.327031 0.573816 0.575555
0.364630 0.585962 0.588800
0.438331 0.614252 0.619745
0.579461 0.599908 0.633051
0.615656 0.538384 0.584344
0.761807 0.388159 0.509392
0.863706 0.256992 0.377905
0.464546 0.604761 0.593561
0.475044 0.611749 0.600366
0.503899 0.624750 0.613581
0.563226 0.653620 0.642664
0.657435 0.704555 0.693629
0.792538 0.795682 0.783078
0.888060 0.712215 0.679194
1.000000 0.666224 0.588617
0.689357 0.709438 0.697200
0.697414 0.715724 0.703487
0.721614 0.731960 0.720272
0.764462 0.763485 0.752834
0.781796 0.792111 0.776272
0.789364 0.798764 0.773617
0.888182 0.819883 0.714229
0.995087 0.850645 0.729519
0.814450 0.834897 0.815244
0.813779 0.834592 0.814694
0.815213 0.837827 0.816678
0.821469 0.847501 0.823453
0.830686 0.859678 0.830533
0.827115 0.846403 0.810269
0.853452 0.831724 0.739223
0.978637 0.873320 0.678553
0.383215 0.528832 0.632746
0.390753 0.526818 0.632410
0.405798 0.504448 0.614252
0.428168 0.469001 0.580865
0.460090 0.443519 0.521721
0.429206 0.420172 0.441688
0.472877 0.334295 0.448157
0.684779 0.219638 0.498817
0.375341 0.523980 0.623102
0.383703 0.522972 0.623835
0.398810 0.501122 0.606561
0.418982 0.463569 0.571466
0.449104 0.436652 0.513359
0.419837 0.412665 0.434424
0.460090 0.330724 0.439033
0.662837 0.221225 0.483833
0.403845 0.574701 0.659876
0.408392 0.568933 0.656123
0.422400 0.542870 0.637018
0.443946 0.499733 0.601312
0.469978 0.460426 0.540581
0.450385 0.434882 0.460365
0.492500 0.355779 0.464820
0.709071 0.240085 0.513237
0.403357 0.654231 0.707057
0.413916 0.648554 0.703700
0.460151 0.633967 0.697200
0.493812 0.586419 0.667597
0.516350 0.522240 0.609461
0.522362 0.491615 0.524712
0.555749 0.410590 0.516930
0.772427 0.279789 0.552697
0.318090 0.721828 0.725917
0.321935 0.719265 0.723995
0.365515 0.713771 0.723781
0.483955 0.691310 0.722744
0.578332 0.639368 0.698848
0.603052 0.571588 0.614588
0.625910 0.493355 0.582025
0.849149 0.344915 0.595056
0.447608 0.741421 0.729580
0.453529 0.743160 0.731441
0.476570 0.748745 0.737850
0.521813 0.760800 0.751522
0.592340 0.780606 0.774472
0.726864 0.760891 0.782712
0.759609 0.683223 0.726009
0.926787 0.475410 0.630060
0.592401 0.772885 0.748898
0.598535 0.775845 0.751888
0.616724 0.781582 0.758053
0.655146 0.795193 0.772488
0.715297 0.816800 0.795590
0.799863 0.852628 0.834134
0.894713 0.906950 0.893004
0.957977 0.838590 0.803677
0.780392 0.833463 0.811368
0.784482 0.835630 0.813718
0.802487 0.846006 0.825132
0.830991 0.861387 0.842527
0.868986 0.883055 0.867674
0.882475 0.899504 0.883116
0.883574 0.899901 0.877012
0.955840 0.914092 0.839475
0.617304 0.753048 0.837858
0.621363 0.751125 0.837308
0.621759 0.729702 0.825559
0.633845 0.697841 0.807218
0.652552 0.655665 0.768124
0.665614 0.619867 0.695888
0.605921 0.580499 0.589899
0.665888 0.427863 0.600122
0.605585 0.746670 0.831632
0.610101 0.745113 0.831418
0.614252 0.726406 0.821469
0.625330 0.692561 0.801724
0.643488 0.648676 0.762203
0.658228 0.612879 0.689754
0.597253 0.571191 0.581811
0.653285 0.421607 0.589502
0.610163 0.765377 0.837247
0.612329 0.761868 0.835721
0.615229 0.742245 0.825589
0.634333 0.715328 0.812345
0.643397 0.661006 0.773037
0.661250 0.620722 0.698970
0.607630 0.578424 0.592096
0.659480 0.433143 0.596002
0.619532 0.805936 0.851560
0.627253 0.805112 0.851743
0.633082 0.788724 0.844205
0.645960 0.756985 0.829526
0.658900 0.703029 0.797757
0.679988 0.652979 0.732540
0.642115 0.607782 0.627008
0.685542 0.466224 0.621424
0.563867 0.846342 0.860502
0.573175 0.845518 0.861021
0.597375 0.835569 0.857908
0.651759 0.819364 0.853605
0.678157 0.770718 0.830442
0.691615 0.696468 0.776883
0.684016 0.646937 0.675074
0.717800 0.515496 0.655268
0.557671 0.876127 0.863767
0.556451 0.874907 0.862821
0.559136 0.872343 0.861387
0.577722 0.871550 0.863066
0.659968 0.851713 0.861753
0.740566 0.808621 0.846281
0.761318 0.742550 0.775845
0.785153 0.626764 0.731807
0.650111 0.887968 0.866789
0.651392 0.887816 0.866728
0.658015 0.887449 0.867063
0.677180 0.888975 0.870085
0.708797 0.892210 0.875822
0.755978 0.898589 0.886442
0.839902 0.877317 0.885130
0.855558 0.799405 0.831662
0.748379 0.898619 0.872892
0.749630 0.898528 0.872953
0.757198 0.899504 0.874388
0.775326 0.902892 0.879026
0.802396 0.908049 0.886076
0.840146 0.916442 0.897368
0.892699 0.933013 0.918456
0.958251 0.965301 0.958190
