20 Preset/Street 2/【3】LUT video cho PR-AE-FCPX/Tone 1 (33).cube
# Created by Adobe Lightroom plugin Export LUT (1.24.0)
# www.johnrellis.com/lightroom/exportlut.htm
# Preset: 青橙风光-素材江湖33
# Color profile: C:\Program Files (x86)\Common Files\Adobe\Color\Profiles\Recommended\VideoHD.icc
LUT_3D_SIZE 5
DOMAIN_MIN 0.000000 0.000000 0.000000
DOMAIN_MAX 0.903226 0.903226 0.903226
0.051850 0.146670 0.163729
0.140597 0.146395 0.166110
0.358251 0.138155 0.175021
0.814511 0.000000 0.192752
1.000000 0.000000 0.227848
0.000000 0.184024 0.174746
0.097810 0.191104 0.172244
0.333165 0.208347 0.189578
0.796048 0.153780 0.203494
1.000000 0.276524 0.244083
0.000000 0.398718 0.252201
0.000000 0.402350 0.239902
0.371527 0.456367 0.226810
0.780453 0.505028 0.283330
1.000000 0.571832 0.336400
0.000000 0.794156 0.466865
0.000000 0.797330 0.470253
0.377386 0.793942 0.445716
0.750332 0.805417 0.408820
0.960235 0.809598 0.528496
0.592004 0.940948 0.772763
0.628656 0.939910 0.781033
0.669581 0.935393 0.766842
0.779751 0.931884 0.783932
0.896208 0.935851 0.779110
0.015167 0.153658 0.184756
0.120027 0.150240 0.186191
0.340948 0.135103 0.201358
0.748440 0.000000 0.222812
1.000000 0.000000 0.253361
0.000000 0.181582 0.194491
0.103334 0.191775 0.204196
0.334630 0.200137 0.217136
0.748409 0.093477 0.233738
1.000000 0.173129 0.266056
0.000000 0.377264 0.277775
0.000000 0.387915 0.279484
0.339757 0.420264 0.263249
0.742763 0.468696 0.314488
1.000000 0.550530 0.361822
0.000000 0.785580 0.497505
0.000000 0.789853 0.502342
0.396521 0.790555 0.484688
0.747250 0.799924 0.451148
0.953399 0.807797 0.565423
0.585657 0.940215 0.777554
0.622095 0.939055 0.784787
0.700313 0.937804 0.794583
0.791104 0.933837 0.803281
0.899596 0.937926 0.801328
0.000000 0.166232 0.275700
0.114626 0.165133 0.277073
0.315953 0.154269 0.298009
0.799710 0.000000 0.370550
1.000000 0.000000 0.380499
0.000000 0.197055 0.298405
0.098268 0.194583 0.300877
0.335943 0.197116 0.320104
0.792966 0.000000 0.374212
1.000000 0.000000 0.378912
0.000000 0.364691 0.358801
0.000000 0.375189 0.369146
0.374975 0.411017 0.411994
0.765530 0.399878 0.416297
1.000000 0.452857 0.446906
0.000000 0.763424 0.596063
0.000000 0.760952 0.593500
0.470222 0.773068 0.611017
0.743221 0.786526 0.588190
0.929168 0.803891 0.678737
0.517388 0.937346 0.787808
0.569574 0.936492 0.795468
0.707820 0.933776 0.822446
0.795895 0.931426 0.828611
0.898039 0.934905 0.825864
0.000000 0.182010 0.463050
0.065187 0.176944 0.466865
0.412085 0.142458 0.482551
0.736019 0.000000 0.553796
1.000000 0.000000 0.650599
0.000000 0.200259 0.481514
0.000000 0.200107 0.485298
0.415259 0.182925 0.501732
0.736660 0.000000 0.561730
1.000000 0.000000 0.649622
0.000000 0.393896 0.524773
0.000000 0.385840 0.536004
0.338964 0.342779 0.572900
0.745846 0.357794 0.609583
1.000000 0.429084 0.665431
0.000000 0.707149 0.673121
0.000000 0.708461 0.675898
0.324041 0.723659 0.698604
0.730556 0.749996 0.740566
0.951141 0.733547 0.720729
0.466316 0.933593 0.842191
0.512535 0.933074 0.843992
0.654292 0.932311 0.853574
0.815763 0.930968 0.877134
0.902068 0.933562 0.874449
0.000000 0.197604 0.797238
0.222019 0.175753 0.796719
0.604730 0.000000 0.799039
0.864591 0.000000 0.811398
1.000000 0.000000 0.822812
0.000000 0.195468 0.791440
0.230838 0.180026 0.792020
0.582330 0.000000 0.796292
0.853422 0.000000 0.807309
1.000000 0.000000 0.821714
0.000000 0.354864 0.807675
0.000000 0.313451 0.807950
0.413275 0.285161 0.810056
0.815518 0.273472 0.813077
1.000000 0.344335 0.833249
0.000000 0.713466 0.824918
0.000000 0.704646 0.822416
0.000000 0.668330 0.817868
0.643030 0.564233 0.850004
0.948821 0.704433 0.868101
0.000000 0.921111 0.885405
0.000000 0.919982 0.886046
0.359899 0.917327 0.891478
0.711788 0.914427 0.901244
0.899321 0.922148 0.919097
