20 Preset/Street 2/【3】LUT video cho PR-AE-FCPX/Tone 1 (21).cube
# Created by Adobe Lightroom plugin Export LUT (1.24.0)
# www.johnrellis.com/lightroom/exportlut.htm
# Preset: 青橙风光-素材江湖21
# Color profile: C:\Program Files (x86)\Common Files\Adobe\Color\Profiles\Recommended\VideoHD.icc
LUT_3D_SIZE 5
DOMAIN_MIN 0.000000 0.000000 0.000000
DOMAIN_MAX 0.903226 0.903226 0.903226
0.111482 0.123384 0.099184
0.217197 0.115419 0.099367
0.508476 0.016388 0.097749
0.994995 0.000000 0.000000
1.000000 0.338506 0.000000
0.150149 0.166690 0.119387
0.179843 0.167758 0.114656
0.399359 0.201450 0.122133
0.920684 0.225162 0.000000
1.000000 0.428748 0.000000
0.260044 0.271794 0.169589
0.281926 0.269718 0.163149
0.398871 0.287358 0.135683
0.761349 0.405554 0.134920
1.000000 0.600702 0.118227
0.459754 0.442756 0.235264
0.487160 0.442115 0.229252
0.579278 0.466743 0.200534
0.760616 0.507866 0.089265
1.000000 0.721309 0.270054
0.797513 0.787228 0.449073
0.816312 0.788205 0.444160
0.855802 0.773159 0.394079
0.945769 0.817136 0.369512
1.000000 0.836271 0.383032
0.130159 0.156069 0.139315
0.162844 0.142672 0.140383
0.481910 0.084932 0.126192
0.886717 0.032959 0.000000
1.000000 0.334142 0.000000
0.148959 0.179568 0.146365
0.187778 0.200198 0.163760
0.418036 0.209873 0.148989
0.839933 0.229221 0.027008
1.000000 0.407843 0.000000
0.261021 0.298039 0.207248
0.290043 0.295872 0.200046
0.398474 0.302525 0.174319
0.718685 0.389166 0.166445
1.000000 0.589837 0.106294
0.462501 0.467506 0.273716
0.491493 0.467750 0.267918
0.589624 0.485939 0.242069
0.768032 0.525689 0.165042
1.000000 0.715724 0.261051
0.782589 0.791287 0.475502
0.800961 0.791196 0.469306
0.869810 0.799680 0.453986
0.949340 0.832212 0.426825
1.000000 0.844327 0.407965
0.151766 0.204807 0.203922
0.160647 0.196475 0.209171
0.258946 0.179294 0.216281
0.602747 0.107088 0.253025
1.000000 0.088167 0.182132
0.173220 0.236667 0.219791
0.194736 0.241520 0.235813
0.293675 0.212222 0.244541
0.757382 0.000000 0.282048
1.000000 0.317632 0.204349
0.236576 0.308202 0.263676
0.272740 0.331518 0.286534
0.511040 0.470893 0.431708
0.876188 0.492195 0.377844
1.000000 0.586114 0.304845
0.413458 0.518456 0.389624
0.452186 0.541375 0.405188
0.618738 0.580957 0.431281
0.806363 0.623407 0.395941
1.000000 0.745083 0.451545
0.709255 0.804196 0.574212
0.731624 0.806607 0.571252
0.818326 0.811795 0.552575
0.923552 0.837217 0.531395
1.000000 0.847501 0.486305
0.168856 0.274601 0.311284
0.177371 0.267887 0.314794
0.222324 0.232212 0.311284
0.361364 0.195163 0.298619
0.467781 0.231662 0.280644
0.180697 0.296147 0.322728
0.195926 0.295964 0.332921
0.232181 0.253544 0.331731
0.385657 0.211826 0.318242
0.525536 0.241032 0.305272
0.223331 0.363439 0.355077
0.244205 0.373480 0.367529
0.348516 0.406317 0.440955
0.525750 0.323095 0.435706
0.958373 0.330388 0.516686
0.344366 0.481819 0.442298
0.372076 0.496681 0.458045
0.515160 0.586328 0.553246
0.834440 0.836759 0.813687
1.000000 0.828733 0.754421
0.562158 0.754665 0.646906
0.581018 0.768795 0.656092
0.671229 0.829496 0.697322
0.867277 0.872648 0.749966
0.980011 0.890440 0.745632
0.204318 0.523247 0.690730
0.220279 0.506676 0.686000
0.242588 0.420661 0.664912
0.432441 0.305455 0.602411
0.601984 0.166171 0.502464
0.207156 0.527886 0.676265
0.232456 0.517082 0.676051
0.256962 0.437690 0.657618
0.422858 0.315282 0.596948
0.601587 0.178286 0.502037
0.236210 0.587854 0.675807
0.254429 0.576959 0.672663
0.334478 0.538415 0.677394
0.413153 0.378759 0.625330
0.644556 0.226871 0.541497
0.317754 0.666560 0.696284
0.329442 0.663325 0.694240
0.392035 0.666865 0.704097
0.543420 0.655268 0.754055
0.794522 0.422675 0.700679
0.477485 0.785641 0.760067
0.490822 0.787503 0.762051
0.563561 0.806699 0.781888
0.729732 0.854337 0.831998
0.958038 0.964782 0.957061
