20 Preset/Street 2/【3】LUT video cho PR-AE-FCPX/Tone 1 (13).cube
# Created by Adobe Lightroom plugin Export LUT (1.24.0)
# www.johnrellis.com/lightroom/exportlut.htm
# Preset: 青橙风光-素材江湖13
# Color profile: C:\Program Files (x86)\Common Files\Adobe\Color\Profiles\Recommended\VideoHD.icc
LUT_3D_SIZE 32
DOMAIN_MIN 0.0 0.0 0.0
DOMAIN_MAX 1.0 1.0 1.0
0.099275 0.144137 0.140627
0.099275 0.144137 0.140627
0.099275 0.144137 0.140627
0.100526 0.144045 0.140627
0.114412 0.143221 0.140536
0.133913 0.141634 0.140444
0.156435 0.141268 0.140047
0.183780 0.141360 0.139315
0.218173 0.140658 0.138766
0.260716 0.137301 0.138857
0.312566 0.130556 0.138796
0.374182 0.115908 0.138064
0.445014 0.080659 0.136660
0.521172 0.000000 0.134371
0.598932 0.000000 0.131228
0.673274 0.000000 0.127443
0.742245 0.000000 0.122683
0.805356 0.000000 0.116579
0.874113 0.000000 0.107210
0.950164 0.000000 0.090272
1.000000 0.000000 0.058503
1.000000 0.000000 0.032563
1.000000 0.000000 0.019318
1.000000 0.000000 0.017090
1.000000 0.143191 0.027344
1.000000 0.195590 0.045197
1.000000 0.235080 0.081331
1.000000 0.270207 0.104707
1.000000 0.303563 0.127199
1.000000 0.336767 0.153719
1.000000 0.370611 0.184482
1.000000 0.405432 0.220951
0.099275 0.144137 0.140627
0.099275 0.144137 0.140627
0.099275 0.144137 0.140627
0.100526 0.144045 0.140627
0.113893 0.143282 0.140536
0.133059 0.141726 0.140444
0.154208 0.141787 0.140017
0.180301 0.142153 0.139315
0.212955 0.141512 0.138827
0.253422 0.138827 0.138735
0.302403 0.133333 0.138582
0.361364 0.120943 0.138247
0.429603 0.095003 0.137057
0.504051 0.000000 0.134798
0.580743 0.000000 0.132082
0.656245 0.000000 0.128298
0.726467 0.000000 0.123842
0.791379 0.000000 0.117830
0.861021 0.000000 0.108858
0.935149 0.000000 0.093874
0.989288 0.000000 0.068544
1.000000 0.000000 0.041138
1.000000 0.000000 0.023865
1.000000 0.000000 0.015045
1.000000 0.102571 0.017578
1.000000 0.166690 0.028717
1.000000 0.211276 0.054231
1.000000 0.249485 0.089174
1.000000 0.285313 0.111177
1.000000 0.320073 0.137240
1.000000 0.354864 0.167361
1.000000 0.390417 0.203281
0.099275 0.144137 0.140627
0.099275 0.144137 0.140627
0.099275 0.144137 0.140627
0.102449 0.143923 0.140597
0.115297 0.143374 0.140505
0.132387 0.144045 0.140139
0.153536 0.144320 0.139681
0.178622 0.144839 0.138979
0.210330 0.144686 0.138705
0.249699 0.142702 0.138613
0.297612 0.137819 0.138491
0.355169 0.127504 0.137942
0.421454 0.106264 0.136843
0.494453 0.029023 0.134646
0.570092 0.000000 0.132265
0.645014 0.000000 0.128420
0.715785 0.000000 0.124056
0.781369 0.000000 0.118135
0.853910 0.000000 0.108339
0.926177 0.000000 0.094545
0.980652 0.000000 0.068727
1.000000 0.000000 0.039307
1.000000 0.000000 0.020661
1.000000 0.000000 0.009522
1.000000 0.102296 0.009552
1.000000 0.164004 0.015412
1.000000 0.207858 0.037476
1.000000 0.246067 0.073426
1.000000 0.281315 0.101717
1.000000 0.315801 0.128267
1.000000 0.350011 0.158480
1.000000 0.385290 0.193332
0.097810 0.145968 0.140841
0.097444 0.146212 0.141024
0.097627 0.146609 0.140963
0.102571 0.147158 0.140841
0.114473 0.148409 0.140261
0.132052 0.149233 0.139620
0.153017 0.149935 0.139101
0.178378 0.150607 0.138369
0.210269 0.150637 0.138308
0.249119 0.149325 0.138369
0.296422 0.145632 0.138155
0.351965 0.137575 0.137575
0.417182 0.120943 0.136202
0.487861 0.088838 0.134188
0.561334 0.000000 0.131563
0.634485 0.000000 0.128023
0.703761 0.000000 0.123659
0.768276 0.000000 0.117586
0.842741 0.000000 0.107637
0.909972 0.000000 0.094301
0.962676 0.000000 0.071229
1.000000 0.000000 0.040345
1.000000 0.000000 0.016144
1.000000 0.000000 0.001587
1.000000 0.116976 0.000000
1.000000 0.173861 0.000610
1.000000 0.217655 0.017090
1.000000 0.254795 0.053498
1.000000 0.289250 0.095644
1.000000 0.322728 0.123415
1.000000 0.354650 0.153719
1.000000 0.386877 0.187015
0.093111 0.152499 0.141512
0.093568 0.152682 0.141482
0.096132 0.152499 0.141939
0.100649 0.152834 0.142061
0.110658 0.154421 0.140780
0.127871 0.156649 0.139712
0.148836 0.158206 0.138582
0.174502 0.159060 0.138521
0.205783 0.159884 0.138369
0.244602 0.159640 0.138094
0.290898 0.157443 0.137575
0.345312 0.151949 0.136690
0.408301 0.140505 0.135439
0.478340 0.120272 0.133242
0.551598 0.073732 0.130648
0.625208 0.000000 0.126711
0.696010 0.000000 0.121767
0.762081 0.000000 0.115206
0.840726 0.000000 0.103304
0.904509 0.000000 0.088563
0.955688 0.000000 0.056367
0.996124 0.000000 0.024048
1.000000 0.000000 0.000000
1.000000 0.110201 0.000000
1.000000 0.164340 0.000000
1.000000 0.206302 0.000000
1.000000 0.241184 0.000000
1.000000 0.273655 0.032807
1.000000 0.304112 0.086580
1.000000 0.334051 0.116060
1.000000 0.363348 0.147250
1.000000 0.393103 0.180667
0.090364 0.160800 0.142733
0.091127 0.160769 0.142733
0.093843 0.160616 0.143191
0.098634 0.160708 0.143557
0.106111 0.162722 0.142245
0.121706 0.164645 0.141024
0.143618 0.168246 0.140230
0.170840 0.170718 0.139651
0.205386 0.172854 0.138918
0.244877 0.174075 0.138094
0.292088 0.173404 0.137301
0.348302 0.170138 0.135744
0.413123 0.162509 0.133669
0.483131 0.149355 0.131380
0.556603 0.127016 0.128023
0.630335 0.089754 0.123537
0.700710 0.000000 0.117281
0.774746 0.000000 0.107515
0.849729 0.000000 0.092775
0.909697 0.000000 0.061616
0.958465 0.003326 0.020722
0.997406 0.113619 0.000000
1.000000 0.275975 0.000000
1.000000 0.300664 0.000000
1.000000 0.322362 0.019928
1.000000 0.342870 0.084504
1.000000 0.362066 0.115969
1.000000 0.382269 0.141665
1.000000 0.402808 0.169192
1.000000 0.424292 0.198337
1.000000 0.446662 0.229404
1.000000 0.470161 0.262791
0.079438 0.176730 0.144778
0.080507 0.176699 0.144991
0.086244 0.176547 0.145632
0.094270 0.176364 0.146670
0.103456 0.178378 0.145785
0.118898 0.181064 0.144442
0.141909 0.184360 0.142733
0.176486 0.190829 0.141085
0.216983 0.196231 0.139376
0.268101 0.200809 0.137087
0.327398 0.202731 0.135073
0.392432 0.201633 0.132235
0.463539 0.196292 0.129061
0.537469 0.187228 0.124269
0.611383 0.174563 0.117952
0.680995 0.159670 0.110323
0.745693 0.147005 0.101076
0.830869 0.155062 0.069581
0.898314 0.175357 0.014221
0.953552 0.202609 0.000000
0.998657 0.232731 0.000000
1.000000 0.262577 0.000000
1.000000 0.291539 0.000000
1.000000 0.318364 0.000000
1.000000 0.342229 0.000000
1.000000 0.362585 0.020020
1.000000 0.379858 0.092470
1.000000 0.396521 0.124300
1.000000 0.414313 0.152590
1.000000 0.432410 0.181155
1.000000 0.451820 0.212375
1.000000 0.472572 0.244755
0.057374 0.192660 0.148135
0.059052 0.192630 0.148348
0.068391 0.192477 0.148775
0.085451 0.192294 0.149996
0.096742 0.193332 0.150118
0.111757 0.196262 0.148714
0.133669 0.199954 0.147005
0.163119 0.204257 0.144594
0.205661 0.213840 0.141878
0.255314 0.221958 0.138827
0.316930 0.228855 0.135225
0.390051 0.233555 0.130465
0.460761 0.233219 0.125521
0.533440 0.229862 0.119875
0.605737 0.224918 0.111788
0.674342 0.219150 0.102327
0.758450 0.224613 0.075929
0.832425 0.236454 0.012390
0.892699 0.251530 0.000000
0.943786 0.270848 0.000000
0.987091 0.291997 0.000000
1.000000 0.313542 0.000000
1.000000 0.335607 0.000000
1.000000 0.356481 0.000000
1.000000 0.375586 0.000000
1.000000 0.391119 0.000000
1.000000 0.405371 0.051118
1.000000 0.419135 0.107362
1.000000 0.433722 0.139559
1.000000 0.449165 0.170565
1.000000 0.465827 0.201785
1.000000 0.484230 0.234745
0.012482 0.214664 0.151675
0.016144 0.214633 0.151858
0.027161 0.214481 0.152468
0.048798 0.214298 0.153445
0.083101 0.214176 0.154971
0.102358 0.217075 0.153353
0.124727 0.220981 0.151553
0.154482 0.225834 0.148867
0.191348 0.231571 0.145418
0.244511 0.244175 0.140963
0.305028 0.255833 0.135409
0.377264 0.265751 0.129366
0.457771 0.272892 0.121309
0.537987 0.276555 0.111208
0.609155 0.276402 0.100618
0.694759 0.285313 0.070314
0.771725 0.296971 0.002258
0.836027 0.308934 0.000000
0.891203 0.321965 0.000000
0.939483 0.337011 0.000000
0.980987 0.352697 0.000000
1.000000 0.368811 0.000000
1.000000 0.385046 0.000000
1.000000 0.400763 0.000000
1.000000 0.415015 0.000000
1.000000 0.427039 0.000000
1.000000 0.437812 0.005463
1.000000 0.448859 0.094667
1.000000 0.460304 0.132174
1.000000 0.472663 0.164797
1.000000 0.486793 0.197147
1.000000 0.502281 0.229831
0.000000 0.243900 0.155093
0.000000 0.243748 0.155123
0.000000 0.243381 0.155764
0.000000 0.242954 0.156954
0.020783 0.242252 0.158755
0.078187 0.243656 0.158602
0.110506 0.247410 0.156191
0.143252 0.252110 0.153262
0.180850 0.257725 0.149416
0.225895 0.264683 0.144625
0.288609 0.279576 0.137362
0.358343 0.294224 0.128817
0.436927 0.306676 0.118654
0.527337 0.320562 0.103120
0.628412 0.339300 0.057221
0.710872 0.353491 0.000000
0.780606 0.366827 0.000000
0.840848 0.379400 0.000000
0.893095 0.391669 0.000000
0.938140 0.403693 0.000000
0.976379 0.414099 0.000000
1.000000 0.423713 0.000000
1.000000 0.432746 0.000000
1.000000 0.441688 0.000000
1.000000 0.450172 0.000000
1.000000 0.458137 0.000000
1.000000 0.465919 0.000000
1.000000 0.474525 0.039399
1.000000 0.484138 0.114473
1.000000 0.495125 0.152834
1.000000 0.507439 0.188296
1.000000 0.521477 0.224430
0.000000 0.276402 0.157534
0.000000 0.276555 0.157656
0.000000 0.276493 0.158419
0.000000 0.276188 0.159548
0.000000 0.276158 0.161685
0.000000 0.276310 0.163851
0.075929 0.280797 0.161135
0.125399 0.286259 0.157656
0.168704 0.292851 0.153353
0.216770 0.300328 0.147707
0.271824 0.308171 0.140444
0.349828 0.328618 0.128176
0.438514 0.352636 0.110506
0.533715 0.374762 0.082185
0.627039 0.395941 0.000000
0.713283 0.417243 0.000000
0.787198 0.435340 0.000000
0.842435 0.445472 0.000000
0.890837 0.454810 0.000000
0.932891 0.462837 0.000000
0.969085 0.469551 0.000000
1.000000 0.475624 0.000000
1.000000 0.481422 0.000000
1.000000 0.487098 0.000000
1.000000 0.492470 0.000000
1.000000 0.497261 0.000000
1.000000 0.502617 0.000000
1.000000 0.508659 0.020783
1.000000 0.515892 0.111574
1.000000 0.524376 0.152499
1.000000 0.534478 0.189944
1.000000 0.546075 0.226474
0.000000 0.321874 0.159457
0.000000 0.321965 0.159792
0.000000 0.321965 0.160098
0.000000 0.322118 0.161837
0.000000 0.322271 0.163973
0.000000 0.322454 0.167483
0.000000 0.325994 0.166629
0.085359 0.331914 0.162539
0.150210 0.338933 0.157290
0.209781 0.350652 0.150088
0.276890 0.365942 0.140261
0.352117 0.381170 0.126101
0.542199 0.481300 0.000000
0.642390 0.513603 0.000000
0.730037 0.539574 0.000000
0.803922 0.558801 0.000000
0.865568 0.572534 0.000000
0.916716 0.581689 0.000000
0.954833 0.583825 0.000000
0.985138 0.582483 0.000000
1.000000 0.580713 0.000000
1.000000 0.579095 0.000000
1.000000 0.577417 0.000000
1.000000 0.576410 0.000000
1.000000 0.575525 0.036378
1.000000 0.574670 0.106569
1.000000 0.573907 0.136080
1.000000 0.574090 0.160586
1.000000 0.575799 0.187991
1.000000 0.579583 0.215824
1.000000 0.585168 0.245396
1.000000 0.593072 0.277470
0.000000 0.405798 0.160952
0.000000 0.405371 0.161135
0.000000 0.404242 0.162142
0.000000 0.402899 0.164065
0.000000 0.400977 0.167208
0.000000 0.403662 0.171939
0.000000 0.408820 0.176242
0.000000 0.419348 0.170901
0.130190 0.432898 0.163424
0.224765 0.449195 0.152895
0.312688 0.468513 0.137667
0.405280 0.489723 0.114351
0.501701 0.510460 0.054963
0.605249 0.538140 0.000000
0.698726 0.570367 0.000000
0.774777 0.591669 0.000000
0.837125 0.605859 0.000000
0.889311 0.614679 0.000000
0.932464 0.619684 0.000000
0.968872 0.621729 0.000000
0.995117 0.618067 0.000000
1.000000 0.614771 0.000000
1.000000 0.611933 0.000000
1.000000 0.609522 0.000000
1.000000 0.607416 0.069856
1.000000 0.605615 0.117067
1.000000 0.604181 0.145327
1.000000 0.603540 0.170413
1.000000 0.604089 0.194675
1.000000 0.606287 0.220584
1.000000 0.609979 0.247379
1.000000 0.616266 0.280278
0.000000 0.491737 0.163546
0.000000 0.490883 0.163455
0.000000 0.489570 0.165072
0.000000 0.487953 0.167361
0.000000 0.486275 0.171267
0.000000 0.484962 0.176852
0.000000 0.485389 0.184421
0.000000 0.490394 0.182101
0.074128 0.499825 0.173709
0.215244 0.512322 0.162997
0.309911 0.527977 0.148867
0.402411 0.545434 0.128145
0.494667 0.562646 0.095888
0.581842 0.578454 0.000000
0.670558 0.598871 0.000000
0.747494 0.621027 0.000000
0.810788 0.635584 0.000000
0.863615 0.644953 0.000000
0.908354 0.650538 0.000000
0.945953 0.652918 0.000000
0.978698 0.653590 0.000000
1.000000 0.652003 0.000000
1.000000 0.648249 0.000000
1.000000 0.644892 0.074495
1.000000 0.641871 0.118074
1.000000 0.639185 0.144869
1.000000 0.636774 0.169162
1.000000 0.635248 0.191318
1.000000 0.634668 0.213779
1.000000 0.635706 0.238132
1.000000 0.638178 0.264622
1.000000 0.642512 0.293431
0.000000 0.571984 0.171786
0.000000 0.571344 0.172030
0.000000 0.569299 0.173312
0.000000 0.566339 0.175509
0.000000 0.562707 0.179873
0.000000 0.558984 0.185977
0.000000 0.556817 0.193881
0.000000 0.557519 0.200076
0.000000 0.563806 0.191592
0.216983 0.573419 0.181827
0.315831 0.585748 0.169253
0.406928 0.600031 0.153445
0.493904 0.614374 0.130709
0.575250 0.627100 0.095552
0.649989 0.636713 0.000000
0.723262 0.648981 0.000000
0.787472 0.663569 0.000000
0.841520 0.673854 0.000000
0.887053 0.679835 0.000000
0.925719 0.682643 0.000000
0.959380 0.683619 0.000000
0.989258 0.683864 0.000000
1.000000 0.683162 0.104829
1.000000 0.679561 0.133944
1.000000 0.675563 0.156863
1.000000 0.672053 0.177981
1.000000 0.669154 0.198367
1.000000 0.667231 0.219669
1.000000 0.666560 0.242435
1.000000 0.667536 0.267887
1.000000 0.670283 0.296666
1.000000 0.674708 0.328374
0.000000 0.634638 0.188937
0.000000 0.635004 0.189364
0.000000 0.634150 0.190555
0.000000 0.632746 0.193423
0.000000 0.630854 0.198032
0.000000 0.629328 0.204318
0.000000 0.629206 0.213626
0.000000 0.630182 0.225376
0.128847 0.635248 0.224033
0.255863 0.642237 0.215518
0.345800 0.650050 0.205173
0.426459 0.657801 0.192050
0.501274 0.665248 0.174929
0.571557 0.671412 0.152468
0.636988 0.675990 0.120119
0.698360 0.678920 0.030915
0.761074 0.685908 0.000000
0.816434 0.695857 0.000000
0.863859 0.703548 0.000000
0.904601 0.707881 0.000000
0.940154 0.710262 0.000000
0.971527 0.711574 0.095277
0.999237 0.711727 0.139651
1.000000 0.711269 0.174624
1.000000 0.709651 0.202579
1.000000 0.705837 0.220493
1.000000 0.702724 0.238834
1.000000 0.700252 0.258183
1.000000 0.698878 0.279088
1.000000 0.698695 0.302220
1.000000 0.699886 0.328161
1.000000 0.702541 0.356664
0.000000 0.686427 0.213657
0.000000 0.686213 0.214145
0.000000 0.685725 0.215335
0.000000 0.684779 0.217838
0.000000 0.683711 0.222385
0.000000 0.682826 0.228794
0.000000 0.682399 0.237919
0.000000 0.682673 0.249851
0.191287 0.684382 0.258701
0.286656 0.689021 0.251072
0.365240 0.694331 0.242954
0.437201 0.699977 0.232486
0.504692 0.705379 0.220188
0.568658 0.709926 0.204318
0.629541 0.713191 0.183871
0.686824 0.715175 0.155795
0.741054 0.716426 0.115602
0.796689 0.721218 0.027070
0.844877 0.727504 0.000519
0.886473 0.732723 0.033143
0.923033 0.736019 0.096712
0.955383 0.737758 0.139193
0.983978 0.738399 0.172396
1.000000 0.738399 0.203738
1.000000 0.737697 0.232425
1.000000 0.736812 0.260044
1.000000 0.734279 0.281346
1.000000 0.731655 0.299138
1.000000 0.729946 0.319554
1.000000 0.729274 0.341527
1.000000 0.729824 0.366613
1.000000 0.731777 0.393774
0.000000 0.736477 0.252354
0.000000 0.736995 0.253025
0.000000 0.783230 0.308263
0.000000 0.782559 0.310521
0.000000 0.781491 0.314549
0.150332 0.779934 0.320073
0.235203 0.778531 0.328161
0.303899 0.777310 0.338598
0.365240 0.776730 0.352453
0.418433 0.778286 0.351171
0.470527 0.780606 0.344396
0.523064 0.782681 0.335821
0.573999 0.783902 0.324498
0.624140 0.784237 0.310338
0.672511 0.783566 0.293156
0.719448 0.781888 0.272251
0.764645 0.779232 0.246494
0.808347 0.776303 0.216007
0.851957 0.775174 0.190677
0.888548 0.774350 0.190158
0.921782 0.774960 0.199680
0.951995 0.774990 0.215610
0.978668 0.774228 0.239353
1.000000 0.772702 0.262638
1.000000 0.770352 0.284520
1.000000 0.767788 0.305638
1.000000 0.765255 0.326574
1.000000 0.763180 0.348516
1.000000 0.760037 0.364080
1.000000 0.758389 0.383459
1.000000 0.758145 0.406317
1.000000 0.759243 0.431922
0.000000 0.790280 0.313329
0.000000 0.793942 0.318944
0.000000 0.797543 0.325933
0.000000 0.800320 0.333257
0.164950 0.801968 0.340948
0.229862 0.801846 0.347936
0.285100 0.800717 0.355200
0.336431 0.799313 0.364202
0.387152 0.798245 0.375891
0.434272 0.798001 0.384039
0.478309 0.799435 0.377661
0.523308 0.800839 0.370184
0.568383 0.801572 0.360357
0.613458 0.801816 0.348669
0.658015 0.801419 0.334478
0.701961 0.800229 0.317174
0.745113 0.798703 0.297246
0.787350 0.796872 0.274846
0.829068 0.795193 0.250034
0.870603 0.795071 0.231693
0.904448 0.793668 0.234440
0.935790 0.795041 0.248295
0.963775 0.794980 0.264012
0.988220 0.793912 0.285832
1.000000 0.792020 0.306889
1.000000 0.789731 0.327214
1.000000 0.787320 0.347631
1.000000 0.785245 0.370001
1.000000 0.784085 0.394018
1.000000 0.783017 0.416693
1.000000 0.782315 0.438117
1.000000 0.782925 0.462867
0.099184 0.814603 0.348425
0.142397 0.817807 0.354620
0.186618 0.821134 0.361975
0.228580 0.823636 0.369604
0.268254 0.825223 0.377325
0.305638 0.825223 0.384009
0.342870 0.824308 0.390723
0.381384 0.822934 0.398718
0.422095 0.821714 0.409064
0.463081 0.820523 0.421424
0.499428 0.820951 0.418830
0.537072 0.821775 0.412268
0.575463 0.822202 0.403479
0.615076 0.822446 0.393561
0.654810 0.822141 0.381781
0.694484 0.821317 0.367468
0.734127 0.820066 0.351080
0.773404 0.818509 0.332311
0.812528 0.817014 0.312322
0.851408 0.815854 0.291417
0.890013 0.815671 0.276280
0.920623 0.813321 0.280919
0.949310 0.814328 0.295628
0.974792 0.813901 0.311986
0.996887 0.812375 0.330602
1.000000 0.810391 0.350622
1.000000 0.808133 0.371008
1.000000 0.806149 0.392187
1.000000 0.804929 0.416022
1.000000 0.804562 0.442145
1.000000 0.805295 0.471412
1.000000 0.805539 0.495369
0.256291 0.837644 0.388586
0.271702 0.840116 0.394110
0.291386 0.842618 0.400946
0.315221 0.844572 0.407935
0.341466 0.845670 0.415015
0.367163 0.845670 0.421149
0.395056 0.844846 0.427161
0.425391 0.843656 0.434394
0.457984 0.842527 0.443488
0.492531 0.841398 0.454780
0.525872 0.840848 0.461616
0.556451 0.841306 0.455360
0.588708 0.841611 0.447822
0.622187 0.841764 0.439185
0.657099 0.841672 0.429511
0.692775 0.841398 0.418067
0.729366 0.841215 0.406287
0.766629 0.841123 0.393774
0.804257 0.841337 0.381079
0.842130 0.841855 0.368048
0.879698 0.842679 0.354894
0.916503 0.843931 0.348028
0.943847 0.841215 0.357061
0.969360 0.842222 0.376440
0.991730 0.841825 0.395880
1.000000 0.840513 0.415808
1.000000 0.838956 0.438239
1.000000 0.837552 0.461463
1.000000 0.836790 0.486671
1.000000 0.836698 0.513603
1.000000 0.837461 0.542199
1.000000 0.839017 0.571771
0.406165 0.871824 0.466987
0.410803 0.872648 0.469703
0.417487 0.873136 0.472480
0.426551 0.873167 0.475166
0.438514 0.872740 0.478035
0.453254 0.871763 0.481117
0.471260 0.870603 0.485573
0.492897 0.869352 0.491646
0.517693 0.868162 0.499428
0.545342 0.867124 0.509758
0.574060 0.866209 0.521874
0.598383 0.866392 0.519463
0.623041 0.866636 0.513115
0.649500 0.866667 0.505882
0.677333 0.866514 0.496864
0.706569 0.866148 0.486763
0.737026 0.865629 0.475502
0.768521 0.865080 0.463783
0.800931 0.864591 0.451423
0.834043 0.864195 0.438361
0.867491 0.863859 0.425055
0.901030 0.863615 0.410803
0.933623 0.863554 0.402228
0.956939 0.858701 0.406226
0.979248 0.858427 0.423682
0.999237 0.857542 0.441596
1.000000 0.856321 0.461219
1.000000 0.855314 0.485084
1.000000 0.854643 0.510399
1.000000 0.854429 0.536553
1.000000 0.854826 0.563775
1.000000 0.855833 0.591791
0.468360 0.887999 0.509941
0.471504 0.888579 0.511986
0.476875 0.888945 0.514580
0.483986 0.889006 0.517082
0.493507 0.888701 0.520073
0.504845 0.887968 0.523064
0.519158 0.887022 0.527031
0.536431 0.885954 0.532341
0.556664 0.884916 0.539330
0.579492 0.884031 0.548516
0.603601 0.883177 0.559289
0.626368 0.882750 0.565057
0.646357 0.883055 0.560082
0.668147 0.883299 0.554070
0.691432 0.883391 0.547601
0.716213 0.883391 0.539910
0.742458 0.883360 0.531395
0.769986 0.883207 0.522423
0.798611 0.883085 0.512627
0.828092 0.882994 0.502556
0.858274 0.882933 0.492103
0.888853 0.882902 0.480842
0.919585 0.882811 0.469123
0.949615 0.882719 0.461677
0.966003 0.871611 0.442969
0.986236 0.870939 0.459510
1.000000 0.870268 0.478370
1.000000 0.869383 0.498665
1.000000 0.868864 0.523735
1.000000 0.868681 0.549920
1.000000 0.869139 0.577569
1.000000 0.870329 0.606775
0.547906 0.908141 0.572869
0.552453 0.908934 0.576287
0.555840 0.909178 0.578271
0.559472 0.908812 0.579187
0.563561 0.907958 0.579187
0.569116 0.906645 0.579339
0.576593 0.905058 0.579736
0.586481 0.903319 0.581140
0.599420 0.901549 0.584405
0.614954 0.899901 0.589227
0.632136 0.898161 0.595361
0.651514 0.896666 0.603784
0.666499 0.896178 0.599084
0.682429 0.895720 0.591669
0.700191 0.895079 0.583215
0.719661 0.894408 0.574273
0.741207 0.893767 0.564752
0.764797 0.893400 0.555444
0.790249 0.893339 0.547051
0.817258 0.893614 0.539727
0.845151 0.893980 0.531853
0.873381 0.894255 0.523613
0.901732 0.894133 0.513054
0.929931 0.893614 0.500420
0.957580 0.892882 0.490364
0.975952 0.886168 0.489204
0.993744 0.884794 0.503838
1.000000 0.883665 0.520928
1.000000 0.882597 0.539818
1.000000 0.882078 0.563226
1.000000 0.882292 0.590082
1.000000 0.883299 0.619013
0.580285 0.917601 0.600916
0.584070 0.918303 0.604089
0.587640 0.918608 0.606348
0.591547 0.918517 0.607965
0.596490 0.918120 0.609613
0.602838 0.917479 0.611353
0.611231 0.916686 0.614008
0.621912 0.915862 0.617823
0.634791 0.914977 0.622919
0.649470 0.914122 0.629297
0.665309 0.913115 0.636591
0.682368 0.912078 0.644984
0.697505 0.911345 0.648280
0.709957 0.911192 0.642420
0.723568 0.910765 0.635309
0.738827 0.910216 0.627466
0.755886 0.909697 0.619074
0.774929 0.909300 0.610864
0.796109 0.909209 0.603540
0.818906 0.909453 0.597131
0.843015 0.909789 0.590753
0.867796 0.910124 0.584161
0.892973 0.910338 0.576684
0.918578 0.910216 0.567712
0.944305 0.909850 0.556939
0.969879 0.909422 0.549004
0.986389 0.902922 0.548699
1.000000 0.901457 0.563867
1.000000 0.900603 0.582147
1.000000 0.900084 0.602716
1.000000 0.900053 0.627070
1.000000 0.900694 0.654139
0.627924 0.930114 0.644526
0.629664 0.930419 0.646021
0.631739 0.930510 0.647150
0.634394 0.930297 0.648219
0.637781 0.929870 0.649165
0.642603 0.929290 0.650538
0.649073 0.928496 0.652399
0.657130 0.927703 0.655146
0.667262 0.926848 0.659236
0.679164 0.925963 0.664515
0.692317 0.924987 0.670588
0.706661 0.924071 0.677821
0.721523 0.923064 0.685573
0.731777 0.922911 0.681727
0.742733 0.922606 0.675837
0.754788 0.922240 0.669154
0.768490 0.921843 0.661952
0.784115 0.921569 0.654902
0.801694 0.921569 0.648524
0.821073 0.921813 0.643214
0.841733 0.922210 0.637995
0.863249 0.922545 0.632685
0.885344 0.922759 0.626215
0.907958 0.922698 0.618524
0.930999 0.922393 0.609522
0.954559 0.921813 0.598688
0.978332 0.921386 0.590692
0.993256 0.914946 0.590112
1.000000 0.913207 0.604913
1.000000 0.912902 0.625177
1.000000 0.912840 0.647425
1.000000 0.913115 0.671717
0.662287 0.939696 0.677668
0.663600 0.939879 0.678798
0.665461 0.940002 0.680018
0.668238 0.939971 0.681514
0.672175 0.939818 0.683436
0.677974 0.939727 0.686427
0.686397 0.939849 0.691463
0.696834 0.940063 0.697871
0.709133 0.940368 0.705776
0.722621 0.940703 0.714626
0.737087 0.941070 0.724300
0.751705 0.941314 0.734005
0.766201 0.941405 0.743679
0.778073 0.941680 0.748409
0.787594 0.942199 0.746792
0.796963 0.942351 0.743465
0.807156 0.942351 0.739345
0.818509 0.942382 0.734920
0.831418 0.942596 0.731106
0.845792 0.942931 0.727504
0.861295 0.943328 0.724300
0.877714 0.943725 0.720882
0.894774 0.943938 0.716518
0.912444 0.943969 0.711269
0.930907 0.943816 0.705043
0.950134 0.943542 0.698207
0.970153 0.943114 0.690394
0.990692 0.942840 0.684718
1.000000 0.937133 0.685237
1.000000 0.934783 0.696742
1.000000 0.934264 0.714809
1.000000 0.933928 0.733639
0.725063 0.955169 0.739956
0.725216 0.955169 0.740017
0.725826 0.955047 0.740108
0.726864 0.954833 0.740291
0.728847 0.954528 0.740841
0.731838 0.954162 0.741878
0.736172 0.953796 0.743740
0.741756 0.953399 0.746273
0.748714 0.953002 0.749752
0.756863 0.952605 0.754055
0.765988 0.952209 0.759030
0.775998 0.951781 0.764645
0.786374 0.951324 0.770535
0.796963 0.950744 0.776547
