20 Preset/Street 2/【3】LUT video cho PR-AE-FCPX/Tone 1 (7).cube
# Created by Adobe Lightroom plugin Export LUT (1.24.0)
# www.johnrellis.com/lightroom/exportlut.htm
# Preset: 青橙风光-素材江湖07
# Color profile: C:\Program Files (x86)\Common Files\Adobe\Color\Profiles\Recommended\VideoHD.icc
LUT_3D_SIZE 5
DOMAIN_MIN 0.000000 0.000000 0.000000
DOMAIN_MAX 0.903226 0.903226 0.903226
0.087373 0.120455 0.126711
0.175845 0.134279 0.145418
0.317266 0.145876 0.168826
0.591394 0.104829 0.196353
1.000000 0.129458 0.249577
0.125429 0.170016 0.172763
0.184573 0.180575 0.142031
0.383001 0.189944 0.171695
0.696529 0.156466 0.198184
1.000000 0.303593 0.256687
0.253941 0.300298 0.290837
0.243473 0.282444 0.271946
0.538689 0.367987 0.117952
0.997864 0.530846 0.000000
1.000000 0.595758 0.263615
0.541711 0.549462 0.509178
0.532158 0.533165 0.491005
0.583062 0.529412 0.408392
0.971954 0.726314 0.000000
1.000000 0.811032 0.000000
0.907744 0.928985 0.895628
0.907622 0.927398 0.892515
0.885618 0.896513 0.846677
0.980774 0.935668 0.774319
1.000000 0.929870 0.424537
0.104829 0.169039 0.184573
0.130098 0.154025 0.172274
0.303044 0.157534 0.175723
0.555932 0.141634 0.191592
0.981231 0.000000 0.228458
0.124849 0.190860 0.196872
0.165133 0.209812 0.217136
0.359869 0.201175 0.192294
0.646693 0.177340 0.193149
1.000000 0.220584 0.228336
0.279393 0.325750 0.321874
0.280491 0.320775 0.314580
0.490608 0.359411 0.195224
0.929808 0.468360 0.038972
1.000000 0.576776 0.243381
0.579614 0.589685 0.554070
0.569604 0.573632 0.535851
0.567681 0.529534 0.454170
0.965240 0.724300 0.000000
1.000000 0.806363 0.000000
0.909667 0.931518 0.900847
0.908202 0.929046 0.896605
0.910613 0.923369 0.884703
0.979492 0.945342 0.821073
1.000000 0.934173 0.459663
0.155947 0.258488 0.295811
0.180209 0.242008 0.281010
0.233036 0.223575 0.266087
0.495277 0.142855 0.267124
0.913298 0.000000 0.250706
0.170382 0.306310 0.335332
0.213443 0.293248 0.328923
0.271366 0.261265 0.301518
0.531273 0.170077 0.275639
0.980133 0.135195 0.262028
0.281804 0.400275 0.399847
0.326085 0.420172 0.420508
0.547326 0.532280 0.536278
0.825864 0.439277 0.395911
1.000000 0.514794 0.313207
0.661128 0.667353 0.653193
0.661585 0.670130 0.652949
0.686427 0.686152 0.657191
0.948699 0.773922 0.435859
1.000000 0.810727 0.386206
0.908080 0.932799 0.908568
0.913085 0.936004 0.912291
0.913329 0.932219 0.903868
0.944762 0.934386 0.861204
1.000000 0.930144 0.477455
0.278660 0.421302 0.507897
0.303075 0.406683 0.497017
0.366155 0.373266 0.436866
0.410224 0.307744 0.402106
0.886381 0.000000 0.503685
0.310063 0.471077 0.546777
0.332647 0.450568 0.532403
0.392554 0.400092 0.468391
0.432746 0.329320 0.420600
0.882444 0.000000 0.495308
0.252018 0.626795 0.636591
0.311131 0.626123 0.640894
0.525933 0.577661 0.633845
0.583612 0.472114 0.547753
0.957275 0.222324 0.504784
0.604639 0.763302 0.741238
0.623072 0.767025 0.745693
0.724636 0.811124 0.791287
0.892027 0.904295 0.890196
1.000000 0.813809 0.743435
0.924834 0.938689 0.926482
0.926635 0.940887 0.928618
0.935912 0.951080 0.938476
0.943786 0.956115 0.939452
1.000000 0.957977 0.829740
0.726955 0.836179 0.891722
0.729183 0.824918 0.886473
0.748562 0.786923 0.866850
0.777707 0.746212 0.793179
0.825132 0.562707 0.750362
0.726314 0.843503 0.892271
0.729976 0.833860 0.888029
0.747036 0.793668 0.867979
0.775448 0.745418 0.794339
0.821622 0.567834 0.748562
0.743893 0.896117 0.913207
0.755062 0.889921 0.910399
0.778286 0.857481 0.895567
0.799039 0.790311 0.835416
0.850462 0.644465 0.788235
0.793118 0.947417 0.936767
0.792782 0.946075 0.935790
0.807309 0.945159 0.937377
0.875517 0.916991 0.929076
0.911528 0.844358 0.887175
0.910826 0.972564 0.961181
0.912932 0.972686 0.961517
0.926665 0.975402 0.965759
0.951995 0.980591 0.973907
0.998596 0.998871 0.998596
