20 Preset/Street 2/【3】LUT video cho PR-AE-FCPX/Tone 1 (4).cube
# Created by Adobe Lightroom plugin Export LUT (1.24.0)
# www.johnrellis.com/lightroom/exportlut.htm
# Preset: 青橙风光-素材江湖04
# Color profile: C:\Program Files (x86)\Common Files\Adobe\Color\Profiles\Recommended\VideoHD.icc
LUT_3D_SIZE 32
DOMAIN_MIN 0.0 0.0 0.0
DOMAIN_MAX 1.0 1.0 1.0
0.056580 0.096407 0.101076
0.056580 0.096407 0.101076
0.056580 0.096407 0.101076
0.064485 0.096864 0.101686
0.097108 0.100282 0.106172
0.115145 0.105318 0.112398
0.134310 0.108797 0.117647
0.154910 0.110994 0.121431
0.176608 0.112581 0.125032
0.201907 0.114565 0.128420
0.230381 0.115389 0.131807
0.261936 0.115480 0.135256
0.297154 0.114199 0.138766
0.336553 0.110292 0.142245
0.380102 0.102724 0.145876
0.428077 0.089204 0.149233
0.481422 0.038209 0.152895
0.538750 0.000000 0.156649
0.598962 0.000000 0.160433
0.662501 0.000000 0.164767
0.746242 0.000000 0.170962
0.836362 0.000000 0.179446
0.914031 0.000000 0.188510
0.979706 0.000000 0.199588
1.000000 0.000000 0.213199
1.000000 0.136934 0.229740
1.000000 0.223270 0.251377
1.000000 0.292851 0.279240
1.000000 0.358465 0.315007
1.000000 0.424353 0.360632
1.000000 0.492653 0.417487
1.000000 0.564416 0.486152
0.056580 0.096407 0.101076
0.056580 0.096407 0.101076
0.056580 0.096407 0.101076
0.066468 0.096773 0.101686
0.097108 0.100282 0.106172
0.113832 0.105165 0.112123
0.132876 0.108705 0.117098
0.152651 0.111086 0.120912
0.174441 0.112734 0.124514
0.199222 0.114656 0.127993
0.227115 0.115785 0.131380
0.257939 0.115999 0.134676
0.292576 0.114931 0.138247
0.330724 0.111818 0.141573
0.373419 0.104921 0.145083
0.421241 0.092531 0.148531
0.473396 0.050690 0.152132
0.529900 0.000000 0.155825
0.589746 0.000000 0.159579
0.651820 0.000000 0.163699
0.732876 0.000000 0.169619
0.817166 0.000000 0.177371
0.891508 0.000000 0.185428
0.956573 0.000000 0.194949
1.000000 0.000000 0.206516
1.000000 0.042908 0.220951
1.000000 0.184298 0.239933
1.000000 0.259617 0.264805
1.000000 0.328496 0.297551
1.000000 0.396094 0.340246
1.000000 0.465919 0.394537
1.000000 0.538781 0.461158
0.056580 0.096407 0.101076
0.056580 0.096407 0.101076
0.056580 0.096407 0.101076
0.069429 0.097047 0.101991
0.097688 0.100191 0.106508
0.114260 0.105104 0.112459
0.133150 0.109010 0.117037
0.153719 0.111879 0.120790
0.176364 0.114473 0.124239
0.201541 0.116182 0.127718
0.229587 0.117464 0.131075
0.260624 0.117739 0.134340
0.295262 0.116518 0.137911
0.333654 0.113436 0.141207
0.376501 0.106600 0.144686
0.423835 0.095003 0.148135
0.475929 0.057618 0.151705
0.531945 0.000000 0.155428
0.591028 0.000000 0.158999
0.652949 0.000000 0.163272
0.733455 0.000000 0.169039
0.815000 0.000000 0.176303
0.886473 0.000000 0.183993
0.949523 0.000000 0.192935
1.000000 0.000000 0.203738
1.000000 0.001984 0.217166
1.000000 0.172122 0.234958
1.000000 0.248783 0.258335
1.000000 0.317479 0.289555
1.000000 0.385016 0.330785
1.000000 0.454108 0.383124
1.000000 0.526360 0.448035
0.053956 0.104555 0.101076
0.052522 0.105257 0.100984
0.053101 0.105928 0.100893
0.082185 0.102724 0.101869
0.100679 0.106203 0.105684
0.118502 0.110201 0.111360
0.138460 0.113893 0.116274
0.159945 0.116548 0.120302
0.183658 0.118868 0.123995
0.209567 0.120607 0.127382
0.238560 0.121431 0.130983
0.270481 0.121462 0.134401
0.305882 0.120211 0.137819
0.345251 0.116518 0.141054
0.387884 0.109926 0.144625
0.435706 0.097627 0.147982
0.486366 0.066560 0.151278
0.540734 0.000000 0.154788
0.597864 0.000000 0.158389
0.657221 0.000000 0.162234
0.734218 0.000000 0.167880
0.808865 0.000000 0.174166
0.875914 0.000000 0.181277
0.938293 0.000000 0.189395
0.993805 0.000000 0.199863
1.000000 0.015564 0.213413
1.000000 0.174929 0.231144
1.000000 0.251652 0.255222
1.000000 0.320043 0.287053
1.000000 0.386847 0.327947
1.000000 0.453437 0.378943
1.000000 0.521782 0.440497
0.042237 0.123995 0.101289
0.042237 0.123995 0.101289
0.063447 0.122255 0.103273
0.090242 0.117647 0.110506
0.107546 0.113893 0.103395
0.128573 0.115267 0.106142
0.145296 0.123293 0.114778
0.168490 0.124941 0.119173
0.193545 0.126772 0.122866
0.221347 0.128023 0.126467
0.251316 0.128725 0.130190
0.285039 0.128267 0.133730
0.322148 0.126528 0.137026
0.363195 0.122927 0.140688
0.408453 0.115267 0.144015
0.458045 0.102785 0.147219
0.510002 0.075563 0.150881
0.565362 0.001617 0.153994
0.621942 0.000000 0.157656
0.682887 0.000000 0.161776
0.756832 0.000000 0.167300
0.825376 0.000000 0.173129
0.888090 0.000000 0.179934
0.946899 0.000000 0.187991
0.999847 0.000000 0.198459
1.000000 0.113985 0.211978
1.000000 0.198581 0.229953
1.000000 0.266178 0.253819
1.000000 0.329686 0.285161
1.000000 0.392065 0.324804
1.000000 0.455177 0.374426
1.000000 0.520378 0.433906
0.052247 0.141176 0.103975
0.058320 0.140780 0.104707
0.084291 0.137972 0.108125
0.098939 0.133120 0.113893
0.110018 0.130739 0.114107
0.133761 0.125917 0.104280
0.165255 0.125368 0.104402
0.186160 0.137057 0.114565
0.214054 0.142275 0.120455
0.245121 0.142672 0.124758
0.278569 0.142184 0.128603
0.315587 0.140871 0.132387
0.356512 0.138033 0.136019
0.401740 0.132692 0.139437
0.450233 0.123842 0.143099
0.501671 0.109621 0.146487
0.555261 0.086610 0.149691
0.610376 0.012268 0.153231
0.665888 0.000000 0.156649
0.731197 0.000000 0.161196
0.799313 0.000000 0.166659
0.862608 0.000000 0.172641
1.000000 0.155642 0.200046
1.000000 0.221042 0.217380
1.000000 0.277745 0.238437
1.000000 0.329320 0.264225
1.000000 0.377905 0.295201
1.000000 0.426123 0.331609
1.000000 0.475502 0.374487
1.000000 0.526726 0.424598
1.000000 0.579980 0.481270
1.000000 0.634791 0.543389
0.091707 0.164797 0.109773
0.094118 0.163943 0.110262
0.103426 0.160769 0.112764
0.114717 0.155306 0.117647
0.123781 0.148989 0.122103
0.144778 0.151247 0.115358
0.177890 0.146242 0.105013
0.232029 0.142947 0.099001
0.264805 0.157015 0.109957
0.308232 0.172091 0.118502
0.353368 0.172610 0.124361
0.400763 0.167880 0.128786
0.449195 0.160830 0.133028
0.499580 0.151461 0.136873
0.550195 0.138796 0.140536
0.600000 0.122377 0.144198
0.650599 0.100984 0.147555
0.700679 0.057496 0.151247
0.757137 0.000000 0.155581
0.831357 0.000000 0.161074
0.900664 0.025208 0.167788
0.964782 0.120058 0.176761
1.000000 0.180697 0.189090
1.000000 0.239780 0.206149
1.000000 0.293858 0.228611
1.000000 0.342840 0.255039
1.000000 0.387182 0.285313
1.000000 0.430335 0.320043
1.000000 0.475074 0.360601
1.000000 0.521080 0.407019
1.000000 0.570184 0.460700
1.000000 0.621790 0.520348
0.101625 0.188937 0.113497
0.103609 0.188235 0.114260
0.114137 0.184268 0.116335
0.127565 0.176944 0.120485
0.136934 0.166842 0.126070
0.152163 0.167300 0.122316
0.179812 0.169894 0.113863
0.222049 0.165011 0.102174
0.298100 0.158022 0.089540
0.341741 0.172946 0.099947
0.398962 0.189212 0.107424
0.468635 0.208042 0.114809
0.520256 0.199039 0.120516
0.570794 0.188754 0.125460
0.619532 0.176822 0.130159
0.666224 0.164309 0.134463
0.712520 0.152102 0.138796
0.758846 0.141268 0.143069
0.823392 0.141604 0.147707
0.883330 0.151614 0.153536
0.940124 0.173922 0.160311
0.992248 0.206729 0.169711
1.000000 0.245884 0.183169
1.000000 0.289464 0.201022
1.000000 0.332280 0.223911
1.000000 0.371862 0.250462
1.000000 0.409857 0.280400
1.000000 0.447120 0.314366
1.000000 0.486763 0.353704
1.000000 0.528405 0.398810
1.000000 0.573236 0.450599
1.000000 0.621271 0.508598
0.113924 0.218051 0.117220
0.116854 0.217044 0.117494
0.126497 0.213291 0.119905
0.140993 0.205600 0.123781
0.153536 0.194461 0.129793
0.162295 0.184512 0.133822
0.188022 0.189822 0.123232
0.225864 0.192355 0.109895
0.279088 0.187472 0.095735
0.385840 0.175174 0.052857
0.444770 0.191318 0.072297
0.514519 0.209018 0.079957
0.590509 0.231907 0.086030
0.660761 0.251530 0.093080
0.705623 0.241123 0.102449
0.747494 0.231601 0.110292
0.790524 0.224643 0.117281
0.846189 0.227909 0.123079
0.896483 0.234745 0.129702
0.943542 0.247013 0.137545
0.986999 0.265202 0.147036
1.000000 0.289158 0.160067
1.000000 0.318181 0.176547
1.000000 0.350622 0.197269
1.000000 0.382940 0.222354
1.000000 0.414130 0.250156
1.000000 0.444770 0.280827
1.000000 0.476204 0.314916
1.000000 0.510094 0.354070
1.000000 0.546471 0.398108
1.000000 0.586511 0.448402
1.000000 0.629786 0.504601
0.129091 0.251957 0.119142
0.132723 0.250553 0.119875
0.141756 0.246616 0.121981
0.156924 0.238621 0.126284
0.171511 0.226993 0.132326
0.181369 0.212070 0.140078
0.197513 0.209903 0.137087
0.231937 0.216587 0.124025
0.280583 0.219059 0.105684
0.348425 0.213077 0.079164
0.489937 0.193393 0.000000
0.557671 0.211490 0.000000
0.630243 0.234379 0.000000
0.703944 0.265019 0.000000
0.775570 0.304540 0.000000
0.838132 0.327977 0.000000
0.887602 0.330571 0.000000
0.930724 0.334447 0.028748
0.968414 0.339879 0.078676
1.000000 0.348089 0.103609
1.000000 0.359075 0.124056
1.000000 0.372839 0.144808
1.000000 0.389685 0.166781
1.000000 0.409125 0.190463
1.000000 0.429511 0.216617
1.000000 0.451484 0.244358
1.000000 0.474830 0.275151
1.000000 0.500633 0.309239
1.000000 0.529961 0.348425
1.000000 0.562737 0.392737
1.000000 0.599237 0.443458
1.000000 0.639765 0.499947
0.146761 0.286687 0.119509
0.148989 0.285924 0.119814
0.158358 0.282139 0.122377
0.174380 0.274052 0.127199
0.191196 0.262577 0.133974
0.204623 0.247288 0.142214
0.209720 0.229221 0.151003
0.242374 0.239567 0.139193
0.288762 0.248478 0.121889
0.353216 0.252415 0.095766
0.439673 0.244694 0.019898
0.595544 0.226383 0.000000
0.682795 0.244633 0.000000
0.759518 0.280888 0.000000
0.835752 0.327886 0.000000
0.905119 0.382361 0.000000
0.963073 0.439277 0.000000
0.996704 0.448981 0.000000
1.000000 0.447089 0.000000
1.000000 0.447608 0.000000
1.000000 0.450233 0.065339
1.000000 0.455573 0.121248
1.000000 0.464729 0.154910
1.000000 0.475441 0.186007
1.000000 0.488746 0.216800
1.000000 0.503716 0.247807
1.000000 0.520684 0.280430
1.000000 0.540673 0.315587
1.000000 0.564202 0.355047
1.000000 0.591577 0.399115
1.000000 0.623163 0.449042
1.000000 0.658625 0.504356
0.169589 0.330816 0.115969
0.172702 0.329625 0.116854
0.181949 0.325841 0.119539
0.198123 0.317876 0.125399
0.216251 0.306004 0.133333
0.233066 0.289647 0.142733
0.242924 0.270359 0.153445
0.258244 0.263096 0.154360
0.303227 0.276738 0.138521
0.365454 0.288426 0.113985
0.451484 0.295720 0.049561
0.564782 0.293462 0.000000
0.836393 0.343999 0.000000
0.938872 0.390204 0.000000
0.992004 0.442664 0.000000
1.000000 0.493874 0.000000
1.000000 0.541863 0.000000
1.000000 0.586389 0.000000
1.000000 0.625299 0.000000
1.000000 0.614313 0.000000
1.000000 0.606439 0.111086
1.000000 0.601434 0.169558
1.000000 0.599145 0.211612
1.000000 0.600305 0.248142
1.000000 0.603876 0.281895
1.000000 0.609613 0.314763
1.000000 0.617334 0.347387
1.000000 0.628260 0.381598
1.000000 0.642817 0.418799
1.000000 0.661524 0.459968
1.000000 0.684749 0.506126
1.000000 0.712551 0.557794
0.215305 0.401831 0.101411
0.216739 0.400824 0.102266
0.226291 0.395239 0.107668
0.242374 0.385473 0.116030
0.261082 0.370489 0.127474
0.279179 0.351019 0.140780
0.294224 0.330205 0.154910
0.300084 0.306157 0.169070
0.343236 0.319524 0.158328
0.415778 0.343114 0.132753
0.513817 0.367498 0.068086
0.634241 0.389014 0.000000
0.766171 0.402472 0.000000
0.925536 0.420569 0.000000
1.000000 0.465797 0.000000
1.000000 0.510216 0.000000
1.000000 0.550530 0.000000
1.000000 0.587732 0.000000
1.000000 0.622766 0.000000
1.000000 0.655756 0.000000
1.000000 0.670710 0.042969
1.000000 0.660456 0.156435
1.000000 0.653101 0.205905
1.000000 0.648920 0.246464
1.000000 0.647578 0.282261
1.000000 0.648859 0.316625
1.000000 0.652857 0.350225
1.000000 0.659968 0.385168
1.000000 0.670832 0.422583
1.000000 0.686122 0.464393
1.000000 0.705348 0.509697
1.000000 0.729122 0.560235
0.270420 0.471443 0.052796
0.271977 0.469886 0.056947
0.280125 0.464057 0.078157
0.295140 0.453193 0.096407
0.313298 0.437873 0.113985
0.331670 0.417548 0.132540
0.347082 0.392981 0.150820
0.354803 0.364965 0.168307
0.365515 0.347570 0.177493
0.433692 0.374456 0.155276
0.523003 0.404242 0.113130
0.630762 0.434943 0.000000
0.749355 0.462745 0.000000
0.869566 0.481331 0.000000
0.994476 0.496223 0.000000
1.000000 0.528557 0.000000
1.000000 0.561822 0.000000
1.000000 0.592737 0.000000
1.000000 0.622889 0.000000
1.000000 0.651698 0.000000
1.000000 0.679988 0.000000
1.000000 0.708125 0.124971
1.000000 0.707668 0.210971
1.000000 0.699947 0.254429
1.000000 0.694759 0.292454
1.000000 0.692531 0.327733
1.000000 0.692714 0.361730
1.000000 0.696040 0.396674
1.000000 0.703090 0.433906
1.000000 0.714321 0.474678
1.000000 0.729702 0.519310
1.000000 0.749447 0.568719
0.333959 0.539849 0.000000
0.335546 0.538262 0.000000
0.341650 0.532250 0.000000
0.353460 0.521019 0.026032
0.369329 0.503685 0.088808
0.385748 0.481910 0.116884
0.400427 0.456306 0.141115
0.409857 0.426642 0.163210
0.410803 0.394598 0.183200
0.450477 0.401343 0.177157
0.532219 0.434699 0.145205
0.630213 0.471077 0.044434
0.736568 0.506676 0.000000
0.845914 0.537163 0.000000
0.946715 0.553796 0.000000
1.000000 0.558373 0.000000
1.000000 0.576959 0.000000
1.000000 0.602441 0.000000
1.000000 0.627375 0.000000
1.000000 0.652094 0.000000
1.000000 0.676936 0.000000
1.000000 0.702113 0.000000
1.000000 0.727169 0.138064
1.000000 0.747768 0.269627
1.000000 0.739803 0.308232
1.000000 0.734615 0.343572
1.000000 0.732174 0.378454
1.000000 0.733028 0.414252
1.000000 0.737636 0.452583
1.000000 0.746395 0.494453
1.000000 0.759518 0.540917
1.000000 0.776730 0.591485
0.393317 0.598871 0.000000
0.395392 0.597803 0.000000
0.401556 0.592950 0.000000
0.411872 0.583673 0.000000
0.427283 0.568841 0.000000
0.444099 0.549248 0.088808
0.460639 0.525841 0.124361
0.473854 0.497810 0.153780
0.479622 0.465583 0.179355
0.476844 0.432776 0.200290
0.552667 0.468238 0.174228
0.638666 0.506035 0.124941
0.731289 0.543481 0.000000
0.826627 0.577356 0.000000
0.916777 0.601312 0.000000
0.995087 0.609064 0.000000
1.000000 0.603754 0.000000
1.000000 0.611292 0.000000
1.000000 0.632349 0.000000
1.000000 0.653559 0.000000
1.000000 0.675715 0.000000
1.000000 0.698482 0.000000
1.000000 0.721584 0.000000
1.000000 0.745052 0.163027
1.000000 0.768460 0.301488
1.000000 0.775479 0.368719
1.000000 0.771389 0.404334
1.000000 0.769986 0.440040
1.000000 0.771756 0.477485
1.000000 0.777096 0.517388
1.000000 0.785977 0.560632
1.000000 0.798611 0.607416
0.449287 0.652918 0.000000
0.450996 0.651667 0.000000
0.455085 0.648066 0.000000
0.465278 0.639582 0.000000
0.479011 0.626459 0.000000
0.495094 0.609003 0.004669
0.511498 0.587182 0.101503
0.525505 0.560143 0.140078
0.534142 0.529503 0.170626
0.534539 0.494606 0.197238
0.560845 0.489418 0.200473
0.638849 0.528466 0.166018
0.723354 0.568475 0.090486
0.810269 0.606348 0.000000
0.893950 0.637049 0.000000
0.967834 0.655024 0.000000
1.000000 0.656977 0.000000
1.000000 0.644434 0.000000
1.000000 0.642115 0.000000
1.000000 0.659480 0.000000
1.000000 0.678004 0.000000
1.000000 0.697841 0.000000
1.000000 0.718288 0.000000
1.000000 0.739620 0.000000
1.000000 0.761349 0.192752
1.000000 0.783505 0.327581
1.000000 0.805844 0.432288
1.000000 0.802945 0.467597
1.000000 0.802823 0.504295
1.000000 0.805814 0.543359
1.000000 0.812070 0.585138
1.000000 0.821714 0.629847
0.508904 0.711543 0.000000
0.510552 0.711513 0.000000
0.569665 0.760281 0.000000
0.577935 0.753048 0.000000
0.589593 0.741787 0.000000
0.603449 0.725490 0.000000
0.618067 0.704524 0.073701
0.631495 0.677790 0.134646
0.641840 0.647486 0.173190
0.646235 0.611933 0.205753
0.639948 0.570275 0.234836
0.699977 0.601068 0.215640
0.774990 0.643488 0.170260
0.849393 0.682033 0.016419
0.917418 0.711482 0.000000
0.976593 0.729366 0.000000
1.000000 0.733547 0.000000
1.000000 0.723445 0.000000
1.000000 0.699641 0.000000
1.000000 0.681880 0.000000
1.000000 0.694606 0.000000
1.000000 0.709224 0.000000
1.000000 0.725490 0.000000
1.000000 0.742916 0.000000
1.000000 0.761257 0.000000
1.000000 0.780514 0.246128
1.000000 0.800351 0.368444
1.000000 0.820890 0.469673
1.000000 0.831144 0.534447
1.000000 0.831785 0.570336
1.000000 0.835538 0.609339
1.000000 0.842344 0.650996
0.580255 0.779782 0.000000
0.586267 0.783444 0.000000
0.595239 0.785122 0.000000
0.607141 0.783200 0.000000
0.620752 0.777218 0.000000
0.635035 0.765377 0.000000
0.649622 0.747799 0.055818
0.662898 0.725124 0.126741
0.674189 0.697505 0.166598
0.680751 0.665095 0.200107
0.681270 0.628565 0.229618
0.691371 0.607996 0.244388
0.760037 0.649683 0.214206
0.829435 0.689235 0.162295
0.894133 0.721859 0.000000
0.951965 0.745235 0.000000
1.000000 0.757717 0.000000
1.000000 0.758328 0.000000
1.000000 0.746761 0.000000
1.000000 0.722103 0.000000
1.000000 0.701900 0.000000
1.000000 0.710689 0.000000
1.000000 0.724147 0.000000
1.000000 0.739010 0.000000
1.000000 0.755093 0.000000
1.000000 0.772580 0.000000
1.000000 0.791104 0.269932
1.000000 0.810758 0.393103
1.000000 0.831327 0.496315
1.000000 0.852323 0.588891
1.000000 0.854520 0.626673
1.000000 0.859190 0.666011
0.621088 0.815640 0.000000
0.626703 0.819059 0.000000
0.635218 0.821073 0.000000
0.645869 0.820462 0.000000
0.658778 0.815915 0.000000
0.672236 0.806455 0.000000
0.685695 0.792538 0.090974
0.698970 0.773922 0.134707
0.711086 0.750790 0.169467
0.719997 0.723140 0.200839
0.724086 0.690242 0.229923
0.720729 0.652033 0.256901
0.758297 0.664546 0.250767
0.822202 0.704128 0.218173
0.882536 0.737972 0.165835
0.936706 0.763699 0.000000
0.984649 0.780270 0.000000
1.000000 0.786770 0.000000
1.000000 0.783536 0.000000
1.000000 0.769863 0.000000
1.000000 0.744076 0.000000
1.000000 0.721859 0.000000
1.000000 0.725063 0.000000
1.000000 0.737301 0.000000
1.000000 0.750973 0.000000
1.000000 0.766293 0.000000
1.000000 0.783017 0.069062
1.000000 0.801297 0.297704
1.000000 0.821042 0.421149
1.000000 0.841825 0.526604
1.000000 0.863127 0.621241
1.000000 0.874876 0.681086
0.663264 0.849546 0.000000
0.668177 0.852293 0.000000
0.675349 0.853727 0.000000
0.684779 0.853086 0.000000
0.695949 0.849485 0.056519
0.707851 0.842161 0.105043
0.720424 0.831296 0.132052
0.733150 0.816861 0.158511
0.745754 0.798734 0.184573
0.756466 0.776242 0.210636
0.763790 0.749050 0.237003
0.765652 0.716701 0.262486
0.763119 0.683162 0.284215
0.821347 0.721492 0.262760
0.876951 0.755306 0.232090
0.927611 0.782315 0.184756
0.973144 0.801846 0.084413
1.000000 0.812924 0.000000
1.000000 0.815976 0.000000
1.000000 0.810666 0.000000
1.000000 0.796139 0.000000
1.000000 0.770687 0.000000
1.000000 0.745785 0.000000
1.000000 0.743526 0.000000
1.000000 0.755062 0.000000
1.000000 0.768399 0.000000
1.000000 0.783536 0.000000
1.000000 0.800778 0.210452
1.000000 0.819852 0.370581
1.000000 0.840208 0.491005
1.000000 0.861418 0.595758
1.000000 0.881804 0.686091
0.729702 0.894774 0.166384
0.731930 0.895384 0.170718
0.735348 0.894957 0.175723
0.740658 0.892943 0.181064
0.748257 0.888823 0.188022
0.757076 0.882780 0.195651
0.767666 0.874449 0.205631
0.779416 0.863737 0.218357
0.791531 0.850401 0.233097
0.803098 0.834287 0.250980
0.812863 0.814694 0.270359
0.819242 0.790433 0.290776
0.820218 0.760494 0.311437
0.840330 0.757321 0.316594
0.888426 0.787778 0.299229
0.932464 0.812192 0.274449
0.971801 0.829465 0.238743
1.000000 0.840024 0.180453
1.000000 0.844205 0.000000
1.000000 0.841855 0.000000
1.000000 0.832486 0.000000
1.000000 0.815183 0.000000
1.000000 0.788235 0.000000
1.000000 0.761471 0.000000
1.000000 0.753506 0.000000
1.000000 0.764187 0.000000
1.000000 0.777096 0.000000
1.000000 0.792386 0.000000
1.000000 0.809873 0.251499
1.000000 0.829343 0.405554
1.000000 0.850156 0.526635
1.000000 0.870024 0.630640
0.765499 0.916594 0.235477
0.767361 0.916991 0.238254
0.770321 0.916655 0.242039
0.775265 0.915129 0.245853
0.781949 0.912139 0.250187
0.789975 0.907713 0.255375
0.799863 0.901427 0.261326
0.810910 0.893584 0.269657
0.822812 0.883879 0.279728
0.834836 0.872038 0.292760
0.845548 0.857847 0.307103
0.854215 0.840238 0.323217
0.859434 0.818601 0.340246
0.857786 0.789761 0.359258
0.895232 0.811215 0.352789
0.934295 0.833524 0.339849
0.969726 0.849943 0.320775
1.000000 0.860716 0.291875
1.000000 0.866239 0.245212
1.000000 0.866484 0.157900
1.000000 0.861234 0.000000
1.000000 0.849760 0.000000
1.000000 0.830961 0.000000
1.000000 0.804288 0.000000
1.000000 0.773526 0.000000
1.000000 0.760891 0.000000
1.000000 0.771176 0.000000
1.000000 0.784024 0.000000
1.000000 0.799405 0.000000
1.000000 0.817350 0.285100
1.000000 0.836759 0.436713
1.000000 0.856504 0.558801
0.809384 0.940917 0.327489
0.811490 0.941619 0.332219
0.813993 0.941375 0.334722
0.817411 0.939818 0.335790
0.821897 0.937041 0.335576
0.827756 0.933043 0.335424
0.835019 0.927703 0.335668
0.843656 0.920928 0.337133
0.853330 0.912810 0.340703
0.863432 0.903288 0.346868
0.872984 0.891722 0.354253
0.881865 0.878080 0.364324
0.888334 0.861509 0.375738
0.891386 0.841093 0.388159
0.898924 0.827970 0.395911
0.932555 0.846677 0.386023
0.963867 0.861173 0.371862
0.993011 0.871702 0.351690
1.000000 0.878355 0.322881
1.000000 0.881010 0.278599
1.000000 0.879149 0.200992
1.000000 0.872190 0.000000
1.000000 0.859251 0.000000
1.000000 0.839475 0.000000
1.000000 0.814176 0.000000
1.000000 0.785733 0.000000
1.000000 0.768338 0.000000
1.000000 0.778164 0.000000
1.000000 0.790890 0.000000
1.000000 0.806455 0.000000
1.000000 0.823209 0.321263
1.000000 0.842130 0.469703
0.831144 0.952880 0.374640
0.832975 0.953429 0.378882
0.835416 0.953338 0.382025
0.838773 0.952361 0.384283
0.843565 0.950500 0.385840
0.849729 0.947814 0.387945
0.857511 0.944335 0.390875
0.866789 0.939849 0.394903
0.877104 0.934478 0.400885
0.887907 0.928191 0.408392
0.898558 0.920531 0.416541
0.908629 0.911437 0.426307
0.917205 0.900481 0.436286
0.923522 0.887022 0.446815
0.926665 0.870359 0.457008
0.943603 0.872496 0.456825
0.969421 0.883787 0.448127
0.993957 0.892241 0.435157
1.000000 0.897917 0.416144
1.000000 0.900572 0.388037
1.000000 0.899840 0.345129
1.000000 0.895171 0.275761
1.000000 0.885985 0.123232
1.000000 0.871458 0.000000
1.000000 0.851682 0.000000
1.000000 0.827420 0.000000
1.000000 0.798337 0.000000
1.000000 0.776364 0.000000
1.000000 0.786465 0.000000
1.000000 0.797879 0.000000
1.000000 0.812436 0.167300
1.000000 0.830350 0.378515
0.858061 0.966888 0.446387
0.859007 0.967071 0.448463
0.860685 0.966796 0.450172
0.863462 0.965942 0.451484
0.867369 0.964477 0.452552
0.872709 0.962371 0.453834
0.879545 0.959564 0.455818
0.887694 0.956115 0.458930
0.896849 0.951995 0.463691
0.906767 0.947173 0.470039
0.916960 0.941405 0.477424
0.926970 0.934783 0.486152
0.936156 0.926970 0.495521
0.943847 0.917632 0.504997
0.949462 0.906249 0.514549
0.952270 0.893492 0.523308
0.973663 0.902342 0.517357
0.994476 0.909209 0.508110
1.000000 0.913970 0.494789
1.000000 0.916564 0.475044
1.000000 0.916472 0.445045
1.000000 0.913298 0.399115
1.000000 0.906554 0.326452
1.000000 0.895628 0.192752
1.000000 0.879789 0.000000
1.000000 0.861753 0.000000
1.000000 0.837369 0.000000
1.000000 0.807950 0.000000
1.000000 0.780514 0.000000
1.000000 0.788602 0.000000
1.000000 0.800565 0.000000
1.000000 0.816587 0.228611
0.877928 0.977234 0.508019
0.878691 0.977325 0.509941
0.880186 0.977173 0.511925
0.882689 0.976593 0.513939
0.886625 0.975677 0.516625
0.892088 0.974395 0.521111
0.899413 0.972930 0.528679
0.908019 0.971221 0.538567
0.917784 0.969177 0.550866
0.928283 0.966857 0.565057
0.939055 0.964141 0.580926
0.949584 0.960906 0.597314
0.959472 0.957031 0.613947
0.968231 0.952361 0.629297
0.975616 0.946685 0.643519
0.981048 0.939666 0.655512
0.988464 0.936675 0.659144
1.000000 0.940337 0.652583
1.000000 0.942718 0.642908
1.000000 0.943603 0.628138
1.000000 0.942657 0.605585
1.000000 0.939483 0.571618
1.000000 0.933562 0.520165
1.000000 0.924376 0.443977
1.000000 0.911223 0.324468
1.000000 0.896269 0.184482
1.000000 0.877379 0.000000
1.000000 0.852415 0.000000
1.000000 0.818662 0.000000
1.000000 0.782345 0.000000
1.000000 0.792477 0.000000
1.000000 0.806973 0.000000
0.906493 0.991302 0.629664
0.906737 0.991241 0.629786
0.907622 0.990967 0.630030
0.909331 0.990448 0.630365
0.912169 0.989624 0.631220
0.916136 0.988464 0.632990
0.921294 0.987060 0.636316
0.927520 0.985351 0.640894
0.934722 0.983368 0.647272
0.942687 0.981079 0.655299
0.951080 0.978454 0.664485
0.959625 0.975525 0.675044
0.967987 0.972168 0.686091
0.975860 0.968322 0.697353
