20 Preset/Street 2/【3】LUT video cho PR-AE-FCPX/Tone 1 (27).cube
# Created by Adobe Lightroom plugin Export LUT (1.24.0)
# www.johnrellis.com/lightroom/exportlut.htm
# Preset: 青橙风光-素材江湖27
# Color profile: C:\Program Files (x86)\Common Files\Adobe\Color\Profiles\Recommended\VideoHD.icc
LUT_3D_SIZE 5
DOMAIN_MIN 0.000000 0.000000 0.000000
DOMAIN_MAX 0.903226 0.903226 0.903226
0.017487 0.100740 0.105013
0.142275 0.117556 0.123720
0.390936 0.140352 0.160861
0.873594 0.097475 0.215000
1.000000 0.409339 0.336187
0.043946 0.147768 0.142916
0.127565 0.155215 0.119997
0.288396 0.214481 0.182650
0.795071 0.270634 0.233341
1.000000 0.487373 0.360296
0.146181 0.255344 0.223026
0.168032 0.256596 0.209873
0.378912 0.294926 0.116945
0.616327 0.411414 0.291478
1.000000 0.628443 0.430701
0.319799 0.407660 0.323217
0.333074 0.404425 0.318944
0.480598 0.463386 0.246311
0.795346 0.526757 0.000000
1.000000 0.722072 0.409461
0.735042 0.743740 0.559014
0.745846 0.743252 0.556817
0.782254 0.741970 0.496956
0.943542 0.838285 0.405890
1.000000 0.840909 0.131868
0.000000 0.141451 0.163210
0.096468 0.125093 0.164858
0.363348 0.156619 0.178134
0.751858 0.200290 0.213474
1.000000 0.387182 0.310307
0.017212 0.168093 0.174624
0.097414 0.193393 0.198764
0.299565 0.225956 0.203983
0.695064 0.279301 0.230014
1.000000 0.451209 0.328008
0.160678 0.290532 0.263462
0.178531 0.284276 0.255924
0.366796 0.303868 0.166567
0.567407 0.382513 0.269047
1.000000 0.614008 0.418769
0.342687 0.435157 0.353338
0.356939 0.432410 0.349310
0.486244 0.477089 0.290654
0.785245 0.520897 0.000000
1.000000 0.715846 0.401465
0.732540 0.750515 0.573053
0.741909 0.748806 0.569512
0.800381 0.765621 0.548821
0.950500 0.848142 0.425025
1.000000 0.847593 0.172183
0.000000 0.205539 0.250431
0.000000 0.193240 0.255283
0.189303 0.161318 0.257755
0.490425 0.177584 0.291051
1.000000 0.359380 0.378820
0.000000 0.239750 0.267063
0.010040 0.245792 0.285649
0.221134 0.199069 0.289708
0.643610 0.198550 0.331884
1.000000 0.444923 0.397864
0.122835 0.308721 0.309239
0.172244 0.333135 0.331670
0.452247 0.474739 0.459571
0.769497 0.508141 0.447761
1.000000 0.619928 0.459510
0.372076 0.497871 0.435248
0.409155 0.518883 0.448920
0.527855 0.545556 0.470039
0.826993 0.606134 0.311772
0.986267 0.722805 0.469917
0.715755 0.773739 0.626215
0.727749 0.774777 0.625208
0.773739 0.774380 0.616114
0.919615 0.842527 0.512871
1.000000 0.838468 0.116732
0.000000 0.295628 0.371099
0.000000 0.286442 0.373236
0.081392 0.236454 0.364263
0.289494 0.178988 0.340703
0.393774 0.216312 0.310552
0.000000 0.316838 0.378454
0.000000 0.315831 0.387335
0.092683 0.260197 0.381476
0.312413 0.197116 0.358434
0.447303 0.230106 0.332433
0.118654 0.376989 0.398108
0.154910 0.386389 0.407599
0.272557 0.418250 0.467750
0.458625 0.308324 0.457221
0.893126 0.364599 0.516686
0.289342 0.478035 0.461982
0.320867 0.491279 0.473732
0.483986 0.573297 0.545953
0.847959 0.825162 0.780575
0.989563 0.840452 0.761837
0.627100 0.742733 0.651698
0.646143 0.754788 0.660456
0.731441 0.809689 0.703639
0.858396 0.850706 0.748775
1.000000 0.873045 0.547112
0.355230 0.597253 0.715023
0.346807 0.579736 0.710842
0.292607 0.488563 0.693660
0.423163 0.342748 0.639002
0.587213 0.148104 0.539788
0.348730 0.597131 0.699733
0.350683 0.585504 0.699275
0.302831 0.501732 0.683925
0.406561 0.350835 0.630793
0.582025 0.161654 0.536217
0.401099 0.644251 0.691249
0.395697 0.632929 0.688014
0.403326 0.591699 0.690120
0.391974 0.413672 0.644709
0.621698 0.208377 0.561578
0.484291 0.706813 0.704616
0.485145 0.702327 0.701289
0.515648 0.701198 0.704860
0.586450 0.681117 0.741268
0.787655 0.384161 0.682124
0.631312 0.809201 0.762997
0.636896 0.809415 0.763363
0.680354 0.821439 0.775723
0.785336 0.853208 0.809842
0.969665 0.964172 0.947173
