20 Preset/Street 2/【3】LUT video cho PR-AE-FCPX/Tone 1 (32).cube
# Created by Adobe Lightroom plugin Export LUT (1.24.0)
# www.johnrellis.com/lightroom/exportlut.htm
# Preset: 青橙风光-素材江湖32
# Color profile: C:\Program Files (x86)\Common Files\Adobe\Color\Profiles\Recommended\VideoHD.icc
LUT_3D_SIZE 5
DOMAIN_MIN 0.000000 0.000000 0.000000
DOMAIN_MAX 0.903226 0.903226 0.903226
0.075471 0.145327 0.163241
0.147921 0.147341 0.165164
0.458625 0.099031 0.170779
0.941131 0.000000 0.164614
1.000000 0.268956 0.197086
0.027588 0.182406 0.174502
0.130007 0.189731 0.174838
0.467323 0.216709 0.177218
0.929351 0.256199 0.161868
1.000000 0.405676 0.215183
0.000000 0.476661 0.211612
0.000000 0.472267 0.230381
0.502495 0.522332 0.186648
0.904509 0.618097 0.236545
1.000000 0.650965 0.327153
0.000000 0.825620 0.396338
0.272251 0.823026 0.417517
0.573632 0.817075 0.424689
0.834745 0.807523 0.360388
1.000000 0.829374 0.480079
0.607630 0.966766 0.655207
0.636988 0.964935 0.664485
0.717372 0.954345 0.683284
0.835142 0.951659 0.659113
0.981353 0.946960 0.622309
0.036835 0.153567 0.190829
0.108003 0.152773 0.195590
0.382635 0.120729 0.227848
0.883085 0.000000 0.235599
1.000000 0.099550 0.269657
0.000000 0.184817 0.208896
0.115694 0.191043 0.218173
0.432227 0.186435 0.230716
0.887053 0.126375 0.244450
1.000000 0.333867 0.282872
0.000000 0.466743 0.262089
0.000000 0.466560 0.281895
0.462165 0.491554 0.266545
0.878660 0.591211 0.325139
1.000000 0.636957 0.384894
0.000000 0.823758 0.440711
0.274266 0.821775 0.460517
0.574182 0.815122 0.485206
0.827756 0.804685 0.420722
1.000000 0.828824 0.525292
0.605982 0.966705 0.669581
0.635218 0.964691 0.677790
0.731167 0.958465 0.713527
0.838956 0.954376 0.689754
0.982147 0.950439 0.654871
0.000000 0.184665 0.330755
0.000000 0.168368 0.337987
0.268650 0.172091 0.370733
0.742733 0.238407 0.497200
1.000000 0.000000 0.525475
0.000000 0.233097 0.366979
0.000000 0.223697 0.380316
0.307225 0.217441 0.403021
0.775662 0.286229 0.508476
1.000000 0.206424 0.514031
0.000000 0.456733 0.462501
0.000000 0.467842 0.472114
0.447639 0.499641 0.509117
0.844297 0.516320 0.513970
1.000000 0.572747 0.534264
0.000000 0.816861 0.580041
0.192294 0.811612 0.587243
0.573266 0.807614 0.620325
0.807156 0.800137 0.591547
1.000000 0.828977 0.658778
0.559808 0.966796 0.706203
0.600000 0.965118 0.714931
0.716457 0.958618 0.746548
0.832090 0.952087 0.755276
0.971099 0.946929 0.714321
0.000000 0.265171 0.613581
0.000000 0.237644 0.618524
0.126558 0.206424 0.626581
0.652918 0.172610 0.651453
0.937652 0.515099 0.734096
0.000000 0.336309 0.632410
0.000000 0.312016 0.636622
0.149599 0.257328 0.643153
0.663142 0.255253 0.658228
0.932128 0.563012 0.738521
0.000000 0.539757 0.664790
0.000000 0.542138 0.667750
0.283726 0.520287 0.691188
0.702571 0.506676 0.693965
0.936645 0.696193 0.769192
0.000000 0.789273 0.735988
0.000000 0.787716 0.736843
0.340307 0.786831 0.747890
0.772457 0.790158 0.771695
0.991577 0.780301 0.757076
0.000000 0.972015 0.780911
0.318639 0.969848 0.784360
0.622461 0.962707 0.804868
0.825925 0.954589 0.841428
0.958251 0.947204 0.816861
0.000000 0.527520 0.888853
0.000000 0.482216 0.890013
0.000000 0.352087 0.892241
0.669764 0.343694 0.882536
0.920592 0.420081 0.875669
0.000000 0.541192 0.887327
0.000000 0.514549 0.888426
0.000000 0.398047 0.891508
0.663447 0.392279 0.881132
0.916045 0.459083 0.874235
0.000000 0.678737 0.883787
0.000000 0.670619 0.884550
0.000000 0.626154 0.888609
0.641688 0.551720 0.882322
0.905669 0.588495 0.875669
0.000000 0.817594 0.889860
0.000000 0.814054 0.889128
0.000000 0.803372 0.888457
0.658991 0.775509 0.893675
0.900511 0.761135 0.888182
0.000000 0.962310 0.908659
0.000000 0.960418 0.908873
0.000000 0.953491 0.911467
0.658106 0.942870 0.917510
0.940093 0.946288 0.939086
