20 Preset/Street 2/【3】LUT video cho PR-AE-FCPX/Tone 1 (33).cube
# Created by Adobe Lightroom plugin Export LUT (1.24.0)
# www.johnrellis.com/lightroom/exportlut.htm
# Preset: 青橙风光-素材江湖33
# Color profile: C:\Program Files (x86)\Common Files\Adobe\Color\Profiles\Recommended\VideoHD.icc
LUT_3D_SIZE 32
DOMAIN_MIN 0.0 0.0 0.0
DOMAIN_MAX 1.0 1.0 1.0
0.051850 0.146670 0.163729
0.051850 0.146670 0.163729
0.051850 0.146670 0.163729
0.051850 0.146670 0.163729
0.051850 0.146670 0.163729
0.092592 0.146761 0.164279
0.117586 0.146700 0.165133
0.140597 0.146395 0.166110
0.164157 0.145724 0.167056
0.188785 0.144411 0.167941
0.215610 0.142580 0.169070
0.243961 0.143160 0.170443
0.276341 0.143343 0.171725
0.313848 0.142702 0.172976
0.358251 0.138155 0.175021
0.408576 0.128573 0.177310
0.464271 0.111421 0.179782
0.524346 0.069215 0.182162
0.588037 0.000000 0.184360
0.673701 0.000000 0.187289
0.749355 0.000000 0.190036
0.814511 0.000000 0.192752
0.869505 0.000000 0.195621
0.917571 0.000000 0.198642
0.958709 0.000000 0.202365
0.994293 0.000000 0.206607
1.000000 0.000000 0.211978
1.000000 0.000000 0.218906
1.000000 0.000000 0.227848
1.000000 0.132540 0.239353
1.000000 0.202426 0.254429
1.000000 0.258000 0.273777
0.051850 0.146670 0.163729
0.051850 0.146670 0.163729
0.051850 0.146670 0.163729
0.051850 0.146670 0.163729
0.051850 0.146670 0.163729
0.091829 0.146822 0.164279
0.116701 0.146548 0.165164
0.139193 0.146334 0.165957
0.162295 0.145724 0.167086
0.186465 0.144564 0.167971
0.212558 0.142947 0.169100
0.240360 0.143587 0.170321
0.272007 0.144106 0.171817
0.308568 0.143801 0.172946
0.351843 0.139681 0.175021
0.401678 0.131106 0.177371
0.456886 0.115511 0.179538
0.516564 0.083925 0.182010
0.580194 0.000000 0.184390
0.662257 0.000000 0.187076
0.736049 0.000000 0.189700
0.800198 0.000000 0.192264
0.854978 0.000000 0.195010
0.903502 0.000000 0.197879
0.945830 0.000000 0.201022
0.982727 0.000000 0.205081
1.000000 0.000000 0.209995
1.000000 0.000000 0.216526
1.000000 0.000000 0.224704
1.000000 0.106600 0.235599
1.000000 0.187015 0.250034
1.000000 0.246250 0.268528
0.051850 0.146670 0.163729
0.051850 0.146670 0.163729
0.051850 0.146670 0.163729
0.051850 0.146670 0.163729
0.051850 0.146670 0.163729
0.091829 0.146822 0.164279
0.116182 0.146578 0.165164
0.138369 0.146426 0.165957
0.161013 0.145907 0.166903
0.184970 0.144594 0.167819
0.209598 0.145266 0.169100
0.236942 0.146517 0.170474
0.267979 0.147311 0.171939
0.304112 0.147402 0.173098
0.347112 0.143801 0.175204
0.396307 0.136110 0.177554
0.450935 0.122194 0.179934
0.510491 0.096407 0.182406
0.575616 0.000000 0.184604
0.655329 0.000000 0.187259
0.728359 0.000000 0.189853
0.792203 0.000000 0.192325
0.847044 0.000000 0.194949
0.895995 0.000000 0.197726
0.938598 0.000000 0.200809
0.976226 0.000000 0.204593
1.000000 0.000000 0.209293
1.000000 0.000000 0.215396
1.000000 0.000000 0.223636
1.000000 0.108095 0.234134
1.000000 0.185397 0.248081
1.000000 0.244022 0.266087
0.051850 0.146670 0.163729
0.051850 0.146670 0.163729
0.051850 0.146670 0.163729
0.051850 0.146670 0.163729
0.051850 0.146670 0.163729
0.093324 0.146731 0.164279
0.116518 0.146761 0.165133
0.137942 0.146487 0.165957
0.159213 0.147402 0.167147
0.181247 0.148989 0.168490
0.205631 0.150607 0.169833
0.232456 0.152041 0.171023
0.263462 0.153414 0.172305
0.299535 0.153262 0.174014
0.341711 0.150454 0.176089
0.390173 0.144015 0.178470
0.443946 0.132692 0.180697
0.502037 0.112947 0.183017
0.568109 0.055940 0.185428
0.642817 0.000000 0.187991
0.712673 0.000000 0.190158
0.775570 0.000000 0.192660
0.831296 0.000000 0.195102
0.882139 0.000000 0.197757
0.927825 0.000000 0.200565
0.968322 0.000000 0.204410
1.000000 0.000000 0.209415
1.000000 0.000000 0.215488
1.000000 0.000000 0.223636
1.000000 0.129793 0.234257
1.000000 0.196658 0.247898
1.000000 0.250156 0.265385
0.049958 0.148196 0.164096
0.049653 0.148196 0.164279
0.048249 0.148653 0.164248
0.048219 0.149050 0.164553
0.047608 0.150301 0.164584
0.082460 0.151980 0.165377
0.106752 0.153262 0.166293
0.128389 0.154360 0.167361
0.149813 0.155795 0.168276
0.172610 0.157382 0.169619
0.197330 0.158877 0.170809
0.225040 0.160494 0.171969
0.255711 0.162081 0.173220
0.292454 0.162112 0.175265
0.334966 0.159976 0.177523
0.383246 0.155398 0.179934
0.437568 0.146090 0.182254
0.496345 0.130495 0.184482
0.565148 0.101411 0.186923
0.637598 0.000000 0.189212
0.706050 0.000000 0.191501
0.768246 0.000000 0.193729
0.824155 0.000000 0.196139
0.875731 0.000000 0.198520
0.922484 0.000000 0.201480
0.963867 0.000000 0.205234
1.000000 0.000000 0.209842
1.000000 0.000000 0.216129
1.000000 0.059052 0.224094
1.000000 0.157626 0.234684
1.000000 0.212711 0.248264
1.000000 0.261570 0.265476
0.030091 0.158328 0.167117
0.029389 0.158541 0.167086
0.030365 0.158724 0.167239
0.027924 0.159335 0.167361
0.028656 0.160281 0.167056
0.059907 0.161593 0.166415
0.098848 0.162448 0.165927
0.114443 0.164492 0.169802
0.138003 0.166415 0.170626
0.162631 0.168276 0.171572
0.188785 0.170047 0.172366
0.217746 0.171878 0.173800
0.250431 0.173159 0.175723
0.287938 0.173739 0.177798
0.331243 0.172641 0.180056
0.380438 0.169192 0.182345
0.435340 0.162234 0.184634
0.495399 0.149905 0.186984
0.567987 0.128145 0.189242
0.639277 0.091432 0.191470
0.707118 0.000000 0.193668
0.768978 0.000000 0.195743
0.899626 0.000000 0.202640
0.943847 0.000000 0.206271
0.981628 0.000000 0.210452
1.000000 0.050416 0.216037
1.000000 0.130953 0.223117
1.000000 0.177432 0.231876
1.000000 0.218357 0.242618
1.000000 0.257572 0.256260
1.000000 0.294591 0.273106
1.000000 0.331579 0.292943
0.005524 0.171542 0.171298
0.004822 0.171725 0.171267
0.003815 0.171908 0.171420
0.003052 0.172427 0.171695
0.009949 0.173007 0.170565
0.038880 0.173526 0.170748
0.084718 0.176272 0.168429
0.117067 0.177707 0.166140
0.136446 0.178988 0.170840
0.156161 0.182284 0.175540
0.186069 0.185275 0.177218
0.219089 0.187778 0.178897
0.255039 0.189639 0.180667
0.296117 0.190585 0.182773
0.342229 0.190036 0.184848
0.393744 0.187076 0.186984
0.450690 0.181277 0.189029
0.520867 0.170626 0.191226
0.597253 0.153841 0.193790
0.672145 0.130556 0.195865
0.743191 0.102480 0.198123
0.808743 0.057832 0.200565
0.868223 0.028473 0.203159
0.920989 0.061830 0.206699
0.965270 0.109133 0.211093
1.000000 0.145113 0.216587
1.000000 0.178714 0.223392
1.000000 0.211307 0.231846
1.000000 0.244297 0.242374
1.000000 0.276921 0.255497
1.000000 0.310307 0.271519
1.000000 0.343633 0.290990
0.000000 0.184024 0.174746
0.000000 0.184024 0.174746
0.000000 0.184176 0.174899
0.000000 0.184634 0.174502
0.000000 0.185306 0.173678
0.012360 0.185946 0.174197
0.051057 0.187625 0.174014
0.097810 0.191104 0.172244
0.130892 0.193606 0.170413
0.155734 0.194980 0.174990
0.178897 0.198276 0.180331
0.207309 0.202457 0.184482
0.244846 0.205478 0.186007
0.286473 0.207614 0.187716
0.333165 0.208347 0.189578
0.385199 0.207370 0.191318
0.446509 0.204410 0.193271
0.517815 0.198032 0.195621
0.590295 0.187869 0.197665
0.662226 0.175387 0.199496
0.731380 0.162966 0.201205
0.796048 0.153780 0.203494
0.855467 0.152163 0.205905
0.908629 0.160769 0.209079
0.953796 0.178683 0.213352
0.991150 0.200565 0.218570
1.000000 0.223850 0.225376
1.000000 0.249332 0.233555
1.000000 0.276524 0.244083
1.000000 0.304692 0.257084
1.000000 0.333562 0.273045
1.000000 0.364019 0.292485
0.000000 0.198795 0.180728
0.000000 0.198917 0.180880
0.000000 0.199405 0.181125
0.000000 0.200381 0.181430
0.000000 0.201053 0.179690
0.000000 0.201633 0.180179
0.016754 0.202426 0.180728
0.070527 0.205081 0.180148
0.111330 0.209567 0.178164
0.148196 0.212253 0.176059
0.179721 0.214511 0.179904
0.206760 0.217838 0.185885
0.236179 0.222568 0.192233
0.277317 0.226719 0.194461
0.325750 0.229099 0.195804
0.382116 0.230533 0.197482
0.448066 0.230350 0.199557
0.516808 0.227481 0.201175
0.587213 0.221897 0.202792
0.657465 0.215122 0.204349
0.725154 0.209689 0.205844
0.788418 0.207462 0.207645
0.846921 0.210330 0.209964
0.899870 0.219272 0.212833
0.945068 0.233799 0.216953
0.982849 0.250736 0.222232
1.000000 0.269963 0.228824
1.000000 0.290837 0.237461
1.000000 0.313634 0.248142
1.000000 0.337652 0.261326
1.000000 0.363378 0.277409
1.000000 0.390448 0.296696
0.000000 0.217319 0.188540
0.000000 0.217411 0.188510
0.000000 0.217716 0.188754
0.000000 0.218692 0.189029
0.000000 0.219516 0.187503
0.000000 0.220249 0.187015
0.000000 0.220890 0.187533
0.025025 0.221897 0.188296
0.091279 0.225498 0.186862
0.128756 0.230503 0.184512
0.170748 0.235294 0.181704
0.207736 0.236790 0.184787
0.239414 0.240177 0.191409
0.273777 0.245243 0.198337
0.319554 0.252262 0.204532
0.380987 0.256748 0.206027
0.446937 0.259068 0.207401
0.516655 0.259037 0.208560
0.587121 0.257328 0.209567
0.656641 0.255283 0.210666
0.722133 0.254063 0.211826
0.782284 0.255192 0.213107
0.837430 0.259464 0.214969
0.887907 0.268009 0.217380
0.931945 0.279210 0.221073
0.969696 0.293523 0.225772
1.000000 0.309148 0.232517
1.000000 0.327642 0.240879
1.000000 0.347967 0.251713
1.000000 0.369879 0.265263
1.000000 0.393378 0.281834
1.000000 0.418311 0.301915
0.000000 0.237949 0.196780
0.000000 0.238041 0.196780
0.000000 0.238529 0.196963
0.000000 0.239597 0.197452
0.000000 0.240879 0.196780
0.000000 0.241764 0.194705
0.000000 0.242649 0.195163
0.000000 0.243687 0.195956
0.044312 0.244999 0.196658
0.108309 0.250401 0.194522
0.150912 0.256352 0.191531
0.199039 0.262425 0.188052
0.246250 0.265904 0.189792
0.287205 0.270817 0.197574
0.332158 0.277104 0.205722
0.381659 0.284459 0.214328
0.444465 0.289677 0.217288
0.513848 0.292454 0.217716
0.583856 0.293675 0.218326
0.651942 0.294835 0.218570
0.716030 0.296635 0.219303
0.775174 0.300206 0.220279
0.829953 0.306645 0.221897
0.879911 0.315373 0.224186
0.923735 0.326696 0.227634
0.961547 0.339666 0.232822
0.994415 0.354314 0.239567
1.000000 0.370306 0.248417
1.000000 0.388281 0.259525
1.000000 0.407599 0.273564
1.000000 0.428717 0.290715
1.000000 0.451118 0.311254
0.000000 0.263767 0.206760
0.000000 0.263951 0.206851
0.000000 0.264469 0.206882
0.000000 0.265568 0.207156
0.000000 0.267430 0.207553
0.000000 0.268467 0.204654
0.000000 0.269657 0.204074
0.000000 0.270848 0.204623
0.000000 0.272282 0.205600
0.078035 0.274998 0.205722
0.132570 0.282750 0.203006
0.183993 0.292058 0.199954
0.273411 0.324224 0.198917
0.344976 0.330358 0.198032
0.401526 0.335088 0.207340
0.459174 0.341283 0.218082
0.517205 0.348455 0.229191
0.577874 0.356573 0.238407
0.647639 0.362005 0.237675
0.711971 0.367651 0.237064
0.770413 0.373449 0.237583
0.822812 0.380285 0.238376
0.870268 0.388159 0.240452
0.912108 0.397772 0.243839
0.948516 0.407538 0.248661
0.980133 0.417975 0.255253
1.000000 0.428717 0.262852
1.000000 0.440436 0.272740
1.000000 0.453590 0.284977
1.000000 0.468208 0.299718
1.000000 0.484474 0.317357
1.000000 0.502831 0.338659
0.000000 0.304387 0.221225
0.000000 0.304540 0.221195
0.000000 0.304631 0.221134
0.000000 0.305425 0.221073
0.000000 0.306523 0.221256
0.000000 0.307500 0.218936
0.000000 0.308354 0.215457
0.000000 0.311101 0.216403
0.000000 0.314733 0.217838
0.000000 0.318944 0.219516
0.115175 0.326909 0.219303
0.179263 0.339635 0.216068
0.247959 0.353246 0.211215
0.326055 0.366217 0.204746
0.410040 0.374273 0.200076
0.469978 0.378149 0.210544
0.527367 0.383276 0.222324
0.582696 0.389715 0.234958
0.636042 0.398505 0.247501
0.694087 0.406653 0.251835
0.751705 0.413306 0.251194
0.804440 0.420966 0.251499
0.852323 0.429358 0.252781
0.895201 0.438483 0.255680
0.932647 0.448035 0.260166
0.965332 0.457862 0.266514
0.993988 0.468025 0.274571
1.000000 0.478859 0.284642
1.000000 0.491096 0.296910
1.000000 0.504479 0.312352
1.000000 0.519127 0.330510
1.000000 0.535668 0.352422
0.000000 0.347082 0.235416
0.000000 0.347021 0.235294
0.000000 0.347204 0.235233
0.000000 0.347906 0.235142
0.000000 0.349279 0.235233
0.000000 0.351202 0.234257
0.000000 0.352697 0.228489
0.000000 0.354376 0.227787
0.000000 0.356909 0.228977
0.000000 0.360632 0.230228
0.031220 0.365423 0.232059
0.155489 0.375799 0.230350
0.229068 0.389593 0.225589
0.306218 0.403143 0.218997
0.389837 0.415534 0.210391
0.475074 0.421912 0.202853
0.537743 0.425055 0.212436
0.591882 0.428809 0.225742
0.642847 0.435554 0.240238
0.690394 0.444068 0.255283
0.736110 0.454719 0.269718
0.789273 0.463294 0.269261
0.837736 0.472511 0.270115
0.881132 0.482033 0.272770
0.919158 0.491402 0.276799
0.952453 0.500664 0.283238
0.981659 0.510033 0.290959
1.000000 0.519799 0.301244
1.000000 0.530632 0.313756
1.000000 0.542504 0.329290
1.000000 0.555749 0.348089
1.000000 0.570489 0.370459
0.000000 0.398718 0.252201
0.000000 0.398718 0.252293
0.000000 0.398474 0.251926
0.000000 0.398596 0.251621
0.000000 0.398962 0.251072
0.000000 0.400214 0.250523
0.000000 0.401007 0.244968
0.000000 0.402350 0.239902
0.000000 0.404089 0.240757
0.000000 0.407385 0.242008
0.000000 0.411872 0.243809
0.122683 0.417426 0.246036
0.209995 0.429877 0.242130
0.289555 0.443732 0.235538
0.371527 0.456367 0.226810
0.455848 0.467018 0.215793
0.536889 0.471443 0.206119
0.602441 0.476173 0.213809
0.651942 0.479316 0.229038
0.697353 0.485084 0.246586
0.739895 0.493568 0.264408
0.780453 0.505028 0.283330
0.823911 0.516381 0.292546
0.867399 0.525719 0.294560
0.905608 0.534813 0.298314
0.939330 0.543603 0.304295
0.969085 0.552453 0.312200
0.995453 0.561761 0.322881
1.000000 0.571832 0.336400
1.000000 0.583185 0.353155
1.000000 0.595758 0.373632
1.000000 0.609644 0.397650
0.000000 0.451301 0.270024
0.000000 0.451606 0.270115
0.000000 0.451850 0.270024
0.000000 0.452247 0.269657
0.000000 0.453223 0.269322
0.000000 0.455055 0.268956
0.000000 0.457374 0.265232
0.000000 0.459571 0.256229
0.000000 0.461921 0.256107
0.000000 0.464820 0.257389
0.000000 0.468025 0.258793
0.000000 0.471565 0.260868
0.192569 0.475380 0.262211
0.274632 0.486824 0.255039
0.353643 0.497749 0.246159
0.433936 0.507622 0.235172
0.515770 0.516838 0.221958
0.589899 0.519921 0.210269
0.656794 0.527153 0.215305
0.702205 0.529625 0.233127
0.744137 0.535790 0.254612
0.783841 0.544976 0.276249
0.820798 0.556786 0.298680
0.854459 0.570306 0.322972
0.893095 0.579522 0.326482
0.927276 0.588281 0.332525
0.957275 0.596704 0.340887
0.983886 0.605035 0.351629
1.000000 0.613764 0.365240
1.000000 0.623224 0.381842
1.000000 0.633600 0.401770
1.000000 0.645167 0.425452
0.000000 0.505608 0.290013
0.000000 0.505699 0.289891
0.000000 0.505974 0.289860
0.000000 0.506523 0.289403
0.000000 0.507683 0.289128
0.000000 0.509667 0.288914
0.000000 0.512566 0.287724
0.000000 0.514336 0.278355
0.000000 0.516472 0.271824
0.000000 0.518700 0.273014
0.000000 0.521386 0.274784
0.000000 0.524254 0.276463
0.161349 0.526848 0.278477
0.260594 0.531304 0.277806
0.340459 0.542016 0.268833
0.418891 0.551843 0.258274
0.496895 0.561089 0.245701
0.573541 0.570001 0.230777
0.640375 0.571893 0.217777
0.707362 0.581079 0.219425
0.749233 0.583764 0.241550
0.788052 0.589380 0.266239
0.823514 0.597955 0.292515
0.855772 0.608423 0.319463
0.884733 0.620356 0.347845
0.914244 0.631098 0.366644
0.944610 0.638911 0.375036
0.971466 0.646448 0.385870
0.994995 0.654170 0.399725
1.000000 0.662440 0.416449
1.000000 0.671412 0.436439
1.000000 0.681453 0.460182
0.000000 0.566583 0.314977
0.000000 0.567132 0.315038
0.000000 0.604883 0.332647
0.000000 0.605676 0.332250
0.000000 0.606500 0.331792
0.000000 0.607782 0.331273
0.000000 0.609918 0.330571
0.000000 0.611231 0.321599
0.000000 0.613245 0.307958
0.000000 0.614313 0.307774
0.000000 0.615686 0.309331
0.000000 0.616754 0.311162
0.168795 0.616938 0.312779
0.285313 0.616175 0.314031
0.365393 0.619043 0.309880
0.439063 0.625910 0.298100
0.510063 0.632044 0.284672
0.579156 0.637873 0.269535
0.646418 0.643732 0.252476
0.706813 0.644800 0.236149
0.768093 0.651240 0.236088
0.803830 0.651057 0.263523
0.836149 0.653529 0.292363
0.864958 0.658320 0.323613
0.890532 0.664515 0.354376
0.913451 0.672389 0.385382
0.933776 0.681880 0.417426
0.959075 0.687465 0.428046
0.982116 0.693202 0.440192
1.000000 0.699855 0.456062
1.000000 0.707362 0.475471
1.000000 0.715877 0.498207
0.000000 0.638270 0.349340
0.000000 0.641810 0.351324
0.000000 0.645716 0.353307
0.000000 0.649378 0.354955
0.000000 0.652644 0.355871
0.000000 0.654810 0.356115
0.000000 0.656672 0.355688
0.000000 0.658198 0.350744
0.000000 0.659266 0.337255
0.000000 0.660182 0.328618
0.000000 0.660761 0.330083
0.000000 0.661250 0.331853
0.105776 0.660975 0.333318
0.264042 0.659998 0.334813
0.351690 0.658564 0.335821
0.423011 0.662287 0.329076
0.490974 0.668788 0.317418
0.557305 0.674891 0.303899
0.622675 0.681178 0.289403
0.686519 0.687709 0.273259
0.746883 0.692836 0.256107
0.803647 0.696651 0.254734
0.835721 0.695644 0.285588
0.864408 0.696468 0.316869
0.889403 0.699275 0.351232
0.911711 0.703883 0.384558
0.931487 0.710262 0.418402
0.948943 0.718563 0.453620
0.967163 0.726711 0.480598
0.987579 0.732448 0.495491
1.000000 0.738979 0.513817
1.000000 0.746395 0.535668
0.000000 0.688350 0.378454
0.000000 0.691737 0.380774
0.000000 0.695613 0.383276
0.000000 0.699062 0.385168
0.000000 0.702083 0.386633
0.000000 0.704005 0.387121
0.000000 0.705562 0.386755
0.000000 0.707088 0.386511
0.000000 0.707729 0.373053
0.000000 0.708766 0.357305
0.000000 0.708644 0.357916
0.000000 0.708370 0.359380
0.000000 0.707698 0.360693
0.253483 0.706783 0.362188
0.347143 0.705165 0.363592
0.418799 0.703243 0.364996
0.482338 0.707881 0.355413
0.544457 0.713344 0.343450
0.605890 0.718807 0.330846
0.666224 0.724331 0.316991
0.725124 0.729885 0.302281
0.781918 0.735653 0.286107
0.832425 0.736782 0.285405
0.863340 0.735378 0.315526
0.888457 0.734676 0.348119
0.910277 0.736080 0.384314
0.929503 0.739437 0.420203
0.946502 0.744869 0.456886
0.961273 0.752529 0.494759
0.973724 0.762264 0.534508
0.990356 0.768704 0.555230
1.000000 0.775113 0.575433
0.000000 0.736812 0.412787
0.000000 0.739590 0.415015
0.000000 0.742519 0.417334
0.000000 0.745388 0.419593
0.000000 0.747677 0.421118
0.000000 0.749111 0.421851
0.000000 0.750240 0.421759
0.000000 0.751339 0.421851
0.000000 0.752163 0.414252
0.000000 0.752895 0.399481
0.000000 0.753048 0.391333
0.000000 0.752346 0.392828
0.000000 0.751461 0.394110
0.256809 0.750210 0.395605
0.349676 0.748714 0.397314
0.421210 0.747097 0.398810
0.482765 0.746273 0.400031
0.540917 0.751888 0.390631
0.599023 0.757656 0.381262
0.656611 0.763638 0.371160
0.712978 0.769619 0.360723
0.767636 0.775601 0.349767
0.819760 0.781186 0.337285
0.864286 0.781003 0.339269
0.894377 0.779782 0.368017
0.915770 0.778317 0.403449
0.933928 0.778866 0.441779
0.949523 0.781704 0.481544
0.962829 0.786709 0.522118
0.973968 0.793729 0.562890
0.982666 0.802701 0.604547
0.991394 0.811673 0.639704
0.000000 0.794156 0.466865
0.000000 0.795041 0.468055
0.000000 0.795834 0.468910
0.000000 0.796292 0.469581
0.000000 0.796719 0.469856
0.000000 0.796780 0.469703
0.000000 0.796933 0.469917
0.000000 0.797330 0.470253
0.000000 0.797757 0.467811
0.000000 0.798428 0.455024
0.000000 0.799222 0.439857
0.000000 0.798276 0.441321
0.181430 0.797116 0.442908
0.298283 0.795529 0.444068
0.377386 0.793942 0.445716
0.441810 0.792020 0.447059
0.498482 0.790005 0.448554
0.549554 0.789853 0.447364
0.599908 0.793759 0.438270
0.650568 0.797665 0.428748
0.701015 0.801572 0.419074
0.750332 0.805417 0.408820
0.798428 0.809110 0.397772
0.844694 0.812436 0.385412
0.883940 0.810483 0.385779
0.912963 0.808804 0.410651
0.931426 0.806790 0.447395
0.947173 0.806973 0.486397
0.960235 0.809598 0.528496
0.971038 0.814267 0.570428
0.979614 0.820890 0.612329
0.985931 0.829343 0.654505
0.000000 0.828031 0.508202
0.000000 0.828641 0.509239
0.000000 0.829221 0.510124
0.000000 0.829648 0.510979
0.000000 0.829892 0.511711
0.000000 0.829892 0.512169
0.000000 0.829923 0.513054
0.000000 0.829984 0.514031
0.000000 0.830259 0.515984
0.000000 0.830686 0.506371
0.000000 0.831388 0.493385
0.113985 0.831144 0.487678
0.258518 0.829984 0.488991
0.341344 0.828641 0.490639
0.406836 0.827176 0.492439
0.463539 0.825589 0.494179
0.514733 0.824002 0.496254
0.561608 0.822354 0.498482
0.605554 0.823270 0.495827
0.649836 0.826566 0.488136
0.694453 0.829801 0.480110
0.738918 0.832914 0.471687
0.782925 0.835843 0.462867
0.825895 0.838621 0.453346
0.863523 0.836515 0.431647
0.898833 0.834165 0.430854
0.927214 0.832517 0.453620
0.943267 0.830442 0.491371
0.957000 0.830472 0.530358
0.967803 0.832944 0.573999
0.976440 0.837675 0.617487
0.982818 0.844327 0.660609
0.000000 0.861723 0.561852
0.000000 0.862486 0.563592
0.000000 0.862852 0.564508
0.000000 0.862699 0.564630
0.000000 0.862181 0.564416
0.000000 0.861448 0.564111
0.000000 0.860533 0.563928
0.000000 0.859586 0.564050
0.187198 0.858793 0.564874
0.231876 0.858274 0.559838
0.240421 0.857939 0.547326
0.257298 0.857755 0.534417
0.326970 0.856107 0.534691
0.384283 0.854215 0.534661
0.435492 0.852140 0.534722
0.482490 0.850004 0.534936
0.526421 0.847898 0.535607
0.568231 0.846036 0.537072
0.608331 0.844541 0.539605
0.647150 0.846281 0.536004
0.686610 0.849302 0.530175
0.726650 0.852079 0.523247
0.766262 0.854459 0.515435
0.805234 0.856443 0.506950
0.843534 0.857969 0.496712
0.881132 0.859190 0.485542
0.912810 0.856474 0.482918
0.939727 0.854337 0.502098
0.953277 0.852049 0.539696
0.964721 0.851926 0.578851
0.973388 0.854368 0.622461
0.979767 0.858732 0.665309
0.000000 0.881498 0.599420
0.000000 0.882109 0.600946
0.000000 0.882444 0.602197
0.000000 0.882506 0.603052
0.121401 0.882322 0.603723
0.179812 0.882017 0.604669
0.231357 0.881712 0.606073
0.279545 0.881407 0.608179
0.325933 0.881102 0.611017
0.365301 0.880949 0.612787
0.372045 0.881071 0.603784
0.379248 0.881285 0.592859
0.407904 0.880491 0.588373
0.448188 0.878996 0.588861
0.486091 0.877226 0.588739
0.522606 0.875334 0.588891
0.558129 0.873381 0.589136
0.592981 0.871641 0.590295
0.627222 0.870115 0.592248
0.660517 0.868894 0.595361
0.693141 0.871000 0.590936
0.726833 0.873259 0.585565
0.761013 0.875303 0.579767
0.795407 0.877104 0.573114
0.829648 0.878538 0.565850
0.863676 0.879759 0.557580
0.897337 0.880797 0.549096
0.926055 0.878538 0.546593
0.951202 0.876493 0.564813
0.962036 0.874601 0.603449
0.970764 0.874510 0.642084
0.977142 0.876707 0.682795
0.287572 0.900999 0.644800
0.291966 0.901244 0.645563
0.298161 0.901335 0.646235
0.308385 0.901244 0.646937
0.322545 0.900999 0.647761
0.341161 0.900633 0.648737
0.363958 0.900206 0.650263
0.390539 0.899718 0.652277
0.419837 0.899229 0.655146
0.451392 0.898772 0.659022
0.461646 0.898741 0.654108
0.466621 0.898894 0.645594
0.475288 0.898863 0.637110
0.504295 0.897612 0.637659
0.533013 0.896086 0.637659
0.561273 0.894530 0.637629
0.589807 0.892851 0.637903
0.618433 0.891325 0.638849
0.647120 0.889952 0.640681
0.675685 0.888823 0.643305
0.703609 0.888212 0.645869
0.731289 0.890105 0.641627
0.759762 0.891814 0.637049
0.788998 0.893248 0.631556
0.818601 0.894469 0.625696
0.848539 0.895445 0.619074
0.878660 0.896300 0.612116
0.908659 0.897002 0.604791
0.935180 0.895537 0.602625
0.957397 0.893248 0.620294
0.967071 0.891630 0.656764
0.973907 0.891966 0.694942
0.403082 0.915557 0.684382
0.405402 0.915648 0.685023
0.409979 0.915740 0.685969
0.416846 0.915709 0.686824
0.427466 0.915618 0.688350
0.442145 0.915557 0.690578
0.461646 0.915648 0.694087
0.484382 0.915770 0.698604
0.510063 0.915953 0.704219
0.537316 0.916167 0.710750
0.557031 0.916625 0.713893
0.564385 0.917418 0.710201
0.571771 0.918120 0.705562
0.588342 0.917998 0.705165
0.609552 0.917266 0.707027
0.629999 0.916258 0.708156
0.650416 0.915129 0.708919
0.671290 0.914000 0.709987
0.692836 0.912963 0.711971
0.714656 0.912078 0.714473
0.736416 0.911254 0.717403
0.757626 0.911223 0.718654
0.778897 0.912505 0.715450
0.801205 0.913664 0.712032
0.824186 0.914611 0.708064
0.847929 0.915435 0.703792
0.872129 0.916014 0.698878
0.896818 0.916503 0.694026
0.921843 0.916960 0.689082
0.945403 0.916625 0.688808
0.962280 0.913878 0.706172
0.970733 0.912749 0.736812
0.525963 0.931487 0.738888
0.526482 0.931487 0.738949
0.528344 0.931395 0.739193
0.531823 0.931243 0.739651
0.537713 0.931029 0.740505
0.545983 0.930724 0.741817
0.556970 0.930419 0.743801
0.570520 0.930083 0.746456
0.586358 0.929747 0.749905
0.604150 0.929412 0.754025
0.622614 0.929046 0.758450
0.626123 0.929320 0.754635
0.629786 0.929564 0.750057
0.635828 0.929656 0.746029
