20 Preset/Street 2/【3】LUT video cho PR-AE-FCPX/Tone 1 (6).cube
# Created by Adobe Lightroom plugin Export LUT (1.24.0)
# www.johnrellis.com/lightroom/exportlut.htm
# Preset: 青橙风光-素材江湖06
# Color profile: C:\Program Files (x86)\Common Files\Adobe\Color\Profiles\Recommended\VideoHD.icc
LUT_3D_SIZE 5
DOMAIN_MIN 0.000000 0.000000 0.000000
DOMAIN_MAX 0.903226 0.903226 0.903226
0.024994 0.091463 0.107088
0.209079 0.087251 0.121706
0.754879 0.000000 0.122438
1.000000 0.000000 0.000000
1.000000 0.337804 0.149050
0.102541 0.170413 0.143679
0.178622 0.167819 0.127657
0.724636 0.184329 0.000000
1.000000 0.330358 0.000000
1.000000 0.451545 0.012421
0.313664 0.378607 0.216800
0.342870 0.344915 0.202396
0.718196 0.459724 0.000000
1.000000 0.710536 0.000000
1.000000 0.683070 0.000000
0.705867 0.721675 0.315099
0.720638 0.685023 0.300420
0.861021 0.729946 0.185397
1.000000 0.803037 0.000000
1.000000 0.844480 0.000000
0.962432 0.963287 0.722103
0.973602 0.959960 0.713619
0.998077 0.940429 0.639155
1.000000 0.948638 0.647547
1.000000 0.927184 0.571038
0.000000 0.151247 0.194034
0.121340 0.119539 0.196750
0.639948 0.000000 0.165530
1.000000 0.000000 0.000000
1.000000 0.337987 0.000000
0.000000 0.198947 0.225101
0.135531 0.212802 0.244633
0.656397 0.195071 0.150973
1.000000 0.340246 0.000000
1.000000 0.438422 0.000000
0.259525 0.463996 0.302831
0.347021 0.402289 0.281010
0.644648 0.429969 0.172824
1.000000 0.669947 0.000000
1.000000 0.681666 0.000000
0.696895 0.771115 0.401099
0.722896 0.737209 0.380499
0.845426 0.734066 0.304082
1.000000 0.794705 0.000000
1.000000 0.842527 0.000000
0.949676 0.966461 0.749630
0.960754 0.962707 0.738369
0.999695 0.951690 0.707637
1.000000 0.953521 0.678614
1.000000 0.931273 0.600855
0.000000 0.252934 0.333074
0.000000 0.238224 0.349310
0.312535 0.171542 0.387976
0.841947 0.000000 0.439887
1.000000 0.329290 0.348913
0.000000 0.293980 0.349706
0.000000 0.307683 0.388128
0.371710 0.229465 0.437324
0.972015 0.000000 0.479988
1.000000 0.438422 0.340093
0.000000 0.542687 0.551110
0.000000 0.559960 0.569268
0.648310 0.650019 0.667323
1.000000 0.669764 0.536248
1.000000 0.667781 0.216159
0.460395 0.925719 0.699458
0.552636 0.909026 0.679744
0.794125 0.808194 0.617700
1.000000 0.843595 0.568719
1.000000 0.842130 0.000000
0.898802 0.979431 0.844114
0.910338 0.976501 0.836728
0.956512 0.962127 0.797635
1.000000 0.954131 0.741115
1.000000 0.925536 0.558129
0.000000 0.459754 0.583124
0.000000 0.449165 0.595178
0.000000 0.335180 0.625574
0.665705 0.173526 0.652522
0.869535 0.347295 0.623377
0.000000 0.480262 0.578759
0.000000 0.481819 0.597498
0.000000 0.384405 0.630884
0.676814 0.232822 0.661128
0.902007 0.378302 0.641260
0.000000 0.565393 0.601801
0.000000 0.556695 0.595117
0.390967 0.598230 0.678584
0.776425 0.480934 0.746792
1.000000 0.642969 0.781308
0.269200 0.894652 0.853239
0.376654 0.892485 0.853574
0.664546 0.898924 0.871489
0.921508 0.933593 0.923125
1.000000 0.917082 0.872679
0.836881 1.000000 0.944427
0.849943 1.000000 0.942107
0.893706 0.996887 0.933135
0.964965 0.972137 0.903868
1.000000 0.962432 0.872313
0.630610 0.873838 0.920409
0.628687 0.865354 0.920958
0.613214 0.815457 0.927001
0.717067 0.656641 0.939574
1.000000 0.470527 0.938384
0.611109 0.871977 0.912505
0.619257 0.866361 0.914183
0.609186 0.820798 0.920317
0.697261 0.660182 0.933715
1.000000 0.482765 0.934264
0.627283 0.893523 0.901671
0.626001 0.887724 0.901396
0.662379 0.868254 0.909636
0.662531 0.726162 0.925170
1.000000 0.596216 0.935668
0.703151 0.942687 0.929870
0.702358 0.938933 0.926574
0.725032 0.926390 0.916777
0.808927 0.909545 0.927642
0.975433 0.844480 0.952392
0.820096 0.995758 0.978332
0.827176 0.995148 0.978271
0.863981 0.993683 0.979828
0.923583 0.991241 0.982727
0.997498 0.997955 0.997528
