20 Preset/Street 2/【3】LUT video cho PR-AE-FCPX/Tone 1 (8).cube
# Created by Adobe Lightroom plugin Export LUT (1.24.0)
# www.johnrellis.com/lightroom/exportlut.htm
# Preset: 青橙风光-素材江湖08
# Color profile: C:\Program Files (x86)\Common Files\Adobe\Color\Profiles\Recommended\VideoHD.icc
LUT_3D_SIZE 8
DOMAIN_MIN 0.000000 0.000000 0.000000
DOMAIN_MAX 0.903226 0.903226 0.903226
0.056580 0.096407 0.101076
0.104280 0.102266 0.108156
0.169955 0.113130 0.121859
0.248203 0.117281 0.132296
0.365789 0.105592 0.142702
0.599542 0.000000 0.154513
0.973602 0.000000 0.171542
1.000000 0.212619 0.251225
0.081178 0.115145 0.120302
0.096864 0.117311 0.113313
0.173129 0.127962 0.123384
0.257084 0.129732 0.133547
0.377844 0.118532 0.143435
0.594476 0.000000 0.153536
0.906554 0.000000 0.164950
1.000000 0.140414 0.220066
0.115938 0.157870 0.162295
0.114290 0.154208 0.158022
0.159274 0.160891 0.131075
0.362463 0.204013 0.138705
0.576928 0.185336 0.145754
0.825071 0.135317 0.149172
1.000000 0.228519 0.168093
1.000000 0.422950 0.286076
0.174533 0.222629 0.223362
0.171389 0.218326 0.218631
0.179873 0.214572 0.200443
0.311162 0.252018 0.151156
0.794919 0.404120 0.011444
1.000000 0.555932 0.096284
1.000000 0.555901 0.213901
1.000000 0.617304 0.368444
0.296910 0.335485 0.326909
0.289372 0.327703 0.319127
0.269078 0.304356 0.295232
0.343908 0.330816 0.249821
0.567315 0.391547 0.147280
0.970733 0.587945 0.000000
1.000000 0.741115 0.287724
1.000000 0.782193 0.499001
0.510582 0.512749 0.491371
0.525109 0.524590 0.501488
0.500786 0.497169 0.473396
0.465980 0.453529 0.423774
0.651728 0.543664 0.326085
0.879179 0.643061 0.132540
1.000000 0.789792 0.184024
1.000000 0.869718 0.601373
0.786069 0.800900 0.764157
0.788144 0.802487 0.765377
0.776547 0.785580 0.745937
0.760403 0.756680 0.712947
0.797421 0.761715 0.644617
0.922148 0.827665 0.551537
1.000000 0.857755 0.434211
1.000000 0.893278 0.543603
0.952575 0.963439 0.948699
0.952270 0.963073 0.948150
0.952422 0.962615 0.947204
0.954284 0.962829 0.946777
0.935515 0.942901 0.919951
0.968811 0.960357 0.911650
1.000000 0.972137 0.896605
1.000000 0.967071 0.850706
0.071504 0.115633 0.124758
0.085603 0.110262 0.120607
0.158419 0.114076 0.122072
0.236912 0.124331 0.131197
0.353307 0.118441 0.141878
0.546929 0.000000 0.151888
0.841154 0.000000 0.162753
1.000000 0.000000 0.198856
0.079011 0.121096 0.127230
0.093202 0.127626 0.134401
0.164340 0.130983 0.129610
0.252934 0.136080 0.133394
0.378759 0.127626 0.143282
0.575158 0.000000 0.152285
0.831601 0.000000 0.160983
1.000000 0.000000 0.189059
0.123140 0.167178 0.172976
0.124392 0.167453 0.172580
0.159640 0.167453 0.144533
0.327825 0.196078 0.137331
0.538445 0.189059 0.145144
0.752285 0.137423 0.149203
0.968750 0.121675 0.155581
1.000000 0.308690 0.214511
0.179171 0.228367 0.230137
0.176150 0.223972 0.225437
0.174563 0.213657 0.208255
0.276646 0.235874 0.157382
0.648859 0.323033 0.111666
0.988464 0.463325 0.026093
1.000000 0.463569 0.141543
1.000000 0.529442 0.263951
0.302647 0.340764 0.333623
0.293065 0.331518 0.324346
0.267796 0.304601 0.296910
0.317174 0.315496 0.250492
0.500389 0.352636 0.153140
0.915312 0.529320 0.000000
1.000000 0.704616 0.217319
1.000000 0.748989 0.425971
0.490639 0.495796 0.477272
0.485725 0.490639 0.471717
0.462959 0.466285 0.446418
0.426276 0.423896 0.402686
0.606683 0.509545 0.318975
0.848386 0.610010 0.119814
1.000000 0.770596 0.114076
1.000000 0.855924 0.553613
0.755215 0.766751 0.730617
0.747066 0.756771 0.720241
0.731960 0.735439 0.697230
0.715999 0.706508 0.664942
0.759823 0.719814 0.609003
0.901366 0.796048 0.500008
1.000000 0.831815 0.366735
1.000000 0.876555 0.467903
0.940795 0.953735 0.936522
0.942596 0.955138 0.938201
0.942077 0.954040 0.936431
0.944060 0.954223 0.935851
0.945708 0.952453 0.932372
0.970581 0.962280 0.915221
1.000000 0.970336 0.892027
1.000000 0.965118 0.843534
0.091524 0.152438 0.170108
0.100160 0.146487 0.164981
0.119966 0.136660 0.157931
0.227054 0.121920 0.162234
0.338811 0.122316 0.152926
0.606958 0.000000 0.153353
0.912322 0.000000 0.163302
1.000000 0.147738 0.215183
0.093629 0.165347 0.179843
0.107485 0.162051 0.178500
0.129122 0.151339 0.170535
0.234958 0.134188 0.166506
0.360327 0.132967 0.157687
0.630915 0.000000 0.153017
0.900938 0.000000 0.160983
1.000000 0.149996 0.204623
0.117342 0.187076 0.193088
0.126986 0.192691 0.198886
0.172580 0.217288 0.224582
0.316655 0.209323 0.203281
0.528344 0.191806 0.179416
0.804349 0.176303 0.145846
1.000000 0.201083 0.153811
1.000000 0.347662 0.223941
0.214572 0.261387 0.266361
0.223972 0.270695 0.274968
0.243992 0.286137 0.287785
0.342046 0.295171 0.225010
0.741482 0.387427 0.193057
1.000000 0.490974 0.107851
1.000000 0.504051 0.157351
1.000000 0.562341 0.292760
0.379187 0.404761 0.400580
0.386358 0.409674 0.405127
0.364385 0.387915 0.381415
0.358343 0.362097 0.323888
0.581476 0.417456 0.217014
0.942962 0.562676 0.000000
1.000000 0.710903 0.226474
1.000000 0.756527 0.440894
0.568353 0.568688 0.551629
0.563958 0.563653 0.546258
0.536309 0.533471 0.515312
0.486549 0.478248 0.458503
0.610346 0.529595 0.377569
0.850187 0.621485 0.202457
1.000000 0.765805 0.097658
1.000000 0.857420 0.560449
0.793027 0.810575 0.778775
0.786679 0.803098 0.770687
0.768215 0.779721 0.745022
0.744930 0.744228 0.705959
0.749844 0.722591 0.648371
0.897948 0.807095 0.551507
1.000000 0.838804 0.379889
1.000000 0.885344 0.510643
0.944976 0.957641 0.942199
0.943572 0.956359 0.940459
0.942443 0.954894 0.938201
0.946410 0.956878 0.939910
0.947051 0.954559 0.935698
0.970459 0.963775 0.920897
1.000000 0.972168 0.896788
1.000000 0.966735 0.849180
0.110170 0.197604 0.227573
0.119448 0.192813 0.223911
0.142153 0.184726 0.207370
0.167544 0.168612 0.204227
0.314946 0.124147 0.218723
0.456214 0.000000 0.184817
0.763668 0.000000 0.180728
1.000000 0.000000 0.197726
0.119753 0.215274 0.244785
0.128908 0.210391 0.240909
0.153017 0.198703 0.223636
0.179995 0.180758 0.216953
0.331182 0.131289 0.225101
0.469734 0.000000 0.184268
0.790738 0.000000 0.183871
1.000000 0.133577 0.198459
0.067567 0.264927 0.277317
0.099092 0.268650 0.282628
0.189273 0.259709 0.286442
0.227848 0.231510 0.264744
0.407172 0.168185 0.249638
0.578332 0.109499 0.211490
0.969635 0.049073 0.208530
1.000000 0.379309 0.237919
0.192233 0.314702 0.316350
0.204715 0.321080 0.322911
0.270603 0.355627 0.358343
0.444068 0.444221 0.450752
0.678462 0.393439 0.373510
0.887236 0.376593 0.307805
1.000000 0.439490 0.258183
1.000000 0.556878 0.288060
0.472847 0.471046 0.475868
0.478431 0.476478 0.480812
0.513817 0.509575 0.510735
0.553765 0.543053 0.537194
0.699245 0.561151 0.419318
0.988159 0.689570 0.441352
1.000000 0.766506 0.489235
1.000000 0.759731 0.454078
0.658656 0.660761 0.646632
0.676020 0.679652 0.663752
0.687465 0.690639 0.672847
0.670130 0.664210 0.643977
0.669062 0.623804 0.544182
0.889921 0.707698 0.409888
1.000000 0.806271 0.419379
1.000000 0.861357 0.580926
0.830869 0.852476 0.826902
0.833585 0.854856 0.829343
0.839170 0.858946 0.833219
0.820645 0.836118 0.806241
0.791775 0.790463 0.753384
0.895567 0.842191 0.677272
1.000000 0.861540 0.516930
1.000000 0.890806 0.543664
0.960082 0.970397 0.959594
0.959625 0.969970 0.958953
0.958007 0.968383 0.956573
0.956603 0.966430 0.953338
0.954833 0.962890 0.947601
0.966552 0.965728 0.936675
1.000000 0.974701 0.906859
1.000000 0.969207 0.857816
0.142061 0.270573 0.324926
0.153414 0.265202 0.321172
0.178866 0.247745 0.301579
0.205539 0.239750 0.265812
0.236301 0.203555 0.263127
0.455116 0.099367 0.302800
0.696345 0.000000 0.281041
1.000000 0.000000 0.238132
0.153384 0.289952 0.344884
0.164462 0.286656 0.343267
0.192020 0.265690 0.321813
0.217929 0.250919 0.279118
0.248692 0.213107 0.274235
0.474617 0.100435 0.310826
0.705135 0.000000 0.280858
1.000000 0.000000 0.239719
0.147097 0.361120 0.403296
0.177005 0.360296 0.405432
0.232181 0.333684 0.387396
0.268772 0.299168 0.336736
0.303777 0.256901 0.321691
0.534112 0.125399 0.333837
0.722133 0.000000 0.271855
1.000000 0.000000 0.242649
0.133791 0.448676 0.458167
0.157839 0.453712 0.463661
0.243503 0.480598 0.492988
0.429450 0.470405 0.511894
0.478187 0.403723 0.463691
0.676539 0.241703 0.395514
0.804623 0.053681 0.283391
1.000000 0.335790 0.323278
0.377386 0.525383 0.518181
0.393317 0.533349 0.526207
0.456275 0.563806 0.557061
0.581323 0.633356 0.626368
0.749630 0.745327 0.736049
0.902281 0.668849 0.628443
1.000000 0.641260 0.537255
1.000000 0.688533 0.511009
0.677577 0.669551 0.664393
0.688685 0.678187 0.673091
0.704097 0.695064 0.688838
0.732723 0.731960 0.721004
0.751675 0.751919 0.734554
0.877897 0.786496 0.653956
1.000000 0.868345 0.731685
1.000000 0.901122 0.786038
0.842069 0.860105 0.841093
0.840513 0.858732 0.839475
0.840696 0.859648 0.839384
0.853117 0.872862 0.851194
0.846403 0.861814 0.836820
0.858885 0.844572 0.767941
0.988464 0.877592 0.667506
1.000000 0.904631 0.691859
0.947753 0.961059 0.949065
0.947906 0.961151 0.949157
0.949584 0.962310 0.950408
0.959228 0.969482 0.959045
0.957092 0.966583 0.954223
0.954253 0.960540 0.944732
0.992920 0.973083 0.919615
1.000000 0.965301 0.850523
0.269017 0.435065 0.532616
0.278874 0.428260 0.528130
0.298589 0.394873 0.497047
0.332433 0.360235 0.444831
0.331640 0.339422 0.369543
0.379431 0.259556 0.373541
0.692500 0.000000 0.456886
1.000000 0.000000 0.533959
0.263462 0.430640 0.522393
0.270603 0.423224 0.516258
0.293065 0.394079 0.490578
0.325322 0.357977 0.440955
0.330114 0.338354 0.368994
0.374304 0.261265 0.370214
0.676570 0.000000 0.446143
1.000000 0.000000 0.512749
0.323278 0.520195 0.594263
0.329717 0.510124 0.587152
0.355779 0.475715 0.562799
0.378088 0.416571 0.507927
0.392981 0.386084 0.424323
0.431189 0.301305 0.414954
0.737728 0.000000 0.480964
1.000000 0.000000 0.512444
0.302800 0.655787 0.680690
0.328954 0.649378 0.677974
0.429328 0.636713 0.679500
0.530938 0.600488 0.668025
0.559106 0.529625 0.580774
0.585626 0.428504 0.541039
0.873716 0.207156 0.566827
1.000000 0.000000 0.520439
0.413336 0.706813 0.700343
0.423774 0.708858 0.702602
0.470039 0.721126 0.715938
0.560510 0.750820 0.747646
0.703487 0.733974 0.758114
0.736324 0.643488 0.697932
0.930114 0.407752 0.592828
1.000000 0.278508 0.442298
0.606806 0.760800 0.739162
0.621973 0.770108 0.748226
0.652949 0.781796 0.760586
0.714107 0.807767 0.787594
0.800931 0.849393 0.831266
0.901488 0.913603 0.900084
0.978912 0.876555 0.844511
1.000000 0.869413 0.811337
0.855009 0.882811 0.864775
0.860838 0.887053 0.869444
0.874693 0.895293 0.879026
0.898100 0.910399 0.896635
0.908171 0.922026 0.908232
0.907683 0.921233 0.904753
0.965576 0.926726 0.858213
1.000000 0.952667 0.894377
0.953063 0.962921 0.954376
0.952453 0.962463 0.953765
0.953246 0.963378 0.954620
0.957824 0.967681 0.959167
0.963470 0.972839 0.964324
0.964965 0.972625 0.962890
0.977874 0.973724 0.945556
1.000000 0.973724 0.900450
0.552972 0.697658 0.789700
0.561578 0.695399 0.789792
0.568536 0.663844 0.771359
0.584436 0.615961 0.737850
0.611383 0.575036 0.668360
0.559594 0.525628 0.550408
0.615869 0.356573 0.552178
0.936553 0.000000 0.671229
0.532921 0.677150 0.773037
0.543206 0.677699 0.774899
0.552728 0.651484 0.758999
0.566094 0.601801 0.723049
0.590600 0.556817 0.651148
0.537041 0.504967 0.530968
0.585687 0.343664 0.528161
0.901274 0.000000 0.638270
0.583734 0.740932 0.809598
0.585931 0.735164 0.806790
0.589715 0.706142 0.790585
0.600427 0.653529 0.756985
0.616754 0.593194 0.686152
0.578180 0.539757 0.569574
0.634241 0.386603 0.569848
0.957000 0.167056 0.686885
0.626307 0.821622 0.849363
0.628504 0.815824 0.846067
0.655268 0.801785 0.839963
0.669612 0.758816 0.818906
0.676265 0.684321 0.766690
0.670649 0.631220 0.664332
0.717281 0.480842 0.648493
1.000000 0.317144 0.737789
0.608942 0.873991 0.864561
0.606043 0.871489 0.862516
0.623255 0.865934 0.860807
0.691493 0.847929 0.858274
0.744076 0.805539 0.839292
0.749966 0.731106 0.763851
0.779690 0.604303 0.722408
1.000000 0.475288 0.777584
0.714015 0.894133 0.875944
0.717891 0.894804 0.876860
0.731319 0.896696 0.879667
0.757443 0.900725 0.885649
0.795651 0.907042 0.895232
0.861326 0.893034 0.895995
0.876371 0.833066 0.857145
1.000000 0.691798 0.808865
0.826230 0.921416 0.901091
0.830014 0.922789 0.902739
0.838224 0.924346 0.904997
0.855924 0.928679 0.910826
0.881987 0.935546 0.920012
0.920287 0.949432 0.937804
0.972320 0.977173 0.972320
1.000000 0.957336 0.941802
0.938964 0.961852 0.951232
0.940520 0.962615 0.952209
0.947753 0.966308 0.957061
0.958373 0.971283 0.963806
0.972717 0.978180 0.973358
0.980652 0.984955 0.981231
0.983337 0.987091 0.982422
1.000000 0.988495 0.958434
0.858640 0.922484 0.944579
0.860533 0.922118 0.944640
0.857816 0.913787 0.939574
0.860777 0.902495 0.933043
0.864561 0.885008 0.918791
0.868894 0.867094 0.889097
0.839963 0.844785 0.834745
0.915892 0.679103 0.848966
0.850431 0.916442 0.940124
0.852598 0.916228 0.940337
0.852201 0.909148 0.936309
0.853941 0.896422 0.928832
0.857847 0.878080 0.913848
0.862699 0.860105 0.883879
0.830716 0.833616 0.824704
0.906523 0.656672 0.836423
0.853727 0.920745 0.942016
0.854429 0.919707 0.941527
0.853056 0.912566 0.937316
0.860746 0.905272 0.933654
0.860105 0.884642 0.918975
0.864256 0.864256 0.888273
0.836759 0.838407 0.831479
0.906950 0.672328 0.840177
0.863920 0.937346 0.950317
0.866728 0.937316 0.950591
0.867155 0.931853 0.947539
0.870329 0.922057 0.942321
0.871885 0.904112 0.930755
0.877256 0.884215 0.906096
0.859800 0.861631 0.857298
0.915801 0.725704 0.859617
0.856596 0.954589 0.957519
0.859739 0.954467 0.957916
0.864805 0.950713 0.956298
0.880034 0.945373 0.954559
0.885344 0.929595 0.945403
0.885801 0.904143 0.925139
0.881651 0.883268 0.883513
0.921630 0.783993 0.878660
0.868345 0.969574 0.963928
0.866941 0.968902 0.963256
0.864927 0.967407 0.961944
0.867552 0.966583 0.962066
0.889494 0.959686 0.961547
0.915160 0.947204 0.956817
0.923552 0.929656 0.933501
0.942290 0.876555 0.919860
0.910460 0.980529 0.973632
0.910399 0.980377 0.973480
0.910887 0.979980 0.973205
0.914794 0.980255 0.974060
0.921813 0.980957 0.975860
0.933867 0.982666 0.979553
0.959838 0.975036 0.978790
0.966155 0.946319 0.958373
0.951781 0.991394 0.985565
0.951843 0.991302 0.985473
0.953338 0.991455 0.985779
0.957641 0.992370 0.987243
0.963989 0.993561 0.989197
0.973297 0.995331 0.992096
0.988006 0.999084 0.997681
1.000000 1.000000 1.000000
