20 Preset/Street 2/【3】LUT video cho PR-AE-FCPX/Tone 1 (3).cube
# Created by Adobe Lightroom plugin Export LUT (1.24.0)
# www.johnrellis.com/lightroom/exportlut.htm
# Preset: 青橙风光-素材江湖03
# Color profile: C:\Program Files (x86)\Common Files\Adobe\Color\Profiles\Recommended\VideoHD.icc
LUT_3D_SIZE 5
DOMAIN_MIN 0.000000 0.000000 0.000000
DOMAIN_MAX 0.903226 0.903226 0.903226
0.111482 0.123384 0.099184
0.257603 0.103273 0.098177
0.741817 0.000000 0.023377
1.000000 0.000000 0.000000
1.000000 0.206424 0.000000
0.164706 0.181765 0.125368
0.202609 0.181369 0.117983
0.638422 0.171908 0.000000
1.000000 0.258915 0.000000
1.000000 0.369879 0.000000
0.326116 0.330571 0.190005
0.354376 0.323003 0.177279
0.541924 0.358495 0.120943
1.000000 0.590906 0.000000
1.000000 0.628321 0.000000
0.645502 0.616999 0.320409
0.679042 0.615991 0.308690
0.782712 0.650385 0.255344
0.952514 0.702632 0.115724
1.000000 0.811093 0.000000
0.928985 0.934966 0.785122
0.938537 0.934844 0.781979
0.961639 0.921324 0.716640
0.998047 0.929747 0.726772
1.000000 0.924773 0.739834
0.134829 0.165316 0.151339
0.175723 0.145571 0.150393
0.649378 0.000000 0.110689
1.000000 0.000000 0.000000
1.000000 0.243076 0.000000
0.161044 0.198001 0.162112
0.215854 0.226230 0.186557
0.606500 0.190646 0.113893
1.000000 0.267582 0.000000
1.000000 0.369390 0.000000
0.325597 0.367712 0.247868
0.366094 0.360174 0.233371
0.521324 0.366522 0.182528
1.000000 0.537102 0.000000
1.000000 0.625238 0.000000
0.633906 0.640131 0.380011
0.669734 0.641138 0.370275
0.781338 0.666072 0.326757
0.945739 0.702724 0.188846
1.000000 0.807523 0.000000
0.919524 0.935485 0.798764
0.928435 0.934874 0.794003
0.962280 0.934997 0.784421
0.998260 0.935821 0.754391
1.000000 0.930541 0.765347
0.158877 0.225345 0.233646
0.168704 0.211856 0.237858
0.283513 0.180758 0.235782
0.744747 0.000000 0.292119
1.000000 0.000000 0.115023
0.185122 0.267735 0.258122
0.212284 0.271977 0.278935
0.335302 0.220645 0.277714
0.929198 0.000000 0.338201
1.000000 0.318486 0.105898
0.280766 0.377386 0.333013
0.338293 0.412116 0.368902
0.671107 0.633631 0.602930
1.000000 0.609674 0.429023
1.000000 0.608667 0.000000
0.547692 0.688930 0.541802
0.589105 0.710384 0.558373
0.766842 0.751278 0.591608
0.933745 0.788998 0.559289
1.000000 0.812009 0.307683
0.879118 0.934386 0.836698
0.889158 0.935332 0.836362
0.928771 0.936736 0.829099
0.977173 0.939117 0.811948
1.000000 0.924559 0.744747
0.163668 0.344121 0.427283
0.179599 0.330175 0.428748
0.254948 0.263340 0.406989
0.429358 0.188663 0.354314
0.617548 0.235569 0.353826
0.185794 0.373938 0.440223
0.211856 0.368505 0.449287
0.264591 0.290166 0.429633
0.453620 0.207553 0.374243
0.681270 0.244602 0.384009
0.264866 0.471229 0.484413
0.295567 0.479805 0.495460
0.429145 0.503014 0.570397
0.628107 0.356085 0.528923
1.000000 0.463142 0.649042
0.459724 0.648066 0.618158
0.490059 0.660243 0.630945
0.648920 0.750790 0.725154
0.915618 0.925628 0.910918
1.000000 0.894560 0.842161
0.820829 0.921813 0.869841
0.830228 0.925414 0.872831
0.871885 0.941802 0.888762
0.945251 0.953674 0.906035
0.995972 0.952514 0.892607
0.535698 0.754788 0.888182
0.534997 0.738674 0.887327
0.518212 0.644160 0.886229
0.674220 0.470100 0.864591
0.891112 0.173129 0.788174
0.530510 0.761654 0.881987
0.538872 0.750729 0.882353
0.525170 0.663966 0.880705
0.658991 0.481636 0.858701
0.884367 0.196384 0.781796
0.580682 0.822263 0.881773
0.581140 0.812863 0.880369
0.610956 0.775143 0.881987
0.639277 0.579278 0.866972
0.907469 0.314855 0.809506
0.697749 0.887053 0.897337
0.697658 0.884520 0.895750
0.722133 0.882109 0.896330
0.789609 0.865507 0.908080
0.954589 0.660456 0.893584
0.838437 0.943664 0.930358
0.841550 0.943694 0.930449
0.863005 0.946868 0.934508
0.906615 0.954467 0.944121
0.983398 0.986297 0.983276
