20 Preset/Street 2/【3】LUT video cho PR-AE-FCPX/Tone 1 (13).cube
# Created by Adobe Lightroom plugin Export LUT (1.24.0)
# www.johnrellis.com/lightroom/exportlut.htm
# Preset: 青橙风光-素材江湖13
# Color profile: C:\Program Files (x86)\Common Files\Adobe\Color\Profiles\Recommended\VideoHD.icc
LUT_3D_SIZE 5
DOMAIN_MIN 0.000000 0.000000 0.000000
DOMAIN_MAX 0.903226 0.903226 0.903226
0.099275 0.144137 0.140627
0.183780 0.141360 0.139315
0.598932 0.000000 0.131228
1.000000 0.000000 0.032563
1.000000 0.303563 0.127199
0.057374 0.192660 0.148135
0.163119 0.204257 0.144594
0.605737 0.224918 0.111788
1.000000 0.313542 0.000000
1.000000 0.433722 0.139559
0.000000 0.571984 0.171786
0.000000 0.557519 0.200076
0.649989 0.636713 0.000000
0.989258 0.683864 0.000000
1.000000 0.666560 0.242435
0.406165 0.871824 0.466987
0.492897 0.869352 0.491646
0.677333 0.866514 0.496864
0.901030 0.863615 0.410803
1.000000 0.854643 0.510399
0.752590 0.963226 0.767605
0.768307 0.962127 0.774960
0.799527 0.952453 0.774258
0.874907 0.956939 0.766903
0.981903 0.957977 0.742367
0.069795 0.145418 0.180209
0.144686 0.142000 0.187137
0.494453 0.000000 0.201297
0.954559 0.000000 0.207492
1.000000 0.169528 0.232822
0.000000 0.191318 0.191562
0.147372 0.199008 0.198672
0.520623 0.173281 0.201297
0.960052 0.154269 0.200351
1.000000 0.355138 0.235599
0.000000 0.531487 0.238804
0.000000 0.527977 0.262699
0.562615 0.563989 0.223728
0.952361 0.639368 0.239292
1.000000 0.653620 0.332708
0.406622 0.866667 0.506523
0.497627 0.865293 0.530724
0.679103 0.861753 0.557397
0.890318 0.858305 0.474434
1.000000 0.854002 0.560937
0.753017 0.962493 0.775998
0.767636 0.961181 0.781735
0.822660 0.958007 0.809689
0.883391 0.960113 0.798489
0.981811 0.961639 0.778347
0.000000 0.147005 0.396094
0.000000 0.139620 0.402991
0.411322 0.000000 0.437293
0.916320 0.000000 0.508019
1.000000 0.000000 0.489815
0.000000 0.197696 0.428595
0.000000 0.184756 0.435828
0.445045 0.141390 0.457771
0.916747 0.109499 0.508110
1.000000 0.232456 0.493355
0.000000 0.520470 0.489631
0.000000 0.529870 0.496193
0.538628 0.561303 0.525383
0.899962 0.571740 0.524102
1.000000 0.625116 0.555047
0.327428 0.854246 0.624811
0.446784 0.846281 0.629725
0.675502 0.844755 0.677089
0.861051 0.848356 0.652674
1.000000 0.854215 0.700557
0.726589 0.958862 0.788815
0.747799 0.958190 0.796933
0.812589 0.955322 0.823362
0.878752 0.954833 0.833585
0.971405 0.956481 0.808591
0.000000 0.142855 0.714565
0.000000 0.127565 0.718563
0.353643 0.000000 0.725490
0.813931 0.000000 0.756710
1.000000 0.294713 0.762051
0.000000 0.176852 0.725093
0.000000 0.170993 0.726589
0.345617 0.040925 0.733547
0.807706 0.000000 0.750057
1.000000 0.401770 0.756405
0.000000 0.471473 0.744076
0.000000 0.463325 0.745418
0.287327 0.437140 0.758358
0.806394 0.451575 0.759854
1.000000 0.665522 0.774655
0.000000 0.827268 0.784604
0.000000 0.823667 0.782620
0.445472 0.821805 0.789639
0.818936 0.830564 0.808042
0.984497 0.827634 0.803067
0.577600 0.964324 0.822599
0.625452 0.962341 0.827970
0.766964 0.957366 0.853849
0.882048 0.954162 0.887236
0.959991 0.954437 0.872770
0.000000 0.152041 0.931853
0.000000 0.131716 0.931426
0.247745 0.000000 0.933165
0.743984 0.000000 0.933440
1.000000 0.000000 0.937560
0.000000 0.158328 0.930236
0.000000 0.147921 0.930755
0.166506 0.000000 0.931945
0.735622 0.000000 0.931243
1.000000 0.000000 0.934874
0.000000 0.393774 0.931914
0.000000 0.373877 0.932036
0.000000 0.331701 0.933043
0.701472 0.297002 0.928893
0.987427 0.407965 0.930785
0.000000 0.736294 0.926513
0.000000 0.730220 0.926024
0.000000 0.708614 0.926909
0.659144 0.720089 0.925628
0.946441 0.763302 0.928008
0.000000 0.961120 0.929931
0.000000 0.958984 0.929839
0.404547 0.952483 0.931456
0.765316 0.946685 0.934325
0.945464 0.950866 0.943603
