20 Preset/Street 2/【3】LUT video cho PR-AE-FCPX/Tone 1 (33).cube
# Created by Adobe Lightroom plugin Export LUT (1.24.0)
# www.johnrellis.com/lightroom/exportlut.htm
# Preset: 青橙风光-素材江湖33
# Color profile: C:\Program Files (x86)\Common Files\Adobe\Color\Profiles\Recommended\VideoHD.icc
LUT_3D_SIZE 8
DOMAIN_MIN 0.000000 0.000000 0.000000
DOMAIN_MAX 0.903226 0.903226 0.903226
0.051850 0.146670 0.163729
0.051850 0.146670 0.163729
0.164157 0.145724 0.167056
0.276341 0.143343 0.171725
0.464271 0.111421 0.179782
0.749355 0.000000 0.190036
0.958709 0.000000 0.202365
1.000000 0.000000 0.227848
0.049958 0.148196 0.164096
0.047608 0.150301 0.164584
0.149813 0.155795 0.168276
0.255711 0.162081 0.173220
0.437568 0.146090 0.182254
0.706050 0.000000 0.191501
0.922484 0.000000 0.201480
1.000000 0.059052 0.224094
0.000000 0.198795 0.180728
0.000000 0.201053 0.179690
0.111330 0.209567 0.178164
0.236179 0.222568 0.192233
0.448066 0.230350 0.199557
0.725154 0.209689 0.205844
0.945068 0.233799 0.216953
1.000000 0.313634 0.248142
0.000000 0.304387 0.221225
0.000000 0.306523 0.221256
0.000000 0.314733 0.217838
0.247959 0.353246 0.211215
0.527367 0.383276 0.222324
0.751705 0.413306 0.251194
0.932647 0.448035 0.260166
1.000000 0.491096 0.296910
0.000000 0.505608 0.290013
0.000000 0.507683 0.289128
0.000000 0.516472 0.271824
0.161349 0.526848 0.278477
0.496895 0.561089 0.245701
0.749233 0.583764 0.241550
0.884733 0.620356 0.347845
0.994995 0.654170 0.399725
0.000000 0.736812 0.412787
0.000000 0.747677 0.421118
0.000000 0.752163 0.414252
0.000000 0.751461 0.394110
0.482765 0.746273 0.400031
0.712978 0.769619 0.360723
0.894377 0.779782 0.368017
0.962829 0.786709 0.522118
0.000000 0.881498 0.599420
0.121401 0.882322 0.603723
0.325933 0.881102 0.611017
0.407904 0.880491 0.588373
0.558129 0.873381 0.589136
0.693141 0.871000 0.590936
0.829648 0.878538 0.565850
0.951202 0.876493 0.564813
0.592004 0.940948 0.772763
0.601770 0.940612 0.774746
0.641505 0.939635 0.784329
0.682460 0.939300 0.789639
0.699001 0.934264 0.770260
0.763210 0.932250 0.780514
0.827085 0.933227 0.786374
0.896208 0.935851 0.779110
0.051850 0.146670 0.163729
0.051850 0.146670 0.163729
0.155306 0.145327 0.166903
0.255802 0.148226 0.178347
0.431189 0.125093 0.188540
0.686427 0.000000 0.198611
0.903777 0.000000 0.208713
1.000000 0.000000 0.227939
0.050202 0.147311 0.164584
0.055024 0.149081 0.165988
0.145937 0.157198 0.173068
0.249363 0.163638 0.181674
0.424750 0.149203 0.191379
0.675135 0.000000 0.200687
0.887053 0.000000 0.209415
1.000000 0.000000 0.226810
0.000000 0.195590 0.187442
0.000000 0.198917 0.189151
0.112398 0.207553 0.187686
0.229984 0.221286 0.200778
0.424140 0.225559 0.206760
0.679469 0.198459 0.213107
0.895476 0.187655 0.221012
1.000000 0.263920 0.244175
0.000000 0.291661 0.224949
0.000000 0.294469 0.225498
0.000000 0.304021 0.223514
0.222904 0.327092 0.217166
0.454932 0.346777 0.229160
0.684169 0.368841 0.248936
0.886992 0.397650 0.253635
1.000000 0.449073 0.282231
0.000000 0.490730 0.295323
0.000000 0.491127 0.293980
0.000000 0.497902 0.278782
0.145541 0.500908 0.280674
0.460151 0.526757 0.251652
0.716152 0.550744 0.249760
0.863828 0.594781 0.343877
0.985870 0.632990 0.384497
0.000000 0.716640 0.408362
0.000000 0.718929 0.408972
0.000000 0.726162 0.409979
0.000000 0.729763 0.386542
0.463813 0.727749 0.395300
0.701442 0.757626 0.361486
0.885832 0.769528 0.369024
0.957549 0.777859 0.514763
0.000000 0.872313 0.586206
0.000000 0.870970 0.585229
0.246830 0.869902 0.590600
0.365728 0.870817 0.571160
0.541253 0.866117 0.578454
0.682277 0.863767 0.580529
0.821225 0.870817 0.550683
0.946258 0.868894 0.546563
0.567834 0.938384 0.762966
0.582422 0.938476 0.766995
0.623835 0.937407 0.776181
0.673121 0.936950 0.784665
0.711055 0.935943 0.781857
0.766690 0.932769 0.785977
0.826261 0.932555 0.786984
0.895476 0.935149 0.778927
0.000000 0.156985 0.195010
0.007446 0.154116 0.196109
0.138491 0.151431 0.196292
0.265660 0.147921 0.208927
0.455726 0.090272 0.217929
0.713863 0.000000 0.226535
0.919829 0.000000 0.245243
1.000000 0.000000 0.268894
0.000000 0.156405 0.198337
0.049256 0.155337 0.198734
0.137453 0.160159 0.200534
0.260227 0.161379 0.211521
0.446082 0.118593 0.218296
0.695247 0.000000 0.230716
0.904875 0.000000 0.245060
1.000000 0.000000 0.267704
0.000000 0.197452 0.208499
0.000000 0.200443 0.211185
0.120668 0.210666 0.221073
0.254490 0.217868 0.228428
0.457496 0.211154 0.238254
0.704463 0.161318 0.247654
0.908354 0.122683 0.259556
1.000000 0.218753 0.284092
0.000000 0.293706 0.253758
0.000000 0.298283 0.256596
0.000000 0.314061 0.263310
0.243626 0.334539 0.258671
0.469184 0.356664 0.284428
0.711727 0.368414 0.289921
0.904265 0.392096 0.299565
1.000000 0.440681 0.328069
0.000000 0.486702 0.334722
0.000000 0.489204 0.335027
0.000000 0.501549 0.337255
0.198215 0.513512 0.329625
0.485389 0.538079 0.309483
0.723110 0.556298 0.321477
0.868559 0.597742 0.393256
0.988891 0.630945 0.424262
0.000000 0.711360 0.448341
0.000000 0.714473 0.450019
0.000000 0.720546 0.452003
0.092805 0.726925 0.431556
0.473121 0.723995 0.437568
0.699641 0.751980 0.412970
0.880095 0.765286 0.430579
0.951476 0.781094 0.565179
0.000000 0.872862 0.617365
0.000000 0.871794 0.616907
0.284764 0.869810 0.619959
0.436072 0.869200 0.619654
0.556451 0.865537 0.611139
0.689693 0.863249 0.616999
0.824430 0.872892 0.595514
0.943755 0.872282 0.603235
0.564965 0.938140 0.771054
0.573938 0.937621 0.772030
0.616236 0.936492 0.780453
0.689631 0.935790 0.800778
0.718715 0.935515 0.794156
0.773739 0.933104 0.799924
0.831022 0.933013 0.802731
0.897063 0.935912 0.795773
0.000000 0.165682 0.242924
0.000000 0.161807 0.244480
0.145144 0.161166 0.244541
0.237858 0.157107 0.253635
0.477302 0.095766 0.288975
0.732387 0.000000 0.307134
0.926055 0.000000 0.310857
1.000000 0.000000 0.308293
0.000000 0.162295 0.247807
0.029541 0.163058 0.248325
0.150393 0.167605 0.250614
0.243870 0.168795 0.260868
0.485359 0.117647 0.294285
0.731685 0.000000 0.308080
0.922484 0.000000 0.309392
1.000000 0.000000 0.309117
0.000000 0.217258 0.264561
0.000000 0.216068 0.267674
0.119783 0.208804 0.274205
0.251225 0.215335 0.280858
0.496803 0.192782 0.308690
0.742000 0.000000 0.316167
0.938811 0.000000 0.315740
1.000000 0.000000 0.343450
0.000000 0.293858 0.293828
0.000000 0.296544 0.296300
0.000000 0.309087 0.308568
0.260624 0.330022 0.332097
0.492317 0.327214 0.337987
0.719051 0.315740 0.345525
0.907561 0.323949 0.358526
1.000000 0.377325 0.384131
0.000000 0.490272 0.404242
0.000000 0.491432 0.404639
0.000000 0.501854 0.411231
0.289097 0.524163 0.423896
0.513359 0.543481 0.409583
0.721614 0.563378 0.443702
0.882139 0.589654 0.460517
0.995209 0.615686 0.482338
0.000000 0.719722 0.527886
0.000000 0.728603 0.535912
0.000000 0.731044 0.536919
0.333471 0.739132 0.544244
0.518761 0.739742 0.532982
0.710292 0.755062 0.512596
0.872923 0.764706 0.537774
0.939605 0.788327 0.646113
0.000000 0.871153 0.662745
0.157565 0.871611 0.665034
0.337713 0.871855 0.672084
0.502342 0.871885 0.686915
0.600275 0.870848 0.680507
0.709316 0.865782 0.683558
0.827512 0.874144 0.662104
0.936614 0.873747 0.677180
0.564508 0.939544 0.790249
0.575494 0.939178 0.791806
0.618433 0.937957 0.799039
0.687465 0.936339 0.813840
0.738949 0.935546 0.820127
0.784451 0.933593 0.821714
0.837827 0.933196 0.825986
0.900175 0.937163 0.822416
0.000000 0.170657 0.315557
0.000000 0.170443 0.317357
0.146639 0.167788 0.318578
0.270085 0.163851 0.329076
0.421790 0.133333 0.356481
0.749966 0.000000 0.430182
0.945464 0.000000 0.453895
1.000000 0.000000 0.459724
0.000000 0.170657 0.320195
0.000000 0.171206 0.322576
0.154177 0.173190 0.326513
0.275425 0.173861 0.335973
0.430610 0.146487 0.363714
0.753506 0.000000 0.434363
0.944305 0.000000 0.455055
1.000000 0.000000 0.459510
0.000000 0.214298 0.349462
0.000000 0.208042 0.351019
0.113161 0.210178 0.354009
0.284550 0.215091 0.360876
0.449012 0.201450 0.384802
0.748989 0.070253 0.440772
0.931914 0.000000 0.453346
1.000000 0.000000 0.452827
0.000000 0.317021 0.378546
0.000000 0.318151 0.381109
0.000000 0.323003 0.392737
0.251713 0.307683 0.417792
0.489662 0.317510 0.435859
0.751675 0.302068 0.468391
0.924224 0.245212 0.462806
1.000000 0.206455 0.450538
0.000000 0.452461 0.440192
0.000000 0.455787 0.443427
0.000000 0.467231 0.455116
0.238712 0.486641 0.477211
0.501122 0.506279 0.505333
0.714870 0.495033 0.499153
0.886931 0.498177 0.499947
1.000000 0.527398 0.514031
0.000000 0.682185 0.579858
0.000000 0.684047 0.581323
0.000000 0.685695 0.582177
0.306523 0.693294 0.587884
0.523674 0.707424 0.599603
0.697749 0.730709 0.595972
0.847501 0.750210 0.641566
0.942962 0.765530 0.668910
0.000000 0.861753 0.708492
0.000000 0.860899 0.707515
0.262669 0.859983 0.707698
0.461341 0.861936 0.718654
0.621973 0.863066 0.736324
0.713069 0.860716 0.730648
0.822690 0.866911 0.715755
0.924498 0.866331 0.732662
0.469947 0.937194 0.793637
0.485969 0.936767 0.794919
0.546838 0.935271 0.801144
0.647761 0.934508 0.818662
0.738643 0.932799 0.837461
0.788388 0.932128 0.840635
0.839414 0.930419 0.844907
0.899321 0.934936 0.839841
0.000000 0.180362 0.435981
0.000000 0.179385 0.437781
0.149905 0.173373 0.437995
0.316197 0.160403 0.445319
0.494575 0.102327 0.480049
0.688685 0.000000 0.519310
0.945647 0.000000 0.602075
1.000000 0.000000 0.622431
0.000000 0.179110 0.430274
0.000000 0.178470 0.430915
0.153689 0.177218 0.434852
0.310369 0.170291 0.444282
0.485756 0.126955 0.475593
0.678218 0.000000 0.513756
0.936919 0.000000 0.595972
1.000000 0.000000 0.617426
0.000000 0.211398 0.463111
0.000000 0.211704 0.463722
0.091127 0.212345 0.468147
0.312230 0.208774 0.475532
0.506645 0.186435 0.499580
0.697017 0.109407 0.536431
0.940032 0.000000 0.609552
1.000000 0.115724 0.623713
0.000000 0.334783 0.506004
0.000000 0.332006 0.509239
0.000000 0.312474 0.523491
0.268803 0.298558 0.540764
0.550164 0.303746 0.556756
0.737484 0.301305 0.591608
0.945251 0.347234 0.645350
1.000000 0.360235 0.641352
0.000000 0.476020 0.545617
0.000000 0.476539 0.547051
0.000000 0.479591 0.554345
0.000000 0.482460 0.569512
0.477211 0.455573 0.605280
0.723812 0.487678 0.628595
0.910430 0.518608 0.655787
1.000000 0.495369 0.635462
0.000000 0.650477 0.620600
0.000000 0.655787 0.625757
0.000000 0.661524 0.632624
0.076509 0.672297 0.646571
0.476478 0.685939 0.666743
0.696223 0.709987 0.699733
0.854948 0.699977 0.689021
0.965087 0.702968 0.687526
0.140841 0.857053 0.777493
0.216831 0.858335 0.779782
0.343877 0.858824 0.781827
0.486946 0.859709 0.785977
0.621302 0.860960 0.791989
0.736904 0.861143 0.798795
0.825589 0.864286 0.787350
0.911650 0.868132 0.811124
0.460609 0.934569 0.831144
0.469825 0.934112 0.830838
0.517205 0.933257 0.832364
0.600397 0.932708 0.838071
0.699886 0.931456 0.848569
0.797238 0.930266 0.866880
0.845457 0.929961 0.869383
0.901274 0.933806 0.867002
0.000000 0.188876 0.600946
0.000000 0.186618 0.604547
0.172763 0.173404 0.605921
0.394385 0.129976 0.611688
0.584741 0.000000 0.621790
0.753597 0.000000 0.664576
0.894469 0.000000 0.687709
1.000000 0.000000 0.727016
0.000000 0.186984 0.588861
0.000000 0.184756 0.593378
0.181735 0.173770 0.595575
0.377478 0.146090 0.601038
0.566278 0.000427 0.610407
0.734310 0.000000 0.649622
0.876310 0.000000 0.671809
1.000000 0.000000 0.714168
0.000000 0.213138 0.615137
0.000000 0.212467 0.615961
0.094728 0.207462 0.616541
0.363043 0.189853 0.621698
0.567407 0.145022 0.628443
0.742641 0.000000 0.664454
0.888701 0.000000 0.691768
1.000000 0.135836 0.731838
0.000000 0.306950 0.655573
0.000000 0.297459 0.654627
0.000000 0.278172 0.655390
0.283635 0.273350 0.662379
0.562036 0.257542 0.670039
0.760037 0.245212 0.699031
0.900969 0.263249 0.724086
1.000000 0.376623 0.751827
0.000000 0.491127 0.654383
0.000000 0.486671 0.652827
0.000000 0.472511 0.662654
0.000000 0.439643 0.688899
0.450477 0.391821 0.702083
0.734371 0.416358 0.714626
0.881437 0.454627 0.742672
1.000000 0.565667 0.774289
0.000000 0.661067 0.715938
0.000000 0.661433 0.717098
0.000000 0.660792 0.720150
0.000000 0.657496 0.725887
0.000000 0.643702 0.732174
0.647547 0.619471 0.768582
0.850431 0.683253 0.790372
0.962554 0.724636 0.803677
0.000000 0.821744 0.785702
0.000000 0.823209 0.787716
0.000000 0.824216 0.790799
0.000000 0.826719 0.797757
0.459541 0.828733 0.806821
0.670130 0.833158 0.819821
0.815091 0.843320 0.837491
0.916197 0.831235 0.825589
0.415167 0.928466 0.866331
0.436561 0.928527 0.867369
0.515831 0.929168 0.872435
0.617670 0.928985 0.879515
0.702174 0.928496 0.883604
0.783871 0.928832 0.889555
0.856687 0.929686 0.898680
0.904997 0.932708 0.897337
0.000000 0.197604 0.797238
0.000000 0.192538 0.798978
0.286046 0.165835 0.796445
0.506920 0.013977 0.798184
0.690517 0.000000 0.799435
0.835447 0.000000 0.803616
0.951965 0.000000 0.835508
1.000000 0.000000 0.822812
0.000000 0.195407 0.789883
0.000000 0.190524 0.791714
0.287968 0.164492 0.790799
0.501671 0.019806 0.791592
0.680049 0.000000 0.794217
0.827726 0.000000 0.798276
0.944366 0.000000 0.829496
1.000000 0.000000 0.817350
0.000000 0.206699 0.791043
0.000000 0.203647 0.791623
0.252445 0.187991 0.790677
0.478096 0.141512 0.798184
0.663813 0.000000 0.799191
0.818296 0.000000 0.800107
0.938750 0.000000 0.830320
1.000000 0.000000 0.819669
0.000000 0.270512 0.802213
0.000000 0.269993 0.803464
0.000000 0.263798 0.803677
0.365240 0.244877 0.807340
0.618616 0.210178 0.810605
0.801694 0.197177 0.813474
0.932067 0.178714 0.838224
1.000000 0.253361 0.829740
0.000000 0.478798 0.806516
0.000000 0.473976 0.809079
0.000000 0.436988 0.811948
0.000000 0.352026 0.818875
0.474220 0.339239 0.820859
0.746517 0.341772 0.823453
0.907042 0.373754 0.841154
0.995789 0.442390 0.840360
0.000000 0.666682 0.809873
0.000000 0.662928 0.808286
0.000000 0.650263 0.804501
0.000000 0.625391 0.803708
0.000000 0.565728 0.826505
0.606012 0.505028 0.843595
0.864775 0.584619 0.853635
0.960784 0.659113 0.863035
0.000000 0.815946 0.847898
0.000000 0.814969 0.847654
0.000000 0.811154 0.846983
0.000000 0.805264 0.847807
0.000000 0.793973 0.848905
0.316899 0.773342 0.850065
0.761654 0.759854 0.872709
0.915312 0.818601 0.885618
0.000000 0.921111 0.885405
0.000000 0.920714 0.885466
0.000000 0.919677 0.886473
0.115908 0.918334 0.889464
0.486824 0.916136 0.893645
0.673396 0.914427 0.899382
0.809018 0.915862 0.907805
0.899321 0.922148 0.919097
