20 Preset/Street 2/【3】LUT video cho PR-AE-FCPX/Tone 1 (28).cube
# Created by Adobe Lightroom plugin Export LUT (1.24.0)
# www.johnrellis.com/lightroom/exportlut.htm
# Preset: 青橙风光-素材江湖28
# Color profile: C:\Program Files (x86)\Common Files\Adobe\Color\Profiles\Recommended\VideoHD.icc
LUT_3D_SIZE 8
DOMAIN_MIN 0.000000 0.000000 0.000000
DOMAIN_MAX 0.903226 0.903226 0.903226
0.168307 0.167300 0.166079
0.194491 0.165896 0.167330
0.323430 0.156100 0.177340
0.454261 0.147433 0.187106
0.586847 0.144717 0.195468
0.727413 0.143008 0.203769
0.915770 0.143862 0.219455
1.000000 0.170077 0.246799
0.160983 0.187045 0.167086
0.202701 0.184848 0.171145
0.307561 0.183627 0.179141
0.428351 0.181308 0.187106
0.557458 0.180301 0.194583
0.697780 0.178836 0.202365
0.869535 0.177768 0.214603
1.000000 0.187961 0.238376
0.189639 0.268315 0.169528
0.223148 0.263920 0.173434
0.300816 0.254520 0.189364
0.422095 0.259953 0.194217
0.548882 0.261845 0.198245
0.716030 0.270024 0.206119
0.901030 0.280552 0.221225
1.000000 0.288914 0.250645
0.243687 0.356817 0.164401
0.264286 0.353094 0.167514
0.329839 0.343328 0.179568
0.433295 0.348638 0.204471
0.588952 0.371435 0.210788
0.745846 0.380682 0.217014
0.898466 0.388128 0.229923
1.000000 0.390173 0.258671
0.297826 0.455360 0.149050
0.314244 0.453071 0.151919
0.373480 0.447944 0.161929
0.461250 0.443061 0.184054
0.560418 0.439551 0.218784
0.703914 0.457679 0.222812
0.856718 0.467933 0.238437
0.996246 0.480659 0.268833
0.352941 0.556847 0.106966
0.372351 0.564996 0.105653
0.424018 0.560723 0.121096
0.504814 0.554040 0.149508
0.596429 0.543572 0.189334
0.709987 0.547356 0.235782
0.862943 0.573754 0.253605
0.993866 0.582177 0.298650
0.417060 0.691371 0.000000
0.431189 0.693385 0.000000
0.477790 0.688411 0.000000
0.555779 0.682185 0.025177
0.647791 0.670039 0.140230
0.750759 0.662135 0.202487
0.860716 0.661677 0.276158
0.977111 0.672023 0.321874
0.474769 0.844938 0.000000
0.486793 0.844175 0.000000
0.535210 0.842802 0.000000
0.618341 0.841703 0.000000
0.696864 0.810758 0.120699
0.810239 0.809018 0.213016
0.915343 0.799496 0.302037
0.994263 0.784298 0.405554
0.171969 0.177615 0.191653
0.182467 0.173617 0.191073
0.289677 0.166781 0.195224
0.414466 0.176669 0.194766
0.543267 0.181094 0.197391
0.679561 0.181857 0.201389
0.843137 0.176608 0.212070
0.986267 0.175753 0.231876
0.159945 0.191470 0.187625
0.195682 0.193729 0.191806
0.292576 0.196323 0.193668
0.408209 0.199435 0.195651
0.534691 0.202365 0.197696
0.672053 0.203677 0.201450
0.822202 0.199527 0.210513
0.964477 0.195010 0.228000
0.194186 0.269078 0.190616
0.220890 0.266850 0.191562
0.294408 0.256626 0.201724
0.406531 0.261662 0.202914
0.525719 0.263920 0.202121
0.670985 0.270512 0.204105
0.828763 0.273686 0.213230
0.979706 0.276707 0.234745
0.232486 0.351537 0.183841
0.254490 0.348730 0.185702
0.322148 0.340490 0.193881
0.408820 0.335088 0.211826
0.535149 0.346624 0.212161
0.669734 0.352575 0.212345
0.820737 0.361486 0.218723
0.967468 0.367803 0.239994
0.287327 0.452918 0.170474
0.303655 0.449500 0.172457
0.362524 0.441596 0.180758
0.443977 0.430549 0.196933
0.529931 0.419776 0.220920
0.661830 0.435309 0.219364
0.815976 0.448798 0.231449
0.964263 0.464027 0.255314
0.337743 0.544396 0.137942
0.352026 0.543908 0.139925
0.403815 0.540612 0.149477
0.484779 0.535851 0.167300
0.575341 0.526818 0.194217
0.688930 0.533288 0.233188
0.841611 0.560906 0.247654
0.975219 0.569604 0.286748
0.402533 0.669032 0.000000
0.412634 0.665095 0.000000
0.456580 0.659907 0.000000
0.533410 0.656550 0.062318
0.628229 0.651331 0.141573
0.728695 0.643824 0.199222
0.834501 0.641382 0.265324
0.954345 0.652979 0.302739
0.458656 0.827695 0.000000
0.472786 0.829984 0.000000
0.520714 0.828061 0.000000
0.603906 0.827604 0.000000
0.705898 0.823056 0.134371
0.812436 0.812894 0.215946
0.911803 0.797147 0.297276
0.991028 0.781064 0.399969
0.177249 0.218692 0.267552
0.178439 0.220798 0.267582
0.273960 0.206516 0.274022
0.360723 0.220890 0.298772
0.539696 0.196689 0.298131
0.723354 0.184787 0.278477
0.874174 0.191562 0.279149
1.000000 0.206088 0.280308
0.173465 0.238041 0.263005
0.194308 0.239292 0.266850
0.279362 0.227451 0.276097
0.373785 0.233799 0.297856
0.545678 0.210239 0.285710
0.708095 0.213687 0.276768
0.853391 0.213504 0.273991
0.988464 0.221897 0.274357
0.197482 0.285954 0.273106
0.220951 0.288823 0.276768
0.306035 0.298497 0.291112
0.427497 0.294072 0.286076
0.561883 0.290806 0.281590
0.708156 0.289403 0.278477
0.851835 0.288151 0.275059
0.986664 0.292668 0.275547
0.240909 0.382300 0.274510
0.256413 0.384436 0.274418
0.325322 0.384741 0.272709
0.434852 0.373877 0.289158
0.565698 0.377478 0.287877
0.703731 0.378698 0.281895
0.848234 0.381140 0.277501
0.981964 0.384649 0.278202
0.265812 0.479774 0.248814
0.278111 0.479194 0.246769
0.355016 0.473579 0.251194
0.459907 0.464363 0.265537
0.555505 0.451301 0.285161
0.684596 0.458045 0.280125
0.827634 0.463386 0.278172
0.968963 0.474586 0.280583
0.306523 0.563867 0.211307
0.325017 0.564080 0.212863
0.388678 0.559777 0.219364
0.480446 0.552117 0.232242
0.578759 0.541588 0.252079
0.689235 0.541985 0.280613
0.837613 0.564874 0.281010
0.974670 0.575372 0.295048
0.373877 0.687098 0.127260
0.387152 0.683772 0.130526
0.439399 0.675715 0.142123
0.523980 0.667903 0.161624
0.624079 0.659083 0.188846
0.730190 0.651972 0.223270
0.840269 0.650690 0.275425
0.964141 0.665400 0.312200
0.443397 0.830472 0.000000
0.455177 0.828336 0.000000
0.504601 0.826047 0.000000
0.593378 0.829160 0.000000
0.697810 0.824247 0.127016
0.810208 0.817716 0.216159
0.916075 0.806088 0.298985
0.993072 0.786526 0.406470
0.157595 0.272557 0.339055
0.160983 0.275639 0.341527
0.231052 0.263127 0.356573
0.369482 0.250523 0.362737
0.452674 0.259709 0.375982
0.615595 0.257908 0.416632
0.820218 0.203677 0.409613
0.993439 0.132601 0.366033
0.161379 0.291997 0.341924
0.180941 0.292241 0.345922
0.251011 0.285374 0.362341
0.378119 0.267582 0.368750
0.463569 0.276097 0.383978
0.629084 0.268376 0.416999
0.827054 0.217227 0.402930
0.992493 0.209842 0.368933
0.193820 0.325536 0.349798
0.213809 0.327764 0.352575
0.282811 0.335180 0.364263
0.397070 0.321080 0.378851
0.498054 0.335607 0.409216
0.699428 0.315679 0.416236
0.892973 0.297704 0.389532
1.000000 0.307225 0.379889
0.229831 0.401740 0.373663
0.250248 0.403693 0.376043
0.326421 0.415106 0.389349
0.461036 0.439948 0.418952
0.594507 0.425025 0.404456
0.727810 0.411200 0.390753
0.861295 0.400641 0.379065
0.987457 0.395392 0.371038
0.301122 0.517021 0.381781
0.316381 0.518547 0.383124
0.373419 0.528679 0.388373
0.468421 0.528649 0.383642
0.595636 0.510979 0.400061
0.722408 0.503563 0.389990
0.854765 0.496986 0.378271
0.980865 0.493935 0.371740
0.316442 0.614008 0.344274
0.330541 0.621241 0.345922
0.370336 0.617426 0.337530
0.478706 0.611322 0.338994
0.608942 0.597986 0.355413
0.715999 0.582238 0.376410
0.851286 0.589349 0.373297
0.980224 0.590600 0.380163
0.314488 0.712764 0.268376
0.326085 0.713619 0.266819
0.377752 0.712825 0.262119
0.500053 0.707454 0.274144
0.625971 0.697322 0.292058
0.745235 0.685451 0.317510
0.849546 0.672267 0.357000
0.969329 0.679988 0.371008
0.353094 0.851194 0.125978
0.372778 0.850217 0.129641
0.444678 0.847044 0.145052
0.553368 0.843015 0.173281
0.675349 0.835538 0.209049
0.799069 0.826596 0.252567
0.917723 0.818662 0.305730
0.996094 0.795956 0.417762
0.114748 0.333318 0.412634
0.137423 0.334691 0.417060
0.216464 0.332677 0.429603
0.319890 0.312078 0.444190
0.473762 0.297215 0.454932
0.556359 0.302251 0.460792
0.674128 0.319280 0.511711
0.895995 0.281956 0.539910
0.138033 0.346380 0.417151
0.158785 0.347753 0.422004
0.229496 0.345861 0.434424
0.326085 0.323888 0.447852
0.479591 0.308995 0.458839
0.563470 0.314183 0.465858
0.684810 0.326757 0.514641
0.902007 0.290745 0.537499
0.182650 0.376074 0.425971
0.199588 0.377264 0.427955
0.260349 0.381659 0.438483
0.348760 0.368322 0.462165
0.494026 0.350927 0.466835
0.576593 0.355108 0.475074
0.719570 0.354101 0.517357
0.917540 0.320165 0.519463
0.217227 0.426398 0.442267
0.234714 0.427802 0.444251
0.299321 0.436316 0.454688
0.404913 0.453437 0.477211
0.540642 0.440040 0.497078
0.630426 0.443183 0.514305
0.808133 0.421851 0.520439
0.972473 0.394141 0.488014
0.262089 0.510704 0.465980
0.279545 0.513573 0.468910
0.344518 0.523522 0.479927
0.457008 0.545037 0.503838
0.614893 0.579126 0.543877
0.733822 0.550011 0.516197
0.854398 0.524224 0.491066
0.972412 0.504570 0.470832
0.329137 0.604303 0.456336
0.341527 0.606836 0.458289
0.387701 0.612451 0.463325
0.474952 0.630426 0.476905
0.571832 0.627863 0.464820
0.717952 0.619409 0.491768
0.847013 0.613245 0.482673
0.969879 0.605127 0.472663
0.340978 0.732601 0.434241
0.345708 0.730098 0.430091
0.370581 0.725154 0.416876
0.434302 0.725368 0.400855
0.571710 0.720272 0.399695
0.726375 0.706233 0.421393
0.837095 0.685878 0.449989
0.954376 0.683131 0.449439
0.261662 0.841276 0.324926
0.275212 0.840513 0.322179
0.326757 0.838926 0.311833
0.418524 0.846006 0.300237
0.595758 0.839597 0.319890
0.754574 0.830045 0.352026
0.890929 0.819913 0.394018
0.979492 0.795682 0.466651
0.000000 0.410620 0.510887
0.042237 0.411109 0.514031
0.184726 0.408240 0.522911
0.303563 0.402594 0.548180
0.430182 0.370367 0.554009
0.588434 0.344121 0.556756
0.678737 0.343389 0.561089
0.803952 0.364233 0.617853
0.057923 0.410529 0.502342
0.109865 0.410224 0.504479
0.196414 0.408209 0.513725
0.303655 0.400946 0.534325
0.423499 0.370977 0.542565
0.579797 0.347265 0.547967
0.669764 0.347875 0.553979
0.795163 0.366522 0.610925
0.139040 0.444678 0.520439
0.161501 0.444556 0.520928
0.230655 0.443824 0.527642
0.325750 0.433265 0.540185
0.438148 0.405066 0.553124
0.595453 0.382940 0.558770
0.686458 0.386511 0.566522
0.810056 0.401190 0.622309
0.187076 0.485481 0.534386
0.206149 0.484810 0.534173
0.271305 0.488258 0.539910
0.368841 0.499519 0.560479
0.482551 0.484443 0.590234
0.642573 0.462776 0.593866
0.737362 0.468086 0.605951
0.856352 0.472175 0.650019
0.226169 0.531548 0.537163
0.242435 0.532341 0.538537
0.301335 0.537469 0.545617
0.398474 0.550408 0.562707
0.528740 0.570855 0.590143
0.675257 0.558221 0.611719
0.763516 0.555566 0.626520
0.920562 0.539086 0.632105
0.267155 0.617182 0.557092
0.284611 0.622187 0.561944
0.342535 0.628321 0.569116
0.441566 0.641901 0.585382
0.581018 0.664851 0.614038
0.756435 0.713649 0.672297
0.862821 0.684901 0.642420
0.968597 0.655787 0.612085
0.362860 0.736995 0.562005
0.377356 0.740139 0.565209
0.423651 0.744411 0.570703
0.506798 0.753384 0.582940
0.619837 0.769100 0.604303
0.711635 0.763455 0.583764
0.844480 0.741329 0.605341
0.954833 0.727779 0.592432
0.404456 0.848783 0.546014
0.410376 0.847654 0.544244
0.446815 0.847807 0.543755
0.475715 0.850401 0.524651
0.519554 0.850126 0.482246
0.678645 0.844633 0.478828
0.856779 0.833829 0.521324
0.961395 0.812680 0.575586
0.000000 0.497902 0.624689
0.000000 0.498390 0.627619
0.118257 0.493111 0.631464
0.269352 0.482887 0.642817
0.372503 0.443549 0.654170
0.534142 0.420233 0.654017
0.692103 0.386450 0.654078
0.785885 0.376532 0.655390
0.000000 0.495766 0.615717
0.000000 0.496742 0.619165
0.132723 0.491920 0.623529
0.269871 0.480903 0.633173
0.372808 0.444984 0.645319
0.526787 0.419104 0.644404
0.681514 0.385382 0.643336
0.772946 0.375219 0.644068
0.000000 0.517052 0.621180
0.000000 0.516838 0.621668
0.171084 0.511772 0.624445
0.287541 0.501854 0.633631
0.399023 0.476753 0.647547
0.533898 0.443702 0.649104
0.693874 0.414160 0.652796
0.790707 0.409247 0.659022
0.033631 0.548302 0.631434
0.111055 0.546349 0.629755
0.207156 0.544213 0.629908
0.314214 0.542107 0.637476
0.433051 0.530083 0.655024
0.554101 0.496345 0.664851
0.716579 0.469612 0.669642
0.811002 0.467964 0.676143
0.115267 0.581506 0.630304
0.144839 0.579858 0.629114
0.224918 0.578393 0.629969
0.325139 0.579461 0.636500
0.448554 0.583062 0.649622
0.575036 0.564569 0.674922
0.735470 0.541131 0.680018
0.835874 0.551080 0.697536
0.151827 0.638941 0.638666
0.176394 0.639521 0.639826
0.250187 0.641077 0.643549
0.351995 0.644770 0.651820
0.478218 0.652094 0.665736
0.637171 0.674434 0.693996
0.786954 0.666712 0.718563
0.871489 0.664485 0.734157
0.191257 0.734676 0.662470
0.216068 0.736385 0.664393
0.291997 0.739010 0.668482
0.405798 0.745327 0.678187
0.542718 0.755703 0.694881
0.700618 0.776547 0.726070
0.859709 0.821775 0.785428
0.944457 0.788144 0.747341
0.393408 0.841672 0.657710
0.403998 0.842374 0.658900
0.449622 0.846250 0.665309
0.521630 0.850492 0.674281
0.616236 0.856260 0.688045
0.728450 0.866331 0.710475
0.812863 0.864500 0.687343
0.940978 0.848997 0.722316
0.124514 0.614923 0.768704
0.156283 0.614862 0.770047
0.228519 0.608209 0.769345
0.330602 0.599512 0.773739
0.442542 0.584436 0.779904
0.528618 0.541375 0.782986
0.670985 0.516869 0.783322
0.817075 0.477760 0.782498
0.108705 0.612940 0.762478
0.145235 0.613031 0.764034
0.224155 0.607691 0.764889
0.325383 0.598291 0.768673
0.437659 0.583185 0.775143
0.524193 0.540276 0.778714
0.665797 0.514458 0.778042
0.811734 0.474403 0.776486
0.133089 0.623896 0.758785
0.159945 0.623072 0.759457
0.231388 0.617426 0.759854
0.335027 0.611994 0.767330
0.442420 0.596490 0.772427
0.525902 0.553674 0.776364
0.666285 0.528954 0.776425
0.812985 0.490394 0.775967
0.132906 0.640375 0.758297
0.163821 0.640742 0.759091
0.240085 0.639063 0.758663
0.339849 0.634730 0.762539
0.449683 0.622766 0.769680
0.546166 0.592187 0.778347
0.673915 0.564050 0.780117
0.821103 0.528527 0.781308
0.063355 0.665370 0.758297
0.123079 0.665766 0.759335
0.206668 0.662837 0.758846
0.322087 0.661219 0.760372
0.444251 0.656855 0.763333
0.570764 0.644007 0.775082
0.679591 0.609033 0.782101
0.831235 0.580163 0.786984
0.026246 0.706142 0.760800
0.099397 0.704646 0.759854
0.194156 0.700862 0.758206
0.302098 0.697200 0.759213
0.422492 0.695125 0.764157
0.576440 0.701991 0.776303
0.708827 0.689052 0.798947
0.856352 0.669306 0.806546
0.142916 0.773373 0.774990
0.167605 0.772915 0.774838
0.244633 0.771206 0.774899
0.349401 0.770047 0.777310
0.468086 0.769192 0.782162
0.601221 0.771511 0.791531
0.752010 0.784970 0.808713
0.882261 0.773617 0.826078
0.238376 0.864408 0.793668
0.253391 0.864042 0.793545
0.315770 0.863798 0.794675
0.415259 0.864744 0.798825
0.532403 0.865599 0.805051
0.663569 0.867704 0.815549
0.804776 0.878019 0.838254
0.940551 0.917662 0.895781
