20 Preset/Street 2/【3】LUT video cho PR-AE-FCPX/Tone 1 (2).cube
# Created by Adobe Lightroom plugin Export LUT (1.24.0)
# www.johnrellis.com/lightroom/exportlut.htm
# Preset: 青橙风光-素材江湖02
# Color profile: C:\Program Files (x86)\Common Files\Adobe\Color\Profiles\Recommended\VideoHD.icc
LUT_3D_SIZE 8
DOMAIN_MIN 0.000000 0.000000 0.000000
DOMAIN_MAX 0.903226 0.903226 0.903226
0.224949 0.203494 0.223148
0.233860 0.203098 0.223758
0.314885 0.202518 0.222171
0.487648 0.217411 0.210971
0.721889 0.259556 0.181277
0.952514 0.316320 0.109285
1.000000 0.349615 0.000000
1.000000 0.367987 0.000000
0.223331 0.208743 0.223392
0.241215 0.210605 0.221958
0.318975 0.215213 0.219242
0.478950 0.235447 0.208804
0.706050 0.278904 0.178775
0.922637 0.328740 0.113313
1.000000 0.358282 0.000000
1.000000 0.375647 0.000000
0.231754 0.247745 0.223270
0.249699 0.255009 0.218662
0.342565 0.278050 0.208438
0.546105 0.328985 0.182467
0.779507 0.378973 0.125643
0.959533 0.408179 0.000000
1.000000 0.421759 0.000000
1.000000 0.423163 0.000000
0.248966 0.331731 0.224643
0.268894 0.340917 0.219394
0.369207 0.380682 0.195590
0.613428 0.474495 0.115541
0.865354 0.530236 0.000000
1.000000 0.524956 0.000000
1.000000 0.511070 0.000000
1.000000 0.492927 0.000000
0.272526 0.462165 0.210239
0.297063 0.472999 0.202182
0.407446 0.523522 0.155001
0.620233 0.600977 0.000000
0.844297 0.639796 0.000000
0.992645 0.628199 0.000000
1.000000 0.601984 0.000000
1.000000 0.574029 0.000000
0.304265 0.610193 0.170993
0.333349 0.627741 0.155825
0.438544 0.664302 0.027100
0.625055 0.724056 0.000000
0.837827 0.760250 0.000000
0.992126 0.741451 0.000000
1.000000 0.705959 0.000000
1.000000 0.665766 0.000000
0.349706 0.763973 0.082399
0.375280 0.771298 0.013825
0.467018 0.790921 0.000000
0.620722 0.824887 0.000000
0.809934 0.853544 0.000000
0.986725 0.851164 0.000000
1.000000 0.803281 0.000000
1.000000 0.753994 0.000000
0.418250 0.905760 0.108980
0.437263 0.907805 0.073823
0.511986 0.917052 0.000000
0.637812 0.932952 0.000000
0.787747 0.937530 0.000000
0.964111 0.945953 0.000000
1.000000 0.906920 0.000000
1.000000 0.843107 0.000000
0.225345 0.205173 0.231266
0.228946 0.204593 0.230350
0.293858 0.205966 0.226566
0.444556 0.225834 0.215976
0.679530 0.274754 0.183993
0.899779 0.325322 0.122988
1.000000 0.354467 0.000000
1.000000 0.370855 0.000000
0.222141 0.210269 0.231754
0.232120 0.212467 0.232670
0.300908 0.217563 0.227268
0.453773 0.240818 0.214572
0.684443 0.291173 0.180667
0.896178 0.340337 0.115602
1.000000 0.364935 0.000000
1.000000 0.378729 0.000000
0.230808 0.249210 0.239170
0.240391 0.252262 0.236454
0.326513 0.271733 0.224002
0.514000 0.313573 0.202060
0.737209 0.364446 0.155367
0.922332 0.401892 0.012726
1.000000 0.418921 0.000000
1.000000 0.422126 0.000000
0.237461 0.320409 0.240269
0.254215 0.329473 0.235813
0.350347 0.370794 0.213626
0.557733 0.436347 0.168521
0.797787 0.490761 0.005798
0.965942 0.499550 0.000000
1.000000 0.496620 0.000000
1.000000 0.488685 0.000000
0.254429 0.450599 0.229770
0.277653 0.459693 0.223331
0.382422 0.505028 0.187564
0.586664 0.576226 0.055879
0.808865 0.616175 0.000000
0.967224 0.612604 0.000000
1.000000 0.592004 0.000000
1.000000 0.568963 0.000000
0.281132 0.590723 0.200687
0.307164 0.600519 0.191470
0.410193 0.638544 0.139742
0.597803 0.703853 0.000000
0.818021 0.748165 0.000000
0.980438 0.734768 0.000000
1.000000 0.701015 0.000000
1.000000 0.661738 0.000000
0.323980 0.744442 0.143008
0.348150 0.747921 0.127687
0.440986 0.768826 0.000000
0.597559 0.807401 0.000000
0.793118 0.843320 0.000000
0.974670 0.844724 0.000000
1.000000 0.797757 0.000000
1.000000 0.749660 0.000000
0.394293 0.893065 0.138308
0.416083 0.897246 0.127596
0.493080 0.906950 0.000000
0.622248 0.924651 0.000000
0.785885 0.942260 0.000000
0.961303 0.947326 0.000000
1.000000 0.907256 0.000000
1.000000 0.842893 0.000000
0.221500 0.213443 0.282444
0.217288 0.214694 0.282567
0.264408 0.219242 0.275853
0.368841 0.226047 0.293980
0.624628 0.231296 0.257359
0.883696 0.289647 0.212375
1.000000 0.341070 0.150088
1.000000 0.374243 0.000000
0.208164 0.228214 0.283604
0.216342 0.228855 0.284733
0.267765 0.229892 0.280186
0.380560 0.234531 0.288029
0.635096 0.249424 0.255283
0.876432 0.305547 0.211337
1.000000 0.351019 0.146883
1.000000 0.381659 0.000000
0.211368 0.266697 0.294224
0.224277 0.268772 0.295628
0.281743 0.276005 0.299077
0.454810 0.289220 0.280797
0.704280 0.331853 0.248417
0.909117 0.373877 0.198123
1.000000 0.401251 0.128084
1.000000 0.418769 0.000000
0.217166 0.360418 0.312566
0.232822 0.363104 0.311925
0.293950 0.369940 0.294011
0.535302 0.434943 0.255741
0.790921 0.477150 0.216831
0.957397 0.485145 0.167025
1.000000 0.485267 0.064149
1.000000 0.482704 0.000000
0.208225 0.485451 0.308629
0.228611 0.481483 0.303624
0.314488 0.494881 0.283452
0.550256 0.582330 0.227298
0.802426 0.620905 0.153506
0.964904 0.609430 0.091371
1.000000 0.585809 0.000000
1.000000 0.562860 0.000000
0.214603 0.595850 0.289830
0.234226 0.593378 0.285771
0.341405 0.623651 0.263737
0.542931 0.691829 0.195743
0.794278 0.750454 0.000000
0.967376 0.733730 0.000000
1.000000 0.699611 0.000000
1.000000 0.659236 0.000000
0.236362 0.734737 0.269108
0.268681 0.739193 0.263096
0.379644 0.760830 0.236423
0.551202 0.800839 0.161227
0.762631 0.841886 0.000000
0.963409 0.850828 0.000000
1.000000 0.802884 0.000000
1.000000 0.752621 0.000000
0.330724 0.885679 0.281559
0.353857 0.887419 0.274296
0.441779 0.898283 0.248569
0.584527 0.920287 0.183108
0.756619 0.940154 0.000000
0.943572 0.949004 0.000000
1.000000 0.913603 0.000000
1.000000 0.845853 0.000000
0.162661 0.237156 0.395392
0.152468 0.244175 0.399054
0.209049 0.244785 0.399237
0.337041 0.244907 0.368780
0.450233 0.270909 0.414160
0.747005 0.243809 0.375769
0.971893 0.296818 0.336339
1.000000 0.335851 0.272923
0.103731 0.268894 0.407782
0.107668 0.271031 0.408118
0.206424 0.257725 0.408423
0.344488 0.256992 0.378088
0.469642 0.282567 0.422919
0.754971 0.280858 0.381628
0.976135 0.312108 0.335851
1.000000 0.348272 0.273747
0.011933 0.315038 0.418708
0.103090 0.315221 0.420325
0.214664 0.314000 0.425055
0.362737 0.305272 0.400946
0.539879 0.330694 0.434974
0.822110 0.350866 0.394293
1.000000 0.385962 0.352605
1.000000 0.403510 0.288762
0.000000 0.409430 0.451942
0.000000 0.411048 0.452857
0.234409 0.419928 0.458076
0.413367 0.434882 0.463142
0.679744 0.451118 0.435370
0.884367 0.469520 0.400549
1.000000 0.478767 0.355505
1.000000 0.475380 0.287114
0.136172 0.574273 0.496773
0.185946 0.572442 0.494697
0.302647 0.569635 0.488716
0.425483 0.565209 0.445167
0.755581 0.631006 0.419715
0.939635 0.620447 0.412726
1.000000 0.598932 0.376471
1.000000 0.569848 0.298802
0.255100 0.690578 0.506096
0.271031 0.693599 0.503441
0.315770 0.675898 0.468299
0.439155 0.678614 0.422339
0.732753 0.757992 0.398993
0.942565 0.749081 0.388006
1.000000 0.715267 0.374975
1.000000 0.671565 0.313512
0.245243 0.781888 0.463966
0.259281 0.780179 0.457679
0.308995 0.769986 0.427924
0.459052 0.789548 0.396307
0.700526 0.843809 0.360143
0.939849 0.870542 0.346777
1.000000 0.817655 0.338598
1.000000 0.765225 0.281193
0.318700 0.896452 0.469673
0.325933 0.895354 0.462531
0.359625 0.891234 0.433387
0.512871 0.911315 0.411566
0.699825 0.935943 0.359319
0.902281 0.950713 0.288304
1.000000 0.927184 0.264988
1.000000 0.856718 0.185702
0.000000 0.298344 0.574670
0.000000 0.306645 0.578790
0.000000 0.312932 0.579675
0.277195 0.298436 0.562554
0.451759 0.286473 0.505669
0.567468 0.327276 0.540093
0.821744 0.350042 0.567590
1.000000 0.432136 0.532860
0.000000 0.335058 0.588464
0.000000 0.341375 0.591760
0.000000 0.331426 0.590753
0.278874 0.313573 0.570275
0.458167 0.298955 0.512810
0.574884 0.340398 0.547448
0.829007 0.363653 0.567102
1.000000 0.440620 0.534173
0.000000 0.393896 0.601282
0.000000 0.392828 0.602686
0.000000 0.386267 0.604883
0.279057 0.369512 0.595666
0.475044 0.348028 0.532280
0.590814 0.388006 0.565484
0.850950 0.413123 0.557427
1.000000 0.465248 0.530266
0.000000 0.475502 0.623377
0.000000 0.475746 0.624018
0.000000 0.479194 0.628290
0.315801 0.485420 0.632837
0.522057 0.459876 0.584283
0.683986 0.491676 0.605005
0.907622 0.523186 0.576654
1.000000 0.525383 0.534295
0.000000 0.602380 0.654383
0.000000 0.604211 0.655421
0.000000 0.609216 0.656825
0.395270 0.618097 0.658015
0.587060 0.623529 0.652247
0.810361 0.631037 0.630030
0.971923 0.631556 0.600183
1.000000 0.613672 0.547509
0.256535 0.729610 0.666529
0.294469 0.731380 0.668177
0.386572 0.729580 0.666651
0.479316 0.717891 0.654658
0.562493 0.701411 0.598444
0.862211 0.760922 0.619623
1.000000 0.752590 0.628992
1.000000 0.721584 0.588586
0.427131 0.831662 0.691035
0.432685 0.829099 0.687465
0.460548 0.821286 0.675685
0.483040 0.806088 0.633387
0.568261 0.803494 0.568048
0.850187 0.864347 0.581689
1.000000 0.840116 0.589532
1.000000 0.796658 0.556451
0.465187 0.907988 0.678859
0.462776 0.906859 0.672572
0.458167 0.902464 0.646479
0.479164 0.898924 0.603174
0.597589 0.911192 0.558862
0.824430 0.943969 0.534844
1.000000 0.944701 0.545922
1.000000 0.879179 0.516899
0.000000 0.386267 0.759213
0.000000 0.392889 0.760983
0.000000 0.410193 0.760037
0.000000 0.386297 0.754818
0.417884 0.387854 0.726345
0.587671 0.352056 0.655116
0.697993 0.405035 0.671565
0.890776 0.492348 0.729763
0.000000 0.407904 0.753994
0.000000 0.412421 0.754116
0.000000 0.418311 0.753384
0.000000 0.395148 0.747951
0.412726 0.392126 0.717769
0.582055 0.357519 0.649073
0.693233 0.410163 0.667689
0.888548 0.492714 0.723781
0.000000 0.472786 0.765255
0.000000 0.472175 0.766110
0.000000 0.470314 0.769650
0.000000 0.455482 0.761746
0.430640 0.448280 0.733669
0.598962 0.407019 0.666468
0.711299 0.461097 0.687587
0.905577 0.534813 0.728206
0.000000 0.549676 0.783871
0.000000 0.549187 0.782986
0.000000 0.551904 0.783932
0.182498 0.564172 0.789670
0.493233 0.569696 0.773831
0.641505 0.515343 0.709010
0.748531 0.562524 0.730526
0.940215 0.617487 0.741451
0.000000 0.638422 0.787076
0.000000 0.639124 0.786984
0.000000 0.643519 0.787442
0.312566 0.654719 0.788846
0.534386 0.667475 0.786770
0.672847 0.629786 0.737942
0.801480 0.656123 0.751644
0.977173 0.693202 0.740658
0.000000 0.751522 0.798825
0.000000 0.754849 0.801205
0.242863 0.757443 0.800961
0.438087 0.762387 0.800778
0.599298 0.767758 0.798886
0.740291 0.774350 0.797116
0.914214 0.785550 0.789487
1.000000 0.780270 0.767300
0.466621 0.864408 0.820188
0.486732 0.866056 0.822110
0.546441 0.867979 0.824491
0.638788 0.872251 0.829953
0.690791 0.861051 0.817685
0.720760 0.836759 0.755734
0.951080 0.875639 0.787655
1.000000 0.859342 0.784024
0.611048 0.935485 0.833005
0.613062 0.934386 0.831449
0.628229 0.931670 0.827848
0.657984 0.927367 0.820676
0.665339 0.915923 0.783902
0.712673 0.915557 0.716609
0.948974 0.950927 0.743404
1.000000 0.916381 0.749294
0.000000 0.466316 0.873289
0.000000 0.471656 0.874998
0.000000 0.485725 0.874876
0.000000 0.493233 0.873350
0.326238 0.507805 0.862913
0.561639 0.495491 0.832517
0.707424 0.439979 0.775814
0.798398 0.489418 0.773831
0.000000 0.475654 0.867247
0.000000 0.480934 0.869505
0.000000 0.493996 0.869596
0.000000 0.494697 0.866300
0.309636 0.502525 0.855558
0.551568 0.490150 0.823087
0.694453 0.433326 0.763119
0.784726 0.480079 0.761288
0.000000 0.529229 0.875029
0.000000 0.531212 0.874815
0.000000 0.534630 0.873167
0.000000 0.537163 0.870726
0.334112 0.538354 0.859342
0.566735 0.533379 0.829526
0.708614 0.478065 0.776272
0.804623 0.532067 0.782101
0.000000 0.595514 0.882414
0.000000 0.594873 0.881224
0.000000 0.596643 0.879484
0.000000 0.608667 0.879149
0.413581 0.619562 0.870787
0.605859 0.617273 0.847196
0.732418 0.558556 0.797360
0.825406 0.605341 0.805600
0.000000 0.665461 0.881254
0.000000 0.664485 0.879728
0.000000 0.666590 0.878050
0.119203 0.676173 0.877775
0.466590 0.694850 0.875547
0.641779 0.700374 0.858762
0.747036 0.638575 0.808865
0.844907 0.687190 0.829191
0.000000 0.756374 0.884459
0.000000 0.757595 0.884703
0.000000 0.761685 0.884947
0.354650 0.769711 0.885374
0.542260 0.781216 0.885008
0.699580 0.797604 0.885100
0.792844 0.760220 0.845762
0.898039 0.783810 0.858885
0.300542 0.859129 0.896483
0.330755 0.860594 0.897307
0.412299 0.862669 0.897368
0.527153 0.867216 0.898131
0.645380 0.872221 0.898070
0.758267 0.877562 0.897673
0.856382 0.879332 0.893828
0.984131 0.885985 0.888029
0.555291 0.941741 0.903777
0.567956 0.942168 0.904356
0.620417 0.944793 0.907836
0.693904 0.946960 0.911192
0.779263 0.950103 0.916472
0.825681 0.945220 0.910674
0.838041 0.929137 0.858610
1.000000 0.948669 0.890959
0.000000 0.563775 0.949889
0.000000 0.566766 0.950408
0.000000 0.572107 0.949065
0.000000 0.588434 0.949126
0.335760 0.617578 0.944030
0.580377 0.654841 0.932525
0.707393 0.634821 0.915343
0.826444 0.581659 0.883543
0.000000 0.565454 0.947051
0.000000 0.568536 0.947692
0.000000 0.575158 0.947143
0.000000 0.590173 0.946685
0.329717 0.617548 0.941588
0.576562 0.654170 0.930114
0.701839 0.631189 0.911711
0.820218 0.575555 0.878172
0.000000 0.592370 0.947448
0.000000 0.594202 0.947570
0.000000 0.599390 0.946685
0.000000 0.617334 0.947509
0.358129 0.641077 0.941558
0.588739 0.675319 0.929717
0.706477 0.651148 0.911742
0.821683 0.594965 0.878752
0.000000 0.631342 0.948028
0.000000 0.633112 0.948272
0.000000 0.637018 0.947448
0.000000 0.654780 0.946868
0.398566 0.681941 0.943084
0.601862 0.707362 0.933898
0.723659 0.695949 0.916655
0.831144 0.640223 0.885527
0.000000 0.680262 0.948058
0.000000 0.681361 0.948425
0.000000 0.681697 0.947539
0.000000 0.696590 0.946593
0.411933 0.723537 0.943755
0.613733 0.746731 0.936828
0.740475 0.746181 0.921599
0.842435 0.696345 0.892912
0.000000 0.751278 0.948089
0.000000 0.750881 0.947417
0.000000 0.751705 0.945800
0.000000 0.757473 0.944762
0.407080 0.770748 0.944610
0.640314 0.804776 0.945006
0.784329 0.823880 0.938170
0.870665 0.782010 0.912749
0.000000 0.839353 0.951507
0.000000 0.839689 0.951232
0.117250 0.841459 0.950439
0.371221 0.847410 0.950072
0.538567 0.856901 0.949950
0.685908 0.870695 0.951080
0.823056 0.891936 0.954223
0.894438 0.860868 0.927459
0.432074 0.930877 0.959686
0.445075 0.931212 0.959655
0.498909 0.933196 0.960052
0.583917 0.936797 0.960662
0.682643 0.941588 0.961364
0.782223 0.947295 0.962280
0.874418 0.953674 0.963622
0.945769 0.955505 0.961517
