20 Preset/Street 2/【3】LUT video cho PR-AE-FCPX/Tone 1 (15).cube
# Created by Adobe Lightroom plugin Export LUT (1.24.0)
# www.johnrellis.com/lightroom/exportlut.htm
# Preset: 青橙风光-素材江湖15
# Color profile: C:\Program Files (x86)\Common Files\Adobe\Color\Profiles\Recommended\VideoHD.icc
LUT_3D_SIZE 8
DOMAIN_MIN 0.000000 0.000000 0.000000
DOMAIN_MAX 0.903226 0.903226 0.903226
0.051850 0.146670 0.163729
0.053559 0.146639 0.163912
0.177157 0.145144 0.167575
0.308507 0.142519 0.172732
0.538506 0.036591 0.182193
0.872709 0.000000 0.195041
1.000000 0.000000 0.221561
1.000000 0.274083 0.282139
0.048219 0.149050 0.164553
0.047700 0.151736 0.164981
0.156252 0.157809 0.169162
0.275547 0.163882 0.174533
0.488106 0.136080 0.184329
0.802213 0.000000 0.195163
1.000000 0.000000 0.213046
1.000000 0.259586 0.263767
0.000000 0.207431 0.184054
0.000000 0.210025 0.182620
0.120974 0.222538 0.178042
0.265812 0.235630 0.196597
0.526452 0.244511 0.205142
0.839200 0.250034 0.213962
1.000000 0.341405 0.248814
1.000000 0.443946 0.326604
0.000000 0.338933 0.232700
0.000000 0.340093 0.232059
0.000000 0.354498 0.228641
0.340826 0.435370 0.208347
0.698146 0.489021 0.222568
0.880034 0.530968 0.300450
1.000000 0.569604 0.341527
1.000000 0.612421 0.420325
0.000000 0.608301 0.335302
0.000000 0.609552 0.333898
0.000000 0.621851 0.311650
0.293431 0.641932 0.327794
0.635645 0.697627 0.259861
0.871092 0.710048 0.259983
0.951263 0.727169 0.470527
1.000000 0.755886 0.564477
0.000000 0.831266 0.519982
0.000000 0.843259 0.541283
0.198062 0.845090 0.543359
0.424231 0.844633 0.531640
0.625025 0.840970 0.544884
0.813840 0.864866 0.493324
0.965240 0.862852 0.500298
0.986816 0.863005 0.701930
0.533379 0.926238 0.737972
0.556298 0.926879 0.744442
0.608698 0.925048 0.753750
0.643763 0.924804 0.744839
0.712428 0.920256 0.746365
0.792721 0.920836 0.751675
0.887388 0.929198 0.727321
0.982940 0.922942 0.706874
0.769986 0.960632 0.867948
0.774777 0.960388 0.869322
0.795926 0.959747 0.876097
0.819272 0.959747 0.881956
0.814908 0.955596 0.865049
0.852750 0.955352 0.874815
0.888792 0.957397 0.879210
0.929198 0.959625 0.868833
0.051850 0.146670 0.163729
0.053559 0.146639 0.163912
0.160647 0.144625 0.167422
0.270817 0.147524 0.180026
0.473945 0.108461 0.191409
0.769314 0.000000 0.203525
0.983124 0.000000 0.219364
1.000000 0.136080 0.257725
0.048920 0.147555 0.164920
0.054963 0.149874 0.166629
0.149752 0.158694 0.174197
0.262913 0.164767 0.183505
0.463081 0.142336 0.194186
0.750851 0.000000 0.205295
0.958068 0.000000 0.218021
1.000000 0.157168 0.250584
0.000000 0.201144 0.190311
0.000000 0.204837 0.192203
0.119570 0.216739 0.188724
0.249943 0.230533 0.205386
0.475959 0.234287 0.212039
0.762936 0.214511 0.220401
0.971221 0.251347 0.236545
1.000000 0.361639 0.287633
0.000000 0.311803 0.233158
0.000000 0.314580 0.233616
0.000000 0.329656 0.232151
0.270420 0.372229 0.217075
0.559380 0.396277 0.231998
0.779507 0.431556 0.271031
0.958587 0.477211 0.290410
1.000000 0.540124 0.353002
0.000000 0.577691 0.335119
0.000000 0.575525 0.332280
0.000000 0.581750 0.311772
0.240299 0.587640 0.316167
0.571710 0.632227 0.254215
0.826413 0.657008 0.250034
0.927153 0.688197 0.434546
1.000000 0.722774 0.513603
0.000000 0.805356 0.496498
0.000000 0.807248 0.499245
0.000000 0.812131 0.508385
0.351324 0.817227 0.494423
0.591211 0.817533 0.515068
0.798795 0.851011 0.474464
0.956786 0.851286 0.482246
0.983612 0.851499 0.678431
0.466621 0.916960 0.709895
0.475654 0.915312 0.707851
0.540642 0.913268 0.716213
0.595056 0.914244 0.711208
0.687678 0.912139 0.723171
0.776730 0.912902 0.729671
0.877775 0.921080 0.695460
0.981048 0.914397 0.668208
0.745937 0.958129 0.855924
0.755520 0.958312 0.859648
0.777920 0.957549 0.866361
0.807156 0.957519 0.874571
0.827481 0.957336 0.875456
0.856229 0.955840 0.878782
0.887663 0.956786 0.878508
0.928405 0.959075 0.867582
0.000000 0.157931 0.197360
0.007721 0.153994 0.198825
0.144533 0.151461 0.199466
0.287999 0.146395 0.215000
0.511162 0.000000 0.225956
0.812924 0.000000 0.239841
1.000000 0.000000 0.271275
1.000000 0.034760 0.320043
0.000000 0.157290 0.201205
0.048920 0.156771 0.201694
0.142641 0.161807 0.203891
0.278691 0.162112 0.216953
0.493019 0.094606 0.224979
0.783871 0.000000 0.243137
0.987182 0.000000 0.267155
1.000000 0.122591 0.312078
0.000000 0.203006 0.213291
0.000000 0.206485 0.216434
0.128084 0.218326 0.227878
0.279301 0.226291 0.236637
0.528588 0.216526 0.251041
0.802090 0.172793 0.266636
0.990143 0.215915 0.290776
1.000000 0.343023 0.342748
0.000000 0.317144 0.268193
0.000000 0.324407 0.272343
0.000000 0.347143 0.282780
0.303288 0.384649 0.275059
0.577386 0.413886 0.317754
0.816678 0.443488 0.331884
0.979065 0.488228 0.359960
1.000000 0.550896 0.421363
0.000000 0.572168 0.385473
0.000000 0.574762 0.385962
0.000000 0.589960 0.390112
0.300725 0.609216 0.385229
0.603449 0.653071 0.346990
0.830655 0.665766 0.368719
0.928069 0.697841 0.501732
1.000000 0.729488 0.563531
0.000000 0.799741 0.537957
0.000000 0.802670 0.541985
0.048280 0.806424 0.549645
0.383673 0.811704 0.539879
0.596582 0.811124 0.555077
0.793393 0.844053 0.529259
0.945800 0.847440 0.556115
0.973663 0.857389 0.726986
0.502007 0.918181 0.738582
0.511498 0.916838 0.737606
0.562707 0.913939 0.741390
0.634852 0.912810 0.748318
0.700404 0.911284 0.747768
0.785183 0.912352 0.759121
0.881102 0.923308 0.740108
0.974487 0.918730 0.734127
0.745327 0.958038 0.860227
0.748898 0.957580 0.860594
0.771542 0.956756 0.866789
0.816068 0.956695 0.882811
0.832303 0.956939 0.881682
0.862089 0.956176 0.886900
0.892454 0.957122 0.888457
0.930266 0.959503 0.878843
0.000000 0.165774 0.247135
0.000000 0.162631 0.249638
0.151949 0.161624 0.250553
0.254978 0.157321 0.263462
0.533501 0.000000 0.307805
0.822080 0.000000 0.339422
1.000000 0.000000 0.349035
1.000000 0.000000 0.360143
0.000000 0.163638 0.254520
0.027955 0.164675 0.255497
0.158633 0.169650 0.258946
0.265141 0.170260 0.273228
0.551476 0.065614 0.317205
0.822629 0.000000 0.341161
1.000000 0.000000 0.347417
1.000000 0.000000 0.361608
0.000000 0.223941 0.273869
0.000000 0.222812 0.277623
0.126833 0.215030 0.285985
0.275547 0.222690 0.295781
0.579614 0.191073 0.339849
0.845945 0.000000 0.358526
1.000000 0.000000 0.372076
1.000000 0.258000 0.423804
0.000000 0.319738 0.317296
0.000000 0.323278 0.320714
0.000000 0.340764 0.337896
0.317082 0.370336 0.371649
0.587091 0.370153 0.382238
0.817319 0.376074 0.397955
0.980865 0.422522 0.427955
1.000000 0.509026 0.484260
0.000000 0.586236 0.479530
0.000000 0.585901 0.478859
0.000000 0.597620 0.487221
0.401831 0.628321 0.509239
0.631525 0.663661 0.492378
0.817288 0.679652 0.548028
0.935912 0.703548 0.585718
1.000000 0.730831 0.629603
0.000000 0.814084 0.634180
0.098817 0.824277 0.649622
0.335454 0.823667 0.652583
0.529412 0.828336 0.669978
0.655177 0.829984 0.670130
0.801999 0.848325 0.648737
0.928862 0.849973 0.682490
0.957855 0.868406 0.794003
0.527428 0.917571 0.773922
0.546075 0.917876 0.777188
0.604334 0.917571 0.786374
0.688502 0.917357 0.803189
0.744137 0.917266 0.805264
0.807950 0.915496 0.811643
0.885008 0.924804 0.794217
0.964569 0.921141 0.799405
0.753628 0.959564 0.873777
0.758846 0.959289 0.874846
0.780636 0.958404 0.880064
0.818051 0.957397 0.890623
0.846616 0.957122 0.896483
0.870512 0.956542 0.899016
0.898802 0.957214 0.902007
0.933501 0.960266 0.896025
0.000000 0.171572 0.325353
0.000000 0.171450 0.328527
0.155703 0.168307 0.331670
0.293065 0.163058 0.347723
0.477760 0.111299 0.387884
0.836820 0.000000 0.486427
1.000000 0.000000 0.513207
1.000000 0.000000 0.525658
0.000000 0.172335 0.333471
0.000000 0.173068 0.337682
0.164645 0.175143 0.343786
0.301366 0.174411 0.356847
0.492317 0.128481 0.398871
0.842100 0.000000 0.492866
1.000000 0.000000 0.515373
1.000000 0.000000 0.526940
0.000000 0.221347 0.370184
0.000000 0.214633 0.372503
0.121035 0.216709 0.376654
0.317876 0.221653 0.388434
0.517632 0.202640 0.425483
0.830411 0.095247 0.496407
0.996765 0.000000 0.513664
1.000000 0.137819 0.520714
0.000000 0.343328 0.411963
0.000000 0.344915 0.415290
0.000000 0.352209 0.431220
0.301549 0.338018 0.467292
0.579278 0.356207 0.497353
0.839200 0.366857 0.540276
0.987274 0.355718 0.538354
1.000000 0.390021 0.541466
0.000000 0.522850 0.505089
0.000000 0.527886 0.509911
0.000000 0.542687 0.525261
0.327611 0.568231 0.554192
0.594965 0.595239 0.589227
0.793668 0.590723 0.585504
0.936645 0.610590 0.597833
1.000000 0.656764 0.633875
0.000000 0.766842 0.664637
0.000000 0.768490 0.666743
0.212589 0.767178 0.666499
0.448646 0.773648 0.676081
0.628595 0.786374 0.695918
0.780240 0.819730 0.708675
0.895354 0.836210 0.764584
0.958648 0.850828 0.798520
0.497078 0.909422 0.799313
0.504509 0.908232 0.797879
0.550286 0.906310 0.798276
0.650904 0.907836 0.812406
0.750484 0.909545 0.831449
0.807370 0.909636 0.833066
0.879667 0.917571 0.822263
0.951995 0.913909 0.831510
0.692226 0.957183 0.866453
0.699367 0.956786 0.867399
0.729397 0.955505 0.872343
0.789761 0.955413 0.887785
0.841978 0.954620 0.901671
0.870939 0.954864 0.906157
0.899046 0.954559 0.909880
0.932433 0.958221 0.903136
0.000000 0.182162 0.465980
0.000000 0.181033 0.469398
0.171572 0.172885 0.470558
0.357183 0.153780 0.483742
0.573388 0.000000 0.537285
0.787320 0.000000 0.595117
1.000000 0.000000 0.675593
1.000000 0.231632 0.693141
0.000000 0.180697 0.455116
0.000000 0.180423 0.456306
0.168704 0.178408 0.462257
0.344030 0.167178 0.476783
0.553338 0.088838 0.524590
0.766629 0.000000 0.580591
1.000000 0.000000 0.664332
1.000000 0.227604 0.684474
0.000000 0.218784 0.500603
0.000000 0.219028 0.501457
0.110658 0.219455 0.508476
0.359960 0.212619 0.522179
0.586053 0.181521 0.558770
0.789120 0.112367 0.610529
1.000000 0.214542 0.682765
1.000000 0.364233 0.697688
0.000000 0.372198 0.567102
0.000000 0.368505 0.570153
0.000000 0.346166 0.589197
0.344640 0.332860 0.618769
0.655329 0.351751 0.645350
0.837156 0.383520 0.688228
0.991089 0.502098 0.734524
1.000000 0.556268 0.735866
0.000000 0.544213 0.616266
0.000000 0.544701 0.617792
0.000000 0.548669 0.626490
0.000000 0.554070 0.645563
0.569177 0.534569 0.688899
0.799496 0.593011 0.718807
0.943175 0.650080 0.746517
1.000000 0.654749 0.739193
0.000000 0.743282 0.709255
0.000000 0.750484 0.717189
0.000000 0.754726 0.724056
0.349096 0.763241 0.738216
0.594110 0.774380 0.757809
0.774868 0.800381 0.792935
0.894865 0.800748 0.793637
0.974548 0.812680 0.804959
0.542504 0.907500 0.851255
0.563073 0.908690 0.853910
0.607904 0.908629 0.856138
0.678614 0.908904 0.860502
0.756985 0.910002 0.867155
0.828489 0.911315 0.875212
0.884428 0.916564 0.869902
0.939849 0.917967 0.886839
0.689448 0.955505 0.888487
0.692103 0.955047 0.887999
0.713680 0.954162 0.889311
0.759304 0.953735 0.894926
0.816037 0.953002 0.903868
0.874205 0.953033 0.917815
0.902495 0.953765 0.921477
0.933745 0.956939 0.917693
0.000000 0.189822 0.637751
0.000000 0.186679 0.642451
0.217380 0.168826 0.646387
0.449836 0.102266 0.660304
0.655421 0.000000 0.680537
0.829953 0.000000 0.733394
0.962371 0.000000 0.757412
1.000000 0.192325 0.784604
0.000000 0.187625 0.626276
0.000000 0.184695 0.631769
0.221561 0.170626 0.637018
0.431495 0.128511 0.650050
0.636866 0.000000 0.668452
0.811032 0.000000 0.717800
0.946349 0.000000 0.742245
1.000000 0.168276 0.773007
0.000000 0.219883 0.662318
0.000000 0.218936 0.663783
0.160159 0.211887 0.667170
0.424353 0.187228 0.677638
0.642420 0.132662 0.691676
0.821134 0.000000 0.736141
0.956023 0.049378 0.763668
1.000000 0.357824 0.791989
0.000000 0.334264 0.715755
0.000000 0.322576 0.714168
0.000000 0.300420 0.716701
0.357031 0.295415 0.727718
0.642634 0.287907 0.740566
0.836881 0.310002 0.774533
0.958831 0.384955 0.796811
1.000000 0.548913 0.815183
0.000000 0.554223 0.722774
0.000000 0.549126 0.721126
0.000000 0.533349 0.731380
0.000000 0.498451 0.758267
0.538811 0.454475 0.775326
0.805356 0.511376 0.791012
0.926452 0.586572 0.815854
1.000000 0.712398 0.841733
0.000000 0.743160 0.790738
0.000000 0.743526 0.791836
0.000000 0.742824 0.794888
0.000000 0.739712 0.800412
0.332067 0.728756 0.806241
0.730617 0.725673 0.837491
0.890135 0.789090 0.858610
0.968505 0.827451 0.872129
0.000000 0.885405 0.855467
0.000000 0.886351 0.857115
0.280949 0.886320 0.859648
0.488869 0.887022 0.865324
0.650660 0.888090 0.872709
0.780209 0.892088 0.883177
0.874723 0.900694 0.896880
0.940551 0.895811 0.892973
0.671656 0.952087 0.910826
0.680751 0.952026 0.911589
0.718379 0.952117 0.915312
0.771267 0.951598 0.920409
0.819272 0.951446 0.924193
0.866941 0.952117 0.929442
0.909758 0.953552 0.936736
0.936522 0.955993 0.935271
0.000000 0.199771 0.842191
0.152987 0.193393 0.844175
0.372107 0.159091 0.843351
0.581689 0.000000 0.848631
0.760464 0.000000 0.854917
0.902007 0.000000 0.863676
1.000000 0.000000 0.893095
1.000000 0.159426 0.876982
0.000000 0.196994 0.835904
0.166384 0.190555 0.838132
0.374243 0.156588 0.839292
0.577417 0.000000 0.843534
0.750729 0.000000 0.850736
0.895293 0.000000 0.859342
1.000000 0.000000 0.888212
1.000000 0.161746 0.872679
0.000000 0.215213 0.841489
0.111177 0.211643 0.842435
0.343908 0.192813 0.842985
0.556420 0.146548 0.852598
0.737362 0.023651 0.857084
0.886687 0.106416 0.862028
0.997589 0.112001 0.889372
1.000000 0.291356 0.875029
0.000000 0.297581 0.856199
0.000000 0.297246 0.857603
0.000000 0.290837 0.858671
0.460731 0.275547 0.863859
0.697749 0.265110 0.869322
0.869627 0.304448 0.874601
0.985290 0.353124 0.895872
1.000000 0.461280 0.883391
0.000000 0.540764 0.862638
0.000000 0.536034 0.864805
0.000000 0.497169 0.867948
0.000000 0.407965 0.876555
0.572717 0.410803 0.879637
0.816159 0.452857 0.883146
0.951629 0.529717 0.896941
1.000000 0.626459 0.891752
0.000000 0.744900 0.870481
0.000000 0.741421 0.869291
0.000000 0.729854 0.866545
0.000000 0.706722 0.866667
0.247105 0.655879 0.883177
0.700557 0.631617 0.897673
0.903227 0.726741 0.904692
0.970367 0.792233 0.910277
0.000000 0.878111 0.901366
0.000000 0.877317 0.901213
0.000000 0.874083 0.900816
0.000000 0.869413 0.901640
0.319432 0.861875 0.902861
0.578515 0.850370 0.904356
0.837613 0.851133 0.918608
0.940307 0.891539 0.927855
0.449836 0.951873 0.927214
0.463600 0.951476 0.927245
0.521843 0.950286 0.927916
0.616938 0.948669 0.929961
0.718318 0.946807 0.932799
0.809934 0.945739 0.936614
0.883604 0.946807 0.941894
0.933776 0.950195 0.948211
