20 Preset/Street 2/【3】LUT video cho PR-AE-FCPX/Tone 1 (28).cube
# Created by Adobe Lightroom plugin Export LUT (1.24.0)
# www.johnrellis.com/lightroom/exportlut.htm
# Preset: 青橙风光-素材江湖28
# Color profile: C:\Program Files (x86)\Common Files\Adobe\Color\Profiles\Recommended\VideoHD.icc
LUT_3D_SIZE 5
DOMAIN_MIN 0.000000 0.000000 0.000000
DOMAIN_MAX 0.903226 0.903226 0.903226
0.168307 0.167300 0.166079
0.291264 0.159792 0.174746
0.520867 0.145388 0.191623
0.780240 0.140993 0.206882
1.000000 0.170077 0.246799
0.177310 0.249790 0.168887
0.277043 0.237430 0.185946
0.491066 0.241978 0.194430
0.771328 0.249149 0.208072
1.000000 0.267796 0.252171
0.271489 0.406775 0.158022
0.332311 0.396887 0.168185
0.503777 0.399084 0.212375
0.759457 0.419593 0.223484
1.000000 0.433875 0.260807
0.376318 0.599268 0.041718
0.424842 0.596399 0.085786
0.567803 0.584710 0.155428
0.749783 0.576684 0.242405
0.988952 0.605402 0.302983
0.474769 0.844938 0.000000
0.519432 0.843076 0.000000
0.644190 0.812619 0.007477
0.839567 0.809110 0.234592
0.994263 0.784298 0.405554
0.179507 0.204532 0.246555
0.250095 0.195407 0.250980
0.467964 0.190982 0.269322
0.738766 0.188449 0.252476
0.986847 0.200076 0.254093
0.189670 0.259861 0.249790
0.274449 0.268894 0.263523
0.483619 0.263645 0.256352
0.730343 0.262577 0.252354
0.983642 0.270451 0.255009
0.245212 0.422004 0.233463
0.315862 0.415503 0.234928
0.481788 0.396399 0.262058
0.714870 0.407935 0.258976
0.984253 0.433539 0.265599
0.346471 0.609400 0.174777
0.405066 0.607599 0.182406
0.563867 0.593896 0.212619
0.740719 0.576226 0.266453
0.980163 0.603754 0.298161
0.459388 0.843809 0.000000
0.505028 0.841001 0.000000
0.654658 0.834958 0.074983
0.847654 0.823117 0.246159
1.000000 0.796811 0.424048
0.139925 0.302342 0.375341
0.204807 0.302800 0.388128
0.418952 0.272923 0.406622
0.591424 0.296635 0.456336
0.950408 0.214206 0.465034
0.182559 0.341314 0.385840
0.243168 0.344366 0.394415
0.440955 0.321111 0.420996
0.634821 0.328618 0.464546
0.975860 0.265721 0.445777
0.245609 0.455329 0.418982
0.311131 0.463874 0.428809
0.536156 0.507591 0.479194
0.759884 0.472145 0.445380
0.980957 0.449928 0.420996
0.339605 0.656489 0.408179
0.369482 0.648920 0.398444
0.526085 0.643885 0.388220
0.748867 0.617639 0.423590
0.963836 0.609644 0.413428
0.298466 0.839841 0.231540
0.344762 0.841245 0.222293
0.567102 0.835904 0.245853
0.807523 0.820035 0.305211
0.983948 0.788083 0.419532
0.000000 0.422309 0.526116
0.142184 0.422675 0.536553
0.329473 0.389899 0.565972
0.605066 0.349584 0.571923
0.782864 0.360876 0.613367
0.103059 0.443977 0.528618
0.185153 0.442359 0.534295
0.356512 0.422034 0.564233
0.605585 0.373907 0.569604
0.784970 0.385138 0.614527
0.188144 0.500725 0.538170
0.246342 0.502159 0.541497
0.410895 0.515740 0.566461
0.646693 0.483314 0.594965
0.828946 0.493477 0.648524
0.261082 0.651728 0.587457
0.315679 0.653407 0.590387
0.499641 0.676143 0.618830
0.784054 0.741451 0.700404
0.958740 0.682033 0.637995
0.403540 0.847959 0.577264
0.439918 0.849363 0.579370
0.556115 0.857572 0.582574
0.715175 0.852598 0.534722
0.956085 0.819364 0.608423
0.124514 0.614923 0.768704
0.206485 0.610101 0.769162
0.385901 0.592950 0.776730
0.564202 0.536217 0.783078
0.817075 0.477760 0.782498
0.132204 0.621302 0.761135
0.211368 0.617243 0.762448
0.384833 0.600244 0.769955
0.561242 0.544945 0.777859
0.815122 0.488441 0.778836
0.104677 0.651789 0.759030
0.201144 0.649165 0.757595
0.386542 0.641657 0.759731
0.567468 0.595972 0.774472
0.824125 0.549950 0.782284
0.117861 0.724727 0.767971
0.198032 0.721767 0.766781
0.378668 0.715999 0.768978
0.616388 0.718593 0.782132
0.862486 0.693935 0.811063
0.238376 0.864408 0.793668
0.296178 0.863767 0.794186
0.472358 0.865263 0.801755
0.698360 0.869078 0.819608
0.940551 0.917662 0.895781
