20 Preset/Street 2/【3】LUT video cho PR-AE-FCPX/Tone 1 (27).cube
# Created by Adobe Lightroom plugin Export LUT (1.24.0)
# www.johnrellis.com/lightroom/exportlut.htm
# Preset: 青橙风光-素材江湖27
# Color profile: C:\Program Files (x86)\Common Files\Adobe\Color\Profiles\Recommended\VideoHD.icc
LUT_3D_SIZE 32
DOMAIN_MIN 0.0 0.0 0.0
DOMAIN_MAX 1.0 1.0 1.0
0.017487 0.100740 0.105013
0.017487 0.100740 0.105013
0.019471 0.100679 0.105013
0.039948 0.101656 0.106813
0.077790 0.104463 0.109865
0.101198 0.107881 0.114199
0.120729 0.112825 0.119173
0.142275 0.117556 0.123720
0.165682 0.122133 0.128420
0.192050 0.126741 0.132876
0.221622 0.130861 0.137819
0.255344 0.135103 0.143008
0.294560 0.138247 0.148623
0.339361 0.140444 0.154757
0.390936 0.140352 0.160861
0.447944 0.137392 0.167208
0.509514 0.131319 0.173709
0.575311 0.120851 0.180545
0.643580 0.105592 0.187686
0.711727 0.090364 0.195102
0.791897 0.071809 0.204379
0.873594 0.097475 0.215000
0.940246 0.137667 0.226139
0.995850 0.183932 0.238315
1.000000 0.230106 0.251987
1.000000 0.276219 0.268132
1.000000 0.320928 0.287175
1.000000 0.365087 0.309636
1.000000 0.409339 0.336187
1.000000 0.454292 0.367376
1.000000 0.500725 0.403754
1.000000 0.548638 0.445350
0.017487 0.100740 0.105013
0.017487 0.100740 0.105013
0.019471 0.100679 0.105013
0.039246 0.102052 0.106752
0.077790 0.104463 0.109865
0.100313 0.108309 0.114168
0.118257 0.113741 0.119387
0.139315 0.118257 0.123690
0.162478 0.122683 0.128176
0.188327 0.126955 0.132723
0.217197 0.131655 0.137636
0.250340 0.135500 0.142733
0.287999 0.139437 0.148165
0.331975 0.141695 0.154238
0.381872 0.142306 0.160281
0.438453 0.139864 0.166567
0.499611 0.134646 0.173220
0.564813 0.125521 0.179904
0.632776 0.111727 0.186923
0.700923 0.096986 0.194186
0.779263 0.083986 0.203159
0.858549 0.096529 0.213169
0.924407 0.131624 0.223453
0.980591 0.172732 0.234897
1.000000 0.217227 0.247562
1.000000 0.261418 0.262303
1.000000 0.306096 0.280278
1.000000 0.350927 0.301823
1.000000 0.395575 0.327398
1.000000 0.440986 0.357824
1.000000 0.488014 0.393561
1.000000 0.536339 0.434577
0.019440 0.101381 0.105623
0.019135 0.101381 0.105959
0.023011 0.101625 0.105226
0.034455 0.104646 0.108492
0.064881 0.108858 0.111940
0.092897 0.113649 0.116609
0.112001 0.118227 0.120912
0.133272 0.122408 0.125216
0.156680 0.126802 0.129335
0.182376 0.130861 0.133608
0.211124 0.135409 0.138338
0.243717 0.139528 0.143404
0.281041 0.143313 0.148653
0.323583 0.146426 0.154513
0.372992 0.147646 0.160433
0.428199 0.146395 0.166812
0.488899 0.142489 0.173373
0.553765 0.135317 0.179934
0.621851 0.124453 0.187015
0.690730 0.111971 0.194217
0.770230 0.103243 0.203189
0.848051 0.112764 0.212894
0.913909 0.139345 0.222843
0.970642 0.176211 0.233768
1.000000 0.216648 0.245914
1.000000 0.258885 0.260044
1.000000 0.302495 0.277379
1.000000 0.346593 0.298314
1.000000 0.391089 0.323583
1.000000 0.436500 0.353491
1.000000 0.483162 0.388617
1.000000 0.531395 0.429145
0.018128 0.107759 0.111055
0.019104 0.108064 0.111330
0.021668 0.108644 0.111238
0.041566 0.109743 0.107057
0.044312 0.115236 0.116396
0.073915 0.120912 0.121035
0.101228 0.125246 0.124300
0.123171 0.129305 0.128176
0.147402 0.133577 0.131685
0.173220 0.137636 0.135653
0.202029 0.142214 0.140261
0.234165 0.146761 0.145022
0.270695 0.150973 0.150393
0.312169 0.154788 0.155825
0.359808 0.156924 0.161776
0.413397 0.157748 0.167941
0.472724 0.155581 0.174258
0.535882 0.151217 0.180819
0.603021 0.144106 0.187594
0.671443 0.136080 0.194491
0.750820 0.130098 0.203220
0.825834 0.135500 0.212222
0.892546 0.154208 0.221683
0.951843 0.183444 0.232029
1.000000 0.220066 0.244053
1.000000 0.260899 0.258152
1.000000 0.304753 0.275761
1.000000 0.349187 0.297032
1.000000 0.393622 0.322515
1.000000 0.439002 0.352483
1.000000 0.484627 0.387030
1.000000 0.530968 0.426490
0.022827 0.117586 0.119417
0.022126 0.117891 0.119387
0.025391 0.118074 0.119356
0.035309 0.120455 0.116640
0.067536 0.119417 0.110750
0.075898 0.124697 0.120485
0.082521 0.131167 0.129793
0.107424 0.136507 0.132540
0.132448 0.141054 0.135622
0.158145 0.146151 0.139071
0.186984 0.150851 0.143130
0.218906 0.155642 0.147768
0.254673 0.160708 0.152804
0.295201 0.165438 0.158114
0.341558 0.169314 0.163912
0.394171 0.171633 0.170047
0.453498 0.171969 0.176211
0.517449 0.170199 0.182650
0.585046 0.166354 0.189456
0.656306 0.161318 0.196536
0.736172 0.159396 0.205234
0.810178 0.164675 0.213840
0.877226 0.179507 0.222782
0.938384 0.203464 0.233036
0.992157 0.235630 0.244755
1.000000 0.273655 0.258824
1.000000 0.314641 0.275975
1.000000 0.356878 0.297032
1.000000 0.399908 0.322179
1.000000 0.443488 0.351659
1.000000 0.487831 0.385718
1.000000 0.532860 0.424475
0.028138 0.126314 0.126528
0.027131 0.126619 0.126741
0.031403 0.126497 0.126467
0.037995 0.127932 0.125460
0.057069 0.130892 0.120790
0.090242 0.130007 0.113924
0.099062 0.134798 0.123201
0.098878 0.141451 0.135134
0.113466 0.148470 0.141634
0.141268 0.154513 0.144533
0.170321 0.160464 0.148226
0.202487 0.166476 0.152285
0.237858 0.172457 0.157046
0.277958 0.178225 0.162295
0.323857 0.183474 0.167819
0.376349 0.187686 0.173983
0.435157 0.190249 0.180056
0.499733 0.191012 0.186496
0.568811 0.189731 0.193118
0.645747 0.188540 0.200595
0.724971 0.190127 0.209079
0.799283 0.197055 0.217533
0.950958 0.253971 0.242710
1.000000 0.287297 0.256382
1.000000 0.323766 0.272221
1.000000 0.361669 0.291020
1.000000 0.399207 0.312810
1.000000 0.436988 0.337896
1.000000 0.475319 0.366613
1.000000 0.514275 0.398993
1.000000 0.553826 0.435096
1.000000 0.594263 0.474708
0.034424 0.137545 0.135073
0.036408 0.137514 0.135073
0.037690 0.137697 0.135042
0.044099 0.138277 0.134463
0.062593 0.142306 0.130282
0.088777 0.144381 0.124544
0.110109 0.143099 0.117708
0.123903 0.148653 0.125978
0.125704 0.155276 0.139284
0.127352 0.164248 0.153048
0.156313 0.172641 0.157443
0.190799 0.180453 0.161410
0.228183 0.188022 0.166018
0.269963 0.195377 0.171054
0.317388 0.201938 0.176242
0.370794 0.207584 0.181857
0.430854 0.211795 0.187869
0.496834 0.214633 0.193851
0.570123 0.216617 0.200900
0.658686 0.221073 0.209628
0.745174 0.228916 0.218906
0.827848 0.243229 0.228946
0.903349 0.266087 0.240452
0.969635 0.296483 0.253971
1.000000 0.332067 0.269902
1.000000 0.369299 0.288518
1.000000 0.405615 0.309728
1.000000 0.441657 0.333959
1.000000 0.478462 0.361700
1.000000 0.515343 0.392798
1.000000 0.553399 0.427955
1.000000 0.592432 0.466682
0.043946 0.147768 0.142916
0.043946 0.147768 0.142916
0.047974 0.147280 0.142519
0.053834 0.146975 0.141634
0.068482 0.150515 0.138277
0.089601 0.154513 0.133211
0.105715 0.156100 0.127108
0.127565 0.155215 0.119997
0.146395 0.161013 0.126986
0.149905 0.167636 0.140902
0.154055 0.176761 0.155856
0.164797 0.187716 0.169253
0.201938 0.197147 0.173190
0.242679 0.206149 0.177646
0.288396 0.214481 0.182650
0.339971 0.221988 0.187808
0.398566 0.228702 0.193484
0.463508 0.234318 0.199344
0.544945 0.241001 0.207309
0.629175 0.247776 0.215366
0.713008 0.256931 0.223941
0.795071 0.270634 0.233341
0.872404 0.290623 0.243961
0.941802 0.317205 0.256657
1.000000 0.349065 0.271763
1.000000 0.383276 0.289311
1.000000 0.417853 0.309667
1.000000 0.452308 0.333227
1.000000 0.487373 0.360296
1.000000 0.523064 0.391058
1.000000 0.559686 0.425574
1.000000 0.597589 0.464088
0.055848 0.159670 0.152285
0.056550 0.159457 0.152316
0.059144 0.159426 0.151888
0.064149 0.158785 0.151369
0.078157 0.160311 0.147951
0.092805 0.164431 0.141451
0.106325 0.167605 0.135836
0.124208 0.169009 0.129305
0.147585 0.168124 0.121736
0.171359 0.174868 0.127504
0.177432 0.181674 0.142672
0.183932 0.191012 0.158480
0.190646 0.202457 0.175784
0.215366 0.214542 0.186404
0.260105 0.225071 0.190860
0.310033 0.234897 0.195834
0.367987 0.244053 0.201144
0.439551 0.254307 0.208286
0.517266 0.263462 0.215335
0.599176 0.272557 0.222782
0.682002 0.283299 0.230930
0.763729 0.297429 0.239963
0.842466 0.316716 0.250065
0.914611 0.341466 0.262028
0.976196 0.370764 0.276371
1.000000 0.402411 0.293126
1.000000 0.435157 0.312779
1.000000 0.468238 0.335973
1.000000 0.501946 0.362554
1.000000 0.536065 0.392950
1.000000 0.571405 0.427192
1.000000 0.607630 0.465278
0.072389 0.172366 0.162325
0.073701 0.172183 0.161959
0.074434 0.172000 0.161990
0.079957 0.171572 0.161257
0.086427 0.171633 0.159335
0.096284 0.175235 0.153536
0.110079 0.179141 0.145998
0.125063 0.181430 0.138338
0.143984 0.182712 0.131411
0.169345 0.181979 0.123262
0.198428 0.189425 0.127535
0.206363 0.196323 0.143557
0.214755 0.205814 0.160678
0.223880 0.217594 0.178836
0.233951 0.231601 0.198306
0.280949 0.245457 0.205692
0.341650 0.259129 0.211978
0.411200 0.271916 0.218540
0.487526 0.283665 0.225284
0.568200 0.295445 0.232456
0.650263 0.307805 0.239933
0.730312 0.322240 0.247990
0.807645 0.339940 0.257176
0.879637 0.362036 0.268040
0.943786 0.387518 0.280644
0.997650 0.416480 0.295811
1.000000 0.447517 0.314092
1.000000 0.479713 0.336309
1.000000 0.512993 0.362615
1.000000 0.547265 0.393164
1.000000 0.582208 0.427741
1.000000 0.618158 0.466529
0.087098 0.185061 0.171878
0.088228 0.185031 0.171878
0.088960 0.184695 0.171572
0.091066 0.184482 0.171054
0.094820 0.183719 0.170260
0.101656 0.186618 0.165652
0.114321 0.191257 0.158724
0.128908 0.195102 0.150393
0.146120 0.196811 0.140780
0.167422 0.198337 0.133028
0.195254 0.197696 0.124269
0.230350 0.205966 0.127077
0.240269 0.213199 0.144137
0.252811 0.223636 0.162997
0.267185 0.236973 0.183078
0.283146 0.252934 0.204685
0.311162 0.270390 0.223789
0.377905 0.285405 0.229770
0.451392 0.299748 0.236057
0.530632 0.313573 0.242771
0.611963 0.327825 0.249851
0.692744 0.343450 0.257542
0.771450 0.362066 0.266514
0.846738 0.383856 0.276799
0.914672 0.408820 0.288975
0.972869 0.436896 0.303563
1.000000 0.467262 0.321263
1.000000 0.498939 0.342931
1.000000 0.531395 0.368872
1.000000 0.564782 0.399145
1.000000 0.598810 0.433753
1.000000 0.633722 0.472511
0.097810 0.199435 0.182528
0.098054 0.199283 0.182528
0.099184 0.199100 0.182223
0.101289 0.198734 0.181643
0.104860 0.198184 0.181064
0.110140 0.199252 0.178408
0.120668 0.203952 0.171939
0.135683 0.209628 0.163729
0.151492 0.212772 0.154574
0.170626 0.214328 0.143679
0.194583 0.215946 0.134676
0.227420 0.216770 0.124727
0.298192 0.239200 0.125093
0.317815 0.249241 0.146700
0.338140 0.261936 0.169955
0.359930 0.277470 0.194400
0.382940 0.295567 0.220462
0.407996 0.316564 0.248325
0.468605 0.337011 0.263401
0.553094 0.355505 0.270268
0.637964 0.374273 0.277836
0.719692 0.394446 0.286046
0.797818 0.416724 0.295445
0.869780 0.441321 0.306523
0.932921 0.467933 0.319799
0.986114 0.496071 0.335393
1.000000 0.524498 0.353979
1.000000 0.552758 0.376104
1.000000 0.581323 0.401770
1.000000 0.610712 0.431617
1.000000 0.640681 0.465461
1.000000 0.672084 0.503899
0.113405 0.218662 0.196719
0.113497 0.218662 0.196567
0.114015 0.218387 0.196323
0.116091 0.217594 0.195712
0.118868 0.216739 0.194644
0.122469 0.215732 0.193179
0.132326 0.220401 0.187350
0.146334 0.226871 0.180026
0.164492 0.233524 0.170840
0.184390 0.238102 0.160098
0.209537 0.241337 0.147707
0.241062 0.244938 0.136690
0.283238 0.247593 0.123934
0.347143 0.260960 0.120577
0.371221 0.271855 0.144594
0.394232 0.284642 0.169711
0.417639 0.299809 0.195895
0.441627 0.317662 0.223056
0.467109 0.338323 0.251926
0.495796 0.361608 0.281712
0.579706 0.381720 0.288487
0.662898 0.402899 0.296330
0.743801 0.425788 0.305089
0.820829 0.450813 0.315404
0.890410 0.477638 0.327764
0.950317 0.506218 0.342535
0.999634 0.535851 0.360418
1.000000 0.565545 0.381933
1.000000 0.595178 0.407599
1.000000 0.625269 0.437720
1.000000 0.655421 0.471748
1.000000 0.686397 0.510491
0.128969 0.236851 0.209934
0.129335 0.236637 0.209842
0.130037 0.236271 0.209476
0.131289 0.235691 0.208652
0.133944 0.234684 0.207736
0.136934 0.233799 0.206516
0.144533 0.236027 0.202396
0.156619 0.241978 0.195102
0.174014 0.249271 0.186099
0.193820 0.255741 0.175753
0.217258 0.260533 0.163607
0.245548 0.264073 0.149233
0.281437 0.268223 0.136843
0.328832 0.270909 0.121431
0.403143 0.284977 0.112886
0.428260 0.295506 0.140200
0.451667 0.307683 0.167819
0.475532 0.322667 0.195438
0.500755 0.340429 0.224277
0.526665 0.360967 0.254276
0.553948 0.384680 0.286656
0.609003 0.409918 0.308751
0.692561 0.434455 0.317510
0.773831 0.460822 0.327672
0.848905 0.488991 0.339544
0.915129 0.518608 0.353918
0.970916 0.549462 0.371038
1.000000 0.580407 0.392004
1.000000 0.610986 0.417182
1.000000 0.641505 0.447028
1.000000 0.671870 0.481300
1.000000 0.702724 0.520562
0.146181 0.255344 0.223026
0.146181 0.255344 0.223026
0.146365 0.254856 0.222477
0.147677 0.253910 0.221653
0.149630 0.252842 0.220493
0.152407 0.251438 0.219089
0.157015 0.250919 0.216648
0.168032 0.256596 0.209873
0.183719 0.263737 0.201297
0.204715 0.272374 0.190860
0.226871 0.278691 0.179660
0.253941 0.284092 0.165866
0.286107 0.288121 0.149844
0.326421 0.292515 0.135378
0.378912 0.294926 0.116945
0.461036 0.309606 0.100954
0.486976 0.319951 0.133639
0.510979 0.332128 0.163973
0.535668 0.347051 0.193912
0.561181 0.365057 0.224643
0.587945 0.386267 0.256657
0.616327 0.411414 0.291478
0.645777 0.440467 0.329198
0.725673 0.468757 0.341588
0.805539 0.498421 0.353124
0.877745 0.529595 0.367132
0.939849 0.562158 0.384039
0.990173 0.595514 0.405035
1.000000 0.628443 0.430701
1.000000 0.660945 0.461799
1.000000 0.693050 0.497963
1.000000 0.724758 0.539574
0.162936 0.272740 0.235080
0.163241 0.272709 0.235080
0.163516 0.272618 0.234775
0.164797 0.271855 0.234104
0.166934 0.270939 0.233097
0.169406 0.269993 0.231968
0.173861 0.268864 0.230625
0.182986 0.273228 0.225437
0.197879 0.280583 0.217655
0.217624 0.289464 0.208164
0.241093 0.298344 0.196506
0.266209 0.304631 0.183017
0.296056 0.309636 0.167086
0.331029 0.313176 0.149294
0.373266 0.316320 0.132448
0.427222 0.318029 0.110506
0.515801 0.333501 0.080690
0.542504 0.344060 0.123598
0.567224 0.356542 0.158083
0.592950 0.372015 0.190768
0.620264 0.391241 0.223972
0.649378 0.414527 0.259098
0.679408 0.441932 0.297093
0.710231 0.473426 0.338323
0.762875 0.507408 0.369604
0.841215 0.541344 0.383795
0.909514 0.576410 0.401068
0.966033 0.612024 0.422126
1.000000 0.646693 0.447852
1.000000 0.679866 0.478676
1.000000 0.711757 0.514519
1.000000 0.742580 0.555596
0.179904 0.290105 0.246830
0.180087 0.290013 0.246616
0.180758 0.289738 0.246464
0.182193 0.289158 0.245914
0.183658 0.288457 0.245060
0.186404 0.287572 0.243900
0.190585 0.286656 0.242741
0.197482 0.287968 0.239628
0.210758 0.295079 0.232334
0.228916 0.303777 0.223392
0.252567 0.314031 0.212284
0.277806 0.322179 0.199588
0.306126 0.328710 0.184451
0.338628 0.333440 0.166293
0.376898 0.337652 0.147524
0.421759 0.340612 0.127596
0.478706 0.342626 0.100313
0.573724 0.359930 0.018555
0.601343 0.371344 0.108461
0.626642 0.384527 0.149630
0.654047 0.401556 0.186343
0.682918 0.422675 0.223453
0.713008 0.447974 0.262119
0.744076 0.477546 0.304265
0.775387 0.511498 0.349645
0.806149 0.549889 0.398871
0.876829 0.588037 0.419409
0.939452 0.626429 0.440742
0.986999 0.663600 0.466804
1.000000 0.698482 0.498177
1.000000 0.731289 0.534905
1.000000 0.762112 0.576593
0.200565 0.309606 0.259770
0.201083 0.309728 0.259831
0.217166 0.323339 0.268864
0.218265 0.322881 0.268376
0.220066 0.322057 0.267491
0.222446 0.320928 0.266239
0.226108 0.319707 0.264897
0.230655 0.318212 0.263096
0.243839 0.325109 0.256077
0.262272 0.334264 0.247105
0.286107 0.345037 0.235904
0.315373 0.356695 0.222141
0.343816 0.364385 0.206394
0.376257 0.370642 0.187594
0.411963 0.374670 0.165225
0.453681 0.378943 0.142824
0.501122 0.380957 0.115724
0.559930 0.382666 0.057740
0.658381 0.402625 0.000000
0.684504 0.414649 0.055665
0.709133 0.428717 0.134951
0.736324 0.447364 0.181094
0.764553 0.470161 0.225132
0.793027 0.496956 0.270176
0.820615 0.527459 0.317998
0.847166 0.562158 0.368750
0.872007 0.600763 0.422644
0.913024 0.641352 0.463050
0.964904 0.679805 0.488289
1.000000 0.715755 0.519463
1.000000 0.749081 0.556512
1.000000 0.779721 0.598169
0.228519 0.334386 0.276097
0.230076 0.335546 0.276738
0.232456 0.336889 0.277623
0.235050 0.337652 0.277989
0.237797 0.337987 0.277867
0.240818 0.337346 0.277165
0.244236 0.336248 0.275792
0.248295 0.334722 0.274113
0.257847 0.337926 0.269535
0.274662 0.346532 0.261143
0.296269 0.356817 0.250645
0.323705 0.368536 0.238132
0.353063 0.378851 0.222934
0.383490 0.386389 0.205783
0.417365 0.392493 0.185367
0.454597 0.396704 0.160708
0.499214 0.402167 0.137026
0.548058 0.404974 0.104677
0.608667 0.408423 0.005249
0.710079 0.432288 0.000000
0.738003 0.446204 0.000000
0.765530 0.462959 0.116121
0.793668 0.483497 0.173495
0.821653 0.507866 0.224186
0.848692 0.536004 0.275212
0.874540 0.568139 0.328252
0.898222 0.604211 0.384436
0.919402 0.644434 0.443671
0.937560 0.688380 0.506432
0.980163 0.726894 0.537499
1.000000 0.761868 0.574762
1.000000 0.793179 0.616754
0.250248 0.352819 0.287999
0.252415 0.354314 0.288945
0.254917 0.355688 0.289769
0.257572 0.356909 0.290318
0.260533 0.357305 0.290288
0.263584 0.356909 0.289708
0.266819 0.355718 0.288365
0.270726 0.354406 0.286870
0.276555 0.353735 0.284489
0.292180 0.362036 0.276432
0.312261 0.371893 0.266728
0.337346 0.383276 0.254887
0.368231 0.395789 0.240299
0.398047 0.404913 0.223880
0.430274 0.412604 0.204593
0.465949 0.418494 0.181338
0.506432 0.424659 0.156435
0.552331 0.430610 0.128389
0.602167 0.434272 0.084108
0.663264 0.439399 0.000000
0.762814 0.466407 0.000000
0.793790 0.482368 0.000000
0.821805 0.500999 0.086488
0.849454 0.523247 0.164858
0.875883 0.548943 0.224796
0.900725 0.578485 0.282963
0.923461 0.611872 0.342382
0.943328 0.649287 0.404822
0.958892 0.690364 0.471199
0.968994 0.734127 0.542565
0.990539 0.773404 0.594720
1.000000 0.805417 0.636439
0.276249 0.373816 0.301396
0.278141 0.375219 0.302281
0.280491 0.376562 0.303075
0.283513 0.377691 0.303593
0.286412 0.378027 0.303563
0.289281 0.377783 0.303105
0.292424 0.376745 0.301823
0.296361 0.375433 0.300389
0.300847 0.373968 0.298680
0.312902 0.379248 0.292668
0.331884 0.388891 0.283543
0.355505 0.400000 0.272343
0.384344 0.412299 0.258549
0.416632 0.424750 0.242222
0.448096 0.433753 0.224002
0.482704 0.441779 0.202396
0.520989 0.448829 0.176059
0.566064 0.458289 0.150332
0.615015 0.466651 0.114382
0.667781 0.473182 0.006073
0.731563 0.482246 0.000000
0.830045 0.514641 0.000000
0.863890 0.534112 0.000000
0.892424 0.556451 0.000000
0.919036 0.581903 0.159335
0.942870 0.610559 0.236088
0.963256 0.642390 0.306554
0.979431 0.677363 0.377935
0.990753 0.715297 0.451881
0.996796 0.755581 0.529961
0.997223 0.796384 0.611872
0.999176 0.832700 0.683192
0.319799 0.407660 0.323217
0.320775 0.408331 0.323583
0.321843 0.408789 0.323735
0.323400 0.408667 0.323522
0.325048 0.408209 0.322881
0.326818 0.407111 0.321904
0.329351 0.405859 0.320562
0.333074 0.404425 0.318944
0.337530 0.402777 0.317113
0.345861 0.404303 0.313848
0.364233 0.414191 0.304967
0.387335 0.425330 0.294224
0.414832 0.437934 0.280919
0.447517 0.451545 0.264897
0.480598 0.463386 0.246311
0.514122 0.472847 0.225071
0.550408 0.481270 0.199252
0.591150 0.491096 0.173037
0.636133 0.501183 0.141024
0.684291 0.510094 0.089784
0.735012 0.516930 0.000000
0.795346 0.526757 0.000000
0.884367 0.559380 0.000000
0.915862 0.578668 0.000000
0.940551 0.600946 0.000000
0.963256 0.626886 0.158083
0.982574 0.655756 0.248722
0.997803 0.687434 0.329229
1.000000 0.722072 0.409461
1.000000 0.758785 0.491798
1.000000 0.796689 0.577905
1.000000 0.833494 0.663813
0.355169 0.434424 0.340215
0.356023 0.435004 0.340551
0.357153 0.435462 0.340703
0.358953 0.435492 0.340673
0.360418 0.435187 0.340154
0.362371 0.434211 0.339178
0.365057 0.433051 0.337926
0.368353 0.431708 0.336370
0.372900 0.430396 0.334752
0.378454 0.428870 0.332952
0.394873 0.437324 0.325353
0.416846 0.448554 0.314977
0.443122 0.461128 0.302464
0.474250 0.475105 0.287236
0.510155 0.490333 0.268772
0.542809 0.501366 0.248264
0.578027 0.511742 0.223789
0.616510 0.522820 0.197574
0.659205 0.535210 0.169131
0.704646 0.546715 0.128817
0.752590 0.557092 0.007630
0.801572 0.565026 0.000000
0.858366 0.576135 0.000000
0.937346 0.609430 0.000000
0.957305 0.619776 0.000000
0.978088 0.641749 0.000000
0.996704 0.667567 0.166354
1.000000 0.695918 0.268193
1.000000 0.727108 0.357641
1.000000 0.760647 0.445960
1.000000 0.796048 0.537133
1.000000 0.831449 0.629908
0.407446 0.473152 0.365087
0.409155 0.474464 0.366003
0.410559 0.474891 0.366247
0.411048 0.474311 0.365637
0.411627 0.473091 0.364599
0.412177 0.471199 0.362951
0.412970 0.468788 0.360845
0.414557 0.466255 0.358587
0.417182 0.463722 0.356115
0.420935 0.461280 0.353552
0.430701 0.463813 0.347967
0.450202 0.474067 0.337438
0.473854 0.485756 0.324987
0.501396 0.498573 0.310002
0.533288 0.512535 0.291905
0.566735 0.525963 0.271031
0.598474 0.536339 0.247471
0.633967 0.547845 0.222812
0.673701 0.561395 0.197665
0.716915 0.575067 0.164797
0.762173 0.588006 0.114443
0.807950 0.598871 0.000000
0.853422 0.606744 0.000000
0.904387 0.617090 0.000000
0.972015 0.647578 0.000000
0.995972 0.664698 0.000000
1.000000 0.684535 0.000000
1.000000 0.708553 0.190066
1.000000 0.735348 0.299229
1.000000 0.764950 0.396155
1.000000 0.796719 0.492531
1.000000 0.829709 0.590906
0.448524 0.503685 0.384619
0.450477 0.504906 0.385443
0.452033 0.505821 0.386023
0.453437 0.505699 0.385687
0.454566 0.505150 0.385046
0.456031 0.504082 0.384039
0.458350 0.502831 0.382635
0.461494 0.501518 0.381292
0.465522 0.500175 0.379553
0.470619 0.498817 0.377844
0.476905 0.497536 0.375616
0.496407 0.508507 0.365698
0.519066 0.520592 0.353918
0.545281 0.533776 0.339208
0.574762 0.547845 0.321874
0.608026 0.563195 0.300847
0.639857 0.576013 0.277134
0.672877 0.588586 0.254246
0.709773 0.603113 0.230961
0.749355 0.617884 0.201999
0.790738 0.632074 0.163302
0.832303 0.644678 0.099977
0.873564 0.655055 0.000000
0.913603 0.662226 0.000000
0.957488 0.671748 0.000000
1.000000 0.697322 0.000000
1.000000 0.712459 0.000000
1.000000 0.730678 0.000000
1.000000 0.753780 0.237797
1.000000 0.779232 0.352819
1.000000 0.806821 0.458350
1.000000 0.836057 0.563195
0.506706 0.547570 0.413367
0.507927 0.548333 0.413947
0.508843 0.548516 0.413977
0.509514 0.548241 0.413672
0.510674 0.547601 0.412909
0.511955 0.546410 0.411749
0.513756 0.545068 0.410346
0.516564 0.543511 0.408728
0.520165 0.542168 0.407050
0.524895 0.540795 0.405280
0.530663 0.539117 0.403143
0.544671 0.545495 0.396277
0.565820 0.557733 0.384680
0.589990 0.571038 0.370581
0.617395 0.585382 0.353765
0.647974 0.600549 0.333562
0.681697 0.616815 0.309606
0.712490 0.630762 0.290227
0.745968 0.645686 0.269322
0.781796 0.660914 0.243961
0.818967 0.675776 0.212924
0.856016 0.689021 0.171389
0.892454 0.700099 0.102876
0.927642 0.708461 0.000000
0.960632 0.713100 0.000000
0.995727 0.718898 0.000000
1.000000 0.737881 0.000000
1.000000 0.750118 0.000000
1.000000 0.766476 0.123140
1.000000 0.788174 0.289616
1.000000 0.812070 0.408484
1.000000 0.838254 0.521202
0.565270 0.594263 0.444526
0.566278 0.594842 0.445014
0.567407 0.595361 0.445258
0.568688 0.595575 0.445167
0.570703 0.595544 0.445014
0.573632 0.595850 0.444800
0.578485 0.596918 0.445075
0.584741 0.598596 0.445686
0.592523 0.600732 0.446448
0.601923 0.603204 0.447395
0.612390 0.605798 0.448219
0.625696 0.610803 0.447211
0.649470 0.626856 0.437842
0.674830 0.643336 0.425757
0.702358 0.660060 0.410346
0.731044 0.676448 0.391211
0.761379 0.693629 0.371069
0.791928 0.710964 0.353002
0.820554 0.725460 0.334295
0.850370 0.739895 0.312902
0.880461 0.753475 0.287724
0.909941 0.765225 0.257603
0.937804 0.774197 0.220157
0.964263 0.780209 0.170016
0.989166 0.782925 0.062806
1.000000 0.782193 0.000000
1.000000 0.782284 0.000000
1.000000 0.791562 0.000000
1.000000 0.799619 0.000000
1.000000 0.812802 0.246891
1.000000 0.832273 0.387945
1.000000 0.854520 0.512566
0.662867 0.677455 0.504173
0.662989 0.677516 0.504173
0.663142 0.677119 0.503777
0.663569 0.676570 0.503258
0.664454 0.675868 0.502434
0.665888 0.674983 0.501335
0.668330 0.674342 0.500389
0.671778 0.673976 0.499519
0.676356 0.673793 0.498604
0.682216 0.673854 0.497841
0.688899 0.673945 0.496986
0.696895 0.674220 0.496040
0.713466 0.684779 0.487617
0.734035 0.698848 0.475044
