20 Preset/Street 2/【3】LUT video cho PR-AE-FCPX/Tone 1 (8).cube
# Created by Adobe Lightroom plugin Export LUT (1.24.0)
# www.johnrellis.com/lightroom/exportlut.htm
# Preset: 青橙风光-素材江湖08
# Color profile: C:\Program Files (x86)\Common Files\Adobe\Color\Profiles\Recommended\VideoHD.icc
LUT_3D_SIZE 5
DOMAIN_MIN 0.000000 0.000000 0.000000
DOMAIN_MAX 0.903226 0.903226 0.903226
0.056580 0.096407 0.101076
0.152987 0.111116 0.119173
0.299748 0.114931 0.137575
0.702388 0.000000 0.158450
1.000000 0.212619 0.251225
0.106386 0.146334 0.151125
0.142123 0.149386 0.127047
0.426459 0.172427 0.143740
0.851225 0.000000 0.154879
1.000000 0.396948 0.287755
0.231327 0.277836 0.273960
0.210086 0.252293 0.248508
0.437232 0.318486 0.153475
1.000000 0.636866 0.096498
1.000000 0.697444 0.413550
0.606348 0.603937 0.575158
0.588983 0.581537 0.551720
0.605646 0.555932 0.456611
0.936522 0.711116 0.179324
1.000000 0.875029 0.586358
0.952575 0.963439 0.948699
0.952178 0.962646 0.947356
0.933989 0.943664 0.921630
0.978515 0.964630 0.909514
1.000000 0.967071 0.850706
0.086275 0.141482 0.156374
0.110018 0.128634 0.147097
0.277226 0.126558 0.145907
0.648707 0.000000 0.154849
1.000000 0.000000 0.201114
0.106447 0.167208 0.173495
0.144228 0.188327 0.195682
0.378729 0.178683 0.166598
0.786984 0.083864 0.151583
1.000000 0.284794 0.213840
0.271580 0.315526 0.314855
0.263523 0.304814 0.302678
0.414862 0.320073 0.196567
1.000000 0.573236 0.000000
1.000000 0.676967 0.375708
0.648157 0.649439 0.623835
0.631769 0.628290 0.601343
0.595636 0.560052 0.500511
0.927184 0.699519 0.188022
1.000000 0.870085 0.569482
0.953338 0.964385 0.950500
0.952087 0.962951 0.948333
0.952178 0.960449 0.943755
0.983886 0.970977 0.922210
1.000000 0.972168 0.868498
0.123781 0.228977 0.269047
0.149752 0.212711 0.252567
0.198459 0.185489 0.231571
0.509392 0.000000 0.234348
1.000000 0.000000 0.214145
0.124880 0.291508 0.323888
0.183169 0.274052 0.314000
0.241917 0.224949 0.272435
0.553582 0.000000 0.237186
1.000000 0.125154 0.235569
0.265843 0.408545 0.406592
0.325322 0.436255 0.435126
0.613855 0.596216 0.596979
0.943847 0.507042 0.432685
1.000000 0.622400 0.386572
0.729915 0.734829 0.720577
0.729976 0.736263 0.720302
0.739986 0.741451 0.719020
0.922728 0.777401 0.531701
1.000000 0.873228 0.634058
0.950195 0.962829 0.950591
0.953368 0.965118 0.953307
0.953033 0.963378 0.949798
0.965515 0.963317 0.930175
1.000000 0.962646 0.833555
0.302342 0.468421 0.570520
0.327581 0.441871 0.550286
0.380346 0.381292 0.456672
0.411566 0.270634 0.397009
1.000000 0.000000 0.569818
0.342962 0.525841 0.612421
0.363775 0.495552 0.590723
0.415534 0.416846 0.497658
0.437324 0.294896 0.418128
1.000000 0.000000 0.553491
0.301427 0.699367 0.704891
0.359747 0.696559 0.707454
0.577966 0.634333 0.691066
0.618921 0.470436 0.572381
1.000000 0.000000 0.542290
0.679438 0.823270 0.798856
0.695216 0.825406 0.801907
0.784115 0.858000 0.837736
0.922698 0.933715 0.922026
1.000000 0.890105 0.844816
0.955108 0.963745 0.955932
0.956786 0.965423 0.957733
0.965087 0.973236 0.966278
0.971588 0.977966 0.969879
1.000000 0.976715 0.914427
0.858640 0.922484 0.944579
0.858091 0.916197 0.941009
0.862119 0.894163 0.927520
0.866880 0.862089 0.878691
0.915892 0.679103 0.848966
0.854154 0.919310 0.941741
0.854673 0.914092 0.938872
0.857969 0.892271 0.925475
0.863523 0.859129 0.877623
0.911254 0.679225 0.845243
0.861662 0.945556 0.954192
0.865690 0.941711 0.952026
0.873075 0.922545 0.941283
0.875059 0.880278 0.899718
0.916686 0.747250 0.865537
0.884916 0.974487 0.968811
0.883726 0.973419 0.967864
0.888762 0.972320 0.968261
0.924926 0.953124 0.961120
0.946166 0.893004 0.927550
0.951781 0.991394 0.985565
0.952758 0.991333 0.985626
0.960632 0.992950 0.988190
0.976379 0.996033 0.993164
1.000000 1.000000 1.000000
