20 Preset/Street 2/【3】LUT video cho PR-AE-FCPX/Tone 1 (17).cube
# Created by Adobe Lightroom plugin Export LUT (1.24.0)
# www.johnrellis.com/lightroom/exportlut.htm
# Preset: 青橙风光-素材江湖17
# Color profile: C:\Program Files (x86)\Common Files\Adobe\Color\Profiles\Recommended\VideoHD.icc
LUT_3D_SIZE 8
DOMAIN_MIN 0.000000 0.000000 0.000000
DOMAIN_MAX 0.903226 0.903226 0.903226
0.101320 0.108370 0.108766
0.138491 0.105440 0.108309
0.376349 0.000000 0.100069
0.863127 0.000000 0.000000
1.000000 0.000000 0.000000
1.000000 0.233646 0.000000
1.000000 0.316503 0.000000
1.000000 0.341558 0.000000
0.116121 0.130495 0.110872
0.126253 0.125612 0.118746
0.332372 0.140719 0.103914
0.804471 0.000000 0.000000
1.000000 0.178134 0.000000
1.000000 0.326543 0.000000
1.000000 0.370947 0.000000
1.000000 0.380865 0.000000
0.216342 0.222141 0.108980
0.231632 0.211002 0.112032
0.267674 0.204959 0.144625
0.769772 0.442329 0.000000
1.000000 0.579034 0.000000
1.000000 0.588220 0.000000
1.000000 0.569390 0.000000
1.000000 0.534325 0.000000
0.480537 0.455573 0.000000
0.490822 0.428687 0.000000
0.553277 0.432563 0.000000
0.722286 0.510491 0.180209
1.000000 0.777005 0.064240
1.000000 0.818967 0.000000
1.000000 0.772671 0.000000
1.000000 0.717311 0.000000
0.688655 0.689113 0.000000
0.700618 0.668940 0.000000
0.751186 0.677699 0.000000
0.843229 0.715541 0.000000
0.936156 0.770199 0.338445
1.000000 0.863096 0.422034
1.000000 0.894224 0.514061
1.000000 0.870146 0.446876
0.866026 0.876646 0.000000
0.885496 0.878508 0.000000
0.911742 0.867124 0.000000
0.951690 0.874022 0.000000
0.985229 0.874571 0.313298
1.000000 0.893828 0.608576
1.000000 0.925750 0.695491
1.000000 0.939422 0.749142
0.971374 0.958740 0.115053
0.979919 0.957641 0.049378
1.000000 0.947662 0.000000
1.000000 0.943542 0.222171
1.000000 0.937835 0.425452
1.000000 0.934417 0.611353
1.000000 0.946410 0.799863
1.000000 0.958007 0.833951
1.000000 0.994049 0.622705
1.000000 0.993408 0.613947
1.000000 0.990753 0.579828
1.000000 0.984497 0.576165
1.000000 0.975738 0.625910
1.000000 0.972107 0.741299
1.000000 0.969787 0.820554
1.000000 0.976257 0.904173
0.103487 0.115938 0.118502
0.120180 0.112337 0.116915
0.321569 0.049714 0.101350
0.760891 0.000000 0.000000
1.000000 0.000000 0.000000
1.000000 0.281224 0.000000
1.000000 0.339574 0.000000
1.000000 0.352270 0.000000
0.100221 0.130709 0.125460
0.128847 0.130068 0.124788
0.288945 0.152682 0.109865
0.733120 0.089296 0.000000
1.000000 0.260594 0.000000
1.000000 0.363897 0.000000
1.000000 0.392035 0.000000
1.000000 0.392126 0.000000
0.210971 0.221897 0.124422
0.229435 0.211978 0.126009
0.267613 0.207980 0.152041
0.699001 0.388983 0.000000
1.000000 0.547326 0.000000
1.000000 0.580102 0.000000
1.000000 0.564111 0.000000
1.000000 0.532830 0.000000
0.424994 0.410254 0.000000
0.440711 0.387488 0.000000
0.501579 0.392676 0.078309
0.638483 0.438911 0.192172
0.975891 0.705409 0.000000
1.000000 0.789578 0.000000
1.000000 0.754788 0.000000
1.000000 0.706783 0.000000
0.669795 0.675105 0.000000
0.679988 0.652491 0.000000
0.724910 0.650080 0.000000
0.808499 0.677913 0.000000
0.907805 0.734585 0.318700
1.000000 0.845121 0.361059
1.000000 0.884520 0.464546
1.000000 0.862547 0.404273
0.844480 0.863157 0.000000
0.855009 0.856901 0.000000
0.884672 0.843778 0.000000
0.932860 0.857420 0.000000
0.973693 0.863310 0.296513
0.997162 0.888304 0.597833
1.000000 0.920928 0.673701
1.000000 0.935607 0.731044
0.958068 0.953124 0.000000
0.963989 0.950134 0.000000
0.990692 0.940032 0.000000
1.000000 0.935851 0.140627
1.000000 0.932860 0.399145
1.000000 0.929931 0.591943
1.000000 0.940978 0.780087
1.000000 0.953857 0.817716
0.998962 0.992279 0.594751
1.000000 0.991974 0.592767
1.000000 0.989105 0.555444
1.000000 0.982574 0.543755
1.000000 0.977935 0.657649
1.000000 0.973083 0.751797
1.000000 0.969696 0.821500
1.000000 0.975799 0.902617
0.106600 0.141695 0.151919
0.114717 0.127260 0.150790
0.177310 0.129976 0.148257
0.774868 0.000000 0.050355
1.000000 0.243748 0.000000
1.000000 0.399237 0.000000
1.000000 0.428992 0.000000
1.000000 0.408820 0.000000
0.121645 0.156924 0.161013
0.133455 0.145571 0.162631
0.276371 0.119722 0.158907
0.762325 0.000000 0.011627
1.000000 0.350866 0.000000
1.000000 0.454047 0.000000
1.000000 0.464057 0.000000
1.000000 0.440101 0.000000
0.093843 0.264347 0.191043
0.208225 0.257755 0.188235
0.330053 0.259953 0.204349
0.742794 0.420935 0.107698
1.000000 0.585840 0.000000
1.000000 0.622919 0.000000
1.000000 0.600946 0.000000
1.000000 0.557702 0.000000
0.424353 0.491615 0.133272
0.470466 0.468910 0.122652
0.547997 0.448798 0.167056
0.706905 0.527855 0.282475
0.988128 0.739651 0.153628
1.000000 0.805692 0.000000
1.000000 0.772427 0.000000
1.000000 0.720211 0.000000
0.665187 0.717189 0.000000
0.683223 0.698817 0.000000
0.737728 0.677729 0.000000
0.827543 0.715938 0.174441
0.923796 0.785855 0.441444
1.000000 0.853971 0.407630
1.000000 0.886717 0.476356
1.000000 0.865904 0.420417
0.834409 0.875303 0.000000
0.846738 0.870024 0.000000
0.880095 0.846555 0.000000
0.927092 0.859617 0.000000
0.966461 0.868070 0.386236
0.987366 0.898283 0.661799
1.000000 0.919707 0.668086
1.000000 0.936004 0.732937
0.946624 0.958648 0.286564
0.953307 0.956023 0.258610
0.982177 0.946166 0.104250
1.000000 0.937804 0.248722
1.000000 0.935149 0.456336
1.000000 0.934691 0.646296
1.000000 0.946136 0.805631
1.000000 0.955993 0.825956
0.984375 0.993805 0.654963
0.989258 0.992981 0.643275
1.000000 0.990173 0.607355
1.000000 0.983703 0.566339
1.000000 0.979095 0.679622
1.000000 0.975158 0.776089
1.000000 0.972473 0.841306
1.000000 0.976379 0.904814
0.094667 0.173526 0.210727
0.106752 0.155398 0.209384
0.199527 0.131563 0.200534
0.311192 0.141268 0.202945
1.000000 0.000000 0.106966
1.000000 0.271244 0.000000
1.000000 0.434546 0.000000
1.000000 0.424537 0.000000
0.118654 0.198398 0.232486
0.130068 0.182284 0.231327
0.225559 0.151400 0.219608
0.424201 0.112123 0.227543
1.000000 0.000000 0.093721
1.000000 0.361425 0.000000
1.000000 0.479835 0.000000
1.000000 0.458564 0.000000
0.161898 0.301427 0.287968
0.209201 0.304967 0.292180
0.330388 0.277287 0.296330
0.819730 0.214176 0.251682
1.000000 0.459022 0.000000
1.000000 0.590478 0.000000
1.000000 0.630182 0.000000
1.000000 0.574731 0.000000
0.000000 0.638727 0.393866
0.048676 0.626246 0.355535
0.570947 0.528313 0.311528
0.754574 0.630610 0.434607
0.979950 0.787991 0.429236
1.000000 0.801053 0.291142
1.000000 0.779263 0.000000
1.000000 0.723354 0.000000
0.616480 0.827756 0.335332
0.650507 0.809232 0.306676
0.751858 0.733822 0.202090
0.842344 0.772702 0.394995
0.929259 0.847501 0.614527
1.000000 0.890043 0.615351
1.000000 0.899229 0.566613
1.000000 0.866453 0.426032
0.818631 0.912749 0.333593
0.838834 0.911772 0.326329
0.886198 0.886839 0.211887
0.932006 0.883238 0.344610
0.961669 0.894133 0.565423
0.978424 0.921599 0.762814
1.000000 0.933959 0.752712
1.000000 0.936767 0.736477
0.912871 0.967895 0.503990
0.921660 0.966430 0.491646
0.956146 0.958923 0.428229
0.998108 0.945983 0.391577
1.000000 0.944396 0.577050
1.000000 0.945525 0.739040
1.000000 0.956329 0.852811
1.000000 0.957183 0.830381
0.959625 0.997772 0.770321
0.963653 0.997223 0.764034
0.982300 0.994812 0.736843
1.000000 0.989654 0.678187
1.000000 0.982300 0.722103
1.000000 0.978576 0.810056
1.000000 0.976684 0.869139
1.000000 0.977752 0.910277
0.000000 0.226780 0.316106
0.007630 0.212192 0.315862
0.190524 0.170504 0.300755
0.316533 0.140444 0.272282
0.507530 0.132906 0.285252
1.000000 0.000000 0.225467
1.000000 0.000000 0.000000
1.000000 0.396460 0.000000
0.008759 0.260960 0.344030
0.086305 0.244358 0.343694
0.213413 0.192020 0.325719
0.346471 0.158633 0.291630
0.602045 0.073823 0.313787
1.000000 0.000000 0.192691
1.000000 0.208713 0.000000
1.000000 0.429786 0.000000
0.202701 0.416968 0.427771
0.242649 0.411322 0.436347
0.302312 0.312169 0.421149
0.458228 0.271397 0.363897
0.929992 0.000000 0.395117
1.000000 0.251316 0.246220
1.000000 0.477272 0.000000
1.000000 0.539239 0.000000
0.235111 0.631586 0.560235
0.310582 0.633295 0.563256
0.512322 0.646052 0.581415
0.813687 0.645380 0.579187
1.000000 0.725154 0.540215
1.000000 0.756558 0.461372
1.000000 0.744137 0.304479
1.000000 0.696559 0.000000
0.370581 0.900877 0.665064
0.422797 0.897002 0.647700
0.652796 0.867979 0.620447
0.817075 0.810483 0.580224
0.913237 0.878660 0.731502
0.998047 0.913420 0.750637
1.000000 0.902251 0.673121
1.000000 0.849149 0.414801
0.728084 0.941222 0.643183
0.742763 0.937041 0.626459
0.799924 0.914611 0.541924
0.888060 0.873167 0.441871
0.929747 0.895415 0.656855
0.966155 0.934112 0.821378
1.000000 0.947875 0.826902
1.000000 0.943969 0.783597
0.857633 0.978271 0.730465
0.861936 0.976593 0.716945
0.886839 0.969879 0.663416
0.952697 0.955200 0.551568
0.987762 0.946654 0.635798
0.989715 0.951110 0.794461
0.996338 0.962890 0.882872
1.000000 0.963409 0.863279
0.923095 1.000000 0.847959
0.925628 0.999847 0.843320
0.938598 0.997772 0.823575
0.973877 0.993927 0.791073
1.000000 0.984466 0.728389
1.000000 0.980743 0.828672
1.000000 0.979522 0.889281
1.000000 0.981323 0.927611
0.000000 0.342779 0.504631
0.000000 0.323644 0.502495
0.096407 0.240665 0.477455
0.389075 0.164858 0.432258
0.474098 0.144228 0.360876
0.717250 0.147829 0.400824
1.000000 0.000000 0.418250
1.000000 0.000000 0.248020
0.000000 0.364111 0.507408
0.000000 0.343481 0.502708
0.126345 0.257328 0.481117
0.396155 0.180667 0.434119
0.481147 0.163973 0.364141
0.757595 0.123201 0.414160
1.000000 0.000000 0.399878
1.000000 0.000000 0.252415
0.205142 0.542901 0.604486
0.222080 0.519371 0.599054
0.280400 0.410956 0.578973
0.491341 0.277073 0.512535
0.590021 0.267430 0.436927
0.974701 0.157412 0.513359
1.000000 0.000000 0.369146
1.000000 0.402502 0.278386
0.404334 0.760281 0.700252
0.440528 0.758053 0.698726
0.545342 0.743221 0.712459
0.655268 0.603906 0.690791
0.757137 0.577569 0.606470
1.000000 0.587427 0.627710
1.000000 0.711421 0.589868
1.000000 0.654627 0.377264
0.508476 0.894194 0.806943
0.540795 0.893706 0.808042
0.651698 0.892973 0.814115
0.792844 0.894255 0.827237
0.917479 0.909941 0.835050
1.000000 0.912627 0.818051
1.000000 0.897978 0.769009
1.000000 0.845029 0.610803
0.720790 0.970184 0.855009
0.735286 0.969574 0.853483
0.764187 0.963836 0.833616
0.845670 0.943999 0.808743
0.912108 0.924895 0.801907
0.962860 0.954192 0.888029
1.000000 0.965057 0.896391
1.000000 0.949493 0.842283
0.828397 0.991943 0.860502
0.838315 0.991089 0.863645
0.867613 0.986633 0.868284
0.900298 0.977630 0.843015
0.963470 0.956725 0.732265
0.976593 0.962371 0.861112
0.993286 0.974456 0.924224
1.000000 0.975830 0.914305
0.908843 1.000000 0.912749
0.911223 1.000000 0.912627
0.924407 1.000000 0.915099
0.938872 0.999268 0.901671
0.970611 0.993683 0.856413
1.000000 0.984344 0.848295
1.000000 0.984161 0.915801
1.000000 0.986725 0.949065
0.000000 0.515648 0.716030
0.000000 0.497414 0.716274
0.000000 0.396368 0.699855
0.404425 0.277958 0.656458
0.625055 0.000000 0.567254
0.662104 0.121736 0.476875
0.862760 0.276616 0.525811
1.000000 0.000000 0.572045
0.000000 0.528710 0.709865
0.000000 0.512535 0.711208
0.000000 0.414832 0.695491
0.401678 0.290440 0.649439
0.619409 0.042664 0.561181
0.656916 0.148165 0.472297
0.871244 0.260533 0.523003
1.000000 0.000000 0.556176
0.167361 0.658900 0.755612
0.187839 0.640833 0.752895
0.255314 0.549554 0.737850
0.447761 0.389563 0.697963
0.671473 0.204196 0.607843
0.719448 0.255955 0.522423
0.992554 0.328618 0.600824
1.000000 0.153872 0.565362
0.460792 0.830961 0.806363
0.473274 0.823758 0.805295
0.524895 0.792203 0.805142
0.534234 0.633051 0.785794
0.763455 0.442451 0.713100
0.818418 0.482307 0.628595
1.000000 0.554162 0.701106
1.000000 0.532799 0.603754
0.599756 0.912932 0.853239
0.611597 0.910918 0.851560
0.669947 0.906798 0.849760
0.751461 0.898100 0.851804
0.799191 0.800015 0.827146
0.859403 0.766384 0.753872
1.000000 0.819974 0.797055
1.000000 0.866209 0.801846
0.728450 0.965240 0.909819
0.739071 0.964904 0.910399
0.777188 0.963226 0.912322
0.835660 0.960906 0.916197
0.897948 0.958801 0.921843
0.964660 0.961975 0.926726
1.000000 0.962585 0.921386
1.000000 0.950774 0.894438
0.861814 0.996429 0.952972
0.865537 0.996094 0.952300
0.877226 0.994507 0.948394
0.895811 0.991272 0.939635
0.923400 0.983917 0.926299
0.961486 0.970306 0.909300
0.991485 0.983917 0.956420
1.000000 0.986572 0.954406
0.904479 1.000000 0.951232
0.906493 1.000000 0.951141
0.915526 1.000000 0.951385
0.927642 1.000000 0.949126
0.954711 1.000000 0.952422
0.980743 0.993713 0.920134
1.000000 0.989563 0.942321
1.000000 0.993652 0.973877
0.230076 0.736141 0.881834
0.244724 0.723659 0.882383
0.275425 0.650080 0.878782
0.430426 0.500481 0.871580
0.702296 0.341253 0.837247
0.864134 0.000000 0.766079
0.901488 0.193606 0.673487
1.000000 0.523827 0.721187
0.251072 0.743252 0.877806
0.264530 0.731655 0.878538
0.293767 0.663600 0.876036
0.424109 0.510063 0.868406
0.695583 0.353338 0.833524
0.859037 0.000000 0.761593
0.895079 0.208255 0.667445
1.000000 0.518822 0.713649
0.405890 0.807889 0.881285
0.405310 0.797574 0.881041
0.401465 0.742641 0.878080
0.444892 0.595636 0.877714
0.696345 0.441566 0.845792
0.869718 0.212009 0.776089
0.910582 0.305638 0.687495
1.000000 0.573266 0.729427
0.586389 0.892058 0.890776
0.596918 0.889647 0.891569
0.594476 0.866148 0.889586
0.573571 0.783444 0.885649
0.691157 0.615290 0.869108
0.893370 0.407172 0.815244
0.937438 0.475563 0.735927
1.000000 0.675166 0.784237
0.691432 0.943236 0.902251
0.700954 0.942992 0.902403
0.712795 0.936065 0.902251
0.750362 0.921019 0.904601
0.720760 0.834775 0.894743
0.891508 0.644373 0.858549
0.938293 0.690669 0.796353
1.000000 0.812161 0.843534
0.756405 0.971191 0.934600
0.760281 0.970489 0.934051
0.779568 0.968170 0.932586
0.818021 0.964569 0.931182
0.865263 0.959594 0.929839
0.878355 0.919097 0.921141
0.930358 0.897551 0.883635
1.000000 0.922820 0.909819
0.836912 0.995422 0.967559
0.840452 0.995117 0.967590
0.855131 0.993927 0.967864
0.882444 0.991791 0.968658
0.916258 0.989136 0.969848
0.950530 0.986389 0.971221
0.982361 0.979675 0.967163
1.000000 0.983520 0.969757
0.909209 1.000000 0.986481
0.911345 1.000000 0.986725
0.921111 1.000000 0.988037
0.939055 1.000000 0.990875
0.958190 1.000000 0.991730
0.972442 1.000000 0.986603
0.991516 0.995209 0.970886
1.000000 0.999023 0.996216
