20 Preset/Street 2/【3】LUT video cho PR-AE-FCPX/Tone 1 (12).cube
# Created by Adobe Lightroom plugin Export LUT (1.24.0)
# www.johnrellis.com/lightroom/exportlut.htm
# Preset: 青橙风光-素材江湖12
# Color profile: C:\Program Files (x86)\Common Files\Adobe\Color\Profiles\Recommended\VideoHD.icc
LUT_3D_SIZE 32
DOMAIN_MIN 0.0 0.0 0.0
DOMAIN_MAX 1.0 1.0 1.0
0.129488 0.176455 0.174044
0.129488 0.176455 0.174044
0.129488 0.176455 0.174044
0.139803 0.176303 0.174441
0.161654 0.175784 0.175357
0.186007 0.175357 0.176791
0.212833 0.174350 0.178286
0.241215 0.174228 0.179324
0.272251 0.173892 0.180484
0.306706 0.172854 0.180941
0.344976 0.171359 0.181521
0.387060 0.168948 0.181857
0.432685 0.165713 0.181704
0.481697 0.160616 0.181247
0.533196 0.154025 0.180117
0.586755 0.144900 0.178866
0.642329 0.133120 0.176669
0.700282 0.116426 0.174044
0.758114 0.090700 0.171054
0.815152 0.015045 0.167575
0.870268 0.000000 0.164187
0.941772 0.000000 0.159976
1.000000 0.000000 0.157473
1.000000 0.000000 0.157137
1.000000 0.000000 0.160128
1.000000 0.000000 0.165316
1.000000 0.000000 0.173709
1.000000 0.000000 0.185580
1.000000 0.000000 0.200992
1.000000 0.000000 0.221530
1.000000 0.000000 0.247959
1.000000 0.147524 0.281529
0.129488 0.176455 0.174044
0.129488 0.176455 0.174044
0.129488 0.176455 0.174044
0.140200 0.176272 0.174441
0.161654 0.175784 0.175357
0.185245 0.175448 0.176608
0.210971 0.174807 0.178103
0.238102 0.174929 0.179171
0.268406 0.174685 0.180179
0.301701 0.173922 0.180819
0.338750 0.172671 0.181308
0.379675 0.170504 0.181582
0.424201 0.167514 0.181552
0.472145 0.163058 0.181186
0.522545 0.157076 0.180392
0.575738 0.148928 0.178927
0.631006 0.138491 0.176822
0.688624 0.123262 0.174380
0.746365 0.101472 0.171328
0.803189 0.047181 0.168093
0.858061 0.000000 0.164584
0.927825 0.000000 0.160494
0.989441 0.000000 0.157504
1.000000 0.000000 0.156802
1.000000 0.000000 0.158358
1.000000 0.000000 0.162539
1.000000 0.000000 0.169619
1.000000 0.000000 0.179599
1.000000 0.000000 0.193698
1.000000 0.000000 0.212619
1.000000 0.000000 0.237308
1.000000 0.113680 0.269230
0.129488 0.176455 0.174044
0.129488 0.176455 0.174044
0.129915 0.176425 0.174044
0.143832 0.176303 0.174563
0.163668 0.176730 0.175509
0.185946 0.177371 0.176516
0.210544 0.177707 0.177401
0.237217 0.177768 0.178653
0.266331 0.177951 0.179507
0.298863 0.177279 0.180179
0.335241 0.176364 0.180850
0.375280 0.174746 0.180972
0.419013 0.172244 0.181003
0.465888 0.168643 0.180484
0.515709 0.163394 0.179782
0.567926 0.156771 0.178347
0.622644 0.147524 0.176364
0.680049 0.134340 0.173861
0.738186 0.116060 0.171023
0.795468 0.089723 0.167605
0.850767 0.010956 0.164096
0.921172 0.000000 0.159731
0.981628 0.000000 0.156741
1.000000 0.000000 0.155581
1.000000 0.000000 0.156802
1.000000 0.000000 0.160311
1.000000 0.000000 0.166445
1.000000 0.000000 0.176120
1.000000 0.000000 0.189548
1.000000 0.000000 0.207736
1.000000 0.000000 0.231601
1.000000 0.099001 0.262211
0.128054 0.183291 0.174289
0.129122 0.183536 0.174228
0.135439 0.183871 0.173922
0.146822 0.182650 0.174289
0.166384 0.183078 0.174594
0.187869 0.183413 0.175448
0.211795 0.183627 0.176547
0.237522 0.183810 0.177646
0.266239 0.184054 0.178500
0.298039 0.183749 0.179171
0.333623 0.183139 0.179690
0.372564 0.181979 0.179843
0.415381 0.180423 0.179812
0.460914 0.178012 0.179324
0.509148 0.173800 0.178378
0.559899 0.168948 0.177005
0.612879 0.161746 0.175174
0.668299 0.152346 0.172488
0.725307 0.138857 0.169650
0.781674 0.120882 0.166293
0.836606 0.095521 0.163058
0.906706 0.000000 0.158511
0.965545 0.000000 0.154879
1.000000 0.000000 0.153475
1.000000 0.000000 0.153902
1.000000 0.000000 0.156893
1.000000 0.000000 0.163027
1.000000 0.000000 0.172488
1.000000 0.000000 0.186282
1.000000 0.000000 0.204501
1.000000 0.000000 0.227726
1.000000 0.102968 0.256901
0.134554 0.195285 0.174228
0.136110 0.195315 0.174228
0.141878 0.195346 0.173953
0.152041 0.195010 0.174014
0.166201 0.192203 0.174411
0.189334 0.192355 0.174258
0.211917 0.192416 0.174868
0.236790 0.192416 0.176059
0.264286 0.192599 0.176822
0.295018 0.192721 0.177462
0.329168 0.192752 0.177981
0.367132 0.192447 0.177951
0.408667 0.191684 0.177798
0.453559 0.190341 0.177432
0.501335 0.188083 0.176364
0.551965 0.184665 0.175143
0.605463 0.179263 0.173037
0.661341 0.172183 0.170352
0.719051 0.161990 0.167208
0.775631 0.148867 0.163912
0.835477 0.130922 0.159945
0.902312 0.103426 0.155245
0.959503 0.045838 0.151705
1.000000 0.000000 0.150057
1.000000 0.000000 0.150271
1.000000 0.000000 0.152926
1.000000 0.000000 0.159030
1.000000 0.000000 0.168643
1.000000 0.000000 0.182040
1.000000 0.000000 0.199588
1.000000 0.000000 0.222568
1.000000 0.117678 0.251133
0.143923 0.207828 0.174044
0.144930 0.207889 0.174014
0.149722 0.207675 0.173983
0.158663 0.207675 0.173831
0.169070 0.204959 0.174136
0.187442 0.203250 0.174563
0.212924 0.204227 0.174136
0.239689 0.203983 0.173587
0.266514 0.204318 0.174502
0.296788 0.204868 0.175113
0.330449 0.205356 0.175418
0.368200 0.205905 0.175387
0.409125 0.206119 0.175113
0.453468 0.206027 0.174441
0.501244 0.204837 0.173373
0.552056 0.202945 0.171542
0.605829 0.199069 0.169558
0.662287 0.193912 0.166567
0.720058 0.186191 0.163333
0.776577 0.176516 0.159579
0.842679 0.163516 0.154635
0.907134 0.146761 0.149844
1.000000 0.116732 0.141604
1.000000 0.101411 0.145022
1.000000 0.089906 0.151888
1.000000 0.084871 0.162356
1.000000 0.092470 0.175753
1.000000 0.107454 0.192599
1.000000 0.131380 0.213169
1.000000 0.161318 0.237705
1.000000 0.197238 0.266850
1.000000 0.239017 0.301122
0.158236 0.226505 0.173587
0.159121 0.226535 0.173556
0.163210 0.226505 0.173495
0.171817 0.226444 0.173342
0.184024 0.226413 0.173098
0.193790 0.220035 0.173953
0.218143 0.220340 0.174166
0.249699 0.222873 0.173068
0.281376 0.223575 0.171817
0.315282 0.224521 0.171054
0.351598 0.225772 0.171084
0.391669 0.226993 0.170779
0.434607 0.228000 0.169955
0.480629 0.228458 0.168917
0.529046 0.227909 0.167300
0.579736 0.226261 0.165194
0.633753 0.223301 0.162387
0.690150 0.219303 0.158877
0.747127 0.213199 0.155154
0.810208 0.205417 0.150057
0.887877 0.195743 0.142794
0.957580 0.184115 0.136995
1.000000 0.172671 0.134066
1.000000 0.162264 0.135225
1.000000 0.153902 0.140841
1.000000 0.149477 0.150790
1.000000 0.147494 0.164096
1.000000 0.150851 0.180331
1.000000 0.161318 0.200107
1.000000 0.178195 0.223239
1.000000 0.203525 0.251072
1.000000 0.236515 0.283665
0.171176 0.242069 0.172335
0.172244 0.242100 0.172488
0.175937 0.242039 0.172427
0.183139 0.242039 0.172274
0.193515 0.241978 0.171878
0.206851 0.241032 0.171786
0.215213 0.232639 0.173342
0.244358 0.235447 0.172946
0.278996 0.239536 0.171023
0.313390 0.241550 0.169131
0.351904 0.243626 0.166873
0.391363 0.245579 0.165835
0.433112 0.247196 0.165103
0.477790 0.248478 0.163729
0.524865 0.248844 0.161837
0.574365 0.248417 0.159579
0.627131 0.247318 0.156497
0.682856 0.244663 0.152804
0.739376 0.240757 0.148531
0.813321 0.236942 0.141024
0.884123 0.230900 0.133852
0.949462 0.223362 0.127504
1.000000 0.215305 0.123781
1.000000 0.207584 0.123903
1.000000 0.200992 0.128756
1.000000 0.195346 0.138766
1.000000 0.191714 0.151919
1.000000 0.190677 0.168521
1.000000 0.194949 0.188022
1.000000 0.204593 0.211368
1.000000 0.221378 0.238773
1.000000 0.247044 0.270756
0.187411 0.259617 0.170535
0.188174 0.259648 0.170352
0.191165 0.259648 0.170291
0.197360 0.259648 0.170138
0.206638 0.259709 0.169894
0.219516 0.259648 0.169375
0.230686 0.255985 0.170138
0.241825 0.248295 0.171756
0.274296 0.252903 0.170596
0.312657 0.258701 0.167941
0.350652 0.262211 0.165286
0.392340 0.265415 0.162081
0.436408 0.267918 0.158877
0.480171 0.269902 0.157259
0.526665 0.271244 0.154971
0.575402 0.271763 0.152346
0.627375 0.271519 0.148745
0.682094 0.270573 0.144228
0.751736 0.270390 0.136965
0.819577 0.268254 0.129305
0.885313 0.264561 0.120546
0.946929 0.259525 0.113710
1.000000 0.253849 0.108888
1.000000 0.247654 0.108888
1.000000 0.241672 0.114137
1.000000 0.236271 0.124636
1.000000 0.231479 0.138979
1.000000 0.229282 0.156344
1.000000 0.229862 0.176944
1.000000 0.234989 0.200595
1.000000 0.246250 0.228397
1.000000 0.265110 0.260502
0.205631 0.279423 0.167575
0.206210 0.279301 0.167422
0.208652 0.279210 0.167575
0.214145 0.279057 0.167300
0.222324 0.278996 0.167056
0.233524 0.278935 0.166567
0.247623 0.279026 0.166079
0.256687 0.272465 0.167575
0.271519 0.266148 0.169223
0.306950 0.271916 0.167483
0.348211 0.278965 0.163790
0.388586 0.283482 0.160159
0.432349 0.287205 0.155947
0.479438 0.290745 0.150973
0.527764 0.293126 0.146853
0.577356 0.295018 0.143404
0.632959 0.297093 0.138369
0.700038 0.300145 0.130129
0.765682 0.301030 0.121340
0.829435 0.300237 0.111727
0.890257 0.297642 0.101991
0.946044 0.293614 0.093690
0.997009 0.288823 0.088197
1.000000 0.283207 0.087678
1.000000 0.277226 0.093568
1.000000 0.271366 0.104738
1.000000 0.265965 0.120027
1.000000 0.262058 0.138888
1.000000 0.260349 0.160861
1.000000 0.262638 0.185885
1.000000 0.269993 0.214786
1.000000 0.284428 0.248234
0.223789 0.299351 0.164248
0.224308 0.299229 0.164096
0.226810 0.299290 0.164004
0.231846 0.299382 0.163821
0.239506 0.299474 0.163180
0.250004 0.299779 0.162722
0.263523 0.300114 0.162112
0.277256 0.298802 0.161990
0.286961 0.291203 0.163943
0.306615 0.287175 0.165377
0.345403 0.293980 0.162448
0.389746 0.302251 0.157351
0.433021 0.307408 0.152438
0.479774 0.312078 0.146761
0.529686 0.316106 0.140108
0.591180 0.322148 0.129519
0.652338 0.326848 0.121004
0.714229 0.330022 0.110964
0.775265 0.331304 0.099977
0.834623 0.330907 0.087678
0.891569 0.329076 0.061738
0.944549 0.325933 0.038849
0.993805 0.321965 0.024231
1.000000 0.317113 0.022278
1.000000 0.311467 0.036774
1.000000 0.306004 0.068788
1.000000 0.300511 0.098695
1.000000 0.295964 0.121614
1.000000 0.293278 0.146090
1.000000 0.293553 0.173739
1.000000 0.298253 0.204044
1.000000 0.308751 0.238712
0.245762 0.323796 0.160311
0.246281 0.323857 0.160098
0.248569 0.323949 0.159976
0.253452 0.324132 0.159731
0.260929 0.324315 0.159182
0.270909 0.324804 0.158419
0.284123 0.325322 0.157076
0.299931 0.325963 0.155673
0.312352 0.322057 0.156130
0.323278 0.313787 0.158389
0.348486 0.311742 0.159060
0.390814 0.319890 0.154543
0.480140 0.349767 0.137911
0.543236 0.361364 0.124788
0.609705 0.371344 0.107607
0.679133 0.379400 0.080079
0.746395 0.384466 0.012757
0.810239 0.386816 0.000000
0.868650 0.387182 0.000000
0.922576 0.385687 0.000000
0.971710 0.382544 0.000000
1.000000 0.378241 0.000000
1.000000 0.372961 0.000000
1.000000 0.367376 0.000000
1.000000 0.361212 0.000000
1.000000 0.354833 0.011475
1.000000 0.348699 0.089326
1.000000 0.343603 0.123018
1.000000 0.340429 0.153414
1.000000 0.340154 0.184634
1.000000 0.343755 0.218021
1.000000 0.353491 0.255131
0.281376 0.361975 0.150729
0.281682 0.361944 0.150729
0.283665 0.361486 0.150637
0.287999 0.361028 0.150210
0.294499 0.360540 0.149905
0.303655 0.360113 0.149233
0.316197 0.360021 0.148165
0.331365 0.360388 0.146456
0.350042 0.361364 0.144320
0.361730 0.354772 0.146059
0.380652 0.349706 0.147036
0.421881 0.354955 0.143648
0.481971 0.370123 0.131838
0.550256 0.386358 0.114046
0.617487 0.398444 0.090364
0.683436 0.407141 0.028382
0.746517 0.412421 0.000000
0.806485 0.414923 0.000000
0.863737 0.415229 0.000000
0.914031 0.413519 0.000000
0.960174 0.410529 0.000000
1.000000 0.406561 0.000000
1.000000 0.401770 0.000000
1.000000 0.396155 0.000000
1.000000 0.390082 0.000000
1.000000 0.383825 0.000000
1.000000 0.377600 0.000000
1.000000 0.372107 0.088136
1.000000 0.367987 0.129000
1.000000 0.366400 0.165774
1.000000 0.368109 0.202213
1.000000 0.375189 0.241245
0.307103 0.388525 0.141512
0.307469 0.388373 0.141573
0.309667 0.388312 0.141482
0.313817 0.388251 0.141024
0.320714 0.388373 0.140322
0.330510 0.388830 0.138979
0.343816 0.390204 0.137026
0.360449 0.391791 0.134371
0.380926 0.394629 0.130648
0.402197 0.396155 0.127718
0.419318 0.391363 0.129152
0.439796 0.385229 0.130861
0.488869 0.392676 0.123598
0.551995 0.407630 0.103548
0.620844 0.422705 0.053986
0.685542 0.432624 0.000000
0.745052 0.438239 0.000000
0.801755 0.441260 0.000000
0.856626 0.442359 0.000000
0.907195 0.441108 0.000000
0.953674 0.438239 0.000000
0.995758 0.434730 0.000000
1.000000 0.430274 0.000000
1.000000 0.425208 0.000000
1.000000 0.419379 0.000000
1.000000 0.413153 0.000000
1.000000 0.406806 0.000000
1.000000 0.401007 0.000000
1.000000 0.396277 0.099184
1.000000 0.393622 0.145266
1.000000 0.394018 0.186618
1.000000 0.399023 0.229038
0.349065 0.429541 0.121584
0.349645 0.429358 0.121401
0.351019 0.428870 0.121401
0.354498 0.428046 0.121187
0.360113 0.427131 0.120851
0.368505 0.426551 0.119936
0.380102 0.426581 0.117952
0.395514 0.427527 0.114931
0.414740 0.429450 0.110353
0.438300 0.432929 0.103517
0.458747 0.431922 0.101381
0.478126 0.426703 0.103517
0.500145 0.419806 0.106722
0.556329 0.429297 0.090974
0.620691 0.443580 0.015839
0.685756 0.455940 0.000000
0.745480 0.463325 0.000000
0.800107 0.466987 0.000000
0.852659 0.468635 0.000000
0.901762 0.468147 0.000000
0.947784 0.466072 0.000000
0.991272 0.462654 0.000000
1.000000 0.458350 0.000000
1.000000 0.453559 0.000000
1.000000 0.447852 0.000000
1.000000 0.441749 0.000000
1.000000 0.435584 0.000000
1.000000 0.429999 0.000000
1.000000 0.425360 0.021485
1.000000 0.422675 0.125093
1.000000 0.423011 0.175845
1.000000 0.427802 0.224491
0.388098 0.465888 0.092409
0.388769 0.466072 0.092042
0.390692 0.465827 0.091676
0.394049 0.465431 0.091279
0.400244 0.465064 0.089998
0.408789 0.465034 0.087709
0.421118 0.465766 0.081910
0.436957 0.467384 0.068818
0.456550 0.469795 0.049470
0.479744 0.472908 0.024994
0.506371 0.476783 0.000000
0.523308 0.471351 0.003632
0.541436 0.463691 0.017731
0.562371 0.454200 0.036255
0.619654 0.462898 0.000000
0.679042 0.474098 0.000000
0.738766 0.483436 0.000000
0.794644 0.489265 0.000000
0.846067 0.492073 0.000000
0.894774 0.492866 0.000000
0.941192 0.492164 0.000000
0.985199 0.490089 0.000000
1.000000 0.486610 0.000000
1.000000 0.481910 0.000000
1.000000 0.476722 0.000000
1.000000 0.471138 0.000000
1.000000 0.465278 0.000000
1.000000 0.459571 0.000000
1.000000 0.454719 0.000000
1.000000 0.451453 0.098116
1.000000 0.450507 0.160952
1.000000 0.453407 0.213870
0.426490 0.500420 0.000000
0.426947 0.500450 0.000000
0.428473 0.500237 0.000000
0.432197 0.500114 0.000000
0.438025 0.500008 0.000000
0.446632 0.500145 0.000000
0.458320 0.500816 0.000000
0.473335 0.502159 0.000000
0.491646 0.504173 0.000000
0.513420 0.506828 0.000000
0.538720 0.510185 0.000000
0.563409 0.511254 0.000000
0.580011 0.504326 0.000000
0.597803 0.495125 0.000000
0.623011 0.486976 0.000000
0.678828 0.493965 0.000000
0.735409 0.503593 0.000000
0.791897 0.511467 0.000000
0.845029 0.516472 0.000000
0.892454 0.517998 0.000000
0.938201 0.518303 0.000000
0.981689 0.517052 0.000000
1.000000 0.514427 0.000000
1.000000 0.510430 0.000000
1.000000 0.505150 0.000000
1.000000 0.499763 0.000000
1.000000 0.494148 0.000000
1.000000 0.488685 0.000000
1.000000 0.483803 0.000000
1.000000 0.480262 0.026429
1.000000 0.478920 0.146670
1.000000 0.480995 0.206912
0.471138 0.539910 0.000000
0.471992 0.540337 0.000000
0.516564 0.577325 0.000000
0.520317 0.577173 0.000000
0.526299 0.576959 0.000000
0.534813 0.576684 0.000000
0.546014 0.576745 0.000000
0.560845 0.577295 0.000000
0.579126 0.578668 0.000000
0.601221 0.580835 0.000000
0.626307 0.583459 0.000000
0.654017 0.586145 0.000000
0.673823 0.581476 0.000000
0.688289 0.570336 0.000000
0.702602 0.556237 0.000000
0.728908 0.546166 0.000000
0.779477 0.548760 0.000000
0.829099 0.554101 0.000000
0.876677 0.557305 0.000000
0.921263 0.558282 0.000000
0.961486 0.556725 0.000000
1.000000 0.554467 0.000000
1.000000 0.550866 0.000000
1.000000 0.545983 0.000000
1.000000 0.539605 0.000000
1.000000 0.532341 0.000000
1.000000 0.524987 0.000000
1.000000 0.518517 0.000000
1.000000 0.512871 0.000000
1.000000 0.508721 0.000000
1.000000 0.506737 0.128725
1.000000 0.507897 0.198764
0.529686 0.590845 0.000000
0.534112 0.594354 0.000000
0.540246 0.598138 0.000000
0.547753 0.601312 0.000000
0.556237 0.603693 0.000000
0.565240 0.604608 0.000000
0.576135 0.604761 0.000000
0.589258 0.604883 0.000000
0.605646 0.605676 0.000000
0.625238 0.606989 0.000000
0.648005 0.609003 0.000000
0.673243 0.611139 0.000000
0.700099 0.612726 0.000000
0.714015 0.603326 0.000000
0.727504 0.591150 0.000000
0.741360 0.576257 0.000000
0.771817 0.568627 0.000000
0.821103 0.571435 0.000000
0.869078 0.576349 0.000000
0.914763 0.579400 0.000000
0.957397 0.580285 0.000000
0.996643 0.579187 0.000000
1.000000 0.576562 0.000000
1.000000 0.572320 0.000000
1.000000 0.566674 0.000000
1.000000 0.559869 0.000000
1.000000 0.552422 0.000000
1.000000 0.544823 0.000000
1.000000 0.538994 0.000000
1.000000 0.534447 0.000000
1.000000 0.531884 0.094636
1.000000 0.532219 0.183352
0.566003 0.622400 0.000000
0.570703 0.626093 0.000000
0.577111 0.630121 0.000000
0.584527 0.633661 0.000000
0.593011 0.636286 0.000000
0.601862 0.637354 0.000000
0.611841 0.637537 0.000000
0.624048 0.637507 0.000000
0.639002 0.637964 0.000000
0.656733 0.638697 0.000000
0.677424 0.640009 0.000000
0.700801 0.641688 0.000000
0.725734 0.643091 0.000000
0.748440 0.641321 0.000000
0.761074 0.630335 0.000000
0.774136 0.617029 0.000000
0.787716 0.601282 0.000000
0.821775 0.595911 0.000000
0.868101 0.597742 0.000000
0.912474 0.601434 0.000000
0.954528 0.603296 0.000000
0.994110 0.603418 0.000000
1.000000 0.601770 0.000000
1.000000 0.598383 0.000000
1.000000 0.593286 0.000000
1.000000 0.586999 0.000000
1.000000 0.579980 0.000000
1.000000 0.572625 0.000000
1.000000 0.565332 0.000000
1.000000 0.560174 0.000000
1.000000 0.557031 0.000000
1.000000 0.556481 0.166445
0.605646 0.656916 0.000000
0.610101 0.660456 0.000000
0.615839 0.664149 0.000000
0.622705 0.667414 0.000000
0.630518 0.669856 0.000000
0.638788 0.670771 0.000000
0.648249 0.670985 0.000000
0.659541 0.670954 0.000000
0.673518 0.671290 0.000000
0.689967 0.671839 0.000000
0.709224 0.672847 0.000000
0.730648 0.674098 0.000000
0.753994 0.675227 0.000000
0.778866 0.676295 0.000000
0.796506 0.670344 0.000000
0.809293 0.658656 0.000000
0.823667 0.645716 0.000000
0.839597 0.630945 0.000000
0.878660 0.628809 0.000000
0.924468 0.631128 0.000000
0.967498 0.635004 0.000000
1.000000 0.636835 0.000000
1.000000 0.636286 0.000000
1.000000 0.633967 0.000000
1.000000 0.629908 0.000000
1.000000 0.624292 0.000000
1.000000 0.617823 0.000000
1.000000 0.610956 0.000000
1.000000 0.604242 0.000000
1.000000 0.597772 0.000000
1.000000 0.593622 0.089815
1.000000 0.592645 0.201053
0.671901 0.715846 0.000000
0.673976 0.717281 0.000000
0.676570 0.718441 0.000000
0.680140 0.719020 0.000000
0.685115 0.719051 0.000000
0.691127 0.718471 0.000000
0.699123 0.717769 0.000000
0.709255 0.717342 0.000000
0.722164 0.717220 0.000000
0.737758 0.717800 0.000000
0.755825 0.718685 0.000000
0.776059 0.719722 0.000000
0.797818 0.720516 0.000000
0.821134 0.721157 0.000000
0.845701 0.721706 0.000000
0.858122 0.711086 0.000000
0.870481 0.698207 0.000000
0.883970 0.683589 0.000000
0.898741 0.667048 0.000000
0.936736 0.664454 0.000000
0.975891 0.663691 0.000000
1.000000 0.664271 0.000000
1.000000 0.662745 0.000000
1.000000 0.659327 0.000000
1.000000 0.655238 0.000000
1.000000 0.650263 0.000000
1.000000 0.644495 0.000000
1.000000 0.638392 0.000000
1.000000 0.632227 0.000000
1.000000 0.626276 0.000000
1.000000 0.620844 0.100649
1.000000 0.615045 0.190311
0.710750 0.751858 0.000000
0.712398 0.753017 0.000000
0.714931 0.753994 0.000000
0.718318 0.754665 0.000000
0.722866 0.754849 0.000000
0.728756 0.754421 0.000000
0.736263 0.753872 0.000000
0.745907 0.753445 0.000000
0.757961 0.753384 0.000000
0.772366 0.753750 0.000000
0.789090 0.754452 0.000000
0.807797 0.755337 0.000000
0.828153 0.756100 0.000000
0.849973 0.757046 0.000000
0.873259 0.757931 0.000000
0.894652 0.756039 0.000000
0.906676 0.744320 0.000000
0.919585 0.730953 0.000000
0.933501 0.715846 0.000000
0.948699 0.698848 0.000000
0.986145 0.696651 0.000000
1.000000 0.694270 0.000000
1.000000 0.692714 0.000000
1.000000 0.689479 0.000000
1.000000 0.677943 0.000000
1.000000 0.673091 0.000000
1.000000 0.668116 0.000000
1.000000 0.662715 0.000000
1.000000 0.657130 0.000000
1.000000 0.651850 0.000000
1.000000 0.647242 0.127718
1.000000 0.640650 0.204837
0.761532 0.800870 0.000000
0.763851 0.802823 0.000000
0.765988 0.803647 0.000000
0.768276 0.803281 0.000000
0.770993 0.801938 0.000000
0.774807 0.799924 0.000000
0.779873 0.797513 0.000000
0.786740 0.795102 0.000000
0.795651 0.793027 0.000000
0.806821 0.791501 0.000000
0.819760 0.790066 0.000000
0.835294 0.789334 0.000000
0.852537 0.788632 0.000000
0.871061 0.787808 0.000000
0.890898 0.786801 0.000000
0.912047 0.785916 0.000000
0.928038 0.779171 0.000000
0.938994 0.766049 0.000000
0.951720 0.752010 0.000000
0.966125 0.736873 0.000000
0.984527 0.722194 0.000000
1.000000 0.718471 0.000000
1.000000 0.714717 0.000000
1.000000 0.711147 0.000000
1.000000 0.705806 0.000000
1.000000 0.699184 0.000000
1.000000 0.693263 0.000000
1.000000 0.687617 0.000000
1.000000 0.682063 0.000000
1.000000 0.676967 0.000000
1.000000 0.672572 0.151492
1.000000 0.666041 0.224216
0.787106 0.828946 0.000000
0.789212 0.830716 0.000000
0.791470 0.831785 0.000000
0.793973 0.832029 0.000000
0.797360 0.831662 0.000000
0.801938 0.830991 0.000000
0.808133 0.830289 0.000000
0.816068 0.829679 0.000000
0.825925 0.829313 0.000000
0.837736 0.829160 0.000000
0.851041 0.828916 0.000000
0.866209 0.828763 0.000000
0.882658 0.828397 0.000000
0.900328 0.827726 0.000000
0.918791 0.826627 0.000000
0.938506 0.825406 0.000000
0.959503 0.824369 0.000000
0.972076 0.813993 0.000000
0.983337 0.800168 0.000000
0.996155 0.785428 0.000000
1.000000 0.769192 0.000000
1.000000 0.754879 0.000000
1.000000 0.748562 0.000000
1.000000 0.743130 0.000000
1.000000 0.738064 0.000000
1.000000 0.731746 0.000000
1.000000 0.724544 0.000000
1.000000 0.718349 0.000000
1.000000 0.713252 0.000000
1.000000 0.708583 0.139132
1.000000 0.704707 0.209720
1.000000 0.695674 0.276280
0.818631 0.866392 0.000000
0.819608 0.867247 0.000000
0.821042 0.867643 0.000000
0.823117 0.867521 0.000000
0.826108 0.867002 0.000000
0.830228 0.866178 0.000000
0.835752 0.865324 0.000000
0.842924 0.864408 0.000000
0.851804 0.863706 0.000000
0.862516 0.863188 0.000000
0.874907 0.862669 0.000000
0.888945 0.862425 0.000000
0.904326 0.862028 0.000000
0.920775 0.861265 0.000000
0.938231 0.860105 0.000000
0.956542 0.858824 0.000000
0.976226 0.857572 0.000000
0.996826 0.856382 0.000000
1.000000 0.843076 0.000000
1.000000 0.828946 0.000000
1.000000 0.813535 0.000000
1.000000 0.796323 0.000000
1.000000 0.782162 0.000000
1.000000 0.773678 0.000000
1.000000 0.766781 0.000000
1.000000 0.760220 0.000000
1.000000 0.752895 0.000000
1.000000 0.745022 0.000000
1.000000 0.738582 0.091279
1.000000 0.734401 0.178378
1.000000 0.729946 0.243046
1.000000 0.720485 0.302892
0.841642 0.897368 0.000000
0.842466 0.898009 0.000000
0.843900 0.898436 0.000000
0.846098 0.898650 0.000000
0.849516 0.898833 0.000000
0.854490 0.899290 0.000000
0.861570 0.900603 0.000000
0.870512 0.902281 0.000000
0.881346 0.904479 0.000000
0.893950 0.906981 0.000000
0.908171 0.909606 0.000000
0.923583 0.912016 0.000000
0.939971 0.914000 0.000000
0.957000 0.915251 0.000000
0.974578 0.915740 0.000000
0.992462 0.915221 0.000000
1.000000 0.914366 0.000000
1.000000 0.913634 0.000000
1.000000 0.909575 0.000000
1.000000 0.895476 0.000000
1.000000 0.880095 0.000000
1.000000 0.863127 0.000000
1.000000 0.844053 0.000000
1.000000 0.829007 0.000000
1.000000 0.817868 0.000000
1.000000 0.809232 0.122164
1.000000 0.801083 0.174624
1.000000 0.792630 0.214420
1.000000 0.784237 0.250004
1.000000 0.774777 0.293706
1.000000 0.762448 0.331640
1.000000 0.742153 0.317296
0.879301 0.947173 0.000000
0.879545 0.947173 0.000000
0.880217 0.946960 0.000000
0.881773 0.946624 0.000000
0.884337 0.946136 0.000000
0.888090 0.945586 0.000000
0.893309 0.945190 0.000000
0.899901 0.944915 0.000000
0.908049 0.944854 0.000000
0.917784 0.944976 0.000000
0.928954 0.945129 0.000000
0.941436 0.945373 0.000000
0.955200 0.945495 0.000000
0.969909 0.945342 0.000000
