20 Preset/Street 2/【3】LUT video cho PR-AE-FCPX/Tone 1 (15).cube
# Created by Adobe Lightroom plugin Export LUT (1.24.0)
# www.johnrellis.com/lightroom/exportlut.htm
# Preset: 青橙风光-素材江湖15
# Color profile: C:\Program Files (x86)\Common Files\Adobe\Color\Profiles\Recommended\VideoHD.icc
LUT_3D_SIZE 32
DOMAIN_MIN 0.0 0.0 0.0
DOMAIN_MAX 1.0 1.0 1.0
0.051850 0.146670 0.163729
0.051850 0.146670 0.163729
0.051850 0.146670 0.163729
0.051850 0.146670 0.163729
0.053559 0.146639 0.163912
0.099489 0.146761 0.164584
0.125948 0.146365 0.165408
0.150881 0.146304 0.166506
0.177157 0.145144 0.167575
0.205325 0.143038 0.168582
0.235172 0.142580 0.169894
0.268711 0.143008 0.171511
0.308507 0.142519 0.172732
0.356176 0.137881 0.174807
0.411536 0.127138 0.177096
0.472663 0.106416 0.179660
0.538506 0.036591 0.182193
0.607446 0.000000 0.184695
0.678737 0.000000 0.187015
0.787076 0.000000 0.190860
0.872709 0.000000 0.195041
0.938964 0.000000 0.200015
0.987976 0.000000 0.205844
1.000000 0.000000 0.213199
1.000000 0.000000 0.221561
1.000000 0.001740 0.231907
1.000000 0.157015 0.245060
1.000000 0.220005 0.261357
1.000000 0.274083 0.282139
1.000000 0.327062 0.308690
1.000000 0.380194 0.342840
1.000000 0.435889 0.385504
0.051850 0.146670 0.163729
0.051850 0.146670 0.163729
0.051850 0.146670 0.163729
0.051850 0.146670 0.163729
0.051850 0.146670 0.163729
0.097810 0.146670 0.164431
0.123568 0.146578 0.165438
0.147860 0.146242 0.166384
0.173556 0.145266 0.167453
0.200687 0.143435 0.168460
0.229374 0.143435 0.169802
0.261723 0.144015 0.171328
0.299687 0.143801 0.172641
0.345281 0.140291 0.174472
0.398596 0.131289 0.176883
0.458625 0.113863 0.179385
0.523552 0.072114 0.181857
0.592004 0.000000 0.184268
0.664088 0.000000 0.186709
0.767422 0.000000 0.190402
0.851072 0.000000 0.194156
0.917388 0.000000 0.198306
0.967681 0.000000 0.203433
1.000000 0.000000 0.209384
1.000000 0.000000 0.216617
1.000000 0.000000 0.225467
1.000000 0.106722 0.236759
1.000000 0.187503 0.251347
1.000000 0.247166 0.270237
1.000000 0.302190 0.294896
1.000000 0.357488 0.326909
1.000000 0.414160 0.367407
0.051850 0.146670 0.163729
0.051850 0.146670 0.163729
0.051850 0.146670 0.163729
0.051850 0.146670 0.163729
0.053559 0.146639 0.163912
0.097810 0.146670 0.164431
0.122347 0.146487 0.165286
0.146548 0.146181 0.166232
0.170962 0.145418 0.167330
0.196933 0.144747 0.168582
0.224582 0.146181 0.170016
0.256168 0.147341 0.171328
0.293034 0.147585 0.172671
0.337377 0.144869 0.174716
0.389593 0.137301 0.177035
0.448219 0.122988 0.179599
0.512413 0.095735 0.181979
0.580652 0.000000 0.184421
0.655940 0.000000 0.187045
0.755856 0.000000 0.190555
0.838407 0.000000 0.194095
0.904997 0.000000 0.197940
0.956329 0.000000 0.202579
0.997559 0.000000 0.208225
1.000000 0.000000 0.214755
1.000000 0.000000 0.222812
1.000000 0.094209 0.233494
1.000000 0.178164 0.247288
1.000000 0.238651 0.265171
1.000000 0.294499 0.288914
1.000000 0.348913 0.319615
1.000000 0.405097 0.358526
0.051850 0.146670 0.163729
0.051850 0.146670 0.163729
0.051850 0.146670 0.163729
0.051850 0.146670 0.163729
0.056825 0.146792 0.163882
0.098817 0.146792 0.164584
0.122835 0.146456 0.165255
0.144320 0.147280 0.166506
0.167208 0.149081 0.167880
0.191623 0.150698 0.169284
0.219089 0.152438 0.170504
0.250034 0.153719 0.172030
0.286442 0.154543 0.173373
0.329931 0.152468 0.175601
0.380133 0.146731 0.177798
0.436957 0.135653 0.180423
0.499001 0.115633 0.182773
0.564904 0.068482 0.185183
0.643061 0.000000 0.187716
0.734524 0.000000 0.190921
0.812711 0.000000 0.194034
0.878813 0.000000 0.197543
0.933013 0.000000 0.201389
0.978271 0.000000 0.206485
1.000000 0.000000 0.212589
1.000000 0.000000 0.220859
1.000000 0.108858 0.231601
1.000000 0.186770 0.245640
1.000000 0.245243 0.264134
1.000000 0.299626 0.287633
1.000000 0.351690 0.317449
1.000000 0.404242 0.354467
0.048219 0.149050 0.164553
0.047486 0.149264 0.164523
0.046082 0.149722 0.164492
0.045319 0.150362 0.164797
0.047700 0.151736 0.164981
0.087465 0.153445 0.165347
0.110140 0.155001 0.166751
0.132845 0.156313 0.167941
0.156252 0.157809 0.169162
0.180972 0.159701 0.170382
0.208377 0.161471 0.171450
0.239322 0.162997 0.172793
0.275547 0.163882 0.174533
0.318364 0.162966 0.176761
0.368444 0.159152 0.179355
0.425025 0.151125 0.181918
0.488106 0.136080 0.184329
0.554925 0.110933 0.186648
0.639307 0.005951 0.189303
0.726406 0.000000 0.192264
0.802213 0.000000 0.195163
0.867308 0.000000 0.198367
0.922210 0.000000 0.202182
0.969116 0.000000 0.206851
1.000000 0.000000 0.213046
1.000000 0.011597 0.221134
1.000000 0.147005 0.231785
1.000000 0.207431 0.245762
1.000000 0.259586 0.263767
1.000000 0.308873 0.286778
1.000000 0.357977 0.315740
1.000000 0.407782 0.351537
0.025788 0.160311 0.167605
0.027466 0.160281 0.167788
0.026032 0.160678 0.167727
0.025299 0.161257 0.168002
0.028016 0.162142 0.167727
0.063569 0.164096 0.166262
0.104952 0.165255 0.164584
0.119661 0.166812 0.170138
0.143832 0.169070 0.171420
0.170565 0.171206 0.172396
0.199527 0.173220 0.173404
0.231998 0.175113 0.175174
0.269627 0.176364 0.177310
0.313329 0.176242 0.179721
0.364141 0.173953 0.181979
0.422095 0.168093 0.184634
0.486000 0.157107 0.186954
0.555138 0.138705 0.189364
0.647028 0.101228 0.192203
0.731167 0.000000 0.194919
0.805173 0.000000 0.197879
0.869169 0.000000 0.201022
1.000000 0.166232 0.222721
1.000000 0.210178 0.233982
1.000000 0.249363 0.247227
1.000000 0.286137 0.263279
1.000000 0.321477 0.282078
1.000000 0.357031 0.304112
1.000000 0.393896 0.330297
1.000000 0.432319 0.361395
1.000000 0.472511 0.397833
1.000000 0.514275 0.439063
0.000000 0.176547 0.172885
0.000000 0.176730 0.172854
0.000000 0.176913 0.173007
0.000000 0.177401 0.172946
0.005219 0.178042 0.171786
0.038972 0.178805 0.171725
0.090822 0.183505 0.167514
0.131197 0.186038 0.163180
0.150576 0.185733 0.170840
0.170138 0.189059 0.177981
0.203799 0.192538 0.180026
0.242802 0.195254 0.181827
0.286351 0.197116 0.183902
0.336217 0.197299 0.186069
0.392126 0.195193 0.188205
0.453437 0.189700 0.190433
0.519463 0.180301 0.192416
0.608606 0.164401 0.195254
0.704128 0.143893 0.198184
0.789578 0.126894 0.201297
0.865782 0.124941 0.205051
0.931762 0.147524 0.210086
0.985870 0.184543 0.217899
1.000000 0.225925 0.228763
1.000000 0.265782 0.242588
1.000000 0.302037 0.259007
1.000000 0.334722 0.277256
1.000000 0.366949 0.298283
1.000000 0.400214 0.322972
1.000000 0.434668 0.351690
1.000000 0.471443 0.385870
1.000000 0.510369 0.425238
0.000000 0.190463 0.176883
0.000000 0.190463 0.177035
0.000000 0.190768 0.177157
0.000000 0.191440 0.176699
0.000000 0.192142 0.176059
0.007446 0.192813 0.176547
0.053712 0.195346 0.175845
0.104097 0.201083 0.172274
0.148013 0.205020 0.168032
0.174960 0.204562 0.174411
0.198428 0.207370 0.182315
0.228885 0.211978 0.188327
0.273594 0.215335 0.189975
0.323491 0.217533 0.191684
0.379370 0.217472 0.193423
0.440314 0.214908 0.195102
0.516075 0.210147 0.197452
0.607507 0.202823 0.200168
0.694575 0.193973 0.202670
0.774746 0.189334 0.205142
0.848020 0.193301 0.208469
0.913481 0.209110 0.212985
0.968383 0.235294 0.220066
1.000000 0.266728 0.230167
1.000000 0.299413 0.243656
1.000000 0.330114 0.259251
1.000000 0.358801 0.277134
1.000000 0.387182 0.297368
1.000000 0.417243 0.321599
1.000000 0.448524 0.349737
1.000000 0.482246 0.382818
1.000000 0.518395 0.421363
0.000000 0.207431 0.184054
0.000000 0.207553 0.184176
0.000000 0.208133 0.184390
0.000000 0.209293 0.184634
0.000000 0.210025 0.182620
0.000000 0.210605 0.183230
0.013397 0.211368 0.183902
0.074891 0.215579 0.182071
0.120974 0.222538 0.178042
0.169223 0.227695 0.173312
0.206180 0.228428 0.178073
0.234958 0.230655 0.187106
0.265812 0.235630 0.196597
0.314305 0.240085 0.199466
0.371679 0.242161 0.200778
0.441688 0.243931 0.202609
0.526452 0.244511 0.205142
0.610986 0.242374 0.207126
0.692561 0.240635 0.208927
0.768887 0.242100 0.211154
0.839200 0.250034 0.213962
0.902495 0.265507 0.218387
0.956573 0.287541 0.225467
1.000000 0.313664 0.235721
1.000000 0.341405 0.248814
1.000000 0.367285 0.264561
1.000000 0.392340 0.282170
1.000000 0.417609 0.302495
1.000000 0.443946 0.326604
1.000000 0.471901 0.354345
1.000000 0.502403 0.386969
1.000000 0.535119 0.424659
0.000000 0.228672 0.192813
0.000000 0.228794 0.192813
0.000000 0.229068 0.193027
0.000000 0.230167 0.193240
0.000000 0.230900 0.191623
0.000000 0.231388 0.190707
0.000000 0.232059 0.191379
0.023865 0.233036 0.192203
0.095277 0.238834 0.188968
0.141299 0.247074 0.183932
0.196933 0.255161 0.177829
0.242802 0.255650 0.180758
0.277043 0.257176 0.191135
0.314122 0.261753 0.201572
0.370214 0.271275 0.211154
0.449378 0.278294 0.213107
0.532616 0.282383 0.214725
0.616388 0.285100 0.216312
0.696437 0.288945 0.217533
0.769833 0.295445 0.219425
0.835843 0.305241 0.222080
0.893767 0.319066 0.226139
0.943236 0.336248 0.232425
0.984955 0.356268 0.241306
1.000000 0.376867 0.252873
1.000000 0.398077 0.266819
1.000000 0.419196 0.283665
1.000000 0.441688 0.303593
1.000000 0.466316 0.327459
1.000000 0.492714 0.355993
1.000000 0.521843 0.389471
1.000000 0.553124 0.428199
0.000000 0.251194 0.201663
0.000000 0.251377 0.201785
0.000000 0.251926 0.202090
0.000000 0.252995 0.202274
0.000000 0.254551 0.201663
0.000000 0.255436 0.199069
0.000000 0.256474 0.199588
0.000000 0.257786 0.200412
0.047578 0.259495 0.201511
0.115053 0.268589 0.196689
0.169589 0.278416 0.190311
0.233799 0.289097 0.182437
0.299199 0.294438 0.182681
0.349889 0.298741 0.195377
0.403754 0.305852 0.208530
0.461097 0.315221 0.222721
0.536645 0.323400 0.227543
0.617945 0.329686 0.228214
0.694697 0.337041 0.228916
0.764706 0.345830 0.230198
0.827939 0.356817 0.232639
0.883879 0.370733 0.236698
0.932341 0.387060 0.243198
0.973541 0.404303 0.252232
1.000000 0.422675 0.263828
1.000000 0.441047 0.278141
1.000000 0.459876 0.295140
1.000000 0.479591 0.315435
1.000000 0.501183 0.339513
1.000000 0.524926 0.368475
1.000000 0.550896 0.402167
1.000000 0.579309 0.440894
0.000000 0.281559 0.213107
0.000000 0.281804 0.213199
0.000000 0.282383 0.213199
0.000000 0.283696 0.213535
0.000000 0.285893 0.213931
0.000000 0.287144 0.210178
0.000000 0.288640 0.209598
0.000000 0.290166 0.210391
0.000000 0.292332 0.211643
0.087190 0.296452 0.211185
0.148501 0.311315 0.205509
0.218936 0.329015 0.198062
0.386450 0.403296 0.187198
0.497475 0.416297 0.177249
0.564965 0.419135 0.198795
0.627222 0.426978 0.222721
0.683467 0.438514 0.247532
0.737758 0.453529 0.269932
0.802121 0.466285 0.271122
0.858152 0.478828 0.274022
0.905516 0.490608 0.279667
0.945586 0.501793 0.287938
0.979522 0.512902 0.298466
1.000000 0.524468 0.311711
1.000000 0.535607 0.327001
1.000000 0.546502 0.343786
1.000000 0.557336 0.361730
1.000000 0.569299 0.382086
1.000000 0.583124 0.405982
1.000000 0.599451 0.433661
1.000000 0.618524 0.465705
1.000000 0.641199 0.503502
0.000000 0.338933 0.232700
0.000000 0.338903 0.232700
0.000000 0.338811 0.232486
0.000000 0.339361 0.232303
0.000000 0.340093 0.232059
0.000000 0.340673 0.228763
0.000000 0.341558 0.224369
0.000000 0.347356 0.226291
0.000000 0.354498 0.228641
0.000000 0.363531 0.231632
0.144045 0.380011 0.230594
0.234409 0.406531 0.221988
0.340826 0.435370 0.208347
0.463508 0.463661 0.187320
0.584527 0.483070 0.163455
0.646235 0.484657 0.192020
0.698146 0.489021 0.222568
0.743740 0.496803 0.253056
0.785214 0.508751 0.283879
0.832700 0.520989 0.296941
0.880034 0.530968 0.300450
0.921019 0.540887 0.306889
0.956207 0.550347 0.315770
0.986786 0.560174 0.327642
1.000000 0.569604 0.341527
1.000000 0.579187 0.357519
1.000000 0.588952 0.375616
1.000000 0.599847 0.396277
1.000000 0.612421 0.420325
1.000000 0.627436 0.448615
1.000000 0.644709 0.481086
1.000000 0.665095 0.518608
0.000000 0.397772 0.252110
0.000000 0.397375 0.251896
0.000000 0.397253 0.251713
0.000000 0.397833 0.251499
0.000000 0.399268 0.251133
0.000000 0.401587 0.249729
0.000000 0.404059 0.242344
0.000000 0.407233 0.241550
0.000000 0.412390 0.243442
0.000000 0.419989 0.246128
0.105684 0.430121 0.249760
0.214572 0.451392 0.245426
0.316930 0.479713 0.232639
0.429877 0.508141 0.213993
0.548089 0.534722 0.186404
0.654414 0.551293 0.153079
0.711666 0.550439 0.184451
0.754482 0.550042 0.222721
0.792905 0.554559 0.260227
0.827024 0.563104 0.295842
0.858640 0.575067 0.329778
0.900359 0.584131 0.334752
0.936522 0.592798 0.342809
0.968109 0.601373 0.353521
0.995148 0.609613 0.366766
1.000000 0.617700 0.382361
1.000000 0.625910 0.399725
1.000000 0.634943 0.419837
1.000000 0.645533 0.443397
1.000000 0.658686 0.471534
1.000000 0.674189 0.503899
1.000000 0.692439 0.540856
0.000000 0.471717 0.277958
0.000000 0.471382 0.277684
0.000000 0.470436 0.277195
0.000000 0.469368 0.276005
0.000000 0.468635 0.274907
0.000000 0.469001 0.273747
0.000000 0.469581 0.265843
0.000000 0.471473 0.259007
0.000000 0.475196 0.260563
0.000000 0.481788 0.263127
0.000000 0.491157 0.267094
0.201236 0.502831 0.272038
0.301732 0.528252 0.262760
0.407263 0.556115 0.245975
0.515465 0.581598 0.222721
0.618341 0.603235 0.189944
0.708766 0.614588 0.152010
0.765896 0.614130 0.179080
0.802548 0.610407 0.226932
0.834165 0.611170 0.271916
0.862577 0.616571 0.313512
0.888273 0.626459 0.354833
0.917967 0.635981 0.377722
0.949828 0.643000 0.387182
0.977508 0.649592 0.398810
1.000000 0.656184 0.413458
1.000000 0.663447 0.430640
1.000000 0.671809 0.451301
1.000000 0.682094 0.476448
1.000000 0.694820 0.506371
1.000000 0.710109 0.541131
1.000000 0.727718 0.580102
0.000000 0.541009 0.304997
0.000000 0.541619 0.305211
0.000000 0.541466 0.304997
0.000000 0.541436 0.304295
0.000000 0.542016 0.303349
0.000000 0.543725 0.302464
0.000000 0.546899 0.298100
0.000000 0.550744 0.285924
0.000000 0.555383 0.286137
0.000000 0.561242 0.289067
0.000000 0.568048 0.292821
0.184726 0.575433 0.296971
0.301122 0.583307 0.300389
0.392828 0.604639 0.284276
0.486549 0.624262 0.263371
0.578973 0.641962 0.236545
0.669337 0.658289 0.201511
0.747982 0.665522 0.163180
0.805814 0.666865 0.181155
0.838132 0.661036 0.236545
0.866300 0.660731 0.288548
0.891691 0.665309 0.336706
0.913939 0.673548 0.383154
0.933013 0.685115 0.429755
0.961212 0.691341 0.441627
0.985565 0.697536 0.456245
1.000000 0.703975 0.473793
1.000000 0.711299 0.494118
1.000000 0.719905 0.518242
1.000000 0.730282 0.546105
1.000000 0.742489 0.577722
1.000000 0.756710 0.612940
0.000000 0.608301 0.335302
0.000000 0.608270 0.335302
0.000000 0.608301 0.334844
0.000000 0.608667 0.334447
0.000000 0.609552 0.333898
0.000000 0.611566 0.333440
0.000000 0.614954 0.332036
0.000000 0.618006 0.319799
0.000000 0.621851 0.311650
0.000000 0.626032 0.314794
0.000000 0.631128 0.318456
0.150118 0.636683 0.323064
0.293431 0.641932 0.327794
0.385992 0.650172 0.327184
0.469184 0.667750 0.309117
0.552789 0.683436 0.287144
0.635645 0.697627 0.259861
0.716823 0.710872 0.226444
0.786435 0.715297 0.190951
0.842802 0.716487 0.199496
0.871092 0.710048 0.259983
0.895842 0.708217 0.316350
0.917388 0.710994 0.368994
0.935882 0.717494 0.420294
0.951263 0.727169 0.470527
0.968994 0.736233 0.504784
0.990143 0.741939 0.521355
1.000000 0.748348 0.541161
1.000000 0.755886 0.564477
1.000000 0.764797 0.591058
1.000000 0.775265 0.620935
1.000000 0.787411 0.653864
0.000000 0.680201 0.375647
0.000000 0.681209 0.376257
0.000000 0.746334 0.425757
0.000000 0.746517 0.425544
0.000000 0.746853 0.425025
0.000000 0.747341 0.424537
0.000000 0.748470 0.424598
0.000000 0.749722 0.414130
0.000000 0.752071 0.397559
0.000000 0.753536 0.399359
0.024414 0.755123 0.404150
0.281651 0.756558 0.408911
0.382055 0.756832 0.413123
0.460060 0.756100 0.416602
0.524865 0.759609 0.409033
0.589014 0.767605 0.387823
0.654871 0.774014 0.362127
0.721096 0.779599 0.333227
0.786313 0.784848 0.301122
0.844877 0.785580 0.266514
0.892210 0.780484 0.265476
0.913390 0.771054 0.324285
0.931640 0.766079 0.379950
0.946563 0.765347 0.434668
0.958648 0.767666 0.485206
0.968322 0.773098 0.533440
0.975738 0.781491 0.580194
0.991791 0.785275 0.596857
1.000000 0.790097 0.615198
1.000000 0.796811 0.638056
1.000000 0.805203 0.664424
1.000000 0.814847 0.692836
0.000000 0.760189 0.437446
0.000000 0.765377 0.442542
0.000000 0.770871 0.448035
0.000000 0.775662 0.452918
0.000000 0.779232 0.456641
0.000000 0.781064 0.458289
0.000000 0.782040 0.458961
0.000000 0.782803 0.454841
0.000000 0.783993 0.439734
0.000000 0.785000 0.431586
0.065583 0.785519 0.435401
0.277562 0.786007 0.439857
0.374304 0.785733 0.443458
0.449653 0.784817 0.447028
0.513481 0.783230 0.449958
0.569574 0.787686 0.438087
0.627680 0.794339 0.417853
0.688228 0.800351 0.394842
0.749538 0.806180 0.370611
0.810239 0.811978 0.343542
0.867826 0.816312 0.314214
0.913024 0.810758 0.305303
0.931701 0.801816 0.364569
0.947326 0.796414 0.418830
0.959258 0.794614 0.473945
0.968841 0.796109 0.525048
0.976226 0.800748 0.573571
0.981659 0.808438 0.620874
0.989471 0.816403 0.656184
1.000000 0.821744 0.675868
1.000000 0.828611 0.698909
1.000000 0.836637 0.723873
0.000000 0.797513 0.476112
0.000000 0.801968 0.481819
0.000000 0.806729 0.487922
0.000000 0.810880 0.493538
0.000000 0.814023 0.498024
0.000000 0.815518 0.500511
0.000000 0.816068 0.502068
0.000000 0.816464 0.503838
0.000000 0.817105 0.491310
0.000000 0.818173 0.475685
0.190677 0.817868 0.478553
0.310613 0.817624 0.482307
0.392340 0.816953 0.485817
0.459663 0.816068 0.489296
0.518395 0.814572 0.492409
0.570886 0.812680 0.494911
0.618738 0.817777 0.479835
0.669886 0.823117 0.460548
0.723751 0.828275 0.439734
0.778897 0.833310 0.418128
0.833707 0.838132 0.395148
0.887449 0.842893 0.370489
0.928618 0.837003 0.360143
0.947051 0.828763 0.410590
0.959899 0.822934 0.462928
0.969421 0.820676 0.517174
0.976776 0.821653 0.567681
0.982147 0.825956 0.616449
0.985748 0.833463 0.664240
0.987915 0.843503 0.709285
0.996765 0.849943 0.732509
1.000000 0.856382 0.753445
0.000000 0.831266 0.519982
0.000000 0.834562 0.525353
0.000000 0.838010 0.531212
0.000000 0.841032 0.536767
0.000000 0.843259 0.541283
0.000000 0.844205 0.544274
0.000000 0.844511 0.546410
0.130922 0.844633 0.548791
0.198062 0.845090 0.543359
0.219730 0.845853 0.530785
0.281407 0.846036 0.525383
0.359686 0.845426 0.528527
0.424231 0.844633 0.531640
0.480995 0.843595 0.534966
0.532799 0.842435 0.538506
0.580407 0.841215 0.542138
0.625025 0.840970 0.544884
0.668116 0.847105 0.532097
0.714870 0.853147 0.519432
0.763912 0.859159 0.506371
0.813840 0.864866 0.493324
0.863340 0.870146 0.479835
0.911498 0.874693 0.464027
0.947509 0.869657 0.458747
0.965240 0.862852 0.500298
0.974395 0.858061 0.552605
0.980529 0.856504 0.604974
0.984405 0.858274 0.655421
0.986816 0.863005 0.701930
0.988128 0.870024 0.743893
0.988556 0.878630 0.781094
0.990539 0.886687 0.808743
0.008453 0.875822 0.600885
0.099794 0.876768 0.603204
0.142123 0.877470 0.605310
0.181369 0.877836 0.607050
0.222141 0.877806 0.608484
0.261143 0.877379 0.609552
0.303777 0.876860 0.611200
0.347631 0.876463 0.613886
0.383825 0.876371 0.614466
0.393683 0.877012 0.605585
0.405829 0.877836 0.595392
0.452705 0.877226 0.598627
0.496437 0.876310 0.601434
0.537896 0.875273 0.604364
0.577264 0.874022 0.607263
0.614923 0.872740 0.610010
0.650874 0.871336 0.613092
0.684932 0.871794 0.612085
0.719295 0.876066 0.600305
0.757168 0.880125 0.587976
0.797513 0.883909 0.574975
0.839200 0.887388 0.561486
0.881224 0.890410 0.546929
0.922850 0.892851 0.530266
0.954894 0.887694 0.522454
0.972747 0.881071 0.551904
0.979736 0.876646 0.602686
0.984405 0.875425 0.652308
0.986816 0.877470 0.700771
0.988190 0.881895 0.743404
0.988708 0.888121 0.780697
0.988556 0.895567 0.812680
0.316411 0.895537 0.646448
0.323766 0.896117 0.648402
0.334234 0.896635 0.650263
0.348577 0.896910 0.652277
0.366247 0.896880 0.654047
0.387182 0.896544 0.655726
0.411933 0.896056 0.657710
0.440955 0.895628 0.660761
0.473732 0.895323 0.665370
0.483528 0.895720 0.659846
0.491768 0.896361 0.652125
0.514000 0.896391 0.649897
0.546685 0.895689 0.652827
0.579126 0.894896 0.655909
0.610864 0.894041 0.659236
0.641871 0.893126 0.662501
0.672358 0.892271 0.666438
0.701991 0.891447 0.670497
0.729793 0.893065 0.668330
0.758877 0.896727 0.659419
0.790829 0.900145 0.650355
0.824918 0.903258 0.640742
0.860319 0.905974 0.629999
0.896361 0.908263 0.618433
0.929473 0.905364 0.581537
0.958984 0.900999 0.573297
0.977417 0.895018 0.594873
0.982940 0.891081 0.644068
0.986633 0.890105 0.690394
0.988159 0.892180 0.735897
0.988769 0.896483 0.775601
0.988769 0.902281 0.809201
0.474891 0.916777 0.708736
0.481849 0.917510 0.711635
0.487251 0.917815 0.713191
0.492714 0.917571 0.713741
0.498878 0.916899 0.713497
0.507164 0.915953 0.713039
0.518029 0.914763 0.712673
0.532341 0.913512 0.712978
0.550713 0.912352 0.714504
0.561303 0.911681 0.711879
0.562432 0.911345 0.703151
0.567102 0.911254 0.694911
0.588830 0.910063 0.695247
0.611078 0.908751 0.695521
0.633845 0.907256 0.695674
0.657343 0.905760 0.696284
0.681422 0.904387 0.697383
0.706416 0.903288 0.699947
0.732021 0.902617 0.704005
0.756558 0.905119 0.701076
0.782956 0.908598 0.695094
0.811398 0.911681 0.688350
0.841123 0.914183 0.679835
0.871824 0.916045 0.669215
0.903502 0.917266 0.656153
0.935790 0.918029 0.640833
0.962524 0.914305 0.631434
0.980865 0.908324 0.643122
0.985077 0.904509 0.687160
0.987793 0.903471 0.728664
0.988769 0.905272 0.768765
0.988830 0.909239 0.804349
0.533379 0.926238 0.737972
0.538689 0.926818 0.740414
0.543816 0.927153 0.742245
0.549432 0.927123 0.743465
0.556298 0.926879 0.744442
0.565148 0.926482 0.745663
0.576898 0.925994 0.747524
0.591485 0.925536 0.750210
0.608698 0.925048 0.753750
0.625605 0.924773 0.757015
0.628687 0.924926 0.752163
0.632410 0.925170 0.746670
0.643763 0.924804 0.744839
0.660334 0.923827 0.745449
0.676936 0.922698 0.745602
0.694270 0.921447 0.745754
0.712428 0.920256 0.746365
0.731746 0.919249 0.748013
0.752132 0.918547 0.751003
0.773190 0.918181 0.755337
0.792721 0.920836 0.751675
0.814206 0.923552 0.747097
0.837278 0.925872 0.741726
0.861753 0.927764 0.735225
0.887388 0.929198 0.727321
0.914061 0.930205 0.717922
0.941680 0.930907 0.707393
0.965484 0.928283 0.700435
0.982940 0.922942 0.706874
0.985809 0.919829 0.745235
0.987457 0.919249 0.780636
0.987884 0.920867 0.813046
0.606287 0.937316 0.776547
0.608576 0.937560 0.777584
0.611292 0.937621 0.778500
0.614832 0.937499 0.779263
0.619532 0.937224 0.779904
0.625879 0.936828 0.780850
0.634272 0.936370 0.782254
0.644923 0.935851 0.784237
0.657801 0.935332 0.787045
0.672724 0.934874 0.790738
0.677821 0.934844 0.788724
0.680690 0.935058 0.784817
0.684993 0.935149 0.780941
0.697444 0.934417 0.781491
0.710262 0.933501 0.781735
0.723507 0.932525 0.781765
0.737758 0.931518 0.782315
0.753048 0.930663 0.783383
0.769589 0.930053 0.785794
0.786893 0.929686 0.789181
0.804166 0.929839 0.792447
0.820218 0.932189 0.789151
0.837736 0.934203 0.785122
0.856687 0.935912 0.780331
0.876921 0.937194 0.774319
0.898405 0.938170 0.767269
0.921202 0.938872 0.759396
0.945129 0.939239 0.750454
0.966857 0.937560 0.745022
0.982574 0.932830 0.750759
0.985748 0.930175 0.782559
0.986847 0.929808 0.813443
0.655970 0.945098 0.804196
0.657740 0.945251 0.805020
0.660151 0.945342 0.805905
0.663539 0.945312 0.806912
0.668605 0.945251 0.808316
0.675990 0.945190 0.810513
0.686549 0.945312 0.814023
0.699397 0.945495 0.818570
0.714260 0.945769 0.824033
0.730495 0.946075 0.830198
0.743069 0.946624 0.834379
0.749294 0.947448 0.834806
0.755154 0.948180 0.834684
0.764187 0.948363 0.836149
0.774624 0.948180 0.838163
0.784237 0.947692 0.839200
0.793881 0.947173 0.840116
0.804227 0.946654 0.841245
0.815457 0.946258 0.843137
0.827329 0.946014 0.845518
0.839475 0.945830 0.848295
0.851011 0.946319 0.849607
0.861784 0.947784 0.847196
0.873716 0.949004 0.844297
0.886687 0.950011 0.840726
0.900938 0.950774 0.836545
0.916503 0.951324 0.832090
0.933227 0.951690 0.827207
0.951232 0.951873 0.822019
0.968688 0.951202 0.819211
0.979706 0.946960 0.824247
0.983124 0.944640 0.843412
0.735073 0.955627 0.848142
0.735317 0.955627 0.848203
0.736049 0.955566 0.848325
0.737484 0.955444 0.848600
0.740017 0.955261 0.849119
0.743832 0.955016 0.850034
0.749172 0.954772 0.851469
0.755978 0.954528 0.853452
0.764218 0.954314 0.855985
0.773831 0.954101 0.859129
0.783932 0.953918 0.862516
0.786404 0.954162 0.861509
0.788907 0.954437 0.860136
0.792294 0.954589 0.859037
