20 Preset/Street 2/【3】LUT video cho PR-AE-FCPX/Tone 1 (7).cube
# Created by Adobe Lightroom plugin Export LUT (1.24.0)
# www.johnrellis.com/lightroom/exportlut.htm
# Preset: 青橙风光-素材江湖07
# Color profile: C:\Program Files (x86)\Common Files\Adobe\Color\Profiles\Recommended\VideoHD.icc
LUT_3D_SIZE 8
DOMAIN_MIN 0.000000 0.000000 0.000000
DOMAIN_MAX 0.903226 0.903226 0.903226
0.087373 0.120455 0.126711
0.110018 0.122896 0.130007
0.195407 0.136233 0.149172
0.273411 0.142977 0.162356
0.367041 0.146517 0.175204
0.520531 0.127718 0.190463
0.807675 0.000000 0.213260
1.000000 0.129458 0.249577
0.096712 0.133730 0.139284
0.113130 0.136995 0.131624
0.193454 0.145876 0.148013
0.273991 0.152377 0.161563
0.368597 0.155215 0.174502
0.513909 0.140963 0.188815
0.744686 0.000000 0.206973
1.000000 0.079561 0.235843
0.136172 0.182864 0.184512
0.137636 0.180331 0.180850
0.209354 0.195254 0.143709
0.347845 0.212009 0.161563
0.474830 0.203738 0.178378
0.670436 0.187533 0.193271
0.920470 0.200076 0.210513
1.000000 0.328832 0.252720
0.201968 0.251408 0.247410
0.199710 0.247166 0.242649
0.219547 0.249119 0.224857
0.402350 0.296818 0.141299
0.739254 0.368902 0.074769
0.946471 0.441932 0.147402
1.000000 0.455329 0.187991
1.000000 0.513878 0.262577
0.307927 0.347814 0.332372
0.304204 0.342840 0.327123
0.296849 0.327459 0.310277
0.395331 0.365240 0.260594
0.659907 0.441871 0.012665
0.957610 0.557824 0.000000
1.000000 0.645655 0.000000
1.000000 0.688472 0.286564
0.466865 0.481697 0.449683
0.479957 0.491157 0.457099
0.467689 0.472297 0.436622
0.453620 0.441016 0.400183
0.670375 0.551202 0.285679
0.925536 0.670558 0.000000
1.000000 0.763638 0.000000
1.000000 0.798398 0.203281
0.701625 0.717067 0.659541
0.704677 0.718715 0.660212
0.694911 0.700099 0.638697
0.684688 0.670100 0.603204
0.750454 0.692103 0.524987
0.931670 0.798306 0.346502
1.000000 0.843626 0.000000
1.000000 0.853117 0.000000
0.907744 0.928985 0.895628
0.907408 0.928344 0.894530
0.908110 0.927214 0.891875
0.912016 0.926482 0.888640
0.890227 0.894163 0.841032
0.960967 0.928985 0.794675
1.000000 0.945342 0.700557
1.000000 0.929870 0.424537
0.091951 0.134859 0.144167
0.095644 0.129641 0.137697
0.182040 0.134890 0.146487
0.259525 0.147616 0.159701
0.353735 0.153201 0.172793
0.485634 0.142824 0.186709
0.692470 0.040650 0.203372
0.965301 0.000000 0.228031
0.092500 0.138338 0.145052
0.104585 0.142611 0.149538
0.186069 0.147951 0.147066
0.269047 0.157229 0.160189
0.366491 0.161013 0.173587
0.500664 0.150057 0.187167
0.683314 0.096498 0.201724
0.934936 0.000000 0.222995
0.142580 0.190585 0.194705
0.145418 0.191684 0.194949
0.204196 0.196323 0.155001
0.328435 0.207126 0.158419
0.451637 0.204746 0.176303
0.611963 0.190036 0.189609
0.802060 0.170871 0.203189
1.000000 0.235630 0.227054
0.203220 0.253666 0.251804
0.201724 0.250584 0.248142
0.210391 0.245975 0.233921
0.355169 0.276585 0.156863
0.613672 0.308995 0.124392
0.825711 0.360815 0.163821
0.958129 0.366155 0.182193
1.000000 0.428779 0.220584
0.310460 0.350805 0.337407
0.304906 0.344488 0.330907
0.293523 0.326574 0.311681
0.365698 0.348852 0.264317
0.598688 0.404791 0.113100
0.898528 0.501976 0.000000
1.000000 0.602075 0.000000
1.000000 0.651484 0.240055
0.450935 0.468910 0.440681
0.448829 0.465309 0.436652
0.438209 0.449195 0.418708
0.424964 0.420661 0.387732
0.629694 0.521141 0.289616
0.899840 0.642695 0.000000
1.000000 0.745693 0.000000
1.000000 0.784268 0.146456
0.669306 0.682338 0.628748
0.661616 0.672450 0.618616
0.649531 0.652125 0.596185
0.641077 0.625483 0.564813
0.709987 0.652308 0.503319
0.905547 0.769284 0.333318
1.000000 0.821805 0.000000
1.000000 0.840604 0.000000
0.891234 0.914946 0.877806
0.893980 0.916930 0.880064
0.893797 0.914824 0.876036
0.898039 0.913970 0.872343
0.903777 0.909331 0.862058
0.961059 0.931884 0.806943
1.000000 0.943297 0.690120
1.000000 0.928099 0.409461
0.109621 0.182773 0.200839
0.117586 0.177127 0.196933
0.142580 0.161501 0.183932
0.258183 0.151858 0.191318
0.355657 0.161685 0.186374
0.530053 0.149569 0.189303
0.758114 0.080781 0.206394
1.000000 0.115755 0.233738
0.111299 0.188968 0.204623
0.126406 0.185550 0.203525
0.151919 0.176486 0.196048
0.263157 0.165469 0.196353
0.365820 0.171389 0.190097
0.541924 0.159457 0.188937
0.746212 0.112093 0.204410
1.000000 0.127901 0.228702
0.139437 0.212131 0.217868
0.149935 0.217044 0.223087
0.193027 0.237278 0.244511
0.313024 0.230045 0.226322
0.461311 0.219425 0.208225
0.655940 0.206271 0.192538
0.846647 0.202029 0.202823
1.000000 0.272770 0.228672
0.231876 0.278904 0.282872
0.239841 0.286778 0.289769
0.261021 0.301854 0.300999
0.393133 0.323583 0.235080
0.655177 0.350652 0.207889
0.855589 0.386053 0.184512
0.995361 0.406561 0.178225
1.000000 0.464118 0.229160
0.362615 0.396948 0.388190
0.369512 0.401190 0.391913
0.362249 0.388891 0.376745
0.385870 0.380865 0.331823
0.649989 0.456733 0.197574
0.920470 0.530510 0.000000
1.000000 0.612055 0.000000
1.000000 0.661952 0.249790
0.512261 0.524987 0.500999
0.510338 0.522148 0.497414
0.494209 0.501762 0.474739
0.469673 0.464088 0.433814
0.623011 0.532830 0.348577
0.898955 0.654902 0.000000
1.000000 0.742184 0.000000
1.000000 0.785885 0.159915
0.713069 0.734005 0.685969
0.706477 0.725582 0.676967
0.689326 0.700587 0.649317
0.671717 0.665461 0.609003
0.694697 0.651606 0.549157
0.900877 0.779904 0.405707
1.000000 0.831510 0.000000
1.000000 0.846677 0.000000
0.898283 0.922148 0.889433
0.896361 0.920134 0.886595
0.895171 0.917510 0.881926
0.901732 0.919341 0.881773
0.905516 0.914000 0.870665
0.955383 0.934325 0.832425
1.000000 0.945800 0.704128
1.000000 0.929412 0.417975
0.135988 0.231327 0.260380
0.146029 0.226596 0.257725
0.171786 0.215091 0.239628
0.200015 0.202823 0.237675
0.340032 0.170596 0.250645
0.458137 0.140139 0.225132
0.651575 0.108461 0.223819
0.981506 0.088624 0.226932
0.149233 0.241581 0.270481
0.157961 0.237400 0.267857
0.182650 0.228275 0.253880
0.211612 0.215640 0.249332
0.352667 0.180362 0.257176
0.469032 0.147127 0.226871
0.670069 0.120272 0.226902
0.990539 0.138766 0.226230
0.130007 0.285161 0.296910
0.145998 0.287480 0.300816
0.215335 0.279454 0.303563
0.251530 0.260868 0.288487
0.411292 0.222660 0.283055
0.543236 0.205783 0.255283
0.818692 0.187594 0.248722
1.000000 0.308171 0.233310
0.221836 0.326055 0.328344
0.231815 0.330480 0.332891
0.281651 0.354742 0.358190
0.406653 0.414343 0.421180
0.583764 0.371862 0.361151
0.750484 0.344274 0.310704
0.941650 0.360876 0.268070
1.000000 0.462287 0.234684
0.437568 0.443793 0.448646
0.441657 0.448157 0.452338
0.469734 0.475257 0.475776
0.512474 0.508202 0.499428
0.710780 0.555901 0.384375
0.943297 0.604089 0.346441
1.000000 0.656489 0.346899
1.000000 0.667689 0.285740
0.590600 0.601068 0.583856
0.607446 0.619013 0.599359
0.621942 0.631037 0.608759
0.617823 0.614527 0.587152
0.653162 0.600641 0.501030
0.921386 0.716945 0.323247
1.000000 0.767697 0.188907
1.000000 0.794644 0.281498
0.760678 0.790890 0.753079
0.764828 0.794400 0.756466
0.775235 0.801205 0.762661
0.757076 0.772763 0.726772
0.734554 0.720302 0.664027
0.896086 0.812375 0.551873
1.000000 0.852079 0.281895
1.000000 0.852079 0.000000
0.921477 0.942535 0.919615
0.920806 0.941894 0.918547
0.918517 0.939300 0.914153
0.916838 0.935668 0.907256
0.916075 0.928923 0.894835
0.942992 0.935637 0.869535
1.000000 0.953002 0.782773
1.000000 0.931243 0.430030
0.177981 0.290257 0.338323
0.186587 0.286137 0.335729
0.208713 0.272313 0.321538
0.238407 0.269963 0.295262
0.270787 0.244480 0.296880
0.454108 0.185763 0.326085
0.622736 0.048554 0.302190
0.863523 0.000000 0.271519
0.189609 0.304265 0.352117
0.198276 0.302037 0.351537
0.221012 0.287175 0.337255
0.249454 0.279606 0.306523
0.282597 0.254307 0.307134
0.469062 0.191379 0.333318
0.630823 0.075257 0.303624
0.865354 0.000000 0.273808
0.195041 0.360479 0.396857
0.214176 0.359991 0.398688
0.255192 0.340978 0.387060
0.292943 0.319829 0.353582
0.327214 0.293156 0.345006
0.513542 0.218112 0.353796
0.650080 0.131350 0.303990
0.861387 0.000000 0.279850
0.196353 0.431525 0.440803
0.209232 0.435523 0.445167
0.264500 0.456306 0.468177
0.409857 0.448127 0.484230
0.459174 0.407752 0.452399
0.626398 0.307958 0.409522
0.723964 0.245212 0.327276
1.000000 0.286259 0.320989
0.365789 0.492683 0.488319
0.378088 0.498939 0.494636
0.428016 0.522301 0.518517
0.530205 0.575769 0.572595
0.681453 0.667628 0.663813
0.822293 0.581262 0.552392
0.967468 0.538262 0.458503
1.000000 0.574273 0.402960
0.615320 0.603174 0.602319
0.625757 0.610590 0.610010
0.639734 0.626398 0.624445
0.668482 0.664179 0.656062
0.697230 0.692866 0.673335
0.888518 0.764309 0.578790
1.000000 0.801480 0.572564
1.000000 0.830228 0.610986
0.781369 0.803372 0.780850
0.779324 0.801724 0.778683
0.779507 0.803891 0.778439
0.797360 0.823758 0.794064
0.797665 0.813626 0.777615
0.841093 0.807889 0.686854
1.000000 0.864591 0.521752
1.000000 0.860288 0.402411
0.905394 0.931212 0.908354
0.905730 0.931365 0.908476
0.908537 0.933013 0.910155
0.922698 0.942840 0.921813
0.920287 0.937743 0.912200
0.919310 0.926665 0.892515
0.993805 0.952667 0.834775
1.000000 0.936431 0.587335
0.261418 0.401221 0.483101
0.269810 0.398077 0.481300
0.290410 0.376684 0.461006
0.325902 0.355413 0.426307
0.344060 0.351537 0.378729
0.388708 0.299107 0.386358
0.622187 0.197177 0.438605
0.918059 0.000000 0.475471
0.260655 0.401923 0.478462
0.267094 0.396826 0.474342
0.288640 0.377508 0.457435
0.322240 0.354864 0.424475
0.341619 0.349828 0.377325
0.384924 0.300450 0.384070
0.611597 0.203128 0.432105
0.895811 0.000000 0.460090
0.303349 0.473457 0.538659
0.311284 0.467597 0.535088
0.339178 0.445502 0.520867
0.364935 0.402289 0.479500
0.391730 0.388098 0.421332
0.431647 0.335943 0.420996
0.663447 0.228885 0.461921
0.921294 0.000000 0.465461
0.271397 0.589899 0.616602
0.296086 0.584588 0.614496
0.387213 0.575799 0.618250
0.485023 0.549218 0.612909
0.526635 0.502159 0.547875
0.558556 0.441108 0.524346
0.787381 0.306371 0.537377
0.991455 0.119203 0.482490
0.363470 0.640070 0.637964
0.373022 0.642390 0.640528
0.414923 0.655787 0.655055
0.498634 0.688075 0.689448
0.649073 0.674617 0.704311
0.689937 0.608515 0.654597
0.854093 0.436713 0.572290
1.000000 0.310460 0.437507
0.543664 0.696681 0.679042
0.557794 0.706722 0.688746
0.589227 0.719997 0.702266
0.651942 0.749599 0.732326
0.745998 0.799496 0.782681
0.865660 0.877317 0.862303
0.956573 0.812070 0.772854
1.000000 0.781033 0.691371
0.807980 0.837797 0.819120
0.815427 0.843473 0.825040
0.833127 0.854429 0.837156
0.862516 0.874388 0.859281
0.874144 0.891081 0.874266
0.878233 0.894072 0.871824
0.975525 0.913512 0.807279
1.000000 0.915129 0.800046
0.919982 0.936706 0.922820
0.919066 0.936095 0.921965
0.919646 0.937255 0.922698
0.924834 0.942931 0.927855
0.931426 0.949676 0.933227
0.934295 0.948486 0.928923
0.962860 0.952911 0.897185
1.000000 0.952636 0.788510
0.424750 0.576837 0.684871
0.433661 0.575708 0.685603
0.451118 0.553338 0.669520
0.480690 0.518364 0.640284
0.521141 0.493385 0.580804
0.493721 0.470253 0.494057
0.548058 0.367956 0.504906
0.810086 0.231601 0.587274
0.414923 0.570367 0.674006
0.424964 0.570550 0.676173
0.443183 0.548943 0.660975
0.468605 0.510338 0.628107
0.506615 0.482918 0.568750
0.479011 0.458045 0.482124
0.527855 0.360540 0.489723
0.777768 0.228244 0.562310
0.456062 0.634211 0.720150
0.460792 0.628351 0.716854
0.475502 0.601526 0.699184
0.500633 0.556359 0.665522
0.532799 0.513909 0.603021
0.516594 0.487160 0.515068
0.570001 0.394202 0.524346
0.837156 0.264042 0.605982
0.479988 0.731197 0.778012
0.487831 0.724422 0.773922
0.531731 0.709377 0.767605
0.565606 0.663020 0.742306
0.591028 0.595361 0.687312
0.603143 0.563470 0.598199
0.647913 0.469215 0.593561
0.908568 0.335882 0.660487
0.435187 0.808621 0.804898
0.435737 0.805661 0.802609
0.470954 0.799374 0.801663
0.576379 0.778286 0.800900
0.662989 0.729854 0.781125
0.690089 0.662165 0.702144
0.722316 0.574548 0.671015
0.976623 0.444678 0.712917
0.585748 0.842496 0.824002
0.591791 0.843778 0.825437
0.613245 0.847593 0.830198
0.655604 0.855528 0.840146
0.718013 0.867521 0.855741
0.818326 0.853880 0.861662
0.845090 0.797574 0.823178
1.000000 0.634211 0.758236
0.753780 0.884916 0.860380
0.759335 0.886931 0.862638
0.772641 0.889799 0.866361
0.800259 0.896971 0.875334
0.839048 0.908019 0.889128
0.891051 0.927611 0.912932
0.952483 0.960357 0.952361
1.000000 0.923400 0.899138
0.906401 0.938109 0.923003
0.908507 0.939086 0.924285
0.918151 0.944030 0.930541
0.932280 0.950713 0.939300
0.950896 0.959838 0.951537
0.959136 0.967987 0.960388
0.961883 0.970123 0.959777
1.000000 0.975921 0.925566
0.726955 0.836179 0.891722
0.730831 0.835386 0.891752
0.729915 0.820645 0.884428
0.741787 0.801144 0.874968
0.759701 0.773953 0.853605
0.778378 0.751553 0.808652
0.741695 0.727108 0.727321
0.825132 0.562707 0.750362
0.715358 0.830045 0.886839
0.719966 0.829801 0.887205
0.722957 0.817441 0.881468
0.733211 0.795560 0.870787
0.750515 0.765988 0.848844
0.770809 0.742855 0.802518
0.730709 0.713527 0.715572
0.809751 0.547417 0.734859
0.726802 0.847227 0.893065
0.728542 0.845182 0.892332
0.729671 0.832364 0.886229
0.747982 0.818265 0.880674
0.755825 0.781308 0.858701
0.775296 0.753017 0.811765
0.742000 0.723507 0.728023
0.815915 0.564599 0.743191
0.748531 0.880491 0.906920
0.754391 0.880430 0.907317
0.757778 0.870848 0.902983
0.767727 0.853361 0.895506
0.778012 0.821775 0.878721
0.797055 0.790890 0.841917
0.778622 0.762051 0.769467
0.842069 0.618402 0.775692
0.735409 0.913237 0.918975
0.741543 0.912932 0.919524
0.753902 0.906767 0.917357
0.786923 0.898070 0.915343
0.802823 0.872038 0.902831
0.812436 0.830533 0.874266
0.815335 0.803189 0.814389
0.866239 0.688563 0.811124
0.762692 0.940093 0.929992
0.760922 0.939208 0.929137
0.759701 0.937255 0.927703
0.768063 0.936400 0.928405
0.811154 0.925353 0.928008
0.858732 0.906310 0.922210
0.877409 0.881254 0.890471
0.904662 0.818418 0.874662
0.842496 0.957214 0.944579
0.842771 0.957092 0.944457
0.844907 0.956695 0.944427
0.853422 0.957427 0.946105
0.867674 0.958923 0.949310
0.889769 0.962005 0.955200
0.930816 0.952880 0.955627
0.940337 0.920439 0.931212
0.910826 0.972564 0.961181
0.911162 0.972473 0.961120
0.914061 0.972869 0.961822
0.921569 0.974395 0.964172
0.932403 0.976440 0.967437
0.947326 0.979492 0.972229
0.968658 0.985290 0.980682
0.998596 0.998871 0.998596
