20 Preset/Street 2/【3】LUT video cho PR-AE-FCPX/Tone 1 (1).cube
# Created by Adobe Lightroom plugin Export LUT (1.24.0)
# www.johnrellis.com/lightroom/exportlut.htm
# Preset: 青橙风光-素材江湖01
# Color profile: C:\Program Files (x86)\Common Files\Adobe\Color\Profiles\Recommended\VideoHD.icc
LUT_3D_SIZE 8
DOMAIN_MIN 0.000000 0.000000 0.000000
DOMAIN_MAX 0.903226 0.903226 0.903226
0.115389 0.115389 0.115389
0.150973 0.113710 0.117189
0.315740 0.121889 0.104860
0.570397 0.170047 0.000000
0.828946 0.242863 0.000000
1.000000 0.313176 0.000000
1.000000 0.346227 0.000000
1.000000 0.362585 0.000000
0.115419 0.134401 0.115511
0.165164 0.139315 0.110536
0.314549 0.156100 0.097688
0.549340 0.203555 0.000000
0.803647 0.269200 0.000000
1.000000 0.326543 0.000000
1.000000 0.354711 0.000000
1.000000 0.370062 0.000000
0.145480 0.210880 0.117586
0.189181 0.224857 0.103456
0.359136 0.269474 0.001129
0.634760 0.344854 0.000000
0.880827 0.397803 0.000000
1.000000 0.417487 0.000000
1.000000 0.424842 0.000000
1.000000 0.421302 0.000000
0.196445 0.342840 0.102022
0.238865 0.355657 0.069642
0.402258 0.410224 0.000000
0.721614 0.528405 0.000000
0.957336 0.561120 0.000000
1.000000 0.537377 0.000000
1.000000 0.517144 0.000000
1.000000 0.493690 0.000000
0.265019 0.510369 0.000000
0.305547 0.523186 0.000000
0.461707 0.581903 0.000000
0.712551 0.661006 0.000000
0.923033 0.674586 0.000000
1.000000 0.644129 0.000000
1.000000 0.607355 0.000000
1.000000 0.575036 0.000000
0.335973 0.666560 0.000000
0.374945 0.686091 0.000000
0.497902 0.720180 0.000000
0.695766 0.770809 0.000000
0.905516 0.795834 0.000000
1.000000 0.758663 0.000000
1.000000 0.713161 0.000000
1.000000 0.666926 0.000000
0.409613 0.805997 0.000000
0.435828 0.812589 0.000000
0.526848 0.827909 0.000000
0.677058 0.854429 0.000000
0.857694 0.874815 0.000000
1.000000 0.864439 0.000000
1.000000 0.808865 0.000000
1.000000 0.754849 0.000000
0.494942 0.923644 0.037903
0.510704 0.925139 0.000000
0.575219 0.932280 0.000000
0.687434 0.944732 0.000000
0.820859 0.943725 0.000000
0.984222 0.949737 0.000000
1.000000 0.908812 0.000000
1.000000 0.842863 0.000000
0.117891 0.120943 0.139162
0.136263 0.120729 0.137209
0.263951 0.126772 0.128817
0.494759 0.171847 0.088228
0.771359 0.252598 0.000000
0.981140 0.321477 0.000000
1.000000 0.350103 0.000000
1.000000 0.364202 0.000000
0.108492 0.138277 0.140169
0.142824 0.142824 0.142824
0.277592 0.154055 0.129549
0.506157 0.200900 0.071382
0.773373 0.275334 0.000000
0.974273 0.335973 0.000000
1.000000 0.361028 0.000000
1.000000 0.372137 0.000000
0.140352 0.212039 0.152682
0.165988 0.217105 0.146853
0.328985 0.254246 0.110811
0.587884 0.315373 0.000000
0.828214 0.370153 0.000000
0.993774 0.402777 0.000000
1.000000 0.419074 0.000000
1.000000 0.418891 0.000000
0.165347 0.321141 0.146487
0.205325 0.334020 0.134554
0.369604 0.391424 0.000000
0.644434 0.475135 0.000000
0.884611 0.515709 0.000000
1.000000 0.508476 0.000000
1.000000 0.497566 0.000000
1.000000 0.488014 0.000000
0.230503 0.492378 0.097230
0.271397 0.502861 0.039826
0.424018 0.555108 0.000000
0.668879 0.628931 0.000000
0.884459 0.647883 0.000000
1.000000 0.626734 0.000000
1.000000 0.596063 0.000000
1.000000 0.567590 0.000000
0.301884 0.641505 0.000000
0.335973 0.651331 0.000000
0.460731 0.688167 0.000000
0.664454 0.747463 0.000000
0.883970 0.781979 0.000000
1.000000 0.751461 0.000000
1.000000 0.707820 0.000000
1.000000 0.662379 0.000000
0.379034 0.783932 0.000000
0.402747 0.786099 0.000000
0.496254 0.802945 0.000000
0.652003 0.834928 0.000000
0.840208 0.863249 0.000000
1.000000 0.857023 0.000000
1.000000 0.802304 0.000000
1.000000 0.749569 0.000000
0.469459 0.910033 0.041138
0.489174 0.913817 0.015076
0.555535 0.921355 0.000000
0.671687 0.935607 0.000000
0.820462 0.949187 0.000000
0.981689 0.951263 0.000000
1.000000 0.909087 0.000000
1.000000 0.842618 0.000000
0.089906 0.143404 0.230503
0.069551 0.151858 0.231083
0.216648 0.153719 0.219242
0.390661 0.162264 0.249912
0.712734 0.169802 0.184512
0.968292 0.266606 0.050660
1.000000 0.328740 0.000000
1.000000 0.363561 0.000000
0.005035 0.176669 0.232883
0.095308 0.176394 0.235508
0.224125 0.174899 0.226352
0.405829 0.179538 0.238804
0.722560 0.205386 0.180240
0.957763 0.287388 0.035279
1.000000 0.339330 0.000000
1.000000 0.371130 0.000000
0.050172 0.244022 0.251286
0.127321 0.247196 0.253391
0.258122 0.258122 0.258122
0.511559 0.276066 0.227024
0.798886 0.331304 0.168429
0.984741 0.373175 0.000000
1.000000 0.397192 0.000000
1.000000 0.411872 0.000000
0.134737 0.380438 0.277287
0.177340 0.383307 0.276127
0.288670 0.391577 0.247715
0.621088 0.475959 0.180148
0.880766 0.504997 0.105104
1.000000 0.498054 0.000000
1.000000 0.489143 0.000000
1.000000 0.480232 0.000000
0.176272 0.533318 0.269932
0.209293 0.527855 0.261418
0.337133 0.542412 0.228244
0.627832 0.635737 0.120363
0.879057 0.656306 0.000000
1.000000 0.627405 0.000000
1.000000 0.593286 0.000000
1.000000 0.563500 0.000000
0.232303 0.644190 0.239719
0.254490 0.641810 0.232731
0.385992 0.671504 0.199649
0.607691 0.734859 0.000000
0.858244 0.783841 0.000000
1.000000 0.752346 0.000000
1.000000 0.709682 0.000000
1.000000 0.662745 0.000000
0.308965 0.775570 0.226596
0.337743 0.778805 0.217807
0.443030 0.795926 0.180606
0.610010 0.828855 0.000000
0.810910 0.861631 0.000000
0.995636 0.864042 0.000000
1.000000 0.809873 0.000000
1.000000 0.755306 0.000000
0.430915 0.903197 0.283970
0.447425 0.904204 0.275334
0.518395 0.912688 0.249760
0.643305 0.931212 0.194034
0.795712 0.946838 0.000000
0.964996 0.952880 0.000000
1.000000 0.916381 0.000000
1.000000 0.847227 0.000000
0.000000 0.200473 0.389044
0.000000 0.213901 0.395087
0.098207 0.202426 0.394079
0.345617 0.198886 0.351019
0.502556 0.244053 0.408972
0.831693 0.226474 0.365118
1.000000 0.306096 0.321691
1.000000 0.343145 0.242832
0.000000 0.253483 0.405188
0.000000 0.252262 0.407721
0.094392 0.226322 0.406806
0.358862 0.221317 0.364141
0.529442 0.264134 0.421424
0.838193 0.280034 0.373480
1.000000 0.322759 0.321263
1.000000 0.356298 0.244846
0.000000 0.316716 0.419013
0.000000 0.316686 0.420874
0.149996 0.314153 0.425483
0.388678 0.298436 0.392370
0.616449 0.338598 0.437629
0.900816 0.375433 0.395911
1.000000 0.414679 0.355688
1.000000 0.422004 0.278569
0.000000 0.444343 0.460792
0.000000 0.446418 0.462165
0.235477 0.457893 0.469184
0.475898 0.475898 0.475898
0.763027 0.491249 0.445686
0.947631 0.503960 0.409308
1.000000 0.506493 0.362097
1.000000 0.493599 0.281346
0.233646 0.635126 0.516442
0.270695 0.632044 0.513634
0.380713 0.625605 0.506340
0.498360 0.617884 0.455543
0.830137 0.676875 0.442908
0.986633 0.657221 0.441169
1.000000 0.629053 0.403113
1.000000 0.590356 0.312169
0.389624 0.736477 0.528008
0.403235 0.740658 0.527611
0.415595 0.722988 0.484627
0.517723 0.724269 0.430732
0.798459 0.792721 0.422370
0.981079 0.775845 0.424689
1.000000 0.739193 0.414862
1.000000 0.691829 0.348730
0.391913 0.813748 0.482124
0.397620 0.812375 0.474983
0.418311 0.803525 0.439887
0.541070 0.820035 0.408026
0.758846 0.864561 0.384100
0.970123 0.885039 0.387488
1.000000 0.831022 0.383490
1.000000 0.777554 0.320958
0.471504 0.911131 0.500816
0.473396 0.910185 0.493080
0.485878 0.906767 0.461067
0.601007 0.922911 0.443793
0.754421 0.942473 0.399664
0.928222 0.954131 0.345129
1.000000 0.931701 0.336156
1.000000 0.863798 0.263493
0.000000 0.297215 0.593317
0.000000 0.309392 0.598810
0.000000 0.308446 0.598383
0.289311 0.288518 0.577874
0.506249 0.268315 0.514641
0.642847 0.329290 0.552026
0.888457 0.380377 0.573449
1.000000 0.488045 0.549615
0.000000 0.345098 0.607446
0.000000 0.353216 0.611414
0.000000 0.334264 0.611231
0.295811 0.311162 0.586481
0.514977 0.288060 0.523186
0.651087 0.347753 0.560021
0.893797 0.397467 0.573388
1.000000 0.495918 0.551019
0.000000 0.413336 0.620539
0.000000 0.412207 0.621851
0.000000 0.404425 0.622827
0.315740 0.389044 0.613764
0.536065 0.356695 0.542962
0.663813 0.407324 0.575372
0.907378 0.453620 0.565209
1.000000 0.514305 0.544945
0.000000 0.511284 0.642969
0.000000 0.511833 0.643488
0.000000 0.517357 0.648005
0.393072 0.528191 0.651698
0.595331 0.497353 0.599481
0.754574 0.533806 0.617395
0.950347 0.570916 0.592889
1.000000 0.572930 0.554498
0.000000 0.650507 0.673060
0.000000 0.652430 0.674006
0.264652 0.657069 0.674891
0.498665 0.664851 0.674983
0.667903 0.667903 0.667903
0.863035 0.673152 0.647059
0.998413 0.672358 0.620386
1.000000 0.653681 0.572015
0.420844 0.764370 0.677974
0.445106 0.765682 0.679774
0.508354 0.762417 0.677821
0.578180 0.750423 0.666163
0.639551 0.732784 0.609003
0.903044 0.789181 0.643580
1.000000 0.783139 0.656794
1.000000 0.754788 0.620142
0.564202 0.851438 0.705104
0.566064 0.848783 0.701015
0.581598 0.840970 0.689021
0.590021 0.827573 0.648402
0.649866 0.825376 0.584802
0.888731 0.877409 0.607660
1.000000 0.855497 0.619928
1.000000 0.815366 0.586358
0.594324 0.914427 0.693629
0.591577 0.913359 0.687648
0.583673 0.909422 0.662593
0.593591 0.907652 0.623590
0.678676 0.917967 0.582757
0.863310 0.945953 0.568658
1.000000 0.947601 0.586206
1.000000 0.890349 0.562371
0.000000 0.402472 0.773495
0.000000 0.410285 0.775479
0.000000 0.424140 0.773129
0.000000 0.405676 0.767697
0.485969 0.415534 0.742397
0.660121 0.366644 0.670588
0.771633 0.435126 0.684077
0.935454 0.543236 0.734066
0.000000 0.425269 0.765530
0.000000 0.429908 0.765255
0.000000 0.431830 0.763699
0.000000 0.414130 0.758999
0.477150 0.416724 0.730587
0.651026 0.370336 0.661128
0.763943 0.437720 0.677394
0.932067 0.539727 0.726101
0.000000 0.492988 0.775753
0.000000 0.492988 0.776883
0.000000 0.494881 0.781216
0.117372 0.486732 0.772610
0.505669 0.484810 0.744717
0.668605 0.432715 0.677760
0.779263 0.497444 0.696559
0.943908 0.582605 0.731167
0.000000 0.582025 0.795743
0.000000 0.581872 0.794522
0.000000 0.588067 0.794797
0.360937 0.609339 0.800076
0.590265 0.620447 0.783688
0.714626 0.560449 0.721279
0.810941 0.607721 0.739071
0.968658 0.666255 0.748898
0.000000 0.672816 0.793851
0.000000 0.673823 0.793515
0.187167 0.679469 0.793332
0.456031 0.692988 0.794064
0.630030 0.706783 0.791043
0.739803 0.668788 0.743099
0.849973 0.693202 0.754971
0.994354 0.728908 0.746639
0.299657 0.779965 0.801419
0.343359 0.783505 0.804227
0.438514 0.785550 0.803708
0.563561 0.789548 0.803006
0.686183 0.793393 0.800626
0.799832 0.799832 0.799832
0.940948 0.811246 0.794949
1.000000 0.807462 0.775662
0.602289 0.879179 0.822965
0.616999 0.880797 0.825193
0.658747 0.882109 0.827512
0.726619 0.885313 0.832761
0.764126 0.874876 0.820706
0.783902 0.852598 0.762448
0.967376 0.887968 0.795956
1.000000 0.874784 0.791501
0.702571 0.937224 0.832944
0.703365 0.936034 0.831083
0.713710 0.933318 0.827298
0.736263 0.929473 0.820981
0.740566 0.918914 0.786831
0.774746 0.918486 0.725612
0.963989 0.951629 0.755306
1.000000 0.924437 0.763180
0.000000 0.483314 0.872496
0.000000 0.488441 0.873808
0.000000 0.503349 0.873869
0.000000 0.516014 0.871855
0.435523 0.545098 0.860380
0.630549 0.533043 0.831235
0.766629 0.472206 0.777676
0.851530 0.528374 0.774685
0.000000 0.494575 0.868467
0.000000 0.499763 0.870115
0.000000 0.513451 0.870298
0.000000 0.519677 0.866545
0.425208 0.542321 0.855070
0.623529 0.530419 0.824399
0.757565 0.467384 0.768399
0.842557 0.521630 0.765591
0.000000 0.547631 0.874113
0.000000 0.549737 0.873899
0.000000 0.554772 0.872740
0.000000 0.566155 0.869871
0.454536 0.580102 0.858030
0.641321 0.575708 0.829587
0.768917 0.516136 0.778805
0.855711 0.572747 0.782620
0.000000 0.615930 0.879942
0.000000 0.615808 0.878691
0.000000 0.621118 0.877043
0.271763 0.639673 0.875731
0.527184 0.657099 0.867063
0.680781 0.656214 0.843961
0.788205 0.597040 0.796201
0.869383 0.644007 0.803189
0.000000 0.689906 0.878416
0.000000 0.689845 0.877195
0.000000 0.694423 0.875578
0.380346 0.706935 0.874662
0.580652 0.728267 0.871916
0.718044 0.734768 0.855619
0.802213 0.676692 0.807736
0.883299 0.720119 0.825650
0.222049 0.779263 0.880674
0.263279 0.780514 0.880827
0.376165 0.784817 0.880858
0.511772 0.793057 0.880888
0.644495 0.804105 0.880278
0.766323 0.818662 0.879911
0.839017 0.784817 0.841581
0.923827 0.805814 0.854032
0.495186 0.871183 0.891051
0.510338 0.872282 0.891691
0.558831 0.874144 0.891814
0.637385 0.878080 0.892607
0.725948 0.882658 0.892851
0.813046 0.887510 0.892729
0.888731 0.888731 0.888731
0.991608 0.895018 0.883391
0.660273 0.942504 0.898528
0.669062 0.942840 0.899046
0.705867 0.944823 0.902159
0.760403 0.946654 0.905486
0.825528 0.949676 0.910826
0.862089 0.945403 0.905180
0.873594 0.930846 0.856107
1.000000 0.951629 0.889158
0.000000 0.589044 0.945281
0.000000 0.591791 0.945678
0.000000 0.597223 0.944610
0.000000 0.614405 0.944182
0.473854 0.653620 0.937926
0.666163 0.694240 0.926146
0.768215 0.676783 0.909667
0.870085 0.628687 0.879942
0.000000 0.591638 0.943236
0.000000 0.594415 0.943694
0.000000 0.600824 0.943267
0.000000 0.617517 0.942290
0.472358 0.654902 0.936065
0.664790 0.695094 0.924346
0.764858 0.675227 0.906950
0.866178 0.624750 0.876005
0.000000 0.617792 0.943664
0.000000 0.619471 0.943725
0.000000 0.624140 0.942901
0.148653 0.645686 0.942626
0.496773 0.677729 0.936004
0.677455 0.715236 0.924254
0.770291 0.694423 0.907164
0.867399 0.643885 0.876616
0.000000 0.654292 0.943847
0.000000 0.655818 0.943999
0.000000 0.659693 0.943267
0.267521 0.683497 0.941772
0.532372 0.716060 0.937316
0.689876 0.743557 0.928161
0.785306 0.733944 0.911528
0.873960 0.685176 0.882078
0.000000 0.701320 0.943786
0.000000 0.702205 0.944060
0.000000 0.704402 0.943206
0.297765 0.723629 0.941588
0.549584 0.754452 0.938262
0.702480 0.778653 0.931487
0.800900 0.778958 0.916716
0.882139 0.734707 0.888640
0.000000 0.771481 0.943359
0.000000 0.771633 0.942779
0.127901 0.774105 0.941344
0.380133 0.781918 0.940154
0.553857 0.796689 0.939483
0.723659 0.827665 0.939361
0.834531 0.844175 0.932128
0.901335 0.806363 0.905730
0.348943 0.853330 0.945800
0.366918 0.853788 0.945586
0.432929 0.856107 0.944854
0.535576 0.862028 0.944518
0.648157 0.871061 0.944396
0.758022 0.883391 0.945403
0.861997 0.901030 0.948089
0.919402 0.874937 0.921569
0.568322 0.933104 0.953094
0.576989 0.933410 0.953094
0.613275 0.935149 0.953491
0.675013 0.938476 0.954284
0.750088 0.943053 0.955352
0.827939 0.948760 0.956939
0.900359 0.955169 0.959106
0.957763 0.957763 0.957763
