20 Preset/Street 2/【3】LUT video cho PR-AE-FCPX/Tone 1 (28).cube
# Created by Adobe Lightroom plugin Export LUT (1.24.0)
# www.johnrellis.com/lightroom/exportlut.htm
# Preset: 青橙风光-素材江湖28
# Color profile: C:\Program Files (x86)\Common Files\Adobe\Color\Profiles\Recommended\VideoHD.icc
LUT_3D_SIZE 32
DOMAIN_MIN 0.0 0.0 0.0
DOMAIN_MAX 1.0 1.0 1.0
0.168307 0.167300 0.166079
0.168307 0.167300 0.166079
0.168307 0.167300 0.166079
0.168307 0.167300 0.166079
0.194491 0.165896 0.167330
0.228519 0.164401 0.169650
0.259770 0.162356 0.172213
0.291264 0.159792 0.174746
0.323430 0.156100 0.177340
0.356298 0.150546 0.179812
0.388708 0.148775 0.182437
0.421210 0.148043 0.184848
0.454261 0.147433 0.187106
0.487678 0.146242 0.189425
0.520867 0.145388 0.191623
0.553826 0.144900 0.193545
0.586847 0.144717 0.195468
0.620417 0.144808 0.197452
0.654932 0.144411 0.199405
0.690791 0.144015 0.201480
0.727413 0.143008 0.203769
0.780240 0.140993 0.206882
0.831571 0.140658 0.210666
0.876402 0.141970 0.214725
0.915770 0.143862 0.219455
0.950835 0.147616 0.224826
0.983154 0.153140 0.230838
1.000000 0.160464 0.238071
1.000000 0.170077 0.246799
1.000000 0.182742 0.257328
1.000000 0.198489 0.270115
1.000000 0.218479 0.285527
0.168307 0.167300 0.166079
0.168307 0.167300 0.166079
0.168307 0.167300 0.166079
0.168307 0.167300 0.166079
0.194430 0.165896 0.167514
0.227176 0.164462 0.169497
0.257725 0.162448 0.171908
0.288090 0.160067 0.174533
0.319371 0.156588 0.176974
0.351324 0.151980 0.179416
0.382727 0.151125 0.181888
0.414862 0.150057 0.184421
0.447364 0.149447 0.186740
0.480354 0.148287 0.189029
0.513298 0.147616 0.191104
0.546319 0.147097 0.193088
0.579400 0.146883 0.195193
0.613001 0.146792 0.197147
0.647181 0.146609 0.199039
0.682338 0.146151 0.201114
0.718349 0.145327 0.203250
0.768917 0.142672 0.206271
0.817533 0.142733 0.209506
0.860563 0.143069 0.213138
0.899077 0.144381 0.217227
0.933989 0.146487 0.221988
0.966949 0.150057 0.227451
0.998444 0.156191 0.234104
1.000000 0.164370 0.242313
1.000000 0.175509 0.252323
1.000000 0.190433 0.264683
1.000000 0.209354 0.279606
0.168307 0.167300 0.166079
0.168307 0.167300 0.166079
0.168307 0.167300 0.166079
0.168643 0.167269 0.166079
0.198428 0.165866 0.167605
0.229099 0.164492 0.169436
0.258274 0.162692 0.172061
0.287694 0.160189 0.174350
0.317632 0.157870 0.177066
0.347539 0.157290 0.179507
0.378424 0.156832 0.182162
0.410193 0.156008 0.184390
0.442267 0.155459 0.186618
0.474830 0.154879 0.188907
0.507500 0.154299 0.190921
0.540185 0.153567 0.192996
0.573175 0.153597 0.194827
0.606561 0.153414 0.196841
0.640925 0.153079 0.198642
0.676204 0.152529 0.200778
0.712337 0.151705 0.202823
0.763027 0.149660 0.205997
0.810239 0.149264 0.209140
0.852384 0.149325 0.212467
0.890043 0.150332 0.216312
0.924773 0.151461 0.220645
0.957855 0.154543 0.226108
0.989868 0.159518 0.232425
1.000000 0.166232 0.240299
1.000000 0.176120 0.249943
1.000000 0.189670 0.261936
1.000000 0.207523 0.276402
0.168215 0.167483 0.166049
0.168490 0.167453 0.166232
0.168246 0.167819 0.166201
0.177279 0.168521 0.166629
0.204898 0.168978 0.168429
0.231724 0.169162 0.170504
0.258732 0.169039 0.172763
0.285863 0.168948 0.175174
0.314458 0.168856 0.177859
0.343938 0.168246 0.180179
0.374426 0.167758 0.182528
0.405249 0.167178 0.184512
0.437049 0.166690 0.186801
0.469001 0.166140 0.188846
0.500969 0.165560 0.190799
0.532860 0.165499 0.192630
0.565057 0.164950 0.194675
0.597589 0.165072 0.196658
0.631037 0.164492 0.198489
0.665431 0.164401 0.200351
0.700832 0.163088 0.202335
0.750088 0.162753 0.205142
0.795377 0.161654 0.208072
0.837278 0.161501 0.211246
0.876463 0.161654 0.214969
0.913573 0.162783 0.219333
0.949371 0.164950 0.224704
0.983764 0.168582 0.231296
1.000000 0.174655 0.239170
1.000000 0.183780 0.248905
1.000000 0.196078 0.260563
1.000000 0.211490 0.274327
0.160983 0.187045 0.167086
0.161135 0.187350 0.166873
0.165835 0.187686 0.166537
0.181521 0.186374 0.167697
0.202701 0.184848 0.171145
0.227756 0.184695 0.173068
0.253117 0.184512 0.175051
0.279881 0.184054 0.177188
0.307561 0.183627 0.179141
0.336370 0.182986 0.181033
0.366400 0.182193 0.183017
0.397101 0.181674 0.185031
0.428351 0.181308 0.187106
0.460273 0.181033 0.189029
0.492348 0.180667 0.190860
0.524590 0.180606 0.192691
0.557458 0.180301 0.194583
0.590631 0.180209 0.196292
0.624475 0.180117 0.198398
0.659205 0.179477 0.200168
0.697780 0.178836 0.202365
0.744747 0.178561 0.205051
0.788510 0.178256 0.207919
0.830014 0.177981 0.210819
0.869535 0.177768 0.214603
0.907347 0.178775 0.218692
0.943633 0.180331 0.224094
0.978393 0.183139 0.230411
1.000000 0.187961 0.238376
1.000000 0.195499 0.247745
1.000000 0.205570 0.259129
1.000000 0.219211 0.272374
0.163272 0.206119 0.167941
0.164309 0.206302 0.168063
0.169009 0.206455 0.167575
0.184146 0.204929 0.168429
0.204532 0.201755 0.172030
0.224521 0.200381 0.176455
0.250309 0.200931 0.178592
0.276158 0.200351 0.179934
0.303471 0.200290 0.181521
0.332128 0.199893 0.182742
0.362188 0.199435 0.184543
0.392462 0.199130 0.186099
0.423682 0.199100 0.187808
0.455482 0.199069 0.189578
0.487678 0.198886 0.191287
0.520470 0.198795 0.193118
0.553643 0.198520 0.194980
0.587335 0.198489 0.196811
0.621637 0.198123 0.198642
0.656489 0.197787 0.200534
0.699825 0.198032 0.202945
0.745541 0.198581 0.205264
0.866911 0.209201 0.214817
0.910887 0.211551 0.220066
0.949279 0.214817 0.225864
0.983398 0.218631 0.232670
1.000000 0.222995 0.240452
1.000000 0.228702 0.249088
1.000000 0.236271 0.259129
1.000000 0.245640 0.270695
1.000000 0.256992 0.283848
1.000000 0.270848 0.298619
0.170352 0.231144 0.168765
0.171603 0.231266 0.168887
0.176608 0.231113 0.168276
0.193210 0.229007 0.170474
0.212619 0.226047 0.173709
0.232242 0.222110 0.177768
0.254215 0.221225 0.182315
0.283543 0.223087 0.184176
0.311131 0.221958 0.185489
0.340948 0.222416 0.186465
0.372259 0.222477 0.187564
0.403906 0.222904 0.188998
0.435981 0.222904 0.190402
0.468177 0.222751 0.191897
0.500511 0.222507 0.193332
0.532799 0.222232 0.194980
0.565820 0.221897 0.196628
0.599542 0.221530 0.198245
0.634302 0.221286 0.200076
0.674678 0.221744 0.202121
0.728664 0.224247 0.205081
0.782498 0.226352 0.208194
0.834195 0.228763 0.212009
0.883116 0.231510 0.216983
0.927337 0.234409 0.223056
0.965179 0.237705 0.229679
0.998047 0.240726 0.237095
1.000000 0.244663 0.245426
1.000000 0.250065 0.254917
1.000000 0.256657 0.265660
1.000000 0.265782 0.278141
1.000000 0.277104 0.292210
0.177310 0.249790 0.168887
0.178744 0.249699 0.168887
0.185794 0.248966 0.169619
0.199496 0.247227 0.171267
0.216526 0.244724 0.173800
0.235966 0.241306 0.177188
0.252873 0.236332 0.181613
0.277043 0.237430 0.185946
0.306767 0.240177 0.187411
0.335058 0.240208 0.188540
0.365332 0.240085 0.189883
0.396185 0.241032 0.190799
0.427649 0.241520 0.191897
0.459205 0.241794 0.193118
0.491066 0.241978 0.194430
0.522850 0.241947 0.195682
0.555749 0.241764 0.197238
0.589319 0.241642 0.198764
0.623957 0.241581 0.200473
0.671626 0.244266 0.202701
0.720851 0.246860 0.205325
0.771328 0.249149 0.208072
0.820829 0.251652 0.211734
0.868254 0.254154 0.216190
0.912139 0.256840 0.221592
0.950530 0.259098 0.227848
0.984314 0.261357 0.234928
1.000000 0.264042 0.242771
1.000000 0.267796 0.252171
1.000000 0.273136 0.262425
1.000000 0.280064 0.274601
1.000000 0.289586 0.288457
0.189639 0.268315 0.169528
0.191257 0.268193 0.169345
0.196994 0.267491 0.170260
0.208133 0.266056 0.171572
0.223148 0.263920 0.173434
0.241093 0.261021 0.176486
0.259495 0.257542 0.179995
0.275486 0.252140 0.185397
0.300816 0.254520 0.189364
0.331579 0.258274 0.190372
0.360967 0.259159 0.191531
0.391089 0.259312 0.192966
0.422095 0.259953 0.194217
0.453254 0.260807 0.195041
0.484779 0.261295 0.196017
0.516442 0.261662 0.197116
0.548882 0.261845 0.198245
0.582300 0.261936 0.199771
0.625330 0.264897 0.201785
0.669795 0.267521 0.203738
0.716030 0.270024 0.206119
0.764034 0.272892 0.208621
0.811582 0.275547 0.211856
0.857847 0.278111 0.216007
0.901030 0.280552 0.221225
0.939483 0.282322 0.227146
0.973785 0.284001 0.233982
1.000000 0.286015 0.241672
1.000000 0.288914 0.250645
1.000000 0.292821 0.260899
1.000000 0.298436 0.272953
1.000000 0.306096 0.286625
0.202518 0.287602 0.169284
0.203769 0.287449 0.169467
0.208255 0.286778 0.170077
0.217899 0.285374 0.171420
0.230900 0.283543 0.172946
0.247257 0.280735 0.175570
0.264958 0.277623 0.178775
0.283085 0.274113 0.182559
0.298711 0.268620 0.188693
0.324834 0.271580 0.192233
0.356054 0.275914 0.193332
0.384955 0.277165 0.194278
0.415076 0.277775 0.195743
0.445747 0.277745 0.197391
0.477516 0.279179 0.198032
0.509819 0.280369 0.199039
0.544671 0.282078 0.200229
0.585687 0.285466 0.201907
0.627161 0.288487 0.203403
0.669551 0.291356 0.205234
0.713191 0.293950 0.207279
0.757382 0.296300 0.209506
0.800809 0.298405 0.212222
0.843107 0.300328 0.215793
0.883513 0.301762 0.220249
0.920928 0.303166 0.225345
0.955932 0.304204 0.231601
0.988586 0.305730 0.238895
1.000000 0.308171 0.247684
1.000000 0.311437 0.258000
1.000000 0.316381 0.270268
1.000000 0.323400 0.284092
0.213779 0.305608 0.168917
0.214725 0.305455 0.169100
0.218997 0.304997 0.169497
0.227237 0.303990 0.170443
0.239048 0.302678 0.172061
0.253819 0.300694 0.174228
0.271153 0.298070 0.177066
0.289372 0.295079 0.180484
0.307897 0.291997 0.184726
0.324102 0.286748 0.191897
0.351049 0.290196 0.195346
0.382513 0.294743 0.196384
0.411688 0.296574 0.197299
0.441932 0.297520 0.198459
0.473152 0.298039 0.200046
0.509819 0.300938 0.201724
0.547570 0.304662 0.202823
0.586053 0.307805 0.204257
0.625299 0.310887 0.205539
0.665553 0.313634 0.206912
0.707240 0.316136 0.208591
0.749660 0.318822 0.210544
0.791958 0.321324 0.213046
0.833494 0.323156 0.216373
0.873503 0.324865 0.220584
0.911040 0.326268 0.225376
0.946410 0.327337 0.231601
0.979736 0.328679 0.238682
1.000000 0.330602 0.247379
1.000000 0.333532 0.257786
1.000000 0.337774 0.269841
1.000000 0.343816 0.283818
0.226017 0.326116 0.167514
0.227054 0.326055 0.167514
0.230777 0.325658 0.168093
0.238163 0.324895 0.168826
0.248936 0.323857 0.170413
0.262943 0.322118 0.172396
0.279454 0.320195 0.175143
0.297490 0.317723 0.178378
0.316350 0.314977 0.182315
0.335302 0.311833 0.187076
0.351965 0.306523 0.195651
0.379828 0.310491 0.198611
0.436408 0.331853 0.201877
0.474861 0.338018 0.203464
0.514000 0.342657 0.205264
0.554101 0.346380 0.207401
0.594446 0.348943 0.209537
0.636042 0.352575 0.211124
0.678187 0.356329 0.212131
0.721218 0.359960 0.213474
0.763577 0.363012 0.215274
0.804501 0.365332 0.217899
0.844053 0.366979 0.221256
0.882170 0.368353 0.225406
0.917784 0.369329 0.230411
0.950622 0.369512 0.236484
0.980560 0.369360 0.243381
1.000000 0.369268 0.251255
1.000000 0.369909 0.260227
1.000000 0.371527 0.270726
1.000000 0.374487 0.283024
1.000000 0.379431 0.297154
0.243687 0.356817 0.164401
0.244358 0.356664 0.164462
0.247593 0.355932 0.164981
0.254643 0.354742 0.165927
0.264286 0.353094 0.167514
0.277379 0.350866 0.169650
0.293187 0.348486 0.172335
0.310796 0.345922 0.175570
0.329839 0.343328 0.179568
0.350164 0.341009 0.184176
0.374182 0.341466 0.190066
0.397009 0.339818 0.200931
0.433295 0.348638 0.204471
0.473854 0.358190 0.206027
0.512749 0.364599 0.207584
0.550896 0.368719 0.208865
0.588952 0.371435 0.210788
0.627070 0.373114 0.212833
0.665888 0.374578 0.214694
0.705806 0.377813 0.215610
0.745846 0.380682 0.217014
0.785489 0.383246 0.218967
0.824155 0.385260 0.221561
0.862211 0.386938 0.225284
0.898466 0.388128 0.229923
0.932464 0.388800 0.235294
0.964172 0.389075 0.242008
0.993896 0.389380 0.249638
1.000000 0.390173 0.258671
1.000000 0.391852 0.269505
1.000000 0.394537 0.281926
1.000000 0.398932 0.296391
0.254978 0.376440 0.161654
0.255436 0.376318 0.161898
0.258976 0.375769 0.162387
0.265141 0.375006 0.163210
0.274632 0.374029 0.164584
0.286870 0.372869 0.166567
0.302556 0.371740 0.169039
0.320653 0.370459 0.172396
0.340734 0.369451 0.176242
0.362676 0.368872 0.180789
0.386114 0.368688 0.186221
0.409064 0.367376 0.193240
0.433692 0.366369 0.205814
0.470039 0.374914 0.208530
0.509209 0.383246 0.209720
0.546471 0.388525 0.211002
0.582452 0.391608 0.212284
0.618555 0.393713 0.213748
0.655695 0.395239 0.215488
0.693233 0.396094 0.217777
0.731960 0.398474 0.219242
0.771023 0.401465 0.220920
0.809567 0.404059 0.223148
0.847837 0.406378 0.226474
0.884642 0.408087 0.230808
0.919432 0.409339 0.235843
0.952117 0.409979 0.242252
0.982849 0.410590 0.249851
1.000000 0.411383 0.259068
1.000000 0.413153 0.269627
1.000000 0.415808 0.282353
1.000000 0.419989 0.297032
0.271489 0.406775 0.158022
0.272221 0.406531 0.157931
0.275090 0.405737 0.158419
0.280705 0.404425 0.159243
0.289403 0.402564 0.160525
0.301030 0.400610 0.162478
0.315312 0.398566 0.164797
0.332311 0.396887 0.168185
0.351629 0.395453 0.171847
0.372869 0.394629 0.176486
0.395789 0.394263 0.181857
0.420233 0.394202 0.188083
0.441108 0.390845 0.196780
0.467872 0.391058 0.210239
0.503777 0.399084 0.212375
0.541070 0.406043 0.213138
0.577173 0.410559 0.214267
0.611963 0.413275 0.215457
0.647669 0.415320 0.216678
0.684077 0.416938 0.218448
0.721553 0.418280 0.220798
0.759457 0.419593 0.223484
0.797665 0.422644 0.225498
0.835477 0.425483 0.228458
0.872374 0.427649 0.232212
0.907774 0.429419 0.237369
0.941680 0.430732 0.243503
0.973999 0.432166 0.251255
1.000000 0.433875 0.260807
1.000000 0.436469 0.272404
1.000000 0.440162 0.286229
1.000000 0.445289 0.302373
0.285344 0.432166 0.153750
0.286015 0.432166 0.153719
0.289006 0.431647 0.154269
0.294102 0.430762 0.154940
0.302678 0.429480 0.156435
0.314061 0.427924 0.158114
0.328466 0.426612 0.160372
0.345434 0.425299 0.163149
0.364721 0.424323 0.166781
0.385718 0.423346 0.171298
0.408148 0.422309 0.176699
0.431250 0.421302 0.182986
0.454719 0.419898 0.189914
0.472114 0.413062 0.200412
0.498238 0.412696 0.214664
0.532097 0.419287 0.215366
0.567773 0.425177 0.216281
0.603052 0.429633 0.217075
0.637629 0.432593 0.218051
0.673732 0.435279 0.219516
0.711299 0.437964 0.221500
0.749569 0.440223 0.224125
0.787869 0.441871 0.227909
0.826352 0.444800 0.231174
0.864164 0.448035 0.235111
0.900694 0.450782 0.240146
0.935607 0.453162 0.246372
0.968872 0.455177 0.254612
1.000000 0.457343 0.264469
1.000000 0.459937 0.276066
1.000000 0.463264 0.289891
1.000000 0.467811 0.305913
0.297826 0.455360 0.149050
0.298680 0.455177 0.149325
0.300908 0.454749 0.149691
0.306249 0.454017 0.150301
0.314244 0.453071 0.151919
0.325200 0.451728 0.153597
0.338933 0.450446 0.155581
0.355169 0.449165 0.158541
0.373480 0.447944 0.161929
0.393622 0.446815 0.165713
0.415320 0.445624 0.170932
0.437964 0.444526 0.177249
0.461250 0.443061 0.184054
0.484138 0.441108 0.191867
0.500908 0.433661 0.203861
0.526879 0.433143 0.218357
0.560418 0.439551 0.218784
0.595880 0.445533 0.219333
0.631586 0.450416 0.220249
0.666835 0.453925 0.221073
0.703914 0.457679 0.222812
0.742061 0.460853 0.225315
0.780240 0.463539 0.228489
0.818662 0.465766 0.233036
0.856718 0.467933 0.238437
0.894072 0.471626 0.243503
0.929900 0.474861 0.250126
0.963989 0.477821 0.258457
0.996246 0.480659 0.268833
1.000000 0.483742 0.280980
1.000000 0.487495 0.295415
1.000000 0.492226 0.312108
0.311711 0.480781 0.142794
0.312413 0.481025 0.143008
0.329747 0.506035 0.137545
0.335058 0.505364 0.138460
0.343420 0.504265 0.139956
0.354437 0.502800 0.142214
0.368109 0.501183 0.145144
0.384741 0.499428 0.148104
0.403449 0.498024 0.152316
0.424506 0.496529 0.156924
0.446815 0.495033 0.162295
0.469978 0.493172 0.168338
0.493355 0.490761 0.175937
0.516594 0.487648 0.184787
0.538964 0.483650 0.194064
0.554376 0.473976 0.209537
0.580163 0.472358 0.224582
0.613306 0.477546 0.224552
0.647883 0.482460 0.224887
0.683680 0.486793 0.225559
0.718563 0.489662 0.226841
0.754726 0.492744 0.229191
0.791379 0.495216 0.232578
0.827726 0.497047 0.237125
0.863035 0.497749 0.242832
0.897215 0.497871 0.249577
0.930358 0.499580 0.256352
0.962432 0.501793 0.264164
0.993500 0.504326 0.274235
1.000000 0.507347 0.286778
1.000000 0.511315 0.301518
1.000000 0.516014 0.318639
0.330205 0.513878 0.132601
0.332158 0.516289 0.132265
0.336065 0.518669 0.131533
0.342596 0.520409 0.131960
0.351080 0.521263 0.132998
0.361639 0.520775 0.135103
0.374975 0.519432 0.137850
0.390234 0.517601 0.141207
0.407782 0.515984 0.145144
0.427588 0.514305 0.149722
0.448737 0.512688 0.154849
0.470893 0.510948 0.161135
0.493629 0.508537 0.168460
0.516411 0.505730 0.177096
0.538781 0.502342 0.186374
0.560571 0.498207 0.196048
0.576165 0.488746 0.212894
0.602960 0.488441 0.227085
0.637354 0.494789 0.227085
0.673579 0.501030 0.227604
0.710231 0.506310 0.228794
0.746700 0.510704 0.230777
0.783322 0.514397 0.233890
0.819638 0.517113 0.238254
0.854948 0.518883 0.243748
0.889189 0.519768 0.250431
0.922393 0.520043 0.258885
0.954620 0.521263 0.267948
0.986084 0.524163 0.278019
1.000000 0.527703 0.290593
1.000000 0.531975 0.305760
1.000000 0.537102 0.323430
0.341070 0.534051 0.122713
0.343236 0.536614 0.121462
0.347173 0.539300 0.121004
0.353002 0.541405 0.121004
0.361547 0.542626 0.121981
0.371832 0.542321 0.123873
0.384100 0.541222 0.126619
0.398810 0.539513 0.130861
0.415564 0.537774 0.135195
0.434302 0.535973 0.139773
0.454566 0.534234 0.145449
0.476234 0.532525 0.151919
0.498360 0.530388 0.159762
0.521080 0.527947 0.168521
0.543633 0.524895 0.177951
0.565881 0.521263 0.187716
0.585962 0.515892 0.199069
0.603418 0.508019 0.216861
0.631678 0.508934 0.230106
0.666835 0.516045 0.230289
0.703182 0.522423 0.231113
0.740017 0.528252 0.233036
0.776791 0.533135 0.235996
0.813230 0.537102 0.240024
0.848478 0.539757 0.245518
0.882719 0.541436 0.252049
0.915801 0.542382 0.260380
0.948089 0.542962 0.270542
0.979644 0.544091 0.282689
1.000000 0.548058 0.295445
1.000000 0.552636 0.310796
1.000000 0.558068 0.328923
0.352941 0.556847 0.106966
0.355077 0.559350 0.105623
0.358679 0.561852 0.104799
0.364385 0.563806 0.104829
0.372351 0.564996 0.105653
0.382055 0.564813 0.108217
0.394079 0.563684 0.111543
0.407935 0.562249 0.116121
0.424018 0.560723 0.121096
0.442206 0.559075 0.126375
0.461952 0.557397 0.132876
0.483040 0.555840 0.140841
0.504814 0.554040 0.149508
0.527398 0.551720 0.158480
0.550225 0.549157 0.168399
0.573266 0.546380 0.178714
0.596429 0.543572 0.189334
0.615778 0.537438 0.202457
0.639033 0.534020 0.221317
0.671473 0.538018 0.234653
0.709987 0.547356 0.235782
0.748989 0.555657 0.238010
0.787533 0.562860 0.241611
0.825956 0.569085 0.246799
0.862943 0.573754 0.253605
0.897917 0.576867 0.261936
0.931151 0.578943 0.271946
0.963073 0.580438 0.284123
0.993866 0.582177 0.298650
1.000000 0.584253 0.315862
1.000000 0.588800 0.334173
1.000000 0.594842 0.354376
0.376318 0.599268 0.041718
0.377325 0.600519 0.038331
0.379889 0.601251 0.039185
0.384405 0.601312 0.041688
0.391363 0.600793 0.048341
0.400122 0.599512 0.059174
0.411292 0.597986 0.071168
0.424842 0.596399 0.085786
0.440711 0.594781 0.094118
0.458717 0.593591 0.103304
0.478340 0.592432 0.112978
0.499611 0.591119 0.122774
0.521721 0.589349 0.133333
0.544549 0.587274 0.144411
0.567803 0.584710 0.155428
0.591302 0.581964 0.167056
0.614862 0.578912 0.178500
0.638361 0.575891 0.190249
0.655482 0.567285 0.206485
0.681422 0.565393 0.227146
0.713375 0.568963 0.240360
0.749783 0.576684 0.242405
0.786069 0.583246 0.245731
0.821286 0.588373 0.249973
0.857206 0.593378 0.256382
0.892210 0.597375 0.264927
0.925811 0.600519 0.275364
0.958068 0.602991 0.287968
0.988952 0.605402 0.302983
1.000000 0.607904 0.320653
1.000000 0.610895 0.340978
1.000000 0.615747 0.362646
0.389471 0.626459 0.000000
0.390631 0.627375 0.000000
0.393011 0.628107 0.000000
0.397375 0.628412 0.000000
0.403937 0.628046 0.000000
0.412421 0.627192 0.000000
0.423346 0.625910 0.000000
0.436469 0.624567 0.013153
0.451881 0.623316 0.038361
0.469673 0.622248 0.065644
0.489052 0.621210 0.089631
0.510155 0.620081 0.103151
0.532311 0.618647 0.115816
0.555474 0.617029 0.128511
0.579248 0.615076 0.141115
0.603388 0.612909 0.153933
0.628077 0.610681 0.166659
0.652705 0.608240 0.179782
0.677607 0.605829 0.192660
0.693446 0.595758 0.211856
0.722927 0.596429 0.234592
0.755581 0.600610 0.248112
0.791592 0.607935 0.251713
0.826627 0.613947 0.256565
0.848631 0.609522 0.258701
0.882780 0.613916 0.266697
0.916716 0.618067 0.277043
0.949248 0.621515 0.289769
0.980560 0.624628 0.305150
1.000000 0.627893 0.323125
1.000000 0.631647 0.344121
1.000000 0.636133 0.367834
0.409094 0.667231 0.000000
0.410651 0.668971 0.000000
0.413184 0.669612 0.000000
0.416938 0.669093 0.000000
0.422553 0.667475 0.000000
0.430243 0.665156 0.000000
0.439765 0.662379 0.000000
0.451606 0.659388 0.000000
0.465858 0.656458 0.000000
0.482033 0.653803 0.000000
0.500008 0.651026 0.021454
0.519890 0.648676 0.061616
0.540826 0.646235 0.093690
0.562615 0.643366 0.110384
0.584985 0.640070 0.125856
0.607813 0.636713 0.140383
0.631220 0.633387 0.154818
0.655360 0.630610 0.168429
0.680354 0.628351 0.182071
0.706264 0.626825 0.196109
0.723415 0.617762 0.217685
0.753231 0.618738 0.242130
0.785458 0.623041 0.255222
0.819120 0.628809 0.259709
0.850858 0.632715 0.265263
0.880735 0.634943 0.271916
0.911894 0.637934 0.281376
0.943236 0.641138 0.293645
0.973663 0.644221 0.308690
1.000000 0.647486 0.326360
1.000000 0.651301 0.347295
1.000000 0.655970 0.371221
0.417060 0.691371 0.000000
0.418769 0.693080 0.000000
0.421332 0.693996 0.000000
0.425269 0.694026 0.000000
0.431189 0.693385 0.000000
0.439338 0.692256 0.000000
0.449775 0.691035 0.000000
0.462593 0.689723 0.000000
0.477790 0.688411 0.000000
0.494881 0.687221 0.000000
0.513817 0.685695 0.000000
0.534203 0.684138 0.000000
0.555779 0.682185 0.025177
0.578119 0.679713 0.078920
0.600793 0.676722 0.104341
0.623987 0.673365 0.123201
0.647791 0.670039 0.140230
0.672145 0.667140 0.156252
0.697597 0.664851 0.171633
0.723934 0.663294 0.187137
0.750759 0.662135 0.202487
0.768551 0.652796 0.228214
0.797574 0.653071 0.255558
0.829038 0.656947 0.269413
0.860716 0.661677 0.276158
0.890562 0.664576 0.284184
0.918486 0.666102 0.293339
0.947417 0.668482 0.305486
0.977111 0.672023 0.321874
1.000000 0.675563 0.340917
1.000000 0.679530 0.362799
1.000000 0.684230 0.387701
0.430823 0.726589 0.000000
0.431861 0.727413 0.000000
0.434058 0.727749 0.000000
0.437842 0.727443 0.000000
0.443641 0.726680 0.000000
0.451698 0.725429 0.000000
0.461738 0.724056 0.000000
0.474220 0.722530 0.000000
0.489082 0.721004 0.000000
0.505913 0.719661 0.000000
0.524773 0.718074 0.000000
0.545251 0.716609 0.000000
0.566949 0.714870 0.000000
0.589441 0.712673 0.008545
0.612390 0.709804 0.071290
0.635798 0.706600 0.104433
0.659785 0.703395 0.125612
0.684688 0.700557 0.144503
0.710506 0.698360 0.161715
0.737179 0.696895 0.178836
0.764492 0.695766 0.195682
0.791104 0.694118 0.213352
0.808865 0.684504 0.242405
0.836149 0.683406 0.272404
0.865324 0.686030 0.286168
0.894072 0.688899 0.294499
0.921141 0.690303 0.304021
0.946410 0.690608 0.314733
0.972869 0.692317 0.329046
1.000000 0.696345 0.348638
1.000000 0.700618 0.371191
1.000000 0.706081 0.397498
0.440314 0.757443 0.000000
0.441382 0.758114 0.000000
0.443702 0.758572 0.000000
0.447730 0.758633 0.000000
0.453773 0.758663 0.000000
0.462593 0.758877 0.000000
0.474464 0.759915 0.000000
0.488960 0.761349 0.000000
0.506218 0.763180 0.000000
0.525902 0.765316 0.000000
0.547662 0.767544 0.000000
0.571038 0.769345 0.000000
0.595697 0.770657 0.000000
0.620905 0.771023 0.000000
0.646693 0.770352 0.034577
0.672145 0.768399 0.096712
0.697871 0.765988 0.123293
0.724239 0.763546 0.146304
0.751431 0.761654 0.166873
0.779232 0.760250 0.187045
0.807492 0.759121 0.206485
0.835721 0.757992 0.225895
0.859831 0.753475 0.247196
0.878202 0.743740 0.280766
0.901579 0.739651 0.315801
0.926513 0.739742 0.331426
0.950683 0.739834 0.343267
0.973205 0.739071 0.355779
0.994354 0.737758 0.369299
1.000000 0.738216 0.386877
1.000000 0.742641 0.412360
1.000000 0.748135 0.441047
0.465095 0.812314 0.000000
0.465644 0.812253 0.000000
0.467323 0.811978 0.000000
0.470893 0.811429 0.000000
0.476783 0.810666 0.000000
0.484932 0.809812 0.000000
0.495583 0.809049 0.000000
0.508690 0.808347 0.000000
0.524193 0.807828 0.000000
0.542107 0.807401 0.000000
0.562066 0.806943 0.000000
0.583673 0.806516 0.000000
0.606806 0.805814 0.000000
0.630976 0.804746 0.000000
