20 Preset/Street 2/【3】LUT video cho PR-AE-FCPX/Tone 1 (25).cube
# Created by Adobe Lightroom plugin Export LUT (1.24.0)
# www.johnrellis.com/lightroom/exportlut.htm
# Preset: 青橙风光-素材江湖25
# Color profile: C:\Program Files (x86)\Common Files\Adobe\Color\Profiles\Recommended\VideoHD.icc
LUT_3D_SIZE 32
DOMAIN_MIN 0.0 0.0 0.0
DOMAIN_MAX 1.0 1.0 1.0
0.087373 0.120455 0.126711
0.087373 0.120455 0.126711
0.087373 0.120455 0.126711
0.100282 0.121645 0.128542
0.123079 0.124727 0.132601
0.143221 0.128664 0.137789
0.162783 0.132540 0.142611
0.181521 0.135470 0.146639
0.199496 0.138918 0.150607
0.217227 0.141909 0.154208
0.235477 0.144961 0.157778
0.253880 0.147860 0.161379
0.272953 0.150301 0.164858
0.292546 0.152834 0.168429
0.313268 0.154696 0.172030
0.334783 0.156649 0.175570
0.357946 0.158145 0.179202
0.383154 0.159243 0.182742
0.410651 0.159182 0.186496
0.441230 0.158541 0.190311
0.483253 0.155734 0.195193
0.533715 0.150118 0.200687
0.584710 0.142153 0.206027
0.637446 0.131533 0.211154
0.691157 0.117891 0.216587
0.746517 0.102419 0.222141
0.805295 0.084779 0.228275
0.866392 0.071168 0.235233
0.929259 0.094942 0.243748
0.992248 0.136965 0.254734
1.000000 0.193393 0.269932
1.000000 0.258335 0.291447
0.087373 0.120455 0.126711
0.087373 0.120455 0.126711
0.087373 0.120455 0.126711
0.100282 0.121645 0.128542
0.122591 0.124758 0.132601
0.142489 0.128786 0.137545
0.161410 0.132265 0.142458
0.179721 0.136019 0.146609
0.197543 0.139315 0.150393
0.215274 0.142336 0.154025
0.233219 0.145266 0.157443
0.251591 0.148013 0.161074
0.270390 0.150546 0.164553
0.289982 0.152956 0.168154
0.310307 0.155001 0.171603
0.331823 0.157046 0.175174
0.354864 0.158450 0.178836
0.379614 0.159457 0.182437
0.406744 0.159731 0.186038
0.436622 0.159182 0.189792
0.476753 0.156741 0.194522
0.523674 0.151980 0.199741
0.571283 0.145144 0.204593
0.620691 0.135714 0.209628
0.671809 0.123751 0.214725
0.724758 0.109285 0.219974
0.781704 0.092683 0.225772
0.842557 0.074037 0.232547
0.906401 0.084199 0.240513
0.971496 0.120485 0.250736
1.000000 0.174441 0.264652
1.000000 0.239322 0.284489
0.087190 0.120455 0.126986
0.087190 0.120455 0.126986
0.088258 0.120394 0.126986
0.101106 0.122652 0.128908
0.122133 0.126650 0.133120
0.140688 0.131472 0.138643
0.159426 0.135897 0.143404
0.177981 0.139071 0.147372
0.196139 0.142031 0.150942
0.214115 0.144747 0.154574
0.232212 0.147585 0.157961
0.250736 0.150057 0.161440
0.269627 0.152560 0.164889
0.289128 0.154971 0.168490
0.309545 0.156985 0.171939
0.331060 0.158816 0.175509
0.354070 0.160250 0.179019
0.378882 0.161227 0.182589
0.406012 0.161532 0.186191
0.435706 0.160922 0.189975
0.475990 0.158663 0.194675
0.521386 0.154421 0.199680
0.567407 0.148043 0.204532
0.615045 0.139528 0.209201
0.664546 0.128847 0.214084
0.715969 0.115480 0.219303
0.771695 0.100984 0.224887
0.831998 0.088655 0.231327
0.895659 0.090059 0.239109
0.961120 0.119356 0.249058
1.000000 0.169253 0.262333
1.000000 0.231937 0.281224
0.092409 0.127962 0.133883
0.092775 0.128206 0.134096
0.093629 0.128664 0.134249
0.101015 0.129946 0.131533
0.117281 0.134829 0.136263
0.136172 0.139559 0.141604
0.156161 0.142916 0.145663
0.175692 0.145602 0.149142
0.194827 0.147829 0.152712
0.213321 0.150149 0.156100
0.231968 0.152560 0.159304
0.250797 0.154665 0.162722
0.270146 0.156954 0.166140
0.289921 0.159213 0.169711
0.310460 0.160891 0.172976
0.331884 0.162661 0.176516
0.354772 0.163882 0.179843
0.379126 0.164981 0.183413
0.405829 0.165072 0.186893
0.434852 0.164614 0.190524
0.474006 0.162509 0.194980
0.516167 0.158938 0.199619
0.559625 0.153811 0.204105
0.605829 0.146365 0.208652
0.655299 0.136690 0.213626
0.708095 0.125124 0.218814
0.765713 0.112062 0.224643
0.827817 0.101503 0.231327
0.892699 0.103700 0.239048
0.958434 0.130037 0.248875
1.000000 0.174990 0.261784
1.000000 0.232944 0.279698
0.100893 0.139834 0.145449
0.101320 0.140047 0.145418
0.102358 0.140200 0.145388
0.104860 0.140932 0.144594
0.115999 0.142489 0.139254
0.134005 0.145968 0.142336
0.150179 0.151614 0.149111
0.171023 0.154055 0.152071
0.191348 0.156252 0.155093
0.211032 0.158053 0.158236
0.230655 0.160006 0.161410
0.250309 0.161837 0.164797
0.270298 0.163668 0.167971
0.290776 0.165591 0.171481
0.312078 0.167147 0.174838
0.334417 0.168673 0.178286
0.358099 0.169711 0.181704
0.383429 0.170474 0.185031
0.410681 0.170535 0.188418
0.441413 0.169894 0.192203
0.480354 0.167971 0.196567
0.520867 0.164920 0.200900
0.563165 0.160159 0.205264
0.608881 0.153414 0.209751
0.657649 0.145235 0.214420
0.710445 0.135348 0.219608
0.767056 0.125704 0.225284
0.828031 0.118685 0.231724
0.891569 0.123354 0.239322
0.955810 0.145266 0.248905
1.000000 0.185428 0.261448
1.000000 0.238743 0.278660
0.109224 0.150240 0.154665
0.109224 0.150240 0.154665
0.109895 0.150179 0.154452
0.112001 0.150240 0.154208
0.118074 0.152529 0.151186
0.131502 0.153597 0.145510
0.152377 0.157015 0.146792
0.169100 0.162661 0.154330
0.188724 0.167117 0.159518
0.210178 0.169100 0.162264
0.231296 0.170626 0.165316
0.252445 0.172152 0.168368
0.273533 0.173922 0.171572
0.295415 0.175296 0.174807
0.318120 0.176577 0.178164
0.341711 0.177829 0.181460
0.366461 0.178592 0.184756
0.393042 0.178805 0.187961
0.421363 0.178470 0.191348
0.455818 0.177646 0.195193
0.494972 0.175692 0.199527
0.535668 0.172732 0.203525
0.660945 0.163027 0.216129
0.715633 0.156741 0.221592
0.771298 0.151797 0.227024
0.827787 0.151156 0.232975
0.884550 0.156863 0.239689
0.940612 0.172488 0.247623
0.995209 0.200046 0.257755
1.000000 0.238193 0.271092
1.000000 0.284092 0.288640
1.000000 0.334173 0.312139
0.120577 0.163760 0.167330
0.120638 0.163760 0.167147
0.120821 0.163394 0.166476
0.121553 0.162661 0.165286
0.125460 0.163516 0.163638
0.136416 0.166751 0.158694
0.152102 0.168002 0.152468
0.177920 0.171664 0.152132
0.196628 0.177340 0.160250
0.217533 0.184298 0.168734
0.241062 0.187686 0.173098
0.265141 0.189212 0.175967
0.289128 0.190219 0.178744
0.313451 0.191135 0.181674
0.337865 0.191745 0.184634
0.363256 0.191928 0.187594
0.389868 0.191745 0.190494
0.417945 0.191348 0.193576
0.450629 0.190555 0.196933
0.493812 0.189364 0.201450
0.540276 0.187137 0.206027
0.590478 0.183566 0.210910
0.644434 0.179294 0.215915
0.701778 0.174960 0.221439
0.760647 0.172366 0.227115
0.818936 0.172915 0.233097
0.875090 0.178347 0.239689
0.929870 0.191745 0.247166
0.983307 0.215091 0.256413
1.000000 0.246952 0.268437
1.000000 0.287755 0.284672
1.000000 0.333928 0.306462
0.130709 0.176211 0.178744
0.130953 0.176028 0.178592
0.130861 0.175570 0.177829
0.131472 0.174563 0.176638
0.132357 0.173220 0.174472
0.140169 0.175265 0.169589
0.152346 0.178470 0.164218
0.169589 0.179751 0.157809
0.198093 0.183810 0.155856
0.218509 0.189609 0.164218
0.241428 0.196841 0.173342
0.267033 0.205234 0.182681
0.293339 0.206577 0.185336
0.319493 0.207095 0.187778
0.346044 0.207279 0.190219
0.372992 0.207095 0.192691
0.401007 0.206577 0.195285
0.430701 0.205814 0.198062
0.470283 0.205509 0.201968
0.511376 0.204257 0.205814
0.555535 0.202518 0.209964
0.603082 0.200015 0.214237
0.653986 0.197391 0.218906
0.708095 0.195254 0.223880
0.764157 0.194980 0.229129
0.819486 0.197330 0.234684
0.873381 0.203830 0.240848
0.926146 0.216190 0.247990
0.978119 0.236759 0.256962
1.000000 0.265599 0.268498
1.000000 0.302159 0.284031
1.000000 0.345312 0.304845
0.142367 0.189242 0.191043
0.142245 0.189120 0.190768
0.142519 0.188663 0.190219
0.142489 0.187930 0.189120
0.143160 0.186435 0.187198
0.145785 0.185733 0.183841
0.155978 0.188418 0.177157
0.170016 0.190799 0.169711
0.188235 0.192172 0.163119
0.220737 0.196841 0.159701
0.243626 0.203006 0.168582
0.268925 0.210575 0.177859
0.297490 0.219364 0.187716
0.328679 0.226596 0.195682
0.358038 0.226566 0.197726
0.387366 0.226047 0.199680
0.418219 0.225284 0.201968
0.456428 0.225437 0.205203
0.495033 0.224582 0.208408
0.535454 0.223453 0.211673
0.578180 0.221988 0.215091
0.623926 0.220462 0.218936
0.672419 0.219181 0.223117
0.723659 0.219303 0.227604
0.776852 0.221286 0.232486
0.829038 0.225376 0.237766
0.880247 0.233310 0.243626
0.930571 0.245884 0.250614
0.980011 0.265568 0.259312
1.000000 0.291783 0.270726
1.000000 0.325322 0.285985
1.000000 0.363989 0.306371
0.154604 0.203006 0.203586
0.154726 0.202853 0.203586
0.154788 0.202335 0.202976
0.154788 0.201389 0.201724
0.154910 0.199954 0.199710
0.155642 0.197879 0.197421
0.161776 0.199069 0.192386
0.173281 0.202121 0.185214
0.188510 0.203616 0.176303
0.207889 0.204807 0.168765
0.244358 0.210178 0.163424
0.269291 0.216831 0.172519
0.297368 0.224674 0.182101
0.329656 0.233890 0.192172
0.366888 0.243931 0.202609
0.407111 0.249699 0.208713
0.446265 0.250370 0.211246
0.485817 0.250187 0.213687
0.525566 0.249454 0.216312
0.566033 0.248356 0.218967
0.607172 0.246983 0.221775
0.648951 0.245884 0.224826
0.692470 0.245548 0.228183
0.737881 0.246372 0.231876
0.784970 0.248569 0.235996
0.832395 0.253300 0.240574
0.880369 0.261143 0.245975
0.928679 0.273259 0.252628
0.976745 0.291630 0.261143
1.000000 0.316747 0.272404
1.000000 0.348119 0.287816
1.000000 0.384924 0.308385
0.167117 0.216159 0.215885
0.167269 0.216037 0.215763
0.167025 0.215579 0.215213
0.167025 0.214725 0.214054
0.167391 0.213382 0.212314
0.167483 0.211521 0.210117
0.168429 0.209354 0.206973
0.178927 0.213260 0.200931
0.192325 0.216495 0.193332
0.209171 0.218387 0.184176
0.230381 0.218906 0.174746
0.268559 0.224857 0.168887
0.299931 0.232547 0.176577
0.334325 0.241978 0.186862
0.375158 0.253025 0.197757
0.422156 0.265354 0.209171
0.474525 0.278782 0.221073
0.516655 0.280125 0.223728
0.556634 0.279362 0.225406
0.596155 0.278141 0.227237
0.635706 0.277104 0.229313
0.675868 0.276585 0.231632
0.717433 0.277073 0.234592
0.760433 0.278843 0.237675
0.804837 0.282383 0.241428
0.849485 0.288090 0.245731
0.894438 0.296757 0.251041
0.939574 0.309392 0.257633
0.984375 0.327153 0.266209
1.000000 0.350652 0.277745
1.000000 0.379889 0.293339
1.000000 0.413550 0.314153
0.181552 0.230838 0.229313
0.181277 0.230625 0.229129
0.181247 0.230320 0.228580
0.181308 0.229435 0.227665
0.181338 0.228214 0.226078
0.181186 0.226322 0.223728
0.181613 0.223911 0.220798
0.186282 0.224369 0.216587
0.198703 0.228672 0.209842
0.214054 0.232425 0.201968
0.233799 0.235019 0.192355
0.258793 0.236454 0.181704
0.328344 0.257176 0.178683
0.381231 0.270024 0.185580
0.430549 0.282689 0.197177
0.485328 0.296696 0.209323
0.544152 0.312261 0.221775
0.605524 0.329870 0.235050
0.663020 0.345586 0.246464
0.701991 0.344579 0.247074
0.739925 0.344244 0.248081
0.777371 0.344610 0.249577
0.814664 0.346136 0.251804
0.852567 0.349584 0.254826
0.890074 0.354864 0.258610
0.926757 0.362005 0.263218
0.962188 0.371435 0.269047
0.996704 0.383886 0.276585
1.000000 0.400244 0.286534
1.000000 0.420569 0.299809
1.000000 0.445014 0.317296
1.000000 0.473854 0.340124
0.201999 0.251194 0.247837
0.201938 0.251102 0.247654
0.201572 0.250431 0.247013
0.201205 0.249302 0.245609
0.200259 0.247501 0.243565
0.199863 0.245243 0.241001
0.200137 0.243198 0.238346
0.200839 0.240574 0.235172
0.211826 0.245335 0.230106
0.228367 0.251438 0.223484
0.249607 0.257572 0.215457
0.276310 0.263066 0.205692
0.309209 0.266575 0.193362
0.365454 0.276829 0.184176
0.430304 0.292943 0.188418
0.483589 0.306554 0.199954
0.539574 0.321172 0.211917
0.597467 0.337346 0.224491
0.656001 0.355871 0.237827
0.714015 0.377081 0.252506
0.758663 0.386267 0.258976
0.793820 0.386206 0.259495
0.828489 0.386999 0.260929
0.863798 0.389715 0.263249
0.898741 0.394110 0.266575
0.933165 0.400580 0.270848
0.966857 0.409277 0.276585
0.999481 0.420844 0.284123
1.000000 0.435767 0.294224
1.000000 0.454658 0.308019
1.000000 0.476936 0.325658
1.000000 0.503136 0.348394
0.222507 0.270756 0.265446
0.222354 0.270603 0.265171
0.221866 0.269871 0.264347
0.220951 0.268589 0.263005
0.220127 0.266636 0.260807
0.219120 0.264286 0.258152
0.218326 0.261326 0.254917
0.217868 0.258122 0.251164
0.221286 0.257084 0.246708
0.236393 0.263951 0.240848
0.256168 0.271214 0.233799
0.280919 0.278416 0.225132
0.311833 0.284703 0.214420
0.348577 0.288792 0.200595
0.407019 0.298802 0.189212
0.481544 0.317327 0.190036
0.535149 0.331304 0.201511
0.590356 0.346410 0.213260
0.647089 0.363806 0.226108
0.702846 0.383551 0.239689
0.758877 0.406409 0.254917
0.813779 0.432624 0.272679
0.847562 0.434028 0.273808
0.880888 0.436378 0.275517
0.913573 0.440101 0.278416
0.945556 0.445747 0.282597
0.976562 0.453346 0.288060
1.000000 0.463294 0.295750
1.000000 0.476326 0.306004
1.000000 0.492897 0.319921
1.000000 0.512932 0.337957
1.000000 0.536461 0.361089
0.243900 0.290837 0.283116
0.243717 0.290532 0.282841
0.242863 0.289586 0.281956
0.241794 0.287907 0.280186
0.240146 0.285679 0.277714
0.238621 0.282780 0.274693
0.237186 0.279515 0.271031
0.235966 0.275792 0.266941
0.235447 0.271885 0.262516
0.245212 0.275486 0.257450
0.263554 0.283482 0.251255
0.287175 0.292088 0.243778
0.315953 0.300267 0.234195
0.350469 0.307195 0.222232
0.390539 0.311772 0.207095
0.449714 0.321263 0.193454
0.532616 0.342870 0.190280
0.586206 0.357519 0.201816
0.640803 0.373938 0.213901
0.695460 0.392767 0.226993
0.750118 0.414557 0.241489
0.804318 0.439582 0.258091
0.856199 0.467323 0.277897
0.898314 0.486549 0.292302
0.928557 0.489296 0.294469
0.958068 0.493874 0.298192
0.986450 0.500359 0.303807
1.000000 0.509483 0.311894
1.000000 0.521599 0.323003
1.000000 0.537224 0.338109
1.000000 0.556420 0.357885
1.000000 0.578943 0.383093
0.264652 0.309575 0.299718
0.264683 0.309575 0.299626
0.264134 0.308843 0.298863
0.263127 0.307378 0.297246
0.261845 0.305272 0.295079
0.260197 0.302647 0.292119
0.258824 0.299596 0.288853
0.257725 0.296086 0.284977
0.256748 0.292271 0.280644
0.257053 0.288609 0.275792
0.274723 0.297276 0.269993
0.296422 0.306218 0.262730
0.322789 0.315007 0.253696
0.353918 0.323033 0.242618
0.389715 0.329381 0.228702
0.430304 0.333379 0.212070
0.488838 0.342412 0.196811
0.578759 0.367712 0.189242
0.632441 0.383734 0.200992
0.686397 0.402075 0.213382
0.741299 0.423529 0.227176
0.796048 0.448188 0.243168
0.848631 0.475593 0.262119
0.898100 0.505821 0.284977
0.942473 0.538170 0.312200
0.972015 0.547173 0.320348
0.997620 0.552697 0.326116
1.000000 0.560204 0.334417
1.000000 0.570184 0.345953
1.000000 0.582879 0.360967
1.000000 0.598505 0.380438
1.000000 0.616907 0.404791
0.286229 0.328649 0.316320
0.285985 0.328466 0.316228
0.285740 0.327794 0.315496
0.284733 0.326421 0.314000
0.283299 0.324498 0.311925
0.281834 0.321965 0.309148
0.280125 0.318791 0.305730
0.278386 0.315099 0.301610
0.276860 0.310918 0.297063
0.275578 0.306157 0.291936
0.283085 0.307774 0.286534
0.303777 0.317449 0.280125
0.328527 0.327245 0.272129
0.357916 0.336767 0.262089
0.391669 0.345220 0.249729
0.429755 0.351904 0.234592
0.472511 0.356542 0.216434
0.530510 0.365820 0.199893
0.627802 0.396277 0.186984
0.681270 0.414221 0.199039
0.735592 0.435187 0.212222
0.790158 0.459297 0.227543
0.842741 0.486061 0.245853
0.892546 0.515648 0.268070
0.937713 0.547356 0.294865
0.976165 0.580316 0.326909
1.000000 0.605066 0.354589
1.000000 0.610986 0.362860
1.000000 0.619165 0.374517
1.000000 0.629694 0.389807
1.000000 0.642634 0.409308
1.000000 0.658167 0.433478
0.312016 0.350561 0.335607
0.311955 0.350774 0.335698
0.333074 0.368200 0.350988
0.332036 0.366918 0.349462
0.330205 0.364508 0.346960
0.328099 0.361334 0.343542
0.325261 0.357458 0.339330
0.322423 0.352605 0.334295
0.319738 0.347539 0.328801
0.316960 0.341802 0.322637
0.314153 0.335180 0.315892
0.333257 0.344244 0.309483
0.358648 0.355474 0.301427
0.388251 0.366461 0.291051
0.421576 0.376715 0.278508
0.458656 0.385626 0.263157
0.499275 0.392493 0.244938
0.543664 0.397253 0.223087
0.599451 0.406165 0.203128
0.702266 0.444038 0.181643
0.754147 0.464210 0.195346
0.805692 0.487190 0.211368
0.855680 0.512718 0.230411
0.902312 0.540337 0.253544
0.943816 0.569116 0.280949
0.979095 0.598474 0.313298
1.000000 0.628107 0.350469
1.000000 0.658289 0.392645
1.000000 0.668147 0.409888
1.000000 0.675593 0.423987
1.000000 0.685512 0.442573
1.000000 0.697749 0.465553
0.346288 0.379706 0.361028
0.348363 0.381415 0.362463
0.350256 0.382666 0.363439
0.351141 0.383001 0.363500
0.351080 0.382116 0.362310
0.349584 0.379644 0.359564
0.346990 0.375799 0.355474
0.343725 0.371130 0.350469
0.340490 0.365789 0.344945
0.337377 0.359930 0.338659
0.334264 0.353491 0.331731
0.337987 0.351537 0.324895
0.361639 0.362921 0.317693
0.388983 0.374701 0.308812
0.420142 0.386023 0.297673
0.455238 0.396643 0.284154
0.493843 0.406134 0.267918
0.536309 0.414221 0.248692
0.582361 0.420722 0.225681
0.637659 0.431220 0.205112
0.743282 0.474800 0.178347
0.798276 0.499184 0.191287
0.848539 0.524224 0.210025
0.895293 0.550988 0.232700
0.937377 0.578851 0.259922
0.973510 0.607172 0.292149
1.000000 0.635554 0.329442
1.000000 0.664332 0.371862
1.000000 0.693660 0.419379
1.000000 0.715511 0.458564
1.000000 0.723140 0.475807
1.000000 0.732906 0.497627
0.371313 0.400519 0.379309
0.373663 0.402319 0.380896
0.375677 0.403906 0.382025
0.377142 0.404608 0.382452
0.377050 0.403815 0.381323
0.375494 0.401465 0.378698
0.373053 0.397833 0.374792
0.369726 0.393194 0.369848
0.366217 0.387823 0.364141
0.362432 0.381628 0.357549
0.358770 0.374975 0.350561
0.355230 0.367712 0.342931
0.369604 0.373327 0.335943
0.395850 0.385657 0.327947
0.425513 0.397955 0.318151
0.458717 0.409979 0.305882
0.495583 0.421302 0.291203
0.535943 0.431647 0.273503
0.579614 0.440925 0.252781
0.626856 0.449470 0.228458
0.681697 0.462013 0.207034
0.783902 0.508354 0.177371
0.842344 0.537194 0.187137
0.889464 0.563409 0.209995
0.931914 0.590509 0.237522
0.968505 0.617853 0.270146
0.998657 0.645014 0.307897
1.000000 0.672297 0.350805
1.000000 0.700191 0.398932
1.000000 0.728389 0.451820
1.000000 0.756680 0.509087
1.000000 0.766476 0.533715
0.399756 0.424262 0.399969
0.402075 0.426093 0.401556
0.403998 0.427588 0.402777
0.405158 0.428077 0.402930
0.405310 0.427466 0.401953
0.403723 0.425208 0.399420
0.401068 0.421485 0.395483
0.397986 0.416938 0.390631
0.394110 0.411597 0.384924
0.390356 0.405432 0.378393
0.386389 0.398657 0.371191
0.382300 0.391241 0.363500
0.380224 0.384863 0.355261
0.405249 0.397620 0.348119
0.433906 0.410895 0.339269
0.466316 0.424384 0.328649
0.502647 0.437995 0.315557
0.542657 0.451301 0.299870
0.586725 0.464546 0.281285
0.633997 0.477363 0.258610
0.685847 0.491615 0.233951
0.743771 0.508873 0.209415
0.840757 0.558526 0.176211
0.900511 0.592981 0.185000
0.943023 0.621088 0.216983
0.978210 0.648096 0.254856
1.000000 0.674189 0.297734
1.000000 0.700008 0.345251
1.000000 0.725734 0.397528
1.000000 0.751492 0.454108
1.000000 0.776944 0.514244
1.000000 0.801877 0.576989
0.447639 0.464881 0.435431
0.448615 0.465461 0.435920
0.449104 0.465705 0.435981
0.448554 0.464790 0.434974
0.447028 0.462684 0.432776
0.444556 0.459480 0.429358
0.441260 0.455482 0.425086
0.437476 0.450477 0.419837
0.433509 0.444800 0.413794
0.429633 0.438788 0.407324
0.425452 0.431861 0.399939
0.421057 0.424170 0.391913
0.416327 0.415656 0.383001
0.426459 0.417792 0.374884
0.454719 0.432074 0.366827
0.485908 0.446601 0.356725
0.520714 0.461372 0.344335
0.558740 0.476020 0.329717
0.599695 0.490578 0.311986
0.643641 0.504692 0.290532
0.690059 0.518151 0.264683
0.741421 0.534936 0.240482
0.794949 0.552117 0.213077
0.880705 0.598657 0.179263
0.937102 0.633967 0.186496
0.972900 0.660090 0.226932
1.000000 0.685389 0.272129
1.000000 0.710079 0.321691
1.000000 0.734524 0.375463
1.000000 0.758480 0.433204
1.000000 0.782071 0.494270
1.000000 0.805264 0.558160
0.482521 0.495064 0.461646
0.483436 0.495827 0.462379
0.483803 0.496040 0.462348
0.483345 0.495125 0.461372
0.482094 0.493233 0.459297
0.479683 0.490181 0.456062
0.476631 0.486213 0.451789
0.473121 0.481239 0.446571
0.469490 0.475868 0.440772
0.465431 0.469612 0.434180
0.461280 0.462837 0.426917
0.456886 0.455207 0.418799
0.452277 0.446662 0.409857
0.446601 0.436805 0.400092
0.471656 0.450080 0.392828
0.502464 0.465827 0.383825
0.536400 0.482124 0.372778
0.573205 0.498512 0.359564
0.612879 0.515068 0.343267
0.655085 0.531365 0.323827
0.699916 0.547387 0.300114
0.746822 0.563561 0.273442
0.796933 0.582879 0.249882
0.847074 0.600519 0.220493
0.912474 0.633906 0.186099
0.964691 0.668971 0.192966
0.995514 0.693629 0.241154
1.000000 0.717464 0.292668
1.000000 0.740780 0.348119
1.000000 0.763607 0.407324
1.000000 0.786038 0.470039
1.000000 0.808042 0.535607
0.531060 0.539300 0.500175
0.532677 0.540826 0.501488
0.533074 0.540948 0.501488
0.531853 0.539239 0.499733
0.529351 0.536339 0.496773
0.525811 0.531945 0.492287
0.521324 0.526329 0.486732
0.516472 0.520012 0.480354
0.510918 0.512993 0.473091
0.505608 0.505516 0.465309
0.500053 0.497169 0.456641
0.494362 0.488533 0.447547
0.488594 0.479011 0.437690
0.482490 0.468666 0.427131
0.485786 0.465339 0.417060
0.513725 0.480476 0.408026
0.544762 0.496315 0.397253
0.578729 0.512840 0.384985
0.616144 0.530205 0.370336
0.656855 0.548150 0.353033
0.699794 0.565972 0.332250
0.744137 0.582971 0.306828
0.790249 0.602228 0.285008
0.836484 0.620417 0.260319
0.881285 0.636011 0.229923
0.944671 0.673274 0.200290
0.990661 0.705898 0.208347
1.000000 0.727596 0.263371
1.000000 0.748928 0.320653
1.000000 0.769986 0.380957
1.000000 0.790677 0.444556
1.000000 0.811063 0.510948
0.563806 0.571038 0.527550
0.565270 0.572503 0.528771
0.565972 0.572961 0.529046
0.565393 0.571954 0.527886
0.563928 0.569726 0.525628
0.561669 0.566552 0.522148
0.558923 0.562524 0.518029
0.555810 0.557671 0.512810
0.552361 0.551965 0.506889
0.548821 0.545892 0.500267
0.544488 0.538689 0.492561
0.539971 0.530602 0.483955
0.535241 0.521569 0.474556
0.529564 0.511192 0.463813
0.523278 0.499794 0.452003
0.540490 0.507652 0.442481
0.570031 0.524163 0.432288
0.602197 0.541527 0.420478
0.637720 0.559747 0.406775
0.676234 0.578912 0.390692
0.716823 0.597864 0.371496
0.758572 0.616114 0.348302
0.801297 0.635218 0.326268
0.844236 0.654902 0.305547
0.885985 0.672297 0.280491
0.925078 0.686061 0.249973
0.976349 0.717067 0.226902
1.000000 0.746395 0.238285
1.000000 0.765896 0.301122
1.000000 0.784726 0.364904
1.000000 0.803037 0.431006
1.000000 0.821042 0.498756
0.608087 0.616052 0.566430
0.608942 0.616876 0.567132
0.608972 0.616724 0.566827
0.608270 0.615656 0.565545
0.606744 0.613397 0.563226
0.604517 0.610071 0.559777
0.601831 0.605859 0.555352
0.598688 0.600885 0.550042
0.595270 0.595239 0.544091
0.591608 0.588830 0.537285
0.587884 0.581598 0.529595
0.583734 0.573632 0.521111
0.579370 0.564904 0.511772
0.574517 0.554925 0.501274
0.568658 0.543450 0.489387
0.566278 0.534783 0.477729
0.594263 0.551720 0.468086
0.624903 0.569726 0.457008
0.658625 0.588800 0.444160
0.694728 0.608392 0.429297
0.732876 0.628107 0.411933
0.771817 0.646876 0.390814
0.810727 0.665461 0.369512
0.849912 0.685176 0.351812
0.887846 0.702602 0.330816
0.923308 0.716793 0.305943
0.956146 0.727047 0.276616
0.997864 0.751247 0.258457
1.000000 0.776791 0.270817
1.000000 0.794156 0.338476
1.000000 0.810819 0.406775
1.000000 0.827359 0.476844
0.648920 0.659571 0.605066
0.649561 0.660212 0.605585
0.649714 0.660182 0.605524
0.649500 0.659571 0.604669
0.648981 0.658228 0.603113
0.648280 0.656519 0.600977
0.648341 0.655268 0.599115
0.648432 0.653712 0.596826
0.648920 0.652003 0.594171
0.649378 0.649775 0.590845
0.649958 0.647089 0.587030
0.650111 0.643183 0.581781
0.649714 0.637995 0.575311
0.648249 0.630945 0.567041
0.645930 0.622156 0.557061
0.642084 0.610986 0.545006
0.654322 0.615229 0.534173
0.683650 0.634394 0.523461
0.714931 0.654261 0.511467
0.748104 0.674159 0.497383
0.782284 0.693599 0.481056
0.816739 0.711879 0.461524
0.850553 0.729061 0.441230
0.883268 0.746365 0.426246
0.913878 0.761013 0.408759
0.942779 0.772671 0.388434
0.969665 0.780850 0.364446
0.995209 0.786099 0.336767
1.000000 0.801114 0.324529
1.000000 0.819059 0.339055
1.000000 0.832700 0.411872
1.000000 0.846525 0.485420
0.714015 0.731533 0.671901
0.713985 0.731411 0.671870
0.713588 0.730770 0.671107
0.712825 0.729519 0.669673
0.711666 0.727657 0.667506
0.710262 0.725063 0.664454
0.708827 0.722225 0.661128
0.707240 0.718959 0.657130
0.705684 0.715053 0.652399
0.704158 0.710903 0.647211
0.702541 0.705989 0.641169
0.700923 0.700404 0.634211
0.699214 0.693935 0.626459
0.697017 0.686244 0.617243
