20 Preset/Street 2/【3】LUT video cho PR-AE-FCPX/Tone 1 (17).cube
# Created by Adobe Lightroom plugin Export LUT (1.24.0)
# www.johnrellis.com/lightroom/exportlut.htm
# Preset: 青橙风光-素材江湖17
# Color profile: C:\Program Files (x86)\Common Files\Adobe\Color\Profiles\Recommended\VideoHD.icc
LUT_3D_SIZE 5
DOMAIN_MIN 0.000000 0.000000 0.000000
DOMAIN_MAX 0.903226 0.903226 0.903226
0.101320 0.108370 0.108766
0.288731 0.047425 0.104402
1.000000 0.000000 0.000000
1.000000 0.265354 0.000000
1.000000 0.341558 0.000000
0.183658 0.193851 0.112032
0.217044 0.177981 0.138003
1.000000 0.463691 0.000000
1.000000 0.528954 0.000000
1.000000 0.493416 0.000000
0.591547 0.573480 0.000000
0.630671 0.542229 0.000000
0.860685 0.665187 0.239475
1.000000 0.862058 0.356847
1.000000 0.800198 0.108186
0.910369 0.912108 0.000000
0.937072 0.895323 0.000000
0.988037 0.898466 0.201999
1.000000 0.911101 0.669154
1.000000 0.944549 0.773526
1.000000 0.994049 0.622705
1.000000 0.991608 0.590997
1.000000 0.978058 0.563470
1.000000 0.971496 0.765469
1.000000 0.976257 0.904173
0.107088 0.133394 0.140566
0.153323 0.125948 0.137636
0.959197 0.000000 0.000000
1.000000 0.388037 0.000000
1.000000 0.392676 0.000000
0.106905 0.214450 0.168429
0.247623 0.208682 0.174563
0.921233 0.445075 0.000000
1.000000 0.560632 0.000000
1.000000 0.514885 0.000000
0.552056 0.574243 0.000000
0.610773 0.533471 0.000000
0.818692 0.637659 0.300389
1.000000 0.844419 0.280247
1.000000 0.800687 0.082490
0.894926 0.914885 0.000000
0.931029 0.899657 0.000000
0.981384 0.899748 0.300145
0.998535 0.916258 0.708278
1.000000 0.943206 0.767422
0.990845 0.994903 0.667079
1.000000 0.992432 0.635157
1.000000 0.982330 0.636378
1.000000 0.975128 0.798734
1.000000 0.977783 0.909453
0.055909 0.194064 0.255497
0.164675 0.155764 0.247654
0.404669 0.140108 0.241032
1.000000 0.000000 0.000000
1.000000 0.418463 0.000000
0.172580 0.318669 0.330816
0.238712 0.250004 0.326757
0.800046 0.000000 0.319249
1.000000 0.434150 0.000000
1.000000 0.533043 0.000000
0.000000 0.796750 0.524590
0.538720 0.754910 0.481453
0.861387 0.785672 0.585962
1.000000 0.867826 0.554986
1.000000 0.791745 0.000000
0.817685 0.943145 0.522637
0.859342 0.925689 0.438392
0.952117 0.905760 0.505241
0.980560 0.938659 0.818326
1.000000 0.941405 0.762417
0.938933 0.998352 0.799252
0.954406 0.996521 0.781552
1.000000 0.986816 0.678126
1.000000 0.978149 0.831479
1.000000 0.978607 0.915984
0.000000 0.366552 0.538140
0.000000 0.288243 0.524041
0.475654 0.111696 0.434180
0.741939 0.163973 0.419806
1.000000 0.000000 0.252354
0.000000 0.495399 0.598779
0.178134 0.408118 0.581842
0.543481 0.192264 0.484230
0.912810 0.150820 0.496437
1.000000 0.186313 0.340429
0.420508 0.816037 0.745815
0.536248 0.813626 0.746609
0.760037 0.691066 0.725856
1.000000 0.745998 0.693019
1.000000 0.743526 0.521202
0.776944 0.979736 0.890440
0.793454 0.975677 0.877470
0.884398 0.948760 0.824613
0.970977 0.963348 0.908751
1.000000 0.961303 0.879423
0.901183 1.000000 0.918425
0.914122 1.000000 0.921813
0.949004 0.998840 0.912840
1.000000 0.985901 0.879728
1.000000 0.988312 0.954986
0.230076 0.736141 0.881834
0.261845 0.675837 0.879667
0.576471 0.435676 0.858488
0.877134 0.000000 0.747250
1.000000 0.523827 0.721187
0.365942 0.789151 0.881010
0.369177 0.740993 0.879332
0.571801 0.501305 0.861601
0.882017 0.165805 0.754604
1.000000 0.566003 0.726833
0.635401 0.920592 0.895384
0.656886 0.911131 0.895323
0.643519 0.802335 0.887144
0.911833 0.505791 0.817594
1.000000 0.740200 0.811978
0.785061 0.979004 0.945647
0.801450 0.977356 0.944976
0.863188 0.972137 0.944060
0.910002 0.935760 0.930449
1.000000 0.940978 0.925078
0.909209 1.000000 0.986481
0.917815 1.000000 0.987579
0.949737 1.000000 0.992737
0.975402 1.000000 0.984344
1.000000 0.999023 0.996216
