20 Preset/Street 2/【3】LUT video cho PR-AE-FCPX/Tone 1 (25).cube
# Created by Adobe Lightroom plugin Export LUT (1.24.0)
# www.johnrellis.com/lightroom/exportlut.htm
# Preset: 青橙风光-素材江湖25
# Color profile: C:\Program Files (x86)\Common Files\Adobe\Color\Profiles\Recommended\VideoHD.icc
LUT_3D_SIZE 5
DOMAIN_MIN 0.000000 0.000000 0.000000
DOMAIN_MAX 0.903226 0.903226 0.903226
0.087373 0.120455 0.126711
0.181521 0.135470 0.146639
0.313268 0.154696 0.172030
0.533715 0.150118 0.200687
0.929259 0.094942 0.243748
0.130709 0.176211 0.178744
0.169589 0.179751 0.157809
0.346044 0.207279 0.190219
0.603082 0.200015 0.214237
0.978119 0.236759 0.256962
0.243900 0.290837 0.283116
0.235966 0.275792 0.266941
0.390539 0.311772 0.207095
0.804318 0.439582 0.258091
1.000000 0.521599 0.323003
0.447639 0.464881 0.435431
0.437476 0.450477 0.419837
0.454719 0.432074 0.366827
0.741421 0.534936 0.240482
1.000000 0.734524 0.375463
0.756985 0.779782 0.719112
0.753231 0.771328 0.708064
0.717556 0.706233 0.633845
0.838651 0.767208 0.558160
1.000000 0.838712 0.454566
0.107301 0.173190 0.189731
0.136477 0.158297 0.178439
0.302403 0.166537 0.183322
0.513634 0.174380 0.201389
0.859892 0.128054 0.235660
0.133486 0.199344 0.205539
0.173129 0.217960 0.225315
0.335851 0.216709 0.210208
0.572625 0.214145 0.213443
0.904814 0.218143 0.245487
0.271153 0.317601 0.314885
0.272160 0.313390 0.308446
0.386603 0.325628 0.247471
0.745113 0.404517 0.249699
1.000000 0.509789 0.315099
0.487892 0.501976 0.476326
0.476478 0.487221 0.459846
0.458595 0.442451 0.396918
0.745388 0.546715 0.275547
1.000000 0.729580 0.371008
0.766354 0.792844 0.737240
0.760952 0.783261 0.724788
0.748684 0.747097 0.678065
0.844266 0.783078 0.594659
1.000000 0.846830 0.470039
0.162142 0.254826 0.293095
0.184756 0.244633 0.283177
0.234775 0.226474 0.267887
0.470680 0.155367 0.263615
0.793210 0.000000 0.245853
0.176120 0.306584 0.334569
0.216464 0.294011 0.328435
0.269963 0.262150 0.300572
0.501396 0.181064 0.271763
0.848753 0.158022 0.260746
0.268559 0.379400 0.380072
0.306584 0.396521 0.397864
0.495766 0.486793 0.492439
0.712551 0.415229 0.392157
0.993378 0.448524 0.337926
0.567407 0.569390 0.562188
0.572259 0.576410 0.566003
0.595300 0.589410 0.568383
0.782681 0.634913 0.459907
1.000000 0.743984 0.483711
0.786648 0.821592 0.781704
0.794125 0.826627 0.786709
0.780789 0.801541 0.751522
0.803128 0.768765 0.654139
1.000000 0.840726 0.487037
0.268254 0.403204 0.484596
0.289281 0.388312 0.472236
0.342199 0.355200 0.412543
0.376379 0.294804 0.377417
0.764187 0.000000 0.434363
0.294072 0.446815 0.517723
0.314122 0.426947 0.502983
0.364843 0.378607 0.440070
0.398657 0.314916 0.395575
0.765377 0.000000 0.430854
0.225986 0.571557 0.583337
0.279942 0.571496 0.587732
0.476967 0.526513 0.579797
0.525628 0.432563 0.500420
0.828458 0.200320 0.433753
0.502739 0.654688 0.639796
0.523125 0.661280 0.646784
0.624445 0.709499 0.695521
0.823362 0.831174 0.816800
0.990814 0.702083 0.634638
0.824063 0.839445 0.822599
0.826688 0.843839 0.826139
0.838346 0.861845 0.840146
0.842618 0.861601 0.828794
0.972717 0.881712 0.718685
0.617304 0.753048 0.837858
0.620569 0.736110 0.829068
0.640223 0.675410 0.791775
0.660578 0.610681 0.673182
0.665888 0.427863 0.600122
0.611383 0.761135 0.836820
0.616358 0.745632 0.829191
0.635767 0.682246 0.791958
0.657862 0.609918 0.674403
0.663935 0.433448 0.599359
0.597375 0.824887 0.856687
0.617060 0.814725 0.852384
0.654536 0.757473 0.825559
0.680293 0.649928 0.720912
0.696651 0.484901 0.633234
0.592370 0.883330 0.868528
0.595392 0.881590 0.867613
0.628748 0.880949 0.871000
0.761929 0.822690 0.853178
0.800931 0.661280 0.752468
0.748379 0.898619 0.872892
0.754482 0.899107 0.873808
0.787900 0.905303 0.882292
0.851896 0.919615 0.901488
0.958251 0.965301 0.958190
