20 Preset/Street 2/【3】LUT video cho PR-AE-FCPX/Tone 1 (21).cube
# Created by Adobe Lightroom plugin Export LUT (1.24.0)
# www.johnrellis.com/lightroom/exportlut.htm
# Preset: 青橙风光-素材江湖21
# Color profile: C:\Program Files (x86)\Common Files\Adobe\Color\Profiles\Recommended\VideoHD.icc
LUT_3D_SIZE 32
DOMAIN_MIN 0.0 0.0 0.0
DOMAIN_MAX 1.0 1.0 1.0
0.111482 0.123384 0.099184
0.111482 0.123384 0.099184
0.111482 0.123384 0.099184
0.113161 0.123201 0.099184
0.138369 0.121920 0.099458
0.163699 0.119997 0.098939
0.190616 0.116670 0.099062
0.217197 0.115419 0.099367
0.243870 0.116457 0.100069
0.272831 0.117403 0.101076
0.306767 0.116670 0.102296
0.346471 0.113344 0.102480
0.393256 0.104921 0.102144
0.448188 0.085695 0.100587
0.508476 0.016388 0.097749
0.573449 0.000000 0.093263
0.640345 0.000000 0.085481
0.707607 0.000000 0.066102
0.774258 0.000000 0.034913
0.850553 0.000000 0.000000
0.930785 0.000000 0.000000
0.994995 0.000000 0.000000
1.000000 0.000000 0.000000
1.000000 0.099275 0.000000
1.000000 0.177249 0.000000
1.000000 0.228946 0.000000
1.000000 0.270390 0.000000
1.000000 0.306279 0.000000
1.000000 0.338506 0.000000
1.000000 0.368475 0.000000
1.000000 0.396643 0.000000
1.000000 0.423621 0.000000
0.111482 0.123384 0.099184
0.111482 0.123384 0.099184
0.111482 0.123384 0.099184
0.113619 0.123171 0.099550
0.138369 0.121920 0.099458
0.163180 0.119783 0.098970
0.189273 0.116976 0.099092
0.214267 0.117098 0.099611
0.240299 0.118135 0.100404
0.269108 0.118715 0.101503
0.301396 0.118929 0.102754
0.340124 0.115724 0.102785
0.385748 0.108766 0.102541
0.439002 0.093629 0.100832
0.498268 0.037781 0.098360
0.562280 0.000000 0.094270
0.629267 0.000000 0.087617
0.696773 0.000000 0.070741
0.763577 0.000000 0.041016
0.838834 0.000000 0.000000
0.916747 0.000000 0.000000
0.980591 0.000000 0.000000
1.000000 0.000000 0.000000
1.000000 0.028931 0.000000
1.000000 0.157504 0.000000
1.000000 0.212345 0.000000
1.000000 0.255924 0.000000
1.000000 0.293950 0.000000
1.000000 0.327825 0.000000
1.000000 0.359228 0.000000
1.000000 0.388556 0.000000
1.000000 0.416236 0.000000
0.111482 0.123384 0.099184
0.111482 0.123384 0.099184
0.111482 0.123384 0.099184
0.116091 0.123171 0.099489
0.140261 0.121950 0.099397
0.163149 0.121218 0.099489
0.185367 0.122316 0.100160
0.209171 0.123384 0.100954
0.234623 0.124758 0.101778
0.262821 0.125490 0.102937
0.295109 0.125277 0.103639
0.333074 0.122805 0.103731
0.377447 0.116945 0.103365
0.428931 0.105745 0.102144
0.487800 0.079469 0.099886
0.550835 0.000000 0.095674
0.617609 0.000000 0.089601
0.685420 0.000000 0.076326
0.752926 0.000000 0.046235
0.829343 0.000000 0.002289
0.906493 0.000000 0.000000
0.970397 0.000000 0.000000
1.000000 0.000000 0.000000
1.000000 0.037964 0.000000
1.000000 0.156039 0.000000
1.000000 0.209323 0.000000
1.000000 0.253788 0.000000
1.000000 0.291691 0.000000
1.000000 0.325780 0.000000
1.000000 0.357580 0.000000
1.000000 0.386847 0.000000
1.000000 0.414771 0.000000
0.113191 0.125612 0.100557
0.113191 0.125612 0.100557
0.113252 0.126131 0.100832
0.117098 0.127077 0.100557
0.133669 0.131350 0.102541
0.153964 0.133242 0.102968
0.176425 0.134188 0.103731
0.200076 0.135225 0.104555
0.226078 0.136141 0.105074
0.254063 0.136507 0.105684
0.286290 0.136049 0.105806
0.323003 0.134401 0.106050
0.366125 0.130709 0.105409
0.416083 0.122896 0.104128
0.472633 0.108492 0.101747
0.534539 0.077760 0.098024
0.600122 0.000000 0.092164
0.667292 0.000000 0.081544
0.734340 0.000000 0.056092
0.811276 0.000000 0.013275
0.885405 0.000000 0.000000
0.949004 0.000000 0.000000
1.000000 0.000000 0.000000
1.000000 0.064912 0.000000
1.000000 0.160006 0.000000
1.000000 0.213199 0.000000
1.000000 0.258061 0.000000
1.000000 0.296757 0.000000
1.000000 0.330694 0.000000
1.000000 0.362127 0.000000
1.000000 0.390845 0.000000
1.000000 0.417365 0.000000
0.118715 0.136507 0.105440
0.118715 0.136507 0.105440
0.121218 0.136965 0.105287
0.126772 0.137362 0.105074
0.132692 0.137026 0.103975
0.145663 0.141909 0.107698
0.162509 0.145937 0.109651
0.186435 0.147402 0.109438
0.212284 0.148287 0.109407
0.240055 0.149142 0.109346
0.271519 0.149142 0.108980
0.307378 0.148531 0.108980
0.348577 0.146853 0.108492
0.397253 0.142367 0.106996
0.452583 0.133761 0.104891
0.513420 0.119661 0.101381
0.579797 0.094423 0.095888
0.648127 0.013245 0.088045
0.716884 0.000000 0.066407
0.796292 0.000000 0.022705
0.869444 0.000000 0.000000
0.933745 0.000000 0.000000
0.988769 0.000000 0.000000
1.000000 0.124269 0.000000
1.000000 0.182620 0.000000
1.000000 0.230076 0.000000
1.000000 0.270939 0.000000
1.000000 0.307347 0.000000
1.000000 0.340002 0.000000
1.000000 0.370275 0.000000
1.000000 0.397650 0.000000
1.000000 0.423651 0.000000
0.127871 0.146120 0.110597
0.128328 0.146090 0.110597
0.130709 0.146273 0.110506
0.135348 0.146700 0.110292
0.139101 0.147189 0.109163
0.145998 0.146456 0.108095
0.161135 0.151308 0.111147
0.175723 0.156191 0.114321
0.197482 0.159823 0.115145
0.225376 0.161624 0.114382
0.256626 0.162936 0.113893
0.291752 0.163607 0.113252
0.331914 0.163638 0.112490
0.379126 0.162051 0.111025
0.433356 0.157748 0.109010
0.494789 0.149294 0.105592
0.560662 0.136721 0.100252
0.630549 0.116701 0.093019
0.705806 0.088869 0.074342
0.784970 0.029358 0.029694
0.858305 0.017700 0.000000
0.923613 0.080842 0.000000
1.000000 0.215671 0.000000
1.000000 0.256413 0.000000
1.000000 0.292485 0.000000
1.000000 0.324590 0.000000
1.000000 0.353155 0.000000
1.000000 0.379370 0.000000
1.000000 0.403723 0.000000
1.000000 0.426703 0.000000
1.000000 0.448188 0.000000
1.000000 0.468635 0.000000
0.139376 0.157382 0.115480
0.140200 0.157290 0.115480
0.142306 0.157473 0.115389
0.146670 0.158022 0.115145
0.149996 0.158450 0.114351
0.155489 0.158480 0.113283
0.164126 0.158083 0.111818
0.182193 0.163485 0.114626
0.198795 0.168521 0.117678
0.217533 0.174136 0.121370
0.247044 0.178317 0.121492
0.283574 0.181064 0.120394
0.325872 0.182834 0.118929
0.374395 0.183566 0.117342
0.430121 0.181674 0.114321
0.492164 0.177279 0.110475
0.559136 0.169833 0.104768
0.629541 0.159609 0.096498
0.717311 0.149996 0.076020
0.801175 0.147982 0.021424
0.880186 0.160250 0.000000
0.951019 0.187503 0.000000
1.000000 0.225071 0.000000
1.000000 0.265660 0.000000
1.000000 0.303471 0.000000
1.000000 0.336553 0.000000
1.000000 0.364721 0.000000
1.000000 0.390112 0.000000
1.000000 0.413703 0.000000
1.000000 0.435462 0.000000
1.000000 0.456306 0.000000
1.000000 0.476112 0.000000
0.150149 0.166690 0.119387
0.150576 0.166629 0.119112
0.152132 0.166842 0.119020
0.156008 0.166995 0.118868
0.159213 0.167575 0.118379
0.164126 0.167941 0.116976
0.170047 0.168185 0.115816
0.179843 0.167758 0.114656
0.200168 0.173709 0.117006
0.218112 0.179171 0.120455
0.238895 0.185214 0.123873
0.262272 0.192203 0.127718
0.300511 0.196658 0.126711
0.346532 0.199863 0.124666
0.399359 0.201450 0.122133
0.459297 0.201083 0.118441
0.525170 0.198550 0.113039
0.604578 0.195346 0.104738
0.688472 0.192416 0.091127
0.769863 0.194247 0.050111
0.848051 0.204837 0.000000
0.920684 0.225162 0.000000
0.984833 0.254551 0.000000
1.000000 0.289128 0.000000
1.000000 0.323857 0.000000
1.000000 0.354589 0.000000
1.000000 0.381720 0.000000
1.000000 0.405982 0.000000
1.000000 0.428748 0.000000
1.000000 0.449897 0.000000
1.000000 0.469856 0.000000
1.000000 0.489113 0.000000
0.161440 0.177920 0.125002
0.161837 0.177890 0.124727
0.163363 0.177890 0.124666
0.166781 0.177890 0.124025
0.170077 0.177554 0.122896
0.173739 0.178012 0.121279
0.179019 0.178286 0.119600
0.186465 0.178256 0.118502
0.197147 0.178073 0.117250
0.220096 0.184909 0.119509
0.240391 0.190860 0.122957
0.263432 0.197604 0.126558
0.289555 0.205173 0.130434
0.320073 0.213107 0.133944
0.370520 0.217624 0.131228
0.428473 0.220584 0.127474
0.499489 0.223331 0.122530
0.578119 0.225071 0.114717
0.658930 0.226719 0.103059
0.739132 0.231601 0.082399
0.817777 0.242100 0.018921
0.891997 0.260472 0.000000
0.958923 0.285801 0.000000
1.000000 0.316686 0.000000
1.000000 0.348455 0.000000
1.000000 0.377386 0.000000
1.000000 0.403235 0.000000
1.000000 0.426795 0.000000
1.000000 0.448615 0.000000
1.000000 0.468605 0.000000
1.000000 0.487922 0.000000
1.000000 0.506126 0.000000
0.173770 0.190280 0.131228
0.173892 0.190127 0.131258
0.175326 0.190127 0.130983
0.178317 0.189822 0.130434
0.181888 0.189487 0.129641
0.185336 0.189731 0.127932
0.189792 0.189883 0.126162
0.195926 0.189792 0.123781
0.203830 0.189029 0.121187
0.215671 0.188876 0.119570
0.241428 0.196536 0.121736
0.263890 0.203098 0.125124
0.289586 0.210330 0.128817
0.319158 0.218509 0.132815
0.353307 0.227451 0.136477
0.401984 0.237583 0.138430
0.471656 0.244358 0.133761
0.548669 0.249882 0.126864
0.629206 0.255497 0.116335
0.709560 0.263096 0.101076
0.787442 0.274723 0.065370
0.861173 0.291417 0.000000
0.928466 0.313115 0.000000
0.987640 0.339391 0.000000
1.000000 0.367712 0.000000
1.000000 0.394812 0.000000
1.000000 0.420264 0.000000
1.000000 0.443671 0.000000
1.000000 0.465919 0.000000
1.000000 0.486519 0.000000
1.000000 0.505913 0.000000
1.000000 0.524376 0.000000
0.185916 0.202304 0.137606
0.186221 0.202274 0.137362
0.187503 0.202304 0.137331
0.190402 0.202152 0.136812
0.194766 0.201968 0.135988
0.197910 0.202060 0.134890
0.202243 0.202579 0.132906
0.208072 0.202884 0.130861
0.215244 0.202762 0.128328
0.224430 0.202060 0.125216
0.237217 0.201450 0.122286
0.266423 0.209873 0.123903
0.291997 0.216983 0.127321
0.324132 0.226322 0.131289
0.361151 0.236332 0.134768
0.404028 0.247166 0.138460
0.451820 0.258824 0.142123
0.514366 0.269566 0.140658
0.592859 0.278172 0.131655
0.673060 0.288182 0.119326
0.751553 0.300664 0.100374
0.826352 0.317540 0.050294
0.896757 0.338964 0.000000
0.959960 0.363897 0.000000
1.000000 0.391455 0.000000
1.000000 0.418463 0.000000
1.000000 0.443702 0.000000
1.000000 0.467292 0.000000
1.000000 0.489052 0.000000
1.000000 0.509300 0.000000
1.000000 0.528527 0.000000
1.000000 0.546380 0.000000
0.199985 0.216007 0.144228
0.200229 0.215976 0.144228
0.201419 0.215976 0.143954
0.204166 0.215946 0.143648
0.208286 0.215915 0.142885
0.212558 0.215457 0.141939
0.216617 0.216281 0.140230
0.222293 0.217044 0.138186
0.229221 0.217594 0.135653
0.238010 0.217685 0.132815
0.248997 0.217258 0.129641
0.265415 0.217563 0.126345
0.324468 0.238346 0.127291
0.363684 0.249516 0.130648
0.407935 0.261357 0.133974
0.457557 0.274022 0.137118
0.511009 0.288029 0.140017
0.567681 0.303563 0.142550
0.625971 0.320989 0.145205
0.700557 0.338628 0.136202
0.780179 0.357702 0.116030
0.854368 0.379797 0.084077
0.921447 0.403967 0.000000
0.979767 0.430243 0.000000
1.000000 0.456550 0.000000
1.000000 0.480140 0.000000
1.000000 0.501152 0.000000
1.000000 0.520134 0.000000
1.000000 0.537591 0.000000
1.000000 0.553979 0.000000
1.000000 0.569482 0.000000
1.000000 0.584680 0.039124
0.219883 0.234897 0.153170
0.220096 0.234867 0.153170
0.221073 0.234684 0.152987
0.223575 0.234318 0.152407
0.227237 0.233921 0.151553
0.232029 0.232853 0.150607
0.236088 0.233555 0.148806
0.242161 0.235111 0.146914
0.250645 0.237095 0.144930
0.261295 0.239170 0.142123
0.275151 0.241032 0.139315
0.292119 0.242832 0.135744
0.315221 0.244938 0.131685
0.364019 0.257603 0.128847
0.408118 0.269474 0.130770
0.456245 0.282322 0.133425
0.507256 0.295933 0.135744
0.560601 0.310643 0.138338
0.615869 0.327184 0.140475
0.670954 0.345892 0.142733
0.725704 0.367590 0.145541
0.802243 0.389868 0.126406
0.874266 0.414466 0.098543
0.938872 0.440955 0.017670
0.994293 0.468513 0.000000
1.000000 0.494392 0.000000
1.000000 0.517540 0.000000
1.000000 0.538354 0.000000
1.000000 0.557397 0.000000
1.000000 0.574945 0.000000
1.000000 0.591150 0.015229
1.000000 0.606683 0.122316
0.238590 0.252293 0.161135
0.238651 0.252171 0.161166
0.239750 0.251957 0.160800
0.241978 0.251621 0.160250
0.245640 0.251255 0.159457
0.251102 0.250858 0.158389
0.255863 0.250858 0.157229
0.261631 0.252323 0.155215
0.269413 0.254215 0.152987
0.279789 0.256382 0.150240
0.292912 0.259098 0.147127
0.309453 0.261479 0.143740
0.329381 0.263493 0.139376
0.355505 0.265690 0.134157
0.409949 0.279332 0.129335
0.455421 0.290898 0.129549
0.504112 0.304234 0.131655
0.555505 0.318578 0.133394
0.608667 0.334691 0.135073
0.661830 0.352789 0.137026
0.715175 0.373632 0.139437
0.768887 0.397986 0.142550
0.828550 0.424994 0.139834
0.898772 0.453071 0.115480
0.960327 0.481819 0.078767
1.000000 0.510124 0.000000
1.000000 0.535546 0.000000
1.000000 0.558038 0.000000
1.000000 0.578363 0.000000
1.000000 0.596979 0.059205
1.000000 0.613916 0.124056
1.000000 0.629908 0.168276
0.260044 0.271794 0.169589
0.260044 0.271794 0.169589
0.260960 0.271458 0.169100
0.262821 0.270878 0.168490
0.265934 0.270115 0.167514
0.270970 0.269383 0.166232
0.276280 0.268162 0.165072
0.281926 0.269718 0.163149
0.289433 0.271641 0.160769
0.299687 0.274266 0.158206
0.312535 0.277226 0.155093
0.328618 0.280400 0.151400
0.348058 0.283268 0.147127
0.370184 0.285130 0.141878
0.398871 0.287358 0.135683
0.457404 0.301915 0.128389
0.503838 0.313695 0.126802
0.553094 0.327855 0.128023
0.604608 0.343572 0.129244
0.656458 0.361395 0.130648
0.708339 0.381750 0.132082
0.761349 0.405554 0.134920
0.813596 0.432593 0.139498
0.864103 0.462715 0.147768
0.923796 0.493568 0.138766
0.981262 0.524010 0.119234
1.000000 0.552483 0.104158
1.000000 0.577752 0.103334
1.000000 0.600702 0.118227
1.000000 0.621332 0.145632
1.000000 0.640162 0.180606
1.000000 0.657496 0.218784
0.280735 0.290623 0.177127
0.281132 0.290654 0.177096
0.282139 0.290471 0.176761
0.284154 0.290105 0.176303
0.287541 0.289738 0.175418
0.292790 0.289158 0.174380
0.300145 0.288823 0.173129
0.305760 0.289433 0.171511
0.314092 0.291966 0.169375
0.324193 0.294835 0.166598
0.336706 0.298039 0.163516
0.351873 0.301305 0.159518
0.369512 0.304082 0.155123
0.389563 0.306157 0.149722
0.411872 0.307073 0.143465
0.440711 0.308385 0.136110
0.502129 0.323949 0.125948
0.549432 0.336553 0.123171
0.598688 0.351843 0.122927
0.649866 0.369635 0.123598
0.702205 0.390265 0.124575
0.755062 0.414130 0.126253
0.807675 0.441352 0.129885
0.858885 0.471687 0.137911
0.906645 0.504295 0.151614
0.951141 0.538628 0.169833
1.000000 0.570459 0.162478
1.000000 0.598627 0.164187
1.000000 0.623316 0.176638
1.000000 0.645014 0.198245
1.000000 0.664302 0.227298
1.000000 0.681575 0.261845
0.302190 0.309483 0.184298
0.302464 0.309453 0.184298
0.303471 0.309331 0.183963
0.305730 0.309087 0.183474
0.309178 0.308721 0.182803
0.314397 0.308293 0.181613
0.321508 0.308019 0.180423
0.328191 0.307500 0.179294
0.336095 0.310124 0.176852
0.346227 0.313237 0.174228
0.358343 0.316747 0.171084
0.373205 0.320409 0.167453
0.390173 0.323735 0.162661
0.409491 0.326635 0.157382
0.431098 0.328679 0.150820
0.454505 0.329381 0.143679
0.485023 0.331060 0.134768
0.550042 0.348577 0.121462
0.598199 0.362860 0.117281
0.647242 0.379706 0.115663
0.698817 0.400519 0.115389
0.751400 0.424659 0.116548
0.803922 0.451820 0.119387
0.854948 0.481941 0.126314
0.903044 0.514672 0.140230
0.946746 0.549279 0.162112
0.984588 0.584741 0.191958
1.000000 0.617365 0.213169
1.000000 0.644709 0.226078
1.000000 0.668269 0.247166
1.000000 0.688808 0.275364
1.000000 0.706874 0.308782
0.327459 0.331212 0.192447
0.327825 0.331395 0.192508
0.347997 0.347326 0.198672
0.350408 0.347082 0.198093
0.354070 0.346532 0.197086
0.359442 0.346105 0.195956
0.366644 0.345464 0.194369
0.374884 0.343938 0.192844
0.383215 0.346258 0.190494
0.394110 0.349859 0.187564
0.407172 0.353979 0.183902
0.422614 0.358190 0.179873
0.439612 0.361913 0.174563
0.458808 0.365148 0.168368
0.479377 0.367590 0.161044
0.501854 0.368902 0.152773
0.525841 0.368627 0.142977
0.557092 0.370153 0.131350
0.623011 0.389990 0.111635
0.670436 0.406287 0.103761
0.717739 0.425391 0.099672
0.768185 0.449500 0.099947
0.818448 0.476753 0.103883
0.866453 0.505943 0.113100
0.911070 0.536675 0.130312
0.951354 0.568658 0.154543
0.986297 0.601251 0.186831
1.000000 0.633417 0.226596
1.000000 0.665156 0.273014
1.000000 0.690181 0.294743
1.000000 0.711788 0.322301
1.000000 0.730526 0.355505
0.360327 0.359197 0.203189
0.362615 0.360693 0.203738
0.365759 0.362371 0.204166
0.369818 0.363714 0.204257
0.374731 0.364538 0.203952
0.380377 0.364416 0.202884
0.387610 0.364019 0.201419
0.396429 0.363134 0.199466
0.404028 0.363012 0.197818
0.414069 0.366461 0.194888
0.426337 0.370550 0.191470
0.440894 0.374884 0.187228
0.457069 0.379065 0.182254
0.474983 0.382940 0.176150
0.494850 0.386328 0.169314
0.516503 0.388861 0.161227
0.539727 0.390448 0.151644
0.565209 0.391028 0.140749
0.598627 0.394202 0.127108
0.665583 0.417395 0.102296
0.714748 0.436744 0.089754
0.764065 0.459937 0.081147
0.814328 0.487282 0.085634
0.862181 0.516320 0.095338
0.906737 0.546777 0.114290
0.947173 0.578424 0.141238
0.982116 0.610468 0.175296
1.000000 0.641962 0.216434
1.000000 0.672938 0.264378
1.000000 0.703517 0.318791
1.000000 0.730098 0.364141
1.000000 0.750301 0.397742
0.385260 0.379919 0.210941
0.387671 0.381720 0.211429
0.391058 0.383551 0.212009
0.395239 0.385138 0.212345
0.400427 0.386114 0.212039
0.406165 0.386328 0.211063
0.412909 0.385809 0.209598
0.421424 0.385199 0.207767
0.429419 0.383246 0.205966
0.439063 0.386694 0.203220
0.450813 0.390845 0.199710
0.464576 0.395300 0.195834
0.480171 0.399847 0.190890
0.497597 0.404273 0.184939
0.516838 0.408484 0.178225
0.537713 0.412116 0.170108
0.560082 0.415045 0.160647
0.584436 0.417182 0.149569
0.610712 0.418738 0.136782
0.645228 0.423407 0.119966
0.711635 0.449500 0.086549
0.761898 0.472023 0.044160
0.811368 0.498787 0.037415
0.859617 0.528283 0.057557
0.903838 0.558587 0.095186
0.943999 0.589776 0.126070
0.978943 0.621180 0.163455
1.000000 0.651911 0.206729
1.000000 0.682246 0.256779
1.000000 0.711879 0.312779
1.000000 0.740810 0.374609
1.000000 0.768643 0.440864
0.413489 0.403632 0.219852
0.415839 0.405371 0.220401
0.419165 0.407172 0.221012
0.423316 0.408728 0.221164
0.428199 0.409674 0.220737
0.433753 0.409766 0.219821
0.440375 0.409430 0.218357
0.448615 0.408820 0.216373
0.458564 0.408118 0.214176
0.466407 0.408789 0.212070
0.477821 0.413062 0.208865
0.491157 0.417884 0.204929
0.506249 0.422675 0.200168
0.523003 0.427710 0.194644
0.541588 0.432715 0.187869
0.562097 0.437507 0.179904
0.585016 0.442390 0.170596
0.609918 0.447181 0.159762
0.637110 0.451728 0.146670
0.666499 0.456031 0.130159
0.704616 0.464759 0.107546
0.773068 0.496681 0.023926
0.824857 0.524224 0.000000
0.873930 0.556237 0.000000
0.918517 0.588739 0.059937
0.957488 0.620874 0.119966
0.989929 0.652003 0.168399
1.000000 0.681666 0.219242
1.000000 0.710414 0.275120
1.000000 0.738064 0.335607
1.000000 0.764828 0.401343
1.000000 0.790402 0.470985
0.459754 0.442756 0.235264
0.461036 0.443549 0.235477
0.462837 0.444190 0.235508
0.465309 0.444373 0.235233
0.468971 0.444190 0.234440
0.473426 0.443610 0.233036
0.479500 0.442878 0.231479
0.487160 0.442115 0.229252
0.496986 0.441413 0.226841
0.505638 0.440223 0.224979
0.516899 0.444923 0.221775
0.530205 0.450080 0.217899
0.544884 0.455451 0.213046
0.561212 0.461250 0.207370
0.579278 0.466743 0.200534
0.598932 0.472511 0.192660
0.620233 0.478065 0.183169
0.643244 0.483558 0.171878
0.668177 0.488746 0.158572
0.695125 0.493812 0.142275
0.723751 0.498543 0.121248
0.760616 0.507866 0.089265
0.824491 0.540826 0.000000
0.872648 0.569665 0.000000
0.916258 0.601282 0.000000
0.955138 0.633143 0.099153
0.987579 0.663935 0.155337
1.000000 0.693263 0.211368
1.000000 0.721309 0.270054
1.000000 0.747982 0.332647
1.000000 0.773465 0.399359
1.000000 0.797818 0.470222
0.494850 0.473152 0.247440
0.496071 0.473884 0.247745
0.497810 0.474403 0.247776
0.500328 0.474891 0.247501
0.503838 0.474647 0.246555
0.508263 0.474311 0.245274
0.514336 0.473671 0.243687
0.521813 0.472938 0.241398
0.531212 0.472541 0.239048
0.541283 0.471077 0.236973
0.551537 0.474342 0.234134
0.564202 0.479835 0.230350
0.578515 0.485756 0.225620
0.594507 0.492012 0.220310
0.612085 0.498634 0.213657
0.631128 0.505241 0.206027
0.652003 0.512261 0.196872
0.674434 0.519005 0.185946
0.698573 0.525841 0.173037
0.724636 0.532616 0.157076
0.752224 0.539208 0.136965
0.781003 0.545159 0.109590
0.816953 0.556085 0.038300
0.876493 0.590539 0.000000
0.911742 0.611200 0.000000
0.949920 0.641962 0.041382
0.982879 0.672724 0.137545
1.000000 0.701656 0.198489
1.000000 0.729122 0.259953
1.000000 0.755306 0.324498
1.000000 0.780301 0.393286
1.000000 0.804074 0.466255
0.544182 0.517144 0.266575
0.546136 0.518791 0.267399
0.547875 0.519249 0.267430
0.549706 0.518944 0.266880
0.551812 0.517876 0.265263
0.554803 0.516136 0.263340
0.558892 0.514244 0.260990
0.564416 0.512261 0.258091
0.571862 0.510338 0.254978
0.581262 0.508721 0.251560
0.588647 0.507164 0.248783
0.599481 0.511803 0.244541
0.611749 0.516930 0.239536
0.625452 0.522362 0.233860
0.640620 0.527977 0.227024
0.657191 0.533684 0.218997
0.675685 0.540063 0.210056
0.696193 0.546838 0.199405
0.718959 0.554528 0.187320
0.743923 0.562554 0.172335
0.770443 0.570764 0.154513
0.797787 0.578149 0.130892
0.825254 0.584375 0.097108
0.858549 0.594903 0.000000
0.912474 0.629755 0.000000
0.950774 0.658198 0.000000
0.981048 0.685267 0.120760
1.000000 0.712612 0.188418
1.000000 0.738552 0.251896
1.000000 0.763485 0.318059
1.000000 0.787289 0.387854
1.000000 0.809995 0.461585
0.579644 0.550896 0.281712
0.581720 0.552392 0.282475
0.583581 0.553307 0.282658
0.585809 0.553491 0.282200
0.588617 0.553277 0.281254
0.592401 0.552514 0.279667
0.597681 0.551873 0.277928
0.604456 0.551354 0.275669
0.613062 0.550835 0.273014
0.623346 0.550652 0.270085
0.632105 0.547814 0.267796
0.643244 0.553277 0.263981
0.655573 0.559258 0.259525
0.668727 0.565179 0.253971
0.683223 0.571283 0.247288
0.698726 0.577386 0.239292
0.715969 0.584039 0.230381
0.735042 0.591180 0.220371
0.756130 0.599054 0.208469
0.779049 0.607599 0.194919
0.803555 0.616358 0.178927
0.828763 0.624689 0.158968
0.854215 0.632013 0.132906
0.879576 0.637995 0.093721
0.910582 0.650355 0.008667
0.956512 0.684260 0.014984
0.986633 0.708949 0.120912
1.000000 0.732509 0.192111
1.000000 0.757076 0.260655
1.000000 0.780148 0.329381
1.000000 0.801999 0.401099
1.000000 0.822904 0.476143
0.627710 0.598810 0.305669
0.628748 0.599573 0.306096
0.630213 0.600061 0.306096
0.632013 0.599969 0.305577
0.634577 0.599542 0.304479
0.638056 0.598779 0.303014
0.642695 0.597925 0.300786
0.649012 0.597101 0.298253
0.656733 0.596612 0.295476
0.666499 0.596216 0.292424
0.677485 0.595697 0.288853
0.686152 0.596582 0.286351
0.697810 0.602686 0.281926
0.710414 0.608972 0.276646
0.723873 0.615137 0.270268
0.738399 0.621424 0.262669
0.754208 0.627985 0.254337
0.771633 0.635187 0.244694
0.790890 0.643183 0.233982
0.811826 0.651881 0.222080
0.834012 0.660731 0.208621
0.856748 0.669123 0.191928
0.879515 0.676509 0.171786
0.902037 0.682795 0.145876
0.924681 0.689052 0.122499
0.951171 0.700862 0.113497
0.986816 0.728573 0.141451
1.000000 0.749020 0.193210
1.000000 0.768887 0.257969
1.000000 0.790829 0.329381
1.000000 0.811460 0.402564
1.000000 0.831357 0.479530
0.673793 0.647669 0.333043
0.674739 0.648310 0.333410
0.676204 0.649042 0.333471
0.678279 0.649409 0.333257
0.681392 0.649775 0.332830
0.686244 0.650477 0.331914
0.693263 0.652399 0.331609
0.702083 0.654963 0.331518
0.713100 0.658137 0.331151
0.725856 0.661921 0.330724
0.740475 0.666133 0.330358
0.752773 0.668086 0.330419
0.766476 0.677485 0.329076
0.780453 0.686275 0.326513
0.794522 0.694667 0.322698
0.808408 0.701747 0.316747
0.822782 0.708461 0.309789
0.838254 0.715511 0.301884
0.854948 0.723079 0.293675
0.872679 0.730953 0.284581
0.891203 0.738766 0.274540
0.909758 0.745937 0.263188
0.927794 0.751736 0.249851
0.945312 0.756130 0.233921
0.962310 0.760555 0.226139
0.978759 0.764248 0.222751
0.997345 0.770871 0.227909
1.000000 0.789578 0.263310
1.000000 0.803708 0.311437
1.000000 0.818082 0.374029
1.000000 0.835904 0.450294
1.000000 0.853330 0.529259
0.747005 0.729152 0.392981
0.747127 0.729305 0.393011
0.747707 0.729091 0.392523
0.749050 0.728664 0.391608
0.751186 0.728237 0.390387
0.754543 0.727840 0.388800
0.759426 0.727687 0.387060
0.765621 0.727901 0.385199
0.773495 0.728450 0.383307
0.782986 0.729427 0.381170
0.794003 0.730709 0.378912
0.804959 0.730678 0.376867
0.814481 0.734310 0.374884
0.825254 0.740719 0.372015
