20 Preset/Street 2/【3】LUT video cho PR-AE-FCPX/Tone 1 (35).cube
# Created by Adobe Lightroom plugin Export LUT (1.24.0)
# www.johnrellis.com/lightroom/exportlut.htm
# Preset: 青橙风光-素材江湖35
# Color profile: C:\Program Files (x86)\Common Files\Adobe\Color\Profiles\Recommended\VideoHD.icc
LUT_3D_SIZE 8
DOMAIN_MIN 0.000000 0.000000 0.000000
DOMAIN_MAX 0.903226 0.903226 0.903226
0.101320 0.108370 0.108766
0.132021 0.107759 0.109804
0.307103 0.076448 0.113893
0.690639 0.000000 0.094697
1.000000 0.000000 0.000000
1.000000 0.258518 0.000000
1.000000 0.396460 0.000000
1.000000 0.480415 0.036286
0.114504 0.129397 0.110780
0.123598 0.123781 0.117922
0.259831 0.143557 0.120211
0.616938 0.000000 0.099519
0.999756 0.035462 0.000000
1.000000 0.320714 0.000000
1.000000 0.426490 0.000000
1.000000 0.500511 0.000000
0.207095 0.213413 0.110231
0.215793 0.199069 0.113466
0.208988 0.173739 0.136751
0.520958 0.296818 0.135836
0.920378 0.436683 0.000000
1.000000 0.540124 0.000000
1.000000 0.592004 0.000000
1.000000 0.622522 0.188052
0.427527 0.405310 0.000000
0.433875 0.379309 0.000000
0.416419 0.326513 0.093782
0.423468 0.287358 0.158175
0.820096 0.547204 0.127291
1.000000 0.727443 0.185519
1.000000 0.751217 0.251347
1.000000 0.756497 0.339055
0.630426 0.620539 0.000000
0.642390 0.601770 0.000000
0.643610 0.556390 0.000000
0.640894 0.493568 0.000000
0.655299 0.447700 0.171023
0.936095 0.704433 0.224979
1.000000 0.835203 0.424689
1.000000 0.856687 0.516136
0.799039 0.817441 0.000000
0.815030 0.815396 0.000000
0.827207 0.783871 0.000000
0.831235 0.745510 0.000000
0.829496 0.683375 0.000000
0.854215 0.656825 0.230686
1.000000 0.828244 0.419287
1.000000 0.897734 0.626459
0.918303 0.924987 0.000000
0.926299 0.922850 0.000000
0.949462 0.908171 0.000000
0.952117 0.890837 0.000000
0.953338 0.863249 0.000000
0.954131 0.825925 0.162692
0.965026 0.816678 0.406561
1.000000 0.895598 0.616785
0.977661 0.973938 0.325566
0.983093 0.972869 0.311315
1.000000 0.968536 0.247929
1.000000 0.958312 0.189914
1.000000 0.942809 0.241703
1.000000 0.928161 0.359258
1.000000 0.911101 0.471901
1.000000 0.915770 0.685481
0.103273 0.115663 0.117952
0.118532 0.112856 0.116579
0.270878 0.103426 0.114778
0.589868 0.000000 0.102663
0.979950 0.000000 0.000000
1.000000 0.279667 0.000000
1.000000 0.398383 0.000000
1.000000 0.474403 0.000000
0.099611 0.130282 0.125002
0.126497 0.128573 0.124208
0.234226 0.149264 0.122530
0.555322 0.138979 0.106172
0.950958 0.180392 0.000000
1.000000 0.344701 0.000000
1.000000 0.434089 0.000000
1.000000 0.497353 0.000000
0.204685 0.216098 0.124514
0.218021 0.203128 0.125734
0.214054 0.178470 0.142824
0.476265 0.276860 0.138338
0.866972 0.408545 0.000000
1.000000 0.524498 0.000000
1.000000 0.576349 0.000000
1.000000 0.609918 0.141085
0.396277 0.383429 0.000000
0.409735 0.361456 0.019013
0.397864 0.315740 0.114137
0.394018 0.273991 0.164065
0.754391 0.482460 0.127565
0.998047 0.687556 0.119112
1.000000 0.728115 0.187900
1.000000 0.741268 0.296239
0.619898 0.616052 0.000000
0.631250 0.596002 0.000000
0.631861 0.545922 0.000000
0.622278 0.477852 0.000000
0.630823 0.429175 0.179538
0.917479 0.678340 0.201755
1.000000 0.823484 0.394812
1.000000 0.849332 0.491066
0.785000 0.808652 0.000000
0.794980 0.800198 0.000000
0.810056 0.766903 0.000000
0.816129 0.729854 0.000000
0.816434 0.669795 0.000000
0.844327 0.646265 0.232059
0.998444 0.821439 0.404181
1.000000 0.893675 0.611322
0.907561 0.920745 0.000000
0.913451 0.916991 0.000000
0.938567 0.902617 0.000000
0.942260 0.883482 0.000000
0.946136 0.857145 0.000000
0.947204 0.818631 0.159426
0.958526 0.805661 0.387671
1.000000 0.889525 0.595636
0.971099 0.972442 0.315801
0.977173 0.971710 0.306676
0.999969 0.967132 0.241001
1.000000 0.956603 0.163729
1.000000 0.945373 0.278386
1.000000 0.929442 0.374060
1.000000 0.910857 0.474556
1.000000 0.914641 0.681575
0.106600 0.140597 0.150393
0.114229 0.126589 0.149386
0.172854 0.130282 0.146609
0.640192 0.000000 0.118929
0.970642 0.153750 0.000000
1.000000 0.374731 0.000000
1.000000 0.468055 0.000000
1.000000 0.517479 0.002716
0.121523 0.154818 0.158999
0.131838 0.144259 0.160555
0.247684 0.136019 0.160494
0.600336 0.098573 0.127352
0.930816 0.256748 0.000000
1.000000 0.418433 0.000000
1.000000 0.493477 0.000000
1.000000 0.537285 0.008301
0.097627 0.255100 0.186770
0.201663 0.249027 0.184176
0.269657 0.226108 0.188724
0.540551 0.313085 0.177127
0.867369 0.436744 0.000000
1.000000 0.558953 0.000000
1.000000 0.606989 0.000000
1.000000 0.630121 0.166110
0.390936 0.453498 0.136934
0.433967 0.432166 0.128664
0.450721 0.367163 0.161044
0.471717 0.333013 0.208652
0.785641 0.522972 0.175845
0.995911 0.701686 0.153780
1.000000 0.743282 0.221378
1.000000 0.752621 0.317662
0.617273 0.659419 0.000000
0.635157 0.641444 0.000000
0.657008 0.584924 0.000000
0.653864 0.519249 0.119966
0.678492 0.484871 0.229435
0.923308 0.690364 0.227451
1.000000 0.825040 0.398779
1.000000 0.852171 0.499245
0.777798 0.826200 0.000000
0.789517 0.818570 0.000000
0.815335 0.780575 0.000000
0.820218 0.742306 0.000000
0.820432 0.683070 0.080690
0.849790 0.664759 0.286778
0.997986 0.820188 0.401495
1.000000 0.894469 0.614282
0.897612 0.928099 0.000000
0.904356 0.924681 0.000000
0.932158 0.910887 0.000000
0.942504 0.888548 0.000000
0.945647 0.862181 0.000000
0.947387 0.826017 0.239750
0.959686 0.813657 0.417670
1.000000 0.893339 0.608789
0.956420 0.975158 0.401312
0.961913 0.973907 0.386603
0.985565 0.969299 0.332128
1.000000 0.958709 0.235874
1.000000 0.947448 0.323949
1.000000 0.932464 0.415625
1.000000 0.914916 0.512078
1.000000 0.916075 0.687831
0.095369 0.172244 0.208103
0.107515 0.154147 0.206180
0.196109 0.131167 0.197391
0.294041 0.147372 0.199130
1.000000 0.000000 0.169345
1.000000 0.296452 0.000000
1.000000 0.468605 0.000000
1.000000 0.524102 0.000000
0.118685 0.194491 0.227054
0.129366 0.179080 0.225864
0.219547 0.150149 0.214847
0.381353 0.145480 0.222385
1.000000 0.000000 0.175784
1.000000 0.366491 0.000000
1.000000 0.504997 0.000000
1.000000 0.549767 0.016510
0.158694 0.290776 0.278264
0.202518 0.293828 0.282261
0.313512 0.265690 0.283574
0.714412 0.264988 0.276555
0.968353 0.408637 0.209659
1.000000 0.552331 0.046693
1.000000 0.632441 0.000000
1.000000 0.645502 0.189029
0.000000 0.585748 0.359838
0.000000 0.575677 0.325994
0.526940 0.481239 0.286931
0.589227 0.458778 0.329961
0.841642 0.628443 0.345495
1.000000 0.712215 0.295323
1.000000 0.747677 0.239322
1.000000 0.754971 0.320897
0.563256 0.772763 0.281193
0.599573 0.753140 0.257786
0.700862 0.673640 0.173007
0.703731 0.601038 0.265690
0.752438 0.592279 0.345312
0.943847 0.757351 0.393896
1.000000 0.839109 0.460151
1.000000 0.853666 0.505638
0.761837 0.872526 0.220005
0.780636 0.868925 0.202823
0.828428 0.834958 0.000000
0.843992 0.788571 0.136690
0.844877 0.733425 0.272801
0.876127 0.724239 0.393194
0.996551 0.841672 0.490700
1.000000 0.896666 0.622858
0.866148 0.942107 0.329412
0.875425 0.939666 0.313146
0.910674 0.928191 0.228519
0.947112 0.903685 0.081209
0.949828 0.878874 0.247471
0.949554 0.844572 0.357733
0.958770 0.834562 0.500755
1.000000 0.896666 0.620630
0.924987 0.981933 0.563531
0.930724 0.980957 0.552575
0.955444 0.976623 0.505303
1.000000 0.967590 0.406867
1.000000 0.953063 0.406348
1.000000 0.938201 0.484993
1.000000 0.921904 0.575006
1.000000 0.918853 0.700557
0.000000 0.223148 0.309728
0.019471 0.208560 0.308568
0.186954 0.168490 0.293706
0.307073 0.140383 0.265476
0.466316 0.153902 0.272526
1.000000 0.000000 0.300206
1.000000 0.325750 0.216587
1.000000 0.511284 0.057435
0.025757 0.254459 0.334203
0.090944 0.238102 0.332769
0.207645 0.188540 0.315465
0.332433 0.157412 0.281804
0.543420 0.146212 0.298009
1.000000 0.000000 0.288487
1.000000 0.391211 0.229618
1.000000 0.537224 0.109712
0.192874 0.395666 0.407202
0.229465 0.389532 0.414496
0.285374 0.296880 0.399451
0.431617 0.259251 0.345220
0.833341 0.184939 0.390356
1.000000 0.391638 0.351934
1.000000 0.559106 0.285405
1.000000 0.621881 0.198459
0.203616 0.587213 0.522179
0.280217 0.588891 0.525109
0.478309 0.599023 0.540520
0.745846 0.610254 0.550072
0.933471 0.663264 0.512291
1.000000 0.711086 0.467079
1.000000 0.738033 0.419257
1.000000 0.740352 0.339605
0.216922 0.865446 0.607965
0.304387 0.860777 0.588006
0.596002 0.827817 0.558007
0.743618 0.713832 0.473701
0.808713 0.719600 0.527001
0.942107 0.824094 0.586023
1.000000 0.851316 0.578576
1.000000 0.843137 0.512505
0.666957 0.919402 0.563653
0.685969 0.913817 0.545922
0.756100 0.885374 0.464607
0.838804 0.821164 0.351080
0.842557 0.770779 0.424903
0.887297 0.783505 0.526726
0.986969 0.872892 0.625849
1.000000 0.907347 0.683101
0.802121 0.961151 0.608820
0.809232 0.958801 0.593256
0.842679 0.949096 0.530602
0.914611 0.926513 0.400946
0.942504 0.894469 0.389654
0.941558 0.861387 0.472786
0.952483 0.856626 0.591760
1.000000 0.908232 0.686580
0.869932 0.989136 0.729580
0.874327 0.988281 0.721248
0.895323 0.984497 0.684108
0.944976 0.976776 0.610773
1.000000 0.960113 0.482612
1.000000 0.944762 0.555779
1.000000 0.928252 0.637140
0.998383 0.925078 0.743496
0.000000 0.328588 0.484169
0.000000 0.309941 0.481117
0.097871 0.232883 0.457404
0.366796 0.163149 0.410071
0.442512 0.145693 0.339910
0.654810 0.167025 0.369879
1.000000 0.000000 0.476448
1.000000 0.417853 0.428351
0.000000 0.351812 0.491188
0.000000 0.332097 0.486458
0.124788 0.250370 0.465126
0.377478 0.177981 0.415778
0.454902 0.162722 0.346685
0.694545 0.168185 0.386145
1.000000 0.000000 0.471870
1.000000 0.456703 0.435401
0.181888 0.508507 0.570825
0.200015 0.486244 0.565698
0.258366 0.384039 0.545190
0.462013 0.263310 0.484657
0.554986 0.252781 0.411231
0.890532 0.252598 0.483589
1.000000 0.361517 0.491951
1.000000 0.597314 0.484047
0.355688 0.708614 0.652583
0.394812 0.707301 0.651850
0.501854 0.691798 0.666194
0.612238 0.546777 0.639582
0.709895 0.520012 0.555291
1.000000 0.621942 0.635370
1.000000 0.748104 0.643915
1.000000 0.756161 0.580896
0.404791 0.858427 0.763821
0.445197 0.858244 0.765133
0.577295 0.858000 0.771176
0.743984 0.858885 0.783536
0.869078 0.863737 0.774441
0.964202 0.867521 0.750912
1.000000 0.865446 0.720302
1.000000 0.850248 0.662318
0.618616 0.956909 0.810575
0.636255 0.955779 0.806607
0.680903 0.948150 0.779385
0.799832 0.921996 0.747829
0.860655 0.864042 0.672389
0.900877 0.873472 0.732448
0.974578 0.919188 0.791928
1.000000 0.919951 0.772732
0.739193 0.982116 0.789425
0.753994 0.980682 0.793057
0.801419 0.974121 0.800473
0.852262 0.960540 0.762478
0.934142 0.928283 0.603113
0.932952 0.898192 0.650690
0.946105 0.897704 0.734432
1.000000 0.934020 0.798367
0.842405 0.996857 0.847379
0.847074 0.996063 0.847776
0.868803 0.992920 0.852018
0.890867 0.988190 0.826658
0.938537 0.977783 0.738918
0.995483 0.956939 0.661646
0.991516 0.940887 0.730404
0.989136 0.938567 0.806851
0.000000 0.496651 0.696437
0.000000 0.478553 0.696101
0.000000 0.379065 0.676265
0.380163 0.265049 0.627405
0.590784 0.000000 0.536553
0.620417 0.120760 0.445594
0.800839 0.242191 0.478706
1.000000 0.338384 0.610559
0.000000 0.508049 0.688838
0.000000 0.491463 0.689143
0.000000 0.395422 0.670466
0.377600 0.276707 0.620691
0.585748 0.066957 0.531182
0.616510 0.143709 0.442145
0.807279 0.238712 0.478004
1.000000 0.325689 0.598840
0.086244 0.628779 0.729763
0.130587 0.610285 0.726406
0.222293 0.519066 0.708675
0.418647 0.364660 0.664332
0.634211 0.190402 0.572503
0.675319 0.234501 0.486183
0.923491 0.319158 0.553216
1.000000 0.488350 0.631098
0.397589 0.796994 0.776455
0.414710 0.789578 0.775845
0.475929 0.754208 0.775265
0.495216 0.585779 0.750149
0.723140 0.400275 0.669215
0.771878 0.432105 0.580346
1.000000 0.551965 0.670436
1.000000 0.703792 0.702846
0.508904 0.887083 0.821439
0.525383 0.884672 0.819547
0.598322 0.879698 0.817197
0.698238 0.868467 0.819059
0.763760 0.744656 0.788907
0.828183 0.703243 0.701350
1.000000 0.822324 0.791470
1.000000 0.875608 0.814511
0.624475 0.949401 0.879026
0.639796 0.948913 0.879606
0.694270 0.946654 0.881437
0.775814 0.943145 0.885283
0.859403 0.939605 0.890776
0.930663 0.938781 0.888914
0.984588 0.938048 0.878080
1.000000 0.931090 0.858762
0.789395 0.989044 0.925444
0.794705 0.988556 0.924346
0.812161 0.986145 0.918364
0.839689 0.981231 0.905028
0.881346 0.970428 0.885435
0.923308 0.939605 0.832670
0.944671 0.941344 0.865782
0.994415 0.960723 0.893797
0.835477 1.000000 0.912230
0.838682 1.000000 0.911925
0.852384 1.000000 0.911284
0.871061 0.997803 0.906279
0.913481 0.991150 0.910185
0.950683 0.978729 0.854643
0.976532 0.959899 0.836667
0.981476 0.958251 0.881804
0.000000 0.705379 0.865385
0.084291 0.691493 0.865476
0.180728 0.613092 0.859312
0.381964 0.457404 0.845914
0.660426 0.295964 0.799069
0.806332 0.000000 0.709285
0.829740 0.110780 0.604456
0.968536 0.397284 0.644068
0.097597 0.711696 0.860502
0.136263 0.698878 0.860746
0.206210 0.625818 0.855894
0.374243 0.466316 0.842039
0.653559 0.307958 0.794766
0.801419 0.000000 0.704768
0.824094 0.136263 0.599542
0.961578 0.395941 0.636622
0.318273 0.775296 0.862547
0.319158 0.763546 0.861875
0.325566 0.702205 0.856870
0.384375 0.542779 0.851225
0.652766 0.386267 0.806516
0.811978 0.143923 0.717891
0.841428 0.233585 0.617517
0.968444 0.447822 0.650507
0.503227 0.866392 0.869749
0.516258 0.863127 0.870451
0.516411 0.833188 0.867460
0.502251 0.730861 0.860227
0.644160 0.543999 0.832944
0.839536 0.331823 0.758022
0.877134 0.383795 0.663355
1.000000 0.568261 0.715663
0.604089 0.924743 0.876921
0.616480 0.924346 0.876982
0.633173 0.915343 0.876738
0.682368 0.894591 0.878752
0.654231 0.774563 0.864988
0.853208 0.552026 0.810819
0.900786 0.584131 0.728542
1.000000 0.751034 0.794339
0.655970 0.956542 0.908049
0.662348 0.955627 0.907378
0.692378 0.952483 0.905577
0.748501 0.947448 0.903410
0.814725 0.940246 0.901030
0.834592 0.878752 0.887968
0.901396 0.839933 0.832090
1.000000 0.903349 0.882383
0.742428 0.986328 0.942321
0.748226 0.985901 0.942351
0.771817 0.984131 0.942565
0.814267 0.980926 0.943206
0.865110 0.976837 0.944274
0.915099 0.972564 0.945495
0.956451 0.964050 0.940215
1.000000 0.969055 0.943389
0.842618 1.000000 0.965423
0.846098 1.000000 0.965759
0.861540 1.000000 0.967529
0.889342 1.000000 0.971374
0.918334 0.998932 0.972015
0.939971 0.995117 0.963012
0.968261 0.982940 0.938720
0.982513 0.981384 0.954162
