20 Preset/Street 2/【3】LUT video cho PR-AE-FCPX/Tone 1 (2).cube
# Created by Adobe Lightroom plugin Export LUT (1.24.0)
# www.johnrellis.com/lightroom/exportlut.htm
# Preset: 青橙风光-素材江湖02
# Color profile: C:\Program Files (x86)\Common Files\Adobe\Color\Profiles\Recommended\VideoHD.icc
LUT_3D_SIZE 5
DOMAIN_MIN 0.000000 0.000000 0.000000
DOMAIN_MAX 0.903226 0.903226 0.903226
0.224949 0.203494 0.223148
0.287480 0.201877 0.223301
0.603113 0.235477 0.199283
0.991485 0.326909 0.078706
1.000000 0.367987 0.000000
0.228794 0.235416 0.222080
0.308324 0.253574 0.213748
0.644282 0.323980 0.173678
0.994293 0.392584 0.000000
1.000000 0.410163 0.000000
0.259770 0.393225 0.220096
0.352239 0.435431 0.191165
0.749264 0.572442 0.000000
1.000000 0.570672 0.000000
1.000000 0.531884 0.000000
0.317571 0.658961 0.152499
0.414069 0.689876 0.049409
0.731258 0.775631 0.000000
1.000000 0.760098 0.000000
1.000000 0.688106 0.000000
0.418250 0.905760 0.108980
0.487953 0.913939 0.000000
0.702785 0.928344 0.000000
1.000000 0.947143 0.000000
1.000000 0.843107 0.000000
0.223972 0.210788 0.264256
0.252750 0.214023 0.260472
0.511406 0.224186 0.247410
0.924773 0.316625 0.168124
1.000000 0.380133 0.000000
0.217777 0.246616 0.271763
0.264073 0.253574 0.275669
0.566857 0.289250 0.241947
0.941619 0.370977 0.150607
1.000000 0.413092 0.000000
0.221469 0.405463 0.282719
0.287358 0.413275 0.266606
0.680201 0.530877 0.171542
0.999573 0.544823 0.000000
1.000000 0.525963 0.000000
0.235721 0.639246 0.260868
0.347204 0.673243 0.236576
0.694667 0.770596 0.000000
1.000000 0.758968 0.000000
1.000000 0.684871 0.000000
0.363958 0.897612 0.262974
0.442145 0.906310 0.235660
0.682490 0.935790 0.000000
0.998657 0.951904 0.000000
1.000000 0.846769 0.000000
0.000000 0.263310 0.480323
0.000000 0.278050 0.484382
0.389075 0.262608 0.432288
0.718074 0.294011 0.493935
1.000000 0.363714 0.406653
0.000000 0.338384 0.503014
0.000000 0.332097 0.506432
0.411292 0.308782 0.458839
0.755489 0.344244 0.483925
1.000000 0.402625 0.407630
0.000000 0.505913 0.555016
0.000000 0.510826 0.556695
0.499001 0.530297 0.559716
0.892241 0.548730 0.511040
1.000000 0.537407 0.421393
0.315801 0.747555 0.606531
0.368322 0.736660 0.593652
0.502525 0.719326 0.505608
0.947509 0.778836 0.508690
1.000000 0.709438 0.445075
0.358770 0.897490 0.563378
0.376410 0.895018 0.541131
0.546410 0.908263 0.476539
0.917876 0.948394 0.412909
1.000000 0.863706 0.358862
0.000000 0.400580 0.783658
0.000000 0.420600 0.786587
0.181338 0.409918 0.777157
0.610864 0.365942 0.679316
0.837522 0.491279 0.747707
0.000000 0.468666 0.789639
0.000000 0.469215 0.790158
0.193454 0.446326 0.779904
0.615351 0.401526 0.683619
0.848936 0.517205 0.746914
0.000000 0.586389 0.797665
0.000000 0.586603 0.795865
0.343053 0.602319 0.795834
0.651850 0.548852 0.718837
0.912200 0.636530 0.758755
0.000000 0.786831 0.831205
0.247410 0.787045 0.829404
0.537865 0.795865 0.829435
0.771359 0.803189 0.824033
1.000000 0.806332 0.798642
0.634668 0.941527 0.858457
0.651667 0.940185 0.857664
0.706477 0.933898 0.849516
0.748959 0.920470 0.759548
1.000000 0.925353 0.791867
0.000000 0.563775 0.949889
0.000000 0.569818 0.949279
0.000000 0.601831 0.947234
0.613153 0.651637 0.929015
0.826444 0.581659 0.883543
0.000000 0.585199 0.947967
0.000000 0.591089 0.947723
0.018311 0.619745 0.944701
0.616876 0.665644 0.926635
0.824247 0.593561 0.881102
0.000000 0.653407 0.948516
0.000000 0.655421 0.947112
0.227451 0.685389 0.943786
0.642756 0.727321 0.928923
0.834531 0.663905 0.887480
0.000000 0.776944 0.951171
0.000000 0.778012 0.949889
0.341161 0.789517 0.948028
0.688716 0.826169 0.946349
0.876219 0.801450 0.916289
0.432074 0.930877 0.959686
0.482338 0.932616 0.959991
0.632837 0.939147 0.961059
0.806485 0.948882 0.962615
0.945769 0.955505 0.961517
