20 Preset/Street 2/【3】LUT video cho PR-AE-FCPX/Tone 1 (7).cube
# Created by Adobe Lightroom plugin Export LUT (1.24.0)
# www.johnrellis.com/lightroom/exportlut.htm
# Preset: 青橙风光-素材江湖07
# Color profile: C:\Program Files (x86)\Common Files\Adobe\Color\Profiles\Recommended\VideoHD.icc
LUT_3D_SIZE 32
DOMAIN_MIN 0.0 0.0 0.0
DOMAIN_MAX 1.0 1.0 1.0
0.087373 0.120455 0.126711
0.087373 0.120455 0.126711
0.087373 0.120455 0.126711
0.087373 0.120455 0.126711
0.110018 0.122896 0.130007
0.134493 0.126986 0.135286
0.155276 0.131197 0.140902
0.175845 0.134279 0.145418
0.195407 0.136233 0.149172
0.214389 0.137758 0.152560
0.233066 0.138857 0.155856
0.252873 0.140993 0.159182
0.273411 0.142977 0.162356
0.294835 0.144747 0.165499
0.317266 0.145876 0.168826
0.341314 0.146334 0.171969
0.367041 0.146517 0.175204
0.396094 0.145449 0.178470
0.428138 0.142947 0.181918
0.464820 0.138552 0.185519
0.520531 0.127718 0.190463
0.591394 0.104829 0.196353
0.662745 0.039277 0.201877
0.735225 0.000000 0.207584
0.807675 0.000000 0.213260
0.878996 0.000000 0.219394
0.948943 0.000000 0.226505
1.000000 0.000000 0.235966
1.000000 0.129458 0.249577
1.000000 0.225895 0.270512
1.000000 0.312963 0.303075
1.000000 0.399786 0.352026
0.087373 0.120455 0.126711
0.087373 0.120455 0.126711
0.087373 0.120455 0.126711
0.087373 0.120455 0.126711
0.109743 0.122652 0.129793
0.133577 0.126589 0.135134
0.153872 0.130922 0.140536
0.173617 0.133944 0.144839
0.193240 0.135958 0.148623
0.211795 0.137606 0.152041
0.230106 0.139101 0.155306
0.249760 0.141115 0.158511
0.270054 0.143038 0.161715
0.290990 0.144839 0.164920
0.313176 0.146181 0.168093
0.336828 0.146731 0.171298
0.362463 0.147097 0.174563
0.390692 0.146181 0.177890
0.422156 0.144076 0.181216
0.457557 0.139956 0.184634
0.510002 0.130892 0.189395
0.574304 0.112490 0.194827
0.639612 0.077913 0.200076
0.706325 0.000000 0.205234
0.774044 0.000000 0.210575
0.842618 0.000000 0.216220
0.912352 0.000000 0.222629
0.982238 0.000000 0.230777
1.000000 0.031525 0.242435
1.000000 0.185458 0.260258
1.000000 0.277989 0.288640
1.000000 0.367773 0.332250
0.087373 0.120455 0.126711
0.087373 0.120455 0.126711
0.087373 0.120455 0.126711
0.087373 0.120455 0.126711
0.111055 0.122774 0.130282
0.133425 0.126864 0.135103
0.153231 0.131014 0.140291
0.172549 0.133883 0.144656
0.191531 0.136019 0.148440
0.210452 0.137881 0.151858
0.229740 0.140322 0.155184
0.249363 0.142550 0.158358
0.269444 0.144320 0.161593
0.290440 0.146090 0.164797
0.312596 0.147250 0.168002
0.335912 0.148135 0.171176
0.361486 0.148379 0.174289
0.389624 0.147524 0.177646
0.420874 0.145418 0.181003
0.455970 0.141817 0.184421
0.508263 0.132937 0.189212
0.570001 0.116487 0.194369
0.632227 0.090272 0.199191
0.695949 0.002228 0.204166
0.760433 0.000000 0.209232
0.826566 0.000000 0.214542
0.895689 0.000000 0.220768
0.965728 0.000000 0.228336
1.000000 0.000000 0.239017
1.000000 0.168734 0.255528
1.000000 0.262455 0.281590
1.000000 0.351965 0.322301
0.088228 0.121492 0.127901
0.088716 0.121736 0.127871
0.088960 0.121981 0.128359
0.090394 0.122683 0.128267
0.113588 0.126284 0.130556
0.134401 0.129854 0.135439
0.154086 0.133852 0.140383
0.173190 0.136873 0.144717
0.192569 0.139559 0.148409
0.211887 0.141726 0.151736
0.231479 0.143740 0.155123
0.251133 0.145632 0.158511
0.271611 0.147402 0.161715
0.292576 0.149081 0.164736
0.314366 0.150240 0.167941
0.337926 0.150759 0.171145
0.362737 0.150790 0.174136
0.390082 0.150271 0.177340
0.420478 0.148409 0.180575
0.454322 0.144991 0.183932
0.504479 0.137148 0.188540
0.560082 0.124056 0.193240
0.617823 0.104005 0.197787
0.678767 0.052583 0.202457
0.743343 0.000000 0.207523
0.811978 0.000000 0.212985
0.884581 0.000000 0.219089
0.958129 0.000000 0.226841
1.000000 0.009583 0.237491
1.000000 0.171786 0.253544
1.000000 0.261173 0.278325
1.000000 0.345800 0.315923
0.096712 0.133730 0.139284
0.096620 0.133730 0.139528
0.096712 0.134218 0.139681
0.098177 0.134585 0.139864
0.113130 0.136995 0.131624
0.135286 0.138308 0.133272
0.153384 0.142123 0.139986
0.173556 0.144106 0.144198
0.193454 0.145876 0.148013
0.213138 0.147616 0.151583
0.232975 0.149416 0.154940
0.253208 0.151064 0.158358
0.273991 0.152377 0.161563
0.295689 0.153689 0.164767
0.318425 0.154635 0.168124
0.342626 0.155367 0.171237
0.368597 0.155215 0.174502
0.396765 0.154330 0.177646
0.427619 0.152377 0.180819
0.463813 0.148653 0.184451
0.513909 0.140963 0.188815
0.566613 0.129641 0.193271
0.622095 0.111910 0.197604
0.681270 0.082368 0.202182
0.744686 0.000000 0.206973
0.813016 0.000000 0.212222
0.884215 0.000000 0.218296
0.956268 0.000000 0.225803
1.000000 0.079561 0.235843
1.000000 0.180453 0.250950
1.000000 0.262943 0.274540
1.000000 0.343694 0.310033
0.105043 0.145174 0.150454
0.104829 0.145418 0.150423
0.105440 0.145357 0.150423
0.106416 0.145510 0.150393
0.111116 0.147158 0.148226
0.133150 0.149844 0.135500
0.160281 0.150454 0.133822
0.176883 0.155306 0.143618
0.197574 0.156497 0.147890
0.218631 0.157321 0.151705
0.239475 0.158267 0.155337
0.260655 0.159609 0.158663
0.282567 0.160555 0.162234
0.305547 0.161379 0.165530
0.329595 0.161959 0.168795
0.354955 0.162264 0.172183
0.382452 0.161654 0.175296
0.411963 0.160464 0.178470
0.444099 0.157900 0.181857
0.486427 0.153384 0.185763
0.536522 0.145754 0.190036
0.589166 0.134554 0.194064
0.785824 0.064820 0.208316
0.859800 0.025544 0.213901
0.929564 0.053010 0.220218
0.993805 0.118898 0.227878
1.000000 0.174777 0.238163
1.000000 0.234104 0.252689
1.000000 0.294743 0.273655
1.000000 0.357000 0.303655
1.000000 0.420905 0.344457
1.000000 0.486580 0.397772
0.116060 0.159731 0.163546
0.116060 0.159731 0.163546
0.116670 0.159701 0.163333
0.117861 0.159640 0.162966
0.120119 0.159487 0.162417
0.135561 0.165011 0.153628
0.161837 0.167178 0.139803
0.196536 0.167971 0.133913
0.216617 0.171542 0.144442
0.239353 0.176333 0.153384
0.263310 0.176089 0.157290
0.287816 0.176120 0.161074
0.312657 0.176059 0.164797
0.337926 0.175875 0.168246
0.364111 0.174960 0.171725
0.391485 0.173800 0.174899
0.420752 0.172000 0.178134
0.452247 0.169223 0.181247
0.491005 0.165591 0.184695
0.548211 0.158907 0.189364
0.610529 0.148562 0.194186
0.678645 0.134829 0.199100
0.752590 0.119265 0.204288
0.831235 0.108186 0.209842
0.907561 0.115297 0.216068
0.975891 0.145357 0.223270
1.000000 0.187839 0.232486
1.000000 0.237858 0.245151
1.000000 0.291997 0.263432
1.000000 0.348150 0.289403
1.000000 0.407263 0.325566
1.000000 0.469276 0.373724
0.125429 0.170016 0.172763
0.125429 0.170016 0.172763
0.125521 0.170016 0.172580
0.126650 0.169955 0.172061
0.127962 0.169680 0.171572
0.136385 0.172610 0.167178
0.156435 0.178653 0.156283
0.184573 0.180575 0.142031
0.224949 0.181918 0.132052
0.247318 0.184817 0.143038
0.273136 0.190158 0.152865
0.301335 0.193912 0.160739
0.327947 0.192813 0.164675
0.355108 0.191440 0.168338
0.383001 0.189944 0.171695
0.411383 0.187716 0.175051
0.441871 0.185245 0.178378
0.474434 0.182101 0.181491
0.524315 0.178256 0.185611
0.577050 0.172610 0.189761
0.634180 0.165072 0.193820
0.696529 0.156466 0.198184
0.764401 0.149325 0.202731
0.836240 0.147402 0.207675
0.907195 0.157259 0.213230
0.971252 0.180148 0.219699
1.000000 0.214389 0.228031
1.000000 0.256016 0.239689
1.000000 0.303593 0.256687
1.000000 0.354711 0.280735
1.000000 0.409339 0.314611
1.000000 0.467567 0.359930
0.136172 0.182864 0.184512
0.136233 0.182864 0.184329
0.136538 0.182376 0.183780
0.136873 0.181613 0.182773
0.137636 0.180331 0.180850
0.140444 0.180331 0.179538
0.156619 0.187350 0.170504
0.179660 0.193057 0.158602
0.209354 0.195254 0.143709
0.256687 0.197543 0.129305
0.283146 0.200320 0.140627
0.313390 0.205264 0.151003
0.347845 0.212009 0.161563
0.380743 0.213138 0.167819
0.411048 0.210361 0.171695
0.441505 0.207095 0.174960
0.474830 0.203738 0.178378
0.520836 0.201022 0.182193
0.567620 0.197086 0.186007
0.617151 0.192355 0.189670
0.670436 0.187533 0.193271
0.728206 0.183719 0.197147
0.790494 0.182650 0.201053
0.856138 0.187167 0.205386
0.920470 0.200076 0.210513
0.979034 0.221775 0.216495
1.000000 0.251102 0.224521
1.000000 0.287327 0.235996
1.000000 0.328832 0.252720
1.000000 0.374151 0.276097
1.000000 0.423651 0.308843
1.000000 0.476692 0.352483
0.149416 0.197482 0.198001
0.149416 0.197208 0.197757
0.149294 0.196811 0.197238
0.149233 0.195865 0.196078
0.149325 0.194339 0.194095
0.150362 0.192294 0.191562
0.159640 0.195254 0.183993
0.178744 0.202090 0.173404
0.203738 0.207584 0.160830
0.235660 0.209812 0.145113
0.290929 0.213718 0.125429
0.321050 0.216617 0.136843
0.355901 0.221408 0.147799
0.396002 0.227909 0.158358
0.442145 0.235752 0.169192
0.484413 0.234379 0.173800
0.530297 0.232364 0.177615
0.576074 0.229282 0.181247
0.622156 0.225834 0.184756
0.668940 0.222538 0.188174
0.717037 0.219944 0.191409
0.766964 0.219089 0.194705
0.819028 0.220920 0.198001
0.873075 0.227115 0.201694
0.926635 0.238376 0.206058
0.977783 0.255802 0.211460
1.000000 0.280095 0.218753
1.000000 0.310979 0.229526
1.000000 0.347997 0.245274
1.000000 0.390051 0.268132
1.000000 0.436744 0.300237
1.000000 0.487282 0.343847
0.162051 0.211032 0.210513
0.162051 0.211032 0.210513
0.162112 0.210544 0.209934
0.162112 0.209689 0.208743
0.162295 0.208408 0.207187
0.162570 0.206607 0.204868
0.163210 0.204257 0.202060
0.180880 0.211582 0.190799
0.203250 0.217960 0.176638
0.231388 0.224063 0.163058
0.266850 0.226841 0.146029
0.328313 0.232303 0.122774
0.368811 0.236027 0.130770
0.414893 0.242741 0.141817
0.469551 0.251926 0.152712
0.530724 0.263005 0.163577
0.592096 0.272618 0.173129
0.635126 0.269108 0.176730
0.677760 0.266026 0.180209
0.720180 0.263645 0.183627
0.763363 0.262272 0.186770
0.808164 0.263310 0.189822
0.854917 0.267308 0.192996
0.902525 0.274693 0.196658
0.949920 0.286656 0.201022
0.995331 0.303593 0.206699
1.000000 0.325414 0.214389
1.000000 0.352483 0.225772
1.000000 0.384588 0.242313
1.000000 0.421759 0.265904
1.000000 0.463569 0.298497
1.000000 0.509392 0.342107
0.177340 0.227054 0.225223
0.177340 0.226841 0.225010
0.177096 0.226413 0.224491
0.177218 0.225711 0.223636
0.177249 0.224460 0.221988
0.177371 0.222751 0.219791
0.177829 0.220279 0.216800
0.185214 0.222141 0.210544
0.205966 0.230137 0.198062
0.232151 0.237186 0.182345
0.265385 0.243870 0.165560
0.310155 0.250126 0.146242
0.445045 0.284581 0.104311
0.525750 0.297490 0.098848
0.593347 0.309575 0.111574
0.663478 0.325292 0.123690
0.732631 0.345006 0.135531
0.800931 0.369238 0.148104
0.852598 0.382513 0.158297
0.887602 0.380743 0.163973
0.921782 0.380926 0.169772
0.955627 0.383948 0.175723
0.988800 0.389624 0.182223
1.000000 0.399176 0.189914
1.000000 0.411078 0.199588
1.000000 0.425269 0.211765
1.000000 0.441047 0.226688
1.000000 0.460243 0.245182
1.000000 0.483040 0.268498
1.000000 0.510307 0.298650
1.000000 0.542016 0.336950
1.000000 0.579217 0.385901
0.201968 0.251408 0.247410
0.201602 0.251347 0.247318
0.201297 0.250492 0.246403
0.200809 0.249058 0.244816
0.199710 0.247166 0.242649
0.199222 0.244816 0.239872
0.199863 0.242832 0.237430
0.200839 0.240604 0.234379
0.219547 0.249119 0.224857
0.248234 0.260807 0.211093
0.285985 0.272679 0.193149
0.335821 0.284154 0.169314
0.402350 0.296818 0.141299
0.508476 0.315770 0.084077
0.607111 0.336461 0.008881
0.674372 0.351171 0.038849
0.739254 0.368902 0.074769
0.801572 0.389532 0.097627
0.860563 0.413458 0.115480
0.914672 0.439918 0.135378
0.946471 0.441932 0.147402
0.974456 0.440925 0.156619
1.000000 0.442634 0.165896
1.000000 0.447639 0.176242
1.000000 0.455329 0.187991
1.000000 0.465553 0.201816
1.000000 0.478340 0.218021
1.000000 0.494240 0.237919
1.000000 0.513878 0.262577
1.000000 0.538018 0.293889
1.000000 0.566094 0.333074
1.000000 0.599390 0.382025
0.226810 0.275303 0.268742
0.226505 0.275090 0.268498
0.225895 0.274083 0.267521
0.224887 0.272526 0.265721
0.223850 0.270268 0.263310
0.222538 0.267735 0.260410
0.221805 0.264652 0.256962
0.221530 0.261295 0.253178
0.226871 0.261265 0.247349
0.253758 0.273838 0.234958
0.288975 0.287694 0.219272
0.335210 0.302251 0.198550
0.394720 0.316350 0.170108
0.469551 0.331029 0.133150
0.577508 0.352514 0.009400
0.684260 0.380377 0.000000
0.745296 0.395850 0.000000
0.803769 0.413947 0.000000
0.859770 0.435096 0.000000
0.911254 0.458259 0.013886
0.958404 0.484047 0.091371
0.996948 0.506004 0.126528
1.000000 0.504051 0.142672
1.000000 0.505272 0.158541
1.000000 0.509087 0.174838
1.000000 0.515618 0.192203
1.000000 0.524315 0.211521
1.000000 0.536339 0.233860
1.000000 0.551843 0.260624
1.000000 0.571862 0.293431
1.000000 0.596185 0.333837
1.000000 0.625330 0.383856
0.253941 0.300298 0.290837
0.253544 0.300023 0.290623
0.252537 0.298894 0.289372
0.250767 0.296574 0.287144
0.248783 0.293706 0.284184
0.246677 0.290196 0.280400
0.244541 0.286442 0.276310
0.243473 0.282444 0.271946
0.242832 0.278325 0.267216
0.260014 0.285588 0.258061
0.293370 0.300664 0.244205
0.336980 0.317540 0.226078
0.392157 0.334813 0.201907
0.459388 0.351476 0.167269
0.538689 0.367987 0.117952
0.642481 0.391089 0.000000
0.753994 0.427558 0.000000
0.809751 0.443549 0.000000
0.862791 0.462013 0.000000
0.912078 0.482582 0.000000
0.957427 0.505669 0.000000
0.997864 0.530846 0.000000
1.000000 0.556847 0.090974
1.000000 0.565789 0.135409
1.000000 0.565515 0.159396
1.000000 0.568048 0.182406
1.000000 0.573449 0.206363
1.000000 0.582544 0.232731
1.000000 0.595758 0.263615
1.000000 0.613489 0.300877
1.000000 0.635920 0.346380
1.000000 0.663203 0.401556
0.280125 0.323827 0.311467
0.280156 0.323705 0.311345
0.279423 0.322789 0.310338
0.278141 0.321050 0.308568
0.276432 0.318486 0.305821
0.274418 0.315343 0.302495
0.272801 0.312016 0.298741
0.271305 0.308141 0.294499
0.270756 0.304051 0.289921
0.271550 0.300175 0.284398
0.303838 0.316442 0.271214
0.344732 0.333959 0.254032
0.394598 0.352239 0.232090
0.454200 0.370031 0.202518
0.522271 0.386419 0.160830
0.599176 0.402899 0.095521
0.695735 0.427008 0.000000
0.810208 0.471473 0.000000
0.861723 0.488075 0.000000
0.910430 0.507103 0.000000
0.955901 0.529107 0.000000
0.996429 0.552728 0.000000
1.000000 0.577020 0.000000
1.000000 0.601770 0.000000
1.000000 0.625666 0.144839
1.000000 0.625330 0.176455
1.000000 0.627893 0.206851
1.000000 0.633417 0.238102
1.000000 0.642756 0.272679
1.000000 0.655787 0.312291
1.000000 0.672724 0.358404
1.000000 0.694301 0.412879
0.307927 0.347814 0.332372
0.307805 0.347601 0.332128
0.307195 0.346715 0.331243
0.306004 0.345281 0.329595
0.304204 0.342840 0.327123
0.302159 0.339544 0.323674
0.300145 0.336065 0.319829
0.298375 0.332036 0.315404
0.296849 0.327459 0.310277
0.295720 0.322454 0.304814
0.309758 0.327123 0.295689
0.348302 0.345617 0.280247
0.395331 0.365240 0.260594
0.450477 0.385107 0.234836
0.513939 0.404639 0.200381
0.583948 0.422705 0.149599
0.659907 0.441871 0.012665
0.750179 0.467842 0.000000
0.866514 0.520775 0.000000
0.913481 0.537804 0.000000
0.957610 0.557824 0.000000
0.996887 0.579156 0.000000
1.000000 0.601007 0.000000
1.000000 0.623285 0.000000
1.000000 0.645655 0.000000
1.000000 0.668116 0.148013
1.000000 0.679866 0.212467
1.000000 0.682460 0.248508
1.000000 0.688472 0.286564
1.000000 0.697932 0.329198
1.000000 0.711238 0.377783
1.000000 0.728847 0.433722
0.342901 0.377325 0.358190
0.343359 0.377508 0.358404
0.382757 0.410010 0.386877
0.381201 0.408087 0.384863
0.378851 0.404974 0.381476
0.375616 0.400824 0.377142
0.372107 0.395941 0.371984
0.368292 0.390173 0.365789
0.365026 0.383948 0.359075
0.361852 0.377356 0.351934
0.358923 0.369757 0.343999
0.395636 0.387823 0.328618
0.445014 0.411017 0.307134
0.501610 0.434730 0.279576
0.563439 0.457893 0.243870
0.628870 0.480079 0.195438
0.696986 0.500694 0.114900
0.768093 0.521752 0.000000
0.844846 0.546471 0.000000
0.949096 0.604120 0.000000
0.984619 0.617273 0.000000
1.000000 0.632593 0.000000
1.000000 0.648646 0.000000
1.000000 0.664637 0.000000
1.000000 0.680201 0.000000
1.000000 0.696132 0.000000
1.000000 0.712734 0.175265
1.000000 0.730922 0.268254
1.000000 0.732662 0.307805
1.000000 0.737972 0.350774
1.000000 0.747311 0.399878
1.000000 0.760739 0.455726
0.394598 0.420264 0.395941
0.398413 0.423407 0.398627
0.402319 0.426276 0.401038
0.404608 0.427710 0.401953
0.405493 0.427466 0.401221
0.403662 0.424659 0.398077
0.400519 0.419989 0.393133
0.396185 0.414038 0.386725
0.392493 0.407752 0.380041
0.388739 0.400671 0.372473
0.385382 0.393194 0.364508
0.393378 0.392889 0.353979
0.439185 0.416022 0.335027
0.491310 0.440101 0.311040
0.548791 0.464424 0.280522
0.610590 0.488594 0.240726
0.675593 0.512108 0.185397
0.743099 0.535149 0.067872
0.812894 0.559442 0.000000
0.883513 0.584527 0.000000
0.980957 0.644404 0.000000
1.000000 0.659480 0.000000
1.000000 0.673610 0.000000
1.000000 0.687251 0.000000
1.000000 0.700404 0.000000
1.000000 0.713558 0.000000
1.000000 0.727199 0.000000
1.000000 0.742245 0.198672
1.000000 0.759335 0.298344
1.000000 0.770565 0.367315
1.000000 0.776791 0.416144
1.000000 0.786862 0.471962
0.427802 0.448188 0.420478
0.432258 0.451820 0.423529
0.436591 0.455177 0.426490
0.439551 0.457404 0.427985
0.441169 0.457588 0.427741
0.439734 0.455207 0.424872
0.436469 0.450507 0.419837
0.432349 0.444617 0.413611
0.428260 0.438209 0.406775
0.423896 0.430823 0.398901
0.419837 0.422950 0.390417
0.415808 0.414343 0.381353
0.443763 0.427070 0.366217
0.493416 0.452064 0.344793
0.547936 0.477790 0.317479
0.606348 0.503563 0.282536
0.668055 0.529198 0.236820
0.732174 0.554559 0.170230
0.797024 0.578973 0.000000
0.862486 0.605249 0.000000
0.925536 0.629450 0.000000
1.000000 0.683253 0.000000
1.000000 0.700160 0.000000
1.000000 0.711940 0.000000
1.000000 0.722683 0.000000
1.000000 0.733333 0.000000
1.000000 0.744137 0.000000
1.000000 0.756130 0.028595
1.000000 0.770047 0.234501
1.000000 0.786191 0.339391
1.000000 0.804562 0.436561
1.000000 0.811612 0.491005
0.466865 0.481697 0.449683
0.471199 0.485389 0.452888
0.475410 0.488685 0.455726
0.478553 0.490944 0.457343
0.479957 0.491157 0.457099
0.478645 0.488808 0.454353
0.475624 0.484413 0.449531
0.471809 0.478767 0.443458
0.467689 0.472297 0.436622
0.463355 0.465095 0.428840
0.459052 0.457069 0.420264
0.454902 0.448493 0.411048
0.453620 0.441016 0.400183
0.500816 0.466835 0.380713
0.553399 0.493996 0.355932
0.609705 0.521935 0.324987
0.670375 0.551202 0.285679
0.734554 0.581323 0.232212
0.799527 0.611170 0.148196
0.863920 0.640223 0.000000
0.925536 0.670558 0.000000
0.979889 0.694911 0.000000
1.000000 0.738277 0.000000
1.000000 0.754665 0.000000
1.000000 0.763638 0.000000
1.000000 0.771572 0.000000
1.000000 0.779324 0.000000
1.000000 0.787991 0.000000
1.000000 0.798398 0.203281
1.000000 0.811002 0.330571
1.000000 0.826383 0.440131
1.000000 0.844907 0.545830
0.541711 0.549462 0.509178
0.543664 0.551324 0.510704
0.544793 0.551995 0.511162
0.544549 0.551354 0.510216
0.543053 0.548882 0.507622
0.539940 0.544671 0.503197
0.536278 0.539361 0.497658
0.532158 0.533165 0.491005
0.528008 0.526299 0.483803
0.524254 0.519188 0.475959
0.520562 0.511528 0.467597
0.516655 0.502678 0.457954
0.512352 0.492622 0.447333
0.532341 0.500267 0.431891
0.583062 0.529412 0.408392
0.637140 0.559442 0.379034
0.694392 0.590082 0.342077
0.753323 0.620600 0.294804
0.812497 0.650141 0.230472
0.870329 0.677913 0.116609
0.924193 0.703670 0.000000
0.971954 0.726314 0.000000
1.000000 0.742428 0.000000
1.000000 0.772519 0.000000
1.000000 0.785214 0.000000
1.000000 0.791135 0.000000
1.000000 0.796963 0.000000
1.000000 0.803342 0.000000
1.000000 0.811032 0.000000
1.000000 0.820615 0.264347
1.000000 0.832700 0.388434
1.000000 0.847868 0.501274
0.589471 0.596765 0.550225
0.591272 0.598444 0.551690
0.592279 0.599207 0.552117
0.592493 0.598840 0.551598
0.591363 0.596735 0.549279
0.588830 0.592859 0.545129
0.585687 0.587854 0.539849
0.582086 0.581781 0.533471
0.578576 0.575402 0.526543
0.575402 0.568627 0.519066
0.572076 0.561089 0.510674
0.569207 0.552850 0.501671
0.565728 0.543359 0.491341
0.561578 0.532403 0.479988
0.605035 0.558892 0.459724
0.657496 0.591119 0.433326
0.712856 0.623957 0.400244
0.769070 0.656062 0.358923
0.824949 0.686793 0.305943
0.878904 0.715114 0.232731
0.928496 0.739590 0.086030
0.971740 0.760891 0.000000
1.000000 0.777035 0.000000
1.000000 0.787106 0.000000
1.000000 0.797269 0.000000
1.000000 0.807431 0.000000
1.000000 0.811856 0.000000
1.000000 0.816495 0.000000
1.000000 0.821958 0.000000
1.000000 0.829038 0.151827
1.000000 0.838437 0.319951
1.000000 0.850736 0.445441
0.661097 0.672297 0.617945
0.664179 0.675624 0.621057
0.665187 0.676417 0.621637
0.663966 0.674434 0.619501
0.660822 0.670192 0.614984
0.656214 0.663783 0.608545
0.650355 0.655909 0.600244
0.644434 0.647089 0.591211
0.638300 0.637659 0.581201
0.632746 0.628138 0.571099
0.627039 0.617792 0.560082
0.622156 0.607355 0.548974
0.616999 0.596002 0.536980
0.611749 0.583673 0.523919
0.620233 0.582147 0.507042
0.666926 0.611963 0.481147
0.716548 0.642512 0.450019
0.768063 0.673274 0.413336
0.820798 0.703883 0.368444
0.872831 0.733242 0.312200
0.920806 0.758816 0.235142
0.962737 0.779660 0.102144
0.998810 0.795987 0.000000
1.000000 0.806271 0.000000
1.000000 0.810971 0.000000
1.000000 0.822934 0.000000
1.000000 0.829404 0.000000
1.000000 0.831601 0.000000
1.000000 0.834562 0.000000
1.000000 0.838987 0.000000
1.000000 0.845396 0.230014
1.000000 0.854643 0.379126
0.701625 0.717067 0.659541
0.704463 0.720150 0.662440
0.706050 0.721614 0.663691
0.706050 0.721157 0.663050
0.704677 0.718715 0.660212
0.702541 0.715145 0.656184
0.699977 0.710842 0.651148
0.697353 0.705715 0.645228
0.694911 0.700099 0.638697
0.692592 0.694179 0.631525
0.689967 0.687190 0.623224
0.687526 0.679194 0.613855
0.684688 0.670100 0.603204
0.681178 0.659022 0.590692
0.676967 0.646265 0.576501
0.705470 0.662531 0.554284
0.750454 0.692103 0.524987
0.796872 0.721431 0.491127
0.844053 0.749966 0.451728
0.889555 0.776211 0.404761
0.931670 0.798306 0.346502
0.969451 0.815579 0.270268
1.000000 0.829587 0.185672
1.000000 0.838895 0.000000
1.000000 0.843626 0.000000
1.000000 0.844083 0.000000
1.000000 0.849241 0.000000
1.000000 0.852171 0.000000
1.000000 0.853117 0.000000
1.000000 0.855070 0.000000
1.000000 0.858793 0.129274
1.000000 0.865110 0.332158
0.759030 0.781552 0.722438
0.760372 0.782956 0.723903
0.760922 0.783291 0.724147
0.760372 0.782315 0.722896
0.759030 0.780117 0.720272
0.757076 0.776974 0.716426
0.754726 0.772885 0.711574
0.752346 0.768276 0.705898
0.749996 0.763394 0.699825
0.748074 0.758114 0.693202
0.745937 0.752010 0.685573
0.744381 0.745724 0.677455
0.742824 0.738399 0.668177
0.740658 0.729335 0.657160
0.737881 0.718563 0.644129
0.739101 0.710262 0.628870
0.779324 0.738125 0.602258
0.820798 0.765194 0.571649
0.861936 0.790494 0.537133
0.901518 0.812833 0.497536
0.938537 0.831388 0.450843
0.972686 0.845640 0.392340
1.000000 0.856931 0.336980
1.000000 0.864622 0.266392
1.000000 0.868589 0.147219
1.000000 0.869139 0.000000
1.000000 0.866392 0.000000
1.000000 0.866758 0.000000
1.000000 0.866972 0.000000
1.000000 0.867247 0.000000
1.000000 0.868894 0.000000
1.000000 0.872679 0.244724
0.805112 0.831205 0.776242
0.806088 0.832151 0.777340
0.806821 0.832731 0.777951
0.806973 0.832639 0.777615
0.807034 0.832151 0.776730
0.807492 0.831907 0.775998
0.809262 0.832761 0.776425
0.811612 0.833982 0.777066
0.814939 0.835752 0.778286
0.818662 0.837766 0.779599
0.822965 0.839811 0.780880
0.827054 0.841215 0.781216
0.830808 0.841642 0.780240
0.833799 0.840635 0.777340
0.836027 0.837980 0.772213
0.837186 0.832975 0.764004
0.852171 0.839536 0.749111
0.881315 0.856962 0.726772
0.910246 0.872282 0.701564
0.938750 0.885252 0.671870
0.966339 0.895598 0.635828
0.992981 0.903014 0.590448
1.000000 0.908202 0.545586
1.000000 0.911223 0.495766
1.000000 0.911681 0.432502
1.000000 0.909667 0.350469
1.000000 0.905241 0.229252
1.000000 0.898375 0.000000
1.000000 0.892851 0.000000
1.000000 0.888151 0.000000
1.000000 0.887358 0.000000
1.000000 0.885832 0.219669
0.874540 0.899321 0.857725
0.874540 0.899321 0.857725
0.874327 0.898955 0.857237
0.873777 0.898375 0.856352
0.873136 0.897490 0.855009
0.872404 0.896391 0.853361
0.871946 0.895384 0.851743
0.871641 0.894347 0.849973
0.871702 0.893492 0.848325
0.872129 0.892607 0.846555
0.872709 0.891722 0.844633
0.873686 0.890806 0.842557
0.874693 0.889586 0.839933
0.875669 0.887816 0.836515
