20 Preset/Street 2/【3】LUT video cho PR-AE-FCPX/Tone 1 (15).cube
# Created by Adobe Lightroom plugin Export LUT (1.24.0)
# www.johnrellis.com/lightroom/exportlut.htm
# Preset: 青橙风光-素材江湖15
# Color profile: C:\Program Files (x86)\Common Files\Adobe\Color\Profiles\Recommended\VideoHD.icc
LUT_3D_SIZE 5
DOMAIN_MIN 0.000000 0.000000 0.000000
DOMAIN_MAX 0.903226 0.903226 0.903226
0.051850 0.146670 0.163729
0.150881 0.146304 0.166506
0.411536 0.127138 0.177096
0.938964 0.000000 0.200015
1.000000 0.274083 0.282139
0.000000 0.190463 0.176883
0.104097 0.201083 0.172274
0.379370 0.217472 0.193423
0.913481 0.209110 0.212985
1.000000 0.417243 0.321599
0.000000 0.471717 0.277958
0.000000 0.471473 0.259007
0.515465 0.581598 0.222721
0.888273 0.626459 0.354833
1.000000 0.682094 0.476448
0.008453 0.875822 0.600885
0.347631 0.876463 0.613886
0.577264 0.874022 0.607263
0.839200 0.887388 0.561486
0.986816 0.877470 0.700771
0.769986 0.960632 0.867948
0.788876 0.959899 0.873747
0.798734 0.955962 0.861906
0.862730 0.955413 0.877836
0.929198 0.959625 0.868833
0.011048 0.154086 0.186130
0.123476 0.150515 0.188113
0.371160 0.128084 0.206027
0.837156 0.000000 0.234012
1.000000 0.000000 0.291661
0.000000 0.185214 0.197665
0.107271 0.196628 0.208530
0.368170 0.204410 0.223423
0.838193 0.095918 0.247745
1.000000 0.302464 0.315221
0.000000 0.426490 0.303014
0.000000 0.438605 0.304845
0.430304 0.495735 0.275151
0.834379 0.559472 0.369940
1.000000 0.659724 0.487434
0.123476 0.867155 0.622919
0.358129 0.869322 0.636652
0.589960 0.869291 0.639979
0.833371 0.881376 0.599542
0.978149 0.876432 0.728725
0.765133 0.960052 0.869047
0.783505 0.959197 0.874022
0.826627 0.958587 0.883726
0.873808 0.957214 0.891356
0.932860 0.961120 0.885130
0.000000 0.166873 0.281834
0.120790 0.165805 0.284977
0.347173 0.150637 0.315404
0.886107 0.000000 0.417273
1.000000 0.000000 0.440681
0.000000 0.201938 0.311711
0.102113 0.199374 0.314885
0.378241 0.200504 0.344335
0.879942 0.000000 0.422827
1.000000 0.000000 0.449683
0.000000 0.410254 0.401007
0.000000 0.423438 0.414282
0.459541 0.472969 0.473060
0.850034 0.482918 0.487800
1.000000 0.587304 0.561242
0.217594 0.845212 0.702541
0.339361 0.839689 0.697871
0.627253 0.848356 0.730129
0.823148 0.867124 0.721157
0.950042 0.874235 0.805081
0.718349 0.957366 0.865782
0.746609 0.956756 0.872313
0.824399 0.955169 0.892821
0.874174 0.954681 0.900298
0.931273 0.958373 0.895018
0.000000 0.183413 0.487556
0.097414 0.176913 0.495186
0.463752 0.124361 0.524193
0.822538 0.000000 0.624323
1.000000 0.225406 0.712795
0.000000 0.204776 0.512535
0.000000 0.204074 0.518364
0.471534 0.177981 0.548028
0.816007 0.000000 0.627832
1.000000 0.318486 0.712551
0.000000 0.433143 0.575586
0.000000 0.424933 0.589075
0.408087 0.379309 0.636866
0.823056 0.432715 0.688197
1.000000 0.587762 0.747890
0.000000 0.797299 0.764126
0.000000 0.795651 0.764706
0.500999 0.806424 0.786038
0.803525 0.831327 0.825071
0.963348 0.829679 0.823484
0.692836 0.954864 0.895445
0.714992 0.954376 0.897185
0.792752 0.953826 0.906310
0.886687 0.954009 0.924773
0.934234 0.956664 0.921843
0.000000 0.199771 0.842191
0.318853 0.171878 0.843046
0.677272 0.000000 0.851804
0.929686 0.000000 0.871092
1.000000 0.159426 0.876982
0.068971 0.200534 0.840848
0.324224 0.181735 0.842771
0.656550 0.000000 0.851865
0.919463 0.000000 0.868559
1.000000 0.269535 0.876524
0.000000 0.398596 0.862364
0.000000 0.352544 0.863920
0.510979 0.332403 0.868711
0.880644 0.387091 0.875120
1.000000 0.538598 0.886168
0.000000 0.789273 0.883177
0.000000 0.781674 0.881437
0.000000 0.750942 0.879515
0.734676 0.695399 0.901884
0.961273 0.821408 0.914336
0.449836 0.951873 0.927214
0.502983 0.950652 0.927642
0.668360 0.947784 0.931334
0.830381 0.945769 0.937804
0.933776 0.950195 0.948211
