20 Preset/Street 2/【3】LUT video cho PR-AE-FCPX/Tone 1 (9).cube
# Created by Adobe Lightroom plugin Export LUT (1.24.0)
# www.johnrellis.com/lightroom/exportlut.htm
# Preset: 青橙风光-素材江湖09
# Color profile: C:\Program Files (x86)\Common Files\Adobe\Color\Profiles\Recommended\VideoHD.icc
LUT_3D_SIZE 8
DOMAIN_MIN 0.000000 0.000000 0.000000
DOMAIN_MAX 0.903226 0.903226 0.903226
0.044251 0.146395 0.152499
0.044251 0.146395 0.152499
0.217929 0.138186 0.152590
0.405432 0.044587 0.150942
0.683162 0.000000 0.142245
0.967285 0.000000 0.111971
1.000000 0.000000 0.000000
1.000000 0.000000 0.000000
0.044892 0.149691 0.154726
0.068788 0.151278 0.153628
0.208438 0.147158 0.152804
0.372503 0.120882 0.151736
0.631556 0.000000 0.143923
0.922850 0.000000 0.114076
1.000000 0.000000 0.000000
1.000000 0.000000 0.000000
0.089326 0.198154 0.189425
0.099489 0.197147 0.190555
0.164889 0.203281 0.169833
0.336706 0.230014 0.154391
0.594537 0.204929 0.138430
0.915679 0.145693 0.051545
1.000000 0.221897 0.000000
1.000000 0.299718 0.000000
0.141726 0.249699 0.225620
0.146059 0.247440 0.225223
0.186893 0.264256 0.213870
0.312047 0.281773 0.179507
0.611963 0.344518 0.122866
0.897368 0.406439 0.000000
1.000000 0.455665 0.000000
1.000000 0.486610 0.000000
0.216037 0.322515 0.274510
0.219791 0.320134 0.273960
0.242344 0.323095 0.265812
0.337194 0.359380 0.232212
0.508873 0.375128 0.175631
0.809018 0.460853 0.000000
1.000000 0.579797 0.000000
1.000000 0.632044 0.000000
0.321691 0.408362 0.329107
0.333471 0.413092 0.332982
0.345342 0.406378 0.332525
0.421607 0.440284 0.298283
0.556207 0.483558 0.244663
0.756893 0.515831 0.137972
1.000000 0.644923 0.000000
1.000000 0.737331 0.000000
0.506645 0.547601 0.416297
0.513054 0.548882 0.418128
0.522057 0.541466 0.417090
0.567285 0.557183 0.399023
0.678706 0.614160 0.345068
0.820462 0.671260 0.267369
0.974609 0.707698 0.000000
1.000000 0.785519 0.000000
0.800870 0.808591 0.620783
0.803128 0.807797 0.620935
0.814572 0.807248 0.625025
0.837675 0.810788 0.639216
0.866087 0.819821 0.568872
0.944671 0.865812 0.532311
1.000000 0.883207 0.471962
1.000000 0.868223 0.350713
0.038575 0.152041 0.161990
0.040345 0.149081 0.156588
0.196658 0.140505 0.152560
0.351537 0.115114 0.151614
0.607141 0.000000 0.145052
0.896117 0.000000 0.120058
1.000000 0.000000 0.000000
1.000000 0.000000 0.000000
0.033509 0.153780 0.161410
0.050477 0.152712 0.158816
0.190127 0.154910 0.153292
0.340093 0.147524 0.152621
0.588708 0.000000 0.145602
0.878294 0.000000 0.118166
1.000000 0.000000 0.000000
1.000000 0.000000 0.000000
0.089052 0.201205 0.194034
0.100038 0.198856 0.193698
0.159762 0.200412 0.169345
0.313817 0.229038 0.155459
0.554467 0.213535 0.141787
0.852964 0.155367 0.094820
1.000000 0.170382 0.000000
1.000000 0.263127 0.000000
0.138552 0.253544 0.230655
0.144442 0.251164 0.230045
0.179965 0.260227 0.216098
0.281926 0.267155 0.178775
0.529503 0.314763 0.140475
0.806455 0.359136 0.000000
1.000000 0.402533 0.000000
1.000000 0.451331 0.000000
0.215702 0.326482 0.278965
0.218387 0.323339 0.277806
0.235111 0.319524 0.272282
0.317937 0.347173 0.230808
0.468269 0.355932 0.177646
0.759304 0.431586 0.024170
0.994018 0.548882 0.000000
1.000000 0.610925 0.000000
0.313024 0.404608 0.328222
0.316655 0.403510 0.328344
0.329503 0.397711 0.328252
0.398474 0.426642 0.300359
0.529564 0.466224 0.241550
0.733089 0.500114 0.144411
0.993957 0.627344 0.000000
1.000000 0.724483 0.000000
0.482277 0.531914 0.407080
0.481300 0.527672 0.405158
0.489937 0.519829 0.403693
0.532372 0.532158 0.391211
0.651270 0.592279 0.335668
0.794858 0.648615 0.260960
0.953521 0.683040 0.000000
1.000000 0.768917 0.000000
0.773953 0.785702 0.595026
0.780941 0.789273 0.599939
0.792142 0.787594 0.602777
0.817014 0.789731 0.614282
0.878813 0.833890 0.589044
0.946777 0.868833 0.538781
1.000000 0.880827 0.465827
1.000000 0.865995 0.343114
0.000000 0.191775 0.220218
0.001709 0.190616 0.218357
0.128176 0.170077 0.211460
0.250187 0.167300 0.207950
0.610376 0.000000 0.164981
0.888518 0.000000 0.112917
1.000000 0.000000 0.000000
1.000000 0.000000 0.000000
0.000000 0.193240 0.217197
0.014191 0.192782 0.218082
0.131136 0.179080 0.215091
0.279088 0.170596 0.209323
0.587243 0.044617 0.167361
0.864622 0.000000 0.111391
1.000000 0.000000 0.000000
1.000000 0.077241 0.000000
0.000000 0.217197 0.223087
0.025971 0.221347 0.226841
0.140017 0.239536 0.243137
0.329839 0.238010 0.214176
0.573388 0.225101 0.168856
0.850034 0.212924 0.079072
1.000000 0.242679 0.000000
1.000000 0.304967 0.000000
0.102541 0.286046 0.258427
0.125460 0.292393 0.263371
0.193332 0.294224 0.275639
0.307500 0.301671 0.229984
0.555932 0.334539 0.170871
0.811337 0.377630 0.000000
1.000000 0.430640 0.000000
1.000000 0.474067 0.000000
0.235569 0.370916 0.316503
0.242863 0.368109 0.315709
0.266026 0.358556 0.313848
0.342565 0.379889 0.283696
0.501274 0.382574 0.210849
0.766995 0.439246 0.041047
0.995758 0.553979 0.000000
1.000000 0.619043 0.000000
0.337469 0.440192 0.358007
0.342992 0.439216 0.358343
0.359258 0.431739 0.357275
0.403601 0.438483 0.342596
0.536797 0.481788 0.279240
0.726833 0.499458 0.162387
0.988708 0.622614 0.000000
1.000000 0.726070 0.000000
0.506554 0.564843 0.433936
0.506920 0.560967 0.432227
0.514702 0.550195 0.428840
0.534966 0.538476 0.427314
0.650660 0.599939 0.370031
0.796353 0.651362 0.267826
0.959716 0.690608 0.000000
1.000000 0.777890 0.000000
0.774655 0.798550 0.610834
0.775204 0.795773 0.608728
0.786740 0.793271 0.610712
0.817838 0.799771 0.627405
0.873075 0.831113 0.598566
0.947143 0.870848 0.545708
1.000000 0.884031 0.475654
1.000000 0.868589 0.352148
0.000000 0.225315 0.272740
0.000000 0.225315 0.272557
0.049561 0.202396 0.267887
0.187472 0.190158 0.262303
0.229099 0.214084 0.249424
0.746273 0.000000 0.253361
1.000000 0.000000 0.159976
1.000000 0.000000 0.000000
0.000000 0.230900 0.272984
0.000000 0.230930 0.276249
0.059968 0.212802 0.276005
0.196139 0.200259 0.270756
0.252171 0.220584 0.258915
0.790585 0.000000 0.248966
1.000000 0.000000 0.158328
1.000000 0.159548 0.000000
0.000000 0.259312 0.281163
0.000000 0.262760 0.284916
0.103761 0.268345 0.302495
0.223941 0.243168 0.298772
0.409277 0.242924 0.301976
0.929442 0.000000 0.263645
1.000000 0.199191 0.148135
1.000000 0.339818 0.000000
0.000000 0.302922 0.304967
0.000000 0.307378 0.308812
0.141085 0.329808 0.328801
0.322026 0.385595 0.379156
0.608331 0.371069 0.327489
0.862333 0.367254 0.251957
1.000000 0.412940 0.090303
1.000000 0.481117 0.000000
0.144533 0.400732 0.354650
0.169253 0.405432 0.357305
0.261387 0.430793 0.374670
0.397620 0.446937 0.405585
0.569848 0.462745 0.337835
0.825132 0.505486 0.245182
1.000000 0.578271 0.000000
1.000000 0.626398 0.000000
0.343938 0.514336 0.411810
0.374334 0.525200 0.423346
0.435645 0.528649 0.437720
0.475837 0.509667 0.433997
0.586419 0.544793 0.387304
0.776089 0.561852 0.284977
0.999634 0.647974 0.000000
1.000000 0.729885 0.000000
0.534508 0.627832 0.486458
0.541070 0.627283 0.487160
0.561913 0.620844 0.486946
0.594202 0.608789 0.486976
0.664942 0.630304 0.460487
0.816098 0.693782 0.368261
0.967895 0.711269 0.188510
1.000000 0.783597 0.000000
0.786496 0.835203 0.658900
0.789242 0.834226 0.658656
0.801633 0.831205 0.659632
0.825834 0.828305 0.665492
0.859648 0.831174 0.664088
0.939666 0.875822 0.595300
1.000000 0.887236 0.487648
1.000000 0.872831 0.367193
0.000000 0.259892 0.326940
0.000000 0.258885 0.327031
0.000000 0.241917 0.325200
0.138155 0.224643 0.320653
0.248203 0.208682 0.312016
0.289464 0.229862 0.290654
0.706355 0.002289 0.348333
1.000000 0.000000 0.284001
0.000000 0.268193 0.329900
0.000000 0.268833 0.333715
0.000000 0.253422 0.333745
0.141665 0.232486 0.327672
0.256870 0.215702 0.319097
0.298039 0.236667 0.296117
0.741726 0.000000 0.355016
1.000000 0.000000 0.288304
0.000000 0.298955 0.342443
0.000000 0.299443 0.345342
0.000000 0.299474 0.358404
0.154788 0.268070 0.356207
0.291447 0.247227 0.346654
0.329686 0.266575 0.317082
0.876402 0.000000 0.373602
1.000000 0.000000 0.302464
0.000000 0.338933 0.361120
0.000000 0.342351 0.364599
0.063386 0.359533 0.381811
0.243717 0.382696 0.422461
0.392218 0.340185 0.417121
0.574914 0.341222 0.409857
1.000000 0.283116 0.409644
1.000000 0.372229 0.275029
0.000000 0.399847 0.393408
0.000000 0.404944 0.397894
0.165530 0.426917 0.417121
0.333410 0.478798 0.462623
0.590082 0.576410 0.549401
0.848295 0.555077 0.478767
1.000000 0.556023 0.375830
1.000000 0.575189 0.206668
0.183566 0.497444 0.443030
0.207156 0.502464 0.446021
0.287938 0.520256 0.455940
0.429908 0.563165 0.484230
0.593774 0.590661 0.527520
0.789883 0.633478 0.461677
0.997742 0.687831 0.352239
1.000000 0.737758 0.115389
0.405951 0.646204 0.498268
0.416327 0.647395 0.498756
0.464515 0.659266 0.506249
0.612543 0.691127 0.559930
0.671077 0.667872 0.556756
0.797513 0.720699 0.498299
0.959380 0.739681 0.372625
1.000000 0.787167 0.195712
0.715541 0.842679 0.659815
0.725521 0.843137 0.664363
0.755367 0.842374 0.674311
0.800595 0.845304 0.689631
0.840360 0.839322 0.697017
0.902708 0.863706 0.672786
0.989380 0.890105 0.572839
1.000000 0.867887 0.367895
0.000000 0.312810 0.403235
0.000000 0.312474 0.405524
0.000000 0.295781 0.400580
0.000000 0.264988 0.392859
0.212528 0.245731 0.380743
0.317632 0.222293 0.363531
0.360723 0.241367 0.336828
0.660578 0.219089 0.399390
0.000000 0.314977 0.399695
0.000000 0.314092 0.401068
0.000000 0.300694 0.399756
0.000000 0.268681 0.393103
0.211765 0.249180 0.380713
0.319219 0.225956 0.364660
0.362066 0.245060 0.337774
0.673915 0.215763 0.401648
0.000000 0.344640 0.414435
0.000000 0.344121 0.416266
0.000000 0.341711 0.425269
0.053285 0.304997 0.418463
0.230106 0.275547 0.404974
0.353460 0.248508 0.388708
0.397223 0.267826 0.357519
0.799863 0.199252 0.440375
0.000000 0.398535 0.437598
0.000000 0.399847 0.438880
0.000000 0.401648 0.449287
0.194461 0.405158 0.477424
0.287480 0.350683 0.470069
0.448646 0.312078 0.451270
0.484199 0.326940 0.404791
1.000000 0.235264 0.518822
0.000000 0.436378 0.453071
0.000000 0.438972 0.455604
0.065003 0.452003 0.468086
0.249912 0.483650 0.498756
0.438209 0.520684 0.557153
0.593652 0.455665 0.545708
0.750820 0.449928 0.522454
1.000000 0.516320 0.567773
0.000000 0.504753 0.485878
0.098329 0.511345 0.491493
0.202701 0.527306 0.505272
0.338964 0.564630 0.537896
0.536614 0.639765 0.604974
0.815946 0.789303 0.744594
0.989899 0.770596 0.670985
1.000000 0.739834 0.540368
0.252903 0.645258 0.565820
0.272404 0.651789 0.571191
0.335607 0.669612 0.585382
0.457679 0.704677 0.608972
0.640742 0.760555 0.649104
0.808316 0.791775 0.708095
0.949126 0.820523 0.631495
1.000000 0.831998 0.507347
0.559350 0.847227 0.677943
0.564874 0.846372 0.676112
0.601556 0.849638 0.677790
0.681514 0.861723 0.692714
0.813596 0.875883 0.749783
0.872129 0.866941 0.759884
0.955291 0.901366 0.716274
1.000000 0.887175 0.568444
0.000000 0.401984 0.524498
0.000000 0.402045 0.527672
0.000000 0.383948 0.521935
0.000000 0.345312 0.512261
0.181338 0.304295 0.491493
0.317296 0.265965 0.459998
0.409186 0.228702 0.425391
0.449744 0.245487 0.391180
0.000000 0.397314 0.513176
0.000000 0.398199 0.517082
0.000000 0.383093 0.513909
0.000000 0.344488 0.502586
0.172610 0.303075 0.482612
0.306767 0.265965 0.451514
0.398169 0.230167 0.418128
0.436133 0.246403 0.383917
0.000000 0.425391 0.526452
0.000000 0.423621 0.526909
0.000000 0.413428 0.527092
0.000000 0.376379 0.517937
0.174746 0.322820 0.497230
0.320989 0.283513 0.467506
0.428077 0.244633 0.437629
0.477394 0.262943 0.405310
0.000000 0.477211 0.546471
0.000000 0.473365 0.544671
0.000000 0.463996 0.544518
0.142489 0.449531 0.553063
0.199222 0.379492 0.537774
0.360327 0.329137 0.509697
0.491707 0.279637 0.478004
0.543359 0.298772 0.438392
0.000000 0.517571 0.552239
0.000000 0.515373 0.550347
0.000000 0.516045 0.552178
0.159548 0.518059 0.563348
0.319554 0.504143 0.586664
0.406867 0.415015 0.565454
0.577142 0.351507 0.532586
0.631800 0.367041 0.482856
0.000000 0.565698 0.571496
0.000000 0.567468 0.573205
0.000000 0.573388 0.579522
0.227451 0.587488 0.594476
0.381811 0.616266 0.625086
0.593164 0.655268 0.694087
0.763302 0.559167 0.672602
0.914549 0.558282 0.639521
0.000000 0.655177 0.617548
0.104311 0.659022 0.621057
0.204471 0.666682 0.627955
0.325963 0.686488 0.645991
0.482948 0.724636 0.681605
0.710628 0.802640 0.757473
0.924987 0.913054 0.879362
1.000000 0.895232 0.828061
0.354040 0.832029 0.734951
0.369146 0.834501 0.737453
0.434150 0.846555 0.750118
0.531701 0.861570 0.766781
0.662593 0.879942 0.787625
0.816007 0.900572 0.810239
0.920653 0.913176 0.853422
1.000000 0.925719 0.807065
0.183993 0.606287 0.761746
0.200107 0.605463 0.763699
0.203830 0.580682 0.754696
0.223911 0.535454 0.747097
0.252567 0.450019 0.730220
0.440192 0.390417 0.694270
0.577050 0.307591 0.646174
0.652094 0.226963 0.582300
0.146090 0.597589 0.748836
0.168093 0.597040 0.751186
0.192538 0.577539 0.746273
0.210483 0.531456 0.736782
0.239658 0.447700 0.719783
0.425940 0.387610 0.684077
0.558831 0.305974 0.632959
0.631952 0.228428 0.568688
0.142306 0.612970 0.746639
0.158633 0.610437 0.746914
0.201755 0.593713 0.742580
0.246769 0.560418 0.743587
0.260410 0.474769 0.723293
0.415198 0.400000 0.684840
0.556512 0.318242 0.635401
0.637568 0.238529 0.572320
0.147250 0.650172 0.750240
0.167025 0.649226 0.751675
0.211826 0.635554 0.749264
0.290043 0.611017 0.750515
0.310491 0.536065 0.737209
0.410956 0.438880 0.706447
0.572534 0.351598 0.658503
0.670832 0.261570 0.594903
0.161746 0.705867 0.756344
0.179080 0.705837 0.758175
0.208499 0.693172 0.755276
0.282628 0.672267 0.755428
0.373754 0.628504 0.753384
0.382391 0.501366 0.730129
0.576959 0.406195 0.684504
0.712520 0.303624 0.624323
0.211276 0.748501 0.769100
0.210941 0.745144 0.766506
0.229679 0.737209 0.760983
0.289372 0.731289 0.759396
0.379980 0.724758 0.765072
0.515160 0.684962 0.782620
0.620081 0.541009 0.763607
0.817258 0.410895 0.706813
0.349157 0.820615 0.806180
0.351629 0.819699 0.805509
0.367163 0.816464 0.803525
0.414466 0.815366 0.804593
0.489998 0.815244 0.808225
0.604334 0.820645 0.818967
0.764614 0.818357 0.846464
0.909850 0.668177 0.811398
0.541650 0.896849 0.851926
0.542870 0.896269 0.851347
0.557061 0.895964 0.851347
0.595819 0.897612 0.854093
0.653162 0.899260 0.857389
0.736721 0.902739 0.863676
0.856474 0.918791 0.885771
0.975097 0.970459 0.956085
