20 Preset/Street 2/【3】LUT video cho PR-AE-FCPX/Tone 1 (31).cube
# Created by Adobe Lightroom plugin Export LUT (1.24.0)
# www.johnrellis.com/lightroom/exportlut.htm
# Preset: 青橙风光-素材江湖31
# Color profile: C:\Program Files (x86)\Common Files\Adobe\Color\Profiles\Recommended\VideoHD.icc
LUT_3D_SIZE 8
DOMAIN_MIN 0.000000 0.000000 0.000000
DOMAIN_MAX 0.903226 0.903226 0.903226
0.099275 0.144137 0.140627
0.109071 0.144289 0.141390
0.181796 0.147616 0.144594
0.339178 0.142641 0.152255
0.591913 0.005066 0.162173
0.865507 0.000000 0.185458
1.000000 0.256992 0.236057
1.000000 0.405676 0.319493
0.093141 0.151888 0.141634
0.108339 0.152743 0.141543
0.177829 0.159792 0.144686
0.324651 0.162661 0.152010
0.567132 0.125368 0.161135
0.828367 0.112947 0.179324
0.981628 0.258579 0.221378
1.000000 0.400458 0.301671
0.036744 0.204898 0.150790
0.088746 0.204440 0.153750
0.171542 0.213077 0.152255
0.367315 0.247959 0.152590
0.633417 0.269352 0.158053
0.858244 0.325719 0.179538
0.998413 0.419501 0.244083
1.000000 0.504265 0.339178
0.000000 0.365728 0.160433
0.000000 0.363012 0.165347
0.125887 0.378424 0.170260
0.390906 0.416083 0.157137
0.701930 0.504143 0.146548
0.893980 0.553246 0.199374
0.991760 0.577661 0.281895
1.000000 0.612085 0.377050
0.000000 0.618311 0.181155
0.000000 0.616449 0.189425
0.000000 0.616388 0.220371
0.414405 0.625177 0.209140
0.634852 0.625208 0.185824
0.834073 0.666011 0.222293
0.962127 0.696742 0.325536
1.000000 0.714687 0.430335
0.000000 0.789578 0.303838
0.000000 0.795865 0.321172
0.317754 0.792660 0.348363
0.498512 0.788357 0.361517
0.658198 0.781765 0.345586
0.804501 0.776455 0.328222
0.927428 0.790311 0.398199
1.000000 0.805295 0.511681
0.440101 0.887572 0.489754
0.461463 0.887755 0.497169
0.520287 0.884398 0.513420
0.608057 0.879698 0.543053
0.694820 0.873686 0.527672
0.794430 0.868620 0.515251
0.894560 0.863859 0.503349
0.970672 0.863859 0.565087
0.653925 0.943053 0.670069
0.660060 0.942596 0.672541
0.686183 0.941161 0.684535
0.731289 0.938994 0.708522
0.761379 0.931273 0.694301
0.819944 0.930388 0.695338
0.884764 0.929656 0.698116
0.950713 0.927642 0.696315
0.096529 0.144320 0.147494
0.105440 0.143893 0.148531
0.169162 0.145754 0.152804
0.299870 0.147707 0.166018
0.537804 0.089082 0.180148
0.799405 0.000000 0.202243
0.963409 0.190280 0.239414
1.000000 0.357946 0.306981
0.088258 0.151339 0.148562
0.106508 0.153231 0.150179
0.167910 0.160098 0.157107
0.304845 0.163577 0.166720
0.539788 0.132021 0.179904
0.792569 0.092409 0.200565
0.951080 0.220462 0.234104
1.000000 0.364172 0.297368
0.036957 0.204807 0.160708
0.090547 0.204685 0.164096
0.168185 0.211276 0.165255
0.348791 0.240513 0.171084
0.587182 0.252720 0.181491
0.812802 0.290440 0.200931
0.960052 0.369390 0.242649
1.000000 0.465095 0.321599
0.000000 0.347814 0.173831
0.000000 0.347662 0.178164
0.122957 0.357397 0.187594
0.345556 0.376440 0.177951
0.628962 0.443580 0.175814
0.838346 0.496895 0.203799
0.958007 0.532494 0.262333
1.000000 0.578668 0.349523
0.000000 0.604181 0.198978
0.000000 0.600519 0.205234
0.000000 0.596094 0.234073
0.380224 0.597406 0.223972
0.597192 0.592798 0.200229
0.807034 0.639704 0.226841
0.947356 0.678614 0.318791
1.000000 0.699214 0.415381
0.000000 0.775570 0.302037
0.000000 0.775387 0.308934
0.264439 0.773281 0.336248
0.471077 0.771633 0.356634
0.639429 0.767910 0.344030
0.792966 0.766659 0.331975
0.919829 0.782528 0.396887
0.998413 0.798093 0.503960
0.405982 0.879789 0.475105
0.420233 0.877958 0.476143
0.485908 0.874388 0.491951
0.586053 0.870451 0.528069
0.682429 0.866758 0.519310
0.784939 0.861753 0.506859
0.885832 0.855375 0.488960
0.964904 0.855528 0.546532
0.636500 0.939605 0.657008
0.646204 0.939757 0.662501
0.673060 0.938140 0.674128
0.720851 0.936004 0.699062
0.769986 0.933806 0.710689
0.821988 0.931212 0.704280
0.883421 0.928832 0.699886
0.949432 0.926604 0.696529
0.041596 0.145510 0.196262
0.052888 0.145388 0.198093
0.160403 0.142092 0.203799
0.316930 0.134279 0.216007
0.551171 0.000000 0.237736
0.801663 0.000000 0.273167
0.963073 0.188388 0.326329
1.000000 0.376104 0.390204
0.028382 0.153536 0.199374
0.071534 0.152956 0.201724
0.163058 0.154635 0.207004
0.313420 0.153048 0.216678
0.540490 0.094118 0.237217
0.784756 0.000000 0.278233
0.951965 0.218784 0.319158
1.000000 0.382971 0.381659
0.000000 0.209079 0.210452
0.000000 0.211612 0.212558
0.166323 0.219181 0.219211
0.332067 0.234012 0.235477
0.584497 0.245945 0.260502
0.810941 0.282383 0.290227
0.956268 0.367956 0.331060
1.000000 0.470039 0.396551
0.000000 0.367803 0.238560
0.000000 0.372595 0.243107
0.114534 0.380407 0.254643
0.364599 0.395666 0.256657
0.650782 0.459602 0.282170
0.836820 0.498970 0.313817
0.956481 0.540032 0.361303
1.000000 0.589715 0.430304
0.000000 0.611994 0.271580
0.000000 0.611017 0.277287
0.000000 0.609857 0.302770
0.397833 0.612726 0.321141
0.614588 0.610620 0.300725
0.814023 0.650080 0.332982
0.945373 0.685634 0.411872
1.000000 0.704799 0.483101
0.000000 0.776944 0.362860
0.000000 0.777310 0.369604
0.269688 0.774441 0.392248
0.475715 0.770382 0.428290
0.634821 0.765896 0.413336
0.786679 0.764584 0.400244
0.914580 0.782803 0.458473
0.993072 0.802884 0.559991
0.427832 0.882292 0.521569
0.441840 0.880766 0.522820
0.501244 0.876371 0.534081
0.595514 0.871336 0.564263
0.686763 0.866819 0.566766
0.784939 0.862882 0.555169
0.885252 0.858854 0.542351
0.963775 0.861570 0.597803
0.641138 0.939910 0.676020
0.646174 0.939178 0.676967
0.672786 0.937530 0.687404
0.723812 0.936156 0.713893
0.774289 0.933562 0.732052
0.825040 0.931945 0.728298
0.884215 0.930205 0.724605
0.948394 0.928191 0.720760
0.000000 0.146792 0.304875
0.000000 0.146212 0.309331
0.109743 0.140017 0.314122
0.285588 0.121279 0.330358
0.547448 0.000000 0.354345
0.809934 0.000000 0.388159
0.955962 0.000000 0.413672
1.000000 0.294835 0.454322
0.000000 0.152407 0.317021
0.000000 0.152529 0.319280
0.106508 0.150912 0.324804
0.296818 0.133333 0.339269
0.564050 0.000000 0.360296
0.809384 0.000000 0.389868
0.951568 0.089479 0.414099
1.000000 0.321324 0.455604
0.000000 0.212985 0.331670
0.000000 0.211948 0.334417
0.000000 0.205417 0.344244
0.318120 0.201053 0.352728
0.603693 0.210269 0.376989
0.815122 0.236057 0.406226
0.954864 0.332830 0.441779
1.000000 0.469459 0.500542
0.000000 0.367773 0.360754
0.000000 0.370581 0.362432
0.000000 0.384100 0.372015
0.361028 0.403479 0.387121
0.605280 0.427344 0.407111
0.797238 0.463966 0.432166
0.931670 0.519005 0.469062
1.000000 0.584955 0.521691
0.000000 0.625238 0.410285
0.000000 0.624079 0.410773
0.000000 0.625605 0.421973
0.416602 0.630823 0.451423
0.626490 0.628779 0.446326
0.817197 0.665980 0.488014
0.929259 0.688716 0.531334
1.000000 0.711543 0.576989
0.000000 0.787594 0.498299
0.185702 0.792355 0.510521
0.301335 0.790494 0.499214
0.508812 0.785855 0.532189
0.653315 0.780331 0.544732
0.786984 0.772976 0.520409
0.908232 0.790524 0.568505
0.983764 0.812833 0.647272
0.432502 0.884550 0.583581
0.453803 0.884245 0.587976
0.522301 0.881926 0.602655
0.618524 0.877958 0.630671
0.708766 0.873075 0.656641
0.789944 0.868193 0.639826
0.881651 0.862547 0.620050
0.958923 0.867308 0.665095
0.653223 0.942992 0.714321
0.659388 0.942504 0.716060
0.685023 0.940795 0.724514
0.730159 0.938231 0.742428
0.783108 0.934874 0.766659
0.829343 0.933074 0.765438
0.884550 0.931823 0.761288
0.946746 0.930938 0.758968
0.000000 0.147036 0.473854
0.000000 0.144594 0.476967
0.000000 0.136110 0.479713
0.242588 0.105226 0.488685
0.500938 0.000000 0.506798
0.777340 0.000000 0.541405
0.966430 0.000000 0.557977
1.000000 0.283177 0.571740
0.000000 0.151400 0.483955
0.000000 0.151095 0.488319
0.000000 0.146212 0.491707
0.245121 0.118929 0.495216
0.511894 0.000000 0.513909
0.783413 0.000000 0.544488
0.964080 0.000000 0.558862
1.000000 0.314794 0.572900
0.000000 0.214511 0.502617
0.000000 0.209934 0.505241
0.000000 0.196414 0.510552
0.245121 0.183597 0.511803
0.535943 0.122042 0.526299
0.785580 0.133883 0.541985
0.946899 0.278416 0.556085
1.000000 0.403021 0.572259
0.000000 0.359655 0.522881
0.000000 0.359442 0.524926
0.000000 0.360113 0.534508
0.234836 0.355840 0.549371
0.579797 0.353948 0.554406
0.801999 0.433417 0.562280
0.922911 0.480079 0.570916
1.000000 0.542473 0.593133
0.000000 0.587579 0.547051
0.000000 0.590204 0.549096
0.000000 0.596857 0.554437
0.215457 0.606439 0.564477
0.594659 0.613184 0.574334
0.764462 0.625757 0.585199
0.891691 0.650813 0.605737
0.978210 0.686305 0.637781
0.000000 0.767941 0.564721
0.000000 0.767971 0.565972
0.000000 0.763973 0.567498
0.390021 0.760067 0.582696
0.621027 0.759701 0.616663
0.764248 0.762509 0.619104
0.892271 0.790188 0.668208
0.967437 0.807401 0.707942
0.332097 0.880339 0.646326
0.361059 0.878843 0.647089
0.465492 0.874968 0.655695
0.591211 0.872801 0.674525
0.698848 0.869596 0.702327
0.782376 0.864897 0.709316
0.868803 0.858305 0.685969
0.949187 0.865660 0.719356
0.636561 0.939147 0.744503
0.639918 0.938903 0.743771
0.655299 0.938109 0.742031
0.707668 0.937621 0.757656
0.771695 0.934234 0.781491
0.827726 0.931548 0.799588
0.878813 0.929992 0.792355
0.940063 0.928313 0.785245
0.000000 0.143832 0.669276
0.000000 0.140047 0.670497
0.000000 0.126436 0.668208
0.141909 0.036896 0.669490
0.487526 0.000000 0.672847
0.738460 0.000000 0.691890
0.931060 0.000000 0.706386
1.000000 0.249424 0.705348
0.000000 0.148470 0.660151
0.000000 0.147250 0.660182
0.000000 0.138369 0.660243
0.114290 0.092470 0.661891
0.478706 0.000000 0.666590
0.728878 0.000000 0.683131
0.923430 0.000000 0.698665
1.000000 0.272404 0.699886
0.000000 0.206149 0.678248
0.000000 0.198825 0.678828
0.000000 0.187655 0.680323
0.000000 0.166384 0.678309
0.492378 0.000000 0.680751
0.742977 0.000000 0.692775
0.928069 0.127352 0.704097
1.000000 0.410437 0.703426
0.000000 0.366918 0.697963
0.000000 0.363195 0.697993
0.000000 0.350561 0.703304
0.000000 0.331792 0.716091
0.525719 0.317235 0.715633
0.770413 0.320867 0.719051
0.928191 0.449897 0.719142
1.000000 0.570520 0.719753
0.000000 0.568292 0.697963
0.000000 0.567803 0.698512
0.000000 0.566705 0.701686
0.000000 0.564416 0.709194
0.495186 0.557580 0.716396
0.750912 0.560754 0.714900
0.898222 0.641138 0.717739
0.977356 0.671778 0.720516
0.000000 0.752407 0.703792
0.000000 0.755398 0.707332
0.000000 0.755734 0.708980
0.000000 0.755886 0.713130
0.512627 0.755856 0.718624
0.751400 0.764309 0.732906
0.866056 0.774105 0.743496
0.949218 0.788998 0.758755
0.000000 0.887480 0.721645
0.000000 0.887633 0.723659
0.000000 0.884764 0.726497
0.424506 0.879210 0.734493
0.651637 0.872282 0.754482
0.784573 0.868742 0.782803
0.861845 0.862028 0.771145
0.943847 0.875914 0.801053
0.465461 0.945617 0.760342
0.480690 0.944671 0.760830
0.548150 0.941894 0.767483
0.653559 0.938262 0.785092
0.754543 0.934203 0.808865
0.821225 0.931823 0.827695
0.876127 0.930266 0.835477
0.934203 0.928161 0.825742
0.000000 0.142397 0.815396
0.000000 0.137728 0.816800
0.000000 0.111910 0.815335
0.000000 0.000000 0.815763
0.462135 0.000000 0.814359
0.695796 0.000000 0.811276
0.881712 0.000000 0.817716
1.000000 0.000000 0.813321
0.000000 0.142000 0.807706
0.000000 0.139681 0.809995
0.000000 0.125002 0.809628
0.000000 0.000000 0.808713
0.447150 0.000000 0.806638
0.684077 0.000000 0.802213
0.870756 0.000000 0.807584
1.000000 0.000000 0.803433
0.000000 0.183169 0.817716
0.000000 0.179110 0.818082
0.000000 0.173526 0.816342
0.000000 0.141085 0.814450
0.435706 0.000000 0.810575
0.686519 0.000000 0.806638
0.878294 0.000000 0.814572
1.000000 0.139315 0.811063
0.000000 0.338231 0.825589
0.000000 0.331395 0.824765
0.000000 0.306096 0.824765
0.000000 0.280613 0.826139
0.417578 0.250553 0.822141
0.692195 0.206027 0.818723
0.883330 0.233524 0.823606
0.999237 0.421393 0.814176
0.000000 0.534539 0.819272
0.000000 0.530480 0.818143
0.000000 0.518730 0.817960
0.000000 0.496010 0.821286
0.328985 0.473365 0.823270
0.665431 0.461860 0.817899
0.864103 0.486610 0.818967
0.976226 0.615473 0.813840
0.000000 0.715602 0.815671
0.000000 0.715206 0.816159
0.000000 0.712642 0.817441
0.000000 0.706538 0.819974
0.279606 0.697566 0.822660
0.657832 0.702571 0.826535
0.847410 0.710018 0.825650
0.950042 0.775113 0.826841
0.000000 0.863066 0.821256
0.000000 0.863493 0.822202
0.000000 0.862242 0.822812
0.000000 0.859831 0.824704
0.432929 0.855772 0.826658
0.689693 0.853513 0.830442
0.846677 0.857450 0.838529
0.926360 0.861387 0.843015
0.000000 0.955138 0.812222
0.000000 0.954589 0.812955
0.000000 0.952483 0.816983
0.391608 0.947082 0.822934
0.622492 0.939727 0.833921
0.778683 0.933654 0.852934
0.875578 0.932189 0.877775
0.929442 0.929747 0.873381
0.000000 0.150851 0.919921
0.000000 0.146883 0.920409
0.000000 0.121645 0.918669
0.000000 0.000000 0.917754
0.417823 0.000000 0.916075
0.665736 0.000000 0.913054
0.841398 0.000000 0.910063
0.984955 0.000000 0.911437
0.000000 0.147555 0.916838
0.000000 0.143435 0.917418
0.000000 0.115816 0.916258
0.000000 0.000000 0.915129
0.406012 0.000000 0.913481
0.659998 0.000000 0.910491
0.836576 0.000000 0.906737
0.980591 0.000000 0.907652
0.000000 0.167391 0.916472
0.000000 0.165896 0.916503
0.000000 0.155306 0.915221
0.000000 0.108064 0.916381
0.373754 0.000000 0.913664
0.649012 0.000000 0.909483
0.832334 0.000000 0.905730
0.978180 0.000000 0.906554
0.000000 0.286412 0.915770
0.000000 0.279942 0.916411
0.000000 0.251164 0.916747
0.000000 0.233494 0.916838
0.294377 0.187869 0.914763
0.630030 0.000000 0.911131
0.825986 0.000000 0.907103
0.974151 0.000000 0.907134
0.000000 0.473304 0.911009
0.000000 0.468849 0.911772
0.000000 0.446143 0.912322
0.000000 0.410346 0.914153
0.000000 0.383062 0.913207
0.578393 0.359777 0.908751
0.802579 0.347448 0.904326
0.959167 0.407507 0.904143
0.000000 0.660761 0.903105
0.000000 0.657923 0.902678
0.000000 0.647578 0.902037
0.000000 0.628290 0.902892
0.000000 0.597253 0.905669
0.503868 0.599054 0.906310
0.771420 0.603906 0.903716
0.935241 0.641932 0.903258
0.000000 0.815457 0.898589
0.000000 0.814603 0.898436
0.000000 0.810849 0.898070
0.000000 0.804257 0.898619
0.000000 0.794156 0.899290
0.476997 0.787594 0.900084
0.765591 0.801450 0.901061
0.913573 0.811368 0.901549
0.000000 0.940551 0.902190
0.000000 0.940032 0.902037
0.000000 0.938140 0.902159
0.000000 0.934691 0.903136
0.260685 0.929290 0.904173
0.622736 0.924102 0.905638
0.803861 0.922606 0.909117
0.920348 0.927550 0.917388
