20 Preset/Street 2/【3】LUT video cho PR-AE-FCPX/Tone 1 (22).cube
# Created by Adobe Lightroom plugin Export LUT (1.24.0)
# www.johnrellis.com/lightroom/exportlut.htm
# Preset: 青橙风光-素材江湖22
# Color profile: C:\Program Files (x86)\Common Files\Adobe\Color\Profiles\Recommended\VideoHD.icc
LUT_3D_SIZE 5
DOMAIN_MIN 0.000000 0.000000 0.000000
DOMAIN_MAX 0.903226 0.903226 0.903226
0.056580 0.096407 0.101076
0.123842 0.112367 0.120302
0.249180 0.134371 0.149020
0.488991 0.145632 0.190311
0.874754 0.201877 0.276127
0.091279 0.151797 0.117830
0.138338 0.136904 0.121035
0.302159 0.175784 0.160647
0.584588 0.190372 0.206516
0.940856 0.299596 0.304082
0.211551 0.361303 0.159609
0.273075 0.311131 0.165011
0.473762 0.287358 0.147219
0.867063 0.457160 0.257053
1.000000 0.581598 0.410895
0.520134 0.688685 0.206424
0.564385 0.649928 0.208865
0.649165 0.549157 0.213535
0.908110 0.573236 0.151156
1.000000 0.755184 0.487831
0.830442 0.941039 0.511681
0.851377 0.933654 0.501610
0.899443 0.884703 0.422583
0.986175 0.871916 0.442969
1.000000 0.855192 0.521324
0.069978 0.131624 0.149020
0.108125 0.117006 0.141085
0.240177 0.142428 0.155581
0.476234 0.162051 0.188205
0.815396 0.190677 0.257420
0.000000 0.167056 0.173404
0.126253 0.168612 0.175967
0.289647 0.184512 0.178073
0.557488 0.199954 0.201816
0.874937 0.263676 0.276768
0.000000 0.410101 0.194919
0.246738 0.365911 0.214084
0.444953 0.300999 0.203708
0.809812 0.416876 0.246128
1.000000 0.567498 0.396246
0.479164 0.735714 0.285466
0.548302 0.698177 0.279698
0.643580 0.561242 0.265324
0.903929 0.590600 0.243107
1.000000 0.750393 0.480690
0.810575 0.947723 0.553033
0.833158 0.939971 0.539818
0.905058 0.907317 0.498177
0.985657 0.883146 0.497871
1.000000 0.862028 0.544427
0.077394 0.220066 0.280583
0.135409 0.201175 0.257542
0.231876 0.162600 0.251041
0.542596 0.000000 0.226383
0.738705 0.163638 0.264897
0.067720 0.276432 0.327886
0.165133 0.260075 0.314977
0.271702 0.205478 0.288975
0.545006 0.000000 0.241093
0.807187 0.228763 0.291752
0.000000 0.480140 0.475105
0.000000 0.481331 0.476722
0.491524 0.483253 0.488991
0.726558 0.452705 0.430732
0.985046 0.514824 0.422797
0.000000 0.873503 0.548058
0.000000 0.852232 0.500053
0.653529 0.741787 0.504479
0.889250 0.684627 0.508843
1.000000 0.793942 0.622339
0.633845 0.977630 0.633265
0.713924 0.969482 0.664576
0.846494 0.937957 0.640467
0.952087 0.882780 0.571954
1.000000 0.868315 0.614832
0.201694 0.388861 0.524315
0.242557 0.370916 0.507378
0.337346 0.340520 0.423774
0.446998 0.208774 0.414710
0.963775 0.000000 0.455940
0.250950 0.447608 0.566979
0.285008 0.423865 0.547784
0.370947 0.373632 0.461830
0.474464 0.239902 0.437385
0.951843 0.000000 0.441291
0.000000 0.622889 0.667140
0.266728 0.615442 0.662226
0.510582 0.556573 0.633692
0.610773 0.408240 0.555871
0.938659 0.000000 0.426947
0.000000 0.862028 0.824155
0.000000 0.857755 0.821744
0.457679 0.851713 0.823758
0.837583 0.847074 0.832212
0.967681 0.788876 0.742733
0.000000 1.000000 0.881498
0.000000 1.000000 0.873075
0.588403 0.998749 0.838193
0.889982 0.945525 0.813840
1.000000 0.915465 0.824674
0.626490 0.749233 0.865446
0.630518 0.732296 0.857572
0.660456 0.679072 0.821927
0.683162 0.622065 0.698451
0.796780 0.294865 0.689876
0.629908 0.763333 0.867216
0.635431 0.748592 0.860563
0.656092 0.687800 0.826749
0.686275 0.627619 0.705653
0.796078 0.314336 0.691035
0.645991 0.839445 0.891112
0.665614 0.831754 0.887327
0.698848 0.782712 0.864439
0.725307 0.688869 0.767514
0.828977 0.413733 0.729702
0.596399 0.919768 0.924468
0.617121 0.916747 0.922210
0.708431 0.908263 0.915648
0.816037 0.862150 0.892607
0.897398 0.672236 0.832425
0.511650 0.991638 0.964477
0.549279 0.990112 0.964202
0.684627 0.985046 0.964691
0.838804 0.977600 0.964904
0.968505 0.973999 0.968536
