20 Preset/Street 2/【3】LUT video cho PR-AE-FCPX/Tone 1 (23).cube
# Created by Adobe Lightroom plugin Export LUT (1.24.0)
# www.johnrellis.com/lightroom/exportlut.htm
# Preset: 青橙风光-素材江湖23
# Color profile: C:\Program Files (x86)\Common Files\Adobe\Color\Profiles\Recommended\VideoHD.icc
LUT_3D_SIZE 8
DOMAIN_MIN 0.000000 0.000000 0.000000
DOMAIN_MAX 0.903226 0.903226 0.903226
0.047822 0.089754 0.093996
0.047822 0.089754 0.093996
0.133272 0.112612 0.121218
0.248020 0.133089 0.152743
0.439185 0.157534 0.200107
0.703883 0.203311 0.269200
0.955566 0.362036 0.384131
1.000000 0.552789 0.527337
0.048859 0.096132 0.095094
0.066712 0.096193 0.095735
0.129427 0.115602 0.120638
0.234836 0.140017 0.150149
0.416236 0.171908 0.195773
0.678370 0.217777 0.262150
0.919158 0.346288 0.361944
1.000000 0.532738 0.503349
0.084657 0.166812 0.103639
0.118318 0.164431 0.102571
0.147738 0.146426 0.119753
0.248264 0.195132 0.159854
0.445014 0.239567 0.206302
0.726833 0.315648 0.281529
0.957519 0.459297 0.398291
1.000000 0.618219 0.545098
0.142611 0.288914 0.112856
0.181277 0.282536 0.108461
0.266300 0.260838 0.102785
0.328496 0.249241 0.146090
0.564385 0.347112 0.229007
0.800961 0.488045 0.324895
0.967254 0.593133 0.436500
1.000000 0.701930 0.575463
0.259953 0.458045 0.090639
0.292668 0.449042 0.079866
0.390997 0.416724 0.016083
0.488563 0.398077 0.084596
0.589197 0.391211 0.173434
0.799619 0.509789 0.299657
0.954223 0.678462 0.449561
1.000000 0.785183 0.612451
0.434577 0.633753 0.000000
0.465888 0.635950 0.000000
0.538079 0.605188 0.000000
0.624231 0.542412 0.000000
0.730739 0.568902 0.000000
0.841154 0.589593 0.224369
0.975189 0.717556 0.449012
1.000000 0.831724 0.643793
0.622950 0.815702 0.000000
0.638422 0.812772 0.000000
0.686397 0.790799 0.000000
0.759060 0.747372 0.000000
0.833066 0.718502 0.000000
0.921416 0.750515 0.093751
0.985992 0.766384 0.342626
1.000000 0.842283 0.631342
0.793942 0.934020 0.282628
0.801846 0.932158 0.271122
0.834470 0.924834 0.220859
0.890471 0.910338 0.000000
0.940948 0.871183 0.000000
0.990509 0.873991 0.000000
1.000000 0.877958 0.340185
1.000000 0.880461 0.574853
0.047181 0.093355 0.098970
0.047517 0.090547 0.095064
0.123537 0.109987 0.117739
0.221073 0.132235 0.145815
0.397467 0.164920 0.190860
0.652308 0.204105 0.254215
0.894255 0.318578 0.347173
1.000000 0.499031 0.480873
0.043702 0.097627 0.102815
0.057588 0.096010 0.100771
0.122408 0.115633 0.118776
0.220615 0.143038 0.146883
0.396002 0.178134 0.191470
0.649348 0.221073 0.254124
0.878752 0.323888 0.340307
1.000000 0.492134 0.468147
0.005493 0.167453 0.120302
0.098054 0.165896 0.120912
0.142611 0.145602 0.124483
0.234073 0.188174 0.155550
0.417853 0.234562 0.200168
0.676326 0.296696 0.265202
0.901244 0.407477 0.358648
1.000000 0.567285 0.498299
0.095003 0.284825 0.135195
0.147921 0.279271 0.130465
0.253696 0.257298 0.117464
0.295354 0.235721 0.152987
0.481544 0.305638 0.210147
0.721645 0.427344 0.289128
0.917052 0.529808 0.386419
1.000000 0.654261 0.525017
0.223819 0.457984 0.126375
0.260655 0.448035 0.120516
0.367681 0.413733 0.094392
0.462440 0.384985 0.111940
0.549523 0.372015 0.184573
0.756985 0.474342 0.281102
0.933043 0.646662 0.420996
1.000000 0.763149 0.581415
0.400702 0.625605 0.067323
0.425086 0.619135 0.032807
0.505241 0.590387 0.000000
0.605066 0.534295 0.000000
0.708705 0.553063 0.069490
0.825376 0.578454 0.237247
0.966217 0.701900 0.432807
1.000000 0.821164 0.624475
0.593744 0.805203 0.004120
0.605432 0.797787 0.000000
0.655940 0.774868 0.000000
0.734340 0.732326 0.000000
0.815549 0.703182 0.000000
0.908385 0.737484 0.111208
0.975616 0.751797 0.332677
1.000000 0.830045 0.606775
0.775296 0.929717 0.281651
0.785580 0.928832 0.275029
0.819181 0.920958 0.225254
0.877623 0.905882 0.000000
0.944793 0.879484 0.000000
0.990692 0.875853 0.000000
1.000000 0.877287 0.345892
1.000000 0.878843 0.570428
0.020111 0.135897 0.158206
0.023041 0.134218 0.155856
0.117433 0.107942 0.146273
0.200687 0.128908 0.158511
0.405005 0.173556 0.201572
0.664302 0.229007 0.258579
0.909941 0.355413 0.357824
1.000000 0.531365 0.498207
0.017151 0.137606 0.158053
0.035401 0.131380 0.157870
0.121859 0.115328 0.151064
0.212802 0.142519 0.167544
0.401160 0.187869 0.204898
0.656580 0.243778 0.256962
0.895415 0.358373 0.350958
1.000000 0.527459 0.488075
0.000000 0.176333 0.179416
0.000000 0.177646 0.181216
0.137270 0.180606 0.187869
0.250492 0.209506 0.204746
0.439155 0.250736 0.230076
0.688899 0.315801 0.269902
0.910643 0.430854 0.366552
1.000000 0.581994 0.505455
0.000000 0.311070 0.212467
0.000000 0.313725 0.204379
0.203525 0.306310 0.200778
0.318334 0.275914 0.220249
0.515892 0.349462 0.270573
0.738582 0.446571 0.313237
0.929473 0.552026 0.398779
1.000000 0.671870 0.539879
0.000000 0.500359 0.209110
0.000000 0.496681 0.217563
0.315984 0.467262 0.201602
0.476783 0.416815 0.177188
0.581018 0.414710 0.257755
0.773953 0.510735 0.340276
0.935271 0.649928 0.423285
1.000000 0.768765 0.588464
0.304845 0.667231 0.232151
0.345953 0.661433 0.224338
0.462257 0.631189 0.190097
0.592401 0.571130 0.120729
0.702296 0.564233 0.178592
0.822904 0.596796 0.312566
0.961578 0.710170 0.463203
1.000000 0.822232 0.626673
0.549615 0.834653 0.256931
0.564843 0.828336 0.244724
0.625818 0.804410 0.192233
0.717952 0.759884 0.000000
0.805539 0.705806 0.000000
0.904997 0.746456 0.213870
0.975036 0.769772 0.405737
1.000000 0.836057 0.619348
0.743862 0.938170 0.377295
0.752193 0.935790 0.366125
0.789212 0.927764 0.325475
0.856382 0.913787 0.241581
0.931365 0.886900 0.000000
0.986236 0.878172 0.142428
1.000000 0.881895 0.391974
1.000000 0.879759 0.575525
0.000000 0.194430 0.241245
0.000000 0.192630 0.241093
0.052461 0.143954 0.231357
0.190066 0.121065 0.209659
0.268193 0.156374 0.214328
0.592218 0.180362 0.286137
0.887022 0.334661 0.381750
1.000000 0.511376 0.479774
0.000000 0.192386 0.245060
0.000000 0.183322 0.243839
0.087037 0.149355 0.237522
0.200565 0.133089 0.220706
0.287083 0.168856 0.226047
0.617792 0.200198 0.297856
0.887297 0.352850 0.386908
1.000000 0.522362 0.481056
0.000000 0.247684 0.262730
0.000000 0.247745 0.264805
0.107576 0.226352 0.273808
0.232364 0.187137 0.256565
0.379583 0.232364 0.280491
0.705135 0.329717 0.369970
0.922881 0.455299 0.436286
1.000000 0.595697 0.514641
0.000000 0.330968 0.324681
0.000000 0.331518 0.325750
0.000000 0.336187 0.333104
0.313634 0.341070 0.348028
0.519249 0.392859 0.382940
0.733822 0.461219 0.422187
0.921416 0.558282 0.471931
1.000000 0.669581 0.541100
0.000000 0.552728 0.434516
0.000000 0.549828 0.424353
0.000000 0.544854 0.385229
0.432532 0.514214 0.350195
0.606043 0.486976 0.397833
0.792416 0.596460 0.489021
0.934142 0.711360 0.557977
1.000000 0.774746 0.612512
0.000000 0.739528 0.363745
0.000000 0.745785 0.355474
0.141787 0.727810 0.367041
0.550561 0.674922 0.344549
0.710109 0.610101 0.300420
0.831022 0.651087 0.450111
0.952300 0.760311 0.587732
1.000000 0.838651 0.676722
0.297673 0.879393 0.402472
0.363195 0.876982 0.408820
0.535210 0.863340 0.427008
0.673152 0.824826 0.345556
0.799649 0.754269 0.211093
0.900237 0.768673 0.333440
0.967559 0.797360 0.520989
1.000000 0.857023 0.690272
0.681392 0.957519 0.548669
0.691890 0.955779 0.541192
0.733547 0.948241 0.503899
0.808804 0.932769 0.428138
0.900267 0.905760 0.292607
0.974731 0.880705 0.231662
1.000000 0.888640 0.461524
1.000000 0.889677 0.638544
0.000000 0.274815 0.358160
0.000000 0.264836 0.357275
0.000000 0.212528 0.344366
0.181582 0.160678 0.319341
0.288701 0.136110 0.291081
0.354772 0.177432 0.275242
0.695796 0.220584 0.377966
1.000000 0.432105 0.524468
0.000000 0.262333 0.359472
0.000000 0.254429 0.359716
0.000000 0.213931 0.351080
0.186007 0.172549 0.329320
0.298741 0.146365 0.299962
0.365148 0.187381 0.282811
0.714076 0.238590 0.389349
1.000000 0.462531 0.539422
0.000000 0.331792 0.390631
0.000000 0.328313 0.393133
0.000000 0.292576 0.388647
0.194980 0.225559 0.367834
0.339727 0.192966 0.336156
0.403235 0.229801 0.311711
0.777249 0.316197 0.433326
1.000000 0.560479 0.587976
0.000000 0.419928 0.432624
0.000000 0.420478 0.433631
0.000000 0.424750 0.439826
0.275242 0.386236 0.454383
0.435981 0.311406 0.419623
0.589105 0.366857 0.432593
0.892271 0.533165 0.563958
1.000000 0.661494 0.632258
0.000000 0.539513 0.516930
0.000000 0.540978 0.518883
0.000000 0.543877 0.524559
0.325597 0.548363 0.536370
0.563165 0.546868 0.550256
0.747646 0.612940 0.592706
0.907683 0.693721 0.639704
1.000000 0.770291 0.689570
0.000000 0.752193 0.653254
0.000000 0.755550 0.656397
0.000000 0.748348 0.633509
0.223056 0.732876 0.572107
0.617273 0.683314 0.504479
0.798367 0.689113 0.586633
0.923766 0.804623 0.709346
0.984131 0.870390 0.776394
0.000000 0.909636 0.626917
0.000000 0.907347 0.617029
0.000000 0.900420 0.575738
0.367071 0.885344 0.529747
0.714321 0.832059 0.492103
0.865507 0.774716 0.430945
0.944213 0.819059 0.636957
0.992096 0.878874 0.769986
0.070527 0.981720 0.561028
0.244297 0.979583 0.564935
0.471962 0.970794 0.581811
0.689754 0.956054 0.620783
0.819394 0.930541 0.524041
0.941619 0.887175 0.333104
0.997040 0.891112 0.521141
1.000000 0.899077 0.713832
0.000000 0.381964 0.519768
0.000000 0.370855 0.517906
0.000000 0.316594 0.501152
0.000000 0.231815 0.471107
0.316594 0.177188 0.430915
0.420996 0.140078 0.390967
0.487984 0.189944 0.360021
0.797482 0.268742 0.475807
0.000000 0.359899 0.506554
0.000000 0.348669 0.503349
0.000000 0.307836 0.492287
0.000000 0.238773 0.470253
0.316014 0.185885 0.432380
0.421668 0.149233 0.391943
0.487312 0.197147 0.360601
0.798611 0.276799 0.476967
0.000000 0.434485 0.544182
0.000000 0.424903 0.541405
0.000000 0.384039 0.531182
0.000000 0.294713 0.508782
0.340642 0.232578 0.468971
0.464088 0.191012 0.425635
0.525811 0.235660 0.388006
0.852689 0.343297 0.519158
0.000000 0.547814 0.583673
0.000000 0.543267 0.583642
0.007324 0.528740 0.589929
0.257023 0.470741 0.592004
0.400336 0.352941 0.556420
0.561700 0.294438 0.505119
0.608392 0.328923 0.452216
0.946441 0.504448 0.616052
0.000000 0.632013 0.630365
0.000000 0.631617 0.630518
0.000000 0.631159 0.632624
0.361028 0.632624 0.638941
0.505211 0.577539 0.646845
0.651423 0.470924 0.596399
0.775692 0.527733 0.595361
0.982391 0.738003 0.747921
0.000000 0.747646 0.706600
0.000000 0.751492 0.710689
0.000000 0.751217 0.712978
0.328099 0.751492 0.718532
0.551568 0.751614 0.727749
0.760891 0.758511 0.748318
0.895872 0.826535 0.797726
0.972656 0.871061 0.831846
0.000000 0.915435 0.826322
0.000000 0.917113 0.828916
0.145388 0.919890 0.834104
0.433387 0.923186 0.840055
0.580407 0.908873 0.786252
0.792416 0.859586 0.694148
0.916777 0.861143 0.780575
0.973999 0.915312 0.862516
0.279271 0.987304 0.825040
0.291264 0.986572 0.821042
0.360021 0.984039 0.806241
0.467597 0.979614 0.773404
0.613550 0.968414 0.713710
0.842679 0.931121 0.658564
0.968170 0.895506 0.588006
0.992859 0.916381 0.806332
0.000000 0.529686 0.698573
0.000000 0.521660 0.699336
0.000000 0.472633 0.687465
0.000000 0.367926 0.665217
0.293004 0.275395 0.620783
0.496681 0.167819 0.557641
0.569268 0.110292 0.498909
0.628656 0.188510 0.455787
0.000000 0.506279 0.682277
0.000000 0.499458 0.683955
0.000000 0.452705 0.672969
0.000000 0.358495 0.650355
0.280003 0.277470 0.609918
0.481819 0.175998 0.546685
0.554284 0.123934 0.488136
0.609033 0.191897 0.443244
0.000000 0.556023 0.705928
0.000000 0.547570 0.703944
0.000000 0.506798 0.692195
0.000000 0.421118 0.671870
0.284245 0.317967 0.631952
0.500603 0.218051 0.571038
0.591058 0.165682 0.517205
0.651179 0.229435 0.473579
0.000000 0.661524 0.739345
0.000000 0.654932 0.737270
0.137667 0.632441 0.735042
0.217472 0.559258 0.720211
0.293828 0.415290 0.687434
0.543175 0.311894 0.629511
0.655909 0.251682 0.571954
0.705104 0.303044 0.516625
0.000000 0.749813 0.753597
0.000000 0.745846 0.750454
0.201938 0.735653 0.747311
0.349401 0.708400 0.751644
0.442084 0.622431 0.743435
0.562554 0.459754 0.693965
0.714137 0.379919 0.630823
0.761837 0.414130 0.569482
0.000000 0.819608 0.798398
0.000000 0.819577 0.798764
0.176303 0.817807 0.799161
0.379706 0.814145 0.799924
0.548180 0.806821 0.799619
0.671626 0.748501 0.803098
0.809445 0.618891 0.749355
0.903777 0.679683 0.737392
0.000000 0.904051 0.853941
0.000000 0.904692 0.855131
0.239933 0.903288 0.855833
0.425483 0.900999 0.858091
0.590204 0.896269 0.860716
0.746242 0.891417 0.865934
0.878294 0.890440 0.875761
0.957122 0.924285 0.904509
0.365026 0.975586 0.905791
0.388159 0.975647 0.906554
0.475349 0.976226 0.910521
0.588220 0.976257 0.916075
0.708827 0.976440 0.924346
0.778012 0.968780 0.893553
0.885191 0.937041 0.820188
0.970489 0.938140 0.889067
0.111299 0.727138 0.867247
0.127504 0.721340 0.867643
0.113100 0.683864 0.861967
0.175998 0.606622 0.855802
0.279545 0.456886 0.839536
0.562432 0.341070 0.795895
0.730007 0.128054 0.726131
0.765042 0.000000 0.652491
0.000000 0.714290 0.861234
0.000000 0.708705 0.861875
0.006806 0.673213 0.857328
0.144778 0.593866 0.849271
0.272435 0.447517 0.831968
0.553460 0.336522 0.787961
0.717464 0.139559 0.717098
0.752621 0.000000 0.642267
0.109255 0.714046 0.859922
0.120180 0.707851 0.859464
0.132357 0.675471 0.854582
0.212039 0.612665 0.851987
0.267460 0.470893 0.835447
0.544579 0.367041 0.792386
0.716701 0.191989 0.723629
0.759823 0.104982 0.649439
0.312139 0.781216 0.866575
0.328069 0.778714 0.867247
0.327276 0.754177 0.864042
0.333440 0.698238 0.859037
0.355108 0.579553 0.847166
0.535088 0.440650 0.814206
0.726894 0.279545 0.749966
0.786893 0.200565 0.675471
0.347265 0.845853 0.868803
0.359686 0.844541 0.869749
0.385138 0.832029 0.868772
0.455390 0.806790 0.869291
0.464607 0.725673 0.860502
0.496834 0.548577 0.838560
0.722133 0.394812 0.781003
0.817746 0.303929 0.708400
0.394446 0.894743 0.880827
0.398169 0.893065 0.879515
0.426490 0.887907 0.876005
0.493843 0.880949 0.872374
0.563012 0.856657 0.873686
0.617884 0.780972 0.872587
0.724697 0.593011 0.843412
0.875395 0.474037 0.777340
0.433783 0.934966 0.907378
0.441108 0.934295 0.906981
0.473548 0.931670 0.905760
0.540307 0.927703 0.904814
0.629175 0.921324 0.903319
0.730678 0.912902 0.901152
0.798611 0.867643 0.898741
0.904967 0.732937 0.852659
0.494759 0.973999 0.933989
0.501305 0.973571 0.933806
0.534478 0.972198 0.933837
0.599451 0.969848 0.934691
0.681514 0.966033 0.935607
0.771633 0.960937 0.936736
0.862211 0.955993 0.939178
0.944732 0.953582 0.944549
