20 Preset/Street 2/【3】LUT video cho PR-AE-FCPX/Tone 1 (32).cube
# Created by Adobe Lightroom plugin Export LUT (1.24.0)
# www.johnrellis.com/lightroom/exportlut.htm
# Preset: 青橙风光-素材江湖32
# Color profile: C:\Program Files (x86)\Common Files\Adobe\Color\Profiles\Recommended\VideoHD.icc
LUT_3D_SIZE 8
DOMAIN_MIN 0.000000 0.000000 0.000000
DOMAIN_MAX 0.903226 0.903226 0.903226
0.075471 0.145327 0.163241
0.099031 0.144472 0.163180
0.171054 0.148013 0.166293
0.329076 0.138033 0.169986
0.606622 0.000000 0.170260
0.891600 0.000000 0.164981
1.000000 0.000000 0.168093
1.000000 0.268956 0.197086
0.065126 0.153597 0.165072
0.092073 0.155398 0.165255
0.163333 0.161196 0.168795
0.315160 0.160128 0.171817
0.584833 0.078157 0.171664
0.862089 0.000000 0.165499
1.000000 0.123568 0.165896
1.000000 0.291936 0.191867
0.000000 0.198306 0.178683
0.042878 0.198459 0.181460
0.150576 0.209079 0.178561
0.336950 0.241428 0.181521
0.631464 0.259007 0.174746
0.878660 0.296818 0.162264
1.000000 0.367864 0.173556
1.000000 0.437324 0.220462
0.000000 0.341619 0.199924
0.000000 0.340215 0.204044
0.044923 0.357427 0.206027
0.356115 0.398505 0.188327
0.681758 0.486946 0.172366
0.892271 0.538293 0.200107
1.000000 0.560479 0.229465
1.000000 0.585199 0.282628
0.000000 0.602228 0.233188
0.000000 0.601007 0.239902
0.000000 0.602533 0.265080
0.373388 0.616815 0.243320
0.623377 0.623560 0.202396
0.836240 0.664607 0.223758
0.977325 0.698238 0.319463
1.000000 0.714809 0.387182
0.000000 0.786160 0.347692
0.000000 0.791012 0.360571
0.240604 0.788113 0.385626
0.461524 0.785702 0.391180
0.640314 0.782376 0.361883
0.803250 0.779171 0.322667
0.942138 0.795254 0.370062
1.000000 0.812497 0.472480
0.390082 0.897429 0.510582
0.414740 0.897490 0.516258
0.485969 0.894072 0.531579
0.585504 0.889281 0.556634
0.682185 0.884520 0.533135
0.793790 0.879850 0.504753
0.907317 0.874266 0.468025
1.000000 0.875090 0.505730
0.607630 0.966766 0.655207
0.615473 0.966247 0.657527
0.647364 0.964385 0.668208
0.701564 0.961334 0.689845
0.746181 0.953582 0.677180
0.815671 0.952026 0.662959
0.895933 0.950072 0.645502
0.981353 0.946960 0.622309
0.066987 0.147585 0.170565
0.086915 0.146792 0.171450
0.151492 0.148989 0.177584
0.297490 0.137972 0.182559
0.560327 0.000000 0.186770
0.840970 0.000000 0.187991
1.000000 0.000000 0.191867
1.000000 0.206546 0.212161
0.049866 0.154391 0.173495
0.086580 0.156039 0.175875
0.156222 0.159701 0.179934
0.299168 0.156893 0.184848
0.560723 0.058198 0.188357
0.834745 0.000000 0.188296
0.999359 0.000000 0.190402
1.000000 0.246464 0.209201
0.000000 0.199557 0.187991
0.040436 0.199588 0.191165
0.146761 0.207675 0.191043
0.321477 0.235294 0.198337
0.594354 0.241520 0.195621
0.844175 0.259831 0.190188
1.000000 0.321202 0.195590
1.000000 0.402014 0.228611
0.000000 0.330480 0.210391
0.000000 0.330877 0.214298
0.038361 0.342535 0.221286
0.321263 0.368597 0.206485
0.623133 0.439796 0.201907
0.848905 0.493599 0.215122
0.987152 0.523369 0.232242
1.000000 0.558404 0.277165
0.000000 0.592065 0.248081
0.000000 0.589471 0.253696
0.000000 0.587030 0.279271
0.345068 0.595789 0.260288
0.594141 0.599145 0.221592
0.815213 0.644587 0.238987
0.964263 0.683742 0.325475
1.000000 0.702449 0.383734
0.000000 0.775662 0.350408
0.000000 0.775418 0.356573
0.182223 0.773342 0.381445
0.439307 0.772732 0.394507
0.624994 0.771847 0.367803
0.793820 0.771664 0.333135
0.935302 0.789029 0.377600
1.000000 0.807004 0.474495
0.362158 0.890806 0.504753
0.381964 0.889158 0.506645
0.459876 0.885588 0.521324
0.569848 0.881407 0.552148
0.672755 0.878813 0.532860
0.785885 0.874388 0.504326
0.899687 0.867674 0.464820
0.995483 0.868864 0.499428
0.594781 0.963592 0.649073
0.605249 0.963592 0.653162
0.637812 0.961608 0.663539
0.693965 0.958648 0.685451
0.752346 0.955840 0.690059
0.816953 0.952758 0.671290
0.894530 0.949371 0.649378
0.979889 0.946014 0.625208
0.015015 0.156466 0.201663
0.027283 0.152804 0.202792
0.118929 0.155734 0.208988
0.229496 0.170809 0.236210
0.524346 0.000000 0.258213
0.837369 0.000000 0.252384
1.000000 0.000000 0.272801
1.000000 0.000000 0.298894
0.008362 0.164309 0.206607
0.035340 0.163455 0.209934
0.123079 0.165286 0.216037
0.244846 0.176333 0.241215
0.532494 0.000000 0.252689
0.830289 0.000000 0.255253
1.000000 0.000000 0.271153
1.000000 0.153658 0.296727
0.000000 0.202518 0.228824
0.000000 0.204837 0.231724
0.133822 0.211978 0.242527
0.315465 0.217380 0.250767
0.596216 0.197147 0.261967
0.845762 0.186252 0.271855
1.000000 0.262821 0.286351
1.000000 0.365362 0.314092
0.000000 0.347845 0.269474
0.000000 0.352270 0.273442
0.000000 0.360479 0.284550
0.330602 0.381842 0.280125
0.637354 0.445777 0.303471
0.849363 0.481544 0.313481
0.988495 0.512657 0.329686
1.000000 0.549828 0.361669
0.000000 0.600702 0.311650
0.000000 0.600183 0.317205
0.000000 0.600061 0.341466
0.353124 0.606714 0.353674
0.604181 0.611231 0.319646
0.818051 0.649683 0.346349
0.961547 0.687068 0.420050
1.000000 0.700465 0.448188
0.000000 0.777432 0.405798
0.000000 0.777554 0.411627
0.185916 0.774838 0.432654
0.446174 0.771145 0.464515
0.618891 0.769772 0.438209
0.786862 0.769467 0.405798
0.929870 0.788296 0.445167
1.000000 0.809720 0.533043
0.377081 0.893339 0.543755
0.396399 0.891875 0.545678
0.470375 0.887633 0.557183
0.577539 0.882383 0.584375
0.675868 0.878599 0.578363
0.784329 0.875029 0.552026
0.898192 0.870024 0.517174
0.994781 0.872923 0.549401
0.594781 0.964294 0.666835
0.602075 0.963531 0.668177
0.635370 0.961425 0.677760
0.694759 0.959136 0.700435
0.755703 0.955657 0.714382
0.818296 0.953460 0.697688
0.894011 0.950622 0.676967
0.978698 0.947417 0.653010
0.000000 0.172854 0.271794
0.000000 0.166384 0.274022
0.013428 0.163058 0.281804
0.198520 0.168063 0.300114
0.395422 0.190402 0.352850
0.742885 0.000000 0.422980
0.967437 0.000000 0.432349
1.000000 0.000000 0.415686
0.000000 0.182132 0.284886
0.000000 0.179232 0.287938
0.000000 0.173373 0.295323
0.208957 0.178286 0.311620
0.414221 0.208225 0.364172
0.753964 0.002472 0.424628
0.969512 0.000000 0.427466
1.000000 0.000000 0.407507
0.000000 0.227512 0.310918
0.000000 0.229801 0.314794
0.000000 0.227939 0.331670
0.239353 0.228000 0.343633
0.483589 0.283024 0.403693
0.803494 0.177432 0.428809
0.996765 0.000000 0.416876
1.000000 0.228855 0.426673
0.000000 0.345220 0.370428
0.000000 0.348455 0.373297
0.000000 0.363561 0.388037
0.312688 0.384863 0.413519
0.608270 0.391730 0.420142
0.826078 0.410040 0.427924
0.975647 0.451179 0.440650
1.000000 0.504204 0.461036
0.000000 0.611231 0.442176
0.000000 0.610895 0.442817
0.000000 0.614099 0.453101
0.366522 0.619715 0.479805
0.606775 0.622583 0.464698
0.815518 0.658015 0.500694
0.951171 0.678340 0.523186
1.000000 0.691066 0.536004
0.000000 0.785489 0.526024
0.000000 0.789120 0.535149
0.205997 0.787839 0.525292
0.474586 0.783230 0.555230
0.632074 0.779568 0.560906
0.783200 0.774380 0.523674
0.923217 0.792721 0.556878
1.000000 0.815549 0.622858
0.363104 0.895995 0.597772
0.390967 0.895598 0.601404
0.477333 0.893004 0.614343
0.591028 0.888548 0.639155
0.693080 0.883360 0.660060
0.785641 0.878843 0.631678
0.893553 0.872160 0.594476
0.990814 0.876493 0.620294
0.592920 0.968109 0.700587
0.601678 0.967529 0.702480
0.636286 0.965301 0.710719
0.694545 0.961761 0.727932
0.761959 0.957000 0.752346
0.819944 0.954498 0.740932
0.892027 0.952056 0.720882
0.976501 0.949920 0.699611
0.000000 0.199222 0.403265
0.000000 0.190951 0.405646
0.000000 0.177188 0.413642
0.132815 0.178805 0.425879
0.363043 0.171511 0.449989
0.626856 0.210422 0.513939
0.865660 0.349859 0.589258
1.000000 0.332952 0.612757
0.000000 0.213260 0.418280
0.000000 0.208560 0.421973
0.000000 0.188632 0.428595
0.137942 0.189731 0.436561
0.377173 0.184482 0.460029
0.637568 0.236820 0.521202
0.870512 0.362005 0.591791
1.000000 0.345006 0.611810
0.000000 0.275456 0.447486
0.000000 0.274327 0.451728
0.000000 0.260472 0.463844
0.151217 0.241123 0.469551
0.419043 0.247227 0.488289
0.659937 0.331701 0.539452
0.884245 0.399908 0.594720
1.000000 0.378119 0.601617
0.000000 0.383703 0.490669
0.000000 0.386267 0.493355
0.000000 0.398718 0.505760
0.217441 0.401312 0.531243
0.496742 0.398199 0.540551
0.705440 0.508721 0.587854
0.917418 0.472450 0.597528
1.000000 0.444068 0.580865
0.000000 0.573693 0.552117
0.000000 0.576654 0.554498
0.000000 0.585351 0.563043
0.182803 0.597711 0.578637
0.572045 0.606806 0.597803
0.778836 0.606104 0.594781
0.929137 0.616114 0.595300
1.000000 0.635523 0.600214
0.000000 0.770016 0.593286
0.000000 0.770108 0.594263
0.000000 0.767086 0.596612
0.358099 0.763516 0.611078
0.608118 0.762203 0.639796
0.760281 0.764553 0.628382
0.907744 0.790677 0.664637
1.000000 0.803281 0.685115
0.224186 0.891539 0.664027
0.274144 0.890288 0.664759
0.414954 0.886900 0.672023
0.557549 0.884794 0.684962
0.680934 0.880613 0.708461
0.775998 0.875608 0.707881
0.880003 0.867887 0.669612
0.981689 0.874388 0.690211
0.573877 0.965270 0.742123
0.578332 0.964996 0.740993
0.597955 0.963989 0.737026
0.662409 0.962493 0.748409
0.745937 0.957488 0.772183
0.817136 0.953216 0.787716
0.883818 0.950530 0.766415
0.968292 0.947417 0.741909
0.000000 0.250401 0.579461
0.000000 0.243717 0.581689
0.000000 0.212589 0.584161
0.000000 0.203494 0.589349
0.353552 0.188388 0.596674
0.608759 0.166384 0.620722
0.808316 0.301579 0.662806
0.947692 0.550927 0.727718
0.000000 0.265690 0.579126
0.000000 0.259159 0.579919
0.000000 0.229068 0.583307
0.000000 0.213993 0.588159
0.353063 0.202121 0.595819
0.604578 0.187991 0.617517
0.803525 0.318395 0.659907
0.943511 0.557305 0.725429
0.000000 0.343175 0.604425
0.000000 0.340307 0.606500
0.000000 0.316503 0.612573
0.000000 0.270573 0.615778
0.386847 0.267277 0.620081
0.632227 0.276829 0.635737
0.815305 0.414893 0.675044
0.940551 0.613123 0.737453
0.000000 0.475380 0.632044
0.000000 0.474983 0.633234
0.000000 0.472663 0.643885
0.000000 0.452949 0.663996
0.449958 0.418189 0.666987
0.679438 0.440467 0.673091
0.832944 0.568902 0.707881
0.959258 0.659876 0.753597
0.000000 0.602533 0.662562
0.000000 0.603082 0.663416
0.000000 0.606958 0.668360
0.000000 0.614923 0.678309
0.508415 0.611139 0.694575
0.698970 0.604425 0.696162
0.836728 0.694545 0.734920
0.987427 0.671870 0.738827
0.000000 0.751034 0.699672
0.000000 0.753445 0.702541
0.000000 0.754208 0.706050
0.000000 0.754940 0.713100
0.516411 0.755215 0.723598
0.742489 0.761990 0.742580
0.890837 0.758511 0.737545
1.000000 0.758389 0.732570
0.000000 0.896422 0.737209
0.000000 0.896513 0.738643
0.000000 0.893858 0.740505
0.344488 0.888762 0.746120
0.618067 0.882078 0.761196
0.774136 0.877379 0.786191
0.869352 0.868864 0.762722
0.975982 0.881285 0.786343
0.322271 0.970336 0.768826
0.350591 0.969421 0.769253
0.452125 0.966827 0.773770
0.590204 0.963134 0.786862
0.719356 0.958434 0.806973
0.806882 0.954009 0.824765
0.877958 0.950805 0.825681
0.960266 0.947112 0.800626
0.000000 0.349248 0.744381
0.000000 0.335637 0.745663
0.000000 0.295384 0.747127
0.000000 0.251011 0.749966
0.319188 0.238071 0.749874
0.606653 0.211765 0.747341
0.791318 0.246494 0.757382
0.913024 0.416785 0.773739
0.000000 0.355535 0.741054
0.000000 0.348882 0.743191
0.000000 0.312749 0.745113
0.000000 0.261418 0.747005
0.311925 0.250523 0.746517
0.600336 0.226932 0.742947
0.784451 0.258976 0.751980
0.907286 0.421637 0.768704
0.000000 0.436988 0.753475
0.000000 0.433814 0.754757
0.000000 0.401007 0.756100
0.000000 0.325048 0.759182
0.322637 0.313268 0.756313
0.611170 0.303563 0.752193
0.793484 0.344366 0.761440
0.911498 0.497963 0.780117
0.000000 0.551446 0.764218
0.000000 0.548089 0.764370
0.000000 0.537377 0.767971
0.000000 0.502098 0.775174
0.335882 0.437018 0.775662
0.628138 0.436866 0.770596
0.803403 0.475319 0.776120
0.912993 0.602625 0.795102
0.000000 0.658412 0.772610
0.000000 0.657099 0.772000
0.000000 0.655451 0.772610
0.000000 0.648219 0.778317
0.420417 0.621973 0.788632
0.633265 0.584985 0.785397
0.804471 0.605432 0.786831
0.914519 0.708339 0.813443
0.000000 0.761196 0.792782
0.000000 0.761074 0.793332
0.000000 0.759823 0.795071
0.000000 0.757473 0.798245
0.443946 0.755673 0.802243
0.678035 0.750149 0.813107
0.819211 0.742855 0.812009
0.922332 0.811521 0.842649
0.000000 0.872435 0.818601
0.000000 0.872587 0.819455
0.000000 0.871183 0.820798
0.000000 0.868467 0.823972
0.450782 0.864164 0.828519
0.684199 0.860716 0.835813
0.848844 0.861814 0.847654
0.963775 0.852750 0.837369
0.000000 0.977173 0.830655
0.000000 0.976654 0.830961
0.000000 0.974670 0.832822
0.000000 0.969635 0.835691
0.537530 0.962402 0.842252
0.744839 0.955352 0.857816
0.874815 0.952209 0.883543
0.952544 0.948425 0.869352
0.000000 0.527520 0.888853
0.000000 0.517021 0.889677
0.000000 0.463569 0.890440
0.000000 0.360571 0.893217
0.291081 0.348516 0.890166
0.617121 0.342626 0.884184
0.798337 0.353216 0.876524
0.920592 0.420081 0.875669
0.000000 0.515648 0.887083
0.000000 0.505028 0.888060
0.000000 0.456336 0.888853
0.000000 0.378393 0.891264
0.282200 0.359045 0.888487
0.613214 0.353674 0.882506
0.794675 0.362097 0.874388
0.917357 0.425422 0.873228
0.000000 0.560937 0.886748
0.000000 0.554925 0.887144
0.000000 0.525139 0.887724
0.000000 0.461524 0.891569
0.267735 0.412879 0.889586
0.607599 0.408270 0.882628
0.790524 0.415259 0.874357
0.913817 0.470619 0.873045
0.000000 0.636866 0.884947
0.000000 0.635187 0.885618
0.000000 0.626123 0.887053
0.000000 0.590661 0.889860
0.220645 0.507408 0.892088
0.598322 0.503532 0.885374
0.784482 0.506493 0.876921
0.909209 0.547967 0.875242
0.000000 0.724117 0.881682
0.000000 0.722591 0.882414
0.000000 0.712917 0.883635
0.000000 0.698756 0.886717
0.367376 0.667414 0.889555
0.576654 0.610529 0.887602
0.772396 0.606409 0.879118
0.902892 0.634363 0.877653
0.000000 0.796841 0.886046
0.000000 0.795590 0.885618
0.000000 0.791409 0.884764
0.000000 0.785275 0.884337
0.310643 0.775326 0.885832
0.610956 0.752926 0.892302
0.766506 0.722347 0.888365
0.900847 0.736599 0.886046
0.000000 0.874846 0.894926
0.000000 0.874083 0.894835
0.000000 0.870970 0.894560
0.000000 0.865660 0.894835
0.279484 0.858396 0.895323
0.599298 0.852354 0.896086
0.787289 0.844663 0.901610
0.905180 0.837491 0.899260
0.000000 0.962310 0.908659
0.000000 0.961761 0.908659
0.000000 0.959716 0.909056
0.000000 0.956085 0.910491
0.284306 0.950439 0.912627
0.603815 0.944182 0.916197
0.796506 0.940703 0.923339
0.940093 0.946288 0.939086
