20 Preset/Street 2/【3】LUT video cho PR-AE-FCPX/Tone 1 (19).cube
# Created by Adobe Lightroom plugin Export LUT (1.24.0)
# www.johnrellis.com/lightroom/exportlut.htm
# Preset: 青橙风光-素材江湖19
# Color profile: C:\Program Files (x86)\Common Files\Adobe\Color\Profiles\Recommended\VideoHD.icc
LUT_3D_SIZE 5
DOMAIN_MIN 0.000000 0.000000 0.000000
DOMAIN_MAX 0.903226 0.903226 0.903226
0.115389 0.115389 0.115389
0.208713 0.123201 0.121401
0.506554 0.182040 0.114809
0.906706 0.307073 0.000000
1.000000 0.396399 0.173892
0.130861 0.167147 0.118318
0.217746 0.179019 0.122469
0.527245 0.260319 0.105867
0.905638 0.367376 0.000000
1.000000 0.438819 0.197360
0.200137 0.337713 0.118715
0.292454 0.354772 0.116060
0.624140 0.470283 0.090974
0.935515 0.537835 0.154910
1.000000 0.558679 0.272099
0.307530 0.590875 0.000000
0.397345 0.609613 0.000000
0.660334 0.672450 0.000000
0.924651 0.708309 0.265202
1.000000 0.711543 0.405676
0.434119 0.839414 0.000000
0.501701 0.845304 0.000000
0.692653 0.853147 0.124666
0.937774 0.881559 0.344884
1.000000 0.850401 0.531579
0.113649 0.129671 0.179599
0.173281 0.137545 0.174868
0.446693 0.168460 0.173281
0.836393 0.295232 0.158450
1.000000 0.399573 0.181064
0.112032 0.184756 0.188815
0.193240 0.193240 0.193240
0.477394 0.244785 0.192660
0.850370 0.350103 0.174044
1.000000 0.435035 0.207889
0.144839 0.360815 0.196017
0.241215 0.360143 0.186740
0.568200 0.444160 0.218997
0.898497 0.526726 0.272313
1.000000 0.565179 0.330449
0.216739 0.586847 0.140658
0.340826 0.607233 0.149996
0.636683 0.672328 0.208164
0.911254 0.712764 0.355840
1.000000 0.723964 0.473487
0.371283 0.834928 0.000000
0.453895 0.840879 0.104860
0.681544 0.862974 0.252049
0.930999 0.887541 0.422278
1.000000 0.861906 0.587152
0.000000 0.213748 0.414496
0.000000 0.225040 0.416785
0.356329 0.200320 0.361822
0.696803 0.220768 0.421454
1.000000 0.394110 0.404456
0.000000 0.293553 0.432776
0.000000 0.285313 0.435584
0.381903 0.254520 0.386847
0.736446 0.276982 0.407935
1.000000 0.448951 0.432136
0.000000 0.457801 0.475257
0.000000 0.461463 0.476081
0.476326 0.476326 0.476326
0.814786 0.540734 0.496345
1.000000 0.604211 0.526146
0.272679 0.698421 0.514488
0.334661 0.687861 0.500999
0.493385 0.659541 0.427710
0.859159 0.738369 0.578393
1.000000 0.770138 0.651911
0.278630 0.850462 0.429877
0.309300 0.845823 0.402411
0.539849 0.847105 0.383703
0.875914 0.883207 0.556207
1.000000 0.878630 0.692195
0.000000 0.367926 0.727108
0.000000 0.389410 0.729915
0.135286 0.356634 0.715023
0.594049 0.303807 0.603998
0.819394 0.414252 0.670802
0.000000 0.438056 0.730983
0.000000 0.433814 0.731472
0.145235 0.394568 0.717403
0.600000 0.342626 0.609339
0.833890 0.441993 0.670954
0.000000 0.549584 0.736843
0.000000 0.547875 0.734859
0.311711 0.553338 0.733089
0.640711 0.493355 0.646937
0.902861 0.567254 0.679957
0.000000 0.741878 0.766384
0.091585 0.741482 0.764034
0.498238 0.747738 0.762081
0.752102 0.752102 0.752102
0.962737 0.792264 0.770016
0.583276 0.907042 0.790433
0.602502 0.905180 0.788815
0.663508 0.896025 0.775357
0.723842 0.867979 0.673976
0.983215 0.908141 0.822110
0.000000 0.520623 0.916258
0.000000 0.527825 0.915648
0.000000 0.554284 0.912200
0.591882 0.591211 0.886748
0.808377 0.494759 0.820096
0.000000 0.546136 0.914549
0.000000 0.552575 0.914275
0.000000 0.573968 0.909728
0.596948 0.608423 0.884794
0.807187 0.511101 0.818448
0.000000 0.617700 0.914305
0.000000 0.620539 0.912810
0.004974 0.643000 0.908659
0.622736 0.677150 0.888426
0.817166 0.589136 0.826383
0.000000 0.740810 0.915435
0.000000 0.741268 0.914122
0.255406 0.749966 0.911803
0.661952 0.782803 0.907836
0.852995 0.739986 0.858122
0.319280 0.898558 0.923827
0.391974 0.900206 0.924102
0.576898 0.906676 0.925170
0.768673 0.916869 0.926665
0.924559 0.924559 0.924559
