20 Preset/Street 2/【3】LUT video cho PR-AE-FCPX/Tone 1 (31).cube
# Created by Adobe Lightroom plugin Export LUT (1.24.0)
# www.johnrellis.com/lightroom/exportlut.htm
# Preset: 青橙风光-素材江湖31
# Color profile: C:\Program Files (x86)\Common Files\Adobe\Color\Profiles\Recommended\VideoHD.icc
LUT_3D_SIZE 5
DOMAIN_MIN 0.000000 0.000000 0.000000
DOMAIN_MAX 0.903226 0.903226 0.903226
0.099275 0.144137 0.140627
0.158999 0.146120 0.143832
0.459602 0.118471 0.157015
0.913756 0.097963 0.195773
1.000000 0.405676 0.319493
0.069062 0.186069 0.147219
0.148684 0.191684 0.149020
0.481300 0.222416 0.155917
0.905180 0.305730 0.192752
1.000000 0.486458 0.338994
0.000000 0.503044 0.163394
0.000000 0.494057 0.187503
0.527825 0.533043 0.160433
0.902434 0.624933 0.230808
1.000000 0.661738 0.395758
0.173922 0.827481 0.361517
0.343786 0.824918 0.385168
0.599817 0.816312 0.405219
0.832975 0.803159 0.372625
0.994476 0.821042 0.523644
0.653925 0.943053 0.670069
0.677485 0.941588 0.680385
0.736568 0.931914 0.694942
0.835996 0.930327 0.696376
0.950713 0.927642 0.696315
0.073823 0.145174 0.178439
0.141817 0.142000 0.184085
0.413153 0.116335 0.205600
0.836576 0.000000 0.262852
1.000000 0.359564 0.357458
0.001465 0.187961 0.187930
0.143160 0.194522 0.194034
0.434028 0.210086 0.219913
0.847074 0.251713 0.267948
1.000000 0.442969 0.368872
0.000000 0.484871 0.223575
0.000000 0.482429 0.244175
0.480537 0.494545 0.242283
0.872099 0.594415 0.307012
1.000000 0.654200 0.442481
0.163455 0.824552 0.408820
0.345953 0.822751 0.430640
0.600427 0.814359 0.465431
0.825986 0.800137 0.427588
0.988403 0.821164 0.561761
0.655116 0.942565 0.683864
0.677821 0.940948 0.692622
0.755581 0.936339 0.730434
0.842344 0.933349 0.727871
0.951415 0.931426 0.727749
0.000000 0.147219 0.384924
0.000000 0.140139 0.389654
0.385290 0.026429 0.416266
0.860410 0.000000 0.469947
1.000000 0.288426 0.510521
0.000000 0.193454 0.410163
0.000000 0.181704 0.417029
0.413703 0.145541 0.433265
0.851835 0.150210 0.472541
1.000000 0.394263 0.521721
0.000000 0.477272 0.453651
0.000000 0.486152 0.458991
0.484016 0.512078 0.480995
0.816281 0.554589 0.513756
0.996857 0.638819 0.582818
0.000000 0.816342 0.556542
0.285924 0.809995 0.563012
0.595758 0.806210 0.602380
0.807431 0.796872 0.591974
0.969726 0.824460 0.678950
0.625971 0.940887 0.714382
0.656031 0.939666 0.723995
0.746304 0.935088 0.757443
0.838163 0.930602 0.776028
0.942046 0.927733 0.764981
0.000000 0.143343 0.698299
0.000000 0.129397 0.699794
0.325994 0.000000 0.702113
0.771237 0.000000 0.719600
1.000000 0.130678 0.729274
0.000000 0.174685 0.706233
0.000000 0.169162 0.707118
0.314153 0.080415 0.707881
0.769711 0.000000 0.716762
1.000000 0.303410 0.724483
0.000000 0.444129 0.715755
0.000000 0.434913 0.716548
0.225193 0.402838 0.727016
0.771603 0.399084 0.723293
0.993469 0.603265 0.734310
0.000000 0.789487 0.742702
0.000000 0.787350 0.741817
0.303685 0.786007 0.748013
0.778286 0.790799 0.762814
0.941131 0.804410 0.777035
0.376593 0.947906 0.769558
0.466835 0.945525 0.775235
0.682429 0.938506 0.803647
0.837827 0.933013 0.843290
0.932860 0.928313 0.837034
0.000000 0.150851 0.919921
0.000000 0.132052 0.919005
0.198367 0.000000 0.917205
0.714534 0.000000 0.912444
0.984955 0.000000 0.911437
0.000000 0.155703 0.917144
0.000000 0.145418 0.916564
0.000000 0.000000 0.914763
0.704402 0.000000 0.909514
0.980804 0.000000 0.908629
0.000000 0.373999 0.914580
0.000000 0.351995 0.914366
0.000000 0.297490 0.914000
0.665339 0.223941 0.906340
0.967529 0.276677 0.905211
0.000000 0.705928 0.904143
0.000000 0.698817 0.903624
0.000000 0.670954 0.904723
0.580285 0.655024 0.904082
0.928161 0.689174 0.901946
0.000000 0.940551 0.902190
0.000000 0.938750 0.902068
0.000000 0.932189 0.903685
0.676509 0.923247 0.906279
0.920348 0.927550 0.917388
