20 Preset/Street 2/【3】LUT video cho PR-AE-FCPX/Tone 1 (31).cube
# Created by Adobe Lightroom plugin Export LUT (1.24.0)
# www.johnrellis.com/lightroom/exportlut.htm
# Preset: 青橙风光-素材江湖31
# Color profile: C:\Program Files (x86)\Common Files\Adobe\Color\Profiles\Recommended\VideoHD.icc
LUT_3D_SIZE 32
DOMAIN_MIN 0.0 0.0 0.0
DOMAIN_MAX 1.0 1.0 1.0
0.099275 0.144137 0.140627
0.099275 0.144137 0.140627
0.099275 0.144137 0.140627
0.099275 0.144137 0.140627
0.109071 0.144289 0.141390
0.123568 0.144167 0.142092
0.140108 0.144686 0.143099
0.158999 0.146120 0.143832
0.181796 0.147616 0.144594
0.210788 0.148440 0.146029
0.246311 0.148409 0.148196
0.289067 0.146792 0.150118
0.339178 0.142641 0.152255
0.396765 0.133730 0.154574
0.459602 0.118471 0.157015
0.525353 0.092226 0.159548
0.591913 0.005066 0.162173
0.657130 0.000000 0.165652
0.727474 0.000000 0.170016
0.804807 0.000000 0.176699
0.865507 0.000000 0.185458
0.913756 0.097963 0.195773
0.951873 0.163760 0.207492
0.983001 0.214298 0.220951
1.000000 0.256992 0.236057
1.000000 0.296300 0.253178
1.000000 0.333898 0.272465
1.000000 0.370062 0.294408
1.000000 0.405676 0.319493
1.000000 0.441627 0.348394
1.000000 0.478309 0.381201
1.000000 0.515679 0.418067
0.099275 0.144137 0.140627
0.099275 0.144137 0.140627
0.099275 0.144137 0.140627
0.099916 0.144106 0.140627
0.109621 0.144259 0.141390
0.123079 0.144198 0.142092
0.139223 0.144991 0.142824
0.157168 0.146548 0.143801
0.179568 0.147982 0.144411
0.207431 0.148836 0.145876
0.241855 0.148989 0.147860
0.283268 0.148043 0.149813
0.331975 0.144442 0.152255
0.388312 0.136294 0.154482
0.450080 0.122835 0.156649
0.515465 0.099519 0.159304
0.582147 0.028382 0.162051
0.647700 0.000000 0.165164
0.718044 0.000000 0.169223
0.793027 0.000000 0.175662
0.853269 0.000000 0.183261
0.901457 0.068482 0.192660
0.940124 0.148043 0.203464
0.972198 0.198978 0.215946
0.998962 0.242649 0.230045
1.000000 0.281834 0.245792
1.000000 0.319493 0.264134
1.000000 0.356786 0.285374
1.000000 0.393317 0.309911
1.000000 0.429999 0.338048
1.000000 0.467384 0.370367
1.000000 0.505333 0.406836
0.099275 0.144137 0.140627
0.099275 0.144137 0.140627
0.099275 0.144137 0.140627
0.100862 0.144259 0.140810
0.110750 0.144167 0.141390
0.123476 0.145480 0.141909
0.138796 0.146761 0.142824
0.156497 0.148348 0.143557
0.178408 0.149813 0.144381
0.205997 0.150759 0.145876
0.239902 0.151308 0.147616
0.280613 0.150637 0.149783
0.328649 0.147555 0.152041
0.383825 0.140963 0.154238
0.444984 0.128908 0.156466
0.509758 0.109285 0.158938
0.576074 0.064118 0.161593
0.641718 0.000000 0.164736
0.713252 0.000000 0.168887
0.786618 0.000000 0.174929
0.846433 0.000000 0.182071
0.894835 0.090791 0.191287
0.933867 0.151919 0.201419
0.966461 0.199130 0.213443
0.993622 0.241062 0.226810
1.000000 0.279088 0.242191
1.000000 0.316716 0.260227
1.000000 0.353368 0.281071
1.000000 0.389929 0.305028
1.000000 0.426581 0.332860
1.000000 0.463416 0.364843
1.000000 0.501152 0.401038
0.098299 0.145510 0.140902
0.098054 0.145754 0.140871
0.097688 0.145968 0.141054
0.101564 0.146365 0.140963
0.110811 0.147616 0.141115
0.123293 0.149111 0.141848
0.138552 0.150576 0.142519
0.156527 0.152285 0.143221
0.178653 0.153658 0.144472
0.206241 0.154940 0.145907
0.239872 0.156100 0.147799
0.279973 0.155642 0.149966
0.327520 0.153506 0.151949
0.381720 0.148440 0.154086
0.441535 0.138766 0.156252
0.504906 0.123323 0.158755
0.569848 0.099825 0.161440
0.634058 0.043427 0.164279
0.705989 0.000000 0.168338
0.774929 0.000000 0.173831
0.832792 0.010101 0.180270
0.880888 0.109468 0.188540
0.921172 0.158083 0.197910
0.955932 0.202182 0.209445
0.985565 0.242924 0.222660
1.000000 0.281804 0.238590
1.000000 0.319768 0.257206
1.000000 0.356939 0.278630
1.000000 0.393408 0.303319
1.000000 0.429419 0.331182
1.000000 0.465309 0.362768
1.000000 0.501213 0.397650
0.093141 0.151888 0.141634
0.093996 0.151827 0.141390
0.095949 0.151705 0.141604
0.100496 0.151827 0.142214
0.108339 0.152743 0.141543
0.121218 0.154788 0.141939
0.137026 0.156558 0.142092
0.155489 0.158145 0.143252
0.177829 0.159792 0.144686
0.205325 0.161624 0.145998
0.238285 0.163058 0.147860
0.277958 0.163729 0.149905
0.324651 0.162661 0.152010
0.378393 0.159365 0.154025
0.438025 0.152499 0.156252
0.501427 0.141207 0.158755
0.567132 0.125368 0.161135
0.631769 0.105318 0.164340
0.705867 0.085939 0.168063
0.772091 0.086336 0.173007
0.828367 0.112947 0.179324
0.875761 0.147158 0.187320
0.915953 0.184451 0.196689
0.951415 0.221378 0.207919
0.981628 0.258579 0.221378
1.000000 0.295232 0.237217
1.000000 0.330816 0.256016
1.000000 0.366003 0.277287
1.000000 0.400458 0.301671
1.000000 0.434913 0.329503
1.000000 0.469093 0.360510
1.000000 0.503624 0.394720
0.090974 0.159457 0.142519
0.091707 0.159426 0.142519
0.094392 0.159274 0.142947
0.098634 0.159213 0.143587
0.106050 0.160098 0.142885
0.117433 0.161227 0.142580
0.133700 0.164370 0.143130
0.154147 0.166781 0.143893
0.179324 0.169070 0.144900
0.207584 0.171633 0.146670
0.241306 0.173617 0.148379
0.281743 0.175418 0.150118
0.329137 0.175601 0.152193
0.383276 0.173739 0.154330
0.443244 0.169436 0.156191
0.507103 0.162081 0.158633
0.572412 0.152438 0.161135
0.642176 0.142000 0.164248
0.714229 0.138705 0.167941
0.777554 0.146487 0.173098
0.831998 0.166262 0.179324
0.878111 0.193362 0.187228
0.975830 0.293828 0.219974
1.000000 0.325414 0.236881
1.000000 0.355383 0.255680
1.000000 0.384649 0.276249
1.000000 0.412696 0.298985
1.000000 0.440772 0.322972
1.000000 0.469001 0.349920
1.000000 0.497658 0.379217
1.000000 0.526757 0.411170
1.000000 0.556298 0.445136
0.083925 0.172091 0.144228
0.084993 0.172061 0.144472
0.089082 0.171939 0.144686
0.094850 0.171817 0.145724
0.103395 0.172732 0.145693
0.116060 0.174166 0.145510
0.132815 0.175692 0.145418
0.156435 0.180362 0.146059
0.184573 0.184848 0.146944
0.220706 0.189425 0.147768
0.261906 0.193118 0.149050
0.307256 0.195621 0.151003
0.358953 0.196872 0.152865
0.416541 0.196506 0.154696
0.477607 0.194003 0.156710
0.540551 0.190097 0.158877
0.604273 0.185519 0.161440
0.683192 0.187594 0.164889
0.753170 0.197330 0.169314
0.814206 0.214633 0.175662
0.867399 0.239597 0.184207
0.913695 0.269657 0.195468
0.953185 0.302708 0.210178
0.986053 0.335668 0.227848
1.000000 0.367132 0.248264
1.000000 0.396094 0.269780
1.000000 0.422583 0.292485
1.000000 0.448463 0.316747
1.000000 0.474678 0.342809
1.000000 0.500969 0.371344
1.000000 0.528191 0.402289
1.000000 0.556146 0.435706
0.069062 0.186069 0.147219
0.070771 0.186038 0.147433
0.079377 0.185885 0.147860
0.088869 0.185763 0.148684
0.098207 0.186282 0.149538
0.111116 0.187625 0.149355
0.128267 0.189456 0.149172
0.148684 0.191684 0.149020
0.178988 0.198337 0.149355
0.214542 0.204746 0.149752
0.258305 0.211398 0.150454
0.311620 0.217288 0.150973
0.364111 0.220310 0.152499
0.421027 0.221958 0.154269
0.481300 0.222416 0.155917
0.543236 0.221775 0.157992
0.617365 0.224949 0.160189
0.688197 0.231174 0.163394
0.752377 0.242283 0.167330
0.809537 0.258854 0.173159
0.860197 0.280186 0.181491
0.905180 0.305730 0.192752
0.944366 0.333471 0.206973
0.977325 0.362280 0.224308
1.000000 0.390173 0.244541
1.000000 0.415412 0.266148
1.000000 0.439216 0.288975
1.000000 0.462501 0.313085
1.000000 0.486458 0.338994
1.000000 0.510887 0.367376
1.000000 0.536004 0.398108
1.000000 0.562280 0.431189
0.036744 0.204898 0.150790
0.038727 0.204868 0.150759
0.047761 0.204746 0.151400
0.066712 0.204746 0.152346
0.088746 0.204440 0.153750
0.104402 0.205966 0.153658
0.122530 0.207889 0.153231
0.144747 0.210330 0.152773
0.171542 0.213077 0.152255
0.209415 0.221958 0.152102
0.252964 0.231357 0.152041
0.305425 0.240238 0.152346
0.367315 0.247959 0.152590
0.431647 0.253452 0.152804
0.491768 0.256413 0.154208
0.563256 0.262455 0.155978
0.633417 0.269352 0.158053
0.697749 0.278538 0.160922
0.756954 0.290532 0.165103
0.810330 0.306523 0.170901
0.858244 0.325719 0.179538
0.901274 0.347723 0.190738
0.939117 0.371527 0.205692
0.971405 0.395911 0.223545
0.998413 0.419501 0.244083
1.000000 0.441413 0.265843
1.000000 0.462135 0.289006
1.000000 0.483131 0.312932
1.000000 0.504265 0.339178
1.000000 0.526024 0.367346
1.000000 0.549096 0.397650
1.000000 0.573022 0.430518
0.000000 0.230228 0.154116
0.000000 0.230198 0.154330
0.000000 0.229923 0.154726
0.010468 0.229801 0.155703
0.045838 0.229374 0.157259
0.089631 0.230014 0.157900
0.113008 0.231785 0.157443
0.138399 0.234287 0.156893
0.166903 0.236942 0.156100
0.199619 0.240177 0.155093
0.245090 0.250797 0.154482
0.296513 0.262638 0.153414
0.356970 0.273869 0.153170
0.427924 0.285710 0.152377
0.510246 0.299077 0.151553
0.582116 0.308751 0.152407
0.647730 0.318273 0.154360
0.709224 0.329686 0.157290
0.765316 0.342870 0.162081
0.815244 0.358404 0.168307
0.859586 0.374456 0.177676
0.898772 0.391882 0.189731
0.933410 0.410132 0.204623
0.963500 0.428870 0.221714
0.989380 0.447120 0.241154
1.000000 0.464881 0.262211
1.000000 0.482734 0.285344
1.000000 0.501213 0.309545
1.000000 0.520592 0.336065
1.000000 0.540734 0.364965
1.000000 0.562341 0.396155
1.000000 0.585107 0.429541
0.000000 0.260410 0.156832
0.000000 0.260410 0.157015
0.000000 0.260349 0.157565
0.000000 0.260166 0.158694
0.000000 0.259953 0.160159
0.021790 0.260227 0.162356
0.092103 0.262394 0.161685
0.126497 0.265110 0.160952
0.160525 0.268345 0.160067
0.197024 0.271885 0.158602
0.236698 0.275364 0.157137
0.292088 0.289189 0.155337
0.357519 0.306737 0.153567
0.431220 0.323613 0.151797
0.509331 0.339666 0.150210
0.588373 0.355688 0.148714
0.661799 0.371405 0.148348
0.718959 0.382940 0.151827
0.770809 0.395605 0.157076
0.817258 0.408392 0.165255
0.858854 0.422156 0.175875
0.896147 0.436316 0.188876
0.929503 0.451392 0.204654
0.958648 0.466194 0.223270
0.984100 0.481239 0.243412
1.000000 0.496162 0.265141
1.000000 0.511345 0.288365
1.000000 0.527031 0.312963
1.000000 0.543786 0.339727
1.000000 0.561822 0.368658
1.000000 0.581018 0.399664
1.000000 0.601526 0.432990
0.000000 0.300633 0.159152
0.000000 0.300664 0.159121
0.000000 0.300633 0.159670
0.000000 0.300786 0.161044
0.000000 0.300816 0.162936
0.000000 0.300999 0.165774
0.000000 0.302617 0.166232
0.099916 0.305394 0.165286
0.148074 0.308812 0.163882
0.193088 0.314397 0.162570
0.241184 0.321599 0.160494
0.293278 0.328679 0.157900
0.411719 0.383490 0.153719
0.494728 0.407721 0.148653
0.577020 0.429694 0.145235
0.654139 0.451118 0.144656
0.723842 0.471138 0.146700
0.785183 0.488930 0.153445
0.832242 0.500298 0.166293
0.869963 0.508415 0.181186
0.903319 0.516381 0.199130
0.932433 0.524285 0.217929
0.958129 0.532158 0.237919
0.981018 0.541100 0.259007
1.000000 0.549920 0.280919
1.000000 0.559106 0.303044
1.000000 0.568597 0.325719
1.000000 0.578943 0.349187
1.000000 0.590661 0.374182
1.000000 0.603906 0.401160
1.000000 0.618769 0.430274
1.000000 0.635615 0.461707
0.000000 0.365728 0.160433
0.000000 0.365545 0.160678
0.000000 0.364691 0.161532
0.000000 0.364019 0.162966
0.000000 0.363012 0.165347
0.000000 0.364263 0.169039
0.000000 0.366796 0.172854
0.000000 0.372015 0.171786
0.125887 0.378424 0.170260
0.194980 0.386297 0.167941
0.258396 0.395666 0.165255
0.323339 0.405921 0.161624
0.390906 0.416083 0.157137
0.471809 0.434363 0.152285
0.556176 0.461158 0.147127
0.633021 0.483925 0.144076
0.701930 0.504143 0.146548
0.762509 0.520958 0.153628
0.815763 0.535393 0.165469
0.861967 0.548150 0.182010
0.893980 0.553246 0.199374
0.922545 0.558648 0.218814
0.948058 0.564324 0.239017
0.971160 0.570703 0.260105
0.991760 0.577661 0.281895
1.000000 0.585046 0.304387
1.000000 0.592981 0.327611
1.000000 0.601953 0.351629
1.000000 0.612085 0.377050
1.000000 0.623865 0.404578
1.000000 0.637140 0.433845
1.000000 0.652125 0.465278
0.000000 0.434241 0.161410
0.000000 0.433783 0.161624
0.000000 0.433021 0.162661
0.000000 0.431952 0.164492
0.000000 0.430854 0.167636
0.000000 0.430182 0.171786
0.000000 0.430243 0.177615
0.000000 0.432471 0.178347
0.036103 0.436805 0.176120
0.178622 0.442908 0.173739
0.253574 0.450782 0.170932
0.323033 0.459693 0.167300
0.392584 0.468482 0.162600
0.460792 0.476143 0.157198
0.537255 0.491005 0.152193
0.613642 0.514519 0.148440
0.681880 0.534417 0.147402
0.741817 0.551019 0.155489
0.795193 0.565148 0.167971
0.841825 0.577325 0.184329
0.882963 0.587945 0.203922
0.915801 0.594995 0.224643
0.940917 0.598962 0.245731
0.963897 0.603479 0.266880
0.984497 0.608576 0.288945
1.000000 0.614191 0.311559
1.000000 0.620447 0.334600
1.000000 0.627558 0.358740
1.000000 0.635859 0.384192
1.000000 0.645899 0.411627
1.000000 0.657435 0.440925
1.000000 0.670893 0.472419
0.000000 0.503044 0.163394
0.000000 0.502831 0.163668
0.000000 0.501610 0.164675
0.000000 0.499733 0.167056
0.000000 0.497505 0.170504
0.000000 0.495247 0.175387
0.000000 0.493904 0.181552
0.000000 0.494057 0.187503
0.000000 0.496773 0.185092
0.160067 0.501488 0.182834
0.249577 0.507774 0.179568
0.325109 0.515343 0.176303
0.395605 0.522728 0.172305
0.463691 0.528862 0.167056
0.527825 0.533043 0.160433
0.596155 0.543938 0.156191
0.664179 0.563470 0.155734
0.724086 0.579980 0.159701
0.777188 0.593805 0.172274
0.824216 0.605554 0.188907
0.865843 0.615900 0.208438
0.902434 0.624933 0.230808
0.934234 0.632776 0.255253
0.957671 0.636316 0.277592
0.977996 0.639582 0.299168
0.996307 0.643610 0.321660
1.000000 0.648341 0.344854
1.000000 0.654322 0.369390
1.000000 0.661738 0.395758
1.000000 0.670680 0.424201
1.000000 0.681483 0.454994
1.000000 0.694118 0.487984
0.000000 0.563806 0.169253
0.000000 0.564019 0.169589
0.000000 0.563561 0.170809
0.000000 0.562585 0.173129
0.000000 0.561425 0.177157
0.000000 0.560479 0.182498
0.000000 0.560143 0.189914
0.000000 0.560906 0.199222
0.000000 0.563287 0.200656
0.158297 0.566674 0.198459
0.259251 0.570306 0.195712
0.336126 0.573938 0.192172
0.405249 0.577264 0.187961
0.469459 0.579522 0.183078
0.528649 0.580652 0.177005
0.583581 0.580774 0.170077
0.644465 0.588556 0.166018
0.704280 0.603815 0.169924
0.757870 0.618128 0.178683
0.805966 0.630365 0.194156
0.848936 0.641291 0.214450
0.886839 0.650782 0.237339
0.919829 0.658808 0.262242
0.948791 0.666011 0.288731
0.972961 0.671565 0.314488
0.991272 0.674403 0.337377
1.000000 0.678035 0.360998
1.000000 0.682582 0.385534
1.000000 0.688411 0.411658
1.000000 0.695674 0.439551
1.000000 0.704402 0.469032
1.000000 0.714778 0.500359
0.000000 0.618311 0.181155
0.000000 0.618158 0.181521
0.000000 0.617853 0.182712
0.000000 0.617212 0.185214
0.000000 0.616449 0.189425
0.000000 0.615747 0.195132
0.000000 0.615534 0.202579
0.000000 0.615625 0.212436
0.000000 0.616388 0.220371
0.169253 0.618463 0.218204
0.270329 0.620752 0.215579
0.346746 0.623163 0.213016
0.414405 0.625177 0.209140
0.475776 0.626490 0.204837
0.532616 0.626947 0.199863
0.585382 0.626307 0.193118
0.634852 0.625208 0.185824
0.689265 0.630823 0.183658
0.742061 0.642603 0.192111
0.790311 0.654810 0.204593
0.834073 0.666011 0.222293
0.872587 0.675471 0.245853
0.906310 0.683528 0.270909
0.936034 0.690517 0.297551
0.962127 0.696742 0.325536
0.984863 0.702785 0.353979
1.000000 0.706569 0.379492
1.000000 0.710079 0.404089
1.000000 0.714687 0.430335
1.000000 0.720668 0.457771
1.000000 0.728084 0.486854
1.000000 0.737087 0.518029
0.000000 0.671656 0.202945
0.000000 0.671962 0.203220
0.000000 0.705837 0.227512
0.000000 0.705379 0.230137
0.000000 0.704555 0.234257
0.000000 0.703334 0.239811
0.000000 0.702174 0.247440
0.000000 0.701167 0.257053
0.177768 0.700557 0.269047
0.274083 0.700710 0.270726
0.347204 0.700984 0.268193
0.411017 0.701015 0.265385
0.468452 0.700282 0.261601
0.521813 0.698787 0.256718
0.571252 0.696529 0.251164
0.618006 0.693416 0.244022
0.661830 0.689418 0.235569
0.703273 0.685267 0.226352
0.748562 0.686580 0.224643
0.791928 0.693019 0.235874
0.832731 0.701686 0.250950
0.869352 0.709194 0.270512
0.901457 0.715572 0.294896
0.929839 0.720882 0.321294
0.954650 0.725307 0.346868
0.976593 0.729397 0.373327
0.995880 0.733547 0.400305
1.000000 0.737881 0.428077
1.000000 0.740688 0.451850
1.000000 0.745022 0.478065
1.000000 0.751064 0.506310
1.000000 0.758450 0.536217
0.000000 0.726314 0.240452
0.000000 0.729061 0.243107
0.000000 0.731868 0.247135
0.000000 0.733974 0.251713
0.000000 0.735164 0.257389
0.000000 0.735042 0.263371
0.000000 0.734066 0.270848
0.063569 0.732876 0.279057
0.219181 0.731746 0.290074
0.296757 0.731044 0.298375
0.359960 0.730800 0.296117
0.417670 0.730434 0.293492
0.470771 0.729519 0.290105
0.520836 0.728023 0.285649
0.567895 0.726101 0.280827
0.612634 0.723384 0.274418
0.655512 0.720363 0.267430
0.696223 0.717189 0.259770
0.735714 0.714046 0.252079
0.778225 0.715908 0.251682
0.817624 0.720821 0.265171
0.855161 0.729061 0.283909
0.888334 0.735592 0.304570
0.917235 0.740932 0.330175
0.942687 0.745235 0.355932
0.965179 0.749111 0.382208
0.985046 0.752834 0.409094
1.000000 0.756863 0.437201
1.000000 0.761776 0.466377
1.000000 0.766415 0.494759
1.000000 0.771206 0.522240
1.000000 0.777432 0.551263
0.000000 0.758907 0.269780
0.000000 0.761379 0.272709
0.000000 0.763943 0.277226
0.000000 0.766018 0.282200
0.000000 0.767178 0.287755
0.000000 0.767147 0.293736
0.002502 0.766384 0.299962
0.193942 0.765042 0.307958
0.269657 0.763882 0.317754
0.330846 0.762692 0.329290
0.384497 0.761929 0.329778
0.434943 0.761227 0.327703
0.482460 0.760098 0.324102
0.528588 0.758755 0.320562
0.572320 0.756893 0.316075
0.614618 0.754604 0.310796
0.655085 0.751919 0.304570
0.693965 0.748959 0.297490
0.731746 0.746120 0.290776
0.768368 0.743496 0.283391
0.807370 0.744869 0.283787
0.841947 0.747524 0.299046
0.875639 0.754543 0.319432
0.905547 0.759976 0.341466
0.931548 0.764218 0.366522
0.954406 0.767941 0.392859
0.974640 0.771389 0.419654
0.992645 0.775082 0.447181
1.000000 0.779385 0.476326
1.000000 0.784634 0.507286
1.000000 0.790768 0.539483
1.000000 0.796017 0.567681
0.000000 0.789578 0.303838
0.000000 0.791592 0.307042
0.000000 0.793515 0.310948
0.000000 0.795010 0.315862
0.000000 0.795865 0.321172
0.126192 0.795743 0.326238
0.204929 0.795010 0.332403
0.264256 0.793851 0.339513
0.317754 0.792660 0.348363
0.366979 0.791501 0.359136
0.413245 0.790463 0.366827
0.456397 0.789548 0.364385
0.498512 0.788357 0.361517
0.539696 0.786984 0.358099
0.580285 0.785306 0.354131
0.619532 0.783566 0.349950
0.658198 0.781765 0.345586
0.696040 0.780056 0.340795
0.732906 0.778653 0.336553
0.769223 0.777432 0.332250
0.804501 0.776455 0.328222
0.840848 0.778500 0.332311
0.871061 0.779477 0.349554
0.901091 0.785641 0.373480
0.927428 0.790311 0.398199
0.950256 0.794095 0.424689
0.970184 0.797574 0.452735
0.987732 0.801144 0.481605
1.000000 0.805295 0.511681
1.000000 0.810056 0.542718
1.000000 0.815549 0.574090
1.000000 0.821836 0.605829
0.173922 0.827481 0.361517
0.181643 0.828153 0.363073
0.196414 0.828489 0.365179
0.216831 0.828519 0.367376
0.243534 0.828092 0.370489
0.273655 0.827207 0.373968
0.307622 0.826078 0.378882
0.343786 0.824918 0.385168
0.381292 0.823667 0.393011
0.419806 0.822568 0.402991
0.458015 0.821469 0.414649
0.493782 0.820493 0.414832
0.529168 0.819394 0.412085
0.564630 0.817960 0.409247
0.599817 0.816312 0.405219
0.634516 0.814481 0.401190
0.669032 0.812497 0.396582
0.702876 0.810513 0.391791
0.736263 0.808530 0.387030
0.769284 0.806638 0.382269
0.801572 0.804837 0.377234
0.832975 0.803159 0.372625
0.865080 0.803677 0.374731
0.890471 0.802029 0.389746
0.916747 0.806455 0.413123
0.940063 0.810239 0.437812
0.960784 0.813657 0.463844
0.978668 0.817197 0.493446
0.994476 0.821042 0.523644
1.000000 0.825376 0.554192
1.000000 0.830289 0.585321
1.000000 0.835935 0.616693
0.287510 0.849454 0.401709
0.291783 0.849912 0.403052
0.299443 0.850126 0.404791
0.310887 0.850217 0.407111
0.327184 0.849851 0.410010
0.346990 0.849149 0.413428
0.370916 0.848203 0.417823
0.398047 0.847105 0.423316
0.427558 0.846098 0.430793
0.459297 0.844968 0.439887
0.491615 0.843931 0.450446
0.523247 0.842893 0.457282
0.553094 0.841886 0.455085
0.583795 0.840726 0.452522
0.614832 0.839414 0.449714
0.645808 0.837980 0.446540
0.676997 0.836454 0.442847
0.707973 0.834867 0.439124
0.738857 0.833249 0.435035
0.769314 0.831693 0.431373
0.799374 0.830198 0.427405
0.828977 0.828733 0.423377
0.858000 0.827237 0.419348
0.887388 0.827512 0.421912
0.905516 0.820096 0.424781
0.928985 0.823667 0.448249
0.950225 0.827268 0.473732
0.969085 0.830625 0.500664
0.985412 0.834318 0.530785
0.999756 0.838407 0.561608
1.000000 0.843137 0.593378
1.000000 0.848447 0.625025
0.388128 0.873381 0.455451
0.392432 0.874022 0.457923
0.396948 0.874205 0.459449
0.403326 0.873869 0.460548
0.411963 0.873045 0.461677
0.423438 0.871824 0.463050
0.437873 0.870359 0.465217
0.455818 0.868681 0.468513
0.476997 0.867002 0.473426
0.500450 0.865324 0.479744
0.525383 0.863615 0.487465
0.552239 0.861967 0.497108
0.576257 0.860533 0.495460
0.601160 0.858946 0.491768
0.626673 0.857176 0.487068
0.653071 0.855314 0.482795
0.680140 0.853452 0.478218
0.707729 0.851743 0.474006
0.735988 0.850309 0.470527
0.764523 0.849119 0.467750
0.792935 0.848020 0.464973
0.820951 0.846860 0.462135
0.848264 0.845457 0.458320
0.874876 0.843717 0.453468
0.901610 0.843290 0.454383
0.920684 0.838834 0.465766
0.941131 0.841367 0.488655
0.959991 0.844327 0.513725
0.976959 0.847379 0.540276
0.991699 0.850980 0.569604
1.000000 0.855192 0.600763
1.000000 0.860044 0.632380
0.440101 0.887572 0.489754
0.443610 0.888090 0.491951
0.447913 0.888334 0.493660
0.453407 0.888212 0.495216
0.461463 0.887755 0.497169
0.471839 0.887083 0.499611
0.485267 0.886320 0.503136
0.501549 0.885374 0.507622
0.520287 0.884398 0.513420
0.541009 0.883391 0.520623
0.563012 0.882200 0.528740
0.586175 0.880919 0.538018
0.608057 0.879698 0.543053
0.628626 0.878447 0.539788
0.649775 0.876951 0.535973
0.671870 0.875334 0.531853
0.694820 0.873686 0.527672
0.718776 0.872129 0.523827
0.743435 0.870756 0.520439
0.768795 0.869627 0.517784
0.794430 0.868620 0.515251
0.819944 0.867613 0.513085
0.845212 0.866514 0.510399
0.870146 0.865293 0.507164
0.894560 0.863859 0.503349
0.919249 0.863523 0.504692
0.936004 0.858793 0.515984
0.953765 0.860899 0.539239
0.970672 0.863859 0.565087
0.985504 0.867063 0.592432
0.998383 0.870756 0.621942
1.000000 0.875151 0.653071
0.500450 0.903319 0.534264
0.502129 0.903563 0.535363
0.504692 0.903563 0.536370
0.508690 0.903380 0.537652
0.514427 0.902953 0.539055
0.522484 0.902281 0.540978
0.532586 0.901549 0.543694
0.545220 0.900633 0.547509
0.560113 0.899687 0.552361
0.576989 0.898680 0.558556
0.595544 0.897551 0.565728
0.614984 0.896422 0.573938
0.635218 0.895171 0.583001
0.652338 0.894163 0.581292
0.670100 0.892882 0.577966
0.688685 0.891539 0.574304
0.708339 0.890105 0.570550
0.729000 0.888762 0.567132
0.750668 0.887572 0.564172
0.773098 0.886564 0.561944
0.796078 0.885710 0.560204
0.819150 0.884855 0.558404
0.842161 0.883879 0.556054
0.865049 0.882750 0.553307
0.887572 0.881498 0.550103
0.909941 0.880095 0.546319
0.932769 0.879820 0.547478
0.947539 0.874968 0.558038
0.963195 0.876249 0.580163
0.978302 0.879393 0.607080
0.991577 0.882841 0.635248
1.000000 0.886870 0.665156
0.546746 0.916045 0.572168
0.548028 0.916197 0.572992
0.550134 0.916258 0.574060
0.553918 0.916167 0.575525
0.559319 0.915953 0.577478
0.567193 0.915740 0.580591
0.578088 0.915648 0.585534
0.591180 0.915557 0.591699
0.606439 0.915526 0.599237
0.623377 0.915465 0.607965
0.641444 0.915404 0.617792
0.660151 0.915160 0.628168
0.678798 0.914794 0.638758
0.695705 0.914366 0.644831
0.710658 0.913939 0.644068
0.725704 0.913176 0.642054
0.741390 0.912230 0.639704
0.757992 0.911284 0.637201
0.775570 0.910430 0.635401
0.794064 0.909697 0.633936
0.813077 0.909087 0.632807
0.832517 0.908415 0.631708
0.851987 0.907652 0.630335
0.871580 0.906798 0.628534
0.891173 0.905821 0.626307
0.910826 0.904723 0.623590
0.930510 0.903624 0.620996
0.950622 0.903471 0.622400
0.963012 0.898985 0.632807
0.975586 0.899382 0.652888
0.987945 0.902495 0.679622
0.998779 0.905974 0.706630
0.614771 0.932677 0.632685
0.615076 0.932647 0.632898
0.615991 0.932525 0.633051
0.618097 0.932311 0.633661
0.621485 0.932006 0.634760
0.626337 0.931579 0.636378
0.633143 0.931090 0.638941
0.641566 0.930571 0.642451
0.651667 0.930022 0.647059
0.663416 0.929412 0.652522
0.676295 0.928740 0.658747
0.690242 0.928069 0.666072
0.704860 0.927276 0.673762
0.719692 0.926390 0.681971
