20 Preset/Street 2/【3】LUT video cho PR-AE-FCPX/Tone 1 (9).cube
# Created by Adobe Lightroom plugin Export LUT (1.24.0)
# www.johnrellis.com/lightroom/exportlut.htm
# Preset: 青橙风光-素材江湖09
# Color profile: C:\Program Files (x86)\Common Files\Adobe\Color\Profiles\Recommended\VideoHD.icc
LUT_3D_SIZE 32
DOMAIN_MIN 0.0 0.0 0.0
DOMAIN_MAX 1.0 1.0 1.0
0.044251 0.146395 0.152499
0.044251 0.146395 0.152499
0.044251 0.146395 0.152499
0.044251 0.146395 0.152499
0.044251 0.146395 0.152499
0.115023 0.145418 0.152560
0.150057 0.144106 0.152590
0.183322 0.141909 0.152529
0.217929 0.138186 0.152590
0.255650 0.132479 0.152499
0.298894 0.122438 0.152041
0.347997 0.104982 0.151675
0.405432 0.044587 0.150942
0.470771 0.000000 0.149508
0.539971 0.000000 0.147829
0.611261 0.000000 0.145357
0.683162 0.000000 0.142245
0.754147 0.000000 0.138003
0.824186 0.000000 0.132235
0.891752 0.000000 0.124758
0.967285 0.000000 0.111971
1.000000 0.000000 0.092226
1.000000 0.000000 0.042817
1.000000 0.000000 0.000000
1.000000 0.000000 0.000000
1.000000 0.000000 0.000000
1.000000 0.000000 0.000000
1.000000 0.000000 0.000000
1.000000 0.000000 0.000000
1.000000 0.000000 0.000000
1.000000 0.000000 0.000000
1.000000 0.090547 0.000000
0.044251 0.146395 0.152499
0.044251 0.146395 0.152499
0.044251 0.146395 0.152499
0.044251 0.146395 0.152499
0.044251 0.146395 0.152499
0.114473 0.145480 0.152560
0.148348 0.144076 0.152621
0.181003 0.141817 0.152590
0.214725 0.138613 0.152438
0.251499 0.133364 0.152560
0.293187 0.124086 0.152132
0.341100 0.108003 0.151644
0.396948 0.060548 0.151003
0.460578 0.000000 0.149630
0.528222 0.000000 0.148043
0.599298 0.000000 0.145724
0.671351 0.000000 0.142672
0.742519 0.000000 0.138491
0.812650 0.000000 0.133181
0.880339 0.000000 0.126009
0.955261 0.000000 0.114351
1.000000 0.000000 0.096376
1.000000 0.000000 0.058747
1.000000 0.000000 0.000519
1.000000 0.000000 0.000000
1.000000 0.000000 0.000000
1.000000 0.000000 0.000000
1.000000 0.000000 0.000000
1.000000 0.000000 0.000000
1.000000 0.000000 0.000000
1.000000 0.000000 0.000000
1.000000 0.005158 0.000000
0.044251 0.146395 0.152499
0.044251 0.146395 0.152499
0.044251 0.146395 0.152499
0.044251 0.146395 0.152499
0.050233 0.146273 0.152499
0.116091 0.145327 0.152560
0.148714 0.144045 0.152621
0.180148 0.141939 0.152590
0.213474 0.138643 0.152468
0.249302 0.133486 0.152438
0.290166 0.124941 0.152193
0.337377 0.109712 0.151736
0.391791 0.070436 0.150912
0.453040 0.000000 0.149813
0.518853 0.000000 0.148318
0.588678 0.000000 0.146242
0.660578 0.000000 0.143130
0.732326 0.000000 0.139010
0.802731 0.000000 0.133822
0.871305 0.000000 0.126619
0.947753 0.000000 0.114687
1.000000 0.000000 0.097383
1.000000 0.000000 0.061769
1.000000 0.000000 0.004730
1.000000 0.000000 0.000000
1.000000 0.000000 0.000000
1.000000 0.000000 0.000000
1.000000 0.000000 0.000000
1.000000 0.000000 0.000000
1.000000 0.000000 0.000000
1.000000 0.000000 0.000000
1.000000 0.011872 0.000000
0.044251 0.146395 0.152499
0.044251 0.146395 0.152499
0.044251 0.146395 0.152499
0.044251 0.146395 0.152499
0.068666 0.146304 0.152438
0.120516 0.145174 0.152529
0.151522 0.143923 0.152560
0.181765 0.141909 0.152560
0.214054 0.138766 0.152438
0.249302 0.133486 0.152438
0.289433 0.125216 0.152224
0.334447 0.112520 0.151858
0.385718 0.093690 0.151247
0.443763 0.019654 0.150240
0.507500 0.000000 0.148775
0.575677 0.000000 0.146548
0.646113 0.000000 0.143618
0.716640 0.000000 0.139620
0.786496 0.000000 0.134432
0.854673 0.000000 0.127352
0.931884 0.000000 0.115602
0.998474 0.000000 0.099550
1.000000 0.000000 0.069306
1.000000 0.000000 0.011200
1.000000 0.000000 0.000000
1.000000 0.000000 0.000000
1.000000 0.000000 0.000000
1.000000 0.000000 0.000000
1.000000 0.000000 0.000000
1.000000 0.000000 0.000000
1.000000 0.000000 0.000000
1.000000 0.092439 0.000000
0.044892 0.149691 0.154726
0.044190 0.149905 0.154696
0.043183 0.150118 0.154849
0.045136 0.150484 0.155215
0.068788 0.151278 0.153628
0.116945 0.153597 0.152895
0.147066 0.151614 0.152895
0.177066 0.149508 0.152926
0.208438 0.147158 0.152804
0.242161 0.144045 0.152895
0.279942 0.139437 0.152712
0.323095 0.132479 0.152132
0.372503 0.120882 0.151736
0.429358 0.099062 0.150729
0.492134 0.017273 0.149233
0.560021 0.000000 0.146944
0.631556 0.000000 0.143923
0.703120 0.000000 0.139864
0.774075 0.000000 0.134524
0.845060 0.000000 0.126650
0.922850 0.000000 0.114076
0.988403 0.000000 0.097627
1.000000 0.000000 0.063386
1.000000 0.000000 0.004089
1.000000 0.000000 0.000000
1.000000 0.000000 0.000000
1.000000 0.000000 0.000000
1.000000 0.000000 0.000000
1.000000 0.000000 0.000000
1.000000 0.000000 0.000000
1.000000 0.001221 0.000000
1.000000 0.137881 0.000000
0.044770 0.163790 0.163790
0.046754 0.163760 0.163790
0.046052 0.163973 0.163760
0.048005 0.164279 0.164096
0.068452 0.163668 0.165408
0.101869 0.164218 0.156985
0.134066 0.168673 0.154910
0.165866 0.167910 0.154421
0.198032 0.165988 0.154116
0.232700 0.163577 0.153811
0.270878 0.160464 0.153597
0.313817 0.155764 0.152987
0.362982 0.147951 0.152346
0.418860 0.135378 0.151247
0.481422 0.112642 0.149599
0.549737 0.040009 0.147219
0.621210 0.000000 0.143954
0.694087 0.000000 0.139376
0.766140 0.000000 0.132906
0.843503 0.000000 0.123537
0.919799 0.000000 0.109560
0.984771 0.000000 0.090578
1.000000 0.000000 0.000000
1.000000 0.000000 0.000000
1.000000 0.000000 0.000000
1.000000 0.000000 0.000000
1.000000 0.000000 0.000000
1.000000 0.101320 0.000000
1.000000 0.157076 0.000000
1.000000 0.193668 0.000000
1.000000 0.221042 0.000000
1.000000 0.243046 0.000000
0.054902 0.177798 0.174563
0.053895 0.177981 0.174716
0.058564 0.177737 0.174746
0.070314 0.177371 0.175265
0.083192 0.176761 0.176150
0.098939 0.180179 0.171267
0.124422 0.178622 0.162783
0.160464 0.184390 0.159365
0.192966 0.189609 0.156344
0.230533 0.188540 0.155825
0.272404 0.186618 0.155154
0.318669 0.183688 0.154238
0.371038 0.178103 0.153017
0.429816 0.169131 0.151278
0.494331 0.153780 0.149203
0.562951 0.128511 0.145937
0.635035 0.075471 0.141543
0.707393 0.000000 0.135653
0.782986 0.000000 0.127169
0.871824 0.000000 0.112245
0.951293 0.000000 0.089631
1.000000 0.000000 0.020294
1.000000 0.000000 0.000000
1.000000 0.000000 0.000000
1.000000 0.000000 0.000000
1.000000 0.003418 0.000000
1.000000 0.129549 0.000000
1.000000 0.173617 0.000000
1.000000 0.204440 0.000000
1.000000 0.229557 0.000000
1.000000 0.250706 0.000000
1.000000 0.269017 0.000000
0.071870 0.187991 0.181949
0.074556 0.187778 0.181979
0.078645 0.187564 0.182162
0.084810 0.187259 0.182650
0.091127 0.186862 0.183291
0.101076 0.188785 0.181033
0.117769 0.192233 0.174746
0.143832 0.190433 0.166842
0.181582 0.197482 0.163272
0.216373 0.203616 0.159915
0.255619 0.208835 0.156985
0.301427 0.207919 0.155734
0.352972 0.205509 0.153994
0.410224 0.200381 0.152010
0.473152 0.191867 0.149203
0.540917 0.178103 0.145602
0.612207 0.157656 0.140627
0.685084 0.126406 0.134005
0.772030 0.053101 0.122957
0.854826 0.000000 0.107332
0.931975 0.000000 0.079011
1.000000 0.000000 0.000214
1.000000 0.000000 0.000000
1.000000 0.018341 0.000000
1.000000 0.131777 0.000000
1.000000 0.174105 0.000000
1.000000 0.205478 0.000000
1.000000 0.230320 0.000000
1.000000 0.251682 0.000000
1.000000 0.270756 0.000000
1.000000 0.287053 0.000000
1.000000 0.301488 0.000000
0.089326 0.198154 0.189425
0.089937 0.198123 0.189578
0.091585 0.197910 0.189761
0.095216 0.197635 0.190066
0.099489 0.197147 0.190555
0.106386 0.197848 0.189792
0.120272 0.203098 0.184268
0.138918 0.204990 0.177615
0.164889 0.203281 0.169833
0.206363 0.210971 0.165866
0.244602 0.218723 0.162081
0.287083 0.226505 0.157931
0.336706 0.230014 0.154391
0.393011 0.228305 0.151705
0.455421 0.223758 0.148623
0.522240 0.216220 0.144259
0.594537 0.204929 0.138430
0.678309 0.190829 0.129458
0.760464 0.173709 0.117342
0.839994 0.157137 0.099245
0.915679 0.145693 0.051545
0.983520 0.148714 0.000000
1.000000 0.167422 0.000000
1.000000 0.193881 0.000000
1.000000 0.221897 0.000000
1.000000 0.245487 0.000000
1.000000 0.265721 0.000000
1.000000 0.283848 0.000000
1.000000 0.299718 0.000000
1.000000 0.313695 0.000000
1.000000 0.326421 0.000000
1.000000 0.337682 0.000000
0.101015 0.208957 0.197299
0.101656 0.208927 0.197299
0.102419 0.208774 0.197452
0.104921 0.208530 0.197757
0.108583 0.207828 0.198123
0.113466 0.207584 0.198398
0.124758 0.212589 0.193484
0.140749 0.216983 0.187350
0.160922 0.218265 0.180240
0.187991 0.216587 0.172335
0.233524 0.225132 0.167697
0.274632 0.233707 0.163485
0.321141 0.242283 0.158389
0.373785 0.250767 0.152224
0.435218 0.251774 0.147768
0.506981 0.249851 0.142367
0.586847 0.246006 0.134493
0.668482 0.240330 0.123873
0.748867 0.234043 0.108949
0.827359 0.229068 0.085145
0.900938 0.228061 0.012055
0.966491 0.233005 0.000000
1.000000 0.244327 0.000000
1.000000 0.260655 0.000000
1.000000 0.278508 0.000000
1.000000 0.295750 0.000000
1.000000 0.311528 0.000000
1.000000 0.326299 0.000000
1.000000 0.340154 0.000000
1.000000 0.352331 0.000000
1.000000 0.363653 0.000000
1.000000 0.373297 0.000000
0.111116 0.219638 0.204776
0.111666 0.219608 0.204776
0.112703 0.219547 0.204929
0.115602 0.219181 0.205234
0.118868 0.218753 0.205661
0.122347 0.218326 0.206363
0.131533 0.222568 0.202640
0.146853 0.228519 0.197024
0.163790 0.231907 0.190494
0.185977 0.233188 0.183108
0.215396 0.231693 0.174716
0.265171 0.241093 0.169253
0.310887 0.250523 0.164065
0.365332 0.261021 0.157961
0.428168 0.271946 0.149508
0.497322 0.282109 0.138949
0.574395 0.282719 0.129763
0.653498 0.281804 0.117556
0.732021 0.281041 0.100130
0.808438 0.281437 0.056733
0.881285 0.284428 0.000000
0.947326 0.291356 0.000000
1.000000 0.302770 0.000000
1.000000 0.316869 0.000000
1.000000 0.332006 0.000000
1.000000 0.346593 0.000000
1.000000 0.360266 0.000000
1.000000 0.372656 0.000000
1.000000 0.384222 0.000000
1.000000 0.394507 0.000000
1.000000 0.403784 0.000000
1.000000 0.411597 0.000000
0.123690 0.231571 0.213138
0.124178 0.231571 0.213138
0.125063 0.231510 0.213260
0.126894 0.231296 0.213657
0.130007 0.231022 0.214176
0.133516 0.230594 0.214847
0.141268 0.233951 0.212192
0.154208 0.239780 0.207187
0.170962 0.245518 0.201053
0.190402 0.249119 0.194095
0.215274 0.250462 0.185763
0.249912 0.250340 0.177127
0.341680 0.275212 0.169680
0.407141 0.289372 0.161257
0.478767 0.303563 0.149874
0.554955 0.318486 0.134005
0.632441 0.334874 0.110262
0.710536 0.348852 0.062867
0.789334 0.355505 0.000000
0.864256 0.364050 0.000000
0.931792 0.374121 0.000000
0.990173 0.385687 0.000000
1.000000 0.398260 0.000000
1.000000 0.410651 0.000000
1.000000 0.421729 0.000000
1.000000 0.431037 0.000000
1.000000 0.438544 0.000000
1.000000 0.444892 0.000000
1.000000 0.450416 0.000000
1.000000 0.455360 0.000000
1.000000 0.459663 0.000000
1.000000 0.463325 0.000000
0.141726 0.249699 0.225620
0.141482 0.249607 0.225650
0.142184 0.249180 0.225467
0.143862 0.248264 0.225254
0.146059 0.247440 0.225223
0.149325 0.246616 0.225681
0.155825 0.249577 0.223941
0.168795 0.256107 0.219455
0.186893 0.264256 0.213870
0.207462 0.270817 0.207340
0.234012 0.276463 0.199588
0.267338 0.280278 0.190249
0.312047 0.281773 0.179507
0.390539 0.296452 0.169009
0.462196 0.312657 0.158206
0.536736 0.328252 0.143526
0.611963 0.344518 0.122866
0.685420 0.362493 0.090150
0.756619 0.383185 0.000000
0.829068 0.395880 0.000000
0.897368 0.406439 0.000000
0.958556 0.418524 0.000000
1.000000 0.431403 0.000000
1.000000 0.444129 0.000000
1.000000 0.455665 0.000000
1.000000 0.465644 0.000000
1.000000 0.473945 0.000000
1.000000 0.480842 0.000000
1.000000 0.486610 0.000000
1.000000 0.491524 0.000000
1.000000 0.495613 0.000000
1.000000 0.498726 0.000000
0.159182 0.268223 0.238407
0.159365 0.268101 0.238315
0.159884 0.267552 0.238071
0.161166 0.266636 0.237766
0.162966 0.265354 0.237400
0.165713 0.263706 0.237095
0.170871 0.264469 0.235111
0.182071 0.270329 0.230838
0.198032 0.278050 0.225406
0.218753 0.286320 0.218997
0.242588 0.293370 0.211612
0.273014 0.299413 0.202945
0.310857 0.303319 0.192325
0.359869 0.304906 0.180117
0.444984 0.320073 0.166812
0.518395 0.336858 0.153292
0.591547 0.353155 0.135012
0.663508 0.370794 0.108400
0.734096 0.390814 0.030945
0.801480 0.413428 0.000000
0.866148 0.436591 0.000000
0.930205 0.449775 0.000000
0.986419 0.463874 0.000000
1.000000 0.477943 0.000000
1.000000 0.490425 0.000000
1.000000 0.501396 0.000000
1.000000 0.510185 0.000000
1.000000 0.517266 0.000000
1.000000 0.523095 0.000000
1.000000 0.527977 0.000000
1.000000 0.531731 0.000000
1.000000 0.534539 0.000000
0.178439 0.287327 0.251316
0.178317 0.287114 0.251041
0.178683 0.286412 0.250858
0.179538 0.285191 0.250431
0.181125 0.283604 0.249851
0.183230 0.281773 0.249180
0.185977 0.279728 0.248783
0.196109 0.284459 0.242710
0.210239 0.291600 0.236912
0.230686 0.300786 0.230747
0.253574 0.309270 0.223850
0.281987 0.316930 0.215518
0.316625 0.323522 0.205661
0.358190 0.327398 0.193668
0.410773 0.328740 0.179507
0.499611 0.343877 0.163241
0.573388 0.361730 0.146365
0.644465 0.379553 0.123507
0.714137 0.399298 0.084291
0.781430 0.421302 0.000000
0.845853 0.446052 0.000000
0.905760 0.473426 0.000000
0.962158 0.494148 0.000000
1.000000 0.509575 0.000000
1.000000 0.523247 0.000000
1.000000 0.535027 0.000000
1.000000 0.544915 0.000000
1.000000 0.553246 0.000000
1.000000 0.559991 0.000000
1.000000 0.565545 0.000000
1.000000 0.569909 0.000000
1.000000 0.572992 0.000000
0.196994 0.304814 0.262943
0.197238 0.304936 0.263096
0.197635 0.304448 0.262882
0.198581 0.303563 0.262547
0.200443 0.302220 0.262181
0.202762 0.300816 0.261906
0.205844 0.299077 0.261662
0.213260 0.301549 0.258335
0.227146 0.308415 0.251438
0.246281 0.316991 0.243992
0.270085 0.327123 0.236851
0.295995 0.335332 0.228702
0.327092 0.342718 0.219028
0.363714 0.348241 0.207462
0.405585 0.350805 0.193973
0.458595 0.351141 0.178103
0.549584 0.366644 0.158633
0.622400 0.385901 0.138003
0.691676 0.405707 0.108553
0.759579 0.427497 0.016663
0.826108 0.452705 0.000000
0.888457 0.480568 0.000000
0.944396 0.510033 0.000000
0.993072 0.539940 0.000000
1.000000 0.555871 0.000000
1.000000 0.569390 0.000000
1.000000 0.580774 0.000000
1.000000 0.589746 0.000000
1.000000 0.596704 0.000000
1.000000 0.602197 0.000000
1.000000 0.605798 0.000000
1.000000 0.608057 0.000000
0.216037 0.322515 0.274510
0.216403 0.322332 0.274510
0.216861 0.321965 0.274388
0.217807 0.321172 0.274144
0.219791 0.320134 0.273960
0.221927 0.318639 0.273533
0.224918 0.317052 0.273503
0.229679 0.316655 0.272404
0.242344 0.323095 0.265812
0.259586 0.331121 0.257969
0.282353 0.341009 0.249271
0.308354 0.350896 0.241276
0.337194 0.359380 0.232212
0.371038 0.366735 0.221195
0.409979 0.372076 0.208377
0.453864 0.374395 0.193179
0.508873 0.375128 0.175631
0.601984 0.391974 0.151553
0.674098 0.413519 0.125948
0.741909 0.435615 0.081056
0.809018 0.460853 0.000000
0.873075 0.488869 0.000000
0.930877 0.518669 0.000000
0.981506 0.549493 0.000000
1.000000 0.579797 0.000000
1.000000 0.601495 0.000000
1.000000 0.614160 0.000000
1.000000 0.624292 0.000000
1.000000 0.632044 0.000000
1.000000 0.637690 0.000000
1.000000 0.641413 0.000000
1.000000 0.643336 0.000000
0.239292 0.342473 0.287419
0.239567 0.342504 0.287480
0.259617 0.358343 0.297948
0.260716 0.357610 0.297795
0.262455 0.356359 0.297520
0.264408 0.354620 0.297063
0.267430 0.352667 0.296727
0.270878 0.350439 0.296391
0.282078 0.355505 0.291051
0.299413 0.364172 0.282841
0.322637 0.374151 0.272801
0.351171 0.385229 0.260594
0.379644 0.394659 0.250797
0.412421 0.403265 0.239353
0.449287 0.410224 0.225498
0.490455 0.414832 0.209537
0.535760 0.416114 0.190677
0.591333 0.416602 0.168307
0.683894 0.435401 0.134707
0.752865 0.459693 0.093599
0.817624 0.484840 0.000000
0.879240 0.512657 0.000000
0.935210 0.541955 0.000000
0.983520 0.571832 0.000000
1.000000 0.600061 0.000000
1.000000 0.626123 0.000000
1.000000 0.649989 0.000000
1.000000 0.659052 0.000000
1.000000 0.666163 0.000000
1.000000 0.671595 0.000000
1.000000 0.675166 0.000000
1.000000 0.676905 0.000000
0.270939 0.368353 0.304021
0.273045 0.369879 0.304967
0.275822 0.371252 0.306157
0.278508 0.372107 0.306950
0.281682 0.372229 0.307408
0.284306 0.371191 0.307469
0.287022 0.369574 0.307317
0.290227 0.367163 0.306920
0.297185 0.368292 0.304356
0.312902 0.376257 0.296635
0.333532 0.385687 0.287419
0.359380 0.396582 0.276249
0.388342 0.407050 0.263798
0.418494 0.416510 0.253208
0.452796 0.424964 0.240665
0.491005 0.432074 0.225803
0.533501 0.436988 0.208438
0.579736 0.439124 0.187869
0.637018 0.441566 0.162448
0.730465 0.463325 0.120760
0.799344 0.490700 0.025727
0.863127 0.519371 0.000000
0.920989 0.549340 0.000000
0.971344 0.579553 0.000000
1.000000 0.608606 0.000000
1.000000 0.635218 0.000000
1.000000 0.659388 0.000000
1.000000 0.681300 0.000000
1.000000 0.694850 0.000000
1.000000 0.700801 0.000000
1.000000 0.704829 0.000000
1.000000 0.706844 0.000000
0.294377 0.387091 0.315801
0.296849 0.388678 0.316869
0.299779 0.390387 0.318120
0.302831 0.391516 0.319097
0.306218 0.391791 0.319768
0.308904 0.390967 0.319890
0.311589 0.389349 0.319768
0.314641 0.387121 0.319371
0.318212 0.384771 0.319127
0.332067 0.391821 0.312108
0.350988 0.401038 0.303380
0.374884 0.411597 0.292882
0.403571 0.423163 0.279881
0.433265 0.433539 0.268101
0.465583 0.443153 0.256443
0.501396 0.451911 0.242527
0.541039 0.459205 0.226108
0.584131 0.464698 0.206729
0.630976 0.467872 0.183749
0.688960 0.472023 0.153719
0.782040 0.496498 0.097536
0.847959 0.526452 0.000000
0.907774 0.557153 0.000000
0.960174 0.588251 0.000000
1.000000 0.617975 0.000000
1.000000 0.645197 0.000000
1.000000 0.669673 0.000000
1.000000 0.691829 0.000000
1.000000 0.711788 0.000000
1.000000 0.728573 0.000000
1.000000 0.732906 0.000000
1.000000 0.735225 0.000000
0.321691 0.408362 0.329107
0.324102 0.410101 0.330205
0.327092 0.411627 0.331304
0.330358 0.412696 0.332311
0.333471 0.413092 0.332982
0.336278 0.412177 0.333104
0.338872 0.410803 0.333013
0.341863 0.408667 0.332738
0.345342 0.406378 0.332525
0.354833 0.409491 0.328710
0.372534 0.418433 0.320348
0.394537 0.428748 0.310430
0.421607 0.440284 0.298283
0.452583 0.452491 0.284276
0.483436 0.463081 0.273136
0.517723 0.473518 0.260166
0.556207 0.483558 0.244663
0.598718 0.492836 0.226352
0.644984 0.500816 0.204379
0.695430 0.507195 0.176913
0.756893 0.515831 0.137972
0.849699 0.545983 0.000000
0.911772 0.579309 0.000000
0.965515 0.613306 0.000000
1.000000 0.644923 0.000000
1.000000 0.672724 0.000000
1.000000 0.697108 0.000000
1.000000 0.718532 0.000000
1.000000 0.737331 0.000000
1.000000 0.753506 0.000000
1.000000 0.767086 0.000000
1.000000 0.771847 0.000000
0.370275 0.444923 0.352056
0.371557 0.445686 0.352575
0.372869 0.446113 0.352911
0.374212 0.445899 0.353124
0.375738 0.445075 0.353063
0.377417 0.443641 0.352789
0.379522 0.441657 0.352331
0.382269 0.439490 0.352056
0.385718 0.437201 0.351781
0.391150 0.436103 0.350896
0.408362 0.445350 0.343053
0.429847 0.456001 0.333471
0.455573 0.467750 0.321874
0.485969 0.480720 0.307622
0.518120 0.493416 0.294255
0.550591 0.504845 0.281407
0.586419 0.516106 0.266361
0.625299 0.526818 0.248539
0.667689 0.536645 0.227268
0.713497 0.545281 0.201083
0.762448 0.552087 0.167269
0.820127 0.561364 0.116274
0.903014 0.591455 0.000000
0.956085 0.622858 0.000000
1.000000 0.654444 0.000000
1.000000 0.683040 0.000000
1.000000 0.708248 0.000000
1.000000 0.730098 0.000000
1.000000 0.749081 0.000000
1.000000 0.765103 0.000000
1.000000 0.778408 0.000000
1.000000 0.789334 0.000000
0.407782 0.473030 0.369512
0.409033 0.473701 0.369909
0.410437 0.474128 0.370367
0.411780 0.474037 0.370611
0.413519 0.473304 0.370520
0.415412 0.472053 0.370367
0.417426 0.470283 0.370123
0.420172 0.468177 0.369818
0.423651 0.465949 0.369665
0.427955 0.463752 0.369757
0.441291 0.469795 0.364385
0.461738 0.480537 0.355291
0.486152 0.492500 0.344305
0.515129 0.505791 0.330938
0.548150 0.520623 0.316472
0.580377 0.534112 0.303960
0.614649 0.546899 0.289708
0.651911 0.559655 0.272831
0.692226 0.571954 0.252720
0.735592 0.583520 0.228122
0.781369 0.593896 0.197360
0.828305 0.601892 0.156405
0.881987 0.612268 0.081788
0.954192 0.642451 0.000000
0.989319 0.661036 0.000000
1.000000 0.689631 0.000000
1.000000 0.715877 0.000000
1.000000 0.738643 0.000000
1.000000 0.758114 0.000000
1.000000 0.774533 0.000000
1.000000 0.788235 0.000000
1.000000 0.799435 0.000000
0.464546 0.515312 0.396216
0.466896 0.516899 0.397223
0.468238 0.517418 0.397620
0.468788 0.516594 0.397498
0.468910 0.514855 0.396887
0.468818 0.512200 0.395697
0.469062 0.509056 0.394446
0.469825 0.505547 0.393286
0.471229 0.501946 0.392157
0.473487 0.498360 0.391302
0.479774 0.497993 0.388464
0.497353 0.507683 0.378912
0.518791 0.518639 0.367773
0.543847 0.530632 0.354467
0.572534 0.544030 0.339879
0.604517 0.559106 0.326757
0.634882 0.571527 0.312963
0.668757 0.584466 0.297154
0.706325 0.597955 0.278569
0.747433 0.611841 0.256474
0.790555 0.624872 0.229526
0.834318 0.635767 0.195468
0.877348 0.643427 0.149050
0.924865 0.652644 0.021698
0.985229 0.678950 0.000000
1.000000 0.702724 0.000000
1.000000 0.726802 0.000000
1.000000 0.748989 0.000000
1.000000 0.768063 0.000000
1.000000 0.784298 0.000000
1.000000 0.797848 0.000000
1.000000 0.809049 0.000000
0.506645 0.547601 0.416297
0.508873 0.549157 0.417487
0.510643 0.550042 0.418189
0.511864 0.549889 0.418402
0.513054 0.548882 0.418128
0.514427 0.547417 0.417823
0.516320 0.545617 0.417548
0.518791 0.543542 0.417212
0.522057 0.541466 0.417090
0.526360 0.539269 0.417212
0.530694 0.536675 0.417334
0.546685 0.545556 0.409735
0.567285 0.557183 0.399023
0.590875 0.569787 0.386206
0.617578 0.583398 0.372168
0.647425 0.598840 0.359533
0.678706 0.614160 0.345068
0.710018 0.627924 0.329656
0.744594 0.642451 0.312016
0.781674 0.657191 0.291630
0.820462 0.671260 0.267369
0.859617 0.683742 0.238071
0.898131 0.693721 0.200992
0.935241 0.700252 0.149630
0.974609 0.707698 0.000000
1.000000 0.728603 0.000000
1.000000 0.747738 0.000000
1.000000 0.767208 0.000000
1.000000 0.785519 0.000000
1.000000 0.800717 0.000000
1.000000 0.813260 0.000000
1.000000 0.823392 0.000000
0.567163 0.596246 0.447761
0.568475 0.597192 0.448432
0.569604 0.597406 0.448707
0.570520 0.597040 0.448768
0.571252 0.595880 0.448402
0.572290 0.594263 0.448066
0.573816 0.592218 0.447486
0.575952 0.589960 0.447089
0.578973 0.587671 0.446845
0.582879 0.585443 0.446937
0.587121 0.582849 0.446967
0.597650 0.586511 0.443214
0.616754 0.598474 0.432898
0.638758 0.611048 0.420478
0.663264 0.625086 0.408484
0.690364 0.640436 0.396338
0.720943 0.657313 0.382086
0.751125 0.672663 0.367010
0.782010 0.687343 0.350774
0.814939 0.702205 0.332372
0.849119 0.716609 0.311284
0.883330 0.729397 0.286320
0.916442 0.739773 0.256596
0.947997 0.746700 0.219760
0.977569 0.749660 0.170932
1.000000 0.753231 0.093629
1.000000 0.768002 0.000000
1.000000 0.782010 0.000000
1.000000 0.797116 0.000000
1.000000 0.812070 0.000000
1.000000 0.824338 0.000000
1.000000 0.834409 0.121279
0.627893 0.648005 0.481819
0.629114 0.648920 0.482460
0.630365 0.649531 0.483040
0.631739 0.649500 0.483406
0.633600 0.649439 0.483772
0.636683 0.649561 0.484565
0.641840 0.650752 0.486305
0.648371 0.652399 0.488655
0.656550 0.654780 0.491676
0.665949 0.657435 0.495369
0.676234 0.660334 0.499458
0.687007 0.663203 0.503044
0.709194 0.679622 0.495888
0.732601 0.695918 0.486305
0.756588 0.712398 0.478279
0.780941 0.728145 0.467567
0.806882 0.744228 0.454780
0.834806 0.761074 0.440223
0.859922 0.774472 0.425818
0.885679 0.787289 0.410163
0.911254 0.798703 0.393072
0.936156 0.808164 0.373663
0.959991 0.814847 0.350805
0.982818 0.818875 0.323980
1.000000 0.819913 0.291783
1.000000 0.817838 0.252232
1.000000 0.815915 0.207919
1.000000 0.821530 0.182589
1.000000 0.828458 0.178256
1.000000 0.837186 0.193790
1.000000 0.847135 0.228519
1.000000 0.855375 0.266911
0.731563 0.742489 0.554009
0.731777 0.742519 0.554009
0.731838 0.742092 0.553857
0.732174 0.741329 0.553491
0.732876 0.740352 0.553094
0.734249 0.739040 0.552728
0.736477 0.738064 0.552850
0.739651 0.737240 0.553338
0.743832 0.736660 0.554406
0.749142 0.736202 0.555840
0.754971 0.735927 0.557641
0.761624 0.735744 0.559930
0.774411 0.743282 0.555474
0.791440 0.756069 0.549096
