20 Preset/Street 2/【3】LUT video cho PR-AE-FCPX/Tone 1 (26).cube
# Created by Adobe Lightroom plugin Export LUT (1.24.0)
# www.johnrellis.com/lightroom/exportlut.htm
# Preset: 青橙风光-素材江湖26
# Color profile: C:\Program Files (x86)\Common Files\Adobe\Color\Profiles\Recommended\VideoHD.icc
LUT_3D_SIZE 5
DOMAIN_MIN 0.000000 0.000000 0.000000
DOMAIN_MAX 0.903226 0.903226 0.903226
0.056580 0.096407 0.101076
0.141848 0.109255 0.117403
0.258946 0.118563 0.135317
0.516472 0.000000 0.155520
0.993103 0.000000 0.186343
0.100679 0.138552 0.143404
0.130587 0.141573 0.124056
0.318090 0.169406 0.151339
0.631891 0.099062 0.165682
1.000000 0.017151 0.199222
0.187900 0.236362 0.235966
0.175753 0.219913 0.218967
0.320775 0.257450 0.151797
0.913939 0.482033 0.201205
1.000000 0.548272 0.302434
0.405707 0.424659 0.409125
0.387518 0.406439 0.390448
0.388434 0.380316 0.319707
0.720912 0.498482 0.129976
1.000000 0.771542 0.381262
0.796231 0.812711 0.775296
0.791348 0.805234 0.766171
0.743679 0.736934 0.691554
0.861357 0.805112 0.619532
1.000000 0.861357 0.448219
0.082734 0.136995 0.150637
0.104829 0.124331 0.141238
0.246403 0.126864 0.141939
0.494850 0.094514 0.156039
0.919066 0.000000 0.178775
0.099977 0.156405 0.162661
0.130159 0.173007 0.180301
0.297795 0.173526 0.164920
0.593835 0.137514 0.165225
0.976349 0.000000 0.186374
0.216068 0.265110 0.266789
0.212619 0.258885 0.259373
0.316472 0.265415 0.181216
0.850217 0.430396 0.186496
1.000000 0.533776 0.288457
0.457038 0.468391 0.455024
0.437263 0.449195 0.434791
0.392615 0.391882 0.355779
0.712276 0.491218 0.139528
1.000000 0.766873 0.374914
0.805570 0.824125 0.789425
0.799222 0.815518 0.779263
0.780728 0.783291 0.740383
0.870634 0.818112 0.638575
1.000000 0.870115 0.472938
0.115175 0.211673 0.245640
0.136690 0.196384 0.230625
0.177707 0.173648 0.213046
0.411444 0.056428 0.210727
0.845731 0.000000 0.185580
0.115938 0.255955 0.282963
0.160006 0.243076 0.276005
0.208042 0.205173 0.243870
0.446509 0.093721 0.214633
0.919005 0.000000 0.198123
0.198734 0.327367 0.328405
0.238895 0.347295 0.348913
0.462013 0.458778 0.465034
0.767575 0.390539 0.355962
1.000000 0.465126 0.291447
0.553429 0.549493 0.546685
0.559991 0.557183 0.552239
0.576623 0.567102 0.555352
0.771084 0.591821 0.361395
1.000000 0.774899 0.463172
0.824979 0.847959 0.820798
0.830900 0.852903 0.825742
0.815122 0.831144 0.799039
0.828031 0.802976 0.701564
1.000000 0.854398 0.420294
0.209995 0.379461 0.464942
0.234653 0.355108 0.443824
0.283421 0.308934 0.366949
0.309819 0.232151 0.320928
0.781643 0.000000 0.404730
0.236271 0.419928 0.496223
0.259251 0.395789 0.477150
0.308049 0.334508 0.398169
0.332311 0.251133 0.339971
0.781247 0.000000 0.397406
0.048890 0.553857 0.567376
0.193912 0.553704 0.571923
0.440955 0.501823 0.560052
0.479225 0.375067 0.459205
0.853574 0.000000 0.389899
0.476722 0.645533 0.630213
0.500786 0.652796 0.637995
0.618097 0.708522 0.694209
0.835843 0.845090 0.830320
1.000000 0.754391 0.680598
0.850889 0.865080 0.848936
0.854063 0.869108 0.852659
0.867918 0.885954 0.867948
0.870481 0.886473 0.863279
0.995758 0.891173 0.694972
0.683864 0.809415 0.865812
0.682734 0.792905 0.857877
0.688350 0.729213 0.824002
0.686641 0.638666 0.699886
0.685206 0.386084 0.608820
0.674434 0.800565 0.859586
0.674983 0.786160 0.852659
0.679622 0.723751 0.818540
0.681178 0.634485 0.698116
0.680476 0.391211 0.605921
0.667262 0.852445 0.875883
0.680568 0.843626 0.871855
0.699947 0.791684 0.846860
0.702754 0.675074 0.743313
0.714473 0.450141 0.641169
0.668177 0.901030 0.886656
0.668788 0.899229 0.885557
0.692409 0.898314 0.888029
0.792142 0.847349 0.870756
0.824063 0.660914 0.770748
0.803922 0.921569 0.899413
0.808286 0.921965 0.900114
0.834531 0.927489 0.907805
0.884855 0.939635 0.924437
0.976135 0.980377 0.976165
