20 Preset/Street 2/【3】LUT video cho PR-AE-FCPX/Tone 1 (35).cube
# Created by Adobe Lightroom plugin Export LUT (1.24.0)
# www.johnrellis.com/lightroom/exportlut.htm
# Preset: 青橙风光-素材江湖35
# Color profile: C:\Program Files (x86)\Common Files\Adobe\Color\Profiles\Recommended\VideoHD.icc
LUT_3D_SIZE 5
DOMAIN_MIN 0.000000 0.000000 0.000000
DOMAIN_MAX 0.903226 0.903226 0.903226
0.101320 0.108370 0.108766
0.246555 0.095857 0.113466
0.886442 0.000000 0.011536
1.000000 0.304692 0.000000
1.000000 0.480415 0.036286
0.176761 0.187137 0.112337
0.182071 0.158602 0.132113
0.781399 0.317357 0.000000
1.000000 0.511009 0.000000
1.000000 0.592981 0.165927
0.535576 0.512261 0.000000
0.533989 0.446662 0.000000
0.545373 0.361913 0.164675
1.000000 0.769345 0.282841
1.000000 0.810666 0.421424
0.842435 0.859556 0.000000
0.864836 0.832059 0.000000
0.871366 0.773373 0.000000
0.891417 0.704982 0.265263
1.000000 0.897063 0.622980
0.977661 0.973938 0.325566
0.998291 0.969970 0.270359
1.000000 0.949004 0.174105
1.000000 0.924163 0.388220
1.000000 0.915770 0.685481
0.106600 0.132967 0.139956
0.151400 0.125490 0.136812
0.777707 0.000000 0.042023
1.000000 0.381964 0.000000
1.000000 0.502068 0.000000
0.107912 0.209232 0.165835
0.215854 0.191104 0.166781
0.701564 0.314733 0.088136
1.000000 0.525475 0.000000
1.000000 0.596002 0.126894
0.513787 0.530602 0.000000
0.543206 0.465522 0.000000
0.549401 0.376226 0.199680
0.988922 0.742672 0.241093
1.000000 0.809049 0.412329
0.831479 0.866972 0.000000
0.865019 0.843412 0.000000
0.871733 0.780240 0.000000
0.889921 0.711666 0.303532
1.000000 0.895842 0.618463
0.964050 0.975830 0.396643
0.985290 0.971740 0.347539
1.000000 0.954192 0.280461
1.000000 0.929107 0.439368
1.000000 0.919432 0.700038
0.062226 0.192111 0.251560
0.162661 0.154513 0.243137
0.375891 0.152529 0.233585
1.000000 0.183261 0.141421
1.000000 0.519554 0.000000
0.168368 0.307347 0.319280
0.230686 0.242679 0.315526
0.703731 0.124636 0.316716
1.000000 0.471351 0.187411
1.000000 0.609918 0.139803
0.000000 0.746853 0.479347
0.499031 0.705653 0.439002
0.714717 0.595575 0.423224
0.998077 0.789120 0.457954
1.000000 0.802670 0.397620
0.762417 0.913756 0.407813
0.809873 0.891051 0.328923
0.874296 0.817624 0.286809
0.904692 0.778744 0.472786
1.000000 0.896269 0.624781
0.896574 0.984680 0.635218
0.918914 0.981170 0.599695
1.000000 0.964019 0.420935
1.000000 0.935729 0.530022
1.000000 0.919493 0.713191
0.000000 0.355535 0.523156
0.000000 0.279820 0.507225
0.451362 0.117556 0.414130
0.684993 0.176181 0.389807
1.000000 0.298344 0.448402
0.000000 0.474159 0.576745
0.165560 0.389868 0.558709
0.516747 0.187716 0.461860
0.839384 0.223301 0.466194
1.000000 0.522087 0.510430
0.365911 0.778805 0.709621
0.489815 0.775814 0.709834
0.728023 0.641352 0.685359
1.000000 0.766812 0.711208
1.000000 0.804105 0.652705
0.683314 0.968353 0.849973
0.711818 0.963073 0.833188
0.846311 0.926513 0.762783
0.913359 0.895232 0.772915
1.000000 0.931945 0.809628
0.828946 0.999420 0.857237
0.850340 0.996735 0.862242
0.904295 0.987243 0.842802
0.991028 0.957855 0.716213
0.986847 0.942901 0.824704
0.000000 0.705379 0.865385
0.152193 0.640467 0.861082
0.536767 0.391119 0.827573
0.815518 0.000000 0.686580
0.968536 0.397284 0.644068
0.274205 0.756374 0.862699
0.287968 0.702846 0.859220
0.528618 0.449897 0.829648
0.820401 0.061189 0.693019
0.964996 0.437507 0.647364
0.548425 0.898772 0.872313
0.576623 0.886442 0.871916
0.574212 0.744594 0.859251
0.862242 0.422370 0.759884
1.000000 0.652888 0.752407
0.687098 0.965850 0.919249
0.712917 0.963531 0.918364
0.803983 0.955901 0.916381
0.872648 0.901701 0.897246
1.000000 0.925994 0.901671
0.842618 1.000000 0.965423
0.856413 1.000000 0.966888
0.905638 1.000000 0.973968
0.944549 0.993774 0.959350
0.982513 0.981384 0.954162
