20 Preset/Street 2/【3】LUT video cho PR-AE-FCPX/Tone 1 (22).cube
# Created by Adobe Lightroom plugin Export LUT (1.24.0)
# www.johnrellis.com/lightroom/exportlut.htm
# Preset: 青橙风光-素材江湖22
# Color profile: C:\Program Files (x86)\Common Files\Adobe\Color\Profiles\Recommended\VideoHD.icc
LUT_3D_SIZE 8
DOMAIN_MIN 0.000000 0.000000 0.000000
DOMAIN_MAX 0.903226 0.903226 0.903226
0.056580 0.096407 0.101076
0.081178 0.098756 0.104219
0.138247 0.115419 0.124361
0.205905 0.127993 0.140352
0.298344 0.140352 0.158297
0.434913 0.146639 0.181582
0.648829 0.141604 0.218387
0.874754 0.201877 0.276127
0.054871 0.111635 0.104005
0.089143 0.107637 0.106020
0.136324 0.122011 0.124910
0.207034 0.135439 0.140993
0.301701 0.148013 0.159365
0.436500 0.155123 0.181704
0.621973 0.153567 0.213260
0.843381 0.198917 0.265934
0.100740 0.168704 0.123629
0.122652 0.160891 0.125124
0.160037 0.148013 0.124697
0.262058 0.182589 0.152255
0.389197 0.197879 0.175021
0.566522 0.207584 0.203494
0.764096 0.236240 0.243687
0.948425 0.322728 0.308629
0.157473 0.276493 0.148196
0.181552 0.264347 0.149538
0.230503 0.238071 0.152224
0.339483 0.230838 0.141176
0.599786 0.287602 0.178622
0.802396 0.405219 0.255436
0.917052 0.429664 0.299077
1.000000 0.493446 0.371008
0.278172 0.443244 0.166964
0.300145 0.429084 0.169070
0.354009 0.380346 0.176974
0.435645 0.362524 0.173587
0.599634 0.346685 0.148501
0.842771 0.415137 0.188357
0.983062 0.581872 0.331823
1.000000 0.680873 0.474128
0.456397 0.625116 0.188571
0.483406 0.625391 0.193240
0.527764 0.578943 0.198520
0.554681 0.492256 0.208713
0.687007 0.521660 0.189090
0.856474 0.523980 0.146120
1.000000 0.612299 0.260716
1.000000 0.756374 0.506340
0.653651 0.818875 0.277287
0.666194 0.814481 0.277470
0.697871 0.784085 0.266575
0.736202 0.721492 0.255711
0.785122 0.677241 0.249546
0.902739 0.710536 0.238254
1.000000 0.708888 0.233646
1.000000 0.755184 0.428412
0.830442 0.941039 0.511681
0.835996 0.939025 0.508476
0.858885 0.931029 0.498787
0.897246 0.915160 0.483436
0.918975 0.865812 0.410285
0.971679 0.869596 0.435218
1.000000 0.870726 0.460334
1.000000 0.855192 0.521324
0.059632 0.106233 0.115358
0.070436 0.102602 0.109834
0.130312 0.113924 0.122225
0.195468 0.130739 0.138521
0.289158 0.145022 0.157015
0.414740 0.152621 0.178195
0.586816 0.149691 0.206821
0.798825 0.172519 0.252720
0.030396 0.113466 0.119631
0.079622 0.113466 0.119387
0.131624 0.123140 0.125154
0.202762 0.138888 0.140688
0.300633 0.153079 0.159365
0.429603 0.160433 0.180911
0.588495 0.159396 0.207126
0.786984 0.180789 0.249638
0.030274 0.177310 0.134463
0.109621 0.170962 0.139651
0.156771 0.151888 0.134676
0.248814 0.177066 0.148989
0.372503 0.197299 0.172519
0.527276 0.204929 0.196933
0.692042 0.216342 0.227146
0.880735 0.274632 0.279026
0.123720 0.279728 0.159670
0.160647 0.269322 0.160739
0.221622 0.237491 0.163180
0.307103 0.223392 0.152682
0.507042 0.254795 0.170077
0.712276 0.349676 0.230930
0.839597 0.369879 0.266636
0.970581 0.431678 0.327764
0.251774 0.449500 0.181033
0.278080 0.434058 0.182162
0.341222 0.382177 0.186801
0.410407 0.351385 0.184115
0.555993 0.330602 0.163851
0.793271 0.380560 0.181888
0.955261 0.545220 0.305547
1.000000 0.648432 0.438605
0.427008 0.618463 0.201328
0.445197 0.608362 0.202518
0.497200 0.564324 0.206729
0.535149 0.482918 0.213840
0.661677 0.506004 0.200870
0.838102 0.513176 0.169162
1.000000 0.594232 0.246647
1.000000 0.740230 0.481880
0.624506 0.806729 0.275395
0.631739 0.796902 0.270024
0.665644 0.764248 0.260410
0.709316 0.701930 0.253025
0.762356 0.657618 0.250889
0.884855 0.693385 0.239872
0.999878 0.686671 0.210697
1.000000 0.736294 0.396704
0.812406 0.936004 0.493019
0.820554 0.935088 0.495033
0.844327 0.926177 0.483497
0.884825 0.909300 0.467689
0.926116 0.877806 0.440314
0.971832 0.872709 0.449683
1.000000 0.868894 0.457130
1.000000 0.852659 0.513970
0.067903 0.142611 0.164126
0.084932 0.137972 0.159884
0.120699 0.120882 0.152590
0.241672 0.098604 0.152285
0.292699 0.151369 0.169131
0.449805 0.163790 0.184115
0.637476 0.167453 0.216098
0.844907 0.208316 0.266423
0.069337 0.148287 0.167849
0.092531 0.145418 0.165896
0.126986 0.134585 0.162264
0.234226 0.123964 0.158541
0.302831 0.161074 0.174289
0.460883 0.172732 0.187259
0.637079 0.176791 0.216068
0.836545 0.215549 0.263951
0.000000 0.193240 0.199344
0.000000 0.194003 0.200229
0.151003 0.195499 0.202823
0.250889 0.203159 0.201938
0.383307 0.212070 0.202853
0.556481 0.220737 0.208438
0.726650 0.238926 0.234592
0.901427 0.298161 0.287358
0.000000 0.342748 0.218509
0.000000 0.340642 0.210269
0.220706 0.309422 0.227329
0.341405 0.272862 0.222354
0.547936 0.315038 0.245396
0.730434 0.371710 0.263157
0.870481 0.399969 0.278172
0.989502 0.459358 0.343023
0.000000 0.527062 0.223239
0.000000 0.517876 0.239384
0.340276 0.464515 0.250126
0.435554 0.393225 0.245274
0.600000 0.383307 0.238132
0.814054 0.431983 0.257755
0.960815 0.553735 0.313146
1.000000 0.658259 0.448035
0.362249 0.684260 0.282994
0.397375 0.674647 0.282017
0.488533 0.627649 0.276036
0.558556 0.538415 0.266606
0.660822 0.526879 0.263157
0.839475 0.540002 0.256626
1.000000 0.608515 0.298344
1.000000 0.743252 0.487007
0.600214 0.847044 0.365454
0.611383 0.838895 0.358831
0.655634 0.806943 0.339452
0.713008 0.744045 0.315709
0.755184 0.666499 0.300603
0.882536 0.709285 0.307561
1.000000 0.711025 0.304784
1.000000 0.747555 0.416938
0.792264 0.945647 0.546624
0.797818 0.943023 0.540642
0.824186 0.934112 0.526848
0.872068 0.919005 0.513298
0.918669 0.887938 0.479042
0.966308 0.877440 0.487251
1.000000 0.876310 0.505425
1.000000 0.854826 0.522210
0.060700 0.190097 0.234531
0.093812 0.183932 0.229587
0.135286 0.174594 0.204685
0.187411 0.148287 0.213565
0.418311 0.000000 0.224796
0.441108 0.062593 0.193576
0.549615 0.163699 0.224521
0.817380 0.201022 0.260075
0.090059 0.200290 0.244694
0.105440 0.195468 0.240299
0.145266 0.188235 0.220432
0.199130 0.160952 0.225681
0.422797 0.000000 0.226932
0.442390 0.108064 0.200076
0.568292 0.174136 0.230472
0.828580 0.217716 0.264530
0.000000 0.254459 0.281224
0.008423 0.255039 0.282109
0.172061 0.243656 0.278294
0.236271 0.212650 0.265476
0.432959 0.139712 0.244541
0.474708 0.217319 0.251987
0.688014 0.237461 0.270451
0.914275 0.313725 0.300999
0.000000 0.366125 0.367163
0.000000 0.366094 0.367163
0.000000 0.369757 0.371191
0.353216 0.372351 0.379370
0.505974 0.362463 0.357488
0.654261 0.358984 0.340215
0.813779 0.378882 0.333806
0.981170 0.453193 0.353185
0.000000 0.651240 0.485328
0.000000 0.642634 0.468727
0.000000 0.614496 0.408972
0.477028 0.536065 0.402686
0.644953 0.487556 0.401709
0.830350 0.552453 0.444587
0.952697 0.641016 0.487953
1.000000 0.662470 0.479683
0.000000 0.802090 0.371832
0.000000 0.806058 0.367712
0.242832 0.773159 0.403845
0.590448 0.690150 0.424079
0.684871 0.596704 0.393652
0.856992 0.617487 0.417487
1.000000 0.683742 0.476753
1.000000 0.774136 0.568109
0.400122 0.905516 0.458961
0.455573 0.901793 0.470527
0.604395 0.883360 0.507561
0.710201 0.834592 0.466529
0.776516 0.738247 0.410498
0.880919 0.747341 0.426429
0.994293 0.752010 0.450477
1.000000 0.781674 0.524956
0.755856 0.966857 0.666529
0.763638 0.964965 0.663142
0.793912 0.957031 0.646265
0.845701 0.940917 0.616052
0.903136 0.911925 0.568719
0.952972 0.883909 0.546105
1.000000 0.887816 0.583368
1.000000 0.866361 0.583307
0.096040 0.255589 0.335424
0.117617 0.249393 0.329992
0.164340 0.235050 0.307897
0.206332 0.235416 0.268894
0.282506 0.177035 0.291752
0.598688 0.000000 0.330968
0.664057 0.000000 0.255436
0.723995 0.000000 0.250614
0.112551 0.271122 0.350652
0.130465 0.267674 0.348028
0.173648 0.249943 0.326238
0.218204 0.246708 0.281956
0.295415 0.187442 0.302922
0.615167 0.000000 0.336339
0.664790 0.000000 0.257420
0.719722 0.000000 0.258244
0.092561 0.338811 0.404944
0.138491 0.337377 0.405158
0.210636 0.314275 0.386267
0.266514 0.292943 0.337194
0.341772 0.233249 0.343603
0.660212 0.000000 0.346288
0.656092 0.000000 0.267643
0.703120 0.193881 0.288396
0.000000 0.441230 0.477790
0.000000 0.441566 0.477821
0.172793 0.446143 0.480720
0.378943 0.422766 0.472908
0.459174 0.357519 0.442847
0.676356 0.196994 0.377111
0.644160 0.287083 0.340032
0.855039 0.334569 0.362463
0.000000 0.603449 0.588830
0.000000 0.604730 0.590234
0.000000 0.605982 0.592798
0.322606 0.607019 0.598199
0.619226 0.601740 0.602167
0.732937 0.566766 0.552361
0.856535 0.550774 0.511376
0.984375 0.579858 0.498543
0.000000 0.859770 0.731228
0.000000 0.861997 0.732692
0.000000 0.845396 0.696651
0.000000 0.806821 0.611902
0.662196 0.713100 0.572015
0.829374 0.690791 0.592767
0.954376 0.763729 0.659052
1.000000 0.830503 0.721035
0.000000 0.954162 0.649622
0.000000 0.950988 0.639185
0.000000 0.939696 0.600214
0.457588 0.913878 0.582361
0.753841 0.846525 0.594751
0.845548 0.769192 0.542687
0.966796 0.789639 0.598779
1.000000 0.824552 0.668086
0.317754 0.997894 0.607385
0.390997 0.995056 0.616022
0.576287 0.983734 0.651606
0.765499 0.966064 0.720882
0.856077 0.939330 0.686336
0.924498 0.892729 0.608270
0.985595 0.893950 0.652186
1.000000 0.880461 0.677455
0.178317 0.365911 0.494362
0.193423 0.361669 0.490791
0.232334 0.338659 0.465217
0.295079 0.322728 0.417578
0.307164 0.316960 0.350530
0.420264 0.205509 0.395422
0.752926 0.000000 0.454536
0.938079 0.000000 0.393408
0.185489 0.372808 0.494881
0.197879 0.367071 0.489509
0.236301 0.344945 0.466590
0.295720 0.326390 0.420508
0.310307 0.319249 0.353613
0.419898 0.211856 0.395789
0.748867 0.000000 0.450782
0.923033 0.000000 0.384222
0.243992 0.451667 0.556786
0.255802 0.444587 0.551659
0.294835 0.418097 0.531060
0.340032 0.376806 0.479194
0.365698 0.361364 0.402869
0.467964 0.253239 0.434028
0.794888 0.000000 0.473121
0.923613 0.000000 0.381506
0.182132 0.568719 0.630701
0.225345 0.563775 0.628229
0.350134 0.552270 0.625757
0.455848 0.517815 0.606165
0.498909 0.472053 0.526238
0.579767 0.364202 0.526818
0.893492 0.000000 0.520439
0.931182 0.000000 0.390356
0.000000 0.671260 0.696101
0.000000 0.670588 0.695583
0.186343 0.669245 0.694911
0.445472 0.670497 0.695735
0.616297 0.634302 0.678157
0.680568 0.541772 0.632197
0.886076 0.303990 0.526543
0.858122 0.350011 0.432166
0.000000 0.815061 0.781216
0.000000 0.818479 0.784817
0.000000 0.816526 0.784817
0.272374 0.813596 0.786069
0.582574 0.808896 0.787930
0.807065 0.812558 0.799008
0.887175 0.773556 0.745785
0.977478 0.758022 0.704005
0.000000 0.973358 0.875547
0.000000 0.973968 0.877073
0.000000 0.973571 0.878691
0.217441 0.970520 0.877806
0.606378 0.944274 0.822202
0.831693 0.881224 0.773159
0.933013 0.860380 0.785702
0.994659 0.893706 0.832395
0.000000 1.000000 0.835172
0.000000 1.000000 0.831540
0.088350 1.000000 0.818692
0.482734 1.000000 0.796201
0.700557 0.981567 0.775021
0.878721 0.941955 0.782254
0.951598 0.905241 0.740047
1.000000 0.907408 0.796719
0.357031 0.522423 0.680598
0.366857 0.519799 0.679286
0.388739 0.495491 0.659052
0.430243 0.462684 0.619623
0.474403 0.440955 0.547143
0.430426 0.415717 0.443580
0.575158 0.226993 0.508843
0.889616 0.000000 0.583703
0.352483 0.521904 0.674159
0.363226 0.519921 0.673915
0.385290 0.496407 0.654688
0.420111 0.458717 0.613458
0.466102 0.436408 0.541497
0.423529 0.409918 0.438300
0.561669 0.229801 0.499245
0.870451 0.000000 0.567773
0.401312 0.585321 0.716335
0.406989 0.579278 0.712306
0.425147 0.551324 0.691707
0.453071 0.504021 0.651057
0.497230 0.470344 0.577630
0.465553 0.440558 0.473762
0.600275 0.266728 0.530755
0.915221 0.000000 0.597528
0.423194 0.682429 0.770504
0.434882 0.676997 0.767025
0.488441 0.662837 0.758938
0.524468 0.612573 0.727077
0.559503 0.551110 0.660090
0.555657 0.514092 0.555474
0.668147 0.349706 0.590875
0.973358 0.000000 0.632074
0.326329 0.773983 0.805753
0.343389 0.770596 0.802792
0.420630 0.761135 0.797391
0.539117 0.737575 0.790982
0.628595 0.683680 0.760678
0.652399 0.615045 0.664118
0.731746 0.475074 0.659022
1.000000 0.000000 0.656245
0.000000 0.852201 0.852110
0.142306 0.851865 0.852140
0.318914 0.849363 0.851194
0.486610 0.844724 0.849210
0.648615 0.837827 0.844297
0.775601 0.806088 0.828031
0.827726 0.707790 0.785245
1.000000 0.396887 0.655360
0.000000 0.939788 0.900633
0.000000 0.939879 0.901305
0.162997 0.937713 0.901213
0.442817 0.933745 0.901640
0.632441 0.927306 0.901518
0.788937 0.921202 0.902434
0.907530 0.919432 0.906371
0.951751 0.888487 0.864134
0.000000 1.000000 0.938781
0.000000 1.000000 0.939117
0.000000 1.000000 0.940948
0.459388 1.000000 0.943053
0.661555 1.000000 0.946349
0.804898 0.988464 0.917510
0.918120 0.952178 0.884886
0.983368 0.941283 0.898131
0.626490 0.749233 0.865446
0.630304 0.746822 0.864652
0.632105 0.726070 0.854459
0.645808 0.694728 0.837247
0.679072 0.665705 0.798703
0.689784 0.631281 0.723934
0.618433 0.590265 0.601587
0.796780 0.294865 0.689876
0.617578 0.744717 0.861418
0.622004 0.743008 0.860868
0.627283 0.725063 0.852201
0.639612 0.692195 0.834104
0.672328 0.661158 0.795285
0.684627 0.626490 0.720119
0.612024 0.582910 0.595666
0.785061 0.292546 0.679896
0.632044 0.769986 0.868589
0.634180 0.766629 0.867185
0.637476 0.748257 0.858671
0.656641 0.722194 0.845975
0.678645 0.680476 0.808774
0.693080 0.640711 0.734371
0.628168 0.595758 0.611749
0.792447 0.318791 0.688350
0.657832 0.818540 0.884123
0.665400 0.818051 0.884001
0.670771 0.803464 0.877714
0.682246 0.774472 0.864988
0.693324 0.724208 0.836973
0.719966 0.684504 0.774258
0.672236 0.635187 0.657038
0.818692 0.377966 0.716579
0.629084 0.863127 0.897704
0.637537 0.862394 0.897856
0.659022 0.854398 0.894835
0.707576 0.842374 0.889860
0.728206 0.801907 0.870207
0.744106 0.742123 0.822660
0.726345 0.689021 0.719326
0.847105 0.464057 0.751858
0.590753 0.907408 0.915892
0.594354 0.906096 0.914855
0.616632 0.902190 0.911742
0.667964 0.897154 0.907622
0.738003 0.880552 0.902464
0.795865 0.847929 0.886473
0.809049 0.795804 0.823545
0.891936 0.624628 0.817746
0.555291 0.948211 0.940642
0.562249 0.947631 0.940307
0.593256 0.945342 0.939147
0.654108 0.941863 0.937682
0.732479 0.936858 0.935241
0.816312 0.931273 0.931243
0.881804 0.910033 0.918242
0.911620 0.829038 0.882963
0.511650 0.991638 0.964477
0.521050 0.991180 0.964355
0.563531 0.989593 0.964233
0.640131 0.986877 0.964508
0.729366 0.982971 0.964721
0.817594 0.978607 0.964813
0.899260 0.975006 0.965576
0.968505 0.973999 0.968536
