20 Preset/Street 2/【3】LUT video cho PR-AE-FCPX/Tone 1 (34).cube
# Created by Adobe Lightroom plugin Export LUT (1.24.0)
# www.johnrellis.com/lightroom/exportlut.htm
# Preset: 青橙风光-素材江湖34
# Color profile: C:\Program Files (x86)\Common Files\Adobe\Color\Profiles\Recommended\VideoHD.icc
LUT_3D_SIZE 32
DOMAIN_MIN 0.0 0.0 0.0
DOMAIN_MAX 1.0 1.0 1.0
0.047822 0.089754 0.093996
0.047822 0.089754 0.093996
0.047822 0.089754 0.093996
0.083192 0.089784 0.094514
0.111452 0.089326 0.095583
0.148409 0.086336 0.097108
0.195865 0.076081 0.098451
0.250584 0.056886 0.100801
0.316686 0.011261 0.101686
0.395575 0.000000 0.101411
0.490303 0.000000 0.098695
0.594476 0.000000 0.093141
0.700343 0.000000 0.081514
0.799985 0.000000 0.049561
0.890532 0.000000 0.008087
0.971008 0.000000 0.000000
1.000000 0.000000 0.000000
1.000000 0.000000 0.000000
1.000000 0.000000 0.000000
1.000000 0.000000 0.000000
1.000000 0.000000 0.000000
1.000000 0.175235 0.000000
1.000000 0.234257 0.000000
1.000000 0.277256 0.000000
1.000000 0.310979 0.000000
1.000000 0.339910 0.000000
1.000000 0.365270 0.000000
1.000000 0.388006 0.033967
1.000000 0.409125 0.112673
1.000000 0.429175 0.150423
1.000000 0.448096 0.183597
1.000000 0.466529 0.215030
0.047822 0.089754 0.093996
0.047822 0.089754 0.093996
0.047822 0.089754 0.093996
0.085695 0.089631 0.094484
0.112581 0.089174 0.095583
0.148409 0.086336 0.097108
0.193393 0.080995 0.099031
0.247013 0.065736 0.101381
0.311894 0.023896 0.102327
0.389532 0.000000 0.101411
0.482155 0.000000 0.099214
0.585779 0.000000 0.093996
0.691310 0.000000 0.082734
0.791379 0.000000 0.052186
0.882292 0.000000 0.011719
0.964508 0.000000 0.000000
1.000000 0.000000 0.000000
1.000000 0.000000 0.000000
1.000000 0.000000 0.000000
1.000000 0.000000 0.000000
1.000000 0.000000 0.000000
1.000000 0.165805 0.000000
1.000000 0.228214 0.000000
1.000000 0.271702 0.000000
1.000000 0.306432 0.000000
1.000000 0.335180 0.000000
1.000000 0.360693 0.000000
1.000000 0.384192 0.011475
1.000000 0.405585 0.105013
1.000000 0.425818 0.144076
1.000000 0.445106 0.178225
1.000000 0.463752 0.210300
0.048798 0.090120 0.094331
0.048798 0.090120 0.094331
0.050080 0.090486 0.094270
0.087007 0.092439 0.095308
0.111330 0.094270 0.097292
0.144106 0.096803 0.099458
0.188022 0.096498 0.101778
0.241154 0.091768 0.103365
0.304936 0.068910 0.103517
0.381628 0.000000 0.102602
0.473701 0.000000 0.100008
0.576898 0.000000 0.094728
0.682307 0.000000 0.083864
0.782467 0.000000 0.054383
0.874174 0.000000 0.011841
0.958770 0.000000 0.000000
1.000000 0.000000 0.000000
1.000000 0.000000 0.000000
1.000000 0.000000 0.000000
1.000000 0.000000 0.000000
1.000000 0.052247 0.000000
1.000000 0.183536 0.000000
1.000000 0.238895 0.000000
1.000000 0.279515 0.000000
1.000000 0.312322 0.000000
1.000000 0.339818 0.000000
1.000000 0.365179 0.000000
1.000000 0.387732 0.004425
1.000000 0.408728 0.102846
1.000000 0.428687 0.143160
1.000000 0.447333 0.177066
1.000000 0.465675 0.209018
0.049928 0.104158 0.095491
0.054871 0.104341 0.095827
0.078492 0.103487 0.095796
0.082704 0.100252 0.100038
0.100557 0.108583 0.104677
0.133883 0.113039 0.106020
0.178408 0.115236 0.106538
0.231235 0.114199 0.106844
0.295048 0.107454 0.106416
0.371008 0.086305 0.104952
0.462470 0.000000 0.101717
0.564172 0.000000 0.096162
0.670405 0.000000 0.085969
0.770687 0.000000 0.055573
0.862760 0.000000 0.012085
0.950408 0.000000 0.000000
1.000000 0.000000 0.000000
1.000000 0.000000 0.000000
1.000000 0.000000 0.000000
1.000000 0.000000 0.000000
1.000000 0.140810 0.000000
1.000000 0.211826 0.000000
1.000000 0.258549 0.000000
1.000000 0.294987 0.000000
1.000000 0.325628 0.000000
1.000000 0.352483 0.000000
1.000000 0.376806 0.000000
1.000000 0.398505 0.009918
1.000000 0.418311 0.105837
1.000000 0.437354 0.145632
1.000000 0.455146 0.179721
1.000000 0.472358 0.211032
0.082704 0.120943 0.098634
0.087739 0.120699 0.098634
0.097536 0.119661 0.098238
0.099336 0.115328 0.102266
0.102266 0.112428 0.107820
0.127047 0.122744 0.111574
0.163058 0.133394 0.113252
0.215640 0.137331 0.112306
0.278172 0.137270 0.110811
0.352911 0.130465 0.108888
0.442359 0.109163 0.105348
0.543999 0.005127 0.098970
0.650202 0.000000 0.089265
0.752560 0.000000 0.059358
0.846403 0.000000 0.012573
0.937469 0.000000 0.000000
1.000000 0.000000 0.000000
1.000000 0.000000 0.000000
1.000000 0.000000 0.000000
1.000000 0.148165 0.000000
1.000000 0.213107 0.000000
1.000000 0.258396 0.000000
1.000000 0.294194 0.000000
1.000000 0.324620 0.000000
1.000000 0.350896 0.000000
1.000000 0.374853 0.000000
1.000000 0.396094 0.000000
1.000000 0.415625 0.026184
1.000000 0.433814 0.112306
1.000000 0.451026 0.150790
1.000000 0.467414 0.184207
1.000000 0.483406 0.215000
0.105104 0.141634 0.101137
0.107454 0.141451 0.101137
0.117098 0.139559 0.099886
0.119234 0.135317 0.102876
0.120943 0.129610 0.107332
0.126406 0.126528 0.113832
0.159854 0.139895 0.117067
0.201083 0.155093 0.119783
0.259617 0.164218 0.118807
0.333776 0.166476 0.115663
0.422492 0.161044 0.111269
0.524224 0.144045 0.104250
0.631250 0.109987 0.093629
0.734768 0.004059 0.066255
0.835935 0.000000 0.009308
0.926390 0.000000 0.000000
1.000000 0.018006 0.000000
1.000000 0.139742 0.000000
1.000000 0.197147 0.000000
1.000000 0.243748 0.000000
1.000000 0.281682 0.000000
1.000000 0.313634 0.000000
1.000000 0.376623 0.000000
1.000000 0.396857 0.000000
1.000000 0.414679 0.000000
1.000000 0.431342 0.000000
1.000000 0.446571 0.069154
1.000000 0.461097 0.123507
1.000000 0.475135 0.158419
1.000000 0.488716 0.189395
1.000000 0.501762 0.218387
1.000000 0.514580 0.246036
0.130922 0.171084 0.103304
0.133364 0.170748 0.102968
0.142855 0.168734 0.102144
0.147677 0.163027 0.103182
0.149355 0.155367 0.106020
0.151400 0.147890 0.111849
0.161288 0.144991 0.120211
0.205692 0.162325 0.123507
0.257023 0.180453 0.126223
0.322545 0.201480 0.128206
0.415045 0.206394 0.121920
0.519768 0.205203 0.113161
0.629206 0.198276 0.100313
0.743648 0.195224 0.067720
0.846921 0.200870 0.000000
0.934630 0.218143 0.000000
1.000000 0.244633 0.000000
1.000000 0.275303 0.000000
1.000000 0.307012 0.000000
1.000000 0.336645 0.000000
1.000000 0.363531 0.000000
1.000000 0.387457 0.000000
1.000000 0.409216 0.000000
1.000000 0.428412 0.000000
1.000000 0.445197 0.000000
1.000000 0.460334 0.000000
1.000000 0.473091 0.090608
1.000000 0.485481 0.133059
1.000000 0.497475 0.166598
1.000000 0.508812 0.196414
1.000000 0.520226 0.224796
1.000000 0.531456 0.252201
0.160433 0.200381 0.103548
0.162722 0.199924 0.103243
0.171023 0.197787 0.102235
0.177859 0.192111 0.102785
0.179812 0.184604 0.106081
0.181704 0.174838 0.109712
0.183780 0.165621 0.115602
0.198428 0.163760 0.125673
0.251133 0.183810 0.129458
0.312230 0.204929 0.131868
0.390570 0.229191 0.133211
0.491585 0.251041 0.129427
0.609186 0.259983 0.115236
0.720851 0.269322 0.093690
0.821317 0.282048 0.025391
0.908690 0.299748 0.000000
0.981262 0.321935 0.000000
1.000000 0.346105 0.000000
1.000000 0.371008 0.000000
1.000000 0.394842 0.000000
1.000000 0.416236 0.000000
1.000000 0.435431 0.000000
1.000000 0.452644 0.000000
1.000000 0.468147 0.000000
1.000000 0.482063 0.000000
1.000000 0.493996 0.023896
1.000000 0.504692 0.111147
1.000000 0.514488 0.148562
1.000000 0.524254 0.180087
1.000000 0.533898 0.208927
1.000000 0.543359 0.236515
1.000000 0.553094 0.263401
0.196323 0.232517 0.101656
0.198550 0.232090 0.101381
0.205509 0.229862 0.100526
0.213046 0.223880 0.101198
0.215305 0.217075 0.104494
0.217807 0.207828 0.109010
0.219577 0.196902 0.113924
0.221256 0.185336 0.119631
0.241764 0.185214 0.131624
0.308507 0.209689 0.135805
0.386816 0.235294 0.137789
0.482033 0.265293 0.137972
0.586603 0.301549 0.134829
0.694392 0.326238 0.118715
0.794461 0.344488 0.088441
0.882628 0.364721 0.000000
0.957488 0.386816 0.000000
1.000000 0.409216 0.000000
1.000000 0.431006 0.000000
1.000000 0.451514 0.000000
1.000000 0.469215 0.000000
1.000000 0.485115 0.000000
1.000000 0.498939 0.000000
1.000000 0.511223 0.000000
1.000000 0.522179 0.000000
1.000000 0.531426 0.096925
1.000000 0.539757 0.137758
1.000000 0.547601 0.170016
1.000000 0.555261 0.199222
1.000000 0.562676 0.226596
1.000000 0.570550 0.253025
1.000000 0.578393 0.278965
0.237888 0.268070 0.097261
0.239719 0.267369 0.096773
0.245762 0.264988 0.096498
0.253513 0.258366 0.096864
0.255711 0.252293 0.100954
0.259281 0.244358 0.105806
0.263279 0.234501 0.111879
0.267094 0.223239 0.118379
0.270085 0.210544 0.125154
0.298131 0.211582 0.138308
0.377234 0.238956 0.142153
0.466102 0.267674 0.143008
0.565606 0.302129 0.141146
0.666163 0.343999 0.136141
0.761013 0.392309 0.126864
0.852567 0.416907 0.092531
0.931365 0.441718 0.000000
0.995239 0.465431 0.000000
1.000000 0.487129 0.000000
1.000000 0.505821 0.000000
1.000000 0.520958 0.000000
1.000000 0.533349 0.000000
1.000000 0.543816 0.000000
1.000000 0.553185 0.000000
1.000000 0.561028 0.090517
1.000000 0.568017 0.130770
1.000000 0.574304 0.163424
1.000000 0.580407 0.192203
1.000000 0.586419 0.219516
1.000000 0.592584 0.245853
1.000000 0.598840 0.271672
1.000000 0.605371 0.297002
0.287602 0.309148 0.086397
0.288945 0.308568 0.086946
0.294896 0.306188 0.085359
0.303319 0.298802 0.085878
0.306310 0.293400 0.091981
0.310063 0.286046 0.098329
0.314488 0.276371 0.106203
0.318975 0.265263 0.114046
0.323278 0.252445 0.122438
0.326818 0.238407 0.131228
0.362341 0.239719 0.145022
0.452949 0.270451 0.148196
0.548119 0.303807 0.147402
0.646998 0.344152 0.144137
0.740536 0.391852 0.137911
0.826169 0.445502 0.130465
0.903929 0.488991 0.112490
0.970672 0.514031 0.058442
1.000000 0.535882 0.000000
1.000000 0.554040 0.000000
1.000000 0.567864 0.000000
1.000000 0.578851 0.000000
1.000000 0.588037 0.059907
1.000000 0.595361 0.110933
1.000000 0.601556 0.142092
1.000000 0.606897 0.170443
1.000000 0.611597 0.196719
1.000000 0.616022 0.221927
1.000000 0.620417 0.246891
1.000000 0.624872 0.271305
1.000000 0.629725 0.295811
1.000000 0.634760 0.320195
0.344457 0.353826 0.045838
0.345922 0.353246 0.044556
0.350896 0.350744 0.043244
0.359869 0.344732 0.041993
0.362585 0.337346 0.059266
0.366674 0.330419 0.079377
0.371862 0.321721 0.092622
0.377447 0.311009 0.103609
0.383246 0.298650 0.114595
0.388983 0.284672 0.125734
0.393805 0.269352 0.136538
0.437171 0.271702 0.151125
0.581048 0.328618 0.155764
0.679255 0.373327 0.153170
0.770443 0.423957 0.148745
0.852781 0.479194 0.144747
0.921569 0.534569 0.146639
0.975189 0.587182 0.160861
1.000000 0.611383 0.155734
1.000000 0.625818 0.152316
1.000000 0.636042 0.156588
1.000000 0.643275 0.166629
1.000000 0.648554 0.180941
1.000000 0.652644 0.198428
1.000000 0.655665 0.216953
1.000000 0.657862 0.235996
1.000000 0.659449 0.255161
1.000000 0.661097 0.274601
1.000000 0.662867 0.294377
1.000000 0.664851 0.314916
1.000000 0.667323 0.335912
1.000000 0.670314 0.357519
0.423957 0.415259 0.000000
0.424475 0.414496 0.000000
0.428473 0.410864 0.000000
0.436378 0.404578 0.000000
0.437812 0.393988 0.000000
0.440986 0.386725 0.000275
0.445686 0.377813 0.032441
0.451392 0.367315 0.071748
0.458839 0.355627 0.096345
0.467109 0.342382 0.112459
0.476539 0.328191 0.127352
0.486213 0.312810 0.141787
0.540948 0.318853 0.158358
0.645075 0.363561 0.160037
0.740475 0.414282 0.157748
0.825101 0.468269 0.155245
0.897978 0.523522 0.156435
0.955840 0.576165 0.167544
0.999054 0.623926 0.189822
1.000000 0.658808 0.212009
1.000000 0.669764 0.212741
1.000000 0.677577 0.218692
1.000000 0.682979 0.228305
1.000000 0.686885 0.241459
1.000000 0.689509 0.256413
1.000000 0.691371 0.272465
1.000000 0.692531 0.289586
1.000000 0.693477 0.307500
1.000000 0.694484 0.325872
1.000000 0.695827 0.345190
1.000000 0.697383 0.364996
1.000000 0.699458 0.385504
0.481666 0.460182 0.000000
0.481910 0.459388 0.000000
0.485023 0.455818 0.000000
0.491157 0.449226 0.000000
0.493416 0.437079 0.000000
0.496345 0.430701 0.000000
0.501030 0.422736 0.000000
0.507225 0.413489 0.000000
0.515038 0.402808 0.038056
0.524437 0.391272 0.088014
0.535302 0.378515 0.108766
0.546960 0.364324 0.127779
0.558373 0.348669 0.145113
0.616327 0.357977 0.164065
0.712886 0.406409 0.165713
0.800076 0.459724 0.164584
0.875120 0.513878 0.166110
0.936248 0.566308 0.174960
0.983307 0.614801 0.193942
1.000000 0.657343 0.221836
1.000000 0.693629 0.256260
1.000000 0.709316 0.270634
1.000000 0.715450 0.277684
1.000000 0.719600 0.287907
1.000000 0.722194 0.300298
1.000000 0.723873 0.314092
1.000000 0.724636 0.328923
1.000000 0.725063 0.344701
1.000000 0.725490 0.361303
1.000000 0.726101 0.379156
1.000000 0.726986 0.397650
1.000000 0.728328 0.416907
0.538811 0.506554 0.000000
0.539361 0.505699 0.000000
0.541588 0.502525 0.000000
0.546715 0.496040 0.000000
0.549676 0.482582 0.000000
0.552361 0.476081 0.000000
0.556817 0.469276 0.000000
0.563104 0.461097 0.000000
0.571038 0.451942 0.000000
0.581018 0.441901 0.000000
0.592493 0.430732 0.060853
0.604944 0.418311 0.103456
0.617487 0.404211 0.127077
0.629206 0.387945 0.148348
0.687282 0.400793 0.169863
0.774899 0.451270 0.172732
0.853574 0.505943 0.175143
0.917571 0.558129 0.182650
0.967681 0.606683 0.199344
1.000000 0.650172 0.224399
1.000000 0.687709 0.256291
1.000000 0.720180 0.293553
1.000000 0.744808 0.328130
1.000000 0.749355 0.336004
1.000000 0.752132 0.345892
1.000000 0.753750 0.357519
1.000000 0.754543 0.370550
1.000000 0.755001 0.385077
1.000000 0.755245 0.400580
1.000000 0.755612 0.417304
1.000000 0.756313 0.435187
1.000000 0.757259 0.453712
0.591516 0.551720 0.000000
0.592309 0.551080 0.000000
0.594751 0.548425 0.000000
0.599390 0.543084 0.000000
0.605951 0.533837 0.000000
0.607294 0.523430 0.000000
0.612787 0.518303 0.000000
0.619776 0.512108 0.000000
0.628382 0.504814 0.000000
0.638300 0.496345 0.000000
0.649134 0.486336 0.000000
0.660578 0.474678 0.023621
0.672114 0.461219 0.096681
0.683131 0.445777 0.126894
0.692805 0.428107 0.151644
0.748592 0.443458 0.177005
0.828000 0.494728 0.182528
0.896971 0.548608 0.189792
0.950439 0.597436 0.204135
0.991180 0.641932 0.226993
1.000000 0.681300 0.256962
1.000000 0.715389 0.292790
1.000000 0.744564 0.332097
1.000000 0.769528 0.373449
1.000000 0.779507 0.394110
1.000000 0.781521 0.404273
1.000000 0.782559 0.415747
1.000000 0.782895 0.428412
1.000000 0.783017 0.442329
1.000000 0.783047 0.457313
1.000000 0.783169 0.473274
1.000000 0.783505 0.490059
0.640467 0.596399 0.000000
0.641138 0.595575 0.000000
0.643153 0.593378 0.000000
0.647486 0.588525 0.000000
0.653925 0.580896 0.000000
0.656031 0.568200 0.000000
0.661341 0.564019 0.000000
0.667994 0.558709 0.000000
0.676081 0.552605 0.000000
0.685451 0.545342 0.000000
0.696010 0.536858 0.000000
0.707271 0.527031 0.000000
0.718715 0.515435 0.000000
0.730037 0.501915 0.092195
0.740688 0.486427 0.128023
0.750271 0.468635 0.156435
0.804623 0.487312 0.186069
0.875364 0.538354 0.196201
0.933959 0.589746 0.210178
0.977508 0.634791 0.230686
1.000000 0.675471 0.258824
1.000000 0.710964 0.293187
1.000000 0.741268 0.331701
1.000000 0.767239 0.372442
1.000000 0.789395 0.414191
1.000000 0.806088 0.451270
1.000000 0.807431 0.461341
1.000000 0.808042 0.472877
1.000000 0.808194 0.485359
1.000000 0.808194 0.499123
1.000000 0.808194 0.513725
1.000000 0.807950 0.528344
0.688869 0.642542 0.000000
0.689448 0.642390 0.000000
0.711177 0.659174 0.000000
0.714839 0.654749 0.000000
0.720638 0.647700 0.000000
0.723598 0.633387 0.000000
0.727871 0.628931 0.000000
0.734005 0.624201 0.000000
0.741390 0.618982 0.000000
0.750149 0.612696 0.000000
0.759945 0.605310 0.000000
0.770321 0.596704 0.000000
0.780972 0.586084 0.000000
0.791287 0.573602 0.000000
0.801328 0.559045 0.091920
0.810452 0.542473 0.135225
0.820768 0.525658 0.167300
0.868132 0.544030 0.203433
0.924895 0.590967 0.220676
0.970642 0.637415 0.241947
1.000000 0.677516 0.268864
1.000000 0.712703 0.302098
1.000000 0.742947 0.339239
1.000000 0.768734 0.378698
1.000000 0.790585 0.419074
1.000000 0.809384 0.459480
1.000000 0.825803 0.499825
1.000000 0.830900 0.518853
1.000000 0.830991 0.529381
1.000000 0.830930 0.541527
1.000000 0.830625 0.554040
1.000000 0.830167 0.566796
0.738979 0.692866 0.000000
0.740993 0.694179 0.000000
0.744472 0.694087 0.000000
0.749477 0.691646 0.000000
0.755673 0.686641 0.000000
0.762173 0.677699 0.000000
0.764157 0.667353 0.000000
0.769497 0.663478 0.000000
0.776242 0.658900 0.000000
0.784054 0.653498 0.000000
0.793057 0.647303 0.000000
0.802701 0.639979 0.000000
0.812680 0.630945 0.000000
0.822690 0.620447 0.000000
0.832761 0.608148 0.000000
0.842344 0.593988 0.100862
0.851530 0.578119 0.144503
0.863859 0.564477 0.178347
0.906157 0.582757 0.219333
0.954253 0.627192 0.243717
0.992096 0.670375 0.270329
1.000000 0.707210 0.302129
1.000000 0.738796 0.338384
1.000000 0.765682 0.377142
1.000000 0.788418 0.417212
1.000000 0.807889 0.457557
1.000000 0.824857 0.497993
1.000000 0.839841 0.538170
1.000000 0.850309 0.570642
1.000000 0.850340 0.580987
1.000000 0.850034 0.591882
1.000000 0.849638 0.603510
0.775875 0.731716 0.000000
0.777768 0.732906 0.000000
0.781033 0.733028 0.000000
0.785580 0.731350 0.000000
0.791470 0.727169 0.000000
0.798276 0.720119 0.000000
0.800443 0.707210 0.000000
0.805325 0.703822 0.000000
0.811246 0.699825 0.000000
0.818173 0.695125 0.000000
0.826078 0.689723 0.000000
0.834897 0.683375 0.000000
0.843992 0.675746 0.000000
0.853513 0.666865 0.000000
0.863005 0.656367 0.000000
0.872557 0.644434 0.006165
0.881773 0.630732 0.118196
0.890623 0.615595 0.159274
0.903960 0.604456 0.194675
0.940093 0.621729 0.240024
0.979370 0.662837 0.271977
1.000000 0.701686 0.302831
1.000000 0.734646 0.338201
1.000000 0.762692 0.376501
1.000000 0.786374 0.416205
1.000000 0.806516 0.456458
1.000000 0.823972 0.496895
1.000000 0.839414 0.537194
1.000000 0.853147 0.576623
1.000000 0.865537 0.614893
1.000000 0.867460 0.629603
1.000000 0.867216 0.639948
0.810575 0.769223 0.000000
0.812284 0.770169 0.000000
0.815000 0.770230 0.000000
0.819059 0.768673 0.000000
0.824216 0.765255 0.000000
0.830503 0.759274 0.000000
0.835111 0.748287 0.000000
0.838346 0.742000 0.000000
0.843687 0.738674 0.000000
0.849790 0.734646 0.000000
0.856718 0.729915 0.000000
0.864469 0.724392 0.000000
0.872709 0.717952 0.000000
0.881315 0.710353 0.000000
0.890196 0.701472 0.000000
0.899290 0.691524 0.000000
0.908476 0.680354 0.085267
0.917693 0.667903 0.143282
0.926970 0.654536 0.181827
0.941070 0.646540 0.218235
0.971557 0.663966 0.271366
1.000000 0.701259 0.309545
1.000000 0.735225 0.344793
1.000000 0.764340 0.383825
1.000000 0.788876 0.424323
1.000000 0.809537 0.465370
1.000000 0.827268 0.506249
1.000000 0.842557 0.546197
1.000000 0.856199 0.585504
1.000000 0.868559 0.623926
1.000000 0.879850 0.660761
1.000000 0.885588 0.683986
0.849607 0.810788 0.000000
0.850370 0.811032 0.000000
0.851987 0.810361 0.000000
0.854704 0.808408 0.000000
0.858793 0.804898 0.000000
0.864012 0.799771 0.000000
0.870665 0.792782 0.000000
0.872648 0.781796 0.000000
0.877104 0.778805 0.000000
0.882383 0.775448 0.000000
0.888457 0.771420 0.000000
0.895140 0.766751 0.000000
0.902373 0.761166 0.000000
0.909880 0.754574 0.000000
0.917662 0.746975 0.000000
0.925689 0.738338 0.000000
0.933806 0.728542 0.039796
0.942016 0.717678 0.134279
0.950286 0.705745 0.176852
0.958404 0.692683 0.210880
0.971191 0.685664 0.247318
0.995392 0.701534 0.306645
1.000000 0.732815 0.347692
1.000000 0.761471 0.383917
1.000000 0.786648 0.423682
1.000000 0.807950 0.464149
1.000000 0.826078 0.504631
1.000000 0.841855 0.544854
1.000000 0.855863 0.584466
1.000000 0.868498 0.623133
1.000000 0.879942 0.660121
1.000000 0.890257 0.694423
0.876860 0.840208 0.000000
0.877501 0.840330 0.000000
0.878965 0.839750 0.000000
0.881529 0.838224 0.000000
0.885191 0.835477 0.000000
0.890135 0.831449 0.000000
0.896330 0.826047 0.000000
0.900725 0.815976 0.000000
0.903990 0.811490 0.000000
0.908476 0.808530 0.000000
0.913664 0.805173 0.000000
0.919371 0.801144 0.000000
0.925536 0.796414 0.000000
0.932128 0.790921 0.000000
0.938964 0.784604 0.000000
0.946105 0.777340 0.000000
0.953521 0.769192 0.030610
0.961059 0.760098 0.134157
0.968566 0.750057 0.178042
0.976135 0.738949 0.213138
0.983612 0.726925 0.244022
0.995148 0.721218 0.280064
1.000000 0.736019 0.347082
1.000000 0.762051 0.389929
1.000000 0.783352 0.421424
1.000000 0.804959 0.460548
1.000000 0.823880 0.501091
1.000000 0.840330 0.541497
1.000000 0.854856 0.581506
1.000000 0.867826 0.620661
1.000000 0.879606 0.658350
1.000000 0.890196 0.693355
0.904021 0.868681 0.000000
0.904875 0.868925 0.000000
0.906096 0.868498 0.000000
0.908202 0.867094 0.000000
0.911315 0.864683 0.000000
0.915526 0.861173 0.000000
0.920836 0.856596 0.000000
0.927367 0.850767 0.000000
0.929168 0.841276 0.000000
0.932464 0.838285 0.000000
0.936248 0.834745 0.000000
0.940703 0.830930 0.000000
0.945556 0.826474 0.000000
0.950835 0.821347 0.000000
0.956359 0.815457 0.000000
0.962158 0.808835 0.000000
0.968261 0.801480 0.052613
0.974762 0.793454 0.138918
0.981445 0.784848 0.181338
0.988251 0.775418 0.216403
0.995026 0.765042 0.246860
1.000000 0.753597 0.274754
1.000000 0.748318 0.310246
1.000000 0.761776 0.383062
1.000000 0.783505 0.425879
1.000000 0.803891 0.461311
1.000000 0.822416 0.499702
1.000000 0.839170 0.539849
1.000000 0.854002 0.579522
1.000000 0.867277 0.618769
1.000000 0.879301 0.656794
1.000000 0.890105 0.692134
0.922545 0.888640 0.000000
0.923186 0.888823 0.000000
0.924407 0.888548 0.000000
0.926482 0.887602 0.000000
0.929595 0.885832 0.000000
0.933776 0.883360 0.000000
0.939208 0.880095 0.000000
0.945922 0.875914 0.000000
0.951293 0.868589 0.000000
0.953918 0.864073 0.000000
0.957305 0.861326 0.000000
0.961151 0.858122 0.000000
0.965301 0.854429 0.000000
0.969665 0.850004 0.000000
0.974212 0.844846 0.000000
0.978943 0.839048 0.000000
0.983917 0.832578 0.119692
0.989319 0.825467 0.165316
0.994842 0.817929 0.201144
1.000000 0.809720 0.232395
1.000000 0.800778 0.260868
1.000000 0.791073 0.287175
1.000000 0.780484 0.312139
1.000000 0.777188 0.354528
1.000000 0.788510 0.427100
1.000000 0.806668 0.470497
1.000000 0.823972 0.505699
1.000000 0.840055 0.543450
1.000000 0.855161 0.583520
1.000000 0.868620 0.622889
1.000000 0.880735 0.660883
1.000000 0.891600 0.696223
0.940154 0.907591 0.037720
0.940581 0.907652 0.036683
0.941588 0.907317 0.019257
0.943450 0.906493 0.000000
0.946258 0.905089 0.000000
0.950164 0.903105 0.000000
0.955230 0.900481 0.000000
0.961486 0.897185 0.000000
0.968750 0.893126 0.000000
0.971954 0.885466 0.000000
0.974701 0.882902 0.000000
0.977783 0.880034 0.000000
0.981140 0.876707 0.000000
0.984771 0.872831 0.000000
0.988556 0.868315 0.000000
0.992523 0.863310 0.117678
0.996765 0.857633 0.161318
1.000000 0.851560 0.195315
1.000000 0.844999 0.225406
1.000000 0.837919 0.252811
1.000000 0.830289 0.278813
1.000000 0.821958 0.303380
1.000000 0.812863 0.326452
1.000000 0.802976 0.348638
1.000000 0.801694 0.400488
1.000000 0.811002 0.470527
1.000000 0.826261 0.513451
1.000000 0.840970 0.547417
1.000000 0.854978 0.583825
1.000000 0.868833 0.623743
1.000000 0.881224 0.662074
1.000000 0.892363 0.698024
0.953521 0.922850 0.192752
0.953857 0.922881 0.192660
0.954772 0.922637 0.190097
0.956603 0.922026 0.184237
0.959350 0.921050 0.173404
0.963317 0.919615 0.157259
0.968505 0.917906 0.133120
0.974884 0.915709 0.091768
0.982422 0.913115 0.000000
0.990082 0.909178 0.000000
0.992676 0.904356 0.000000
0.995666 0.902342 0.000000
0.998840 0.899901 0.090822
1.000000 0.896941 0.139956
1.000000 0.893431 0.175143
1.000000 0.889250 0.203586
1.000000 0.884550 0.229129
1.000000 0.879393 0.253239
1.000000 0.873838 0.276768
1.000000 0.867887 0.299474
1.000000 0.861387 0.321569
1.000000 0.854429 0.343084
1.000000 0.846769 0.363348
1.000000 0.838468 0.383185
1.000000 0.830594 0.409461
1.000000 0.830106 0.464118
1.000000 0.837797 0.531487
1.000000 0.850065 0.572992
1.000000 0.862150 0.605066
1.000000 0.873808 0.639124
1.000000 0.885985 0.676967
1.000000 0.896880 0.712123
0.967864 0.939086 0.290471
0.967987 0.939055 0.290074
0.968780 0.938781 0.287846
0.970336 0.938231 0.283391
0.972839 0.937377 0.276066
0.976410 0.936156 0.265629
0.980987 0.934630 0.251774
0.986755 0.932677 0.233402
0.993500 0.930358 0.209720
1.000000 0.927611 0.177005
1.000000 0.921508 0.134157
1.000000 0.919219 0.160739
1.000000 0.916747 0.186038
1.000000 0.913909 0.209049
