20 Preset/Street 2/【3】LUT video cho PR-AE-FCPX/Tone 1 (6).cube
# Created by Adobe Lightroom plugin Export LUT (1.24.0)
# www.johnrellis.com/lightroom/exportlut.htm
# Preset: 青橙风光-素材江湖06
# Color profile: C:\Program Files (x86)\Common Files\Adobe\Color\Profiles\Recommended\VideoHD.icc
LUT_3D_SIZE 32
DOMAIN_MIN 0.0 0.0 0.0
DOMAIN_MAX 1.0 1.0 1.0
0.024994 0.091463 0.107088
0.024994 0.091463 0.107088
0.024994 0.091463 0.107088
0.044831 0.091463 0.107637
0.097993 0.092714 0.110353
0.131838 0.092683 0.113771
0.168276 0.091737 0.117647
0.209079 0.087251 0.121706
0.255802 0.067597 0.125002
0.310857 0.029297 0.127413
0.379248 0.000000 0.128878
0.462318 0.000000 0.129732
0.557244 0.000000 0.129061
0.657557 0.000000 0.126680
0.754879 0.000000 0.122438
0.845029 0.000000 0.116152
0.926696 0.000000 0.106752
0.997681 0.000000 0.093874
1.000000 0.000000 0.066682
1.000000 0.000000 0.021454
1.000000 0.000000 0.000000
1.000000 0.000000 0.000000
1.000000 0.000000 0.000000
1.000000 0.104524 0.000000
1.000000 0.191958 0.000000
1.000000 0.241123 0.006500
1.000000 0.278019 0.079988
1.000000 0.309087 0.117159
1.000000 0.337804 0.149050
1.000000 0.365698 0.181827
1.000000 0.393622 0.217197
1.000000 0.422766 0.256016
0.024994 0.091463 0.107088
0.024994 0.091463 0.107088
0.024994 0.091463 0.107088
0.046815 0.091371 0.107637
0.097993 0.092714 0.110353
0.130129 0.093019 0.113466
0.165286 0.092134 0.117433
0.204379 0.088411 0.121248
0.249546 0.074434 0.124544
0.302342 0.041199 0.127077
0.367041 0.000000 0.128481
0.446601 0.000000 0.129122
0.538781 0.000000 0.128817
0.637568 0.000000 0.126894
0.734676 0.000000 0.122927
0.826505 0.000000 0.116854
0.910246 0.000000 0.107973
0.983825 0.000000 0.095644
1.000000 0.000000 0.072572
1.000000 0.000000 0.027375
1.000000 0.000000 0.000000
1.000000 0.000000 0.000000
1.000000 0.000000 0.000000
1.000000 0.000000 0.000000
1.000000 0.164218 0.000000
1.000000 0.219364 0.000000
1.000000 0.259525 0.040101
1.000000 0.293553 0.100801
1.000000 0.323919 0.134615
1.000000 0.352789 0.168215
1.000000 0.381872 0.203586
1.000000 0.411353 0.242283
0.024994 0.091463 0.107088
0.024994 0.091463 0.107088
0.024994 0.091463 0.107088
0.053742 0.091493 0.107912
0.100618 0.092378 0.110353
0.130861 0.093294 0.113436
0.164431 0.094423 0.116915
0.202213 0.092958 0.120363
0.245579 0.088502 0.123537
0.296849 0.065888 0.125582
0.359808 0.008057 0.127291
0.437354 0.000000 0.127993
0.527092 0.000000 0.127535
0.623987 0.000000 0.125582
0.721218 0.000000 0.121675
0.812802 0.000000 0.115755
0.897429 0.000000 0.106630
0.972625 0.000000 0.093660
1.000000 0.000000 0.065370
1.000000 0.000000 0.019348
1.000000 0.000000 0.000000
1.000000 0.000000 0.000000
1.000000 0.000000 0.000000
1.000000 0.000000 0.000000
1.000000 0.163668 0.000000
1.000000 0.217105 0.000000
1.000000 0.258030 0.004913
1.000000 0.291264 0.085695
1.000000 0.321324 0.123537
1.000000 0.350195 0.158358
1.000000 0.378576 0.194644
1.000000 0.407782 0.233463
0.025330 0.099916 0.110384
0.024598 0.100313 0.110353
0.029572 0.100465 0.110628
0.054597 0.099611 0.109316
0.100282 0.104829 0.108248
0.130983 0.105867 0.111025
0.164370 0.106508 0.114351
0.200992 0.105623 0.117647
0.243900 0.102907 0.121126
0.293950 0.095155 0.123415
0.355779 0.061341 0.124849
0.430549 0.000000 0.125582
0.518059 0.000000 0.124788
0.612604 0.000000 0.122683
0.707515 0.000000 0.118532
0.797757 0.000000 0.111788
0.881651 0.000000 0.102296
0.956817 0.000000 0.088228
1.000000 0.000000 0.049653
1.000000 0.000000 0.001068
1.000000 0.000000 0.000000
1.000000 0.000000 0.000000
1.000000 0.000000 0.000000
1.000000 0.043488 0.000000
1.000000 0.172732 0.000000
1.000000 0.225711 0.000000
1.000000 0.265843 0.000000
1.000000 0.298894 0.045075
1.000000 0.328405 0.111910
1.000000 0.356085 0.150057
1.000000 0.382666 0.187076
1.000000 0.409491 0.225284
0.023743 0.117586 0.118563
0.028107 0.117128 0.118868
0.043427 0.116670 0.119448
0.066987 0.115358 0.119203
0.091951 0.113527 0.113924
0.126406 0.120638 0.110323
0.160830 0.123781 0.110170
0.196780 0.123415 0.113924
0.238163 0.121706 0.117037
0.286809 0.117403 0.119387
0.345464 0.106538 0.120882
0.417609 0.073457 0.121492
0.502190 0.000000 0.120638
0.595727 0.000000 0.118013
0.690761 0.000000 0.113191
0.782284 0.000000 0.104952
0.868498 0.000000 0.093385
0.946197 0.000000 0.063691
1.000000 0.000000 0.014862
1.000000 0.000000 0.000000
1.000000 0.000000 0.000000
1.000000 0.000000 0.000000
1.000000 0.000000 0.000000
1.000000 0.148623 0.000000
1.000000 0.209567 0.000000
1.000000 0.252140 0.000000
1.000000 0.285710 0.000000
1.000000 0.315099 0.000000
1.000000 0.341100 0.092866
1.000000 0.366033 0.136812
1.000000 0.390265 0.175967
1.000000 0.415076 0.214969
0.046296 0.132692 0.127657
0.048280 0.132662 0.127657
0.063722 0.131502 0.128267
0.084535 0.129610 0.129213
0.096345 0.130251 0.125307
0.114412 0.128389 0.119448
0.153902 0.137270 0.114687
0.195377 0.145541 0.108797
0.237339 0.145480 0.110872
0.286168 0.143252 0.113863
0.344884 0.137636 0.114992
0.416754 0.123812 0.114931
0.500633 0.092012 0.113313
0.593103 0.000000 0.109133
0.688258 0.000000 0.102327
0.780026 0.000000 0.091402
0.866209 0.000000 0.061769
0.944274 0.000000 0.010742
1.000000 0.000000 0.000000
1.000000 0.000000 0.000000
1.000000 0.000000 0.000000
1.000000 0.062806 0.000000
1.000000 0.290715 0.000000
1.000000 0.321843 0.000000
1.000000 0.346136 0.000000
1.000000 0.366766 0.000000
1.000000 0.384955 0.009033
1.000000 0.401984 0.109712
1.000000 0.418921 0.153262
1.000000 0.436378 0.191684
1.000000 0.454566 0.229404
1.000000 0.473671 0.267399
0.083070 0.154452 0.137118
0.085603 0.154391 0.137118
0.092256 0.153048 0.137514
0.103151 0.150973 0.138186
0.112673 0.150973 0.135927
0.127260 0.151553 0.130892
0.148867 0.150179 0.124910
0.198672 0.162203 0.119020
0.250523 0.172732 0.110658
0.312230 0.181735 0.101747
0.380652 0.178164 0.101869
0.461677 0.169802 0.099245
0.551598 0.152499 0.094331
0.645716 0.122713 0.082551
0.737240 0.050935 0.051820
0.823117 0.000000 0.007752
0.903410 0.000000 0.000000
0.974334 0.000000 0.000000
1.000000 0.000000 0.000000
1.000000 0.153933 0.000000
1.000000 0.222385 0.000000
1.000000 0.272862 0.000000
1.000000 0.312322 0.000000
1.000000 0.343816 0.000000
1.000000 0.368780 0.000000
1.000000 0.388312 0.000000
1.000000 0.403479 0.000000
1.000000 0.417548 0.002136
1.000000 0.431678 0.115267
1.000000 0.445899 0.162051
1.000000 0.461158 0.203464
1.000000 0.477913 0.243473
0.102541 0.170413 0.143679
0.103426 0.170199 0.143709
0.107790 0.169223 0.144045
0.116213 0.167117 0.144289
0.125154 0.165957 0.143221
0.137209 0.168124 0.139254
0.154086 0.168612 0.134249
0.178622 0.167819 0.127657
0.235172 0.182101 0.120912
0.295476 0.195071 0.110018
0.370642 0.208835 0.094301
0.455451 0.213901 0.072328
0.543481 0.207309 0.051667
0.634943 0.196658 0.021851
0.724636 0.184329 0.000000
0.809293 0.173404 0.000000
0.888884 0.169802 0.000000
0.960296 0.177676 0.000000
1.000000 0.215946 0.000000
1.000000 0.258000 0.000000
1.000000 0.296544 0.000000
1.000000 0.330358 0.000000
1.000000 0.359197 0.000000
1.000000 0.383246 0.000000
1.000000 0.402777 0.000000
1.000000 0.417609 0.000000
1.000000 0.429847 0.000000
1.000000 0.440681 0.000000
1.000000 0.451545 0.012421
1.000000 0.463111 0.126955
1.000000 0.475441 0.177188
1.000000 0.489540 0.221408
0.121675 0.187137 0.150118
0.122805 0.186893 0.150149
0.126009 0.185946 0.150484
0.132784 0.183749 0.150790
0.139956 0.182132 0.150118
0.150484 0.184634 0.146914
0.165255 0.186648 0.142458
0.185122 0.187778 0.136843
0.213230 0.187808 0.130220
0.280369 0.205112 0.120821
0.353246 0.220920 0.106233
0.441688 0.237369 0.077882
0.541314 0.255100 0.000000
0.633356 0.256809 0.000000
0.721126 0.255192 0.000000
0.803952 0.255314 0.000000
0.884123 0.261204 0.000000
0.968902 0.283726 0.000000
1.000000 0.310185 0.000000
1.000000 0.338659 0.000000
1.000000 0.365515 0.000000
1.000000 0.389807 0.000000
1.000000 0.411078 0.000000
1.000000 0.428717 0.000000
1.000000 0.443091 0.000000
1.000000 0.453803 0.000000
1.000000 0.462257 0.000000
1.000000 0.470192 0.000000
1.000000 0.477943 0.000000
1.000000 0.486213 0.055634
1.000000 0.495949 0.147311
1.000000 0.506859 0.198825
0.140169 0.208652 0.160494
0.140993 0.208194 0.160555
0.143801 0.206699 0.160220
0.150393 0.203189 0.159274
0.156710 0.198886 0.157839
0.165927 0.201083 0.154238
0.178927 0.203952 0.150301
0.196658 0.206699 0.145388
0.219760 0.208286 0.139071
0.252842 0.209476 0.131289
0.332616 0.229984 0.118959
0.416480 0.248081 0.098756
0.512902 0.267704 0.029969
0.616022 0.290806 0.000000
0.714778 0.315251 0.000000
0.807279 0.327062 0.000000
0.897520 0.346563 0.000000
0.974273 0.368322 0.000000
1.000000 0.391058 0.000000
1.000000 0.412940 0.000000
1.000000 0.431769 0.000000
1.000000 0.447608 0.000000
1.000000 0.460578 0.000000
1.000000 0.471595 0.000000
1.000000 0.480232 0.000000
1.000000 0.486946 0.000000
1.000000 0.492622 0.000000
1.000000 0.497749 0.000000
1.000000 0.503410 0.000000
1.000000 0.509636 0.000000
1.000000 0.517205 0.093446
1.000000 0.526085 0.167910
0.158694 0.229770 0.170138
0.159457 0.229374 0.170047
0.162448 0.227787 0.169619
0.167666 0.224735 0.168887
0.174929 0.220157 0.167910
0.182773 0.219577 0.163851
0.195621 0.221897 0.157717
0.212161 0.226047 0.153323
0.234348 0.229831 0.147494
0.263066 0.232822 0.140169
0.304173 0.235782 0.130526
0.400122 0.259953 0.113100
0.494545 0.281682 0.074159
0.604150 0.309728 0.000000
0.715450 0.345922 0.000000
0.818387 0.389837 0.000000
0.904814 0.422309 0.000000
0.974578 0.441627 0.000000
1.000000 0.460273 0.000000
1.000000 0.476997 0.000000
1.000000 0.490578 0.000000
1.000000 0.501671 0.000000
1.000000 0.511131 0.000000
1.000000 0.518242 0.000000
1.000000 0.523461 0.000000
1.000000 0.527306 0.000000
1.000000 0.530022 0.000000
1.000000 0.532708 0.000000
1.000000 0.535546 0.000000
1.000000 0.539239 0.000000
1.000000 0.544121 0.000000
1.000000 0.550286 0.131044
0.182101 0.255039 0.180453
0.183139 0.254582 0.180209
0.185336 0.252934 0.179873
0.190280 0.249943 0.179294
0.196963 0.245121 0.178042
0.203861 0.241215 0.175906
0.216526 0.244388 0.169741
0.233371 0.247929 0.162203
0.254826 0.253086 0.155886
0.283055 0.258732 0.148775
0.320378 0.263920 0.139345
0.378332 0.271885 0.126650
0.590906 0.347814 0.017975
0.712123 0.392370 0.000000
0.821317 0.442206 0.000000
0.914885 0.494575 0.000000
0.986999 0.543511 0.000000
1.000000 0.586969 0.000000
1.000000 0.598169 0.000000
1.000000 0.603357 0.000000
1.000000 0.605646 0.000000
1.000000 0.606104 0.000000
1.000000 0.605005 0.000000
1.000000 0.603357 0.000000
1.000000 0.600641 0.000000
1.000000 0.597345 0.000000
1.000000 0.593530 0.000000
1.000000 0.590417 0.000000
1.000000 0.588098 0.000000
1.000000 0.587030 0.000000
1.000000 0.587488 0.000000
1.000000 0.590021 0.135256
0.222812 0.295781 0.194430
0.223117 0.295262 0.194247
0.224674 0.292821 0.193790
0.228428 0.288609 0.192782
0.233402 0.282322 0.191501
0.237766 0.272740 0.189853
0.251774 0.276829 0.184512
0.271794 0.283391 0.177218
0.298283 0.291264 0.167788
0.333867 0.301488 0.157778
0.382879 0.314855 0.146670
0.446021 0.329412 0.129793
0.532219 0.347265 0.099214
0.683558 0.401862 0.000000
0.797116 0.453773 0.000000
0.892119 0.505119 0.000000
0.966125 0.552331 0.000000
1.000000 0.593500 0.000000
1.000000 0.627680 0.000000
1.000000 0.647089 0.000000
1.000000 0.646998 0.000000
1.000000 0.645747 0.000000
1.000000 0.643153 0.000000
1.000000 0.639887 0.000000
1.000000 0.635737 0.000000
1.000000 0.631159 0.000000
1.000000 0.626398 0.000000
1.000000 0.621942 0.000000
1.000000 0.618189 0.000000
1.000000 0.615595 0.000000
1.000000 0.614282 0.000000
1.000000 0.614588 0.003082
0.265080 0.335821 0.206058
0.264958 0.335088 0.205997
0.266545 0.332464 0.205447
0.269322 0.327367 0.204410
0.273594 0.320439 0.203098
0.278782 0.311437 0.201236
0.287358 0.308110 0.197726
0.306706 0.314611 0.190372
0.333135 0.322820 0.180667
0.367285 0.332708 0.168185
0.412696 0.346258 0.154452
0.471351 0.363134 0.137881
0.542596 0.380987 0.110384
0.630640 0.402167 0.009094
0.770993 0.462593 0.000000
0.868254 0.514153 0.000000
0.944121 0.559991 0.000000
1.000000 0.600122 0.000000
1.000000 0.634577 0.000000
1.000000 0.661677 0.000000
1.000000 0.683467 0.000000
1.000000 0.686122 0.000000
1.000000 0.682551 0.000000
1.000000 0.678126 0.000000
1.000000 0.672908 0.000000
1.000000 0.667262 0.000000
1.000000 0.661189 0.000000
1.000000 0.655390 0.000000
1.000000 0.650111 0.000000
1.000000 0.645869 0.000000
1.000000 0.642878 0.000000
1.000000 0.641382 0.000000
0.313664 0.378607 0.216800
0.313909 0.377844 0.216739
0.314183 0.374762 0.216281
0.315709 0.368872 0.215061
0.317937 0.360266 0.213382
0.321050 0.349828 0.211429
0.323644 0.338231 0.209262
0.342870 0.344915 0.202396
0.368231 0.353521 0.193118
0.402075 0.364630 0.180606
0.444617 0.377783 0.163851
0.498939 0.395422 0.145113
0.563409 0.415534 0.119173
0.634974 0.435889 0.047089
0.718196 0.459724 0.000000
0.843412 0.521080 0.000000
0.923888 0.568872 0.000000
0.983948 0.608942 0.000000
1.000000 0.643183 0.000000
1.000000 0.670619 0.000000
1.000000 0.692592 0.000000
1.000000 0.710536 0.000000
1.000000 0.720851 0.000000
1.000000 0.715389 0.000000
1.000000 0.709133 0.000000
1.000000 0.702510 0.000000
1.000000 0.695644 0.000000
1.000000 0.689082 0.000000
1.000000 0.683070 0.000000
1.000000 0.678004 0.000000
1.000000 0.674098 0.000000
1.000000 0.671534 0.000000
0.360479 0.417945 0.225895
0.360998 0.417548 0.225772
0.361913 0.414984 0.225254
0.363622 0.409918 0.224430
0.366247 0.402045 0.223087
0.369604 0.391760 0.221408
0.373999 0.380224 0.219425
0.387671 0.380774 0.214664
0.414557 0.391241 0.206027
0.448127 0.403510 0.193698
0.488472 0.417365 0.177188
0.535515 0.432258 0.153445
0.590112 0.450996 0.127382
0.649836 0.470375 0.079927
0.712581 0.488411 0.000000
0.785519 0.510185 0.000000
0.896056 0.569757 0.000000
0.962371 0.612879 0.000000
1.000000 0.648371 0.000000
1.000000 0.677455 0.000000
1.000000 0.701045 0.000000
1.000000 0.720089 0.000000
1.000000 0.735012 0.000000
1.000000 0.746822 0.000000
1.000000 0.745052 0.000000
1.000000 0.737942 0.000000
1.000000 0.730587 0.000000
1.000000 0.723201 0.000000
1.000000 0.716091 0.000000
1.000000 0.709651 0.000000
1.000000 0.703944 0.000000
1.000000 0.699428 0.000000
0.407599 0.456733 0.234165
0.407874 0.455818 0.233890
0.408515 0.453712 0.233585
0.410224 0.448890 0.232700
0.412757 0.441505 0.231449
0.415869 0.431861 0.229923
0.419776 0.420020 0.228031
0.425879 0.411139 0.225284
0.451209 0.421729 0.216861
0.482795 0.434211 0.205386
0.520439 0.448585 0.189975
0.564080 0.464332 0.168429
0.612085 0.481117 0.136873
0.665339 0.501274 0.099367
0.721614 0.521141 0.000000
0.779995 0.539330 0.000000
0.846738 0.561700 0.000000
0.942077 0.618280 0.000000
0.996338 0.656977 0.000000
1.000000 0.686824 0.000000
1.000000 0.711177 0.000000
1.000000 0.730617 0.000000
1.000000 0.745937 0.000000
1.000000 0.757900 0.000000
1.000000 0.767056 0.000000
1.000000 0.771054 0.000000
1.000000 0.763302 0.000000
1.000000 0.755367 0.000000
1.000000 0.747707 0.000000
1.000000 0.740383 0.000000
1.000000 0.733639 0.000000
1.000000 0.727840 0.000000
0.463142 0.501823 0.243961
0.463966 0.502159 0.244114
0.521508 0.546899 0.256260
0.522850 0.542046 0.255314
0.524498 0.534020 0.253452
0.526574 0.522850 0.251255
0.528832 0.509300 0.248722
0.527855 0.490608 0.246555
0.550225 0.498909 0.238315
0.581567 0.513390 0.225650
0.617548 0.529717 0.208713
0.657618 0.547265 0.184726
0.700038 0.564508 0.149142
0.744717 0.582208 0.090089
0.791440 0.601465 0.000000
0.838682 0.618738 0.000000
0.885008 0.632990 0.000000
0.935668 0.649958 0.000000
1.000000 0.693935 0.000000
1.000000 0.720455 0.000000
1.000000 0.739803 0.000000
1.000000 0.755703 0.000000
1.000000 0.768093 0.000000
1.000000 0.777401 0.000000
1.000000 0.784146 0.000000
1.000000 0.789029 0.000000
1.000000 0.792569 0.000000
1.000000 0.786435 0.000000
1.000000 0.777646 0.000000
1.000000 0.769406 0.000000
1.000000 0.761746 0.000000
1.000000 0.754849 0.000000
0.536034 0.563378 0.259617
0.541405 0.567407 0.260899
0.547753 0.570245 0.261814
0.554101 0.570184 0.262333
0.559655 0.566217 0.261509
0.563287 0.557488 0.259678
0.565881 0.544884 0.257145
0.567590 0.529137 0.253666
0.576043 0.522942 0.249027
0.603388 0.536217 0.237675
0.635645 0.551629 0.222660
0.671290 0.568444 0.202335
0.709651 0.585260 0.172427
0.750149 0.602045 0.126101
0.792264 0.620294 0.009491
0.835233 0.638422 0.000000
0.878294 0.654810 0.000000
0.920348 0.668605 0.000000
0.966003 0.685267 0.000000
1.000000 0.724849 0.000000
1.000000 0.747738 0.000000
1.000000 0.764797 0.000000
1.000000 0.777768 0.000000
1.000000 0.787411 0.000000
1.000000 0.794247 0.000000
1.000000 0.799161 0.000000
1.000000 0.802670 0.000000
1.000000 0.805203 0.000000
1.000000 0.803677 0.000000
1.000000 0.795071 0.000000
1.000000 0.786923 0.000000
1.000000 0.779355 0.000000
0.578973 0.601465 0.269688
0.584558 0.605982 0.271397
0.591180 0.609186 0.272618
0.597589 0.610254 0.273320
0.603388 0.607080 0.272862
0.607263 0.599542 0.270756
0.610010 0.587915 0.267887
0.611994 0.573022 0.264530
0.611139 0.554925 0.261906
0.635401 0.567376 0.251164
0.663996 0.581964 0.237675
0.696162 0.598108 0.219181
0.730800 0.614588 0.194156
0.767819 0.631556 0.156802
0.805783 0.648188 0.095369
0.844236 0.666224 0.000000
0.882689 0.682673 0.000000
0.920165 0.697017 0.000000
0.956573 0.709102 0.000000
0.995544 0.723476 0.000000
1.000000 0.755459 0.000000
1.000000 0.773922 0.000000
1.000000 0.787655 0.000000
1.000000 0.797635 0.000000
1.000000 0.804623 0.000000
1.000000 0.809598 0.000000
1.000000 0.813046 0.000000
1.000000 0.815457 0.000000
1.000000 0.817197 0.000000
1.000000 0.818326 0.000000
1.000000 0.810666 0.000000
1.000000 0.802609 0.000000
0.625483 0.644556 0.282841
0.630701 0.648829 0.284398
0.636591 0.651881 0.285863
0.642481 0.652674 0.286290
0.647822 0.650172 0.285924
0.651484 0.643091 0.283970
0.654444 0.632593 0.280919
0.656764 0.619135 0.276951
0.659022 0.603296 0.272801
0.670558 0.601953 0.266239
0.696376 0.615808 0.253910
0.725185 0.631250 0.237613
0.756680 0.647456 0.215122
0.789761 0.663874 0.184817
0.824155 0.679927 0.137881
0.858915 0.697078 0.065187
0.893950 0.714473 0.000000
0.928771 0.730648 0.000000
0.962493 0.745113 0.000000
0.994659 0.756893 0.000000
1.000000 0.769162 0.000000
1.000000 0.793545 0.000000
1.000000 0.807279 0.000000
1.000000 0.817227 0.000000
1.000000 0.824033 0.000000
1.000000 0.828428 0.000000
1.000000 0.831235 0.000000
1.000000 0.833005 0.000000
1.000000 0.834012 0.000000
1.000000 0.834379 0.000000
1.000000 0.834134 0.000000
1.000000 0.829343 0.000000
0.705867 0.721675 0.315099
0.708125 0.723262 0.315770
0.710292 0.723384 0.316014
0.712459 0.721065 0.315129
0.714656 0.716121 0.313115
0.716335 0.708248 0.309575
0.718196 0.697627 0.305394
0.720638 0.685023 0.300420
0.723293 0.670161 0.295171
0.726619 0.657069 0.290684
0.749844 0.670771 0.279576
0.775814 0.685695 0.265080
0.803159 0.700801 0.246067
0.831815 0.715724 0.220859
0.861021 0.729946 0.185397
0.889830 0.744167 0.146090
0.918120 0.758328 0.102876
0.945983 0.771359 0.000000
0.973053 0.782559 0.000000
0.999115 0.791257 0.000000
1.000000 0.796933 0.000000
1.000000 0.803037 0.000000
1.000000 0.818601 0.000000
1.000000 0.827207 0.000000
1.000000 0.833829 0.000000
1.000000 0.838437 0.000000
1.000000 0.841520 0.000000
1.000000 0.843442 0.000000
1.000000 0.844480 0.000000
1.000000 0.844816 0.000000
1.000000 0.844511 0.000000
1.000000 0.843565 0.000000
0.752621 0.767941 0.340093
0.754360 0.768978 0.340764
0.756497 0.769009 0.341283
0.758724 0.767391 0.340429
0.760983 0.763455 0.338231
0.763210 0.757015 0.334417
0.765774 0.748379 0.329900
0.768917 0.737636 0.324407
0.772488 0.725124 0.318456
0.773983 0.708461 0.313420
0.790036 0.714717 0.305119
0.812558 0.728023 0.292790
0.836393 0.741604 0.276951
0.861265 0.755215 0.257267
0.886442 0.768124 0.231113
0.911345 0.780514 0.202457
0.935515 0.793210 0.182925
0.959228 0.804410 0.158145
0.982208 0.813779 0.124086
1.000000 0.821134 0.039582
1.000000 0.826322 0.000000
1.000000 0.828885 0.000000
1.000000 0.831540 0.000000
1.000000 0.841520 0.000000
1.000000 0.841703 0.000000
1.000000 0.846372 0.000000
1.000000 0.849912 0.000000
1.000000 0.852201 0.000000
1.000000 0.853513 0.000000
1.000000 0.854124 0.000000
1.000000 0.854063 0.000000
1.000000 0.853361 0.000000
0.814237 0.827024 0.389441
0.816892 0.829068 0.392065
0.818692 0.829191 0.392340
0.819577 0.826780 0.390112
0.820127 0.822202 0.385565
0.820584 0.815488 0.379400
0.821103 0.806607 0.371496
0.822171 0.795895 0.363012
0.824033 0.783261 0.353735
0.826413 0.769314 0.344762
0.830014 0.759426 0.336492
0.846921 0.768582 0.324743
0.865232 0.778195 0.310430
0.884306 0.787472 0.292729
0.903868 0.796323 0.270359
0.923491 0.805051 0.248478
0.943053 0.814237 0.234562
0.962921 0.822995 0.219577
0.983093 0.831144 0.202945
1.000000 0.838346 0.184787
1.000000 0.843870 0.161654
1.000000 0.847074 0.127749
1.000000 0.847593 0.023896
1.000000 0.847868 0.000000
1.000000 0.853941 0.000000
1.000000 0.856870 0.000000
1.000000 0.859525 0.000000
1.000000 0.861540 0.000000
1.000000 0.862760 0.000000
1.000000 0.863340 0.000000
1.000000 0.863401 0.000000
1.000000 0.862852 0.000000
0.846036 0.856199 0.421790
0.848325 0.857877 0.424445
0.850187 0.858335 0.425513
0.851865 0.857176 0.424353
0.853635 0.854520 0.421210
0.855680 0.850614 0.416632
0.858579 0.845518 0.410895
0.862242 0.839109 0.404211
0.866667 0.831601 0.396918
0.871763 0.822873 0.389075
0.873289 0.808682 0.381476
0.887602 0.816434 0.373205
0.902617 0.824094 0.362646
0.918151 0.831113 0.348516
0.933684 0.837308 0.330999
0.948852 0.843198 0.317266
0.963775 0.849119 0.308659
0.979278 0.854887 0.300023
0.995331 0.860441 0.291325
1.000000 0.865476 0.282780
1.000000 0.869444 0.273045
1.000000 0.871855 0.260410
1.000000 0.872404 0.243503
1.000000 0.870848 0.219608
1.000000 0.869108 0.198184
1.000000 0.871977 0.219211
1.000000 0.873136 0.210452
1.000000 0.874327 0.201816
1.000000 0.875425 0.202213
1.000000 0.875853 0.205661
1.000000 0.875700 0.211276
1.000000 0.874998 0.217990
0.884794 0.890806 0.478828
0.885771 0.891447 0.480171
0.886809 0.891295 0.480293
0.888090 0.890257 0.478645
0.889677 0.888334 0.475288
0.891814 0.885405 0.470497
0.894652 0.881590 0.464607
0.898283 0.876921 0.457527
0.902739 0.871397 0.449744
0.907988 0.865080 0.441505
0.913420 0.857237 0.432349
0.919463 0.854063 0.425605
0.931273 0.859373 0.416938
0.943450 0.864073 0.405829
0.955749 0.868132 0.391241
0.967010 0.872190 0.385779
0.978759 0.876127 0.379736
0.991180 0.880064 0.373999
1.000000 0.883879 0.368719
1.000000 0.887449 0.363928
1.000000 0.890318 0.358679
1.000000 0.891966 0.351568
1.000000 0.892241 0.341283
1.000000 0.890867 0.326909
1.000000 0.887724 0.306859
1.000000 0.884398 0.290379
1.000000 0.885100 0.306462
1.000000 0.884855 0.301061
1.000000 0.885039 0.296696
1.000000 0.885649 0.302342
1.000000 0.885679 0.309514
1.000000 0.885222 0.317693
0.912200 0.915099 0.534020
0.912902 0.915526 0.535302
0.913878 0.915587 0.535821
0.915373 0.915068 0.535119
0.917540 0.914153 0.533501
0.920745 0.913085 0.531945
0.925414 0.912169 0.531548
0.931273 0.911101 0.531151
0.938323 0.910033 0.531365
0.946288 0.908721 0.531518
0.955047 0.907103 0.531243
0.961273 0.903624 0.531395
0.971191 0.908446 0.531487
0.980865 0.912352 0.528252
0.989654 0.915465 0.526329
0.997559 0.917693 0.524651
1.000000 0.919432 0.521630
1.000000 0.921019 0.518273
1.000000 0.922515 0.515526
1.000000 0.923766 0.513115
1.000000 0.924529 0.510155
1.000000 0.924559 0.505669
1.000000 0.923522 0.498268
1.000000 0.921416 0.487709
1.000000 0.918029 0.473091
1.000000 0.913237 0.453956
1.000000 0.908293 0.438697
1.000000 0.906371 0.449256
1.000000 0.904387 0.444587
1.000000 0.903044 0.440497
1.000000 0.902525 0.446845
1.000000 0.899382 0.454414
0.947601 0.947997 0.651148
0.947692 0.947997 0.651057
0.948180 0.947662 0.649989
0.949035 0.947112 0.648188
0.950469 0.946227 0.645563
0.952667 0.945068 0.642023
0.955718 0.943694 0.638422
0.959594 0.942107 0.634333
0.964263 0.940368 0.630488
0.969940 0.938354 0.626246
0.976226 0.936065 0.621729
0.981964 0.932555 0.616999
0.987274 0.932097 0.612970
0.993256 0.933837 0.611261
