20 Preset/Street 2/【3】LUT video cho PR-AE-FCPX/Tone 1 (11).cube
# Created by Adobe Lightroom plugin Export LUT (1.24.0)
# www.johnrellis.com/lightroom/exportlut.htm
# Preset: 青橙风光-素材江湖11
# Color profile: C:\Program Files (x86)\Common Files\Adobe\Color\Profiles\Recommended\VideoHD.icc
LUT_3D_SIZE 32
DOMAIN_MIN 0.0 0.0 0.0
DOMAIN_MAX 1.0 1.0 1.0
0.198123 0.157137 0.155978
0.198123 0.157137 0.155978
0.198123 0.157137 0.155978
0.198123 0.157137 0.155978
0.204227 0.156527 0.156313
0.217960 0.155337 0.157046
0.233402 0.153933 0.157717
0.250614 0.151827 0.158541
0.270420 0.149081 0.159274
0.293492 0.144717 0.159945
0.320226 0.138491 0.160708
0.351171 0.131014 0.160739
0.385748 0.120943 0.160525
0.422889 0.107301 0.160189
0.461372 0.088991 0.159457
0.500633 0.037201 0.158389
0.540459 0.000000 0.156863
0.581140 0.000000 0.154879
0.622400 0.000000 0.152590
0.664759 0.000000 0.149813
0.707118 0.000000 0.146181
0.765469 0.000000 0.140658
0.820920 0.000000 0.134188
0.869261 0.000000 0.128267
0.912016 0.000000 0.122286
0.950011 0.000000 0.117067
0.985077 0.000000 0.112398
1.000000 0.000000 0.108858
1.000000 0.000000 0.106783
1.000000 0.000000 0.107118
1.000000 0.000000 0.110842
1.000000 0.000000 0.119173
0.198123 0.157137 0.155978
0.198123 0.157137 0.155978
0.198123 0.157137 0.155978
0.198123 0.157137 0.155978
0.203983 0.156588 0.156313
0.217746 0.155367 0.156863
0.232242 0.154177 0.157504
0.248844 0.152255 0.158358
0.267979 0.149294 0.159152
0.290196 0.145480 0.160006
0.315953 0.139559 0.160616
0.345892 0.132601 0.160708
0.379431 0.123323 0.160525
0.415717 0.110994 0.160220
0.453620 0.094392 0.159396
0.492897 0.053498 0.158358
0.532494 0.000000 0.157137
0.572900 0.000000 0.155245
0.613916 0.000000 0.153079
0.655756 0.000000 0.150027
0.697658 0.000000 0.146792
0.753658 0.000000 0.141604
0.806546 0.000000 0.135927
0.853056 0.000000 0.130190
0.894804 0.000000 0.124605
0.932830 0.000000 0.119020
0.968505 0.000000 0.114382
1.000000 0.000000 0.110292
1.000000 0.000000 0.107729
1.000000 0.000000 0.107027
1.000000 0.000000 0.109255
1.000000 0.000000 0.116091
0.198123 0.157137 0.155978
0.198123 0.157137 0.155978
0.198123 0.157137 0.155978
0.198123 0.157137 0.155978
0.205570 0.156527 0.156252
0.218509 0.155428 0.157015
0.232853 0.154055 0.157504
0.248661 0.152285 0.158358
0.267308 0.149447 0.159152
0.288731 0.145907 0.160037
0.313970 0.141176 0.160159
0.343511 0.134829 0.160403
0.376257 0.126406 0.160250
0.411841 0.115236 0.159792
0.449256 0.100496 0.158968
0.487739 0.074434 0.157992
0.527214 0.016358 0.156558
0.567437 0.000000 0.154940
0.608423 0.000000 0.152529
0.650294 0.000000 0.149752
0.692287 0.000000 0.146548
0.748379 0.000000 0.141360
0.799802 0.000000 0.135775
0.845243 0.000000 0.130068
0.886107 0.000000 0.124849
0.923919 0.000000 0.119539
0.959625 0.000000 0.114351
0.994293 0.000000 0.109987
1.000000 0.000000 0.107118
1.000000 0.000000 0.105623
1.000000 0.000000 0.107332
1.000000 0.000000 0.113436
0.198123 0.157137 0.155978
0.198123 0.157137 0.155978
0.198123 0.157137 0.155978
0.199374 0.156954 0.155978
0.209201 0.156100 0.156405
0.221164 0.155337 0.156954
0.234775 0.154269 0.157626
0.250217 0.152743 0.158053
0.268803 0.150332 0.158602
0.289982 0.147494 0.158999
0.314763 0.143587 0.159457
0.343023 0.138155 0.159518
0.375067 0.130617 0.159335
0.409491 0.121462 0.158633
0.445655 0.109163 0.158022
0.483192 0.092897 0.157076
0.521294 0.052857 0.155734
0.560266 0.000000 0.153933
0.600153 0.000000 0.151644
0.640864 0.000000 0.149020
0.682002 0.000000 0.146029
0.736873 0.000000 0.140993
0.786130 0.000000 0.135714
0.831235 0.000000 0.129976
0.873472 0.000000 0.124453
0.913603 0.000000 0.118898
0.952087 0.000000 0.113436
0.988891 0.000000 0.108370
1.000000 0.000000 0.105043
1.000000 0.000000 0.103456
1.000000 0.000000 0.104677
1.000000 0.000000 0.109957
0.197360 0.162173 0.156283
0.197055 0.162417 0.156069
0.197177 0.162570 0.156252
0.202335 0.162570 0.155703
0.213169 0.159701 0.155398
0.225284 0.158511 0.155581
0.237949 0.157229 0.156130
0.252659 0.155642 0.156802
0.270146 0.153719 0.157137
0.290593 0.151125 0.157565
0.314153 0.147738 0.157992
0.341650 0.143496 0.158206
0.372442 0.137514 0.157992
0.406287 0.130007 0.157443
0.442084 0.120027 0.156588
0.479286 0.107851 0.155550
0.517815 0.090700 0.154147
0.557061 0.046174 0.152255
0.597009 0.000000 0.150057
0.637690 0.000000 0.147372
0.682124 0.000000 0.143557
0.734249 0.000000 0.138766
0.781704 0.000000 0.133333
0.826352 0.000000 0.127840
0.868498 0.000000 0.121828
0.909178 0.000000 0.116030
0.947936 0.000000 0.110018
0.984924 0.000000 0.104891
1.000000 0.000000 0.101167
1.000000 0.000000 0.098939
1.000000 0.000000 0.099794
1.000000 0.000000 0.104982
0.197116 0.170291 0.156283
0.197604 0.170230 0.156283
0.199161 0.170352 0.156222
0.203525 0.170443 0.155673
0.216678 0.169711 0.154421
0.228336 0.164340 0.154635
0.243351 0.162631 0.154360
0.258488 0.160586 0.154696
0.275456 0.158724 0.155245
0.295598 0.156619 0.155612
0.318791 0.153750 0.156008
0.345830 0.150118 0.155947
0.376257 0.145571 0.155795
0.409613 0.139193 0.155184
0.444953 0.131777 0.154177
0.482185 0.121798 0.153017
0.520439 0.109804 0.151400
0.559777 0.093690 0.149538
0.599786 0.054231 0.147158
0.640284 0.000000 0.144228
0.689143 0.000000 0.139895
0.739590 0.000000 0.134585
0.866880 0.000000 0.114534
0.913329 0.000000 0.106264
0.953918 0.000000 0.098665
0.990021 0.000000 0.091951
1.000000 0.000000 0.087221
1.000000 0.000000 0.083497
1.000000 0.000000 0.083314
1.000000 0.000000 0.088960
1.000000 0.000000 0.097383
1.000000 0.000000 0.109712
0.200534 0.181765 0.156313
0.200931 0.181857 0.156283
0.202579 0.181827 0.156069
0.208530 0.181979 0.155459
0.220645 0.181888 0.153902
0.234958 0.177584 0.152712
0.251896 0.172030 0.152804
0.271733 0.170596 0.152407
0.292332 0.168124 0.151644
0.314458 0.165957 0.152071
0.340093 0.163302 0.152041
0.369268 0.160159 0.151888
0.401038 0.156405 0.151369
0.434943 0.151369 0.150790
0.470130 0.145357 0.149630
0.506157 0.137697 0.148165
0.543633 0.128573 0.146181
0.582208 0.117311 0.143923
0.622034 0.102876 0.141024
0.667689 0.079316 0.136843
0.726925 0.010864 0.129915
0.783993 0.000000 0.121798
0.838010 0.000000 0.112551
0.889036 0.000000 0.102876
0.935210 0.000000 0.093477
0.974762 0.000000 0.082521
1.000000 0.000000 0.070069
1.000000 0.000000 0.062165
1.000000 0.000000 0.060700
1.000000 0.000000 0.065187
1.000000 0.000000 0.081270
1.000000 0.000000 0.095308
0.203830 0.191745 0.155886
0.204288 0.191684 0.155886
0.206332 0.191714 0.155398
0.212619 0.191836 0.154818
0.223026 0.192081 0.153628
0.239261 0.191958 0.151644
0.252201 0.183932 0.150973
0.272557 0.179629 0.151095
0.295781 0.179019 0.150088
0.319280 0.177279 0.149355
0.346624 0.175113 0.148074
0.374762 0.172854 0.147829
0.405158 0.170138 0.147250
0.437537 0.166690 0.146578
0.471412 0.162570 0.145510
0.506310 0.157259 0.143709
0.542535 0.151247 0.141604
0.580285 0.143862 0.139162
0.619348 0.135042 0.136294
0.672419 0.124941 0.130404
0.726131 0.111635 0.123262
0.779049 0.093629 0.114778
0.830167 0.045441 0.104982
0.879149 0.000000 0.094453
0.924407 0.000000 0.079500
0.963806 0.000000 0.058289
0.998688 0.000000 0.042206
1.000000 0.000000 0.031495
1.000000 0.000000 0.027985
1.000000 0.000000 0.031159
1.000000 0.000000 0.045380
1.000000 0.000000 0.070893
0.209079 0.203250 0.154726
0.209934 0.203281 0.154696
0.212680 0.203372 0.154391
0.218662 0.203616 0.153567
0.228275 0.203891 0.152346
0.242771 0.204074 0.150759
0.261662 0.204227 0.148501
0.273472 0.192386 0.148898
0.297429 0.189273 0.148348
0.324285 0.189853 0.146731
0.351324 0.189029 0.145205
0.381689 0.187900 0.143465
0.413306 0.186069 0.141695
0.444739 0.183871 0.140810
0.477516 0.181125 0.139345
0.511406 0.177462 0.137758
0.546685 0.173495 0.135622
0.583490 0.168582 0.132906
0.631128 0.164492 0.127718
0.679957 0.159182 0.121492
0.729763 0.153079 0.113436
0.779263 0.145083 0.104250
0.827756 0.134737 0.092805
0.874601 0.120333 0.074830
0.918669 0.099275 0.045106
0.957519 0.038972 0.021729
0.992340 0.000000 0.005402
1.000000 0.000000 0.000000
1.000000 0.000000 0.000000
1.000000 0.000000 0.000000
1.000000 0.000000 0.001160
1.000000 0.000000 0.023774
0.217044 0.217105 0.152773
0.217716 0.217044 0.152773
0.220340 0.217105 0.152255
0.226078 0.217197 0.151644
0.235080 0.217472 0.150637
0.248112 0.217777 0.149020
0.265293 0.218082 0.146944
0.283513 0.215274 0.145022
0.298436 0.202945 0.145724
0.324956 0.200778 0.144686
0.354833 0.202579 0.142580
0.384009 0.202640 0.140383
0.415778 0.202396 0.137942
0.449592 0.201480 0.134829
0.483436 0.200015 0.132387
0.517388 0.198154 0.130282
0.554925 0.196292 0.127413
0.599542 0.195682 0.122042
0.644923 0.193973 0.115846
0.690700 0.191714 0.108522
0.736660 0.188296 0.099458
0.781216 0.183627 0.088991
0.824552 0.177432 0.066926
0.866789 0.169192 0.037873
0.907195 0.157931 0.010742
0.944488 0.142733 0.000000
0.979217 0.122591 0.000000
1.000000 0.093568 0.000000
1.000000 0.001953 0.000000
1.000000 0.000000 0.000000
1.000000 0.000000 0.000000
1.000000 0.000000 0.000000
0.225528 0.231571 0.150118
0.225895 0.231632 0.150088
0.228702 0.231785 0.149752
0.234226 0.232090 0.149050
0.242985 0.232547 0.148196
0.255283 0.233158 0.146426
0.271885 0.234012 0.144381
0.292485 0.234928 0.141512
0.309117 0.228641 0.140475
0.328344 0.216312 0.141329
0.358160 0.215518 0.139498
0.390631 0.218601 0.136141
0.421607 0.219516 0.133059
0.454749 0.220096 0.129671
0.489693 0.220340 0.125338
0.532006 0.222110 0.118929
0.572473 0.222873 0.114107
0.613611 0.223148 0.107851
0.655512 0.222812 0.100526
0.698085 0.221988 0.091615
0.741024 0.220096 0.075410
0.782803 0.217411 0.046174
0.824277 0.213474 0.017670
0.864866 0.207797 0.000000
0.904204 0.199893 0.000000
0.940826 0.189609 0.000000
0.975311 0.177127 0.000000
1.000000 0.161410 0.000000
1.000000 0.141054 0.000000
1.000000 0.113924 0.000000
1.000000 0.057618 0.000000
1.000000 0.000000 0.000000
0.235813 0.249973 0.146090
0.236851 0.250095 0.145998
0.239170 0.250156 0.145693
0.244694 0.250675 0.145083
0.253330 0.251347 0.143862
0.265415 0.252171 0.142428
0.281529 0.253361 0.140108
0.301427 0.254734 0.137423
0.325658 0.256565 0.133089
0.340734 0.246006 0.133303
0.364630 0.233524 0.134371
0.396918 0.234379 0.131594
0.464637 0.254612 0.117311
0.508202 0.260838 0.108339
0.552758 0.266209 0.097292
0.598169 0.270787 0.080323
0.643671 0.274418 0.041627
0.689082 0.276738 0.001404
0.731319 0.277379 0.000000
0.772152 0.276493 0.000000
0.811734 0.274540 0.000000
0.849943 0.271031 0.000000
0.887022 0.266178 0.000000
0.922698 0.259831 0.000000
0.955993 0.251743 0.000000
0.986877 0.241703 0.000000
1.000000 0.229740 0.000000
1.000000 0.215915 0.000000
1.000000 0.200473 0.000000
1.000000 0.182376 0.000000
1.000000 0.161776 0.000000
1.000000 0.136904 0.000000
0.253208 0.280613 0.137819
0.253758 0.280583 0.137819
0.256504 0.280400 0.137545
0.262181 0.280339 0.136812
0.270603 0.280522 0.135622
0.282750 0.280827 0.134096
0.298924 0.281621 0.131380
0.318517 0.283085 0.128206
0.342443 0.285222 0.123629
0.368048 0.285313 0.118807
0.389441 0.275425 0.118257
0.426368 0.266880 0.117311
0.470649 0.273747 0.108522
0.517601 0.284001 0.094759
0.561791 0.291325 0.070771
0.604700 0.296422 0.033234
0.646845 0.300298 0.000000
0.688594 0.302739 0.000000
0.730190 0.304234 0.000000
0.768551 0.303746 0.000000
0.804959 0.301610 0.000000
0.840970 0.298924 0.000000
0.876616 0.294652 0.000000
0.911528 0.289433 0.000000
0.944732 0.282628 0.000000
0.975952 0.274388 0.000000
1.000000 0.264591 0.000000
1.000000 0.253269 0.000000
1.000000 0.240482 0.000000
1.000000 0.226230 0.000000
1.000000 0.210391 0.000000
1.000000 0.192691 0.000000
0.265690 0.302800 0.130220
0.266361 0.302739 0.129976
0.268986 0.302708 0.129580
0.274571 0.302953 0.128664
0.283177 0.303746 0.127260
0.295476 0.304784 0.125216
0.312016 0.306859 0.121706
0.332189 0.309545 0.117311
0.357336 0.313420 0.110994
0.387121 0.318547 0.102113
0.413825 0.317388 0.095857
0.437629 0.305394 0.096284
0.479133 0.296757 0.094118
0.522972 0.304540 0.071260
0.567773 0.314244 0.024079
0.609430 0.320470 0.000000
0.648920 0.324468 0.000000
0.688045 0.327245 0.000000
0.727230 0.329137 0.000000
0.764981 0.329503 0.000000
0.802426 0.328557 0.000000
0.837369 0.326116 0.000000
0.872038 0.322881 0.000000
0.906371 0.318486 0.000000
0.939269 0.312779 0.000000
0.970581 0.305730 0.000000
1.000000 0.297032 0.000000
1.000000 0.287053 0.000000
1.000000 0.276005 0.000000
1.000000 0.263767 0.000000
1.000000 0.250370 0.000000
1.000000 0.235538 0.000000
0.285191 0.337499 0.113619
0.285801 0.337438 0.113619
0.288151 0.337102 0.113649
0.293645 0.336736 0.112551
0.301793 0.336645 0.111330
0.313573 0.336828 0.108980
0.328862 0.338048 0.105409
0.348516 0.340093 0.100130
0.372198 0.343420 0.091737
0.400610 0.348363 0.072908
0.433783 0.354772 0.033845
0.458961 0.348882 0.024628
0.483955 0.334691 0.032074
0.528923 0.326452 0.024353
0.571038 0.334630 0.000000
0.612970 0.342962 0.000000
0.652491 0.348302 0.000000
0.689723 0.351568 0.000000
0.726955 0.353643 0.000000
0.763149 0.354253 0.000000
0.798978 0.354070 0.000000
0.835294 0.352880 0.000000
0.870329 0.350317 0.000000
0.903563 0.346624 0.000000
0.935821 0.341405 0.000000
0.966918 0.334966 0.000000
0.997070 0.327428 0.000000
1.000000 0.318853 0.000000
1.000000 0.309087 0.000000
1.000000 0.298436 0.000000
1.000000 0.286809 0.000000
1.000000 0.274266 0.000000
0.302007 0.368902 0.092470
0.302739 0.368963 0.091920
0.305547 0.369024 0.091157
0.311009 0.368963 0.089784
0.319432 0.369329 0.087404
0.331273 0.370092 0.081666
0.347051 0.371893 0.068238
0.366766 0.374640 0.048402
0.390478 0.378454 0.022370
0.418128 0.383307 0.000000
0.449500 0.389197 0.000000
0.483131 0.394232 0.000000
0.504723 0.381933 0.000000
0.528893 0.363806 0.000000
0.573236 0.353765 0.000000
0.611353 0.361120 0.000000
0.650599 0.367895 0.000000
0.688411 0.372778 0.000000
0.724392 0.375525 0.000000
0.760037 0.377050 0.000000
0.795865 0.377905 0.000000
0.831998 0.377874 0.000000
0.868132 0.376898 0.000000
0.903868 0.374517 0.000000
0.936492 0.370153 0.000000
0.967987 0.364477 0.000000
0.998444 0.357763 0.000000
1.000000 0.349859 0.000000
1.000000 0.340948 0.000000
1.000000 0.331151 0.000000
1.000000 0.320226 0.000000
1.000000 0.308293 0.000000
0.317144 0.398840 0.031922
0.318059 0.398779 0.030732
0.320409 0.398840 0.029816
0.325902 0.399084 0.025177
0.334478 0.399390 0.018158
0.346258 0.400397 0.006836
0.361334 0.402136 0.000000
0.380499 0.404608 0.000000
0.402808 0.408118 0.000000
0.429114 0.412543 0.000000
0.458747 0.417945 0.000000
0.491951 0.424231 0.000000
0.522087 0.424292 0.000000
0.544152 0.409949 0.000000
0.570611 0.391302 0.000000
0.614069 0.380774 0.000000
0.650904 0.387793 0.000000
0.689204 0.394263 0.000000
0.726101 0.398657 0.000000
0.760494 0.400610 0.000000
0.795651 0.402014 0.000000
0.831266 0.402686 0.000000
0.867033 0.402411 0.000000
0.902373 0.400946 0.000000
0.936828 0.397894 0.000000
0.969543 0.393225 0.000000
1.000000 0.386999 0.000000
1.000000 0.379797 0.000000
1.000000 0.371618 0.000000
1.000000 0.362310 0.000000
1.000000 0.352056 0.000000
1.000000 0.340917 0.000000
0.333928 0.432715 0.000000
0.334508 0.433082 0.000000
0.353094 0.465888 0.000000
0.358953 0.466163 0.000000
0.368139 0.466529 0.000000
0.380804 0.467292 0.000000
0.396765 0.468574 0.000000
0.416876 0.470649 0.000000
0.440253 0.473884 0.000000
0.467597 0.478126 0.000000
0.498054 0.483314 0.000000
0.531456 0.489204 0.000000
0.567315 0.495003 0.000000
0.593469 0.486610 0.000000
0.615229 0.467018 0.000000
0.643458 0.445197 0.000000
0.685481 0.431434 0.000000
0.719142 0.435248 0.000000
0.752804 0.437934 0.000000
0.786160 0.439338 0.000000
0.818021 0.438880 0.000000
0.851164 0.438422 0.000000
0.884550 0.437018 0.000000
0.917113 0.434333 0.000000
0.948211 0.429999 0.000000
0.978332 0.424567 0.000000
1.000000 0.417700 0.000000
1.000000 0.409827 0.000000
1.000000 0.401556 0.000000
1.000000 0.392309 0.000000
1.000000 0.382483 0.000000
1.000000 0.371649 0.000000
0.354467 0.477394 0.000000
0.356481 0.480598 0.000000
0.360754 0.484199 0.000000
0.367834 0.487526 0.000000
0.377417 0.490303 0.000000
0.389929 0.491951 0.000000
0.405280 0.493416 0.000000
0.423835 0.495064 0.000000
0.445960 0.497566 0.000000
0.471351 0.501030 0.000000
0.499672 0.505608 0.000000
0.530938 0.510826 0.000000
0.564538 0.516014 0.000000
0.600519 0.521324 0.000000
0.621820 0.506615 0.000000
0.643671 0.485756 0.000000
0.674434 0.465034 0.000000
0.715297 0.452277 0.000000
0.748989 0.456214 0.000000
0.782895 0.459174 0.000000
0.816648 0.460853 0.000000
0.850034 0.461189 0.000000
0.883024 0.460487 0.000000
0.915221 0.458412 0.000000
0.946044 0.454749 0.000000
0.976043 0.449653 0.000000
1.000000 0.443641 0.000000
1.000000 0.436500 0.000000
1.000000 0.428504 0.000000
1.000000 0.419806 0.000000
1.000000 0.410529 0.000000
1.000000 0.400153 0.000000
0.366918 0.505608 0.000000
0.369024 0.509117 0.000000
0.373419 0.513024 0.000000
0.379858 0.516686 0.000000
0.389441 0.519860 0.000000
0.401587 0.521752 0.000000
0.416114 0.523125 0.000000
0.433967 0.524651 0.000000
0.455085 0.526879 0.000000
0.479011 0.529808 0.000000
0.505821 0.533715 0.000000
0.535546 0.538445 0.000000
0.567590 0.543267 0.000000
0.602258 0.548425 0.000000
0.635096 0.549157 0.000000
0.655665 0.531914 0.000000
0.677790 0.509209 0.000000
0.710719 0.489235 0.000000
0.750118 0.476783 0.000000
0.783108 0.480079 0.000000
0.816403 0.482368 0.000000
0.849912 0.483803 0.000000
0.882902 0.483772 0.000000
0.914916 0.482246 0.000000
0.945464 0.479042 0.000000
0.975097 0.474525 0.000000
1.000000 0.468788 0.000000
1.000000 0.462226 0.000000
1.000000 0.454932 0.000000
1.000000 0.446601 0.000000
1.000000 0.437537 0.000000
1.000000 0.427649 0.000000
0.380163 0.537377 0.000000
0.382147 0.540703 0.000000
0.385931 0.544427 0.000000
0.392370 0.547875 0.000000
0.401495 0.550866 0.000000
0.413001 0.552636 0.000000
0.427008 0.554101 0.000000
0.444068 0.555535 0.000000
0.464332 0.557702 0.000000
0.487312 0.560540 0.000000
0.513115 0.564202 0.000000
0.541588 0.568444 0.000000
0.572442 0.572900 0.000000
0.605646 0.577508 0.000000
0.641199 0.582300 0.000000
0.670192 0.577386 0.000000
0.692164 0.559564 0.000000
0.716396 0.536675 0.000000
0.753811 0.518883 0.000000
0.794919 0.508507 0.000000
0.830198 0.512749 0.000000
0.865385 0.515618 0.000000
0.899199 0.516564 0.000000
0.932494 0.515892 0.000000
0.964263 0.513359 0.000000
0.994354 0.509117 0.000000
1.000000 0.503441 0.000000
1.000000 0.496742 0.000000
1.000000 0.489387 0.000000
1.000000 0.480964 0.000000
1.000000 0.471443 0.000000
1.000000 0.460914 0.000000
0.402594 0.594079 0.000000
0.403754 0.595636 0.000000
0.406714 0.596948 0.000000
0.411841 0.597925 0.000000
0.419898 0.598566 0.000000
0.430335 0.598932 0.000000
0.444038 0.599420 0.000000
0.460578 0.600488 0.000000
0.480201 0.602258 0.000000
0.502770 0.604974 0.000000
0.528344 0.608301 0.000000
0.556512 0.612238 0.000000
0.586969 0.616114 0.000000
0.619776 0.620081 0.000000
0.654444 0.624201 0.000000
0.691432 0.628321 0.000000
0.716548 0.616663 0.000000
0.738766 0.596155 0.000000
0.762600 0.570611 0.000000
0.801633 0.551751 0.000000
0.840146 0.540093 0.000000
0.872374 0.541436 0.000000
0.903685 0.541161 0.000000
0.933654 0.539208 0.000000
0.964141 0.536522 0.000000
0.994079 0.532677 0.000000
1.000000 0.527611 0.000000
1.000000 0.521569 0.000000
1.000000 0.514549 0.000000
1.000000 0.506584 0.000000
1.000000 0.497536 0.000000
1.000000 0.487251 0.000000
0.413489 0.629969 0.000000
0.414435 0.631250 0.000000
0.417395 0.632441 0.000000
0.422278 0.633539 0.000000
0.430152 0.634272 0.000000
0.440406 0.634760 0.000000
0.453620 0.635309 0.000000
0.469886 0.636316 0.000000
0.489143 0.637934 0.000000
0.511467 0.640314 0.000000
0.536339 0.643427 0.000000
0.563958 0.646815 0.000000
0.593835 0.650477 0.000000
0.626215 0.654414 0.000000
0.660456 0.658412 0.000000
0.696956 0.662593 0.000000
0.735836 0.667018 0.000000
0.757565 0.649409 0.000000
0.781064 0.627680 0.000000
0.805447 0.600305 0.000000
0.847257 0.581750 0.000000
0.883818 0.569818 0.000000
0.914427 0.569268 0.000000
0.943877 0.567224 0.000000
0.961303 0.557092 0.000000
0.990234 0.553338 0.000000
1.000000 0.548943 0.000000
1.000000 0.543633 0.000000
1.000000 0.537163 0.000000
1.000000 0.529778 0.000000
1.000000 0.521386 0.000000
1.000000 0.511894 0.000000
0.428168 0.681300 0.000000
0.429755 0.683436 0.000000
0.432136 0.684535 0.000000
0.437140 0.684504 0.000000
0.444190 0.683589 0.000000
0.453925 0.682246 0.000000
0.466041 0.680629 0.000000
0.481239 0.679347 0.000000
0.499367 0.678645 0.000000
0.520226 0.678767 0.000000
0.543725 0.679316 0.000000
0.569787 0.680751 0.000000
0.598322 0.682582 0.000000
0.628443 0.684413 0.000000
0.660822 0.686305 0.000000
0.695003 0.688380 0.000000
0.731411 0.690944 0.000000
0.765866 0.689387 0.000000
0.787747 0.670375 0.000000
0.812039 0.648066 0.000000
0.839353 0.621607 0.000000
0.880247 0.601282 0.000000
0.914214 0.589563 0.000000
0.942138 0.587060 0.000000
0.968444 0.582757 0.000000
0.993256 0.577050 0.000000
1.000000 0.571679 0.000000
1.000000 0.565972 0.000000
1.000000 0.559503 0.000000
1.000000 0.552300 0.000000
1.000000 0.544213 0.000000
1.000000 0.535241 0.000000
0.432197 0.711910 0.000000
0.433753 0.714015 0.000000
0.436408 0.715419 0.000000
0.441199 0.715969 0.000000
0.448798 0.716030 0.000000
0.458778 0.715999 0.000000
0.471962 0.716121 0.000000
0.488106 0.716640 0.000000
0.506828 0.717617 0.000000
0.528679 0.719051 0.000000
0.552850 0.720638 0.000000
0.579583 0.722560 0.000000
0.608148 0.724453 0.000000
0.638788 0.726101 0.000000
0.670985 0.727413 0.000000
0.704829 0.728756 0.000000
0.740810 0.730312 0.000000
0.778988 0.732509 0.000000
0.810178 0.725185 0.000000
0.832761 0.704646 0.000000
0.857328 0.679866 0.000000
0.886137 0.652644 0.000000
0.925078 0.628870 0.000000
0.956329 0.616724 0.000000
0.982513 0.612329 0.000000
1.000000 0.606561 0.000000
1.000000 0.599664 0.000000
1.000000 0.593103 0.000000
1.000000 0.586542 0.000000
1.000000 0.579217 0.000000
1.000000 0.570947 0.000000
1.000000 0.561669 0.000000
0.439094 0.754879 0.000000
0.440101 0.755825 0.000000
0.442420 0.756466 0.000000
0.447333 0.756649 0.000000
0.454871 0.756405 0.000000
0.464942 0.756130 0.000000
0.477882 0.755825 0.000000
0.493904 0.755825 0.000000
0.512413 0.756191 0.000000
0.534081 0.756985 0.000000
0.558373 0.758022 0.000000
0.584924 0.759457 0.000000
0.613519 0.760891 0.000000
0.643885 0.762142 0.000000
0.676051 0.762966 0.000000
0.709499 0.763729 0.000000
0.745022 0.764614 0.000000
0.782712 0.766049 0.000000
0.822873 0.768185 0.000000
0.850431 0.755245 0.000000
0.873350 0.732937 0.000000
0.897642 0.706142 0.000000
0.927062 0.677729 0.000000
0.963684 0.650782 0.000000
0.991699 0.638422 0.000000
1.000000 0.632136 0.000000
1.000000 0.624842 0.000000
1.000000 0.616602 0.000000
1.000000 0.608911 0.000000
1.000000 0.601770 0.000000
1.000000 0.593744 0.000000
1.000000 0.584741 0.000000
0.441138 0.791165 0.000000
0.442176 0.791928 0.000000
0.444678 0.792599 0.000000
0.449531 0.793088 0.000000
0.457343 0.793698 0.000000
0.468299 0.794736 0.000000
0.482490 0.796994 0.000000
0.500114 0.799893 0.000000
0.521019 0.803525 0.000000
0.544793 0.807614 0.000000
0.571801 0.812009 0.000000
0.601007 0.816190 0.000000
0.632380 0.819974 0.000000
0.665431 0.822873 0.000000
0.699825 0.824949 0.000000
0.735470 0.825834 0.000000
0.772335 0.826352 0.000000
0.811337 0.826902 0.000000
0.852537 0.827878 0.000000
0.896147 0.829129 0.000000
0.919066 0.808621 0.000000
0.941772 0.782895 0.000000
0.965148 0.752163 0.000000
0.994354 0.720333 0.000000
1.000000 0.688319 0.000000
1.000000 0.674647 0.000000
1.000000 0.665431 0.000000
1.000000 0.655512 0.000000
1.000000 0.644953 0.000000
1.000000 0.634882 0.000000
1.000000 0.625696 0.000000
1.000000 0.615473 0.000000
0.451209 0.851377 0.000000
0.451667 0.851408 0.000000
0.454200 0.851225 0.000000
0.459022 0.850950 0.000000
0.466712 0.850614 0.000000
0.477394 0.850340 0.000000
0.491157 0.850340 0.000000
0.508171 0.850645 0.000000
0.528008 0.851286 0.000000
0.550988 0.852262 0.000000
0.576623 0.853391 0.000000
0.604456 0.854704 0.000000
0.634730 0.855955 0.000000
0.666651 0.856901 0.000000
