20 Preset/Street 2/【3】LUT video cho PR-AE-FCPX/Tone 1 (34).cube
# Created by Adobe Lightroom plugin Export LUT (1.24.0)
# www.johnrellis.com/lightroom/exportlut.htm
# Preset: 青橙风光-素材江湖34
# Color profile: C:\Program Files (x86)\Common Files\Adobe\Color\Profiles\Recommended\VideoHD.icc
LUT_3D_SIZE 5
DOMAIN_MIN 0.000000 0.000000 0.000000
DOMAIN_MAX 0.903226 0.903226 0.903226
0.047822 0.089754 0.093996
0.250584 0.056886 0.100801
0.890532 0.000000 0.008087
1.000000 0.175235 0.000000
1.000000 0.409125 0.112673
0.160433 0.200381 0.103548
0.198428 0.163760 0.125673
0.821317 0.282048 0.025391
1.000000 0.435431 0.000000
1.000000 0.524254 0.180087
0.538811 0.506554 0.000000
0.563104 0.461097 0.000000
0.687282 0.400793 0.169863
1.000000 0.720180 0.293553
1.000000 0.755245 0.400580
0.849607 0.810788 0.000000
0.872648 0.781796 0.000000
0.917662 0.746975 0.000000
0.995392 0.701534 0.306645
1.000000 0.855863 0.584466
0.976410 0.950835 0.360357
0.994507 0.945922 0.317357
1.000000 0.922850 0.263645
1.000000 0.894408 0.395392
1.000000 0.874540 0.634028
0.055634 0.125643 0.140291
0.134035 0.117189 0.140414
0.810300 0.000000 0.031006
1.000000 0.298680 0.000000
1.000000 0.437781 0.101961
0.000000 0.228061 0.186038
0.228122 0.207767 0.184848
0.762539 0.300450 0.104158
1.000000 0.459968 0.000000
1.000000 0.533654 0.166812
0.523705 0.529778 0.120211
0.571405 0.480354 0.125368
0.688533 0.421424 0.230503
1.000000 0.701381 0.269108
1.000000 0.755337 0.396918
0.840452 0.820768 0.000000
0.872496 0.795102 0.000000
0.916197 0.754116 0.125154
0.992737 0.710903 0.355688
1.000000 0.855131 0.582238
0.964141 0.953307 0.418494
0.983032 0.948241 0.378180
1.000000 0.927794 0.321538
1.000000 0.899138 0.436713
1.000000 0.877348 0.643549
0.000000 0.208316 0.277623
0.131136 0.166537 0.278447
0.387427 0.170932 0.271580
1.000000 0.000000 0.195712
1.000000 0.457221 0.112215
0.203372 0.326818 0.351659
0.220584 0.275029 0.358526
0.706813 0.178408 0.361212
1.000000 0.415686 0.249638
1.000000 0.548699 0.177584
0.063081 0.708919 0.530663
0.523461 0.673487 0.497719
0.788022 0.598810 0.487617
1.000000 0.747829 0.491676
1.000000 0.750179 0.388464
0.778225 0.876707 0.474464
0.823239 0.852049 0.416236
0.906798 0.788785 0.387610
0.983001 0.770230 0.538903
1.000000 0.858000 0.597772
0.899931 0.965667 0.628290
0.921782 0.961059 0.594873
1.000000 0.939178 0.438300
1.000000 0.908141 0.532128
1.000000 0.881163 0.673884
0.000000 0.384283 0.533593
0.000000 0.323125 0.526726
0.455543 0.149538 0.469368
0.685817 0.225132 0.436530
1.000000 0.230442 0.476967
0.288670 0.485969 0.585046
0.268040 0.424750 0.575769
0.523217 0.226383 0.516808
0.837034 0.268254 0.511589
1.000000 0.467170 0.533898
0.543084 0.720821 0.714260
0.611810 0.721950 0.717220
0.741939 0.621851 0.715755
1.000000 0.715694 0.728054
1.000000 0.752987 0.659785
0.685298 0.945312 0.857755
0.715267 0.939269 0.841764
0.856199 0.896422 0.776303
0.952056 0.874174 0.801511
1.000000 0.903502 0.803037
0.809323 0.987915 0.846555
0.834470 0.984588 0.851469
0.897765 0.971466 0.829282
0.995575 0.933440 0.700374
1.000000 0.916106 0.815732
0.477577 0.705104 0.852018
0.455695 0.656397 0.848600
0.562097 0.450843 0.825498
0.816739 0.038819 0.717678
0.961151 0.407263 0.676081
0.541924 0.745418 0.851804
0.519432 0.704860 0.848997
0.566613 0.500633 0.828275
0.822721 0.188998 0.724575
0.958984 0.441291 0.679927
0.717983 0.858427 0.863676
0.720485 0.851377 0.865537
0.664546 0.738918 0.858091
0.864683 0.438270 0.783200
1.000000 0.610925 0.773312
0.761318 0.934112 0.915312
0.778958 0.932128 0.914611
0.844297 0.926116 0.913024
0.883879 0.867491 0.901213
1.000000 0.891600 0.899992
0.827085 0.993072 0.961059
0.841062 0.992645 0.962341
0.891081 0.992004 0.968475
0.934325 0.983246 0.951995
0.987884 0.969604 0.951568
