20 Preset/Street 2/【3】LUT video cho PR-AE-FCPX/Tone 1 (9).cube
# Created by Adobe Lightroom plugin Export LUT (1.24.0)
# www.johnrellis.com/lightroom/exportlut.htm
# Preset: 青橙风光-素材江湖09
# Color profile: C:\Program Files (x86)\Common Files\Adobe\Color\Profiles\Recommended\VideoHD.icc
LUT_3D_SIZE 5
DOMAIN_MIN 0.000000 0.000000 0.000000
DOMAIN_MAX 0.903226 0.903226 0.903226
0.044251 0.146395 0.152499
0.183322 0.141909 0.152529
0.539971 0.000000 0.147829
1.000000 0.000000 0.092226
1.000000 0.000000 0.000000
0.071870 0.187991 0.181949
0.143832 0.190433 0.166842
0.473152 0.191867 0.149203
1.000000 0.000000 0.000214
1.000000 0.251682 0.000000
0.178439 0.287327 0.251316
0.196109 0.284459 0.242710
0.410773 0.328740 0.179507
0.905760 0.473426 0.000000
1.000000 0.559991 0.000000
0.370275 0.444923 0.352056
0.382269 0.439490 0.352056
0.518120 0.493416 0.294255
0.820127 0.561364 0.116274
1.000000 0.749081 0.000000
0.800870 0.808591 0.620783
0.810544 0.807126 0.623316
0.829282 0.793851 0.583215
0.962036 0.872953 0.521386
1.000000 0.868223 0.350713
0.015259 0.182193 0.205234
0.113222 0.165438 0.199130
0.459388 0.093599 0.160494
0.943786 0.000000 0.101930
1.000000 0.000000 0.000000
0.000000 0.199344 0.205722
0.116396 0.214725 0.219486
0.431128 0.209903 0.167727
0.919677 0.118593 0.057282
1.000000 0.244877 0.000000
0.182345 0.318853 0.280369
0.206424 0.308995 0.277897
0.379980 0.322728 0.201877
0.842191 0.435004 0.000000
1.000000 0.554559 0.000000
0.387671 0.471260 0.375036
0.403693 0.466133 0.375433
0.519982 0.503136 0.329686
0.807126 0.552026 0.122042
1.000000 0.744625 0.000000
0.796048 0.814023 0.628901
0.804959 0.811093 0.629541
0.851469 0.820249 0.629358
0.968261 0.882933 0.545983
1.000000 0.875181 0.375616
0.000000 0.242374 0.299413
0.000000 0.226352 0.296269
0.217990 0.200259 0.287816
0.568933 0.142000 0.306218
1.000000 0.000000 0.152407
0.000000 0.271489 0.309026
0.000000 0.271824 0.321721
0.247776 0.232181 0.314336
0.721828 0.023438 0.326177
1.000000 0.150118 0.132479
0.000000 0.349065 0.347509
0.110750 0.367956 0.364141
0.452705 0.475105 0.459907
0.910582 0.455665 0.337713
1.000000 0.526360 0.000000
0.327611 0.547723 0.437873
0.381170 0.560021 0.447028
0.553277 0.565820 0.484932
0.835019 0.623041 0.348547
1.000000 0.737850 0.000000
0.754543 0.832212 0.654292
0.772274 0.831724 0.658564
0.825437 0.826413 0.670344
0.941527 0.875090 0.598779
1.000000 0.865690 0.342473
0.000000 0.324193 0.419562
0.000000 0.314244 0.419776
0.127321 0.266667 0.405310
0.331029 0.223545 0.372930
0.442420 0.262913 0.349615
0.000000 0.346197 0.427100
0.000000 0.342473 0.432807
0.130770 0.287022 0.420691
0.352117 0.239719 0.387579
0.502647 0.270237 0.370092
0.000000 0.416358 0.449744
0.000000 0.422583 0.456275
0.260105 0.434882 0.500267
0.483986 0.341222 0.473762
0.956359 0.310796 0.522911
0.036744 0.540734 0.517113
0.177462 0.550561 0.525536
0.420508 0.617121 0.584314
0.851713 0.829435 0.785000
1.000000 0.778134 0.614954
0.519066 0.847898 0.698604
0.559014 0.852476 0.701228
0.713252 0.873808 0.725093
0.887388 0.881437 0.787625
1.000000 0.895018 0.629145
0.183993 0.606287 0.761746
0.203311 0.588861 0.757137
0.237156 0.499092 0.740597
0.478401 0.372564 0.684077
0.652094 0.226963 0.582300
0.152834 0.610407 0.749935
0.198428 0.597650 0.748318
0.241917 0.513207 0.732235
0.460273 0.379156 0.675990
0.645380 0.235660 0.577722
0.152316 0.677485 0.754788
0.187747 0.663416 0.749935
0.319829 0.611475 0.744472
0.432349 0.436774 0.693416
0.683589 0.278233 0.603815
0.273442 0.775204 0.786496
0.284611 0.769039 0.782315
0.374578 0.759426 0.780240
0.566003 0.709133 0.794766
0.840665 0.453071 0.728176
0.541650 0.896849 0.851926
0.551415 0.895872 0.851133
0.622553 0.898558 0.855863
0.763302 0.904875 0.866850
0.975097 0.970459 0.956085
