20 Preset/Street 2/【3】LUT video cho PR-AE-FCPX/Tone 1 (4).cube
# Created by Adobe Lightroom plugin Export LUT (1.24.0)
# www.johnrellis.com/lightroom/exportlut.htm
# Preset: 青橙风光-素材江湖04
# Color profile: C:\Program Files (x86)\Common Files\Adobe\Color\Profiles\Recommended\VideoHD.icc
LUT_3D_SIZE 5
DOMAIN_MIN 0.000000 0.000000 0.000000
DOMAIN_MAX 0.903226 0.903226 0.903226
0.056580 0.096407 0.101076
0.154910 0.110994 0.121431
0.380102 0.102724 0.145876
0.836362 0.000000 0.179446
1.000000 0.358465 0.315007
0.101625 0.188937 0.113497
0.222049 0.165011 0.102174
0.619532 0.176822 0.130159
0.992248 0.206729 0.169711
1.000000 0.486763 0.353704
0.333959 0.539849 0.000000
0.409857 0.426642 0.163210
0.946715 0.553796 0.000000
1.000000 0.702113 0.000000
1.000000 0.737636 0.452583
0.729702 0.894774 0.166384
0.779416 0.863737 0.218357
0.888426 0.787778 0.299229
1.000000 0.815183 0.000000
1.000000 0.809873 0.251499
0.920653 0.998291 0.697322
0.939055 0.994049 0.712184
0.983032 0.970123 0.718135
1.000000 0.961089 0.713832
1.000000 0.888884 0.227512
0.067964 0.144259 0.166506
0.124422 0.122011 0.155459
0.347814 0.128542 0.159487
0.824308 0.000000 0.169070
1.000000 0.297765 0.264561
0.000000 0.220523 0.226230
0.161898 0.206394 0.213718
0.532158 0.197086 0.185153
0.963073 0.224613 0.152926
1.000000 0.420081 0.285740
0.000000 0.636500 0.000000
0.377722 0.529900 0.214237
0.856260 0.513817 0.067994
1.000000 0.674434 0.000000
1.000000 0.727169 0.425635
0.665766 0.921294 0.305577
0.746212 0.894316 0.326757
0.855741 0.776364 0.388525
1.000000 0.826108 0.000000
1.000000 0.808072 0.243168
0.901671 1.000000 0.717830
0.922484 0.996979 0.727810
0.979522 0.980285 0.777066
1.000000 0.967498 0.777188
1.000000 0.889342 0.260166
0.099062 0.263401 0.347448
0.172183 0.242924 0.319615
0.301915 0.183444 0.307195
0.729183 0.000000 0.266056
1.000000 0.136782 0.298985
0.116762 0.361242 0.430518
0.232517 0.334600 0.410376
0.372625 0.247318 0.366918
0.737728 0.000000 0.277623
1.000000 0.331029 0.343053
0.000000 0.736507 0.706996
0.000000 0.725032 0.698177
0.686183 0.672877 0.668696
0.986572 0.663386 0.592584
1.000000 0.713344 0.550225
0.000000 1.000000 0.650385
0.000000 0.993957 0.587366
0.813107 0.899046 0.657801
1.000000 0.888518 0.722072
1.000000 0.891569 0.739803
0.708553 1.000000 0.692805
0.803372 1.000000 0.759823
0.931670 0.992950 0.815122
1.000000 0.969024 0.842130
1.000000 0.917266 0.635645
0.360601 0.521599 0.678157
0.396490 0.499031 0.660670
0.492836 0.456153 0.561242
0.618647 0.251835 0.543297
1.000000 0.000000 0.601953
0.423804 0.597345 0.724117
0.450965 0.568292 0.704585
0.531792 0.500359 0.605463
0.643610 0.300847 0.566735
1.000000 0.000000 0.582147
0.390326 0.792996 0.820584
0.498421 0.783078 0.812497
0.678981 0.726192 0.786923
0.772274 0.546899 0.704463
1.000000 0.000000 0.558770
0.000000 0.984009 0.940337
0.000000 0.977874 0.937804
0.638239 0.958251 0.933501
0.927672 0.938323 0.927184
1.000000 0.924254 0.897520
0.000000 1.000000 0.905333
0.000000 1.000000 0.897765
0.643397 1.000000 0.880217
0.960204 0.991943 0.921386
1.000000 0.974792 0.932189
0.807431 0.879179 0.933165
0.809445 0.872282 0.929717
0.826810 0.851835 0.915099
0.846494 0.828428 0.860777
0.980499 0.547723 0.878386
0.810666 0.886870 0.934264
0.813352 0.880858 0.931365
0.824826 0.856046 0.917113
0.846311 0.829831 0.863005
0.975219 0.561700 0.876158
0.829129 0.925017 0.948516
0.837613 0.921874 0.946532
0.852537 0.902617 0.935912
0.865934 0.864317 0.892912
0.969268 0.671901 0.891234
0.788022 0.968902 0.974914
0.803372 0.967132 0.973114
0.865904 0.962463 0.967010
0.919036 0.944793 0.955993
0.962066 0.875364 0.934752
0.409064 1.000000 1.000000
0.509148 1.000000 1.000000
0.741634 1.000000 1.000000
0.907164 1.000000 1.000000
0.998840 0.999054 0.998871
