20 Preset/Street 2/【3】LUT video cho PR-AE-FCPX/Tone 1 (17).cube
# Created by Adobe Lightroom plugin Export LUT (1.24.0)
# www.johnrellis.com/lightroom/exportlut.htm
# Preset: 青橙风光-素材江湖17
# Color profile: C:\Program Files (x86)\Common Files\Adobe\Color\Profiles\Recommended\VideoHD.icc
LUT_3D_SIZE 32
DOMAIN_MIN 0.0 0.0 0.0
DOMAIN_MAX 1.0 1.0 1.0
0.101320 0.108370 0.108766
0.101320 0.108370 0.108766
0.101320 0.108370 0.108766
0.114351 0.107546 0.108614
0.138491 0.105440 0.108309
0.173892 0.100435 0.107759
0.222690 0.089326 0.106783
0.288731 0.047425 0.104402
0.376349 0.000000 0.100069
0.487922 0.000000 0.091829
0.615961 0.000000 0.066163
0.744045 0.000000 0.010010
0.863127 0.000000 0.000000
0.966644 0.000000 0.000000
1.000000 0.000000 0.000000
1.000000 0.000000 0.000000
1.000000 0.000000 0.000000
1.000000 0.000000 0.000000
1.000000 0.077241 0.000000
1.000000 0.186435 0.000000
1.000000 0.233646 0.000000
1.000000 0.265354 0.000000
1.000000 0.287724 0.000000
1.000000 0.304356 0.000000
1.000000 0.316503 0.000000
1.000000 0.326024 0.000000
1.000000 0.333227 0.000000
1.000000 0.338109 0.000000
1.000000 0.341558 0.000000
1.000000 0.343786 0.000000
1.000000 0.339666 0.000000
1.000000 0.334203 0.000000
0.101320 0.108370 0.108766
0.101320 0.108370 0.108766
0.101320 0.108370 0.108766
0.114687 0.107851 0.108553
0.138491 0.105440 0.108309
0.172702 0.100710 0.107790
0.219181 0.092378 0.106630
0.282444 0.060212 0.104372
0.366888 0.000000 0.100252
0.474434 0.000000 0.092531
0.599084 0.000000 0.069459
0.726436 0.000000 0.016144
0.845701 0.000000 0.000000
0.951385 0.000000 0.000000
1.000000 0.000000 0.000000
1.000000 0.000000 0.000000
1.000000 0.000000 0.000000
1.000000 0.000000 0.000000
1.000000 0.031250 0.000000
1.000000 0.177493 0.000000
1.000000 0.227787 0.000000
1.000000 0.259556 0.000000
1.000000 0.283299 0.000000
1.000000 0.300542 0.000000
1.000000 0.313603 0.000000
1.000000 0.322911 0.000000
1.000000 0.330175 0.000000
1.000000 0.336004 0.000000
1.000000 0.339788 0.000000
1.000000 0.342168 0.000000
1.000000 0.340368 0.000000
1.000000 0.334783 0.000000
0.101320 0.108370 0.108766
0.101320 0.108370 0.108766
0.101717 0.108675 0.108705
0.117830 0.108461 0.108400
0.140566 0.107790 0.107912
0.173861 0.106386 0.106996
0.219974 0.100954 0.105562
0.282048 0.086336 0.103090
0.364813 0.006500 0.098543
0.470039 0.000000 0.090364
0.592981 0.000000 0.062959
0.719203 0.000000 0.008453
0.837247 0.000000 0.000000
0.942718 0.000000 0.000000
1.000000 0.000000 0.000000
1.000000 0.000000 0.000000
1.000000 0.000000 0.000000
1.000000 0.000000 0.000000
1.000000 0.124147 0.000000
1.000000 0.200778 0.000000
1.000000 0.243748 0.000000
1.000000 0.273350 0.000000
1.000000 0.294316 0.000000
1.000000 0.309667 0.000000
1.000000 0.321324 0.000000
1.000000 0.329503 0.000000
1.000000 0.336858 0.000000
1.000000 0.341863 0.000000
1.000000 0.345342 0.000000
1.000000 0.347448 0.000000
1.000000 0.345830 0.000000
1.000000 0.340154 0.000000
0.102358 0.118074 0.109285
0.103395 0.118288 0.109255
0.112459 0.117678 0.109499
0.112612 0.116060 0.112917
0.129854 0.122072 0.114137
0.163973 0.123781 0.111666
0.212039 0.121981 0.108339
0.275883 0.114992 0.104128
0.361028 0.092683 0.097475
0.468147 0.000000 0.085878
0.592218 0.000000 0.046937
0.717037 0.000000 0.000000
0.834531 0.000000 0.000000
0.937865 0.000000 0.000000
1.000000 0.000000 0.000000
1.000000 0.000000 0.000000
1.000000 0.000000 0.000000
1.000000 0.112306 0.000000
1.000000 0.195865 0.000000
1.000000 0.242344 0.000000
1.000000 0.273472 0.000000
1.000000 0.297795 0.000000
1.000000 0.315496 0.000000
1.000000 0.328862 0.000000
1.000000 0.339055 0.000000
1.000000 0.346654 0.000000
1.000000 0.352850 0.000000
1.000000 0.356268 0.000000
1.000000 0.358343 0.000000
1.000000 0.359442 0.000000
1.000000 0.357733 0.000000
1.000000 0.351049 0.000000
0.116121 0.130495 0.110872
0.117708 0.130343 0.110872
0.125490 0.129824 0.110475
0.125948 0.126558 0.113832
0.126253 0.125612 0.118746
0.151644 0.134371 0.119112
0.190402 0.142916 0.116976
0.251255 0.145022 0.111421
0.332372 0.140719 0.103914
0.435859 0.122011 0.092592
0.557855 0.030213 0.056580
0.685115 0.000000 0.000000
0.804471 0.000000 0.000000
0.912383 0.000000 0.000000
1.000000 0.000000 0.000000
1.000000 0.010864 0.000000
1.000000 0.178134 0.000000
1.000000 0.238010 0.000000
1.000000 0.277195 0.000000
1.000000 0.304936 0.000000
1.000000 0.326543 0.000000
1.000000 0.342504 0.000000
1.000000 0.354986 0.000000
1.000000 0.364019 0.000000
1.000000 0.370947 0.000000
1.000000 0.376349 0.000000
1.000000 0.379309 0.000000
1.000000 0.380926 0.000000
1.000000 0.380865 0.000000
1.000000 0.379553 0.000000
1.000000 0.375891 0.000000
1.000000 0.367773 0.000000
0.132937 0.145174 0.111635
0.134646 0.144991 0.111604
0.141085 0.144106 0.111299
0.142428 0.141238 0.113710
0.142580 0.137911 0.117617
0.145327 0.137636 0.124361
0.180606 0.150057 0.123720
0.229679 0.165316 0.121309
0.305791 0.174990 0.112886
0.408148 0.176120 0.098909
0.531121 0.165774 0.061280
0.660883 0.147311 0.000000
0.782864 0.136782 0.000000
0.892851 0.152773 0.000000
0.996765 0.205386 0.000000
1.000000 0.260929 0.000000
1.000000 0.303960 0.000000
1.000000 0.335790 0.000000
1.000000 0.358709 0.000000
1.000000 0.375891 0.000000
1.000000 0.388708 0.000000
1.000000 0.398322 0.000000
1.000000 0.437385 0.000000
1.000000 0.437720 0.000000
1.000000 0.436622 0.000000
1.000000 0.435035 0.000000
1.000000 0.432166 0.000000
1.000000 0.428717 0.000000
1.000000 0.424628 0.000000
1.000000 0.416632 0.000000
1.000000 0.406653 0.000000
1.000000 0.395911 0.000000
0.157931 0.170443 0.112612
0.159426 0.170108 0.112642
0.166598 0.168124 0.111940
0.170047 0.164126 0.113100
0.170932 0.159854 0.116121
0.171969 0.155734 0.122133
0.179629 0.157412 0.131624
0.235203 0.177584 0.129732
0.308812 0.200870 0.123690
0.410559 0.229648 0.109316
0.545647 0.242222 0.051423
0.681422 0.256992 0.000000
0.804593 0.279454 0.000000
0.934508 0.329778 0.000000
1.000000 0.377630 0.000000
1.000000 0.412055 0.000000
1.000000 0.434730 0.000000
1.000000 0.449683 0.000000
1.000000 0.459907 0.000000
1.000000 0.466804 0.000000
1.000000 0.471839 0.000000
1.000000 0.475349 0.000000
1.000000 0.477455 0.000000
1.000000 0.477668 0.000000
1.000000 0.475837 0.000000
1.000000 0.472908 0.000000
1.000000 0.467872 0.000000
1.000000 0.462562 0.000000
1.000000 0.456825 0.000000
1.000000 0.449104 0.000000
1.000000 0.437903 0.000000
1.000000 0.426459 0.000000
0.183658 0.193851 0.112032
0.185275 0.193393 0.111788
0.191348 0.191409 0.111147
0.196475 0.187076 0.112184
0.198276 0.182925 0.114778
0.199741 0.177554 0.119020
0.201938 0.173281 0.126009
0.217044 0.177981 0.138003
0.289158 0.204501 0.134585
0.381964 0.234897 0.123903
0.501610 0.274846 0.098787
0.646448 0.325200 0.000000
0.792233 0.374914 0.000000
0.913054 0.424231 0.000000
1.000000 0.463691 0.000000
1.000000 0.490730 0.000000
1.000000 0.508019 0.000000
1.000000 0.518242 0.000000
1.000000 0.524041 0.000000
1.000000 0.527337 0.000000
1.000000 0.528923 0.000000
1.000000 0.528954 0.000000
1.000000 0.527642 0.000000
1.000000 0.524834 0.000000
1.000000 0.520897 0.000000
1.000000 0.515190 0.000000
1.000000 0.508598 0.000000
1.000000 0.501183 0.000000
1.000000 0.493416 0.000000
1.000000 0.485420 0.000000
1.000000 0.472938 0.000000
1.000000 0.460304 0.000000
0.216342 0.222141 0.108980
0.217929 0.221622 0.108766
0.223178 0.219333 0.108309
0.228733 0.214328 0.109163
0.231632 0.211002 0.112032
0.234928 0.206455 0.116365
0.238041 0.200931 0.122133
0.241520 0.195682 0.129732
0.267674 0.204959 0.144625
0.372869 0.245548 0.138735
0.501152 0.293400 0.116976
0.641199 0.359533 0.005371
0.769772 0.442329 0.000000
0.884428 0.502037 0.000000
0.973083 0.539818 0.000000
1.000000 0.564477 0.000000
1.000000 0.579034 0.000000
1.000000 0.586542 0.000000
1.000000 0.589410 0.000000
1.000000 0.589837 0.000000
1.000000 0.588220 0.000000
1.000000 0.585565 0.000000
1.000000 0.581353 0.000000
1.000000 0.575952 0.000000
1.000000 0.569390 0.000000
1.000000 0.561456 0.000000
1.000000 0.552789 0.000000
1.000000 0.543755 0.000000
1.000000 0.534325 0.000000
1.000000 0.524285 0.000000
1.000000 0.511772 0.000000
1.000000 0.497566 0.000000
0.255863 0.255619 0.101839
0.257023 0.254826 0.101778
0.261295 0.252232 0.101656
0.267002 0.245914 0.102815
0.270542 0.243442 0.106081
0.277897 0.241459 0.110353
0.286687 0.238865 0.116030
0.296483 0.235660 0.123659
0.305974 0.231540 0.133913
0.351598 0.249088 0.152895
0.479835 0.301183 0.139895
0.611109 0.362524 0.100313
0.735378 0.439399 0.000000
0.845274 0.522728 0.000000
0.933135 0.596643 0.000000
1.000000 0.626093 0.000000
1.000000 0.643275 0.000000
1.000000 0.651484 0.000000
1.000000 0.653651 0.000000
1.000000 0.652003 0.000000
1.000000 0.647578 0.000000
1.000000 0.641444 0.000000
1.000000 0.634180 0.000000
1.000000 0.626093 0.000000
1.000000 0.617029 0.000000
1.000000 0.607294 0.000000
1.000000 0.597101 0.000000
1.000000 0.586481 0.000000
1.000000 0.575891 0.000000
1.000000 0.564965 0.000000
1.000000 0.552605 0.000000
1.000000 0.537285 0.000000
0.309056 0.301457 0.080903
0.310033 0.300877 0.080720
0.315038 0.298161 0.080964
0.321233 0.290349 0.084108
0.327520 0.289586 0.089296
0.336278 0.288518 0.094392
0.347234 0.286656 0.101534
0.359899 0.284154 0.110719
0.373816 0.280827 0.122530
0.387915 0.277073 0.136873
0.449165 0.301823 0.159945
0.585443 0.368170 0.137789
0.707576 0.441993 0.049378
0.818296 0.523583 0.000000
0.908904 0.600732 0.000000
0.975372 0.665309 0.000000
1.000000 0.700587 0.000000
1.000000 0.709102 0.000000
1.000000 0.710842 0.000000
1.000000 0.708003 0.000000
1.000000 0.702235 0.000000
1.000000 0.694789 0.000000
1.000000 0.686458 0.000000
1.000000 0.676753 0.000000
1.000000 0.666316 0.000000
1.000000 0.655512 0.000000
1.000000 0.643977 0.000000
1.000000 0.632288 0.000000
1.000000 0.620356 0.000000
1.000000 0.608209 0.000000
1.000000 0.595727 0.000000
1.000000 0.579339 0.000000
0.371923 0.355657 0.000000
0.373053 0.354833 0.000000
0.377234 0.351812 0.000000
0.384161 0.344671 0.000305
0.390478 0.341344 0.012360
0.400946 0.341497 0.025757
0.414618 0.341711 0.044251
0.430732 0.341253 0.071962
0.449134 0.340368 0.095735
0.468666 0.338811 0.114809
0.487800 0.336400 0.136477
0.559960 0.371954 0.165713
0.795010 0.555657 0.131838
0.892119 0.636561 0.000000
0.961639 0.700649 0.000000
1.000000 0.747219 0.000000
1.000000 0.779263 0.000000
1.000000 0.802090 0.000000
1.000000 0.799527 0.000000
1.000000 0.790890 0.000000
1.000000 0.780484 0.000000
1.000000 0.768948 0.000000
1.000000 0.756466 0.000000
1.000000 0.743740 0.000000
1.000000 0.730373 0.000000
1.000000 0.716487 0.000000
1.000000 0.702113 0.000000
1.000000 0.687892 0.000000
1.000000 0.673610 0.000000
1.000000 0.659236 0.000000
1.000000 0.643061 0.000000
1.000000 0.625452 0.000000
0.480537 0.455573 0.000000
0.480690 0.454444 0.000000
0.482979 0.448615 0.000000
0.488228 0.438788 0.000000
0.490822 0.428687 0.000000
0.500145 0.428107 0.000000
0.513939 0.428595 0.000000
0.531426 0.429816 0.000000
0.553277 0.432563 0.000000
0.579431 0.436713 0.000000
0.609277 0.443122 0.072267
0.640864 0.451331 0.127871
0.722286 0.510491 0.180209
0.840116 0.608240 0.151095
0.926207 0.685451 0.102815
0.983459 0.740230 0.039368
1.000000 0.777005 0.064240
1.000000 0.802090 0.116274
1.000000 0.820096 0.158389
1.000000 0.827939 0.166171
1.000000 0.818967 0.000000
1.000000 0.808774 0.000000
1.000000 0.797482 0.000000
1.000000 0.785428 0.000000
1.000000 0.772671 0.000000
1.000000 0.759426 0.000000
1.000000 0.745693 0.000000
1.000000 0.731563 0.000000
1.000000 0.717311 0.000000
1.000000 0.702998 0.000000
1.000000 0.687709 0.000000
1.000000 0.669947 0.000000
0.536706 0.512474 0.000000
0.536370 0.510796 0.000000
0.537774 0.504723 0.000000
0.541253 0.494423 0.000000
0.542504 0.479622 0.000000
0.551049 0.479377 0.000000
0.563836 0.480751 0.000000
0.580591 0.483467 0.000000
0.601984 0.488350 0.000000
0.627710 0.495369 0.000000
0.657649 0.504814 0.000000
0.689784 0.515892 0.000000
0.721553 0.527276 0.127047
0.797543 0.590265 0.201389
0.892668 0.674769 0.192874
0.958129 0.735622 0.183566
1.000000 0.775845 0.188022
1.000000 0.803159 0.204959
1.000000 0.822751 0.229038
1.000000 0.836912 0.255436
1.000000 0.847868 0.282933
1.000000 0.844266 0.258762
1.000000 0.834531 0.211093
1.000000 0.823819 0.153689
1.000000 0.812253 0.012696
1.000000 0.800015 0.000000
1.000000 0.787045 0.000000
1.000000 0.773617 0.000000
1.000000 0.759884 0.000000
1.000000 0.745968 0.000000
1.000000 0.731777 0.000000
1.000000 0.714412 0.000000
0.591547 0.573480 0.000000
0.591821 0.572015 0.000000
0.592737 0.566552 0.000000
0.595361 0.556298 0.000000
0.595697 0.536614 0.000000
0.603052 0.536248 0.000000
0.614740 0.538140 0.000000
0.630671 0.542229 0.000000
0.651057 0.548547 0.000000
0.676020 0.557610 0.000000
0.704677 0.569055 0.000000
0.736294 0.582116 0.000000
0.767788 0.595087 0.000000
0.796323 0.606165 0.141451
0.860685 0.665187 0.239475
0.932219 0.731472 0.248631
0.981292 0.776669 0.256016
1.000000 0.805905 0.269352
1.000000 0.826505 0.287572
1.000000 0.841459 0.308934
1.000000 0.852842 0.331975
1.000000 0.862058 0.356847
1.000000 0.866728 0.370916
1.000000 0.857511 0.334783
1.000000 0.847288 0.297826
1.000000 0.836332 0.259648
1.000000 0.824704 0.218235
1.000000 0.812680 0.171542
1.000000 0.800198 0.108186
1.000000 0.787472 0.000000
1.000000 0.774533 0.000000
1.000000 0.758694 0.000000
0.640986 0.631647 0.000000
0.641840 0.631098 0.000000
0.643702 0.627192 0.000000
0.647333 0.619593 0.000000
0.652186 0.606439 0.000000
0.657557 0.599664 0.000000
0.670771 0.604883 0.000000
0.687739 0.611872 0.000000
0.708370 0.620935 0.000000
0.732174 0.631312 0.000000
0.758053 0.642023 0.000000
0.784695 0.652552 0.000000
0.810849 0.661799 0.000000
0.834684 0.668910 0.011261
0.854643 0.673579 0.176669
0.903685 0.722347 0.285100
0.957610 0.772641 0.304082
0.996063 0.806455 0.318608
1.000000 0.828794 0.335180
1.000000 0.845151 0.354589
1.000000 0.857572 0.376532
1.000000 0.867460 0.400153
1.000000 0.875456 0.424598
1.000000 0.882078 0.449104
1.000000 0.878355 0.436347
1.000000 0.869078 0.405310
1.000000 0.859098 0.374762
1.000000 0.848386 0.343969
1.000000 0.837247 0.313115
1.000000 0.825650 0.282353
1.000000 0.813565 0.250187
1.000000 0.799466 0.217380
0.688655 0.689113 0.000000
0.689235 0.688136 0.000000
0.690883 0.685206 0.000000
0.694697 0.678798 0.000000
0.700618 0.668940 0.000000
0.704463 0.656580 0.000000
0.716823 0.662043 0.000000
0.732570 0.669154 0.000000
0.751186 0.677699 0.000000
0.772427 0.687190 0.000000
0.795590 0.697139 0.000000
0.819730 0.706905 0.000000
0.843229 0.715541 0.000000
0.864927 0.722164 0.000000
0.883787 0.726711 0.131563
0.899046 0.729458 0.226535
0.936156 0.770199 0.338445
0.977081 0.807553 0.364965
1.000000 0.832914 0.383551
1.000000 0.849943 0.401282
1.000000 0.863096 0.422034
1.000000 0.873381 0.444099
1.000000 0.881621 0.467170
1.000000 0.888457 0.490700
1.000000 0.894224 0.514061
1.000000 0.897032 0.528252
1.000000 0.888701 0.500481
1.000000 0.879667 0.473335
1.000000 0.870146 0.446876
1.000000 0.860014 0.420691
1.000000 0.849424 0.394751
1.000000 0.837156 0.369238
0.740261 0.749325 0.000000
0.741115 0.749477 0.000000
0.786465 0.793637 0.000000
0.790066 0.789151 0.000000
0.795712 0.781552 0.000000
0.798672 0.765988 0.000000
0.808560 0.769406 0.000000
0.821164 0.774136 0.000000
0.836240 0.780026 0.000000
0.853269 0.786496 0.000000
0.871153 0.792844 0.000000
0.889128 0.798459 0.000000
0.905852 0.802487 0.000000
0.920928 0.804898 0.000000
0.933715 0.805570 0.166995
0.943877 0.804898 0.256931
0.952331 0.804898 0.330510
0.971405 0.829221 0.436713
0.998657 0.850492 0.462684
1.000000 0.865995 0.479866
1.000000 0.876921 0.495491
1.000000 0.885863 0.513725
1.000000 0.893095 0.532891
1.000000 0.899046 0.551904
1.000000 0.903838 0.570031
1.000000 0.908019 0.587823
1.000000 0.911711 0.605585
1.000000 0.907103 0.591669
1.000000 0.898772 0.565606
1.000000 0.890105 0.540734
1.000000 0.880888 0.516381
1.000000 0.870512 0.492470
0.799374 0.813352 0.000000
0.803433 0.816526 0.000000
0.809018 0.818601 0.000000
0.815946 0.818204 0.000000
0.823697 0.815030 0.000000
0.830777 0.806882 0.000000
0.836179 0.801602 0.000000
0.846677 0.805173 0.000000
0.859251 0.809415 0.000000
0.873289 0.814176 0.000000
0.888518 0.819059 0.000000
0.903929 0.823484 0.000000
0.918608 0.826627 0.000000
0.932097 0.828611 0.000000
0.944030 0.829404 0.132692
0.953979 0.829191 0.235935
0.961883 0.828336 0.310094
0.969085 0.830014 0.380652
0.983032 0.850553 0.484077
1.000000 0.868376 0.514305
1.000000 0.881285 0.533196
1.000000 0.890959 0.551751
1.000000 0.898589 0.570459
1.000000 0.904692 0.588556
1.000000 0.909636 0.605676
1.000000 0.913848 0.622339
1.000000 0.917479 0.638605
1.000000 0.920836 0.655055
1.000000 0.921447 0.661616
1.000000 0.914366 0.640223
1.000000 0.906889 0.619226
1.000000 0.898558 0.597986
0.833036 0.846769 0.000000
0.836881 0.849454 0.000000
0.842252 0.851438 0.000000
0.848539 0.851652 0.000000
0.855894 0.849577 0.000000
0.863615 0.844388 0.000000
0.867185 0.834989 0.000000
0.875883 0.837461 0.000000
0.886107 0.840360 0.000000
0.897612 0.843473 0.000000
0.910033 0.846677 0.000000
0.922850 0.849638 0.000000
0.935149 0.851743 0.000000
0.946807 0.853147 0.000000
0.957244 0.853635 0.125124
0.966186 0.853422 0.231968
0.973480 0.852628 0.306065
0.978943 0.851652 0.370367
0.984161 0.854124 0.438697
0.993011 0.870970 0.537041
1.000000 0.885466 0.569879
1.000000 0.895903 0.588861
1.000000 0.903990 0.607141
1.000000 0.910369 0.624567
1.000000 0.915435 0.640772
1.000000 0.919646 0.656184
1.000000 0.923278 0.671015
1.000000 0.926574 0.686000
1.000000 0.929717 0.701320
1.000000 0.932799 0.716823
1.000000 0.928161 0.704829
1.000000 0.921721 0.687556
0.866026 0.876646 0.000000
0.869169 0.878630 0.000000
0.873503 0.879973 0.000000
0.878965 0.880095 0.000000
0.885496 0.878508 0.000000
0.892546 0.874723 0.000000
0.897612 0.866453 0.000000
0.903441 0.865263 0.000000
0.911742 0.867124 0.000000
0.921019 0.869017 0.000000
0.931090 0.871000 0.000000
0.941497 0.872740 0.000000
0.951690 0.874022 0.000000
0.961395 0.874723 0.000000
0.970367 0.874998 0.139193
0.978332 0.874815 0.239658
0.985229 0.874571 0.313298
0.990661 0.874357 0.378820
0.994476 0.874693 0.440894
0.997925 0.878660 0.510246
1.000000 0.893828 0.608576
1.000000 0.905669 0.642664
1.000000 0.913909 0.661372
1.000000 0.920500 0.679316
1.000000 0.925750 0.695491
1.000000 0.929900 0.709926
1.000000 0.933410 0.723323
1.000000 0.936522 0.736233
1.000000 0.939422 0.749142
1.000000 0.942138 0.761868
1.000000 0.944671 0.774105
1.000000 0.943450 0.774533
0.910369 0.912108 0.000000
0.911620 0.912627 0.000000
0.913725 0.912474 0.000000
0.916808 0.911467 0.000000
0.921386 0.909392 0.000000
0.927031 0.906096 0.000000
0.934203 0.901762 0.000000
0.937072 0.895323 0.000000
0.943206 0.896025 0.000000
0.950317 0.897002 0.000000
0.958038 0.897887 0.000000
0.966003 0.898589 0.000000
0.973785 0.898955 0.000000
0.981231 0.898894 0.018982
0.988037 0.898466 0.201999
0.994018 0.897795 0.279973
0.999023 0.896910 0.344732
1.000000 0.896056 0.404303
1.000000 0.895506 0.461128
1.000000 0.895384 0.516289
1.000000 0.898741 0.580102
1.000000 0.911101 0.669154
1.000000 0.919738 0.696834
1.000000 0.925566 0.710048
1.000000 0.930663 0.723934
1.000000 0.934936 0.737240
1.000000 0.938537 0.749752
1.000000 0.941680 0.761746
1.000000 0.944549 0.773526
1.000000 0.947143 0.784817
1.000000 0.949523 0.795407
1.000000 0.951629 0.805234
0.933440 0.929992 0.000000
0.934386 0.930327 0.000000
0.936278 0.930236 0.000000
0.939300 0.929503 0.000000
0.943511 0.927977 0.000000
0.948943 0.925628 0.000000
0.955962 0.922454 0.000000
0.960967 0.916075 0.000000
0.965362 0.915160 0.000000
0.970947 0.915465 0.000000
0.976928 0.915770 0.000000
0.983154 0.915923 0.000000
0.989319 0.915831 0.000000
0.995209 0.915496 0.153841
1.000000 0.914946 0.243198
1.000000 0.914153 0.310674
1.000000 0.913329 0.371008
1.000000 0.912474 0.427405
1.000000 0.911803 0.481788
1.000000 0.911498 0.534417
1.000000 0.911711 0.585351
1.000000 0.915038 0.643549
1.000000 0.925963 0.724147
1.000000 0.932677 0.747036
1.000000 0.934478 0.746700
1.000000 0.938659 0.758206
1.000000 0.942443 0.770138
1.000000 0.945678 0.781460
1.000000 0.948577 0.792325
1.000000 0.951202 0.802731
1.000000 0.953582 0.812741
1.000000 0.955688 0.821866
0.959106 0.948760 0.000000
0.960357 0.949218 0.000000
0.961883 0.949157 0.000000
0.964263 0.948333 0.000000
0.967529 0.946807 0.000000
0.972076 0.944610 0.000000
0.977905 0.941711 0.000000
0.985168 0.938201 0.000000
0.987182 0.932586 0.000000
0.990387 0.931823 0.000000
0.993988 0.930999 0.000000
0.998138 0.930266 0.000000
1.000000 0.929381 0.100832
1.000000 0.928283 0.204166
1.000000 0.926970 0.270970
1.000000 0.925566 0.328130
1.000000 0.924163 0.381476
1.000000 0.922972 0.433356
1.000000 0.922118 0.484962
1.000000 0.921721 0.536400
1.000000 0.921721 0.585992
1.000000 0.922118 0.632624
1.000000 0.925231 0.684871
1.000000 0.935149 0.758328
1.000000 0.940368 0.776730
1.000000 0.943572 0.783352
1.000000 0.946777 0.791806
1.000000 0.949798 0.801114
1.000000 0.952514 0.810330
1.000000 0.955016 0.819455
1.000000 0.957305 0.828305
1.000000 0.959380 0.836728
0.971374 0.958740 0.115053
0.972442 0.959106 0.125429
0.973968 0.959106 0.124880
0.976379 0.958618 0.109895
0.979919 0.957641 0.049378
0.984710 0.956207 0.000000
0.990997 0.954376 0.000000
0.998840 0.952056 0.000000
1.000000 0.947662 0.000000
1.000000 0.945892 0.000000
1.000000 0.945251 0.000000
1.000000 0.944488 0.145785
1.000000 0.943542 0.222171
1.000000 0.942321 0.280186
1.000000 0.940917 0.330968
1.000000 0.939391 0.378851
1.000000 0.937835 0.425452
1.000000 0.936461 0.471931
1.000000 0.935393 0.518853
1.000000 0.934722 0.565911
1.000000 0.934417 0.611353
1.000000 0.934447 0.653864
1.000000 0.934752 0.692409
1.000000 0.938109 0.740627
1.000000 0.946410 0.799863
1.000000 0.950469 0.814542
1.000000 0.952911 0.819516
1.000000 0.955444 0.826047
1.000000 0.958007 0.833951
1.000000 0.960327 0.841642
1.000000 0.962402 0.849058
1.000000 0.964233 0.856046
0.984863 0.969665 0.281773
0.985412 0.969787 0.283696
0.986633 0.969665 0.282017
0.988769 0.969207 0.275975
0.991974 0.968414 0.265049
0.996490 0.967285 0.248295
1.000000 0.965789 0.225162
1.000000 0.963928 0.192721
1.000000 0.961730 0.144350
1.000000 0.957336 0.116732
1.000000 0.956481 0.190524
1.000000 0.955566 0.245792
1.000000 0.954528 0.294377
1.000000 0.953277 0.339269
1.000000 0.951812 0.382208
1.000000 0.950225 0.423743
1.000000 0.948669 0.465370
1.000000 0.947265 0.507347
1.000000 0.946075 0.550286
1.000000 0.945220 0.593072
1.000000 0.944701 0.634455
1.000000 0.944396 0.672877
1.000000 0.944305 0.707271
1.000000 0.944366 0.737881
1.000000 0.948150 0.783627
1.000000 0.954742 0.829740
1.000000 0.957916 0.841550
1.000000 0.959716 0.844846
1.000000 0.961669 0.849790
1.000000 0.963958 0.856779
1.000000 0.966003 0.863554
1.000000 0.967834 0.869993
0.993256 0.977905 0.380987
0.993652 0.977996 0.382147
0.994751 0.977935 0.381598
0.996857 0.977630 0.378058
1.000000 0.977142 0.372045
1.000000 0.976440 0.363653
1.000000 0.975708 0.354589
1.000000 0.974792 0.343664
1.000000 0.973754 0.330327
1.000000 0.971801 0.314336
1.000000 0.969665 0.337194
1.000000 0.969268 0.379828
1.000000 0.968658 0.421729
1.000000 0.967773 0.461616
1.000000 0.966705 0.500206
1.000000 0.965362 0.536400
1.000000 0.963958 0.571740
1.000000 0.962646 0.606744
1.000000 0.961517 0.641749
1.000000 0.960632 0.675715
1.000000 0.959960 0.707515
1.000000 0.959472 0.736385
1.000000 0.959045 0.761715
1.000000 0.958709 0.783932
1.000000 0.958862 0.806241
1.000000 0.962005 0.839872
1.000000 0.966552 0.871000
1.000000 0.968566 0.878691
1.000000 0.969543 0.880095
1.000000 0.970703 0.882689
1.000000 0.972320 0.887480
1.000000 0.973693 0.892027
1.000000 0.988373 0.531151
1.000000 0.988342 0.530816
1.000000 0.988159 0.528710
1.000000 0.987884 0.524681
1.000000 0.987427 0.518181
1.000000 0.986755 0.509606
1.000000 0.985962 0.499123
1.000000 0.984985 0.486275
1.000000 0.983825 0.471412
1.000000 0.982452 0.453956
1.000000 0.978943 0.435065
1.000000 0.977996 0.464607
1.000000 0.976989 0.495583
1.000000 0.975799 0.527062
