20 Preset/Street 2/【3】LUT video cho PR-AE-FCPX/Tone 1 (23).cube
# Created by Adobe Lightroom plugin Export LUT (1.24.0)
# www.johnrellis.com/lightroom/exportlut.htm
# Preset: 青橙风光-素材江湖23
# Color profile: C:\Program Files (x86)\Common Files\Adobe\Color\Profiles\Recommended\VideoHD.icc
LUT_3D_SIZE 5
DOMAIN_MIN 0.000000 0.000000 0.000000
DOMAIN_MAX 0.903226 0.903226 0.903226
0.047822 0.089754 0.093996
0.114412 0.107332 0.114626
0.332586 0.144015 0.174380
0.783169 0.235935 0.296574
1.000000 0.552789 0.527337
0.046754 0.148684 0.103761
0.125582 0.132204 0.114778
0.332433 0.199222 0.178805
0.792905 0.320775 0.304601
1.000000 0.609125 0.546960
0.195346 0.375799 0.107362
0.302159 0.341894 0.088563
0.460365 0.317327 0.159030
0.845426 0.546502 0.346441
1.000000 0.739986 0.587152
0.494026 0.692226 0.000000
0.559472 0.666590 0.000000
0.709285 0.597162 0.000000
0.890105 0.640192 0.246281
1.000000 0.833860 0.640070
0.793942 0.934020 0.282628
0.823697 0.927245 0.238804
0.907439 0.886229 0.000000
1.000000 0.876310 0.141573
1.000000 0.880461 0.574853
0.035920 0.123720 0.140810
0.103487 0.104189 0.133181
0.297002 0.152560 0.169528
0.717250 0.242771 0.274754
1.000000 0.510399 0.483619
0.000000 0.150729 0.154788
0.113741 0.153964 0.161135
0.314153 0.203464 0.189456
0.734340 0.308354 0.283482
1.000000 0.560296 0.497597
0.000000 0.393439 0.182040
0.228763 0.371252 0.177676
0.427863 0.321172 0.212528
0.792538 0.498878 0.316503
1.000000 0.727871 0.570672
0.429175 0.721828 0.200870
0.518242 0.697047 0.162387
0.698329 0.601831 0.000000
0.884398 0.652033 0.316808
1.000000 0.830137 0.633295
0.764553 0.939971 0.365911
0.796689 0.932799 0.328130
0.904326 0.903105 0.100771
1.000000 0.883146 0.224826
1.000000 0.884306 0.589136
0.000000 0.233494 0.295567
0.000000 0.191012 0.287083
0.237003 0.129335 0.249393
0.548302 0.191562 0.307958
1.000000 0.506157 0.516320
0.000000 0.270512 0.317784
0.000000 0.242466 0.317479
0.271305 0.172488 0.282689
0.631495 0.254520 0.352758
1.000000 0.561822 0.540063
0.000000 0.429938 0.416358
0.000000 0.432685 0.421271
0.438422 0.439704 0.446265
0.787686 0.556603 0.519188
1.000000 0.720912 0.616388
0.000000 0.802976 0.522179
0.000000 0.790036 0.478065
0.611566 0.722042 0.422156
0.863645 0.710780 0.533471
0.997040 0.852659 0.720027
0.539086 0.966125 0.548150
0.631342 0.959350 0.564813
0.810208 0.929839 0.466682
0.973785 0.879850 0.313603
1.000000 0.891295 0.666499
0.000000 0.405310 0.550958
0.000000 0.361547 0.540826
0.192538 0.227726 0.489113
0.448432 0.136965 0.410956
0.688075 0.235782 0.433326
0.000000 0.429816 0.564446
0.000000 0.394720 0.555688
0.196811 0.266056 0.514214
0.473915 0.172427 0.431373
0.728908 0.273899 0.460670
0.000000 0.599298 0.613123
0.000000 0.591852 0.611749
0.345129 0.508171 0.617609
0.591974 0.337865 0.532158
0.912078 0.508202 0.616114
0.000000 0.802335 0.756741
0.000000 0.799161 0.755886
0.448890 0.798611 0.764797
0.796506 0.800320 0.787442
0.966430 0.883848 0.850126
0.355993 0.987762 0.868254
0.412665 0.985870 0.859892
0.568505 0.977966 0.814878
0.853788 0.933593 0.704005
0.987060 0.921538 0.828641
0.111299 0.727138 0.867247
0.109010 0.696193 0.863432
0.212100 0.540734 0.849882
0.612024 0.302495 0.781369
0.765042 0.000000 0.652491
0.000000 0.705806 0.860807
0.057496 0.678187 0.857542
0.214389 0.536675 0.843198
0.599084 0.324041 0.778286
0.763973 0.078370 0.652613
0.323217 0.813626 0.868284
0.357977 0.799374 0.866484
0.391608 0.705440 0.856199
0.567285 0.448524 0.804990
0.797635 0.246738 0.687068
0.424231 0.908110 0.890837
0.448615 0.904295 0.888334
0.561883 0.892729 0.882597
0.661616 0.800137 0.877470
0.884703 0.526238 0.793515
0.494759 0.973999 0.933989
0.523247 0.972625 0.933776
0.639338 0.968170 0.935210
0.794614 0.959625 0.937194
0.944732 0.953582 0.944549
