20 Preset/Street 2/【3】LUT video cho PR-AE-FCPX/Tone 1 (35).cube
# Created by Adobe Lightroom plugin Export LUT (1.24.0)
# www.johnrellis.com/lightroom/exportlut.htm
# Preset: 青橙风光-素材江湖35
# Color profile: C:\Program Files (x86)\Common Files\Adobe\Color\Profiles\Recommended\VideoHD.icc
LUT_3D_SIZE 32
DOMAIN_MIN 0.0 0.0 0.0
DOMAIN_MAX 1.0 1.0 1.0
0.101320 0.108370 0.108766
0.101320 0.108370 0.108766
0.101320 0.108370 0.108766
0.110750 0.108309 0.108919
0.132021 0.107759 0.109804
0.160372 0.106416 0.110750
0.199069 0.101503 0.111788
0.246555 0.095857 0.113466
0.307103 0.076448 0.113893
0.383032 0.000000 0.112886
0.476997 0.000000 0.110170
0.582605 0.000000 0.104646
0.690639 0.000000 0.094697
0.792752 0.000000 0.069184
0.886442 0.000000 0.011536
0.969726 0.000000 0.000000
1.000000 0.000000 0.000000
1.000000 0.000000 0.000000
1.000000 0.012665 0.000000
1.000000 0.194614 0.000000
1.000000 0.258518 0.000000
1.000000 0.304692 0.000000
1.000000 0.340642 0.000000
1.000000 0.370611 0.000000
1.000000 0.396460 0.000000
1.000000 0.419806 0.000000
1.000000 0.441169 0.000000
1.000000 0.461067 0.000000
1.000000 0.480415 0.036286
1.000000 0.499519 0.129366
1.000000 0.518517 0.174899
1.000000 0.537652 0.215122
0.101320 0.108370 0.108766
0.101320 0.108370 0.108766
0.101320 0.108370 0.108766
0.111879 0.108186 0.108919
0.132021 0.107759 0.109804
0.160159 0.106142 0.110780
0.196750 0.103212 0.112001
0.241978 0.099275 0.113680
0.300938 0.085573 0.113863
0.374792 0.018189 0.113313
0.465675 0.000000 0.110811
0.570184 0.000000 0.105409
0.677790 0.000000 0.095674
0.780209 0.000000 0.073518
0.874571 0.000000 0.017853
0.960357 0.000000 0.000000
1.000000 0.000000 0.000000
1.000000 0.000000 0.000000
1.000000 0.000000 0.000000
1.000000 0.185000 0.000000
1.000000 0.251194 0.000000
1.000000 0.297368 0.000000
1.000000 0.333867 0.000000
1.000000 0.364263 0.000000
1.000000 0.390723 0.000000
1.000000 0.413703 0.000000
1.000000 0.435157 0.000000
1.000000 0.455848 0.000000
1.000000 0.475380 0.000000
1.000000 0.494606 0.115755
1.000000 0.514000 0.165103
1.000000 0.533349 0.206760
0.101320 0.108370 0.108766
0.101320 0.108370 0.108766
0.101320 0.108370 0.108766
0.114687 0.108492 0.109133
0.132326 0.110292 0.110414
0.157565 0.111788 0.112032
0.191073 0.111879 0.113649
0.235294 0.109224 0.114656
0.292180 0.101320 0.114809
0.364111 0.071229 0.113954
0.453620 0.000000 0.111513
0.557214 0.000000 0.106111
0.664332 0.000000 0.096498
0.767086 0.000000 0.075441
0.862486 0.000000 0.019104
0.951904 0.000000 0.000000
1.000000 0.000000 0.000000
1.000000 0.000000 0.000000
1.000000 0.090578 0.000000
1.000000 0.201480 0.000000
1.000000 0.261387 0.000000
1.000000 0.305913 0.000000
1.000000 0.340551 0.000000
1.000000 0.369482 0.000000
1.000000 0.394751 0.000000
1.000000 0.416815 0.000000
1.000000 0.438300 0.000000
1.000000 0.458167 0.000000
1.000000 0.477394 0.000000
1.000000 0.496498 0.111025
1.000000 0.515221 0.161624
1.000000 0.534356 0.203769
0.101534 0.117586 0.109377
0.102602 0.117769 0.109346
0.111238 0.117220 0.109255
0.111696 0.115297 0.112398
0.124239 0.120729 0.115663
0.148196 0.123903 0.116396
0.181552 0.125612 0.116884
0.224094 0.125521 0.117189
0.279789 0.122103 0.116884
0.349981 0.110964 0.115541
0.437690 0.071992 0.112642
0.538872 0.000000 0.107088
0.646418 0.000000 0.097322
0.749416 0.000000 0.075959
0.845151 0.000000 0.017334
0.939513 0.000000 0.000000
1.000000 0.000000 0.000000
1.000000 0.000000 0.000000
1.000000 0.161685 0.000000
1.000000 0.232151 0.000000
1.000000 0.281193 0.000000
1.000000 0.320745 0.000000
1.000000 0.352911 0.000000
1.000000 0.380377 0.000000
1.000000 0.404913 0.000000
1.000000 0.427039 0.000000
1.000000 0.448096 0.000000
1.000000 0.467536 0.000000
1.000000 0.486091 0.000000
1.000000 0.504448 0.113741
1.000000 0.522332 0.163699
1.000000 0.540215 0.204776
0.114504 0.129397 0.110780
0.116091 0.129244 0.110780
0.123537 0.128756 0.110384
0.123598 0.125521 0.113436
0.123598 0.123781 0.117922
0.140352 0.131106 0.120485
0.166751 0.138338 0.122011
0.207095 0.141817 0.121401
0.259831 0.143557 0.120211
0.326482 0.141421 0.118593
0.410193 0.130800 0.115511
0.509819 0.103029 0.109621
0.616938 0.000000 0.099519
0.722347 0.000000 0.078218
0.820737 0.000000 0.014343
0.920287 0.000000 0.000000
0.999756 0.035462 0.000000
1.000000 0.169650 0.000000
1.000000 0.233249 0.000000
1.000000 0.281407 0.000000
1.000000 0.320714 0.000000
1.000000 0.353124 0.000000
1.000000 0.380591 0.000000
1.000000 0.404608 0.000000
1.000000 0.426490 0.000000
1.000000 0.446967 0.000000
1.000000 0.465644 0.000000
1.000000 0.483375 0.000000
1.000000 0.500511 0.000000
1.000000 0.517266 0.118685
1.000000 0.533745 0.167575
1.000000 0.550439 0.208347
0.131380 0.143374 0.111391
0.132723 0.143221 0.111360
0.138796 0.142367 0.111391
0.139712 0.139040 0.113558
0.138369 0.135103 0.117006
0.138277 0.133272 0.122438
0.161013 0.142702 0.125032
0.191012 0.154116 0.127749
0.238743 0.162600 0.126619
0.302983 0.167544 0.124086
0.383795 0.168154 0.120027
0.481605 0.162387 0.113527
0.589075 0.149020 0.102449
0.695949 0.135195 0.079927
0.804868 0.140414 0.000031
0.903502 0.171206 0.000000
0.983368 0.215549 0.000000
1.000000 0.262181 0.000000
1.000000 0.304845 0.000000
1.000000 0.341070 0.000000
1.000000 0.371801 0.000000
1.000000 0.397955 0.000000
1.000000 0.462623 0.000000
1.000000 0.479072 0.000000
1.000000 0.493904 0.000000
1.000000 0.508110 0.000000
1.000000 0.521355 0.000000
1.000000 0.534539 0.091859
1.000000 0.547723 0.146120
1.000000 0.560937 0.186893
1.000000 0.574212 0.222629
1.000000 0.587610 0.255833
0.152804 0.165103 0.112795
0.154757 0.164736 0.112520
0.160983 0.163149 0.112032
0.162692 0.158602 0.113008
0.161379 0.153201 0.116304
0.158877 0.147402 0.120974
0.159976 0.146029 0.127443
0.191562 0.159213 0.130678
0.232578 0.174655 0.132967
0.289311 0.193454 0.134249
0.372900 0.203922 0.128298
0.473884 0.210819 0.119722
0.584039 0.215335 0.105409
0.707362 0.230198 0.060548
0.819577 0.256413 0.000000
0.914702 0.290196 0.000000
0.990600 0.327092 0.000000
1.000000 0.362799 0.000000
1.000000 0.395087 0.000000
1.000000 0.422858 0.000000
1.000000 0.447150 0.000000
1.000000 0.468940 0.000000
1.000000 0.488228 0.000000
1.000000 0.505577 0.000000
1.000000 0.520500 0.000000
1.000000 0.533959 0.000000
1.000000 0.545373 0.000000
1.000000 0.556512 0.100374
1.000000 0.567926 0.152285
1.000000 0.579004 0.191836
1.000000 0.590631 0.227207
1.000000 0.602502 0.260288
0.176761 0.187137 0.112337
0.178408 0.186679 0.112398
0.183871 0.184848 0.111727
0.187472 0.179995 0.112581
0.185367 0.173465 0.115236
0.181949 0.165805 0.118593
0.178714 0.159457 0.124239
0.182071 0.158602 0.132113
0.221164 0.175113 0.135317
0.271550 0.194156 0.137240
0.339147 0.218723 0.138155
0.435584 0.244419 0.133211
0.555261 0.264866 0.117525
0.673579 0.288396 0.087861
0.781399 0.317357 0.000000
0.876249 0.350378 0.000000
0.955413 0.384863 0.000000
1.000000 0.417060 0.000000
1.000000 0.446357 0.000000
1.000000 0.471229 0.000000
1.000000 0.492531 0.000000
1.000000 0.511009 0.000000
1.000000 0.527184 0.000000
1.000000 0.541619 0.000000
1.000000 0.554376 0.000000
1.000000 0.565026 0.000000
1.000000 0.574670 0.000000
1.000000 0.583734 0.118990
1.000000 0.592981 0.165927
1.000000 0.602564 0.204288
1.000000 0.612268 0.238407
1.000000 0.622644 0.271061
0.207095 0.213413 0.110231
0.208530 0.212863 0.110018
0.213626 0.210910 0.109804
0.217777 0.205539 0.110384
0.215793 0.199069 0.113466
0.212467 0.190677 0.117525
0.207828 0.181399 0.122042
0.202792 0.172946 0.127352
0.208988 0.173739 0.136751
0.260960 0.195651 0.140230
0.327611 0.221469 0.141909
0.415839 0.254398 0.141207
0.520958 0.296818 0.135836
0.634516 0.332433 0.112947
0.741360 0.366186 0.037873
0.837430 0.401434 0.000000
0.920378 0.436683 0.000000
0.987366 0.468971 0.000000
1.000000 0.497475 0.000000
1.000000 0.520897 0.000000
1.000000 0.540124 0.000000
1.000000 0.556237 0.000000
1.000000 0.569940 0.000000
1.000000 0.581842 0.000000
1.000000 0.592004 0.000000
1.000000 0.600366 0.000000
1.000000 0.607843 0.090578
1.000000 0.615198 0.147280
1.000000 0.622522 0.188052
1.000000 0.629969 0.223362
1.000000 0.638209 0.256199
1.000000 0.646723 0.287602
0.243656 0.244511 0.104707
0.244755 0.243870 0.104585
0.248997 0.241672 0.104585
0.253849 0.235447 0.105531
0.251774 0.228824 0.109346
0.249851 0.221134 0.113832
0.246555 0.211856 0.119081
0.242100 0.201816 0.124971
0.235569 0.191623 0.131197
0.246464 0.193790 0.141939
0.309056 0.220188 0.145327
0.387427 0.250736 0.145754
0.484291 0.289799 0.142611
0.589227 0.339727 0.133944
0.692287 0.398871 0.113405
0.792630 0.439918 0.002625
0.881559 0.479988 0.000000
0.955200 0.515953 0.000000
1.000000 0.546258 0.000000
1.000000 0.569604 0.000000
1.000000 0.587213 0.000000
1.000000 0.600610 0.000000
1.000000 0.611383 0.000000
1.000000 0.620417 0.000000
1.000000 0.627771 0.000000
1.000000 0.634150 0.018372
1.000000 0.640040 0.126711
1.000000 0.645624 0.171939
1.000000 0.651667 0.209567
1.000000 0.658015 0.243595
1.000000 0.664881 0.275914
1.000000 0.672297 0.306950
0.289921 0.284306 0.091890
0.290837 0.283696 0.091768
0.295445 0.281346 0.091615
0.301061 0.274266 0.093507
0.299748 0.268070 0.098421
0.297612 0.259739 0.104738
0.294041 0.249393 0.111971
0.289250 0.237797 0.119753
0.282872 0.225681 0.127413
0.274784 0.213596 0.135042
0.288518 0.216007 0.147189
0.362737 0.247349 0.149752
0.451942 0.284184 0.148714
0.553613 0.331151 0.143008
0.655818 0.389624 0.130220
0.750942 0.457618 0.108186
0.840482 0.515587 0.008423
0.919219 0.554955 0.000000
0.980896 0.587091 0.000000
1.000000 0.611536 0.000000
1.000000 0.629114 0.000000
1.000000 0.641993 0.000000
1.000000 0.652003 0.000000
1.000000 0.659693 0.000000
1.000000 0.665766 0.039033
1.000000 0.670893 0.129763
1.000000 0.675288 0.172732
1.000000 0.679622 0.208560
1.000000 0.684108 0.241398
1.000000 0.688960 0.272648
1.000000 0.694484 0.303044
1.000000 0.700343 0.332525
0.343755 0.330816 0.037598
0.344976 0.329992 0.037903
0.348699 0.327398 0.038972
0.355383 0.321050 0.042451
0.354131 0.312657 0.062654
0.351843 0.303990 0.083436
0.349004 0.293339 0.096071
0.344518 0.280797 0.107454
0.338720 0.267338 0.118379
0.331182 0.253269 0.128786
0.321477 0.239231 0.138857
0.339422 0.242802 0.152041
0.478676 0.308904 0.156100
0.584497 0.363928 0.150240
0.686610 0.429786 0.138277
0.780575 0.502495 0.121096
0.861784 0.574487 0.107637
0.925658 0.639094 0.120394
0.980194 0.669764 0.099245
1.000000 0.688777 0.088808
1.000000 0.701198 0.101350
1.000000 0.709529 0.124605
1.000000 0.714931 0.151980
1.000000 0.718959 0.180179
1.000000 0.721645 0.206973
1.000000 0.723445 0.232761
1.000000 0.724666 0.257115
1.000000 0.726040 0.281224
1.000000 0.727779 0.305425
1.000000 0.730007 0.329778
1.000000 0.732906 0.354681
1.000000 0.736660 0.380041
0.427527 0.405310 0.000000
0.427863 0.404425 0.000000
0.430640 0.399969 0.000000
0.436408 0.392279 0.000000
0.433875 0.379309 0.000000
0.430274 0.368688 0.000000
0.426215 0.355993 0.009491
0.421393 0.341711 0.057038
0.416419 0.326513 0.093782
0.410376 0.310765 0.111757
0.403906 0.295171 0.127443
0.395697 0.280125 0.141878
0.423468 0.287358 0.158175
0.528008 0.339391 0.158175
0.635065 0.403021 0.151247
0.732937 0.474189 0.139193
0.820096 0.547204 0.127291
0.891691 0.614954 0.129488
0.945647 0.672847 0.156558
0.987335 0.712459 0.184207
1.000000 0.727443 0.185519
1.000000 0.737392 0.195651
1.000000 0.743923 0.211124
1.000000 0.748379 0.230472
1.000000 0.751217 0.251347
1.000000 0.753017 0.272892
1.000000 0.754269 0.294682
1.000000 0.755215 0.316503
1.000000 0.756497 0.339055
1.000000 0.758236 0.362310
1.000000 0.760464 0.386114
1.000000 0.763333 0.410407
0.481788 0.457038 0.000000
0.481819 0.455879 0.000000
0.483955 0.451209 0.000000
0.488197 0.442969 0.000000
0.487709 0.428229 0.000000
0.484260 0.417853 0.000000
0.480842 0.405493 0.000000
0.476997 0.391577 0.000000
0.473182 0.376562 0.004974
0.469337 0.360876 0.070039
0.465248 0.344793 0.103822
0.459663 0.328496 0.124727
0.451881 0.312139 0.142916
0.483406 0.322026 0.161624
0.587579 0.380468 0.160708
0.688289 0.449256 0.153017
0.778500 0.521294 0.143709
0.855772 0.590753 0.141482
0.917479 0.652613 0.158511
0.962707 0.704067 0.193820
0.995148 0.745144 0.240726
1.000000 0.762722 0.258213
1.000000 0.770932 0.269017
1.000000 0.776211 0.283879
1.000000 0.779538 0.300725
1.000000 0.781582 0.319036
1.000000 0.782712 0.337835
1.000000 0.783505 0.357336
1.000000 0.784329 0.377966
1.000000 0.785519 0.399542
1.000000 0.787167 0.421912
1.000000 0.789456 0.445197
0.535576 0.512261 0.000000
0.535973 0.511101 0.000000
0.537469 0.506828 0.000000
0.541131 0.498482 0.000000
0.542412 0.482124 0.000000
0.539391 0.471626 0.000000
0.536706 0.459937 0.000000
0.533989 0.446662 0.000000
0.531487 0.432258 0.000000
0.529412 0.416938 0.000000
0.527214 0.401190 0.011780
0.524102 0.384588 0.089967
0.519219 0.367254 0.119448
0.511131 0.349218 0.143130
0.545373 0.361913 0.164675
0.644404 0.425574 0.163485
0.738460 0.497658 0.157290
0.820096 0.567956 0.153902
0.887785 0.632593 0.163973
0.939513 0.687922 0.191989
0.977508 0.733150 0.233280
1.000000 0.769345 0.282841
1.000000 0.794369 0.325811
1.000000 0.800778 0.337255
1.000000 0.804746 0.350958
1.000000 0.807218 0.366613
1.000000 0.808621 0.383520
1.000000 0.809720 0.401801
1.000000 0.810666 0.421424
1.000000 0.811917 0.442390
1.000000 0.813565 0.464546
1.000000 0.815702 0.487617
0.584405 0.566491 0.000000
0.585229 0.565759 0.000000
0.587304 0.562432 0.000000
0.591150 0.555718 0.000000
0.596460 0.544244 0.000000
0.594751 0.530449 0.000000
0.594110 0.521141 0.000000
0.593622 0.510033 0.000000
0.593408 0.497292 0.000000
0.592889 0.482948 0.000000
0.591424 0.466865 0.000000
0.589075 0.449195 0.000000
0.584771 0.430030 0.042695
0.577722 0.409461 0.111482
0.567468 0.388067 0.142123
0.601678 0.403082 0.167300
0.693874 0.469978 0.167544
0.780850 0.542168 0.164828
0.854185 0.609216 0.170413
0.913085 0.668788 0.191287
0.957488 0.719081 0.227390
0.989868 0.759609 0.274357
1.000000 0.791714 0.325963
1.000000 0.817380 0.379278
1.000000 0.827420 0.403937
1.000000 0.830686 0.418128
1.000000 0.832731 0.433600
1.000000 0.833982 0.450263
1.000000 0.834989 0.468269
1.000000 0.835966 0.487343
1.000000 0.837156 0.507286
1.000000 0.838651 0.528191
0.630426 0.620539 0.000000
0.630945 0.619684 0.000000
0.632654 0.616907 0.000000
0.636622 0.610956 0.000000
0.642390 0.601770 0.000000
0.643061 0.586267 0.000000
0.643061 0.577935 0.000000
0.643244 0.567956 0.000000
0.643610 0.556390 0.000000
0.643854 0.543267 0.000000
0.643824 0.528344 0.000000
0.643061 0.511955 0.000000
0.640894 0.493568 0.000000
0.636805 0.473487 0.000000
0.630121 0.451820 0.101381
0.620447 0.429328 0.140536
0.655299 0.447700 0.171023
0.740780 0.516075 0.174380
0.821103 0.587396 0.178286
0.885679 0.650019 0.194003
0.936095 0.704433 0.224979
0.973693 0.749294 0.268009
1.000000 0.784695 0.318181
1.000000 0.812741 0.371252
1.000000 0.835203 0.424689
1.000000 0.850889 0.469612
1.000000 0.853605 0.483833
1.000000 0.855406 0.499458
1.000000 0.856687 0.516136
1.000000 0.857816 0.534142
1.000000 0.859007 0.553033
1.000000 0.860044 0.571710
0.677729 0.677516 0.000000
0.678370 0.677455 0.000000
0.707210 0.706355 0.000000
0.710872 0.701259 0.000000
0.716274 0.692897 0.000000
0.719051 0.676204 0.000000
0.718959 0.668147 0.000000
0.719142 0.658778 0.000000
0.719783 0.648157 0.000000
0.720607 0.635889 0.000000
0.721126 0.621973 0.000000
0.721004 0.606073 0.000000
0.719631 0.587671 0.000000
0.716426 0.566918 0.000000
0.711055 0.544030 0.000000
0.703212 0.519585 0.078340
0.695003 0.496223 0.139498
0.725643 0.514092 0.180056
0.801419 0.580652 0.190951
0.869871 0.646571 0.206943
0.922423 0.701564 0.235477
0.962219 0.747768 0.275853
0.991241 0.784237 0.324041
1.000000 0.812863 0.375586
1.000000 0.835569 0.427314
1.000000 0.854093 0.478614
1.000000 0.869780 0.528679
1.000000 0.874723 0.550958
1.000000 0.876036 0.565240
1.000000 0.877195 0.581231
1.000000 0.878111 0.597589
1.000000 0.878935 0.614008
0.729122 0.738705 0.000000
0.731807 0.740871 0.000000
0.736049 0.741543 0.000000
0.741573 0.739498 0.000000
0.748196 0.734615 0.000000
0.754635 0.724575 0.000000
0.754330 0.711818 0.000000
0.754604 0.703792 0.000000
0.755154 0.694423 0.000000
0.756008 0.683619 0.000000
0.756985 0.671473 0.000000
0.757626 0.657557 0.000000
0.757168 0.641230 0.000000
0.755642 0.622858 0.000000
0.752621 0.602594 0.000000
0.747707 0.580255 0.000000
0.740871 0.556512 0.063691
0.736355 0.536889 0.141390
0.766812 0.556481 0.188998
0.836332 0.621393 0.208225
0.897185 0.683131 0.233066
0.942840 0.734127 0.270115
0.976440 0.774777 0.316167
1.000000 0.806363 0.366705
1.000000 0.831113 0.418524
1.000000 0.851133 0.470436
1.000000 0.867765 0.521355
1.000000 0.882139 0.571099
1.000000 0.891630 0.608789
1.000000 0.892943 0.622736
1.000000 0.893950 0.637263
1.000000 0.894804 0.652216
0.764462 0.779629 0.000000
0.766995 0.781521 0.000000
0.771115 0.782376 0.000000
0.776211 0.781247 0.000000
0.782589 0.777310 0.000000
0.789670 0.770077 0.000000
0.791135 0.756069 0.000000
0.791592 0.749233 0.000000
0.792233 0.741299 0.000000
0.792996 0.732021 0.000000
0.794003 0.721431 0.000000
0.795010 0.709377 0.000000
0.795407 0.695460 0.000000
0.795102 0.679713 0.000000
0.793820 0.661952 0.000000
0.791318 0.642359 0.000000
0.787167 0.620966 0.000000
0.781308 0.598474 0.060700
0.779904 0.582116 0.147372
0.808804 0.602777 0.204105
0.869993 0.663203 0.232395
0.921965 0.719051 0.265995
0.960510 0.764309 0.309453
0.988495 0.799374 0.359106
1.000000 0.826444 0.410986
1.000000 0.848051 0.463386
1.000000 0.865812 0.515038
1.000000 0.880980 0.565850
1.000000 0.894011 0.614069
1.000000 0.905455 0.658869
1.000000 0.907744 0.675166
1.000000 0.908721 0.688411
0.799039 0.817441 0.000000
0.801358 0.818906 0.000000
0.804715 0.819486 0.000000
0.809293 0.818448 0.000000
0.815030 0.815396 0.000000
0.821561 0.809628 0.000000
0.826108 0.798459 0.000000
0.826383 0.790311 0.000000
0.827207 0.783871 0.000000
0.828061 0.776150 0.000000
0.829191 0.767208 0.000000
0.830259 0.757168 0.000000
0.831235 0.745510 0.000000
0.831724 0.732265 0.000000
0.831571 0.717311 0.000000
0.830930 0.700893 0.000000
0.829496 0.683375 0.000000
0.827207 0.664546 0.000000
0.823972 0.645289 0.088533
0.826658 0.634028 0.162753
0.854215 0.656825 0.230686
0.906157 0.712062 0.271153
0.948577 0.760891 0.314427
0.979461 0.799100 0.365423
1.000000 0.828244 0.419287
1.000000 0.850950 0.473487
1.000000 0.869383 0.526787
1.000000 0.884611 0.578088
1.000000 0.897734 0.626459
1.000000 0.909117 0.671199
1.000000 0.919097 0.711116
1.000000 0.924071 0.734585
0.842435 0.859556 0.000000
0.843473 0.859922 0.000000
0.845243 0.859434 0.000000
0.848081 0.857694 0.000000
0.852415 0.854429 0.000000
0.857664 0.849607 0.000000
0.864347 0.843107 0.000000
0.864836 0.832059 0.000000
0.865446 0.826810 0.000000
0.866423 0.820829 0.000000
0.867582 0.813840 0.000000
0.868864 0.805814 0.000000
0.869902 0.796414 0.000000
0.870817 0.785641 0.000000
0.871366 0.773373 0.000000
0.871458 0.759701 0.000000
0.871031 0.744717 0.000000
0.869932 0.728450 0.000000
0.868162 0.711391 0.000000
0.865354 0.693355 0.121859
0.868650 0.684016 0.189456
0.891417 0.704982 0.265263
0.932586 0.751369 0.312810
0.966003 0.791257 0.359686
0.991028 0.822873 0.412421
1.000000 0.847440 0.466773
1.000000 0.867033 0.520562
1.000000 0.883268 0.573083
1.000000 0.897063 0.622980
1.000000 0.908934 0.668727
1.000000 0.919188 0.709590
1.000000 0.928099 0.745052
0.870512 0.885069 0.000000
0.871275 0.885283 0.000000
0.872953 0.884855 0.000000
0.875731 0.883604 0.000000
0.879637 0.881254 0.000000
0.884764 0.877714 0.000000
0.891234 0.872862 0.000000
0.895476 0.863645 0.000000
0.895933 0.858244 0.000000
0.896788 0.853452 0.000000
0.897887 0.848020 0.000000
0.899046 0.841642 0.000000
0.900145 0.834287 0.000000
0.901274 0.825834 0.000000
0.902159 0.816312 0.000000
0.902922 0.805570 0.000000
0.903502 0.793698 0.000000
0.903593 0.780758 0.000000
0.903319 0.766781 0.000000
0.902342 0.752010 0.074250
0.900725 0.736568 0.165621
0.904845 0.729946 0.226017
0.923339 0.750149 0.309850
0.955077 0.787930 0.362676
0.978882 0.815396 0.403235
0.999390 0.841764 0.456214
1.000000 0.863249 0.511040
1.000000 0.880735 0.564782
1.000000 0.895476 0.616327
1.000000 0.908019 0.663874
1.000000 0.918791 0.706508
1.000000 0.928130 0.743404
0.899931 0.909636 0.000000
0.900938 0.909972 0.000000
0.902403 0.909667 0.000000
0.904601 0.908446 0.000000
0.907774 0.906340 0.000000
0.912200 0.903258 0.000000
0.917662 0.899199 0.000000
0.924407 0.894102 0.000000
0.924804 0.885283 0.000000
0.924865 0.880949 0.000000
0.925048 0.875914 0.000000
0.925505 0.870390 0.000000
0.926055 0.863981 0.000000
0.926482 0.856779 0.000000
0.926848 0.848569 0.000000
0.927123 0.839414 0.000000
0.927398 0.829343 0.000000
0.927703 0.818662 0.000000
0.927977 0.807370 0.000000
0.928099 0.795346 0.000000
0.927611 0.782681 0.147982
0.926360 0.769192 0.205539
0.930327 0.764370 0.262669
0.944121 0.782040 0.350317
0.968902 0.812467 0.404395
0.990265 0.838468 0.452979
1.000000 0.860288 0.505241
1.000000 0.878721 0.559258
1.000000 0.894133 0.611231
1.000000 0.907164 0.659815
1.000000 0.918395 0.703578
1.000000 0.928038 0.741604
0.918303 0.924987 0.000000
0.919219 0.925261 0.000000
0.920653 0.925109 0.000000
0.922911 0.924285 0.000000
0.926299 0.922850 0.000000
0.930846 0.920745 0.000000
0.936675 0.917967 0.000000
0.943969 0.914488 0.000000
0.949462 0.908171 0.000000
0.950103 0.903563 0.000000
0.950652 0.899931 0.000000
0.951446 0.895689 0.000000
0.952117 0.890837 0.000000
0.952575 0.885161 0.000000
0.952911 0.878660 0.000000
0.953155 0.871305 0.000000
0.953338 0.863249 0.000000
0.953552 0.854643 0.000000
0.953826 0.845518 0.000000
0.954162 0.835966 0.048859
0.954131 0.825925 0.162692
0.953765 0.815305 0.216281
0.952667 0.804105 0.259709
0.955993 0.802365 0.321019
0.965026 0.816678 0.406561
0.983673 0.840543 0.462989
1.000000 0.861540 0.511955
1.000000 0.879637 0.563714
1.000000 0.895598 0.616785
1.000000 0.908904 0.665736
1.000000 0.920256 0.709468
1.000000 0.929931 0.747341
0.937316 0.940063 0.000000
0.937774 0.940154 0.000000
0.938933 0.939879 0.000000
0.940978 0.939208 0.000000
0.944060 0.938048 0.000000
0.948333 0.936370 0.000000
0.953948 0.934173 0.000000
0.960784 0.931395 0.000000
0.968811 0.928099 0.000000
0.971466 0.921477 0.000000
0.971862 0.918364 0.000000
0.972473 0.914885 0.000000
0.972992 0.910918 0.000000
0.973449 0.906310 0.000000
0.973724 0.901030 0.000000
0.973999 0.895171 0.000000
0.974212 0.888701 0.000000
0.974426 0.881773 0.000000
0.974792 0.874449 0.000000
0.975158 0.866819 0.130465
0.975433 0.858824 0.192508
0.975341 0.850370 0.238743
0.974731 0.841459 0.277836
0.973419 0.832029 0.314153
0.975128 0.832456 0.380926
0.980255 0.843992 0.463569
0.993957 0.863005 0.519677
1.000000 0.879973 0.567010
1.000000 0.895109 0.615808
1.000000 0.909117 0.666102
1.000000 0.920836 0.710842
1.000000 0.930816 0.749508
0.951476 0.951812 0.000000
0.951934 0.951843 0.000000
0.953033 0.951659 0.000000
0.955016 0.951171 0.000000
0.958160 0.950378 0.000000
0.962615 0.949248 0.000000
0.968597 0.947906 0.000000
0.975921 0.946227 0.000000
0.984680 0.944244 0.000000
0.993317 0.941070 0.000000
0.994995 0.937011 0.000000
0.996307 0.934813 0.000000
0.997498 0.932158 0.000000
0.998474 0.929046 0.000000
0.999268 0.925353 0.000000
0.999695 0.921019 0.000000
1.000000 0.916167 0.049317
1.000000 0.910918 0.150057
1.000000 0.905455 0.199466
1.000000 0.899718 0.240391
1.000000 0.893706 0.277012
1.000000 0.887419 0.310948
1.000000 0.880766 0.342779
0.999298 0.873869 0.373419
0.997284 0.867826 0.411597
0.996124 0.869017 0.476509
0.996368 0.878233 0.555444
1.000000 0.891997 0.608392
1.000000 0.904448 0.649958
1.000000 0.915709 0.690852
1.000000 0.926848 0.733059
1.000000 0.936248 0.768887
0.968536 0.965148 0.212924
0.968719 0.965118 0.212161
0.969604 0.964874 0.208255
0.971344 0.964446 0.200595
0.974151 0.963714 0.187900
0.978119 0.962707 0.168246
0.983337 0.961456 0.139010
0.989868 0.959899 0.080873
0.997650 0.958068 0.000000
1.000000 0.955840 0.000000
1.000000 0.950774 0.000000
1.000000 0.948608 0.000000
1.000000 0.946105 0.000000
1.000000 0.943236 0.000000
