20 Preset/Street 2/【3】LUT video cho PR-AE-FCPX/Tone 1 (27).cube
# Created by Adobe Lightroom plugin Export LUT (1.24.0)
# www.johnrellis.com/lightroom/exportlut.htm
# Preset: 青橙风光-素材江湖27
# Color profile: C:\Program Files (x86)\Common Files\Adobe\Color\Profiles\Recommended\VideoHD.icc
LUT_3D_SIZE 8
DOMAIN_MIN 0.000000 0.000000 0.000000
DOMAIN_MAX 0.903226 0.903226 0.903226
0.017487 0.100740 0.105013
0.077790 0.104463 0.109865
0.165682 0.122133 0.128420
0.294560 0.138247 0.148623
0.509514 0.131319 0.173709
0.791897 0.071809 0.204379
1.000000 0.230106 0.251987
1.000000 0.409339 0.336187
0.022827 0.117586 0.119417
0.067536 0.119417 0.110750
0.132448 0.141054 0.135622
0.254673 0.160708 0.152804
0.453498 0.171969 0.176211
0.736172 0.159396 0.205234
0.992157 0.235630 0.244755
1.000000 0.399908 0.322179
0.055848 0.159670 0.152285
0.078157 0.160311 0.147951
0.147585 0.168124 0.121736
0.190646 0.202457 0.175784
0.367987 0.244053 0.201144
0.682002 0.283299 0.230930
0.976196 0.370764 0.276371
1.000000 0.501946 0.362554
0.113405 0.218662 0.196719
0.118868 0.216739 0.194644
0.164492 0.233524 0.170840
0.283238 0.247593 0.123934
0.417639 0.299809 0.195895
0.579706 0.381720 0.288487
0.890410 0.477638 0.327764
1.000000 0.595178 0.407599
0.179904 0.290105 0.246830
0.183658 0.288457 0.245060
0.210758 0.295079 0.232334
0.306126 0.328710 0.184451
0.478706 0.342626 0.100313
0.654047 0.401556 0.186343
0.775387 0.511498 0.349645
0.986999 0.663600 0.466804
0.276249 0.373816 0.301396
0.286412 0.378027 0.303563
0.300847 0.373968 0.298680
0.384344 0.412299 0.258549
0.520989 0.448829 0.176059
0.731563 0.482246 0.000000
0.919036 0.581903 0.159335
0.990753 0.715297 0.451881
0.448524 0.503685 0.384619
0.454566 0.505150 0.385046
0.465522 0.500175 0.379553
0.519066 0.520592 0.353918
0.639857 0.576013 0.277134
0.790738 0.632074 0.163302
0.957488 0.671748 0.000000
1.000000 0.753780 0.237797
0.735042 0.743740 0.559014
0.737484 0.743221 0.558160
0.750515 0.743771 0.556573
0.781552 0.751278 0.552087
0.827543 0.772915 0.476967
0.922728 0.829343 0.422461
1.000000 0.852567 0.336339
1.000000 0.840909 0.131868
0.011383 0.117281 0.128817
0.046540 0.108492 0.128328
0.150301 0.123995 0.129610
0.244511 0.152926 0.148501
0.436469 0.167239 0.173159
0.711971 0.149874 0.201114
0.970611 0.206577 0.237369
1.000000 0.366247 0.306401
0.013123 0.123140 0.129122
0.030579 0.130556 0.136507
0.125032 0.144503 0.140902
0.224399 0.167758 0.153872
0.410101 0.188968 0.177279
0.684962 0.187869 0.204471
0.940490 0.230289 0.237308
1.000000 0.368383 0.300511
0.053376 0.172488 0.169100
0.071778 0.171206 0.166720
0.144533 0.173770 0.136416
0.187045 0.197330 0.168978
0.336492 0.240757 0.199313
0.618128 0.275853 0.225101
0.903990 0.333593 0.258854
1.000000 0.457771 0.329961
0.112856 0.224796 0.205875
0.118441 0.223301 0.203769
0.158999 0.235569 0.184848
0.261967 0.239017 0.132448
0.363653 0.276158 0.185519
0.497475 0.346899 0.268742
0.810788 0.427222 0.301122
1.000000 0.546899 0.369299
0.181247 0.295537 0.254154
0.184756 0.293217 0.251896
0.205173 0.293217 0.241489
0.293248 0.324132 0.194705
0.441840 0.325170 0.108095
0.611109 0.379614 0.182834
0.736019 0.483375 0.331823
0.966491 0.633326 0.441352
0.270420 0.372107 0.303136
0.274144 0.371557 0.302373
0.289158 0.367956 0.297704
0.364996 0.401434 0.263737
0.502159 0.439979 0.187716
0.710353 0.468757 0.000000
0.901030 0.565362 0.155276
0.980682 0.697139 0.433509
0.429511 0.492073 0.379278
0.429145 0.488838 0.376501
0.439338 0.483650 0.371038
0.489387 0.500664 0.350439
0.617212 0.560967 0.280980
0.767758 0.612726 0.160983
0.937438 0.650050 0.000000
1.000000 0.735531 0.210910
0.710353 0.723354 0.542229
0.717067 0.726802 0.544854
0.729427 0.726284 0.542351
0.759121 0.730404 0.541009
0.840360 0.786465 0.491157
0.925078 0.832303 0.427436
0.999207 0.850217 0.331334
1.000000 0.838773 0.117281
0.000000 0.150423 0.175998
0.000000 0.144076 0.176974
0.109346 0.131106 0.178714
0.204807 0.151186 0.184848
0.495216 0.151949 0.199130
0.697444 0.199557 0.211521
0.959777 0.270634 0.246983
1.000000 0.409308 0.320623
0.000000 0.162081 0.178622
0.000732 0.164218 0.185672
0.112490 0.148043 0.188449
0.231052 0.163943 0.193759
0.464790 0.186404 0.204654
0.669825 0.223789 0.215854
0.931487 0.282628 0.246799
1.000000 0.411872 0.316106
0.022400 0.185367 0.191684
0.043549 0.191897 0.198032
0.121462 0.220829 0.225132
0.243595 0.238529 0.227726
0.406226 0.261875 0.231174
0.622522 0.294377 0.238346
0.892576 0.358618 0.267002
1.000000 0.476631 0.337469
0.112856 0.254490 0.242344
0.125277 0.263554 0.248875
0.169314 0.272953 0.256077
0.294072 0.283726 0.203372
0.388037 0.312840 0.243229
0.522728 0.363867 0.284703
0.812955 0.443732 0.311467
1.000000 0.565301 0.382086
0.212436 0.341283 0.301946
0.216251 0.339544 0.299809
0.234592 0.333684 0.292546
0.318883 0.360357 0.255192
0.490272 0.365179 0.171939
0.629450 0.398016 0.210330
0.745876 0.486915 0.327642
0.966918 0.640101 0.447761
0.301946 0.408331 0.340887
0.306218 0.408087 0.340185
0.320226 0.403571 0.334478
0.371344 0.415351 0.312108
0.515312 0.462074 0.240208
0.715633 0.479805 0.044923
0.896452 0.561181 0.149660
0.982483 0.699123 0.433814
0.458137 0.523400 0.411719
0.458320 0.520500 0.409094
0.465888 0.513115 0.401740
0.491890 0.507134 0.390539
0.618372 0.571405 0.325475
0.771572 0.622339 0.200168
0.942931 0.656367 0.000000
1.000000 0.745480 0.225162
0.713802 0.736782 0.562707
0.714321 0.734493 0.560021
0.725978 0.733394 0.557000
0.759792 0.741238 0.559991
0.830381 0.783017 0.517052
0.924956 0.833738 0.432685
1.000000 0.853391 0.340276
1.000000 0.841276 0.134920
0.000000 0.185824 0.224125
0.000000 0.184024 0.227359
0.007599 0.168368 0.230777
0.162142 0.152987 0.232731
0.201511 0.177005 0.216739
0.653162 0.000000 0.273503
1.000000 0.180606 0.299474
1.000000 0.398444 0.317784
0.000000 0.199130 0.231876
0.000000 0.200687 0.237491
0.011292 0.182895 0.241672
0.171176 0.164706 0.243015
0.219028 0.187839 0.227726
0.697871 0.000000 0.279820
1.000000 0.230564 0.303929
1.000000 0.413977 0.321782
0.000000 0.226810 0.242985
0.007965 0.232090 0.248356
0.095674 0.246281 0.274083
0.202640 0.216098 0.278447
0.359319 0.240299 0.287327
0.831968 0.263371 0.334783
0.985504 0.375097 0.339574
1.000000 0.494942 0.356298
0.090333 0.266270 0.269505
0.103700 0.272313 0.274998
0.162814 0.302342 0.302739
0.312505 0.379004 0.373114
0.502159 0.396277 0.370703
0.696742 0.421180 0.367163
0.890593 0.473213 0.368353
1.000000 0.568170 0.389990
0.208835 0.355871 0.335698
0.220829 0.363104 0.341131
0.278904 0.399145 0.367895
0.376410 0.432227 0.393347
0.565209 0.451423 0.315526
0.669703 0.481331 0.363226
0.777462 0.552239 0.430915
0.974060 0.650935 0.459419
0.353613 0.475227 0.409674
0.376806 0.487221 0.420325
0.418463 0.498512 0.430823
0.444190 0.486610 0.416266
0.566766 0.527367 0.359136
0.767025 0.544366 0.242771
0.907347 0.602228 0.294682
0.984649 0.705226 0.442847
0.508659 0.583124 0.476905
0.512352 0.583124 0.476326
0.524712 0.579675 0.471229
0.550500 0.572503 0.461067
0.629541 0.599725 0.422797
0.791379 0.664881 0.317601
0.954864 0.683803 0.000000
1.000000 0.751980 0.239536
0.733394 0.775113 0.616602
0.735348 0.774411 0.615290
0.745724 0.772793 0.611414
0.769833 0.772274 0.606470
0.813352 0.780911 0.588647
0.915099 0.840513 0.503410
0.999329 0.856840 0.359075
1.000000 0.845457 0.161135
0.000000 0.226383 0.278141
0.000000 0.225895 0.281407
0.000000 0.210361 0.282841
0.102632 0.190555 0.283757
0.215824 0.168154 0.281346
0.254856 0.190097 0.257084
0.624933 0.163119 0.335576
1.000000 0.000000 0.409308
0.000000 0.236698 0.284520
0.000000 0.238224 0.289586
0.000000 0.224186 0.292485
0.106142 0.200107 0.291814
0.224796 0.176120 0.289433
0.263554 0.197726 0.263279
0.660609 0.166049 0.346410
1.000000 0.198276 0.422217
0.000000 0.266758 0.297734
0.000000 0.268498 0.301884
0.033570 0.273930 0.320500
0.122835 0.242100 0.324102
0.261631 0.212558 0.322026
0.297795 0.231510 0.287755
0.798642 0.202152 0.387518
1.000000 0.427924 0.474586
0.061036 0.302251 0.317052
0.088808 0.306889 0.321660
0.143832 0.329229 0.343664
0.241306 0.367712 0.397986
0.372290 0.316503 0.403601
0.532525 0.340429 0.397650
1.000000 0.455421 0.497444
1.000000 0.567315 0.499489
0.165225 0.355261 0.352056
0.177920 0.361364 0.357641
0.233097 0.388861 0.382361
0.362097 0.454078 0.440772
0.593744 0.579339 0.551934
0.755459 0.590295 0.539574
0.911192 0.619562 0.529747
1.000000 0.675746 0.534142
0.308232 0.438972 0.413489
0.319493 0.445624 0.418891
0.363928 0.471504 0.438666
0.463630 0.531823 0.483955
0.583520 0.582116 0.521782
0.787808 0.624506 0.443336
0.887388 0.669154 0.500755
0.945098 0.757229 0.609888
0.464912 0.582879 0.497230
0.470863 0.586206 0.498970
0.502464 0.605921 0.510704
0.606012 0.654108 0.557183
0.640558 0.639796 0.536736
0.777676 0.698024 0.464424
0.951385 0.717769 0.320653
1.000000 0.768276 0.411322
0.700191 0.781186 0.642542
0.707790 0.783719 0.646326
0.727993 0.788083 0.651911
0.758419 0.794308 0.654078
0.793881 0.792111 0.644190
0.873686 0.827634 0.599695
0.977874 0.862974 0.479500
1.000000 0.842985 0.225040
0.000000 0.282780 0.353857
0.000000 0.282963 0.357092
0.000000 0.266758 0.354070
0.000000 0.236149 0.349981
0.169558 0.209934 0.343084
0.276829 0.178256 0.331029
0.318059 0.198123 0.301549
0.587304 0.206302 0.365362
0.000000 0.285405 0.351537
0.000000 0.285100 0.353918
0.000000 0.272953 0.354742
0.000000 0.241001 0.351446
0.169589 0.214572 0.344335
0.279454 0.182956 0.333410
0.320867 0.202640 0.303502
0.602441 0.208255 0.370092
0.000000 0.313329 0.365148
0.000000 0.313603 0.367681
0.000000 0.314702 0.380591
0.021790 0.280156 0.378271
0.187594 0.244572 0.370916
0.314946 0.207736 0.360632
0.357244 0.227024 0.325048
0.726894 0.226078 0.416571
0.092439 0.359411 0.384894
0.105287 0.361578 0.387152
0.138857 0.369451 0.401892
0.208164 0.383246 0.438819
0.251743 0.327550 0.439429
0.415198 0.275303 0.429297
0.447913 0.288579 0.375769
0.962066 0.343114 0.521904
0.161929 0.392370 0.401984
0.171633 0.395850 0.405402
0.214176 0.412634 0.421332
0.303990 0.453193 0.459510
0.446296 0.511223 0.534783
0.580072 0.433906 0.536187
0.713802 0.447700 0.509606
1.000000 0.667628 0.666560
0.259770 0.448280 0.435737
0.272404 0.455238 0.441810
0.315038 0.474983 0.459236
0.408087 0.520867 0.499763
0.572900 0.612665 0.581018
0.813413 0.786465 0.741787
0.919615 0.797818 0.731594
0.999115 0.818235 0.727749
0.431220 0.555169 0.512993
0.442542 0.561761 0.518608
0.481575 0.582330 0.536767
0.556664 0.629023 0.574731
0.674067 0.712734 0.639979
0.790799 0.772549 0.691127
0.944762 0.803891 0.598413
0.990295 0.837980 0.679530
0.635584 0.751766 0.646571
0.637964 0.752773 0.646723
0.656916 0.764218 0.654231
0.703212 0.793637 0.676295
0.795590 0.835233 0.728817
0.839414 0.832670 0.717189
0.942809 0.877745 0.649775
1.000000 0.864256 0.477974
0.000000 0.379400 0.476631
0.000000 0.379858 0.480232
0.000000 0.361761 0.475685
0.000000 0.322759 0.467567
0.138155 0.277195 0.450202
0.264622 0.228489 0.423682
0.360815 0.179721 0.392279
0.398901 0.197086 0.353887
0.000000 0.374365 0.465553
0.000000 0.375525 0.469764
0.000000 0.360906 0.468177
0.000000 0.322240 0.458839
0.130709 0.276493 0.442267
0.256107 0.229160 0.416266
0.351965 0.182528 0.386236
0.388464 0.199313 0.347997
0.000000 0.399512 0.475624
0.000000 0.398169 0.476722
0.049226 0.390539 0.479835
0.044709 0.355016 0.473732
0.139345 0.298772 0.457008
0.269749 0.248875 0.432898
0.381964 0.197330 0.406836
0.428351 0.215335 0.369268
0.147036 0.442451 0.489235
0.148867 0.439796 0.488472
0.163790 0.434302 0.491768
0.206638 0.427100 0.506828
0.187778 0.359930 0.496864
0.310369 0.298344 0.475898
0.447822 0.233219 0.449897
0.495064 0.250889 0.403204
0.213291 0.470771 0.490608
0.215885 0.469642 0.489601
0.238743 0.473335 0.493935
0.280949 0.483375 0.510460
0.345251 0.485847 0.546380
0.371435 0.394385 0.534691
0.544518 0.310185 0.511284
0.589960 0.320348 0.449866
0.272099 0.505180 0.504997
0.278111 0.507561 0.507164
0.303746 0.516167 0.515496
0.357580 0.536492 0.535058
0.453407 0.577234 0.574487
0.605951 0.643091 0.663874
0.746670 0.531212 0.657588
0.872496 0.543786 0.615381
0.370703 0.567620 0.540581
0.378485 0.571679 0.544152
0.404395 0.582361 0.553643
0.462165 0.609064 0.577325
0.564904 0.662013 0.624994
0.738827 0.767514 0.723445
0.918608 0.905730 0.870390
0.972198 0.907591 0.861051
0.560357 0.705348 0.642176
0.567437 0.709071 0.645563
0.599847 0.727260 0.662593
0.654597 0.755673 0.689937
0.733700 0.799222 0.732570
0.826413 0.858000 0.788113
0.903899 0.894499 0.830045
1.000000 0.909972 0.766873
0.355230 0.597253 0.715023
0.359197 0.596368 0.717159
0.339971 0.571496 0.708431
0.311040 0.525475 0.700252
0.277226 0.440009 0.683162
0.392950 0.365240 0.648737
0.511254 0.260746 0.602991
0.587213 0.148104 0.539788
0.338750 0.587518 0.701259
0.343297 0.587182 0.703914
0.334386 0.567956 0.699672
0.302678 0.521508 0.690028
0.262516 0.436164 0.673213
0.379797 0.362951 0.639307
0.494575 0.260624 0.591455
0.569574 0.154452 0.528374
0.348211 0.598108 0.695247
0.349859 0.595819 0.695796
0.348333 0.580774 0.693141
0.337377 0.548150 0.694270
0.288853 0.462440 0.674647
0.371466 0.376623 0.638788
0.491707 0.274418 0.593072
0.575525 0.166629 0.532006
0.377569 0.624903 0.691554
0.380407 0.624353 0.693233
0.379736 0.613031 0.692531
0.390051 0.593072 0.697047
0.350164 0.520592 0.684901
0.375799 0.417212 0.656458
0.505974 0.309483 0.612757
0.607691 0.190219 0.552544
0.428199 0.662043 0.686915
0.430488 0.662806 0.689265
0.425147 0.653742 0.688380
0.427802 0.639368 0.692287
0.439246 0.606012 0.697597
0.378149 0.483711 0.677119
0.513817 0.368231 0.636744
0.650965 0.234470 0.580987
0.456825 0.685573 0.689631
0.454963 0.682826 0.687373
0.455818 0.677058 0.683375
0.471321 0.675776 0.684749
0.502983 0.678492 0.696132
0.545525 0.658015 0.727291
0.569360 0.506889 0.710994
0.759365 0.340185 0.659144
0.524437 0.737789 0.717525
0.525170 0.737087 0.717037
0.530358 0.735622 0.716304
0.549706 0.738827 0.720577
0.586633 0.746944 0.730556
0.654597 0.767636 0.753872
0.759213 0.793393 0.807614
0.885771 0.612818 0.781399
0.631312 0.809201 0.762997
0.631952 0.808774 0.762631
0.640162 0.810208 0.764126
0.663325 0.816800 0.770901
0.700984 0.826871 0.781430
0.763455 0.845548 0.801450
0.864500 0.888701 0.850034
0.969665 0.964172 0.947173
