20 Preset/Street 2/【3】LUT video cho PR-AE-FCPX/Tone 1 (12).cube
# Created by Adobe Lightroom plugin Export LUT (1.24.0)
# www.johnrellis.com/lightroom/exportlut.htm
# Preset: 青橙风光-素材江湖12
# Color profile: C:\Program Files (x86)\Common Files\Adobe\Color\Profiles\Recommended\VideoHD.icc
LUT_3D_SIZE 8
DOMAIN_MIN 0.000000 0.000000 0.000000
DOMAIN_MAX 0.903226 0.903226 0.903226
0.129488 0.176455 0.174044
0.161654 0.175784 0.175357
0.272251 0.173892 0.180484
0.432685 0.165713 0.181704
0.642329 0.133120 0.176669
0.870268 0.000000 0.164187
1.000000 0.000000 0.160128
1.000000 0.000000 0.200992
0.134554 0.195285 0.174228
0.166201 0.192203 0.174411
0.264286 0.192599 0.176822
0.408667 0.191684 0.177798
0.605463 0.179263 0.173037
0.835477 0.130922 0.159945
1.000000 0.000000 0.150271
1.000000 0.000000 0.182040
0.187411 0.259617 0.170535
0.206638 0.259709 0.169894
0.274296 0.252903 0.170596
0.436408 0.267918 0.158877
0.627375 0.271519 0.148745
0.885313 0.264561 0.120546
1.000000 0.241672 0.114137
1.000000 0.229862 0.176944
0.281376 0.361975 0.150729
0.294499 0.360540 0.149905
0.350042 0.361364 0.144320
0.481971 0.370123 0.131838
0.746517 0.412421 0.000000
0.960174 0.410529 0.000000
1.000000 0.390082 0.000000
1.000000 0.367987 0.129000
0.426490 0.500420 0.000000
0.438025 0.500008 0.000000
0.491646 0.504173 0.000000
0.580011 0.504326 0.000000
0.735409 0.503593 0.000000
0.938201 0.518303 0.000000
1.000000 0.505150 0.000000
1.000000 0.483803 0.000000
0.605646 0.656916 0.000000
0.630518 0.669856 0.000000
0.673518 0.671290 0.000000
0.753994 0.675227 0.000000
0.823667 0.645716 0.000000
0.967498 0.635004 0.000000
1.000000 0.629908 0.000000
1.000000 0.604242 0.000000
0.787106 0.828946 0.000000
0.797360 0.831662 0.000000
0.825925 0.829313 0.000000
0.882658 0.828397 0.000000
0.959503 0.824369 0.000000
1.000000 0.769192 0.000000
1.000000 0.738064 0.000000
1.000000 0.713252 0.000000
0.897673 0.975891 0.000000
0.902770 0.975463 0.000000
0.925322 0.975280 0.000000
0.968688 0.976135 0.000000
1.000000 0.954376 0.000000
1.000000 0.946715 0.000000
1.000000 0.881224 0.155215
1.000000 0.835477 0.360021
0.128450 0.185641 0.196658
0.149477 0.182010 0.197147
0.239414 0.183108 0.202579
0.391058 0.183017 0.195254
0.587884 0.169070 0.186282
0.812802 0.124239 0.169039
1.000000 0.000000 0.150484
1.000000 0.000000 0.173190
0.120119 0.199374 0.195071
0.151247 0.202029 0.199039
0.249729 0.202152 0.196628
0.391180 0.202090 0.191928
0.582269 0.194858 0.182742
0.807736 0.166415 0.164492
1.000000 0.108522 0.144503
1.000000 0.000000 0.162600
0.175998 0.264683 0.193545
0.198367 0.265019 0.192172
0.267674 0.257267 0.190066
0.419440 0.266972 0.177951
0.597589 0.269444 0.165560
0.829435 0.265049 0.139467
1.000000 0.246738 0.110140
1.000000 0.220462 0.146242
0.262974 0.356909 0.174136
0.277867 0.356512 0.173037
0.338201 0.359228 0.167575
0.445167 0.353674 0.162600
0.657923 0.378698 0.117342
0.866514 0.381689 0.000000
1.000000 0.371588 0.000000
1.000000 0.351385 0.068482
0.409644 0.495583 0.101472
0.419715 0.493416 0.100954
0.469154 0.493324 0.087190
0.548577 0.487739 0.048585
0.682795 0.477790 0.000000
0.886778 0.495338 0.000000
1.000000 0.491371 0.000000
1.000000 0.472663 0.000000
0.574243 0.637415 0.000000
0.585534 0.638544 0.000000
0.629633 0.641535 0.000000
0.714137 0.649287 0.000000
0.791928 0.626978 0.000000
0.944335 0.622034 0.000000
1.000000 0.620691 0.000000
1.000000 0.595911 0.000000
0.759213 0.805875 0.000000
0.763424 0.802274 0.000000
0.792294 0.799466 0.000000
0.853483 0.801602 0.000000
0.938293 0.805112 0.000000
0.990387 0.753597 0.000000
1.000000 0.722988 0.000000
1.000000 0.699092 0.000000
0.884092 0.961913 0.000000
0.891417 0.963989 0.000000
0.913939 0.963378 0.000000
0.958648 0.964904 0.000000
1.000000 0.964141 0.000000
1.000000 0.950439 0.000000
1.000000 0.879728 0.135164
1.000000 0.834287 0.346960
0.090639 0.223331 0.262028
0.107393 0.222660 0.266575
0.220401 0.209842 0.274968
0.317327 0.220523 0.305303
0.576349 0.159823 0.315343
0.863127 0.000000 0.273655
1.000000 0.000000 0.264408
1.000000 0.000000 0.266575
0.092287 0.238102 0.262852
0.119875 0.239322 0.267552
0.225162 0.228031 0.279057
0.337652 0.232242 0.306676
0.590021 0.174563 0.295415
0.848539 0.082094 0.267643
1.000000 0.000000 0.253727
1.000000 0.000000 0.253605
0.084260 0.287510 0.276890
0.127871 0.291875 0.281743
0.252689 0.307164 0.301732
0.432685 0.293950 0.286748
0.645350 0.274846 0.268864
0.870207 0.247044 0.250858
1.000000 0.221530 0.237278
1.000000 0.221744 0.239536
0.196078 0.404852 0.270939
0.232700 0.407019 0.269993
0.342504 0.410376 0.261875
0.483986 0.397528 0.257908
0.705562 0.398932 0.230503
0.900664 0.384863 0.209659
1.000000 0.368353 0.197696
1.000000 0.357946 0.205631
0.382330 0.530480 0.216159
0.400153 0.529259 0.213046
0.469093 0.530999 0.205814
0.590906 0.538781 0.191470
0.720485 0.508965 0.188663
0.909056 0.506737 0.139040
1.000000 0.491707 0.073152
1.000000 0.477424 0.115969
0.549157 0.654078 0.088808
0.562982 0.656092 0.079225
0.612055 0.657679 0.027771
0.701686 0.661555 0.000000
0.795193 0.644129 0.000000
0.937499 0.625727 0.000000
1.000000 0.621424 0.000000
1.000000 0.600732 0.000000
0.740536 0.819913 0.000000
0.746273 0.817075 0.000000
0.776120 0.811704 0.000000
0.838834 0.809903 0.000000
0.928038 0.810391 0.000000
0.992004 0.765072 0.000000
1.000000 0.732204 0.000000
1.000000 0.710109 0.000000
0.878416 0.964080 0.000000
0.882780 0.962524 0.000000
0.905486 0.961608 0.000000
0.953124 0.965972 0.000000
1.000000 0.964965 0.000000
1.000000 0.957397 0.000000
1.000000 0.887999 0.162936
1.000000 0.838437 0.363134
0.000000 0.278538 0.347692
0.000000 0.279332 0.355901
0.118349 0.259892 0.377356
0.334234 0.243778 0.386847
0.448859 0.248417 0.408911
0.712398 0.206332 0.481147
0.990600 0.000000 0.470680
1.000000 0.000000 0.416510
0.000000 0.296483 0.357488
0.000000 0.296483 0.362982
0.139681 0.284245 0.386511
0.345983 0.260838 0.396490
0.467384 0.265660 0.421180
0.734218 0.219577 0.481666
0.997833 0.000000 0.459571
1.000000 0.180758 0.421180
0.000000 0.334813 0.370855
0.000000 0.337316 0.375128
0.177279 0.346044 0.393347
0.375586 0.325933 0.416999
0.530053 0.339208 0.461494
0.838163 0.289616 0.476265
1.000000 0.282139 0.439673
1.000000 0.308873 0.431556
0.000000 0.435492 0.410254
0.000000 0.439185 0.414405
0.232547 0.459785 0.437293
0.497230 0.504662 0.491737
0.715084 0.463172 0.455634
0.897002 0.423987 0.423438
1.000000 0.396338 0.401343
1.000000 0.390784 0.396033
0.000000 0.602899 0.391608
0.147372 0.605310 0.390723
0.412329 0.614313 0.427588
0.594049 0.613642 0.412360
0.761501 0.580072 0.407996
0.932006 0.546441 0.377325
1.000000 0.517327 0.357794
1.000000 0.500877 0.358099
0.491005 0.716335 0.353277
0.517540 0.724086 0.355993
0.580713 0.717647 0.341039
0.695033 0.716670 0.328191
0.833341 0.713985 0.319829
0.946136 0.661036 0.328344
1.000000 0.640742 0.312596
1.000000 0.614191 0.301366
0.679194 0.839384 0.252750
0.691066 0.839963 0.250156
0.735195 0.839048 0.236698
0.813077 0.839750 0.228153
0.914641 0.838590 0.208560
0.997925 0.802090 0.218784
1.000000 0.751888 0.263493
1.000000 0.726009 0.279210
0.845518 0.978820 0.271366
0.851377 0.978241 0.268772
0.876738 0.976776 0.261143
0.925841 0.975586 0.252659
0.993378 0.972778 0.231540
1.000000 0.969848 0.197452
1.000000 0.902678 0.236240
1.000000 0.846067 0.390112
0.000000 0.360510 0.467872
0.000000 0.361212 0.474678
0.000000 0.351812 0.491646
0.241886 0.313603 0.511742
0.498116 0.284092 0.528252
0.624475 0.280888 0.539574
0.818967 0.297124 0.625360
1.000000 0.300694 0.656123
0.000000 0.375372 0.475166
0.000000 0.376287 0.482216
0.000000 0.367742 0.498909
0.246036 0.327459 0.517418
0.506950 0.298344 0.534508
0.637263 0.296330 0.547753
0.832761 0.308965 0.628290
1.000000 0.317082 0.652338
0.000000 0.409888 0.487861
0.000000 0.410712 0.490639
0.000000 0.412787 0.505150
0.263401 0.384161 0.539940
0.529381 0.353704 0.547753
0.663355 0.355108 0.563378
0.874205 0.354742 0.626886
1.000000 0.365270 0.627771
0.000000 0.476326 0.513909
0.000000 0.477852 0.516625
0.000000 0.487709 0.532006
0.364263 0.508080 0.565972
0.610925 0.485695 0.597375
0.746609 0.490211 0.620081
0.965820 0.477028 0.626825
1.000000 0.490974 0.601343
0.000000 0.596796 0.554437
0.000000 0.600855 0.558892
0.214176 0.615167 0.575708
0.486763 0.644862 0.613367
0.746242 0.693843 0.677546
0.885039 0.642573 0.629267
1.000000 0.598413 0.588495
1.000000 0.575921 0.566552
0.216861 0.720150 0.521874
0.258671 0.722591 0.523888
0.376959 0.727596 0.528466
0.593591 0.740475 0.569970
0.752926 0.735225 0.549554
0.906462 0.711910 0.560357
1.000000 0.683742 0.537377
1.000000 0.661616 0.526970
0.580285 0.854612 0.528099
0.586358 0.852079 0.521447
0.622187 0.846616 0.500572
0.711940 0.844968 0.476570
0.838712 0.844144 0.460731
0.966735 0.836149 0.456886
1.000000 0.774563 0.472877
1.000000 0.744472 0.461830
0.753536 0.971221 0.478553
0.759915 0.970520 0.474464
0.788754 0.968566 0.459602
0.855650 0.972930 0.454536
0.935546 0.971466 0.447456
1.000000 0.969116 0.436469
1.000000 0.924529 0.438148
1.000000 0.863951 0.494026
0.000000 0.494697 0.651453
0.000000 0.493965 0.655482
0.000000 0.482551 0.663966
0.129335 0.458991 0.690639
0.446235 0.403479 0.696437
0.700984 0.349218 0.697200
0.831479 0.336858 0.700252
0.991913 0.424414 0.781399
0.000000 0.490455 0.635615
0.000000 0.488594 0.637995
0.000000 0.478981 0.647639
0.114656 0.453712 0.668696
0.429847 0.400641 0.677882
0.685359 0.351751 0.682948
0.817319 0.342443 0.688899
0.982147 0.421363 0.771786
0.000000 0.534356 0.661860
0.000000 0.532738 0.661555
0.000000 0.525902 0.666590
0.191623 0.496986 0.674281
0.445411 0.445441 0.686854
0.702144 0.402380 0.692439
0.834775 0.403235 0.701381
0.990448 0.479713 0.782345
0.000000 0.583703 0.676387
0.000000 0.581292 0.674769
0.000000 0.580224 0.678126
0.313542 0.585809 0.697932
0.523308 0.556420 0.726101
0.759640 0.521263 0.729335
0.886992 0.533257 0.744717
1.000000 0.591699 0.808286
0.000000 0.637110 0.671382
0.000000 0.637110 0.672206
0.000000 0.639399 0.678187
0.379339 0.648585 0.693965
0.605432 0.667079 0.720485
0.799588 0.650874 0.744961
0.904204 0.653407 0.763851
1.000000 0.671138 0.779721
0.000000 0.741970 0.690455
0.000000 0.746914 0.696223
0.291447 0.750576 0.703151
0.493141 0.760250 0.719966
0.699092 0.780209 0.752407
0.893431 0.834287 0.821683
0.989654 0.797879 0.783261
1.000000 0.775601 0.758846
0.469154 0.869993 0.690852
0.490608 0.872282 0.694423
0.547662 0.873564 0.698177
0.644160 0.876860 0.706966
0.787625 0.881956 0.738705
0.905272 0.876677 0.718257
1.000000 0.846586 0.720180
1.000000 0.825284 0.704494
0.702785 0.977844 0.709712
0.710109 0.976196 0.709804
0.752316 0.973266 0.720607
0.799344 0.973999 0.712184
0.858366 0.973846 0.671473
0.957916 0.972808 0.653010
1.000000 0.964080 0.653956
1.000000 0.905638 0.676509
0.000000 0.636927 0.823758
0.000000 0.637140 0.826505
0.000000 0.628046 0.828367
0.310460 0.612055 0.835325
0.449409 0.562097 0.842100
0.657496 0.527306 0.841550
0.859648 0.474495 0.840635
0.973693 0.459083 0.839322
0.000000 0.632776 0.813321
0.000000 0.633600 0.816800
0.000000 0.624872 0.819120
0.284916 0.606348 0.824155
0.437110 0.558282 0.831296
0.642695 0.518944 0.829648
0.846311 0.463722 0.827207
0.960540 0.446479 0.825132
0.000000 0.658015 0.818448
0.000000 0.657374 0.818448
0.024720 0.648524 0.818814
0.325200 0.631556 0.823117
0.480659 0.595514 0.829648
0.652674 0.549981 0.830625
0.857115 0.505882 0.833677
0.972198 0.501823 0.838071
0.000000 0.693874 0.827054
0.000000 0.690852 0.824613
0.226902 0.686336 0.822324
0.390784 0.679896 0.824918
0.543420 0.658442 0.833066
0.684138 0.616175 0.839872
0.875547 0.580072 0.843992
0.980255 0.581476 0.848814
0.000000 0.728817 0.820981
0.096010 0.726253 0.818997
0.253727 0.722255 0.817380
0.407385 0.719478 0.819394
0.568933 0.716152 0.823453
0.709529 0.687434 0.838437
0.885039 0.657862 0.842618
0.987671 0.677577 0.861082
0.207767 0.789334 0.822538
0.241611 0.789425 0.823178
0.338994 0.788571 0.824765
0.470039 0.787625 0.828397
0.618158 0.787411 0.834226
0.780911 0.798611 0.849271
0.919799 0.786099 0.866972
0.999634 0.800290 0.891447
0.358862 0.884520 0.837156
0.381903 0.885344 0.838621
0.451118 0.884520 0.840238
0.562829 0.884031 0.844938
0.696345 0.883848 0.853086
0.840024 0.892149 0.873075
0.965515 0.931884 0.925444
1.000000 0.904692 0.893675
0.667445 0.976074 0.838987
0.674220 0.976410 0.839750
0.704616 0.978454 0.844602
0.750912 0.980011 0.849119
0.811490 0.981933 0.853880
0.894499 0.984497 0.868956
0.984680 0.984497 0.853605
1.000000 0.957794 0.860929
0.651484 0.820706 0.967285
0.657984 0.821103 0.968200
0.667933 0.814847 0.967163
0.702419 0.809049 0.969329
0.751644 0.798428 0.971954
0.793423 0.767971 0.974609
0.881224 0.749538 0.976379
0.986389 0.718898 0.977325
0.637659 0.816251 0.962646
0.644953 0.816892 0.963714
0.659358 0.812375 0.963806
0.693019 0.805570 0.965484
0.743954 0.794797 0.968231
0.787045 0.764065 0.971099
0.875334 0.743313 0.971984
0.982788 0.710506 0.972351
0.640894 0.824491 0.960266
0.645563 0.823972 0.960632
0.658503 0.818936 0.960296
0.700618 0.816678 0.964782
0.746975 0.804318 0.966400
0.787472 0.772244 0.968566
0.875334 0.752712 0.969970
0.982788 0.721828 0.971099
0.643366 0.837003 0.960296
0.650080 0.837736 0.960815
0.667933 0.836637 0.960082
0.705440 0.834287 0.961791
0.754513 0.824643 0.964813
0.803616 0.800992 0.968994
0.882078 0.780240 0.971588
0.986297 0.753231 0.973816
0.641108 0.856260 0.960723
0.647852 0.857023 0.961425
0.661769 0.854765 0.960632
0.700954 0.854368 0.960845
0.754788 0.850767 0.960967
0.818784 0.837583 0.965454
0.885008 0.811795 0.970794
0.989502 0.791592 0.975799
0.647669 0.887968 0.962310
0.648493 0.886595 0.961425
0.659297 0.883116 0.959686
0.691615 0.880369 0.959594
0.747005 0.879667 0.962127
0.829160 0.884520 0.968292
0.901732 0.870481 0.980865
0.997742 0.856901 0.987274
0.677028 0.939910 0.971618
0.679957 0.939452 0.971405
0.693874 0.937774 0.970947
0.726558 0.936370 0.971862
0.776120 0.934874 0.973816
0.841611 0.934905 0.978149
0.918883 0.937957 0.984192
0.999176 0.919921 0.990326
0.698512 1.000000 0.980255
0.701198 1.000000 0.980011
0.716274 1.000000 0.980163
0.749233 1.000000 0.981720
0.796231 1.000000 0.983429
0.856687 0.999145 0.985595
0.930205 0.997284 0.990234
1.000000 1.000000 1.000000
