20 Preset/Street 2/【3】LUT video cho PR-AE-FCPX/Tone 1 (12).cube
# Created by Adobe Lightroom plugin Export LUT (1.24.0)
# www.johnrellis.com/lightroom/exportlut.htm
# Preset: 青橙风光-素材江湖12
# Color profile: C:\Program Files (x86)\Common Files\Adobe\Color\Profiles\Recommended\VideoHD.icc
LUT_3D_SIZE 5
DOMAIN_MIN 0.000000 0.000000 0.000000
DOMAIN_MAX 0.903226 0.903226 0.903226
0.129488 0.176455 0.174044
0.241215 0.174228 0.179324
0.533196 0.154025 0.180117
0.941772 0.000000 0.159976
1.000000 0.000000 0.200992
0.171176 0.242069 0.172335
0.244358 0.235447 0.172946
0.524865 0.248844 0.161837
0.949462 0.223362 0.127504
1.000000 0.194949 0.188022
0.349065 0.429541 0.121584
0.395514 0.427527 0.114931
0.620691 0.443580 0.015839
0.991272 0.462654 0.000000
1.000000 0.425360 0.021485
0.671901 0.715846 0.000000
0.709255 0.717342 0.000000
0.845701 0.721706 0.000000
1.000000 0.664271 0.000000
1.000000 0.632227 0.000000
0.897673 0.975891 0.000000
0.917662 0.975189 0.000000
0.980682 0.954162 0.000000
1.000000 0.932921 0.000000
1.000000 0.835477 0.360021
0.109987 0.211063 0.241733
0.197818 0.201816 0.250919
0.464942 0.180819 0.278172
0.892821 0.000000 0.233341
1.000000 0.000000 0.222538
0.107637 0.259831 0.251377
0.217166 0.272831 0.268315
0.514122 0.254368 0.246036
0.899290 0.209628 0.215640
1.000000 0.185763 0.207340
0.309117 0.449256 0.212222
0.375647 0.448127 0.205325
0.579309 0.433448 0.192630
0.937072 0.438605 0.106935
1.000000 0.424201 0.124269
0.640162 0.719722 0.000000
0.683314 0.722774 0.000000
0.832059 0.726833 0.000000
1.000000 0.663294 0.000000
1.000000 0.633204 0.000000
0.890593 0.974884 0.000000
0.910246 0.973449 0.000000
0.988769 0.971954 0.000000
1.000000 0.946563 0.000000
1.000000 0.841978 0.393286
0.000000 0.315831 0.403357
0.000000 0.310338 0.423957
0.406867 0.262211 0.451240
0.680446 0.269413 0.536492
1.000000 0.190402 0.550713
0.000000 0.358007 0.422400
0.000000 0.359380 0.434668
0.440742 0.319188 0.475715
0.749996 0.312474 0.549004
1.000000 0.297215 0.529686
0.000000 0.513695 0.479866
0.132692 0.528923 0.496681
0.631067 0.603510 0.587793
0.927825 0.521935 0.515770
1.000000 0.484840 0.482551
0.489357 0.767971 0.464607
0.539178 0.758236 0.447150
0.746914 0.754177 0.417700
0.971405 0.700923 0.422919
1.000000 0.646235 0.383368
0.796597 0.970001 0.358190
0.825284 0.970397 0.349706
0.925872 0.969390 0.337194
1.000000 0.963714 0.303563
1.000000 0.848783 0.404028
0.000000 0.516228 0.680049
0.000000 0.511192 0.691737
0.238590 0.442603 0.718685
0.729976 0.363195 0.722438
0.971160 0.406653 0.777829
0.000000 0.540520 0.680842
0.000000 0.533196 0.684901
0.291691 0.482338 0.710201
0.724056 0.394873 0.713527
0.968322 0.443427 0.775631
0.000000 0.605524 0.683192
0.000000 0.603021 0.684138
0.404944 0.605585 0.703243
0.766903 0.552392 0.730861
0.990204 0.608179 0.806271
0.000000 0.784909 0.733120
0.272923 0.783444 0.734279
0.595880 0.796109 0.760098
0.915190 0.860258 0.848966
1.000000 0.803647 0.787503
0.667506 0.980407 0.730800
0.691249 0.980560 0.731411
0.832059 0.978851 0.769406
0.968200 0.978759 0.715755
1.000000 0.918364 0.723995
0.651484 0.820706 0.967285
0.663478 0.816464 0.967193
0.725704 0.804654 0.970733
0.813748 0.764096 0.975036
0.986389 0.718898 0.977325
0.643244 0.823148 0.961913
0.657435 0.819821 0.962402
0.719509 0.807279 0.965667
0.808835 0.766567 0.970336
0.984466 0.723140 0.973724
0.643427 0.846189 0.961181
0.656550 0.843748 0.959533
0.722560 0.838285 0.958862
0.812375 0.800351 0.964935
0.986938 0.768399 0.973449
0.666224 0.903563 0.967742
0.675807 0.900908 0.966400
0.733120 0.896361 0.966522
0.850889 0.896147 0.971618
0.998749 0.872587 0.988952
0.698512 1.000000 0.980255
0.710933 1.000000 0.980011
0.771237 1.000000 0.982635
0.874052 0.998535 0.986419
1.000000 1.000000 1.000000
