20 Preset/Street 2/【3】LUT video cho PR-AE-FCPX/Tone 1 (8).cube
# Created by Adobe Lightroom plugin Export LUT (1.24.0)
# www.johnrellis.com/lightroom/exportlut.htm
# Preset: 青橙风光-素材江湖08
# Color profile: C:\Program Files (x86)\Common Files\Adobe\Color\Profiles\Recommended\VideoHD.icc
LUT_3D_SIZE 32
DOMAIN_MIN 0.0 0.0 0.0
DOMAIN_MAX 1.0 1.0 1.0
0.056580 0.096407 0.101076
0.058564 0.096345 0.101076
0.072389 0.097292 0.102296
0.091493 0.098726 0.104433
0.104280 0.102266 0.108156
0.119936 0.106020 0.112856
0.136599 0.108827 0.116060
0.152987 0.111116 0.119173
0.169955 0.113130 0.121859
0.187472 0.114809 0.124392
0.205936 0.115999 0.127047
0.226261 0.116976 0.129763
0.248203 0.117281 0.132296
0.272709 0.116640 0.135073
0.299748 0.114931 0.137575
0.330571 0.111940 0.140200
0.365789 0.105592 0.142702
0.407080 0.093538 0.145571
0.454200 0.053285 0.148043
0.509575 0.000000 0.150668
0.599542 0.000000 0.154513
0.702388 0.000000 0.158450
0.800687 0.000000 0.161990
0.892515 0.000000 0.165988
0.973602 0.000000 0.171542
1.000000 0.000000 0.179995
1.000000 0.000000 0.193973
1.000000 0.000000 0.216312
1.000000 0.212619 0.251225
1.000000 0.327916 0.303593
1.000000 0.434272 0.378912
1.000000 0.546044 0.480720
0.058259 0.096345 0.101442
0.058259 0.096345 0.101442
0.071687 0.097719 0.102266
0.091218 0.099153 0.104402
0.103975 0.102663 0.108461
0.118746 0.106508 0.112795
0.135195 0.109377 0.116030
0.151583 0.111360 0.118898
0.168124 0.113497 0.121584
0.185428 0.114961 0.124147
0.203677 0.116274 0.126833
0.223514 0.117189 0.129610
0.244877 0.117769 0.132143
0.268833 0.117494 0.134676
0.295415 0.115877 0.137270
0.325689 0.112917 0.139742
0.360113 0.107485 0.142489
0.400092 0.096742 0.145022
0.446113 0.066163 0.147585
0.499306 0.000000 0.150240
0.583703 0.000000 0.153841
0.677790 0.000000 0.157595
0.769741 0.000000 0.160830
0.857816 0.000000 0.164279
0.938445 0.000000 0.168856
1.000000 0.000000 0.175204
1.000000 0.000000 0.186038
1.000000 0.000000 0.203983
1.000000 0.142885 0.233524
1.000000 0.281651 0.279301
1.000000 0.393500 0.347478
1.000000 0.506126 0.442695
0.061769 0.099886 0.104891
0.061769 0.099886 0.104891
0.069490 0.100374 0.103365
0.088716 0.103304 0.104921
0.102663 0.106203 0.109010
0.118502 0.109529 0.113069
0.135103 0.111879 0.116335
0.151522 0.113863 0.119173
0.168399 0.115846 0.121859
0.185672 0.117311 0.124422
0.204196 0.118196 0.127108
0.224002 0.119051 0.129610
0.245701 0.119509 0.132143
0.269718 0.119173 0.134707
0.296147 0.117952 0.137240
0.326146 0.115084 0.139925
0.360479 0.109560 0.142489
0.399908 0.099916 0.144991
0.445563 0.075471 0.147616
0.498451 0.000092 0.150057
0.581659 0.000000 0.153719
0.672053 0.000000 0.157168
0.759884 0.000000 0.160220
0.844999 0.000000 0.163546
0.923522 0.000000 0.167483
0.994903 0.000000 0.173281
1.000000 0.000000 0.182650
1.000000 0.000000 0.198825
1.000000 0.105806 0.225650
1.000000 0.261784 0.268223
1.000000 0.374243 0.332280
1.000000 0.486091 0.422797
0.070436 0.106966 0.112154
0.072419 0.106905 0.112154
0.073701 0.107210 0.112093
0.086854 0.108400 0.107637
0.101503 0.111818 0.109895
0.118654 0.115358 0.114107
0.136172 0.117464 0.117067
0.153140 0.119173 0.119875
0.170932 0.120272 0.122591
0.188846 0.121736 0.125093
0.207828 0.122652 0.127718
0.228031 0.123262 0.130190
0.250523 0.123293 0.132692
0.274846 0.122957 0.135195
0.301335 0.121523 0.137728
0.331548 0.118685 0.140139
0.365301 0.113344 0.142672
0.403998 0.103883 0.145205
0.448249 0.085847 0.147616
0.499855 0.017884 0.150088
0.577447 0.000000 0.153262
0.659113 0.000000 0.156283
0.740902 0.000000 0.159213
0.823972 0.000000 0.162203
0.904479 0.000000 0.165988
0.980499 0.000000 0.171115
1.000000 0.000000 0.180148
1.000000 0.000000 0.195895
1.000000 0.114656 0.222507
1.000000 0.262943 0.264622
1.000000 0.371466 0.326085
1.000000 0.476967 0.410986
0.081178 0.115145 0.120302
0.081178 0.115145 0.120302
0.081819 0.114809 0.120058
0.086824 0.116121 0.118410
0.096864 0.117311 0.113313
0.115297 0.120668 0.114046
0.135561 0.125582 0.117983
0.154299 0.127169 0.120729
0.173129 0.127962 0.123384
0.192294 0.129000 0.126131
0.212100 0.129335 0.128511
0.233616 0.129915 0.131106
0.257084 0.129732 0.133547
0.282658 0.129244 0.136172
0.310948 0.127352 0.138582
0.342535 0.124331 0.141054
0.377844 0.118532 0.143435
0.418036 0.108797 0.145785
0.463325 0.091768 0.148196
0.520409 0.019959 0.150729
0.594476 0.000000 0.153536
0.670863 0.000000 0.156252
0.748653 0.000000 0.158816
0.828153 0.000000 0.161624
0.906554 0.000000 0.164950
0.981415 0.000000 0.170016
1.000000 0.000000 0.178683
1.000000 0.000000 0.194308
1.000000 0.140414 0.220066
1.000000 0.268894 0.260258
1.000000 0.371069 0.319249
1.000000 0.471565 0.400427
0.089998 0.123507 0.128939
0.089998 0.123507 0.128939
0.089387 0.123049 0.128206
0.089509 0.122530 0.127504
0.097383 0.125032 0.123568
0.109224 0.126314 0.117830
0.130678 0.130068 0.117098
0.154025 0.135439 0.121157
0.179294 0.139773 0.125246
0.200565 0.140383 0.127596
0.222568 0.140444 0.130343
0.246464 0.140322 0.132845
0.272190 0.139986 0.135286
0.300420 0.139010 0.137697
0.331426 0.136660 0.140047
0.365850 0.132479 0.142550
0.403998 0.125887 0.144594
0.446418 0.114717 0.146822
0.493477 0.096071 0.149111
0.559380 0.013977 0.151736
0.631800 0.000000 0.154177
0.705684 0.000000 0.156405
0.948058 0.000000 0.164645
1.000000 0.000000 0.171206
1.000000 0.000000 0.182467
1.000000 0.135439 0.200748
1.000000 0.236393 0.227604
1.000000 0.316747 0.265599
1.000000 0.393561 0.316960
1.000000 0.472328 0.384222
1.000000 0.555535 0.468055
1.000000 0.644739 0.567071
0.098482 0.136202 0.141238
0.098817 0.135958 0.141054
0.098604 0.135286 0.140230
0.098390 0.134127 0.138979
0.101320 0.134493 0.135348
0.111543 0.137667 0.130037
0.127108 0.138979 0.123171
0.154574 0.143618 0.120912
0.183932 0.150759 0.125399
0.221347 0.159152 0.130617
0.255711 0.161746 0.134096
0.286107 0.160800 0.136568
0.318212 0.158938 0.138766
0.352117 0.155825 0.140963
0.388251 0.151247 0.143008
0.426490 0.144350 0.145235
0.468269 0.134218 0.146944
0.513176 0.119387 0.148806
0.575616 0.090883 0.151064
0.655726 0.000000 0.153445
0.739437 0.000000 0.155306
0.826688 0.000000 0.157504
0.913573 0.000000 0.160189
0.994232 0.000000 0.165438
1.000000 0.000000 0.175326
1.000000 0.164431 0.192203
1.000000 0.246525 0.217105
1.000000 0.317296 0.251316
1.000000 0.386725 0.297978
1.000000 0.457496 0.358129
1.000000 0.533989 0.434974
1.000000 0.617212 0.527611
0.106386 0.146334 0.151125
0.106386 0.146334 0.151125
0.106203 0.145724 0.150362
0.105715 0.144503 0.149081
0.105745 0.142611 0.146761
0.113283 0.144656 0.140352
0.124971 0.147707 0.134279
0.142123 0.149386 0.127047
0.172671 0.154635 0.123140
0.206699 0.163180 0.127871
0.251621 0.173434 0.132845
0.311955 0.184909 0.137881
0.349035 0.182376 0.139925
0.387091 0.178378 0.141970
0.426459 0.172427 0.143740
0.466835 0.164797 0.145632
0.510246 0.154269 0.147219
0.562463 0.139925 0.148714
0.631312 0.116762 0.150546
0.701472 0.074311 0.152102
0.775235 0.000000 0.153384
0.851225 0.000000 0.154879
0.927611 0.000000 0.157076
0.999023 0.000000 0.161715
1.000000 0.144930 0.171115
1.000000 0.215152 0.187137
1.000000 0.276677 0.210849
1.000000 0.335912 0.243473
1.000000 0.396948 0.287755
1.000000 0.461158 0.344884
1.000000 0.531090 0.417639
1.000000 0.608423 0.506279
0.115938 0.157870 0.162295
0.116213 0.157656 0.162142
0.115511 0.157168 0.161440
0.115084 0.156069 0.160281
0.114290 0.154208 0.158022
0.116243 0.153201 0.154391
0.126314 0.156405 0.146700
0.140444 0.158846 0.138674
0.159274 0.160891 0.131075
0.194003 0.167117 0.125460
0.234928 0.177798 0.129976
0.289494 0.190463 0.134676
0.362463 0.204013 0.138705
0.437629 0.210636 0.141604
0.481147 0.203708 0.143099
0.524132 0.195041 0.144350
0.576928 0.185336 0.145754
0.638758 0.173953 0.146975
0.699275 0.160464 0.147921
0.761288 0.146395 0.148470
0.825071 0.135317 0.149172
0.890562 0.133852 0.150149
0.955444 0.150393 0.152438
1.000000 0.184451 0.157473
1.000000 0.228519 0.168093
1.000000 0.274571 0.185122
1.000000 0.321813 0.209537
1.000000 0.370672 0.242405
1.000000 0.422950 0.286076
1.000000 0.479438 0.341741
1.000000 0.542535 0.411933
1.000000 0.612970 0.497139
0.126802 0.170535 0.174563
0.126162 0.170413 0.174228
0.125948 0.169589 0.173495
0.125429 0.168460 0.172122
0.124666 0.166445 0.169955
0.123659 0.163912 0.167269
0.129274 0.165469 0.161471
0.141695 0.168612 0.152743
0.157137 0.170718 0.142916
0.177859 0.173281 0.135195
0.217502 0.180392 0.127291
0.265476 0.193301 0.131624
0.330266 0.208255 0.135500
0.416052 0.223972 0.138155
0.522332 0.239994 0.139071
0.606439 0.243473 0.138949
0.665827 0.237827 0.139040
0.722621 0.231418 0.139376
0.777401 0.225895 0.139590
0.830655 0.222141 0.139864
0.882811 0.221988 0.140658
0.933562 0.227237 0.142061
0.983185 0.240146 0.145266
1.000000 0.261326 0.151492
1.000000 0.288426 0.162539
1.000000 0.320470 0.179202
1.000000 0.356664 0.202823
1.000000 0.396887 0.235111
1.000000 0.442786 0.277714
1.000000 0.494209 0.332677
1.000000 0.552605 0.402136
1.000000 0.618708 0.486824
0.137270 0.183047 0.186191
0.137423 0.182864 0.186191
0.136934 0.182467 0.185489
0.136416 0.181125 0.184115
0.135683 0.179324 0.182284
0.134188 0.176913 0.179568
0.134005 0.174197 0.176150
0.145052 0.178683 0.168307
0.159518 0.182437 0.159121
0.177340 0.184695 0.148226
0.201144 0.187961 0.139376
0.245304 0.196353 0.130404
0.307073 0.212955 0.132357
0.393469 0.233249 0.134463
0.505241 0.255589 0.134188
0.632685 0.282414 0.129335
0.755001 0.315801 0.119692
0.803311 0.311559 0.120150
0.848661 0.307988 0.121126
0.891752 0.306279 0.122774
0.933440 0.307164 0.125185
0.973968 0.312352 0.129000
1.000000 0.323491 0.134951
1.000000 0.338842 0.144869
1.000000 0.359045 0.159731
1.000000 0.383032 0.179995
1.000000 0.411231 0.206363
1.000000 0.443915 0.240482
1.000000 0.482307 0.283970
1.000000 0.526757 0.339178
1.000000 0.578332 0.407843
1.000000 0.637751 0.490730
0.150942 0.198123 0.200412
0.150759 0.198001 0.200290
0.150576 0.197330 0.199680
0.149996 0.196292 0.198428
0.148653 0.194461 0.196414
0.147707 0.191989 0.193851
0.146059 0.188663 0.190341
0.150729 0.189242 0.184848
0.164279 0.194339 0.176272
0.181765 0.198947 0.165957
0.205112 0.203464 0.154391
0.236271 0.209476 0.144503
0.342626 0.244846 0.132815
0.457282 0.274846 0.125490
0.590539 0.310338 0.116335
0.728481 0.355138 0.094728
0.851804 0.408728 0.025513
0.951629 0.465217 0.000000
1.000000 0.490303 0.006867
1.000000 0.484565 0.072969
1.000000 0.481483 0.106752
1.000000 0.482155 0.131044
1.000000 0.485908 0.155093
1.000000 0.494392 0.181003
1.000000 0.505974 0.209049
1.000000 0.520409 0.240391
1.000000 0.537652 0.275181
1.000000 0.559411 0.315282
1.000000 0.586603 0.362982
1.000000 0.620569 0.420752
1.000000 0.662013 0.489357
1.000000 0.712337 0.571344
0.174533 0.222629 0.223362
0.174380 0.222538 0.223270
0.173587 0.221683 0.222171
0.172763 0.220340 0.220798
0.171389 0.218326 0.218631
0.169863 0.215457 0.215702
0.167849 0.211948 0.212131
0.165896 0.208103 0.207980
0.179873 0.214572 0.200443
0.200290 0.222843 0.190951
0.227115 0.231601 0.179080
0.262058 0.240299 0.164706
0.311162 0.252018 0.151156
0.397284 0.271672 0.131991
0.530541 0.308782 0.114839
0.666773 0.352300 0.093782
0.794919 0.404120 0.011444
0.902190 0.458839 0.000000
0.984985 0.512139 0.000000
1.000000 0.559380 0.006073
1.000000 0.555932 0.096284
1.000000 0.550439 0.128817
1.000000 0.548302 0.156588
1.000000 0.550317 0.184787
1.000000 0.555901 0.213901
1.000000 0.564904 0.245548
1.000000 0.577569 0.280644
1.000000 0.594751 0.320836
1.000000 0.617304 0.368444
1.000000 0.646693 0.425696
1.000000 0.682918 0.492897
1.000000 0.727169 0.572473
0.201938 0.249973 0.248447
0.201450 0.249607 0.248081
0.200259 0.248325 0.246830
0.198245 0.245975 0.244450
0.195712 0.242863 0.241276
0.192935 0.238834 0.237186
0.189700 0.234195 0.232517
0.186313 0.229129 0.227268
0.188968 0.227848 0.221103
0.208896 0.237186 0.211856
0.235111 0.247776 0.200778
0.268650 0.258946 0.187259
0.311650 0.269505 0.169833
0.370550 0.283665 0.153445
0.463325 0.304234 0.128237
0.603998 0.346746 0.094942
0.733303 0.396307 0.015015
0.848234 0.450721 0.000000
0.941985 0.505241 0.000000
1.000000 0.554772 0.000000
1.000000 0.597986 0.029297
1.000000 0.621698 0.145357
1.000000 0.615290 0.174105
1.000000 0.612573 0.202945
1.000000 0.613275 0.232364
1.000000 0.617670 0.264103
1.000000 0.625422 0.298741
1.000000 0.637568 0.338506
1.000000 0.654871 0.384833
1.000000 0.679011 0.440528
1.000000 0.709865 0.506188
1.000000 0.748257 0.583337
0.231327 0.277836 0.273960
0.231113 0.277501 0.273655
0.229435 0.275853 0.272007
0.226749 0.272892 0.269078
0.223148 0.268711 0.265049
0.218784 0.263676 0.259983
0.214206 0.258244 0.254520
0.210086 0.252293 0.248508
0.205814 0.246250 0.242161
0.218845 0.251652 0.234043
0.244541 0.263615 0.223636
0.277867 0.276799 0.210758
0.319371 0.290043 0.194675
0.370642 0.302739 0.174228
0.437232 0.318486 0.153475
0.530175 0.339086 0.120821
0.672236 0.387793 0.025971
0.793240 0.442237 0.000000
0.896269 0.498054 0.000000
0.976104 0.550622 0.000000
1.000000 0.596674 0.000000
1.000000 0.636866 0.096498
1.000000 0.671595 0.195499
1.000000 0.674037 0.234409
1.000000 0.670375 0.261997
1.000000 0.670405 0.291966
1.000000 0.674342 0.326207
1.000000 0.683070 0.366064
1.000000 0.697444 0.413550
1.000000 0.718379 0.470771
1.000000 0.746578 0.539178
1.000000 0.780972 0.617182
0.262119 0.305730 0.299504
0.262089 0.305425 0.299290
0.260929 0.304204 0.298070
0.258335 0.301640 0.295476
0.254948 0.297978 0.291783
0.250736 0.293278 0.287022
0.246433 0.288029 0.281682
0.241917 0.282048 0.275639
0.237247 0.275792 0.269169
0.235111 0.270481 0.261753
0.261112 0.283635 0.251072
0.293217 0.297673 0.237980
0.332464 0.311894 0.221500
0.378820 0.325017 0.201053
0.433051 0.337621 0.177127
0.500023 0.352667 0.151553
0.589532 0.372686 0.110231
0.728328 0.426795 0.000000
0.840909 0.484352 0.000000
0.933623 0.540734 0.000000
1.000000 0.592370 0.000000
1.000000 0.636744 0.000000
1.000000 0.674403 0.141848
1.000000 0.706844 0.237461
1.000000 0.727291 0.307164
1.000000 0.724697 0.335790
1.000000 0.725856 0.368902
1.000000 0.731106 0.407538
1.000000 0.741329 0.453254
1.000000 0.757168 0.507439
1.000000 0.778653 0.570367
1.000000 0.805417 0.640742
0.296910 0.335485 0.326909
0.296483 0.334874 0.326360
0.295232 0.333806 0.325200
0.292882 0.331304 0.322789
0.289372 0.327703 0.319127
0.284947 0.323156 0.314488
0.280003 0.317693 0.308782
0.274662 0.311345 0.302434
0.269078 0.304356 0.295232
0.263310 0.296544 0.287358
0.273625 0.299626 0.277836
0.305669 0.315099 0.265354
0.343908 0.330816 0.249821
0.388708 0.346136 0.230137
0.439582 0.360235 0.205722
0.498482 0.374945 0.178714
0.567315 0.391547 0.147280
0.651637 0.412177 0.091707
0.787045 0.472541 0.000000
0.889647 0.531640 0.000000
0.970733 0.587945 0.000000
1.000000 0.636805 0.000000
1.000000 0.677546 0.011200
1.000000 0.711818 0.194430
1.000000 0.741115 0.287724
1.000000 0.767056 0.373846
1.000000 0.772580 0.418585
1.000000 0.775143 0.455207
1.000000 0.782193 0.499001
1.000000 0.794125 0.550622
1.000000 0.810971 0.609644
1.000000 0.832425 0.674281
0.342382 0.373022 0.361700
0.342901 0.373266 0.361913
0.392859 0.413825 0.399481
0.390021 0.410895 0.396490
0.385504 0.406409 0.391913
0.379278 0.400397 0.385901
0.371832 0.392889 0.378241
0.363256 0.384283 0.369390
0.354681 0.375128 0.359899
0.345861 0.364935 0.349615
0.336370 0.353826 0.338506
0.369451 0.370245 0.324376
0.411719 0.389410 0.306065
0.459205 0.407935 0.283055
0.510552 0.424628 0.254398
0.564446 0.439063 0.219272
0.624109 0.455451 0.181949
0.688777 0.472969 0.132998
0.761288 0.492226 0.000000
0.880034 0.554894 0.000000
0.961669 0.611505 0.000000
1.000000 0.660121 0.000000
1.000000 0.699977 0.000000
1.000000 0.732143 0.176608
1.000000 0.758480 0.276738
1.000000 0.781216 0.364385
1.000000 0.802029 0.447395
1.000000 0.816709 0.514916
1.000000 0.819699 0.551629
1.000000 0.827390 0.596643
1.000000 0.839689 0.648920
1.000000 0.856077 0.705837
0.410956 0.428717 0.413397
0.416022 0.432715 0.417090
0.420508 0.436286 0.420356
0.422797 0.437690 0.421393
0.422705 0.436988 0.420417
0.418372 0.432502 0.415778
0.411505 0.425544 0.408515
0.402991 0.416815 0.399603
0.393988 0.407263 0.389990
0.384192 0.396887 0.379187
0.374395 0.385687 0.367834
0.379004 0.383673 0.355352
0.418769 0.403357 0.338415
0.463569 0.422980 0.317662
0.512169 0.441657 0.291997
0.563622 0.458930 0.260410
0.617487 0.474098 0.221134
0.678431 0.494820 0.182712
0.742794 0.515038 0.125002
0.809689 0.534447 0.000000
0.920226 0.598322 0.000000
0.991699 0.654231 0.000000
1.000000 0.699153 0.000000
1.000000 0.734463 0.099672
1.000000 0.762448 0.233433
1.000000 0.785672 0.329747
1.000000 0.806241 0.418067
1.000000 0.825895 0.503410
1.000000 0.845640 0.586267
1.000000 0.853086 0.632807
1.000000 0.861845 0.678737
1.000000 0.874235 0.729274
0.457221 0.466712 0.448829
0.462715 0.471351 0.452979
0.468055 0.475715 0.456916
0.471321 0.478218 0.459052
0.472114 0.478126 0.458534
0.468391 0.474220 0.454414
0.462196 0.467567 0.447639
0.453620 0.458930 0.438880
0.444862 0.449348 0.429023
0.434882 0.438605 0.417975
0.424598 0.427100 0.406287
0.413794 0.414618 0.393439
0.438758 0.425727 0.378180
0.481910 0.446967 0.359106
0.528588 0.467659 0.335424
0.577935 0.487251 0.306371
0.629175 0.505303 0.270329
0.683528 0.523857 0.229526
0.742580 0.546197 0.186709
0.803098 0.567346 0.118929
0.863188 0.585809 0.000000
0.958587 0.646296 0.000000
1.000000 0.697108 0.000000
1.000000 0.736599 0.000000
1.000000 0.766873 0.183841
1.000000 0.790982 0.294408
1.000000 0.811460 0.389075
1.000000 0.830564 0.479133
1.000000 0.849638 0.566949
1.000000 0.868620 0.648951
1.000000 0.882414 0.709957
1.000000 0.890440 0.753201
0.510582 0.512749 0.491371
0.515953 0.517540 0.495735
0.521019 0.521935 0.499763
0.524193 0.524498 0.501732
0.525109 0.524590 0.501488
0.522026 0.520806 0.497688
0.516320 0.514611 0.491188
0.509087 0.506493 0.482856
0.500786 0.497169 0.473396
0.491554 0.486641 0.462593
0.481727 0.475319 0.450904
0.471382 0.462867 0.438087
0.465980 0.453529 0.423774
0.507530 0.475837 0.406134
0.552575 0.498695 0.384314
0.600397 0.520989 0.357824
0.651728 0.543664 0.326085
0.705318 0.565576 0.286687
0.762600 0.591485 0.248997
0.821347 0.618341 0.203738
0.879179 0.643061 0.132540
0.933715 0.663966 0.000000
1.000000 0.715236 0.000000
1.000000 0.757900 0.000000
1.000000 0.789792 0.184024
1.000000 0.813809 0.308293
1.000000 0.833646 0.412116
1.000000 0.851896 0.509575
1.000000 0.869718 0.601373
1.000000 0.887205 0.684260
1.000000 0.903014 0.754513
1.000000 0.915282 0.808865
0.606348 0.603937 0.575158
0.608515 0.606256 0.577295
0.609674 0.607141 0.578088
0.608911 0.606012 0.576806
0.606378 0.602808 0.573449
0.601709 0.597253 0.567773
0.595758 0.589960 0.560388
0.588983 0.581537 0.551720
0.581201 0.572045 0.541985
0.573938 0.562249 0.531853
0.565789 0.551324 0.520836
0.556878 0.539055 0.508324
0.546715 0.525292 0.494179
0.563012 0.531182 0.477607
0.605646 0.555932 0.456611
0.650690 0.580346 0.431220
0.697169 0.603571 0.400519
0.744839 0.625513 0.363989
0.793545 0.647181 0.323919
0.843046 0.671351 0.287968
0.891356 0.693111 0.242283
0.936522 0.711116 0.179324
0.977600 0.723812 0.000000
1.000000 0.760403 0.000000
1.000000 0.793179 0.105043
1.000000 0.818875 0.269230
1.000000 0.839445 0.383642
1.000000 0.857633 0.488167
1.000000 0.875029 0.586358
1.000000 0.891844 0.674159
1.000000 0.907286 0.748440
1.000000 0.918853 0.806119
0.665309 0.665797 0.632929
0.667201 0.667811 0.634821
0.668330 0.668788 0.635645
0.668208 0.668208 0.634913
0.666224 0.665583 0.632074
0.662867 0.661006 0.627222
0.657954 0.654719 0.620752
0.652583 0.647364 0.613031
0.646693 0.639216 0.604517
0.640650 0.630274 0.595117
0.634516 0.620691 0.584894
0.627710 0.609949 0.573541
0.619959 0.597528 0.560479
0.610864 0.583124 0.546044
0.648554 0.607416 0.527703
0.690303 0.633112 0.505333
0.733791 0.657893 0.478737
0.777707 0.680903 0.446937
0.821836 0.702022 0.409155
0.865049 0.724819 0.379431
0.906493 0.745357 0.346532
0.944915 0.761898 0.306981
0.980438 0.774044 0.257115
1.000000 0.781369 0.188022
1.000000 0.793942 0.100832
1.000000 0.819760 0.210147
1.000000 0.841917 0.341405
1.000000 0.860441 0.453620
1.000000 0.877745 0.559228
1.000000 0.894285 0.654505
1.000000 0.910369 0.736049
1.000000 0.921538 0.799588
0.744076 0.753506 0.716762
0.747127 0.756832 0.720058
0.748013 0.757748 0.720912
0.746517 0.755795 0.718746
0.743160 0.751339 0.714107
0.737850 0.744686 0.707210
0.731380 0.736324 0.698604
0.724208 0.726772 0.688624
0.716640 0.716457 0.677913
0.709194 0.705806 0.666682
0.701076 0.693843 0.654108
0.693385 0.681941 0.641444
0.685267 0.668727 0.627527
0.676173 0.653834 0.611872
0.680995 0.650599 0.593408
0.715633 0.672358 0.570642
0.752224 0.693690 0.544335
0.790677 0.714778 0.515221
0.830564 0.735225 0.482795
0.869902 0.756863 0.456458
0.907164 0.777005 0.432288
0.941863 0.793210 0.403418
0.973602 0.804654 0.367864
1.000000 0.811337 0.323033
1.000000 0.813321 0.263920
1.000000 0.828885 0.241215
1.000000 0.847288 0.307012
1.000000 0.865263 0.425086
1.000000 0.881651 0.534691
1.000000 0.897429 0.634913
1.000000 0.912810 0.721889
1.000000 0.924102 0.791257
0.786069 0.800900 0.764157
0.788571 0.803677 0.766995
0.789883 0.805081 0.768399
0.789700 0.804501 0.767697
0.788144 0.802487 0.765377
0.785855 0.799252 0.761715
0.783017 0.795407 0.757259
0.779812 0.790738 0.751888
0.776547 0.785580 0.745937
0.773190 0.780026 0.739528
0.769345 0.773281 0.731868
0.765164 0.765682 0.723079
0.760403 0.756680 0.712947
0.754757 0.745693 0.700740
0.747860 0.732418 0.686213
0.767544 0.743374 0.667231
0.797421 0.761715 0.644617
0.828885 0.779324 0.619593
0.860929 0.795895 0.592370
0.892302 0.812284 0.569940
0.922148 0.827665 0.551537
0.950652 0.840238 0.530541
0.977539 0.849577 0.505119
1.000000 0.855344 0.473274
1.000000 0.857755 0.434211
1.000000 0.856626 0.385504
1.000000 0.865019 0.373663
1.000000 0.877653 0.427955
1.000000 0.893278 0.543603
1.000000 0.907958 0.647028
1.000000 0.922210 0.734646
1.000000 0.931548 0.802548
0.837400 0.856168 0.822751
0.838437 0.857237 0.823941
0.838773 0.857511 0.824155
0.838285 0.856840 0.823362
0.837064 0.855314 0.821530
0.835172 0.853056 0.818814
0.832975 0.850156 0.815366
0.830472 0.846830 0.811398
0.827939 0.843198 0.806943
0.825498 0.839414 0.802213
0.822751 0.834897 0.796658
0.820249 0.830167 0.790768
0.817411 0.824613 0.783841
0.813931 0.817594 0.775235
0.809659 0.808865 0.764645
0.809262 0.802762 0.752010
0.832303 0.817075 0.734249
0.856565 0.830503 0.714748
0.881895 0.843137 0.693812
0.906737 0.855589 0.677119
0.930694 0.867308 0.663966
0.953857 0.877012 0.648829
0.976135 0.884154 0.629969
0.997772 0.888792 0.606317
1.000000 0.890745 0.576318
1.000000 0.890043 0.539117
1.000000 0.886687 0.493507
1.000000 0.890227 0.481147
1.000000 0.899107 0.526421
1.000000 0.913451 0.636896
1.000000 0.927153 0.729946
1.000000 0.935943 0.801572
0.874968 0.894011 0.864866
0.875669 0.894621 0.865599
0.876188 0.895048 0.866056
0.876188 0.895018 0.865934
0.876127 0.894774 0.865537
0.876280 0.894652 0.865263
0.877317 0.895323 0.865843
0.878752 0.896300 0.866697
0.880705 0.897673 0.867979
0.883024 0.899199 0.869444
0.885496 0.900847 0.870970
0.887785 0.902037 0.871946
0.889647 0.902708 0.872221
0.890745 0.902373 0.871305
0.891051 0.900969 0.869047
0.890257 0.898070 0.864958
0.897429 0.900908 0.857816
0.911681 0.908263 0.848020
0.926818 0.915190 0.837491
0.941680 0.921935 0.829862
0.956481 0.928130 0.823178
0.971191 0.933257 0.815305
0.985687 0.936919 0.805051
1.000000 0.939086 0.791989
1.000000 0.939635 0.774929
1.000000 0.938506 0.752895
1.000000 0.935515 0.724514
1.000000 0.930510 0.688350
1.000000 0.929625 0.676326
1.000000 0.933837 0.705287
1.000000 0.941863 0.785275
1.000000 0.949187 0.842191
0.927245 0.942016 0.921843
0.927214 0.941985 0.921843
0.927001 0.941802 0.921538
0.926635 0.941405 0.921019
0.926116 0.940826 0.920256
0.925475 0.940154 0.919341
0.925017 0.939544 0.918486
0.924651 0.938994 0.917632
0.924468 0.938506 0.916869
0.924407 0.938109 0.916136
0.924498 0.937713 0.915373
0.924743 0.937316 0.914611
0.924956 0.936736 0.913603
0.924926 0.935882 0.912169
