20 Preset/Street 2/【3】LUT video cho PR-AE-FCPX/Tone 1 (23).cube
# Created by Adobe Lightroom plugin Export LUT (1.24.0)
# www.johnrellis.com/lightroom/exportlut.htm
# Preset: 青橙风光-素材江湖23
# Color profile: C:\Program Files (x86)\Common Files\Adobe\Color\Profiles\Recommended\VideoHD.icc
LUT_3D_SIZE 32
DOMAIN_MIN 0.0 0.0 0.0
DOMAIN_MAX 1.0 1.0 1.0
0.047822 0.089754 0.093996
0.047822 0.089754 0.093996
0.047822 0.089754 0.093996
0.047822 0.089754 0.093996
0.047822 0.089754 0.093996
0.081239 0.094667 0.099702
0.099367 0.101076 0.107393
0.114412 0.107332 0.114626
0.133272 0.112612 0.121218
0.155856 0.117586 0.127932
0.182589 0.122621 0.135134
0.212955 0.127840 0.143526
0.248020 0.133089 0.152743
0.287633 0.137819 0.163058
0.332586 0.144015 0.174380
0.382849 0.150881 0.186770
0.439185 0.157534 0.200107
0.500328 0.164309 0.214725
0.565118 0.172091 0.230655
0.631189 0.183810 0.247898
0.703883 0.203311 0.269200
0.783169 0.235935 0.296574
0.849668 0.274754 0.324498
0.907713 0.317388 0.353674
0.955566 0.362036 0.384131
0.994141 0.408026 0.416266
1.000000 0.455268 0.450568
1.000000 0.503624 0.487434
1.000000 0.552789 0.527337
1.000000 0.603082 0.570489
1.000000 0.654108 0.616968
1.000000 0.705104 0.666316
0.047822 0.089754 0.093996
0.047822 0.089754 0.093996
0.047822 0.089754 0.093996
0.047822 0.089754 0.093996
0.047822 0.089754 0.093996
0.081666 0.094270 0.099733
0.098116 0.101198 0.107057
0.113100 0.107179 0.114382
0.131533 0.112245 0.120729
0.153567 0.117128 0.127260
0.179202 0.122225 0.134310
0.209323 0.127138 0.142397
0.243381 0.132418 0.151553
0.282078 0.137270 0.161685
0.325780 0.143679 0.172671
0.375647 0.150820 0.184970
0.431403 0.157565 0.198306
0.492012 0.164065 0.212833
0.556176 0.172000 0.228367
0.621576 0.182803 0.245243
0.693599 0.201022 0.266087
0.769955 0.230747 0.291752
0.835050 0.266209 0.317937
0.892607 0.306096 0.345403
0.941619 0.348638 0.374487
0.982147 0.392889 0.405310
1.000000 0.439460 0.438727
1.000000 0.487709 0.475105
1.000000 0.537438 0.514580
1.000000 0.588464 0.557671
1.000000 0.640528 0.604364
1.000000 0.692500 0.653925
0.047822 0.089754 0.093996
0.047822 0.089754 0.093996
0.047822 0.089754 0.093996
0.047822 0.089754 0.093996
0.048798 0.090120 0.094331
0.082307 0.094606 0.100038
0.098695 0.101137 0.107393
0.113191 0.107179 0.114076
0.130861 0.112032 0.120485
0.152743 0.116976 0.126772
0.177768 0.121950 0.133883
0.207340 0.126833 0.141817
0.240848 0.131868 0.150668
0.278721 0.138094 0.160769
0.321996 0.145449 0.172000
0.370764 0.152590 0.184115
0.425849 0.159579 0.197147
0.486213 0.166567 0.211551
0.550378 0.174380 0.227024
0.616022 0.185183 0.243931
0.689021 0.203159 0.264805
0.763790 0.231632 0.289555
0.828000 0.265507 0.315068
0.885222 0.303563 0.341833
0.934203 0.344732 0.369940
0.975555 0.387549 0.400092
1.000000 0.433600 0.432929
1.000000 0.481361 0.468940
1.000000 0.530999 0.508293
1.000000 0.582269 0.551324
1.000000 0.634150 0.597742
1.000000 0.686213 0.647181
0.047822 0.089754 0.093996
0.047822 0.089754 0.093996
0.047822 0.089754 0.093996
0.047822 0.089754 0.093996
0.054444 0.090669 0.095369
0.086854 0.095460 0.100618
0.099977 0.101686 0.107973
0.113436 0.107485 0.114321
0.131594 0.112245 0.120424
0.152682 0.116976 0.127047
0.177279 0.121767 0.133913
0.205905 0.127932 0.141726
0.238712 0.134615 0.150454
0.275914 0.142123 0.160433
0.318273 0.149477 0.171206
0.366094 0.157168 0.183230
0.420142 0.164126 0.196139
0.478920 0.171420 0.210086
0.541588 0.179721 0.225223
0.606317 0.190249 0.241581
0.679591 0.207279 0.262058
0.750454 0.232944 0.285039
0.813748 0.263920 0.309270
0.871672 0.300237 0.335515
0.923430 0.340642 0.363684
0.967742 0.384588 0.394415
1.000000 0.431342 0.428473
1.000000 0.480507 0.465583
1.000000 0.530694 0.505669
1.000000 0.581964 0.548882
1.000000 0.633112 0.594842
1.000000 0.683497 0.643030
0.048859 0.096132 0.095094
0.048157 0.096559 0.095033
0.047456 0.096956 0.095003
0.048432 0.097292 0.095338
0.066712 0.096193 0.095735
0.084901 0.100435 0.102144
0.098299 0.105684 0.108827
0.112520 0.110475 0.114870
0.129427 0.115602 0.120638
0.149966 0.120851 0.126894
0.174502 0.126345 0.133700
0.202518 0.132967 0.141451
0.234836 0.140017 0.150149
0.271855 0.147829 0.159945
0.314122 0.155856 0.170809
0.361700 0.164187 0.182650
0.416236 0.171908 0.195773
0.475563 0.179782 0.209659
0.538628 0.188571 0.224857
0.603326 0.199374 0.241215
0.678370 0.217777 0.262150
0.747036 0.241978 0.284337
0.809049 0.271977 0.307958
0.866850 0.306859 0.333684
0.919158 0.346288 0.361944
0.964324 0.389593 0.392798
1.000000 0.435706 0.426703
1.000000 0.483650 0.463630
1.000000 0.532738 0.503349
1.000000 0.582757 0.546105
1.000000 0.632807 0.591547
1.000000 0.682216 0.639063
0.043214 0.113436 0.097536
0.045197 0.113375 0.097536
0.045197 0.113375 0.097536
0.044190 0.113680 0.097871
0.085054 0.112947 0.096925
0.091615 0.107210 0.101472
0.096956 0.111299 0.110018
0.109834 0.118013 0.116335
0.127565 0.122927 0.121675
0.148775 0.128511 0.128023
0.173098 0.134615 0.134615
0.201724 0.141512 0.142428
0.234409 0.149050 0.151095
0.271946 0.157290 0.160830
0.314672 0.165988 0.171786
0.363592 0.174716 0.183810
0.418402 0.183352 0.196750
0.478553 0.192142 0.210941
0.542260 0.201572 0.226261
0.612177 0.214817 0.244022
0.685145 0.234165 0.264805
0.752224 0.258976 0.286870
0.893736 0.345068 0.348913
0.944762 0.388128 0.380529
0.985626 0.432074 0.413581
1.000000 0.476661 0.448341
1.000000 0.521233 0.484565
1.000000 0.565362 0.522515
1.000000 0.609735 0.562676
1.000000 0.653681 0.604639
1.000000 0.696956 0.648157
1.000000 0.738827 0.692378
0.037293 0.131868 0.101656
0.039277 0.131838 0.101656
0.039277 0.131838 0.101656
0.064698 0.131441 0.101198
0.095613 0.130465 0.100008
0.108156 0.126040 0.102754
0.107820 0.120424 0.109804
0.116762 0.124239 0.117983
0.132570 0.133394 0.124758
0.154147 0.142275 0.131777
0.181460 0.149538 0.138918
0.212955 0.157504 0.147036
0.248356 0.166140 0.156252
0.288548 0.175113 0.166567
0.333928 0.184360 0.177859
0.384710 0.193454 0.189914
0.441657 0.202731 0.203281
0.502831 0.212436 0.217563
0.568750 0.224155 0.233585
0.650019 0.243961 0.255222
0.727016 0.269841 0.279057
0.799039 0.302617 0.305852
0.865202 0.341558 0.335454
0.923949 0.385779 0.368353
0.971405 0.431464 0.403296
1.000000 0.476814 0.439246
1.000000 0.520531 0.475776
1.000000 0.563500 0.513359
1.000000 0.606348 0.552880
1.000000 0.648798 0.594049
1.000000 0.690883 0.636957
1.000000 0.732113 0.681147
0.046754 0.148684 0.103761
0.051453 0.148379 0.103822
0.065370 0.148104 0.103792
0.088014 0.147494 0.103029
0.104616 0.146456 0.102235
0.122866 0.143496 0.102144
0.124361 0.138003 0.108064
0.125582 0.132204 0.114778
0.136629 0.136080 0.123964
0.155886 0.146883 0.131289
0.180056 0.159823 0.139864
0.211032 0.170565 0.148470
0.246891 0.179782 0.157717
0.287114 0.189425 0.167819
0.332433 0.199222 0.178805
0.383429 0.209049 0.190860
0.439979 0.219211 0.203891
0.501122 0.229770 0.218112
0.576562 0.245792 0.236454
0.651942 0.265232 0.256779
0.724239 0.290227 0.279301
0.792905 0.320775 0.304601
0.857023 0.357366 0.333165
0.914885 0.398535 0.364813
0.962737 0.441810 0.399023
0.999329 0.484596 0.434241
1.000000 0.526513 0.470283
1.000000 0.567712 0.507622
1.000000 0.609125 0.546960
1.000000 0.650233 0.587976
1.000000 0.691066 0.630701
1.000000 0.731319 0.674830
0.084657 0.166812 0.103639
0.086732 0.166934 0.103578
0.092714 0.166476 0.103609
0.103731 0.165713 0.103273
0.118318 0.164431 0.102571
0.137301 0.162570 0.101472
0.142794 0.157229 0.105806
0.145724 0.151827 0.112154
0.147738 0.146426 0.119753
0.161288 0.150423 0.130556
0.185275 0.163088 0.138949
0.214206 0.177981 0.148592
0.248264 0.195132 0.159854
0.288945 0.206729 0.170138
0.335241 0.217411 0.181308
0.386999 0.228031 0.193057
0.445014 0.239567 0.206302
0.515190 0.254612 0.222751
0.586938 0.271153 0.240330
0.658137 0.291020 0.259770
0.726833 0.315648 0.281529
0.792599 0.345342 0.306279
0.854337 0.379889 0.334020
0.910674 0.418677 0.364935
0.957519 0.459297 0.398291
0.993988 0.499428 0.433082
1.000000 0.539391 0.468910
1.000000 0.578759 0.506096
1.000000 0.618219 0.545098
1.000000 0.657313 0.585779
1.000000 0.696376 0.628260
1.000000 0.734859 0.672023
0.097627 0.190127 0.106752
0.099306 0.189914 0.106447
0.105104 0.189181 0.106233
0.117311 0.187625 0.105104
0.132937 0.185458 0.102907
0.151736 0.182132 0.100496
0.162325 0.177401 0.102968
0.166354 0.172885 0.108858
0.170382 0.167636 0.115938
0.173678 0.162509 0.124605
0.190127 0.166629 0.137728
0.218479 0.181125 0.147036
0.252018 0.197848 0.157870
0.291569 0.216739 0.170291
0.337591 0.237034 0.183780
0.395941 0.251225 0.196933
0.461128 0.266697 0.211704
0.530266 0.282963 0.227756
0.600214 0.300969 0.245304
0.668513 0.321630 0.264378
0.733150 0.345739 0.285588
0.794217 0.373144 0.309117
0.851225 0.404181 0.334936
0.903532 0.438483 0.363684
0.948089 0.474342 0.394873
0.984344 0.511131 0.427955
1.000000 0.548241 0.462959
1.000000 0.586114 0.500053
1.000000 0.624414 0.539391
1.000000 0.662715 0.580743
1.000000 0.701045 0.624048
1.000000 0.738888 0.668727
0.107332 0.215213 0.109926
0.109407 0.215000 0.109651
0.115633 0.214359 0.109102
0.127810 0.212741 0.107729
0.144076 0.210483 0.106050
0.163210 0.207156 0.103517
0.184207 0.202090 0.100893
0.189242 0.196231 0.105165
0.194675 0.191043 0.111452
0.200473 0.186435 0.119966
0.206210 0.181613 0.130068
0.225834 0.186160 0.145174
0.260441 0.202884 0.156802
0.302861 0.223087 0.169619
0.353033 0.245975 0.184085
0.411658 0.271702 0.200351
0.476234 0.296239 0.217258
0.543206 0.313298 0.232731
0.610559 0.332067 0.249729
0.675410 0.352880 0.268467
0.737423 0.376562 0.289372
0.795651 0.402808 0.312261
0.850919 0.432502 0.337987
0.901366 0.464729 0.366308
0.944884 0.498695 0.397223
0.980377 0.533288 0.430152
1.000000 0.568292 0.464912
1.000000 0.603937 0.501946
1.000000 0.639765 0.541100
1.000000 0.675990 0.582452
1.000000 0.712062 0.625422
1.000000 0.747799 0.669917
0.121309 0.244785 0.111879
0.123171 0.244511 0.111635
0.129244 0.243809 0.110842
0.140932 0.242405 0.109834
0.157778 0.239872 0.108095
0.178012 0.236423 0.105409
0.200870 0.231662 0.102174
0.216251 0.224826 0.102449
0.223056 0.219577 0.107881
0.230503 0.214298 0.114412
0.240360 0.210452 0.123751
0.250828 0.207309 0.136599
0.310796 0.230716 0.161624
0.366308 0.254124 0.179629
0.426246 0.280491 0.195773
0.492592 0.310399 0.214054
0.561212 0.343786 0.233982
0.629664 0.381079 0.256657
0.693812 0.412238 0.278965
0.753384 0.435981 0.300511
0.808591 0.460883 0.323980
0.859648 0.487617 0.349248
0.905089 0.515465 0.376745
0.944274 0.544518 0.406653
0.976593 0.573816 0.438087
1.000000 0.602838 0.470832
1.000000 0.631281 0.504479
1.000000 0.659663 0.539361
1.000000 0.688350 0.575830
1.000000 0.717739 0.614221
1.000000 0.747402 0.654261
1.000000 0.777218 0.695521
0.142611 0.288914 0.112856
0.143893 0.288609 0.112673
0.150820 0.287419 0.112154
0.163668 0.285527 0.110780
0.181277 0.282536 0.108461
0.203250 0.278080 0.105440
0.227878 0.272953 0.101534
0.254826 0.266392 0.096986
0.266300 0.260838 0.102785
0.278660 0.257511 0.110201
0.293248 0.254124 0.119417
0.309636 0.250736 0.130129
0.328496 0.249241 0.146090
0.367254 0.258427 0.170138
0.433845 0.285679 0.192233
0.498390 0.314946 0.209781
0.564385 0.347112 0.229007
0.629145 0.382300 0.250370
0.690639 0.420783 0.274388
0.748287 0.461921 0.301305
0.800961 0.488045 0.324895
0.850675 0.512840 0.349493
0.895323 0.538689 0.376074
0.934417 0.565850 0.405402
0.967254 0.593133 0.436500
0.993713 0.620478 0.469093
1.000000 0.647547 0.503014
1.000000 0.674586 0.538415
1.000000 0.701930 0.575463
1.000000 0.729793 0.614466
1.000000 0.757717 0.654658
1.000000 0.785641 0.695979
0.167330 0.332769 0.111757
0.169131 0.332097 0.111177
0.175753 0.330419 0.110384
0.187930 0.327367 0.108949
0.204807 0.323278 0.106783
0.226261 0.317693 0.103426
0.251011 0.311101 0.099306
0.277562 0.303166 0.094118
0.299474 0.293614 0.092958
0.313512 0.291478 0.101381
0.330266 0.289372 0.111513
0.349371 0.287236 0.122988
0.370428 0.284581 0.136233
0.391943 0.281895 0.152316
0.432746 0.290440 0.179171
0.505211 0.320165 0.205509
0.568353 0.351080 0.223728
0.630213 0.384680 0.244083
0.689845 0.421820 0.267216
0.745571 0.461219 0.293095
0.797604 0.502556 0.322026
0.846494 0.542901 0.353216
0.890349 0.567559 0.379858
0.928771 0.593164 0.409033
0.961089 0.618585 0.440131
0.987549 0.644129 0.472755
1.000000 0.669184 0.506676
1.000000 0.694118 0.542046
1.000000 0.719203 0.579095
1.000000 0.744930 0.617975
1.000000 0.770809 0.658289
1.000000 0.796567 0.699367
0.195346 0.375799 0.107362
0.196597 0.375463 0.107240
0.202670 0.373449 0.106508
0.214237 0.369787 0.104738
0.230777 0.364630 0.102632
0.251408 0.358129 0.099306
0.275486 0.350561 0.094423
0.302159 0.341894 0.088563
0.330785 0.332097 0.078370
0.348302 0.324956 0.088136
0.366979 0.324468 0.099092
0.388708 0.324010 0.111574
0.412329 0.323217 0.125765
0.436896 0.321050 0.141543
0.460365 0.317327 0.159030
0.499306 0.324315 0.187472
0.575280 0.356939 0.219028
0.634760 0.389624 0.238682
0.691859 0.425299 0.260960
0.746120 0.463508 0.286015
0.797391 0.503899 0.314641
0.845426 0.546502 0.346441
0.887755 0.589868 0.381750
0.924468 0.622766 0.415381
0.955932 0.646143 0.446235
0.981872 0.669673 0.478798
1.000000 0.692958 0.513085
1.000000 0.716274 0.549004
1.000000 0.739986 0.587152
1.000000 0.764126 0.626978
1.000000 0.788571 0.668635
1.000000 0.812558 0.710231
0.225650 0.417212 0.100893
0.227878 0.416907 0.100343
0.233585 0.415442 0.099641
0.244816 0.412268 0.097169
0.261326 0.407660 0.094423
0.281651 0.401678 0.090394
0.306706 0.394385 0.082429
0.333806 0.385962 0.068666
0.363134 0.375952 0.050782
0.388342 0.361883 0.041444
0.407965 0.362554 0.068849
0.430091 0.362799 0.093355
0.453834 0.362371 0.110231
0.478248 0.360815 0.127687
0.502129 0.357549 0.146334
0.524773 0.352941 0.166140
0.560174 0.357397 0.195041
0.636774 0.393347 0.232273
0.692470 0.427893 0.253696
0.745724 0.465248 0.278233
0.796994 0.505272 0.306584
0.845548 0.548211 0.338537
0.888060 0.591363 0.374121
0.924163 0.634363 0.413581
0.952880 0.675746 0.455695
0.977966 0.699092 0.489845
0.998138 0.720455 0.524590
1.000000 0.741604 0.560998
1.000000 0.762722 0.598932
1.000000 0.783841 0.637995
1.000000 0.805020 0.678279
1.000000 0.825803 0.717952
0.259953 0.458045 0.090639
0.261814 0.457527 0.089906
0.267185 0.456092 0.088746
0.277562 0.453315 0.085969
0.292668 0.449042 0.079866
0.312932 0.443000 0.068513
0.336461 0.435767 0.052369
0.363317 0.426825 0.035798
0.390997 0.416724 0.016083
0.419989 0.404639 0.000000
0.441016 0.394781 0.008118
0.463935 0.396735 0.042054
0.488563 0.398077 0.084596
0.514183 0.398383 0.107240
0.540307 0.397436 0.128695
0.565332 0.394965 0.150607
0.589197 0.391211 0.173434
0.621180 0.394141 0.203189
0.697871 0.434302 0.247745
0.749508 0.470314 0.271855
0.799619 0.509789 0.299657
0.847532 0.551904 0.331548
0.889982 0.594873 0.367407
0.925689 0.637415 0.407050
0.954223 0.678462 0.449561
0.976226 0.717098 0.494820
0.993500 0.747677 0.537926
1.000000 0.766567 0.574609
1.000000 0.785183 0.612451
1.000000 0.803891 0.651545
1.000000 0.822538 0.691066
1.000000 0.840787 0.729458
0.301823 0.502434 0.060731
0.303105 0.502464 0.057923
0.337896 0.531151 0.030030
0.347662 0.528191 0.022553
0.361578 0.523430 0.011933
0.380346 0.516655 0.000000
0.402167 0.508324 0.000000
0.427344 0.498207 0.000000
0.454200 0.486305 0.000000
0.482399 0.472572 0.000000
0.508904 0.456733 0.000000
0.529961 0.454444 0.000000
0.555749 0.457801 0.000000
0.582361 0.460121 0.040223
0.608545 0.461067 0.099641
0.633997 0.460182 0.130617
0.657862 0.457374 0.158663
0.680598 0.453529 0.186618
0.706233 0.452888 0.217777
0.779080 0.496773 0.274876
0.824460 0.534112 0.303197
0.867430 0.574060 0.335363
0.905547 0.614588 0.371893
0.937316 0.654536 0.411810
0.962188 0.692042 0.453651
0.981262 0.727230 0.497414
0.995300 0.759670 0.542962
1.000000 0.789548 0.589990
1.000000 0.807645 0.628809
1.000000 0.823331 0.666468
1.000000 0.839170 0.704280
1.000000 0.854826 0.740719
0.354650 0.555627 0.007019
0.358251 0.558251 0.003845
0.365637 0.559869 0.000000
0.376806 0.559625 0.000000
0.391821 0.557275 0.000000
0.409766 0.551781 0.000000
0.430091 0.544121 0.000000
0.453223 0.534112 0.000000
0.478248 0.522454 0.000000
0.504051 0.509361 0.000000
0.530205 0.494484 0.000000
0.550317 0.479347 0.000000
0.575616 0.483894 0.000000
0.601740 0.488014 0.000000
0.628290 0.491249 0.018830
0.654658 0.492958 0.097383
0.680568 0.493446 0.132509
0.705715 0.492836 0.164157
0.729793 0.491432 0.195132
0.754147 0.490639 0.227665
0.825528 0.538231 0.293034
0.869413 0.578302 0.327581
0.906981 0.618128 0.364019
0.938262 0.657252 0.403876
0.963134 0.694484 0.446296
0.982086 0.729091 0.490486
0.996063 0.760800 0.536034
1.000000 0.790127 0.583307
1.000000 0.817075 0.631830
1.000000 0.839261 0.677882
1.000000 0.853025 0.714351
1.000000 0.866789 0.749660
0.392889 0.593591 0.000000
0.396887 0.596094 0.000000
0.404242 0.597986 0.000000
0.414588 0.598169 0.000000
0.428382 0.596094 0.000000
0.444739 0.591302 0.000000
0.463447 0.583978 0.000000
0.484413 0.574578 0.000000
0.507713 0.563226 0.000000
0.531731 0.550408 0.000000
0.556329 0.535912 0.000000
0.580377 0.519493 0.000000
0.599695 0.512993 0.000000
0.625574 0.518730 0.000000
0.652094 0.523857 0.000000
0.678767 0.527916 0.000000
0.705348 0.530938 0.093965
0.731289 0.532830 0.136019
0.756832 0.533806 0.171878
0.781369 0.534112 0.205966
0.804898 0.534569 0.241855
0.869200 0.582116 0.312871
0.909392 0.623316 0.356817
0.940215 0.661616 0.396979
0.964630 0.697993 0.439582
0.983520 0.732204 0.484352
0.997223 0.763180 0.530266
1.000000 0.791775 0.577752
1.000000 0.818143 0.626551
1.000000 0.842496 0.675990
1.000000 0.864500 0.723140
1.000000 0.878447 0.759243
0.434577 0.633753 0.000000
0.438117 0.636225 0.000000
0.444404 0.637781 0.000000
0.453864 0.637873 0.000000
0.465888 0.635950 0.000000
0.480598 0.631250 0.000000
0.497597 0.624414 0.000000
0.517021 0.615473 0.000000
0.538079 0.605188 0.000000
0.560937 0.592737 0.000000
0.584192 0.578912 0.000000
0.607172 0.563073 0.000000
0.624231 0.542412 0.000000
0.649470 0.549462 0.000000
0.676051 0.556420 0.000000
0.703120 0.562768 0.000000
0.730739 0.568902 0.000000
0.758755 0.574517 0.092836
0.786648 0.579736 0.142550
0.814481 0.584833 0.184360
0.841154 0.589593 0.224369
0.866056 0.594049 0.266056
0.919066 0.639979 0.346990
0.952544 0.681514 0.403418
0.975189 0.717556 0.449012
0.991974 0.750515 0.496376
1.000000 0.780423 0.544915
1.000000 0.807187 0.593957
1.000000 0.831724 0.643793
1.000000 0.854276 0.692958
1.000000 0.874571 0.738796
1.000000 0.892576 0.779660
0.494026 0.692226 0.000000
0.495766 0.693202 0.000000
0.499519 0.693019 0.000000
0.505852 0.691341 0.000000
0.515312 0.687648 0.000000
0.527245 0.682216 0.000000
0.541955 0.675227 0.000000
0.559472 0.666590 0.000000
0.579095 0.656458 0.000000
0.600549 0.644831 0.000000
0.622339 0.631739 0.000000
0.644556 0.616754 0.000000
0.665797 0.599451 0.000000
0.683375 0.588861 0.000000
0.709285 0.597162 0.000000
0.735927 0.605219 0.000000
0.762631 0.612726 0.000000
0.789670 0.619898 0.000000
0.816648 0.626368 0.099153
0.842496 0.631922 0.156222
0.867155 0.636561 0.202976
0.890105 0.640192 0.246281
0.910796 0.644434 0.293523
0.950652 0.683742 0.378271
0.976837 0.721889 0.442420
0.993286 0.753964 0.490028
1.000000 0.783291 0.539422
1.000000 0.809873 0.589746
1.000000 0.833860 0.640070
1.000000 0.855863 0.689631
1.000000 0.875669 0.735866
1.000000 0.893278 0.777127
0.535760 0.734035 0.000000
0.537255 0.734737 0.000000
0.540856 0.734371 0.000000
0.546563 0.732967 0.000000
0.554650 0.729854 0.000000
0.565484 0.725124 0.000000
0.579065 0.718563 0.000000
0.594965 0.710750 0.000000
0.613214 0.701381 0.000000
0.633082 0.690578 0.000000
0.653834 0.678157 0.000000
0.674983 0.664027 0.000000
0.695918 0.648157 0.000000
0.713375 0.627955 0.000000
0.735378 0.631617 0.000000
0.761593 0.641230 0.000000
0.788266 0.650752 0.000000
0.814969 0.659510 0.000000
0.841001 0.667628 0.000000
0.866117 0.674586 0.116732
0.889860 0.680690 0.177859
0.911772 0.685573 0.228244
0.931640 0.689235 0.275151
0.948974 0.694667 0.329534
0.973144 0.719997 0.409216
0.993530 0.754971 0.480354
1.000000 0.783902 0.530053
1.000000 0.810208 0.581018
1.000000 0.834104 0.632319
1.000000 0.855863 0.682856
1.000000 0.875700 0.730434
1.000000 0.893400 0.773068
0.587488 0.783505 0.000000
0.589685 0.784695 0.000000
0.592767 0.784482 0.000000
0.597528 0.782315 0.000000
0.603479 0.778775 0.000000
0.612116 0.773404 0.000000
0.622644 0.766476 0.000000
0.635615 0.758145 0.000000
0.650935 0.748440 0.000000
0.668025 0.737484 0.000000
0.686061 0.724910 0.000000
0.705135 0.710872 0.000000
0.724208 0.695216 0.000000
0.742336 0.677455 0.000000
0.756558 0.661067 0.000000
0.780453 0.670130 0.000000
0.805020 0.679225 0.000000
0.829862 0.687953 0.000000
0.854643 0.696529 0.000000
0.878904 0.704707 0.000000
0.902037 0.711879 0.138338
0.923217 0.717678 0.199985
0.941985 0.721736 0.251377
0.958282 0.724086 0.298619
0.971893 0.729732 0.360632
0.992645 0.756741 0.447913
1.000000 0.787411 0.524681
1.000000 0.812345 0.575036
1.000000 0.835447 0.626337
1.000000 0.856535 0.676905
1.000000 0.875822 0.724849
1.000000 0.893217 0.768093
0.622950 0.815702 0.000000
0.624842 0.816648 0.000000
0.627924 0.816648 0.000000
0.632166 0.815427 0.000000
0.638422 0.812772 0.000000
0.647089 0.808896 0.000000
0.657954 0.804013 0.000000
0.671138 0.798032 0.000000
0.686397 0.790799 0.000000
0.703365 0.782376 0.000000
0.721492 0.772274 0.000000
0.740261 0.760769 0.000000
0.759060 0.747372 0.000000
0.777371 0.731899 0.000000
0.794522 0.714046 0.000000
0.810361 0.709560 0.000000
0.833066 0.718502 0.000000
0.855680 0.727230 0.000000
0.878386 0.735592 0.000000
0.900481 0.743496 0.000000
0.921416 0.750515 0.093751
0.940734 0.756374 0.178744
0.958038 0.760861 0.237766
0.973236 0.763729 0.289311
0.985992 0.766384 0.342626
0.995697 0.771939 0.409369
1.000000 0.793668 0.496773
1.000000 0.820371 0.579522
1.000000 0.842283 0.631342
1.000000 0.862516 0.682368
1.000000 0.880552 0.729335
1.000000 0.896818 0.771359
0.666560 0.851194 0.000000
0.667750 0.851530 0.000000
0.669947 0.851194 0.000000
0.673610 0.849943 0.000000
0.678889 0.847868 0.000000
0.686488 0.844541 0.000000
0.696040 0.840360 0.000000
0.707607 0.835325 0.000000
0.721370 0.829191 0.000000
0.736934 0.821958 0.000000
0.753811 0.813474 0.000000
0.771572 0.803891 0.000000
0.789639 0.792752 0.000000
0.807553 0.779721 0.000000
0.824796 0.764584 0.000000
0.837125 0.745205 0.000000
0.857725 0.753689 0.000000
0.878416 0.761959 0.000000
0.898741 0.769772 0.000000
0.918669 0.777096 0.000000
0.937499 0.783688 0.000000
0.954925 0.789090 0.152255
0.970397 0.792905 0.221775
0.984161 0.795346 0.277256
0.995911 0.796475 0.327031
1.000000 0.799863 0.391150
1.000000 0.804318 0.456825
1.000000 0.821439 0.541894
1.000000 0.845090 0.627863
1.000000 0.864561 0.679103
1.000000 0.882048 0.726345
1.000000 0.898009 0.769009
0.705318 0.879484 0.125307
0.706386 0.879667 0.125277
0.708309 0.879515 0.122957
0.711849 0.878721 0.116152
0.717281 0.877287 0.102968
0.724941 0.875395 0.073671
0.735317 0.873350 0.000275
0.747829 0.870787 0.000000
0.762722 0.867735 0.000000
0.779294 0.864012 0.000000
0.797421 0.859464 0.000000
0.816068 0.854002 0.000000
0.835233 0.847227 0.000000
0.853941 0.838987 0.000000
0.872221 0.828916 0.000000
0.889342 0.816678 0.000000
0.902098 0.808927 0.000000
0.919341 0.815549 0.000000
0.936339 0.821683 0.000000
0.952453 0.827115 0.000000
0.967468 0.831632 0.005188
0.981323 0.835050 0.178164
0.993561 0.837217 0.246036
1.000000 0.838376 0.302220
1.000000 0.838529 0.352087
1.000000 0.839139 0.407385
1.000000 0.841520 0.472084
1.000000 0.844633 0.535393
1.000000 0.857328 0.615808
1.000000 0.876707 0.699825
1.000000 0.892546 0.745052
1.000000 0.906859 0.784878
0.759274 0.913634 0.223209
0.759579 0.913573 0.222538
0.760952 0.913085 0.220188
0.763546 0.912261 0.215518
0.767544 0.911009 0.208530
0.773678 0.909087 0.196811
0.781582 0.906859 0.182162
0.791501 0.904051 0.161227
0.803098 0.900816 0.132540
0.816495 0.897002 0.080323
0.831266 0.892546 0.000000
0.847166 0.887358 0.000000
0.863859 0.881346 0.000000
0.880705 0.874388 0.000000
