20 Preset/Street 2/【3】LUT video cho PR-AE-FCPX/Tone 1 (11).cube
# Created by Adobe Lightroom plugin Export LUT (1.24.0)
# www.johnrellis.com/lightroom/exportlut.htm
# Preset: 青橙风光-素材江湖11
# Color profile: C:\Program Files (x86)\Common Files\Adobe\Color\Profiles\Recommended\VideoHD.icc
LUT_3D_SIZE 8
DOMAIN_MIN 0.000000 0.000000 0.000000
DOMAIN_MAX 0.903226 0.903226 0.903226
0.198123 0.157137 0.155978
0.204227 0.156527 0.156313
0.270420 0.149081 0.159274
0.385748 0.120943 0.160525
0.540459 0.000000 0.156863
0.707118 0.000000 0.146181
0.912016 0.000000 0.122286
1.000000 0.000000 0.106783
0.197360 0.162173 0.156283
0.213169 0.159701 0.155398
0.270146 0.153719 0.157137
0.372442 0.137514 0.157992
0.517815 0.090700 0.154147
0.682124 0.000000 0.143557
0.868498 0.000000 0.121828
1.000000 0.000000 0.101167
0.209079 0.203250 0.154726
0.228275 0.203891 0.152346
0.297429 0.189273 0.148348
0.413306 0.186069 0.141695
0.546685 0.173495 0.135622
0.729763 0.153079 0.113436
0.918669 0.099275 0.045106
1.000000 0.000000 0.000000
0.253208 0.280613 0.137819
0.270603 0.280522 0.135622
0.342443 0.285222 0.123629
0.470649 0.273747 0.108522
0.646845 0.300298 0.000000
0.804959 0.301610 0.000000
0.944732 0.282628 0.000000
1.000000 0.240482 0.000000
0.317144 0.398840 0.031922
0.334478 0.399390 0.018158
0.402808 0.408118 0.000000
0.522087 0.424292 0.000000
0.650904 0.387793 0.000000
0.795651 0.402014 0.000000
0.936828 0.397894 0.000000
1.000000 0.371618 0.000000
0.380163 0.537377 0.000000
0.401495 0.550866 0.000000
0.464332 0.557702 0.000000
0.572442 0.572900 0.000000
0.692164 0.559564 0.000000
0.830198 0.512749 0.000000
0.964263 0.513359 0.000000
1.000000 0.489387 0.000000
0.432197 0.711910 0.000000
0.448798 0.716030 0.000000
0.506828 0.717617 0.000000
0.608148 0.724453 0.000000
0.740810 0.730312 0.000000
0.857328 0.679866 0.000000
0.982513 0.612329 0.000000
1.000000 0.586542 0.000000
0.449470 0.886442 0.000000
0.465522 0.886351 0.000000
0.528405 0.887816 0.000000
0.636133 0.891783 0.000000
0.754879 0.869688 0.000000
0.921569 0.874907 0.000000
1.000000 0.782071 0.000000
1.000000 0.691188 0.000000
0.200687 0.161074 0.163058
0.201175 0.159518 0.163088
0.252018 0.152316 0.165194
0.353491 0.140475 0.161685
0.500664 0.100618 0.155215
0.662776 0.000000 0.145022
0.841337 0.000000 0.125917
0.993957 0.000000 0.106294
0.198123 0.164096 0.161990
0.207309 0.164492 0.163363
0.260777 0.160220 0.162203
0.358099 0.148989 0.159274
0.499733 0.120974 0.152560
0.660731 0.000000 0.141360
0.824033 0.000000 0.123171
0.974243 0.000000 0.102358
0.210910 0.203006 0.162081
0.225010 0.203738 0.160189
0.289403 0.190494 0.154482
0.396307 0.187961 0.146700
0.522362 0.178653 0.138064
0.684443 0.163882 0.119234
0.847807 0.124086 0.089387
1.000000 0.000000 0.013153
0.241032 0.272587 0.149111
0.258640 0.273198 0.146700
0.329931 0.278691 0.134707
0.436286 0.257450 0.125307
0.578851 0.271031 0.092256
0.725948 0.275120 0.000000
0.869047 0.264836 0.000000
1.000000 0.233890 0.000000
0.301274 0.393347 0.090181
0.318181 0.392370 0.084627
0.385840 0.396643 0.023499
0.498665 0.405829 0.000000
0.610407 0.362188 0.000000
0.751949 0.379553 0.000000
0.898405 0.383185 0.000000
1.000000 0.363287 0.000000
0.359869 0.519066 0.000000
0.376165 0.521263 0.000000
0.438514 0.528923 0.000000
0.547204 0.546014 0.000000
0.668025 0.538720 0.000000
0.809140 0.499672 0.000000
0.944762 0.504112 0.000000
1.000000 0.482673 0.000000
0.421118 0.685115 0.000000
0.434089 0.682246 0.000000
0.488746 0.683497 0.000000
0.587030 0.694301 0.000000
0.720668 0.709377 0.000000
0.836393 0.664179 0.000000
0.958801 0.598108 0.000000
1.000000 0.575555 0.000000
0.436835 0.868772 0.000000
0.454047 0.871855 0.000000
0.516472 0.872984 0.000000
0.623499 0.878111 0.000000
0.761654 0.880858 0.000000
0.922881 0.878111 0.000000
1.000000 0.781582 0.000000
1.000000 0.689815 0.000000
0.209934 0.181552 0.198856
0.209995 0.182528 0.198306
0.247227 0.169162 0.206760
0.310643 0.169558 0.228122
0.488106 0.104097 0.236759
0.694331 0.000000 0.203616
0.868528 0.000000 0.184085
1.000000 0.000000 0.156313
0.209751 0.188968 0.195071
0.216312 0.189944 0.197818
0.251865 0.178500 0.208713
0.323400 0.175204 0.228244
0.496468 0.114504 0.221683
0.684962 0.000000 0.198642
0.851194 0.000000 0.176913
0.999481 0.000000 0.148013
0.216068 0.213046 0.205051
0.226200 0.215152 0.208164
0.274296 0.222293 0.220462
0.391211 0.206973 0.211429
0.544396 0.181247 0.198550
0.712032 0.144167 0.180606
0.866911 0.077577 0.154818
1.000000 0.000000 0.118257
0.223911 0.303319 0.203159
0.236728 0.305669 0.202426
0.304082 0.311528 0.193668
0.457191 0.285832 0.176547
0.606683 0.284306 0.156344
0.752224 0.275547 0.128756
0.893339 0.260929 0.080079
1.000000 0.235142 0.000000
0.247776 0.419928 0.161959
0.260746 0.419318 0.160067
0.350347 0.425208 0.141848
0.502464 0.441749 0.072755
0.636011 0.387579 0.040681
0.770932 0.389471 0.000000
0.908751 0.384039 0.000000
1.000000 0.366583 0.000000
0.294560 0.535454 0.000000
0.317082 0.538537 0.000000
0.397345 0.544854 0.000000
0.523064 0.558099 0.000000
0.667048 0.558740 0.000000
0.805600 0.501793 0.000000
0.941009 0.503441 0.000000
1.000000 0.487495 0.000000
0.363561 0.701198 0.000000
0.381811 0.699031 0.000000
0.450843 0.697200 0.000000
0.563165 0.703059 0.000000
0.707210 0.714290 0.000000
0.837034 0.676722 0.000000
0.964691 0.606073 0.000000
1.000000 0.584802 0.000000
0.415778 0.870848 0.000000
0.432074 0.869413 0.000000
0.497078 0.870207 0.000000
0.609430 0.878965 0.000000
0.750149 0.881559 0.000000
0.916747 0.882048 0.000000
1.000000 0.792111 0.000000
1.000000 0.694057 0.000000
0.210819 0.220432 0.251286
0.211093 0.222660 0.252323
0.232151 0.214755 0.272435
0.326696 0.185641 0.289738
0.408179 0.179049 0.310277
0.584863 0.129885 0.371679
0.803891 0.000000 0.368322
0.989410 0.000000 0.296727
0.214115 0.231724 0.252323
0.218936 0.232975 0.257389
0.243748 0.229282 0.279789
0.335576 0.196170 0.297490
0.421515 0.190707 0.320531
0.600580 0.140658 0.372473
0.812253 0.000000 0.357488
0.988708 0.000000 0.299901
0.221073 0.254490 0.266209
0.230137 0.256687 0.269444
0.270085 0.264836 0.284062
0.356756 0.238834 0.312444
0.463844 0.246098 0.354345
0.679530 0.197543 0.370062
0.884581 0.135256 0.326940
1.000000 0.000000 0.296635
0.222019 0.321294 0.301244
0.235355 0.324041 0.304631
0.295048 0.338720 0.322911
0.424628 0.370123 0.365820
0.587396 0.339544 0.339391
0.741360 0.305821 0.310460
0.887022 0.268681 0.279179
1.000000 0.223514 0.245640
0.223331 0.471809 0.318639
0.242588 0.473945 0.319219
0.311986 0.488106 0.322210
0.440955 0.497963 0.302953
0.657740 0.447333 0.268070
0.793179 0.420081 0.241093
0.923369 0.390112 0.201389
1.000000 0.355993 0.154543
0.219913 0.600916 0.254643
0.240238 0.610071 0.255985
0.305760 0.606012 0.243229
0.460700 0.613489 0.209049
0.674983 0.628443 0.109163
0.821927 0.532403 0.090730
0.950134 0.511162 0.000000
1.000000 0.480598 0.000000
0.205905 0.726345 0.010956
0.227237 0.727535 0.000000
0.311376 0.728969 0.000000
0.487739 0.737697 0.000000
0.672999 0.746426 0.000000
0.845457 0.720424 0.000000
0.971435 0.617762 0.000000
1.000000 0.588403 0.000000
0.231754 0.887327 0.000000
0.269718 0.887144 0.000000
0.384833 0.887297 0.000000
0.536156 0.889433 0.000000
0.705348 0.890105 0.000000
0.891905 0.888762 0.000000
1.000000 0.810422 0.000000
1.000000 0.701381 0.000000
0.197086 0.281132 0.328496
0.200351 0.283452 0.333440
0.226627 0.284398 0.354376
0.271641 0.248539 0.383642
0.436378 0.210758 0.411261
0.527733 0.198978 0.425574
0.656031 0.206149 0.502800
0.889952 0.043671 0.546288
0.203433 0.291814 0.333593
0.208408 0.294530 0.340520
0.234928 0.295872 0.361242
0.277134 0.258946 0.389471
0.442786 0.222110 0.417517
0.536309 0.212222 0.433295
0.667659 0.215854 0.507500
0.896544 0.107454 0.543084
0.215976 0.317266 0.350378
0.225010 0.319219 0.353307
0.261509 0.326421 0.368933
0.317601 0.314763 0.410040
0.459419 0.266209 0.431830
0.553796 0.262242 0.449256
0.706264 0.254520 0.513359
0.914549 0.188174 0.518578
0.218082 0.366033 0.381445
0.230655 0.368170 0.384497
0.283268 0.379644 0.400153
0.380163 0.404883 0.434668
0.509300 0.374182 0.479744
0.611597 0.378882 0.508141
0.799496 0.354620 0.518486
0.972473 0.322362 0.473610
0.211246 0.459083 0.427314
0.228977 0.463233 0.431983
0.296361 0.478004 0.449409
0.414557 0.509606 0.487861
0.579004 0.558587 0.550317
0.732174 0.511925 0.504692
0.874876 0.462257 0.456611
1.000000 0.409064 0.407385
0.196933 0.592554 0.429633
0.218814 0.595911 0.432349
0.292302 0.603754 0.438331
0.406775 0.627070 0.455512
0.540795 0.634363 0.424659
0.786282 0.582818 0.396185
0.924376 0.543328 0.361120
1.000000 0.493507 0.304570
0.122530 0.753414 0.396490
0.147677 0.750668 0.390204
0.226810 0.745327 0.369635
0.343297 0.746578 0.344701
0.542260 0.754055 0.301030
0.802853 0.762295 0.200412
0.949706 0.632349 0.174105
1.000000 0.586084 0.000000
0.000000 0.877745 0.233097
0.000000 0.877165 0.227909
0.054841 0.875853 0.205814
0.307652 0.883848 0.182254
0.566094 0.887785 0.000000
0.802396 0.888731 0.000000
0.997192 0.837308 0.000000
1.000000 0.701869 0.000000
0.151583 0.377539 0.452064
0.160403 0.379187 0.457191
0.199100 0.379767 0.473610
0.275608 0.378363 0.516930
0.367193 0.313542 0.538323
0.557946 0.256931 0.558862
0.664729 0.237888 0.573846
0.795407 0.271214 0.652979
0.169467 0.374853 0.442359
0.177310 0.375494 0.446235
0.210330 0.376776 0.462684
0.278202 0.373236 0.499702
0.362768 0.313115 0.524102
0.549767 0.261112 0.547723
0.656031 0.245304 0.564660
0.786709 0.274876 0.644251
0.187655 0.410712 0.470161
0.200595 0.411078 0.471199
0.240116 0.413825 0.483253
0.302953 0.406958 0.509758
0.377813 0.352880 0.541466
0.566369 0.305821 0.565454
0.674281 0.299840 0.584039
0.802182 0.328618 0.660151
0.192874 0.454108 0.499397
0.208591 0.453712 0.499489
0.265568 0.460029 0.508782
0.353307 0.480446 0.540612
0.440650 0.464302 0.595209
0.612726 0.411627 0.617304
0.724178 0.416358 0.639246
0.847532 0.434241 0.696071
0.181460 0.503746 0.519005
0.200046 0.505180 0.521172
0.265324 0.513237 0.532280
0.368688 0.533501 0.558343
0.502495 0.567193 0.599481
0.642908 0.539513 0.645563
0.744411 0.540154 0.667811
0.910765 0.529625 0.674098
0.133303 0.602777 0.560906
0.166751 0.609430 0.567834
0.258000 0.618524 0.579248
0.381598 0.638239 0.604211
0.535515 0.670771 0.646754
0.716976 0.734066 0.724239
0.853300 0.691798 0.682216
0.984192 0.638239 0.629938
0.137270 0.761593 0.587396
0.182956 0.765194 0.591669
0.283421 0.770321 0.598840
0.411200 0.780728 0.614923
0.555169 0.798276 0.643122
0.673793 0.799893 0.602960
0.909300 0.723049 0.552819
1.000000 0.660945 0.492470
0.248692 0.885893 0.577661
0.260502 0.884764 0.575250
0.325017 0.884886 0.575036
0.370947 0.887968 0.550652
0.434974 0.888945 0.494087
0.641138 0.892546 0.434363
0.942962 0.891844 0.314183
1.000000 0.730251 0.252811
0.000000 0.501457 0.605829
0.000000 0.503777 0.611078
0.140414 0.500572 0.619501
0.247501 0.494636 0.641627
0.334630 0.453986 0.666011
0.471138 0.386694 0.680232
0.663844 0.320562 0.694850
0.778317 0.290501 0.704799
0.000000 0.494362 0.592279
0.036255 0.497414 0.598383
0.153628 0.495094 0.607660
0.248325 0.487526 0.627314
0.334020 0.450477 0.652644
0.462654 0.381323 0.665278
0.651087 0.315496 0.678004
0.761929 0.285161 0.686824
0.112215 0.518883 0.604334
0.138308 0.519219 0.605097
0.193179 0.515740 0.611597
0.271916 0.509667 0.630243
0.363928 0.484718 0.657771
0.470466 0.412482 0.673213
0.664424 0.355871 0.693111
0.782345 0.338659 0.709499
0.116854 0.554437 0.627741
0.144198 0.552087 0.625635
0.221073 0.550805 0.626001
0.311894 0.553765 0.639155
0.406470 0.546044 0.671382
0.494209 0.482826 0.697719
0.687892 0.433417 0.718654
0.802762 0.425330 0.733120
0.011383 0.585809 0.635889
0.104372 0.583398 0.633845
0.204044 0.582574 0.635065
0.312657 0.587915 0.644556
0.434821 0.599664 0.664637
0.531334 0.575647 0.709926
0.703334 0.526299 0.731502
0.823362 0.539788 0.758480
0.000000 0.648035 0.660670
0.000000 0.649134 0.662257
0.165133 0.652186 0.667689
0.308446 0.659205 0.679225
0.451514 0.672389 0.698238
0.610925 0.705653 0.735531
0.751431 0.685817 0.778347
0.849424 0.686427 0.797391
0.000000 0.752377 0.701747
0.000000 0.754726 0.704555
0.127291 0.758206 0.710170
0.327947 0.766751 0.723476
0.489906 0.780117 0.745144
0.660914 0.804929 0.782834
0.827237 0.853941 0.846006
0.936248 0.811368 0.803922
0.214542 0.880278 0.716457
0.239231 0.881010 0.717922
0.325902 0.885161 0.725978
0.431952 0.889097 0.736355
0.551385 0.893919 0.751461
0.680018 0.902342 0.774075
0.781247 0.905669 0.735134
1.000000 0.833341 0.689693
0.267552 0.673671 0.787198
0.278935 0.674556 0.789425
0.304234 0.667750 0.789853
0.365484 0.661921 0.798703
0.445075 0.648188 0.811429
0.484352 0.584985 0.823331
0.613886 0.537682 0.833860
0.784207 0.470100 0.843442
0.253574 0.667597 0.778897
0.266209 0.668788 0.781399
0.296818 0.664271 0.783993
0.356847 0.657374 0.792142
0.437537 0.643732 0.805203
0.480018 0.582238 0.817685
0.606928 0.530846 0.827085
0.777798 0.461463 0.835904
0.269261 0.676631 0.775235
0.277928 0.676417 0.776455
0.305150 0.671290 0.778347
0.371557 0.670924 0.791501
0.444312 0.656062 0.802640
0.492439 0.601709 0.814389
0.607385 0.546960 0.825315
0.778714 0.480873 0.835447
0.263127 0.690761 0.778408
0.278080 0.692042 0.779599
0.321599 0.691646 0.779385
0.386084 0.691005 0.786587
0.458198 0.681636 0.800229
0.527306 0.649409 0.816922
0.617212 0.589441 0.830198
0.787076 0.530266 0.842161
0.228855 0.711971 0.784176
0.245731 0.713222 0.785550
0.288426 0.710964 0.784604
0.373388 0.712520 0.786893
0.465736 0.711788 0.792569
0.554467 0.699062 0.813199
0.624872 0.640375 0.832029
0.796994 0.593103 0.848631
0.191348 0.749416 0.795651
0.201297 0.747555 0.794278
0.249454 0.743343 0.791806
0.335760 0.741176 0.792660
0.443244 0.743465 0.798428
0.579400 0.757595 0.815030
0.672572 0.738369 0.850034
0.824125 0.701198 0.869688
0.187411 0.816739 0.823392
0.204227 0.816251 0.823209
0.264408 0.814511 0.823087
0.360327 0.814084 0.825803
0.472358 0.814755 0.831083
0.599664 0.819883 0.841123
0.735988 0.834592 0.858701
0.851133 0.807767 0.885039
0.224247 0.895872 0.845487
0.238407 0.895445 0.845365
0.300298 0.895201 0.846708
0.400885 0.896422 0.851530
0.514000 0.897398 0.858427
0.637659 0.899351 0.869108
0.776577 0.907958 0.889982
0.924224 0.941497 0.937407
