20 Preset/Street 2/【3】LUT video cho PR-AE-FCPX/Tone 1 (34).cube
# Created by Adobe Lightroom plugin Export LUT (1.24.0)
# www.johnrellis.com/lightroom/exportlut.htm
# Preset: 青橙风光-素材江湖34
# Color profile: C:\Program Files (x86)\Common Files\Adobe\Color\Profiles\Recommended\VideoHD.icc
LUT_3D_SIZE 8
DOMAIN_MIN 0.000000 0.000000 0.000000
DOMAIN_MAX 0.903226 0.903226 0.903226
0.047822 0.089754 0.093996
0.111452 0.089326 0.095583
0.316686 0.011261 0.101686
0.700343 0.000000 0.081514
1.000000 0.000000 0.000000
1.000000 0.000000 0.000000
1.000000 0.310979 0.000000
1.000000 0.409125 0.112673
0.082704 0.120943 0.098634
0.102266 0.112428 0.107820
0.278172 0.137270 0.110811
0.650202 0.000000 0.089265
1.000000 0.000000 0.000000
1.000000 0.213107 0.000000
1.000000 0.350896 0.000000
1.000000 0.433814 0.112306
0.196323 0.232517 0.101656
0.215305 0.217075 0.104494
0.241764 0.185214 0.131624
0.586603 0.301549 0.134829
0.957488 0.386816 0.000000
1.000000 0.469215 0.000000
1.000000 0.522179 0.000000
1.000000 0.555261 0.199222
0.423957 0.415259 0.000000
0.437812 0.393988 0.000000
0.458839 0.355627 0.096345
0.540948 0.318853 0.158358
0.897978 0.523522 0.156435
1.000000 0.669764 0.212741
1.000000 0.689509 0.256413
1.000000 0.694484 0.325872
0.640467 0.596399 0.000000
0.653925 0.580896 0.000000
0.676081 0.552605 0.000000
0.718715 0.515435 0.000000
0.804623 0.487312 0.186069
1.000000 0.675471 0.258824
1.000000 0.789395 0.414191
1.000000 0.808194 0.485359
0.810575 0.769223 0.000000
0.824216 0.765255 0.000000
0.843687 0.738674 0.000000
0.872709 0.717952 0.000000
0.908476 0.680354 0.085267
0.971557 0.663966 0.271366
1.000000 0.788876 0.424323
1.000000 0.856199 0.585504
0.922545 0.888640 0.000000
0.929595 0.885832 0.000000
0.951293 0.868589 0.000000
0.965301 0.854429 0.000000
0.983917 0.832578 0.119692
1.000000 0.800778 0.260868
1.000000 0.788510 0.427100
1.000000 0.855161 0.583520
0.976410 0.950835 0.360357
0.981170 0.949523 0.349340
1.000000 0.944121 0.300694
1.000000 0.931975 0.257237
1.000000 0.916258 0.301030
1.000000 0.899443 0.376532
1.000000 0.876463 0.449104
1.000000 0.874540 0.634028
0.054017 0.101778 0.109377
0.090425 0.098299 0.108553
0.285771 0.076600 0.103395
0.623957 0.000000 0.091371
0.994598 0.000000 0.000000
1.000000 0.151156 0.000000
1.000000 0.321721 0.000000
1.000000 0.409339 0.083803
0.024994 0.122774 0.122683
0.103304 0.120821 0.120150
0.252628 0.147005 0.113771
0.601099 0.099794 0.096101
0.975372 0.000000 0.000000
1.000000 0.255711 0.000000
1.000000 0.364630 0.000000
1.000000 0.435706 0.091737
0.193606 0.237461 0.125551
0.217746 0.223301 0.125887
0.247593 0.193271 0.144442
0.550683 0.288029 0.136080
0.919982 0.375647 0.000000
1.000000 0.462379 0.000000
1.000000 0.513512 0.000000
1.000000 0.548272 0.177310
0.401556 0.404639 0.071778
0.421332 0.384985 0.073915
0.444556 0.350103 0.123781
0.515160 0.311681 0.173312
0.853422 0.483345 0.148959
1.000000 0.642939 0.182406
1.000000 0.673121 0.224002
1.000000 0.684108 0.301396
0.633417 0.596551 0.000000
0.646448 0.580438 0.000000
0.667964 0.548089 0.000000
0.705226 0.507408 0.093141
0.787564 0.477485 0.200778
1.000000 0.659327 0.243595
1.000000 0.780575 0.396063
1.000000 0.802823 0.470680
0.800748 0.764492 0.000000
0.810361 0.756008 0.000000
0.831724 0.728115 0.000000
0.862699 0.708949 0.000000
0.900450 0.673518 0.122560
0.966735 0.660060 0.279423
1.000000 0.784329 0.415564
1.000000 0.853117 0.576349
0.914702 0.885405 0.000000
0.920531 0.881254 0.000000
0.944091 0.864775 0.000000
0.958862 0.848844 0.000000
0.979583 0.828702 0.133791
1.000000 0.797055 0.266239
1.000000 0.782406 0.416999
1.000000 0.851072 0.572015
0.971313 0.949584 0.361913
0.976562 0.948577 0.353460
0.996582 0.942962 0.304601
1.000000 0.930449 0.252781
1.000000 0.918517 0.321416
1.000000 0.900633 0.388037
1.000000 0.876646 0.454688
1.000000 0.873777 0.631922
0.049226 0.136049 0.154543
0.071077 0.118502 0.155276
0.161990 0.124697 0.155734
0.664210 0.000000 0.120241
0.986572 0.000000 0.000000
1.000000 0.286564 0.000000
1.000000 0.396216 0.000000
1.000000 0.451789 0.117556
0.091341 0.157046 0.169558
0.100099 0.145480 0.174594
0.253239 0.135042 0.176089
0.637232 0.000000 0.134981
0.959442 0.179446 0.000000
1.000000 0.342412 0.000000
1.000000 0.425605 0.000000
1.000000 0.473915 0.125185
0.000000 0.278813 0.216068
0.179995 0.273320 0.214084
0.295262 0.249180 0.215396
0.599207 0.323156 0.200565
0.919646 0.402777 0.047639
1.000000 0.496559 0.000000
1.000000 0.543664 0.000000
1.000000 0.568048 0.193668
0.389990 0.463935 0.196323
0.436988 0.445380 0.184939
0.486061 0.395239 0.199405
0.578332 0.369512 0.241611
0.873136 0.516808 0.213779
1.000000 0.655360 0.201053
1.000000 0.687282 0.244938
1.000000 0.694606 0.316594
0.632532 0.633936 0.118776
0.650538 0.618891 0.098604
0.686519 0.577783 0.115114
0.727901 0.540215 0.195682
0.818784 0.523980 0.275425
1.000000 0.669642 0.273014
1.000000 0.781765 0.398627
1.000000 0.805478 0.476631
0.794553 0.783047 0.000000
0.805417 0.775265 0.000000
0.833738 0.740078 0.000000
0.863676 0.720211 0.088960
0.901061 0.685939 0.225345
0.966644 0.677638 0.345922
1.000000 0.783658 0.414252
1.000000 0.853910 0.578576
0.904753 0.893919 0.205600
0.911162 0.890074 0.182712
0.937194 0.874205 0.000000
0.956451 0.853635 0.069184
0.976837 0.833677 0.228122
1.000000 0.804135 0.326787
1.000000 0.789670 0.449470
1.000000 0.853941 0.579919
0.957763 0.952911 0.428870
0.962799 0.951446 0.417578
0.983825 0.945769 0.373144
1.000000 0.932647 0.295750
1.000000 0.920836 0.358434
1.000000 0.903899 0.425269
1.000000 0.881041 0.491066
1.000000 0.874846 0.636408
0.004547 0.180301 0.228550
0.020447 0.160952 0.228977
0.187045 0.127047 0.229129
0.302251 0.156832 0.229313
1.000000 0.000000 0.197574
1.000000 0.193240 0.000000
1.000000 0.400000 0.000000
1.000000 0.461341 0.114565
0.090822 0.211490 0.252995
0.095521 0.195865 0.254032
0.213169 0.156069 0.251011
0.393469 0.161471 0.257267
1.000000 0.000000 0.211521
1.000000 0.288060 0.046082
1.000000 0.439094 0.000000
1.000000 0.487770 0.130953
0.170016 0.306889 0.314549
0.213596 0.311803 0.320165
0.308995 0.291447 0.330755
0.722499 0.278904 0.321721
0.985901 0.369574 0.264744
1.000000 0.491066 0.180850
1.000000 0.568292 0.085237
1.000000 0.582788 0.209049
0.000000 0.571435 0.414221
0.121553 0.564019 0.385809
0.534569 0.486671 0.346563
0.655756 0.476448 0.386633
0.899107 0.604669 0.395453
1.000000 0.665553 0.341131
1.000000 0.693294 0.268223
1.000000 0.697536 0.320134
0.587030 0.730404 0.372747
0.619867 0.713252 0.354284
0.715663 0.645197 0.286381
0.759854 0.603418 0.344091
0.858762 0.608606 0.412787
1.000000 0.726802 0.437934
1.000000 0.797024 0.461677
1.000000 0.806577 0.480720
0.777127 0.829770 0.340093
0.793576 0.824918 0.328496
0.839261 0.789944 0.261387
0.874022 0.756161 0.288487
0.909880 0.724697 0.365515
0.970214 0.724605 0.461219
1.000000 0.806455 0.507744
1.000000 0.856077 0.585077
0.875029 0.910796 0.402899
0.883421 0.907866 0.390539
0.915648 0.894194 0.333562
0.953338 0.867277 0.271763
0.973449 0.848417 0.348638
0.995239 0.820706 0.427680
1.000000 0.809964 0.535454
1.000000 0.856779 0.587976
0.927337 0.961364 0.558343
0.932830 0.960113 0.548852
0.955840 0.954559 0.508141
0.998718 0.943145 0.423163
1.000000 0.926787 0.423224
1.000000 0.910277 0.487312
1.000000 0.889067 0.553429
1.000000 0.877501 0.648280
0.000000 0.247562 0.338140
0.000000 0.233982 0.339055
0.159365 0.189456 0.334264
0.314672 0.149691 0.313329
0.476753 0.182406 0.315801
1.000000 0.000000 0.337377
1.000000 0.264408 0.260685
1.000000 0.447944 0.148592
0.065522 0.281926 0.363592
0.082338 0.267430 0.364050
0.185824 0.215457 0.357336
0.340429 0.173922 0.331487
0.552209 0.183047 0.342870
1.000000 0.000000 0.328283
1.000000 0.335119 0.274693
1.000000 0.474891 0.168765
0.274266 0.405646 0.434699
0.287022 0.405402 0.444434
0.286137 0.333043 0.440589
0.436103 0.289097 0.398047
0.830503 0.230747 0.436439
1.000000 0.358862 0.398749
1.000000 0.506767 0.331731
1.000000 0.563073 0.236118
0.324987 0.561028 0.552758
0.368444 0.563378 0.556664
0.514641 0.575250 0.574792
0.751583 0.583001 0.588617
0.951415 0.621881 0.555871
1.000000 0.663203 0.509209
1.000000 0.686610 0.451087
1.000000 0.684382 0.352911
0.336492 0.820829 0.644282
0.389441 0.816190 0.627558
0.623651 0.784482 0.601740
0.775937 0.690944 0.537621
0.875273 0.707881 0.588830
0.985321 0.791501 0.620508
1.000000 0.811978 0.591394
1.000000 0.796780 0.503441
0.692287 0.885405 0.608637
0.710445 0.879210 0.594415
0.776455 0.848722 0.530266
0.858671 0.786191 0.440223
0.896757 0.759426 0.509087
0.960266 0.775998 0.595666
1.000000 0.841642 0.643458
1.000000 0.871275 0.658228
0.813107 0.935637 0.631647
0.820584 0.932891 0.619074
0.853635 0.921202 0.568139
0.919982 0.894133 0.462898
0.958953 0.863890 0.460731
0.981231 0.838865 0.537163
1.000000 0.834958 0.632410
1.000000 0.873838 0.670222
0.869871 0.972381 0.717708
0.874876 0.971252 0.709682
0.897612 0.966064 0.673915
0.945983 0.955627 0.601404
1.000000 0.934569 0.487861
1.000000 0.918395 0.556207
1.000000 0.898466 0.625116
1.000000 0.889189 0.712795
0.000000 0.356329 0.496345
0.000000 0.341619 0.495430
0.104524 0.274510 0.484230
0.354772 0.195743 0.456947
0.453498 0.171725 0.392432
0.653956 0.214054 0.414984
1.000000 0.000000 0.513390
1.000000 0.358495 0.450233
0.099763 0.380285 0.507042
0.101381 0.364935 0.505028
0.143832 0.294957 0.494850
0.369635 0.212924 0.465553
0.467475 0.192020 0.400977
0.696284 0.218540 0.433143
1.000000 0.000000 0.510887
1.000000 0.403601 0.459846
0.344427 0.507103 0.577844
0.335698 0.492317 0.575097
0.311254 0.418585 0.564843
0.456825 0.303624 0.530144
0.563592 0.287968 0.465675
0.883452 0.286900 0.525750
1.000000 0.319707 0.525505
1.000000 0.539910 0.504417
0.526085 0.648188 0.650752
0.546380 0.648829 0.651514
0.585290 0.653498 0.672724
0.617029 0.544823 0.662989
0.712062 0.516899 0.596887
1.000000 0.570184 0.657893
1.000000 0.688228 0.654353
1.000000 0.696651 0.586175
0.518181 0.803738 0.771054
0.543236 0.804318 0.772824
0.633845 0.807462 0.780484
0.763424 0.813840 0.794858
0.890410 0.823026 0.788907
0.987335 0.828824 0.765896
1.000000 0.825437 0.730404
1.000000 0.804227 0.660761
0.630793 0.929870 0.822965
0.646509 0.928466 0.818631
0.691066 0.919829 0.792599
0.812070 0.890288 0.764279
0.888090 0.835325 0.710719
0.944427 0.851926 0.767758
1.000000 0.892546 0.799405
1.000000 0.887266 0.761807
0.730129 0.963561 0.790249
0.745815 0.961852 0.793240
0.798489 0.954009 0.800687
0.856321 0.936767 0.766110
0.937621 0.896910 0.624048
0.959930 0.873350 0.686885
0.989349 0.876341 0.762570
1.000000 0.905669 0.789120
0.827481 0.984405 0.836393
0.833341 0.983429 0.837034
0.858427 0.979492 0.841520
0.885130 0.972686 0.814298
0.938048 0.957916 0.721645
0.998535 0.932280 0.649622
1.000000 0.914763 0.723507
1.000000 0.909728 0.794095
0.211856 0.511498 0.684047
0.211398 0.498573 0.684688
0.200626 0.424506 0.673182
0.379095 0.320775 0.644099
0.591882 0.126375 0.583642
0.630426 0.176089 0.497444
0.794369 0.284367 0.521111
1.000000 0.317205 0.647456
0.251957 0.521721 0.680049
0.250706 0.510094 0.681117
0.235447 0.438972 0.670375
0.381170 0.332219 0.640497
0.589776 0.151034 0.580896
0.628962 0.193851 0.496071
0.804135 0.282963 0.522850
1.000000 0.310704 0.637903
0.418433 0.617578 0.719722
0.411841 0.604639 0.717556
0.385016 0.539544 0.705989
0.439216 0.414008 0.678767
0.638453 0.240208 0.618647
0.684749 0.277195 0.538262
0.916167 0.344457 0.592859
1.000000 0.446662 0.663447
0.596246 0.746181 0.765805
0.597925 0.742702 0.766842
0.604334 0.722957 0.771725
0.558221 0.598291 0.754635
0.725734 0.423651 0.702113
0.775662 0.447761 0.623804
1.000000 0.524498 0.700099
1.000000 0.637629 0.715450
0.655238 0.831571 0.817594
0.664607 0.829618 0.816190
0.708278 0.826902 0.815183
0.763699 0.825193 0.820798
0.781857 0.715328 0.804654
0.840848 0.673640 0.731167
1.000000 0.770779 0.801358
1.000000 0.830991 0.814267
0.677272 0.914794 0.881193
0.688533 0.914611 0.881834
0.730190 0.913573 0.883909
0.796567 0.912169 0.888121
0.869291 0.911345 0.894347
0.941985 0.912840 0.893278
0.998413 0.912596 0.881285
1.000000 0.902098 0.857389
0.781430 0.974762 0.926604
0.786801 0.974182 0.925414
0.804929 0.971283 0.919341
0.834348 0.965148 0.905577
0.879850 0.951507 0.884886
0.934539 0.915221 0.839750
0.968719 0.922576 0.877134
1.000000 0.941344 0.890440
0.815000 0.991943 0.907225
0.818357 0.991577 0.906645
0.832822 0.990143 0.904753
0.853330 0.986969 0.897704
0.902434 0.978210 0.900389
0.946441 0.960052 0.839780
0.985046 0.938170 0.830228
1.000000 0.937957 0.879423
0.477577 0.705104 0.852018
0.474067 0.694850 0.852293
0.448524 0.635889 0.847196
0.472175 0.514122 0.838193
0.659083 0.361028 0.805386
0.806638 0.069215 0.737514
0.829465 0.197757 0.641077
0.961151 0.407263 0.676081
0.486458 0.709957 0.848081
0.483406 0.700435 0.848478
0.460517 0.645686 0.844602
0.470466 0.522026 0.835172
0.654017 0.371374 0.802274
0.802945 0.118471 0.734554
0.825467 0.211490 0.638056
0.955291 0.407965 0.670527
0.565148 0.760433 0.852415
0.559228 0.751400 0.851926
0.532341 0.704646 0.847776
0.503136 0.584771 0.844236
0.659815 0.437110 0.812863
0.813870 0.221683 0.746670
0.842008 0.281010 0.654963
0.959533 0.450843 0.681392
0.679744 0.833829 0.861936
0.682704 0.831998 0.863188
0.667262 0.808957 0.861601
0.621820 0.728389 0.855863
0.670771 0.568566 0.836179
0.840879 0.362890 0.780972
0.875364 0.402747 0.695705
1.000000 0.542687 0.740658
0.757748 0.878477 0.867796
0.764065 0.878386 0.867857
0.762875 0.874357 0.869627
0.769986 0.863493 0.876097
0.717433 0.761044 0.866423
0.859129 0.546075 0.827451
0.903014 0.566522 0.752956
1.000000 0.697200 0.809506
0.752682 0.921111 0.904021
0.756832 0.920256 0.903471
0.776120 0.917510 0.901946
0.813626 0.913512 0.900114
0.858091 0.908934 0.898436
0.851591 0.844938 0.892393
0.914336 0.793606 0.841611
1.000000 0.862272 0.883116
0.769467 0.964111 0.938537
0.774136 0.963775 0.938598
0.793393 0.962310 0.938811
0.828672 0.959777 0.939544
0.873075 0.956542 0.940764
0.918578 0.953185 0.942260
0.957183 0.942992 0.937316
1.000000 0.950713 0.938903
0.827085 0.993072 0.961059
0.830625 0.992920 0.961334
0.846250 0.992523 0.962860
0.874388 0.992096 0.966217
0.904997 0.990509 0.966430
0.929076 0.985199 0.956146
0.962676 0.967498 0.930144
0.987884 0.969604 0.951568
