20 Preset/Street 2/【3】LUT video cho PR-AE-FCPX/Tone 1 (13).cube
# Created by Adobe Lightroom plugin Export LUT (1.24.0)
# www.johnrellis.com/lightroom/exportlut.htm
# Preset: 青橙风光-素材江湖13
# Color profile: C:\Program Files (x86)\Common Files\Adobe\Color\Profiles\Recommended\VideoHD.icc
LUT_3D_SIZE 8
DOMAIN_MIN 0.000000 0.000000 0.000000
DOMAIN_MAX 0.903226 0.903226 0.903226
0.099275 0.144137 0.140627
0.114412 0.143221 0.140536
0.218173 0.140658 0.138766
0.445014 0.080659 0.136660
0.742245 0.000000 0.122683
1.000000 0.000000 0.058503
1.000000 0.143191 0.027344
1.000000 0.303563 0.127199
0.093111 0.152499 0.141512
0.110658 0.154421 0.140780
0.205783 0.159884 0.138369
0.408301 0.140505 0.135439
0.696010 0.000000 0.121767
0.955688 0.000000 0.056367
1.000000 0.164340 0.000000
1.000000 0.304112 0.086580
0.012482 0.214664 0.151675
0.083101 0.214176 0.154971
0.191348 0.231571 0.145418
0.457771 0.272892 0.121309
0.771725 0.296971 0.002258
0.980987 0.352697 0.000000
1.000000 0.415015 0.000000
1.000000 0.460304 0.132174
0.000000 0.405798 0.160952
0.000000 0.400977 0.167208
0.130190 0.432898 0.163424
0.501701 0.510460 0.054963
0.837125 0.605859 0.000000
0.995117 0.618067 0.000000
1.000000 0.607416 0.069856
1.000000 0.604089 0.194675
0.000000 0.686427 0.213657
0.000000 0.683711 0.222385
0.191287 0.684382 0.258701
0.504692 0.705379 0.220188
0.741054 0.716426 0.115602
0.923033 0.736019 0.096712
1.000000 0.737697 0.232425
1.000000 0.729946 0.319554
0.256291 0.837644 0.388586
0.341466 0.845670 0.415015
0.457984 0.842527 0.443488
0.588708 0.841611 0.447822
0.729366 0.841215 0.406287
0.879698 0.842679 0.354894
0.991730 0.841825 0.395880
1.000000 0.836790 0.486671
0.580285 0.917601 0.600916
0.596490 0.918120 0.609613
0.634791 0.914977 0.622919
0.697505 0.911345 0.648280
0.755886 0.909697 0.619074
0.843015 0.909789 0.590753
0.944305 0.909850 0.556939
1.000000 0.900603 0.582147
0.752590 0.963226 0.767605
0.756405 0.962860 0.769192
0.774319 0.961852 0.778134
0.806729 0.960571 0.796353
0.816373 0.953399 0.771359
0.861479 0.956115 0.767453
0.917693 0.958495 0.761624
0.981903 0.957977 0.742367
0.096071 0.144564 0.147890
0.105776 0.143832 0.149142
0.187411 0.139681 0.150851
0.359594 0.113252 0.154910
0.652308 0.000000 0.151186
0.921996 0.000000 0.136599
1.000000 0.000000 0.122499
1.000000 0.211887 0.138491
0.087160 0.151766 0.148928
0.106783 0.153780 0.150729
0.186130 0.156497 0.153384
0.364782 0.141024 0.154330
0.649989 0.000000 0.148653
0.909941 0.000000 0.130068
1.000000 0.000000 0.111360
1.000000 0.234470 0.119966
0.022339 0.210880 0.162417
0.088136 0.210910 0.165866
0.182101 0.223880 0.161654
0.418616 0.253513 0.150790
0.703761 0.250919 0.125978
0.925719 0.283513 0.063783
1.000000 0.340612 0.023713
1.000000 0.405066 0.122835
0.000000 0.370275 0.176303
0.000000 0.370428 0.181399
0.120119 0.390509 0.187747
0.410742 0.433082 0.146273
0.736477 0.511284 0.000000
0.932311 0.544060 0.000000
1.000000 0.548302 0.000000
1.000000 0.559716 0.139010
0.000000 0.663722 0.225986
0.000000 0.657984 0.231357
0.100862 0.651728 0.263310
0.448676 0.662715 0.226108
0.685328 0.668116 0.132845
0.889708 0.701259 0.086061
1.000000 0.713436 0.207828
1.000000 0.708980 0.285344
0.134096 0.818936 0.368566
0.223301 0.818845 0.376379
0.389899 0.817105 0.406073
0.548455 0.819364 0.422827
0.703700 0.822873 0.387671
0.865202 0.829862 0.347295
0.982788 0.831418 0.382879
1.000000 0.826658 0.465461
0.537438 0.907408 0.570550
0.543450 0.905272 0.569024
0.587793 0.901732 0.581994
0.665797 0.898863 0.617121
0.737911 0.900267 0.597833
0.830137 0.900603 0.568505
0.934020 0.898802 0.524346
1.000000 0.889281 0.542290
0.731350 0.958618 0.748867
0.739528 0.959045 0.754452
0.758145 0.957855 0.763180
0.793545 0.956664 0.783108
0.827481 0.956634 0.789578
0.864195 0.957000 0.776486
0.916045 0.957427 0.761715
0.980560 0.956756 0.741176
0.032197 0.145724 0.200381
0.048371 0.145235 0.203006
0.165408 0.141573 0.209140
0.346563 0.123415 0.224949
0.658564 0.000000 0.232761
0.927886 0.000000 0.232395
1.000000 0.000000 0.257023
1.000000 0.195315 0.282689
0.018219 0.154360 0.203616
0.066743 0.153658 0.206149
0.167971 0.155154 0.212253
0.345403 0.141329 0.223117
0.640497 0.000000 0.223911
0.904814 0.000000 0.234897
1.000000 0.000000 0.245579
1.000000 0.221347 0.268406
0.000000 0.215274 0.216709
0.000000 0.218082 0.219394
0.173892 0.227024 0.227146
0.392096 0.225284 0.229923
0.703426 0.197757 0.236667
0.929259 0.221927 0.239414
1.000000 0.307164 0.249210
1.000000 0.394110 0.278538
0.000000 0.395758 0.250736
0.000000 0.403235 0.256809
0.129183 0.416999 0.272648
0.431769 0.453742 0.259648
0.760006 0.522820 0.258091
0.937224 0.540032 0.259770
1.000000 0.550622 0.276738
1.000000 0.567681 0.313756
0.000000 0.668940 0.306676
0.000000 0.667597 0.313268
0.144686 0.666468 0.342809
0.468757 0.677119 0.356054
0.702846 0.687037 0.301335
0.894987 0.709926 0.304662
1.000000 0.719173 0.366827
1.000000 0.714473 0.403906
0.141970 0.818540 0.428443
0.235355 0.819242 0.436622
0.398596 0.816495 0.460945
0.556115 0.813870 0.498360
0.695094 0.817197 0.464668
0.854368 0.824887 0.430762
0.974304 0.830289 0.466133
1.000000 0.832120 0.548272
0.564111 0.910094 0.616907
0.570489 0.908354 0.616114
0.607172 0.903838 0.623377
0.677180 0.899413 0.650782
0.743862 0.898985 0.645106
0.830014 0.900969 0.621912
0.932097 0.902464 0.592554
1.000000 0.896544 0.616693
0.736202 0.958862 0.763272
0.738674 0.958129 0.763149
0.756863 0.956817 0.770809
0.796231 0.956664 0.793606
0.832090 0.955779 0.806241
0.868223 0.957427 0.797848
0.917357 0.958556 0.786038
0.978882 0.958129 0.767453
0.000000 0.146914 0.313268
0.000000 0.145968 0.319707
0.110323 0.139254 0.325811
0.302007 0.115450 0.345434
0.586847 0.000000 0.374731
0.893584 0.000000 0.415991
1.000000 0.000000 0.404089
1.000000 0.000000 0.393103
0.000000 0.152865 0.329747
0.000000 0.153079 0.332769
0.106020 0.151186 0.339391
0.317418 0.128145 0.357305
0.609369 0.000000 0.384497
0.896208 0.000000 0.415686
1.000000 0.000000 0.399145
1.000000 0.000000 0.390387
0.000000 0.218845 0.345983
0.000000 0.217746 0.349279
0.000000 0.210758 0.359960
0.339605 0.205997 0.370306
0.666072 0.220249 0.409857
0.920531 0.110414 0.424018
1.000000 0.197452 0.421088
1.000000 0.368200 0.445747
0.000000 0.397467 0.386328
0.000000 0.400885 0.388769
0.000000 0.418860 0.401434
0.408423 0.445380 0.423011
0.704036 0.449073 0.423468
0.898161 0.469825 0.427771
1.000000 0.508690 0.442206
1.000000 0.553735 0.467597
0.000000 0.685878 0.460822
0.000000 0.683436 0.460487
0.000000 0.683406 0.473671
0.498451 0.691676 0.513390
0.707332 0.701930 0.493507
0.891020 0.723079 0.518242
0.994476 0.724147 0.536858
1.000000 0.722774 0.549401
0.332311 0.830594 0.570062
0.407233 0.836637 0.588830
0.462837 0.834318 0.580713
0.607233 0.830900 0.615259
0.720027 0.830838 0.621180
0.849424 0.831601 0.580133
0.962036 0.837583 0.607965
1.000000 0.844114 0.667384
0.582086 0.911772 0.673976
0.596277 0.911711 0.678798
0.641199 0.910002 0.692653
0.709468 0.907439 0.718166
0.774624 0.905028 0.738491
0.837430 0.905882 0.714351
0.925933 0.905699 0.682765
0.998749 0.902586 0.701259
0.753140 0.962402 0.796445
0.756893 0.962005 0.797543
0.773526 0.960693 0.803403
0.804746 0.958923 0.816617
0.842679 0.956573 0.834409
0.874083 0.957733 0.829435
0.918273 0.959503 0.819699
0.976471 0.960357 0.806973
0.000000 0.146944 0.487617
0.000000 0.144198 0.492958
0.000000 0.134798 0.497353
0.259342 0.094697 0.510246
0.537041 0.000000 0.533867
0.828336 0.000000 0.581262
1.000000 0.000000 0.595392
1.000000 0.158724 0.585840
0.000000 0.152041 0.502281
0.000000 0.151431 0.508843
0.000000 0.145693 0.513664
0.263279 0.111238 0.518517
0.553033 0.000000 0.544549
0.834806 0.000000 0.585321
1.000000 0.095247 0.596307
1.000000 0.213596 0.585412
0.000000 0.220859 0.525689
0.000000 0.216068 0.528893
0.000000 0.201114 0.534386
0.266545 0.186435 0.536339
0.580499 0.115358 0.559960
0.829160 0.180453 0.578363
0.994812 0.288945 0.588983
1.000000 0.318425 0.573510
0.000000 0.384924 0.553552
0.000000 0.384985 0.556023
0.000000 0.388708 0.569085
0.275700 0.387762 0.588617
0.631098 0.392432 0.597406
0.842863 0.492164 0.607904
0.986328 0.482582 0.597681
1.000000 0.492287 0.580804
0.000000 0.637049 0.591302
0.000000 0.640070 0.593957
0.000000 0.646693 0.600763
0.306401 0.656245 0.612726
0.648646 0.664210 0.625177
0.833371 0.659510 0.617548
0.957488 0.667872 0.619043
1.000000 0.685115 0.628962
0.000000 0.804685 0.608148
0.000000 0.804715 0.610101
0.000000 0.798947 0.611597
0.476631 0.794888 0.631373
0.676387 0.796262 0.670192
0.815579 0.812009 0.672541
0.938537 0.831693 0.711055
1.000000 0.835752 0.731258
0.508568 0.906218 0.712062
0.522087 0.904479 0.712001
0.586969 0.900237 0.720150
0.681361 0.899290 0.741878
0.763912 0.898405 0.768399
0.827665 0.898405 0.770443
0.909239 0.897948 0.740414
0.985687 0.897215 0.751156
0.731441 0.957031 0.808225
0.733333 0.956725 0.807462
0.743526 0.956023 0.806302
0.784848 0.956817 0.822141
0.831693 0.954742 0.841123
0.872587 0.953979 0.854124
0.911925 0.955962 0.843046
0.968902 0.956542 0.827665
0.000000 0.143160 0.693935
0.000000 0.138979 0.696498
0.000000 0.123079 0.693996
0.181308 0.000000 0.697414
0.529412 0.000000 0.706874
0.789731 0.000000 0.735439
0.973480 0.000000 0.749691
1.000000 0.385229 0.744350
0.000000 0.148653 0.679622
0.000000 0.147158 0.679744
0.000000 0.137209 0.680720
0.148714 0.071534 0.684688
0.515373 0.000000 0.696254
0.773800 0.000000 0.721065
0.961852 0.000000 0.737881
1.000000 0.389837 0.736141
0.000000 0.212284 0.704768
0.000000 0.204288 0.705226
0.000000 0.192538 0.707088
0.104646 0.167880 0.707027
0.535973 0.000000 0.715663
0.789090 0.000000 0.733364
0.962982 0.248234 0.744320
1.000000 0.509789 0.743862
0.000000 0.397559 0.735866
0.000000 0.393378 0.735531
0.000000 0.381811 0.742458
0.000000 0.370184 0.760098
0.583673 0.365087 0.762997
0.818936 0.390326 0.768185
0.955077 0.541375 0.766110
1.000000 0.642023 0.766934
0.000000 0.609583 0.736324
0.000000 0.608972 0.736751
0.000000 0.608515 0.740444
0.000000 0.609216 0.749477
0.556420 0.611139 0.757229
0.789517 0.619898 0.758175
0.918273 0.703395 0.764187
1.000000 0.699153 0.754604
0.000000 0.791989 0.745968
0.000000 0.796048 0.750881
0.000000 0.795377 0.752621
0.228519 0.794858 0.756893
0.589868 0.794888 0.763119
0.795315 0.807523 0.781857
0.913390 0.809415 0.783413
0.995636 0.813291 0.785672
0.000000 0.914885 0.771786
0.153902 0.915251 0.774960
0.384100 0.912108 0.779049
0.575647 0.906676 0.789364
0.732052 0.901457 0.809140
0.834287 0.900298 0.834623
0.900603 0.899901 0.820157
0.976745 0.906371 0.835904
0.624048 0.962310 0.816648
0.630976 0.961303 0.816495
0.670649 0.958862 0.821714
0.742885 0.956298 0.837430
0.816861 0.953521 0.857725
0.867735 0.952422 0.873930
0.909117 0.953918 0.878050
0.961791 0.954742 0.862882
0.000000 0.142123 0.828763
0.000000 0.137057 0.830472
0.000000 0.108736 0.830106
0.000000 0.000000 0.832670
0.491829 0.000000 0.835752
0.728084 0.000000 0.837308
0.914519 0.000000 0.847410
1.000000 0.000000 0.843717
0.000000 0.142123 0.821927
0.000000 0.139834 0.824430
0.000000 0.123140 0.825040
0.000000 0.000000 0.825986
0.477821 0.000000 0.828702
0.716884 0.000000 0.828824
0.903899 0.000000 0.837858
1.000000 0.000000 0.834257
0.000000 0.186465 0.834012
0.000000 0.182437 0.834531
0.000000 0.177310 0.834012
0.000000 0.142275 0.835142
0.471046 0.000000 0.834470
0.720882 0.000000 0.834440
0.910765 0.000000 0.845335
1.000000 0.292485 0.841550
0.000000 0.356268 0.847257
0.000000 0.349310 0.846128
0.000000 0.324956 0.846952
0.000000 0.302464 0.849546
0.461921 0.278935 0.847745
0.727565 0.258701 0.847318
0.912200 0.320623 0.854490
1.000000 0.516503 0.844999
0.000000 0.564935 0.844205
0.000000 0.561395 0.843137
0.000000 0.551202 0.843351
0.000000 0.532769 0.847044
0.404364 0.522240 0.849607
0.703304 0.521111 0.846921
0.889189 0.559960 0.850278
0.986664 0.690852 0.847898
0.000000 0.748928 0.844938
0.000000 0.748653 0.845487
0.000000 0.746609 0.846921
0.000000 0.742245 0.849577
0.423804 0.739559 0.852293
0.715358 0.753780 0.856718
0.875120 0.765774 0.859129
0.963928 0.824979 0.864714
0.000000 0.892241 0.855589
0.000000 0.892485 0.856535
0.000000 0.890898 0.857298
0.234348 0.888426 0.859464
0.572045 0.885283 0.862119
0.756558 0.885191 0.866972
0.881743 0.891081 0.876432
0.961730 0.888426 0.873564
0.186984 0.971710 0.851682
0.259251 0.971099 0.852567
0.428870 0.968780 0.857450
0.587152 0.963989 0.864469
0.724788 0.958343 0.875242
0.836851 0.954070 0.892149
0.910643 0.953582 0.912902
0.955413 0.954437 0.905089
0.000000 0.152041 0.931853
0.000000 0.147951 0.932464
0.000000 0.119875 0.931212
0.000000 0.000000 0.932403
0.449470 0.000000 0.933318
0.695003 0.000000 0.933257
0.871275 0.000000 0.933837
1.000000 0.000000 0.937560
0.000000 0.148501 0.928923
0.000000 0.144015 0.929625
0.000000 0.113405 0.929107
0.000000 0.000000 0.930358
0.439002 0.000000 0.931090
0.689784 0.000000 0.930907
0.866667 0.000000 0.930694
1.000000 0.000000 0.933959
0.000000 0.171389 0.930388
0.000000 0.170016 0.930663
0.000000 0.159396 0.930297
0.000000 0.110506 0.932921
0.413886 0.000000 0.932158
0.681483 0.000000 0.930602
0.863096 0.000000 0.930144
1.000000 0.000000 0.932921
0.000000 0.300389 0.932219
0.000000 0.294469 0.932952
0.000000 0.267430 0.933776
0.000000 0.254154 0.934783
0.356878 0.218326 0.934356
0.666560 0.160403 0.932891
0.856260 0.141909 0.931731
0.996551 0.290532 0.933043
0.000000 0.498421 0.929503
0.000000 0.494606 0.930297
0.000000 0.473701 0.930999
0.000000 0.445289 0.933165
0.154604 0.433997 0.932799
0.623072 0.427588 0.930327
0.831540 0.440620 0.928344
0.976196 0.520500 0.929290
0.000000 0.690669 0.924651
0.000000 0.688167 0.924224
0.000000 0.679133 0.923613
0.000000 0.663447 0.924468
0.000000 0.641932 0.926818
0.590051 0.666438 0.927001
0.809079 0.682734 0.927123
0.951812 0.725490 0.928740
0.000000 0.844694 0.923827
0.000000 0.843839 0.923705
0.000000 0.840391 0.923369
0.000000 0.834897 0.923766
0.000000 0.829160 0.924163
0.608820 0.830594 0.924743
0.818265 0.847715 0.926757
0.937652 0.859342 0.929686
0.000000 0.961120 0.929931
0.000000 0.960510 0.929808
0.000000 0.958282 0.929931
0.120363 0.954711 0.930877
0.542077 0.950286 0.932006
0.728786 0.947112 0.933684
0.856931 0.946777 0.936950
0.945464 0.950866 0.943603
