20 Preset/City Style/【1】LRtemplate Lightroom bản cũ/TONE 3/Dubai I warm.lrtemplate
s = {
	id = "F6D4319C-46EF-4987-BE91-B91BAAC419BA",
	internalName = "Dubai I warm",
	title = "Dubai I warm",
	type = "Develop",
	value = {
		settings = {
			AutoLateralCA = 0,
			Blacks2012 = 42,
			BlueHue = 15,
			BlueSaturation = 0,
			CameraProfile = "Adobe Standard",
			ChromaticAberrationB = 0,
			ChromaticAberrationR = 0,
			Clarity2012 = 0,
			ColorNoiseReduction = 25,
			ColorNoiseReductionDetail = 50,
			ColorNoiseReductionSmoothness = 50,
			Contrast2012 = 3,
			ConvertToGrayscale = false,
			CropConstrainToWarp = 0,
			Defringe = 0,
			DefringeGreenAmount = 0,
			DefringeGreenHueHi = 60,
			DefringeGreenHueLo = 40,
			DefringePurpleAmount = 0,
			DefringePurpleHueHi = 70,
			DefringePurpleHueLo = 30,
			Dehaze = 0,
			EnableCalibration = true,
			EnableColorAdjustments = true,
			EnableDetail = true,
			EnableEffects = true,
			EnableLensCorrections = true,
			EnableSplitToning = true,
			Exposure2012 = 1.2,
			GrainAmount = 0,
			GrainFrequency = 50,
			GrainSize = 25,
			GreenHue = 8,
			GreenSaturation = 0,
			Highlights2012 = -47,
			HueAdjustmentAqua = 100,
			HueAdjustmentBlue = 0,
			HueAdjustmentGreen = -100,
			HueAdjustmentMagenta = 61,
			HueAdjustmentOrange = -14,
			HueAdjustmentPurple = 55,
			HueAdjustmentRed = 100,
			HueAdjustmentYellow = -100,
			LensManualDistortionAmount = 0,
			LensProfileEnable = 1,
			LensProfileSetup = "LensDefaults",
			LuminanceAdjustmentAqua = -9,
			LuminanceAdjustmentBlue = -4,
			LuminanceAdjustmentGreen = 0,
			LuminanceAdjustmentMagenta = -5,
			LuminanceAdjustmentOrange = -3,
			LuminanceAdjustmentPurple = -3,
			LuminanceAdjustmentRed = 0,
			LuminanceAdjustmentYellow = 0,
			LuminanceNoiseReductionContrast = 0,
			LuminanceNoiseReductionDetail = 50,
			LuminanceSmoothing = 0,
			ParametricDarks = 0,
			ParametricHighlightSplit = 75,
			ParametricHighlights = 0,
			ParametricLights = 0,
			ParametricMidtoneSplit = 50,
			ParametricShadowSplit = 25,
			ParametricShadows = 0,
			PostCropVignetteAmount = 0,
			PostCropVignetteFeather = 50,
			PostCropVignetteHighlightContrast = 0,
			PostCropVignetteMidpoint = 50,
			PostCropVignetteRoundness = 0,
			PostCropVignetteStyle = 1,
			ProcessVersion = "6.7",
			RedHue = -48,
			RedSaturation = 58,
			Saturation = 0,
			SaturationAdjustmentAqua = -70,
			SaturationAdjustmentBlue = -58,
			SaturationAdjustmentGreen = -100,
			SaturationAdjustmentMagenta = 0,
			SaturationAdjustmentOrange = -100,
			SaturationAdjustmentPurple = 13,
			SaturationAdjustmentRed = 77,
			SaturationAdjustmentYellow = 5,
			ShadowTint = 0,
			Shadows2012 = 100,
			SharpenDetail = 25,
			SharpenEdgeMasking = 0,
			SharpenRadius = 1,
			Sharpness = 25,
			SplitToningBalance = 0,
			SplitToningHighlightHue = 0,
			SplitToningHighlightSaturation = 0,
			SplitToningShadowHue = 0,
			SplitToningShadowSaturation = 0,
			Temperature = 6950,
			Tint = -1,
			ToneCurveName2012 = "Custom",
			ToneCurvePV2012 = {
				0,
				20,
				19,
				20,
				42,
				29,
				127,
				145,
				178,
				202,
				255,
				255,
			},
			ToneCurvePV2012Blue = {
				0,
				0,
				52,
				22,
				67,
				40,
				128,
				135,
				187,
				196,
				255,
				255,
			},
			ToneCurvePV2012Green = {
				0,
				0,
				50,
				21,
				129,
				127,
				181,
				189,
				255,
				255,
			},
			ToneCurvePV2012Red = {
				0,
				0,
				44,
				16,
				63,
				33,
				128,
				129,
				185,
				190,
				255,
				255,
			},
			Vibrance = 0,
			VignetteAmount = 0,
			VignetteMidpoint = 50,
			WhiteBalance = "Custom",
			Whites2012 = -52,
		},
		uuid = "1DA973F8-A584-4483-8CAC-4FC49F661142",
	},
	version = 0,
}
