20 Preset/Ociden Style/【2】XMP cho Photoshop - Lightroom CC/Ocident style 4/Pictor 4 C.xmp
<x:xmpmeta xmlns:x="adobe:ns:meta/" x:xmptk="Adobe XMP Core 5.6-c140 79.160451, 2017/05/06-01:08:21        ">
 <rdf:RDF xmlns:rdf="http://www.w3.org/1999/02/22-rdf-syntax-ns#">
  <rdf:Description rdf:about=""
    xmlns:crs="http://ns.adobe.com/camera-raw-settings/1.0/"
   crs:PresetType="Normal"
   crs:Cluster=""
   crs:UUID="B764031A3E9D4F5F8071DAE65EDFF452"
   crs:SupportsAmount="False"
   crs:SupportsColor="True"
   crs:SupportsMonochrome="True"
   crs:SupportsHighDynamicRange="True"
   crs:SupportsNormalDynamicRange="True"
   crs:SupportsSceneReferred="True"
   crs:SupportsOutputReferred="True"
   crs:CameraModelRestriction=""
   crs:Copyright=""
   crs:ContactInfo=""
   crs:Version="12.0"
   crs:ProcessVersion="6.7"
   crs:Saturation="-35"
   crs:Sharpness="35"
   crs:LuminanceSmoothing="0"
   crs:ColorNoiseReduction="25"
   crs:VignetteAmount="0"
   crs:Vibrance="0"
   crs:HueAdjustmentRed="+5"
   crs:HueAdjustmentOrange="+1"
   crs:HueAdjustmentYellow="+10"
   crs:HueAdjustmentGreen="+100"
   crs:HueAdjustmentAqua="0"
   crs:HueAdjustmentBlue="-10"
   crs:HueAdjustmentPurple="0"
   crs:HueAdjustmentMagenta="0"
   crs:SaturationAdjustmentRed="+30"
   crs:SaturationAdjustmentOrange="+20"
   crs:SaturationAdjustmentYellow="-85"
   crs:SaturationAdjustmentGreen="-21"
   crs:SaturationAdjustmentAqua="+10"
   crs:SaturationAdjustmentBlue="+25"
   crs:SaturationAdjustmentPurple="0"
   crs:SaturationAdjustmentMagenta="0"
   crs:LuminanceAdjustmentRed="-40"
   crs:LuminanceAdjustmentOrange="-57"
   crs:LuminanceAdjustmentYellow="-17"
   crs:LuminanceAdjustmentGreen="+30"
   crs:LuminanceAdjustmentAqua="0"
   crs:LuminanceAdjustmentBlue="+16"
   crs:LuminanceAdjustmentPurple="0"
   crs:LuminanceAdjustmentMagenta="0"
   crs:SplitToningShadowHue="39"
   crs:SplitToningShadowSaturation="23"
   crs:SplitToningHighlightHue="209"
   crs:SplitToningHighlightSaturation="5"
   crs:SplitToningBalance="0"
   crs:ParametricShadows="0"
   crs:ParametricDarks="0"
   crs:ParametricLights="0"
   crs:ParametricHighlights="0"
   crs:ParametricShadowSplit="25"
   crs:ParametricMidtoneSplit="50"
   crs:ParametricHighlightSplit="75"
   crs:SharpenRadius="+1.0"
   crs:SharpenDetail="25"
   crs:SharpenEdgeMasking="0"
   crs:GrainAmount="33"
   crs:GrainSize="28"
   crs:GrainFrequency="66"
   crs:ColorNoiseReductionDetail="50"
   crs:ColorNoiseReductionSmoothness="50"
   crs:LensProfileEnable="0"
   crs:LensManualDistortionAmount="0"
   crs:AutoLateralCA="0"
   crs:Contrast2012="-33"
   crs:Highlights2012="-45"
   crs:Shadows2012="-22"
   crs:Whites2012="+6"
   crs:Blacks2012="-27"
   crs:Clarity2012="0"
   crs:DefringePurpleAmount="0"
   crs:DefringePurpleHueLo="30"
   crs:DefringePurpleHueHi="70"
   crs:DefringeGreenAmount="0"
   crs:DefringeGreenHueLo="40"
   crs:DefringeGreenHueHi="60"
   crs:Dehaze="0"
   crs:ConvertToGrayscale="False"
   crs:ToneCurveName2012="Custom"
   crs:CameraProfile="Default Profile"
   crs:LensProfileSetup="LensDefaults"
   crs:HasSettings="True">
   <crs:Name>
    <rdf:Alt>
     <rdf:li xml:lang="x-default">Pictor 4 C</rdf:li>
    </rdf:Alt>
   </crs:Name>
   <crs:ShortName>
    <rdf:Alt>
     <rdf:li xml:lang="x-default"/>
    </rdf:Alt>
   </crs:ShortName>
   <crs:SortName>
    <rdf:Alt>
     <rdf:li xml:lang="x-default"/>
    </rdf:Alt>
   </crs:SortName>
   <crs:Group>
    <rdf:Alt>
     <rdf:li xml:lang="x-default">Ocident style 4</rdf:li>
    </rdf:Alt>
   </crs:Group>
   <crs:Description>
    <rdf:Alt>
     <rdf:li xml:lang="x-default"/>
    </rdf:Alt>
   </crs:Description>
   <crs:ToneCurvePV2012>
    <rdf:Seq>
     <rdf:li>0, 0</rdf:li>
     <rdf:li>32, 31</rdf:li>
     <rdf:li>107, 105</rdf:li>
     <rdf:li>177, 163</rdf:li>
     <rdf:li>255, 236</rdf:li>
    </rdf:Seq>
   </crs:ToneCurvePV2012>
   <crs:ToneCurvePV2012Red>
    <rdf:Seq>
     <rdf:li>0, 0</rdf:li>
     <rdf:li>40, 12</rdf:li>
     <rdf:li>84, 58</rdf:li>
     <rdf:li>123, 125</rdf:li>
     <rdf:li>186, 196</rdf:li>
     <rdf:li>255, 255</rdf:li>
    </rdf:Seq>
   </crs:ToneCurvePV2012Red>
   <crs:ToneCurvePV2012Green>
    <rdf:Seq>
     <rdf:li>0, 0</rdf:li>
     <rdf:li>40, 14</rdf:li>
     <rdf:li>83, 59</rdf:li>
     <rdf:li>123, 126</rdf:li>
     <rdf:li>172, 185</rdf:li>
     <rdf:li>255, 255</rdf:li>
    </rdf:Seq>
   </crs:ToneCurvePV2012Green>
   <crs:ToneCurvePV2012Blue>
    <rdf:Seq>
     <rdf:li>0, 0</rdf:li>
     <rdf:li>39, 13</rdf:li>
     <rdf:li>87, 65</rdf:li>
     <rdf:li>123, 124</rdf:li>
     <rdf:li>183, 199</rdf:li>
     <rdf:li>255, 255</rdf:li>
    </rdf:Seq>
   </crs:ToneCurvePV2012Blue>
   <crs:Look
    crs:Name=""/>
  </rdf:Description>
 </rdf:RDF>
</x:xmpmeta>
