20 Preset/Car Style/【3】LUT video cho PR-AE-FCPX/Tone  (8).cube
# Created by Adobe Lightroom plugin Export LUT (1.24.0)
# www.johnrellis.com/lightroom/exportlut.htm
# Preset: 09汽车质感（素材江湖）
# Color profile: E:\lut插件\exportlut.1.24\exportlut.lrplugin\color profiles\Rec709gamma2.4.icc
LUT_3D_SIZE 8
DOMAIN_MIN 0.000000 0.000000 0.000000
DOMAIN_MAX 0.903226 0.903226 0.903226
0.096712 0.096712 0.096712
0.100618 0.100618 0.100618
0.115206 0.115206 0.115206
0.152102 0.152102 0.152102
0.221103 0.221103 0.221103
0.311589 0.311589 0.311589
0.430060 0.430060 0.430060
0.560052 0.560052 0.560052
0.110109 0.110109 0.110109
0.113405 0.113405 0.113405
0.130709 0.130709 0.130709
0.168551 0.168551 0.168551
0.234684 0.234684 0.234684
0.320867 0.320867 0.320867
0.429572 0.429572 0.429572
0.556695 0.556695 0.556695
0.188388 0.188388 0.188388
0.192020 0.192020 0.192020
0.210330 0.210330 0.210330
0.254978 0.254978 0.254978
0.309880 0.309880 0.309880
0.392859 0.392859 0.392859
0.495979 0.495979 0.495979
0.613367 0.613367 0.613367
0.332982 0.332982 0.332982
0.334508 0.334508 0.334508
0.349065 0.349065 0.349065
0.386969 0.386969 0.386969
0.454871 0.454871 0.454871
0.513909 0.513909 0.513909
0.591852 0.591852 0.591852
0.683040 0.683040 0.683040
0.505486 0.505486 0.505486
0.506645 0.506645 0.506645
0.514946 0.514946 0.514946
0.537133 0.537133 0.537133
0.567071 0.567071 0.567071
0.627741 0.627741 0.627741
0.685786 0.685786 0.685786
0.758724 0.758724 0.758724
0.667842 0.667842 0.667842
0.673579 0.673579 0.673579
0.678370 0.678370 0.678370
0.689021 0.689021 0.689021
0.706386 0.706386 0.706386
0.731167 0.731167 0.731167
0.787259 0.787259 0.787259
0.839017 0.839017 0.839017
0.811154 0.811154 0.811154
0.812680 0.812680 0.812680
0.814694 0.814694 0.814694
0.819852 0.819852 0.819852
0.828275 0.828275 0.828275
0.842222 0.842222 0.842222
0.859678 0.859678 0.859678
0.897337 0.897337 0.897337
0.918273 0.918273 0.918273
0.918547 0.918547 0.918547
0.920043 0.920043 0.920043
0.923369 0.923369 0.923369
0.922545 0.922545 0.922545
0.930297 0.930297 0.930297
0.939239 0.939239 0.939239
0.947784 0.947784 0.947784
0.098726 0.098726 0.098726
0.100923 0.100923 0.100923
0.116793 0.116793 0.116793
0.159304 0.159304 0.159304
0.226780 0.226780 0.226780
0.312169 0.312169 0.312169
0.416907 0.416907 0.416907
0.539788 0.539788 0.539788
0.108705 0.108705 0.108705
0.115206 0.115206 0.115206
0.135225 0.135225 0.135225
0.176730 0.176730 0.176730
0.242252 0.242252 0.242252
0.325750 0.325750 0.325750
0.423194 0.423194 0.423194
0.541711 0.541711 0.541711
0.190097 0.190097 0.190097
0.193668 0.193668 0.193668
0.210697 0.210697 0.210697
0.254459 0.254459 0.254459
0.309300 0.309300 0.309300
0.386084 0.386084 0.386084
0.476753 0.476753 0.476753
0.592157 0.592157 0.592157
0.327337 0.327337 0.327337
0.329564 0.329564 0.329564
0.343511 0.343511 0.343511
0.373114 0.373114 0.373114
0.432319 0.432319 0.432319
0.489021 0.489021 0.489021
0.565118 0.565118 0.565118
0.660761 0.660761 0.660761
0.500786 0.500786 0.500786
0.501122 0.501122 0.501122
0.507378 0.507378 0.507378
0.525292 0.525292 0.525292
0.551904 0.551904 0.551904
0.612665 0.612665 0.612665
0.672480 0.672480 0.672480
0.746731 0.746731 0.746731
0.659785 0.659785 0.659785
0.661189 0.661189 0.661189
0.666499 0.666499 0.666499
0.678492 0.678492 0.678492
0.697505 0.697505 0.697505
0.724758 0.724758 0.724758
0.781033 0.781033 0.781033
0.832792 0.832792 0.832792
0.803830 0.803830 0.803830
0.803372 0.803372 0.803372
0.805234 0.805234 0.805234
0.811460 0.811460 0.811460
0.822171 0.822171 0.822171
0.836484 0.836484 0.836484
0.853086 0.853086 0.853086
0.891295 0.891295 0.891295
0.914488 0.914488 0.914488
0.915435 0.915435 0.915435
0.916838 0.916838 0.916838
0.920348 0.920348 0.920348
0.925048 0.925048 0.925048
0.931029 0.931029 0.931029
0.938720 0.938720 0.938720
0.947173 0.947173 0.947173
0.106081 0.106081 0.106081
0.107851 0.107851 0.107851
0.119539 0.119539 0.119539
0.169314 0.169314 0.169314
0.243259 0.243259 0.243259
0.335851 0.335851 0.335851
0.439521 0.439521 0.439521
0.559045 0.559045 0.559045
0.124147 0.124147 0.124147
0.127138 0.127138 0.127138
0.140688 0.140688 0.140688
0.189425 0.189425 0.189425
0.258824 0.258824 0.258824
0.347631 0.347631 0.347631
0.444831 0.444831 0.444831
0.561883 0.561883 0.561883
0.182620 0.182620 0.182620
0.190860 0.190860 0.190860
0.222263 0.222263 0.222263
0.264866 0.264866 0.264866
0.326909 0.326909 0.326909
0.404211 0.404211 0.404211
0.492897 0.492897 0.492897
0.602686 0.602686 0.602686
0.338476 0.338476 0.338476
0.344305 0.344305 0.344305
0.358312 0.358312 0.358312
0.385901 0.385901 0.385901
0.443244 0.443244 0.443244
0.502556 0.502556 0.502556
0.579919 0.579919 0.579919
0.671748 0.671748 0.671748
0.508019 0.508019 0.508019
0.509422 0.509422 0.509422
0.517082 0.517082 0.517082
0.535210 0.535210 0.535210
0.563287 0.563287 0.563287
0.619745 0.619745 0.619745
0.678370 0.678370 0.678370
0.751461 0.751461 0.751461
0.663233 0.663233 0.663233
0.664942 0.664942 0.664942
0.669764 0.669764 0.669764
0.679683 0.679683 0.679683
0.697749 0.697749 0.697749
0.724880 0.724880 0.724880
0.781033 0.781033 0.781033
0.834653 0.834653 0.834653
0.807828 0.807828 0.807828
0.807584 0.807584 0.807584
0.808621 0.808621 0.808621
0.813626 0.813626 0.813626
0.823239 0.823239 0.823239
0.838163 0.838163 0.838163
0.856535 0.856535 0.856535
0.895323 0.895323 0.895323
0.915160 0.915160 0.915160
0.915099 0.915099 0.915099
0.916442 0.916442 0.916442
0.920745 0.920745 0.920745
0.925231 0.925231 0.925231
0.931945 0.931945 0.931945
0.939879 0.939849 0.939849
0.948272 0.948272 0.948272
0.121309 0.121309 0.121309
0.124849 0.124849 0.124849
0.140505 0.140505 0.140505
0.173220 0.173220 0.173220
0.244083 0.244083 0.244083
0.341924 0.341924 0.341924
0.442329 0.442329 0.442329
0.558373 0.558373 0.558373
0.147951 0.147951 0.147951
0.151583 0.151583 0.151583
0.165927 0.165927 0.165927
0.195804 0.195804 0.195804
0.263798 0.263798 0.263798
0.356970 0.356970 0.356970
0.453437 0.453437 0.453437
0.567010 0.567010 0.567010
0.205997 0.205997 0.205997
0.218143 0.218143 0.218143
0.247257 0.247257 0.247257
0.270268 0.270268 0.270268
0.338811 0.338811 0.338811
0.418555 0.418555 0.418555
0.512108 0.512108 0.512108
0.614466 0.614466 0.614466
0.321569 0.321569 0.321569
0.327459 0.327459 0.327459
0.352605 0.352605 0.352605
0.399390 0.399390 0.399390
0.448219 0.448219 0.448219
0.509026 0.509026 0.509026
0.585962 0.585962 0.585962
0.675135 0.675135 0.675135
0.513451 0.513451 0.513451
0.515984 0.515984 0.515984
0.529625 0.529625 0.529625
0.551263 0.551263 0.551263
0.578363 0.578363 0.578363
0.630274 0.630274 0.630274
0.688045 0.688045 0.688045
0.757076 0.757076 0.757076
0.677882 0.677882 0.677882
0.682582 0.682582 0.682582
0.685908 0.685908 0.685908
0.695369 0.695369 0.695369
0.710780 0.710780 0.710780
0.733608 0.733608 0.733608
0.785763 0.785763 0.785763
0.838071 0.838071 0.838071
0.812528 0.812528 0.812528
0.813565 0.813565 0.813565
0.816495 0.816495 0.816495
0.822416 0.822416 0.822416
0.830838 0.830838 0.830838
0.844144 0.844144 0.844144
0.860746 0.860746 0.860746
0.898772 0.898772 0.898772
0.918639 0.918639 0.918639
0.918883 0.918883 0.918883
0.920043 0.920043 0.920043
0.922911 0.922911 0.922911
0.927031 0.927031 0.927031
0.933227 0.933227 0.933227
0.941253 0.941253 0.941253
0.950164 0.950164 0.950164
0.158816 0.158816 0.158816
0.163546 0.163546 0.163546
0.180392 0.180392 0.180392
0.210788 0.210788 0.210788
0.256535 0.256535 0.256535
0.336492 0.336492 0.336492
0.451789 0.451789 0.451789
0.567285 0.567285 0.567285
0.187991 0.187991 0.187991
0.192020 0.192020 0.192020
0.206241 0.206241 0.206241
0.232364 0.232364 0.232364
0.275334 0.275334 0.275334
0.352636 0.352636 0.352636
0.463508 0.463508 0.463508
0.576349 0.576349 0.576349
0.272557 0.272557 0.272557
0.275273 0.275273 0.275273
0.285130 0.285130 0.285130
0.306798 0.306798 0.306798
0.341344 0.341344 0.341344
0.408850 0.408850 0.408850
0.505791 0.505791 0.505791
0.607172 0.607172 0.607172
0.344427 0.344427 0.344427
0.350225 0.350225 0.350225
0.377020 0.377020 0.377020
0.426093 0.426093 0.426093
0.451484 0.451484 0.451484
0.512505 0.512505 0.512505
0.587610 0.587610 0.587610
0.669795 0.669795 0.669795
0.478645 0.478645 0.478645
0.483223 0.483223 0.483223
0.500969 0.500969 0.500969
0.534569 0.534569 0.534569
0.581140 0.581140 0.581140
0.624537 0.624537 0.624537
0.680507 0.680507 0.680507
0.747372 0.747372 0.747372
0.658686 0.658686 0.658686
0.660853 0.660853 0.660853
0.667872 0.667872 0.667872
0.684749 0.684749 0.684749
0.703761 0.703761 0.703761
0.731838 0.731838 0.731838
0.782681 0.782681 0.782681
0.833768 0.833768 0.833768
0.809506 0.809506 0.809506
0.809720 0.809720 0.809720
0.812955 0.812955 0.812955
0.821042 0.821042 0.821042
0.830594 0.830594 0.830594
0.843076 0.843076 0.843076
0.859586 0.859586 0.859586
0.896635 0.896635 0.896635
0.915526 0.915526 0.915526
0.915709 0.915709 0.915709
0.916777 0.916777 0.916777
0.921386 0.921386 0.921386
0.926024 0.926024 0.926024
0.932097 0.932097 0.932097
0.940246 0.940246 0.940246
0.949126 0.949126 0.949126
0.222873 0.222873 0.222873
0.226871 0.226871 0.226871
0.241520 0.241520 0.241520
0.268345 0.268345 0.268345
0.309422 0.309422 0.309422
0.362554 0.362554 0.362554
0.441474 0.441474 0.441474
0.576684 0.576684 0.576684
0.244907 0.244907 0.244907
0.247959 0.247959 0.247959
0.260502 0.260502 0.260502
0.285374 0.285374 0.285374
0.321935 0.321935 0.321935
0.372473 0.372473 0.372473
0.449561 0.449561 0.449561
0.581384 0.581384 0.581384
0.326482 0.326482 0.326482
0.328740 0.328740 0.328740
0.339178 0.339178 0.339178
0.356725 0.356725 0.356725
0.385748 0.385748 0.385748
0.428412 0.428412 0.428412
0.501061 0.501061 0.501061
0.620539 0.620539 0.620539
0.415290 0.415290 0.415290
0.422766 0.422766 0.422766
0.455665 0.455665 0.455665
0.473579 0.473579 0.473579
0.497047 0.497047 0.497047
0.529625 0.529625 0.529625
0.594995 0.594995 0.594995
0.687892 0.687892 0.687892
0.505699 0.505699 0.505699
0.509575 0.509575 0.509575
0.526116 0.526116 0.526116
0.558312 0.558312 0.558312
0.609461 0.609461 0.609461
0.631006 0.631006 0.631006
0.684291 0.684291 0.684291
0.748440 0.748440 0.748440
0.636164 0.636164 0.636164
0.640497 0.640497 0.640497
0.650843 0.650843 0.650843
0.670680 0.670680 0.670680
0.699794 0.699794 0.699794
0.742428 0.742428 0.742428
0.782864 0.782864 0.782864
0.829679 0.829679 0.829679
0.805966 0.805966 0.805966
0.807889 0.807889 0.807889
0.812345 0.812345 0.812345
0.821286 0.821286 0.821286
0.835294 0.835294 0.835294
0.850156 0.850156 0.850156
0.866026 0.866026 0.866026
0.900938 0.900938 0.900938
0.913695 0.913695 0.913695
0.913756 0.913756 0.913756
0.915465 0.915465 0.915465
0.920134 0.920134 0.920134
0.926116 0.926116 0.926116
0.932341 0.932341 0.932341
0.940581 0.940581 0.940581
0.949767 0.949767 0.949767
0.307988 0.307988 0.307988
0.311254 0.311254 0.311254
0.324102 0.324102 0.324102
0.347784 0.347784 0.347784
0.380499 0.380499 0.380499
0.421790 0.421790 0.421790
0.478248 0.478248 0.478248
0.551904 0.551904 0.551904
0.328069 0.328069 0.328069
0.330999 0.330999 0.330999
0.342321 0.342321 0.342321
0.363622 0.363622 0.363622
0.394537 0.394537 0.394537
0.434180 0.434180 0.434180
0.488685 0.488685 0.488685
0.561456 0.561456 0.561456
0.395453 0.395453 0.395453
0.397498 0.397498 0.397498
0.406348 0.406348 0.406348
0.423438 0.423438 0.423438
0.449500 0.449500 0.449500
0.484077 0.484077 0.484077
0.532921 0.532921 0.532921
0.601862 0.601862 0.601862
0.498604 0.498604 0.498604
0.499611 0.499611 0.499611
0.506310 0.506310 0.506310
0.519921 0.519921 0.519921
0.540764 0.540764 0.540764
0.568963 0.568963 0.568963
0.607446 0.607446 0.607446
0.667567 0.667567 0.667567
0.552331 0.552331 0.552331
0.558190 0.558190 0.558190
0.582208 0.582208 0.582208
0.625330 0.625330 0.625330
0.646326 0.646326 0.646326
0.665614 0.665614 0.665614
0.692439 0.692439 0.692439
0.745205 0.745205 0.745205
0.671443 0.671443 0.671443
0.673487 0.673487 0.673487
0.681880 0.681880 0.681880
0.697749 0.697749 0.697749
0.722103 0.722103 0.722103
0.764981 0.764981 0.764981
0.783810 0.783810 0.783810
0.827756 0.827756 0.827756
0.781582 0.781582 0.781582
0.782986 0.782986 0.782986
0.788693 0.788693 0.788693
0.800076 0.800076 0.800076
0.817624 0.817624 0.817624
0.841550 0.841550 0.841550
0.871519 0.871519 0.871519
0.899290 0.899290 0.899290
0.910155 0.910155 0.910155
0.910674 0.910674 0.910674
0.912993 0.912993 0.912993
0.917449 0.917449 0.917449
0.924285 0.924285 0.924285
0.933471 0.933471 0.933471
0.942840 0.942840 0.942840
0.952209 0.952209 0.952209
0.447181 0.447181 0.447181
0.449592 0.449592 0.449592
0.459297 0.459297 0.459297
0.478035 0.478035 0.478035
0.505791 0.505791 0.505791
0.541802 0.541802 0.541802
0.584466 0.584466 0.584466
0.639429 0.639429 0.639429
0.461646 0.461646 0.461646
0.463813 0.463813 0.463813
0.472969 0.472969 0.472969
0.490700 0.490700 0.490700
0.517174 0.517174 0.517174
0.552117 0.552117 0.552117
0.593072 0.593072 0.593072
0.646204 0.646204 0.646204
0.514427 0.514427 0.514427
0.516228 0.516228 0.516228
0.523857 0.523857 0.523857
0.539239 0.539239 0.539239
0.562371 0.562371 0.562371
0.592187 0.592187 0.592187
0.627405 0.627405 0.627405
0.673884 0.673884 0.673884
0.597589 0.597589 0.597589
0.599023 0.599023 0.599023
0.604791 0.604791 0.604791
0.616297 0.616297 0.616297
0.633631 0.633631 0.633631
0.656306 0.656306 0.656306
0.683650 0.683650 0.683650
0.720455 0.720455 0.720455
0.666926 0.666926 0.666926
0.670985 0.670985 0.670985
0.687251 0.687251 0.687251
0.700587 0.700587 0.700587
0.712642 0.712642 0.712642
0.728969 0.728969 0.728969
0.749325 0.749325 0.749325
0.777279 0.777279 0.777279
0.719844 0.719844 0.719844
0.720851 0.720851 0.720851
0.725338 0.725338 0.725338
0.746822 0.746822 0.746822
0.785122 0.785122 0.785122
0.805814 0.805814 0.805814
0.821347 0.821347 0.821347
0.841520 0.841520 0.841520
0.825132 0.825132 0.825132
0.825895 0.825895 0.825895
0.829221 0.829221 0.829221
0.836027 0.836027 0.836027
0.846799 0.846799 0.846799
0.861997 0.861997 0.861997
0.891508 0.891508 0.891508
0.904417 0.904417 0.904417
0.902037 0.902037 0.902037
0.902586 0.902586 0.902586
0.904875 0.904875 0.904875
0.909514 0.909514 0.909514
0.916838 0.916838 0.916838
0.927001 0.927001 0.927001
0.940337 0.940337 0.940337
0.956970 0.956970 0.956970
