20 Preset/Car Style/【3】LUT video cho PR-AE-FCPX/Tone  (11).cube
# Created by Adobe Lightroom plugin Export LUT (1.24.0)
# www.johnrellis.com/lightroom/exportlut.htm
# Preset: 12汽车质感（素材江湖）
# Color profile: E:\lut插件\exportlut.1.24\exportlut.lrplugin\color profiles\Rec709gamma2.4.icc
LUT_3D_SIZE 5
DOMAIN_MIN 0.000000 0.000000 0.000000
DOMAIN_MAX 0.903226 0.903226 0.903226
0.109957 0.130159 0.134615
0.221042 0.127779 0.136355
0.496345 0.091096 0.142885
0.804166 0.000000 0.150759
1.000000 0.000000 0.177798
0.127016 0.226932 0.168704
0.223331 0.236332 0.156466
0.511681 0.226841 0.146548
0.812833 0.196536 0.150881
1.000000 0.140810 0.186496
0.158572 0.568658 0.266911
0.305089 0.565759 0.287846
0.592676 0.580041 0.171878
0.829252 0.485420 0.160647
1.000000 0.436774 0.233707
0.501518 0.820310 0.536126
0.540642 0.821744 0.546868
0.647150 0.823575 0.541466
0.828367 0.811948 0.424292
1.000000 0.735500 0.401740
0.764248 0.936950 0.772732
0.776486 0.936400 0.778470
0.808713 0.931853 0.788266
0.848722 0.935241 0.758816
0.946593 0.934997 0.670588
0.099214 0.134096 0.215152
0.205264 0.137179 0.224460
0.475563 0.083528 0.250126
0.790707 0.000000 0.229770
1.000000 0.000000 0.256077
0.133333 0.225559 0.228611
0.213718 0.229587 0.233310
0.507683 0.200839 0.224979
0.794888 0.152102 0.231113
1.000000 0.126467 0.264134
0.163333 0.546349 0.329839
0.311742 0.547265 0.349584
0.563317 0.552178 0.288090
0.804898 0.461250 0.258061
1.000000 0.445075 0.317296
0.506889 0.812650 0.559014
0.545800 0.815274 0.569818
0.654597 0.819425 0.580377
0.822660 0.806516 0.476356
1.000000 0.734493 0.449012
0.767971 0.936034 0.781003
0.779477 0.935424 0.785885
0.823117 0.933928 0.807797
0.858701 0.936034 0.784543
0.947509 0.936553 0.703853
0.000000 0.149752 0.452338
0.221653 0.142763 0.465492
0.506188 0.000000 0.501915
0.777615 0.000000 0.506737
1.000000 0.135866 0.507713
0.000000 0.252140 0.470985
0.183780 0.234806 0.479927
0.516899 0.208103 0.511254
0.775387 0.245975 0.507439
1.000000 0.298314 0.516350
0.000000 0.525292 0.517723
0.272648 0.526299 0.519890
0.544244 0.535424 0.532586
0.775418 0.512779 0.520928
1.000000 0.506493 0.529351
0.493019 0.784848 0.625086
0.531853 0.782345 0.628534
0.658076 0.797147 0.660121
0.808225 0.793301 0.606439
0.996429 0.725063 0.570947
0.763455 0.932250 0.798825
0.777676 0.932097 0.804837
0.824369 0.931334 0.825498
0.869841 0.932067 0.829953
0.942931 0.932891 0.759640
0.000000 0.169772 0.688777
0.173312 0.161196 0.694118
0.469123 0.106081 0.714809
0.752773 0.000000 0.739590
0.989532 0.255863 0.743587
0.000000 0.257664 0.692378
0.144198 0.256138 0.696651
0.467353 0.250217 0.713283
0.747402 0.263401 0.733913
0.981353 0.354894 0.741817
0.295048 0.522850 0.687800
0.364050 0.527520 0.692134
0.522423 0.528405 0.711269
0.752956 0.536553 0.737881
0.975586 0.551659 0.746792
0.402441 0.747707 0.739071
0.440620 0.746395 0.738033
0.570275 0.749783 0.742977
0.774075 0.761501 0.757870
0.970245 0.745388 0.749203
0.700740 0.930999 0.823575
0.723445 0.930266 0.828336
0.802670 0.928893 0.849821
0.883268 0.930266 0.879271
0.938506 0.930358 0.845274
0.000000 0.254398 0.922942
0.170138 0.253758 0.923674
0.457313 0.252506 0.926726
0.709957 0.257939 0.932158
0.945403 0.324132 0.934997
0.000000 0.348211 0.921233
0.232975 0.348760 0.921935
0.475135 0.352056 0.924804
0.715724 0.361059 0.930114
0.943969 0.399420 0.933532
0.376959 0.575372 0.912963
0.395575 0.564569 0.914611
0.533623 0.559991 0.918212
0.730251 0.559380 0.924376
0.940490 0.567132 0.930053
0.485664 0.759670 0.908354
0.512627 0.759670 0.908110
0.613703 0.761074 0.907622
0.760128 0.760647 0.915496
0.932921 0.779843 0.923217
0.637293 0.923796 0.917876
0.657099 0.923613 0.917937
0.729854 0.923186 0.918395
0.832334 0.923125 0.919768
0.932464 0.926604 0.924895
