20 Preset/Car Style/【3】LUT video cho PR-AE-FCPX/Tone  (13).cube
# Created by Adobe Lightroom plugin Export LUT (1.24.0)
# www.johnrellis.com/lightroom/exportlut.htm
# Preset: 14汽车质感（素材江湖）
# Color profile: E:\lut插件\exportlut.1.24\exportlut.lrplugin\color profiles\Rec709gamma2.4.icc
LUT_3D_SIZE 8
DOMAIN_MIN 0.000000 0.000000 0.000000
DOMAIN_MAX 0.903226 0.903226 0.903226
0.113741 0.128603 0.140414
0.158968 0.136507 0.149386
0.228031 0.157198 0.172061
0.327916 0.175662 0.194003
0.487709 0.185916 0.210727
0.635492 0.200290 0.233494
0.791867 0.255253 0.291661
0.900908 0.332525 0.364935
0.132265 0.174289 0.176272
0.154421 0.176699 0.181827
0.208896 0.188663 0.195895
0.312871 0.200381 0.205478
0.475288 0.211063 0.216922
0.621546 0.226963 0.239597
0.767391 0.271855 0.291173
0.882841 0.339452 0.360967
0.163027 0.244480 0.231144
0.173556 0.243656 0.231724
0.218479 0.250065 0.239231
0.312230 0.280064 0.259831
0.456123 0.307500 0.281132
0.623011 0.345739 0.315862
0.775479 0.392248 0.369268
0.887999 0.439399 0.426276
0.171023 0.389990 0.324285
0.189578 0.387335 0.323461
0.244266 0.392554 0.323919
0.370123 0.417151 0.367529
0.490059 0.463844 0.412482
0.604822 0.495247 0.454719
0.736690 0.527123 0.484321
0.847807 0.560357 0.522118
0.293828 0.540917 0.450660
0.304204 0.539361 0.450416
0.346441 0.537743 0.455665
0.412177 0.548089 0.462989
0.507408 0.557214 0.492775
0.600366 0.587549 0.526940
0.696956 0.622858 0.569543
0.790890 0.661646 0.624598
0.416602 0.663050 0.563226
0.430823 0.668757 0.570092
0.456519 0.667140 0.573205
0.494392 0.667933 0.575952
0.558556 0.672175 0.587854
0.634668 0.680781 0.616358
0.713649 0.710903 0.656825
0.792508 0.748898 0.699153
0.560113 0.769162 0.677699
0.565698 0.770108 0.679652
0.578637 0.768276 0.680751
0.605188 0.766445 0.686061
0.628595 0.767849 0.682826
0.686397 0.772061 0.701381
0.741909 0.780026 0.725063
0.798154 0.800931 0.758785
0.698665 0.861448 0.786221
0.700496 0.861265 0.786496
0.709285 0.861357 0.788663
0.727291 0.862303 0.794278
0.731746 0.852873 0.785519
0.762173 0.859525 0.793637
0.806149 0.866636 0.812192
0.843778 0.872618 0.829313
0.112642 0.130739 0.176181
0.146029 0.146517 0.175723
0.216709 0.164736 0.193790
0.311162 0.177615 0.208255
0.468360 0.180453 0.222904
0.612940 0.196323 0.245579
0.753964 0.242435 0.291569
0.869871 0.311131 0.354070
0.133455 0.174990 0.192142
0.164279 0.181888 0.196139
0.217563 0.190860 0.205966
0.318395 0.199374 0.216678
0.470436 0.207126 0.229740
0.613336 0.226230 0.254704
0.743862 0.264836 0.296971
0.858091 0.324010 0.355016
0.172213 0.246006 0.239384
0.182040 0.245945 0.239384
0.222721 0.251133 0.246738
0.312505 0.279423 0.268894
0.455177 0.304112 0.285374
0.607172 0.334112 0.314549
0.743343 0.367620 0.353948
0.862882 0.413397 0.407111
0.182498 0.379706 0.324254
0.199283 0.378637 0.324346
0.251408 0.382666 0.327367
0.353185 0.396429 0.355749
0.458839 0.433753 0.391241
0.567498 0.462898 0.430579
0.703487 0.494148 0.455055
0.824765 0.530541 0.494636
0.297520 0.534112 0.449836
0.306188 0.531640 0.448768
0.343786 0.527550 0.450843
0.401465 0.532006 0.453559
0.489723 0.537285 0.478523
0.581842 0.568719 0.511498
0.680323 0.605463 0.554803
0.779202 0.644923 0.607721
0.408179 0.652369 0.555444
0.415198 0.652369 0.556359
0.441535 0.651606 0.560021
0.483162 0.653681 0.565637
0.547539 0.660304 0.578241
0.626856 0.672297 0.609644
0.706142 0.702876 0.649134
0.784329 0.739590 0.690211
0.546532 0.759426 0.667720
0.547723 0.757687 0.666346
0.560876 0.755581 0.667140
0.589960 0.754879 0.673671
0.618616 0.759152 0.674464
0.676844 0.763607 0.692775
0.731075 0.769680 0.714351
0.787350 0.789975 0.746914
0.687373 0.854582 0.778134
0.691341 0.855650 0.779934
0.699916 0.855467 0.781765
0.718471 0.856565 0.787533
0.740505 0.857908 0.792966
0.764797 0.861173 0.796292
0.804837 0.865354 0.811185
0.842344 0.871153 0.828000
0.116152 0.139376 0.229465
0.146273 0.151156 0.228824
0.197055 0.186923 0.228550
0.265415 0.216159 0.257694
0.477272 0.184939 0.295384
0.635492 0.167208 0.301274
0.770993 0.238895 0.343664
0.881010 0.324132 0.402106
0.146029 0.180484 0.238468
0.165103 0.185275 0.240208
0.207279 0.204410 0.239109
0.292149 0.222782 0.268894
0.480598 0.198642 0.290929
0.634150 0.191348 0.297826
0.760037 0.266056 0.347845
0.871305 0.338567 0.403388
0.158633 0.249454 0.272221
0.175143 0.253056 0.274601
0.250523 0.268498 0.282475
0.370947 0.281376 0.296727
0.507927 0.303807 0.321416
0.641688 0.336400 0.355993
0.761379 0.373358 0.394720
0.868315 0.420539 0.442206
0.205386 0.404059 0.370153
0.239719 0.405188 0.372992
0.303532 0.405432 0.375830
0.384558 0.416358 0.395483
0.485878 0.453346 0.430365
0.606531 0.480751 0.457465
0.734096 0.507836 0.482673
0.844266 0.540337 0.519585
0.333440 0.544244 0.478523
0.341833 0.543389 0.477974
0.376715 0.541680 0.479072
0.427161 0.545495 0.482582
0.513359 0.553216 0.507927
0.598718 0.582238 0.537102
0.691585 0.614862 0.577295
0.794156 0.651972 0.619287
0.432532 0.656855 0.573175
0.439368 0.657374 0.574395
0.462531 0.656153 0.576104
0.504173 0.654383 0.583154
0.556237 0.660670 0.589532
0.632197 0.672877 0.619318
0.710903 0.705715 0.657862
0.789334 0.743404 0.700679
0.563989 0.765011 0.681514
0.565576 0.763638 0.680507
0.576104 0.760525 0.679438
0.601221 0.758419 0.683223
0.630518 0.760250 0.685481
0.683833 0.766201 0.701381
0.739681 0.775235 0.725307
0.797574 0.798856 0.758877
0.691951 0.856291 0.783108
0.692805 0.855528 0.782559
0.700984 0.855222 0.783993
0.721767 0.857755 0.791226
0.745174 0.858183 0.797971
0.768948 0.863249 0.801358
0.809415 0.868101 0.816648
0.846494 0.873899 0.833127
0.122835 0.151186 0.305486
0.150423 0.159792 0.308080
0.216983 0.186130 0.308293
0.286992 0.217411 0.315679
0.391760 0.268864 0.358160
0.563500 0.304723 0.419989
0.742763 0.297398 0.448432
0.865171 0.321752 0.463203
0.140230 0.184726 0.327947
0.162661 0.187839 0.330785
0.229007 0.201816 0.328283
0.303380 0.235843 0.331548
0.403326 0.289677 0.369970
0.577111 0.316411 0.426978
0.744198 0.311284 0.448798
0.865904 0.331121 0.461677
0.069642 0.251530 0.366705
0.124117 0.251713 0.369512
0.244999 0.265080 0.376593
0.344121 0.307469 0.370703
0.441871 0.368322 0.414374
0.636957 0.363928 0.451820
0.774350 0.371923 0.463416
0.880644 0.400641 0.481575
0.155947 0.396735 0.426795
0.190890 0.398932 0.427344
0.290959 0.410956 0.432929
0.420508 0.435126 0.443702
0.538231 0.448707 0.458595
0.653101 0.467720 0.478920
0.762417 0.493904 0.506706
0.860777 0.529320 0.542992
0.304143 0.570947 0.529351
0.325048 0.569177 0.528313
0.400458 0.566155 0.529015
0.478492 0.566247 0.534722
0.546532 0.573480 0.551141
0.625574 0.601404 0.578088
0.718715 0.628473 0.608423
0.821225 0.656916 0.635126
0.480537 0.676020 0.617304
0.491310 0.680385 0.621820
0.509270 0.677760 0.619226
0.545800 0.676295 0.621607
0.588037 0.678126 0.625513
0.653437 0.685084 0.647517
0.724697 0.715724 0.679774
0.799649 0.749905 0.718959
0.586145 0.772152 0.702785
0.590112 0.772488 0.703426
0.603479 0.772122 0.704524
0.628504 0.771603 0.708003
0.660914 0.770382 0.714046
0.700679 0.775265 0.721157
0.751400 0.782040 0.740871
0.809171 0.807797 0.772000
0.705867 0.863859 0.797818
0.707515 0.863645 0.797848
0.715053 0.863127 0.798581
0.731106 0.863096 0.801724
0.753658 0.862730 0.807187
0.775540 0.866239 0.809995
0.815427 0.871489 0.824521
0.853605 0.878569 0.842008
0.125673 0.161624 0.431739
0.157046 0.166690 0.433692
0.234989 0.181338 0.433692
0.325933 0.213016 0.432563
0.416632 0.280858 0.439033
0.516869 0.354162 0.474983
0.619928 0.441352 0.530175
0.808164 0.438636 0.577600
0.126314 0.185428 0.448035
0.156771 0.187015 0.451270
0.239261 0.197208 0.449592
0.335454 0.232578 0.443671
0.426978 0.301549 0.448890
0.523400 0.370611 0.482673
0.630030 0.447913 0.536431
0.812650 0.445258 0.579889
0.000000 0.249027 0.479805
0.112184 0.252171 0.481270
0.243748 0.265904 0.484382
0.367041 0.308690 0.478309
0.455024 0.368841 0.475898
0.538109 0.421729 0.502647
0.663661 0.467872 0.553246
0.827085 0.463661 0.581689
0.003815 0.382757 0.519066
0.121523 0.384833 0.520104
0.254337 0.396063 0.525536
0.412818 0.427863 0.532982
0.506615 0.470680 0.525475
0.580682 0.513237 0.553063
0.730648 0.514824 0.583062
0.851225 0.514427 0.589715
0.279973 0.534020 0.564599
0.297765 0.536095 0.565820
0.360510 0.543297 0.568658
0.455726 0.557092 0.574151
0.564019 0.575769 0.580529
0.659052 0.584924 0.590936
0.756466 0.601007 0.608331
0.848203 0.624048 0.632471
0.388128 0.673426 0.636194
0.401587 0.673762 0.636591
0.447730 0.672358 0.635615
0.527794 0.669947 0.636744
0.597742 0.668574 0.641413
0.660853 0.682521 0.663386
0.732326 0.714992 0.694789
0.808560 0.743679 0.727474
0.571038 0.776364 0.721004
0.575586 0.774990 0.720119
0.598047 0.772152 0.719875
0.633661 0.772122 0.722805
0.669123 0.772030 0.726680
0.704585 0.774136 0.731441
0.755093 0.780209 0.749294
0.811673 0.805783 0.775937
0.696223 0.860716 0.802152
0.697780 0.860380 0.801846
0.705440 0.859525 0.801450
0.727382 0.862516 0.806821
0.752041 0.862760 0.811246
0.780392 0.863737 0.818173
0.814298 0.869352 0.827085
0.852934 0.875700 0.843412
0.124056 0.165957 0.564355
0.157931 0.168093 0.565393
0.243778 0.177920 0.562829
0.347692 0.210269 0.559655
0.457404 0.295689 0.558495
0.546563 0.377966 0.563348
0.636927 0.443397 0.590753
0.730220 0.539147 0.642695
0.113100 0.182956 0.565087
0.149203 0.184482 0.564996
0.240726 0.193881 0.562829
0.348852 0.229038 0.560937
0.456184 0.307866 0.556146
0.543725 0.385443 0.560632
0.633082 0.448280 0.588312
0.726192 0.540826 0.640314
0.003235 0.255741 0.594659
0.124147 0.258457 0.595544
0.249393 0.272648 0.599176
0.374945 0.310155 0.590265
0.483680 0.374701 0.580957
0.565637 0.438453 0.581781
0.648920 0.494514 0.607752
0.734920 0.575158 0.656153
0.120516 0.391516 0.628351
0.170077 0.393194 0.627955
0.288670 0.405890 0.630671
0.421546 0.436500 0.638636
0.536187 0.481941 0.630274
0.610407 0.531182 0.624994
0.681697 0.576135 0.647913
0.765377 0.629847 0.689540
0.245212 0.520775 0.649256
0.263493 0.522179 0.649439
0.328588 0.528466 0.651698
0.424872 0.542412 0.656916
0.560418 0.572076 0.660517
0.638605 0.607324 0.652247
0.700435 0.642420 0.675349
0.821775 0.648371 0.702358
0.399481 0.648676 0.678767
0.412360 0.651881 0.681209
0.449348 0.655604 0.682185
0.511681 0.663294 0.684504
0.591119 0.674678 0.687892
0.686183 0.695460 0.698024
0.772274 0.708644 0.712245
0.855192 0.724147 0.728817
0.513573 0.787381 0.756130
0.522972 0.788540 0.757290
0.551232 0.788693 0.757321
0.601556 0.789334 0.757870
0.670497 0.788022 0.759030
0.729305 0.785336 0.762142
0.772946 0.790036 0.773312
0.829770 0.815518 0.797726
0.663661 0.869810 0.819730
0.666102 0.868986 0.818997
0.681086 0.867643 0.818723
0.713497 0.867369 0.821439
0.751949 0.866423 0.824430
0.784329 0.866606 0.828550
0.817136 0.870756 0.835874
0.858091 0.876890 0.851713
0.112276 0.161563 0.681270
0.151888 0.163363 0.682185
0.244541 0.173922 0.681483
0.357488 0.212039 0.679988
0.473487 0.290440 0.673976
0.573175 0.389410 0.663447
0.653407 0.462776 0.666346
0.729610 0.521294 0.684291
0.092775 0.177646 0.682765
0.139773 0.179873 0.683680
0.241337 0.192020 0.682856
0.357733 0.230625 0.679713
0.474159 0.304692 0.673060
0.572351 0.396948 0.661830
0.650599 0.466743 0.663661
0.725551 0.522728 0.680964
0.000000 0.253361 0.698634
0.120729 0.255589 0.699184
0.244419 0.268528 0.699672
0.373480 0.307103 0.695125
0.491707 0.367407 0.686976
0.589014 0.443488 0.676020
0.665126 0.508202 0.677760
0.738033 0.561151 0.696407
0.139925 0.382422 0.718288
0.179477 0.383886 0.717617
0.281254 0.394141 0.718074
0.401526 0.417365 0.720089
0.521202 0.460456 0.712062
0.619379 0.520562 0.701869
0.689021 0.574578 0.700984
0.754635 0.618067 0.718318
0.196658 0.508873 0.734218
0.222965 0.509239 0.733639
0.307073 0.514092 0.733822
0.421241 0.527672 0.735286
0.544244 0.556298 0.737057
0.646998 0.598444 0.727047
0.711879 0.641444 0.722896
0.774350 0.681300 0.744167
0.365759 0.636103 0.754665
0.375708 0.637140 0.755032
0.412909 0.640833 0.755947
0.475959 0.647883 0.757748
0.557671 0.658900 0.760311
0.677302 0.686610 0.763882
0.748501 0.720485 0.758236
0.802090 0.750942 0.778836
0.516197 0.752804 0.781735
0.522484 0.753841 0.782376
0.544823 0.756313 0.783047
0.586481 0.761715 0.784756
0.643458 0.769528 0.787137
0.712276 0.780728 0.790921
0.789090 0.795987 0.797208
0.863371 0.805753 0.808011
0.609369 0.873320 0.847623
0.613794 0.873503 0.847745
0.633753 0.874723 0.848692
0.667933 0.875944 0.849302
0.715541 0.877501 0.850187
0.776028 0.877958 0.851896
0.830289 0.876799 0.856046
0.869230 0.882109 0.867399
0.101137 0.157046 0.799832
0.146334 0.160464 0.800076
0.248081 0.177829 0.798154
0.367376 0.226352 0.795926
0.490394 0.307897 0.790829
0.602777 0.403632 0.782315
0.693568 0.506432 0.771023
0.762692 0.572320 0.772244
0.065644 0.174746 0.799893
0.134829 0.178500 0.800137
0.246189 0.197086 0.798672
0.368139 0.244144 0.795956
0.491463 0.321202 0.790707
0.603632 0.412268 0.782101
0.693263 0.511162 0.770291
0.761379 0.574914 0.770962
0.000000 0.252384 0.805203
0.116457 0.254948 0.805509
0.244022 0.268956 0.805051
0.377752 0.312871 0.803189
0.502220 0.375494 0.796963
0.612604 0.452033 0.787533
0.701045 0.540520 0.775845
0.766415 0.598627 0.775814
0.121492 0.371191 0.812467
0.166659 0.373846 0.812863
0.270268 0.383886 0.813291
0.391028 0.407019 0.814237
0.518242 0.455238 0.808377
0.630121 0.518303 0.799344
0.716854 0.590845 0.788205
0.778073 0.641718 0.787076
0.188479 0.493324 0.821592
0.214145 0.494301 0.821927
0.289860 0.496712 0.821622
0.405890 0.511986 0.822293
0.528649 0.540734 0.822507
0.645594 0.589105 0.813718
0.734401 0.646937 0.803220
0.793088 0.691920 0.801511
0.300938 0.621088 0.834379
0.309422 0.620813 0.834043
0.346044 0.621180 0.833341
0.428107 0.625330 0.833036
0.536919 0.637140 0.833219
0.660090 0.669551 0.835691
0.760250 0.715724 0.828244
0.818051 0.755062 0.825498
0.488563 0.745174 0.852110
0.493324 0.745510 0.852049
0.513359 0.746822 0.851896
0.552514 0.750637 0.852415
0.608453 0.756710 0.853422
0.678431 0.765896 0.855436
0.781796 0.788632 0.858640
0.846860 0.819791 0.853117
0.632807 0.847715 0.874723
0.635523 0.847959 0.874723
0.648249 0.849454 0.875090
0.674159 0.853056 0.876310
0.711879 0.858427 0.878080
0.760494 0.865812 0.880430
0.819211 0.876005 0.884184
0.885344 0.889464 0.889921
