20 Preset/Car Style/【3】LUT video cho PR-AE-FCPX/Tone  (15).cube
# Created by Adobe Lightroom plugin Export LUT (1.24.0)
# www.johnrellis.com/lightroom/exportlut.htm
# Preset: 16汽车质感（素材江湖）
# Color profile: E:\lut插件\exportlut.1.24\exportlut.lrplugin\color profiles\Rec709gamma2.4.icc
LUT_3D_SIZE 32
DOMAIN_MIN 0.0 0.0 0.0
DOMAIN_MAX 1.0 1.0 1.0
0.059113 0.109499 0.121248
0.063111 0.109377 0.121248
0.067353 0.109865 0.121431
0.081483 0.109957 0.121614
0.093751 0.110384 0.122286
0.106874 0.110964 0.122835
0.121706 0.111727 0.123598
0.139895 0.111940 0.124819
0.160403 0.111543 0.125154
0.185428 0.110658 0.126101
0.215030 0.108705 0.126802
0.249424 0.104799 0.127749
0.288304 0.097261 0.128176
0.330907 0.083162 0.128725
0.375769 0.041382 0.129122
0.422248 0.000000 0.129305
0.470161 0.000000 0.129763
0.519860 0.000000 0.129793
0.571618 0.000000 0.129671
0.626215 0.000000 0.129274
0.681453 0.000000 0.128389
0.751980 0.000000 0.127199
0.825925 0.000000 0.125521
0.890410 0.000000 0.124117
0.944305 0.000000 0.123629
0.988830 0.000000 0.123751
1.000000 0.000000 0.126680
1.000000 0.000000 0.131289
1.000000 0.000000 0.138796
1.000000 0.000000 0.149783
1.000000 0.000000 0.164828
1.000000 0.116518 0.183749
0.060090 0.109773 0.121492
0.060090 0.109773 0.121492
0.068330 0.110140 0.121675
0.080842 0.110292 0.121859
0.093111 0.111055 0.122469
0.105776 0.111696 0.123049
0.120455 0.112184 0.123842
0.137850 0.112245 0.124819
0.157595 0.112367 0.125154
0.181277 0.111604 0.126131
0.210147 0.109743 0.126864
0.243381 0.106355 0.127382
0.281285 0.099641 0.128115
0.322667 0.088930 0.128756
0.366979 0.054810 0.128939
0.412909 0.000916 0.129488
0.460670 0.000000 0.129763
0.509911 0.000000 0.129946
0.561028 0.000000 0.129946
0.614984 0.000000 0.129488
0.669581 0.000000 0.128664
0.737911 0.000000 0.127657
0.808194 0.000000 0.126314
0.870451 0.000000 0.124453
0.924498 0.000000 0.123293
0.970306 0.000000 0.123293
1.000000 0.000000 0.124849
1.000000 0.000000 0.128054
1.000000 0.000000 0.134096
1.000000 0.000000 0.143679
1.000000 0.000000 0.157717
1.000000 0.042847 0.175601
0.060700 0.111269 0.122957
0.062715 0.111208 0.122957
0.060182 0.111940 0.122042
0.077180 0.113283 0.122347
0.091951 0.113008 0.123079
0.104219 0.113710 0.123659
0.118959 0.114473 0.124392
0.135470 0.114717 0.124849
0.155306 0.114595 0.125734
0.178592 0.114046 0.126467
0.206363 0.112673 0.126955
0.238743 0.109926 0.127718
0.275792 0.104311 0.128511
0.316655 0.095247 0.128878
0.360266 0.074464 0.129397
0.405737 0.025330 0.129702
0.453010 0.000000 0.130037
0.502098 0.000000 0.130282
0.553063 0.000000 0.130037
0.606775 0.000000 0.129671
0.661646 0.000000 0.129122
0.730739 0.000000 0.127718
0.798795 0.000000 0.126375
0.860105 0.000000 0.124849
0.913512 0.000000 0.123537
0.959747 0.000000 0.123018
1.000000 0.000000 0.123812
1.000000 0.000000 0.126650
1.000000 0.000000 0.132265
1.000000 0.000000 0.140963
1.000000 0.000000 0.153689
1.000000 0.012268 0.171176
0.065187 0.114412 0.125826
0.066896 0.114351 0.126070
0.063783 0.115053 0.125734
0.062715 0.116365 0.123964
0.088136 0.119509 0.123415
0.102174 0.118288 0.124758
0.116884 0.118227 0.125338
0.133150 0.118837 0.125734
0.153048 0.118746 0.126619
0.175784 0.118715 0.127016
0.203098 0.117647 0.127810
0.234897 0.115419 0.128603
0.270848 0.111543 0.128786
0.310430 0.104524 0.129427
0.353124 0.092775 0.129732
0.397284 0.063569 0.130343
0.443061 0.008423 0.130465
0.490669 0.000000 0.130831
0.540337 0.000000 0.130739
0.592645 0.000000 0.130343
0.646479 0.000000 0.129732
0.715297 0.000000 0.128359
0.780301 0.000000 0.127199
0.840848 0.000000 0.125368
0.896635 0.000000 0.123720
0.946654 0.000000 0.122866
0.991180 0.000000 0.123445
1.000000 0.000000 0.125948
1.000000 0.000000 0.130892
1.000000 0.000000 0.139467
1.000000 0.000000 0.152529
1.000000 0.064790 0.169009
0.070924 0.119631 0.130861
0.072908 0.119570 0.130861
0.072206 0.119875 0.130831
0.064912 0.121279 0.129427
0.063233 0.123323 0.126284
0.092195 0.126772 0.125124
0.113497 0.127321 0.125795
0.129488 0.123964 0.127260
0.148104 0.124453 0.127840
0.170413 0.124941 0.128237
0.196628 0.124636 0.129000
0.227420 0.123507 0.129213
0.262486 0.121035 0.129915
0.301701 0.116213 0.130251
0.343511 0.108949 0.130709
0.388037 0.096864 0.131014
0.434302 0.069123 0.131319
0.482429 0.008759 0.131289
0.532158 0.000000 0.131167
0.584192 0.000000 0.130922
0.641108 0.000000 0.130343
0.708614 0.000000 0.128817
0.771481 0.000000 0.127413
0.831296 0.000000 0.125917
0.887755 0.000000 0.124117
0.938903 0.000000 0.122805
0.984314 0.000000 0.122805
1.000000 0.000000 0.124971
1.000000 0.000000 0.129946
1.000000 0.000000 0.138125
1.000000 0.000000 0.150271
1.000000 0.116823 0.166445
0.078553 0.126558 0.137087
0.078370 0.126558 0.137331
0.079347 0.126772 0.137057
0.076997 0.127382 0.136751
0.064668 0.129854 0.133852
0.064637 0.132509 0.129244
0.094392 0.136965 0.127047
0.126802 0.140536 0.127047
0.146181 0.135805 0.128664
0.166964 0.132845 0.130098
0.193332 0.133425 0.130465
0.224063 0.133272 0.130861
0.258824 0.132326 0.131167
0.297368 0.129610 0.131655
0.339574 0.124941 0.132174
0.383948 0.117189 0.132326
0.430549 0.105348 0.132448
0.478859 0.086946 0.132448
0.529046 0.027588 0.132265
0.581018 0.000000 0.131838
0.644495 0.000000 0.130648
0.710292 0.000000 0.129335
0.871824 0.000000 0.124697
0.931304 0.000000 0.123903
0.979828 0.000000 0.125246
1.000000 0.000000 0.128969
1.000000 0.000000 0.134859
1.000000 0.000000 0.143618
1.000000 0.125185 0.155001
1.000000 0.175662 0.169070
1.000000 0.217136 0.185763
1.000000 0.252720 0.205234
0.086091 0.139528 0.148653
0.084840 0.139590 0.148653
0.086885 0.139742 0.148623
0.087861 0.139925 0.148379
0.076844 0.142214 0.146212
0.055634 0.145480 0.140505
0.058015 0.149020 0.133822
0.098543 0.155093 0.129519
0.146334 0.161501 0.128786
0.177249 0.158694 0.130251
0.203555 0.151339 0.132418
0.235904 0.148409 0.133333
0.272923 0.148775 0.133730
0.313176 0.147494 0.134005
0.355627 0.144961 0.133883
0.400275 0.139925 0.133852
0.446662 0.132601 0.134005
0.495033 0.121828 0.133577
0.546014 0.106630 0.133242
0.606256 0.081147 0.132021
0.682887 0.000000 0.130251
0.757595 0.000000 0.128206
0.829618 0.000000 0.126101
0.896849 0.000000 0.124483
0.954131 0.000000 0.124544
0.999451 0.000000 0.127199
1.000000 0.075288 0.131838
1.000000 0.130648 0.139376
1.000000 0.170016 0.149599
1.000000 0.203738 0.162631
1.000000 0.235447 0.178622
1.000000 0.266392 0.197238
0.090974 0.153201 0.160678
0.091096 0.153231 0.160494
0.091554 0.153384 0.160464
0.092134 0.153567 0.160250
0.089631 0.154940 0.159121
0.071412 0.158145 0.154879
0.040497 0.162387 0.146242
0.048951 0.166445 0.137881
0.100679 0.173129 0.132692
0.157504 0.182620 0.130373
0.204227 0.185855 0.130251
0.234684 0.176699 0.132998
0.265629 0.165560 0.136110
0.304021 0.165133 0.136233
0.345617 0.165011 0.136141
0.389105 0.163210 0.135958
0.434638 0.159884 0.135683
0.482094 0.155184 0.135225
0.534722 0.148928 0.134524
0.602502 0.142031 0.133181
0.672389 0.133028 0.131136
0.742428 0.123598 0.129030
0.811215 0.117647 0.126619
0.877165 0.118715 0.124880
0.934936 0.130526 0.124147
0.981994 0.148348 0.125948
1.000000 0.169284 0.129671
1.000000 0.191531 0.136355
1.000000 0.215793 0.146670
1.000000 0.240635 0.159304
1.000000 0.265293 0.174838
1.000000 0.290440 0.192905
0.097017 0.172274 0.176761
0.097108 0.172274 0.176577
0.096864 0.172457 0.176577
0.097597 0.172946 0.176333
0.099031 0.173373 0.176089
0.087739 0.176211 0.172580
0.049287 0.180392 0.165194
0.009339 0.185428 0.152773
0.026032 0.190097 0.142641
0.103243 0.196994 0.135866
0.169711 0.210697 0.131380
0.234531 0.221927 0.127962
0.270176 0.211978 0.131533
0.303868 0.198795 0.135592
0.338506 0.185763 0.138827
0.381323 0.186496 0.138277
0.426215 0.186404 0.137911
0.476539 0.185946 0.137301
0.536278 0.186679 0.136049
0.599237 0.186465 0.134188
0.664790 0.186221 0.132113
0.731106 0.186252 0.129763
0.797482 0.188357 0.127352
0.861692 0.193942 0.125612
0.919249 0.203403 0.124514
0.967437 0.214725 0.125948
1.000000 0.228550 0.128939
1.000000 0.244297 0.135378
1.000000 0.261875 0.145266
1.000000 0.280705 0.157504
1.000000 0.300328 0.173220
1.000000 0.320775 0.191592
0.102846 0.198520 0.198245
0.102937 0.198520 0.198093
0.103456 0.198367 0.197696
0.103914 0.198642 0.197208
0.105348 0.198734 0.196475
0.101289 0.200229 0.194736
0.069612 0.204013 0.187625
0.007874 0.209079 0.176822
0.000000 0.214725 0.159945
0.000000 0.219547 0.147677
0.101411 0.225437 0.138979
0.177737 0.243534 0.131106
0.253269 0.256687 0.125582
0.304906 0.254826 0.126406
0.341955 0.239597 0.132265
0.377783 0.222049 0.137942
0.424353 0.215000 0.140383
0.479194 0.219760 0.139437
0.536614 0.223941 0.137972
0.596887 0.227970 0.135897
0.658839 0.231449 0.133486
0.720119 0.234867 0.131136
0.780972 0.239017 0.128817
0.840330 0.244968 0.126101
0.895323 0.252567 0.124544
0.943786 0.261295 0.124483
0.985687 0.271824 0.127108
1.000000 0.284581 0.132326
1.000000 0.299199 0.141543
1.000000 0.315801 0.153994
1.000000 0.332769 0.170047
1.000000 0.350896 0.189487
0.110842 0.229129 0.222629
0.110567 0.229038 0.222538
0.111086 0.229343 0.222477
0.111757 0.229679 0.222202
0.113069 0.230320 0.221744
0.114870 0.231296 0.221103
0.094148 0.234989 0.215885
0.020233 0.240269 0.206027
0.000000 0.246342 0.190768
0.000000 0.252964 0.168154
0.000000 0.258305 0.153079
0.090364 0.262394 0.141726
0.182895 0.285130 0.128695
0.273594 0.300237 0.120485
0.348760 0.313085 0.113619
0.393835 0.298955 0.122347
0.437446 0.281559 0.131228
0.480110 0.261326 0.139467
0.531273 0.258976 0.140658
0.588678 0.265232 0.138155
0.647761 0.271122 0.135897
0.706783 0.277043 0.133120
0.766171 0.283452 0.130282
0.824460 0.290776 0.127718
0.879576 0.299016 0.125826
0.928801 0.308019 0.125460
0.971740 0.317967 0.127535
1.000000 0.329015 0.132570
1.000000 0.341466 0.141939
1.000000 0.355291 0.155032
1.000000 0.370001 0.171176
1.000000 0.385473 0.191257
0.119081 0.271427 0.256077
0.119417 0.271519 0.256077
0.120455 0.271763 0.255924
0.121035 0.272282 0.255650
0.122133 0.273075 0.255222
0.124453 0.274144 0.254734
0.118898 0.276799 0.252781
0.057679 0.282383 0.243442
0.000000 0.288731 0.228977
0.000000 0.295598 0.207767
0.000000 0.302770 0.177310
0.000000 0.312230 0.159854
0.000000 0.363012 0.143923
0.205051 0.396765 0.111696
0.342046 0.418128 0.088106
0.449104 0.438392 0.017578
0.510307 0.424384 0.061494
0.560388 0.400336 0.103151
0.607996 0.373724 0.124208
0.653498 0.344427 0.140841
0.711849 0.352056 0.138186
0.769375 0.360082 0.135897
0.825132 0.368231 0.134157
0.877440 0.376501 0.133547
0.924132 0.384405 0.134890
0.964538 0.391547 0.138949
0.998444 0.398291 0.145266
1.000000 0.405371 0.153964
1.000000 0.412787 0.165103
1.000000 0.421332 0.179629
1.000000 0.430610 0.197208
1.000000 0.441382 0.217258
0.135500 0.344396 0.314000
0.135164 0.344152 0.313664
0.135805 0.343511 0.312779
0.136507 0.342809 0.311559
0.137484 0.342168 0.309758
0.139559 0.342016 0.308080
0.142458 0.342748 0.306645
0.108217 0.350256 0.301427
0.000000 0.360571 0.289769
0.000000 0.373053 0.271244
0.000000 0.387823 0.243717
0.000000 0.403937 0.200351
0.000000 0.417639 0.175753
0.000000 0.428107 0.148104
0.193271 0.462287 0.097383
0.361791 0.482124 0.032380
0.478889 0.499428 0.000000
0.557610 0.496956 0.000000
0.605921 0.470375 0.030732
0.650935 0.441688 0.100404
0.693843 0.411933 0.126314
0.739315 0.389960 0.141238
0.794278 0.398718 0.138857
0.847623 0.407660 0.137453
0.896452 0.415991 0.137514
0.939879 0.423590 0.140108
0.977203 0.430884 0.145846
1.000000 0.438209 0.154025
1.000000 0.445686 0.165743
1.000000 0.454017 0.180728
1.000000 0.462745 0.198367
1.000000 0.472145 0.219181
0.154726 0.417304 0.373358
0.154665 0.416724 0.372869
0.154849 0.415564 0.371527
0.155886 0.414923 0.370336
0.157259 0.414282 0.368719
0.159152 0.414282 0.366918
0.162142 0.415503 0.365789
0.157321 0.419043 0.364050
0.054932 0.426886 0.351781
0.000000 0.437293 0.334203
0.000000 0.450263 0.310338
0.000000 0.465370 0.274479
0.000000 0.480537 0.219120
0.000000 0.490974 0.190829
0.000000 0.496956 0.155245
0.192599 0.523461 0.090822
0.375494 0.541497 0.000000
0.501427 0.554070 0.000000
0.600427 0.564019 0.000000
0.647089 0.535973 0.000000
0.691188 0.507561 0.033875
0.733944 0.478767 0.105837
0.775692 0.449134 0.133639
0.823484 0.439734 0.143130
0.873899 0.449012 0.143160
0.919280 0.457404 0.144869
0.958892 0.465095 0.149966
0.993011 0.472236 0.158083
1.000000 0.479774 0.169680
1.000000 0.487709 0.184787
1.000000 0.495735 0.202884
1.000000 0.504356 0.224460
0.177127 0.496925 0.440620
0.176883 0.496407 0.440040
0.177157 0.494911 0.438239
0.177554 0.492744 0.435798
0.178439 0.490242 0.432502
0.179446 0.488167 0.428962
0.182834 0.487648 0.426581
0.186496 0.489174 0.425147
0.145113 0.494759 0.417212
0.000000 0.503716 0.401862
0.000000 0.515526 0.380438
0.000000 0.529503 0.351171
0.000000 0.543175 0.306981
0.000000 0.555291 0.244572
0.000000 0.561089 0.210239
0.000000 0.561669 0.167605
0.196902 0.579278 0.097597
0.386908 0.596185 0.000000
0.521935 0.605890 0.000000
0.627680 0.614984 0.000000
0.688319 0.599725 0.000000
0.732235 0.572625 0.000000
0.774594 0.545678 0.060487
0.815427 0.517601 0.117739
0.854551 0.488502 0.145876
0.899382 0.489509 0.152224
0.941314 0.498299 0.156893
0.977996 0.506493 0.165377
1.000000 0.514916 0.177768
1.000000 0.523705 0.194186
1.000000 0.532341 0.214908
1.000000 0.541222 0.239048
0.209445 0.566888 0.502464
0.210178 0.567102 0.502647
0.209842 0.566461 0.501701
0.210819 0.565637 0.500328
0.211154 0.564691 0.498329
0.213413 0.564416 0.496529
0.216770 0.565423 0.495460
0.221897 0.568322 0.495399
0.221775 0.572869 0.494850
0.140566 0.580774 0.481300
0.000000 0.589288 0.461616
0.000000 0.598444 0.434028
0.000000 0.607080 0.395056
0.000000 0.614160 0.340978
0.000000 0.619135 0.271946
0.000000 0.618250 0.232334
0.000000 0.614771 0.185245
0.204227 0.625605 0.117830
0.393896 0.643122 0.000000
0.538811 0.651179 0.000000
0.649439 0.660212 0.000000
0.729366 0.659815 0.000000
0.772854 0.635340 0.000000
0.814450 0.610254 0.000000
0.854032 0.584680 0.104921
0.891600 0.557885 0.141878
0.927428 0.532952 0.168215
0.965545 0.542077 0.177249
0.997803 0.550469 0.189548
1.000000 0.558618 0.206332
1.000000 0.566155 0.226261
1.000000 0.573541 0.250065
0.263828 0.628046 0.560662
0.263523 0.627955 0.560479
0.263523 0.627710 0.559899
0.263584 0.627222 0.558892
0.264591 0.627008 0.557549
0.266270 0.627039 0.556237
0.269383 0.627985 0.555352
0.274327 0.630121 0.555169
0.281163 0.633326 0.555505
0.251316 0.638788 0.548455
0.165347 0.645838 0.531395
0.000000 0.653498 0.508751
0.000000 0.660975 0.476478
0.000000 0.667231 0.432227
0.000000 0.672175 0.372076
0.000000 0.674372 0.301061
0.000000 0.671656 0.258915
0.000000 0.667048 0.210330
0.223117 0.672847 0.145907
0.405982 0.691005 0.000000
0.559380 0.698299 0.000000
0.674464 0.706294 0.000000
0.767330 0.714900 0.000000
0.812467 0.694484 0.000000
0.851408 0.671290 0.000000
0.888182 0.647517 0.107424
0.923003 0.623011 0.149569
0.955413 0.598535 0.180453
0.986358 0.584588 0.204501
1.000000 0.592828 0.221927
1.000000 0.600275 0.242649
1.000000 0.607080 0.266941
0.335973 0.689967 0.622858
0.337011 0.690700 0.623499
0.409033 0.739071 0.674800
0.409277 0.738949 0.674159
0.409552 0.738582 0.672938
0.410101 0.738186 0.671321
0.411292 0.738094 0.669673
0.414099 0.738735 0.668391
0.418921 0.740352 0.667903
0.422614 0.743099 0.667292
0.376013 0.747890 0.652827
0.313848 0.752926 0.632776
0.221195 0.757107 0.605005
0.000000 0.760311 0.566583
0.000000 0.762295 0.514519
0.000000 0.762814 0.444282
0.000000 0.760128 0.367498
0.000000 0.753201 0.317967
0.000000 0.744564 0.263493
0.285985 0.742580 0.200290
0.446632 0.756985 0.124514
0.603418 0.759854 0.087282
0.717342 0.763424 0.000000
0.806088 0.767788 0.000000
0.858854 0.756985 0.000000
0.890806 0.732906 0.099672
0.920989 0.708461 0.145052
0.949767 0.684352 0.178408
0.977081 0.660548 0.208499
1.000000 0.637629 0.236210
1.000000 0.632471 0.260777
1.000000 0.638605 0.285283
0.436103 0.755642 0.693294
0.443214 0.759396 0.697536
0.451026 0.763241 0.701778
0.458015 0.766598 0.705257
0.463691 0.768978 0.707393
0.466255 0.769863 0.707424
0.467842 0.770077 0.706355
0.469245 0.770230 0.704952
0.472816 0.771084 0.704067
0.477607 0.772580 0.703517
0.459541 0.775570 0.696651
0.414191 0.779782 0.681178
0.354589 0.783474 0.659358
0.272770 0.786740 0.629999
0.106905 0.789334 0.590723
0.000000 0.791043 0.538476
0.000000 0.791928 0.469123
0.000000 0.790494 0.397864
0.000000 0.785489 0.349706
0.000000 0.779232 0.297063
0.316899 0.775937 0.238224
0.460304 0.791775 0.171450
0.619837 0.793362 0.151492
0.732937 0.795377 0.129946
0.819699 0.797726 0.104494
0.882658 0.797055 0.099031
0.910887 0.775082 0.145510
0.937987 0.752621 0.180941
0.963775 0.730953 0.211246
0.988006 0.709865 0.240452
1.000000 0.689021 0.270146
1.000000 0.669093 0.299748
0.501854 0.788144 0.731197
0.509514 0.791287 0.735042
0.518120 0.794583 0.739071
0.525628 0.797482 0.742336
0.531365 0.799527 0.744411
0.534234 0.800412 0.744839
0.535485 0.800595 0.744045
0.536645 0.800687 0.742855
0.539055 0.801144 0.741970
0.542412 0.801877 0.741115
0.546715 0.803159 0.740566
0.511528 0.806516 0.728450
0.467414 0.809842 0.711788
0.413123 0.813107 0.689723
0.342809 0.816098 0.660212
0.240299 0.818631 0.621271
0.000000 0.820523 0.570001
0.000000 0.821988 0.502373
0.000000 0.821134 0.436774
0.000000 0.817319 0.389685
0.192355 0.812253 0.338140
0.356878 0.807614 0.281651
0.488808 0.820706 0.227726
0.635431 0.822416 0.207492
0.746395 0.822446 0.194491
0.830533 0.823178 0.182803
0.895262 0.824979 0.176211
0.927031 0.810269 0.198337
0.950835 0.790555 0.226505
0.973388 0.771084 0.255131
0.994293 0.752010 0.283940
1.000000 0.733211 0.313756
0.572168 0.815946 0.766262
0.578729 0.818235 0.769253
0.585595 0.820462 0.772183
0.592035 0.822477 0.774685
0.596796 0.823941 0.776242
0.598962 0.824521 0.776486
0.600183 0.824735 0.775998
0.601221 0.824826 0.775174
0.603113 0.825132 0.774472
0.605463 0.825589 0.773678
0.609369 0.826474 0.773373
0.597955 0.828244 0.768490
0.564813 0.831144 0.756313
0.525566 0.834165 0.740261
0.477272 0.837308 0.718959
0.417182 0.840452 0.690669
0.342565 0.843839 0.654597
0.235996 0.847257 0.607630
0.000000 0.850797 0.546685
0.000000 0.852232 0.492195
0.178134 0.851072 0.450782
0.319799 0.848844 0.404150
0.428229 0.845029 0.351324
0.542748 0.854215 0.309789
0.669459 0.855467 0.292241
0.774014 0.853880 0.287327
0.851438 0.853208 0.283787
0.910216 0.853696 0.285252
0.946777 0.847837 0.298680
0.965728 0.830472 0.322393
0.983276 0.813291 0.348211
0.999298 0.796536 0.376043
0.674189 0.847684 0.810300
0.676326 0.848264 0.811185
0.678218 0.848722 0.811765
0.679316 0.848966 0.812009
0.679744 0.849088 0.811826
0.679408 0.848875 0.811124
0.679072 0.848692 0.810361
0.679377 0.848631 0.809628
0.680201 0.848753 0.808957
0.682460 0.849119 0.808652
0.685328 0.849699 0.808408
0.688624 0.850309 0.808164
0.667018 0.852506 0.800473
0.639857 0.854978 0.789853
0.606836 0.857603 0.775601
0.566796 0.860441 0.756527
0.518425 0.863493 0.731289
0.460548 0.866758 0.698299
0.388281 0.870237 0.654719
0.294682 0.873777 0.597986
0.271702 0.874632 0.548638
0.331426 0.873259 0.507378
0.402991 0.870665 0.461097
0.479866 0.866667 0.408392
0.574548 0.871489 0.367346
0.681544 0.872282 0.346014
0.780484 0.869810 0.343420
0.854398 0.868406 0.343999
0.910155 0.868254 0.348333
0.952636 0.869017 0.359045
0.968658 0.853361 0.382208
0.983398 0.837980 0.407660
0.725338 0.861234 0.830167
0.726955 0.861570 0.830777
0.728420 0.861875 0.831174
0.729366 0.862058 0.831357
0.729824 0.862181 0.831296
0.729854 0.862119 0.830961
0.729702 0.862058 0.830442
0.729885 0.861997 0.829923
0.730892 0.862119 0.829587
0.732448 0.862364 0.829313
0.734554 0.862760 0.829160
0.737087 0.863218 0.829068
0.731533 0.864256 0.826566
0.712947 0.866239 0.819730
0.690211 0.868559 0.810513
0.663355 0.871061 0.798428
0.630762 0.873869 0.782193
0.593072 0.876982 0.761105
0.547753 0.880400 0.732967
0.493782 0.884154 0.695583
0.428412 0.888121 0.645869
0.413458 0.889403 0.604120
0.439734 0.888792 0.565820
0.483223 0.887144 0.523033
0.520073 0.880674 0.456214
0.599176 0.883085 0.416693
0.689540 0.884184 0.393042
0.783749 0.881285 0.392828
0.853727 0.879576 0.396338
0.906981 0.878996 0.403143
0.947662 0.879423 0.416663
0.968872 0.870970 0.437446
0.780117 0.874113 0.850156
0.782010 0.874540 0.850767
0.782773 0.874693 0.851011
0.782589 0.874662 0.850858
0.781613 0.874418 0.850340
0.780087 0.874052 0.849577
0.778286 0.873625 0.848631
0.776608 0.873198 0.847623
0.775326 0.872831 0.846677
0.774533 0.872587 0.845823
0.774166 0.872465 0.844999
0.774472 0.872435 0.844358
0.775082 0.872465 0.843717
0.761654 0.873594 0.838834
0.743832 0.874968 0.831998
0.722316 0.876677 0.823026
0.697017 0.878721 0.811460
0.667872 0.881224 0.796597
0.634638 0.884215 0.777493
0.597192 0.887602 0.752895
0.553582 0.891386 0.720516
0.501274 0.895415 0.677241
0.488777 0.896696 0.640772
0.500267 0.896422 0.603357
0.526726 0.895018 0.560296
0.566491 0.892393 0.510887
0.628412 0.893156 0.471778
0.700099 0.894255 0.443946
0.787655 0.890929 0.444373
0.853056 0.888853 0.448646
0.903014 0.887846 0.457191
0.941588 0.887785 0.471351
0.804135 0.880003 0.859068
0.805509 0.880308 0.859525
0.806424 0.880522 0.859831
0.806699 0.880583 0.859861
0.806638 0.880552 0.859709
0.806332 0.880491 0.859434
0.806241 0.880400 0.859190
0.806180 0.880369 0.858885
0.806516 0.880400 0.858671
0.807034 0.880491 0.858457
0.807736 0.880583 0.858244
0.808530 0.880705 0.858000
0.809293 0.880797 0.857725
0.805814 0.881193 0.856077
0.794308 0.882200 0.851743
0.780179 0.883391 0.846036
0.763333 0.884855 0.838682
0.744076 0.886687 0.829496
0.721859 0.888945 0.817777
0.696773 0.891600 0.802823
0.667872 0.894621 0.783261
0.633417 0.898070 0.756832
0.592889 0.901793 0.721462
0.581598 0.903136 0.692103
0.583215 0.903532 0.659144
0.595758 0.903136 0.620447
0.621149 0.901732 0.576226
0.666773 0.901976 0.539361
0.719722 0.903502 0.511345
0.797238 0.900206 0.514305
0.855619 0.897978 0.520836
0.900603 0.896727 0.531792
0.829587 0.886442 0.868681
0.830137 0.886564 0.868864
0.830381 0.886625 0.868956
0.830442 0.886656 0.868925
0.830320 0.886595 0.868772
0.830045 0.886503 0.868528
0.829770 0.886412 0.868315
0.829618 0.886381 0.868040
0.829679 0.886351 0.867796
0.829953 0.886381 0.867643
0.830289 0.886412 0.867430
0.830869 0.886534 0.867247
0.831449 0.886625 0.867033
0.831907 0.886687 0.866758
0.825223 0.887297 0.864195
0.815702 0.888151 0.860380
0.804623 0.889189 0.855650
0.791501 0.890501 0.849638
0.776577 0.892180 0.842130
0.759976 0.894163 0.832914
0.740566 0.896483 0.820981
0.717891 0.899107 0.805356
0.689937 0.902068 0.783871
0.656458 0.905394 0.754513
0.645502 0.906706 0.730098
0.641413 0.907439 0.700984
0.646082 0.907591 0.666529
0.660822 0.906950 0.625605
0.693996 0.907103 0.589776
0.737636 0.908476 0.565087
0.802457 0.906065 0.566796
0.855833 0.903929 0.576440
0.846036 0.891020 0.875212
0.846342 0.891112 0.875334
0.846677 0.891173 0.875425
0.846830 0.891203 0.875456
0.847074 0.891264 0.875486
0.847501 0.891356 0.875578
0.848386 0.891569 0.875792
0.849516 0.891844 0.876097
0.850980 0.892210 0.876493
0.852628 0.892607 0.876951
0.854368 0.893065 0.877440
0.856077 0.893492 0.877867
0.857603 0.893858 0.878202
0.858854 0.894163 0.878416
0.858213 0.894560 0.877989
0.853361 0.895201 0.876036
0.847593 0.895872 0.873533
0.840696 0.896696 0.870329
0.833188 0.897673 0.866514
0.824460 0.898894 0.861784
0.814542 0.900298 0.855833
0.802640 0.901915 0.848112
0.788174 0.903746 0.837949
0.770321 0.905882 0.824247
0.748287 0.908354 0.805386
0.738949 0.909545 0.789090
0.732174 0.910521 0.768704
0.729641 0.911254 0.743343
0.733669 0.911528 0.712703
0.750332 0.911955 0.683101
0.778866 0.913237 0.664027
0.822812 0.911894 0.663630
0.866941 0.897093 0.883787
0.866941 0.897093 0.883757
0.866911 0.897063 0.883726
0.866850 0.897032 0.883696
0.866758 0.897002 0.883604
0.866697 0.896971 0.883513
0.866758 0.897002 0.883452
0.866880 0.897002 0.883421
0.867155 0.897063 0.883391
0.867521 0.897154 0.883421
0.868040 0.897276 0.883452
0.868559 0.897429 0.883482
0.869169 0.897551 0.883513
0.869688 0.897673 0.883482
