20 Preset/Car Style/【3】LUT video cho PR-AE-FCPX/Tone  (23).cube
# Created by Adobe Lightroom plugin Export LUT (1.24.0)
# www.johnrellis.com/lightroom/exportlut.htm
# Preset: 24汽车质感（素材江湖）
# Color profile: E:\lut插件\exportlut.1.24\exportlut.lrplugin\color profiles\Rec709gamma2.4.icc
LUT_3D_SIZE 32
DOMAIN_MIN 0.0 0.0 0.0
DOMAIN_MAX 1.0 1.0 1.0
0.015930 0.088869 0.093751
0.017914 0.088777 0.093751
0.023163 0.088991 0.093690
0.037049 0.089204 0.094362
0.057740 0.089998 0.094514
0.086793 0.090211 0.095033
0.106874 0.090669 0.095338
0.132418 0.089754 0.095949
0.162051 0.087709 0.096315
0.196567 0.080659 0.096010
0.234684 0.062623 0.096193
0.275731 0.033570 0.095583
0.318975 0.000000 0.094942
0.364996 0.000000 0.093812
0.412696 0.000000 0.092287
0.461799 0.000000 0.090333
0.512902 0.000000 0.088045
0.565667 0.000000 0.083162
0.619471 0.000000 0.075837
0.674708 0.000000 0.062806
0.728817 0.000000 0.048219
0.793301 0.000000 0.029267
0.856535 0.000000 0.007324
0.909422 0.000000 0.000000
0.953552 0.000000 0.000000
0.990906 0.000000 0.000000
1.000000 0.000000 0.000000
1.000000 0.000000 0.000000
1.000000 0.000000 0.000000
1.000000 0.000000 0.000000
1.000000 0.000000 0.000000
1.000000 0.000000 0.000000
0.014923 0.089296 0.094118
0.016907 0.089235 0.094087
0.019165 0.089967 0.094392
0.033326 0.090181 0.094636
0.054749 0.090517 0.094850
0.084504 0.091188 0.095308
0.104189 0.091463 0.095705
0.128450 0.091341 0.096254
0.157900 0.089235 0.096315
0.191043 0.084321 0.096407
0.228275 0.069764 0.096284
0.268925 0.041962 0.095766
0.311772 0.003113 0.095216
0.356603 0.000000 0.094453
0.403998 0.000000 0.093172
0.452644 0.000000 0.090944
0.503838 0.000000 0.088746
0.556115 0.000000 0.084657
0.609979 0.000000 0.078523
0.664729 0.000000 0.065492
0.718624 0.000000 0.051789
0.781735 0.000000 0.033478
0.842863 0.000000 0.013550
0.894713 0.000000 0.000000
0.939025 0.000000 0.000000
0.977142 0.000000 0.000000
1.000000 0.000000 0.000000
1.000000 0.000000 0.000000
1.000000 0.000000 0.000000
1.000000 0.000000 0.000000
1.000000 0.000000 0.000000
1.000000 0.000000 0.000000
0.014130 0.091371 0.095399
0.016114 0.091310 0.095399
0.018097 0.091218 0.095399
0.026276 0.092500 0.096345
0.040986 0.094301 0.097169
0.072602 0.095003 0.097627
0.097688 0.095796 0.097597
0.121523 0.095674 0.097841
0.150851 0.094514 0.097841
0.184115 0.091615 0.097566
0.220920 0.084718 0.097414
0.261082 0.063600 0.097322
0.303624 0.028840 0.096376
0.348730 0.000000 0.095308
0.395666 0.000000 0.094057
0.444099 0.000000 0.092409
0.494728 0.000000 0.090120
0.547265 0.000000 0.086213
0.601190 0.000000 0.080262
0.655970 0.000000 0.070314
0.710628 0.000000 0.056458
0.774960 0.000000 0.037476
0.834867 0.000000 0.017334
0.886259 0.000000 0.000000
0.930388 0.000000 0.000000
0.968841 0.000000 0.000000
1.000000 0.000000 0.000000
1.000000 0.000000 0.000000
1.000000 0.000000 0.000000
1.000000 0.000000 0.000000
1.000000 0.000000 0.000000
1.000000 0.000000 0.000000
0.016266 0.095216 0.098360
0.016266 0.095216 0.098360
0.018555 0.095155 0.097993
0.023499 0.095338 0.098299
0.035920 0.097108 0.099489
0.052674 0.099092 0.101686
0.086397 0.100893 0.101900
0.110628 0.102266 0.101259
0.139864 0.102846 0.100801
0.173800 0.101198 0.100526
0.210941 0.097292 0.099977
0.250980 0.090578 0.099428
0.293706 0.071321 0.098421
0.338201 0.029267 0.097383
0.384283 0.000000 0.096101
0.432502 0.000000 0.094942
0.482155 0.000000 0.092439
0.533562 0.000000 0.089693
0.586725 0.000000 0.084993
0.640925 0.000000 0.078218
0.695064 0.000000 0.064698
0.760342 0.000000 0.046418
0.818692 0.000000 0.027619
0.870451 0.000000 0.009003
0.916686 0.000000 0.000000
0.958007 0.000000 0.000000
0.995331 0.000000 0.000000
1.000000 0.000000 0.000000
1.000000 0.000000 0.000000
1.000000 0.000000 0.000000
1.000000 0.000000 0.000000
1.000000 0.000000 0.000000
0.020600 0.100221 0.102083
0.020294 0.100221 0.102449
0.022583 0.100160 0.102083
0.022461 0.100526 0.101289
0.031403 0.100557 0.101595
0.046052 0.102846 0.102998
0.069917 0.105745 0.104921
0.093324 0.108370 0.107362
0.122683 0.110903 0.106416
0.156222 0.112367 0.105257
0.193759 0.111299 0.104616
0.234287 0.108064 0.103609
0.277134 0.102205 0.102480
0.322210 0.090883 0.101381
0.368780 0.057801 0.100404
0.417731 0.000244 0.098695
0.468299 0.000000 0.096834
0.520562 0.000000 0.094331
0.574243 0.000000 0.090517
0.628779 0.000000 0.085603
0.686519 0.000000 0.076081
0.751369 0.000000 0.058564
0.808652 0.000000 0.040162
0.860899 0.000000 0.021546
0.907897 0.000000 0.005188
0.950347 0.000000 0.000000
0.988342 0.000000 0.000000
1.000000 0.000000 0.000000
1.000000 0.000000 0.000000
1.000000 0.000000 0.000000
1.000000 0.000000 0.000000
1.000000 0.000000 0.000000
0.018463 0.107393 0.106996
0.017762 0.107759 0.106966
0.020752 0.107332 0.106661
0.022309 0.107637 0.106264
0.028473 0.107790 0.105196
0.041077 0.107668 0.105837
0.060273 0.110231 0.107027
0.091188 0.115023 0.109407
0.109438 0.118837 0.112703
0.136385 0.122683 0.114595
0.175143 0.125643 0.112673
0.217441 0.126284 0.111360
0.261234 0.124788 0.110079
0.307134 0.120394 0.108675
0.355138 0.112428 0.107362
0.404517 0.099825 0.106050
0.456611 0.068421 0.103975
0.509758 0.000000 0.101472
0.564538 0.000000 0.098146
0.619867 0.000000 0.093812
0.683742 0.000000 0.088472
0.747433 0.000000 0.076936
0.880186 0.000000 0.043885
0.930358 0.000000 0.029816
0.972259 0.000000 0.019928
1.000000 0.000000 0.015442
1.000000 0.000000 0.016602
1.000000 0.000000 0.020752
1.000000 0.000000 0.036225
1.000000 0.000000 0.059052
1.000000 0.093843 0.089235
1.000000 0.154360 0.106874
0.008270 0.121370 0.114961
0.010254 0.121340 0.114931
0.010254 0.121340 0.114931
0.014221 0.121218 0.114931
0.017914 0.121462 0.112428
0.031708 0.121370 0.111727
0.055512 0.121248 0.112245
0.085084 0.123262 0.113954
0.113283 0.132418 0.116915
0.137972 0.137911 0.121828
0.166812 0.143801 0.127932
0.208103 0.149386 0.129030
0.256535 0.152590 0.126284
0.305241 0.153109 0.124056
0.354864 0.151431 0.121920
0.406226 0.146517 0.119509
0.459297 0.139010 0.116823
0.513512 0.127840 0.113771
0.570001 0.110719 0.110414
0.632807 0.088350 0.105898
0.708339 0.022950 0.100404
0.778683 0.000000 0.093751
0.842588 0.000000 0.086885
0.899443 0.000000 0.078645
0.948028 0.000000 0.068910
0.988006 0.000000 0.066438
1.000000 0.000000 0.066438
1.000000 0.080354 0.073304
1.000000 0.123476 0.084016
1.000000 0.155245 0.094545
1.000000 0.185977 0.107179
1.000000 0.215793 0.122438
0.000000 0.136782 0.123873
0.000000 0.136751 0.123873
0.000000 0.136690 0.123598
0.001923 0.136599 0.123598
0.007111 0.136507 0.122499
0.012268 0.136721 0.118746
0.039368 0.136324 0.118685
0.077516 0.135622 0.119478
0.100282 0.137423 0.121767
0.131868 0.149203 0.125246
0.161440 0.157748 0.131380
0.193210 0.165225 0.139071
0.227237 0.172732 0.148409
0.276280 0.178897 0.146151
0.327184 0.182681 0.142672
0.378759 0.184329 0.139406
0.432532 0.183810 0.136172
0.487343 0.181827 0.132815
0.546502 0.178897 0.129091
0.617304 0.177676 0.125673
0.688716 0.175418 0.121218
0.756710 0.173861 0.116274
0.819852 0.173587 0.112032
0.877226 0.175906 0.108766
0.927123 0.180606 0.106661
0.968902 0.187655 0.105470
1.000000 0.196292 0.106325
1.000000 0.206271 0.108797
1.000000 0.221256 0.113771
1.000000 0.237064 0.121401
1.000000 0.255375 0.132082
1.000000 0.275151 0.145205
0.000000 0.156313 0.135653
0.000000 0.156313 0.135653
0.000000 0.156283 0.135409
0.000000 0.156161 0.135409
0.000000 0.156008 0.135164
0.000000 0.155917 0.131930
0.012634 0.155764 0.127565
0.058381 0.155032 0.128542
0.095064 0.154330 0.129427
0.117403 0.155550 0.131441
0.151797 0.168765 0.136477
0.187655 0.181552 0.143526
0.221012 0.190951 0.152651
0.256443 0.200107 0.163333
0.296483 0.209751 0.172854
0.349615 0.216861 0.167758
0.404273 0.222293 0.163302
0.463539 0.227451 0.159670
0.530480 0.234012 0.156527
0.598474 0.239475 0.152865
0.667781 0.244114 0.148836
0.734676 0.248936 0.144900
0.798245 0.253147 0.141634
0.855955 0.258732 0.139254
0.906859 0.264652 0.138582
0.950256 0.269871 0.137758
0.986999 0.276127 0.138918
1.000000 0.283574 0.141329
1.000000 0.293248 0.145846
1.000000 0.304143 0.152712
1.000000 0.317296 0.162142
1.000000 0.332372 0.174441
0.000000 0.180026 0.150668
0.000000 0.179843 0.150271
0.000000 0.179629 0.150088
0.000000 0.179355 0.149905
0.000000 0.178897 0.149508
0.000000 0.178561 0.147860
0.000000 0.178164 0.142641
0.024506 0.177737 0.139620
0.085634 0.176791 0.140475
0.112245 0.175814 0.141482
0.135775 0.175784 0.143130
0.171603 0.189731 0.149294
0.212650 0.207095 0.156588
0.247166 0.218265 0.166964
0.284215 0.230045 0.179232
0.323491 0.241855 0.192782
0.376959 0.257664 0.200870
0.441688 0.271244 0.196902
0.508385 0.283055 0.193088
0.576104 0.293034 0.188724
0.643977 0.301854 0.184237
0.709468 0.308873 0.179690
0.770748 0.315221 0.176425
0.827420 0.320592 0.173739
0.878172 0.325719 0.171756
0.922789 0.330632 0.170596
0.961975 0.336004 0.171023
0.996399 0.342412 0.173373
1.000000 0.350042 0.177584
1.000000 0.360143 0.184421
1.000000 0.371618 0.193606
1.000000 0.384802 0.206241
0.000000 0.204868 0.166598
0.000000 0.204868 0.166598
0.000000 0.204807 0.166415
0.000000 0.204715 0.166232
0.000000 0.204562 0.166018
0.000000 0.204623 0.165957
0.000000 0.204227 0.161563
0.000000 0.204166 0.155337
0.049439 0.203525 0.153658
0.104555 0.202365 0.154757
0.131960 0.201419 0.155978
0.156619 0.200046 0.157565
0.193118 0.214420 0.164584
0.238529 0.236454 0.172488
0.279301 0.253696 0.185611
0.321233 0.270512 0.200534
0.366430 0.287938 0.217624
0.414496 0.306157 0.236118
0.476539 0.323033 0.237949
0.544030 0.337224 0.232181
0.612055 0.349371 0.226627
0.678340 0.359777 0.221347
0.741299 0.368902 0.217411
0.799496 0.376562 0.214206
0.852354 0.383215 0.212375
0.899229 0.388922 0.211276
0.940368 0.394690 0.211398
0.976898 0.400732 0.213443
1.000000 0.407752 0.217288
1.000000 0.416480 0.224063
1.000000 0.426490 0.233310
1.000000 0.437873 0.245304
0.000000 0.235416 0.186343
0.000000 0.235508 0.186465
0.000000 0.235569 0.186435
0.000000 0.235599 0.186252
0.000000 0.235569 0.186069
0.000000 0.235660 0.186007
0.000000 0.235752 0.184848
0.000000 0.235569 0.178256
0.000000 0.235477 0.170596
0.086519 0.234409 0.171206
0.124636 0.233219 0.172488
0.155856 0.233890 0.174960
0.202701 0.256748 0.191043
0.244999 0.275242 0.201236
0.300999 0.307561 0.213535
0.352819 0.334447 0.229160
0.402136 0.356390 0.248478
0.454200 0.378119 0.269596
0.508171 0.399786 0.292638
0.563775 0.421393 0.317662
0.635889 0.438056 0.310002
0.702846 0.450599 0.302922
0.763943 0.460273 0.297276
0.819028 0.467720 0.293065
0.867796 0.473518 0.290043
0.910582 0.477821 0.288029
0.947601 0.481331 0.287205
0.979858 0.484688 0.287449
1.000000 0.488777 0.289891
1.000000 0.494270 0.294987
1.000000 0.501091 0.303044
1.000000 0.509575 0.314305
0.000000 0.283085 0.217685
0.000000 0.282719 0.217380
0.000000 0.282353 0.217044
0.000000 0.281651 0.216403
0.000000 0.280735 0.215549
0.000000 0.279973 0.215000
0.000000 0.279789 0.214847
0.000000 0.281315 0.211032
0.000000 0.283299 0.203769
0.000000 0.285710 0.198245
0.112093 0.288121 0.201480
0.157595 0.290990 0.205539
0.195346 0.293767 0.209628
0.229282 0.295842 0.214054
0.270634 0.311955 0.224125
0.327855 0.346044 0.237095
0.384833 0.377966 0.251743
0.433722 0.399481 0.271153
0.484962 0.420844 0.292760
0.537407 0.441474 0.315740
0.590753 0.461921 0.340398
0.648402 0.481056 0.358434
0.713680 0.494240 0.350835
0.772824 0.504753 0.345129
0.826139 0.512749 0.340703
0.873228 0.519066 0.337652
0.914519 0.524285 0.336095
0.950652 0.528923 0.335882
0.982116 0.534142 0.338079
1.000000 0.540276 0.343175
1.000000 0.547326 0.351110
1.000000 0.555779 0.362249
0.000000 0.330083 0.248722
0.000000 0.329870 0.248478
0.000000 0.328923 0.247807
0.000000 0.328344 0.247288
0.000000 0.327642 0.246647
0.000000 0.327062 0.245975
0.000000 0.327062 0.245792
0.000000 0.327672 0.244877
0.000000 0.328161 0.236515
0.000000 0.329900 0.227756
0.016175 0.332189 0.224308
0.132479 0.334447 0.228000
0.180667 0.336797 0.231968
0.220951 0.338048 0.235538
0.255741 0.337957 0.238590
0.295933 0.350286 0.247074
0.351751 0.382300 0.259983
0.413092 0.417884 0.273747
0.462776 0.440101 0.293614
0.513329 0.461128 0.315312
0.565484 0.481910 0.339117
0.618494 0.502525 0.365576
0.669459 0.522118 0.393896
0.725978 0.538598 0.404822
0.783993 0.549920 0.399268
0.835355 0.558679 0.395148
0.880583 0.565850 0.392645
0.920073 0.572015 0.391791
0.954772 0.578058 0.393164
0.984466 0.584985 0.398016
1.000000 0.592615 0.405585
1.000000 0.601221 0.416754
0.000000 0.381415 0.283330
0.000000 0.381079 0.282963
0.000000 0.380194 0.282261
0.000000 0.378698 0.281071
0.000000 0.377050 0.279789
0.000000 0.375250 0.278172
0.000000 0.374456 0.277470
0.000000 0.374426 0.277134
0.000000 0.374792 0.271763
0.000000 0.375860 0.262333
0.000000 0.378271 0.252354
0.042145 0.380407 0.252079
0.151705 0.382147 0.255650
0.203281 0.383154 0.259007
0.245060 0.382391 0.261631
0.280735 0.379706 0.263371
0.320226 0.388281 0.270024
0.374517 0.417853 0.283055
0.436683 0.453468 0.297459
0.491371 0.480171 0.316777
0.542596 0.501488 0.339879
0.595148 0.522606 0.364935
0.646540 0.542596 0.392889
0.695399 0.561761 0.422675
0.740902 0.580194 0.454475
0.793881 0.593317 0.457069
0.843534 0.603326 0.453986
0.887419 0.612085 0.453101
0.925597 0.620661 0.455390
0.958251 0.629541 0.460945
0.985809 0.638941 0.470039
1.000000 0.649195 0.483040
0.000000 0.429236 0.315984
0.000000 0.429389 0.316075
0.000000 0.428931 0.315648
0.000000 0.428290 0.315007
0.000000 0.427314 0.314153
0.000000 0.426795 0.313390
0.000000 0.426978 0.313115
0.000000 0.428046 0.313573
0.000000 0.429938 0.313878
0.000000 0.430518 0.303960
0.000000 0.431525 0.292790
0.000000 0.432532 0.280613
0.077943 0.431708 0.282475
0.171054 0.429847 0.284092
0.224582 0.426856 0.285283
0.267155 0.422766 0.286259
0.302831 0.417731 0.286381
0.341711 0.423224 0.291844
0.394598 0.450172 0.304875
0.458228 0.486275 0.320775
0.519371 0.518273 0.339879
0.572564 0.541192 0.365423
0.624811 0.562493 0.393286
0.675166 0.582544 0.423346
0.722316 0.601709 0.455390
0.765652 0.620478 0.489296
0.805234 0.638605 0.521874
0.853025 0.650202 0.520806
0.894438 0.660395 0.522271
0.929381 0.670222 0.526909
0.958587 0.679957 0.534661
0.982513 0.689845 0.545922
0.000000 0.475624 0.348882
0.000000 0.475502 0.348760
0.000000 0.475288 0.348547
0.000000 0.474800 0.347997
0.000000 0.474342 0.347387
0.000000 0.474067 0.346899
0.000000 0.474250 0.346654
0.000000 0.475319 0.346990
0.000000 0.476967 0.347967
0.000000 0.477913 0.342809
0.000000 0.478248 0.331548
0.000000 0.478737 0.318669
0.000000 0.478401 0.308843
0.106783 0.476387 0.310460
0.192294 0.473213 0.311315
0.246342 0.468788 0.311528
0.289342 0.463539 0.311589
0.326574 0.457923 0.311589
0.365454 0.460945 0.316106
0.417609 0.485054 0.329564
0.483162 0.521965 0.347112
0.551690 0.559106 0.367437
0.604364 0.581476 0.394751
0.655634 0.602472 0.424903
0.704189 0.622126 0.457404
0.748806 0.641047 0.491493
0.789364 0.659754 0.527184
0.825040 0.678340 0.564019
0.860502 0.694911 0.589227
0.898558 0.706477 0.593286
0.930175 0.717220 0.600061
0.955840 0.727657 0.610071
0.000000 0.526329 0.386603
0.000000 0.526696 0.386908
0.000000 0.566217 0.418311
0.000000 0.566033 0.418036
0.000000 0.565545 0.417304
0.000000 0.565026 0.416693
0.000000 0.564569 0.415869
0.000000 0.564691 0.415656
0.000000 0.565698 0.416205
0.000000 0.567132 0.416693
0.000000 0.566522 0.404334
0.000000 0.565637 0.390234
0.000000 0.563836 0.373663
0.000000 0.559991 0.365209
0.153780 0.554131 0.364233
0.233310 0.547265 0.362554
0.287846 0.538994 0.360266
0.331456 0.530358 0.357671
0.368841 0.521599 0.355413
0.406989 0.519646 0.356939
0.457984 0.539422 0.370092
0.526909 0.575494 0.390082
0.595453 0.609979 0.412329
0.650111 0.633265 0.440314
0.696651 0.650996 0.471168
0.739681 0.667750 0.503319
0.778805 0.683925 0.536919
0.814023 0.700160 0.571496
0.845212 0.716915 0.606806
0.871977 0.734127 0.642420
0.900969 0.748043 0.659937
0.928710 0.758877 0.668055
0.000000 0.587182 0.435340
0.000000 0.590600 0.438239
0.000000 0.594141 0.441199
0.000000 0.597467 0.443824
0.000000 0.599664 0.445594
0.000000 0.600336 0.445960
0.000000 0.600214 0.445533
0.000000 0.600061 0.445167
0.000000 0.600610 0.445411
0.000000 0.601495 0.445991
0.000000 0.601770 0.440528
0.000000 0.600702 0.427253
0.000000 0.598779 0.411261
0.000000 0.596338 0.393439
0.000000 0.591547 0.389593
0.187839 0.585626 0.388098
0.258640 0.579004 0.386389
0.311345 0.571557 0.384253
0.355230 0.564416 0.382727
0.393683 0.557366 0.381415
0.431769 0.554650 0.382910
0.482673 0.572839 0.397284
0.552056 0.607904 0.419562
0.620081 0.641077 0.443977
0.677424 0.666621 0.471870
0.721614 0.683497 0.503746
0.762112 0.699672 0.537438
0.798764 0.715541 0.571923
0.831571 0.731685 0.607324
0.859922 0.748104 0.642939
0.883604 0.764706 0.678462
0.902434 0.781186 0.712856
0.000000 0.624964 0.467903
0.000000 0.628534 0.471199
0.000000 0.632166 0.474647
0.000000 0.635431 0.477577
0.000000 0.637720 0.479652
0.000000 0.638483 0.479927
0.000000 0.638575 0.479805
0.000000 0.638514 0.479500
0.000000 0.638575 0.479286
0.000000 0.639002 0.479805
0.000000 0.640070 0.480903
0.000000 0.638880 0.468421
0.000000 0.637049 0.454047
0.000000 0.635035 0.437568
0.000000 0.632288 0.421088
0.128023 0.626978 0.419562
0.228855 0.621118 0.417823
0.291478 0.614771 0.415991
0.341741 0.608148 0.413977
0.384771 0.601953 0.412848
0.423224 0.595727 0.411780
0.459968 0.591455 0.412360
0.512139 0.609125 0.428290
0.578668 0.640253 0.451820
0.644831 0.671260 0.477882
0.704738 0.698909 0.506004
0.746212 0.714900 0.539117
0.784207 0.730526 0.573510
0.818479 0.746120 0.608728
0.848356 0.761929 0.644556
0.873472 0.777615 0.680171
0.893736 0.793057 0.714595
0.000000 0.663203 0.503441
0.000000 0.666224 0.506493
0.000000 0.669215 0.509392
0.000000 0.671962 0.512261
0.000000 0.673854 0.514061
0.000000 0.674556 0.514733
0.000000 0.674678 0.514611
0.000000 0.674586 0.514336
0.000000 0.674800 0.514366
0.000000 0.675074 0.514702
0.000000 0.675868 0.515709
0.000000 0.675746 0.510979
0.000000 0.674189 0.497658
0.000000 0.672419 0.483009
0.000000 0.670405 0.466560
0.000000 0.667384 0.454658
0.202152 0.663355 0.454078
0.277562 0.659236 0.453864
0.334874 0.655329 0.453986
0.383948 0.651728 0.454597
0.427924 0.648524 0.456031
0.468452 0.645472 0.457954
0.505364 0.641962 0.459266
0.559503 0.659449 0.478462
0.623224 0.686854 0.504875
0.687495 0.716060 0.535088
0.745418 0.742763 0.566247
0.786435 0.760098 0.600580
0.820157 0.774990 0.636133
0.849149 0.789517 0.671443
0.873075 0.803525 0.706020
0.892271 0.816953 0.738827
0.000000 0.717098 0.559777
0.000000 0.718196 0.561120
0.000000 0.718959 0.561975
0.000000 0.719448 0.562432
0.000000 0.719448 0.562402
0.000000 0.718959 0.561883
0.000000 0.718471 0.561273
0.000000 0.718105 0.560815
0.000000 0.718044 0.560754
0.000000 0.718471 0.561578
0.000000 0.719112 0.562615
0.000000 0.719875 0.564294
0.000000 0.718776 0.553552
0.000000 0.717220 0.540246
0.052491 0.715358 0.525414
0.118563 0.713222 0.508904
0.206607 0.709743 0.501518
0.282170 0.705562 0.500511
0.339178 0.701228 0.499580
0.388403 0.697047 0.499062
0.431800 0.692744 0.498787
0.471626 0.688685 0.498878
0.508446 0.684413 0.498970
0.542535 0.679774 0.498970
0.592554 0.693172 0.516228
0.650690 0.715969 0.541894
0.712367 0.743435 0.573480
0.767391 0.768643 0.605615
0.809262 0.787839 0.639643
0.839536 0.801755 0.674952
0.864652 0.814939 0.709285
0.884916 0.827359 0.742000
0.000000 0.749233 0.596674
0.000000 0.750057 0.597772
0.000000 0.750790 0.598718
0.000000 0.751247 0.599237
0.000000 0.751278 0.599359
0.000000 0.751034 0.599207
0.000000 0.750729 0.598779
0.000000 0.750393 0.598566
0.000000 0.750454 0.598871
0.000000 0.750729 0.599573
0.000000 0.751247 0.600824
0.128298 0.751919 0.602411
0.171084 0.751858 0.599145
0.187961 0.750851 0.588220
0.204837 0.749569 0.575677
0.220218 0.748196 0.561791
0.235203 0.746792 0.546471
0.298192 0.743618 0.544579
0.353033 0.740352 0.544335
0.400488 0.736873 0.544060
0.443519 0.733577 0.544488
0.483162 0.730159 0.545037
0.519646 0.726772 0.545556
0.554070 0.723171 0.546044
0.574853 0.710567 0.534447
0.621363 0.721126 0.550378
0.674983 0.740993 0.575799
0.734188 0.766873 0.607935
0.786069 0.790555 0.640833
0.828183 0.810819 0.674464
0.855161 0.823880 0.709499
0.877104 0.836027 0.742916
0.000000 0.786893 0.645289
0.017243 0.788113 0.647181
0.053468 0.788632 0.647913
0.085512 0.788418 0.647669
0.094026 0.787594 0.646571
0.105715 0.786374 0.645014
0.118624 0.784909 0.643030
0.137087 0.783536 0.641260
0.159274 0.782193 0.639673
0.184085 0.781277 0.638819
0.208865 0.780423 0.638117
0.236210 0.779965 0.638331
0.262699 0.779538 0.638788
0.270024 0.777920 0.628992
0.275517 0.775814 0.616693
0.281498 0.773770 0.603418
0.288975 0.771695 0.588678
0.306828 0.769711 0.576165
0.358251 0.766812 0.575952
0.404883 0.764157 0.576562
0.447272 0.761776 0.577630
0.486152 0.759243 0.578729
0.521721 0.756130 0.579126
0.554589 0.752407 0.578851
0.584771 0.748013 0.577752
0.613123 0.743221 0.576379
0.654353 0.750820 0.589532
0.702296 0.766934 0.613062
0.757321 0.790341 0.644587
0.805081 0.811765 0.677028
0.844450 0.831174 0.709682
0.869047 0.843687 0.742916
0.218906 0.808438 0.674403
0.226139 0.809445 0.675959
0.231998 0.810086 0.676997
0.236728 0.810208 0.677272
0.241581 0.810025 0.677150
0.247715 0.809689 0.676814
0.255589 0.809323 0.676417
0.266361 0.808988 0.676265
0.279728 0.808835 0.676326
0.295232 0.808774 0.676844
0.311467 0.808743 0.677394
0.329931 0.808713 0.678309
0.347784 0.808621 0.679103
0.360479 0.807950 0.676204
0.362890 0.806394 0.666072
0.365515 0.804654 0.654688
0.369421 0.802976 0.642420
0.374640 0.801480 0.629297
0.397223 0.799710 0.622095
0.436988 0.797391 0.622370
0.474708 0.795285 0.623346
0.510430 0.793149 0.624598
0.544060 0.790860 0.625727
0.575372 0.788174 0.626337
0.604761 0.785183 0.626764
0.632319 0.781765 0.626581
0.658503 0.778256 0.626276
0.695399 0.784115 0.638392
0.738247 0.797787 0.661677
0.788296 0.818601 0.693263
0.829709 0.837217 0.724666
0.862821 0.853819 0.755520
0.336645 0.833280 0.711330
0.339605 0.833677 0.712154
0.341314 0.833921 0.712428
0.343359 0.833860 0.712428
0.345739 0.833585 0.712154
0.348638 0.833188 0.711635
0.352911 0.832761 0.711116
0.359289 0.832364 0.710811
0.367132 0.832059 0.710780
0.377508 0.831876 0.711086
0.388708 0.831693 0.711391
0.401740 0.831632 0.712154
0.415717 0.831540 0.713069
0.429969 0.831266 0.713893
0.433265 0.830167 0.706935
0.434455 0.828824 0.697383
0.436500 0.827481 0.687129
0.439704 0.826291 0.676204
0.444709 0.825559 0.665187
0.471138 0.824033 0.662623
0.504295 0.822232 0.663630
0.536248 0.820432 0.664912
0.566278 0.818387 0.665858
0.594781 0.816068 0.666499
0.621698 0.813504 0.666835
0.646967 0.810605 0.666682
0.671443 0.807645 0.666560
0.694850 0.804593 0.666377
0.727077 0.808774 0.676844
0.767178 0.821439 0.700587
0.810880 0.839261 0.731136
0.847379 0.855955 0.761868
0.417273 0.852262 0.741604
0.419043 0.852567 0.742153
0.421363 0.852781 0.742672
0.423560 0.852903 0.743008
0.426673 0.853025 0.743313
0.431617 0.853269 0.743984
0.439826 0.853880 0.745541
0.449805 0.854704 0.747494
0.462196 0.855741 0.750057
0.476356 0.856962 0.753109
0.491493 0.858244 0.756405
0.506737 0.859403 0.759609
0.522179 0.860410 0.762783
0.536797 0.861051 0.765469
0.547204 0.861265 0.765438
0.549035 0.860868 0.759335
0.551110 0.860258 0.752529
0.553216 0.859678 0.744900
0.557000 0.859373 0.737392
0.561822 0.859251 0.729549
0.586206 0.857877 0.730648
0.610468 0.856504 0.731899
0.633631 0.854917 0.732876
0.655940 0.853147 0.733669
0.677180 0.851164 0.733974
0.697536 0.848997 0.734096
0.717311 0.846799 0.734157
0.736507 0.844602 0.734340
0.755520 0.842557 0.734981
0.780636 0.845151 0.743496
0.813626 0.855711 0.766079
0.845945 0.868864 0.791867
0.536614 0.876738 0.787259
0.536858 0.876738 0.787320
0.536889 0.876677 0.787198
0.537407 0.876524 0.786984
0.538293 0.876371 0.786831
0.539849 0.876158 0.786618
0.542626 0.876036 0.786709
0.546685 0.875944 0.786923
0.552056 0.875975 0.787533
0.558740 0.876036 0.788357
0.566522 0.876158 0.789456
0.575280 0.876310 0.790738
0.584741 0.876432 0.792111
0.594263 0.876463 0.793484
