20 Preset/Car Style/【3】LUT video cho PR-AE-FCPX/Tone  (15).cube
# Created by Adobe Lightroom plugin Export LUT (1.24.0)
# www.johnrellis.com/lightroom/exportlut.htm
# Preset: 16汽车质感（素材江湖）
# Color profile: E:\lut插件\exportlut.1.24\exportlut.lrplugin\color profiles\Rec709gamma2.4.icc
LUT_3D_SIZE 5
DOMAIN_MIN 0.000000 0.000000 0.000000
DOMAIN_MAX 0.903226 0.903226 0.903226
0.059113 0.109499 0.121248
0.139895 0.111940 0.124819
0.375769 0.041382 0.129122
0.751980 0.000000 0.127199
1.000000 0.000000 0.138796
0.090974 0.153201 0.160678
0.048951 0.166445 0.137881
0.345617 0.165011 0.136141
0.742428 0.123598 0.129030
1.000000 0.215793 0.146670
0.177127 0.496925 0.440620
0.186496 0.489174 0.425147
0.000000 0.561089 0.210239
0.732235 0.572625 0.000000
1.000000 0.514916 0.177768
0.674189 0.847684 0.810300
0.679377 0.848631 0.809628
0.606836 0.857603 0.775601
0.331426 0.873259 0.507378
0.910155 0.868254 0.348333
0.876036 0.900114 0.887785
0.876432 0.900206 0.887694
0.871977 0.898802 0.884642
0.846433 0.903960 0.871336
0.785458 0.913054 0.808988
0.000000 0.110201 0.172610
0.107973 0.108431 0.172610
0.373632 0.000000 0.180453
0.721950 0.000000 0.194003
1.000000 0.000000 0.214969
0.096254 0.151369 0.175448
0.141054 0.160220 0.176608
0.357336 0.158968 0.185580
0.707912 0.080385 0.198642
1.000000 0.119692 0.219181
0.265385 0.449683 0.423041
0.270573 0.452064 0.417609
0.000000 0.483650 0.267308
0.675319 0.481270 0.207065
1.000000 0.504234 0.256748
0.693629 0.841672 0.812009
0.700862 0.843534 0.812558
0.666896 0.850401 0.792752
0.421729 0.863706 0.552605
0.920592 0.863157 0.407843
0.879088 0.900053 0.888701
0.879210 0.900114 0.888518
0.881285 0.900664 0.888457
0.860990 0.904112 0.877714
0.812924 0.911620 0.829068
0.000000 0.110719 0.403021
0.000000 0.108431 0.395819
0.225437 0.014191 0.378607
0.730770 0.000000 0.443732
1.000000 0.000000 0.424109
0.000000 0.160098 0.422065
0.000000 0.140078 0.411048
0.243839 0.059205 0.388952
0.744503 0.000000 0.423560
1.000000 0.000000 0.420630
0.158267 0.399329 0.460182
0.235569 0.402655 0.451301
0.389563 0.409674 0.414679
0.716304 0.438453 0.437049
1.000000 0.493660 0.475227
0.713985 0.818387 0.809537
0.713924 0.812497 0.802579
0.739895 0.821408 0.805142
0.609247 0.831540 0.670802
0.928161 0.810575 0.560388
0.885252 0.899046 0.890471
0.886015 0.899321 0.890593
0.888029 0.900114 0.890684
0.880369 0.901915 0.886076
0.839658 0.907195 0.847898
0.000000 0.104891 0.744381
0.000000 0.099886 0.739406
0.000000 0.009705 0.711696
0.419989 0.000000 0.683253
1.000000 0.000000 0.777157
0.000000 0.135592 0.749325
0.000000 0.129000 0.742397
0.000000 0.086519 0.710933
0.420539 0.000000 0.675257
1.000000 0.000000 0.762325
0.000000 0.384619 0.766476
0.000000 0.376715 0.757382
0.000000 0.291325 0.730709
0.478035 0.000000 0.684993
1.000000 0.000000 0.717098
0.482612 0.747707 0.807767
0.505364 0.745357 0.801816
0.601556 0.746456 0.785794
0.703212 0.720699 0.724178
0.932830 0.750912 0.750027
0.887633 0.897612 0.892454
0.888884 0.898070 0.892729
0.894957 0.899535 0.893767
0.900084 0.901427 0.894499
0.876127 0.902525 0.873198
0.000000 0.096010 0.925628
0.000000 0.088899 0.924498
0.000000 0.000000 0.920745
0.000000 0.000000 0.910735
0.668666 0.000000 0.903105
0.000000 0.120027 0.924590
0.000000 0.114748 0.923644
0.000000 0.045716 0.919677
0.000000 0.000000 0.909270
0.668544 0.000000 0.901427
0.000000 0.325078 0.923857
0.000000 0.300511 0.923278
0.000000 0.218875 0.920653
0.000000 0.057160 0.910369
0.688685 0.000000 0.903166
0.000000 0.648585 0.915312
0.000000 0.646235 0.914458
0.000000 0.640070 0.910491
0.323308 0.528954 0.910979
0.771237 0.223026 0.910124
0.834531 0.881926 0.895018
0.838651 0.882597 0.894835
0.856413 0.886107 0.894499
0.878538 0.890074 0.893187
0.890593 0.883299 0.881224
