20 Preset/Car Style/【3】LUT video cho PR-AE-FCPX/Tone  (19).cube
# Created by Adobe Lightroom plugin Export LUT (1.24.0)
# www.johnrellis.com/lightroom/exportlut.htm
# Preset: 20汽车质感（素材江湖）
# Color profile: E:\lut插件\exportlut.1.24\exportlut.lrplugin\color profiles\Rec709gamma2.4.icc
LUT_3D_SIZE 5
DOMAIN_MIN 0.000000 0.000000 0.000000
DOMAIN_MAX 0.903226 0.903226 0.903226
0.025208 0.092592 0.095186
0.174014 0.102907 0.111818
0.349615 0.103822 0.142428
0.692073 0.000000 0.165103
1.000000 0.000000 0.206882
0.132143 0.166598 0.163455
0.153994 0.173800 0.170382
0.339666 0.193729 0.177096
0.704829 0.172641 0.190433
1.000000 0.234806 0.254948
0.242527 0.349615 0.293217
0.266514 0.355566 0.303929
0.380804 0.438849 0.361913
0.694087 0.551690 0.394842
0.960388 0.586511 0.459846
0.475746 0.656672 0.562249
0.500298 0.665278 0.576440
0.576226 0.696498 0.617762
0.691524 0.745754 0.669520
0.883146 0.832609 0.741238
0.788815 0.867796 0.820645
0.797269 0.870024 0.825223
0.810758 0.868650 0.829282
0.856443 0.888640 0.853605
0.902190 0.909056 0.877226
0.060945 0.107576 0.160708
0.167056 0.106813 0.178775
0.332341 0.122194 0.186587
0.654536 0.000000 0.203006
0.978943 0.000000 0.239780
0.139528 0.171206 0.179538
0.172519 0.184146 0.192660
0.357855 0.183841 0.203342
0.676570 0.140200 0.225406
0.978943 0.152102 0.273686
0.259648 0.345739 0.308659
0.276860 0.356512 0.317205
0.368048 0.413214 0.361639
0.665614 0.512016 0.398505
0.952270 0.573205 0.472541
0.486213 0.654749 0.571954
0.507652 0.665126 0.584924
0.586389 0.697353 0.630274
0.693904 0.744442 0.677790
0.883177 0.829648 0.745541
0.787625 0.866484 0.820706
0.794888 0.868376 0.824369
0.828183 0.878508 0.843015
0.866300 0.894347 0.862394
0.908995 0.914061 0.884550
0.112245 0.134493 0.243503
0.156283 0.135958 0.266148
0.365332 0.079622 0.354955
0.695155 0.000000 0.379858
0.973785 0.000000 0.406104
0.144411 0.182925 0.276341
0.177584 0.181613 0.295506
0.392401 0.146639 0.381689
0.702846 0.102266 0.396857
0.976043 0.000000 0.423529
0.230777 0.341222 0.351568
0.269902 0.363195 0.371771
0.434424 0.463935 0.465095
0.715602 0.479072 0.484962
0.962463 0.520012 0.528649
0.492653 0.639673 0.591669
0.520439 0.649653 0.605432
0.602899 0.694606 0.655238
0.714412 0.750515 0.715541
0.889647 0.817258 0.761837
0.773434 0.854795 0.815061
0.783322 0.858762 0.820310
0.817227 0.872160 0.838437
0.864530 0.890593 0.864042
0.907469 0.911223 0.885252
0.110780 0.149935 0.418799
0.158511 0.145937 0.440223
0.336156 0.089631 0.526390
0.682795 0.000000 0.652247
0.965393 0.000000 0.658412
0.113741 0.181399 0.442359
0.162142 0.178714 0.460487
0.341100 0.146883 0.538445
0.686275 0.000000 0.655360
0.961944 0.000000 0.661006
0.185428 0.327276 0.466255
0.215824 0.338476 0.490028
0.370367 0.373144 0.579889
0.709957 0.381109 0.688441
0.961151 0.500603 0.701930
0.369726 0.584161 0.592187
0.398810 0.594507 0.602106
0.525109 0.649775 0.655940
0.743069 0.758663 0.764523
0.925902 0.765591 0.773404
0.694423 0.824186 0.789334
0.713161 0.829984 0.797177
0.787961 0.855680 0.831205
0.866697 0.890043 0.871305
0.915129 0.914580 0.896422
0.000000 0.144625 0.696803
0.136629 0.134859 0.706752
0.356268 0.000000 0.751034
0.651972 0.000000 0.821622
0.972076 0.000000 0.880308
0.000000 0.178561 0.695949
0.122011 0.172061 0.706416
0.349889 0.123903 0.749477
0.646693 0.000000 0.819699
0.970275 0.000000 0.879667
0.000000 0.313481 0.701076
0.007813 0.312200 0.709957
0.331121 0.306889 0.751339
0.633692 0.268437 0.820737
0.970031 0.247501 0.884886
0.174136 0.534539 0.698695
0.211124 0.535973 0.701747
0.335698 0.551415 0.727810
0.610132 0.600885 0.824033
0.946075 0.672114 0.894316
0.535424 0.784817 0.795529
0.553491 0.788449 0.798886
0.634485 0.808621 0.817624
0.775784 0.848569 0.853666
0.926482 0.918975 0.913756
