20 Preset/Car Style/【3】LUT video cho PR-AE-FCPX/Tone  (16).cube
# Created by Adobe Lightroom plugin Export LUT (1.24.0)
# www.johnrellis.com/lightroom/exportlut.htm
# Preset: 17汽车质感（素材江湖）
# Color profile: E:\lut插件\exportlut.1.24\exportlut.lrplugin\color profiles\Rec709gamma2.4.icc
LUT_3D_SIZE 8
DOMAIN_MIN 0.000000 0.000000 0.000000
DOMAIN_MAX 0.903226 0.903226 0.903226
0.000000 0.037903 0.033387
0.036774 0.046052 0.038148
0.145571 0.055634 0.052888
0.272435 0.009461 0.070436
0.463264 0.000000 0.080720
0.668055 0.000000 0.086854
0.891203 0.000000 0.093629
1.000000 0.000000 0.128969
0.000000 0.090120 0.046540
0.030701 0.092348 0.045960
0.142031 0.092714 0.056428
0.260441 0.078218 0.071809
0.443336 0.000000 0.080903
0.645197 0.000000 0.084810
0.857542 0.000000 0.087526
1.000000 0.000000 0.116762
0.000000 0.159701 0.082399
0.000000 0.160006 0.083955
0.147524 0.169100 0.073426
0.287175 0.175265 0.070069
0.455085 0.176089 0.066011
0.671687 0.176822 0.044862
0.883513 0.200809 0.044373
1.000000 0.273777 0.121889
0.000000 0.298314 0.085969
0.000000 0.296941 0.087434
0.110750 0.309148 0.074922
0.321752 0.355749 0.000000
0.538689 0.387793 0.000000
0.705684 0.389197 0.000000
0.878630 0.408301 0.000000
1.000000 0.445960 0.109651
0.000000 0.500755 0.000000
0.000000 0.499886 0.000000
0.000000 0.502159 0.000000
0.259312 0.529564 0.000000
0.502678 0.562158 0.000000
0.719020 0.578515 0.000000
0.862455 0.575708 0.000000
0.986175 0.591974 0.086427
0.000000 0.681239 0.126711
0.000000 0.689082 0.137942
0.000000 0.689265 0.145083
0.219944 0.695613 0.149020
0.473915 0.713161 0.124880
0.696529 0.735073 0.088258
0.888670 0.754238 0.134188
0.987121 0.753262 0.222232
0.000000 0.830533 0.299748
0.000000 0.831754 0.303136
0.176944 0.830259 0.305394
0.326329 0.829160 0.313024
0.505730 0.833341 0.311101
0.687037 0.842313 0.314916
0.853574 0.852506 0.324529
0.981292 0.864988 0.363043
0.483803 0.931456 0.510674
0.490486 0.931243 0.511162
0.520623 0.930938 0.515892
0.576349 0.930846 0.527276
0.628229 0.922881 0.507012
0.752224 0.926421 0.521508
0.865263 0.930755 0.539300
0.956298 0.934569 0.550805
0.000000 0.050935 0.080781
0.030426 0.054231 0.082124
0.133120 0.071046 0.089967
0.254978 0.053010 0.103395
0.439124 0.000000 0.111055
0.638239 0.000000 0.117861
0.843381 0.000000 0.126955
1.000000 0.000000 0.152193
0.000000 0.092287 0.087434
0.037690 0.093446 0.091310
0.139956 0.098665 0.096498
0.256504 0.093996 0.104036
0.436316 0.000000 0.110658
0.634821 0.000000 0.116243
0.828367 0.000000 0.122377
0.993011 0.000000 0.144411
0.006775 0.158877 0.105898
0.040650 0.159548 0.106569
0.149477 0.166995 0.104341
0.277928 0.173434 0.105074
0.443366 0.174136 0.105928
0.642176 0.168093 0.106661
0.835721 0.172885 0.112184
1.000000 0.238956 0.144808
0.000000 0.285954 0.111818
0.000000 0.285924 0.112123
0.119326 0.295811 0.110475
0.300908 0.326940 0.082185
0.489998 0.347662 0.019440
0.648859 0.350530 0.018219
0.828794 0.371435 0.043153
0.985443 0.412604 0.129122
0.000000 0.490944 0.092683
0.000000 0.488655 0.093355
0.000000 0.487617 0.097566
0.251072 0.506371 0.044099
0.477638 0.533440 0.000000
0.688838 0.552667 0.000000
0.837461 0.554406 0.000000
0.969451 0.573541 0.121187
0.000000 0.666743 0.153750
0.000000 0.667323 0.155581
0.000000 0.668544 0.162173
0.203006 0.676539 0.168795
0.458778 0.697383 0.154482
0.684382 0.724178 0.137819
0.877256 0.743923 0.164706
0.978393 0.742580 0.231510
0.000000 0.818845 0.298772
0.000000 0.817044 0.296391
0.110109 0.815274 0.298009
0.301976 0.815763 0.307591
0.489601 0.823484 0.311925
0.673060 0.833555 0.315435
0.840421 0.842924 0.318944
0.972503 0.855253 0.351263
0.461158 0.925841 0.500725
0.473030 0.926574 0.504662
0.503349 0.926085 0.508415
0.561486 0.926207 0.520134
0.643030 0.926146 0.531762
0.755581 0.927214 0.536187
0.863432 0.929656 0.545312
0.954711 0.933471 0.555840
0.000000 0.083375 0.138766
0.036652 0.083925 0.139040
0.134463 0.088075 0.141176
0.231510 0.103212 0.152316
0.436835 0.000000 0.178134
0.665919 0.000000 0.201724
0.867521 0.000000 0.239689
1.000000 0.000000 0.277195
0.017609 0.108125 0.146914
0.057038 0.106783 0.147097
0.141512 0.107790 0.147646
0.242466 0.117678 0.159426
0.441840 0.000000 0.179873
0.661860 0.000000 0.208316
0.852964 0.000000 0.232792
1.000000 0.094301 0.269047
0.006287 0.167483 0.159823
0.072023 0.168551 0.162264
0.163149 0.170993 0.170626
0.295964 0.177890 0.179324
0.474586 0.179782 0.191989
0.670680 0.183047 0.210086
0.853544 0.207675 0.234043
1.000000 0.278630 0.270787
0.000000 0.302617 0.176638
0.000000 0.306554 0.181735
0.161257 0.312474 0.190585
0.320836 0.338384 0.187869
0.502464 0.355077 0.191775
0.672480 0.367834 0.204929
0.848936 0.395361 0.231724
0.994781 0.438636 0.272831
0.000000 0.498451 0.214420
0.000000 0.498329 0.214450
0.000000 0.499855 0.217807
0.279606 0.514214 0.219638
0.497536 0.544915 0.206180
0.695338 0.557916 0.204715
0.838041 0.559686 0.228794
0.973327 0.585016 0.272465
0.000000 0.668940 0.265080
0.000000 0.670069 0.267063
0.000000 0.670558 0.269902
0.243748 0.672236 0.277287
0.466072 0.692012 0.273991
0.683986 0.719966 0.276371
0.871366 0.740688 0.299229
0.974914 0.744259 0.338964
0.100587 0.822690 0.378607
0.136507 0.821225 0.376837
0.233433 0.818387 0.375250
0.349432 0.817014 0.379797
0.500542 0.821653 0.385473
0.679011 0.833402 0.393622
0.845426 0.846036 0.407446
0.972320 0.860105 0.443214
0.487098 0.925353 0.543236
0.491402 0.924712 0.542168
0.519097 0.924132 0.545037
0.578790 0.925414 0.559289
0.647974 0.924743 0.570642
0.760281 0.927276 0.579675
0.865293 0.930602 0.590723
0.953918 0.934783 0.601434
0.000000 0.103548 0.230900
0.011902 0.104707 0.233219
0.150027 0.105165 0.232212
0.252018 0.098238 0.236820
0.384283 0.099428 0.255619
0.600824 0.000000 0.304417
0.822019 0.000000 0.349676
0.999420 0.086244 0.396460
0.000000 0.125063 0.247837
0.041932 0.125277 0.247684
0.161685 0.123201 0.244633
0.263828 0.115816 0.247440
0.396307 0.123995 0.265080
0.610681 0.096681 0.312505
0.825071 0.000000 0.354253
0.999969 0.152895 0.399420
0.000000 0.199222 0.274815
0.066407 0.197787 0.276555
0.174350 0.186923 0.277256
0.289738 0.180819 0.273899
0.436927 0.220737 0.303014
0.657618 0.227726 0.349371
0.866026 0.254307 0.392950
1.000000 0.340795 0.441596
0.000000 0.325505 0.305180
0.000000 0.326116 0.306828
0.169192 0.330785 0.316472
0.331029 0.337499 0.335058
0.501915 0.358099 0.351293
0.679530 0.382422 0.371893
0.850858 0.415290 0.399023
0.992432 0.463508 0.434150
0.000000 0.512383 0.331060
0.000000 0.512078 0.334539
0.182986 0.516930 0.353063
0.336309 0.526177 0.376104
0.516594 0.553399 0.380896
0.694667 0.562005 0.386999
0.840421 0.571710 0.401984
0.975677 0.603967 0.439399
0.000000 0.686488 0.413489
0.129641 0.692378 0.420630
0.234836 0.690547 0.420508
0.351080 0.691768 0.425452
0.498390 0.701686 0.430640
0.695888 0.724788 0.436957
0.865751 0.741176 0.454688
0.967163 0.747189 0.477913
0.287694 0.825559 0.491920
0.303716 0.826078 0.493477
0.355749 0.826047 0.496071
0.437018 0.826200 0.501671
0.535363 0.826078 0.508415
0.695216 0.836728 0.515984
0.848783 0.848631 0.527886
0.966461 0.862455 0.557275
0.541680 0.927886 0.622004
0.546929 0.927642 0.622156
0.569848 0.926940 0.623926
0.614343 0.926329 0.629450
0.673213 0.925139 0.637110
0.765316 0.926787 0.646052
0.866087 0.931182 0.658137
0.952300 0.937011 0.672175
0.000000 0.128817 0.387823
0.000000 0.129183 0.389746
0.152010 0.126345 0.386450
0.284092 0.112215 0.379980
0.411048 0.065431 0.386389
0.548333 0.115450 0.401984
0.746181 0.217044 0.460060
0.947509 0.263523 0.521965
0.000000 0.149081 0.402625
0.000000 0.149142 0.404303
0.161837 0.145418 0.399817
0.291203 0.131838 0.389044
0.419409 0.106691 0.394690
0.555810 0.150973 0.410101
0.751675 0.239933 0.466926
0.949279 0.285924 0.526360
0.000000 0.230655 0.436347
0.000000 0.223178 0.435645
0.174563 0.215213 0.428870
0.311467 0.206790 0.418799
0.439460 0.198795 0.416876
0.569726 0.250858 0.430854
0.766232 0.312535 0.486824
0.951537 0.353368 0.536675
0.000000 0.368811 0.466651
0.000000 0.369848 0.468116
0.196017 0.374426 0.474708
0.336828 0.356451 0.474220
0.472999 0.349310 0.464118
0.613642 0.405463 0.489143
0.808042 0.435401 0.533013
0.969879 0.474311 0.571435
0.000000 0.519402 0.487068
0.000000 0.520378 0.488869
0.121096 0.523217 0.495827
0.336614 0.527092 0.507988
0.500755 0.528832 0.523644
0.669368 0.547021 0.538842
0.831144 0.572686 0.560876
0.964538 0.607324 0.588403
0.000000 0.664271 0.484260
0.000000 0.665217 0.487404
0.206302 0.664759 0.496529
0.369299 0.668727 0.519615
0.503655 0.675105 0.544488
0.680934 0.706874 0.566064
0.840635 0.723415 0.582055
0.949828 0.734401 0.594995
0.303838 0.821012 0.576165
0.317723 0.819944 0.576410
0.378820 0.818601 0.582635
0.481910 0.819577 0.601648
0.568780 0.820523 0.608820
0.688014 0.826932 0.616785
0.839322 0.841398 0.629511
0.952117 0.853117 0.645869
0.549279 0.921477 0.680323
0.554070 0.921172 0.680110
0.575280 0.920317 0.680476
0.628351 0.921996 0.691524
0.686244 0.921386 0.698360
0.756252 0.921447 0.707240
0.857542 0.927031 0.718257
0.945006 0.933654 0.730220
0.000000 0.167391 0.576471
0.000000 0.167361 0.576989
0.133242 0.163455 0.570031
0.306889 0.152316 0.559930
0.449958 0.125795 0.549889
0.586603 0.095186 0.556664
0.713252 0.194430 0.565545
0.896849 0.339788 0.628443
0.000000 0.184878 0.572930
0.000000 0.184268 0.571679
0.141634 0.180697 0.566064
0.307073 0.171450 0.557610
0.445411 0.148867 0.544488
0.580438 0.130465 0.551202
0.707607 0.214481 0.561944
0.891020 0.349889 0.625025
0.000000 0.266789 0.605737
0.000000 0.266178 0.604273
0.177584 0.263767 0.599939
0.329686 0.253574 0.584558
0.464759 0.238407 0.567590
0.597406 0.235721 0.570306
0.725673 0.307591 0.584253
0.896788 0.425391 0.643519
0.000000 0.432013 0.642084
0.041444 0.429847 0.640894
0.239078 0.424384 0.640894
0.361151 0.403326 0.637324
0.503288 0.389654 0.621271
0.634272 0.385412 0.614923
0.761898 0.454444 0.632685
0.913725 0.543816 0.685267
0.000000 0.564111 0.649683
0.000000 0.564416 0.650324
0.211002 0.566522 0.653742
0.379339 0.572320 0.661860
0.510887 0.545922 0.656123
0.642695 0.531029 0.641321
0.776791 0.589441 0.668360
0.932280 0.627314 0.709743
0.000000 0.691341 0.656916
0.000000 0.694026 0.660426
0.181247 0.693812 0.663386
0.367926 0.693690 0.669673
0.521996 0.692897 0.678950
0.677668 0.697505 0.698268
0.831022 0.719661 0.718868
0.947997 0.745022 0.739590
0.301610 0.821744 0.669001
0.324743 0.823117 0.672358
0.389288 0.823484 0.679011
0.488685 0.824277 0.692409
0.605707 0.825834 0.713741
0.710933 0.826261 0.731991
0.839261 0.841459 0.744808
0.942077 0.850675 0.753109
0.532952 0.921477 0.738979
0.538079 0.920836 0.738735
0.568048 0.920043 0.742458
0.628931 0.920256 0.754208
0.707637 0.919036 0.771145
0.769436 0.918669 0.777310
0.850736 0.923400 0.787900
0.939696 0.932341 0.799832
0.000000 0.233494 0.740322
0.000000 0.234562 0.741421
0.186435 0.232517 0.737362
0.349920 0.227085 0.731228
0.490913 0.211643 0.718990
0.621454 0.180636 0.700374
0.750057 0.178622 0.705806
0.845029 0.277256 0.699825
0.000000 0.248356 0.734798
0.000000 0.249790 0.736507
0.188144 0.247349 0.732753
0.345403 0.240452 0.724849
0.484016 0.225254 0.711910
0.611719 0.194827 0.691615
0.737667 0.190585 0.695308
0.832609 0.279637 0.689082
0.000000 0.325597 0.751797
0.000000 0.324926 0.750820
0.216922 0.320958 0.745754
0.361486 0.313298 0.737240
0.494697 0.298528 0.722713
0.622004 0.274784 0.703639
0.750942 0.279545 0.709712
0.851591 0.363165 0.711391
0.156313 0.472236 0.774990
0.170321 0.464973 0.773159
0.238041 0.443091 0.768765
0.380346 0.435920 0.761654
0.514000 0.420691 0.748165
0.643030 0.400000 0.731106
0.769833 0.404669 0.733272
0.869413 0.481331 0.738949
0.183810 0.615076 0.783932
0.210239 0.611902 0.782284
0.301396 0.604456 0.780392
0.418036 0.592340 0.779568
0.520165 0.558984 0.770657
0.648920 0.534874 0.752743
0.773159 0.529778 0.747951
0.884092 0.606561 0.768460
0.192020 0.724971 0.789273
0.225284 0.725246 0.789975
0.317906 0.725368 0.791714
0.438178 0.725521 0.795590
0.567651 0.725643 0.800931
0.678920 0.699397 0.797452
0.795651 0.684596 0.785794
0.901549 0.742306 0.809628
0.270909 0.832547 0.800046
0.296422 0.833219 0.801328
0.366033 0.832456 0.802792
0.471290 0.831571 0.806546
0.588891 0.829129 0.811215
0.710628 0.826749 0.818601
0.826810 0.826566 0.829465
0.932708 0.843259 0.842741
0.516320 0.918181 0.801572
0.525353 0.918303 0.802670
0.564843 0.919249 0.808377
0.625086 0.919341 0.816037
0.700984 0.919036 0.826566
0.784146 0.919554 0.841093
0.856596 0.920500 0.853941
0.938109 0.931731 0.864530
0.257694 0.352514 0.872770
0.280644 0.353460 0.872953
0.348821 0.349767 0.869749
0.454810 0.346868 0.866575
0.573236 0.338170 0.860502
0.692897 0.320928 0.850889
0.808621 0.295933 0.838682
0.913634 0.315831 0.842588
0.252842 0.362524 0.869841
0.276249 0.363287 0.870207
0.346777 0.360784 0.867857
0.450965 0.356420 0.864164
0.568780 0.347234 0.858061
0.688472 0.329564 0.848295
0.802670 0.302434 0.834928
0.907469 0.318608 0.838102
0.265141 0.417914 0.871733
0.285008 0.417578 0.871458
0.351659 0.413733 0.868742
0.458228 0.412634 0.867430
0.571679 0.400671 0.860380
0.687648 0.380865 0.849546
0.801419 0.354955 0.836576
0.906218 0.368688 0.839322
0.274540 0.510826 0.876585
0.295323 0.510826 0.876555
0.360937 0.507164 0.874479
0.461738 0.501884 0.871580
0.575525 0.490883 0.865873
0.691798 0.471839 0.856657
0.804685 0.446448 0.844450
0.908507 0.457069 0.846128
0.365942 0.653315 0.878691
0.379675 0.652796 0.879088
0.421851 0.644800 0.878294
0.464759 0.614862 0.877928
0.571038 0.597375 0.872343
0.687190 0.576623 0.863462
0.801358 0.550439 0.851987
0.907347 0.556970 0.853056
0.396094 0.766659 0.881437
0.404547 0.765408 0.881010
0.443336 0.762081 0.880369
0.511650 0.752773 0.880156
0.600427 0.735103 0.880400
0.693690 0.705623 0.878599
0.810300 0.686671 0.870848
0.911803 0.686671 0.869383
0.448310 0.855619 0.886870
0.456947 0.855100 0.886839
0.492317 0.853269 0.886931
0.559533 0.851133 0.888151
0.647578 0.848356 0.890379
0.747189 0.846647 0.894408
0.827970 0.824826 0.893584
0.911925 0.809537 0.885008
0.543755 0.930541 0.894408
0.549584 0.930175 0.894408
0.577325 0.929259 0.894957
0.630823 0.928161 0.896849
0.700404 0.926238 0.899504
0.777676 0.923827 0.903044
0.857053 0.922087 0.908171
0.931609 0.922271 0.915587
