20 Preset/Car Style/【3】LUT video cho PR-AE-FCPX/Tone  (23).cube
# Created by Adobe Lightroom plugin Export LUT (1.24.0)
# www.johnrellis.com/lightroom/exportlut.htm
# Preset: 24汽车质感（素材江湖）
# Color profile: E:\lut插件\exportlut.1.24\exportlut.lrplugin\color profiles\Rec709gamma2.4.icc
LUT_3D_SIZE 8
DOMAIN_MIN 0.000000 0.000000 0.000000
DOMAIN_MAX 0.903226 0.903226 0.903226
0.015930 0.088869 0.093751
0.057740 0.089998 0.094514
0.162051 0.087709 0.096315
0.318975 0.000000 0.094942
0.512902 0.000000 0.088045
0.728817 0.000000 0.048219
0.953552 0.000000 0.000000
1.000000 0.000000 0.000000
0.020600 0.100221 0.102083
0.031403 0.100557 0.101595
0.122683 0.110903 0.106416
0.277134 0.102205 0.102480
0.468299 0.000000 0.096834
0.686519 0.000000 0.076081
0.907897 0.000000 0.005188
1.000000 0.000000 0.000000
0.000000 0.156313 0.135653
0.000000 0.156008 0.135164
0.095064 0.154330 0.129427
0.221012 0.190951 0.152651
0.404273 0.222293 0.163302
0.667781 0.244114 0.148836
0.906859 0.264652 0.138582
1.000000 0.293248 0.145846
0.000000 0.283085 0.217685
0.000000 0.280735 0.215549
0.000000 0.283299 0.203769
0.195346 0.293767 0.209628
0.384833 0.377966 0.251743
0.590753 0.461921 0.340398
0.826139 0.512749 0.340703
0.982116 0.534142 0.338079
0.000000 0.475624 0.348882
0.000000 0.474342 0.347387
0.000000 0.476967 0.347967
0.000000 0.478401 0.308843
0.289342 0.463539 0.311589
0.483162 0.521965 0.347112
0.704189 0.622126 0.457404
0.860502 0.694911 0.589227
0.000000 0.663203 0.503441
0.000000 0.673854 0.514061
0.000000 0.674800 0.514366
0.000000 0.674189 0.497658
0.202152 0.663355 0.454078
0.427924 0.648524 0.456031
0.623224 0.686854 0.504875
0.820157 0.774990 0.636133
0.218906 0.808438 0.674403
0.241581 0.810025 0.677150
0.279728 0.808835 0.676326
0.347784 0.808621 0.679103
0.369421 0.802976 0.642420
0.474708 0.795285 0.623346
0.604761 0.785183 0.626764
0.738247 0.797787 0.661677
0.602960 0.889769 0.813138
0.605280 0.889647 0.813199
0.618372 0.889647 0.814786
0.645808 0.890105 0.819303
0.630335 0.882597 0.800534
0.650538 0.883970 0.785245
0.718593 0.881590 0.790372
0.779721 0.876677 0.794003
0.024262 0.091768 0.106874
0.053132 0.091341 0.108461
0.156252 0.080873 0.109712
0.302403 0.000000 0.108278
0.493416 0.000000 0.103944
0.697536 0.000000 0.094240
0.902342 0.000000 0.056001
1.000000 0.000000 0.001038
0.023651 0.102022 0.109346
0.049561 0.105165 0.112306
0.153597 0.105440 0.113436
0.293400 0.080781 0.113893
0.472633 0.000000 0.111788
0.681849 0.000000 0.102480
0.877836 0.000000 0.080049
1.000000 0.000000 0.025879
0.023133 0.160922 0.149294
0.042176 0.160952 0.148806
0.111849 0.160220 0.144381
0.227481 0.193820 0.170382
0.407843 0.215213 0.169711
0.640345 0.218723 0.158419
0.855863 0.209110 0.144533
1.000000 0.228611 0.141115
0.000000 0.273503 0.221805
0.000000 0.272770 0.220768
0.058259 0.276402 0.214878
0.193271 0.274937 0.210330
0.351324 0.338811 0.243259
0.532586 0.410895 0.317906
0.773434 0.458198 0.301854
0.954376 0.486549 0.300023
0.000000 0.466072 0.351568
0.000000 0.463050 0.348791
0.000000 0.461250 0.345892
0.000000 0.456001 0.306004
0.281498 0.436286 0.304051
0.461952 0.495613 0.337438
0.678035 0.596277 0.441077
0.847990 0.670222 0.557061
0.000000 0.645289 0.493385
0.000000 0.646265 0.493996
0.000000 0.648463 0.495277
0.000000 0.652216 0.486458
0.196811 0.644953 0.444709
0.421546 0.635920 0.451911
0.613336 0.675715 0.498238
0.809781 0.763394 0.623926
0.159487 0.794980 0.659236
0.160433 0.792966 0.656306
0.215640 0.791440 0.654871
0.306126 0.793088 0.659968
0.349432 0.791623 0.631250
0.456428 0.783993 0.610498
0.584405 0.770626 0.608362
0.720058 0.782925 0.640009
0.576898 0.884794 0.803586
0.585016 0.885527 0.805661
0.597772 0.885405 0.806912
0.627436 0.886076 0.811826
0.655299 0.886107 0.812100
0.661616 0.885039 0.791684
0.717525 0.880613 0.790097
0.778195 0.875425 0.792874
0.039673 0.097780 0.166476
0.079530 0.096834 0.168551
0.151980 0.091615 0.174289
0.280339 0.080232 0.181918
0.510735 0.000000 0.182834
0.725856 0.000000 0.169375
0.929992 0.000000 0.164065
1.000000 0.000000 0.152010
0.043763 0.114504 0.176028
0.085206 0.113954 0.176944
0.158511 0.109041 0.181186
0.290471 0.098512 0.186557
0.501427 0.000000 0.179934
0.715175 0.000000 0.166903
0.916228 0.000000 0.163149
1.000000 0.000000 0.148196
0.025391 0.168276 0.188876
0.086275 0.172702 0.192233
0.172702 0.189761 0.205173
0.322698 0.187350 0.205417
0.508263 0.170321 0.206180
0.722042 0.119692 0.205997
0.904479 0.000000 0.202487
1.000000 0.034974 0.201663
0.078126 0.302190 0.275090
0.126101 0.307927 0.282231
0.180728 0.315038 0.286564
0.251102 0.315343 0.278325
0.408179 0.383276 0.326207
0.617090 0.440742 0.357153
0.832212 0.462684 0.343450
0.984588 0.477821 0.342840
0.000000 0.487190 0.404181
0.000000 0.487098 0.403174
0.085939 0.489418 0.402289
0.189700 0.492897 0.385260
0.334783 0.476539 0.371527
0.518395 0.540337 0.407111
0.707790 0.620203 0.512657
0.875364 0.677913 0.575341
0.000000 0.655085 0.532952
0.000000 0.656825 0.534325
0.000000 0.658137 0.534295
0.187472 0.661921 0.538262
0.276188 0.654658 0.490730
0.455695 0.645380 0.495491
0.641505 0.690791 0.544335
0.820066 0.772000 0.664607
0.309331 0.802090 0.689479
0.310765 0.800565 0.687312
0.331029 0.797787 0.683742
0.383215 0.797421 0.684993
0.423774 0.795987 0.667353
0.498726 0.790585 0.644160
0.617456 0.781430 0.646601
0.748440 0.798917 0.681483
0.603449 0.885130 0.813169
0.603174 0.884611 0.812314
0.614374 0.884398 0.813107
0.647974 0.886198 0.819944
0.679164 0.886259 0.823911
0.688563 0.886229 0.807645
0.735592 0.882933 0.804746
0.790158 0.878050 0.806546
0.038483 0.105257 0.288304
0.095827 0.104463 0.292424
0.177951 0.097108 0.294072
0.289097 0.043061 0.301793
0.437446 0.000000 0.308537
0.694057 0.000000 0.339239
0.918395 0.000000 0.319066
1.000000 0.000000 0.289036
0.080781 0.128786 0.305974
0.111360 0.127840 0.306584
0.188235 0.120058 0.305943
0.299443 0.095125 0.312444
0.447974 0.088380 0.318242
0.703792 0.000000 0.342687
0.916686 0.000000 0.317632
1.000000 0.000000 0.286015
0.056641 0.193606 0.325689
0.107454 0.195651 0.328252
0.204898 0.202884 0.331029
0.314031 0.186984 0.331945
0.487190 0.219699 0.355505
0.752163 0.000000 0.354314
0.937987 0.000000 0.327367
1.000000 0.000000 0.298985
0.000000 0.307744 0.347417
0.084230 0.311284 0.349828
0.199863 0.329747 0.362982
0.334508 0.367254 0.389014
0.533379 0.367529 0.385199
0.727718 0.364721 0.381689
0.897581 0.365606 0.379675
1.000000 0.378180 0.378393
0.000000 0.510887 0.465461
0.000000 0.511986 0.467842
0.227695 0.524498 0.485634
0.343877 0.543481 0.505547
0.425391 0.535058 0.486854
0.597345 0.596765 0.537835
0.767971 0.652308 0.600427
0.920439 0.671321 0.594415
0.268620 0.686091 0.616907
0.292851 0.693904 0.625116
0.323552 0.692988 0.621790
0.384466 0.696956 0.624689
0.430823 0.696040 0.604181
0.534722 0.679194 0.589136
0.701167 0.726497 0.632685
0.838682 0.788022 0.730251
0.434943 0.809110 0.731228
0.442298 0.809873 0.732357
0.464088 0.810758 0.733455
0.503990 0.812558 0.736782
0.551690 0.813596 0.739284
0.577783 0.807279 0.706935
0.665370 0.795346 0.701595
0.783688 0.816373 0.733272
0.659571 0.888640 0.834653
0.661311 0.888487 0.834592
0.669917 0.888243 0.834897
0.689479 0.888334 0.837064
0.715816 0.888212 0.840330
0.729366 0.888029 0.831815
0.761257 0.885893 0.825589
0.809781 0.882383 0.828153
0.081117 0.121004 0.466224
0.123720 0.119966 0.469612
0.213199 0.111025 0.467231
0.320714 0.062654 0.463874
0.455055 0.000000 0.473274
0.620356 0.000000 0.483742
0.842313 0.000000 0.524376
1.000000 0.000000 0.512139
0.113680 0.148898 0.480812
0.144747 0.147768 0.484077
0.225895 0.138735 0.480720
0.327764 0.109682 0.471626
0.463203 0.000000 0.481697
0.628199 0.000000 0.491218
0.846921 0.036530 0.527794
1.000000 0.000000 0.511589
0.146822 0.237797 0.509880
0.171115 0.236149 0.509514
0.243137 0.226993 0.503319
0.345739 0.207401 0.497322
0.477852 0.178042 0.499397
0.637507 0.211795 0.503990
0.855222 0.194919 0.530846
1.000000 0.000000 0.499977
0.000000 0.346715 0.532647
0.107393 0.350591 0.534844
0.226841 0.366064 0.546288
0.365911 0.377173 0.548913
0.504997 0.353185 0.543359
0.676478 0.406317 0.556420
0.889006 0.324163 0.541588
1.000000 0.163912 0.489937
0.000000 0.485054 0.537072
0.000000 0.489296 0.540246
0.189548 0.503624 0.549767
0.349676 0.531090 0.568261
0.509453 0.567315 0.592187
0.697810 0.560327 0.581262
0.860563 0.556207 0.572351
0.983429 0.557824 0.563958
0.000000 0.654444 0.611658
0.000000 0.656580 0.614588
0.215030 0.660121 0.621637
0.402930 0.673121 0.644343
0.520287 0.689052 0.666529
0.595300 0.691615 0.662074
0.745754 0.746273 0.714015
0.858213 0.792355 0.775113
0.440803 0.804379 0.751278
0.450538 0.803525 0.751217
0.498482 0.803647 0.755886
0.561761 0.808499 0.765255
0.610956 0.812955 0.770932
0.638056 0.812100 0.756405
0.700649 0.798917 0.743954
0.810361 0.824887 0.770932
0.669734 0.883818 0.842161
0.671046 0.883635 0.841886
0.678767 0.883299 0.841581
0.708034 0.885771 0.846860
0.735225 0.886534 0.850065
0.762814 0.887205 0.852628
0.777371 0.885466 0.840421
0.818631 0.880827 0.839322
0.191684 0.154269 0.678614
0.216281 0.152712 0.679561
0.287144 0.141421 0.672847
0.387518 0.107820 0.664454
0.510521 0.000000 0.660670
0.656764 0.000000 0.668055
0.797665 0.000000 0.661097
0.969329 0.241825 0.692927
0.196475 0.179385 0.669429
0.217288 0.177218 0.668391
0.285008 0.166964 0.663630
0.383795 0.141176 0.658106
0.500511 0.007355 0.650080
0.645686 0.000000 0.658228
0.788296 0.000000 0.653742
0.962371 0.257694 0.687343
0.232944 0.277958 0.697810
0.250736 0.276005 0.696742
0.314427 0.268193 0.694148
0.403693 0.244846 0.680476
0.515923 0.204379 0.668025
0.659358 0.156405 0.672633
0.803098 0.235416 0.670924
0.960357 0.374060 0.701442
0.207004 0.410498 0.728084
0.239200 0.413855 0.726284
0.341833 0.433783 0.726009
0.438636 0.422278 0.725399
0.552605 0.390417 0.714931
0.692317 0.364416 0.711177
0.829038 0.439673 0.710994
0.960449 0.521721 0.732998
0.162539 0.532158 0.716640
0.195987 0.534691 0.717372
0.295689 0.546868 0.722408
0.426886 0.573541 0.733944
0.550958 0.576318 0.729946
0.678492 0.543999 0.720485
0.819425 0.603204 0.730983
0.973327 0.557671 0.715511
0.069062 0.649714 0.704219
0.156893 0.654963 0.708522
0.274784 0.661830 0.712337
0.406256 0.675685 0.720516
0.542443 0.695857 0.732876
0.688136 0.730282 0.757900
0.835508 0.728389 0.753841
0.940337 0.725978 0.746151
0.295995 0.803891 0.771908
0.325078 0.805814 0.774746
0.401862 0.807797 0.779232
0.515801 0.811948 0.788998
0.645411 0.819181 0.806363
0.732265 0.827298 0.821408
0.763943 0.818997 0.807919
0.853056 0.848203 0.835599
0.627649 0.884459 0.848936
0.631434 0.883909 0.848722
0.656641 0.883421 0.850767
0.709377 0.884459 0.857694
0.761349 0.885740 0.864927
0.791928 0.887541 0.868681
0.808804 0.888396 0.864286
0.838773 0.883268 0.860136
0.339330 0.218112 0.822538
0.354070 0.217655 0.823606
0.400214 0.209018 0.821195
0.479164 0.187625 0.817868
0.576287 0.130556 0.809964
0.684810 0.000000 0.797696
0.818235 0.000000 0.801633
0.913970 0.000000 0.780789
0.336919 0.238071 0.817472
0.351446 0.238010 0.818906
0.396735 0.229221 0.816678
0.472084 0.207889 0.811826
0.567956 0.158907 0.803342
0.674128 0.000000 0.789700
0.805875 0.000000 0.792416
0.902922 0.076509 0.771450
0.360906 0.328649 0.826871
0.371801 0.326787 0.826413
0.411810 0.317510 0.823148
0.482551 0.298772 0.817899
0.574060 0.262669 0.808591
0.680446 0.194308 0.796170
0.815274 0.141573 0.801419
0.915404 0.271092 0.786648
0.397253 0.475868 0.838834
0.403540 0.471717 0.837125
0.436774 0.461494 0.833768
0.502007 0.445228 0.829862
0.588098 0.414282 0.822049
0.693782 0.366827 0.812039
0.825284 0.348394 0.814969
0.920531 0.439582 0.803098
0.364843 0.581445 0.839750
0.372442 0.579644 0.838590
0.413916 0.579522 0.837522
0.517205 0.600244 0.835752
0.596185 0.581109 0.829923
0.689631 0.538354 0.820096
0.814755 0.515038 0.818814
0.914153 0.600122 0.818875
0.371008 0.684047 0.831205
0.384710 0.685786 0.831815
0.434852 0.692195 0.833799
0.518059 0.704677 0.837827
0.620569 0.724056 0.843778
0.713649 0.724361 0.841917
0.812284 0.697353 0.836606
0.902434 0.751766 0.842618
0.383886 0.781399 0.826810
0.398505 0.782956 0.827848
0.444648 0.786099 0.829313
0.523583 0.792966 0.832853
0.619776 0.802518 0.837736
0.723140 0.816526 0.845426
0.818479 0.836271 0.857542
0.902464 0.831601 0.851987
0.505669 0.883909 0.858305
0.516533 0.884001 0.858854
0.561944 0.884916 0.861753
0.630365 0.885313 0.865660
0.713466 0.885893 0.871702
0.797848 0.888304 0.881407
0.850736 0.892851 0.890562
0.866484 0.889677 0.885283
0.520928 0.351354 0.913207
0.528771 0.351354 0.913359
0.553521 0.342473 0.911833
0.604761 0.329259 0.910582
0.675380 0.301610 0.908080
0.760037 0.249149 0.903960
0.855558 0.132296 0.898985
0.958953 0.101839 0.900237
0.517418 0.363775 0.911040
0.525475 0.363622 0.911254
0.551232 0.356268 0.910216
0.601190 0.341894 0.908721
0.671351 0.314214 0.906218
0.755856 0.263493 0.902098
0.850401 0.154910 0.896391
0.954070 0.122896 0.897368
0.525750 0.430121 0.909514
0.531945 0.429084 0.909453
0.555383 0.420356 0.908263
0.606561 0.410681 0.908141
0.671839 0.382788 0.905333
0.752651 0.335851 0.900877
0.846891 0.258518 0.895598
0.950378 0.245182 0.896605
0.544182 0.539300 0.907256
0.550378 0.538598 0.907317
0.570886 0.531029 0.906615
0.613367 0.518547 0.905852
0.674006 0.494514 0.904051
0.751156 0.454322 0.900877
0.843412 0.393225 0.896635
0.945495 0.384436 0.897429
0.549523 0.641230 0.904906
0.559014 0.643854 0.904936
0.589136 0.648859 0.903868
0.627863 0.642298 0.902922
0.676051 0.619745 0.901244
0.743435 0.584192 0.898650
0.830991 0.532433 0.895323
0.932525 0.522545 0.896422
0.559472 0.728084 0.901366
0.563439 0.727932 0.901152
0.585107 0.729854 0.900755
0.620294 0.729549 0.900816
0.688289 0.738369 0.899809
0.751736 0.727230 0.898924
0.824369 0.694606 0.897551
0.915099 0.680232 0.898070
0.578363 0.801968 0.897398
0.583307 0.802274 0.897368
0.604944 0.803922 0.897368
0.648981 0.808896 0.898009
0.709834 0.817472 0.899199
0.780117 0.831357 0.901488
0.834104 0.831388 0.900969
0.893584 0.810147 0.898528
0.613214 0.868284 0.895140
0.617334 0.868345 0.895079
0.637049 0.869200 0.895323
0.676570 0.871641 0.896239
0.728908 0.875181 0.897520
0.787442 0.880308 0.899351
0.845548 0.887877 0.902495
0.894102 0.898650 0.908141
