20 Preset/Car Style/【3】LUT video cho PR-AE-FCPX/Tone  (26).cube
# Created by Adobe Lightroom plugin Export LUT (1.24.0)
# www.johnrellis.com/lightroom/exportlut.htm
# Preset: 01汽车质感（素材江湖）
# Color profile: E:\lut插件\exportlut.1.24\exportlut.lrplugin\color profiles\Rec709gamma2.4.icc
LUT_3D_SIZE 5
DOMAIN_MIN 0.000000 0.000000 0.000000
DOMAIN_MAX 0.903226 0.903226 0.903226
0.056733 0.098756 0.106233
0.175418 0.107424 0.119051
0.444221 0.012085 0.137118
0.801633 0.000000 0.149264
1.000000 0.099733 0.213352
0.119081 0.153597 0.159762
0.131319 0.164828 0.152285
0.424994 0.191073 0.142763
0.790219 0.177432 0.149813
1.000000 0.290959 0.226200
0.177646 0.315648 0.290837
0.186740 0.307286 0.280156
0.259464 0.420050 0.263340
0.729641 0.540398 0.203861
0.998138 0.534661 0.257389
0.312047 0.554742 0.488869
0.317876 0.551232 0.483497
0.313848 0.582483 0.470771
0.481331 0.692287 0.462074
0.907866 0.817502 0.472938
0.592065 0.793484 0.716030
0.594110 0.792630 0.713863
0.581323 0.776272 0.690852
0.609827 0.833951 0.691127
0.775265 0.886961 0.708553
0.093355 0.113558 0.179232
0.161593 0.121920 0.175937
0.415137 0.057710 0.202426
0.783932 0.000000 0.240909
1.000000 0.137240 0.300664
0.134524 0.164645 0.187320
0.179843 0.179721 0.196841
0.439734 0.182376 0.212497
0.771023 0.180545 0.244724
1.000000 0.285344 0.306157
0.239811 0.345190 0.334722
0.245823 0.339208 0.324956
0.303655 0.412970 0.308110
0.716579 0.502770 0.276890
0.990448 0.535698 0.335241
0.359533 0.573205 0.515648
0.364569 0.570581 0.510948
0.369055 0.585412 0.496681
0.512932 0.693935 0.493782
0.908965 0.811734 0.503807
0.609949 0.797421 0.725307
0.610590 0.795926 0.722438
0.619318 0.792935 0.714565
0.641321 0.839200 0.711025
0.793301 0.892058 0.729061
0.076967 0.129030 0.411200
0.204837 0.126467 0.401160
0.391669 0.109102 0.378271
0.681331 0.188876 0.426032
1.000000 0.251408 0.498146
0.000000 0.194095 0.445350
0.206394 0.191928 0.432380
0.415564 0.192935 0.401831
0.703395 0.273686 0.449287
1.000000 0.339940 0.513451
0.248508 0.390448 0.444587
0.301579 0.406165 0.450721
0.464942 0.468208 0.476661
0.750637 0.501091 0.501488
0.986053 0.558373 0.541527
0.487953 0.634394 0.605402
0.507134 0.634363 0.604669
0.523827 0.625330 0.587640
0.615717 0.706935 0.595483
0.920134 0.784604 0.591211
0.668086 0.811154 0.758358
0.669978 0.810727 0.756649
0.674495 0.807065 0.747311
0.689479 0.828733 0.739895
0.814664 0.889555 0.757809
0.150607 0.142123 0.683070
0.264866 0.139254 0.676753
0.474372 0.131380 0.647211
0.672114 0.152712 0.618372
0.904601 0.344060 0.649409
0.182376 0.228092 0.691829
0.281773 0.227543 0.684535
0.483284 0.226261 0.653742
0.673121 0.242924 0.620996
0.902190 0.400977 0.654719
0.000000 0.460334 0.716213
0.218601 0.456916 0.710567
0.495064 0.460273 0.686458
0.687129 0.456153 0.644556
0.910918 0.582391 0.693812
0.467475 0.651606 0.690333
0.492927 0.655970 0.690608
0.591333 0.681025 0.699428
0.740871 0.728359 0.718868
0.947936 0.757809 0.741634
0.721798 0.840940 0.814054
0.731258 0.841825 0.814420
0.770382 0.846708 0.817288
0.788235 0.840024 0.802518
0.863706 0.895079 0.816281
0.433265 0.263218 0.885985
0.476661 0.264286 0.882811
0.616938 0.272160 0.871489
0.781918 0.287388 0.845457
0.929961 0.330755 0.826200
0.432044 0.323339 0.883818
0.475013 0.324132 0.881071
0.612787 0.327459 0.869657
0.776730 0.334142 0.843534
0.925078 0.368933 0.824094
0.403052 0.502403 0.887480
0.449378 0.499702 0.884276
0.596735 0.494057 0.872740
0.767056 0.482948 0.846952
0.918944 0.501366 0.827634
0.395972 0.712795 0.885771
0.421546 0.713313 0.885588
0.532830 0.716701 0.886625
0.758206 0.699672 0.870634
0.918364 0.698726 0.847471
0.696132 0.844999 0.867979
0.707301 0.846616 0.868193
0.757168 0.856474 0.871458
0.837003 0.875029 0.877256
0.930327 0.907103 0.889799
