20 Preset/Car Style/【3】LUT video cho PR-AE-FCPX/Tone  (22).cube
# Created by Adobe Lightroom plugin Export LUT (1.24.0)
# www.johnrellis.com/lightroom/exportlut.htm
# Preset: 23汽车质感（素材江湖）
# Color profile: E:\lut插件\exportlut.1.24\exportlut.lrplugin\color profiles\Rec709gamma2.4.icc
LUT_3D_SIZE 5
DOMAIN_MIN 0.000000 0.000000 0.000000
DOMAIN_MAX 0.903226 0.903226 0.903226
0.000000 0.080049 0.089204
0.125277 0.086183 0.097292
0.365240 0.000000 0.113619
0.686458 0.000000 0.151644
1.000000 0.000000 0.221286
0.055909 0.140414 0.139834
0.119112 0.165988 0.136416
0.320348 0.183413 0.179660
0.672084 0.180484 0.213718
1.000000 0.228855 0.279179
0.241032 0.345556 0.315557
0.259831 0.351202 0.322484
0.404761 0.486336 0.329107
0.682002 0.527398 0.411963
0.911131 0.579431 0.505730
0.464240 0.641169 0.571221
0.483558 0.650568 0.581353
0.548486 0.700771 0.609888
0.731930 0.788602 0.623651
0.923827 0.832853 0.720668
0.786526 0.862974 0.829007
0.793881 0.865507 0.832517
0.806302 0.864134 0.834806
0.850126 0.897765 0.851072
0.916747 0.925750 0.865507
0.000000 0.092134 0.131716
0.077058 0.109682 0.134188
0.335363 0.084016 0.189548
0.652308 0.000000 0.203861
0.977325 0.000000 0.250065
0.052888 0.149020 0.169009
0.146365 0.172274 0.190951
0.363622 0.174319 0.208835
0.665095 0.140719 0.240757
0.974243 0.114504 0.286076
0.259251 0.342351 0.330694
0.275151 0.352026 0.337530
0.383429 0.444617 0.347204
0.624445 0.488716 0.425605
0.913237 0.563775 0.504540
0.478065 0.639185 0.582300
0.498482 0.650019 0.593591
0.565148 0.695430 0.627924
0.731167 0.783017 0.641779
0.917174 0.827298 0.732876
0.786740 0.861479 0.829862
0.793332 0.863615 0.832761
0.825193 0.874571 0.848966
0.861295 0.901946 0.861814
0.922393 0.929229 0.875486
0.000000 0.115023 0.256199
0.097627 0.132021 0.261936
0.246433 0.209232 0.284184
0.487831 0.322454 0.424140
0.944427 0.000000 0.479103
0.000000 0.170535 0.307469
0.147860 0.185916 0.308659
0.286687 0.259892 0.323857
0.554742 0.334081 0.451392
0.971832 0.029755 0.469245
0.205875 0.338445 0.374121
0.250492 0.358373 0.391577
0.430610 0.454871 0.475868
0.711727 0.459480 0.487282
0.967010 0.488289 0.521324
0.485512 0.623041 0.601953
0.514244 0.633661 0.614984
0.598444 0.680842 0.662684
0.739376 0.772549 0.704646
0.893492 0.805936 0.768521
0.772793 0.849058 0.824979
0.783139 0.853269 0.829953
0.817716 0.867521 0.846708
0.861570 0.893889 0.867369
0.921019 0.925353 0.880400
0.000000 0.155093 0.418067
0.077852 0.168551 0.424384
0.285283 0.232242 0.444404
0.448066 0.358892 0.491951
0.726345 0.519707 0.665614
0.000000 0.195315 0.450507
0.127840 0.207340 0.454658
0.308049 0.266880 0.470588
0.467079 0.391333 0.511437
0.735653 0.548699 0.678248
0.000000 0.309270 0.523278
0.000000 0.323339 0.534569
0.362890 0.394049 0.570306
0.559411 0.527886 0.604517
0.799405 0.671656 0.750057
0.305577 0.566461 0.608484
0.342718 0.577050 0.617365
0.494270 0.633722 0.667201
0.745785 0.750179 0.772549
0.933501 0.749111 0.773373
0.687709 0.815061 0.801114
0.707881 0.821378 0.808469
0.787594 0.849363 0.840787
0.869657 0.886442 0.878813
0.926665 0.924620 0.898100
0.000000 0.218540 0.689265
0.000000 0.228580 0.690730
0.330205 0.279301 0.701045
0.546868 0.412055 0.713741
0.715358 0.581964 0.748745
0.000000 0.240757 0.695399
0.000000 0.250858 0.697414
0.332708 0.300145 0.706996
0.552850 0.430213 0.719417
0.721492 0.598230 0.754086
0.000000 0.313085 0.732326
0.000000 0.322728 0.732876
0.317601 0.373663 0.741054
0.582269 0.502495 0.752621
0.761135 0.670069 0.787472
0.000000 0.494514 0.766690
0.000000 0.493599 0.769009
0.000000 0.499855 0.786923
0.609400 0.625360 0.819333
0.842252 0.795163 0.852049
0.428870 0.773709 0.816037
0.456123 0.777493 0.818692
0.569238 0.798703 0.834287
0.752712 0.841154 0.864775
0.930571 0.917388 0.919768
