20 Preset/Car Style/【3】LUT video cho PR-AE-FCPX/Tone  (25).cube
# Created by Adobe Lightroom plugin Export LUT (1.24.0)
# www.johnrellis.com/lightroom/exportlut.htm
# Preset: 26汽车质感（素材江湖）
# Color profile: E:\lut插件\exportlut.1.24\exportlut.lrplugin\color profiles\Rec709gamma2.4.icc
LUT_3D_SIZE 5
DOMAIN_MIN 0.000000 0.000000 0.000000
DOMAIN_MAX 0.903226 0.903226 0.903226
0.030365 0.114595 0.095705
0.115999 0.120760 0.101534
0.288334 0.121675 0.110597
0.634424 0.000000 0.121248
0.967926 0.109010 0.176211
0.000000 0.170138 0.110079
0.109499 0.175875 0.114412
0.306493 0.185519 0.126925
0.669001 0.199924 0.134096
0.968841 0.294743 0.210697
0.000000 0.448249 0.044953
0.000000 0.449409 0.000000
0.318730 0.518212 0.126375
0.715206 0.548577 0.257511
0.920714 0.566033 0.364477
0.000000 0.783536 0.172641
0.000000 0.786648 0.000000
0.000000 0.792447 0.000000
0.626276 0.781430 0.435279
0.858579 0.790890 0.630274
0.000000 0.887510 0.550561
0.000000 0.888518 0.538506
0.000000 0.889250 0.432868
0.616236 0.874662 0.625971
0.827726 0.867765 0.754696
0.029633 0.118349 0.119387
0.102235 0.125154 0.127321
0.275456 0.123293 0.149538
0.603876 0.000000 0.168154
0.934752 0.000000 0.217472
0.089174 0.159121 0.143252
0.135744 0.167727 0.150942
0.308019 0.177157 0.163119
0.628717 0.169711 0.185489
0.935271 0.238224 0.241032
0.000000 0.411353 0.198093
0.000000 0.419501 0.144991
0.313756 0.456611 0.197360
0.670893 0.496193 0.290776
0.914733 0.555962 0.393835
0.000000 0.774746 0.295262
0.000000 0.779049 0.247532
0.000000 0.787076 0.143282
0.635126 0.774807 0.470893
0.855650 0.785733 0.643336
0.000000 0.882994 0.587884
0.000000 0.883940 0.575341
0.000000 0.888975 0.524773
0.643305 0.875792 0.656275
0.835721 0.870756 0.768582
0.000000 0.129397 0.195041
0.084962 0.132784 0.207828
0.246647 0.137118 0.255009
0.550347 0.123842 0.349920
0.927367 0.000000 0.410315
0.004150 0.166629 0.240909
0.101381 0.164920 0.249424
0.286900 0.174289 0.289799
0.601129 0.184787 0.375860
0.934508 0.163577 0.423407
0.110933 0.357702 0.361425
0.193179 0.368841 0.370855
0.413611 0.419379 0.412238
0.702876 0.458839 0.445655
0.908232 0.535393 0.517296
0.000000 0.742977 0.574273
0.000000 0.739193 0.560845
0.000000 0.757717 0.455726
0.675929 0.755917 0.593683
0.847868 0.766812 0.688136
0.458137 0.864164 0.693416
0.458442 0.865721 0.687312
0.447211 0.871580 0.654108
0.630732 0.869688 0.673487
0.835599 0.864317 0.777401
0.000000 0.142580 0.367987
0.000000 0.144106 0.382452
0.210788 0.142458 0.434119
0.501823 0.093233 0.524712
0.842924 0.191775 0.634760
0.000000 0.168643 0.413275
0.000000 0.170291 0.422950
0.229038 0.173159 0.463905
0.521538 0.161746 0.540795
0.843290 0.281987 0.639338
0.000000 0.333257 0.508751
0.000000 0.335241 0.518425
0.281956 0.338048 0.560479
0.602991 0.384131 0.611292
0.846769 0.541497 0.683986
0.325322 0.663203 0.678126
0.371557 0.664973 0.678798
0.533837 0.683375 0.693538
0.724544 0.717678 0.722713
0.857145 0.739742 0.742885
0.644068 0.845121 0.793545
0.651850 0.846098 0.793423
0.691249 0.848661 0.792844
0.696956 0.857908 0.760800
0.846098 0.858885 0.805234
0.000000 0.156985 0.650385
0.000000 0.155886 0.655665
0.000000 0.146670 0.682643
0.455482 0.099123 0.722469
0.759823 0.098512 0.768368
0.000000 0.177218 0.661433
0.000000 0.176883 0.666651
0.000000 0.172549 0.689662
0.459052 0.151705 0.725368
0.762936 0.186770 0.769192
0.000000 0.301061 0.707668
0.000000 0.288731 0.709895
0.000000 0.280613 0.724300
0.480262 0.302861 0.747341
0.785794 0.394873 0.783536
0.000000 0.574151 0.759243
0.000000 0.571252 0.758236
0.121401 0.567620 0.761196
0.550744 0.583581 0.783810
0.817075 0.681422 0.808469
0.659541 0.806821 0.818662
0.669123 0.807370 0.818997
0.713222 0.812253 0.822843
0.779873 0.821378 0.829862
0.860868 0.840726 0.845243
