20 Preset/Car Style/【3】LUT video cho PR-AE-FCPX/Tone  (4).cube
# Created by Adobe Lightroom plugin Export LUT (1.24.0)
# www.johnrellis.com/lightroom/exportlut.htm
# Preset: 05汽车质感（素材江湖）
# Color profile: E:\lut插件\exportlut.1.24\exportlut.lrplugin\color profiles\Rec709gamma2.4.icc
LUT_3D_SIZE 32
DOMAIN_MIN 0.0 0.0 0.0
DOMAIN_MAX 1.0 1.0 1.0
0.121065 0.116884 0.133120
0.121065 0.116884 0.133120
0.122042 0.116762 0.133120
0.127871 0.116304 0.133547
0.139376 0.115602 0.133913
0.152071 0.115694 0.134096
0.166995 0.115724 0.134707
0.183291 0.115999 0.135195
0.203616 0.115755 0.135531
0.227726 0.115175 0.136141
0.256352 0.114107 0.136904
0.288884 0.112306 0.137331
0.324041 0.109743 0.137850
0.360327 0.106264 0.137758
0.396887 0.101900 0.137575
0.432898 0.096956 0.138033
0.468879 0.091249 0.138094
0.504173 0.083253 0.138064
0.538842 0.070893 0.138399
0.573144 0.054292 0.138857
0.606439 0.039704 0.139467
0.641352 0.025452 0.141024
0.676020 0.014527 0.142519
0.709468 0.005524 0.144656
0.740932 0.000000 0.147921
0.770962 0.000000 0.151949
0.800259 0.002411 0.157107
0.829068 0.013184 0.163180
0.857542 0.032288 0.170901
0.885924 0.065126 0.179324
0.914549 0.092866 0.190249
0.943542 0.111299 0.202609
0.121065 0.116884 0.133120
0.121065 0.116884 0.133120
0.122438 0.116701 0.133364
0.128359 0.116243 0.133547
0.139498 0.116182 0.133822
0.152132 0.116274 0.134279
0.166751 0.116365 0.134646
0.183078 0.116640 0.135134
0.203189 0.116457 0.135714
0.226749 0.116060 0.136080
0.255161 0.115114 0.137087
0.287572 0.113466 0.137514
0.322423 0.110567 0.137636
0.358618 0.107973 0.137728
0.395209 0.103487 0.137819
0.431128 0.098573 0.138064
0.466987 0.093355 0.138125
0.502342 0.087770 0.138064
0.537072 0.078248 0.138399
0.571252 0.060670 0.138949
0.604456 0.046998 0.139559
0.638972 0.034211 0.140719
0.673060 0.021515 0.142397
0.706020 0.009339 0.144961
0.737270 0.003113 0.147646
0.767208 0.004089 0.151461
0.796506 0.007233 0.156130
0.825406 0.017487 0.162295
0.854002 0.038239 0.169162
0.882597 0.065095 0.177951
0.911345 0.092470 0.188876
0.940490 0.110323 0.200961
0.120333 0.118685 0.133425
0.120638 0.118929 0.133394
0.122286 0.119020 0.133852
0.129610 0.119265 0.133669
0.140475 0.119509 0.133913
0.152987 0.119600 0.134371
0.166873 0.119814 0.134737
0.183566 0.119692 0.135256
0.203525 0.119814 0.135805
0.227115 0.119692 0.136599
0.255253 0.119173 0.137362
0.287633 0.117891 0.137514
0.322271 0.115541 0.137819
0.358099 0.113039 0.137972
0.394354 0.109438 0.138033
0.430518 0.105776 0.137942
0.466163 0.101350 0.138033
0.501488 0.096925 0.138186
0.536187 0.090425 0.138613
0.570214 0.085145 0.138735
0.603479 0.074708 0.139620
0.638056 0.058534 0.141115
0.671809 0.046662 0.142611
0.704494 0.038666 0.144656
0.735561 0.032807 0.147829
0.765255 0.032654 0.151125
0.794522 0.036469 0.155795
0.823514 0.042359 0.162112
0.852201 0.064302 0.168765
0.880827 0.086976 0.177584
0.909575 0.101320 0.187808
0.938720 0.116976 0.200168
0.119722 0.125887 0.134035
0.121157 0.125734 0.134279
0.123751 0.125704 0.134737
0.129000 0.126436 0.134554
0.141207 0.128084 0.134096
0.154177 0.126253 0.134768
0.168307 0.126101 0.135409
0.185000 0.126223 0.135866
0.204868 0.126558 0.136629
0.228824 0.126589 0.137148
0.257023 0.126253 0.137636
0.289097 0.125887 0.137911
0.323278 0.124697 0.137911
0.358770 0.123354 0.137972
0.394781 0.120546 0.138003
0.430213 0.118166 0.138125
0.465644 0.114900 0.137942
0.500450 0.111727 0.138094
0.534936 0.107790 0.138460
0.568719 0.103120 0.139010
0.601770 0.098878 0.139895
0.636133 0.094606 0.141085
0.669184 0.091371 0.142428
0.701686 0.088716 0.144533
0.732906 0.084993 0.147524
0.763302 0.084169 0.151583
0.792935 0.088106 0.156100
0.822354 0.090730 0.162295
0.851316 0.097169 0.169345
0.880034 0.106386 0.178256
0.908690 0.117708 0.188449
0.937530 0.130587 0.200687
0.121584 0.135683 0.135897
0.122408 0.135592 0.136355
0.125612 0.135256 0.136812
0.130617 0.135897 0.137118
0.138277 0.136934 0.137301
0.154177 0.140352 0.136507
0.169833 0.138399 0.136629
0.186740 0.135622 0.137240
0.207034 0.136049 0.137697
0.230869 0.136721 0.138125
0.259068 0.137301 0.138247
0.290715 0.137728 0.138216
0.324590 0.137636 0.138308
0.359899 0.136934 0.138277
0.395331 0.135958 0.138186
0.430793 0.134615 0.137972
0.466041 0.132723 0.138155
0.500786 0.130678 0.138033
0.535088 0.127932 0.138338
0.568780 0.125460 0.138766
0.602136 0.122713 0.139803
0.636255 0.119905 0.140993
0.668757 0.118013 0.142397
0.701076 0.116121 0.144961
0.732296 0.114931 0.148104
0.762570 0.114504 0.151949
0.792233 0.116579 0.156649
0.821530 0.118624 0.162997
0.850370 0.124239 0.170138
0.879026 0.130892 0.179019
0.907561 0.139559 0.189303
0.936248 0.150088 0.201358
0.123445 0.147280 0.139162
0.124178 0.147433 0.139376
0.127321 0.147127 0.139803
0.132418 0.147280 0.140627
0.139651 0.148653 0.140749
0.150637 0.150362 0.140932
0.169558 0.156161 0.140078
0.190768 0.155398 0.138674
0.211337 0.152224 0.138979
0.235264 0.150454 0.139040
0.263828 0.151736 0.138979
0.295171 0.153201 0.138979
0.328618 0.154482 0.138613
0.363317 0.154910 0.138430
0.398444 0.155032 0.138186
0.433387 0.154604 0.137881
0.468391 0.153414 0.138003
0.502892 0.152377 0.138003
0.537072 0.150759 0.138460
0.570489 0.149264 0.139071
0.604639 0.147677 0.140078
0.638209 0.146700 0.141176
0.688197 0.148562 0.144411
0.720699 0.148043 0.147860
0.751339 0.148501 0.151492
0.781033 0.149355 0.156374
0.809903 0.151369 0.162661
0.838102 0.154269 0.169986
0.865904 0.158846 0.178347
0.893492 0.165286 0.188266
0.921080 0.172702 0.199252
0.948760 0.182071 0.211612
0.124666 0.164004 0.142245
0.125521 0.163912 0.142458
0.128634 0.163668 0.142885
0.134768 0.163302 0.143954
0.142397 0.164645 0.144259
0.153323 0.166812 0.144350
0.167727 0.170199 0.144778
0.190921 0.178225 0.144289
0.222538 0.182010 0.140047
0.248020 0.178653 0.139681
0.274907 0.174563 0.139651
0.305821 0.174197 0.139193
0.339117 0.175875 0.138613
0.373297 0.176974 0.138491
0.407599 0.177920 0.138003
0.441810 0.178134 0.137819
0.476143 0.177737 0.137819
0.510155 0.177584 0.137881
0.543603 0.177005 0.138460
0.577935 0.176791 0.138918
0.614008 0.176547 0.140047
0.648768 0.175967 0.141939
0.682734 0.176455 0.144411
0.715908 0.176791 0.147890
0.747616 0.177432 0.152132
0.777798 0.178470 0.157259
0.806821 0.180056 0.163699
0.834989 0.182650 0.171115
0.862730 0.186160 0.179629
0.890135 0.190951 0.189090
0.917632 0.197024 0.200198
0.945342 0.204562 0.212558
0.124971 0.183597 0.145418
0.125429 0.183566 0.145388
0.129519 0.183261 0.145602
0.135592 0.182956 0.146639
0.144503 0.183505 0.147890
0.155459 0.186282 0.148013
0.170840 0.189975 0.148013
0.189731 0.194766 0.148074
0.217563 0.204837 0.147280
0.258488 0.215244 0.140139
0.287022 0.211368 0.139467
0.315618 0.206241 0.139040
0.344610 0.199527 0.138705
0.377600 0.200595 0.138094
0.411170 0.201755 0.137789
0.444709 0.202701 0.137453
0.478462 0.202884 0.137362
0.511681 0.203555 0.137331
0.545373 0.203403 0.138460
0.580774 0.204288 0.138705
0.615198 0.204532 0.140200
0.648707 0.204868 0.142336
0.682033 0.205112 0.145144
0.714504 0.205844 0.148623
0.745815 0.206699 0.153262
0.775662 0.207553 0.159213
0.804593 0.209262 0.165133
0.832731 0.211215 0.172854
0.860380 0.214359 0.181552
0.887816 0.218357 0.191501
0.915282 0.223514 0.202304
0.942962 0.229984 0.214328
0.123323 0.208621 0.148074
0.124056 0.208713 0.148257
0.127810 0.208774 0.148592
0.135470 0.208286 0.149416
0.146334 0.207828 0.151003
0.158694 0.210422 0.151431
0.174380 0.214389 0.151461
0.193851 0.219913 0.151583
0.217929 0.226261 0.151431
0.249149 0.237125 0.150912
0.296880 0.253178 0.141848
0.329290 0.249668 0.138216
0.358526 0.243107 0.137697
0.387182 0.235264 0.137057
0.416297 0.227726 0.137087
0.449165 0.229129 0.136599
0.482155 0.229862 0.136843
0.515526 0.230594 0.137179
0.550195 0.231693 0.138033
0.584100 0.232395 0.138949
0.617334 0.233249 0.140627
0.649897 0.233768 0.143008
0.682429 0.234562 0.145785
0.714290 0.235355 0.150149
0.745052 0.236240 0.155367
0.774655 0.237156 0.161013
0.803342 0.238621 0.167971
0.831357 0.240452 0.175845
0.858946 0.242954 0.184543
0.886229 0.246555 0.194827
0.913634 0.251102 0.205661
0.941253 0.256626 0.217960
0.118959 0.238834 0.150576
0.120424 0.238743 0.150759
0.125307 0.238407 0.151186
0.133944 0.238315 0.152102
0.146639 0.237705 0.153689
0.161044 0.238315 0.155032
0.177554 0.242435 0.155245
0.198001 0.247898 0.155306
0.221958 0.254459 0.155428
0.249638 0.262150 0.155703
0.283268 0.272831 0.155581
0.336797 0.294011 0.144656
0.372015 0.291417 0.136995
0.401007 0.282902 0.136416
0.429419 0.274083 0.135622
0.457038 0.263462 0.135348
0.487984 0.258488 0.135988
0.521813 0.260075 0.136355
0.555138 0.261357 0.137423
0.588220 0.262089 0.139284
0.620203 0.262791 0.141573
0.651545 0.263249 0.144106
0.682734 0.263951 0.147463
0.713436 0.264500 0.151797
0.743130 0.265415 0.157076
0.772122 0.266148 0.163149
0.800595 0.267399 0.170565
0.828611 0.269017 0.178622
0.856260 0.271550 0.187686
0.883818 0.274815 0.197818
0.911406 0.278660 0.209354
0.939300 0.283665 0.221897
0.112795 0.270756 0.153384
0.114748 0.270756 0.153353
0.119570 0.270848 0.154086
0.130495 0.270512 0.154818
0.144961 0.270329 0.156435
0.162142 0.270024 0.158907
0.180941 0.272892 0.159609
0.201480 0.278294 0.160006
0.225498 0.284764 0.160220
0.253300 0.292363 0.160891
0.284184 0.301183 0.161563
0.318822 0.311009 0.162539
0.375372 0.336217 0.151949
0.415412 0.336034 0.138125
0.445502 0.327153 0.136995
0.474464 0.317174 0.136049
0.502129 0.306065 0.135958
0.529168 0.294163 0.135805
0.559625 0.291478 0.137240
0.591455 0.292149 0.139681
0.622522 0.292546 0.142611
0.653101 0.293156 0.145357
0.683803 0.293675 0.149599
0.713802 0.294285 0.154696
0.743130 0.294957 0.160708
0.771756 0.295903 0.167117
0.799924 0.297276 0.174594
0.827787 0.298680 0.183230
0.855314 0.300786 0.192325
0.882780 0.303685 0.202853
0.910307 0.307225 0.214725
0.938170 0.311925 0.226932
0.104067 0.305303 0.156863
0.105409 0.305425 0.156802
0.112551 0.305241 0.157565
0.125032 0.305241 0.158389
0.141848 0.304906 0.160342
0.161776 0.304662 0.162509
0.182559 0.305333 0.165743
0.204196 0.310552 0.166232
0.229099 0.316686 0.166781
0.256626 0.324010 0.168032
0.287053 0.332555 0.169619
0.321141 0.343053 0.171572
0.367773 0.364141 0.177707
0.425910 0.392096 0.171908
0.473579 0.396124 0.149783
0.504601 0.385870 0.144076
0.532647 0.373205 0.142824
0.559319 0.359960 0.141909
0.584619 0.345434 0.142123
0.608911 0.330755 0.141939
0.639155 0.330907 0.146120
0.669001 0.331029 0.150759
0.698177 0.330999 0.156283
0.726772 0.331243 0.162203
0.754818 0.331456 0.169131
0.782284 0.331823 0.176516
0.809293 0.332494 0.184665
0.835843 0.333440 0.193332
0.862272 0.334936 0.202823
0.888701 0.337255 0.213291
0.915465 0.340093 0.225040
0.942626 0.344152 0.238132
0.093721 0.344091 0.162997
0.094423 0.344060 0.162997
0.104067 0.343877 0.163333
0.119265 0.343572 0.164767
0.138827 0.343053 0.166506
0.161532 0.342657 0.169314
0.185092 0.342321 0.173129
0.208774 0.346166 0.175113
0.234470 0.352850 0.177218
0.262882 0.360876 0.179202
0.293919 0.370459 0.182162
0.328466 0.381567 0.185763
0.366155 0.393927 0.190066
0.406226 0.407477 0.195804
0.461891 0.436316 0.198398
0.513634 0.443397 0.171481
0.545983 0.432776 0.158358
0.572137 0.418524 0.156313
0.597345 0.403510 0.154604
0.621027 0.388251 0.153170
0.643915 0.372503 0.152102
0.668025 0.360784 0.153506
0.696590 0.360632 0.159609
0.724880 0.360632 0.166262
0.752590 0.360784 0.173373
0.780026 0.361059 0.181521
0.806973 0.361608 0.189731
0.833555 0.362524 0.198917
0.860105 0.363867 0.208713
0.886778 0.365911 0.219638
0.913573 0.368811 0.231418
0.940795 0.372534 0.244114
0.080781 0.380987 0.171756
0.084932 0.380896 0.171786
0.096254 0.380499 0.172366
0.114809 0.380316 0.173465
0.136385 0.379950 0.175692
0.160769 0.379553 0.178805
0.186709 0.379217 0.182620
0.212589 0.379950 0.187411
0.238071 0.385962 0.189548
0.265965 0.393469 0.192233
0.295933 0.402411 0.195682
0.329320 0.412726 0.200473
0.365057 0.424414 0.205173
0.403265 0.437110 0.211948
0.443336 0.450385 0.218723
0.496651 0.477058 0.223697
0.550744 0.489357 0.199588
0.583642 0.478920 0.180270
0.608942 0.463172 0.176089
0.632746 0.447150 0.172702
0.655268 0.430915 0.170535
0.677302 0.414435 0.168978
0.699031 0.398199 0.167453
0.724086 0.390814 0.171145
0.751583 0.390784 0.179110
0.778897 0.391028 0.186770
0.805722 0.391424 0.196017
0.832212 0.392157 0.205264
0.858671 0.393378 0.215579
0.885344 0.395178 0.226413
0.912230 0.397986 0.238437
0.939513 0.401373 0.251347
0.064851 0.417243 0.183841
0.073335 0.417304 0.183780
0.090883 0.417029 0.184634
0.111635 0.416419 0.185946
0.135775 0.415900 0.187747
0.161227 0.415259 0.190951
0.188602 0.414740 0.194949
0.215579 0.414496 0.199893
0.241642 0.418158 0.203861
0.268864 0.425177 0.206851
0.298283 0.433600 0.211002
0.330327 0.443458 0.215671
0.364538 0.454353 0.221927
0.400702 0.466041 0.228550
0.438666 0.478553 0.235630
0.478309 0.491524 0.244053
0.528435 0.515435 0.251164
0.585443 0.534020 0.230716
0.618585 0.523888 0.207889
0.642756 0.506798 0.200809
0.665278 0.489631 0.197360
0.687343 0.472847 0.194034
0.709133 0.456550 0.191257
0.730678 0.440162 0.188907
0.752041 0.423804 0.186648
0.778012 0.421027 0.193515
0.804715 0.421485 0.202609
0.831388 0.422065 0.212528
0.857969 0.423346 0.223239
0.884886 0.425299 0.235019
0.912169 0.427955 0.247532
0.939696 0.431464 0.261204
0.065126 0.451575 0.198001
0.074647 0.451575 0.197848
0.091707 0.451423 0.198947
0.112734 0.451240 0.200259
0.136233 0.450874 0.201999
0.163180 0.450538 0.205325
0.190372 0.450385 0.209476
0.218479 0.450446 0.214725
0.246708 0.451179 0.220645
0.272984 0.457832 0.224186
0.301427 0.465339 0.228611
0.331975 0.474159 0.233463
0.364416 0.483986 0.238987
0.398322 0.494392 0.245701
0.433936 0.505547 0.252873
0.471107 0.517266 0.260777
0.510094 0.529808 0.269230
0.557397 0.551263 0.277897
0.612421 0.571710 0.266117
0.647547 0.564019 0.241581
0.673152 0.548333 0.229007
0.695796 0.531121 0.225101
0.717983 0.514611 0.221225
0.739895 0.498360 0.217319
0.761440 0.482246 0.214420
0.782895 0.466377 0.212009
0.804715 0.452003 0.211307
0.831266 0.452552 0.221530
0.857877 0.453681 0.232151
0.884611 0.455390 0.243931
0.911711 0.457740 0.256260
0.938933 0.460945 0.270298
0.076448 0.484474 0.213382
0.083162 0.484382 0.213779
0.096468 0.484291 0.214511
0.114992 0.484169 0.215824
0.140169 0.483925 0.217807
0.165591 0.483650 0.220920
0.193149 0.483497 0.225040
0.220798 0.483589 0.230106
0.249393 0.483772 0.236332
0.276249 0.487434 0.241062
0.303960 0.494514 0.245548
0.332921 0.502525 0.250736
0.364019 0.511650 0.256413
0.396399 0.521416 0.263035
0.430213 0.531914 0.270329
0.465583 0.543084 0.278080
0.502098 0.554528 0.286168
0.540063 0.566491 0.296300
0.584070 0.584955 0.306523
0.636103 0.606683 0.303349
0.675349 0.603449 0.277226
0.702754 0.589227 0.260838
0.725277 0.572442 0.255955
0.747433 0.556085 0.251530
0.769253 0.539971 0.247715
0.790890 0.524224 0.244053
0.812467 0.508751 0.241276
0.834165 0.493538 0.238743
0.857816 0.484108 0.241886
0.884611 0.485725 0.254002
0.911711 0.488045 0.266789
0.938781 0.490944 0.280797
0.091279 0.517021 0.231327
0.095064 0.517144 0.231479
0.109316 0.525597 0.237156
0.126650 0.525566 0.238590
0.148989 0.525414 0.240940
0.173800 0.525170 0.243534
0.201663 0.524926 0.247349
0.229648 0.524620 0.252232
0.257206 0.524743 0.258122
0.285954 0.525078 0.264897
0.312322 0.531792 0.269291
0.340215 0.539239 0.274784
0.370062 0.547570 0.280156
0.401160 0.556390 0.286656
0.433387 0.565606 0.293645
0.466499 0.575311 0.301549
0.500999 0.585107 0.310277
0.536156 0.595483 0.319402
0.572351 0.606256 0.329625
0.613153 0.621790 0.340764
0.663203 0.645289 0.345800
0.705715 0.645960 0.319463
0.733974 0.632746 0.299199
0.756283 0.615808 0.292027
0.777798 0.598901 0.287297
0.799039 0.582727 0.282567
0.820340 0.566796 0.277867
0.841764 0.551324 0.274357
0.863615 0.536400 0.271519
0.886107 0.521965 0.269413
0.911589 0.518181 0.277531
0.938354 0.520897 0.291783
0.106477 0.551232 0.251652
0.108370 0.552087 0.252293
0.118196 0.552789 0.253269
0.134157 0.553491 0.254765
0.155459 0.553948 0.257359
0.179232 0.553979 0.260014
0.205234 0.553918 0.263554
0.231876 0.553735 0.268101
0.259495 0.553674 0.273320
0.287388 0.553765 0.279759
0.314305 0.557061 0.285863
0.340795 0.564019 0.290715
0.369268 0.571557 0.296696
0.398596 0.579675 0.302892
0.429358 0.588190 0.310033
0.461097 0.597253 0.317937
0.493843 0.606561 0.326543
0.527398 0.616419 0.335912
0.561975 0.626795 0.346227
0.597436 0.637598 0.357610
0.635981 0.651362 0.370367
0.684077 0.677211 0.384771
0.730251 0.681971 0.358099
0.758633 0.669825 0.337224
0.781949 0.653986 0.326635
0.803464 0.637842 0.321477
0.824949 0.622156 0.316289
0.846494 0.606775 0.311894
0.868498 0.592187 0.308049
0.890959 0.578210 0.305699
0.913909 0.564691 0.304387
0.937377 0.551598 0.303716
0.120119 0.580774 0.269566
0.122103 0.581628 0.270420
0.131624 0.582422 0.271122
0.145052 0.583124 0.272923
0.163516 0.583642 0.275334
0.186496 0.583734 0.278172
0.210849 0.583642 0.281254
0.236362 0.583520 0.285313
0.263279 0.583429 0.290532
0.290562 0.583398 0.296483
0.317906 0.583551 0.303563
0.343420 0.589776 0.308690
0.370245 0.596582 0.314580
0.398505 0.604028 0.320745
0.427893 0.611994 0.327977
0.458045 0.620386 0.335943
0.489418 0.629206 0.344701
0.521508 0.638544 0.353918
0.554437 0.648249 0.364080
0.588159 0.658320 0.375555
0.622431 0.668757 0.387671
0.658534 0.680598 0.401404
0.705440 0.705928 0.417792
0.753841 0.716732 0.398260
0.781949 0.705470 0.377752
0.806729 0.691218 0.363317
0.828458 0.675807 0.357244
0.850095 0.660670 0.352453
0.871977 0.646479 0.348363
0.894133 0.632624 0.345190
0.916533 0.619287 0.343359
0.939086 0.606287 0.342565
0.136263 0.610224 0.288975
0.138460 0.610834 0.289555
0.145632 0.611566 0.290654
0.158541 0.612177 0.292363
0.174411 0.612696 0.294255
0.195071 0.612726 0.296849
0.218021 0.612726 0.299840
0.242313 0.612604 0.303655
0.268193 0.612573 0.308721
0.294469 0.612573 0.314153
0.321447 0.612634 0.320867
0.347295 0.615503 0.327062
0.373175 0.621790 0.333165
0.399908 0.628656 0.339483
0.427802 0.636103 0.346838
0.457069 0.644068 0.354803
0.487068 0.652583 0.363714
0.518090 0.661585 0.373632
0.549859 0.671015 0.384314
0.582422 0.681025 0.396155
0.615778 0.691341 0.408972
0.649592 0.701961 0.422675
0.683772 0.712673 0.437171
0.729274 0.737057 0.456245
0.776028 0.750423 0.446021
0.808011 0.744076 0.425330
0.833982 0.731502 0.408637
0.855894 0.716854 0.401984
0.877409 0.702541 0.397772
0.898894 0.688716 0.394842
0.920348 0.675410 0.392462
0.941588 0.662257 0.391638
0.158480 0.643610 0.312963
0.160067 0.643854 0.313237
0.165835 0.644007 0.314031
0.176333 0.644160 0.315068
0.190280 0.644160 0.316777
0.208682 0.643946 0.318853
0.229252 0.643824 0.321721
0.252171 0.643732 0.325292
0.276555 0.643671 0.329931
0.301946 0.643732 0.335393
0.327855 0.643824 0.341650
0.354253 0.644007 0.348760
0.378851 0.649561 0.354742
0.404669 0.655909 0.361303
0.431434 0.662745 0.368780
0.459266 0.670069 0.376593
0.488045 0.677760 0.385473
0.517601 0.685939 0.395331
0.547814 0.694484 0.405646
0.578668 0.703456 0.417273
0.610132 0.712764 0.429541
0.642237 0.722408 0.442481
0.674525 0.732174 0.456519
0.707240 0.742092 0.471046
0.750057 0.763943 0.489876
0.794247 0.778836 0.488014
0.829068 0.776333 0.467781
0.855161 0.764950 0.449897
0.876616 0.751003 0.443122
0.897246 0.737392 0.439948
0.917571 0.724056 0.437659
0.937499 0.710842 0.436530
0.178592 0.672206 0.334630
0.179904 0.672480 0.334722
0.184268 0.672694 0.335576
0.193515 0.672755 0.336675
0.206149 0.672755 0.338231
0.222354 0.672694 0.340154
0.241215 0.672572 0.343023
0.262730 0.672450 0.346502
0.285496 0.672419 0.350622
0.309911 0.672480 0.355840
0.334508 0.672694 0.361913
0.360143 0.672877 0.368658
0.385229 0.675319 0.375616
0.409644 0.681147 0.382330
0.435401 0.687556 0.389654
0.462074 0.694331 0.397681
0.489723 0.701625 0.406622
0.517845 0.709285 0.416358
0.546960 0.717281 0.426978
0.576532 0.725734 0.438270
0.606806 0.734493 0.450507
0.637507 0.743587 0.463386
0.668544 0.752834 0.477089
0.699947 0.762264 0.491524
0.729335 0.769467 0.503197
0.769162 0.788449 0.522545
0.810117 0.804074 0.529473
0.846891 0.804807 0.510246
0.871366 0.794003 0.494118
0.892821 0.780941 0.484932
0.912016 0.767880 0.482765
0.930602 0.755032 0.481788
0.203525 0.702998 0.359747
0.204807 0.703395 0.360204
0.208865 0.703517 0.360998
0.215763 0.703456 0.361791
0.226474 0.703212 0.362921
0.240299 0.702846 0.364721
0.257145 0.702388 0.366918
0.276097 0.701930 0.369787
0.297002 0.701564 0.373327
0.319829 0.701228 0.377905
0.343053 0.701015 0.383215
0.367407 0.700923 0.389319
0.392279 0.700832 0.396399
0.415595 0.705470 0.402747
0.439857 0.710933 0.409796
0.464790 0.716854 0.417578
0.491035 0.723354 0.425910
0.518120 0.730312 0.435279
0.545739 0.737728 0.445716
0.574273 0.745724 0.456916
0.603449 0.754055 0.469062
0.632959 0.762600 0.481788
0.662593 0.771176 0.495064
0.692470 0.779751 0.508690
0.722225 0.788022 0.522942
0.751583 0.796048 0.537591
0.787503 0.811490 0.556268
0.824338 0.826505 0.570123
0.861814 0.829648 0.552941
0.883970 0.819059 0.538994
0.904265 0.806912 0.528710
0.921569 0.794095 0.527031
0.224796 0.729580 0.382269
0.226108 0.729915 0.382757
0.229770 0.730159 0.383429
0.235569 0.730220 0.384283
0.245640 0.730129 0.385718
0.258030 0.730007 0.387579
0.273198 0.729915 0.389807
0.291203 0.729793 0.393164
0.311009 0.729763 0.396796
0.331975 0.729793 0.401495
0.354498 0.729824 0.406714
0.377691 0.729915 0.412909
0.401556 0.729885 0.419623
0.424994 0.731685 0.426734
0.448096 0.736782 0.433661
0.472084 0.742275 0.441108
0.497047 0.748165 0.449622
0.522698 0.754513 0.458534
0.549248 0.761410 0.468574
0.576562 0.768734 0.479530
0.604425 0.776394 0.491463
0.632776 0.784207 0.503929
0.661189 0.792020 0.516960
0.689631 0.799710 0.530816
0.717891 0.807126 0.544762
0.745754 0.814237 0.558953
0.773159 0.820981 0.573358
0.804868 0.832853 0.591608
0.836576 0.846311 0.612818
0.872709 0.850217 0.597803
0.893034 0.840879 0.586267
0.911528 0.829313 0.575738
0.250889 0.758267 0.408148
0.251499 0.758450 0.408392
0.254459 0.758480 0.408850
0.260105 0.758511 0.409674
0.268284 0.758419 0.410834
0.279240 0.758236 0.412604
0.292699 0.758145 0.414954
0.308812 0.758022 0.417853
0.326757 0.757931 0.421515
0.346380 0.757870 0.425727
0.367498 0.757900 0.430884
0.389441 0.757992 0.436713
0.412024 0.758083 0.443214
0.435218 0.758145 0.450172
0.457557 0.762081 0.457160
0.480537 0.767056 0.464698
0.504204 0.772519 0.472755
0.528801 0.778256 0.481727
0.554192 0.784543 0.491463
0.580285 0.791135 0.502129
0.606897 0.797940 0.513848
0.633845 0.804807 0.526024
0.660792 0.811551 0.538750
0.687739 0.818112 0.551781
0.714351 0.824399 0.565087
0.740536 0.830320 0.578576
0.766079 0.835935 0.592309
0.791073 0.841032 0.606378
0.818540 0.849485 0.624201
0.845792 0.859892 0.646387
0.876646 0.863584 0.639246
0.897551 0.857298 0.629328
0.276616 0.786160 0.434150
0.277348 0.786313 0.434424
0.280003 0.786435 0.434852
0.285130 0.786465 0.435950
0.292149 0.786557 0.437171
0.301976 0.786709 0.439094
0.314763 0.787015 0.441871
0.330236 0.787472 0.445380
0.347326 0.788052 0.449744
0.366430 0.788724 0.454780
0.386725 0.789517 0.460578
0.408179 0.790219 0.467140
0.430365 0.790829 0.474159
0.452827 0.791409 0.481575
0.475319 0.793118 0.489296
0.497292 0.797726 0.497017
0.519829 0.802548 0.505119
0.543389 0.807584 0.514122
0.567559 0.812894 0.523949
0.592248 0.818357 0.534508
0.617273 0.823911 0.545708
0.642573 0.829465 0.557488
0.667720 0.834775 0.569451
0.692714 0.839841 0.581720
0.717250 0.844602 0.594446
0.741360 0.848997 0.607172
0.764797 0.853056 0.620478
0.787442 0.856657 0.633967
0.809110 0.859892 0.647669
0.831693 0.864897 0.664363
0.854185 0.872129 0.686000
0.878996 0.875334 0.686305
0.313024 0.818540 0.468513
0.313756 0.818540 0.468544
0.315709 0.818509 0.468910
0.319280 0.818448 0.469581
0.325658 0.818326 0.470588
0.333928 0.818235 0.472297
0.344854 0.818204 0.474464
0.357885 0.818173 0.477272
0.372839 0.818265 0.480842
0.389563 0.818357 0.484993
0.407813 0.818509 0.489967
0.427039 0.818723 0.495644
0.447608 0.818906 0.501915
0.468574 0.819059 0.508751
