20 Preset/Car Style/【3】LUT video cho PR-AE-FCPX/Tone  (16).cube
# Created by Adobe Lightroom plugin Export LUT (1.24.0)
# www.johnrellis.com/lightroom/exportlut.htm
# Preset: 17汽车质感（素材江湖）
# Color profile: E:\lut插件\exportlut.1.24\exportlut.lrplugin\color profiles\Rec709gamma2.4.icc
LUT_3D_SIZE 32
DOMAIN_MIN 0.0 0.0 0.0
DOMAIN_MAX 1.0 1.0 1.0
0.000000 0.037903 0.033387
0.000000 0.038880 0.034363
0.000000 0.040620 0.034028
0.010163 0.042420 0.035798
0.036774 0.046052 0.038148
0.078218 0.049104 0.041444
0.102419 0.053742 0.044221
0.122499 0.056580 0.049195
0.145571 0.055634 0.052888
0.171267 0.053162 0.057069
0.200137 0.044953 0.061982
0.233494 0.032013 0.066865
0.272435 0.009461 0.070436
0.316991 0.000000 0.074281
0.364233 0.000000 0.077119
0.413581 0.000000 0.079286
0.463264 0.000000 0.080720
0.513481 0.000000 0.083314
0.564599 0.000000 0.084627
0.616144 0.000000 0.085756
0.668055 0.000000 0.086854
0.728756 0.000000 0.087587
0.789303 0.000000 0.088716
0.843229 0.000000 0.091066
0.891203 0.000000 0.093629
0.934264 0.000000 0.098695
0.973388 0.000000 0.105959
1.000000 0.000000 0.115908
1.000000 0.000000 0.128969
1.000000 0.000000 0.145327
1.000000 0.145174 0.167117
1.000000 0.224918 0.192447
0.000000 0.041505 0.034058
0.000000 0.041291 0.034058
0.000000 0.041810 0.035004
0.008728 0.044831 0.035492
0.036072 0.047272 0.037995
0.076875 0.051514 0.041138
0.100832 0.055390 0.045228
0.121370 0.058228 0.049042
0.143893 0.057740 0.052766
0.168673 0.056153 0.056977
0.197055 0.048829 0.061921
0.229587 0.035309 0.066041
0.267643 0.014984 0.070832
0.311315 0.000000 0.073671
0.358129 0.000000 0.076905
0.407111 0.000000 0.079225
0.456916 0.000000 0.080934
0.507164 0.000000 0.083040
0.557977 0.000000 0.084565
0.609369 0.000000 0.085969
0.660609 0.000000 0.087007
0.719997 0.000000 0.087434
0.778531 0.000000 0.088441
0.831083 0.000000 0.089723
0.878630 0.000000 0.092775
0.921935 0.000000 0.096712
0.961883 0.000000 0.102846
0.998962 0.000000 0.111818
1.000000 0.000000 0.123842
1.000000 0.000000 0.139651
1.000000 0.117678 0.159792
1.000000 0.207828 0.184787
0.000000 0.049256 0.035248
0.000000 0.050446 0.036255
0.000000 0.050965 0.036072
0.008423 0.053773 0.036530
0.035035 0.057404 0.038911
0.076539 0.060456 0.042206
0.100832 0.064332 0.045136
0.120546 0.066438 0.049134
0.142794 0.066163 0.053986
0.167697 0.062379 0.058503
0.195468 0.056947 0.062196
0.227390 0.045502 0.066194
0.265049 0.026307 0.071046
0.307805 0.000000 0.074098
0.354314 0.000000 0.077272
0.402930 0.000000 0.079500
0.452552 0.000000 0.081147
0.502647 0.000000 0.083253
0.553307 0.000000 0.084138
0.604669 0.000000 0.085603
0.656062 0.000000 0.086641
0.715969 0.000000 0.087526
0.773251 0.000000 0.087556
0.825101 0.000000 0.089418
0.872160 0.000000 0.091585
0.915190 0.000000 0.095094
0.955474 0.000000 0.101289
0.993011 0.000000 0.109499
1.000000 0.000000 0.120546
1.000000 0.000000 0.136080
1.000000 0.113191 0.155886
1.000000 0.203464 0.180117
0.000000 0.069551 0.040467
0.000000 0.069551 0.040467
0.000000 0.071260 0.040131
0.006744 0.072877 0.039612
0.035676 0.076295 0.040833
0.075196 0.079011 0.044129
0.100221 0.080079 0.047364
0.120638 0.081239 0.050233
0.143008 0.080323 0.055238
0.167605 0.078096 0.058625
0.195193 0.071687 0.063630
0.226688 0.061891 0.067506
0.263462 0.045228 0.071077
0.305394 0.020600 0.074891
0.351019 0.000000 0.077028
0.398596 0.000000 0.079164
0.447242 0.000000 0.081636
0.496376 0.000000 0.083162
0.546166 0.000000 0.084260
0.596735 0.000000 0.084993
0.647272 0.000000 0.085725
0.706844 0.000000 0.085237
0.762387 0.000000 0.087404
0.814054 0.000000 0.087984
0.862211 0.000000 0.090059
0.907317 0.000000 0.093080
0.949493 0.000000 0.099153
0.988708 0.000000 0.107240
1.000000 0.000000 0.119203
1.000000 0.000000 0.134249
1.000000 0.130251 0.153994
1.000000 0.209506 0.177707
0.000000 0.090120 0.046540
0.000000 0.090486 0.047517
0.000000 0.090211 0.047486
0.004456 0.091341 0.046845
0.030701 0.092348 0.045960
0.077089 0.093324 0.045838
0.099763 0.093660 0.049226
0.119814 0.093202 0.052552
0.142031 0.092714 0.056428
0.166079 0.092012 0.059693
0.193179 0.089876 0.064698
0.224369 0.086275 0.068452
0.260441 0.078218 0.071809
0.301915 0.056428 0.075532
0.347143 0.025605 0.078096
0.394690 0.000000 0.079591
0.443336 0.000000 0.080903
0.492805 0.000000 0.082765
0.542565 0.000000 0.083345
0.593133 0.000000 0.083833
0.645197 0.000000 0.084810
0.703853 0.000000 0.084688
0.758053 0.000000 0.084779
0.809293 0.000000 0.085939
0.857542 0.000000 0.087526
0.903105 0.000000 0.091096
0.945586 0.000000 0.096437
0.984894 0.000000 0.104463
1.000000 0.000000 0.116762
1.000000 0.000000 0.132143
1.000000 0.154971 0.151186
1.000000 0.222324 0.174746
0.000000 0.103761 0.054658
0.000000 0.103670 0.055787
0.000000 0.103914 0.055604
0.001495 0.104524 0.056245
0.025360 0.105745 0.054078
0.067353 0.107027 0.052674
0.101778 0.108156 0.052003
0.122286 0.106996 0.054505
0.143343 0.106386 0.058534
0.166903 0.105531 0.063111
0.194217 0.104402 0.066651
0.225467 0.102510 0.070100
0.261753 0.099641 0.072816
0.303044 0.094087 0.075746
0.348089 0.083925 0.079011
0.395270 0.054475 0.079896
0.443946 0.011048 0.081361
0.493294 0.000000 0.081758
0.543267 0.000000 0.082887
0.593408 0.000000 0.082002
0.649348 0.000000 0.081697
0.706600 0.000000 0.080659
0.820920 0.000000 0.080415
0.872251 0.000000 0.084565
0.917967 0.000000 0.091005
0.958923 0.000000 0.098695
0.995666 0.000000 0.110262
1.000000 0.099184 0.124147
1.000000 0.164126 0.140536
1.000000 0.215640 0.160433
1.000000 0.262608 0.183291
1.000000 0.307469 0.208316
0.000000 0.122499 0.064637
0.000000 0.122499 0.064637
0.000000 0.122621 0.065583
0.000000 0.122591 0.066529
0.017365 0.123934 0.064240
0.055940 0.125582 0.062531
0.098543 0.127504 0.060121
0.130220 0.128603 0.058320
0.153750 0.127047 0.061433
0.178897 0.125734 0.065888
0.206027 0.124941 0.069062
0.239231 0.124514 0.072267
0.277440 0.123293 0.074495
0.319921 0.120607 0.076631
0.365240 0.116152 0.078370
0.411902 0.109010 0.078798
0.459876 0.098177 0.079011
0.508232 0.080201 0.079469
0.557977 0.032746 0.079133
0.612573 0.000000 0.077211
0.676631 0.000000 0.074250
0.738674 0.000000 0.071260
0.797177 0.000000 0.069856
0.852171 0.000000 0.073335
0.902159 0.000000 0.082826
0.945708 0.023896 0.092744
0.984039 0.111452 0.103517
1.000000 0.155245 0.117220
1.000000 0.196719 0.133761
1.000000 0.236423 0.152865
1.000000 0.276463 0.175143
1.000000 0.317174 0.200137
0.000000 0.139803 0.074525
0.000000 0.139803 0.074525
0.000000 0.139925 0.074342
0.000000 0.139925 0.075288
0.005768 0.140658 0.075593
0.041688 0.142336 0.073762
0.091157 0.144289 0.071199
0.121401 0.146456 0.067720
0.155947 0.148623 0.062898
0.183047 0.147646 0.065858
0.211460 0.147250 0.069642
0.243107 0.147066 0.072847
0.277745 0.147097 0.075074
0.318944 0.147158 0.076081
0.363378 0.145998 0.075654
0.408972 0.143343 0.076417
0.456062 0.138888 0.075654
0.503868 0.133577 0.073732
0.554314 0.127260 0.071382
0.613397 0.121035 0.067109
0.672999 0.114778 0.062898
0.731716 0.110780 0.057496
0.788296 0.111757 0.054658
0.841825 0.119509 0.057130
0.891447 0.134279 0.066743
0.935180 0.154116 0.082795
0.973907 0.177890 0.095613
1.000000 0.203769 0.110414
1.000000 0.233646 0.127474
1.000000 0.265873 0.146975
1.000000 0.300023 0.169162
1.000000 0.335790 0.193973
0.000000 0.159701 0.082399
0.000000 0.159670 0.082399
0.000000 0.159792 0.083009
0.000000 0.159762 0.082887
0.000000 0.160006 0.083955
0.027588 0.161624 0.082734
0.084108 0.163485 0.081056
0.115297 0.166171 0.078523
0.147524 0.169100 0.073426
0.185641 0.172915 0.067689
0.218723 0.173678 0.067323
0.251774 0.174563 0.069032
0.287175 0.175265 0.070069
0.324468 0.176089 0.069947
0.364172 0.176577 0.070832
0.408911 0.176791 0.068666
0.455085 0.176089 0.066011
0.504570 0.175601 0.063661
0.559289 0.175937 0.057679
0.614954 0.176059 0.051850
0.671687 0.176822 0.044862
0.727749 0.178927 0.038239
0.782498 0.182803 0.034516
0.834806 0.190341 0.036561
0.883513 0.200809 0.044373
0.927092 0.214328 0.063355
0.966094 0.230777 0.086885
1.000000 0.250858 0.102724
1.000000 0.273777 0.121889
1.000000 0.300084 0.142214
1.000000 0.329290 0.164950
1.000000 0.360723 0.190768
0.000000 0.183261 0.088716
0.000000 0.183261 0.089143
0.000000 0.183169 0.089143
0.000000 0.183108 0.089479
0.000000 0.183139 0.089754
0.010681 0.183749 0.089754
0.069978 0.185946 0.088502
0.109590 0.188846 0.086030
0.141909 0.192294 0.082155
0.177340 0.196353 0.077363
0.219272 0.201846 0.065949
0.258762 0.205203 0.062104
0.295079 0.207126 0.059907
0.332616 0.208896 0.059144
0.371984 0.210483 0.057130
0.411749 0.211154 0.054963
0.459266 0.214603 0.050019
0.511406 0.217990 0.043397
0.564172 0.221256 0.036652
0.617670 0.224216 0.028351
0.671717 0.227726 0.019501
0.724239 0.231235 0.012451
0.775479 0.235477 0.008423
0.824430 0.241855 0.009064
0.870848 0.250034 0.015290
0.913725 0.260044 0.030854
0.952972 0.273442 0.057099
0.989105 0.289342 0.090639
1.000000 0.308904 0.112062
1.000000 0.331914 0.134127
1.000000 0.357824 0.159243
1.000000 0.386389 0.186099
0.000000 0.210269 0.092012
0.000000 0.210269 0.092012
0.000000 0.210300 0.091951
0.000000 0.210422 0.092256
0.000000 0.210636 0.092409
0.000000 0.210971 0.093263
0.042420 0.213321 0.091829
0.102602 0.216648 0.089631
0.137362 0.220981 0.086488
0.173648 0.226108 0.080568
0.213382 0.231662 0.069825
0.257572 0.237766 0.053803
0.305058 0.245212 0.040131
0.343786 0.247898 0.035431
0.386572 0.252079 0.030426
0.429419 0.255497 0.024933
0.472847 0.258305 0.019501
0.516594 0.260685 0.013855
0.565301 0.264530 0.006134
0.616754 0.268650 0.000000
0.668666 0.273167 0.000000
0.719661 0.277653 0.000000
0.769406 0.283207 0.000000
0.817716 0.289464 0.000000
0.863554 0.297307 0.000000
0.906096 0.306798 0.000000
0.945464 0.318212 0.027588
0.981842 0.331914 0.071443
1.000000 0.348821 0.104036
1.000000 0.368688 0.129366
1.000000 0.391547 0.155947
1.000000 0.416785 0.183383
0.000000 0.245274 0.092134
0.000000 0.245365 0.092073
0.000000 0.245487 0.091951
0.000000 0.245640 0.092592
0.000000 0.246006 0.092622
0.000000 0.246525 0.092897
0.000000 0.247929 0.093019
0.083345 0.251987 0.090425
0.128969 0.256870 0.086366
0.168826 0.262699 0.078706
0.209934 0.269139 0.063630
0.256352 0.278721 0.042695
0.334081 0.315129 0.000000
0.395300 0.328649 0.000000
0.440925 0.332219 0.000000
0.486183 0.334966 0.000000
0.530877 0.337163 0.000000
0.575433 0.339086 0.000000
0.619745 0.340795 0.000000
0.663966 0.342779 0.000000
0.713985 0.347723 0.000000
0.762051 0.352392 0.000000
0.808225 0.357733 0.000000
0.852415 0.363989 0.000000
0.893706 0.370977 0.000000
0.931670 0.378943 0.000000
0.966247 0.388159 0.044587
0.997955 0.399084 0.093782
1.000000 0.412177 0.120363
1.000000 0.427893 0.146578
1.000000 0.446357 0.172946
1.000000 0.467597 0.201785
0.000000 0.298314 0.085969
0.000000 0.298039 0.086244
0.000000 0.297856 0.087007
0.000000 0.297368 0.086610
0.000000 0.296941 0.087434
0.000000 0.296605 0.087892
0.000000 0.296880 0.088899
0.000000 0.301793 0.084504
0.110750 0.309148 0.074922
0.163272 0.318212 0.056947
0.213260 0.329168 0.035126
0.265415 0.341802 0.006104
0.321752 0.355749 0.000000
0.382574 0.369574 0.000000
0.449256 0.384863 0.000000
0.494575 0.386938 0.000000
0.538689 0.387793 0.000000
0.581323 0.387976 0.000000
0.623682 0.388495 0.000000
0.665248 0.388800 0.000000
0.705684 0.389197 0.000000
0.746975 0.390997 0.000000
0.792844 0.395911 0.000000
0.836942 0.401770 0.000000
0.878630 0.408301 0.000000
0.917449 0.415625 0.000000
0.953216 0.424109 0.000000
0.986175 0.434089 0.067109
1.000000 0.445960 0.109651
1.000000 0.460456 0.139101
1.000000 0.477241 0.168490
1.000000 0.496681 0.198276
0.000000 0.350622 0.064851
0.000000 0.350347 0.064332
0.000000 0.349615 0.064637
0.000000 0.349248 0.066133
0.000000 0.348852 0.067384
0.000000 0.348516 0.068116
0.000000 0.348913 0.070192
0.000000 0.350652 0.068452
0.022644 0.356725 0.054505
0.139956 0.364721 0.034943
0.197330 0.374762 0.010712
0.252842 0.386725 0.000000
0.309697 0.399634 0.000000
0.368902 0.412665 0.000000
0.431220 0.425086 0.000000
0.497871 0.438758 0.000000
0.544518 0.439643 0.000000
0.586877 0.438544 0.000000
0.628443 0.437781 0.000000
0.668482 0.436500 0.000000
0.707485 0.435889 0.000000
0.746151 0.435859 0.000000
0.784115 0.436774 0.000000
0.825040 0.440894 0.000000
0.867063 0.447059 0.000000
0.906340 0.453834 0.000000
0.942748 0.461524 0.000000
0.976349 0.470497 0.026123
1.000000 0.481270 0.098512
1.000000 0.494514 0.133608
1.000000 0.509911 0.165103
1.000000 0.527703 0.196902
0.000000 0.404486 0.029603
0.000000 0.404242 0.030182
0.000000 0.403357 0.031250
0.000000 0.402411 0.032258
0.000000 0.401129 0.034943
0.000000 0.399878 0.037049
0.000000 0.399390 0.038941
0.000000 0.399878 0.040925
0.000000 0.403784 0.030488
0.091371 0.411048 0.010346
0.173709 0.420294 0.000000
0.235233 0.431434 0.000000
0.295048 0.443366 0.000000
0.354314 0.455512 0.000000
0.415381 0.467201 0.000000
0.477729 0.477424 0.000000
0.544274 0.489784 0.000000
0.593103 0.490700 0.000000
0.633997 0.488441 0.000000
0.673121 0.485847 0.000000
0.711025 0.483833 0.000000
0.748653 0.482856 0.000000
0.785824 0.482734 0.000000
0.822324 0.483803 0.000000
0.857542 0.485634 0.000000
0.895903 0.491310 0.000000
0.932982 0.498787 0.000000
0.967559 0.507469 0.000000
0.999451 0.518090 0.091493
1.000000 0.531090 0.132052
1.000000 0.546227 0.167453
1.000000 0.563684 0.202823
0.000000 0.453742 0.000000
0.000000 0.453895 0.000000
0.000000 0.453437 0.000000
0.000000 0.452979 0.000000
0.000000 0.452613 0.001831
0.000000 0.452064 0.003235
0.000000 0.452399 0.005737
0.000000 0.453498 0.008453
0.000000 0.455818 0.009522
0.000000 0.462379 0.000000
0.137850 0.470314 0.000000
0.215488 0.478950 0.000000
0.278813 0.488411 0.000000
0.338750 0.497780 0.000000
0.398566 0.506981 0.000000
0.458656 0.515648 0.000000
0.520317 0.524010 0.000000
0.586236 0.535424 0.000000
0.636927 0.536736 0.000000
0.675959 0.533440 0.000000
0.714351 0.530938 0.000000
0.751919 0.529442 0.000000
0.788876 0.528985 0.000000
0.824979 0.529595 0.000000
0.859831 0.530999 0.000000
0.893400 0.533379 0.000000
0.925811 0.537163 0.000000
0.960754 0.545586 0.000000
0.992737 0.555566 0.088411
1.000000 0.567163 0.132784
1.000000 0.580591 0.169314
1.000000 0.596033 0.205814
0.000000 0.500755 0.000000
0.000000 0.500725 0.000000
0.000000 0.500420 0.000000
0.000000 0.500206 0.000000
0.000000 0.499886 0.000000
0.000000 0.499733 0.000000
0.000000 0.499977 0.000000
0.000000 0.500816 0.000000
0.000000 0.502159 0.000000
0.000000 0.506401 0.000000
0.054047 0.513237 0.000000
0.186984 0.521111 0.000000
0.259312 0.529564 0.000000
0.322698 0.537987 0.000000
0.382940 0.546471 0.000000
0.442756 0.554559 0.000000
0.502678 0.562158 0.000000
0.564111 0.569726 0.000000
0.629114 0.579950 0.000000
0.681025 0.581750 0.000000
0.719020 0.578515 0.000000
0.756313 0.576410 0.000000
0.792752 0.575250 0.000000
0.828244 0.575036 0.000000
0.862455 0.575708 0.000000
0.895354 0.577508 0.000000
0.926787 0.580652 0.000000
0.956725 0.584955 0.000000
0.986175 0.591974 0.086427
1.000000 0.603082 0.135927
1.000000 0.615686 0.175296
1.000000 0.629908 0.212406
0.000000 0.549798 0.000000
0.000000 0.550195 0.000000
0.000000 0.579553 0.000305
0.000000 0.579156 0.001160
0.000000 0.578882 0.004547
0.000000 0.578332 0.005005
0.000000 0.578058 0.011414
0.000000 0.578149 0.018616
0.000000 0.578759 0.026001
0.000000 0.580041 0.036805
0.000000 0.585931 0.013336
0.181247 0.592096 0.000000
0.262486 0.598260 0.000000
0.329625 0.604303 0.000000
0.391363 0.609888 0.000000
0.450813 0.615045 0.000000
0.509453 0.619623 0.000000
0.567590 0.624079 0.000000
0.626001 0.628809 0.000000
0.687953 0.636591 0.000000
0.739284 0.638025 0.000000
0.774441 0.633906 0.000000
0.808652 0.630671 0.000000
0.841520 0.628321 0.000000
0.872709 0.626612 0.000000
0.902678 0.626032 0.000000
0.931395 0.626551 0.000000
0.958862 0.628809 0.056611
0.985138 0.633051 0.113344
1.000000 0.639338 0.147005
1.000000 0.649561 0.182986
1.000000 0.662470 0.220523
0.000000 0.605219 0.025452
0.000000 0.607752 0.029328
0.000000 0.610468 0.035157
0.000000 0.612604 0.041230
0.000000 0.614282 0.047822
0.000000 0.614618 0.055177
0.000000 0.614557 0.059388
0.000000 0.614282 0.066133
0.000000 0.614527 0.076143
0.000000 0.615045 0.083803
0.000000 0.618158 0.080446
0.146578 0.623407 0.058961
0.241306 0.628717 0.031739
0.311040 0.634058 0.000000
0.374090 0.639216 0.000000
0.433326 0.644282 0.000000
0.490761 0.648981 0.000000
0.548211 0.653742 0.000000
0.605554 0.658717 0.000000
0.663416 0.663905 0.000000
0.724331 0.672297 0.000000
0.777707 0.676387 0.000000
0.811246 0.672694 0.000000
0.843534 0.669795 0.000000
0.873960 0.667506 0.000000
0.903044 0.665980 0.000000
0.930724 0.665797 0.025238
0.957275 0.667109 0.103822
0.982513 0.670375 0.137636
1.000000 0.675563 0.167361
1.000000 0.682887 0.196933
1.000000 0.691981 0.227085
0.000000 0.643153 0.089113
0.000000 0.645686 0.093050
0.000000 0.648310 0.096345
0.000000 0.650690 0.100221
0.000000 0.652338 0.104219
0.000000 0.652857 0.106020
0.000000 0.652735 0.107332
0.000000 0.652491 0.109651
0.000000 0.652522 0.112428
0.000000 0.652644 0.116182
0.000000 0.653223 0.120058
0.117769 0.657649 0.115053
0.227298 0.662257 0.108003
0.300603 0.666926 0.100557
0.363592 0.671687 0.088624
0.422797 0.676204 0.058137
0.479622 0.680629 0.012482
0.535546 0.685023 0.000000
0.591333 0.689570 0.000000
0.647150 0.694423 0.000000
0.702571 0.699489 0.000000
0.759487 0.706294 0.000000
0.812131 0.712062 0.000000
0.846067 0.709773 0.000000
0.875761 0.706874 0.000000
0.904051 0.704799 0.027161
0.930724 0.703731 0.101625
0.956085 0.704219 0.135348
0.980377 0.706538 0.164370
1.000000 0.710811 0.191684
1.000000 0.716884 0.219791
1.000000 0.724727 0.248905
0.000000 0.681239 0.126711
0.000000 0.683467 0.129244
0.000000 0.685695 0.132143
0.000000 0.687587 0.135714
0.000000 0.689082 0.137942
0.000000 0.689509 0.139467
0.000000 0.689540 0.141329
0.000000 0.689265 0.142885
0.000000 0.689265 0.145083
0.000000 0.689296 0.148470
0.000000 0.689631 0.151217
0.097383 0.691676 0.151827
0.219944 0.695613 0.149020
0.294408 0.699733 0.143679
0.357855 0.704067 0.139345
0.417151 0.708431 0.132509
0.473915 0.713161 0.124880
0.530053 0.718105 0.116670
0.585504 0.723445 0.109010
0.641291 0.729122 0.098177
0.696529 0.735073 0.088258
0.751247 0.741146 0.067872
0.803891 0.747097 0.041321
0.855070 0.754604 0.103090
0.888670 0.754238 0.134188
0.915648 0.752346 0.155612
0.940887 0.751247 0.176059
0.964691 0.751369 0.197787
0.987121 0.753262 0.222232
1.000000 0.756649 0.247105
1.000000 0.761654 0.273259
1.000000 0.768093 0.301305
0.000000 0.731533 0.179782
0.000000 0.732387 0.180880
0.000000 0.733059 0.182559
0.000000 0.733333 0.183383
0.000000 0.733303 0.183658
0.000000 0.732845 0.184054
0.000000 0.732326 0.184848
0.000000 0.731960 0.185611
0.000000 0.731777 0.187564
0.000000 0.731838 0.190005
0.000000 0.732143 0.193362
0.133516 0.732387 0.196811
0.234653 0.735531 0.195041
0.305852 0.739101 0.192752
0.367834 0.742458 0.190311
0.424781 0.746029 0.186893
0.479286 0.749660 0.183291
0.532952 0.753445 0.179965
0.585718 0.757259 0.175509
0.638239 0.761379 0.171969
0.689937 0.765652 0.168002
0.741115 0.770016 0.164828
0.790616 0.774380 0.161990
0.838193 0.778683 0.158541
0.884367 0.785122 0.175753
0.916228 0.785489 0.196902
0.940551 0.784146 0.214054
0.963470 0.783963 0.232609
0.985199 0.785000 0.252354
1.000000 0.787503 0.275883
1.000000 0.791318 0.301366
1.000000 0.796475 0.328344
0.000000 0.765835 0.216587
0.000000 0.766476 0.218051
0.000000 0.766995 0.218570
0.000000 0.767269 0.219425
0.000000 0.767300 0.220188
0.000000 0.767086 0.220706
0.000000 0.766659 0.221286
0.000000 0.766323 0.221958
0.000000 0.766140 0.223941
0.000000 0.766232 0.225803
0.089052 0.766354 0.228794
0.182834 0.766659 0.232059
0.251377 0.767910 0.233310
0.317998 0.770993 0.232547
0.377386 0.774044 0.231540
0.432380 0.777218 0.229923
0.485145 0.780545 0.229099
0.536828 0.783932 0.227695
0.587640 0.787442 0.226627
0.637964 0.791012 0.226108
0.687678 0.794705 0.225437
0.736599 0.798489 0.225101
0.783963 0.802335 0.225589
0.829587 0.806180 0.225834
0.866423 0.804776 0.211765
0.908293 0.810697 0.226078
0.938811 0.812222 0.246860
0.960937 0.811612 0.263828
0.981903 0.812192 0.281743
1.000000 0.813931 0.302312
1.000000 0.817105 0.327062
1.000000 0.821500 0.353857
0.000000 0.804746 0.266148
0.000000 0.805722 0.267887
0.000000 0.806088 0.268528
0.000000 0.805875 0.268315
0.000000 0.805173 0.267979
0.000000 0.804074 0.267185
0.000000 0.802762 0.266087
0.000000 0.801419 0.265049
0.000000 0.800229 0.264927
0.112367 0.799283 0.265293
0.180636 0.798398 0.266026
0.231785 0.797726 0.267552
0.274846 0.797116 0.269749
0.332860 0.798581 0.268498
0.386145 0.800290 0.266789
0.436896 0.802152 0.264897
0.486488 0.804196 0.262974
0.535332 0.806699 0.262455
0.583948 0.809598 0.261814
0.632441 0.812894 0.262791
0.680598 0.816403 0.264347
0.727596 0.819760 0.265507
0.772915 0.822873 0.267002
0.816068 0.825711 0.267216
0.856840 0.828275 0.267216
0.894713 0.830838 0.266484
0.931701 0.836027 0.278294
0.959899 0.837919 0.298528
0.979583 0.837552 0.314488
0.998352 0.838468 0.332433
1.000000 0.840604 0.353796
1.000000 0.844022 0.379309
0.000000 0.830533 0.299748
0.000000 0.831357 0.301213
0.000000 0.831907 0.302800
0.000000 0.831968 0.303075
0.000000 0.831754 0.303136
0.000000 0.831388 0.303319
0.004425 0.830961 0.303960
0.126345 0.830533 0.304143
0.176944 0.830259 0.305394
0.218814 0.830045 0.306981
0.256504 0.829801 0.308812
0.292576 0.829496 0.310796
0.326329 0.829160 0.313024
0.366064 0.829282 0.314092
0.413764 0.830594 0.313176
0.460121 0.831876 0.312016
0.505730 0.833341 0.311101
0.550774 0.835050 0.310521
0.596399 0.837156 0.310826
0.641871 0.839658 0.312627
0.687037 0.842313 0.314916
0.731319 0.845060 0.317540
0.774105 0.847654 0.319707
0.814908 0.850156 0.322393
0.853574 0.852506 0.324529
0.889525 0.854887 0.326452
0.922881 0.857389 0.328130
0.955505 0.862394 0.340246
0.981292 0.864988 0.363043
0.998657 0.865354 0.379919
1.000000 0.866758 0.399756
1.000000 0.869200 0.422858
0.157076 0.859098 0.344884
0.161410 0.859525 0.345892
0.168032 0.859648 0.346441
0.176547 0.859556 0.346471
0.188876 0.859312 0.346502
0.205234 0.858854 0.346563
0.223636 0.858427 0.346593
0.245396 0.857939 0.347112
0.268864 0.857481 0.347662
0.294224 0.857145 0.349065
0.320836 0.856779 0.350591
0.348028 0.856474 0.352453
0.375586 0.856138 0.354711
0.403113 0.855589 0.356664
0.443397 0.856260 0.356725
0.485145 0.857115 0.355962
0.526574 0.858091 0.355505
0.568383 0.859281 0.355138
0.610498 0.860807 0.356054
0.652766 0.862730 0.358068
0.694759 0.864775 0.361120
0.736110 0.866850 0.363897
0.775937 0.868833 0.366979
0.814054 0.870756 0.369909
0.850004 0.872618 0.372351
0.883513 0.874449 0.374701
0.914855 0.876432 0.377173
0.944060 0.878569 0.379675
0.973175 0.883238 0.390539
0.996033 0.885985 0.414984
1.000000 0.887236 0.434852
1.000000 0.889067 0.456611
0.276249 0.882780 0.387915
0.278202 0.883024 0.388495
0.281956 0.883238 0.389288
0.287144 0.883299 0.389746
0.295201 0.883360 0.390723
0.305974 0.883513 0.391821
0.321630 0.884001 0.394324
0.340307 0.884642 0.397894
0.361028 0.885496 0.401770
0.384009 0.886473 0.406714
0.408850 0.887480 0.412299
0.433722 0.888396 0.417884
0.458869 0.889067 0.422950
0.483742 0.889464 0.428046
0.512230 0.889860 0.431739
0.548150 0.890654 0.432807
0.583886 0.891325 0.433417
0.619989 0.892088 0.434272
0.656703 0.893095 0.436194
0.693660 0.894255 0.439063
0.730312 0.895598 0.442451
0.766354 0.896971 0.445869
0.800748 0.898283 0.449531
0.833555 0.899596 0.452827
0.864378 0.900847 0.455970
0.893462 0.902159 0.458412
0.920745 0.903563 0.461738
0.946441 0.905089 0.464515
0.970489 0.906828 0.467903
0.994629 0.910826 0.477821
1.000000 0.913146 0.502251
1.000000 0.914702 0.523522
0.406989 0.912322 0.460182
0.407263 0.912322 0.460060
0.408362 0.912230 0.459815
0.410651 0.912047 0.459754
0.414466 0.911833 0.459602
0.420111 0.911559 0.459846
0.427832 0.911345 0.460365
0.437781 0.911162 0.461280
0.450263 0.911040 0.462867
0.464454 0.911009 0.464851
0.480598 0.910948 0.467689
0.498146 0.910918 0.470619
0.516594 0.910826 0.473610
0.536004 0.910582 0.476844
