20 Preset/Car Style/【3】LUT video cho PR-AE-FCPX/Tone  (15).cube
# Created by Adobe Lightroom plugin Export LUT (1.24.0)
# www.johnrellis.com/lightroom/exportlut.htm
# Preset: 16汽车质感（素材江湖）
# Color profile: E:\lut插件\exportlut.1.24\exportlut.lrplugin\color profiles\Rec709gamma2.4.icc
LUT_3D_SIZE 8
DOMAIN_MIN 0.000000 0.000000 0.000000
DOMAIN_MAX 0.903226 0.903226 0.903226
0.059113 0.109499 0.121248
0.093751 0.110384 0.122286
0.160403 0.111543 0.125154
0.288304 0.097261 0.128176
0.470161 0.000000 0.129763
0.681453 0.000000 0.128389
0.944305 0.000000 0.123629
1.000000 0.000000 0.138796
0.070924 0.119631 0.130861
0.063233 0.123323 0.126284
0.148104 0.124453 0.127840
0.262486 0.121035 0.129915
0.434302 0.069123 0.131319
0.641108 0.000000 0.130343
0.887755 0.000000 0.124117
1.000000 0.000000 0.129946
0.097017 0.172274 0.176761
0.099031 0.173373 0.176089
0.026032 0.190097 0.142641
0.270176 0.211978 0.131533
0.426215 0.186404 0.137911
0.664790 0.186221 0.132113
0.919249 0.203403 0.124514
1.000000 0.261875 0.145266
0.135500 0.344396 0.314000
0.137484 0.342168 0.309758
0.000000 0.360571 0.289769
0.000000 0.417639 0.175753
0.478889 0.499428 0.000000
0.693843 0.411933 0.126314
0.896452 0.415991 0.137514
1.000000 0.445686 0.165743
0.263828 0.628046 0.560662
0.264591 0.627008 0.557549
0.281163 0.633326 0.555505
0.000000 0.660975 0.476478
0.000000 0.671656 0.258915
0.559380 0.698299 0.000000
0.851408 0.671290 0.000000
0.986358 0.584588 0.204501
0.572168 0.815946 0.766262
0.596796 0.823941 0.776242
0.603113 0.825132 0.774472
0.564813 0.831144 0.756313
0.342565 0.843839 0.654597
0.178134 0.851072 0.450782
0.669459 0.855467 0.292241
0.946777 0.847837 0.298680
0.804135 0.880003 0.859068
0.806638 0.880552 0.859709
0.806516 0.880400 0.858671
0.809293 0.880797 0.857725
0.763333 0.884855 0.838682
0.667872 0.894621 0.783261
0.583215 0.903532 0.659144
0.719722 0.903502 0.511345
0.876036 0.900114 0.887785
0.876036 0.900114 0.887724
0.876738 0.900267 0.887724
0.878477 0.900755 0.887907
0.868498 0.899657 0.883085
0.851896 0.902892 0.874693
0.822690 0.907774 0.854490
0.785458 0.913054 0.808988
0.045014 0.109651 0.136263
0.082582 0.109621 0.136568
0.158450 0.107271 0.136507
0.265934 0.101625 0.141817
0.436591 0.000000 0.145357
0.636011 0.000000 0.147250
0.867948 0.000000 0.148043
1.000000 0.000000 0.153902
0.072755 0.120241 0.135744
0.091951 0.123720 0.137087
0.150179 0.125856 0.139864
0.259922 0.121096 0.143343
0.425605 0.070832 0.146304
0.626337 0.000000 0.147951
0.839994 0.000000 0.147219
1.000000 0.000000 0.149050
0.115816 0.169528 0.179721
0.117891 0.170962 0.179355
0.094697 0.184207 0.155428
0.260868 0.193637 0.149416
0.411627 0.181918 0.152041
0.620996 0.172671 0.151858
0.841917 0.155917 0.149325
1.000000 0.200473 0.155459
0.161990 0.314824 0.296818
0.163638 0.315312 0.295354
0.129946 0.331914 0.286137
0.000000 0.362951 0.187594
0.426062 0.423316 0.112734
0.606226 0.340185 0.158755
0.814267 0.358923 0.155184
0.995819 0.397589 0.162814
0.274418 0.603845 0.543481
0.273167 0.599786 0.537774
0.280430 0.600061 0.529839
0.000000 0.614954 0.454841
0.000000 0.617639 0.255589
0.528618 0.651881 0.045838
0.812955 0.628748 0.100130
0.963684 0.557824 0.201266
0.540398 0.798093 0.747158
0.543664 0.799069 0.747463
0.553246 0.801755 0.746944
0.531548 0.810636 0.734951
0.309636 0.825772 0.636622
0.156588 0.837278 0.442756
0.662867 0.844480 0.289250
0.940215 0.836545 0.286473
0.787625 0.875303 0.852750
0.784878 0.874662 0.851499
0.784146 0.874357 0.850034
0.789975 0.875425 0.849821
0.748806 0.880888 0.832578
0.644831 0.891234 0.772610
0.548119 0.899443 0.634913
0.706538 0.898711 0.480629
0.872190 0.898711 0.886076
0.873075 0.898985 0.886381
0.873655 0.899107 0.886320
0.875608 0.899657 0.886564
0.873960 0.900511 0.885313
0.855833 0.902983 0.876341
0.823789 0.907347 0.855039
0.785824 0.912596 0.809201
0.000000 0.110262 0.194705
0.000000 0.110262 0.194339
0.119936 0.106935 0.191958
0.290166 0.010132 0.207218
0.480995 0.000000 0.204868
0.699794 0.000000 0.204318
0.914611 0.000000 0.232639
1.000000 0.000000 0.250736
0.000000 0.124819 0.196567
0.008331 0.121004 0.195773
0.125643 0.114656 0.193057
0.288945 0.057618 0.199649
0.472175 0.000000 0.198276
0.674342 0.000000 0.214969
0.887785 0.000000 0.227085
1.000000 0.000000 0.243198
0.102876 0.168948 0.198032
0.118135 0.171450 0.198337
0.166690 0.180301 0.197574
0.289342 0.184543 0.203647
0.460426 0.182132 0.212924
0.670985 0.166354 0.223941
0.879149 0.149905 0.233890
1.000000 0.204807 0.249790
0.222904 0.321813 0.322423
0.234958 0.325902 0.325200
0.251377 0.338079 0.328557
0.186007 0.364355 0.257877
0.466468 0.391058 0.226566
0.647974 0.355230 0.239841
0.856199 0.381537 0.247501
1.000000 0.415320 0.265019
0.361273 0.592798 0.555718
0.362341 0.593194 0.554314
0.371527 0.599115 0.552758
0.309087 0.617090 0.522148
0.094636 0.624018 0.345922
0.600000 0.651148 0.236362
0.821744 0.597009 0.255222
0.974151 0.569055 0.291173
0.584710 0.791928 0.754543
0.589136 0.793698 0.755795
0.595422 0.795743 0.754513
0.609888 0.800717 0.753506
0.446143 0.813260 0.672663
0.335088 0.824979 0.499519
0.706966 0.835538 0.376257
0.941436 0.821988 0.379644
0.808225 0.876036 0.858518
0.806394 0.875517 0.857603
0.803738 0.874754 0.855589
0.805783 0.875090 0.854337
0.781857 0.878416 0.843381
0.700618 0.887449 0.796902
0.622583 0.896208 0.686824
0.752468 0.896971 0.559442
0.876646 0.898985 0.887572
0.876280 0.898863 0.887358
0.876677 0.898955 0.887236
0.879454 0.899809 0.887907
0.880522 0.900389 0.887633
0.865873 0.902708 0.880522
0.839567 0.906462 0.862974
0.807248 0.910979 0.824887
0.000000 0.110628 0.316838
0.000000 0.110414 0.319066
0.000000 0.107698 0.309483
0.184665 0.081575 0.304051
0.448219 0.000000 0.346166
0.691066 0.000000 0.349004
0.919341 0.000000 0.342779
1.000000 0.000000 0.334264
0.000000 0.120363 0.328435
0.000000 0.119356 0.326757
0.000000 0.114534 0.316655
0.191531 0.087312 0.310307
0.458808 0.000000 0.345647
0.696864 0.000000 0.344396
0.917967 0.000000 0.338140
1.000000 0.000000 0.337011
0.000000 0.179904 0.337591
0.000000 0.178347 0.335241
0.000000 0.157687 0.325566
0.212070 0.118227 0.315190
0.501488 0.000000 0.331670
0.731350 0.000000 0.341405
0.948669 0.000000 0.357610
1.000000 0.198245 0.395300
0.136324 0.305394 0.358465
0.158877 0.306645 0.356268
0.228641 0.314244 0.349767
0.314397 0.324590 0.335241
0.486458 0.339178 0.346532
0.679316 0.353918 0.359930
0.878386 0.374456 0.376135
1.000000 0.412299 0.396887
0.407294 0.586511 0.577386
0.410986 0.584649 0.574578
0.439582 0.581659 0.568414
0.475044 0.596399 0.572656
0.379339 0.605798 0.459174
0.673579 0.613947 0.394141
0.840696 0.556573 0.402380
0.986511 0.584710 0.425147
0.661677 0.792111 0.776608
0.676967 0.799771 0.784543
0.677363 0.799710 0.781369
0.688991 0.804990 0.781521
0.639734 0.812070 0.751888
0.515129 0.815763 0.602472
0.784421 0.824857 0.503990
0.943908 0.790066 0.503502
0.828733 0.875425 0.864073
0.829892 0.875761 0.864347
0.831662 0.876341 0.864317
0.835142 0.877501 0.864317
0.836301 0.878874 0.862882
0.781216 0.883696 0.833433
0.709438 0.890105 0.750362
0.808591 0.891630 0.653132
0.885771 0.900298 0.890990
0.885771 0.900298 0.890929
0.885924 0.900328 0.890776
0.886809 0.900664 0.890715
0.887938 0.901061 0.890562
0.879942 0.902403 0.886503
0.859861 0.905303 0.873350
0.836332 0.908873 0.845670
0.000000 0.109987 0.499031
0.000000 0.109529 0.500664
0.000000 0.105592 0.488777
0.000000 0.090150 0.468696
0.272740 0.000000 0.462135
0.633661 0.000000 0.543511
0.883421 0.000000 0.544152
1.000000 0.000000 0.527581
0.000000 0.117952 0.508721
0.000000 0.117220 0.510643
0.000000 0.112428 0.498665
0.000000 0.095552 0.473274
0.278447 0.000000 0.467720
0.641871 0.000000 0.544549
0.887266 0.000000 0.539788
1.000000 0.000000 0.523125
0.000000 0.178164 0.522972
0.000000 0.171420 0.520806
0.000000 0.149325 0.507286
0.000000 0.127138 0.487160
0.295140 0.000000 0.473487
0.651423 0.000000 0.524712
0.888823 0.000000 0.513573
1.000000 0.000000 0.501976
0.000000 0.312993 0.558282
0.000000 0.312444 0.554498
0.000000 0.309728 0.538537
0.052003 0.263157 0.518791
0.356817 0.165805 0.497963
0.709285 0.000000 0.505241
0.910063 0.000000 0.501946
1.000000 0.215122 0.501854
0.195865 0.506340 0.573205
0.220737 0.508141 0.572137
0.294682 0.511131 0.563714
0.389471 0.513054 0.543938
0.472908 0.502098 0.502983
0.660304 0.515679 0.513359
0.851255 0.535790 0.529198
0.987701 0.564355 0.548547
0.600610 0.742000 0.742245
0.604761 0.742947 0.742641
0.610681 0.739742 0.737118
0.632349 0.737728 0.731197
0.662531 0.746304 0.731838
0.591394 0.763363 0.646815
0.832395 0.776730 0.588861
0.943633 0.717342 0.588769
0.826749 0.869352 0.863096
0.826139 0.868711 0.862364
0.828061 0.867674 0.861082
0.835782 0.869535 0.861997
0.842435 0.872496 0.862913
0.821897 0.875151 0.851072
0.754299 0.878630 0.782834
0.852903 0.879759 0.703670
0.887694 0.898772 0.891264
0.887572 0.898741 0.891173
0.887602 0.898772 0.890959
0.890227 0.899870 0.891783
0.891630 0.900511 0.891814
0.891600 0.901366 0.891173
0.874571 0.903319 0.880980
0.851896 0.905974 0.856474
0.000000 0.105715 0.717037
0.000000 0.104646 0.717006
0.000000 0.099031 0.703182
0.000000 0.068086 0.682429
0.000000 0.000000 0.661402
0.398138 0.000000 0.654902
0.792416 0.000000 0.721584
1.000000 0.000000 0.743923
0.000000 0.113863 0.702571
0.000000 0.112734 0.700038
0.000000 0.107271 0.688960
0.000000 0.087098 0.672114
0.000000 0.000000 0.646754
0.389899 0.000000 0.641108
0.784512 0.000000 0.711116
1.000000 0.000000 0.732601
0.000000 0.163790 0.726040
0.000000 0.156771 0.723751
0.000000 0.143099 0.716060
0.000000 0.123354 0.689906
0.000000 0.037140 0.659846
0.405707 0.000000 0.650202
0.827390 0.000000 0.728573
1.000000 0.000000 0.721462
0.000000 0.320409 0.753506
0.000000 0.316960 0.749325
0.000000 0.305791 0.740169
0.000000 0.243961 0.732845
0.000000 0.181918 0.705653
0.465034 0.000000 0.685756
0.895720 0.000000 0.747311
1.000000 0.000000 0.703487
0.000000 0.508354 0.760342
0.000000 0.507805 0.758267
0.000000 0.506004 0.750881
0.000000 0.497993 0.731594
0.274083 0.423865 0.705531
0.524407 0.282872 0.679835
0.910552 0.171206 0.690059
1.000000 0.353491 0.663966
0.395819 0.698909 0.765316
0.414923 0.703731 0.768154
0.454902 0.704036 0.762509
0.518395 0.703792 0.750790
0.588556 0.697536 0.726711
0.659785 0.682429 0.684810
0.841428 0.706020 0.706874
0.945678 0.728603 0.725673
0.827176 0.862913 0.863645
0.829831 0.863951 0.864439
0.833036 0.864683 0.864591
0.838743 0.865934 0.864714
0.845823 0.866545 0.863859
0.853666 0.867796 0.862699
0.808804 0.867033 0.821866
0.900328 0.866117 0.776394
0.887785 0.898131 0.892393
0.887724 0.898009 0.892241
0.888884 0.898070 0.892210
0.892302 0.898833 0.892790
0.895598 0.899657 0.893217
0.897551 0.900755 0.893431
0.891478 0.901946 0.889647
0.871519 0.903227 0.870024
0.000000 0.099977 0.857053
0.000000 0.098543 0.857664
0.000000 0.090578 0.853300
0.000000 0.035401 0.845914
0.000000 0.000000 0.830381
0.000000 0.000000 0.804807
0.528313 0.000000 0.801022
0.883146 0.000000 0.829984
0.000000 0.107240 0.851316
0.000000 0.106050 0.852323
0.000000 0.098817 0.848112
0.000000 0.060090 0.838743
0.000000 0.000000 0.822202
0.000000 0.000000 0.794430
0.515770 0.000000 0.788571
0.872038 0.000000 0.819211
0.000000 0.142153 0.859129
0.000000 0.138308 0.858213
0.000000 0.131777 0.852995
0.000000 0.112642 0.843565
0.000000 0.009491 0.826108
0.000000 0.000000 0.800015
0.531914 0.000000 0.797574
0.910643 0.000000 0.836728
0.000000 0.289952 0.868406
0.000000 0.281193 0.866392
0.000000 0.248508 0.861997
0.000000 0.204501 0.854978
0.000000 0.160555 0.839872
0.083162 0.000000 0.817502
0.564691 0.000000 0.812222
0.966857 0.000000 0.855924
0.000000 0.472602 0.867887
0.000000 0.469581 0.866148
0.000000 0.461372 0.862089
0.000000 0.441352 0.856291
0.000000 0.345922 0.846799
0.229007 0.246830 0.826078
0.603204 0.000000 0.814633
1.000000 0.000000 0.862028
0.000000 0.674220 0.869139
0.000000 0.674678 0.868833
0.000000 0.674922 0.867155
0.193210 0.672938 0.863401
0.366705 0.659968 0.853208
0.464820 0.583062 0.841825
0.696162 0.416114 0.830503
1.000000 0.421668 0.819974
0.680323 0.829923 0.866514
0.686549 0.830961 0.866667
0.702480 0.832395 0.865690
0.731594 0.835142 0.863706
0.764523 0.836912 0.859220
0.795560 0.835019 0.849760
0.815427 0.817014 0.820981
0.902861 0.828824 0.831083
0.886717 0.894194 0.891478
0.887144 0.894377 0.891600
0.889189 0.895323 0.892210
0.891966 0.896452 0.892882
0.895384 0.897887 0.893675
0.899290 0.899351 0.894408
0.902983 0.900664 0.894774
0.888640 0.900206 0.881743
0.000000 0.096010 0.925628
0.000000 0.094697 0.925658
0.000000 0.084749 0.924071
0.000000 0.025727 0.922210
0.000000 0.000000 0.918639
0.000000 0.000000 0.912566
0.303044 0.000000 0.903655
0.668666 0.000000 0.903105
0.000000 0.102480 0.924224
0.000000 0.100862 0.924285
0.000000 0.093019 0.923064
0.000000 0.045441 0.920958
0.000000 0.000000 0.917266
0.000000 0.000000 0.911040
0.296849 0.000000 0.901213
0.663905 0.000000 0.900145
0.000000 0.129366 0.924346
0.000000 0.128267 0.924193
0.000000 0.122042 0.922789
0.000000 0.103761 0.921752
0.000000 0.000000 0.917662
0.000000 0.000000 0.910857
0.294285 0.000000 0.901183
0.667170 0.000000 0.900023
0.000000 0.231662 0.924681
0.000000 0.226108 0.924712
0.000000 0.200107 0.924041
0.000000 0.175418 0.922576
0.000000 0.140749 0.919188
0.000000 0.000000 0.913329
0.300175 0.000000 0.904417
0.680873 0.000000 0.902800
0.000000 0.414496 0.921965
0.000000 0.413397 0.922026
0.000000 0.403632 0.921294
0.000000 0.355688 0.921263
0.000000 0.280247 0.919799
0.000000 0.210513 0.914794
0.319493 0.000000 0.906950
0.703090 0.000000 0.905089
0.000000 0.596582 0.916472
0.000000 0.595331 0.916075
0.000000 0.591577 0.914641
0.000000 0.584161 0.913085
0.000000 0.566064 0.911650
0.016754 0.464881 0.914122
0.414374 0.336767 0.912322
0.756558 0.000000 0.910674
0.477180 0.788144 0.903410
0.481788 0.788235 0.903227
0.502800 0.788876 0.902586
0.545983 0.791073 0.901488
0.599969 0.792416 0.899718
0.657374 0.788663 0.896544
0.688441 0.739773 0.895720
0.822263 0.577935 0.899992
0.834531 0.881926 0.895018
0.835447 0.882048 0.894957
0.840360 0.882933 0.894804
0.850340 0.884886 0.894652
0.862669 0.887297 0.894285
0.875425 0.889616 0.893523
0.886656 0.890684 0.891478
0.890593 0.883299 0.881224
