20 Preset/Car Style/【3】LUT video cho PR-AE-FCPX/Tone  (11).cube
# Created by Adobe Lightroom plugin Export LUT (1.24.0)
# www.johnrellis.com/lightroom/exportlut.htm
# Preset: 12汽车质感（素材江湖）
# Color profile: E:\lut插件\exportlut.1.24\exportlut.lrplugin\color profiles\Rec709gamma2.4.icc
LUT_3D_SIZE 32
DOMAIN_MIN 0.0 0.0 0.0
DOMAIN_MAX 1.0 1.0 1.0
0.109957 0.130159 0.134615
0.109957 0.130159 0.134615
0.111635 0.130007 0.134615
0.127108 0.129488 0.134432
0.149386 0.128786 0.134066
0.174624 0.127443 0.133608
0.198398 0.127230 0.134585
0.221042 0.127779 0.136355
0.243809 0.127749 0.137819
0.269200 0.127871 0.139651
0.300511 0.126589 0.140902
0.340734 0.123232 0.141787
0.388586 0.116335 0.142641
0.441352 0.106508 0.142580
0.496345 0.091096 0.142885
0.550744 0.047395 0.142977
0.602106 0.000000 0.143252
0.648402 0.000000 0.143740
0.690150 0.000000 0.144900
0.728786 0.000000 0.146120
0.764553 0.000000 0.147921
0.804166 0.000000 0.150759
0.845060 0.000000 0.153811
0.884337 0.000000 0.156619
0.922667 0.000000 0.159518
0.959533 0.000000 0.162325
0.994751 0.000000 0.166018
1.000000 0.000000 0.170626
1.000000 0.000000 0.177798
1.000000 0.000000 0.186984
1.000000 0.000000 0.199893
1.000000 0.000000 0.217319
0.109957 0.130159 0.134615
0.109957 0.130159 0.134615
0.112551 0.130190 0.134585
0.127382 0.130465 0.134310
0.149752 0.129519 0.133974
0.174136 0.128542 0.133700
0.197482 0.128481 0.134951
0.219638 0.129152 0.136477
0.241825 0.129335 0.137942
0.266789 0.129152 0.139620
0.297398 0.127718 0.141176
0.336614 0.124605 0.141665
0.383093 0.118990 0.142336
0.435218 0.110048 0.143038
0.489845 0.096193 0.142977
0.544457 0.062898 0.143130
0.596307 0.003754 0.143526
0.643091 0.000000 0.143740
0.685420 0.000000 0.144900
0.724178 0.000000 0.146365
0.759854 0.000000 0.148013
0.798825 0.000000 0.150179
0.838010 0.000000 0.153170
0.875883 0.000000 0.155917
0.912993 0.000000 0.158358
0.949401 0.000000 0.161318
0.984863 0.000000 0.164797
1.000000 0.000000 0.169131
1.000000 0.000000 0.175174
1.000000 0.000000 0.183566
1.000000 0.000000 0.195926
1.000000 0.000000 0.211856
0.109041 0.133486 0.134188
0.109590 0.133455 0.134188
0.115694 0.134859 0.133913
0.129580 0.135164 0.133639
0.151461 0.134249 0.133547
0.174594 0.134401 0.134401
0.197116 0.134493 0.135653
0.219120 0.134432 0.137240
0.241123 0.134188 0.138766
0.265873 0.134127 0.140200
0.296086 0.132967 0.141299
0.334630 0.130373 0.142245
0.380682 0.125277 0.142947
0.432013 0.118441 0.142947
0.486244 0.106935 0.143343
0.540551 0.090913 0.143252
0.592615 0.046021 0.143374
0.639734 0.000000 0.143832
0.682155 0.000000 0.144747
0.721157 0.000000 0.146273
0.757198 0.000000 0.147707
0.796689 0.000000 0.150149
0.834928 0.000000 0.153017
0.871916 0.000000 0.156008
0.908293 0.000000 0.158419
0.944213 0.000000 0.160739
0.979583 0.000000 0.163912
1.000000 0.000000 0.168185
1.000000 0.000000 0.174105
1.000000 0.000000 0.182254
1.000000 0.000000 0.193729
1.000000 0.000000 0.209415
0.108095 0.146273 0.136507
0.109743 0.146120 0.136721
0.115084 0.147005 0.136751
0.131014 0.149874 0.134340
0.152316 0.148257 0.134890
0.176028 0.145541 0.136385
0.197818 0.144594 0.137514
0.219272 0.144228 0.138949
0.241245 0.143557 0.140017
0.266178 0.142794 0.141299
0.296361 0.141726 0.142397
0.334752 0.140108 0.143038
0.379980 0.137087 0.143587
0.430732 0.131777 0.143587
0.483986 0.123476 0.143709
0.537285 0.113100 0.143557
0.588617 0.096407 0.143801
0.635096 0.067109 0.144015
0.677333 0.011933 0.145052
0.716030 0.000000 0.146120
0.752041 0.000000 0.147646
0.791806 0.000000 0.150057
0.828611 0.000000 0.152560
0.864866 0.000000 0.155093
0.901396 0.000000 0.157656
0.938384 0.000000 0.160403
0.975097 0.000000 0.163394
1.000000 0.000000 0.167666
1.000000 0.000000 0.173648
1.000000 0.000000 0.182101
1.000000 0.000000 0.193057
1.000000 0.000000 0.208591
0.111055 0.164034 0.142641
0.112184 0.164309 0.143038
0.118044 0.164065 0.143893
0.129519 0.166323 0.142000
0.151278 0.169284 0.138521
0.174258 0.165713 0.138582
0.196658 0.161776 0.139773
0.219028 0.157137 0.140902
0.240970 0.155795 0.141878
0.265568 0.155398 0.142885
0.295933 0.154635 0.143923
0.333806 0.153811 0.144503
0.378698 0.152590 0.144900
0.428656 0.149569 0.144961
0.481544 0.144686 0.144686
0.535058 0.138033 0.144350
0.586358 0.128115 0.144381
0.633326 0.115999 0.144320
0.675471 0.100954 0.144839
0.714290 0.079286 0.145968
0.751675 0.025849 0.147585
0.790890 0.000000 0.149966
0.826596 0.000000 0.152468
0.862425 0.000000 0.155215
0.898894 0.000000 0.157626
0.936004 0.000000 0.159945
0.972717 0.000000 0.163180
1.000000 0.000000 0.167330
1.000000 0.000000 0.173312
1.000000 0.000000 0.181735
1.000000 0.000000 0.193118
1.000000 0.000000 0.207980
0.114260 0.183047 0.149508
0.115480 0.183139 0.149874
0.121645 0.182895 0.150668
0.130678 0.183688 0.151034
0.147005 0.186374 0.147707
0.172305 0.189059 0.142916
0.195438 0.184695 0.142489
0.218235 0.179568 0.143374
0.241825 0.174563 0.144503
0.268223 0.171267 0.145480
0.299535 0.171145 0.146120
0.338018 0.171633 0.146395
0.383093 0.171847 0.146517
0.432929 0.170840 0.145846
0.485634 0.168704 0.145876
0.538415 0.164584 0.144930
0.589197 0.158572 0.144503
0.635431 0.151064 0.144350
0.677485 0.141054 0.145296
0.715755 0.130465 0.146029
0.755825 0.117494 0.147951
0.793668 0.102480 0.150088
0.869810 0.064088 0.155306
0.909575 0.000000 0.158633
0.947936 0.000000 0.162264
0.984222 0.000000 0.166384
1.000000 0.000000 0.171939
1.000000 0.000000 0.179049
1.000000 0.000000 0.188479
1.000000 0.000000 0.200473
1.000000 0.000000 0.215915
1.000000 0.000000 0.234409
0.119936 0.206332 0.159274
0.121431 0.206271 0.159274
0.127016 0.206058 0.160372
0.136538 0.205844 0.161990
0.149569 0.207675 0.159701
0.169863 0.210208 0.155673
0.197757 0.212863 0.150149
0.221897 0.207736 0.148836
0.248203 0.203616 0.148959
0.278935 0.200229 0.149386
0.316228 0.197024 0.148959
0.359228 0.196780 0.148501
0.406287 0.198337 0.147890
0.456672 0.198856 0.147005
0.508476 0.198123 0.145907
0.558984 0.195804 0.145113
0.606836 0.191501 0.144503
0.650294 0.185702 0.144747
0.690242 0.178836 0.145327
0.730983 0.171084 0.146578
0.774655 0.163546 0.148440
0.815091 0.153750 0.151369
0.855222 0.143130 0.154299
0.896330 0.130037 0.157717
0.937011 0.114595 0.161135
0.974823 0.096986 0.165194
1.000000 0.062226 0.170809
1.000000 0.023102 0.177523
1.000000 0.003784 0.187015
1.000000 0.009369 0.198734
1.000000 0.058350 0.213077
1.000000 0.108827 0.231083
0.127016 0.226932 0.168704
0.127932 0.226871 0.168673
0.133150 0.226841 0.169345
0.141695 0.226658 0.170809
0.153750 0.227512 0.171511
0.170047 0.230014 0.167880
0.193088 0.233127 0.162661
0.223331 0.236332 0.156466
0.248905 0.231998 0.154452
0.280827 0.230167 0.153353
0.319524 0.229435 0.152193
0.363561 0.228000 0.150912
0.412116 0.224552 0.149416
0.461524 0.225986 0.147677
0.511681 0.226841 0.146548
0.560693 0.226230 0.144930
0.606958 0.223362 0.144564
0.649409 0.219364 0.144137
0.690242 0.214389 0.144686
0.734371 0.209476 0.145754
0.774624 0.203220 0.148196
0.812833 0.196536 0.150881
0.851347 0.189151 0.153811
0.890990 0.181399 0.156863
0.930816 0.172396 0.160342
0.968383 0.163058 0.164981
1.000000 0.153689 0.170443
1.000000 0.144991 0.177340
1.000000 0.140810 0.186496
1.000000 0.140963 0.198428
1.000000 0.148745 0.213260
1.000000 0.163760 0.230930
0.132204 0.253758 0.177859
0.132937 0.253727 0.178195
0.137606 0.253696 0.178470
0.146731 0.253605 0.179995
0.159426 0.253849 0.181827
0.174319 0.256138 0.179446
0.195804 0.259556 0.174594
0.223575 0.263615 0.168887
0.257877 0.268009 0.161501
0.286534 0.263859 0.158602
0.324865 0.264256 0.155612
0.369574 0.265507 0.152956
0.417853 0.265263 0.150057
0.468482 0.262242 0.147707
0.519036 0.257694 0.145846
0.566308 0.257542 0.144442
0.610712 0.255955 0.143374
0.653956 0.253178 0.143282
0.698024 0.250370 0.143954
0.738643 0.245945 0.145235
0.776272 0.241062 0.147280
0.812650 0.235416 0.150027
0.849973 0.229526 0.153079
0.888609 0.223728 0.156619
0.927550 0.217594 0.160220
0.964508 0.211063 0.165011
0.998932 0.204440 0.171145
1.000000 0.199100 0.178470
1.000000 0.195773 0.187961
1.000000 0.195560 0.200534
1.000000 0.200046 0.215213
1.000000 0.209567 0.233188
0.129427 0.290806 0.185489
0.131197 0.290745 0.185458
0.136568 0.290532 0.186069
0.147189 0.290837 0.186954
0.161837 0.290684 0.188724
0.178836 0.291722 0.189242
0.201358 0.294957 0.184604
0.229374 0.299077 0.178958
0.263218 0.303716 0.171695
0.301915 0.308476 0.163241
0.332982 0.303014 0.159182
0.374426 0.303319 0.154574
0.422309 0.305425 0.150454
0.472267 0.305058 0.146670
0.522698 0.301946 0.143893
0.571099 0.295232 0.142092
0.620600 0.290837 0.141299
0.665064 0.289220 0.141238
0.705898 0.286229 0.142153
0.743801 0.282322 0.143526
0.779110 0.277409 0.146090
0.813199 0.272160 0.149294
0.848142 0.266972 0.152193
0.884276 0.261723 0.155886
0.920928 0.256596 0.159792
0.956664 0.251469 0.164034
0.990845 0.246525 0.170626
1.000000 0.242222 0.178134
1.000000 0.239506 0.188205
1.000000 0.239414 0.201144
1.000000 0.242100 0.216770
1.000000 0.249363 0.235508
0.118746 0.334783 0.190463
0.120272 0.334874 0.190707
0.127718 0.335058 0.190860
0.140414 0.335393 0.192111
0.158785 0.336034 0.193729
0.180728 0.336736 0.196078
0.206271 0.339422 0.193027
0.236637 0.343481 0.186679
0.271580 0.347967 0.179538
0.311681 0.352667 0.170382
0.355200 0.357214 0.159548
0.387915 0.350469 0.155001
0.430335 0.348119 0.149020
0.479652 0.349706 0.144045
0.533165 0.350439 0.139315
0.583490 0.346777 0.136782
0.629908 0.339055 0.136385
0.672786 0.328222 0.137667
0.711482 0.321782 0.139223
0.746944 0.317479 0.141238
0.780484 0.312322 0.144594
0.813443 0.307378 0.148074
0.847593 0.302678 0.151492
0.882994 0.298528 0.155489
0.919097 0.294224 0.160128
0.954406 0.289952 0.165408
0.988220 0.286137 0.172152
1.000000 0.282719 0.180789
1.000000 0.280522 0.191623
1.000000 0.280278 0.205661
1.000000 0.282628 0.222171
1.000000 0.288212 0.240909
0.092470 0.388617 0.195071
0.094972 0.388617 0.195193
0.108003 0.388952 0.195834
0.126864 0.389288 0.196963
0.152132 0.390021 0.198825
0.179904 0.391150 0.201633
0.210117 0.393072 0.203037
0.243992 0.396429 0.196017
0.282017 0.400244 0.187167
0.323125 0.404334 0.177188
0.367651 0.408209 0.165133
0.417823 0.415167 0.149996
0.489021 0.436408 0.135775
0.530785 0.427649 0.130953
0.580499 0.424933 0.126711
0.626307 0.418463 0.125917
0.668971 0.408698 0.127352
0.708980 0.396551 0.131197
0.746120 0.382452 0.135958
0.781735 0.366400 0.142489
0.814328 0.361028 0.147189
0.847318 0.355932 0.152529
0.881285 0.351446 0.157687
0.915770 0.347204 0.163882
0.949371 0.343359 0.170443
0.981323 0.339300 0.178561
1.000000 0.335790 0.187686
1.000000 0.332586 0.198489
1.000000 0.330449 0.210971
1.000000 0.330083 0.225803
1.000000 0.332006 0.242924
1.000000 0.337224 0.263035
0.016236 0.459052 0.206363
0.023896 0.459022 0.206485
0.072358 0.458778 0.207004
0.114656 0.458350 0.208408
0.149020 0.458015 0.210819
0.184787 0.458106 0.214115
0.221256 0.458869 0.218936
0.258457 0.463325 0.215488
0.300084 0.468513 0.205631
0.344976 0.474617 0.193454
0.394385 0.481178 0.179324
0.446723 0.487648 0.161624
0.501671 0.493233 0.138796
0.547967 0.489937 0.123751
0.581781 0.473152 0.122286
0.625788 0.466468 0.121096
0.666560 0.456886 0.123507
0.704433 0.444984 0.127413
0.740017 0.431464 0.133120
0.774166 0.416938 0.139071
0.807919 0.401740 0.145571
0.841825 0.388830 0.152163
0.874968 0.384588 0.158114
0.908843 0.380743 0.165103
0.942199 0.377234 0.172305
0.974243 0.373846 0.180911
1.000000 0.370672 0.190951
1.000000 0.367864 0.202426
1.000000 0.365942 0.215793
1.000000 0.365545 0.231296
1.000000 0.367041 0.249485
1.000000 0.371191 0.269993
0.079957 0.518456 0.230076
0.083803 0.518242 0.229923
0.107027 0.517754 0.230472
0.134981 0.517418 0.232303
0.168734 0.517327 0.235233
0.204440 0.517418 0.239322
0.241215 0.518120 0.245365
0.278691 0.519768 0.250340
0.315007 0.522393 0.239567
0.355840 0.525841 0.226993
0.400244 0.530053 0.212955
0.448463 0.534325 0.195682
0.499245 0.538048 0.174655
0.551232 0.540459 0.147799
0.597467 0.536278 0.125978
0.624537 0.513939 0.123812
0.662501 0.502800 0.124575
0.699153 0.491005 0.128481
0.733913 0.478126 0.134066
0.767514 0.464424 0.140322
0.800992 0.450690 0.146975
0.835416 0.436896 0.153750
0.870634 0.423072 0.160555
0.905333 0.414679 0.167910
0.938415 0.411597 0.176364
0.970275 0.408545 0.185916
1.000000 0.405615 0.196689
1.000000 0.403052 0.208865
1.000000 0.401190 0.222995
1.000000 0.400671 0.239445
1.000000 0.401831 0.258244
1.000000 0.405463 0.279484
0.158572 0.568658 0.266911
0.160555 0.568505 0.267063
0.169772 0.567926 0.267552
0.186862 0.567041 0.268650
0.210636 0.566217 0.271031
0.238895 0.565393 0.274815
0.270542 0.565240 0.280522
0.305089 0.565759 0.287846
0.337194 0.567315 0.284611
0.370672 0.569482 0.272618
0.408850 0.572473 0.259007
0.451484 0.575616 0.243503
0.496773 0.578332 0.224613
0.544121 0.579980 0.201297
0.592676 0.580041 0.171878
0.636774 0.574517 0.145663
0.660487 0.550042 0.139864
0.693812 0.535668 0.138705
0.728023 0.523217 0.142855
0.761379 0.510307 0.148959
0.794858 0.497627 0.154452
0.829252 0.485420 0.160647
0.864469 0.473182 0.167178
0.900053 0.460883 0.174411
0.935210 0.447730 0.182589
0.967193 0.442847 0.192966
0.997314 0.440345 0.204288
1.000000 0.438148 0.218082
1.000000 0.436774 0.233707
1.000000 0.436683 0.251743
1.000000 0.438239 0.271946
1.000000 0.442237 0.295140
0.224643 0.608301 0.307591
0.225925 0.608392 0.308080
0.232364 0.608179 0.308904
0.244602 0.607904 0.310277
0.261692 0.607477 0.312718
0.284764 0.607263 0.317021
0.311192 0.607599 0.323369
0.341375 0.608545 0.331395
0.372930 0.609949 0.339300
0.398169 0.611597 0.328130
0.427802 0.613245 0.315129
0.461738 0.614649 0.299992
0.499123 0.615686 0.281498
0.539361 0.615656 0.259709
0.581872 0.614649 0.234195
0.626032 0.612238 0.202121
0.667628 0.605707 0.173861
0.689906 0.581353 0.164034
0.720394 0.565179 0.159884
0.753933 0.553399 0.164248
0.788205 0.542229 0.168734
0.823209 0.531456 0.174197
0.858976 0.520989 0.179843
0.894835 0.510521 0.187198
0.930175 0.499397 0.195163
0.964385 0.487465 0.204807
0.996551 0.475776 0.215793
1.000000 0.473884 0.230503
1.000000 0.472419 0.247074
1.000000 0.472053 0.265385
1.000000 0.473060 0.286351
1.000000 0.476295 0.309392
0.284306 0.641840 0.349248
0.285191 0.641840 0.349554
0.290166 0.641718 0.350408
0.298344 0.641596 0.351812
0.311589 0.641413 0.354498
0.329595 0.641352 0.358679
0.351385 0.641627 0.364050
0.376745 0.642267 0.371618
0.404486 0.643397 0.380865
0.427375 0.644770 0.378943
0.449805 0.645991 0.367193
0.476051 0.647272 0.353613
0.506310 0.648219 0.337530
0.540032 0.648341 0.317815
0.576776 0.647547 0.294957
0.616175 0.645686 0.267948
0.657496 0.642664 0.235569
0.697047 0.636011 0.207462
0.718898 0.612604 0.195010
0.747738 0.595758 0.186252
0.782315 0.585657 0.189609
0.817777 0.576257 0.193820
0.853696 0.567224 0.198978
0.889738 0.557946 0.205051
0.925048 0.548211 0.213230
0.959106 0.537926 0.222629
0.991363 0.527153 0.233890
1.000000 0.515801 0.246860
1.000000 0.507774 0.263005
1.000000 0.507286 0.282078
1.000000 0.508263 0.303777
1.000000 0.511254 0.327489
0.341253 0.675959 0.393164
0.342901 0.676204 0.393866
0.375494 0.696376 0.418952
0.381872 0.696223 0.420233
0.391485 0.696193 0.422522
0.404059 0.696101 0.425696
0.420386 0.696162 0.429969
0.439673 0.696651 0.435554
0.461494 0.697658 0.442817
0.485084 0.699123 0.450080
0.501335 0.700069 0.440406
0.520806 0.700801 0.428656
0.543389 0.700862 0.413947
0.569207 0.700191 0.396704
0.598230 0.698451 0.375372
0.630488 0.695796 0.350927
0.665492 0.691890 0.321721
0.703090 0.687098 0.287907
0.739528 0.678920 0.257694
0.759731 0.655177 0.241154
0.787472 0.637018 0.226047
0.822538 0.628077 0.227939
0.857755 0.619287 0.231540
0.892485 0.610132 0.236667
0.925933 0.600031 0.242466
0.957946 0.589593 0.250340
0.988128 0.578637 0.259800
1.000000 0.567193 0.271153
1.000000 0.556268 0.285252
1.000000 0.545830 0.301823
1.000000 0.542565 0.322301
1.000000 0.545098 0.346075
0.396063 0.716823 0.439063
0.399420 0.718746 0.441291
0.404211 0.720821 0.444007
0.411627 0.722713 0.447181
0.421241 0.724086 0.450599
0.432715 0.724697 0.453895
0.446509 0.725063 0.457465
0.462928 0.725368 0.462165
0.481941 0.726192 0.467964
0.502922 0.727382 0.475013
0.521080 0.728511 0.474067
0.537316 0.729152 0.464149
0.556359 0.729122 0.452033
0.578180 0.728695 0.437751
0.603143 0.727504 0.420996
0.630915 0.725551 0.401007
0.661433 0.722896 0.377234
0.695247 0.719417 0.349767
0.731777 0.715450 0.318578
0.767758 0.708370 0.289525
0.788266 0.686397 0.273472
0.815946 0.668696 0.255528
0.851102 0.661036 0.258183
0.885679 0.652827 0.262089
0.918700 0.643915 0.267826
0.950347 0.634119 0.274266
0.980163 0.623774 0.282902
1.000000 0.613214 0.294133
1.000000 0.602838 0.307500
1.000000 0.593042 0.323491
1.000000 0.584497 0.342351
1.000000 0.577325 0.362951
0.428992 0.747982 0.468574
0.431922 0.749935 0.470741
0.436530 0.752071 0.473335
0.442847 0.754086 0.476295
0.451270 0.755612 0.479347
0.461250 0.756344 0.482307
0.473274 0.756741 0.485481
0.487587 0.757076 0.489479
0.504143 0.757687 0.494362
0.523033 0.758572 0.500267
0.543420 0.760006 0.507164
0.557336 0.760311 0.498726
0.573602 0.760403 0.488594
0.592554 0.760037 0.476539
0.614160 0.759213 0.462776
0.638300 0.757748 0.446571
0.665309 0.755581 0.427558
0.694911 0.752926 0.405798
0.727443 0.749691 0.380529
0.762783 0.746120 0.350958
0.797757 0.739742 0.323461
0.818296 0.719295 0.307652
0.845914 0.702571 0.290257
0.879026 0.693812 0.290532
0.911772 0.685695 0.295171
0.942931 0.676539 0.301274
0.972168 0.666804 0.309056
0.999481 0.656703 0.319249
1.000000 0.646815 0.332158
1.000000 0.637446 0.347539
1.000000 0.629175 0.365606
1.000000 0.622126 0.385351
0.460121 0.779934 0.497414
0.462379 0.781643 0.499214
0.466316 0.783474 0.501396
0.471870 0.785153 0.504021
0.479011 0.786465 0.506737
0.487800 0.787045 0.509270
0.498512 0.787472 0.512200
0.511192 0.787716 0.515587
0.526299 0.788296 0.520043
0.543175 0.789029 0.525200
0.561639 0.790158 0.531365
0.577966 0.790860 0.531060
0.592157 0.790860 0.522362
0.608576 0.790585 0.512139
0.627405 0.790036 0.500725
0.648798 0.789151 0.487190
0.673091 0.788113 0.472297
0.700099 0.786709 0.455360
0.730037 0.785183 0.436408
0.762783 0.783505 0.414527
0.798123 0.781521 0.389868
0.833860 0.777096 0.366461
0.855802 0.759426 0.352514
0.882902 0.743862 0.337926
0.913573 0.733852 0.337499
0.943999 0.725521 0.344213
0.972137 0.716335 0.352789
0.998169 0.706630 0.363409
1.000000 0.697169 0.376349
1.000000 0.688197 0.391058
1.000000 0.680140 0.408240
1.000000 0.673213 0.426917
0.501518 0.820310 0.536126
0.502647 0.820951 0.536858
0.504845 0.821378 0.537774
0.508568 0.821744 0.538903
0.513848 0.821897 0.540276
0.520714 0.821744 0.541955
0.529717 0.821683 0.544182
0.540642 0.821744 0.546868
0.553857 0.822049 0.550591
0.569085 0.822690 0.555352
0.586023 0.823484 0.560845
0.604334 0.824430 0.567224
0.616754 0.824430 0.560113
0.630884 0.824155 0.551568
0.647150 0.823575 0.541466
0.665705 0.822721 0.530114
0.686488 0.821592 0.517449
0.709895 0.820218 0.502861
0.735653 0.818601 0.486458
0.764126 0.816709 0.468330
0.795041 0.814481 0.447547
0.828367 0.811948 0.424292
0.862089 0.807309 0.401740
0.884764 0.791592 0.387243
0.908415 0.774502 0.374090
0.935851 0.762631 0.371374
0.963500 0.753933 0.379553
0.989136 0.744717 0.389624
1.000000 0.735500 0.401740
1.000000 0.726650 0.415473
1.000000 0.718502 0.431403
1.000000 0.711299 0.449012
0.530663 0.846281 0.563104
0.531609 0.846738 0.563775
0.533593 0.847166 0.564630
0.536919 0.847440 0.565789
0.541466 0.847562 0.567071
0.547539 0.847532 0.568627
0.555779 0.847440 0.570733
0.565454 0.847440 0.573266
0.577356 0.847623 0.576837
0.591180 0.847990 0.581292
0.606592 0.848539 0.586450
0.623407 0.849180 0.592432
0.638025 0.849485 0.593133
0.649836 0.849424 0.585382
0.663630 0.849149 0.576532
0.679469 0.848692 0.566705
0.697719 0.848020 0.555810
0.718105 0.847135 0.543755
0.740841 0.846036 0.530388
0.765866 0.844724 0.515496
0.793362 0.843168 0.498695
0.823056 0.841306 0.479622
0.855100 0.838987 0.457984
0.887785 0.835172 0.437354
0.907683 0.817960 0.416693
0.928618 0.800259 0.405829
0.953643 0.787289 0.401953
0.979004 0.778470 0.411231
1.000000 0.769589 0.422431
1.000000 0.760891 0.435798
1.000000 0.752865 0.451209
1.000000 0.745724 0.468330
0.569238 0.872587 0.598260
0.570764 0.873167 0.599481
0.572534 0.873411 0.600305
0.574884 0.873289 0.600793
0.578180 0.872892 0.601312
0.582666 0.872343 0.601984
0.588586 0.871641 0.602991
0.596155 0.870939 0.604517
0.605585 0.870359 0.606897
0.617151 0.869932 0.610224
0.629908 0.869566 0.614160
0.644587 0.869413 0.619257
0.660273 0.869322 0.625025
0.669429 0.868925 0.618128
0.679377 0.868315 0.608820
0.691463 0.867552 0.598688
0.705898 0.866697 0.587915
0.722805 0.865873 0.576623
0.742275 0.865049 0.564630
0.764370 0.864256 0.551812
0.788632 0.863340 0.537957
0.815030 0.862058 0.522576
0.843290 0.860288 0.504631
0.873442 0.857877 0.483711
0.904540 0.853941 0.462898
0.928954 0.842954 0.448768
0.947295 0.824735 0.439155
0.969848 0.810727 0.433814
0.992889 0.801663 0.443702
1.000000 0.792905 0.455848
1.000000 0.784756 0.470100
1.000000 0.777462 0.486732
0.599268 0.888304 0.625177
0.600702 0.888762 0.626246
0.602625 0.889067 0.627375
0.605005 0.889097 0.628168
0.608423 0.888975 0.629236
0.612940 0.888762 0.630518
0.618952 0.888579 0.632319
0.626764 0.888334 0.634821
0.636011 0.888212 0.638025
0.646906 0.888121 0.642023
0.658961 0.887999 0.646693
0.672419 0.887907 0.652064
0.686732 0.887724 0.658045
0.698299 0.887541 0.658930
0.705104 0.887236 0.650141
0.713649 0.886778 0.640406
0.724269 0.886259 0.629816
0.737148 0.885679 0.618860
0.752560 0.885161 0.607324
0.770535 0.884642 0.595361
0.790890 0.884031 0.582696
0.813504 0.883177 0.568811
0.838163 0.882017 0.553887
0.864836 0.880461 0.536736
0.893339 0.878416 0.517723
0.923156 0.875242 0.498604
0.948547 0.867002 0.485817
0.965148 0.849271 0.477882
0.986114 0.835386 0.472602
1.000000 0.826596 0.484413
1.000000 0.818357 0.497993
1.000000 0.810910 0.514122
0.639124 0.903868 0.660426
0.640009 0.904051 0.661158
0.641230 0.904112 0.661707
0.643091 0.904082 0.662348
0.645869 0.903899 0.663172
0.649653 0.903655 0.664332
0.654566 0.903410 0.665858
0.661036 0.903105 0.668147
0.668879 0.902831 0.670985
0.678157 0.902586 0.674556
0.688624 0.902342 0.678889
0.700343 0.902129 0.683986
0.712886 0.901884 0.689601
0.726009 0.901579 0.695552
0.731807 0.901457 0.689631
0.737545 0.901274 0.680720
0.744839 0.901061 0.671138
0.754086 0.900786 0.660578
0.765652 0.900603 0.649958
0.779568 0.900389 0.638605
0.795773 0.900145 0.626612
0.814176 0.899718 0.613886
0.834684 0.898985 0.599634
0.857389 0.897887 0.583795
0.882109 0.896452 0.566705
0.908873 0.894591 0.547631
0.937194 0.891875 0.529229
0.962890 0.885710 0.517082
0.977966 0.868589 0.510552
0.997772 0.855711 0.507408
1.000000 0.846983 0.519097
1.000000 0.839506 0.534905
0.676326 0.915679 0.693568
0.676997 0.915801 0.694057
0.678218 0.915892 0.694728
0.680140 0.915862 0.695583
0.682948 0.915862 0.696834
0.687068 0.915862 0.698756
0.692866 0.916014 0.701717
0.700191 0.916197 0.705531
0.709010 0.916442 0.710292
0.719020 0.916747 0.715846
0.730007 0.917082 0.721981
0.741634 0.917296 0.728481
0.753689 0.917449 0.735286
0.765652 0.917479 0.741939
0.774990 0.917510 0.744656
0.778714 0.917784 0.737972
0.783413 0.917967 0.730495
0.789242 0.918090 0.722042
0.796841 0.918273 0.713252
0.806210 0.918456 0.703639
0.817380 0.918608 0.693294
0.830503 0.918608 0.681971
0.845487 0.918425 0.668940
0.862638 0.917937 0.654383
0.881987 0.917174 0.638087
0.903685 0.916075 0.619989
0.927825 0.914672 0.600275
0.953979 0.912596 0.581628
0.979461 0.908721 0.569909
0.992950 0.892882 0.564385
1.000000 0.881376 0.564446
1.000000 0.872740 0.576440
0.729824 0.928893 0.741421
0.730007 0.928893 0.741512
0.730495 0.928832 0.741634
0.731502 0.928710 0.741970
0.733211 0.928588 0.742550
0.735714 0.928435 0.743496
0.739254 0.928252 0.745022
0.743771 0.928069 0.747036
0.749477 0.927886 0.749752
0.756100 0.927733 0.753048
0.763638 0.927550 0.756863
0.771939 0.927367 0.761135
0.780758 0.927153 0.765774
0.789944 0.926909 0.770657
