20 Preset/Car Style/【3】LUT video cho PR-AE-FCPX/Tone  (26).cube
# Created by Adobe Lightroom plugin Export LUT (1.24.0)
# www.johnrellis.com/lightroom/exportlut.htm
# Preset: 01汽车质感（素材江湖）
# Color profile: E:\lut插件\exportlut.1.24\exportlut.lrplugin\color profiles\Rec709gamma2.4.icc
LUT_3D_SIZE 32
DOMAIN_MIN 0.0 0.0 0.0
DOMAIN_MAX 1.0 1.0 1.0
0.056733 0.098756 0.106233
0.061982 0.098939 0.106172
0.076844 0.099458 0.107027
0.095552 0.100191 0.108400
0.115389 0.101686 0.110109
0.136995 0.103670 0.112551
0.157015 0.105715 0.115724
0.175418 0.107424 0.119051
0.196048 0.108248 0.121645
0.221134 0.108919 0.124392
0.254154 0.107057 0.127535
0.295201 0.102449 0.130098
0.342412 0.092561 0.132845
0.393011 0.065156 0.134890
0.444221 0.012085 0.137118
0.495491 0.000000 0.139254
0.546563 0.000000 0.140993
0.597436 0.000000 0.142855
0.648310 0.000000 0.143984
0.699367 0.000000 0.145418
0.748135 0.000000 0.146792
0.801633 0.000000 0.149264
0.853696 0.000000 0.153384
0.899016 0.000000 0.158572
0.938964 0.000000 0.165713
0.974304 0.000000 0.174655
1.000000 0.000000 0.185885
1.000000 0.000000 0.198398
1.000000 0.099733 0.213352
1.000000 0.177432 0.230838
1.000000 0.234989 0.250919
1.000000 0.286320 0.273625
0.057679 0.099794 0.107088
0.057679 0.099794 0.107088
0.076081 0.100526 0.107576
0.095247 0.101656 0.108217
0.115084 0.103151 0.110262
0.135988 0.104829 0.113069
0.155642 0.106630 0.115938
0.174319 0.108339 0.118990
0.194308 0.109346 0.121859
0.218784 0.109621 0.124422
0.250462 0.108461 0.127321
0.290684 0.104341 0.129946
0.337041 0.095033 0.132753
0.387030 0.075624 0.135103
0.438087 0.024475 0.137148
0.489113 0.000000 0.139345
0.540307 0.000000 0.141176
0.591058 0.000000 0.142611
0.642084 0.000000 0.144045
0.692958 0.000000 0.145357
0.741543 0.000000 0.146639
0.794247 0.000000 0.148989
0.844724 0.000000 0.152590
0.889525 0.000000 0.157565
0.929137 0.000000 0.163729
0.964843 0.000000 0.172183
0.997559 0.000000 0.182132
1.000000 0.000000 0.194095
1.000000 0.048524 0.208621
1.000000 0.161654 0.225345
1.000000 0.222293 0.245151
1.000000 0.275242 0.267796
0.063142 0.103731 0.110811
0.062837 0.103731 0.111147
0.064851 0.105074 0.110018
0.092439 0.108370 0.109987
0.114229 0.108644 0.111482
0.134890 0.110231 0.114229
0.154330 0.111360 0.116884
0.172824 0.112428 0.119661
0.192630 0.113191 0.122560
0.216922 0.113558 0.125124
0.248051 0.112764 0.127749
0.287449 0.109102 0.130404
0.333165 0.101930 0.132937
0.382483 0.089540 0.135317
0.433387 0.050538 0.137575
0.484169 0.000000 0.139284
0.535119 0.000000 0.141115
0.586206 0.000000 0.142550
0.637079 0.000000 0.144015
0.687861 0.000000 0.145113
0.736995 0.000000 0.146578
0.790311 0.000000 0.148867
0.840024 0.000000 0.152316
0.884154 0.000000 0.157107
0.923674 0.000000 0.163088
0.959289 0.000000 0.170596
0.992340 0.000000 0.180545
1.000000 0.000000 0.192447
1.000000 0.053315 0.206546
1.000000 0.160983 0.223178
1.000000 0.220706 0.242557
1.000000 0.272831 0.264408
0.074708 0.111910 0.118837
0.076692 0.111849 0.118837
0.075135 0.112886 0.118166
0.082155 0.115053 0.116640
0.107790 0.121187 0.116335
0.132540 0.120058 0.116884
0.152804 0.119600 0.119051
0.170871 0.120119 0.121584
0.191073 0.120516 0.124147
0.215000 0.120729 0.126711
0.246006 0.119844 0.129091
0.284764 0.117800 0.131350
0.329686 0.112734 0.133547
0.378454 0.103731 0.135897
0.428412 0.088746 0.137911
0.478370 0.045716 0.139834
0.528679 0.000000 0.141482
0.578882 0.000000 0.142947
0.629114 0.000000 0.144228
0.679255 0.000000 0.145388
0.728206 0.000000 0.146456
0.781765 0.000000 0.148592
0.830228 0.000000 0.151705
0.874540 0.000000 0.156344
0.915160 0.000000 0.161929
0.952453 0.000000 0.169955
0.986999 0.000000 0.179690
1.000000 0.000000 0.191440
1.000000 0.103548 0.205875
1.000000 0.174716 0.222354
1.000000 0.228275 0.241489
1.000000 0.277409 0.262791
0.088350 0.122103 0.128695
0.089082 0.122042 0.128695
0.089937 0.122011 0.128420
0.088014 0.124117 0.126589
0.094240 0.126894 0.124819
0.119509 0.133089 0.124056
0.145815 0.134066 0.123323
0.167819 0.130159 0.123873
0.187900 0.130129 0.126192
0.211673 0.130465 0.128420
0.242069 0.130251 0.130739
0.280064 0.129458 0.132937
0.323919 0.127169 0.134951
0.372045 0.121462 0.136934
0.422004 0.112520 0.139040
0.472389 0.098817 0.140597
0.522637 0.068788 0.142092
0.573388 0.002350 0.143191
0.623621 0.000000 0.144350
0.673823 0.000000 0.145418
0.724544 0.000000 0.146792
0.777432 0.000000 0.148562
0.825010 0.000000 0.151736
0.869230 0.000000 0.155917
0.910002 0.000000 0.161776
0.947875 0.000000 0.169528
0.982910 0.000000 0.179446
1.000000 0.031769 0.191470
1.000000 0.140505 0.205356
1.000000 0.194278 0.221897
1.000000 0.241917 0.240543
1.000000 0.286748 0.261662
0.097414 0.132326 0.138582
0.098116 0.132265 0.138552
0.098207 0.132265 0.138338
0.098116 0.133272 0.137728
0.095888 0.136172 0.134737
0.105959 0.138766 0.133028
0.128847 0.144625 0.132265
0.158633 0.148470 0.130495
0.182803 0.145754 0.130495
0.210086 0.142733 0.131289
0.240421 0.143740 0.133364
0.278386 0.144442 0.135317
0.322087 0.143771 0.137118
0.369574 0.141451 0.138827
0.419440 0.136568 0.140383
0.469368 0.128634 0.141543
0.520012 0.117250 0.142794
0.570611 0.101930 0.143587
0.621363 0.070954 0.144472
0.671321 0.006073 0.145327
0.725307 0.000000 0.146731
0.776974 0.000000 0.148714
0.872648 0.000000 0.157046
0.916136 0.000000 0.165225
0.954376 0.078187 0.174624
0.988556 0.128054 0.185916
1.000000 0.167391 0.199222
1.000000 0.204410 0.214054
1.000000 0.241306 0.230228
1.000000 0.277623 0.248264
1.000000 0.314122 0.268315
1.000000 0.349584 0.289677
0.109438 0.143771 0.149966
0.109438 0.143771 0.149966
0.109804 0.143984 0.149935
0.110536 0.143923 0.149508
0.109224 0.146029 0.147982
0.108156 0.149203 0.144533
0.119051 0.152499 0.143465
0.141970 0.158175 0.143313
0.177829 0.167575 0.140017
0.209079 0.167544 0.139071
0.247074 0.165377 0.138186
0.289433 0.165194 0.138949
0.334478 0.166354 0.140200
0.382544 0.166232 0.141085
0.431800 0.163973 0.141787
0.481025 0.159823 0.142733
0.530632 0.153994 0.143099
0.580591 0.145754 0.143832
0.630854 0.136294 0.144625
0.684871 0.125887 0.145449
0.744686 0.116854 0.147127
0.799832 0.111818 0.150149
0.850767 0.117006 0.155245
0.897581 0.131716 0.162966
0.939605 0.152804 0.172732
0.976013 0.178653 0.184054
1.000000 0.205051 0.197299
1.000000 0.233188 0.211307
1.000000 0.263249 0.227298
1.000000 0.293980 0.244633
1.000000 0.326055 0.264103
1.000000 0.359014 0.284886
0.119081 0.153597 0.159762
0.119356 0.153384 0.159579
0.119753 0.153536 0.159365
0.120516 0.153292 0.159213
0.120516 0.154116 0.158511
0.118685 0.157076 0.156374
0.119265 0.160769 0.153262
0.131319 0.164828 0.152285
0.154330 0.171939 0.151980
0.194980 0.186160 0.148318
0.236362 0.192721 0.145449
0.280980 0.193454 0.143771
0.329412 0.189334 0.142550
0.376989 0.190555 0.142611
0.424994 0.191073 0.142763
0.473365 0.190158 0.142977
0.522515 0.187533 0.143374
0.571618 0.184573 0.143709
0.623072 0.181033 0.144137
0.681209 0.178225 0.145022
0.737179 0.176944 0.146334
0.790219 0.177432 0.149813
0.839994 0.182254 0.155001
0.886137 0.192630 0.162509
0.928069 0.206943 0.172122
0.965057 0.224491 0.183566
0.997742 0.244205 0.196292
1.000000 0.266117 0.210269
1.000000 0.290959 0.226200
1.000000 0.317510 0.243687
1.000000 0.345830 0.262364
1.000000 0.375463 0.283116
0.127932 0.164370 0.169772
0.127932 0.164370 0.169772
0.127993 0.164370 0.169589
0.129061 0.164309 0.169253
0.130251 0.164034 0.168917
0.128969 0.166537 0.167697
0.126558 0.170321 0.164858
0.128908 0.175326 0.161868
0.142763 0.181094 0.160952
0.169070 0.190158 0.160067
0.216892 0.210269 0.155825
0.269932 0.225589 0.150210
0.318700 0.228885 0.146944
0.369848 0.226017 0.144564
0.420508 0.219120 0.143557
0.468055 0.220676 0.143313
0.516320 0.221225 0.143252
0.567346 0.221530 0.143221
0.622309 0.222751 0.143313
0.677485 0.223636 0.144411
0.731044 0.225528 0.145998
0.782254 0.228489 0.149538
0.830838 0.234226 0.154757
0.876432 0.243229 0.162905
0.918181 0.254704 0.172763
0.955413 0.268559 0.184421
0.988586 0.284459 0.197147
1.000000 0.302434 0.211063
1.000000 0.323125 0.227024
1.000000 0.346044 0.244114
1.000000 0.370764 0.263066
1.000000 0.397223 0.283116
0.135561 0.177676 0.181338
0.135714 0.177493 0.181338
0.135836 0.177493 0.181033
0.136568 0.177279 0.180575
0.137392 0.177096 0.179934
0.137606 0.177584 0.179202
0.135073 0.181704 0.177035
0.131685 0.187472 0.173220
0.136507 0.194308 0.170535
0.154726 0.202365 0.169406
0.185885 0.213657 0.167605
0.240238 0.240238 0.162844
0.304143 0.264256 0.152895
0.355596 0.269017 0.148470
0.407843 0.267491 0.145510
0.459907 0.259983 0.143374
0.514458 0.256352 0.142611
0.567498 0.260166 0.142123
0.620661 0.263737 0.142336
0.674006 0.266911 0.143435
0.725490 0.270420 0.145724
0.773953 0.274357 0.149386
0.820188 0.279606 0.155367
0.863706 0.286656 0.162936
0.904112 0.295537 0.172457
0.941131 0.306401 0.183230
0.975006 0.319310 0.195743
1.000000 0.334691 0.209934
1.000000 0.352544 0.225834
1.000000 0.373114 0.243381
1.000000 0.395544 0.262150
1.000000 0.419928 0.282933
0.141939 0.193637 0.194339
0.142000 0.193637 0.194217
0.142000 0.193362 0.193942
0.142947 0.193301 0.193515
0.143923 0.192966 0.192813
0.145266 0.192599 0.192111
0.143191 0.196109 0.190768
0.139223 0.202579 0.188052
0.133822 0.210880 0.182467
0.143923 0.220401 0.180026
0.167758 0.231418 0.178561
0.204349 0.244388 0.176303
0.265568 0.276646 0.171145
0.337713 0.306798 0.157412
0.396948 0.317662 0.150149
0.452583 0.318517 0.145724
0.508293 0.313542 0.142763
0.563439 0.303563 0.141024
0.615656 0.302800 0.141543
0.667140 0.307469 0.142458
0.717067 0.311833 0.145266
0.764431 0.316564 0.149752
0.809934 0.322179 0.155703
0.853208 0.328923 0.163882
0.893614 0.337285 0.173770
0.930938 0.346960 0.184909
0.965209 0.358190 0.197940
0.996765 0.371374 0.212039
1.000000 0.386969 0.227787
1.000000 0.405005 0.245548
1.000000 0.424964 0.264775
1.000000 0.447028 0.285313
0.147005 0.214817 0.210727
0.147250 0.214908 0.210697
0.147677 0.214878 0.210575
0.148592 0.214603 0.209934
0.149569 0.214298 0.209201
0.150942 0.213993 0.208286
0.152010 0.214694 0.207248
0.147494 0.221653 0.205356
0.141634 0.230747 0.200992
0.132723 0.242039 0.193118
0.151492 0.254093 0.191714
0.183047 0.269780 0.190585
0.241550 0.308202 0.195193
0.317479 0.349126 0.192294
0.400305 0.384344 0.174105
0.472419 0.402960 0.159426
0.530999 0.403052 0.153109
0.588769 0.397681 0.148928
0.645350 0.387793 0.146487
0.699458 0.373327 0.146151
0.747189 0.377844 0.151461
0.792050 0.382818 0.158999
0.834562 0.388464 0.168246
0.874601 0.394690 0.178622
0.911620 0.401831 0.190311
0.945800 0.409705 0.202976
0.976806 0.418738 0.216648
1.000000 0.429084 0.231296
1.000000 0.441291 0.246281
1.000000 0.455604 0.263584
1.000000 0.471901 0.281407
1.000000 0.490669 0.301549
0.155001 0.247410 0.235874
0.155337 0.247379 0.235874
0.155306 0.246799 0.235416
0.156252 0.246159 0.234379
0.157198 0.245518 0.233219
0.158999 0.244297 0.231693
0.161715 0.243320 0.230076
0.158785 0.249332 0.228977
0.152438 0.260197 0.226749
0.143099 0.274083 0.221592
0.137148 0.290959 0.213993
0.166842 0.309728 0.214633
0.210391 0.330724 0.214755
0.266911 0.353124 0.213931
0.345647 0.394965 0.215854
0.428901 0.429511 0.196506
0.509087 0.455634 0.175937
0.565972 0.455634 0.167910
0.621973 0.450874 0.162387
0.675715 0.441505 0.158816
0.726253 0.428260 0.157717
0.773587 0.417395 0.160067
0.816281 0.422614 0.169345
0.856809 0.428534 0.180056
0.894652 0.435096 0.191440
0.929870 0.442237 0.204196
0.962219 0.450599 0.217838
0.992004 0.460121 0.232334
1.000000 0.471290 0.248203
1.000000 0.484504 0.264988
1.000000 0.499641 0.283513
1.000000 0.516716 0.303777
0.164950 0.280674 0.262486
0.164553 0.280430 0.262028
0.165164 0.279728 0.261479
0.166140 0.279088 0.260594
0.167636 0.278019 0.259190
0.169345 0.276829 0.257481
0.171939 0.275853 0.255741
0.173709 0.276585 0.254215
0.167269 0.286839 0.252567
0.158999 0.300053 0.249210
0.147616 0.316167 0.242557
0.148379 0.334844 0.235935
0.185672 0.354833 0.237034
0.233982 0.376318 0.237736
0.293339 0.398322 0.237278
0.371557 0.436866 0.239841
0.454658 0.471504 0.223575
0.539208 0.501457 0.199954
0.598108 0.504814 0.189303
0.651850 0.500450 0.182437
0.702785 0.492226 0.177981
0.751919 0.480842 0.176608
0.798642 0.467140 0.176638
0.841550 0.462715 0.182925
0.880064 0.469032 0.194369
0.916106 0.475990 0.207309
0.949371 0.483558 0.221134
0.980102 0.492226 0.235935
1.000000 0.502525 0.251713
1.000000 0.514611 0.268864
1.000000 0.528496 0.287449
1.000000 0.544427 0.307591
0.177646 0.315648 0.290837
0.177829 0.315557 0.290684
0.178103 0.314702 0.289921
0.178805 0.313664 0.288731
0.179904 0.312200 0.286931
0.181430 0.310307 0.284672
0.184085 0.308873 0.282536
0.186740 0.307286 0.280156
0.183932 0.313542 0.278752
0.176547 0.325811 0.276829
0.167391 0.341009 0.272770
0.155398 0.359075 0.265263
0.166537 0.378729 0.260868
0.208072 0.398962 0.262486
0.259464 0.420050 0.263340
0.319219 0.441108 0.262608
0.396612 0.476234 0.265293
0.479805 0.511437 0.253819
0.563226 0.539971 0.231113
0.628870 0.550774 0.215213
0.680079 0.547112 0.208377
0.729641 0.540398 0.203861
0.777157 0.530968 0.201266
0.822324 0.519707 0.200351
0.865293 0.506126 0.201389
0.902617 0.508629 0.212100
0.936889 0.516075 0.225711
0.968750 0.524559 0.240696
0.998138 0.534661 0.257389
1.000000 0.546563 0.275090
1.000000 0.560388 0.294957
1.000000 0.576196 0.316716
0.192508 0.348119 0.317754
0.192538 0.348119 0.317693
0.193210 0.347784 0.317388
0.193637 0.347021 0.316320
0.194766 0.345922 0.314855
0.196536 0.344579 0.313176
0.199222 0.343603 0.311437
0.201968 0.342596 0.309453
0.204868 0.342992 0.307836
0.198459 0.354772 0.307073
0.190890 0.368658 0.304662
0.180545 0.384802 0.299351
0.167910 0.402899 0.289952
0.188907 0.421271 0.287053
0.231998 0.440009 0.287816
0.283909 0.459480 0.287785
0.343786 0.479591 0.287083
0.419074 0.511254 0.289647
0.503044 0.547539 0.283330
0.584802 0.574395 0.262669
0.657649 0.592645 0.244083
0.707881 0.590723 0.237797
0.756008 0.586023 0.233524
0.802274 0.578943 0.230747
0.846006 0.570062 0.229679
0.887541 0.559564 0.230533
0.926360 0.549218 0.233158
0.958923 0.557549 0.248386
0.988830 0.567071 0.264775
1.000000 0.578058 0.282750
1.000000 0.590539 0.302281
1.000000 0.604791 0.323583
0.208713 0.379583 0.344182
0.208682 0.379522 0.343938
0.208896 0.378973 0.343420
0.209476 0.378515 0.342779
0.210697 0.377630 0.341650
0.212528 0.376501 0.339940
0.214878 0.375402 0.338293
0.217563 0.374273 0.336309
0.221225 0.373266 0.334386
0.219120 0.379370 0.333227
0.212680 0.392340 0.332158
0.204288 0.407141 0.328923
0.194034 0.423957 0.322789
0.180697 0.442390 0.311925
0.211795 0.460395 0.311772
0.256779 0.478950 0.312505
0.309300 0.498054 0.312810
0.369757 0.517876 0.312383
0.443885 0.546777 0.315160
0.528405 0.583490 0.314580
0.608026 0.608942 0.295872
0.686549 0.632685 0.276555
0.736172 0.633082 0.270085
0.782773 0.629816 0.265995
0.827115 0.624598 0.263523
0.869047 0.617884 0.262913
0.908812 0.610071 0.263767
0.946136 0.601343 0.265965
0.979492 0.598596 0.273625
1.000000 0.609247 0.292210
1.000000 0.621057 0.311589
1.000000 0.634577 0.333227
0.226749 0.412818 0.371893
0.226688 0.413062 0.372015
0.238346 0.431708 0.387457
0.238987 0.431128 0.386786
0.240330 0.430243 0.385565
0.241520 0.429084 0.384009
0.243168 0.427436 0.381842
0.245762 0.425910 0.379675
0.248905 0.424384 0.377417
0.252049 0.423743 0.374945
0.246098 0.435950 0.374640
0.238560 0.450202 0.372778
0.229892 0.465553 0.368353
0.219242 0.482338 0.360388
0.208835 0.500145 0.348760
0.247898 0.517082 0.349645
0.294530 0.534295 0.349798
0.348455 0.552026 0.349310
0.409186 0.569818 0.348791
0.481239 0.593744 0.350866
0.567132 0.629450 0.356329
0.643214 0.652308 0.339239
0.717861 0.673671 0.321965
0.772457 0.680354 0.311864
0.815091 0.677089 0.306828
0.855680 0.672206 0.303746
0.893950 0.666102 0.301732
0.930297 0.659297 0.301884
0.964416 0.652583 0.303716
0.996460 0.646052 0.307713
1.000000 0.650477 0.322118
1.000000 0.663081 0.343664
0.248722 0.451575 0.403937
0.249760 0.453162 0.405310
0.251102 0.454810 0.406470
0.252903 0.456001 0.407294
0.254582 0.456550 0.407416
0.256107 0.455970 0.406287
0.257969 0.454658 0.404608
0.259800 0.452918 0.402197
0.262699 0.451240 0.399847
0.265934 0.449653 0.397406
0.264591 0.455116 0.396124
0.258518 0.468055 0.395331
0.250828 0.482307 0.392584
0.241978 0.497902 0.387396
0.230900 0.514763 0.378485
0.230838 0.532403 0.369512
0.271183 0.549248 0.370672
0.319005 0.566644 0.371466
0.374029 0.584405 0.372137
0.435309 0.602197 0.373175
0.505150 0.623407 0.375830
0.592004 0.660365 0.388067
0.665797 0.682368 0.373205
0.737850 0.702754 0.357946
0.797086 0.715419 0.345739
0.837400 0.713405 0.341436
0.875517 0.710140 0.338323
0.911955 0.705745 0.337438
0.946136 0.701442 0.338201
0.978058 0.697353 0.341314
1.000000 0.693721 0.346746
1.000000 0.690486 0.354192
0.264988 0.480385 0.427680
0.266484 0.482338 0.429175
0.268009 0.484077 0.430518
0.269718 0.485481 0.431525
0.271489 0.486061 0.431678
0.272801 0.485573 0.430762
0.274571 0.484535 0.429236
0.276677 0.483009 0.427131
0.278904 0.481239 0.424720
0.281651 0.479408 0.422217
0.284825 0.477638 0.419440
0.279362 0.489693 0.419287
0.273259 0.502983 0.417914
0.265721 0.517571 0.414557
0.256992 0.533593 0.408850
0.246677 0.550622 0.399390
0.256443 0.567834 0.392828
0.298650 0.584283 0.394415
0.347997 0.601099 0.396002
0.403540 0.618189 0.397681
0.464210 0.635157 0.399512
0.531304 0.653437 0.402655
0.616815 0.688991 0.417090
0.689448 0.711635 0.408301
0.757656 0.730617 0.394842
0.821347 0.748226 0.381720
0.859068 0.747463 0.377417
0.894957 0.745663 0.375616
0.928862 0.743557 0.375799
0.960632 0.741512 0.378119
0.990143 0.739712 0.382696
1.000000 0.738277 0.389654
0.283665 0.511315 0.452949
0.284703 0.512932 0.454322
0.286198 0.514611 0.455604
0.287968 0.515923 0.456458
0.289403 0.516503 0.456550
0.290623 0.515953 0.455665
0.292454 0.515007 0.454292
0.293980 0.513542 0.452308
0.295933 0.511925 0.450080
0.298619 0.510155 0.447639
0.301366 0.508324 0.444953
0.300755 0.512902 0.443641
0.295506 0.525444 0.443091
0.289067 0.539208 0.441169
0.282200 0.554314 0.437476
0.274357 0.570520 0.431159
0.266972 0.587915 0.421973
0.288212 0.604944 0.418982
0.333654 0.622065 0.422278
0.385107 0.639582 0.426001
0.442359 0.657191 0.430182
0.504051 0.674678 0.434607
0.569177 0.691402 0.439124
0.652888 0.724819 0.456397
0.724147 0.748196 0.455238
0.788663 0.766201 0.444526
0.847959 0.782956 0.434607
0.889036 0.788418 0.430671
0.921599 0.788632 0.431098
0.951904 0.788632 0.433539
0.980041 0.788571 0.438331
1.000000 0.788693 0.445197
0.312047 0.554742 0.488869
0.313054 0.555535 0.489540
0.313634 0.555749 0.489631
0.314061 0.555810 0.489387
0.314946 0.555261 0.488685
0.315801 0.554162 0.487312
0.316594 0.552911 0.485664
0.317876 0.551232 0.483497
0.319615 0.549645 0.481331
0.321843 0.548058 0.479011
0.324681 0.546319 0.476509
0.327916 0.544518 0.473945
0.323522 0.555718 0.473854
0.319097 0.568627 0.473152
0.313848 0.582483 0.470771
0.308629 0.597223 0.466438
0.303105 0.612848 0.459785
0.298375 0.629450 0.450080
0.329778 0.645106 0.450385
0.375189 0.660792 0.453986
0.426123 0.676570 0.457832
0.481331 0.692287 0.462074
0.540246 0.707576 0.466529
0.601282 0.722164 0.470741
0.679652 0.751064 0.487617
0.748379 0.774197 0.492439
0.808743 0.791073 0.483833
0.864530 0.807095 0.476631
0.907866 0.817502 0.472938
0.937621 0.819059 0.475196
0.965179 0.820371 0.479316
0.990661 0.821592 0.485908
0.336675 0.586938 0.515892
0.337194 0.587518 0.516411
0.337743 0.587915 0.516686
0.338537 0.587884 0.516503
0.339147 0.587488 0.515831
0.339635 0.586633 0.514672
0.340307 0.585473 0.513054
0.341436 0.584192 0.511315
0.342931 0.582788 0.509300
0.345068 0.581323 0.507164
0.347448 0.579736 0.504784
0.350256 0.578210 0.502312
0.350286 0.581933 0.500816
0.346990 0.593866 0.500877
0.343816 0.606714 0.499733
0.340917 0.620447 0.497414
0.338079 0.635218 0.493263
0.335760 0.650599 0.486854
0.334234 0.666865 0.477638
0.373938 0.681788 0.481514
0.419776 0.696742 0.486183
0.469978 0.711666 0.491066
0.523705 0.726345 0.496315
0.579889 0.740383 0.501457
0.630884 0.748653 0.500175
0.703243 0.773739 0.516381
0.770596 0.797086 0.527031
0.827176 0.813107 0.520623
0.878935 0.828397 0.516045
0.923827 0.842618 0.513329
0.951141 0.845426 0.517601
0.976379 0.847990 0.523949
0.372625 0.625666 0.549889
0.373907 0.626581 0.550774
0.374701 0.626917 0.551019
0.374762 0.626490 0.550439
0.374243 0.625360 0.549126
0.373877 0.623804 0.547387
0.373327 0.621790 0.545006
0.372930 0.619684 0.542504
0.372869 0.617395 0.539574
0.373816 0.615167 0.536828
0.374487 0.612696 0.533623
0.375952 0.610529 0.530510
0.377783 0.608026 0.527214
0.375433 0.617060 0.526787
0.372412 0.627955 0.525628
0.369970 0.639765 0.523705
0.367315 0.652613 0.520348
0.365637 0.666438 0.515618
0.365698 0.681422 0.509483
0.373144 0.697108 0.503197
0.414221 0.711482 0.508415
0.459266 0.725704 0.513664
0.507408 0.739467 0.518853
0.558068 0.752499 0.523766
0.610437 0.764706 0.528405
0.663966 0.776120 0.532799
0.730098 0.797360 0.547478
0.794156 0.819730 0.563195
0.846220 0.834562 0.558526
0.893614 0.848997 0.555688
0.935393 0.863218 0.555413
0.963439 0.869505 0.560449
0.402502 0.653620 0.575311
0.403601 0.654505 0.576135
0.404578 0.654994 0.576532
0.405310 0.654932 0.576349
0.405035 0.654292 0.575463
0.405371 0.653529 0.574456
0.405707 0.652613 0.573144
0.405951 0.651423 0.571374
0.406714 0.650141 0.569574
0.407752 0.648920 0.567620
0.409400 0.647547 0.565423
0.410925 0.645869 0.562860
0.412451 0.643915 0.560052
0.412696 0.646296 0.558068
0.411170 0.656184 0.557763
0.409949 0.666896 0.556725
0.408667 0.678431 0.554559
0.408331 0.690852 0.551446
0.409552 0.704372 0.547204
0.411719 0.718868 0.541314
0.426612 0.733303 0.538109
0.466255 0.746609 0.543542
0.509178 0.759548 0.549096
0.554864 0.772000 0.554437
0.602747 0.783749 0.559869
0.651728 0.794797 0.564996
0.701869 0.805234 0.570306
0.761532 0.822965 0.584527
0.822293 0.844541 0.605890
0.869108 0.858549 0.603876
0.911223 0.872190 0.603937
0.948547 0.885527 0.606195
0.442939 0.687129 0.607080
0.443366 0.687556 0.607385
0.443885 0.687709 0.607507
0.444007 0.687434 0.607141
0.443977 0.686885 0.606348
0.443977 0.686000 0.605158
0.443702 0.684962 0.603754
0.444068 0.683894 0.602197
0.444465 0.682795 0.600488
0.445319 0.681544 0.598596
0.446052 0.680140 0.596429
0.447425 0.678767 0.594171
0.448859 0.677180 0.591669
0.450233 0.675196 0.588647
0.449622 0.682704 0.588251
0.448890 0.692378 0.587732
0.448463 0.702785 0.586481
0.448768 0.714076 0.584375
0.450080 0.726345 0.581476
0.452888 0.739498 0.577569
0.457313 0.753292 0.572259
0.478035 0.766262 0.571649
0.515648 0.778134 0.576989
0.556115 0.789609 0.582330
0.598840 0.800443 0.587701
0.643000 0.810544 0.592706
0.688472 0.820188 0.597955
0.734371 0.829129 0.603204
0.787930 0.843870 0.616510
0.843687 0.863951 0.639185
0.886625 0.878080 0.642939
0.924712 0.891112 0.645502
0.481910 0.717983 0.636988
0.482551 0.718349 0.637385
0.482948 0.718563 0.637507
0.483406 0.718532 0.637385
0.483986 0.718471 0.637171
0.484779 0.718379 0.636744
0.486397 0.718746 0.636774
0.488746 0.719295 0.636957
0.491707 0.720058 0.637171
0.495247 0.720912 0.637507
0.498848 0.721675 0.637537
0.502647 0.722377 0.637568
0.505974 0.722652 0.636896
0.509239 0.722469 0.635828
0.511406 0.725032 0.635065
0.512413 0.734127 0.635676
0.513420 0.743557 0.635431
0.514916 0.753689 0.634546
0.517479 0.764523 0.633082
0.521294 0.776028 0.630823
0.525872 0.787961 0.627344
0.531792 0.800168 0.622370
0.556359 0.810880 0.624201
0.590723 0.820615 0.629389
0.627161 0.829770 0.634577
0.665064 0.838437 0.639704
0.704341 0.846555 0.644800
0.744076 0.854215 0.650111
0.783505 0.861479 0.655573
0.827543 0.872740 0.667262
0.874357 0.890257 0.689998
0.911162 0.903777 0.699245
0.543908 0.761532 0.681758
0.543969 0.761501 0.681727
0.543786 0.761318 0.681453
0.543664 0.761013 0.680995
0.543481 0.760586 0.680385
0.543389 0.760067 0.679591
0.543633 0.759579 0.678737
0.544274 0.759121 0.677882
0.545190 0.758724 0.676997
0.546502 0.758389 0.676020
0.547967 0.758022 0.675013
0.549798 0.757687 0.673945
0.551751 0.757107 0.672572
0.553460 0.756344 0.670893
