20 Preset/Car Style/【3】LUT video cho PR-AE-FCPX/Tone  (3).cube
# Created by Adobe Lightroom plugin Export LUT (1.24.0)
# www.johnrellis.com/lightroom/exportlut.htm
# Preset: 04汽车质感（素材江湖）
# Color profile: E:\lut插件\exportlut.1.24\exportlut.lrplugin\color profiles\Rec709gamma2.4.icc
LUT_3D_SIZE 32
DOMAIN_MIN 0.0 0.0 0.0
DOMAIN_MAX 1.0 1.0 1.0
0.148470 0.119265 0.115999
0.148470 0.119265 0.115999
0.148836 0.119203 0.115999
0.154269 0.118349 0.115969
0.165347 0.116426 0.115877
0.178775 0.115267 0.115572
0.194430 0.113619 0.115206
0.211856 0.112245 0.114626
0.232059 0.109743 0.113985
0.255772 0.107301 0.113252
0.284031 0.102937 0.112551
0.315801 0.097261 0.111360
0.350439 0.088624 0.109773
0.386908 0.069337 0.107881
0.424140 0.038849 0.105745
0.461250 0.004700 0.103120
0.497353 0.000000 0.099886
0.532586 0.000000 0.096864
0.567437 0.000000 0.092805
0.602289 0.000000 0.087984
0.637293 0.000000 0.079561
0.678065 0.000000 0.063264
0.720821 0.000000 0.043885
0.762325 0.000000 0.020417
0.803647 0.000000 0.000000
0.844755 0.000000 0.000000
0.883757 0.000000 0.000000
0.920073 0.000000 0.000000
0.953338 0.000000 0.000000
0.982971 0.000000 0.000000
1.000000 0.000000 0.000000
1.000000 0.000000 0.000000
0.148470 0.119265 0.115999
0.148470 0.119265 0.115999
0.148836 0.119203 0.115999
0.154604 0.118288 0.115938
0.165133 0.117067 0.115785
0.178561 0.115908 0.115511
0.194003 0.114321 0.115114
0.211093 0.112764 0.114595
0.231022 0.110994 0.113863
0.254429 0.108492 0.113191
0.282139 0.104158 0.112520
0.313573 0.098573 0.111391
0.347845 0.090547 0.109804
0.384039 0.077028 0.107912
0.421302 0.046235 0.105837
0.458259 0.013428 0.103212
0.494545 0.000000 0.100038
0.529808 0.000000 0.097017
0.564599 0.000000 0.093080
0.599451 0.000000 0.088319
0.634089 0.000000 0.080293
0.674128 0.000000 0.064240
0.715572 0.000000 0.045808
0.756069 0.000000 0.024537
0.796445 0.000000 0.001282
0.837125 0.000000 0.000000
0.876432 0.000000 0.000000
0.913420 0.000000 0.000000
0.947509 0.000000 0.000000
0.978119 0.000000 0.000000
1.000000 0.000000 0.000000
1.000000 0.000000 0.000000
0.148623 0.120363 0.116121
0.148562 0.120363 0.116426
0.149660 0.120180 0.116426
0.155489 0.120150 0.115663
0.165591 0.119844 0.115389
0.178988 0.118776 0.115084
0.194003 0.117617 0.114687
0.211093 0.116091 0.114137
0.230686 0.114229 0.113771
0.253941 0.111849 0.113100
0.281468 0.108461 0.112337
0.312566 0.103822 0.111177
0.346593 0.097047 0.109560
0.382574 0.088289 0.107698
0.419532 0.066407 0.105592
0.456489 0.036469 0.102876
0.492683 0.001282 0.100099
0.528008 0.000000 0.096712
0.562768 0.000000 0.092683
0.597467 0.000000 0.087892
0.632319 0.000000 0.079561
0.672572 0.000000 0.062898
0.713283 0.000000 0.043977
0.753201 0.000000 0.023499
0.793027 0.000000 0.000549
0.833280 0.000000 0.000000
0.872587 0.000000 0.000000
0.909819 0.000000 0.000000
0.944366 0.000000 0.000000
0.975463 0.000000 0.000000
1.000000 0.000000 0.000000
1.000000 0.000000 0.000000
0.151553 0.124575 0.117220
0.152224 0.124453 0.117525
0.153384 0.123995 0.117830
0.155093 0.123720 0.118135
0.164767 0.123568 0.116670
0.179965 0.124422 0.114229
0.194858 0.123323 0.114107
0.211643 0.121981 0.113588
0.231235 0.120485 0.113466
0.254551 0.118532 0.112734
0.281956 0.115724 0.111940
0.312627 0.112306 0.110689
0.346288 0.107515 0.108949
0.381811 0.101076 0.107301
0.418341 0.092195 0.104829
0.454841 0.078157 0.102052
0.490761 0.045533 0.099245
0.525566 0.011841 0.095827
0.560021 0.000000 0.091737
0.594415 0.000000 0.086488
0.628931 0.000000 0.078279
0.669001 0.000000 0.060945
0.708614 0.000000 0.042756
0.748013 0.000000 0.021454
0.787930 0.000000 0.000000
0.829007 0.000000 0.000000
0.869413 0.000000 0.000000
0.907561 0.000000 0.000000
0.942718 0.000000 0.000000
0.974151 0.000000 0.000000
1.000000 0.000000 0.000000
1.000000 0.000000 0.000000
0.157687 0.130098 0.119417
0.157961 0.130037 0.119692
0.159091 0.129335 0.120638
0.161318 0.129274 0.120577
0.162966 0.128237 0.120699
0.172519 0.128237 0.119509
0.194034 0.129030 0.114778
0.212161 0.130800 0.113100
0.231724 0.129458 0.112978
0.254673 0.128298 0.112123
0.281590 0.126741 0.111238
0.312322 0.124269 0.109895
0.345403 0.121584 0.108278
0.380865 0.117220 0.106142
0.417090 0.111696 0.103853
0.453742 0.104768 0.100832
0.489540 0.095430 0.097810
0.524559 0.080964 0.093874
0.559045 0.045899 0.089693
0.593317 0.007599 0.082918
0.628748 0.000000 0.072724
0.668574 0.000000 0.055177
0.707301 0.000000 0.036011
0.746334 0.000000 0.015961
0.786191 0.000000 0.000000
0.827329 0.000000 0.000000
0.867796 0.000000 0.000000
0.905913 0.000000 0.000000
0.941039 0.000000 0.000000
0.972442 0.000000 0.000000
0.999512 0.000000 0.000000
1.000000 0.000000 0.000000
0.164157 0.137301 0.122591
0.164920 0.136965 0.122621
0.165682 0.136355 0.123262
0.167605 0.135836 0.123842
0.169986 0.135714 0.123781
0.172580 0.134340 0.123903
0.180819 0.133455 0.123781
0.205295 0.135561 0.118013
0.232670 0.138430 0.112917
0.256840 0.140932 0.111330
0.284031 0.140352 0.110231
0.314427 0.139590 0.108980
0.347509 0.138125 0.106783
0.382574 0.136019 0.104738
0.418769 0.132967 0.102022
0.454994 0.128542 0.098482
0.490669 0.122835 0.095094
0.525597 0.115541 0.090791
0.560082 0.106050 0.085420
0.594263 0.093996 0.076814
0.631830 0.070954 0.061677
0.670985 0.024323 0.043763
0.739742 0.000000 0.006195
0.781491 0.000000 0.000000
0.823331 0.000000 0.000000
0.863767 0.000000 0.000000
0.901244 0.000000 0.000000
0.935454 0.000000 0.000000
0.966064 0.000000 0.000000
0.992767 0.000000 0.000000
1.000000 0.000000 0.000000
1.000000 0.000000 0.000000
0.172488 0.146334 0.126040
0.172793 0.146273 0.126040
0.173831 0.145693 0.126619
0.175357 0.144350 0.127871
0.178225 0.144564 0.127993
0.181003 0.143709 0.128054
0.183963 0.142123 0.128481
0.190494 0.140536 0.129274
0.220218 0.143618 0.122286
0.257603 0.149355 0.114626
0.291722 0.156649 0.109224
0.324407 0.159823 0.106355
0.358007 0.159518 0.104097
0.392981 0.158877 0.101106
0.428717 0.157259 0.097536
0.464179 0.154635 0.093904
0.499031 0.150881 0.089662
0.533288 0.145876 0.083955
0.567468 0.139803 0.075074
0.603906 0.132998 0.060456
0.645502 0.124544 0.041138
0.687373 0.113405 0.020569
0.729274 0.098482 0.000000
0.771939 0.064973 0.000000
0.815335 0.001190 0.000000
0.856962 0.000000 0.000000
0.895201 0.000000 0.000000
0.929747 0.000000 0.000000
0.960876 0.000000 0.000000
0.987945 0.000000 0.000000
1.000000 0.000000 0.000000
1.000000 0.000000 0.000000
0.181033 0.155673 0.129641
0.181094 0.155459 0.129946
0.182162 0.154726 0.130556
0.183536 0.153689 0.131441
0.185733 0.152560 0.132326
0.189242 0.153017 0.132387
0.192172 0.151980 0.132448
0.195743 0.150149 0.132876
0.202792 0.148318 0.133913
0.233280 0.152193 0.127749
0.275731 0.159945 0.118227
0.321904 0.170291 0.107668
0.359716 0.180392 0.100954
0.394629 0.181704 0.097230
0.429725 0.181338 0.093263
0.464424 0.180117 0.089082
0.498695 0.177859 0.082551
0.532586 0.174807 0.073579
0.567437 0.170993 0.061189
0.606470 0.166995 0.043671
0.645869 0.161776 0.025330
0.686091 0.155550 0.004089
0.726680 0.147738 0.000000
0.768276 0.138125 0.000000
0.811032 0.125063 0.000000
0.852445 0.108400 0.000000
0.890623 0.083131 0.000000
0.925505 0.011536 0.000000
0.956847 0.000000 0.000000
0.984344 0.000000 0.000000
1.000000 0.000000 0.000000
1.000000 0.000000 0.000000
0.190799 0.166415 0.133913
0.191012 0.166384 0.134157
0.191531 0.165743 0.134493
0.192996 0.164462 0.135439
0.194858 0.162692 0.136629
0.197787 0.162783 0.136995
0.201663 0.162753 0.137087
0.205264 0.161654 0.137423
0.209781 0.159609 0.137850
0.216892 0.157198 0.138674
0.248173 0.161807 0.133730
0.295140 0.171542 0.123262
0.347601 0.184176 0.109041
0.392767 0.196780 0.096864
0.432471 0.206577 0.086549
0.466499 0.206241 0.079225
0.500175 0.205051 0.067536
0.534936 0.203372 0.054383
0.572259 0.201633 0.038666
0.609491 0.199222 0.022553
0.647517 0.195987 0.003082
0.686397 0.192081 0.000000
0.726101 0.186984 0.000000
0.766903 0.181094 0.000000
0.808957 0.174228 0.000000
0.849912 0.164981 0.000000
0.887968 0.154025 0.000000
0.922789 0.140078 0.000000
0.954223 0.123568 0.000000
0.981781 0.102358 0.000000
1.000000 0.058442 0.000000
1.000000 0.000000 0.000000
0.201419 0.179294 0.138308
0.201602 0.178958 0.138369
0.202396 0.178195 0.138735
0.203769 0.177005 0.139590
0.205264 0.174929 0.140841
0.207523 0.173068 0.142031
0.211765 0.174166 0.141695
0.215885 0.173678 0.142092
0.220188 0.172488 0.142580
0.225620 0.170230 0.143008
0.232883 0.167391 0.143893
0.263493 0.172030 0.140200
0.313725 0.183352 0.128511
0.368475 0.197635 0.113222
0.423926 0.213291 0.092317
0.464790 0.225834 0.070344
0.505028 0.233555 0.042664
0.541131 0.233280 0.026856
0.577081 0.232395 0.010956
0.613306 0.230716 0.000000
0.650141 0.228397 0.000000
0.687251 0.225498 0.000000
0.725063 0.222324 0.000000
0.764126 0.218173 0.000000
0.804410 0.213474 0.000000
0.844480 0.207736 0.000000
0.882353 0.200504 0.000000
0.917571 0.191653 0.000000
0.949615 0.181552 0.000000
0.977874 0.169619 0.000000
1.000000 0.156222 0.000000
1.000000 0.140932 0.000000
0.213382 0.193088 0.142245
0.213657 0.192905 0.142489
0.214237 0.192081 0.142855
0.215610 0.190860 0.143496
0.217075 0.188846 0.144961
0.218753 0.186130 0.146731
0.222416 0.185916 0.147066
0.228000 0.187259 0.146822
0.232120 0.186313 0.147280
0.237247 0.184878 0.147799
0.243351 0.182773 0.148592
0.251072 0.179324 0.149325
0.279606 0.183108 0.147158
0.332952 0.195926 0.134615
0.391852 0.212436 0.117739
0.451148 0.230014 0.093935
0.500877 0.245487 0.048463
0.543755 0.259342 0.003784
0.580652 0.262394 0.000000
0.615839 0.261265 0.000000
0.651759 0.259586 0.000000
0.687922 0.257664 0.000000
0.725154 0.255375 0.000000
0.763699 0.252659 0.000000
0.803708 0.249607 0.000000
0.843259 0.245792 0.000000
0.880827 0.240726 0.000000
0.915831 0.234287 0.000000
0.947692 0.226413 0.000000
0.975860 0.217472 0.000000
0.999817 0.207462 0.000000
1.000000 0.196231 0.000000
0.226871 0.209110 0.146639
0.226902 0.208957 0.146883
0.227665 0.208225 0.147250
0.228885 0.206851 0.147951
0.230442 0.204623 0.149203
0.232242 0.201785 0.150759
0.234195 0.199283 0.152438
0.239689 0.200565 0.152377
0.245640 0.201633 0.152377
0.250553 0.200717 0.152773
0.256626 0.199069 0.153475
0.264652 0.197299 0.154482
0.281102 0.198672 0.158053
0.307530 0.201297 0.158267
0.368231 0.217563 0.143679
0.431006 0.235874 0.124025
0.492134 0.254154 0.095979
0.551537 0.272404 0.010101
0.595789 0.286961 0.000000
0.641657 0.302129 0.000000
0.677577 0.300786 0.000000
0.713436 0.298863 0.000000
0.750454 0.296849 0.000000
0.788785 0.294804 0.000000
0.827390 0.292241 0.000000
0.864256 0.288243 0.000000
0.898466 0.283360 0.000000
0.929931 0.277165 0.000000
0.958312 0.269841 0.000000
0.983337 0.261448 0.000000
1.000000 0.252232 0.000000
1.000000 0.242313 0.000000
0.243503 0.229221 0.152071
0.243748 0.229068 0.152102
0.244114 0.228336 0.152468
0.245121 0.226688 0.153231
0.246708 0.224125 0.154360
0.248203 0.220920 0.156039
0.249638 0.217014 0.157992
0.254154 0.216983 0.158785
0.261326 0.219272 0.158999
0.268162 0.220340 0.159457
0.274998 0.220127 0.160372
0.283452 0.219364 0.161685
0.293034 0.217624 0.163302
0.303807 0.214572 0.165286
0.323705 0.214206 0.168185
0.386236 0.231327 0.153048
0.449104 0.249638 0.132784
0.509239 0.267765 0.105501
0.568200 0.285801 0.029755
0.620844 0.302495 0.000000
0.666560 0.317906 0.000000
0.709987 0.328740 0.000000
0.746426 0.327367 0.000000
0.784390 0.326085 0.000000
0.822751 0.324376 0.000000
0.859586 0.321477 0.000000
0.894133 0.317571 0.000000
0.925902 0.312474 0.000000
0.954681 0.306035 0.000000
0.979980 0.298680 0.000000
1.000000 0.290196 0.000000
1.000000 0.280858 0.000000
0.259922 0.249210 0.157626
0.259953 0.248875 0.157717
0.260502 0.247898 0.157931
0.261357 0.246433 0.158877
0.262730 0.244053 0.159976
0.264408 0.240665 0.161501
0.266026 0.236637 0.163485
0.267857 0.232792 0.165743
0.274632 0.234745 0.165591
0.282628 0.237461 0.165560
0.289250 0.237552 0.166537
0.296727 0.237278 0.167727
0.305486 0.236301 0.169131
0.315404 0.234287 0.170871
0.326116 0.230777 0.173007
0.344030 0.229129 0.175998
0.401068 0.244144 0.163638
0.463447 0.262242 0.143648
0.523644 0.280278 0.117067
0.582910 0.298314 0.060548
0.643244 0.317205 0.000000
0.691310 0.333471 0.000000
0.739284 0.349950 0.000000
0.782742 0.357366 0.000000
0.820768 0.356512 0.000000
0.857450 0.354345 0.000000
0.891814 0.350988 0.000000
0.923461 0.346410 0.000000
0.952117 0.340612 0.000000
0.977356 0.333745 0.000000
0.998718 0.325689 0.000000
1.000000 0.316716 0.000000
0.276402 0.269108 0.163638
0.276402 0.268833 0.163729
0.276951 0.267826 0.164157
0.277562 0.266178 0.164736
0.278477 0.263615 0.165743
0.279942 0.260014 0.167178
0.281590 0.255802 0.169039
0.282780 0.250614 0.171420
0.287022 0.249729 0.172335
0.294560 0.252201 0.172488
0.302800 0.254398 0.172641
0.309758 0.254551 0.173861
0.317693 0.254124 0.175448
0.326757 0.252873 0.177005
0.336584 0.250401 0.178897
0.347173 0.246555 0.181003
0.363806 0.244053 0.183841
0.413825 0.256260 0.174929
0.476204 0.274418 0.155612
0.536645 0.292424 0.130037
0.596704 0.310796 0.091188
0.658991 0.330419 0.000000
0.716762 0.349401 0.000000
0.766781 0.367010 0.000000
0.817624 0.384863 0.000000
0.856016 0.386389 0.000000
0.890288 0.383673 0.000000
0.921965 0.379583 0.000000
0.950683 0.374212 0.000000
0.975860 0.367712 0.000000
0.997223 0.359808 0.000000
1.000000 0.351141 0.000000
0.291630 0.287358 0.169986
0.291691 0.287266 0.170016
0.292027 0.286381 0.170413
0.292882 0.284855 0.170993
0.293950 0.282414 0.171969
0.295445 0.279118 0.173312
0.297063 0.275120 0.175296
0.298497 0.270146 0.177462
0.299840 0.265324 0.179873
0.306920 0.267613 0.180026
0.315221 0.270390 0.180148
0.322911 0.271733 0.180789
0.330022 0.271214 0.182040
0.337804 0.270207 0.183352
0.346349 0.268284 0.184970
0.355810 0.265385 0.186709
0.366186 0.261173 0.188663
0.381659 0.258213 0.191653
0.424506 0.267460 0.186343
0.487037 0.285954 0.168338
0.548394 0.304234 0.144076
0.610864 0.323613 0.109194
0.675380 0.344182 0.000000
0.741085 0.365393 0.000000
0.796262 0.384924 0.000000
0.846555 0.402686 0.000000
0.890623 0.416419 0.000000
0.921874 0.412543 0.000000
0.949981 0.407233 0.000000
0.974426 0.400610 0.000000
0.995056 0.392615 0.000000
1.000000 0.383703 0.000000
0.306004 0.304814 0.176333
0.306157 0.304570 0.176394
0.306523 0.303899 0.176730
0.307195 0.302495 0.177279
0.308354 0.300175 0.178225
0.309667 0.297063 0.179507
0.311131 0.293095 0.181338
0.312718 0.288334 0.183291
0.313787 0.282689 0.185763
0.317662 0.281224 0.187045
0.325383 0.283757 0.187167
0.334325 0.286656 0.187320
0.341161 0.286992 0.188296
0.348363 0.286351 0.189639
0.356298 0.285130 0.191226
0.365026 0.283116 0.192752
0.374365 0.280003 0.194766
0.384802 0.275975 0.196872
0.399390 0.272587 0.199985
0.434943 0.278782 0.198245
0.498238 0.297856 0.181765
0.561151 0.317113 0.159152
0.626032 0.337438 0.127108
0.693050 0.358831 0.040162
0.761532 0.381231 0.000000
0.826078 0.402930 0.000000
0.874723 0.420233 0.000000
0.916808 0.434363 0.000000
0.949279 0.439551 0.000000
0.973114 0.432746 0.000000
0.993225 0.424537 0.000000
1.000000 0.415412 0.000000
0.320836 0.322576 0.183566
0.320989 0.322484 0.183719
0.327184 0.328801 0.187167
0.327916 0.327306 0.187716
0.328801 0.325170 0.188449
0.330022 0.321996 0.189639
0.331395 0.317845 0.191196
0.332738 0.312840 0.192935
0.333715 0.307073 0.195132
0.334356 0.300694 0.197421
0.341466 0.303105 0.197665
0.349981 0.305882 0.197910
0.358770 0.308293 0.198184
0.365270 0.307744 0.199435
0.372442 0.306584 0.200778
0.380163 0.304875 0.202213
0.388678 0.302281 0.203799
0.397833 0.298863 0.205631
0.408026 0.294499 0.207980
0.421332 0.290288 0.210971
0.449653 0.293248 0.212711
0.514244 0.313420 0.197879
0.579522 0.333654 0.176974
0.647578 0.355261 0.146639
0.716762 0.377478 0.094759
0.787839 0.400610 0.000000
0.854551 0.421790 0.000000
0.903136 0.437934 0.000000
0.940673 0.450172 0.000000
0.970214 0.458839 0.000000
0.991028 0.455604 0.000000
1.000000 0.446204 0.000000
0.336950 0.341863 0.192111
0.337682 0.342382 0.192538
0.338598 0.342382 0.192935
0.339666 0.341741 0.193820
0.341039 0.340063 0.194827
0.342382 0.337316 0.195865
0.343572 0.333471 0.197360
0.344762 0.328771 0.198764
0.345830 0.323186 0.200778
0.346349 0.316686 0.202853
0.349737 0.314397 0.204105
0.357488 0.316960 0.204501
0.366217 0.319677 0.204654
0.374182 0.321141 0.205264
0.380896 0.320531 0.206577
0.388220 0.319432 0.208103
0.396124 0.317693 0.209751
0.404852 0.315373 0.211582
0.414405 0.312291 0.213870
0.424933 0.308263 0.216281
0.437720 0.304112 0.219638
0.459236 0.304234 0.224765
0.525292 0.325689 0.211673
0.592920 0.347356 0.192782
0.663355 0.369970 0.164950
0.735164 0.393530 0.121279
0.808591 0.417487 0.000000
0.874601 0.438087 0.000000
0.926604 0.453223 0.000000
0.960113 0.463752 0.000000
0.985260 0.470527 0.000000
1.000000 0.474495 0.000000
0.350134 0.357427 0.199313
0.350774 0.357946 0.199680
0.351598 0.358038 0.200320
0.352850 0.357580 0.200961
0.354070 0.356085 0.201907
0.355383 0.353491 0.202914
0.356512 0.349889 0.204196
0.357824 0.345373 0.205539
0.358770 0.340154 0.207218
0.359411 0.333928 0.208988
0.359350 0.326818 0.211063
0.366339 0.329046 0.211398
0.374456 0.331670 0.211673
0.383459 0.334569 0.211948
0.390661 0.335119 0.213138
0.397589 0.334386 0.214542
0.405097 0.333257 0.216251
0.413245 0.331579 0.218021
0.422309 0.329381 0.220188
0.431952 0.326513 0.222690
0.442603 0.322820 0.225498
0.454841 0.318547 0.228885
0.476265 0.319005 0.234806
0.537194 0.338537 0.226078
0.607294 0.361822 0.209323
0.680751 0.385992 0.183841
0.756039 0.411109 0.145418
0.830961 0.435798 0.037873
0.895232 0.455421 0.000000
0.945464 0.468421 0.000000
0.977356 0.476295 0.000000
0.998230 0.481239 0.000000
0.363867 0.373541 0.207126
0.364355 0.374121 0.207462
0.365270 0.374121 0.207950
0.366308 0.373602 0.208713
0.367407 0.372320 0.209476
0.368566 0.369848 0.210422
0.369818 0.366552 0.211460
0.370916 0.362280 0.212650
0.372045 0.357214 0.214176
0.372808 0.351232 0.215763
0.373083 0.344488 0.217533
0.375952 0.341558 0.218784
0.383490 0.344091 0.219181
0.392065 0.346929 0.219547
0.401221 0.349767 0.220005
0.407843 0.349462 0.221714
0.415167 0.349035 0.223423
0.423133 0.348211 0.225406
0.432044 0.347143 0.227817
0.441749 0.345525 0.230503
0.452552 0.343389 0.233646
0.464088 0.340581 0.237186
0.476448 0.336584 0.241032
0.499123 0.338293 0.247929
0.555657 0.356146 0.244053
0.631037 0.382513 0.229526
0.709163 0.409308 0.207187
0.790555 0.437263 0.172885
0.864805 0.461799 0.117433
0.924498 0.479011 0.000000
0.967559 0.487922 0.000000
0.996246 0.490364 0.000000
0.381628 0.394629 0.217899
0.381933 0.394812 0.218204
0.382391 0.394476 0.218387
0.382910 0.393469 0.218814
0.383734 0.391699 0.219333
0.384558 0.389258 0.220035
0.385565 0.385901 0.220859
0.386633 0.381750 0.221805
0.387701 0.376928 0.223026
0.388556 0.371221 0.224460
0.389075 0.364813 0.226047
0.388830 0.357366 0.227756
0.395422 0.359167 0.228305
0.403510 0.361913 0.228763
0.412390 0.364874 0.229465
0.420996 0.366857 0.230259
0.427832 0.366644 0.232059
0.435370 0.366247 0.234073
0.443702 0.365423 0.236332
0.452735 0.364324 0.238926
0.462593 0.362737 0.241855
0.473335 0.360632 0.245029
0.484871 0.357702 0.248539
0.497108 0.353857 0.252476
0.519768 0.355749 0.259800
0.570855 0.371557 0.259922
0.650172 0.400305 0.247837
0.733089 0.429969 0.228611
0.817655 0.459663 0.198856
0.889555 0.483497 0.157900
0.943847 0.498238 0.086213
0.980713 0.503960 0.000000
0.396918 0.412604 0.227359
0.397223 0.412757 0.227543
0.397589 0.412421 0.227848
0.398138 0.411505 0.228244
0.398871 0.409888 0.228702
0.399695 0.407568 0.229252
0.400641 0.404303 0.229984
0.401678 0.400427 0.230838
0.402747 0.395819 0.231907
0.403754 0.390356 0.233188
0.404303 0.384161 0.234531
0.404364 0.377234 0.236057
0.406867 0.373571 0.237125
0.414618 0.376287 0.237858
0.423194 0.379370 0.238529
0.432624 0.382666 0.239322
0.440558 0.383948 0.240909
0.447944 0.383948 0.243046
0.456092 0.383764 0.245457
0.464912 0.383307 0.248051
0.474556 0.382544 0.251072
0.485023 0.381384 0.254276
0.496254 0.379614 0.258000
0.508324 0.377173 0.261845
0.518120 0.371374 0.263981
0.541100 0.373724 0.271885
0.587366 0.387701 0.276371
0.671229 0.419440 0.267002
0.759701 0.452430 0.250767
0.844755 0.483101 0.226596
0.912688 0.505577 0.196567
0.960143 0.517601 0.156588
0.416205 0.435065 0.239750
0.416632 0.435462 0.240024
0.417090 0.435187 0.240330
0.417426 0.434089 0.240452
0.417700 0.432197 0.240665
0.418219 0.429511 0.241062
0.418769 0.426032 0.241337
0.419226 0.421881 0.241917
0.419989 0.417029 0.242557
0.420630 0.411444 0.243381
0.420935 0.405066 0.244297
0.420905 0.398016 0.245487
0.420233 0.390143 0.246525
0.426368 0.391211 0.247257
0.434150 0.393866 0.247684
0.442939 0.396765 0.248417
0.452644 0.400031 0.249058
0.459724 0.400366 0.251225
0.467536 0.400549 0.253544
0.476173 0.400793 0.256352
0.485756 0.400763 0.259342
0.496010 0.400427 0.262791
0.506859 0.399512 0.266361
0.518364 0.397925 0.270176
0.530449 0.395422 0.273960
0.543267 0.392157 0.278141
0.567071 0.394995 0.286442
0.608698 0.407385 0.295171
0.697749 0.442359 0.288518
0.791470 0.478584 0.275547
0.873655 0.509026 0.257877
0.934325 0.529015 0.237705
0.433509 0.455421 0.250584
0.433936 0.455787 0.250889
0.434485 0.455634 0.251194
0.434943 0.454749 0.251560
0.435431 0.453162 0.251835
0.436072 0.450904 0.252201
0.436927 0.447944 0.252842
0.437873 0.444190 0.253452
0.438849 0.439826 0.254276
0.439796 0.434791 0.255406
0.440497 0.428962 0.256443
0.440833 0.422400 0.257633
0.440497 0.414893 0.258793
0.442481 0.410407 0.259770
0.450111 0.413123 0.260288
0.458564 0.415991 0.261112
0.467964 0.419318 0.261967
0.477333 0.422065 0.263310
0.484962 0.422644 0.265721
0.493538 0.423316 0.268528
0.502983 0.423896 0.271794
0.513298 0.424323 0.275242
0.524193 0.424414 0.278965
0.536034 0.423926 0.282963
0.548425 0.422889 0.287114
0.561761 0.421088 0.291447
0.575799 0.418524 0.296086
0.601587 0.422644 0.305425
0.640009 0.434302 0.319554
0.737819 0.474464 0.316228
0.833158 0.512902 0.308324
0.907225 0.541253 0.298894
0.456336 0.482124 0.265141
0.456641 0.482307 0.265263
0.456977 0.481941 0.265537
0.457313 0.480995 0.265629
0.457771 0.479377 0.266026
0.458381 0.477089 0.266331
0.458991 0.474098 0.266850
0.459846 0.470466 0.267460
0.460792 0.466194 0.268315
0.461769 0.461280 0.269230
0.462593 0.455482 0.270298
0.463081 0.449042 0.271519
0.463081 0.441932 0.272740
0.462318 0.433875 0.273777
0.468421 0.434638 0.274601
0.476661 0.437629 0.275456
0.485908 0.440955 0.276432
0.496132 0.444739 0.277562
0.505333 0.447059 0.279606
0.513939 0.448249 0.282567
0.523461 0.449531 0.285801
0.533837 0.450660 0.289494
0.544945 0.451484 0.293248
0.556847 0.451911 0.297368
0.569512 0.451881 0.301457
0.583001 0.451148 0.305791
0.597314 0.449928 0.310430
0.612512 0.447791 0.315373
0.639429 0.452552 0.325444
0.683406 0.467964 0.343145
0.781277 0.509392 0.346349
0.871702 0.547784 0.345342
0.482368 0.512505 0.281315
0.482734 0.512718 0.281498
0.483070 0.512444 0.281743
0.483558 0.511681 0.282048
0.484260 0.510399 0.282414
0.485206 0.508629 0.283085
0.486732 0.506615 0.284245
0.488441 0.504143 0.285618
0.490547 0.501152 0.287327
0.492897 0.497627 0.289281
0.495033 0.493477 0.291478
0.496925 0.488472 0.293614
0.498390 0.482521 0.295811
0.498970 0.475563 0.297795
0.501335 0.471199 0.299474
0.510277 0.474830 0.300786
0.520012 0.478767 0.302068
0.530816 0.483101 0.303532
0.542840 0.488136 0.305272
0.552636 0.490547 0.308263
0.562951 0.492744 0.311772
0.574121 0.494850 0.315587
0.585992 0.496559 0.319585
0.598657 0.497932 0.323827
0.611902 0.498756 0.328161
0.625940 0.499062 0.332799
0.640925 0.498817 0.337713
0.656886 0.497993 0.342992
0.674128 0.496559 0.348699
0.704189 0.502708 0.360113
0.759182 0.525170 0.383551
0.845029 0.564019 0.397894
0.524071 0.561028 0.307774
0.524132 0.560937 0.307805
0.524254 0.560418 0.307897
0.524498 0.559411 0.307958
0.524956 0.557855 0.308263
0.525658 0.555718 0.308751
0.526665 0.553155 0.309514
0.527916 0.550011 0.310399
0.529503 0.546380 0.311650
0.531182 0.542138 0.313146
0.532952 0.537346 0.314916
0.534539 0.531853 0.316777
0.535821 0.525566 0.318761
0.536553 0.518486 0.320775
