20 Preset/Car Style/【3】LUT video cho PR-AE-FCPX/Tone  (6).cube
# Created by Adobe Lightroom plugin Export LUT (1.24.0)
# www.johnrellis.com/lightroom/exportlut.htm
# Preset: 07汽车质感（素材江湖）
# Color profile: E:\lut插件\exportlut.1.24\exportlut.lrplugin\color profiles\Rec709gamma2.4.icc
LUT_3D_SIZE 5
DOMAIN_MIN 0.000000 0.000000 0.000000
DOMAIN_MAX 0.903226 0.903226 0.903226
0.104799 0.112367 0.124636
0.215427 0.123842 0.137057
0.365148 0.144594 0.159731
0.603265 0.170138 0.188052
0.885374 0.192599 0.214420
0.159945 0.204929 0.194400
0.208072 0.221134 0.185824
0.370428 0.233127 0.191836
0.615290 0.258122 0.204868
0.893126 0.283574 0.225406
0.253361 0.365789 0.303624
0.285008 0.360571 0.315740
0.404120 0.423224 0.275700
0.654200 0.463081 0.257389
0.899687 0.490303 0.283757
0.423590 0.614374 0.479713
0.450874 0.612787 0.491096
0.506615 0.630182 0.494728
0.661280 0.685145 0.419776
0.914214 0.722805 0.405432
0.702419 0.861143 0.737453
0.715572 0.860563 0.744198
0.754055 0.853361 0.763272
0.786007 0.880247 0.744503
0.885710 0.904631 0.696712
0.104585 0.120089 0.215274
0.201144 0.131075 0.226566
0.357671 0.155459 0.235477
0.601038 0.111391 0.236393
0.872313 0.113924 0.254887
0.152407 0.219364 0.236545
0.214176 0.224704 0.241917
0.372137 0.223331 0.240696
0.609491 0.230686 0.248661
0.877317 0.244907 0.264347
0.251865 0.377813 0.319341
0.290898 0.374029 0.331487
0.397559 0.414221 0.310369
0.640284 0.450721 0.303166
0.895750 0.481025 0.324987
0.427771 0.621363 0.492378
0.456672 0.620356 0.503899
0.521935 0.629725 0.521630
0.661677 0.683650 0.451362
0.911162 0.721309 0.442542
0.702449 0.863340 0.741329
0.715572 0.862516 0.747677
0.763851 0.861021 0.774807
0.795163 0.882628 0.761318
0.889158 0.906706 0.715816
0.124239 0.146029 0.344762
0.195956 0.155917 0.354040
0.363073 0.172915 0.383856
0.595270 0.167178 0.423743
0.876677 0.000000 0.436255
0.163119 0.227298 0.362585
0.215702 0.229099 0.369299
0.376135 0.233494 0.396094
0.609705 0.226932 0.426795
0.888975 0.023957 0.426825
0.172213 0.404273 0.416358
0.239506 0.407996 0.420020
0.418463 0.424903 0.436042
0.656458 0.414771 0.426612
0.906126 0.426520 0.437659
0.412451 0.646693 0.541466
0.452674 0.644038 0.548730
0.553063 0.642084 0.579095
0.668391 0.683223 0.551843
0.903899 0.716091 0.555261
0.686183 0.870878 0.749050
0.702998 0.870481 0.756130
0.759792 0.868681 0.782925
0.809506 0.878874 0.797635
0.889982 0.904417 0.753658
0.147890 0.168978 0.550744
0.220462 0.170382 0.557885
0.392584 0.167453 0.584894
0.613764 0.146487 0.622126
0.863310 0.164828 0.657893
0.144076 0.231876 0.561822
0.218204 0.231937 0.567681
0.393500 0.229923 0.591180
0.617060 0.228397 0.625422
0.865232 0.255955 0.659266
0.167239 0.401099 0.582208
0.233799 0.403510 0.587945
0.409155 0.415015 0.611688
0.636805 0.433509 0.643854
0.881712 0.463935 0.674067
0.268345 0.653986 0.657923
0.321813 0.654810 0.658625
0.475410 0.663355 0.666957
0.682124 0.683955 0.687190
0.919036 0.676143 0.679561
0.608606 0.889555 0.778866
0.633814 0.888945 0.783047
0.726284 0.887236 0.804105
0.830533 0.884581 0.841733
0.896361 0.904631 0.822354
0.161410 0.175326 0.819089
0.243412 0.172366 0.821714
0.425757 0.157626 0.833738
0.641077 0.126436 0.854856
0.873106 0.158755 0.874723
0.117372 0.234043 0.820493
0.222812 0.232517 0.823178
0.418921 0.226780 0.834531
0.639582 0.221683 0.855009
0.873320 0.253147 0.874907
0.000000 0.403265 0.827573
0.155459 0.404059 0.829526
0.405463 0.409705 0.839445
0.639338 0.423346 0.858091
0.878080 0.457435 0.879423
0.237766 0.644373 0.842161
0.290318 0.642908 0.841733
0.441291 0.640009 0.843137
0.654932 0.656275 0.864591
0.888823 0.698909 0.889738
0.497322 0.886534 0.886961
0.522087 0.886839 0.887205
0.618341 0.889097 0.889464
0.762051 0.893706 0.894041
0.905486 0.905638 0.905913
