20 Preset/Car Style/【3】LUT video cho PR-AE-FCPX/Tone  (21).cube
# Created by Adobe Lightroom plugin Export LUT (1.24.0)
# www.johnrellis.com/lightroom/exportlut.htm
# Preset: 22汽车质感（素材江湖）
# Color profile: E:\lut插件\exportlut.1.24\exportlut.lrplugin\color profiles\Rec709gamma2.4.icc
LUT_3D_SIZE 5
DOMAIN_MIN 0.000000 0.000000 0.000000
DOMAIN_MAX 0.903226 0.903226 0.903226
0.071565 0.092134 0.088289
0.147189 0.090639 0.090883
0.402838 0.000000 0.089754
0.798642 0.000000 0.037995
1.000000 0.000000 0.000000
0.144808 0.145144 0.094118
0.189364 0.128328 0.096345
0.417945 0.059541 0.091463
0.814725 0.000000 0.016693
1.000000 0.000000 0.000000
0.419684 0.430365 0.000000
0.506493 0.425055 0.000000
0.662684 0.344305 0.000000
0.881590 0.277440 0.000000
1.000000 0.297002 0.000000
0.733852 0.730587 0.000000
0.781247 0.729702 0.000000
0.885588 0.703670 0.000000
0.972259 0.600427 0.000000
1.000000 0.537652 0.189181
0.920836 0.876677 0.347204
0.936278 0.875975 0.342443
0.988434 0.866819 0.273991
1.000000 0.838773 0.330053
1.000000 0.783902 0.437079
0.092042 0.100465 0.119722
0.133089 0.102449 0.123568
0.368414 0.000000 0.137057
0.766720 0.000000 0.130434
1.000000 0.000000 0.126162
0.112154 0.140902 0.135805
0.158419 0.146029 0.142306
0.407019 0.089784 0.140261
0.777523 0.000000 0.132601
1.000000 0.000000 0.129183
0.306676 0.406958 0.087312
0.411688 0.408850 0.021454
0.594720 0.329198 0.104097
0.825467 0.299504 0.139345
1.000000 0.318029 0.169100
0.685451 0.727321 0.000000
0.737636 0.727565 0.000000
0.870176 0.708797 0.000000
0.958404 0.609216 0.176608
1.000000 0.558099 0.269871
0.904509 0.876616 0.404517
0.920226 0.875639 0.399023
0.979339 0.873808 0.384985
1.000000 0.847532 0.410742
1.000000 0.797391 0.500542
0.110750 0.115816 0.248875
0.168093 0.113405 0.254368
0.335729 0.063630 0.272648
0.635492 0.037140 0.330877
1.000000 0.000000 0.360998
0.099092 0.160433 0.301579
0.180423 0.155703 0.299474
0.376257 0.130892 0.305608
0.686091 0.160311 0.357580
1.000000 0.000000 0.372198
0.123232 0.391363 0.371801
0.231510 0.398230 0.378210
0.472023 0.424140 0.406043
0.791318 0.411505 0.410132
1.000000 0.415473 0.423804
0.416938 0.720394 0.401007
0.505486 0.715114 0.417151
0.747463 0.717494 0.416358
0.904448 0.652491 0.445045
1.000000 0.636255 0.484840
0.824582 0.874693 0.553368
0.844968 0.874479 0.552728
0.917662 0.872923 0.543908
0.990600 0.857755 0.542626
1.000000 0.811551 0.599542
0.099886 0.141634 0.522545
0.204959 0.136202 0.524254
0.405707 0.092622 0.523491
0.641230 0.000000 0.536126
0.892363 0.269718 0.585626
0.121126 0.196475 0.552026
0.220798 0.193027 0.550317
0.421973 0.171267 0.542046
0.650690 0.121645 0.544793
0.892332 0.337133 0.593164
0.193210 0.436164 0.612207
0.274571 0.430549 0.611566
0.468605 0.408820 0.608484
0.696132 0.393835 0.594507
0.906065 0.552850 0.650568
0.382086 0.690822 0.665003
0.424262 0.690028 0.664851
0.572808 0.697444 0.675502
0.768887 0.712520 0.697108
0.962127 0.716060 0.704494
0.645441 0.877348 0.696223
0.661341 0.878019 0.693751
0.768948 0.877531 0.715541
0.918669 0.875303 0.728237
0.986023 0.844114 0.748379
0.343420 0.274388 0.793912
0.388922 0.272190 0.792264
0.535973 0.263523 0.788144
0.724819 0.233249 0.776669
0.911620 0.242435 0.778683
0.351080 0.321050 0.796139
0.395331 0.319188 0.794858
0.538079 0.310155 0.789944
0.724117 0.282719 0.777584
0.909972 0.291295 0.778897
0.381292 0.490578 0.813443
0.411444 0.481392 0.811521
0.548455 0.470192 0.805081
0.728847 0.443030 0.791104
0.913024 0.451270 0.790768
0.511589 0.721187 0.827268
0.531701 0.719692 0.826963
0.618311 0.716579 0.828458
0.754025 0.684657 0.824796
0.916411 0.681697 0.820035
0.692195 0.863371 0.843076
0.704372 0.863249 0.843381
0.757839 0.864775 0.846616
0.839078 0.867857 0.852232
0.924376 0.876341 0.862150
