20 Preset/Car Style/【3】LUT video cho PR-AE-FCPX/Tone  (23).cube
# Created by Adobe Lightroom plugin Export LUT (1.24.0)
# www.johnrellis.com/lightroom/exportlut.htm
# Preset: 24汽车质感（素材江湖）
# Color profile: E:\lut插件\exportlut.1.24\exportlut.lrplugin\color profiles\Rec709gamma2.4.icc
LUT_3D_SIZE 5
DOMAIN_MIN 0.000000 0.000000 0.000000
DOMAIN_MAX 0.903226 0.903226 0.903226
0.015930 0.088869 0.093751
0.132418 0.089754 0.095949
0.412696 0.000000 0.092287
0.793301 0.000000 0.029267
1.000000 0.000000 0.000000
0.000000 0.136782 0.123873
0.077516 0.135622 0.119478
0.327184 0.182681 0.142672
0.756710 0.173861 0.116274
1.000000 0.221256 0.113771
0.000000 0.381415 0.283330
0.000000 0.374426 0.277134
0.245060 0.382391 0.261631
0.595148 0.522606 0.364935
0.925597 0.620661 0.455390
0.000000 0.717098 0.559777
0.000000 0.718105 0.560815
0.052491 0.715358 0.525414
0.471626 0.688685 0.498878
0.809262 0.787839 0.639643
0.602960 0.889769 0.813138
0.613672 0.889586 0.814084
0.618616 0.882444 0.803738
0.663996 0.883940 0.784634
0.779721 0.876677 0.794003
0.036713 0.096284 0.143221
0.123415 0.092866 0.150362
0.401465 0.000000 0.156313
0.767575 0.000000 0.140871
1.000000 0.000000 0.116426
0.022461 0.144869 0.161013
0.137789 0.160647 0.173220
0.398535 0.144015 0.173739
0.758053 0.000000 0.170047
1.000000 0.000000 0.164218
0.000000 0.382238 0.320104
0.100008 0.381292 0.316411
0.269718 0.373724 0.295171
0.584039 0.505150 0.400458
0.934508 0.601831 0.456184
0.000000 0.717861 0.587182
0.000000 0.720333 0.589776
0.268406 0.720363 0.571923
0.497871 0.692592 0.533379
0.812680 0.788540 0.664576
0.619959 0.889006 0.819242
0.628443 0.888609 0.819486
0.669978 0.888518 0.824979
0.697536 0.888151 0.805539
0.797635 0.881926 0.813413
0.044007 0.111788 0.371923
0.169314 0.106172 0.374212
0.368109 0.000000 0.383124
0.708461 0.000000 0.427955
1.000000 0.000000 0.392432
0.122774 0.196719 0.409613
0.197269 0.189120 0.405676
0.388678 0.153262 0.406195
0.733669 0.116640 0.441260
1.000000 0.000000 0.392035
0.000000 0.392432 0.439490
0.157351 0.406256 0.448310
0.417304 0.467231 0.490150
0.756588 0.463111 0.478645
1.000000 0.474220 0.474006
0.283970 0.719844 0.659052
0.361089 0.718685 0.663661
0.483223 0.730251 0.678096
0.595789 0.717952 0.652033
0.832059 0.796536 0.747433
0.654902 0.884489 0.834440
0.666468 0.884977 0.835874
0.704707 0.885863 0.840391
0.740017 0.885863 0.834195
0.808530 0.879240 0.828489
0.214084 0.162081 0.707118
0.282750 0.153994 0.706508
0.456764 0.081300 0.697902
0.689174 0.000000 0.696315
0.950805 0.191409 0.709468
0.244388 0.251896 0.718685
0.301427 0.244541 0.715755
0.462776 0.203677 0.703059
0.686213 0.032074 0.695155
0.944549 0.299382 0.711604
0.192172 0.463691 0.742489
0.269200 0.464881 0.741482
0.479103 0.476204 0.734707
0.695155 0.419623 0.718502
0.932372 0.568902 0.750057
0.209415 0.692378 0.745388
0.289494 0.694820 0.745480
0.494362 0.716762 0.758419
0.724727 0.760586 0.787625
0.927794 0.750820 0.772427
0.606561 0.884672 0.850736
0.633814 0.884703 0.853025
0.732570 0.886442 0.864805
0.811246 0.889921 0.876066
0.844938 0.884367 0.866056
0.520928 0.351354 0.913207
0.544823 0.345006 0.912230
0.638239 0.317967 0.909575
0.783383 0.230198 0.902922
0.958953 0.101839 0.900237
0.524651 0.410681 0.910399
0.547601 0.404456 0.909697
0.635889 0.376623 0.907042
0.777371 0.299138 0.900481
0.953582 0.221897 0.898131
0.559442 0.601648 0.905913
0.573938 0.593866 0.905028
0.641108 0.565972 0.902678
0.764187 0.499336 0.897154
0.939208 0.449531 0.896452
0.570611 0.750393 0.901274
0.589837 0.752010 0.901030
0.667140 0.762142 0.901457
0.772366 0.754482 0.898802
0.909148 0.714870 0.897795
0.613214 0.868284 0.895140
0.630335 0.868864 0.895171
0.701839 0.873289 0.896880
0.802365 0.881956 0.899992
0.894102 0.898650 0.908141
