20 Preset/Car Style/【3】LUT video cho PR-AE-FCPX/Tone  (8).cube
# Created by Adobe Lightroom plugin Export LUT (1.24.0)
# www.johnrellis.com/lightroom/exportlut.htm
# Preset: 09汽车质感（素材江湖）
# Color profile: E:\lut插件\exportlut.1.24\exportlut.lrplugin\color profiles\Rec709gamma2.4.icc
LUT_3D_SIZE 32
DOMAIN_MIN 0.0 0.0 0.0
DOMAIN_MAX 1.0 1.0 1.0
0.096712 0.096712 0.096712
0.096712 0.096712 0.096712
0.097383 0.097383 0.097383
0.098390 0.098390 0.098390
0.100618 0.100618 0.100618
0.103426 0.103426 0.103426
0.106691 0.106691 0.106691
0.110384 0.110384 0.110384
0.115206 0.115206 0.115206
0.121523 0.121523 0.121523
0.129641 0.129641 0.129641
0.139895 0.139895 0.139895
0.152102 0.152102 0.152102
0.166690 0.166690 0.166690
0.183169 0.183169 0.183169
0.201297 0.201297 0.201297
0.221103 0.221103 0.221103
0.242252 0.242252 0.242252
0.264225 0.264225 0.264225
0.287480 0.287480 0.287480
0.311589 0.311589 0.311589
0.339849 0.339849 0.339849
0.370123 0.370123 0.370123
0.400122 0.400122 0.400122
0.430060 0.430060 0.430060
0.460487 0.460487 0.460487
0.492042 0.492042 0.492042
0.525078 0.525078 0.525078
0.560052 0.560052 0.560052
0.596246 0.596246 0.596246
0.633326 0.633326 0.633326
0.671168 0.671168 0.671168
0.097047 0.097047 0.097047
0.097047 0.097047 0.097047
0.097719 0.097719 0.097719
0.098726 0.098726 0.098726
0.100923 0.100923 0.100923
0.103731 0.103731 0.103731
0.106966 0.106966 0.106966
0.110658 0.110658 0.110658
0.115480 0.115480 0.115480
0.121767 0.121767 0.121767
0.129641 0.129641 0.129641
0.139712 0.139712 0.139712
0.151736 0.151736 0.151736
0.166232 0.166232 0.166232
0.182467 0.182467 0.182467
0.200565 0.200565 0.200565
0.220157 0.220157 0.220157
0.241123 0.241123 0.241123
0.263066 0.263066 0.263066
0.286259 0.286259 0.286259
0.309941 0.309941 0.309941
0.337560 0.337560 0.337560
0.366827 0.366827 0.366827
0.396033 0.396033 0.396033
0.425269 0.425269 0.425269
0.455116 0.455116 0.455116
0.486213 0.486213 0.486213
0.518914 0.518914 0.518914
0.553704 0.553704 0.553704
0.590112 0.590112 0.590112
0.627405 0.627405 0.627405
0.665492 0.665492 0.665492
0.098726 0.098726 0.098726
0.099062 0.099062 0.099062
0.099367 0.099367 0.099367
0.100618 0.100618 0.100618
0.103120 0.103120 0.103120
0.105806 0.105806 0.105806
0.108705 0.108705 0.108705
0.112581 0.112581 0.112581
0.117556 0.117556 0.117556
0.123903 0.123903 0.123903
0.132052 0.132052 0.132052
0.142092 0.142092 0.142092
0.154208 0.154208 0.154208
0.168399 0.168399 0.168399
0.184665 0.184665 0.184665
0.202487 0.202487 0.202487
0.222049 0.222049 0.222049
0.242710 0.242710 0.242710
0.264469 0.264469 0.264469
0.287327 0.287327 0.287327
0.311070 0.311070 0.311070
0.338750 0.338750 0.338750
0.367346 0.367346 0.367346
0.395880 0.395880 0.395880
0.424689 0.424689 0.424689
0.453925 0.453925 0.453925
0.484688 0.484688 0.484688
0.517113 0.517113 0.517113
0.551843 0.551843 0.551843
0.588190 0.588190 0.588190
0.625330 0.625330 0.625330
0.663264 0.663264 0.663264
0.103120 0.103120 0.103120
0.103120 0.103120 0.103120
0.103426 0.103426 0.103426
0.104646 0.104646 0.104646
0.107271 0.107271 0.107271
0.109834 0.109834 0.109834
0.113130 0.113130 0.113130
0.117311 0.117311 0.117311
0.122255 0.122255 0.122255
0.128969 0.128969 0.128969
0.137270 0.137270 0.137270
0.147585 0.147585 0.147585
0.159792 0.159792 0.159792
0.173953 0.173953 0.173953
0.189822 0.189822 0.189822
0.207492 0.207492 0.207492
0.226474 0.226474 0.226474
0.246708 0.246708 0.246708
0.267948 0.267948 0.267948
0.290440 0.290440 0.290440
0.313451 0.313451 0.313451
0.340764 0.340764 0.340764
0.368231 0.368231 0.368231
0.396155 0.396155 0.396155
0.424811 0.424811 0.424811
0.454444 0.454444 0.454444
0.485634 0.485634 0.485634
0.518425 0.518425 0.518425
0.553338 0.553338 0.553338
0.589593 0.589593 0.589593
0.626215 0.626215 0.626215
0.663386 0.663386 0.663386
0.110109 0.110109 0.110109
0.110109 0.110109 0.110109
0.110384 0.110384 0.110384
0.111482 0.111482 0.111482
0.113405 0.113405 0.113405
0.117556 0.117556 0.117556
0.121035 0.121035 0.121035
0.125338 0.125338 0.125338
0.130709 0.130709 0.130709
0.137484 0.137484 0.137484
0.145907 0.145907 0.145907
0.156283 0.156283 0.156283
0.168551 0.168551 0.168551
0.182620 0.182620 0.182620
0.198520 0.198520 0.198520
0.215885 0.215885 0.215885
0.234684 0.234684 0.234684
0.254551 0.254551 0.254551
0.275334 0.275334 0.275334
0.297276 0.297276 0.297276
0.320867 0.320867 0.320867
0.347509 0.347509 0.347509
0.374029 0.374029 0.374029
0.401312 0.401312 0.401312
0.429572 0.429572 0.429572
0.458991 0.458991 0.458991
0.489754 0.489754 0.489754
0.522179 0.522179 0.522179
0.556695 0.556695 0.556695
0.592340 0.592340 0.592340
0.628382 0.628382 0.628382
0.664942 0.664942 0.664942
0.120790 0.120790 0.120790
0.121035 0.121035 0.121035
0.121309 0.121309 0.121309
0.122469 0.122469 0.122469
0.124636 0.124636 0.124636
0.127596 0.127596 0.127596
0.134798 0.134798 0.134798
0.139101 0.139101 0.139101
0.144381 0.144381 0.144381
0.151400 0.151400 0.151400
0.159976 0.159976 0.159976
0.170230 0.170230 0.170230
0.182467 0.182467 0.182467
0.196536 0.196536 0.196536
0.212253 0.212253 0.212253
0.228977 0.228977 0.228977
0.247440 0.247440 0.247440
0.266819 0.266819 0.266819
0.287327 0.287327 0.287327
0.308721 0.308721 0.308721
0.333196 0.333196 0.333196
0.358953 0.358953 0.358953
0.407599 0.407599 0.407599
0.436774 0.436774 0.436774
0.466194 0.466194 0.466194
0.496468 0.496468 0.496468
0.527733 0.527733 0.527733
0.560174 0.560174 0.560174
0.593561 0.593561 0.593561
0.627161 0.627161 0.627161
0.661036 0.661036 0.661036
0.694911 0.694911 0.694911
0.139498 0.139498 0.139498
0.139498 0.139498 0.139498
0.140108 0.140108 0.140108
0.141299 0.141299 0.141299
0.143618 0.143618 0.143618
0.147036 0.147036 0.147036
0.151583 0.151583 0.151583
0.162570 0.162570 0.162570
0.167636 0.167636 0.167636
0.174411 0.174411 0.174411
0.183169 0.183169 0.183169
0.193912 0.193912 0.193912
0.205997 0.205997 0.205997
0.219638 0.219638 0.219638
0.234684 0.234684 0.234684
0.250889 0.250889 0.250889
0.268437 0.268437 0.268437
0.287205 0.287205 0.287205
0.307134 0.307134 0.307134
0.329625 0.329625 0.329625
0.356481 0.356481 0.356481
0.383856 0.383856 0.383856
0.412024 0.412024 0.412024
0.441291 0.441291 0.441291
0.471290 0.471290 0.471290
0.501671 0.501671 0.501671
0.532433 0.532433 0.532433
0.564233 0.564233 0.564233
0.596582 0.596582 0.596582
0.629053 0.629053 0.629053
0.662104 0.662104 0.662104
0.695399 0.695399 0.695399
0.161593 0.161593 0.161593
0.161593 0.161593 0.161593
0.162264 0.162264 0.162264
0.163210 0.163210 0.163210
0.165438 0.165438 0.165438
0.168704 0.168704 0.168704
0.173068 0.173068 0.173068
0.178439 0.178439 0.178439
0.190097 0.190097 0.190097
0.199252 0.199252 0.199252
0.207279 0.207279 0.207279
0.217075 0.217075 0.217075
0.228275 0.228275 0.228275
0.241123 0.241123 0.241123
0.255253 0.255253 0.255253
0.270665 0.270665 0.270665
0.287114 0.287114 0.287114
0.304936 0.304936 0.304936
0.324651 0.324651 0.324651
0.348333 0.348333 0.348333
0.372808 0.372808 0.372808
0.398260 0.398260 0.398260
0.424872 0.424872 0.424872
0.452796 0.452796 0.452796
0.481666 0.481666 0.481666
0.510948 0.510948 0.510948
0.540978 0.540978 0.540978
0.571801 0.571801 0.571801
0.603174 0.603174 0.603174
0.634882 0.634882 0.634882
0.667048 0.667048 0.667048
0.699550 0.699550 0.699550
0.188388 0.188388 0.188388
0.188510 0.188510 0.188510
0.189029 0.189029 0.189029
0.190097 0.190097 0.190097
0.192020 0.192020 0.192020
0.194919 0.194919 0.194919
0.198886 0.198886 0.198886
0.204013 0.204013 0.204013
0.210330 0.210330 0.210330
0.221317 0.221317 0.221317
0.235355 0.235355 0.235355
0.244450 0.244450 0.244450
0.254978 0.254978 0.254978
0.266911 0.266911 0.266911
0.280064 0.280064 0.280064
0.294285 0.294285 0.294285
0.309880 0.309880 0.309880
0.327642 0.327642 0.327642
0.348516 0.348516 0.348516
0.370184 0.370184 0.370184
0.392859 0.392859 0.392859
0.416602 0.416602 0.416602
0.441688 0.441688 0.441688
0.468330 0.468330 0.468330
0.495979 0.495979 0.495979
0.524254 0.524254 0.524254
0.553491 0.553491 0.553491
0.583185 0.583185 0.583185
0.613367 0.613367 0.613367
0.643977 0.643977 0.643977
0.675074 0.675074 0.675074
0.706630 0.706630 0.706630
0.219211 0.219211 0.219211
0.219303 0.219303 0.219303
0.219638 0.219638 0.219638
0.220676 0.220676 0.220676
0.222049 0.222049 0.222049
0.224338 0.224338 0.224338
0.227878 0.227878 0.227878
0.232761 0.232761 0.232761
0.238407 0.238407 0.238407
0.245365 0.245365 0.245365
0.255253 0.255253 0.255253
0.273808 0.273808 0.273808
0.283604 0.283604 0.283604
0.294621 0.294621 0.294621
0.307256 0.307256 0.307256
0.320684 0.320684 0.320684
0.337896 0.337896 0.337896
0.356054 0.356054 0.356054
0.375341 0.375341 0.375341
0.395239 0.395239 0.395239
0.416083 0.416083 0.416083
0.437598 0.437598 0.437598
0.460487 0.460487 0.460487
0.484810 0.484810 0.484810
0.510399 0.510399 0.510399
0.537072 0.537072 0.537072
0.565087 0.565087 0.565087
0.593683 0.593683 0.593683
0.623011 0.623011 0.623011
0.653040 0.653040 0.653040
0.683528 0.683528 0.683528
0.714473 0.714473 0.714473
0.251682 0.251682 0.251682
0.251865 0.251865 0.251865
0.252293 0.252293 0.252293
0.253178 0.253178 0.253178
0.254734 0.254734 0.254734
0.256779 0.256779 0.256779
0.260075 0.260075 0.260075
0.264530 0.264530 0.264530
0.270024 0.270024 0.270024
0.276493 0.276493 0.276493
0.283970 0.283970 0.283970
0.292454 0.292454 0.292454
0.315587 0.315587 0.315587
0.326116 0.326116 0.326116
0.339574 0.339574 0.339574
0.354162 0.354162 0.354162
0.369574 0.369574 0.369574
0.386053 0.386053 0.386053
0.403326 0.403326 0.403326
0.421454 0.421454 0.421454
0.440497 0.440497 0.440497
0.460517 0.460517 0.460517
0.482216 0.482216 0.482216
0.505303 0.505303 0.505303
0.529839 0.529839 0.529839
0.555657 0.555657 0.555657
0.582208 0.582208 0.582208
0.609461 0.609461 0.609461
0.637446 0.637446 0.637446
0.666224 0.666224 0.666224
0.695552 0.695552 0.695552
0.725307 0.725307 0.725307
0.288060 0.288060 0.288060
0.288212 0.288212 0.288212
0.288579 0.288579 0.288579
0.289525 0.289525 0.289525
0.290959 0.290959 0.290959
0.292943 0.292943 0.292943
0.295811 0.295811 0.295811
0.300114 0.300114 0.300114
0.305058 0.305058 0.305058
0.311131 0.311131 0.311131
0.318181 0.318181 0.318181
0.327825 0.327825 0.327825
0.352819 0.352819 0.352819
0.381384 0.381384 0.381384
0.394202 0.394202 0.394202
0.407996 0.407996 0.407996
0.422553 0.422553 0.422553
0.437903 0.437903 0.437903
0.454139 0.454139 0.454139
0.471290 0.471290 0.471290
0.489204 0.489204 0.489204
0.508049 0.508049 0.508049
0.528405 0.528405 0.528405
0.550195 0.550195 0.550195
0.572900 0.572900 0.572900
0.596033 0.596033 0.596033
0.619593 0.619593 0.619593
0.643641 0.643641 0.643641
0.668513 0.668513 0.668513
0.694209 0.694209 0.694209
0.720607 0.720607 0.720607
0.747799 0.747799 0.747799
0.332982 0.332982 0.332982
0.333104 0.333104 0.333104
0.333196 0.333196 0.333196
0.333684 0.333684 0.333684
0.334508 0.334508 0.334508
0.335973 0.335973 0.335973
0.338231 0.338231 0.338231
0.342962 0.342962 0.342962
0.349065 0.349065 0.349065
0.356481 0.356481 0.356481
0.365423 0.365423 0.365423
0.375677 0.375677 0.375677
0.386969 0.386969 0.386969
0.399023 0.399023 0.399023
0.429328 0.429328 0.429328
0.441901 0.441901 0.441901
0.454871 0.454871 0.454871
0.468330 0.468330 0.468330
0.482673 0.482673 0.482673
0.497841 0.497841 0.497841
0.513909 0.513909 0.513909
0.531304 0.531304 0.531304
0.550378 0.550378 0.550378
0.570733 0.570733 0.570733
0.591852 0.591852 0.591852
0.613642 0.613642 0.613642
0.636042 0.636042 0.636042
0.659144 0.659144 0.659144
0.683040 0.683040 0.683040
0.707881 0.707881 0.707881
0.733333 0.733333 0.733333
0.759396 0.759396 0.759396
0.377173 0.377173 0.377173
0.377173 0.377173 0.377173
0.377142 0.377142 0.377142
0.377630 0.377630 0.377630
0.378424 0.378424 0.378424
0.379919 0.379919 0.379919
0.382055 0.382055 0.382055
0.385412 0.385412 0.385412
0.390295 0.390295 0.390295
0.396582 0.396582 0.396582
0.404364 0.404364 0.404364
0.413519 0.413519 0.413519
0.423743 0.423743 0.423743
0.434546 0.434546 0.434546
0.445563 0.445563 0.445563
0.472480 0.472480 0.472480
0.487831 0.487831 0.487831
0.499825 0.499825 0.499825
0.512779 0.512779 0.512779
0.526452 0.526452 0.526452
0.541192 0.541192 0.541192
0.557549 0.557549 0.557549
0.575158 0.575158 0.575158
0.594049 0.594049 0.594049
0.613794 0.613794 0.613794
0.634241 0.634241 0.634241
0.655329 0.655329 0.655329
0.677119 0.677119 0.677119
0.699825 0.699825 0.699825
0.723445 0.723445 0.723445
0.747646 0.747646 0.747646
0.772580 0.772580 0.772580
0.421973 0.421973 0.421973
0.421973 0.421973 0.421973
0.421851 0.421851 0.421851
0.421912 0.421912 0.421912
0.422095 0.422095 0.422095
0.422889 0.422889 0.422889
0.424506 0.424506 0.424506
0.426947 0.426947 0.426947
0.431067 0.431067 0.431067
0.436591 0.436591 0.436591
0.443488 0.443488 0.443488
0.451789 0.451789 0.451789
0.461006 0.461006 0.461006
0.470741 0.470741 0.470741
0.480751 0.480751 0.480751
0.490639 0.490608 0.490608
0.514275 0.514275 0.514275
0.532769 0.532769 0.532769
0.544457 0.544457 0.544457
0.556847 0.556847 0.556847
0.570275 0.570275 0.570275
0.585107 0.585107 0.585107
0.601221 0.601221 0.601221
0.618494 0.618494 0.618494
0.636683 0.636683 0.636683
0.655848 0.655848 0.655848
0.675807 0.675807 0.675807
0.696712 0.696712 0.696712
0.718532 0.718532 0.718532
0.741360 0.741360 0.741360
0.764981 0.764981 0.764981
0.789090 0.789090 0.789090
0.464240 0.464240 0.464240
0.464363 0.464363 0.464363
0.464485 0.464485 0.464485
0.464851 0.464851 0.464851
0.465339 0.465339 0.465339
0.466438 0.466438 0.466438
0.468330 0.468330 0.468330
0.470954 0.470954 0.470954
0.474586 0.474586 0.474586
0.479591 0.479591 0.479591
0.485512 0.485512 0.485512
0.492287 0.492287 0.492287
0.499763 0.499763 0.499763
0.507561 0.507561 0.507561
0.515709 0.515709 0.515709
0.524132 0.524132 0.524132
0.533074 0.533074 0.533074
0.553674 0.553674 0.553674
0.575097 0.575097 0.575097
0.586297 0.586297 0.586297
0.598871 0.598871 0.598871
0.612726 0.612726 0.612726
0.627802 0.627802 0.627802
0.644038 0.644038 0.644038
0.661219 0.661219 0.661219
0.679316 0.679316 0.679316
0.698299 0.698299 0.698299
0.718013 0.718013 0.718013
0.738552 0.738552 0.738552
0.759823 0.759823 0.759823
0.781704 0.781704 0.781704
0.804074 0.804074 0.804074
0.505486 0.505486 0.505486
0.505455 0.505455 0.505455
0.505669 0.505669 0.505669
0.506004 0.506004 0.506004
0.506645 0.506645 0.506645
0.507652 0.507652 0.507652
0.509331 0.509331 0.509331
0.511772 0.511772 0.511772
0.514946 0.514946 0.514946
0.519036 0.519036 0.519036
0.524285 0.524285 0.524285
0.530327 0.530327 0.530327
0.537133 0.537133 0.537133
0.544182 0.544182 0.544182
0.551659 0.551659 0.551659
0.559258 0.559258 0.559258
0.567071 0.567071 0.567071
0.575463 0.575463 0.575463
0.592584 0.592584 0.592584
0.616297 0.616297 0.616297
0.627741 0.627741 0.627741
0.640497 0.640497 0.640497
0.654566 0.654566 0.654566
0.669673 0.669673 0.669673
0.685786 0.685786 0.685786
0.702754 0.702754 0.702754
0.720668 0.720668 0.720668
0.739345 0.739345 0.739345
0.758724 0.758724 0.758724
0.778744 0.778744 0.778744
0.799344 0.799344 0.799344
0.820249 0.820249 0.820249
0.548333 0.548333 0.548333
0.548608 0.548608 0.548608
0.565393 0.565393 0.565393
0.565759 0.565759 0.565759
0.566339 0.566339 0.566339
0.567224 0.567224 0.567224
0.568444 0.568444 0.568444
0.570275 0.570275 0.570275
0.572808 0.572808 0.572808
0.576104 0.576104 0.576104
0.580529 0.580529 0.580529
0.585534 0.585534 0.585534
0.590753 0.590753 0.590753
0.596155 0.596155 0.596155
0.601678 0.601678 0.601678
0.607416 0.607416 0.607416
0.613123 0.613123 0.613123
0.619196 0.619196 0.619196
0.625788 0.625788 0.625788
0.638788 0.638788 0.638788
0.663996 0.663996 0.663996
0.675105 0.675105 0.675105
0.687373 0.687373 0.687373
0.700587 0.700587 0.700587
0.714534 0.714534 0.714534
0.729335 0.729335 0.729335
0.744961 0.744961 0.744961
0.761532 0.761532 0.761532
0.779141 0.779141 0.779141
0.797543 0.797543 0.797543
0.816587 0.816587 0.816587
0.835935 0.835935 0.835935
0.594720 0.594720 0.594720
0.596246 0.596246 0.596246
0.598016 0.598016 0.598016
0.599756 0.599756 0.599756
0.601343 0.601343 0.601343
0.602533 0.602533 0.602533
0.603784 0.603784 0.603784
0.605249 0.605249 0.605249
0.607324 0.607324 0.607324
0.609949 0.609949 0.609949
0.613489 0.613489 0.613489
0.617762 0.617762 0.617762
0.622309 0.622309 0.622309
0.627161 0.627161 0.627161
0.632105 0.632105 0.632105
0.637385 0.637385 0.637385
0.642817 0.642817 0.642817
0.648676 0.648676 0.648676
0.654994 0.654994 0.654994
0.661891 0.661891 0.661891
0.672847 0.672847 0.672847
0.700526 0.700526 0.700526
0.711971 0.711971 0.711971
0.724239 0.724239 0.724239
0.737179 0.737179 0.737179
0.750851 0.750851 0.750851
0.765316 0.765316 0.765316
0.780667 0.780667 0.780667
0.796994 0.796994 0.796994
0.814145 0.814145 0.814145
0.831937 0.831937 0.831937
0.850004 0.850004 0.850004
0.631220 0.631220 0.631220
0.632807 0.632807 0.632807
0.634516 0.634516 0.634516
0.636347 0.636347 0.636347
0.637873 0.637873 0.637873
0.639033 0.639033 0.639033
0.640162 0.640162 0.640162
0.641444 0.641444 0.641444
0.643153 0.643153 0.643153
0.645319 0.645319 0.645319
0.648035 0.648035 0.648035
0.651698 0.651698 0.651698
0.655726 0.655726 0.655726
0.660029 0.660029 0.660029
0.664576 0.664576 0.664576
0.669337 0.669337 0.669337
0.674281 0.674281 0.674281
0.679561 0.679561 0.679561
0.685267 0.685267 0.685267
0.691493 0.691493 0.691493
0.698177 0.698177 0.698177
0.706844 0.706844 0.706844
0.733577 0.733577 0.733577
0.747341 0.747341 0.747341
0.759365 0.759365 0.759365
0.772030 0.772030 0.772030
0.785367 0.785367 0.785367
0.799557 0.799557 0.799557
0.814664 0.814664 0.814664
0.830533 0.830533 0.830533
0.846983 0.846983 0.846983
0.863645 0.863645 0.863645
0.667842 0.667842 0.667842
0.669184 0.669184 0.669184
0.670680 0.670680 0.670680
0.672206 0.672206 0.672206
0.673579 0.673579 0.673579
0.674617 0.674617 0.674617
0.675654 0.675654 0.675654
0.676814 0.676814 0.676814
0.678370 0.678370 0.678370
0.680171 0.680171 0.680171
0.682582 0.682582 0.682582
0.685512 0.685512 0.685512
0.689021 0.689021 0.689021
0.692805 0.692805 0.692805
0.696986 0.696986 0.696986
0.701411 0.701411 0.701411
0.706386 0.706386 0.706386
0.711727 0.711727 0.711727
0.717617 0.717617 0.717617
0.724117 0.724117 0.724117
0.731167 0.731167 0.731167
0.738552 0.738552 0.738552
0.746059 0.746059 0.746059
0.771267 0.771267 0.771267
0.787259 0.787259 0.787259
0.799313 0.799313 0.799313
0.811887 0.811887 0.811887
0.825071 0.825071 0.825071
0.839017 0.839017 0.839017
0.853483 0.853483 0.853483
0.868315 0.868315 0.868315
0.883207 0.883207 0.883207
0.711666 0.711666 0.711666
0.712245 0.712245 0.712245
0.712703 0.712703 0.712703
0.713191 0.713191 0.713191
0.713710 0.713710 0.713710
0.714137 0.714137 0.714137
0.714748 0.714748 0.714748
0.715663 0.715663 0.715663
0.716915 0.716915 0.716915
0.718624 0.718624 0.718624
0.720729 0.720729 0.720729
0.723140 0.723140 0.723140
0.726162 0.726162 0.726162
0.729549 0.729549 0.729549
0.733059 0.733059 0.733059
0.736904 0.736904 0.736904
0.740993 0.740993 0.740993
0.745510 0.745510 0.745510
0.750332 0.750332 0.750332
0.755642 0.755642 0.755642
0.761288 0.761288 0.761288
0.767330 0.767330 0.767330
0.773526 0.773526 0.773526
0.779904 0.779904 0.779904
0.801297 0.801297 0.801297
0.818173 0.818173 0.818173
0.829892 0.829892 0.829892
0.842191 0.842191 0.842191
0.855009 0.855009 0.855009
0.868284 0.868284 0.868284
0.881773 0.881773 0.881773
0.895323 0.895323 0.895323
0.745754 0.745754 0.745754
0.746151 0.746151 0.746151
0.746670 0.746670 0.746670
0.747066 0.747066 0.747066
0.747555 0.747555 0.747555
0.748013 0.748013 0.748013
0.748562 0.748562 0.748562
0.749386 0.749386 0.749386
0.750576 0.750576 0.750576
0.752071 0.752071 0.752071
0.753872 0.753872 0.753872
0.756039 0.756039 0.756039
0.758541 0.758541 0.758541
0.761593 0.761593 0.761593
0.764858 0.764858 0.764858
0.768399 0.768399 0.768399
0.772244 0.772244 0.772244
0.776364 0.776364 0.776364
0.780819 0.780819 0.780819
0.785611 0.785611 0.785611
0.790738 0.790738 0.790738
0.796139 0.796139 0.796139
0.801785 0.801785 0.801785
0.807614 0.807614 0.807614
0.809812 0.809812 0.809812
0.827939 0.827939 0.827939
0.845579 0.845579 0.845579
0.856962 0.856962 0.856962
0.868803 0.868803 0.868803
0.881041 0.881041 0.881041
0.893553 0.893553 0.893553
0.906035 0.906035 0.906035
0.782742 0.782742 0.782742
0.783413 0.783413 0.783413
0.783810 0.783810 0.783810
0.783902 0.783902 0.783902
0.783810 0.783810 0.783810
0.783688 0.783688 0.783688
0.783566 0.783566 0.783566
0.783627 0.783627 0.783627
0.783963 0.783963 0.783963
0.784695 0.784695 0.784695
0.785641 0.785641 0.785641
0.787045 0.787045 0.787045
0.788602 0.788602 0.788602
0.790768 0.790768 0.790768
0.793057 0.793057 0.793057
0.795621 0.795621 0.795621
0.798581 0.798581 0.798581
0.801999 0.801999 0.801999
0.805905 0.805905 0.805905
0.810300 0.810300 0.810300
0.815091 0.815091 0.815091
0.820005 0.820005 0.820005
0.824918 0.824918 0.824918
0.829801 0.829801 0.829801
0.834562 0.834562 0.834562
0.839353 0.839353 0.839353
0.854154 0.854154 0.854154
0.871519 0.871519 0.871519
0.882109 0.882109 0.882109
0.893156 0.893156 0.893156
0.904448 0.904448 0.904448
0.915740 0.915740 0.915740
0.811154 0.811154 0.811154
0.811734 0.811734 0.811734
0.812222 0.812222 0.812222
0.812467 0.812467 0.812467
0.812680 0.812680 0.812680
0.812924 0.812924 0.812924
0.813321 0.813321 0.813321
0.813870 0.813870 0.813870
0.814694 0.814694 0.814694
0.815702 0.815702 0.815702
0.816922 0.816922 0.816922
0.818357 0.818357 0.818357
0.819852 0.819852 0.819852
0.821592 0.821592 0.821592
0.823606 0.823606 0.823606
0.825803 0.825803 0.825803
0.828275 0.828275 0.828275
0.831083 0.831083 0.831083
0.834409 0.834409 0.834409
0.838163 0.838163 0.838163
0.842222 0.842222 0.842222
0.846525 0.846525 0.846525
0.850889 0.850889 0.850889
0.855314 0.855314 0.855314
0.859678 0.859678 0.859678
0.864073 0.864073 0.864073
0.868498 0.868498 0.868498
0.880552 0.880552 0.880552
0.897337 0.897337 0.897337
0.907195 0.907195 0.907195
0.917144 0.917144 0.917144
0.927184 0.927184 0.927184
0.841123 0.841123 0.841123
0.841398 0.841398 0.841398
0.841611 0.841611 0.841611
0.841733 0.841733 0.841733
0.841886 0.841886 0.841886
0.842008 0.842008 0.842008
0.842283 0.842283 0.842283
0.842679 0.842679 0.842679
0.843290 0.843290 0.843290
0.844114 0.844114 0.844114
0.845090 0.845090 0.845090
0.846311 0.846311 0.846311
0.847623 0.847623 0.847623
0.849088 0.849088 0.849088
0.850736 0.850736 0.850736
0.852598 0.852598 0.852598
0.854673 0.854673 0.854673
0.857053 0.857053 0.857053
0.859831 0.859831 0.859831
0.863066 0.863066 0.863066
0.866545 0.866545 0.866545
0.870207 0.870207 0.870207
0.873899 0.873899 0.873899
0.877653 0.877653 0.877653
0.881376 0.881376 0.881376
0.885100 0.885100 0.885100
0.888884 0.888884 0.888884
0.892668 0.892668 0.892668
0.902159 0.902159 0.902159
0.917174 0.917174 0.917174
0.927001 0.927001 0.927001
0.936065 0.936065 0.936065
0.867308 0.867308 0.867308
0.867491 0.867491 0.867491
0.867735 0.867735 0.867735
0.867948 0.867948 0.867948
0.868284 0.868284 0.868284
0.868772 0.868772 0.868772
0.869627 0.869627 0.869627
0.870756 0.870756 0.870756
0.872160 0.872160 0.872160
0.873777 0.873777 0.873777
0.875608 0.875608 0.875608
0.877470 0.877470 0.877470
0.879393 0.879393 0.879393
0.881193 0.881193 0.881193
0.882994 0.882994 0.882994
0.884764 0.884764 0.884764
0.886595 0.886595 0.886595
0.888640 0.888640 0.888640
0.890959 0.890959 0.890959
0.893523 0.893523 0.893523
0.896361 0.896361 0.896361
0.899290 0.899290 0.899290
0.902220 0.902220 0.902220
0.905211 0.905211 0.905211
0.908110 0.908110 0.908110
0.911040 0.911040 0.911040
0.914000 0.914000 0.914000
0.917021 0.917021 0.917021
0.920134 0.920134 0.920134
0.926970 0.926970 0.926970
0.939361 0.939361 0.939361
0.948302 0.948302 0.948302
0.897124 0.897124 0.897124
0.897124 0.897124 0.897124
0.897124 0.897124 0.897124
0.897154 0.897154 0.897154
0.897246 0.897246 0.897246
0.897398 0.897398 0.897398
0.897673 0.897673 0.897673
0.898131 0.898131 0.898131
0.898741 0.898741 0.898741
0.899504 0.899504 0.899504
0.900389 0.900389 0.900389
0.901457 0.901457 0.901457
0.902586 0.902586 0.902586
0.903777 0.903777 0.903777
