20 Preset/Car Style/【3】LUT video cho PR-AE-FCPX/Tone  (19).cube
# Created by Adobe Lightroom plugin Export LUT (1.24.0)
# www.johnrellis.com/lightroom/exportlut.htm
# Preset: 20汽车质感（素材江湖）
# Color profile: E:\lut插件\exportlut.1.24\exportlut.lrplugin\color profiles\Rec709gamma2.4.icc
LUT_3D_SIZE 32
DOMAIN_MIN 0.0 0.0 0.0
DOMAIN_MAX 1.0 1.0 1.0
0.025208 0.092592 0.095186
0.032441 0.092714 0.095125
0.047303 0.093294 0.096101
0.082551 0.094118 0.097688
0.106508 0.096559 0.100313
0.131319 0.098451 0.103792
0.154604 0.100526 0.107912
0.174014 0.102907 0.111818
0.191073 0.104768 0.115846
0.207614 0.107149 0.119875
0.225620 0.109773 0.124361
0.248173 0.111391 0.129213
0.276799 0.111208 0.133516
0.310979 0.108888 0.138033
0.349615 0.103822 0.142428
0.391455 0.094453 0.146944
0.435889 0.070680 0.150698
0.481849 0.016846 0.154177
0.529137 0.000000 0.157198
0.578607 0.000000 0.159823
0.628565 0.000000 0.162356
0.692073 0.000000 0.165103
0.757931 0.000000 0.168185
0.815335 0.000000 0.171695
0.865324 0.000000 0.176028
0.909606 0.000000 0.181155
0.949889 0.000000 0.187991
0.986938 0.000000 0.196384
1.000000 0.000000 0.206882
1.000000 0.000000 0.220645
1.000000 0.000000 0.237736
1.000000 0.094148 0.259495
0.027131 0.094087 0.096529
0.029114 0.094026 0.096529
0.045228 0.094911 0.097444
0.079774 0.096193 0.098573
0.105379 0.098207 0.101198
0.129976 0.100099 0.104982
0.152560 0.102358 0.108431
0.172396 0.104311 0.112337
0.188876 0.106294 0.116365
0.205173 0.108827 0.120363
0.222812 0.110933 0.124636
0.244388 0.112398 0.129030
0.271702 0.112612 0.133394
0.305028 0.111055 0.138186
0.342962 0.106416 0.142428
0.384131 0.098695 0.146761
0.428321 0.081941 0.150607
0.473915 0.033448 0.154116
0.521294 0.000000 0.157015
0.569848 0.000000 0.159792
0.619226 0.000000 0.162203
0.680690 0.000000 0.164920
0.743709 0.000000 0.167788
0.799466 0.000000 0.170840
0.848875 0.000000 0.174624
0.893431 0.000000 0.179294
0.934508 0.000000 0.185061
0.972930 0.000000 0.192691
1.000000 0.000000 0.202548
1.000000 0.000000 0.215061
1.000000 0.000000 0.231174
1.000000 0.000000 0.251987
0.037110 0.098939 0.100710
0.038819 0.098878 0.101076
0.043000 0.100130 0.101961
0.070710 0.104067 0.103761
0.100954 0.106630 0.106783
0.126223 0.108766 0.109621
0.149203 0.110201 0.112642
0.169345 0.111055 0.115846
0.186099 0.112673 0.119173
0.202396 0.114412 0.123140
0.220035 0.116213 0.127047
0.241489 0.117464 0.131106
0.268101 0.118044 0.135195
0.300938 0.116762 0.139681
0.338354 0.112764 0.143923
0.379034 0.106447 0.148013
0.422827 0.094545 0.151614
0.468574 0.060670 0.154940
0.515557 0.000000 0.157839
0.564355 0.000000 0.160586
0.613886 0.000000 0.162997
0.675807 0.000000 0.165469
0.737270 0.000000 0.168368
0.791989 0.000000 0.171450
0.840543 0.000000 0.174838
0.884764 0.000000 0.179019
0.926085 0.000000 0.184604
0.965087 0.000000 0.191775
1.000000 0.000000 0.201114
1.000000 0.000000 0.213565
1.000000 0.000000 0.229160
1.000000 0.000000 0.249210
0.054719 0.109682 0.110414
0.055695 0.109957 0.110689
0.061585 0.110994 0.111788
0.071992 0.113130 0.113344
0.096040 0.119112 0.115908
0.120546 0.121462 0.118410
0.144808 0.122194 0.120333
0.164950 0.122805 0.122774
0.182254 0.123629 0.125399
0.198856 0.124453 0.128420
0.216831 0.125551 0.132174
0.238254 0.126497 0.135592
0.264622 0.127260 0.139498
0.296941 0.126253 0.143404
0.333654 0.123537 0.147036
0.373724 0.117952 0.150698
0.416297 0.109316 0.154025
0.461128 0.094362 0.156985
0.507164 0.052583 0.159487
0.554894 0.000000 0.161929
0.603632 0.000000 0.164065
0.664942 0.000000 0.166751
0.723720 0.000000 0.169314
0.778012 0.000000 0.172152
0.828305 0.000000 0.175540
0.874876 0.000000 0.179934
0.918669 0.000000 0.185611
0.959808 0.000000 0.193179
0.997955 0.000000 0.202976
1.000000 0.000000 0.215274
1.000000 0.000000 0.230655
1.000000 0.035981 0.249729
0.081514 0.123964 0.123140
0.082124 0.124208 0.123384
0.086671 0.124514 0.124392
0.090669 0.126101 0.125490
0.097292 0.128664 0.127443
0.114473 0.135103 0.129397
0.136904 0.137545 0.130648
0.157687 0.136538 0.132601
0.175845 0.136599 0.134310
0.193027 0.137331 0.136568
0.211093 0.137972 0.139193
0.232731 0.138735 0.142153
0.258701 0.139712 0.145602
0.291051 0.139345 0.148867
0.327703 0.137392 0.152132
0.368170 0.133577 0.154940
0.411444 0.126741 0.157748
0.456519 0.115938 0.160189
0.503075 0.099367 0.162570
0.550927 0.056153 0.164706
0.601740 0.000000 0.166842
0.662287 0.000000 0.169375
0.719173 0.000000 0.171756
0.772946 0.000000 0.174502
0.823209 0.000000 0.178134
0.870207 0.000000 0.182712
0.914244 0.000000 0.188663
0.955383 0.000000 0.196231
0.993439 0.000000 0.206088
1.000000 0.000000 0.218387
1.000000 0.000000 0.233707
1.000000 0.121218 0.252506
0.098268 0.138308 0.135866
0.099275 0.138460 0.136080
0.100984 0.138766 0.136965
0.104707 0.139834 0.138186
0.109895 0.141878 0.139681
0.117250 0.144320 0.141512
0.130953 0.149599 0.143893
0.150973 0.152865 0.144167
0.169223 0.152438 0.145785
0.187350 0.151858 0.147768
0.206546 0.152560 0.149447
0.228916 0.153597 0.151675
0.256352 0.154452 0.153994
0.289158 0.154543 0.156374
0.326604 0.153506 0.158724
0.367681 0.150729 0.160922
0.411627 0.145602 0.163088
0.457069 0.138033 0.164889
0.504234 0.126619 0.167056
0.552117 0.110536 0.168734
0.608515 0.080568 0.170993
0.667414 0.000000 0.173373
0.803647 0.000000 0.183291
0.856962 0.000000 0.189364
0.903624 0.000000 0.196567
0.944884 0.000000 0.205264
0.981384 0.000000 0.215335
1.000000 0.000000 0.227115
1.000000 0.122774 0.241032
1.000000 0.176577 0.257298
1.000000 0.224399 0.276371
1.000000 0.269810 0.298253
0.118379 0.155093 0.152041
0.118379 0.155093 0.152041
0.120577 0.155489 0.152773
0.123751 0.155978 0.154086
0.127077 0.157229 0.155245
0.132052 0.159243 0.156680
0.139193 0.161379 0.158602
0.149081 0.165316 0.161501
0.168246 0.170413 0.160800
0.187533 0.171511 0.161715
0.209903 0.171633 0.163546
0.236484 0.172580 0.164797
0.268284 0.173922 0.165866
0.304265 0.174655 0.167147
0.343664 0.174105 0.168338
0.385687 0.172000 0.169589
0.430060 0.168307 0.170809
0.475807 0.162722 0.172244
0.523156 0.155062 0.173709
0.577691 0.144656 0.175631
0.644892 0.130465 0.178683
0.711482 0.111818 0.182315
0.774533 0.091585 0.187076
0.832609 0.073426 0.193515
0.884520 0.073243 0.201511
0.928893 0.096895 0.210910
0.967285 0.120211 0.221073
1.000000 0.148928 0.232456
1.000000 0.180331 0.245884
1.000000 0.214908 0.261143
1.000000 0.251469 0.279149
1.000000 0.289586 0.300084
0.132143 0.166598 0.163455
0.132570 0.166537 0.163455
0.133791 0.166781 0.163973
0.135775 0.167300 0.164981
0.139040 0.168063 0.166079
0.142580 0.169619 0.167269
0.147585 0.171389 0.168551
0.153994 0.173800 0.170382
0.163638 0.177737 0.172946
0.182925 0.184909 0.172732
0.205051 0.188357 0.173251
0.232181 0.190402 0.174411
0.264469 0.190433 0.176059
0.300511 0.192538 0.176547
0.339666 0.193729 0.177096
0.381384 0.193668 0.177737
0.425238 0.192416 0.178500
0.470436 0.189944 0.179294
0.519707 0.186496 0.180697
0.580591 0.182681 0.183444
0.642390 0.177737 0.186557
0.704829 0.172641 0.190433
0.764950 0.169131 0.195560
0.821164 0.169497 0.202670
0.872129 0.174716 0.211124
0.916503 0.183291 0.220340
0.955230 0.196170 0.230442
0.989532 0.212894 0.241581
1.000000 0.234806 0.254948
1.000000 0.259922 0.269993
1.000000 0.288853 0.287968
1.000000 0.320714 0.308385
0.144564 0.178164 0.174075
0.144900 0.178134 0.174228
0.145663 0.178378 0.174533
0.147646 0.178683 0.175296
0.150332 0.179538 0.176455
0.153079 0.180697 0.177584
0.156802 0.182528 0.178744
0.162509 0.184756 0.180117
0.169558 0.187716 0.181979
0.179873 0.192386 0.184604
0.202365 0.202762 0.185245
0.229282 0.209476 0.184939
0.261784 0.214023 0.185580
0.298711 0.215824 0.186770
0.338781 0.215579 0.188235
0.380346 0.217716 0.188296
0.423865 0.218784 0.188571
0.472023 0.219699 0.189792
0.527672 0.221439 0.191897
0.584619 0.222110 0.194675
0.643091 0.222904 0.198123
0.701991 0.224002 0.202548
0.759426 0.226352 0.208621
0.813718 0.230961 0.216098
0.863493 0.237919 0.224979
0.907225 0.246098 0.234134
0.945861 0.256657 0.244633
0.980407 0.270237 0.255985
1.000000 0.286931 0.269139
1.000000 0.307225 0.284337
1.000000 0.331212 0.301854
1.000000 0.358312 0.322301
0.156222 0.191226 0.184848
0.156222 0.191226 0.184848
0.157076 0.191287 0.185000
0.158572 0.191867 0.185824
0.160983 0.192355 0.186801
0.163943 0.193515 0.187961
0.167056 0.195224 0.189029
0.171939 0.197726 0.190249
0.178256 0.200687 0.192081
0.186709 0.204685 0.194125
0.198795 0.210086 0.196994
0.224949 0.224430 0.198459
0.257145 0.235264 0.197391
0.293584 0.242344 0.197848
0.334173 0.246586 0.199100
0.377691 0.247105 0.200992
0.428840 0.250797 0.204044
0.481300 0.256504 0.205936
0.534966 0.261662 0.208621
0.589807 0.265660 0.211460
0.644953 0.269688 0.215244
0.699367 0.273167 0.219669
0.752010 0.277256 0.225223
0.802090 0.282383 0.232212
0.848631 0.288487 0.240055
0.891020 0.295781 0.248661
0.929870 0.304875 0.258701
0.965454 0.316533 0.269963
0.998077 0.331334 0.283391
1.000000 0.349432 0.299046
1.000000 0.370886 0.316899
1.000000 0.395636 0.337957
0.166537 0.206332 0.195560
0.166690 0.206455 0.195682
0.167300 0.206668 0.195926
0.168978 0.207156 0.196689
0.171267 0.208103 0.197787
0.175051 0.209293 0.199527
0.178378 0.211429 0.200839
0.183261 0.214359 0.202243
0.189395 0.218082 0.204196
0.198062 0.222751 0.206699
0.208835 0.228397 0.209476
0.223026 0.235172 0.212650
0.252354 0.253025 0.216434
0.290623 0.269474 0.214603
0.334813 0.282444 0.216434
0.382330 0.291783 0.219303
0.432807 0.297063 0.223301
0.484962 0.299046 0.228183
0.536980 0.303685 0.231388
0.589319 0.310063 0.234165
0.642390 0.315831 0.237461
0.694759 0.321294 0.241733
0.745663 0.327245 0.247410
0.794522 0.333257 0.254246
0.840208 0.340276 0.261875
0.882078 0.347875 0.270787
0.920684 0.356725 0.280735
0.956207 0.367285 0.292241
0.988891 0.380468 0.305577
1.000000 0.396796 0.321202
1.000000 0.415839 0.339178
1.000000 0.437842 0.360082
0.178134 0.227481 0.209079
0.178347 0.227451 0.209354
0.179385 0.227939 0.209781
0.180911 0.228580 0.210575
0.183322 0.229831 0.211887
0.187533 0.231571 0.213870
0.192142 0.234043 0.216190
0.197177 0.237613 0.218051
0.203738 0.241917 0.220340
0.212558 0.247288 0.223087
0.223575 0.253666 0.226505
0.239384 0.263645 0.232090
0.283909 0.303380 0.257816
0.323583 0.332128 0.269535
0.377478 0.361120 0.268009
0.429419 0.378027 0.270115
0.483406 0.389593 0.274022
0.538598 0.396643 0.279149
0.595026 0.399817 0.285435
0.650721 0.400092 0.293034
0.701869 0.406744 0.296574
0.749996 0.412909 0.300847
0.795560 0.418585 0.306432
0.838254 0.424659 0.313146
0.877501 0.430610 0.320623
0.913237 0.436530 0.328893
0.945464 0.443214 0.337865
0.974701 0.451026 0.347997
1.000000 0.460731 0.359716
1.000000 0.472847 0.373846
1.000000 0.487984 0.390936
1.000000 0.506340 0.411231
0.197665 0.264866 0.233524
0.197787 0.264958 0.233616
0.198489 0.264897 0.233738
0.200137 0.265324 0.234531
0.203006 0.265995 0.235599
0.207156 0.267277 0.237552
0.213077 0.269841 0.240726
0.219974 0.275181 0.244450
0.228794 0.282506 0.248844
0.240238 0.291814 0.254520
0.254795 0.303593 0.261662
0.273869 0.317998 0.270665
0.297215 0.334325 0.281254
0.324102 0.352117 0.292821
0.363592 0.381689 0.309819
0.420264 0.414313 0.306950
0.471443 0.431342 0.306859
0.523613 0.442634 0.309606
0.577081 0.449744 0.313756
0.630213 0.452979 0.318853
0.681697 0.453101 0.325628
0.730861 0.453376 0.332677
0.775906 0.459327 0.336767
0.818723 0.465431 0.342473
0.858244 0.471504 0.349065
0.894987 0.477577 0.356542
0.928344 0.484230 0.365301
0.958862 0.491920 0.375250
0.986786 0.501274 0.387060
1.000000 0.513268 0.401587
1.000000 0.527550 0.418708
1.000000 0.544457 0.438941
0.218662 0.304936 0.260990
0.218540 0.304875 0.261021
0.219425 0.304570 0.261051
0.221073 0.305058 0.261814
0.224399 0.306004 0.263218
0.229007 0.307652 0.265415
0.235416 0.310460 0.269047
0.243412 0.315038 0.273808
0.251469 0.321447 0.277592
0.262242 0.329961 0.283024
0.275944 0.341192 0.290166
0.293492 0.355016 0.299229
0.314794 0.370489 0.309636
0.339208 0.387213 0.320897
0.366155 0.403906 0.332311
0.403601 0.430335 0.348516
0.459327 0.463508 0.347265
0.509239 0.480690 0.345068
0.560815 0.492348 0.346593
0.612116 0.499458 0.349676
0.662409 0.503136 0.354955
0.711666 0.504601 0.362127
0.758938 0.504295 0.370764
0.803159 0.507225 0.378302
0.843046 0.513695 0.384039
0.880064 0.520134 0.391058
0.913878 0.526787 0.399176
0.944854 0.534295 0.408698
0.973053 0.543359 0.420386
0.998505 0.554681 0.434699
1.000000 0.568231 0.451759
1.000000 0.584405 0.472053
0.242527 0.349615 0.293217
0.242802 0.349523 0.293217
0.243351 0.349187 0.293187
0.245274 0.348852 0.293553
0.248051 0.348882 0.294316
0.252354 0.349676 0.296056
0.258457 0.351812 0.299290
0.266514 0.355566 0.303929
0.275212 0.361517 0.308721
0.285252 0.369543 0.314031
0.298222 0.380041 0.321050
0.314702 0.393256 0.330114
0.334234 0.407965 0.340337
0.356359 0.423377 0.351110
0.380804 0.438849 0.361913
0.406897 0.453407 0.371954
0.442420 0.476814 0.386816
0.494728 0.508019 0.388891
0.547631 0.528435 0.385443
0.596887 0.539666 0.385657
0.645808 0.546899 0.389105
0.694087 0.551690 0.394842
0.740810 0.554314 0.402533
0.785611 0.555535 0.411566
0.827970 0.555627 0.422217
0.865476 0.560998 0.429572
0.899809 0.568322 0.437537
0.931426 0.576593 0.447364
0.960388 0.586511 0.459846
0.986175 0.598779 0.475441
1.000000 0.613275 0.494270
1.000000 0.630030 0.516350
0.266850 0.391302 0.324956
0.267033 0.391485 0.325139
0.268070 0.391669 0.325505
0.269902 0.391974 0.326268
0.273259 0.392737 0.327642
0.277958 0.394446 0.330053
0.284703 0.397650 0.334142
0.293767 0.402197 0.339727
0.304387 0.408606 0.346777
0.314153 0.416449 0.352056
0.326055 0.425727 0.358465
0.340246 0.436286 0.365820
0.356634 0.447944 0.373877
0.375250 0.459876 0.382147
0.395941 0.472358 0.390936
0.418616 0.484535 0.399451
0.443793 0.497292 0.408392
0.477821 0.517693 0.422156
0.527672 0.547723 0.428840
0.581933 0.570367 0.425360
0.630243 0.582635 0.425788
0.678309 0.591760 0.431220
0.724788 0.598199 0.438178
0.769497 0.602808 0.447089
0.811826 0.605951 0.457618
0.851499 0.608392 0.469642
0.887999 0.611048 0.482948
0.919524 0.619959 0.492958
0.948028 0.629694 0.504967
0.973175 0.641199 0.519646
0.995178 0.654170 0.536980
1.000000 0.668757 0.556847
0.290806 0.431647 0.356481
0.291051 0.431617 0.356603
0.292088 0.431891 0.357122
0.293980 0.432441 0.358038
0.297459 0.433478 0.359655
0.302312 0.435462 0.362463
0.308843 0.438514 0.366369
0.317601 0.443030 0.371771
0.328222 0.448890 0.378943
0.338720 0.455848 0.385229
0.349554 0.464271 0.390997
0.362829 0.473823 0.397894
0.377996 0.484535 0.405371
0.395148 0.495521 0.413306
0.414282 0.506798 0.421546
0.435096 0.518151 0.429664
0.457893 0.529564 0.438148
0.483345 0.541741 0.447364
0.516381 0.560235 0.460822
0.563317 0.588067 0.472663
0.618860 0.613031 0.469917
0.665339 0.625971 0.471656
0.710872 0.635920 0.477363
0.755032 0.643580 0.485725
0.796841 0.649531 0.495857
0.836057 0.654505 0.507897
0.872618 0.658900 0.521416
0.905882 0.663508 0.536522
0.935302 0.670161 0.551843
0.960174 0.681422 0.565942
0.981811 0.693721 0.582269
1.000000 0.707362 0.601007
0.318883 0.476143 0.392798
0.319463 0.476753 0.393317
0.344915 0.512657 0.423926
0.347448 0.513268 0.425086
0.350805 0.514458 0.426825
0.355810 0.516167 0.429480
0.362615 0.518761 0.433173
0.371435 0.522362 0.438422
0.382269 0.527733 0.445289
0.395392 0.534478 0.453895
0.406256 0.541955 0.459449
0.419226 0.550347 0.465858
0.433082 0.558556 0.472053
0.448890 0.566888 0.478492
0.465675 0.575097 0.484779
0.483955 0.583185 0.491096
0.503258 0.590814 0.497139
0.524376 0.598779 0.503716
0.547356 0.607385 0.511131
0.576532 0.620722 0.522484
0.619013 0.645106 0.538750
0.672236 0.669215 0.535851
0.713893 0.680934 0.537163
0.754421 0.689570 0.541497
0.792447 0.695918 0.548333
0.828367 0.700771 0.556725
0.861753 0.704738 0.566430
0.892851 0.708736 0.578332
0.921294 0.713649 0.592950
0.946807 0.719600 0.609918
0.968475 0.729244 0.626459
0.986572 0.741543 0.643427
0.356939 0.530724 0.439063
0.359472 0.534173 0.442206
0.363195 0.538018 0.445838
0.367315 0.541894 0.449622
0.373022 0.545464 0.453620
0.378576 0.548028 0.457038
0.385138 0.550713 0.460761
0.393011 0.553826 0.465339
0.403388 0.558282 0.471534
0.415717 0.563806 0.479316
0.427771 0.570428 0.486397
0.439460 0.577539 0.492073
0.452308 0.584710 0.497841
0.466743 0.592218 0.504021
0.482429 0.599817 0.510399
0.499367 0.607294 0.516808
0.517479 0.614893 0.523125
0.537316 0.622889 0.530297
0.559075 0.631678 0.538354
0.582727 0.641199 0.547417
0.610437 0.653620 0.559106
0.651423 0.678218 0.581353
0.701167 0.701381 0.580285
0.742733 0.715450 0.582208
0.779812 0.724147 0.586023
0.814694 0.731075 0.593133
0.847379 0.736660 0.601770
0.877745 0.741939 0.612543
0.905669 0.747616 0.625879
0.930846 0.754025 0.641535
0.953307 0.761318 0.659541
0.972656 0.769650 0.679438
0.384009 0.566491 0.470741
0.387274 0.569909 0.474037
0.391333 0.573785 0.477882
0.396033 0.577722 0.482094
0.401801 0.581231 0.486152
0.407385 0.583825 0.489754
0.413947 0.586236 0.493416
0.421668 0.588983 0.497810
0.431373 0.592645 0.503471
0.442969 0.597314 0.510430
0.456550 0.602991 0.519036
0.467262 0.608881 0.524132
0.479408 0.615320 0.529747
0.492500 0.622034 0.535576
0.507073 0.628962 0.541741
0.522454 0.635798 0.547845
0.538994 0.642878 0.554284
0.556970 0.650233 0.561028
0.576471 0.658076 0.568444
0.597833 0.666773 0.576959
0.620783 0.676051 0.586297
0.646357 0.687098 0.597681
0.685695 0.710536 0.620264
0.730190 0.732265 0.624018
0.770474 0.747433 0.625940
0.804166 0.756191 0.629969
0.835630 0.763455 0.637110
0.865141 0.769894 0.646601
0.892271 0.776486 0.658595
0.916991 0.783322 0.672969
0.939055 0.790738 0.689601
0.958343 0.798581 0.707912
0.417090 0.603204 0.505821
0.420294 0.606104 0.508934
0.424537 0.609522 0.512566
0.429419 0.612848 0.516533
0.434516 0.615869 0.520256
0.440131 0.618128 0.523583
0.446326 0.620356 0.527153
0.453925 0.622797 0.531334
0.463233 0.626154 0.536858
0.474189 0.630091 0.543328
0.486824 0.635126 0.551202
0.498695 0.640558 0.558007
0.509636 0.646143 0.563104
0.521660 0.652064 0.568505
0.534905 0.658381 0.574395
0.549493 0.665095 0.580713
0.565515 0.672480 0.587793
0.583398 0.680568 0.595758
0.603113 0.689418 0.604761
0.624567 0.699153 0.614954
0.647608 0.709560 0.626215
0.671687 0.720363 0.638148
0.696223 0.731167 0.650385
0.733669 0.753445 0.673640
0.772854 0.773739 0.683009
0.810513 0.789731 0.686610
0.839628 0.798795 0.692378
0.866575 0.806607 0.700862
0.891234 0.814023 0.712123
0.913573 0.821195 0.725277
0.933471 0.828367 0.740047
0.950927 0.835599 0.756069
0.475746 0.656672 0.562249
0.477363 0.657801 0.563653
0.479347 0.658930 0.565118
0.481819 0.660029 0.566644
0.485084 0.661128 0.568536
0.488777 0.662013 0.570367
0.493751 0.663355 0.572900
0.500298 0.665278 0.576440
0.508629 0.667964 0.581170
0.518883 0.671687 0.587366
0.530602 0.676081 0.594507
0.543847 0.681209 0.602899
0.553918 0.686030 0.607660
0.564599 0.691127 0.612604
0.576226 0.696498 0.617762
0.589075 0.702174 0.623285
0.603021 0.708248 0.629358
0.618189 0.714778 0.635950
0.634546 0.721736 0.643214
0.652461 0.729335 0.651270
0.671382 0.737240 0.660029
0.691524 0.745754 0.669520
0.712001 0.754269 0.679286
0.732876 0.762722 0.689326
0.764828 0.781003 0.709133
0.798520 0.799191 0.721035
0.833433 0.815213 0.725368
0.859251 0.824460 0.732265
0.883146 0.832609 0.741238
0.904662 0.840238 0.752895
0.924010 0.847471 0.765927
0.941070 0.854520 0.779904
0.515984 0.690089 0.599115
0.517205 0.691005 0.600214
0.519097 0.692042 0.601617
0.521386 0.693050 0.603052
0.524529 0.694057 0.604852
0.528008 0.695033 0.606653
0.532738 0.696223 0.609094
0.538598 0.698054 0.612390
0.546319 0.700465 0.616754
0.555627 0.703731 0.622278
0.566430 0.707546 0.628901
0.578576 0.712062 0.636408
0.589929 0.716701 0.642969
0.599847 0.721462 0.647669
0.610712 0.726375 0.652705
0.622461 0.731716 0.658167
0.635401 0.737392 0.664149
0.649378 0.743465 0.670527
0.664424 0.749966 0.677607
0.680507 0.756802 0.685237
0.697566 0.764065 0.693507
0.715511 0.771664 0.702266
0.733944 0.779385 0.711452
0.752590 0.787167 0.720790
0.762417 0.787686 0.720851
0.790066 0.803128 0.738277
0.819883 0.820035 0.753017
0.850889 0.835233 0.758206
0.875090 0.845457 0.765743
0.896361 0.853758 0.775051
0.915526 0.861631 0.786801
0.932525 0.869047 0.799588
0.570214 0.731441 0.646815
0.572442 0.732906 0.648676
0.573999 0.733700 0.649744
0.575158 0.733944 0.650355
0.576501 0.733761 0.650690
0.578149 0.733455 0.650965
0.580377 0.733242 0.651606
0.583734 0.733333 0.652827
0.588800 0.734096 0.655055
0.595270 0.735531 0.658381
0.603021 0.737453 0.662562
0.612543 0.740322 0.668055
0.623133 0.743557 0.674281
0.630945 0.746700 0.677638
0.638880 0.749905 0.680751
0.648005 0.753506 0.684352
0.658198 0.757595 0.688594
0.670008 0.762478 0.693812
0.683375 0.768154 0.700191
0.698268 0.774655 0.707546
0.714290 0.781613 0.715663
0.730617 0.788602 0.723995
0.746914 0.795346 0.732052
0.762722 0.801724 0.739773
0.778317 0.807706 0.747250
0.793606 0.813474 0.754421
0.816434 0.825834 0.768887
0.841306 0.840696 0.784237
0.867765 0.854276 0.789425
0.890105 0.864805 0.796628
0.908629 0.872862 0.805631
0.925383 0.880430 0.816281
0.604517 0.756222 0.676143
0.606653 0.757534 0.677821
0.608545 0.758541 0.679194
0.610163 0.759121 0.680201
0.612085 0.759487 0.681117
0.614618 0.760006 0.682368
0.618128 0.760830 0.684138
0.622827 0.761959 0.686641
0.628748 0.763699 0.689937
0.635889 0.765805 0.693996
0.643915 0.768307 0.698726
0.653193 0.771206 0.704219
0.663020 0.774228 0.709987
0.671870 0.777249 0.714870
0.678950 0.779995 0.717678
0.686671 0.782956 0.720790
0.695308 0.786313 0.724361
0.705074 0.790188 0.728603
0.716609 0.794919 0.734035
0.729274 0.800290 0.740322
0.743008 0.806119 0.747280
0.757290 0.812192 0.754788
0.771603 0.818173 0.762142
0.785763 0.824002 0.769467
0.799649 0.829618 0.776547
0.813138 0.834958 0.783383
0.826322 0.840299 0.790219
0.844907 0.850523 0.802457
0.866087 0.864012 0.818143
0.888243 0.876188 0.823636
0.907897 0.886534 0.830411
0.923491 0.894102 0.838712
0.650050 0.786618 0.713680
0.651087 0.787198 0.714473
0.652003 0.787655 0.715114
0.653223 0.787991 0.715755
0.654658 0.788235 0.716487
0.656703 0.788510 0.717372
0.659510 0.789029 0.718746
0.663264 0.789853 0.720668
0.668177 0.791043 0.723293
0.674250 0.792691 0.726680
0.681361 0.794675 0.730709
0.689326 0.797055 0.735409
0.698054 0.799710 0.740505
0.707210 0.802457 0.745937
0.713710 0.804837 0.748867
0.720302 0.807279 0.751461
0.727657 0.810025 0.754482
0.736080 0.813291 0.758145
0.745785 0.817197 0.762783
0.756802 0.821744 0.768246
0.768582 0.826688 0.774319
0.780758 0.831815 0.780606
0.792844 0.836820 0.786923
0.804868 0.841794 0.793149
0.816495 0.846525 0.799069
0.827817 0.851072 0.804837
0.839048 0.855650 0.810544
0.850126 0.860166 0.816281
0.865385 0.868559 0.826169
0.884154 0.880888 0.840391
0.903044 0.892210 0.847349
0.921019 0.902556 0.854032
0.689418 0.811490 0.745296
0.690272 0.811948 0.745968
0.691402 0.812406 0.746670
0.692744 0.812833 0.747494
0.694789 0.813504 0.748714
0.697780 0.814542 0.750515
0.702632 0.816312 0.753536
0.708675 0.818570 0.757382
0.716121 0.821408 0.762173
0.724605 0.824674 0.767666
0.734035 0.828305 0.773709
0.743771 0.831937 0.779904
0.753658 0.835569 0.786221
0.763333 0.838956 0.792233
0.771664 0.842008 0.797177
0.777707 0.844419 0.799954
0.783841 0.846830 0.802731
0.790646 0.849485 0.805844
0.798276 0.852598 0.809567
0.806638 0.856107 0.813748
0.815549 0.859953 0.818387
0.824704 0.863890 0.823117
0.833707 0.867704 0.827726
0.842649 0.871489 0.832242
0.851316 0.875090 0.836545
0.859800 0.878569 0.840696
0.868223 0.882048 0.844846
0.876555 0.885557 0.849027
0.884916 0.889189 0.853330
0.896025 0.895354 0.860380
0.910735 0.905455 0.871580
0.924987 0.914855 0.878538
0.751461 0.846921 0.792935
0.751644 0.846952 0.793027
0.751919 0.847013 0.793149
0.752346 0.847013 0.793332
0.753292 0.847135 0.793759
0.754788 0.847379 0.794491
0.757076 0.847898 0.795682
0.760220 0.848692 0.797391
0.764218 0.849851 0.799619
0.769162 0.851316 0.802487
0.774746 0.852995 0.805722
0.781003 0.854948 0.809415
0.787655 0.857053 0.813321
0.794522 0.859159 0.817350
