20 Preset/Car Style/【3】LUT video cho PR-AE-FCPX/Tone  (11).cube
# Created by Adobe Lightroom plugin Export LUT (1.24.0)
# www.johnrellis.com/lightroom/exportlut.htm
# Preset: 12汽车质感（素材江湖）
# Color profile: E:\lut插件\exportlut.1.24\exportlut.lrplugin\color profiles\Rec709gamma2.4.icc
LUT_3D_SIZE 8
DOMAIN_MIN 0.000000 0.000000 0.000000
DOMAIN_MAX 0.903226 0.903226 0.903226
0.109957 0.130159 0.134615
0.149386 0.128786 0.134066
0.243809 0.127749 0.137819
0.388586 0.116335 0.142641
0.602106 0.000000 0.143252
0.764553 0.000000 0.147921
0.922667 0.000000 0.159518
1.000000 0.000000 0.177798
0.111055 0.164034 0.142641
0.151278 0.169284 0.138521
0.240970 0.155795 0.141878
0.378698 0.152590 0.144900
0.586358 0.128115 0.144381
0.751675 0.025849 0.147585
0.898894 0.000000 0.157626
1.000000 0.000000 0.173312
0.132204 0.253758 0.177859
0.159426 0.253849 0.181827
0.257877 0.268009 0.161501
0.417853 0.265263 0.150057
0.610712 0.255955 0.143374
0.776272 0.241062 0.147280
0.927550 0.217594 0.160220
1.000000 0.195773 0.187961
0.016236 0.459052 0.206363
0.149020 0.458015 0.210819
0.300084 0.468513 0.205631
0.501671 0.493233 0.138796
0.666560 0.456886 0.123507
0.807919 0.401740 0.145571
0.942199 0.377234 0.172305
1.000000 0.365942 0.215793
0.284306 0.641840 0.349248
0.311589 0.641413 0.354498
0.404486 0.643397 0.380865
0.506310 0.648219 0.337530
0.657496 0.642664 0.235569
0.782315 0.585657 0.189609
0.925048 0.548211 0.213230
1.000000 0.507774 0.263005
0.460121 0.779934 0.497414
0.479011 0.786465 0.506737
0.526299 0.788296 0.520043
0.592157 0.790860 0.522362
0.673091 0.788113 0.472297
0.798123 0.781521 0.389868
0.913573 0.733852 0.337499
1.000000 0.697169 0.376349
0.599268 0.888304 0.625177
0.608423 0.888975 0.629236
0.636011 0.888212 0.638025
0.686732 0.887724 0.658045
0.724269 0.886259 0.629816
0.790890 0.884031 0.582696
0.893339 0.878416 0.517723
0.986114 0.835386 0.472602
0.764248 0.936950 0.772732
0.767391 0.936767 0.774105
0.781125 0.936248 0.780789
0.806821 0.935576 0.794522
0.819150 0.932311 0.786618
0.840696 0.934630 0.765499
0.880186 0.936309 0.731746
0.946593 0.934997 0.670588
0.104097 0.129488 0.165255
0.146090 0.128084 0.168948
0.231296 0.136843 0.169863
0.364508 0.129000 0.173617
0.577752 0.000000 0.173953
0.745357 0.000000 0.174868
0.886625 0.000000 0.181094
1.000000 0.000000 0.193698
0.107881 0.165927 0.170504
0.148013 0.167727 0.172519
0.232212 0.166232 0.173556
0.370062 0.157107 0.174655
0.577905 0.117647 0.173342
0.745052 0.000000 0.173922
0.877379 0.000000 0.179324
1.000000 0.000000 0.190829
0.140566 0.249760 0.196353
0.165286 0.250309 0.199466
0.250095 0.261418 0.188724
0.408576 0.255222 0.176181
0.597772 0.247044 0.169436
0.757015 0.228885 0.171176
0.889616 0.202853 0.180392
1.000000 0.179202 0.200504
0.008423 0.439185 0.224491
0.144442 0.439673 0.228977
0.288823 0.450996 0.234379
0.471839 0.465736 0.177737
0.631189 0.429328 0.157565
0.771908 0.376898 0.167727
0.899840 0.357183 0.186374
1.000000 0.349584 0.219181
0.283299 0.632074 0.359319
0.308690 0.630701 0.362768
0.396796 0.630579 0.384009
0.493538 0.631708 0.347356
0.637934 0.623713 0.251438
0.761868 0.568780 0.209140
0.904814 0.532891 0.226383
1.000000 0.498024 0.267033
0.451911 0.766506 0.495033
0.464698 0.767330 0.498543
0.512413 0.770108 0.512322
0.581903 0.775387 0.521263
0.662196 0.774990 0.474769
0.788479 0.771786 0.399023
0.903899 0.725551 0.347356
1.000000 0.689937 0.378027
0.585626 0.881315 0.616571
0.590631 0.880339 0.616815
0.618769 0.879545 0.625055
0.672572 0.880217 0.646052
0.717220 0.880552 0.626246
0.784604 0.878325 0.579828
0.886503 0.871366 0.512718
0.979400 0.827176 0.464698
0.753841 0.934691 0.764675
0.759182 0.934905 0.767971
0.773190 0.934356 0.774502
0.800229 0.933745 0.788876
0.826963 0.933471 0.797360
0.843748 0.934844 0.772519
0.879820 0.935698 0.734463
0.945861 0.934295 0.672908
0.097475 0.136965 0.234958
0.134127 0.137240 0.238102
0.230289 0.141573 0.247745
0.374640 0.137514 0.271580
0.590967 0.000000 0.287663
0.764065 0.000000 0.266209
0.902129 0.000000 0.271397
1.000000 0.000000 0.292668
0.122408 0.175814 0.237888
0.145724 0.173861 0.240574
0.232181 0.174533 0.249638
0.378759 0.162448 0.269718
0.590753 0.000000 0.274784
0.761044 0.000000 0.255650
0.892607 0.000000 0.267277
1.000000 0.000000 0.288060
0.127718 0.253056 0.254948
0.154726 0.254551 0.256504
0.246464 0.259373 0.262364
0.423957 0.242466 0.254368
0.620935 0.221073 0.253574
0.770504 0.207279 0.261723
0.899046 0.199832 0.275853
1.000000 0.203922 0.299290
0.000000 0.442695 0.309148
0.147799 0.445686 0.313848
0.303105 0.455177 0.329259
0.474220 0.467903 0.298741
0.646509 0.421820 0.270603
0.781064 0.381567 0.276219
0.909636 0.372869 0.295262
1.000000 0.374182 0.323919
0.316045 0.623957 0.419623
0.340490 0.624048 0.424048
0.422095 0.626246 0.443366
0.516625 0.631464 0.447883
0.640314 0.626551 0.374304
0.765011 0.573297 0.327825
0.907286 0.536004 0.330816
1.000000 0.516869 0.360876
0.464240 0.759731 0.527062
0.476753 0.761166 0.530571
0.521477 0.763882 0.542138
0.594903 0.769986 0.564599
0.664363 0.769162 0.525933
0.782254 0.766049 0.463722
0.898650 0.724849 0.420722
1.000000 0.693233 0.441657
0.598840 0.881254 0.641749
0.604334 0.880461 0.642481
0.630335 0.879118 0.649042
0.681575 0.878965 0.667689
0.729030 0.879210 0.662104
0.788754 0.878019 0.616938
0.887724 0.872984 0.555230
0.980224 0.831357 0.513725
0.760220 0.934173 0.776059
0.762509 0.933837 0.776547
0.776120 0.933257 0.782589
0.804807 0.933227 0.798276
0.835569 0.932494 0.813382
0.851316 0.934386 0.792660
0.884031 0.935668 0.758724
0.945769 0.934661 0.700801
0.023407 0.145998 0.362921
0.123659 0.145846 0.369818
0.252628 0.140902 0.385382
0.406012 0.111727 0.408270
0.585382 0.000000 0.433143
0.751644 0.000000 0.435096
0.883207 0.000000 0.425605
1.000000 0.000000 0.432929
0.004944 0.179904 0.375128
0.120577 0.179416 0.379095
0.254520 0.171969 0.392859
0.413794 0.144472 0.415381
0.592920 0.030671 0.435096
0.753750 0.000000 0.433845
0.881926 0.000000 0.425238
1.000000 0.148806 0.433875
0.000000 0.278508 0.384466
0.093324 0.276432 0.388830
0.234867 0.261723 0.403876
0.424079 0.253758 0.424079
0.614405 0.261631 0.442573
0.762112 0.267155 0.437934
0.896574 0.297185 0.444709
1.000000 0.316655 0.453895
0.000000 0.441352 0.435737
0.000000 0.441718 0.436378
0.269169 0.446143 0.441993
0.459693 0.455390 0.453773
0.629175 0.436622 0.442878
0.757778 0.427558 0.441840
0.890898 0.424689 0.448554
1.000000 0.428229 0.462165
0.301427 0.617456 0.496468
0.332280 0.616327 0.498543
0.430579 0.615686 0.511803
0.540032 0.624598 0.538293
0.637781 0.624689 0.507958
0.764889 0.583246 0.475013
0.906126 0.555444 0.471107
1.000000 0.552728 0.485603
0.491707 0.755123 0.586938
0.500481 0.761318 0.590417
0.530632 0.764034 0.591882
0.606714 0.771420 0.612909
0.682277 0.775631 0.611261
0.782071 0.766537 0.555688
0.897612 0.728115 0.520195
1.000000 0.696223 0.528099
0.608576 0.878294 0.676600
0.617273 0.878691 0.679713
0.648554 0.879149 0.689937
0.702296 0.880217 0.710048
0.763394 0.881346 0.733577
0.801968 0.879850 0.687892
0.887724 0.873747 0.621515
0.978515 0.833127 0.579675
0.774380 0.934691 0.799222
0.777340 0.934539 0.800290
0.789883 0.933989 0.805386
0.813657 0.933318 0.816098
0.843778 0.932525 0.830655
0.863096 0.933562 0.823606
0.890105 0.935210 0.795377
0.945434 0.935180 0.746639
0.000000 0.153780 0.532433
0.031281 0.152071 0.536553
0.255558 0.140505 0.545037
0.418524 0.092226 0.562005
0.587732 0.000000 0.579126
0.742580 0.000000 0.581445
0.869627 0.115084 0.574212
1.000000 0.194461 0.580102
0.000000 0.183780 0.538872
0.000000 0.181979 0.542901
0.249180 0.171023 0.550652
0.416907 0.137545 0.564294
0.591394 0.000000 0.582574
0.743557 0.034852 0.582147
0.869078 0.187350 0.575525
1.000000 0.238499 0.581415
0.000000 0.287327 0.546654
0.000000 0.276799 0.549187
0.218967 0.269566 0.555077
0.413642 0.264836 0.570062
0.594812 0.261570 0.585016
0.734310 0.289586 0.577508
0.860319 0.329229 0.577386
0.995148 0.343725 0.581598
0.018524 0.440558 0.556023
0.153933 0.441596 0.556359
0.308690 0.448646 0.560113
0.448371 0.453193 0.576135
0.602777 0.459785 0.590753
0.726955 0.474525 0.588769
0.863432 0.470527 0.589624
0.996643 0.465492 0.586694
0.252476 0.591882 0.583948
0.285496 0.592523 0.584680
0.380896 0.593652 0.586786
0.498329 0.596460 0.591119
0.612024 0.600702 0.597284
0.737575 0.586450 0.588159
0.877165 0.575402 0.584161
1.000000 0.569421 0.585565
0.406836 0.722286 0.614527
0.422248 0.722866 0.616083
0.475898 0.722530 0.619928
0.561852 0.727504 0.632013
0.662318 0.741482 0.656489
0.760494 0.745968 0.630793
0.889952 0.714290 0.605341
1.000000 0.683772 0.605402
0.578546 0.866850 0.705379
0.586175 0.866056 0.706020
0.622675 0.864958 0.712978
0.678370 0.868620 0.726497
0.757839 0.872587 0.757443
0.809537 0.873960 0.754696
0.879942 0.866880 0.689296
0.970825 0.825376 0.644709
0.760494 0.930968 0.807187
0.762295 0.930907 0.807248
0.774472 0.930541 0.810727
0.806638 0.931090 0.825376
0.841062 0.930785 0.840574
0.872953 0.931029 0.853361
0.892973 0.932647 0.828855
0.942077 0.932525 0.784787
0.000000 0.167422 0.665614
0.000000 0.165255 0.667781
0.231083 0.154299 0.670954
0.395331 0.124636 0.680079
0.563561 0.000000 0.700984
0.726101 0.000000 0.713313
0.870054 0.147341 0.715694
0.998413 0.268589 0.718715
0.000000 0.191775 0.660639
0.000000 0.190036 0.661524
0.220554 0.181460 0.665644
0.389960 0.161898 0.676265
0.556970 0.123476 0.693965
0.719387 0.113497 0.706477
0.861967 0.199832 0.709285
0.991852 0.291966 0.714565
0.000000 0.290196 0.670527
0.000000 0.290135 0.671443
0.220401 0.290806 0.676722
0.395605 0.288182 0.682704
0.562005 0.289433 0.696498
0.721736 0.306371 0.708400
0.859709 0.349310 0.712428
0.987976 0.392248 0.718593
0.240513 0.465888 0.673854
0.268803 0.466682 0.674067
0.360510 0.473610 0.679164
0.456855 0.470253 0.692714
0.593011 0.477485 0.707698
0.734981 0.484749 0.720241
0.866667 0.497688 0.726131
0.988922 0.510552 0.727779
0.336034 0.585260 0.676051
0.353948 0.585962 0.676081
0.416999 0.589349 0.676905
0.508721 0.596765 0.680018
0.601984 0.598077 0.697963
0.730373 0.600641 0.714778
0.861479 0.603296 0.720699
0.983215 0.598535 0.715785
0.390936 0.710109 0.701625
0.405432 0.712428 0.704067
0.451301 0.713008 0.705013
0.524376 0.714809 0.707668
0.618708 0.718013 0.712184
0.741939 0.729091 0.725338
0.878782 0.720272 0.721462
0.981323 0.714534 0.720150
0.469093 0.859434 0.747524
0.483497 0.860472 0.749386
0.531090 0.860624 0.752834
0.615900 0.860990 0.761776
0.724331 0.862211 0.781521
0.821042 0.869566 0.813779
0.875792 0.864317 0.778042
0.963714 0.829313 0.747280
0.720363 0.930724 0.819913
0.724453 0.930236 0.820401
0.745876 0.929229 0.825467
0.787350 0.928496 0.838132
0.829953 0.928710 0.851591
0.873106 0.929473 0.869749
0.899718 0.930999 0.869047
0.939178 0.930755 0.833097
0.000000 0.184604 0.796139
0.000000 0.182925 0.797330
0.197910 0.175448 0.801205
0.378210 0.159518 0.808743
0.538872 0.131075 0.818296
0.699947 0.088197 0.830686
0.850217 0.155184 0.837186
0.981903 0.260624 0.837339
0.000000 0.210971 0.796994
0.000000 0.210147 0.798062
0.193057 0.205264 0.801663
0.377234 0.195377 0.808316
0.539117 0.180880 0.817838
0.699886 0.166964 0.830076
0.849607 0.211337 0.836484
0.980224 0.292210 0.836576
0.000000 0.312169 0.799161
0.000000 0.312169 0.799863
0.214755 0.312596 0.802853
0.388952 0.313176 0.808804
0.546685 0.315862 0.817624
0.703670 0.321752 0.829526
0.849760 0.348211 0.836423
0.977050 0.388617 0.836667
0.258061 0.479744 0.797452
0.266453 0.475288 0.797726
0.319493 0.465431 0.801358
0.438880 0.468116 0.807218
0.571038 0.471595 0.816251
0.712123 0.475349 0.828519
0.850706 0.483680 0.837064
0.973327 0.500175 0.836790
0.361303 0.605310 0.791806
0.374090 0.605432 0.792477
0.421973 0.606012 0.795956
0.498939 0.605158 0.803555
0.586908 0.594385 0.814969
0.715846 0.596033 0.828214
0.852934 0.599023 0.839017
0.969451 0.610681 0.835966
0.403571 0.717586 0.809110
0.413977 0.717617 0.809201
0.453620 0.717525 0.809659
0.521477 0.716945 0.810483
0.614099 0.717372 0.811551
0.724208 0.719783 0.827329
0.855436 0.730556 0.841703
0.953307 0.743496 0.837736
0.439155 0.839628 0.831174
0.449042 0.839750 0.831357
0.488411 0.839994 0.831968
0.560021 0.840574 0.833280
0.655756 0.841672 0.835477
0.762081 0.843961 0.839384
0.859678 0.849638 0.846708
0.943297 0.844175 0.843961
0.609155 0.932189 0.844846
0.617365 0.931945 0.845518
0.651270 0.931060 0.848661
0.709743 0.929412 0.855161
0.781369 0.927642 0.865782
0.851835 0.927184 0.881224
0.906523 0.930175 0.900999
0.936950 0.929839 0.882109
0.000000 0.254398 0.922942
0.000000 0.254551 0.923156
0.219699 0.253910 0.923919
0.382574 0.252903 0.925597
0.530358 0.252781 0.928038
0.674189 0.256199 0.931243
0.816251 0.266361 0.935088
0.945403 0.324132 0.934997
0.000000 0.281682 0.922423
0.000000 0.281621 0.922667
0.231266 0.281559 0.923461
0.387915 0.281682 0.925048
0.533318 0.282902 0.927459
0.675868 0.287755 0.930632
0.816648 0.297734 0.934447
0.944915 0.346380 0.934447
0.121553 0.377417 0.920470
0.171328 0.377661 0.920653
0.287083 0.378393 0.921355
0.416724 0.380682 0.923003
0.549737 0.383795 0.925353
0.684138 0.388373 0.928466
0.818753 0.394110 0.932433
0.943481 0.421057 0.933013
0.292363 0.503410 0.916381
0.309789 0.503563 0.916594
0.371252 0.503746 0.917418
0.465156 0.504234 0.919127
0.576104 0.504936 0.921721
0.696101 0.505608 0.925200
0.821408 0.506523 0.929595
0.941558 0.517876 0.931090
0.418860 0.633539 0.910033
0.427436 0.633021 0.910338
0.461494 0.630304 0.911406
0.498848 0.612360 0.914946
0.593622 0.611170 0.917876
0.703639 0.611078 0.921721
0.822538 0.612543 0.926421
0.938994 0.622370 0.928679
0.472328 0.735470 0.906950
0.479683 0.735378 0.906859
0.509575 0.735103 0.906554
0.563287 0.733730 0.907774
0.641260 0.732937 0.910857
0.724971 0.728298 0.916197
0.831418 0.736751 0.921172
0.934234 0.749599 0.924346
0.537896 0.833219 0.911986
0.544793 0.833310 0.911955
0.572656 0.833707 0.911742
0.624201 0.834958 0.911345
0.694850 0.837613 0.910582
0.774716 0.842374 0.909361
0.851469 0.846983 0.915251
0.930571 0.856046 0.921691
0.637293 0.923796 0.917876
0.642542 0.923766 0.917906
0.664363 0.923583 0.917967
0.704311 0.923308 0.918212
0.757809 0.923064 0.918639
0.817227 0.923033 0.919463
0.877104 0.923735 0.921111
0.932464 0.926604 0.924895
