20 Preset/Car Style/【3】LUT video cho PR-AE-FCPX/Tone  (3).cube
# Created by Adobe Lightroom plugin Export LUT (1.24.0)
# www.johnrellis.com/lightroom/exportlut.htm
# Preset: 04汽车质感（素材江湖）
# Color profile: E:\lut插件\exportlut.1.24\exportlut.lrplugin\color profiles\Rec709gamma2.4.icc
LUT_3D_SIZE 8
DOMAIN_MIN 0.000000 0.000000 0.000000
DOMAIN_MAX 0.903226 0.903226 0.903226
0.148470 0.119265 0.115999
0.165347 0.116426 0.115877
0.232059 0.109743 0.113985
0.350439 0.088624 0.109773
0.497353 0.000000 0.099886
0.637293 0.000000 0.079561
0.803647 0.000000 0.000000
0.953338 0.000000 0.000000
0.157687 0.130098 0.119417
0.162966 0.128237 0.120699
0.231724 0.129458 0.112978
0.345403 0.121584 0.108278
0.489540 0.095430 0.097810
0.628748 0.000000 0.072724
0.786191 0.000000 0.000000
0.941039 0.000000 0.000000
0.190799 0.166415 0.133913
0.194858 0.162692 0.136629
0.209781 0.159609 0.137850
0.347601 0.184176 0.109041
0.500175 0.205051 0.067536
0.647517 0.195987 0.003082
0.808957 0.174228 0.000000
0.954223 0.123568 0.000000
0.243503 0.229221 0.152071
0.246708 0.224125 0.154360
0.261326 0.219272 0.158999
0.293034 0.217624 0.163302
0.449104 0.249638 0.132784
0.666560 0.317906 0.000000
0.822751 0.324376 0.000000
0.954681 0.306035 0.000000
0.306004 0.304814 0.176333
0.308354 0.300175 0.178225
0.313787 0.282689 0.185763
0.341161 0.286992 0.188296
0.374365 0.280003 0.194766
0.498238 0.297856 0.181765
0.761532 0.381231 0.000000
0.949279 0.439551 0.000000
0.363867 0.373541 0.207126
0.367407 0.372320 0.209476
0.372045 0.357214 0.214176
0.383490 0.344091 0.219181
0.415167 0.349035 0.223423
0.452552 0.343389 0.233646
0.555657 0.356146 0.244053
0.864805 0.461799 0.117433
0.433509 0.455421 0.250584
0.435431 0.453162 0.251835
0.438849 0.439826 0.254276
0.440497 0.414893 0.258793
0.467964 0.419318 0.261967
0.502983 0.423896 0.271794
0.548425 0.422889 0.287114
0.640009 0.434302 0.319554
0.567163 0.611261 0.333898
0.568475 0.608667 0.334783
0.574670 0.598810 0.339330
0.584192 0.580529 0.348394
0.584863 0.550774 0.347143
0.639460 0.576532 0.358801
0.696803 0.592554 0.379370
0.762142 0.598108 0.403754
0.145998 0.119020 0.133120
0.162997 0.119814 0.130098
0.221927 0.116335 0.133822
0.342473 0.081270 0.130007
0.488808 0.000000 0.122591
0.626642 0.000000 0.110079
0.778714 0.000000 0.084352
0.933104 0.000000 0.000000
0.148165 0.137301 0.133181
0.167849 0.136690 0.133028
0.229984 0.132082 0.132296
0.344640 0.116152 0.128542
0.488289 0.058900 0.119814
0.626642 0.000000 0.106111
0.772000 0.000000 0.074403
0.925231 0.000000 0.000000
0.192050 0.178775 0.143038
0.200107 0.174197 0.146029
0.216800 0.168368 0.149050
0.356359 0.191409 0.122225
0.495735 0.197055 0.104494
0.635370 0.183322 0.082063
0.782223 0.155032 0.002502
0.935088 0.090455 0.000000
0.244907 0.239567 0.158877
0.249699 0.234562 0.161196
0.264744 0.225040 0.167849
0.294133 0.221408 0.171115
0.445930 0.249638 0.140261
0.645747 0.309575 0.000000
0.792203 0.307195 0.000000
0.936187 0.293156 0.000000
0.308354 0.313970 0.183597
0.310887 0.308965 0.185367
0.317693 0.290349 0.192203
0.342138 0.289982 0.195102
0.373632 0.281559 0.200687
0.498390 0.299413 0.186496
0.755550 0.378759 0.000000
0.940002 0.432013 0.000000
0.363561 0.377905 0.212070
0.365698 0.374517 0.213504
0.371557 0.359960 0.218082
0.382086 0.344121 0.223697
0.414557 0.350042 0.228153
0.452674 0.345220 0.238865
0.557366 0.358373 0.247410
0.861662 0.460487 0.126986
0.430274 0.455360 0.252171
0.430793 0.451514 0.252232
0.434546 0.438087 0.254582
0.437629 0.413886 0.259159
0.464332 0.416907 0.263493
0.499367 0.421759 0.272953
0.542718 0.419043 0.286839
0.633234 0.429450 0.316289
0.558068 0.604700 0.330144
0.561089 0.603906 0.332158
0.567010 0.593530 0.336187
0.576867 0.575219 0.345006
0.591974 0.559106 0.354711
0.642390 0.580346 0.362768
0.694728 0.591547 0.380224
0.759823 0.596735 0.404150
0.151400 0.115114 0.201663
0.172305 0.115358 0.199557
0.220951 0.125582 0.185946
0.310521 0.128298 0.202518
0.479774 0.000000 0.219455
0.639918 0.000000 0.202121
0.796506 0.000000 0.185061
0.947478 0.000000 0.168643
0.146059 0.133486 0.203891
0.170108 0.132998 0.203891
0.226444 0.141817 0.190219
0.322271 0.140139 0.205661
0.485573 0.000000 0.212131
0.641108 0.000000 0.191867
0.789364 0.000000 0.181125
0.941314 0.000000 0.164096
0.132357 0.211582 0.205386
0.155612 0.211215 0.205173
0.242374 0.207462 0.202426
0.366979 0.197177 0.198337
0.509300 0.178561 0.192142
0.649317 0.150057 0.184604
0.795834 0.083345 0.172335
0.943572 0.000000 0.153536
0.197757 0.300725 0.185794
0.233097 0.297765 0.197879
0.292485 0.274449 0.214755
0.327733 0.262181 0.221897
0.503960 0.291142 0.189853
0.660639 0.308659 0.164431
0.807218 0.296941 0.149813
0.946105 0.275975 0.127321
0.315129 0.364446 0.223758
0.322423 0.359442 0.225071
0.343145 0.339330 0.231327
0.366766 0.322881 0.237705
0.401282 0.315038 0.244022
0.541985 0.334325 0.224765
0.789792 0.405035 0.125399
0.944732 0.426398 0.010895
0.374304 0.414618 0.246372
0.378027 0.411292 0.247379
0.388708 0.395605 0.250675
0.395941 0.365515 0.255528
0.429603 0.371405 0.259617
0.467720 0.366125 0.270756
0.587427 0.384222 0.275059
0.886076 0.479225 0.180972
0.440162 0.484871 0.278233
0.441444 0.480873 0.278386
0.446754 0.465827 0.279484
0.452125 0.439002 0.282139
0.470558 0.428443 0.285466
0.508659 0.435737 0.294743
0.554955 0.434791 0.309941
0.663081 0.452308 0.336370
0.560021 0.625147 0.342626
0.561181 0.621424 0.342901
0.568414 0.610132 0.346410
0.582513 0.592523 0.355901
0.590692 0.562951 0.365332
0.646418 0.588464 0.374731
0.701076 0.601129 0.393103
0.766293 0.605432 0.417731
0.159518 0.104128 0.329778
0.186343 0.100252 0.331945
0.259586 0.102998 0.318273
0.335180 0.119753 0.300175
0.443427 0.123018 0.314580
0.590448 0.092775 0.339879
0.759304 0.000000 0.347784
0.930175 0.000000 0.336706
0.143069 0.124086 0.336461
0.174960 0.121309 0.337011
0.259434 0.121279 0.325689
0.341344 0.138857 0.306035
0.449042 0.149386 0.317998
0.597223 0.124849 0.341070
0.763210 0.000000 0.345403
0.932219 0.000000 0.331273
0.000000 0.205905 0.340215
0.021149 0.199466 0.340673
0.231846 0.187961 0.340642
0.353857 0.212406 0.317174
0.466163 0.241398 0.331762
0.626551 0.213809 0.345098
0.796201 0.148684 0.340795
0.948486 0.000000 0.318914
0.000000 0.353521 0.344610
0.000000 0.353002 0.344213
0.187869 0.351446 0.342901
0.376318 0.345159 0.337163
0.514580 0.336095 0.332891
0.652003 0.323033 0.327062
0.804532 0.302495 0.318303
0.945800 0.273228 0.305791
0.138766 0.450813 0.289952
0.180301 0.447883 0.288823
0.307774 0.435492 0.305272
0.410437 0.398535 0.332067
0.447089 0.382116 0.337285
0.624659 0.411261 0.319432
0.820340 0.446601 0.298711
0.946532 0.428290 0.288640
0.371618 0.498573 0.325292
0.382422 0.496712 0.327672
0.411017 0.477150 0.328069
0.440284 0.442054 0.329168
0.464393 0.420691 0.329747
0.501946 0.413886 0.338903
0.656275 0.441108 0.333165
0.924437 0.515892 0.273625
0.446967 0.548363 0.330877
0.451209 0.545037 0.331395
0.465797 0.529351 0.332372
0.482216 0.498573 0.333379
0.486885 0.456458 0.332158
0.530297 0.467140 0.339422
0.577752 0.464698 0.352972
0.718074 0.492775 0.371283
0.560632 0.674739 0.373358
0.563714 0.671778 0.373877
0.575921 0.659541 0.376287
0.594537 0.635859 0.381811
0.607050 0.597589 0.388922
0.648096 0.599725 0.398016
0.709407 0.616876 0.416449
0.777371 0.621515 0.444282
0.166384 0.070008 0.468482
0.194949 0.053956 0.469978
0.277165 0.028382 0.463783
0.372625 0.066468 0.446632
0.464027 0.127138 0.430793
0.573083 0.154696 0.439094
0.695613 0.223636 0.463661
0.885039 0.126711 0.493996
0.144625 0.104738 0.472755
0.179049 0.099733 0.474311
0.271458 0.087953 0.469734
0.373358 0.107240 0.450507
0.468025 0.153201 0.434668
0.576074 0.181277 0.441627
0.700557 0.237461 0.466163
0.888060 0.153506 0.493507
0.000000 0.177554 0.478950
0.000000 0.176211 0.479042
0.228885 0.172183 0.478187
0.372137 0.192325 0.463539
0.476509 0.234897 0.442573
0.579614 0.263188 0.445655
0.717098 0.283818 0.471687
0.896818 0.223148 0.487160
0.000000 0.328832 0.482643
0.000000 0.325628 0.482795
0.015961 0.312810 0.484016
0.355047 0.318364 0.482490
0.491341 0.352972 0.456519
0.594507 0.378271 0.463203
0.760586 0.358618 0.479683
0.922332 0.317113 0.472175
0.000000 0.489784 0.479225
0.000000 0.489845 0.479286
0.000000 0.488838 0.478401
0.330297 0.485817 0.475654
0.503532 0.477394 0.467323
0.646021 0.467536 0.461738
0.804013 0.453040 0.454047
0.935058 0.433753 0.442725
0.000000 0.584894 0.418982
0.000000 0.583124 0.417273
0.239719 0.573480 0.409400
0.385657 0.554772 0.407660
0.507347 0.500084 0.429358
0.549920 0.484749 0.435706
0.763149 0.528801 0.427710
0.933593 0.565087 0.422950
0.316747 0.649500 0.379675
0.337865 0.645716 0.383246
0.410712 0.631525 0.399512
0.490394 0.599115 0.411933
0.530297 0.541558 0.405859
0.557244 0.511528 0.402167
0.607019 0.507256 0.414984
0.794583 0.547570 0.420417
0.504845 0.734249 0.419135
0.511589 0.731167 0.418921
0.537255 0.718563 0.418647
0.581079 0.697566 0.423041
0.618494 0.656245 0.425147
0.637659 0.607446 0.428504
0.708705 0.630610 0.445502
0.777279 0.632136 0.473518
0.165591 0.000000 0.617853
0.196719 0.000000 0.618769
0.285313 0.000000 0.615015
0.393164 0.000000 0.601404
0.501579 0.100191 0.583978
0.599023 0.180941 0.568109
0.710079 0.208713 0.574212
0.849302 0.280735 0.607965
0.140200 0.029694 0.614038
0.176883 0.014496 0.614008
0.274357 0.000000 0.612421
0.388434 0.000000 0.600580
0.498238 0.131655 0.580652
0.595758 0.199710 0.564721
0.706752 0.226200 0.571252
0.846006 0.292058 0.605249
0.000000 0.161868 0.625269
0.000000 0.159915 0.625360
0.226566 0.152926 0.626459
0.377539 0.163516 0.614832
0.502953 0.220188 0.591150
0.603265 0.272313 0.572045
0.716518 0.294652 0.579797
0.851621 0.347906 0.610437
0.000000 0.307408 0.635248
0.000000 0.303960 0.634546
0.000000 0.293370 0.634913
0.346105 0.303380 0.637140
0.513237 0.337896 0.616327
0.622522 0.376623 0.591150
0.740078 0.396887 0.600031
0.867948 0.434272 0.622980
0.000000 0.469947 0.627955
0.000000 0.468513 0.627893
0.000000 0.462348 0.628168
0.226719 0.447761 0.629633
0.481178 0.451453 0.626795
0.628748 0.484169 0.596979
0.748928 0.507317 0.607538
0.892607 0.501152 0.616724
0.000000 0.632380 0.621363
0.000000 0.633906 0.622919
0.000000 0.633051 0.622095
0.193240 0.631403 0.620508
0.435981 0.627466 0.616571
0.643030 0.621851 0.610986
0.800839 0.615137 0.608423
0.907408 0.603815 0.600824
0.000000 0.759640 0.576928
0.000000 0.759121 0.575586
0.000000 0.753079 0.566064
0.273259 0.739254 0.547631
0.464454 0.711604 0.524285
0.625696 0.628412 0.537163
0.674647 0.600488 0.537713
0.880583 0.645716 0.546746
0.016449 0.809567 0.470497
0.117586 0.808072 0.468055
0.278233 0.801694 0.472358
0.457008 0.786954 0.500969
0.594720 0.755612 0.521721
0.663813 0.694057 0.504875
0.717189 0.664912 0.504997
0.786893 0.662379 0.535393
0.151339 0.000000 0.763088
0.186557 0.000000 0.763241
0.282628 0.000000 0.763882
0.401740 0.000000 0.757839
0.523919 0.000000 0.745724
0.637110 0.179080 0.725216
0.739956 0.243717 0.713069
0.850095 0.257450 0.714382
0.115419 0.000000 0.764889
0.163088 0.000000 0.764889
0.271305 0.000000 0.765347
0.396796 0.000000 0.759609
0.523186 0.000000 0.747585
0.638422 0.200748 0.727291
0.741878 0.260075 0.715023
0.852384 0.273808 0.716457
0.000000 0.131380 0.767727
0.000000 0.128634 0.767727
0.214481 0.116182 0.767910
0.374517 0.115969 0.764828
0.517998 0.179873 0.752682
0.640894 0.267826 0.732479
0.745602 0.314519 0.718837
0.856504 0.328557 0.719997
0.000000 0.272801 0.770687
0.000000 0.272435 0.770260
0.000000 0.272953 0.770138
0.324590 0.275242 0.769558
0.502983 0.303227 0.760739
0.642481 0.358160 0.741054
0.752041 0.397803 0.725399
0.862791 0.416907 0.725704
0.000000 0.437659 0.769711
0.000000 0.436103 0.769924
0.000000 0.429511 0.770413
0.178317 0.417182 0.770962
0.457435 0.424537 0.769589
0.638178 0.461891 0.753170
0.760739 0.502922 0.734279
0.864866 0.530632 0.730922
0.000000 0.605219 0.765255
0.000000 0.604364 0.765316
0.000000 0.600275 0.765682
0.000000 0.590875 0.766323
0.345373 0.574090 0.767178
0.612604 0.589593 0.763272
0.767025 0.634821 0.740932
0.848203 0.669429 0.738979
0.000000 0.766140 0.756802
0.000000 0.766049 0.756710
0.000000 0.765896 0.756558
0.000000 0.765438 0.756100
0.380163 0.764401 0.755093
0.612055 0.762051 0.752651
0.773007 0.757382 0.747768
0.849302 0.753170 0.745327
0.000000 0.845548 0.695033
0.000000 0.844907 0.694331
0.131380 0.842161 0.690974
0.355047 0.836271 0.685756
0.512352 0.825895 0.680079
0.637446 0.808530 0.673152
0.746304 0.754025 0.662776
0.801236 0.730892 0.668727
0.138491 0.000000 0.846494
0.173129 0.000000 0.846464
0.265568 0.000000 0.846433
0.381415 0.000000 0.844968
0.506767 0.000000 0.841245
0.631617 0.202365 0.834562
0.743679 0.327855 0.823941
0.840238 0.376074 0.818204
0.105867 0.000000 0.846677
0.152224 0.000000 0.846616
0.255344 0.000000 0.846555
0.376349 0.000000 0.845212
0.504967 0.000000 0.841428
0.631342 0.220645 0.834684
0.743893 0.338445 0.824125
0.840330 0.386450 0.818296
0.000000 0.112215 0.846738
0.000000 0.109682 0.846708
0.209598 0.098421 0.846586
0.353613 0.092531 0.845823
0.497078 0.183383 0.841764
0.629236 0.279637 0.834897
0.743984 0.377600 0.824369
0.840085 0.424872 0.818051
0.000000 0.263249 0.845884
0.000000 0.263401 0.845792
0.055879 0.264195 0.845548
0.318181 0.266697 0.844938
0.478950 0.295903 0.842039
0.623041 0.361028 0.835050
0.743679 0.442786 0.824369
0.839170 0.490364 0.817105
0.000000 0.402441 0.843015
0.000000 0.401404 0.843015
0.000000 0.398260 0.843015
0.248295 0.400732 0.842344
0.444038 0.410285 0.840970
0.608850 0.452796 0.835080
0.742794 0.526390 0.823880
0.836820 0.579583 0.814847
0.000000 0.542840 0.837247
0.000000 0.541863 0.837339
0.000000 0.537407 0.837552
0.000000 0.533623 0.837430
0.399145 0.541711 0.835904
0.592248 0.568414 0.832212
0.745541 0.633173 0.820890
0.832029 0.685542 0.810208
0.000000 0.689235 0.827298
0.000000 0.689052 0.827268
0.000000 0.688289 0.827176
0.000000 0.687434 0.826810
0.393530 0.688777 0.825772
0.590967 0.700679 0.822934
0.759609 0.743709 0.815854
0.828305 0.773068 0.806912
0.000000 0.822293 0.814481
0.000000 0.822232 0.814420
0.006928 0.821958 0.814145
0.357031 0.821317 0.813443
0.535851 0.820188 0.812314
0.682155 0.818875 0.810880
0.779141 0.817777 0.809689
0.829587 0.816922 0.808713
