20 Preset/Car Style/【3】LUT video cho PR-AE-FCPX/Tone  (21).cube
# Created by Adobe Lightroom plugin Export LUT (1.24.0)
# www.johnrellis.com/lightroom/exportlut.htm
# Preset: 22汽车质感（素材江湖）
# Color profile: E:\lut插件\exportlut.1.24\exportlut.lrplugin\color profiles\Rec709gamma2.4.icc
LUT_3D_SIZE 8
DOMAIN_MIN 0.000000 0.000000 0.000000
DOMAIN_MAX 0.903226 0.903226 0.903226
0.071565 0.092134 0.088289
0.101686 0.092439 0.089052
0.166567 0.088869 0.091157
0.298924 0.000000 0.091524
0.513054 0.000000 0.084443
0.734524 0.000000 0.053529
0.956939 0.000000 0.000000
1.000000 0.000000 0.000000
0.099123 0.108278 0.091279
0.112795 0.104067 0.091676
0.166751 0.100923 0.093172
0.286900 0.052094 0.092897
0.489876 0.000000 0.086671
0.708858 0.000000 0.057404
0.922515 0.000000 0.000000
1.000000 0.000000 0.000000
0.166690 0.162966 0.093202
0.193149 0.163272 0.091371
0.227726 0.140352 0.096193
0.345678 0.120363 0.095155
0.522637 0.000000 0.082856
0.757687 0.000000 0.026368
0.960266 0.000000 0.000000
1.000000 0.000000 0.000000
0.318822 0.315099 0.000000
0.343938 0.314061 0.000000
0.418891 0.306767 0.000000
0.519219 0.260380 0.000000
0.687526 0.196658 0.000000
0.826810 0.220645 0.000000
0.971160 0.179690 0.000000
1.000000 0.137453 0.000000
0.509514 0.527642 0.000000
0.531212 0.526726 0.000000
0.621424 0.529168 0.000000
0.693019 0.501213 0.000000
0.771084 0.418341 0.000000
0.886564 0.323003 0.000000
0.978546 0.358404 0.000000
1.000000 0.406500 0.000000
0.683284 0.688533 0.000000
0.706722 0.696071 0.000000
0.765133 0.694881 0.000000
0.834318 0.680232 0.000000
0.884672 0.641016 0.000000
0.943786 0.567590 0.000000
1.000000 0.485969 0.116335
1.000000 0.517937 0.176120
0.826352 0.803555 0.000000
0.836149 0.804379 0.000000
0.868467 0.802029 0.000000
0.926879 0.799344 0.000000
0.954223 0.774380 0.000000
0.988922 0.739620 0.000000
1.000000 0.684291 0.202152
1.000000 0.614740 0.298589
0.920836 0.876677 0.347204
0.924956 0.876402 0.345068
0.941955 0.875853 0.341711
0.973510 0.875486 0.337682
0.998230 0.859373 0.282109
1.000000 0.843656 0.318730
1.000000 0.819791 0.373327
1.000000 0.783902 0.437079
0.082765 0.095186 0.099428
0.097719 0.096468 0.100496
0.155062 0.094606 0.102815
0.273442 0.043702 0.105226
0.478706 0.000000 0.101808
0.695552 0.000000 0.092287
0.903716 0.000000 0.059510
1.000000 0.000000 0.020050
0.089906 0.107485 0.103090
0.104280 0.109285 0.105348
0.161410 0.107149 0.106477
0.278355 0.077882 0.106508
0.478004 0.000000 0.102235
0.694057 0.000000 0.091402
0.888884 0.000000 0.057038
1.000000 0.000000 0.014252
0.142824 0.159457 0.109102
0.167605 0.160189 0.107790
0.215030 0.143435 0.109071
0.326085 0.131868 0.109987
0.502312 0.018860 0.102296
0.717678 0.000000 0.085054
0.906798 0.000000 0.034668
1.000000 0.000000 0.000000
0.278111 0.295079 0.037171
0.303990 0.295689 0.026856
0.390631 0.294072 0.000000
0.467170 0.240421 0.066163
0.611017 0.182925 0.074281
0.753231 0.200748 0.033753
0.916503 0.126833 0.000000
1.000000 0.000000 0.000000
0.477089 0.513848 0.000000
0.497169 0.511192 0.000000
0.583703 0.510002 0.000000
0.656886 0.479072 0.000000
0.728695 0.394079 0.000000
0.849210 0.306157 0.000000
0.951507 0.343755 0.000000
1.000000 0.387366 0.032990
0.652491 0.673274 0.000000
0.668025 0.673640 0.000000
0.729030 0.673793 0.000000
0.809751 0.663905 0.000000
0.864988 0.627771 0.000000
0.929839 0.559136 0.000000
1.000000 0.479225 0.131991
1.000000 0.509911 0.181216
0.805020 0.793362 0.000000
0.811460 0.791409 0.000000
0.845090 0.788846 0.000000
0.908659 0.787411 0.000000
0.943938 0.766476 0.000000
0.980438 0.731624 0.000000
1.000000 0.672908 0.191043
1.000000 0.600183 0.281193
0.910613 0.871763 0.331914
0.915953 0.872374 0.335698
0.933623 0.871641 0.330724
0.966857 0.871336 0.326787
0.998657 0.863981 0.324865
1.000000 0.845975 0.342504
1.000000 0.819730 0.380804
1.000000 0.783536 0.441566
0.095888 0.102510 0.129732
0.106966 0.102998 0.130800
0.150088 0.104250 0.134859
0.234531 0.109255 0.145571
0.484627 0.000000 0.156649
0.728328 0.000000 0.147066
0.928679 0.000000 0.155520
1.000000 0.000000 0.160739
0.102510 0.115114 0.137911
0.114168 0.115084 0.138460
0.158755 0.115480 0.141054
0.253666 0.113527 0.150820
0.492164 0.000000 0.153689
0.720668 0.000000 0.152316
0.914061 0.000000 0.152163
1.000000 0.000000 0.156100
0.118563 0.158175 0.152834
0.132021 0.160067 0.154788
0.187137 0.165591 0.162020
0.328923 0.150423 0.161654
0.529595 0.025330 0.160891
0.744320 0.000000 0.159731
0.923125 0.000000 0.158755
1.000000 0.000000 0.163821
0.133700 0.303288 0.142977
0.189578 0.307927 0.150515
0.338201 0.318395 0.143893
0.460182 0.270298 0.154543
0.608881 0.248417 0.170626
0.770687 0.246250 0.174929
0.932769 0.202914 0.174411
1.000000 0.180606 0.182803
0.385657 0.514336 0.104250
0.411963 0.514488 0.095674
0.515526 0.517388 0.010651
0.644770 0.504234 0.000000
0.727413 0.425879 0.130770
0.847013 0.354314 0.155886
0.942046 0.398322 0.196139
1.000000 0.421485 0.218204
0.594995 0.673610 0.000000
0.612787 0.674678 0.000000
0.677974 0.674342 0.000000
0.790188 0.671412 0.000000
0.846098 0.635767 0.000000
0.914031 0.571313 0.174838
1.000000 0.506584 0.237308
1.000000 0.543053 0.281743
0.776455 0.797940 0.213413
0.783719 0.796414 0.206180
0.817685 0.792782 0.185397
0.883604 0.789639 0.151980
0.934356 0.772946 0.157656
0.972412 0.741451 0.213901
1.000000 0.689570 0.295354
1.000000 0.630518 0.361639
0.892973 0.872892 0.401984
0.896880 0.872221 0.397772
0.915404 0.871336 0.392737
0.951202 0.872099 0.396185
0.991760 0.867277 0.387304
1.000000 0.851347 0.408576
1.000000 0.827268 0.442267
1.000000 0.793393 0.494575
0.107973 0.110689 0.191562
0.121370 0.111086 0.194766
0.171969 0.109590 0.198917
0.256107 0.099580 0.210025
0.390875 0.064729 0.230777
0.643275 0.000000 0.270207
0.893431 0.000000 0.276860
1.000000 0.000000 0.275029
0.112673 0.122438 0.210330
0.127993 0.122347 0.211215
0.182345 0.119661 0.212894
0.271794 0.108278 0.221744
0.407233 0.096895 0.240055
0.660029 0.000000 0.276127
0.898985 0.000000 0.277928
1.000000 0.000000 0.277653
0.110018 0.176822 0.243290
0.128695 0.175296 0.245701
0.197269 0.167391 0.248814
0.309575 0.159213 0.251072
0.463813 0.197360 0.279301
0.734066 0.000000 0.303044
0.937285 0.000000 0.307683
1.000000 0.000000 0.323125
0.106874 0.299657 0.286473
0.138918 0.301366 0.288304
0.234714 0.311620 0.298466
0.376837 0.328313 0.316411
0.570336 0.319005 0.317967
0.758968 0.301213 0.321050
0.922423 0.285313 0.327398
1.000000 0.286839 0.335454
0.000000 0.516655 0.285924
0.103609 0.517571 0.281498
0.316594 0.524102 0.299504
0.557549 0.536065 0.313878
0.694209 0.481971 0.326909
0.814786 0.457771 0.346777
0.923064 0.480446 0.366430
1.000000 0.477790 0.373419
0.483742 0.686854 0.345403
0.511070 0.693294 0.351934
0.583062 0.691585 0.340887
0.713527 0.691890 0.325078
0.826963 0.672206 0.322240
0.893065 0.610254 0.356909
0.983276 0.564721 0.379644
1.000000 0.603540 0.425544
0.708431 0.802426 0.395178
0.719265 0.802731 0.395056
0.760769 0.802029 0.389502
0.834714 0.800534 0.378820
0.920562 0.793057 0.363134
0.957275 0.764248 0.384619
0.996612 0.716152 0.429297
1.000000 0.672908 0.471870
0.861204 0.877958 0.520623
0.865690 0.877684 0.519158
0.884642 0.876707 0.514641
0.920470 0.875639 0.508812
0.968658 0.873991 0.497108
0.995666 0.860472 0.504417
1.000000 0.839231 0.531243
1.000000 0.810208 0.577691
0.107607 0.120668 0.320439
0.129824 0.119997 0.323919
0.199100 0.114717 0.326116
0.297948 0.094575 0.329290
0.422583 0.000000 0.345159
0.569848 0.000000 0.365270
0.767147 0.159396 0.418555
0.988983 0.000000 0.450660
0.106966 0.133242 0.339574
0.132418 0.132601 0.342687
0.206363 0.126741 0.342992
0.306859 0.107759 0.340398
0.434882 0.003571 0.355627
0.580621 0.050080 0.373785
0.777249 0.180728 0.425330
0.992401 0.000000 0.453254
0.081147 0.187442 0.383337
0.117586 0.184909 0.383368
0.215610 0.180484 0.379644
0.333959 0.169558 0.377111
0.466957 0.151888 0.383154
0.601953 0.208255 0.394934
0.806882 0.244327 0.442756
0.999969 0.137972 0.455940
0.110903 0.325109 0.426123
0.147341 0.326757 0.428016
0.247837 0.333593 0.437293
0.378973 0.322911 0.440803
0.522515 0.318853 0.437598
0.658839 0.384405 0.457618
0.871183 0.362554 0.480812
1.000000 0.334142 0.475196
0.177066 0.486366 0.460975
0.207462 0.488746 0.463478
0.297856 0.495674 0.470436
0.424079 0.507561 0.483436
0.566613 0.518853 0.497444
0.741421 0.512413 0.497810
0.893767 0.509545 0.501488
1.000000 0.512627 0.506310
0.255497 0.650477 0.463111
0.274327 0.652277 0.462531
0.337011 0.654688 0.455055
0.471809 0.662715 0.457191
0.702937 0.667506 0.477821
0.827878 0.635248 0.504692
0.926665 0.627680 0.530175
0.992981 0.654139 0.553643
0.538659 0.800259 0.502464
0.552789 0.798795 0.504082
0.615686 0.795773 0.517357
0.718013 0.795895 0.529412
0.835813 0.795499 0.518151
0.919982 0.778958 0.517388
0.964477 0.735836 0.546044
1.000000 0.703182 0.561303
0.786007 0.874907 0.606043
0.791012 0.874540 0.604578
0.813077 0.873472 0.599878
0.860288 0.874540 0.604120
0.917815 0.873381 0.596643
0.974334 0.868101 0.589380
0.996490 0.848722 0.608820
1.000000 0.820706 0.643671
0.096986 0.137423 0.493782
0.134890 0.136538 0.495430
0.226169 0.129152 0.492256
0.338109 0.106905 0.489693
0.468452 0.000000 0.491859
0.609705 0.000000 0.508354
0.742947 0.094697 0.520745
0.909575 0.303014 0.576074
0.102480 0.149874 0.492195
0.136934 0.148928 0.491951
0.226230 0.142428 0.489906
0.337377 0.124727 0.488716
0.463416 0.058869 0.486427
0.603235 0.000000 0.502647
0.736599 0.131746 0.516228
0.903471 0.311772 0.571771
0.116640 0.215305 0.537163
0.154696 0.214603 0.536522
0.251164 0.211673 0.535058
0.364538 0.199741 0.524529
0.491402 0.179446 0.515953
0.629908 0.166506 0.526909
0.760525 0.255802 0.540703
0.909911 0.395117 0.591852
0.187686 0.368780 0.588678
0.213230 0.366217 0.587396
0.296849 0.361822 0.589624
0.414832 0.354345 0.590265
0.549798 0.344549 0.580896
0.684199 0.343694 0.580652
0.803006 0.425360 0.592920
0.929412 0.518486 0.636835
0.230228 0.514092 0.603601
0.252079 0.514977 0.604425
0.327886 0.519860 0.609186
0.442115 0.530907 0.620050
0.568719 0.513115 0.617426
0.700374 0.504387 0.608606
0.813779 0.570947 0.628717
0.962524 0.576745 0.651087
0.325231 0.649531 0.622370
0.346471 0.653285 0.626459
0.404608 0.655573 0.629450
0.497902 0.660243 0.635767
0.609155 0.666377 0.644831
0.735836 0.680690 0.663539
0.875059 0.685634 0.672694
0.972869 0.690425 0.678218
0.501152 0.788388 0.661402
0.512383 0.790219 0.663020
0.542077 0.792233 0.661769
0.596796 0.796475 0.657679
0.684779 0.801999 0.654597
0.848356 0.800565 0.671138
0.922454 0.772885 0.683925
0.979797 0.763699 0.694759
0.644404 0.880095 0.660060
0.651209 0.879301 0.660426
0.687221 0.877623 0.668147
0.757870 0.875944 0.688930
0.839384 0.873838 0.705806
0.916930 0.873136 0.697536
0.968780 0.863249 0.702907
0.993042 0.838926 0.727504
0.171542 0.175113 0.652674
0.199924 0.175113 0.654444
0.280156 0.170108 0.652674
0.390600 0.157931 0.650996
0.511742 0.127413 0.644800
0.635370 0.000000 0.633997
0.766659 0.000000 0.647242
0.863981 0.205325 0.644434
0.173770 0.188266 0.649622
0.202029 0.188602 0.651881
0.280247 0.184024 0.650233
0.386847 0.172305 0.646296
0.506279 0.146029 0.639124
0.627405 0.072847 0.626856
0.756100 0.000000 0.637934
0.853239 0.208713 0.634668
0.207706 0.256687 0.674342
0.229740 0.256138 0.673793
0.301915 0.252079 0.670192
0.405768 0.244144 0.664912
0.522301 0.227176 0.655238
0.643580 0.199405 0.643153
0.774319 0.201694 0.655573
0.873381 0.308690 0.657710
0.253513 0.384924 0.708705
0.259770 0.377783 0.706691
0.328954 0.373327 0.702327
0.433936 0.368017 0.697505
0.551202 0.355932 0.687861
0.673854 0.339513 0.676356
0.800168 0.349248 0.683864
0.891478 0.440223 0.686336
0.305821 0.544640 0.725582
0.318303 0.541650 0.724025
0.372992 0.534844 0.722744
0.462715 0.524559 0.723262
0.568048 0.504356 0.716335
0.689540 0.486732 0.703273
0.810239 0.489754 0.703243
0.901884 0.577508 0.717037
0.391913 0.666651 0.736355
0.403784 0.667414 0.737057
0.448646 0.669612 0.739437
0.524407 0.673671 0.744106
0.621729 0.679561 0.750820
0.725093 0.664088 0.749325
0.831601 0.657465 0.742702
0.909575 0.717372 0.760281
0.511559 0.777829 0.755764
0.521386 0.778744 0.756893
0.552575 0.779568 0.758541
0.610101 0.781796 0.762295
0.684932 0.784329 0.767208
0.769528 0.788724 0.774472
0.852628 0.796017 0.784451
0.939452 0.799924 0.789731
0.675837 0.863859 0.785702
0.679957 0.864195 0.785916
0.698726 0.866148 0.787381
0.727932 0.868437 0.787350
0.767666 0.871580 0.785336
0.820218 0.876005 0.781613
0.920043 0.876127 0.794430
0.963653 0.861082 0.806668
0.343420 0.274388 0.793912
0.357702 0.275059 0.794400
0.404181 0.271244 0.791623
0.486671 0.267491 0.789761
0.588037 0.257542 0.785580
0.696895 0.238987 0.778500
0.806760 0.211673 0.769986
0.911620 0.242435 0.778683
0.341009 0.284001 0.791592
0.355291 0.284733 0.792203
0.403143 0.282078 0.790402
0.484199 0.277287 0.787900
0.584863 0.267338 0.783627
0.693782 0.248692 0.776486
0.802304 0.219944 0.766720
0.906828 0.246189 0.774655
0.352392 0.336797 0.797147
0.364935 0.336584 0.796994
0.410651 0.333074 0.794644
0.493965 0.332586 0.794553
0.590906 0.322087 0.788876
0.696559 0.304082 0.780301
0.804471 0.280766 0.770596
0.907958 0.303624 0.777615
0.365087 0.428290 0.807492
0.378027 0.428565 0.807584
0.423468 0.425849 0.805783
0.502556 0.422553 0.803677
0.600061 0.414313 0.799039
0.705470 0.399969 0.791531
0.812100 0.380774 0.782040
0.913054 0.400671 0.787198
0.414496 0.563500 0.816648
0.424994 0.563104 0.817075
0.456580 0.555596 0.816312
0.509483 0.537987 0.815183
0.604211 0.527794 0.810056
0.707973 0.512627 0.802548
0.814084 0.494209 0.793393
0.914305 0.510826 0.797147
0.480201 0.692622 0.823697
0.484565 0.691524 0.823270
0.508476 0.689448 0.822843
0.558343 0.681819 0.822721
0.630274 0.666987 0.822934
0.722469 0.651423 0.821164
0.825559 0.640742 0.815488
0.917357 0.649470 0.816190
0.579950 0.788296 0.831327
0.584405 0.788144 0.831327
0.603937 0.787716 0.831479
0.644892 0.788388 0.832914
0.703120 0.790066 0.835447
0.774685 0.794125 0.839750
0.844327 0.782345 0.839353
0.914458 0.775082 0.833829
0.692195 0.863371 0.843076
0.695003 0.863249 0.843046
0.709255 0.863310 0.843626
0.738613 0.864195 0.845396
0.778988 0.865324 0.847898
0.826474 0.867185 0.851164
0.876951 0.870695 0.855894
0.924376 0.876341 0.862150
