20 Preset/Car Style/【3】LUT video cho PR-AE-FCPX/Tone  (18).cube
# Created by Adobe Lightroom plugin Export LUT (1.24.0)
# www.johnrellis.com/lightroom/exportlut.htm
# Preset: 19汽车质感（素材江湖）
# Color profile: E:\lut插件\exportlut.1.24\exportlut.lrplugin\color profiles\Rec709gamma2.4.icc
LUT_3D_SIZE 8
DOMAIN_MIN 0.000000 0.000000 0.000000
DOMAIN_MAX 0.903226 0.903226 0.903226
0.083467 0.094362 0.099886
0.116182 0.095583 0.100954
0.207462 0.098360 0.102571
0.356573 0.095521 0.099336
0.525231 0.082582 0.087617
0.682460 0.042603 0.052766
0.846525 0.000000 0.019989
0.966918 0.000092 0.041840
0.066712 0.123232 0.108705
0.106264 0.120302 0.112520
0.172335 0.132235 0.122316
0.330144 0.143832 0.109987
0.509789 0.146670 0.090608
0.667445 0.143282 0.057435
0.823758 0.137484 0.025666
0.950652 0.135653 0.042206
0.000000 0.219516 0.134188
0.000000 0.216831 0.126497
0.176638 0.204440 0.145968
0.272709 0.225132 0.181399
0.435615 0.261875 0.188846
0.638849 0.286107 0.171572
0.819364 0.297002 0.160708
0.953185 0.293828 0.155734
0.000000 0.374090 0.176944
0.000000 0.371038 0.165011
0.000000 0.364111 0.169314
0.316014 0.359442 0.217533
0.444251 0.382544 0.282475
0.553918 0.423804 0.349584
0.735714 0.457069 0.347448
0.890867 0.467750 0.339879
0.000000 0.533471 0.246464
0.000000 0.531701 0.238560
0.000000 0.526940 0.220127
0.245426 0.516686 0.259312
0.447486 0.498787 0.309911
0.563561 0.506035 0.373053
0.669154 0.546288 0.441627
0.777646 0.599786 0.517388
0.000000 0.669184 0.327153
0.000000 0.674006 0.327214
0.000000 0.671046 0.309270
0.000000 0.662379 0.324987
0.407660 0.647456 0.364050
0.576623 0.632746 0.414435
0.695216 0.642969 0.486824
0.786374 0.681605 0.566278
0.000000 0.789700 0.425116
0.000000 0.790311 0.423804
0.000000 0.787778 0.413794
0.000000 0.783200 0.410101
0.337224 0.771115 0.439887
0.553796 0.759274 0.482277
0.693111 0.748348 0.533928
0.795560 0.754757 0.605890
0.000000 0.889067 0.548974
0.000000 0.888762 0.547967
0.000000 0.888060 0.546380
0.093568 0.887114 0.545922
0.361364 0.873075 0.550805
0.564172 0.866758 0.589685
0.705898 0.860410 0.634913
0.806699 0.852934 0.678096
0.080873 0.094514 0.128328
0.113680 0.095155 0.129671
0.199222 0.091463 0.132357
0.342138 0.017304 0.125856
0.508141 0.000000 0.122255
0.663172 0.000000 0.114717
0.814450 0.000000 0.108583
0.940948 0.000000 0.111360
0.079866 0.121828 0.131838
0.114595 0.125673 0.132448
0.202335 0.126986 0.133272
0.342016 0.125734 0.131136
0.505425 0.119173 0.125124
0.661036 0.109468 0.117556
0.804410 0.099763 0.110079
0.930297 0.097780 0.112886
0.000000 0.220615 0.165743
0.000000 0.218997 0.156252
0.183413 0.208530 0.166293
0.275486 0.230320 0.201480
0.447028 0.259037 0.196262
0.631891 0.272648 0.180697
0.794400 0.274601 0.166171
0.933043 0.271000 0.156863
0.000000 0.365454 0.203372
0.000000 0.363561 0.193729
0.000000 0.358007 0.187533
0.305547 0.345190 0.226505
0.420294 0.363043 0.280247
0.523919 0.402289 0.340307
0.710201 0.431586 0.328222
0.871550 0.445136 0.322515
0.000000 0.527459 0.267094
0.000000 0.524651 0.259342
0.000000 0.518456 0.232761
0.241337 0.504204 0.266545
0.435248 0.483650 0.310948
0.547906 0.492226 0.370153
0.653925 0.533776 0.436378
0.770230 0.585992 0.502525
0.000000 0.659266 0.337316
0.000000 0.658900 0.333227
0.000000 0.656733 0.316411
0.000000 0.650233 0.326665
0.401648 0.637263 0.365240
0.570947 0.625635 0.416297
0.687922 0.636042 0.485512
0.778775 0.674037 0.561486
0.000000 0.780728 0.426184
0.000000 0.779019 0.422492
0.000000 0.776272 0.411658
0.000000 0.773037 0.404669
0.327398 0.763760 0.437293
0.546624 0.751949 0.478553
0.684382 0.739193 0.526787
0.786099 0.744656 0.595819
0.000000 0.883268 0.544640
0.000000 0.883940 0.545708
0.000000 0.883024 0.543359
0.000000 0.882261 0.542504
0.380804 0.877195 0.564294
0.568902 0.868132 0.596460
0.705348 0.859342 0.636164
0.805814 0.851652 0.678462
0.053925 0.092683 0.219059
0.113344 0.091188 0.221317
0.207736 0.087648 0.226139
0.348730 0.005005 0.245853
0.520409 0.000000 0.244785
0.688075 0.000000 0.208957
0.835203 0.000000 0.202792
0.956054 0.000000 0.215183
0.000000 0.120302 0.225315
0.102205 0.120333 0.226322
0.210422 0.120638 0.229252
0.350988 0.094453 0.241459
0.519432 0.000000 0.230106
0.684382 0.000000 0.193515
0.824216 0.000000 0.205905
0.946960 0.000000 0.216648
0.000000 0.215885 0.238529
0.004791 0.218296 0.238651
0.216190 0.229068 0.237217
0.367376 0.227085 0.234714
0.528008 0.226078 0.234012
0.683406 0.227878 0.235966
0.821530 0.229374 0.238376
0.942687 0.235294 0.244724
0.000000 0.385931 0.303014
0.000000 0.385168 0.300542
0.115938 0.380774 0.274113
0.337407 0.366857 0.296269
0.445991 0.390387 0.346197
0.586725 0.422950 0.366461
0.760067 0.435218 0.355108
0.902983 0.436927 0.349218
0.000000 0.534630 0.352941
0.000000 0.533257 0.347539
0.000000 0.529168 0.325719
0.266239 0.518914 0.329442
0.459907 0.500542 0.367651
0.566094 0.510216 0.416388
0.665095 0.550103 0.477394
0.800381 0.592828 0.512657
0.000000 0.661891 0.402472
0.000000 0.661982 0.399664
0.000000 0.659388 0.384955
0.000000 0.653498 0.372595
0.414771 0.639673 0.405005
0.580102 0.628382 0.450690
0.692836 0.641779 0.514885
0.782620 0.682094 0.587854
0.000000 0.784146 0.476295
0.000000 0.782773 0.473091
0.000000 0.779141 0.461707
0.000000 0.775235 0.446113
0.346227 0.765835 0.469459
0.558984 0.754910 0.508659
0.695186 0.745022 0.555993
0.794308 0.753811 0.622675
0.000000 0.883330 0.574456
0.000000 0.882567 0.572564
0.000000 0.881498 0.569726
0.218845 0.881926 0.570306
0.393347 0.877867 0.583154
0.579431 0.869963 0.615808
0.713191 0.861845 0.653590
0.811276 0.854368 0.693202
0.000000 0.070588 0.361242
0.109255 0.059113 0.364843
0.230808 0.016632 0.368872
0.361028 0.000000 0.375067
0.511711 0.000000 0.387121
0.674342 0.000000 0.392004
0.821500 0.000000 0.373877
0.950774 0.000000 0.341894
0.000000 0.109133 0.371588
0.052064 0.106203 0.372686
0.227268 0.092897 0.375067
0.366339 0.031556 0.380377
0.516716 0.000000 0.388251
0.677394 0.000000 0.389441
0.821775 0.000000 0.367834
0.950622 0.000000 0.334508
0.000000 0.217655 0.380011
0.000000 0.211460 0.380896
0.183627 0.201358 0.382208
0.369177 0.210819 0.383520
0.530449 0.217227 0.391760
0.694545 0.141299 0.379095
0.843320 0.000000 0.351659
0.960082 0.000000 0.331365
0.000000 0.363897 0.398474
0.000000 0.364935 0.397955
0.143282 0.371923 0.397436
0.380041 0.388495 0.393988
0.536095 0.385107 0.390814
0.680812 0.384314 0.389746
0.815976 0.384497 0.390387
0.934447 0.386450 0.392340
0.000000 0.553460 0.466468
0.000000 0.552148 0.463783
0.135409 0.547784 0.456031
0.331518 0.540215 0.432227
0.498146 0.523522 0.452979
0.593561 0.540429 0.494636
0.704677 0.575036 0.528557
0.853758 0.590082 0.525811
0.000000 0.675868 0.515618
0.000000 0.679438 0.516045
0.110536 0.675441 0.500145
0.261387 0.670741 0.476509
0.450111 0.658808 0.482826
0.606683 0.643305 0.517937
0.707240 0.657801 0.569604
0.790005 0.697322 0.633295
0.000000 0.787472 0.557366
0.000000 0.787564 0.556023
0.000000 0.786191 0.548058
0.228397 0.783597 0.534783
0.387366 0.776913 0.532769
0.584192 0.764248 0.563622
0.711360 0.752712 0.601770
0.802976 0.763546 0.659388
0.214389 0.887053 0.632349
0.227207 0.886687 0.631220
0.275486 0.885496 0.627527
0.349828 0.883909 0.622797
0.431952 0.881071 0.618311
0.593194 0.873106 0.647059
0.724331 0.865263 0.681025
0.820951 0.859007 0.718441
0.000000 0.000000 0.511650
0.089937 0.000000 0.514061
0.237827 0.000000 0.516075
0.374823 0.000000 0.520226
0.516991 0.000000 0.525505
0.667506 0.000000 0.532677
0.806332 0.000000 0.530083
0.936126 0.000000 0.514824
0.000000 0.081209 0.517937
0.000000 0.067414 0.520256
0.228183 0.006744 0.521691
0.373144 0.000000 0.522728
0.520165 0.000000 0.528740
0.670008 0.000000 0.533501
0.806973 0.000000 0.529625
0.936065 0.000000 0.513085
0.000000 0.185916 0.526665
0.000000 0.185367 0.526940
0.161440 0.182681 0.526513
0.362707 0.183230 0.528771
0.522393 0.189364 0.530724
0.666224 0.192386 0.528161
0.803799 0.180758 0.522850
0.932067 0.000000 0.502007
0.000000 0.351812 0.535332
0.000000 0.351141 0.535180
0.000000 0.349371 0.536645
0.342443 0.352300 0.537469
0.528435 0.370581 0.536675
0.669551 0.379278 0.532158
0.811826 0.340063 0.514366
0.939208 0.283299 0.482673
0.000000 0.502220 0.543450
0.000000 0.503624 0.543877
0.000000 0.508263 0.542992
0.339483 0.517693 0.541070
0.526604 0.531395 0.534447
0.664515 0.526543 0.529503
0.796536 0.523461 0.526757
0.913603 0.521508 0.524804
0.000000 0.669093 0.592493
0.000000 0.669062 0.591547
0.000000 0.666133 0.584680
0.334081 0.662867 0.576287
0.477180 0.653437 0.554620
0.624353 0.645594 0.581201
0.715023 0.668238 0.626184
0.801022 0.704829 0.669276
0.000000 0.790005 0.637934
0.000000 0.788388 0.636469
0.261631 0.783688 0.633387
0.384009 0.780392 0.624201
0.459632 0.776730 0.604425
0.595941 0.765927 0.614466
0.722408 0.753201 0.645899
0.805295 0.765194 0.690791
0.329351 0.882078 0.690272
0.335882 0.881651 0.688624
0.364965 0.880247 0.682979
0.429023 0.880949 0.679316
0.494820 0.878660 0.670893
0.591272 0.873625 0.677180
0.727901 0.864683 0.706538
0.824674 0.857237 0.738918
0.000000 0.000000 0.658595
0.000000 0.000000 0.659693
0.234806 0.000000 0.658778
0.376196 0.000000 0.659785
0.520470 0.000000 0.666346
0.664179 0.000000 0.668818
0.806180 0.000000 0.669062
0.927245 0.000000 0.658137
0.000000 0.000000 0.653376
0.000000 0.000000 0.653437
0.217929 0.000000 0.653437
0.368170 0.000000 0.655787
0.513451 0.000000 0.659937
0.658015 0.000000 0.662806
0.799893 0.000000 0.663478
0.921904 0.000000 0.653742
0.000000 0.171267 0.664759
0.000000 0.169863 0.664851
0.140139 0.165560 0.665797
0.350927 0.158022 0.663355
0.511040 0.159976 0.664149
0.660792 0.170993 0.665492
0.802213 0.183322 0.664729
0.920592 0.220554 0.654017
0.000000 0.336492 0.674495
0.000000 0.333379 0.673701
0.000000 0.326055 0.674189
0.327031 0.336492 0.677455
0.516625 0.351904 0.677729
0.671901 0.367681 0.676173
0.808011 0.378119 0.670893
0.921416 0.388800 0.658595
0.000000 0.484443 0.669459
0.000000 0.484688 0.669245
0.000000 0.486488 0.669184
0.258305 0.491463 0.669764
0.493324 0.498390 0.668391
0.661585 0.515679 0.665888
0.791196 0.522942 0.660060
0.916258 0.493599 0.640803
0.000000 0.623346 0.669429
0.000000 0.625818 0.671168
0.000000 0.628504 0.670344
0.307805 0.634607 0.668666
0.489174 0.644282 0.665370
0.659541 0.661952 0.663447
0.786526 0.661921 0.663447
0.899107 0.660121 0.661769
0.000000 0.795041 0.728542
0.000000 0.795743 0.728603
0.000000 0.794583 0.724788
0.314336 0.792264 0.718013
0.515831 0.788510 0.710506
0.634424 0.778012 0.692897
0.748043 0.764981 0.710048
0.821103 0.782101 0.746059
0.161074 0.890593 0.752804
0.195254 0.889830 0.751736
0.309972 0.887694 0.749966
0.454231 0.883909 0.750362
0.567407 0.878660 0.746273
0.627344 0.875425 0.731289
0.735073 0.868223 0.745174
0.835172 0.859709 0.772976
0.000000 0.000000 0.774868
0.000000 0.000000 0.775753
0.217838 0.000000 0.776059
0.363409 0.000000 0.777310
0.500999 0.000000 0.777798
0.638483 0.000000 0.777951
0.775235 0.000000 0.777951
0.909636 0.000000 0.776883
0.000000 0.000000 0.772854
0.000000 0.000000 0.773831
0.200015 0.000000 0.774166
0.355047 0.000000 0.774472
0.496345 0.000000 0.774746
0.634516 0.000000 0.774319
0.770962 0.000000 0.773648
0.904387 0.000000 0.771939
0.000000 0.144076 0.777584
0.000000 0.142245 0.777615
0.099214 0.134859 0.777157
0.330938 0.121675 0.776883
0.487556 0.110689 0.776120
0.633204 0.124117 0.775570
0.773495 0.147524 0.776089
0.907683 0.168948 0.774838
0.000000 0.297276 0.782681
0.000000 0.296696 0.781857
0.000000 0.297398 0.780880
0.290440 0.301244 0.780636
0.477058 0.309331 0.779507
0.633600 0.326848 0.778897
0.776547 0.344213 0.779110
0.907225 0.355169 0.774990
0.000000 0.462409 0.779965
0.000000 0.460792 0.779355
0.000000 0.456672 0.778897
0.204959 0.451392 0.779294
0.453681 0.458930 0.778286
0.627008 0.475471 0.776761
0.773617 0.493599 0.775967
0.900572 0.507378 0.771572
0.000000 0.597406 0.779599
0.000000 0.597894 0.779721
0.000000 0.599512 0.779812
0.187350 0.603052 0.779812
0.420600 0.610895 0.779141
0.623163 0.625605 0.778286
0.775143 0.645594 0.777127
0.889006 0.653315 0.771176
0.000000 0.732174 0.782864
0.000000 0.733181 0.783139
0.000000 0.735653 0.782742
0.313787 0.740993 0.782193
0.481941 0.749020 0.780667
0.634150 0.760403 0.778195
0.772946 0.773983 0.774655
0.881559 0.772366 0.773098
0.000000 0.890227 0.835447
0.000000 0.890166 0.834989
0.000000 0.890105 0.833188
0.321721 0.888792 0.828702
0.502647 0.886381 0.821958
0.654139 0.883513 0.815457
0.756100 0.875944 0.802670
0.852903 0.866606 0.819852
0.000000 0.000000 0.878813
0.000000 0.000000 0.879057
0.194797 0.000000 0.878538
0.343999 0.000000 0.878843
0.479744 0.000000 0.878935
0.612970 0.000000 0.878630
0.745907 0.000000 0.878569
0.876493 0.000000 0.877806
0.000000 0.000000 0.877501
0.000000 0.000000 0.877836
0.175448 0.000000 0.877653
0.336919 0.000000 0.877745
0.475837 0.000000 0.877836
0.610742 0.000000 0.877470
0.744167 0.000000 0.876982
0.874540 0.000000 0.875944
0.000000 0.104738 0.878141
0.000000 0.102266 0.878172
0.000000 0.089143 0.877745
0.309911 0.046082 0.878691
0.464302 0.000000 0.878111
0.605859 0.000000 0.877043
0.742611 0.098238 0.876341
0.873960 0.140139 0.875334
0.000000 0.267491 0.879149
0.000000 0.267826 0.879271
0.000000 0.267918 0.878965
0.258335 0.269993 0.878996
0.446204 0.275212 0.878538
0.599695 0.287022 0.877562
0.741543 0.309392 0.876646
0.874479 0.327092 0.875700
0.000000 0.420447 0.878660
0.000000 0.419501 0.878996
0.000000 0.413733 0.878904
0.136995 0.414343 0.878691
0.415229 0.420935 0.877745
0.587732 0.432624 0.876432
0.738094 0.453986 0.875273
0.873564 0.474952 0.874693
0.000000 0.569055 0.877226
0.000000 0.568566 0.876890
0.000000 0.567376 0.876280
0.000000 0.564263 0.876158
0.369024 0.564569 0.876341
0.577996 0.580682 0.876310
0.740658 0.605310 0.876036
0.874693 0.627466 0.875639
0.000000 0.700404 0.878904
0.000000 0.700679 0.878782
0.000000 0.702083 0.878294
0.172457 0.706172 0.877928
0.404089 0.713741 0.877287
0.572808 0.726833 0.876463
0.742977 0.744045 0.875975
0.874327 0.760555 0.875059
0.000000 0.829404 0.881956
0.083772 0.829740 0.881834
0.241245 0.831754 0.881529
0.378424 0.836332 0.881407
0.509117 0.843107 0.880949
0.636347 0.852232 0.879973
0.760098 0.863798 0.878782
0.876402 0.876707 0.876921
