20 Preset/Car Style/【3】LUT video cho PR-AE-FCPX/Tone  (9).cube
# Created by Adobe Lightroom plugin Export LUT (1.24.0)
# www.johnrellis.com/lightroom/exportlut.htm
# Preset: 10汽车质感（素材江湖）
# Color profile: E:\lut插件\exportlut.1.24\exportlut.lrplugin\color profiles\Rec709gamma2.4.icc
LUT_3D_SIZE 32
DOMAIN_MIN 0.0 0.0 0.0
DOMAIN_MAX 1.0 1.0 1.0
0.122713 0.122713 0.122713
0.122713 0.122713 0.122713
0.122713 0.122713 0.122713
0.123903 0.123903 0.123903
0.127596 0.127596 0.127596
0.132265 0.132265 0.132265
0.138094 0.138094 0.138094
0.145357 0.145357 0.145357
0.153323 0.153323 0.153323
0.162081 0.162081 0.162081
0.171450 0.171450 0.171450
0.181521 0.181521 0.181521
0.192264 0.192264 0.192264
0.203799 0.203799 0.203799
0.215885 0.215885 0.215885
0.228489 0.228489 0.228489
0.241978 0.241978 0.241978
0.256443 0.256443 0.256443
0.271672 0.271672 0.271672
0.288212 0.288212 0.288212
0.306004 0.306004 0.306004
0.330541 0.330541 0.330541
0.359533 0.359533 0.359533
0.388739 0.388739 0.388739
0.417975 0.417975 0.417975
0.447974 0.447974 0.447974
0.480018 0.480018 0.480018
0.514794 0.514794 0.514794
0.552636 0.552636 0.552636
0.593927 0.593927 0.593927
0.638636 0.638636 0.638636
0.685908 0.685908 0.685908
0.122713 0.122713 0.122713
0.122713 0.122713 0.122713
0.122713 0.122713 0.122713
0.124636 0.124636 0.124636
0.128298 0.128298 0.128298
0.132692 0.132692 0.132692
0.138308 0.138308 0.138308
0.145541 0.145541 0.145541
0.153323 0.153323 0.153323
0.161776 0.161776 0.161776
0.170840 0.170840 0.170840
0.180545 0.180545 0.180545
0.191104 0.191104 0.191104
0.202487 0.202487 0.202487
0.214359 0.214359 0.214359
0.226871 0.226871 0.226871
0.240116 0.240116 0.240116
0.254398 0.254398 0.254398
0.269474 0.269474 0.269474
0.285740 0.285740 0.285740
0.302892 0.302892 0.302892
0.326238 0.326238 0.326238
0.353368 0.353368 0.353368
0.380407 0.380407 0.380407
0.407782 0.407782 0.407782
0.436103 0.436103 0.436103
0.466529 0.466529 0.466529
0.500145 0.500145 0.500145
0.537316 0.537316 0.537316
0.578180 0.578180 0.578180
0.622980 0.622980 0.622980
0.671015 0.671015 0.671015
0.124636 0.124636 0.124636
0.124849 0.124849 0.124849
0.125551 0.125551 0.125551
0.128054 0.128054 0.128054
0.131380 0.131380 0.131380
0.136049 0.136049 0.136049
0.141878 0.141878 0.141878
0.148684 0.148684 0.148684
0.155917 0.155917 0.155917
0.164034 0.164034 0.164034
0.172793 0.172793 0.172793
0.182193 0.182193 0.182193
0.192386 0.192386 0.192386
0.203433 0.203433 0.203433
0.215000 0.215000 0.215000
0.227268 0.227268 0.227268
0.240482 0.240482 0.240482
0.254459 0.254459 0.254459
0.269383 0.269383 0.269383
0.285496 0.285496 0.285496
0.302708 0.302708 0.302708
0.326299 0.326299 0.326299
0.352087 0.352087 0.352087
0.378241 0.378241 0.378241
0.404578 0.404578 0.404578
0.431678 0.431678 0.431678
0.461219 0.461219 0.461219
0.494057 0.494057 0.494057
0.530785 0.530785 0.530785
0.571435 0.571435 0.571435
0.615778 0.615778 0.615778
0.663569 0.663569 0.663569
0.131380 0.131380 0.131380
0.131594 0.131594 0.131594
0.132265 0.132265 0.132265
0.134157 0.134157 0.134157
0.138705 0.138705 0.138705
0.143801 0.143801 0.143801
0.149416 0.149416 0.149416
0.155428 0.155428 0.155428
0.162081 0.162081 0.162081
0.169467 0.169467 0.169467
0.177584 0.177584 0.177584
0.186526 0.186526 0.186526
0.196414 0.196414 0.196414
0.206943 0.206943 0.206943
0.217929 0.217929 0.217929
0.229892 0.229892 0.229892
0.242435 0.242435 0.242435
0.255924 0.255924 0.255924
0.270329 0.270329 0.270329
0.285863 0.285863 0.285863
0.302281 0.302281 0.302281
0.325566 0.325566 0.325566
0.349737 0.349737 0.349737
0.374640 0.374640 0.374640
0.400732 0.400732 0.400732
0.428443 0.428443 0.428443
0.458991 0.458991 0.458991
0.492775 0.492775 0.492775
0.530297 0.530297 0.530297
0.571038 0.571038 0.571038
0.614496 0.614496 0.614496
0.660395 0.660395 0.660395
0.143618 0.143618 0.143618
0.144015 0.144015 0.144015
0.144594 0.144594 0.144594
0.146639 0.146639 0.146639
0.149416 0.149416 0.149416
0.155764 0.155764 0.155764
0.159976 0.159976 0.159976
0.164981 0.164981 0.164981
0.170687 0.170687 0.170687
0.177157 0.177157 0.177157
0.184512 0.184512 0.184512
0.192782 0.192782 0.192782
0.201999 0.201999 0.201999
0.212131 0.212131 0.212131
0.222995 0.222995 0.222995
0.234684 0.234684 0.234684
0.247166 0.247166 0.247166
0.260502 0.260502 0.260502
0.274662 0.274662 0.274662
0.290013 0.290013 0.290013
0.307469 0.307469 0.307469
0.330297 0.330297 0.330297
0.353399 0.353399 0.353399
0.377722 0.377722 0.377722
0.403510 0.403510 0.403510
0.431189 0.431189 0.431189
0.461402 0.461402 0.461402
0.494759 0.494759 0.494759
0.531640 0.531640 0.531640
0.571374 0.571374 0.571374
0.613977 0.613977 0.613977
0.658900 0.658900 0.658900
0.159792 0.159792 0.159792
0.159976 0.159976 0.159976
0.160616 0.160616 0.160616
0.161929 0.161929 0.161929
0.164340 0.164340 0.164340
0.167636 0.167636 0.167636
0.174838 0.174838 0.174838
0.178561 0.178561 0.178561
0.183291 0.183291 0.183291
0.188907 0.188907 0.188907
0.195560 0.195560 0.195560
0.203311 0.203311 0.203311
0.212009 0.212009 0.212009
0.221622 0.221622 0.221622
0.232273 0.232273 0.232273
0.243534 0.243534 0.243534
0.255833 0.255833 0.255833
0.269078 0.269078 0.269078
0.283207 0.283207 0.283207
0.298405 0.298405 0.298405
0.318303 0.318303 0.318303
0.340612 0.340612 0.340612
0.407202 0.407202 0.407202
0.438727 0.438727 0.438727
0.470954 0.470954 0.470954
0.504509 0.504509 0.504509
0.539025 0.539025 0.539025
0.574548 0.574548 0.574548
0.611780 0.611780 0.611780
0.650446 0.650446 0.650446
0.689601 0.689601 0.689601
0.726406 0.726406 0.726406
0.182071 0.182071 0.182071
0.182193 0.182193 0.182193
0.182742 0.182742 0.182742
0.183719 0.183719 0.183719
0.185611 0.185611 0.185611
0.188510 0.188510 0.188510
0.192142 0.192142 0.192142
0.201297 0.201297 0.201297
0.204837 0.204837 0.204837
0.209903 0.209903 0.209903
0.216098 0.216098 0.216098
0.223697 0.223697 0.223697
0.232059 0.232059 0.232059
0.241306 0.241306 0.241306
0.251438 0.251438 0.251438
0.262333 0.262333 0.262333
0.274266 0.274266 0.274266
0.287205 0.287205 0.287205
0.301488 0.301488 0.301488
0.319707 0.319707 0.319707
0.345159 0.345159 0.345159
0.372564 0.372564 0.372564
0.402380 0.402380 0.402380
0.434638 0.434638 0.434638
0.468421 0.468421 0.468421
0.502708 0.502708 0.502708
0.536889 0.536889 0.536889
0.571283 0.571283 0.571283
0.607141 0.607141 0.607141
0.643977 0.643977 0.643977
0.682216 0.682216 0.682216
0.718929 0.718929 0.718929
0.200198 0.200198 0.200198
0.200320 0.200320 0.200320
0.200809 0.200809 0.200809
0.201541 0.201541 0.201541
0.203067 0.203067 0.203067
0.205417 0.205417 0.205417
0.208408 0.208408 0.208408
0.212345 0.212345 0.212345
0.220798 0.220798 0.220798
0.227268 0.227268 0.227268
0.232761 0.232761 0.232761
0.239353 0.239353 0.239353
0.246983 0.246983 0.246983
0.255589 0.255589 0.255589
0.264958 0.264958 0.264958
0.275181 0.275181 0.275181
0.286473 0.286473 0.286473
0.298863 0.298863 0.298863
0.313848 0.313848 0.313848
0.335210 0.335210 0.335210
0.358373 0.358373 0.358373
0.383825 0.383825 0.383825
0.411810 0.411810 0.411810
0.442329 0.442329 0.442329
0.474769 0.474769 0.474769
0.507683 0.507683 0.507683
0.540581 0.540581 0.540581
0.573907 0.573907 0.573907
0.608728 0.608728 0.608728
0.644739 0.644739 0.644739
0.681971 0.681971 0.681971
0.718074 0.718074 0.718074
0.219852 0.219852 0.219852
0.219944 0.219944 0.219944
0.220249 0.220249 0.220249
0.220890 0.220890 0.220890
0.222049 0.222049 0.222049
0.223911 0.223911 0.223911
0.226688 0.226688 0.226688
0.230076 0.230076 0.230076
0.234409 0.234409 0.234409
0.242252 0.242252 0.242252
0.252293 0.252293 0.252293
0.258488 0.258488 0.258488
0.265507 0.265507 0.265507
0.273564 0.273564 0.273564
0.282322 0.282322 0.282322
0.291936 0.291936 0.291936
0.302770 0.302770 0.302770
0.316350 0.316350 0.316350
0.334691 0.334691 0.334691
0.354345 0.354345 0.354345
0.376074 0.376074 0.376074
0.400092 0.400092 0.400092
0.426703 0.426703 0.426703
0.456031 0.456031 0.456031
0.487312 0.487312 0.487312
0.518975 0.518975 0.518975
0.550744 0.550744 0.550744
0.583093 0.583093 0.583093
0.616785 0.616785 0.616785
0.651637 0.651637 0.651637
0.687495 0.687495 0.687495
0.722072 0.722072 0.722072
0.241123 0.241123 0.241123
0.241123 0.241123 0.241123
0.241215 0.241215 0.241215
0.241886 0.241886 0.241886
0.242527 0.242527 0.242527
0.243809 0.243809 0.243809
0.246098 0.246098 0.246098
0.249119 0.249119 0.249119
0.252903 0.252903 0.252903
0.257725 0.257725 0.257725
0.264622 0.264622 0.264622
0.278264 0.278264 0.278264
0.285008 0.285008 0.285008
0.292668 0.292668 0.292668
0.301488 0.301488 0.301488
0.311070 0.311070 0.311070
0.325750 0.325750 0.325750
0.341802 0.341802 0.341802
0.359167 0.359167 0.359167
0.377722 0.377722 0.377722
0.397925 0.397925 0.397925
0.419532 0.419532 0.419532
0.443366 0.443366 0.443366
0.469398 0.469398 0.469398
0.497230 0.497230 0.497230
0.526146 0.526146 0.526146
0.556298 0.556298 0.556298
0.587732 0.587732 0.587732
0.621027 0.621027 0.621027
0.656001 0.656001 0.656001
0.691768 0.691768 0.691768
0.726192 0.726192 0.726192
0.262486 0.262486 0.262486
0.262486 0.262486 0.262486
0.262821 0.262821 0.262821
0.263401 0.263401 0.263401
0.264286 0.264286 0.264286
0.265599 0.265599 0.265599
0.267796 0.267796 0.267796
0.270726 0.270726 0.270726
0.274479 0.274479 0.274479
0.279088 0.279088 0.279088
0.284489 0.284489 0.284489
0.290654 0.290654 0.290654
0.308385 0.308385 0.308385
0.316228 0.316228 0.316228
0.327947 0.327947 0.327947
0.340612 0.340612 0.340612
0.354223 0.354223 0.354223
0.368994 0.368994 0.368994
0.384833 0.384833 0.384833
0.402106 0.402106 0.402106
0.420813 0.420813 0.420813
0.441291 0.441291 0.441291
0.464149 0.464149 0.464149
0.489235 0.489235 0.489235
0.516197 0.516197 0.516197
0.544030 0.544030 0.544030
0.572930 0.572930 0.572930
0.603296 0.603296 0.603296
0.635462 0.635462 0.635462
0.669337 0.669337 0.669337
0.703182 0.703182 0.703182
0.735683 0.735683 0.735683
0.288151 0.288151 0.288151
0.288212 0.288212 0.288212
0.288487 0.288487 0.288487
0.289067 0.289067 0.289067
0.290013 0.290013 0.290013
0.291447 0.291447 0.291447
0.293431 0.293431 0.293431
0.296452 0.296452 0.296452
0.300114 0.300114 0.300114
0.304662 0.304662 0.304662
0.310033 0.310033 0.310033
0.318944 0.318944 0.318944
0.354772 0.354772 0.354772
0.383520 0.383520 0.383520
0.396857 0.396857 0.396857
0.411048 0.411048 0.411048
0.425910 0.425910 0.425910
0.441840 0.441840 0.441840
0.458991 0.458991 0.458991
0.477577 0.477577 0.477577
0.497688 0.497688 0.497688
0.518914 0.518914 0.518914
0.541650 0.541650 0.541650
0.565545 0.565545 0.565545
0.590082 0.590082 0.590082
0.614801 0.614801 0.614801
0.639734 0.639734 0.639734
0.665187 0.665187 0.665187
0.691279 0.691279 0.691279
0.717617 0.717617 0.717617
0.743740 0.743740 0.743740
0.769436 0.769436 0.769436
0.327642 0.327642 0.327642
0.327581 0.327581 0.327581
0.327459 0.327459 0.327459
0.327459 0.327459 0.327459
0.327642 0.327642 0.327642
0.328252 0.328252 0.328252
0.329686 0.329686 0.329686
0.334325 0.334325 0.334325
0.340551 0.340551 0.340551
0.348394 0.348394 0.348394
0.358251 0.358251 0.358251
0.370062 0.370062 0.370062
0.383490 0.383490 0.383490
0.397772 0.397772 0.397772
0.431067 0.431067 0.431067
0.444495 0.444495 0.444495
0.458015 0.458015 0.458015
0.471687 0.471687 0.471687
0.486610 0.486610 0.486610
0.502617 0.502617 0.502617
0.519951 0.519951 0.519951
0.539025 0.539025 0.539025
0.559655 0.559655 0.559655
0.581811 0.581811 0.581811
0.604761 0.604761 0.604761
0.628321 0.628321 0.628321
0.652583 0.652583 0.652583
0.677516 0.677516 0.677516
0.702663 0.702663 0.702663
0.728145 0.728145 0.728145
0.753079 0.753079 0.753079
0.777401 0.777401 0.777401
0.367773 0.367773 0.367773
0.367559 0.367559 0.367559
0.367163 0.367163 0.367163
0.367163 0.367163 0.367163
0.367498 0.367498 0.367498
0.368292 0.368292 0.368292
0.369970 0.369970 0.369970
0.372961 0.372961 0.372961
0.377935 0.377935 0.377935
0.384741 0.384741 0.384741
0.393774 0.393774 0.393774
0.404852 0.404852 0.404852
0.417517 0.417517 0.417517
0.430854 0.430854 0.430854
0.444099 0.444099 0.444099
0.475013 0.475013 0.475013
0.491585 0.491585 0.491585
0.503899 0.503899 0.503899
0.517174 0.517174 0.517174
0.531273 0.531273 0.531273
0.546960 0.546960 0.546960
0.564477 0.564477 0.564477
0.583551 0.583551 0.583551
0.604395 0.604395 0.604395
0.626184 0.626184 0.626184
0.648646 0.648646 0.648646
0.671656 0.671656 0.671656
0.694789 0.694789 0.694789
0.718166 0.718166 0.718166
0.741756 0.741756 0.741756
0.765011 0.765011 0.765011
0.787808 0.787808 0.787808
0.412116 0.412116 0.412116
0.411933 0.411933 0.411933
0.411261 0.411261 0.411261
0.410437 0.410437 0.410437
0.409735 0.409735 0.409735
0.409461 0.409461 0.409461
0.410224 0.410224 0.410224
0.412238 0.412238 0.412238
0.416358 0.416358 0.416358
0.422614 0.422614 0.422614
0.431189 0.431189 0.431189
0.441840 0.441840 0.441840
0.453864 0.453864 0.453864
0.466529 0.466529 0.466529
0.479072 0.479072 0.479072
0.490669 0.490669 0.490669
0.518456 0.518456 0.518456
0.538842 0.538842 0.538842
0.550591 0.550591 0.550591
0.563043 0.563043 0.563043
0.577050 0.577050 0.577050
0.593042 0.593042 0.593042
0.610590 0.610590 0.610590
0.629694 0.629694 0.629694
0.649866 0.649866 0.649866
0.671046 0.671046 0.671046
0.692744 0.692744 0.692744
0.714687 0.714687 0.714687
0.737026 0.737026 0.737026
0.759640 0.759640 0.759640
0.782071 0.782071 0.782071
0.803647 0.803647 0.803647
0.454139 0.454139 0.454139
0.454322 0.454322 0.454322
0.454139 0.454139 0.454139
0.454047 0.454047 0.454047
0.453925 0.453925 0.453925
0.454475 0.454475 0.454475
0.456092 0.456092 0.456092
0.459052 0.459052 0.459052
0.463294 0.463294 0.463294
0.469459 0.469459 0.469459
0.476875 0.476875 0.476875
0.485451 0.485451 0.485451
0.494972 0.494972 0.494972
0.504601 0.504601 0.504601
0.514214 0.514214 0.514214
0.523522 0.523522 0.523522
0.533165 0.533165 0.533165
0.556909 0.556909 0.556909
0.581720 0.581720 0.581720
0.593561 0.593561 0.593561
0.607324 0.607324 0.607324
0.622766 0.622766 0.622766
0.639826 0.639826 0.639826
0.658320 0.658320 0.658320
0.677790 0.677790 0.677790
0.697658 0.697658 0.697658
0.717647 0.717647 0.717647
0.737667 0.737667 0.737667
0.757656 0.757656 0.757656
0.777554 0.777554 0.777554
0.796963 0.796963 0.796963
0.815549 0.815549 0.815549
0.496529 0.496529 0.496529
0.496529 0.496529 0.496529
0.496498 0.496498 0.496498
0.496529 0.496529 0.496529
0.496803 0.496803 0.496803
0.497566 0.497566 0.497566
0.499153 0.499153 0.499153
0.501793 0.501793 0.501793
0.505516 0.505516 0.505516
0.510796 0.510796 0.510796
0.517510 0.517510 0.517510
0.525353 0.525353 0.525353
0.533898 0.533898 0.533898
0.542626 0.542626 0.542626
0.551354 0.551354 0.551354
0.559869 0.559869 0.559869
0.568353 0.568353 0.568353
0.577478 0.577478 0.577478
0.597955 0.597955 0.597955
0.627008 0.627008 0.627008
0.639765 0.639765 0.639765
0.654292 0.654292 0.654292
0.670375 0.670375 0.670375
0.687404 0.687404 0.687404
0.705043 0.705043 0.705043
0.723079 0.723079 0.723079
0.741268 0.741268 0.741268
0.759487 0.759487 0.759487
0.777584 0.777584 0.777584
0.795407 0.795407 0.795407
0.812619 0.812619 0.812619
0.828885 0.828885 0.828885
0.544915 0.544915 0.544915
0.545525 0.545525 0.545525
0.586847 0.586847 0.586847
0.586969 0.586969 0.586969
0.587152 0.587152 0.587152
0.587579 0.587579 0.587579
0.588373 0.588373 0.588373
0.590082 0.590082 0.590082
0.593042 0.593042 0.593042
0.597101 0.597101 0.597101
0.602838 0.602838 0.602838
0.609247 0.609247 0.609247
0.615381 0.615381 0.615381
0.621424 0.621424 0.621424
0.627039 0.627039 0.627039
0.632380 0.632380 0.632380
0.637171 0.637171 0.637171
0.642329 0.642329 0.642329
0.648157 0.648157 0.648157
0.662745 0.662745 0.662745
0.692866 0.692866 0.692866
0.703822 0.703822 0.703822
0.715938 0.715938 0.715938
0.728695 0.728695 0.728695
0.741421 0.741421 0.741421
0.754635 0.754635 0.754635
0.768185 0.768185 0.768185
0.782315 0.782315 0.782315
0.797086 0.797086 0.797086
0.812039 0.812039 0.812039
0.826749 0.826749 0.826749
0.840543 0.840543 0.840543
0.605371 0.605371 0.605371
0.609247 0.609247 0.609247
0.613428 0.613428 0.613428
0.617182 0.617182 0.617182
0.620264 0.620264 0.620264
0.621729 0.621729 0.621729
0.622858 0.622858 0.622858
0.624018 0.624018 0.624018
0.626215 0.626215 0.626215
0.629236 0.629236 0.629236
0.633661 0.633661 0.633661
0.639124 0.639124 0.639124
0.644526 0.644526 0.644526
0.650019 0.650019 0.650019
0.655299 0.655299 0.655299
0.660548 0.660548 0.660548
0.665736 0.665736 0.665736
0.671351 0.671351 0.671351
0.677638 0.677638 0.677638
0.684810 0.684810 0.684810
0.697078 0.697078 0.697078
0.729397 0.729397 0.729397
0.740139 0.740139 0.740139
0.751369 0.751369 0.751369
0.762539 0.762539 0.762539
0.773983 0.773983 0.773983
0.785794 0.785794 0.785794
0.798123 0.798123 0.798123
0.811002 0.811002 0.811002
0.824186 0.824186 0.824186
0.837125 0.837125 0.837125
0.849241 0.849241 0.849241
0.643885 0.643885 0.643885
0.647852 0.647852 0.647852
0.652155 0.652155 0.652155
0.656214 0.656214 0.656214
0.659327 0.659327 0.659327
0.661006 0.661006 0.661006
0.662043 0.662043 0.662043
0.663050 0.663050 0.663050
0.664729 0.664729 0.664729
0.667018 0.667018 0.667018
0.670253 0.670253 0.670253
0.674678 0.674678 0.674678
0.679377 0.679377 0.679377
0.684199 0.684199 0.684199
0.689052 0.689052 0.689052
0.693721 0.693721 0.693721
0.698390 0.698390 0.698390
0.703243 0.703243 0.703243
0.708644 0.708644 0.708644
0.714870 0.714870 0.714870
0.721645 0.721645 0.721645
0.730892 0.730892 0.730892
0.760098 0.760098 0.760098
0.772610 0.772610 0.772610
0.782437 0.782437 0.782437
0.792355 0.792355 0.792355
0.802518 0.802518 0.802518
0.813107 0.813107 0.813107
0.824277 0.824277 0.824277
0.835630 0.835630 0.835630
0.846769 0.846769 0.846769
0.857267 0.857267 0.857267
0.684199 0.684199 0.684199
0.687587 0.687587 0.687587
0.691188 0.691188 0.691188
0.694545 0.694545 0.694545
0.697169 0.697169 0.697169
0.698573 0.698573 0.698573
0.699580 0.699580 0.699580
0.700374 0.700374 0.700374
0.701808 0.701808 0.701808
0.703670 0.703670 0.703670
0.706233 0.706233 0.706233
0.709529 0.709529 0.709529
0.713283 0.713283 0.713283
0.717342 0.717342 0.717342
0.721614 0.721614 0.721614
0.726101 0.726101 0.726101
0.731228 0.731228 0.731228
0.736873 0.736873 0.736873
0.743313 0.743313 0.743313
0.750484 0.750484 0.750484
0.758358 0.758358 0.758358
0.766537 0.766537 0.766537
0.774594 0.774594 0.774594
0.799191 0.799191 0.799191
0.812589 0.812589 0.812589
0.821256 0.821256 0.821256
0.829831 0.829831 0.829831
0.838468 0.838468 0.838468
0.847257 0.847257 0.847257
0.855985 0.855985 0.855985
0.864439 0.864439 0.864439
0.872404 0.872404 0.872404
0.740932 0.740932 0.740932
0.742184 0.742184 0.742184
0.743160 0.743160 0.743160
0.743862 0.743862 0.743862
0.744228 0.744228 0.744228
0.744289 0.744289 0.744289
0.744381 0.744381 0.744381
0.744808 0.744808 0.744808
0.745754 0.745754 0.745754
0.747372 0.747372 0.747372
0.749477 0.749477 0.749477
0.751888 0.751888 0.751888
0.754818 0.754818 0.754818
0.757992 0.757992 0.757992
0.761227 0.761227 0.761227
0.764614 0.764614 0.764614
0.768215 0.768215 0.768215
0.772183 0.772183 0.772183
0.776516 0.776516 0.776516
0.781399 0.781399 0.781399
0.786618 0.786618 0.786618
0.792233 0.792233 0.792233
0.797879 0.797879 0.797879
0.803433 0.803433 0.803433
0.821683 0.821683 0.821683
0.834226 0.834226 0.834226
0.841703 0.841703 0.841703
0.849210 0.849210 0.849210
0.856748 0.856748 0.856748
0.864195 0.864195 0.864195
0.871397 0.871397 0.871397
0.878233 0.878233 0.878233
0.772427 0.772427 0.772427
0.773312 0.773312 0.773312
0.774136 0.774136 0.774136
0.774746 0.774746 0.774746
0.775174 0.775174 0.775174
0.775326 0.775326 0.775326
0.775479 0.775479 0.775479
0.775906 0.775906 0.775906
0.776730 0.776730 0.776730
0.778042 0.778042 0.778042
0.779721 0.779721 0.779721
0.781704 0.781704 0.781704
0.783963 0.783963 0.783963
0.786740 0.786740 0.786740
0.789578 0.789578 0.789578
0.792630 0.792630 0.792630
0.795895 0.795895 0.795895
0.799466 0.799466 0.799466
0.803281 0.803281 0.803281
0.807370 0.807370 0.807370
0.811765 0.811765 0.811765
0.816403 0.816403 0.816403
0.821134 0.821134 0.821134
0.825864 0.825864 0.825864
0.824369 0.824369 0.824369
0.838193 0.838193 0.838193
0.850217 0.850217 0.850217
0.856840 0.856840 0.856840
0.863493 0.863493 0.863493
0.870085 0.870085 0.870085
0.876585 0.876585 0.876585
0.882811 0.882811 0.882811
0.808072 0.808072 0.808072
0.809293 0.809293 0.809293
0.809873 0.809873 0.809873
0.809812 0.809812 0.809812
0.809262 0.809262 0.809262
0.808438 0.808438 0.808438
0.807462 0.807462 0.807462
0.806577 0.806577 0.806577
0.806027 0.806027 0.806027
0.805905 0.805905 0.805905
0.805997 0.805997 0.805997
0.806638 0.806638 0.806638
0.807492 0.807492 0.807492
0.808743 0.808743 0.808743
0.810025 0.810025 0.810025
0.811582 0.811582 0.811582
0.813504 0.813504 0.813504
0.815976 0.815976 0.815976
0.819120 0.819120 0.819120
0.822873 0.822873 0.822873
0.826902 0.826902 0.826902
0.830961 0.830961 0.830961
0.834745 0.834745 0.834745
0.838193 0.838193 0.838193
0.841337 0.841337 0.841337
0.844266 0.844266 0.844266
0.854032 0.854032 0.854032
0.864439 0.864439 0.864439
0.869932 0.869932 0.869932
0.875547 0.875547 0.875547
0.881163 0.881163 0.881163
0.886656 0.886656 0.886656
0.826688 0.826688 0.826688
0.827634 0.827634 0.827634
0.828275 0.828275 0.828275
0.828489 0.828489 0.828489
0.828519 0.828519 0.828519
0.828458 0.828458 0.828458
0.828489 0.828489 0.828489
0.828641 0.828641 0.828641
0.829068 0.829068 0.829068
0.829679 0.829679 0.829679
0.830381 0.830381 0.830381
0.831235 0.831235 0.831235
0.832090 0.832090 0.832090
0.833005 0.833005 0.833005
0.834012 0.834012 0.834012
0.835111 0.835111 0.835111
0.836423 0.836423 0.836423
0.838132 0.838132 0.838132
0.840360 0.840360 0.840360
0.843076 0.843076 0.843076
0.846098 0.846098 0.846098
0.849210 0.849210 0.849210
0.852232 0.852232 0.852232
0.855131 0.855131 0.855131
0.857847 0.857847 0.857847
0.860410 0.860410 0.860410
0.862943 0.862943 0.862943
0.869810 0.869810 0.869810
0.878874 0.878874 0.878874
0.883482 0.883482 0.883482
0.888090 0.888090 0.888090
0.892729 0.892729 0.892729
0.847196 0.847196 0.847196
0.847593 0.847593 0.847593
0.847807 0.847807 0.847807
0.847868 0.847868 0.847868
0.847807 0.847807 0.847807
0.847684 0.847684 0.847684
0.847623 0.847623 0.847623
0.847623 0.847623 0.847623
0.847807 0.847807 0.847807
0.848173 0.848173 0.848173
0.848631 0.848631 0.848631
0.849241 0.849241 0.849241
0.849973 0.849973 0.849973
0.850584 0.850584 0.850584
0.851316 0.851316 0.851316
0.852140 0.852140 0.852140
0.853086 0.853086 0.853086
0.854307 0.854307 0.854307
0.855985 0.855985 0.855985
0.858061 0.858061 0.858061
0.860349 0.860349 0.860349
0.862699 0.862699 0.862699
0.865019 0.865019 0.865019
0.867247 0.867247 0.867247
0.869322 0.869322 0.869322
0.871275 0.871275 0.871275
0.873228 0.873228 0.873228
0.875151 0.875151 0.875151
0.880156 0.880156 0.880156
0.887785 0.887785 0.887785
0.892393 0.892393 0.892393
0.896544 0.896544 0.896544
0.861845 0.861845 0.861845
0.862089 0.862089 0.862089
0.862333 0.862333 0.862333
0.862486 0.862486 0.862486
0.862699 0.862699 0.862699
0.863096 0.863096 0.863096
0.863859 0.863859 0.863859
0.864836 0.864836 0.864836
0.866026 0.866026 0.866026
0.867430 0.867430 0.867430
0.868925 0.868925 0.868925
0.870420 0.870420 0.870420
0.871794 0.871794 0.871794
0.872984 0.872984 0.872984
0.873991 0.873991 0.873991
0.874784 0.874784 0.874784
0.875608 0.875608 0.875608
0.876493 0.876493 0.876493
0.877623 0.877623 0.877623
0.878965 0.878965 0.878965
0.880461 0.880461 0.880461
0.881987 0.881987 0.881987
0.883452 0.883452 0.883452
0.884886 0.884886 0.884886
0.886229 0.886229 0.886229
0.887480 0.887480 0.887480
0.888762 0.888762 0.888762
0.890043 0.890043 0.890043
0.891417 0.891417 0.891417
0.894530 0.894530 0.894530
0.900053 0.900053 0.900053
0.903807 0.903807 0.903807
0.880491 0.880491 0.880491
0.880491 0.880491 0.880491
0.880461 0.880461 0.880461
0.880430 0.880430 0.880430
0.880369 0.880369 0.880369
0.880369 0.880369 0.880369
0.880461 0.880461 0.880461
0.880613 0.880613 0.880613
0.880919 0.880919 0.880919
0.881315 0.881315 0.881315
0.881804 0.881804 0.881804
0.882353 0.882353 0.882353
0.882933 0.882933 0.882933
0.883482 0.883482 0.883482
