20 Preset/Car Style/【3】LUT video cho PR-AE-FCPX/Tone  (13).cube
# Created by Adobe Lightroom plugin Export LUT (1.24.0)
# www.johnrellis.com/lightroom/exportlut.htm
# Preset: 14汽车质感（素材江湖）
# Color profile: E:\lut插件\exportlut.1.24\exportlut.lrplugin\color profiles\Rec709gamma2.4.icc
LUT_3D_SIZE 32
DOMAIN_MIN 0.0 0.0 0.0
DOMAIN_MAX 1.0 1.0 1.0
0.113741 0.128603 0.140414
0.116457 0.129335 0.140963
0.123629 0.130343 0.142550
0.138430 0.132570 0.144930
0.158968 0.136507 0.149386
0.180484 0.141817 0.154818
0.199100 0.146609 0.160586
0.214481 0.151797 0.166384
0.228031 0.157198 0.172061
0.243809 0.162448 0.177707
0.264775 0.167514 0.183688
0.293370 0.172000 0.188937
0.327916 0.175662 0.194003
0.366735 0.179019 0.198520
0.407446 0.181491 0.202640
0.448157 0.183871 0.206760
0.487709 0.185916 0.210727
0.525963 0.187808 0.215274
0.563195 0.190890 0.220127
0.599847 0.194308 0.226261
0.635492 0.200290 0.233494
0.678279 0.209628 0.244724
0.721157 0.223270 0.259342
0.758694 0.238956 0.275212
0.791867 0.255253 0.291661
0.822019 0.272801 0.308598
0.849760 0.291600 0.326482
0.875883 0.311467 0.345129
0.900908 0.332525 0.364935
0.925322 0.355200 0.386084
0.949248 0.379614 0.409125
0.972442 0.406500 0.434089
0.114778 0.130953 0.142397
0.115755 0.130861 0.142611
0.121736 0.132967 0.144259
0.137972 0.134768 0.145968
0.158968 0.138582 0.150210
0.179782 0.143435 0.155825
0.198215 0.148043 0.161013
0.213077 0.153048 0.166842
0.226658 0.158236 0.172335
0.241947 0.163180 0.178012
0.262119 0.168063 0.183536
0.289586 0.172549 0.188724
0.323369 0.176394 0.193668
0.361608 0.179934 0.198367
0.401892 0.182467 0.202670
0.442603 0.184634 0.206455
0.482246 0.186587 0.210605
0.520623 0.189120 0.214878
0.558160 0.191104 0.219852
0.594537 0.195346 0.225589
0.629816 0.200504 0.232578
0.671473 0.209232 0.243198
0.713100 0.221592 0.256748
0.749508 0.236027 0.271763
0.782193 0.251194 0.287053
0.812253 0.268009 0.303258
0.840482 0.285771 0.320592
0.867247 0.304997 0.338659
0.892973 0.325872 0.358373
0.918090 0.348241 0.379339
0.942718 0.372473 0.402045
0.966674 0.398993 0.427008
0.117037 0.139193 0.148348
0.118502 0.139498 0.148898
0.123110 0.140169 0.150027
0.133608 0.144350 0.154055
0.152621 0.149355 0.158816
0.175051 0.153353 0.162600
0.194278 0.156954 0.166842
0.210727 0.159945 0.170993
0.225132 0.163638 0.175448
0.240787 0.168002 0.180392
0.261234 0.172335 0.185702
0.288304 0.176791 0.190494
0.321721 0.180484 0.195132
0.359319 0.183871 0.199557
0.399298 0.186374 0.203708
0.439765 0.188846 0.207309
0.479255 0.190799 0.211460
0.517723 0.193210 0.215579
0.554986 0.195834 0.220401
0.591394 0.199771 0.226169
0.627008 0.204715 0.233463
0.668940 0.213809 0.244053
0.709438 0.225437 0.257206
0.745266 0.238651 0.271733
0.777432 0.253513 0.286564
0.807095 0.269413 0.302098
0.835447 0.286442 0.318944
0.862364 0.305028 0.336797
0.888457 0.325231 0.356085
0.913939 0.347448 0.377142
0.938811 0.371130 0.399725
0.962951 0.397253 0.424231
0.123476 0.155001 0.160647
0.124392 0.154910 0.160830
0.128023 0.155581 0.161288
0.137728 0.157137 0.164645
0.151156 0.162997 0.170138
0.166995 0.167422 0.175784
0.186099 0.170657 0.178470
0.202792 0.173281 0.181338
0.218235 0.175601 0.184329
0.235874 0.178256 0.187869
0.257877 0.181491 0.191501
0.286656 0.185092 0.195254
0.321416 0.188479 0.198703
0.359319 0.191348 0.202518
0.398352 0.194034 0.205905
0.437812 0.196628 0.209384
0.476631 0.198642 0.213230
0.513970 0.200839 0.217319
0.550561 0.204196 0.222141
0.586481 0.208072 0.227756
0.621454 0.212772 0.234958
0.663111 0.221683 0.245609
0.701991 0.232670 0.257939
0.737423 0.245090 0.271794
0.770260 0.259342 0.286442
0.801236 0.274723 0.302464
0.830900 0.291966 0.319707
0.858976 0.310063 0.338109
0.885832 0.330510 0.357549
0.911620 0.351995 0.378515
0.936339 0.374945 0.400458
0.960052 0.399695 0.424109
0.132265 0.174289 0.176272
0.133059 0.174563 0.176730
0.136690 0.174258 0.177218
0.143709 0.175296 0.178134
0.154421 0.176699 0.181827
0.167514 0.180941 0.186404
0.180240 0.184176 0.190463
0.192538 0.186496 0.194491
0.208896 0.188663 0.195895
0.226841 0.191043 0.197910
0.249363 0.193545 0.200259
0.278080 0.196811 0.202884
0.312871 0.200381 0.205478
0.352026 0.203433 0.208103
0.393164 0.206027 0.210819
0.434760 0.208743 0.213413
0.475288 0.211063 0.216922
0.513573 0.213657 0.220768
0.549889 0.216831 0.225742
0.585534 0.221042 0.231754
0.621546 0.226963 0.239597
0.662501 0.236027 0.250614
0.699916 0.246433 0.262913
0.734707 0.258610 0.276463
0.767391 0.271855 0.291173
0.798428 0.286595 0.307042
0.828122 0.302892 0.323888
0.856107 0.320409 0.341894
0.882841 0.339452 0.360967
0.908446 0.359838 0.381048
0.933135 0.381506 0.402625
0.956725 0.405097 0.425727
0.142184 0.191409 0.190829
0.143099 0.191470 0.191104
0.146090 0.191257 0.191379
0.150668 0.191592 0.192172
0.159426 0.192416 0.193973
0.170199 0.193210 0.197452
0.181003 0.196201 0.201511
0.191623 0.199069 0.204105
0.203464 0.201266 0.207492
0.218845 0.203799 0.209995
0.242374 0.206912 0.211154
0.272129 0.210605 0.212619
0.307988 0.214450 0.214450
0.347356 0.218235 0.216190
0.388983 0.221958 0.218723
0.430457 0.225437 0.221195
0.471626 0.228489 0.224613
0.510643 0.232273 0.228641
0.548669 0.235904 0.233738
0.585382 0.240543 0.239719
0.626184 0.247837 0.248783
0.666560 0.256718 0.259739
0.748440 0.289769 0.294621
0.782986 0.305089 0.311803
0.814267 0.320745 0.329229
0.842557 0.336645 0.346654
0.868315 0.353155 0.364385
0.892546 0.370153 0.382208
0.915526 0.388190 0.401129
0.937621 0.407233 0.420783
0.958648 0.427924 0.441657
0.978546 0.450141 0.463844
0.155489 0.208591 0.206882
0.156130 0.208530 0.207004
0.158145 0.208377 0.207126
0.162539 0.208011 0.207919
0.166171 0.208896 0.207340
0.175906 0.209415 0.209903
0.186160 0.210452 0.213077
0.196017 0.212924 0.217014
0.209537 0.217350 0.218784
0.225559 0.220951 0.221653
0.246586 0.224887 0.225437
0.277470 0.229953 0.227665
0.315892 0.235569 0.228794
0.356512 0.240909 0.230472
0.397864 0.245914 0.232700
0.439307 0.250126 0.235538
0.478950 0.254582 0.239506
0.517235 0.259342 0.244236
0.554986 0.264378 0.250370
0.595178 0.271519 0.258824
0.641962 0.282658 0.271550
0.686366 0.295048 0.285557
0.727840 0.308446 0.301396
0.766293 0.323064 0.318059
0.801633 0.337804 0.334936
0.832700 0.352392 0.352117
0.859342 0.367285 0.369085
0.883818 0.382757 0.386236
0.907042 0.399084 0.403906
0.929137 0.416266 0.422370
0.950378 0.435309 0.442267
0.970642 0.455909 0.463874
0.162142 0.223728 0.218509
0.162448 0.223484 0.218296
0.164034 0.223575 0.218631
0.167575 0.223209 0.218875
0.171572 0.223484 0.219028
0.177646 0.224399 0.219059
0.188327 0.225437 0.221561
0.199954 0.226810 0.225010
0.212375 0.229953 0.229282
0.229984 0.237156 0.231846
0.251438 0.243198 0.235172
0.277195 0.249058 0.239902
0.306401 0.254185 0.245670
0.345586 0.261265 0.247684
0.386908 0.267796 0.249943
0.427741 0.273869 0.253056
0.467140 0.279484 0.256962
0.505608 0.285161 0.262058
0.544915 0.291722 0.268650
0.589319 0.301915 0.279362
0.632654 0.312535 0.291112
0.674739 0.324529 0.304204
0.714992 0.336919 0.318608
0.752956 0.349798 0.334203
0.787991 0.363348 0.350011
0.819577 0.376287 0.365270
0.847959 0.388983 0.380316
0.874205 0.401617 0.395331
0.898924 0.415595 0.411414
0.922179 0.430762 0.428382
0.943633 0.448280 0.447669
0.964172 0.467567 0.468360
0.163027 0.244480 0.231144
0.163516 0.244327 0.231052
0.165164 0.244236 0.231052
0.168276 0.244022 0.231174
0.173556 0.243656 0.231724
0.177890 0.244724 0.230472
0.188357 0.246098 0.231479
0.203067 0.247684 0.234745
0.218479 0.250065 0.239231
0.235172 0.254063 0.244877
0.258274 0.264408 0.249027
0.283970 0.272679 0.253849
0.312230 0.280064 0.259831
0.342535 0.286625 0.267521
0.375738 0.292973 0.274907
0.416297 0.300542 0.277531
0.456123 0.307500 0.281132
0.496498 0.315190 0.286717
0.539788 0.325139 0.295506
0.581750 0.335119 0.304967
0.623011 0.345739 0.315862
0.664057 0.356451 0.327672
0.703273 0.368048 0.340856
0.740414 0.380255 0.354955
0.775479 0.392248 0.369268
0.807248 0.403754 0.383185
0.836118 0.415198 0.397101
0.862791 0.426764 0.411170
0.887999 0.439399 0.426276
0.911955 0.453010 0.442267
0.934722 0.468421 0.459724
0.956451 0.485481 0.478706
0.158267 0.272862 0.246708
0.158480 0.272770 0.246525
0.160586 0.272404 0.246433
0.164492 0.272160 0.246525
0.170840 0.271458 0.246677
0.178317 0.271275 0.246525
0.184024 0.272862 0.243565
0.202884 0.274418 0.247135
0.222629 0.276341 0.251865
0.242557 0.279240 0.257755
0.262638 0.283268 0.265019
0.289616 0.295720 0.271397
0.316777 0.305333 0.276829
0.346105 0.313939 0.284428
0.376806 0.321782 0.293248
0.408057 0.328618 0.303044
0.446967 0.339147 0.313268
0.489998 0.350011 0.319860
0.532128 0.360296 0.327459
0.572930 0.370214 0.335729
0.612879 0.379889 0.344732
0.651881 0.389380 0.354437
0.689113 0.399084 0.364965
0.724727 0.408972 0.376226
0.758236 0.419043 0.388067
0.790005 0.428840 0.399969
0.819455 0.439002 0.412451
0.847013 0.449866 0.425757
0.873411 0.461830 0.440406
0.898497 0.475074 0.456123
0.922423 0.489845 0.473335
0.945251 0.506340 0.492226
0.152987 0.304265 0.264958
0.153536 0.304295 0.265049
0.156466 0.304112 0.265049
0.161379 0.303807 0.264958
0.169314 0.303471 0.265476
0.179782 0.302831 0.266239
0.188266 0.304021 0.264530
0.201877 0.306126 0.263920
0.225742 0.308263 0.268925
0.249668 0.310735 0.275120
0.272740 0.314000 0.282353
0.294713 0.317845 0.290776
0.323705 0.330724 0.299290
0.352850 0.342351 0.305638
0.385199 0.354131 0.316289
0.417578 0.364691 0.327733
0.449775 0.374273 0.340185
0.481971 0.383368 0.353338
0.520134 0.393133 0.361395
0.560204 0.402777 0.367834
0.599481 0.411902 0.374853
0.637903 0.421088 0.382696
0.674983 0.430243 0.391516
0.710475 0.439490 0.401282
0.744381 0.448798 0.411719
0.776303 0.458076 0.422553
0.806210 0.467597 0.433936
0.834470 0.477607 0.446296
0.861295 0.488777 0.460090
0.886900 0.501305 0.475135
0.911223 0.515404 0.491798
0.934417 0.531090 0.510185
0.154391 0.340978 0.288853
0.154910 0.340764 0.288640
0.157900 0.340856 0.288762
0.163912 0.340673 0.289097
0.172702 0.340246 0.289250
0.185000 0.339849 0.290349
0.197757 0.339910 0.290867
0.207645 0.342382 0.288090
0.229862 0.344488 0.290837
0.257053 0.346715 0.296910
0.283330 0.349554 0.304204
0.310643 0.355352 0.314366
0.359411 0.384649 0.345495
0.391852 0.399634 0.359808
0.425360 0.414984 0.368688
0.456672 0.426398 0.379248
0.487739 0.436530 0.390875
0.518853 0.445594 0.402686
0.549889 0.454017 0.414984
0.580987 0.462348 0.427863
0.620050 0.471382 0.433112
0.657008 0.479713 0.439063
0.692317 0.487678 0.446021
0.725917 0.495613 0.453712
0.757748 0.503380 0.462043
0.787259 0.510918 0.470832
0.814298 0.518578 0.480201
0.839963 0.526665 0.490333
0.864378 0.535637 0.501671
0.887816 0.546136 0.514702
0.910307 0.558251 0.529503
0.932036 0.572381 0.546319
0.171023 0.389990 0.324285
0.171695 0.389776 0.323980
0.175021 0.389380 0.323857
0.180514 0.388525 0.323674
0.189578 0.387335 0.323461
0.202029 0.386175 0.323888
0.217014 0.385046 0.325078
0.230289 0.387976 0.324956
0.244266 0.392554 0.323919
0.276280 0.397009 0.332311
0.308171 0.402716 0.342443
0.339818 0.409583 0.354406
0.370123 0.417151 0.367529
0.398352 0.425055 0.381231
0.428016 0.437629 0.396063
0.461250 0.453620 0.403906
0.490059 0.463844 0.412482
0.518608 0.472663 0.422370
0.547417 0.480690 0.432715
0.576257 0.488167 0.443488
0.604822 0.495247 0.454719
0.634852 0.502739 0.465034
0.670283 0.511070 0.470497
0.704250 0.519188 0.477089
0.736690 0.527123 0.484321
0.767208 0.534905 0.492226
0.795529 0.542779 0.501091
0.822385 0.551110 0.511009
0.847807 0.560357 0.522118
0.872404 0.570886 0.535058
0.895781 0.582788 0.549371
0.918364 0.596094 0.565332
0.200748 0.432380 0.358099
0.201419 0.432258 0.358099
0.203799 0.431464 0.357610
0.209079 0.430732 0.357488
0.216983 0.429877 0.357519
0.228397 0.428748 0.357855
0.242222 0.428016 0.359167
0.258122 0.428138 0.361059
0.269749 0.431189 0.359014
0.289647 0.435187 0.361120
0.320806 0.439490 0.370031
0.351507 0.445075 0.380285
0.381415 0.451240 0.391669
0.409888 0.457588 0.403693
0.435554 0.463569 0.415442
0.462165 0.473335 0.428077
0.493141 0.488106 0.435370
0.519646 0.497200 0.442359
0.546715 0.505699 0.451148
0.573968 0.513237 0.460639
0.600855 0.520287 0.470832
0.627893 0.527489 0.482063
0.654444 0.534874 0.494118
0.685023 0.543236 0.503441
0.718074 0.551843 0.510002
0.749172 0.560052 0.517327
0.778286 0.568292 0.525628
0.805814 0.576806 0.534874
0.832090 0.585962 0.545373
0.857359 0.596338 0.557519
0.881559 0.607843 0.571160
0.904906 0.620813 0.586511
0.236027 0.473304 0.392767
0.236088 0.472938 0.392462
0.238193 0.472175 0.392126
0.241855 0.470924 0.391394
0.248478 0.469459 0.390906
0.257420 0.467720 0.390631
0.269352 0.466316 0.391241
0.283513 0.465370 0.392859
0.296025 0.466896 0.392645
0.308141 0.470405 0.391272
0.332555 0.474464 0.396490
0.362768 0.479103 0.405646
0.392004 0.484230 0.415656
0.419898 0.489570 0.426123
0.446021 0.494484 0.436591
0.469429 0.498665 0.446693
0.493568 0.506310 0.457588
0.523217 0.520348 0.464912
0.548425 0.529381 0.471412
0.573938 0.537194 0.479164
0.599390 0.544518 0.488472
0.625055 0.551904 0.498848
0.650721 0.559350 0.510124
0.676143 0.567102 0.522484
0.701320 0.575280 0.535515
0.731411 0.584100 0.543725
0.761288 0.592950 0.551415
0.790005 0.602106 0.560388
0.817411 0.612085 0.570916
0.843870 0.623072 0.583124
0.869291 0.635340 0.596979
0.893645 0.648920 0.612665
0.266484 0.508324 0.422736
0.267185 0.508446 0.422980
0.268894 0.507927 0.422675
0.272740 0.507378 0.422644
0.278325 0.506401 0.422492
0.286473 0.505455 0.422675
0.297124 0.504784 0.423499
0.310307 0.504570 0.425483
0.325109 0.505028 0.428016
0.335760 0.508110 0.426520
0.348119 0.511620 0.425483
0.375952 0.514549 0.432685
0.403113 0.517662 0.440436
0.429389 0.520714 0.448493
0.454017 0.523705 0.456672
0.477241 0.526390 0.465187
0.498756 0.529229 0.473701
0.521355 0.535485 0.483803
0.548821 0.548272 0.491920
0.574121 0.558160 0.498238
0.598749 0.566400 0.506188
0.623621 0.574670 0.516320
0.648737 0.582910 0.527550
0.673640 0.591241 0.539513
0.698604 0.599786 0.552300
0.722866 0.608545 0.565728
0.746731 0.617762 0.579461
0.775937 0.627558 0.587976
0.803952 0.637720 0.597742
0.830686 0.648615 0.609003
0.856199 0.660273 0.621668
0.880797 0.673121 0.636103
0.293828 0.540917 0.450660
0.294530 0.540795 0.450599
0.295964 0.540490 0.450507
0.299107 0.540032 0.450507
0.304204 0.539361 0.450416
0.311376 0.538750 0.450752
0.321111 0.538231 0.451820
0.332921 0.537835 0.453254
0.346441 0.537743 0.455665
0.358099 0.539361 0.456062
0.368719 0.542412 0.454536
0.385779 0.545495 0.456062
0.412177 0.548089 0.462989
0.437720 0.550591 0.470100
0.462348 0.553033 0.477546
0.485664 0.555169 0.485145
0.507408 0.557214 0.492775
0.528130 0.559716 0.501122
0.549310 0.564965 0.510826
0.574517 0.576226 0.520195
0.600366 0.587549 0.526940
0.624140 0.596399 0.535454
0.648310 0.605219 0.545892
0.672724 0.614008 0.557366
0.696956 0.622858 0.569543
0.720729 0.631830 0.582483
0.744045 0.641199 0.596399
0.766720 0.650965 0.610956
0.790890 0.661646 0.624598
0.818112 0.672999 0.635431
0.844236 0.684993 0.647761
0.869139 0.697719 0.661341
0.323033 0.574792 0.479896
0.323674 0.575067 0.480201
0.346899 0.597040 0.500389
0.349615 0.596612 0.500450
0.354131 0.596063 0.500359
0.360174 0.595178 0.500481
0.368261 0.594354 0.501030
0.378119 0.593561 0.501884
0.390204 0.593164 0.503838
0.403876 0.592950 0.506249
0.413489 0.595209 0.504692
0.423865 0.597650 0.502922
0.444221 0.599054 0.506279
0.468116 0.599939 0.511986
0.491035 0.600519 0.517845
0.512627 0.600885 0.523613
0.533104 0.600946 0.529381
0.552026 0.601221 0.535454
0.570092 0.601984 0.542229
0.588403 0.605005 0.550134
0.610742 0.614343 0.559899
0.636103 0.626215 0.566125
0.658198 0.634699 0.573968
0.680629 0.642847 0.583307
0.702480 0.650599 0.593622
0.723964 0.658320 0.604608
0.745266 0.666255 0.616480
0.766415 0.674891 0.629389
0.787503 0.684657 0.643732
0.808560 0.695552 0.659327
0.832670 0.707393 0.672724
0.857877 0.719936 0.685298
0.360021 0.612512 0.514305
0.362493 0.614466 0.516258
0.366003 0.616388 0.518151
0.370397 0.617914 0.519921
0.376043 0.618860 0.521538
0.381994 0.618738 0.522179
0.389319 0.618158 0.522728
0.397894 0.617273 0.523430
0.408545 0.616632 0.524865
0.420813 0.616083 0.527001
0.431739 0.616907 0.527459
0.441291 0.618952 0.525994
0.451514 0.620783 0.524376
0.474098 0.621485 0.529625
0.496437 0.622065 0.535180
0.517815 0.622553 0.540703
0.538079 0.622950 0.546319
0.557580 0.623590 0.552453
0.576257 0.624689 0.559075
0.594110 0.626307 0.566247
0.612024 0.629541 0.574517
0.633936 0.639155 0.586267
0.659815 0.652430 0.592828
0.681056 0.661189 0.601038
0.702022 0.669123 0.609949
0.722744 0.677119 0.620478
0.743282 0.685176 0.631708
0.763821 0.693782 0.644099
0.784512 0.703304 0.657649
0.805386 0.713863 0.672602
0.826139 0.725490 0.688594
0.846738 0.738064 0.705592
0.386816 0.637476 0.537957
0.389563 0.639368 0.539940
0.393164 0.641321 0.542016
0.397498 0.643030 0.544060
0.402777 0.644007 0.545586
0.408270 0.644099 0.546471
0.414801 0.643580 0.547051
0.422522 0.642786 0.547662
0.431830 0.642145 0.548974
0.442664 0.641505 0.550774
0.455055 0.640925 0.553185
0.463416 0.642573 0.551690
0.472297 0.644251 0.549981
0.485908 0.645563 0.550866
0.506706 0.646204 0.555840
0.527153 0.646632 0.560967
0.546929 0.647089 0.566278
0.566064 0.647639 0.571771
0.584558 0.648585 0.577844
0.602533 0.650050 0.584527
0.619562 0.651942 0.591638
0.636530 0.654932 0.599786
0.658106 0.664729 0.611872
0.682979 0.677943 0.619745
0.703059 0.686671 0.627985
0.722988 0.694789 0.637018
0.742733 0.702968 0.647456
0.762661 0.711666 0.659174
0.782834 0.721096 0.672084
0.803311 0.731441 0.686244
0.823819 0.742763 0.701595
0.844175 0.754849 0.717861
0.416602 0.663050 0.563226
0.419074 0.664698 0.564904
0.422339 0.666377 0.566766
0.426215 0.667811 0.568597
0.430823 0.668757 0.570092
0.435676 0.668788 0.570825
0.441474 0.668421 0.571496
0.448096 0.667750 0.572107
0.456519 0.667140 0.573205
0.465980 0.666590 0.574731
0.476814 0.666102 0.576898
0.486641 0.666468 0.577508
0.494392 0.667933 0.575952
0.502800 0.669429 0.574365
0.519249 0.670436 0.577386
0.539025 0.671107 0.582330
0.558556 0.672175 0.587854
0.578027 0.673518 0.593988
0.597192 0.675380 0.600671
0.616175 0.677790 0.608179
0.634668 0.680781 0.616358
0.652430 0.684138 0.624964
0.668940 0.687739 0.633722
0.690517 0.698024 0.646967
0.713649 0.710903 0.656825
0.734157 0.721157 0.665736
0.753414 0.730037 0.675502
0.772854 0.739132 0.686610
0.792508 0.748898 0.699153
0.812345 0.759335 0.712825
0.832059 0.770413 0.727443
0.851743 0.782132 0.742977
0.461677 0.698573 0.599847
0.462867 0.699184 0.600610
0.464240 0.699580 0.601160
0.466255 0.699794 0.601617
0.468971 0.699550 0.601892
0.472328 0.698970 0.601953
0.476631 0.698299 0.602075
0.482277 0.697597 0.602564
0.489265 0.697017 0.603418
0.497810 0.696559 0.604883
0.507530 0.696193 0.606867
0.518273 0.695796 0.609308
0.525353 0.696925 0.608087
0.533043 0.698299 0.606867
0.541314 0.699611 0.605707
0.559319 0.700038 0.610101
0.577234 0.700649 0.614862
0.595178 0.701442 0.620111
0.612879 0.702480 0.625757
0.630396 0.704005 0.631952
0.647456 0.705806 0.638727
0.663935 0.708003 0.645777
0.679561 0.710445 0.653162
0.694148 0.713039 0.660639
0.713436 0.721950 0.672450
0.734524 0.733669 0.682734
0.755276 0.744869 0.691737
0.774166 0.754421 0.702113
0.793332 0.764248 0.713558
0.812619 0.774624 0.726619
0.831876 0.785489 0.740566
0.851072 0.796902 0.755367
0.492622 0.722072 0.624872
0.493507 0.722560 0.625483
0.494942 0.722927 0.626032
0.496803 0.723079 0.626490
0.499184 0.723018 0.626825
0.502251 0.722621 0.627039
0.506157 0.722042 0.627192
0.511070 0.721492 0.627649
0.517235 0.721035 0.628565
0.524834 0.720607 0.629908
0.533288 0.720272 0.631617
0.543023 0.720027 0.633906
0.551629 0.720302 0.634791
0.558618 0.721645 0.633906
0.566186 0.722988 0.632959
0.577356 0.724178 0.634180
0.594476 0.724910 0.638880
0.611414 0.725887 0.643977
0.628382 0.727047 0.649409
0.645075 0.728481 0.655268
0.661402 0.730312 0.661585
0.677424 0.732387 0.668269
0.692805 0.734737 0.675166
0.707424 0.737301 0.682307
0.715572 0.734707 0.683558
0.733394 0.742672 0.694484
0.753384 0.754025 0.705867
0.774472 0.766323 0.715297
0.793027 0.776455 0.726162
0.812009 0.786862 0.738094
0.831113 0.797940 0.751736
0.850126 0.809476 0.766232
0.533074 0.750393 0.656489
0.534722 0.751217 0.657527
0.535851 0.751522 0.658015
0.536889 0.751278 0.657984
0.537957 0.750607 0.657557
0.539544 0.749569 0.657008
0.541588 0.748348 0.656336
0.544549 0.746944 0.655665
0.548638 0.745693 0.655482
0.554162 0.744594 0.655848
0.560449 0.743435 0.656397
0.568109 0.742580 0.657679
0.576532 0.741634 0.659358
0.582208 0.741970 0.658045
0.587915 0.742458 0.656397
0.594018 0.743099 0.654810
0.606500 0.743435 0.657069
0.621973 0.743984 0.661311
0.637720 0.744991 0.666194
0.653895 0.746609 0.671931
0.669947 0.748562 0.678096
0.685573 0.750607 0.684413
0.700313 0.752621 0.690669
0.714229 0.754574 0.696864
0.727077 0.756313 0.702693
0.739101 0.758022 0.708553
0.755184 0.764981 0.718379
0.773495 0.775387 0.729976
0.794461 0.788083 0.739345
0.812406 0.798459 0.750393
0.830808 0.809232 0.762692
0.849424 0.820554 0.776303
0.560113 0.769162 0.677699
0.561517 0.769894 0.678614
0.562768 0.770321 0.679255
0.564111 0.770352 0.679530
0.565698 0.770108 0.679652
0.567651 0.769650 0.679591
0.570459 0.769192 0.679774
0.574029 0.768704 0.680110
0.578637 0.768276 0.680751
0.584192 0.767910 0.681727
0.590448 0.767422 0.682826
0.597559 0.767025 0.684413
0.605188 0.766445 0.686061
0.612024 0.766171 0.686610
0.616999 0.766690 0.685237
0.622400 0.767178 0.683833
0.628595 0.767849 0.682826
0.642267 0.768215 0.686488
0.656672 0.769039 0.690822
0.671473 0.770382 0.695827
0.686397 0.772061 0.701381
0.701106 0.774014 0.707210
0.715358 0.776059 0.713222
0.729030 0.778073 0.719173
0.741909 0.780026 0.725063
0.754086 0.781979 0.730892
0.765560 0.784085 0.736751
0.780453 0.790555 0.746181
0.798154 0.800931 0.758785
0.818784 0.814115 0.768765
0.836545 0.825040 0.780179
0.854490 0.836271 0.792905
0.593683 0.791928 0.703944
0.594415 0.792294 0.704402
0.595209 0.792416 0.704677
0.596124 0.792325 0.704799
0.597284 0.792020 0.704738
0.598810 0.791592 0.704707
0.601038 0.791104 0.704707
0.604059 0.790555 0.704860
0.607843 0.790066 0.705348
0.612482 0.789670 0.706081
0.617945 0.789212 0.707057
0.624140 0.788846 0.708370
0.630915 0.788388 0.709895
0.638087 0.787778 0.711482
0.642969 0.788052 0.710689
0.647700 0.788510 0.709377
0.652857 0.789181 0.708309
0.661219 0.789822 0.709163
0.674281 0.790555 0.713008
0.687953 0.791775 0.717617
0.701839 0.793301 0.722652
0.715541 0.795041 0.727962
0.728939 0.796780 0.733364
0.741878 0.798581 0.738796
0.754177 0.800259 0.744137
0.765835 0.801968 0.749386
0.777005 0.803769 0.754757
0.787594 0.805753 0.760250
0.801297 0.811551 0.769009
0.818753 0.822171 0.781949
0.838590 0.835386 0.793240
0.857084 0.847593 0.805417
0.623072 0.812009 0.727108
0.623743 0.812314 0.727535
0.624445 0.812497 0.727840
0.625513 0.812589 0.728176
0.627008 0.812619 0.728481
0.629267 0.812833 0.729183
0.632807 0.813352 0.730404
0.637232 0.814054 0.732021
0.642695 0.815000 0.734066
0.649012 0.816068 0.736538
0.656031 0.817258 0.739284
0.663539 0.818296 0.742153
0.671229 0.819181 0.745022
0.678981 0.819760 0.747768
0.685786 0.820340 0.749477
0.690517 0.821225 0.748989
0.695308 0.822080 0.748470
0.700618 0.823056 0.748074
0.710567 0.824002 0.750698
0.722591 0.825071 0.754726
0.734890 0.826474 0.759243
0.747189 0.828000 0.763973
0.759091 0.829496 0.768673
0.770748 0.831022 0.773434
0.781827 0.832425 0.778042
0.792508 0.833890 0.782681
0.802792 0.835386 0.787381
0.812650 0.837064 0.792233
0.822354 0.839078 0.797391
0.834470 0.844236 0.805356
0.851347 0.854887 0.818357
0.869535 0.867430 0.830228
0.668452 0.841367 0.762325
0.668513 0.841367 0.762356
0.668727 0.841276 0.762325
0.669215 0.841093 0.762264
0.669978 0.840848 0.762203
0.671321 0.840604 0.762264
0.673152 0.840421 0.762600
0.675715 0.840299 0.763027
0.679011 0.840269 0.763790
0.683040 0.840330 0.764828
0.687739 0.840452 0.766171
0.692958 0.840604 0.767666
0.698634 0.840696 0.769345
0.704677 0.840696 0.771115
