20 Preset/Car Style/【3】LUT video cho PR-AE-FCPX/Tone  (6).cube
# Created by Adobe Lightroom plugin Export LUT (1.24.0)
# www.johnrellis.com/lightroom/exportlut.htm
# Preset: 07汽车质感（素材江湖）
# Color profile: E:\lut插件\exportlut.1.24\exportlut.lrplugin\color profiles\Rec709gamma2.4.icc
LUT_3D_SIZE 32
DOMAIN_MIN 0.0 0.0 0.0
DOMAIN_MAX 1.0 1.0 1.0
0.104799 0.112367 0.124636
0.106874 0.112459 0.124849
0.113008 0.113313 0.125460
0.127077 0.114290 0.126406
0.147311 0.116091 0.128664
0.171237 0.118593 0.131044
0.194522 0.120821 0.134035
0.215427 0.123842 0.137057
0.235599 0.126284 0.139956
0.255161 0.128969 0.142672
0.274815 0.131685 0.145876
0.294926 0.135042 0.148989
0.316442 0.138033 0.152255
0.339666 0.141390 0.155978
0.365148 0.144594 0.159731
0.393347 0.148043 0.163699
0.423865 0.151522 0.167727
0.456123 0.155734 0.172213
0.490303 0.159304 0.176364
0.526024 0.162844 0.180331
0.562554 0.166567 0.184360
0.603265 0.170138 0.188052
0.645563 0.173342 0.192172
0.687160 0.176150 0.196017
0.727260 0.179446 0.199374
0.766629 0.182437 0.202945
0.805966 0.185824 0.206424
0.845823 0.189181 0.210330
0.885374 0.192599 0.214420
0.925109 0.197086 0.219394
0.964813 0.203037 0.224887
1.000000 0.209964 0.232029
0.105776 0.113771 0.125521
0.106630 0.114290 0.125185
0.113252 0.115084 0.126040
0.126772 0.116121 0.126986
0.147524 0.117830 0.128969
0.171389 0.120241 0.131350
0.194095 0.122835 0.134066
0.215091 0.125002 0.137179
0.234714 0.128054 0.140230
0.254307 0.130495 0.142763
0.273747 0.132998 0.146181
0.293919 0.135836 0.149142
0.315129 0.138979 0.152621
0.338170 0.142397 0.156161
0.363592 0.145449 0.159915
0.391455 0.149294 0.163668
0.421729 0.152926 0.167697
0.454139 0.156527 0.172091
0.488197 0.160220 0.176425
0.523705 0.163607 0.180575
0.559899 0.167330 0.184054
0.599969 0.170382 0.188205
0.641321 0.174319 0.191928
0.682094 0.177340 0.195438
0.721798 0.180117 0.198947
0.760769 0.182925 0.202518
0.800015 0.186282 0.205936
0.839933 0.189639 0.209751
0.879728 0.193301 0.213748
0.919677 0.197208 0.218570
0.959686 0.202579 0.224186
0.999115 0.209384 0.230869
0.108003 0.119570 0.129488
0.109346 0.119722 0.129976
0.113222 0.122164 0.128847
0.128695 0.124544 0.129030
0.148775 0.126650 0.130892
0.171817 0.128969 0.133242
0.194095 0.130861 0.136202
0.214511 0.132723 0.139040
0.234409 0.134585 0.141512
0.253727 0.136446 0.144503
0.273289 0.138796 0.147219
0.293278 0.141329 0.150393
0.314305 0.144137 0.153872
0.337316 0.147433 0.157351
0.362646 0.150210 0.161288
0.390570 0.153506 0.164889
0.420600 0.157534 0.169009
0.453040 0.161227 0.173159
0.486915 0.164767 0.176974
0.522393 0.168276 0.181094
0.558740 0.171633 0.184909
0.598901 0.175296 0.188785
0.639582 0.178286 0.192508
0.679957 0.181460 0.195926
0.719265 0.184695 0.199252
0.757931 0.187411 0.202609
0.796994 0.190341 0.206119
0.836881 0.193698 0.209689
0.876860 0.197116 0.213687
0.916899 0.201389 0.218479
0.956939 0.207034 0.223819
0.996399 0.213352 0.230442
0.114107 0.132418 0.138338
0.115724 0.132021 0.138827
0.118379 0.133455 0.139284
0.128420 0.138277 0.136355
0.151644 0.142275 0.135592
0.173434 0.143893 0.138125
0.194675 0.144839 0.140383
0.215030 0.145602 0.142336
0.234531 0.146456 0.144839
0.253696 0.147738 0.147341
0.273014 0.149081 0.150118
0.292973 0.151369 0.153414
0.314000 0.153750 0.156649
0.336980 0.156405 0.160098
0.362219 0.159213 0.163516
0.389654 0.162631 0.167391
0.419715 0.166049 0.170962
0.451728 0.169894 0.175204
0.485298 0.173190 0.179019
0.520378 0.176791 0.182742
0.556420 0.180026 0.186069
0.596460 0.183505 0.189944
0.636133 0.186770 0.193423
0.676143 0.190036 0.196689
0.715694 0.192538 0.199954
0.755001 0.195651 0.203281
0.794736 0.199039 0.206790
0.835233 0.201938 0.210452
0.875578 0.205997 0.214145
0.915801 0.210208 0.218906
0.955749 0.214939 0.224308
0.994720 0.221317 0.231083
0.123232 0.149691 0.150240
0.124208 0.149783 0.151064
0.128359 0.149142 0.153109
0.132815 0.153506 0.150820
0.148959 0.159670 0.146456
0.175479 0.163455 0.143282
0.195712 0.163241 0.145388
0.214786 0.163333 0.148226
0.233829 0.163058 0.150332
0.252781 0.163485 0.152651
0.272007 0.164340 0.155337
0.291936 0.165652 0.157809
0.313146 0.167727 0.161105
0.336278 0.169894 0.164248
0.361486 0.172763 0.167727
0.389532 0.175662 0.171115
0.419623 0.179202 0.174838
0.451759 0.182803 0.178256
0.485328 0.185946 0.181796
0.520439 0.189517 0.185122
0.556970 0.192630 0.188754
0.596643 0.196262 0.192233
0.635798 0.199283 0.195407
0.675502 0.202731 0.198306
0.714870 0.205722 0.201480
0.754299 0.208621 0.204623
0.793973 0.212070 0.207919
0.834318 0.215000 0.211551
0.874510 0.218784 0.215244
0.914458 0.222843 0.219852
0.954223 0.227756 0.225071
0.993011 0.233524 0.231754
0.134096 0.168154 0.164340
0.135164 0.168063 0.164889
0.138582 0.167544 0.166354
0.142824 0.168734 0.167575
0.149935 0.174380 0.163546
0.168887 0.180545 0.158053
0.196933 0.184573 0.152895
0.215976 0.183413 0.154971
0.233951 0.182803 0.158022
0.252689 0.182742 0.160647
0.272038 0.182834 0.162692
0.292210 0.183597 0.165225
0.313481 0.185245 0.168002
0.336858 0.187381 0.170748
0.362676 0.189700 0.174044
0.390845 0.192477 0.176852
0.421302 0.195743 0.180056
0.453681 0.199039 0.182986
0.487404 0.202701 0.186252
0.522484 0.205905 0.189120
0.560601 0.209506 0.192386
0.599664 0.213107 0.195315
0.663722 0.221286 0.200168
0.704616 0.224521 0.203403
0.744259 0.227878 0.206455
0.783505 0.231113 0.209689
0.822904 0.233982 0.213321
0.861997 0.237217 0.217014
0.900450 0.241154 0.221225
0.938750 0.245396 0.226169
0.976318 0.250401 0.232120
1.000000 0.256840 0.239292
0.147097 0.187808 0.179782
0.147738 0.187747 0.180087
0.150576 0.187472 0.181552
0.156405 0.186404 0.184451
0.159426 0.190280 0.182254
0.169100 0.196078 0.178012
0.189273 0.202182 0.172396
0.219059 0.206943 0.165133
0.237491 0.205417 0.167575
0.256229 0.204746 0.170413
0.275273 0.205325 0.173770
0.296056 0.205936 0.176242
0.318273 0.207218 0.178378
0.342687 0.208957 0.180392
0.369268 0.211307 0.182681
0.397894 0.213901 0.184756
0.428687 0.217075 0.187045
0.461036 0.220218 0.189578
0.495064 0.223667 0.191958
0.532006 0.227390 0.194522
0.573236 0.231632 0.197543
0.614649 0.235843 0.200412
0.656336 0.240116 0.202945
0.698207 0.243870 0.205936
0.739193 0.247471 0.208865
0.779202 0.250706 0.212192
0.818662 0.254124 0.215274
0.857603 0.257633 0.218601
0.895964 0.261021 0.222751
0.934051 0.264775 0.227726
0.971496 0.269718 0.233463
1.000000 0.275578 0.240848
0.159945 0.204929 0.194400
0.160037 0.204776 0.194583
0.162600 0.204532 0.195712
0.167575 0.203769 0.197910
0.171939 0.204562 0.199252
0.176333 0.209415 0.195926
0.187350 0.215183 0.191196
0.208072 0.221134 0.185824
0.236973 0.226810 0.178805
0.256901 0.226108 0.179812
0.276341 0.226078 0.182528
0.296818 0.227085 0.185672
0.319036 0.228855 0.188785
0.343633 0.230686 0.190249
0.370428 0.233127 0.191836
0.399390 0.235630 0.193149
0.430060 0.238621 0.194827
0.462501 0.241886 0.196536
0.497200 0.245487 0.198215
0.535821 0.249699 0.200504
0.575280 0.253849 0.202762
0.615290 0.258122 0.204868
0.655940 0.262211 0.207095
0.696803 0.266087 0.209720
0.737179 0.269688 0.212467
0.776852 0.273167 0.215152
0.816037 0.276616 0.218021
0.854856 0.279820 0.221347
0.893126 0.283574 0.225406
0.931060 0.287419 0.230137
0.968475 0.291966 0.235935
1.000000 0.297642 0.243259
0.172793 0.222019 0.209079
0.173159 0.221866 0.209232
0.175265 0.221683 0.209995
0.179141 0.221195 0.211826
0.184726 0.220249 0.214542
0.187472 0.223758 0.212985
0.193393 0.228824 0.209293
0.205844 0.234440 0.204959
0.226780 0.240574 0.199344
0.255894 0.247135 0.192630
0.278477 0.247807 0.191806
0.299260 0.248844 0.194430
0.321996 0.250584 0.197116
0.346563 0.253330 0.199710
0.373388 0.256474 0.202090
0.402319 0.259312 0.202609
0.433326 0.262181 0.203433
0.466560 0.265690 0.204562
0.503044 0.270207 0.205905
0.540459 0.274449 0.207309
0.578698 0.278782 0.208896
0.617517 0.282689 0.210422
0.657374 0.287022 0.212100
0.697444 0.290654 0.214420
0.737118 0.294530 0.216495
0.776272 0.297826 0.219150
0.815305 0.301183 0.222019
0.853758 0.304631 0.225193
0.891844 0.308324 0.229129
0.929564 0.312261 0.233799
0.966705 0.316869 0.239628
1.000000 0.322118 0.247288
0.185580 0.239811 0.223362
0.186038 0.239780 0.223606
0.187778 0.239292 0.224125
0.191226 0.238987 0.225681
0.196170 0.238163 0.227939
0.200778 0.238682 0.229526
0.203586 0.243229 0.226261
0.211215 0.248661 0.222538
0.225315 0.254612 0.217899
0.246555 0.260960 0.212375
0.276493 0.268376 0.205203
0.302312 0.271061 0.203006
0.325414 0.273320 0.204868
0.350469 0.276066 0.207065
0.377813 0.279545 0.209415
0.406592 0.283452 0.211460
0.439185 0.288304 0.213138
0.473854 0.292607 0.213474
0.509514 0.297063 0.214359
0.546380 0.301183 0.215000
0.583398 0.305272 0.215854
0.620722 0.308751 0.217044
0.658869 0.312779 0.218112
0.697292 0.316228 0.219852
0.735378 0.319982 0.221469
0.773648 0.322942 0.223758
0.812192 0.326787 0.226230
0.850645 0.330297 0.229343
0.888853 0.333959 0.233341
0.926757 0.338262 0.238132
0.964141 0.342931 0.244022
1.000000 0.348302 0.252079
0.198337 0.257969 0.237369
0.198856 0.257816 0.237491
0.200168 0.257725 0.238041
0.203128 0.257450 0.239353
0.207736 0.256901 0.241428
0.213413 0.256138 0.244205
0.216251 0.259220 0.243076
0.220798 0.264439 0.239506
0.230228 0.270329 0.235416
0.246159 0.276921 0.230503
0.269108 0.284001 0.224582
0.299138 0.291569 0.217655
0.330846 0.297551 0.212589
0.356298 0.300908 0.214328
0.385046 0.305364 0.216312
0.415320 0.310338 0.218296
0.447547 0.315251 0.220493
0.480873 0.320409 0.222690
0.515679 0.324834 0.223178
0.551537 0.328923 0.223239
0.587579 0.332738 0.223667
0.624048 0.336370 0.224125
0.661524 0.340215 0.224887
0.699001 0.343633 0.226291
0.736721 0.347326 0.227787
0.774472 0.350896 0.229709
0.812680 0.354559 0.231937
0.850828 0.358068 0.235111
0.888579 0.362005 0.238865
0.926390 0.366400 0.244053
0.963470 0.370977 0.250584
0.999329 0.376287 0.258793
0.210910 0.278599 0.251713
0.211398 0.278477 0.251804
0.212558 0.278386 0.252415
0.215396 0.278019 0.253544
0.219608 0.277653 0.255314
0.225467 0.276921 0.258000
0.230900 0.277348 0.260075
0.233433 0.282475 0.257023
0.239963 0.288579 0.252934
0.251774 0.295476 0.248508
0.270024 0.303044 0.243107
0.296056 0.311864 0.236881
0.338201 0.329320 0.231937
0.377600 0.339086 0.224643
0.407782 0.343999 0.225956
0.439460 0.349126 0.227665
0.472572 0.354223 0.229099
0.506493 0.359258 0.231113
0.541222 0.364080 0.233097
0.576471 0.368688 0.235325
0.612360 0.372198 0.235080
0.648157 0.375525 0.235233
0.684169 0.378485 0.235782
0.720424 0.381506 0.236820
0.756680 0.384710 0.238224
0.793454 0.387579 0.240299
0.829770 0.390784 0.242649
0.865782 0.393805 0.245975
0.901671 0.397040 0.250004
0.937407 0.400824 0.255558
0.972473 0.405219 0.262364
1.000000 0.410285 0.271244
0.224704 0.305303 0.268406
0.225040 0.305272 0.268589
0.226505 0.304997 0.269078
0.229252 0.304387 0.269963
0.233707 0.303777 0.271611
0.239261 0.302953 0.274022
0.245945 0.302159 0.277073
0.249912 0.306004 0.276310
0.254795 0.312902 0.272892
0.264378 0.320897 0.268894
0.280278 0.330053 0.263828
0.303563 0.340124 0.258091
0.334112 0.351110 0.251102
0.371832 0.362341 0.242741
0.415442 0.373693 0.232364
0.446998 0.378729 0.233616
0.479316 0.383581 0.234958
0.512200 0.388067 0.236576
0.545769 0.392401 0.238437
0.579522 0.396399 0.240269
0.613611 0.400427 0.242618
0.648280 0.404059 0.244785
0.683528 0.407172 0.245029
0.719142 0.410376 0.245640
0.755215 0.413336 0.246860
0.791714 0.416602 0.248661
0.827939 0.419989 0.251225
0.863828 0.423255 0.254673
0.899809 0.426886 0.258885
0.935515 0.430976 0.264683
0.970550 0.435401 0.271977
1.000000 0.440345 0.281285
0.238499 0.334142 0.285191
0.238621 0.334020 0.285222
0.240116 0.333623 0.285679
0.242985 0.333196 0.286717
0.247196 0.332555 0.288273
0.253269 0.331853 0.290623
0.260441 0.330999 0.293767
0.267491 0.331273 0.296605
0.270726 0.337835 0.292973
0.277989 0.345586 0.288792
0.290471 0.354650 0.283787
0.309636 0.364721 0.278141
0.335698 0.375494 0.271244
0.368536 0.386725 0.263157
0.407660 0.397803 0.253544
0.452583 0.409216 0.241733
0.486122 0.414099 0.241032
0.518273 0.418097 0.242222
0.550744 0.422065 0.244144
0.583673 0.425666 0.245945
0.616938 0.429358 0.248020
0.650752 0.433051 0.251194
0.684871 0.436866 0.254429
0.719875 0.440558 0.256779
0.755673 0.443885 0.257786
0.791897 0.447242 0.259586
0.827756 0.450721 0.262089
0.863462 0.454047 0.265629
0.899138 0.457893 0.270146
0.934661 0.462074 0.276219
0.969299 0.466621 0.283696
1.000000 0.471595 0.293675
0.253361 0.365789 0.303624
0.253971 0.365698 0.303624
0.255222 0.365301 0.303990
0.257908 0.364752 0.304906
0.262455 0.363775 0.306462
0.268345 0.362707 0.308537
0.276066 0.361608 0.311711
0.285008 0.360571 0.315740
0.289586 0.364599 0.314916
0.294591 0.372137 0.310491
0.304051 0.380865 0.305608
0.319432 0.390723 0.299748
0.341375 0.401343 0.293034
0.369604 0.412207 0.285191
0.404120 0.423224 0.275700
0.443854 0.433722 0.264714
0.489723 0.445075 0.251621
0.524834 0.449683 0.248661
0.556634 0.453132 0.250065
0.588830 0.456428 0.252140
0.621271 0.459602 0.254520
0.654200 0.463081 0.257389
0.687861 0.466773 0.261143
0.722011 0.470771 0.265263
0.756893 0.475013 0.269993
0.792508 0.478889 0.272496
0.828275 0.482399 0.275273
0.863920 0.486152 0.278904
0.899687 0.490303 0.283757
0.935210 0.494881 0.290440
0.969879 0.499733 0.298924
1.000000 0.505028 0.309636
0.270329 0.398016 0.323003
0.270420 0.397986 0.323125
0.272038 0.397711 0.323674
0.275334 0.397101 0.324590
0.279515 0.396460 0.326116
0.285924 0.395727 0.328527
0.293797 0.395087 0.331823
0.303227 0.394293 0.336034
0.312688 0.394568 0.340307
0.315862 0.401923 0.335912
0.322667 0.410193 0.330846
0.334295 0.419348 0.324590
0.351507 0.428992 0.317632
0.374731 0.438972 0.309422
0.403998 0.449042 0.300114
0.438788 0.458991 0.289220
0.479042 0.468788 0.277012
0.525017 0.480018 0.262516
0.561730 0.484321 0.256901
0.593286 0.487312 0.259098
0.625452 0.490547 0.261753
0.658167 0.493965 0.264897
0.691554 0.497658 0.268864
0.725521 0.501701 0.273320
0.760281 0.506218 0.278447
0.795315 0.510918 0.284398
0.830198 0.515770 0.291081
0.865660 0.519585 0.295293
0.901030 0.523827 0.300237
0.935790 0.528313 0.307103
0.969574 0.533013 0.315770
1.000000 0.538018 0.326970
0.288640 0.430884 0.343633
0.288884 0.430762 0.343664
0.290562 0.430549 0.344213
0.293248 0.430243 0.345190
0.297948 0.429572 0.346685
0.304417 0.428870 0.349218
0.312108 0.428382 0.352422
0.321691 0.427527 0.356542
0.332525 0.426856 0.361822
0.338384 0.430762 0.361547
0.343023 0.438636 0.356298
0.351507 0.447242 0.350622
0.364935 0.456580 0.343542
0.383948 0.466102 0.335760
0.408515 0.475807 0.326574
0.438911 0.485420 0.315923
0.473854 0.494850 0.304387
0.513970 0.504234 0.291203
0.560693 0.515557 0.275792
0.598779 0.519585 0.267460
0.630335 0.522545 0.270054
0.662654 0.525811 0.273716
0.695705 0.529534 0.277836
0.729488 0.533532 0.282536
0.764004 0.538109 0.287968
0.798520 0.542748 0.294591
0.833097 0.547662 0.302190
0.867643 0.552758 0.310857
0.902251 0.557946 0.319249
0.936461 0.562463 0.326665
0.969543 0.567254 0.336004
1.000000 0.572137 0.347387
0.309972 0.465614 0.366430
0.310216 0.465766 0.366705
0.318883 0.476570 0.374823
0.321996 0.476234 0.375799
0.326635 0.475654 0.377447
0.332769 0.474922 0.379675
0.341039 0.474037 0.382940
0.350530 0.473121 0.386969
0.361425 0.472236 0.392096
0.372717 0.472053 0.397436
0.375494 0.479408 0.392187
0.381476 0.487495 0.386206
0.391302 0.495857 0.378973
0.406104 0.504570 0.370733
0.426154 0.513207 0.361273
0.451209 0.521904 0.350469
0.481697 0.530297 0.338354
0.516838 0.538628 0.325292
0.556420 0.546715 0.311009
0.602655 0.557183 0.293980
0.641962 0.560632 0.282414
0.673457 0.563287 0.285893
0.705776 0.566400 0.290166
0.738827 0.569909 0.295171
0.771878 0.573541 0.300847
0.804929 0.577356 0.307713
0.838102 0.581415 0.315160
0.871458 0.585962 0.323980
0.904692 0.590967 0.334447
0.937224 0.596429 0.346532
0.969055 0.601465 0.358282
0.999420 0.606287 0.370153
0.335576 0.504051 0.393164
0.336736 0.505058 0.394049
0.338964 0.506004 0.395392
0.342351 0.506645 0.397101
0.347295 0.507073 0.399237
0.353735 0.506615 0.401740
0.361517 0.505974 0.404822
0.370367 0.505058 0.408606
0.381048 0.504234 0.413428
0.392950 0.503288 0.419257
0.399573 0.506706 0.419409
0.403357 0.514183 0.413642
0.410468 0.522179 0.406775
0.421454 0.530510 0.399084
0.437324 0.538903 0.390265
0.458137 0.547356 0.380072
0.483803 0.555688 0.369207
0.514458 0.564019 0.356939
0.549889 0.572168 0.343572
0.589166 0.580346 0.329015
0.635157 0.590661 0.312291
0.677638 0.595789 0.297002
0.709834 0.598901 0.301732
0.742397 0.602411 0.306889
0.774899 0.605798 0.312871
0.807462 0.609400 0.319890
0.840146 0.613275 0.327855
0.872892 0.617578 0.337316
0.905425 0.622370 0.348119
0.937285 0.627558 0.360998
0.967834 0.633173 0.375860
0.996582 0.639094 0.393439
0.359594 0.537835 0.417762
0.361059 0.538750 0.418708
0.363348 0.539818 0.420050
0.366735 0.540703 0.421881
0.371679 0.541039 0.423987
0.377539 0.540887 0.426520
0.385016 0.540246 0.429480
0.393805 0.539391 0.433173
0.404028 0.538598 0.437781
0.415351 0.537713 0.443122
0.427680 0.536950 0.449622
0.429725 0.543908 0.443915
0.434577 0.551415 0.437751
0.442603 0.559106 0.430396
0.454780 0.567041 0.422034
0.471260 0.575067 0.412879
0.492531 0.583215 0.402350
0.518517 0.591241 0.391180
0.549432 0.599268 0.378363
0.584497 0.607385 0.364874
0.623529 0.615351 0.350225
0.667567 0.624231 0.333501
0.712520 0.631830 0.317662
0.746212 0.635126 0.320073
0.778256 0.638331 0.326421
0.810330 0.641810 0.333776
0.842496 0.645472 0.341955
0.874571 0.649500 0.351934
0.906279 0.653956 0.363226
0.937285 0.658778 0.376806
0.966949 0.663996 0.392401
0.994781 0.669459 0.410346
0.387335 0.572595 0.444770
0.388312 0.573571 0.445655
0.390631 0.574426 0.446998
0.393835 0.575250 0.448707
0.398352 0.575616 0.450782
0.404059 0.575463 0.453162
0.411078 0.574884 0.456031
0.419532 0.574212 0.459663
0.429297 0.573480 0.463966
0.440192 0.572686 0.469245
0.452033 0.571862 0.475319
0.459297 0.574701 0.476387
0.462104 0.581506 0.470283
0.467903 0.588739 0.463661
0.476875 0.596338 0.456001
0.489906 0.604242 0.447608
0.507347 0.612360 0.438178
0.529320 0.620661 0.427863
0.556085 0.629267 0.416663
0.587579 0.638025 0.404517
0.623377 0.646845 0.391363
0.662989 0.655482 0.377081
0.705928 0.663630 0.360845
0.752560 0.672877 0.345312
0.787839 0.676417 0.345739
0.819760 0.679957 0.354101
0.851591 0.683558 0.363317
0.882933 0.687404 0.374121
0.913603 0.691493 0.386999
0.943267 0.695857 0.401648
0.971405 0.700404 0.418433
0.997375 0.705165 0.437507
0.423590 0.614374 0.479713
0.424201 0.614832 0.480079
0.425544 0.614923 0.480751
0.428290 0.614923 0.481849
0.431952 0.614710 0.483375
0.436988 0.614221 0.485389
0.443153 0.613489 0.487861
0.450874 0.612787 0.491096
0.460090 0.611994 0.495186
0.470680 0.611414 0.500359
0.482338 0.610651 0.506249
0.494667 0.610010 0.513146
0.496712 0.616144 0.508080
0.500175 0.623011 0.501762
0.506615 0.630182 0.494728
0.516197 0.637598 0.486458
0.529686 0.645289 0.477668
0.547539 0.653223 0.468147
0.569512 0.661219 0.457496
0.596033 0.669306 0.445930
0.626551 0.677302 0.433509
0.661280 0.685145 0.419776
0.699336 0.692683 0.405188
0.740566 0.699794 0.388708
0.786435 0.708919 0.373144
0.822477 0.712062 0.371069
0.853635 0.715541 0.380987
0.884337 0.719081 0.392432
0.914214 0.722805 0.405432
0.942901 0.726589 0.420752
0.969848 0.730556 0.437964
0.994629 0.734676 0.457954
0.456519 0.650233 0.510979
0.457038 0.650568 0.511345
0.458442 0.650752 0.512047
0.460975 0.650843 0.513176
0.464302 0.650629 0.514580
0.468788 0.650202 0.516350
0.474830 0.649653 0.518883
0.482094 0.649042 0.522026
0.490639 0.648463 0.525902
0.500572 0.647913 0.530724
0.511406 0.647272 0.536248
0.523125 0.646784 0.542596
0.530480 0.649042 0.544213
0.532708 0.655695 0.538506
0.537255 0.662593 0.532097
0.544671 0.669795 0.525170
0.555108 0.677241 0.517235
0.569146 0.684810 0.508507
0.587152 0.692561 0.498939
0.609216 0.700313 0.488380
0.635492 0.708095 0.477150
0.665522 0.715816 0.464912
0.699153 0.723262 0.451667
0.736263 0.730465 0.437171
0.772915 0.733883 0.417700
0.817990 0.742916 0.402564
0.854459 0.745785 0.398260
0.884337 0.749111 0.410224
0.913390 0.752346 0.423743
0.941192 0.755703 0.439460
0.967285 0.759213 0.457710
0.991119 0.762875 0.478279
0.494759 0.690578 0.547234
0.495552 0.691188 0.547967
0.496895 0.691310 0.548516
0.498573 0.691188 0.549310
0.501427 0.690517 0.550164
0.505089 0.689754 0.551476
0.509850 0.688685 0.553185
0.515984 0.687526 0.555505
0.523278 0.686397 0.558587
0.532006 0.685389 0.562493
0.541558 0.684352 0.567163
0.552270 0.683406 0.572625
0.563622 0.682368 0.578790
0.565454 0.687465 0.574365
0.567864 0.693294 0.568048
0.572595 0.699458 0.561151
0.580194 0.706020 0.553735
0.591028 0.712886 0.545678
0.605432 0.720180 0.537133
0.623590 0.727779 0.528191
0.645716 0.735500 0.518212
0.671443 0.743008 0.507500
0.700526 0.750179 0.495430
0.732753 0.756924 0.482307
0.767880 0.763058 0.467536
0.805844 0.768643 0.451118
0.849363 0.777096 0.436286
0.884977 0.778927 0.429755
0.912902 0.781460 0.443549
0.939483 0.784115 0.459846
0.964446 0.786862 0.477974
0.987243 0.789731 0.498695
0.528191 0.724453 0.578851
0.529046 0.724941 0.579522
0.530297 0.725246 0.580194
0.532189 0.725216 0.581109
0.535027 0.724880 0.582208
0.538659 0.724575 0.583734
0.543542 0.724117 0.585840
0.549737 0.723537 0.588556
0.556909 0.723049 0.591882
0.565515 0.722530 0.596002
0.574823 0.721950 0.600702
0.585168 0.721370 0.606134
0.596155 0.720607 0.612116
0.603235 0.722194 0.614191
0.604486 0.727626 0.608484
0.607538 0.733303 0.602075
0.612818 0.739315 0.595239
0.620874 0.745693 0.587976
0.632044 0.752407 0.580041
0.646601 0.759457 0.571923
0.664637 0.766629 0.563195
0.686030 0.773739 0.553735
0.710719 0.780606 0.543297
0.738491 0.787137 0.531975
0.769223 0.793118 0.519310
0.802670 0.798672 0.505455
0.838743 0.803708 0.490425
0.880339 0.811643 0.477150
0.914794 0.812497 0.469245
0.940093 0.814267 0.485664
0.963500 0.816159 0.504265
0.984863 0.818051 0.525231
0.567346 0.761044 0.615412
0.567956 0.761288 0.615808
0.568811 0.761318 0.616205
0.570489 0.761257 0.616999
0.572961 0.760983 0.618036
0.576257 0.760555 0.619379
0.580682 0.760067 0.621271
0.586175 0.759579 0.623743
0.592798 0.758999 0.626825
0.600519 0.758511 0.630579
0.609308 0.757961 0.635065
0.618891 0.757412 0.640131
0.629114 0.756863 0.645808
0.639857 0.756222 0.652033
0.641901 0.760342 0.648493
0.643610 0.765499 0.642908
0.647089 0.770993 0.636683
0.652796 0.776761 0.629908
0.661280 0.782925 0.623011
0.672511 0.789364 0.615656
0.686763 0.795956 0.607752
0.704067 0.802457 0.599481
0.724178 0.808713 0.590173
0.747372 0.814664 0.580011
0.773251 0.820218 0.569055
0.801816 0.825284 0.556939
0.833005 0.829984 0.543816
0.866636 0.834104 0.529564
0.905913 0.841337 0.517052
0.937377 0.841428 0.511864
0.960815 0.842130 0.527703
0.981018 0.843290 0.549279
0.607111 0.794827 0.651942
0.607599 0.795041 0.652308
0.608606 0.795102 0.652796
0.610163 0.795132 0.653620
0.612512 0.795102 0.654780
0.615991 0.795132 0.656489
0.620844 0.795407 0.659052
0.626825 0.795712 0.662226
0.633906 0.796170 0.666163
0.642176 0.796750 0.670863
0.651392 0.797299 0.676143
0.661280 0.797787 0.681941
0.671748 0.798184 0.688197
0.682429 0.798306 0.694728
0.689876 0.799863 0.697932
0.691096 0.804715 0.693355
0.693507 0.809659 0.688319
0.697505 0.814786 0.682734
0.703548 0.820218 0.676936
0.711879 0.825803 0.670680
0.722560 0.831479 0.664179
0.735744 0.837125 0.657099
0.751278 0.842496 0.649317
0.769375 0.847593 0.640803
0.789944 0.852354 0.631220
0.812894 0.856748 0.620905
0.838499 0.860716 0.609552
0.866484 0.864286 0.597314
0.896788 0.867521 0.584100
0.932403 0.873564 0.573236
0.959380 0.872343 0.571405
0.979736 0.871672 0.586877
0.657984 0.832700 0.697932
0.658167 0.832700 0.698054
0.658778 0.832609 0.698268
0.659876 0.832425 0.698726
0.661616 0.832212 0.699519
0.664363 0.831968 0.700801
0.667964 0.831754 0.702571
0.672511 0.831479 0.704768
0.678096 0.831327 0.707668
0.684504 0.831174 0.711116
0.691951 0.831022 0.715175
0.700038 0.830900 0.719783
0.708827 0.830716 0.724910
0.717922 0.830472 0.730343
