20 Preset/Car Style/【3】LUT video cho PR-AE-FCPX/Tone  (18).cube
# Created by Adobe Lightroom plugin Export LUT (1.24.0)
# www.johnrellis.com/lightroom/exportlut.htm
# Preset: 19汽车质感（素材江湖）
# Color profile: E:\lut插件\exportlut.1.24\exportlut.lrplugin\color profiles\Rec709gamma2.4.icc
LUT_3D_SIZE 32
DOMAIN_MIN 0.0 0.0 0.0
DOMAIN_MAX 1.0 1.0 1.0
0.083467 0.094362 0.099886
0.086549 0.094545 0.100191
0.091737 0.094850 0.100099
0.101778 0.094850 0.100252
0.116182 0.095583 0.100954
0.134585 0.096407 0.101442
0.155642 0.097169 0.102113
0.179629 0.097841 0.102510
0.207462 0.098360 0.102571
0.239841 0.098421 0.102449
0.275975 0.098421 0.102358
0.315160 0.097658 0.100862
0.356573 0.095521 0.099336
0.399329 0.093355 0.096742
0.442145 0.091524 0.093904
0.484138 0.088014 0.091035
0.525231 0.082582 0.087617
0.565332 0.075715 0.082277
0.604761 0.062593 0.074495
0.643885 0.053285 0.063508
0.682460 0.042603 0.052766
0.726772 0.027314 0.041291
0.770871 0.011475 0.029908
0.810391 0.002686 0.022370
0.846525 0.000000 0.019989
0.879332 0.000000 0.017487
0.909880 0.000000 0.021454
0.938872 0.000000 0.029541
0.966918 0.000092 0.041840
0.994293 0.018524 0.063813
1.000000 0.040864 0.088533
1.000000 0.080018 0.104524
0.082551 0.095949 0.100435
0.085481 0.095369 0.100465
0.089876 0.096162 0.101045
0.100587 0.096498 0.101167
0.116121 0.096742 0.100801
0.134035 0.097658 0.101656
0.154513 0.098573 0.102327
0.178286 0.098970 0.102419
0.205600 0.099672 0.102846
0.237125 0.100526 0.102693
0.272618 0.100343 0.102388
0.311131 0.099580 0.100984
0.352209 0.098177 0.099519
0.394537 0.096895 0.097322
0.437293 0.094301 0.094728
0.479255 0.092409 0.091432
0.520439 0.089693 0.087587
0.560601 0.083833 0.082551
0.600153 0.075502 0.074983
0.639124 0.066468 0.065553
0.677455 0.054322 0.054414
0.721004 0.036561 0.043275
0.763607 0.025574 0.032074
0.802213 0.015808 0.023987
0.837888 0.001404 0.019348
0.870756 0.001740 0.015991
0.901640 0.000000 0.017182
0.931151 0.000000 0.024231
0.959686 0.006104 0.034363
0.987671 0.018250 0.053285
1.000000 0.041505 0.080659
1.000000 0.073121 0.099397
0.081727 0.100099 0.101686
0.082521 0.100404 0.101656
0.089143 0.099611 0.102419
0.094820 0.101106 0.104585
0.106874 0.104005 0.106020
0.126558 0.105165 0.106111
0.149050 0.105898 0.105379
0.174868 0.106020 0.104463
0.204654 0.106203 0.103426
0.236149 0.107088 0.103273
0.271244 0.107820 0.102510
0.309239 0.108186 0.101045
0.349767 0.107759 0.099519
0.391638 0.106874 0.097444
0.434241 0.104738 0.094911
0.476020 0.103975 0.091585
0.517174 0.102083 0.088289
0.557488 0.099062 0.082765
0.596918 0.095125 0.076661
0.635950 0.091493 0.066438
0.674495 0.087861 0.056153
0.718471 0.077272 0.044648
0.760189 0.066957 0.033326
0.798245 0.056550 0.026184
0.833433 0.050446 0.020142
0.866148 0.041138 0.017426
0.897093 0.038087 0.017365
0.926787 0.038239 0.023468
0.955627 0.045716 0.033539
0.983948 0.056764 0.052430
1.000000 0.076417 0.078981
1.000000 0.093812 0.097230
0.077302 0.109468 0.104341
0.078859 0.109407 0.104341
0.087129 0.108949 0.105013
0.096284 0.108095 0.106661
0.105043 0.110323 0.110170
0.115084 0.113466 0.114260
0.136446 0.116152 0.113710
0.161990 0.118013 0.112398
0.191775 0.119356 0.110780
0.225986 0.120668 0.108644
0.264042 0.121798 0.106416
0.304662 0.122652 0.103426
0.347692 0.123140 0.100496
0.389624 0.123659 0.097871
0.431556 0.123629 0.094789
0.472724 0.123445 0.091981
0.513359 0.121340 0.089021
0.552819 0.120668 0.083894
0.591913 0.118318 0.078492
0.630610 0.116304 0.067659
0.668574 0.114107 0.056855
0.712581 0.111849 0.044709
0.753109 0.108492 0.035279
0.791043 0.105776 0.027436
0.826780 0.102602 0.021820
0.860777 0.101106 0.018463
0.893034 0.099092 0.020905
0.923735 0.098848 0.024872
0.953307 0.100130 0.036896
0.981842 0.104952 0.053834
1.000000 0.110109 0.080171
1.000000 0.117525 0.098085
0.066712 0.123232 0.108705
0.066712 0.123232 0.108705
0.075990 0.122713 0.108064
0.093172 0.121798 0.109987
0.106264 0.120302 0.112520
0.117311 0.121309 0.116732
0.128176 0.124605 0.120974
0.141970 0.128542 0.125063
0.172335 0.132235 0.122316
0.206302 0.135317 0.119448
0.244755 0.138430 0.116793
0.286625 0.141299 0.113680
0.330144 0.143832 0.109987
0.375555 0.145480 0.105989
0.420661 0.146792 0.101320
0.466011 0.147036 0.095888
0.509789 0.146670 0.090608
0.550439 0.146426 0.084657
0.589532 0.145724 0.078218
0.628138 0.144442 0.068360
0.667445 0.143282 0.057435
0.710903 0.141421 0.047150
0.750484 0.140291 0.037964
0.787991 0.138521 0.030701
0.823758 0.137484 0.025666
0.858091 0.135775 0.022553
0.890410 0.134310 0.025177
0.921172 0.135225 0.029664
0.950652 0.135653 0.042206
0.979156 0.137514 0.061402
1.000000 0.141970 0.084047
1.000000 0.147372 0.099489
0.043153 0.139834 0.113588
0.045441 0.139803 0.113283
0.051026 0.139467 0.112367
0.079683 0.138521 0.113313
0.101472 0.136995 0.115724
0.118135 0.134829 0.119326
0.131624 0.135256 0.124025
0.144472 0.138827 0.128511
0.159182 0.142916 0.133577
0.183169 0.148531 0.135988
0.222690 0.154360 0.131930
0.265934 0.159762 0.128450
0.310979 0.164645 0.124453
0.357610 0.168490 0.120211
0.404761 0.171939 0.115541
0.450660 0.174685 0.110353
0.496437 0.176028 0.104891
0.540429 0.176638 0.098512
0.583215 0.176303 0.092195
0.624842 0.175387 0.082033
0.670069 0.174929 0.063783
0.713039 0.174777 0.049226
0.792691 0.181949 0.036866
0.830900 0.181369 0.035340
0.865599 0.181155 0.038270
0.897307 0.181064 0.044892
0.926726 0.180667 0.060731
0.954437 0.180789 0.079347
0.980896 0.182834 0.092348
1.000000 0.184787 0.103243
1.000000 0.188449 0.115908
1.000000 0.193515 0.128939
0.000000 0.164370 0.120241
0.000000 0.164187 0.119692
0.004211 0.163699 0.118593
0.024994 0.162997 0.117220
0.087404 0.160922 0.119600
0.114687 0.158480 0.123049
0.135103 0.155917 0.127443
0.152468 0.155398 0.133730
0.169039 0.159518 0.138857
0.187930 0.165255 0.145296
0.209751 0.172488 0.152529
0.248295 0.181033 0.152651
0.297032 0.188968 0.147341
0.346441 0.195499 0.142214
0.395361 0.201114 0.136965
0.443641 0.204898 0.131411
0.489967 0.208103 0.125856
0.535058 0.210025 0.120241
0.578759 0.211276 0.114076
0.624872 0.212711 0.107851
0.676417 0.215366 0.101167
0.725429 0.216373 0.094087
0.771237 0.216800 0.086397
0.814023 0.217594 0.074647
0.854063 0.216129 0.059297
0.888182 0.215702 0.060639
0.918425 0.215030 0.075227
0.946502 0.215000 0.088228
0.973144 0.216190 0.096559
0.998810 0.216892 0.106935
1.000000 0.218753 0.118868
1.000000 0.222141 0.131441
0.000000 0.189456 0.126680
0.000000 0.189303 0.126467
0.000000 0.188907 0.124636
0.000000 0.188113 0.121736
0.017151 0.186404 0.122957
0.097139 0.184115 0.126528
0.129976 0.180880 0.130617
0.154269 0.177676 0.135927
0.174441 0.177584 0.143069
0.193668 0.182254 0.149691
0.215640 0.189059 0.156954
0.239902 0.197024 0.165927
0.265751 0.205631 0.175570
0.314733 0.215366 0.171359
0.365820 0.223575 0.165499
0.415503 0.230289 0.159640
0.464424 0.235325 0.153811
0.511528 0.239048 0.148135
0.558068 0.242649 0.142824
0.608759 0.247257 0.138338
0.658747 0.250431 0.133730
0.707118 0.253574 0.129274
0.752865 0.255314 0.125216
0.796201 0.256687 0.121645
0.837156 0.256779 0.118776
0.873564 0.255985 0.115908
0.906615 0.254307 0.113497
0.937102 0.252537 0.110780
0.965911 0.250767 0.110048
0.992645 0.250004 0.115206
1.000000 0.251133 0.125978
1.000000 0.253452 0.137545
0.000000 0.219516 0.134188
0.000000 0.219394 0.133974
0.000000 0.218967 0.131838
0.000000 0.218173 0.128420
0.000000 0.216831 0.126497
0.016236 0.214542 0.130007
0.111788 0.211398 0.133913
0.149142 0.207980 0.139559
0.176638 0.204440 0.145968
0.200137 0.203372 0.153933
0.222904 0.209018 0.162417
0.247135 0.216709 0.171328
0.272709 0.225132 0.181399
0.299413 0.234440 0.192691
0.331487 0.244572 0.201938
0.384558 0.254124 0.195254
0.435615 0.261875 0.188846
0.486671 0.268803 0.183627
0.538689 0.275883 0.179507
0.589654 0.281346 0.175082
0.638849 0.286107 0.171572
0.687312 0.290166 0.167941
0.733730 0.293248 0.164828
0.777768 0.295689 0.162509
0.819364 0.297002 0.160708
0.857298 0.296941 0.158572
0.891478 0.296391 0.156893
0.923308 0.294987 0.155795
0.953185 0.293828 0.155734
0.981628 0.292454 0.156008
1.000000 0.291234 0.157382
1.000000 0.290867 0.159884
0.000000 0.253300 0.142580
0.000000 0.253086 0.142214
0.000000 0.252628 0.140261
0.000000 0.251865 0.136690
0.000000 0.250523 0.130861
0.000000 0.248020 0.133211
0.036439 0.244938 0.137758
0.130983 0.241489 0.142977
0.171756 0.237797 0.149416
0.202457 0.234073 0.157259
0.227481 0.231357 0.166323
0.253330 0.237858 0.177279
0.278813 0.245731 0.186648
0.305394 0.254582 0.198398
0.333013 0.264439 0.211185
0.361273 0.274815 0.224460
0.404456 0.287846 0.231174
0.460517 0.299016 0.226352
0.514031 0.308110 0.221836
0.565667 0.315282 0.217441
0.615534 0.321233 0.213321
0.664057 0.325689 0.209201
0.710109 0.329656 0.206027
0.754025 0.332403 0.203189
0.795407 0.334295 0.200565
0.834501 0.335058 0.198398
0.870390 0.335424 0.197147
0.903746 0.335363 0.196262
0.935637 0.334722 0.196475
0.965698 0.334661 0.197635
0.994690 0.334173 0.199680
1.000000 0.334295 0.203098
0.000000 0.287388 0.151308
0.000000 0.287388 0.150881
0.000000 0.287083 0.148867
0.000000 0.286534 0.145327
0.000000 0.285588 0.139254
0.000000 0.283909 0.136965
0.000000 0.281132 0.141360
0.082612 0.278080 0.147005
0.154513 0.274632 0.153750
0.198337 0.270848 0.161654
0.231601 0.266850 0.170809
0.257603 0.262852 0.181491
0.286778 0.269749 0.194675
0.313268 0.277989 0.205142
0.342992 0.288945 0.219455
0.372992 0.300420 0.234104
0.403388 0.312352 0.249851
0.433845 0.324834 0.266148
0.481544 0.336339 0.267277
0.534752 0.345525 0.261967
0.585565 0.353185 0.257298
0.635218 0.359350 0.252903
0.683284 0.364813 0.249149
0.728969 0.368841 0.245914
0.772213 0.371984 0.243412
0.812924 0.374090 0.241276
0.850431 0.375616 0.239994
0.885740 0.376074 0.239170
0.918944 0.376440 0.239414
0.950378 0.377081 0.240970
0.980316 0.377844 0.243473
1.000000 0.378698 0.247288
0.000000 0.325719 0.162173
0.000000 0.325719 0.161593
0.000000 0.325353 0.159213
0.000000 0.324773 0.155459
0.000000 0.324010 0.149905
0.000000 0.322911 0.141268
0.000000 0.320684 0.146365
0.000000 0.317815 0.152132
0.117220 0.314366 0.159365
0.183169 0.310918 0.167514
0.228641 0.306828 0.176944
0.265507 0.304631 0.188327
0.313481 0.319127 0.211185
0.348455 0.327306 0.229313
0.378973 0.337346 0.243381
0.409277 0.347906 0.258915
0.439063 0.358862 0.275700
0.468574 0.370153 0.293004
0.497749 0.381933 0.310521
0.526696 0.394324 0.328344
0.580499 0.404150 0.322789
0.632959 0.412085 0.317266
0.682216 0.418311 0.312596
0.728420 0.423072 0.308690
0.771664 0.426459 0.305180
0.812070 0.428504 0.302190
0.848844 0.429541 0.299931
0.883055 0.429816 0.298344
0.915190 0.429938 0.297704
0.945830 0.429969 0.298192
0.974945 0.430549 0.300175
1.000000 0.431556 0.303655
0.000000 0.374090 0.176944
0.000000 0.373907 0.176516
0.000000 0.373480 0.174777
0.000000 0.372351 0.170504
0.000000 0.371038 0.165011
0.000000 0.369299 0.155886
0.000000 0.367132 0.154360
0.000000 0.365637 0.161196
0.000000 0.364111 0.169314
0.156344 0.362707 0.179202
0.223789 0.361517 0.190249
0.274235 0.360510 0.203189
0.316014 0.359442 0.217533
0.350622 0.357885 0.232975
0.386389 0.364660 0.253269
0.415747 0.373571 0.267704
0.444251 0.382544 0.282475
0.472084 0.392035 0.299260
0.499611 0.402045 0.315953
0.526787 0.412604 0.332647
0.553918 0.423804 0.349584
0.588251 0.435309 0.361059
0.640650 0.444373 0.355657
0.690089 0.451484 0.351202
0.735714 0.457069 0.347448
0.779324 0.461189 0.344213
0.819059 0.464271 0.341894
0.856168 0.466285 0.340398
0.890867 0.467750 0.339879
0.923522 0.469581 0.341009
0.954498 0.471321 0.343175
0.983978 0.473548 0.346990
0.000000 0.418036 0.193393
0.000000 0.417823 0.193179
0.000000 0.416968 0.190799
0.000000 0.416205 0.187106
0.000000 0.415015 0.181521
0.000000 0.413581 0.173556
0.000000 0.412116 0.164614
0.000000 0.409796 0.171908
0.000000 0.407507 0.179812
0.074403 0.405554 0.189090
0.196689 0.403784 0.200076
0.261021 0.402319 0.212222
0.311345 0.400732 0.226169
0.352605 0.398810 0.241032
0.386603 0.395941 0.256657
0.422248 0.401099 0.275700
0.448859 0.407019 0.291264
0.475593 0.414649 0.305516
0.502190 0.423316 0.321599
0.528496 0.432441 0.337926
0.554864 0.442481 0.354467
0.581994 0.453529 0.371405
0.609644 0.465583 0.388617
0.649836 0.476844 0.394720
0.699092 0.485176 0.390692
0.745205 0.491768 0.387366
0.788418 0.496956 0.384771
0.828000 0.500908 0.383215
0.864988 0.504265 0.382910
0.899718 0.507378 0.383978
0.932494 0.510521 0.386389
0.963684 0.513939 0.390661
0.000000 0.460578 0.211246
0.000000 0.460365 0.210788
0.000000 0.459541 0.208988
0.000000 0.458320 0.205692
0.000000 0.456580 0.200259
0.000000 0.454688 0.192752
0.000000 0.452949 0.183413
0.000000 0.450568 0.183780
0.000000 0.448127 0.191379
0.000000 0.445930 0.200412
0.147127 0.444068 0.210880
0.236942 0.442512 0.222812
0.297795 0.440620 0.236240
0.346593 0.438209 0.250156
0.387091 0.435004 0.264958
0.419867 0.430945 0.279759
0.454719 0.434730 0.297856
0.480079 0.439033 0.314549
0.505852 0.445930 0.328466
0.531395 0.453773 0.343664
0.557214 0.462715 0.360052
0.583948 0.472847 0.376684
0.610895 0.483955 0.393561
0.637934 0.495735 0.411170
0.664424 0.508049 0.429114
0.708644 0.518242 0.430274
0.754910 0.526299 0.427863
0.798093 0.532860 0.426551
0.837949 0.538750 0.426795
0.875120 0.544335 0.428840
0.910491 0.549737 0.432502
0.943633 0.555322 0.437903
0.000000 0.498146 0.228550
0.000000 0.498268 0.228611
0.000000 0.497810 0.227024
0.000000 0.496986 0.224094
0.000000 0.495827 0.219272
0.000000 0.494636 0.212833
0.000000 0.493507 0.204990
0.000000 0.492317 0.197971
0.000000 0.490425 0.206332
0.000000 0.488350 0.215030
0.000000 0.485786 0.224796
0.201114 0.483192 0.235996
0.277195 0.480110 0.247837
0.333593 0.476539 0.260655
0.379614 0.472206 0.273838
0.417670 0.467353 0.287388
0.449409 0.462196 0.301610
0.482124 0.463935 0.318456
0.508415 0.468421 0.336309
0.533867 0.475257 0.350286
0.559716 0.483314 0.364996
0.586481 0.493019 0.381994
0.613306 0.503593 0.399237
0.640040 0.514824 0.416999
0.666499 0.526757 0.435126
0.692836 0.539574 0.454261
0.720272 0.553033 0.472541
0.766506 0.562768 0.471473
0.809232 0.570977 0.471901
0.848417 0.578485 0.473945
0.885222 0.585382 0.477485
0.919646 0.592340 0.482856
0.000000 0.533471 0.246464
0.000000 0.533440 0.246159
0.000000 0.532982 0.244724
0.000000 0.532433 0.242039
0.000000 0.531701 0.238560
0.000000 0.530632 0.232975
0.000000 0.529625 0.225956
0.000000 0.528679 0.217411
0.000000 0.526940 0.220127
0.000000 0.524804 0.228397
0.000000 0.522301 0.237797
0.136904 0.519585 0.248081
0.245426 0.516686 0.259312
0.313970 0.512963 0.271305
0.366766 0.508751 0.283726
0.410803 0.503899 0.296696
0.447486 0.498787 0.309911
0.478859 0.493629 0.324102
0.510094 0.493874 0.340276
0.537835 0.498695 0.358953
0.563561 0.506035 0.373053
0.590051 0.514580 0.388159
0.616480 0.524346 0.405280
0.642847 0.534905 0.423102
0.669154 0.546288 0.441627
0.695338 0.558587 0.460822
0.721370 0.571801 0.480842
0.746548 0.586053 0.502068
0.777646 0.599786 0.517388
0.819455 0.609918 0.519799
0.858396 0.619196 0.523888
0.894377 0.628168 0.529808
0.000000 0.570092 0.265965
0.000000 0.570275 0.265904
0.000000 0.589776 0.276677
0.000000 0.589258 0.274510
0.000000 0.588403 0.270939
0.000000 0.587396 0.266117
0.000000 0.586114 0.259709
0.000000 0.584741 0.251926
0.000000 0.583276 0.247532
0.000000 0.581048 0.256413
0.000000 0.578302 0.265019
0.000000 0.575158 0.274876
0.216495 0.571405 0.284977
0.301427 0.566857 0.295842
0.362982 0.561608 0.307195
0.412787 0.555810 0.318853
0.454597 0.549279 0.330816
0.489723 0.542657 0.342870
0.519677 0.536248 0.355779
0.548943 0.534173 0.370611
0.577874 0.538872 0.389746
0.603021 0.545769 0.404059
0.628229 0.553552 0.419135
0.653346 0.562188 0.435676
0.678004 0.571801 0.453651
0.702571 0.582330 0.472023
0.726772 0.593683 0.491127
0.750362 0.606134 0.511437
0.773495 0.620050 0.533410
0.796262 0.635279 0.556329
0.829557 0.648585 0.568414
0.867430 0.659480 0.574243
0.000000 0.610498 0.289555
0.000000 0.612268 0.290715
0.000000 0.613886 0.291142
0.000000 0.615106 0.289982
0.000000 0.615747 0.287724
0.000000 0.615320 0.283970
0.000000 0.614374 0.278874
0.000000 0.613031 0.272068
0.000000 0.611780 0.264103
0.000000 0.609674 0.269047
0.000000 0.607172 0.277592
0.000000 0.604181 0.286229
0.145113 0.600671 0.295628
0.263828 0.596521 0.305760
0.336614 0.591913 0.316655
0.393286 0.586786 0.327642
0.440314 0.581140 0.338933
0.480751 0.575433 0.350866
0.515709 0.569940 0.363409
0.546136 0.564538 0.376440
0.574701 0.562005 0.391241
0.605921 0.568078 0.412451
0.630915 0.575189 0.427314
0.655818 0.583062 0.442969
0.680323 0.591547 0.459480
0.704463 0.601343 0.478157
0.728176 0.611841 0.497322
0.751308 0.623529 0.517937
0.774166 0.636439 0.539544
0.796750 0.650813 0.562493
0.818753 0.666651 0.586603
0.840116 0.683803 0.611810
0.000000 0.639551 0.307713
0.000000 0.641321 0.309026
0.000000 0.642969 0.309239
0.000000 0.644404 0.308904
0.000000 0.645075 0.307347
0.000000 0.644862 0.303929
0.000000 0.644068 0.299351
0.000000 0.642847 0.293431
0.000000 0.641779 0.287083
0.000000 0.640009 0.284306
0.000000 0.637690 0.292668
0.000000 0.634882 0.300786
0.000000 0.631647 0.309697
0.218173 0.627893 0.319036
0.307439 0.623804 0.329015
0.372381 0.619135 0.339361
0.424933 0.614099 0.350286
0.469764 0.608942 0.361486
0.508965 0.603693 0.373358
0.543481 0.598718 0.385809
0.573663 0.593957 0.399115
0.601160 0.590600 0.413306
0.634821 0.598657 0.434913
0.658869 0.604791 0.451972
0.683101 0.612604 0.468025
0.707057 0.621210 0.485115
0.730251 0.630762 0.504234
0.752987 0.641505 0.524834
0.775418 0.653590 0.546502
0.797635 0.667140 0.569360
0.819455 0.682094 0.593378
0.840604 0.698299 0.618463
0.000000 0.669184 0.327153
0.000000 0.670710 0.328191
0.000000 0.672145 0.328618
0.000000 0.673335 0.328435
0.000000 0.674006 0.327214
0.000000 0.673762 0.324224
0.000000 0.673182 0.320378
0.000000 0.672175 0.315465
0.000000 0.671046 0.309270
0.000000 0.669947 0.302495
0.000000 0.667842 0.308598
0.000000 0.665400 0.316747
0.000000 0.662379 0.324987
0.151492 0.659022 0.333593
0.273167 0.655329 0.343053
0.348486 0.651392 0.353185
0.407660 0.647456 0.364050
0.458137 0.643366 0.375494
0.502098 0.639582 0.387762
0.541405 0.635981 0.400702
0.576623 0.632746 0.414435
0.607874 0.629786 0.429175
0.635340 0.626825 0.443946
0.671687 0.637171 0.466651
0.695216 0.642969 0.486824
0.718959 0.651240 0.504845
0.742000 0.660090 0.523674
0.764309 0.670069 0.544030
0.786374 0.681605 0.566278
0.807980 0.694423 0.589563
0.829038 0.708583 0.613733
0.849363 0.723964 0.638849
0.000000 0.708186 0.355993
0.000000 0.708705 0.355993
0.000000 0.709071 0.356023
0.000000 0.709163 0.355077
0.000000 0.708797 0.353002
0.000000 0.708064 0.350256
0.000000 0.707118 0.346380
0.000000 0.706203 0.342046
0.000000 0.705165 0.336828
0.000000 0.704219 0.331029
0.000000 0.702815 0.330755
0.000000 0.700618 0.338872
0.000000 0.697963 0.346471
0.000000 0.694972 0.354742
0.238163 0.691554 0.363622
0.327092 0.687739 0.372992
0.392401 0.683894 0.383032
0.447242 0.679805 0.393591
0.494453 0.675807 0.404944
0.536584 0.671839 0.416876
0.573968 0.668055 0.429603
0.607691 0.664485 0.442939
0.637598 0.660883 0.456519
0.663905 0.657435 0.470680
0.698634 0.666468 0.492714
0.721370 0.671595 0.514733
0.744106 0.679866 0.533410
0.766445 0.689021 0.553124
0.788388 0.699428 0.574212
0.809720 0.711391 0.597528
0.830411 0.724636 0.621668
0.850523 0.739010 0.646540
0.000000 0.735744 0.377295
0.000000 0.736202 0.377325
0.000000 0.736477 0.377142
0.000000 0.736538 0.376318
0.000000 0.736355 0.375067
0.000000 0.735805 0.372442
0.000000 0.735042 0.369177
0.000000 0.734249 0.365423
0.000000 0.733425 0.360967
0.000000 0.732601 0.355962
0.000000 0.731777 0.350988
0.000000 0.729946 0.358068
0.000000 0.727657 0.365972
0.000000 0.725032 0.373938
0.193668 0.722042 0.382269
0.300816 0.718898 0.391363
0.374029 0.715602 0.401343
0.433082 0.712154 0.411566
0.484138 0.708675 0.422675
0.529015 0.705165 0.434363
0.569390 0.701778 0.446937
0.605921 0.698482 0.460060
0.638666 0.695338 0.473671
0.667933 0.692348 0.487648
0.688716 0.684382 0.496132
0.721126 0.691768 0.517906
0.744747 0.697658 0.541344
0.766842 0.706233 0.560937
0.788632 0.715846 0.581567
0.810086 0.726711 0.603540
0.830838 0.739254 0.627771
0.851041 0.752987 0.652827
0.000000 0.767269 0.404974
0.000000 0.767971 0.405554
0.000000 0.768215 0.405432
0.000000 0.767941 0.404395
0.000000 0.767208 0.402441
0.000000 0.766110 0.399725
0.000000 0.764797 0.396490
0.000000 0.763272 0.392340
0.000000 0.761837 0.387823
0.000000 0.760372 0.382666
0.000000 0.758877 0.377264
0.000000 0.757015 0.378241
0.000000 0.754604 0.385382
0.000000 0.751583 0.392187
0.124453 0.748287 0.399481
0.268467 0.744778 0.407324
0.350317 0.741146 0.415930
0.413581 0.737728 0.425544
0.467689 0.734463 0.436164
0.515557 0.731502 0.447852
0.558373 0.728725 0.460304
0.597162 0.725795 0.473091
0.631983 0.722713 0.486275
0.663050 0.719448 0.499489
0.690639 0.715938 0.512627
0.714778 0.712520 0.525750
0.744594 0.718227 0.545953
0.768551 0.724331 0.570306
0.789700 0.732815 0.590112
0.810636 0.742641 0.611475
0.831205 0.753872 0.634333
0.851347 0.766506 0.658503
0.000000 0.789700 0.425116
0.000000 0.790341 0.425849
0.000000 0.790707 0.425757
0.000000 0.790646 0.425330
0.000000 0.790311 0.423804
0.000000 0.789792 0.422217
0.000000 0.789181 0.419837
0.000000 0.788479 0.417121
0.000000 0.787778 0.413794
0.000000 0.787106 0.410376
0.000000 0.786252 0.406592
0.000000 0.785245 0.403143
0.000000 0.783200 0.410101
0.000000 0.780728 0.417212
0.004974 0.777737 0.424262
0.249668 0.774502 0.431830
0.337224 0.771115 0.439887
0.403815 0.767819 0.448859
0.459846 0.764767 0.459052
0.509239 0.761959 0.470253
0.553796 0.759274 0.482277
0.594171 0.756649 0.494972
0.630762 0.753933 0.507927
0.663508 0.751217 0.520897
0.693111 0.748348 0.533928
0.719631 0.745418 0.547051
0.743130 0.742672 0.560052
0.770962 0.747494 0.579797
0.795560 0.754757 0.605890
0.816037 0.763638 0.627039
0.836118 0.773892 0.649134
0.856016 0.785519 0.672206
0.000000 0.815213 0.451087
0.000000 0.815549 0.451637
0.000000 0.815610 0.451514
0.000000 0.815488 0.450904
0.000000 0.815122 0.449805
0.000000 0.814572 0.448066
0.000000 0.813962 0.446082
0.000000 0.813260 0.443580
0.000000 0.812528 0.440742
0.000000 0.811826 0.438148
0.000000 0.811032 0.434943
0.000000 0.810208 0.431556
0.000000 0.808743 0.434546
0.000000 0.806607 0.441840
0.000000 0.803952 0.448585
0.235172 0.800961 0.455665
0.327245 0.797910 0.463600
0.395789 0.794827 0.472297
0.453285 0.791989 0.481910
0.503746 0.789364 0.492744
0.549065 0.786893 0.504295
0.590234 0.784421 0.516381
0.627466 0.781857 0.528435
0.661402 0.779232 0.540856
0.692195 0.776486 0.553246
0.719905 0.773739 0.565606
0.744930 0.771115 0.578241
0.767300 0.768521 0.590845
0.792996 0.772305 0.609674
0.818570 0.781216 0.636347
0.838285 0.790188 0.659236
0.858152 0.801114 0.682094
0.000000 0.837919 0.476448
0.000000 0.838163 0.476722
0.000000 0.838285 0.476753
0.000000 0.838285 0.476631
0.000000 0.838224 0.475959
0.000000 0.838254 0.475410
0.000000 0.838499 0.475166
0.000000 0.838865 0.474678
0.000000 0.839353 0.474525
0.000000 0.839933 0.474556
0.000000 0.840513 0.474617
0.000000 0.840909 0.474525
0.000000 0.840940 0.475624
0.000000 0.839933 0.484352
0.152621 0.838346 0.492500
0.278843 0.836057 0.500023
0.357031 0.833524 0.507866
0.419287 0.830930 0.516228
0.473030 0.828428 0.525536
0.521202 0.826078 0.535637
0.564904 0.823850 0.546532
0.604852 0.821622 0.557794
0.641474 0.819272 0.569268
0.674830 0.816831 0.580774
0.705379 0.814298 0.592401
0.733364 0.811673 0.604028
0.758633 0.809201 0.615930
0.781643 0.806882 0.627863
0.802335 0.804929 0.640131
0.825254 0.807858 0.657313
0.851133 0.818173 0.683314
0.869413 0.826749 0.706905
0.000000 0.867643 0.517723
0.000000 0.867643 0.517815
0.000000 0.867521 0.517632
0.000000 0.867338 0.517021
0.000000 0.867033 0.516289
0.000000 0.866667 0.515312
0.000000 0.866331 0.514458
0.000000 0.866026 0.513420
0.000000 0.865721 0.512535
0.000000 0.865415 0.511498
0.000000 0.865080 0.510826
0.000000 0.864744 0.509880
0.000000 0.864317 0.509087
0.000000 0.863157 0.513878
