20 Preset/Car Style/【3】LUT video cho PR-AE-FCPX/Tone  (25).cube
# Created by Adobe Lightroom plugin Export LUT (1.24.0)
# www.johnrellis.com/lightroom/exportlut.htm
# Preset: 26汽车质感（素材江湖）
# Color profile: E:\lut插件\exportlut.1.24\exportlut.lrplugin\color profiles\Rec709gamma2.4.icc
LUT_3D_SIZE 32
DOMAIN_MIN 0.0 0.0 0.0
DOMAIN_MAX 1.0 1.0 1.0
0.030365 0.114595 0.095705
0.030365 0.114595 0.095705
0.032349 0.114534 0.095705
0.044556 0.114748 0.095979
0.070619 0.115145 0.096895
0.090364 0.116915 0.098329
0.102449 0.118715 0.099641
0.115999 0.120760 0.101534
0.131197 0.122560 0.102632
0.149386 0.123873 0.104005
0.170199 0.125093 0.105440
0.194553 0.125490 0.106722
0.222629 0.125368 0.108034
0.253910 0.124117 0.109346
0.288334 0.121675 0.110597
0.325841 0.117739 0.111971
0.366888 0.111025 0.113436
0.411505 0.101534 0.114626
0.459937 0.084047 0.115938
0.511772 0.031373 0.117647
0.565759 0.000000 0.119295
0.634424 0.000000 0.121248
0.707698 0.000000 0.123812
0.772763 0.000000 0.127077
0.827115 0.000000 0.132113
0.872129 0.000000 0.139162
0.909667 0.000000 0.148653
0.941009 0.000000 0.160769
0.967926 0.109010 0.176211
0.991272 0.167849 0.196048
1.000000 0.218875 0.220310
1.000000 0.268650 0.250645
0.030365 0.114595 0.095705
0.030365 0.114595 0.095705
0.033631 0.114809 0.095644
0.044556 0.114748 0.095979
0.070863 0.115724 0.097169
0.089845 0.117525 0.098207
0.101350 0.119387 0.099550
0.114748 0.121187 0.101503
0.129702 0.123018 0.102571
0.147158 0.124208 0.104005
0.167819 0.125246 0.105501
0.191287 0.125887 0.106813
0.218296 0.125917 0.108186
0.248753 0.124880 0.109560
0.282536 0.122957 0.110506
0.319280 0.119295 0.111971
0.359899 0.113252 0.113222
0.403937 0.104250 0.114595
0.451606 0.090333 0.115999
0.502800 0.046815 0.117861
0.555505 0.000000 0.118959
0.621668 0.000000 0.120943
0.691218 0.000000 0.123262
0.754421 0.000000 0.126253
0.808988 0.000000 0.130098
0.855344 0.000000 0.136172
0.895018 0.000000 0.144167
0.928954 0.000000 0.155062
0.958038 0.069795 0.169711
0.983307 0.148501 0.187900
1.000000 0.202365 0.210971
1.000000 0.252720 0.239811
0.030182 0.116091 0.096223
0.030182 0.116091 0.096223
0.033143 0.116274 0.096559
0.046876 0.117342 0.097047
0.070100 0.118959 0.097749
0.089693 0.120363 0.099245
0.101472 0.121889 0.100557
0.114443 0.123659 0.101778
0.129580 0.125185 0.103273
0.146670 0.126406 0.104677
0.166842 0.127504 0.105806
0.189944 0.128237 0.107118
0.216800 0.128084 0.108553
0.246738 0.127535 0.109560
0.279881 0.125521 0.110903
0.316289 0.122286 0.112428
0.356207 0.117372 0.113619
0.399725 0.109255 0.115053
0.446815 0.097536 0.116182
0.497719 0.069154 0.117830
0.550500 0.013703 0.119356
0.617060 0.000000 0.121096
0.684321 0.000000 0.123384
0.745998 0.000000 0.126192
0.799985 0.000000 0.129763
0.846464 0.000000 0.134920
0.887114 0.000000 0.142733
0.922148 0.000000 0.152773
0.952331 0.077363 0.166537
0.978668 0.146761 0.184360
1.000000 0.199039 0.206943
1.000000 0.248539 0.234653
0.024079 0.122469 0.098177
0.024079 0.122469 0.098177
0.026947 0.122957 0.097688
0.042359 0.123873 0.098573
0.067079 0.125063 0.100771
0.088106 0.126131 0.102205
0.101472 0.126955 0.102541
0.115785 0.128237 0.103426
0.131075 0.129152 0.104616
0.148226 0.130526 0.105562
0.167941 0.131350 0.106783
0.191135 0.132021 0.108064
0.217227 0.132509 0.109071
0.246525 0.132143 0.110384
0.278691 0.130770 0.111727
0.314000 0.128237 0.113222
0.352544 0.124208 0.114473
0.394720 0.117952 0.115633
0.440528 0.109224 0.117128
0.489662 0.095674 0.118532
0.540978 0.062348 0.120089
0.606653 0.000000 0.121645
0.670161 0.000000 0.123903
0.730709 0.000000 0.126009
0.786984 0.000000 0.129427
0.836759 0.000000 0.134859
0.880369 0.000000 0.142214
0.917632 0.000000 0.152346
0.949340 0.107088 0.166690
0.976165 0.160708 0.184176
0.998840 0.206973 0.206180
1.000000 0.252842 0.233066
0.018311 0.130678 0.101076
0.020600 0.130648 0.100710
0.019501 0.131197 0.100252
0.033631 0.131807 0.101137
0.059083 0.132143 0.102724
0.084749 0.133303 0.105104
0.099245 0.134310 0.106050
0.113710 0.134585 0.106722
0.130190 0.135592 0.107179
0.149233 0.136446 0.107485
0.169039 0.137423 0.108278
0.191684 0.138338 0.109499
0.217227 0.138918 0.110780
0.246098 0.138918 0.112062
0.278172 0.138369 0.113252
0.313542 0.136751 0.114595
0.352209 0.134035 0.115633
0.394476 0.129427 0.116976
0.439887 0.122957 0.118593
0.488838 0.113558 0.119783
0.542412 0.099825 0.121340
0.606348 0.070405 0.123232
0.667384 0.016327 0.125002
0.727016 0.000000 0.127291
0.782834 0.000000 0.130922
0.832975 0.000000 0.135775
0.876921 0.003174 0.143435
0.914366 0.095308 0.153841
0.945922 0.139986 0.167544
0.972869 0.180453 0.185092
0.995514 0.221256 0.206577
1.000000 0.262608 0.232578
0.012970 0.139834 0.104280
0.012970 0.139834 0.104280
0.013825 0.140291 0.103853
0.019226 0.141085 0.103273
0.043580 0.141848 0.104372
0.078614 0.142367 0.106447
0.096712 0.142275 0.110170
0.114504 0.144717 0.110018
0.130373 0.145022 0.110872
0.148867 0.145418 0.111574
0.170596 0.146700 0.111879
0.195468 0.147585 0.112337
0.222446 0.148531 0.113405
0.251469 0.149142 0.114443
0.283757 0.148989 0.115724
0.318883 0.148623 0.116823
0.357946 0.147005 0.118166
0.400580 0.144198 0.119387
0.446509 0.139712 0.120912
0.494881 0.133944 0.122011
0.553735 0.125917 0.123568
0.615564 0.116762 0.125399
0.769406 0.119844 0.132967
0.826169 0.128542 0.139590
0.872221 0.146578 0.148013
0.909270 0.168307 0.159518
0.939208 0.193057 0.173678
0.964263 0.219028 0.190188
0.985321 0.248295 0.209934
1.000000 0.278782 0.232334
1.000000 0.311925 0.258762
1.000000 0.346532 0.289128
0.000000 0.155337 0.107851
0.000000 0.155337 0.107179
0.000000 0.155764 0.106752
0.000000 0.156588 0.104891
0.010071 0.157443 0.105898
0.051789 0.158724 0.107698
0.095949 0.159152 0.110506
0.115389 0.157382 0.117311
0.139834 0.162234 0.115724
0.160220 0.162570 0.116884
0.182773 0.162753 0.118441
0.209384 0.163821 0.119173
0.239170 0.165530 0.119417
0.272313 0.166415 0.119936
0.308232 0.166903 0.119997
0.344335 0.166629 0.121218
0.383886 0.166171 0.122194
0.427131 0.164797 0.123232
0.473915 0.162814 0.124636
0.529473 0.160952 0.125795
0.600000 0.159731 0.127840
0.670436 0.160281 0.130190
0.739559 0.163729 0.134249
0.802701 0.173007 0.139406
0.855100 0.186679 0.148287
0.896178 0.204135 0.159976
0.928313 0.223301 0.173312
0.954376 0.244144 0.189639
0.976471 0.267796 0.207736
0.995056 0.293309 0.229435
1.000000 0.321904 0.254582
1.000000 0.353429 0.283574
0.000000 0.170138 0.110079
0.000000 0.170138 0.109743
0.000000 0.170718 0.108644
0.000000 0.171450 0.106783
0.000000 0.172610 0.105715
0.003876 0.173922 0.107485
0.069703 0.175265 0.110048
0.109499 0.175875 0.114412
0.132937 0.173465 0.122347
0.163058 0.180362 0.121431
0.186648 0.181460 0.122621
0.211643 0.181857 0.124575
0.238773 0.181643 0.126375
0.271092 0.183688 0.126894
0.306493 0.185519 0.126925
0.344457 0.186862 0.126741
0.386450 0.187564 0.126680
0.429786 0.188205 0.127474
0.477913 0.189029 0.128542
0.539544 0.192233 0.129915
0.603510 0.195193 0.131807
0.669001 0.199924 0.134096
0.733944 0.206485 0.137697
0.794217 0.216251 0.143618
0.845640 0.229068 0.151705
0.886748 0.242679 0.163333
0.919463 0.258244 0.176425
0.946044 0.275212 0.191684
0.968841 0.294743 0.210697
0.987976 0.316808 0.231601
1.000000 0.341772 0.256779
1.000000 0.369879 0.285039
0.000000 0.188998 0.112032
0.000000 0.189181 0.111666
0.000000 0.189517 0.110628
0.000000 0.190158 0.108522
0.000000 0.191440 0.104768
0.000000 0.192569 0.106538
0.000000 0.194339 0.108980
0.087556 0.196323 0.112612
0.125978 0.197086 0.118044
0.154086 0.193790 0.127901
0.187137 0.201022 0.128786
0.217868 0.205447 0.128328
0.245518 0.206607 0.131136
0.275639 0.206638 0.133852
0.307561 0.206851 0.135836
0.345525 0.209934 0.135683
0.387091 0.212924 0.135042
0.435370 0.216312 0.135256
0.492958 0.222019 0.135134
0.552239 0.227420 0.135653
0.611780 0.233738 0.136934
0.672969 0.240574 0.139467
0.734188 0.249424 0.143313
0.791287 0.260349 0.149203
0.840665 0.271794 0.158114
0.880735 0.284062 0.169192
0.913146 0.296727 0.182925
0.939910 0.310948 0.198886
0.962615 0.327825 0.217411
0.981933 0.346563 0.238621
0.998322 0.368414 0.263371
1.000000 0.393194 0.291630
0.000000 0.212100 0.113252
0.000000 0.211948 0.113008
0.000000 0.212100 0.112001
0.000000 0.212924 0.109194
0.000000 0.213901 0.105165
0.000000 0.215244 0.102480
0.000000 0.216739 0.105684
0.000000 0.218906 0.109316
0.098054 0.221683 0.113924
0.144533 0.222080 0.121645
0.177157 0.217563 0.133822
0.211917 0.224918 0.136965
0.250706 0.233707 0.133577
0.281346 0.235508 0.137545
0.314275 0.236881 0.141085
0.348791 0.237369 0.144564
0.394476 0.243076 0.146883
0.446906 0.251225 0.146792
0.502678 0.259342 0.146548
0.560723 0.267216 0.146517
0.619623 0.275090 0.146273
0.678370 0.282811 0.146822
0.733150 0.291325 0.150332
0.784604 0.300084 0.156374
0.829984 0.310094 0.164340
0.868833 0.320073 0.174319
0.901488 0.330541 0.187839
0.929137 0.343053 0.203708
0.953063 0.357458 0.222507
0.973480 0.374731 0.244968
0.990845 0.394659 0.269963
1.000000 0.417731 0.299718
0.000000 0.237339 0.112978
0.000000 0.237583 0.112886
0.000000 0.237919 0.111482
0.000000 0.238529 0.108736
0.000000 0.239963 0.103395
0.000000 0.241703 0.097108
0.000000 0.243839 0.098787
0.000000 0.246525 0.102724
0.000000 0.249729 0.107973
0.111696 0.253758 0.114046
0.165652 0.254398 0.123751
0.203799 0.248478 0.140047
0.241032 0.255283 0.146883
0.288975 0.270298 0.140597
0.327825 0.276219 0.144656
0.368231 0.281834 0.150027
0.411078 0.285863 0.155184
0.456153 0.289342 0.160037
0.507408 0.297215 0.161257
0.562585 0.306554 0.160922
0.618708 0.315526 0.160952
0.674800 0.324559 0.161624
0.730434 0.334386 0.163272
0.782589 0.343481 0.167391
0.826902 0.352697 0.175051
0.864225 0.361761 0.186160
0.896117 0.371130 0.199863
0.923339 0.381842 0.216129
0.946960 0.394507 0.235264
0.967193 0.409491 0.258152
0.984375 0.427192 0.284276
0.998718 0.447761 0.313878
0.000000 0.270756 0.111025
0.000000 0.270878 0.110353
0.000000 0.271275 0.108583
0.000000 0.272160 0.105135
0.000000 0.273716 0.099367
0.000000 0.275792 0.090242
0.000000 0.278508 0.082399
0.000000 0.281682 0.089387
0.000000 0.285557 0.095644
0.000000 0.290227 0.103029
0.125643 0.295537 0.111452
0.192355 0.299413 0.125032
0.267460 0.328954 0.152712
0.319249 0.339910 0.171908
0.387915 0.367681 0.160067
0.441505 0.379095 0.161135
0.490089 0.385077 0.171328
0.538537 0.389105 0.180148
0.586908 0.391760 0.188998
0.635462 0.392981 0.197879
0.689326 0.403265 0.199252
0.740566 0.412268 0.202121
0.787167 0.420417 0.207584
0.828397 0.427619 0.215396
0.863859 0.433875 0.225010
0.893462 0.439338 0.236057
0.917967 0.445136 0.249516
0.938323 0.451759 0.266392
0.956054 0.460639 0.285435
0.971710 0.471778 0.307256
0.985229 0.485542 0.332372
0.996612 0.503044 0.361364
0.000000 0.326818 0.102449
0.000000 0.326726 0.102144
0.000000 0.326574 0.100069
0.000000 0.326696 0.094240
0.000000 0.327153 0.085420
0.000000 0.328313 0.059266
0.000000 0.330663 0.020600
0.000000 0.336553 0.021851
0.000000 0.343847 0.037140
0.000000 0.353643 0.055665
0.000000 0.365911 0.080934
0.148836 0.380468 0.098207
0.242008 0.389014 0.124056
0.307866 0.387549 0.160494
0.362707 0.395270 0.192233
0.435096 0.424079 0.178897
0.495949 0.439765 0.170565
0.542626 0.443122 0.184329
0.588251 0.445045 0.195712
0.632990 0.445594 0.205936
0.677119 0.445075 0.216678
0.721798 0.447120 0.225528
0.767544 0.455451 0.230137
0.809201 0.462928 0.237095
0.845640 0.468940 0.246494
0.876524 0.474617 0.257176
0.902983 0.480079 0.270359
0.925902 0.485969 0.284611
0.945983 0.493263 0.301457
0.962158 0.503380 0.324132
0.976043 0.515953 0.349462
0.987732 0.531426 0.378912
0.000000 0.384619 0.089387
0.000000 0.384253 0.088441
0.000000 0.383734 0.083314
0.000000 0.383764 0.070588
0.000000 0.384253 0.042359
0.000000 0.385443 0.002106
0.000000 0.388037 0.000000
0.000000 0.392340 0.000000
0.000000 0.398657 0.000000
0.000000 0.407660 0.000000
0.000000 0.418891 0.000000
0.000000 0.432990 0.020996
0.175082 0.448524 0.077913
0.279576 0.455177 0.123018
0.351232 0.450721 0.170413
0.408545 0.454231 0.209232
0.477882 0.477302 0.202823
0.544305 0.496468 0.188846
0.589990 0.498207 0.201083
0.633356 0.498207 0.214969
0.675593 0.497841 0.228519
0.716609 0.497139 0.241215
0.755215 0.495735 0.254704
0.794217 0.499397 0.265446
0.830838 0.505943 0.274571
0.862181 0.511620 0.285771
0.889128 0.516899 0.298344
0.912627 0.522393 0.313054
0.933104 0.529259 0.329870
0.950988 0.537774 0.350042
0.966339 0.548272 0.372900
0.978546 0.562036 0.401038
0.000000 0.448249 0.044953
0.000000 0.448219 0.042847
0.000000 0.447181 0.031403
0.000000 0.446052 0.012329
0.000000 0.444953 0.000000
0.000000 0.444770 0.000000
0.000000 0.446265 0.000000
0.000000 0.449409 0.000000
0.000000 0.454658 0.000000
0.000000 0.462806 0.000000
0.000000 0.473579 0.000000
0.000000 0.486732 0.000000
0.000000 0.500694 0.000000
0.209232 0.514641 0.039887
0.318730 0.518212 0.126375
0.393530 0.510552 0.183993
0.452705 0.509972 0.229252
0.518151 0.527581 0.232700
0.589990 0.549676 0.216739
0.635065 0.550561 0.223362
0.675868 0.549645 0.241337
0.715206 0.548577 0.257511
0.752010 0.546899 0.273289
0.786221 0.545129 0.289189
0.817502 0.542748 0.305699
0.848203 0.547112 0.317723
0.875608 0.552789 0.330846
0.899657 0.558709 0.346105
0.920714 0.566033 0.364477
0.938872 0.575280 0.386481
0.954406 0.586389 0.411902
0.967254 0.600061 0.440589
0.000000 0.506401 0.000000
0.000000 0.506615 0.000000
0.000000 0.506432 0.000000
0.000000 0.506371 0.000000
0.000000 0.506432 0.000000
0.000000 0.507225 0.000000
0.000000 0.509636 0.000000
0.000000 0.514000 0.000000
0.000000 0.519524 0.000000
0.000000 0.527001 0.000000
0.000000 0.535485 0.000000
0.000000 0.545006 0.000000
0.000000 0.554589 0.000000
0.000000 0.563714 0.000000
0.250034 0.572290 0.036378
0.357275 0.570459 0.139559
0.432166 0.560479 0.201663
0.491341 0.557488 0.251225
0.553613 0.571038 0.266545
0.623865 0.591424 0.253391
0.675135 0.597772 0.251225
0.713832 0.596796 0.273808
0.749752 0.595453 0.293767
0.782834 0.593835 0.313085
0.812680 0.591974 0.331945
0.839506 0.589899 0.351141
0.863828 0.589319 0.370184
0.887633 0.595636 0.386236
0.908415 0.602594 0.404639
0.926238 0.610864 0.425757
0.941405 0.620691 0.450019
0.953918 0.632807 0.477150
0.000000 0.560449 0.000000
0.000000 0.560357 0.000000
0.000000 0.560479 0.000000
0.000000 0.560510 0.000000
0.000000 0.560967 0.000000
0.000000 0.562036 0.000000
0.000000 0.564294 0.000000
0.000000 0.567773 0.000000
0.000000 0.572473 0.000000
0.000000 0.578332 0.000000
0.000000 0.585473 0.000000
0.000000 0.593378 0.000000
0.000000 0.601373 0.000000
0.000000 0.609125 0.000000
0.100465 0.616083 0.000000
0.295048 0.622156 0.083772
0.398169 0.618585 0.162661
0.472816 0.608820 0.226444
0.532616 0.604486 0.280461
0.591089 0.614191 0.308141
0.658289 0.632410 0.298314
0.712764 0.642817 0.293980
0.747890 0.640833 0.314916
0.779538 0.638788 0.338201
0.807858 0.636561 0.360143
0.833219 0.634730 0.381659
0.856260 0.633478 0.403235
0.876768 0.633265 0.425330
0.895689 0.636744 0.446967
0.913237 0.644862 0.468177
0.928099 0.654475 0.492256
0.940429 0.665736 0.518761
0.000000 0.616480 0.000000
0.000000 0.617090 0.000000
0.000000 0.659297 0.000000
0.000000 0.659480 0.000000
0.000000 0.659876 0.000000
0.000000 0.660395 0.000000
0.000000 0.661494 0.000000
0.000000 0.663416 0.000000
0.000000 0.666621 0.000000
0.000000 0.670436 0.000000
0.000000 0.675105 0.000000
0.000000 0.679744 0.000000
0.000000 0.683619 0.000000
0.000000 0.686763 0.000000
0.000000 0.688899 0.000000
0.235477 0.690211 0.095003
0.374640 0.690547 0.164370
0.468025 0.683711 0.226078
0.538048 0.672602 0.285161
0.593774 0.665187 0.339300
0.645380 0.669673 0.378271
0.704494 0.682856 0.371283
0.757229 0.693904 0.366979
0.785489 0.688991 0.380896
0.809476 0.684382 0.403845
0.831296 0.680446 0.424781
0.851194 0.677241 0.444282
0.869352 0.675441 0.464790
0.885924 0.675563 0.486549
0.900725 0.677729 0.510246
0.914580 0.684810 0.534173
0.926635 0.695247 0.559503
0.000000 0.677974 0.000000
0.000000 0.681422 0.000000
0.000000 0.685176 0.000000
0.000000 0.688655 0.000000
0.000000 0.691371 0.000000
0.000000 0.692836 0.000000
0.000000 0.693996 0.000000
0.000000 0.695277 0.000000
0.000000 0.697475 0.000000
0.000000 0.700404 0.000000
0.000000 0.703578 0.000000
0.000000 0.707118 0.000000
0.000000 0.709926 0.000000
0.000000 0.712306 0.000000
0.000000 0.713985 0.000000
0.000000 0.715023 0.023774
0.293553 0.715511 0.148898
0.414038 0.715816 0.204776
0.502007 0.709895 0.263676
0.569940 0.701167 0.321447
0.624048 0.694728 0.376593
0.672328 0.698451 0.427558
0.725734 0.709743 0.424323
0.774472 0.720027 0.422034
0.803586 0.717983 0.428016
0.824277 0.713710 0.451881
0.843046 0.710262 0.473701
0.860227 0.708217 0.495216
0.875883 0.707881 0.517723
0.889982 0.709621 0.541619
0.902434 0.713436 0.566918
0.913420 0.719081 0.592767
0.000000 0.712154 0.000000
0.000000 0.715297 0.000000
0.000000 0.718715 0.000000
0.000000 0.721889 0.000000
0.000000 0.724392 0.000000
0.000000 0.725826 0.000000
0.000000 0.726772 0.000000
0.000000 0.727779 0.000000
0.000000 0.729305 0.000000
0.000000 0.731380 0.000000
0.000000 0.733669 0.000000
0.000000 0.735988 0.000000
0.000000 0.738003 0.000000
0.000000 0.739712 0.000000
0.000000 0.740810 0.000000
0.000000 0.741268 0.000000
0.179385 0.741176 0.146548
0.352850 0.740871 0.205142
0.457893 0.740414 0.253819
0.539239 0.734859 0.308995
0.602655 0.727413 0.364782
0.653620 0.721279 0.419409
0.698787 0.724514 0.471992
0.744625 0.733059 0.478828
0.787411 0.741604 0.478431
0.817929 0.743374 0.481453
0.836179 0.739528 0.502129
0.852323 0.737148 0.525109
0.867002 0.736538 0.548486
0.880400 0.737667 0.572320
0.892515 0.740688 0.596429
0.903349 0.745357 0.620935
0.000000 0.743832 0.091646
0.000000 0.746273 0.096437
0.000000 0.748836 0.095644
0.000000 0.751217 0.084291
0.000000 0.753140 0.033387
0.000000 0.754299 0.000000
0.000000 0.755123 0.000000
0.000000 0.755917 0.000000
0.000000 0.757137 0.000000
0.000000 0.758755 0.000000
0.000000 0.760739 0.000000
0.000000 0.762264 0.000000
0.000000 0.763516 0.000000
0.000000 0.764462 0.000000
0.000000 0.765011 0.000000
0.000000 0.765286 0.012787
0.000000 0.765377 0.157504
0.286381 0.765347 0.217868
0.416358 0.765438 0.269444
0.510185 0.765682 0.317845
0.585809 0.761593 0.374029
0.645838 0.756374 0.431189
0.692531 0.751553 0.485756
0.733913 0.754665 0.539666
0.771115 0.761410 0.557916
0.806455 0.768856 0.561334
0.835569 0.773831 0.566094
0.851164 0.771603 0.582422
0.864073 0.771206 0.605859
0.876005 0.772244 0.628382
0.886992 0.774838 0.650080
0.897215 0.778805 0.670832
0.000000 0.783536 0.172641
0.000000 0.784329 0.173465
0.000000 0.785031 0.170657
0.000000 0.785519 0.163607
0.000000 0.785855 0.152377
0.000000 0.785977 0.132448
0.000000 0.786191 0.095735
0.000000 0.786648 0.000000
0.000000 0.787533 0.000000
0.000000 0.788876 0.000000
0.000000 0.790494 0.000000
0.000000 0.791836 0.000000
0.000000 0.792447 0.000000
0.000000 0.792660 0.000000
0.000000 0.792447 0.000000
0.000000 0.791836 0.121706
0.000000 0.790860 0.192935
0.219944 0.789700 0.247196
0.379736 0.788418 0.295048
0.480995 0.787289 0.340002
0.560327 0.786221 0.383154
0.626276 0.781430 0.435279
0.678370 0.776028 0.486580
0.718959 0.770962 0.535851
0.754482 0.772549 0.584375
0.785153 0.777707 0.607721
0.815640 0.784482 0.612177
0.843229 0.791165 0.618433
0.858579 0.790890 0.630274
0.870054 0.791531 0.652369
0.880827 0.793515 0.672786
0.891112 0.796689 0.691829
0.000000 0.804746 0.215976
0.000000 0.805356 0.216251
0.000000 0.805875 0.214908
0.000000 0.806302 0.211337
0.000000 0.806607 0.202304
0.000000 0.806821 0.190188
0.000000 0.807095 0.169589
0.000000 0.807584 0.139803
0.000000 0.808347 0.085206
0.000000 0.809354 0.000000
0.000000 0.810758 0.000000
0.000000 0.812161 0.000000
0.000000 0.812741 0.000000
0.000000 0.812619 0.000000
0.000000 0.812100 0.024781
0.000000 0.811276 0.162325
0.000000 0.810178 0.222812
0.100496 0.808804 0.273381
0.340276 0.807248 0.319646
0.454292 0.805600 0.364324
0.539055 0.804074 0.407111
0.608026 0.802701 0.448920
0.665492 0.798184 0.498085
0.711208 0.793454 0.546380
0.739345 0.785428 0.576257
0.770474 0.786282 0.619715
0.796750 0.790768 0.647578
0.823575 0.797269 0.653101
0.847837 0.803861 0.660304
0.864591 0.806638 0.670314
0.875792 0.808225 0.689052
0.886229 0.811124 0.707576
0.000000 0.828031 0.275425
0.000000 0.828763 0.277867
0.000000 0.829099 0.278172
0.000000 0.829129 0.273350
0.000000 0.828855 0.266026
0.000000 0.828489 0.254459
0.000000 0.828031 0.239139
0.000000 0.827665 0.218936
0.000000 0.827512 0.192142
0.000000 0.827726 0.153170
0.000000 0.828092 0.079377
0.000000 0.828855 0.000000
0.000000 0.829160 0.000000
0.000000 0.828305 0.000000
0.000000 0.826932 0.111666
0.000000 0.825345 0.183017
0.000000 0.823484 0.236240
0.000000 0.821653 0.283116
0.277562 0.819852 0.328038
0.412818 0.818173 0.372107
0.507286 0.816495 0.415320
0.581170 0.814878 0.456733
0.641444 0.813321 0.496132
0.692012 0.808682 0.541466
0.731106 0.804013 0.583032
0.761013 0.799741 0.620050
0.787381 0.799985 0.656641
0.809384 0.803647 0.684657
0.832456 0.809689 0.690028
0.853819 0.816068 0.697047
0.871031 0.821073 0.706142
0.882322 0.823484 0.720394
0.000000 0.840574 0.312352
0.000000 0.841184 0.314519
0.000000 0.841611 0.314488
0.000000 0.841825 0.311925
0.000000 0.841886 0.306340
0.000000 0.841947 0.299687
0.000000 0.842130 0.289036
0.000000 0.842405 0.274937
0.000000 0.842893 0.257633
0.000000 0.843565 0.236820
0.000000 0.844327 0.207706
0.000000 0.845243 0.166018
0.000000 0.846006 0.108614
0.000000 0.845548 0.123690
0.000000 0.843961 0.187594
0.000000 0.842069 0.236362
0.000000 0.839902 0.280491
0.000000 0.837644 0.322087
0.255924 0.835447 0.363714
0.400580 0.833249 0.405127
0.497169 0.831144 0.446235
0.572686 0.829160 0.486213
0.634241 0.827298 0.524590
0.684504 0.825742 0.559930
0.726864 0.821622 0.599908
0.759548 0.817807 0.635462
0.784573 0.814603 0.666529
0.806546 0.814939 0.696284
0.825284 0.818570 0.723690
0.845060 0.824643 0.729305
0.863767 0.831174 0.736263
0.880980 0.837888 0.744167
0.000000 0.854704 0.364569
0.000000 0.854978 0.365332
0.000000 0.855100 0.364874
0.000000 0.855222 0.362066
0.000000 0.855283 0.357580
0.000000 0.855283 0.351385
0.000000 0.855406 0.342016
0.000000 0.855589 0.332067
0.000000 0.855924 0.318730
0.000000 0.856443 0.302556
0.000000 0.857053 0.282231
0.000000 0.857877 0.257694
0.000000 0.858732 0.225742
0.000000 0.858976 0.206210
0.000000 0.857511 0.240177
0.000000 0.855406 0.280583
0.000000 0.853117 0.319005
0.000000 0.850614 0.357488
0.243107 0.848142 0.396033
0.392493 0.845701 0.435370
0.490669 0.843290 0.474708
0.566491 0.841032 0.512657
0.627741 0.838956 0.548516
0.678126 0.837125 0.581537
0.719112 0.835691 0.611139
0.753994 0.831998 0.644434
0.781155 0.828794 0.673732
0.802060 0.826139 0.698756
0.820798 0.826505 0.723415
0.838010 0.830533 0.747646
0.855406 0.836637 0.755947
0.872618 0.843473 0.762661
0.000000 0.865507 0.410498
0.000000 0.865690 0.411261
0.000000 0.865873 0.410834
0.000000 0.866056 0.409277
0.000000 0.866270 0.406561
0.000000 0.866636 0.403601
0.000000 0.867308 0.400397
0.000000 0.868132 0.396490
0.000000 0.869200 0.391760
0.000000 0.870451 0.385748
0.000000 0.871824 0.378119
0.000000 0.873259 0.367407
0.000000 0.874662 0.354406
0.000000 0.875792 0.340215
0.000000 0.875456 0.348913
0.000000 0.873198 0.383062
0.000000 0.870542 0.416632
0.194308 0.867735 0.450568
0.366827 0.864927 0.485054
0.470375 0.862150 0.520043
0.549004 0.859586 0.554467
0.612207 0.857267 0.586786
0.663203 0.855283 0.615717
0.705531 0.853696 0.641993
0.740383 0.852445 0.665064
0.769436 0.851652 0.685237
0.794369 0.848905 0.708400
0.814145 0.846616 0.728511
0.829862 0.844755 0.746242
0.844297 0.845243 0.763699
0.859098 0.849790 0.782010
0.874022 0.856046 0.790860
0.000000 0.879423 0.495399
0.000000 0.879423 0.495247
0.000000 0.879454 0.494301
0.000000 0.879484 0.492073
0.000000 0.879576 0.489052
0.000000 0.879698 0.485420
0.000000 0.879850 0.481270
0.000000 0.880217 0.475563
0.000000 0.880674 0.469764
0.000000 0.881285 0.462165
0.000000 0.882017 0.453773
0.000000 0.882780 0.444373
0.000000 0.883696 0.432105
0.000000 0.884672 0.416785
