20 Preset/Car Style/【3】LUT video cho PR-AE-FCPX/Tone  (19).cube
# Created by Adobe Lightroom plugin Export LUT (1.24.0)
# www.johnrellis.com/lightroom/exportlut.htm
# Preset: 20汽车质感（素材江湖）
# Color profile: E:\lut插件\exportlut.1.24\exportlut.lrplugin\color profiles\Rec709gamma2.4.icc
LUT_3D_SIZE 8
DOMAIN_MIN 0.000000 0.000000 0.000000
DOMAIN_MAX 0.903226 0.903226 0.903226
0.025208 0.092592 0.095186
0.106508 0.096559 0.100313
0.191073 0.104768 0.115846
0.276799 0.111208 0.133516
0.435889 0.070680 0.150698
0.628565 0.000000 0.162356
0.865324 0.000000 0.176028
1.000000 0.000000 0.206882
0.081514 0.123964 0.123140
0.097292 0.128664 0.127443
0.175845 0.136599 0.134310
0.258701 0.139712 0.145602
0.411444 0.126741 0.157748
0.601740 0.000000 0.166842
0.823209 0.000000 0.178134
0.993439 0.000000 0.206088
0.144564 0.178164 0.174075
0.150332 0.179538 0.176455
0.169558 0.187716 0.181979
0.261784 0.214023 0.185580
0.423865 0.218784 0.188571
0.643091 0.222904 0.198123
0.863493 0.237919 0.224979
1.000000 0.286931 0.269139
0.197665 0.264866 0.233524
0.203006 0.265995 0.235599
0.228794 0.282506 0.248844
0.297215 0.334325 0.281254
0.471443 0.431342 0.306859
0.681697 0.453101 0.325628
0.858244 0.471504 0.349065
0.986786 0.501274 0.387060
0.290806 0.431647 0.356481
0.297459 0.433478 0.359655
0.328222 0.448890 0.378943
0.377996 0.484535 0.405371
0.457893 0.529564 0.438148
0.618860 0.613031 0.469917
0.796841 0.649531 0.495857
0.935302 0.670161 0.551843
0.417090 0.603204 0.505821
0.434516 0.615869 0.520256
0.463233 0.626154 0.536858
0.509636 0.646143 0.563104
0.565515 0.672480 0.587793
0.647608 0.709560 0.626215
0.772854 0.773739 0.683009
0.891234 0.814023 0.712123
0.604517 0.756222 0.676143
0.612085 0.759487 0.681117
0.628748 0.763699 0.689937
0.663020 0.774228 0.709987
0.695308 0.786313 0.724361
0.743008 0.806119 0.747280
0.799649 0.829618 0.776547
0.866087 0.864012 0.818143
0.788815 0.867796 0.820645
0.790768 0.868254 0.821653
0.800748 0.871092 0.827146
0.820340 0.877348 0.838437
0.822690 0.873350 0.835752
0.849058 0.885222 0.849607
0.877470 0.898253 0.864744
0.902190 0.909056 0.877226
0.039490 0.097536 0.123964
0.108675 0.095674 0.132967
0.181582 0.111818 0.134707
0.256382 0.127443 0.152804
0.409491 0.099550 0.164309
0.594263 0.000000 0.172732
0.803464 0.000000 0.183352
0.974365 0.000000 0.205325
0.086213 0.127657 0.133761
0.111330 0.136172 0.142031
0.177798 0.142184 0.150362
0.258061 0.146212 0.160464
0.406653 0.129213 0.169497
0.591516 0.000000 0.177249
0.785489 0.000000 0.186740
0.955383 0.000000 0.207034
0.151888 0.179934 0.179995
0.155734 0.181613 0.181308
0.173465 0.189395 0.187778
0.261448 0.210575 0.192477
0.412268 0.214450 0.195407
0.606561 0.210910 0.203830
0.801846 0.202548 0.220127
0.969787 0.234440 0.254276
0.197726 0.256229 0.232212
0.202090 0.258366 0.233951
0.226902 0.273625 0.247807
0.277684 0.307042 0.267643
0.422461 0.379644 0.282017
0.614466 0.396674 0.298314
0.796994 0.417853 0.314611
0.950530 0.451850 0.351385
0.289525 0.422034 0.353124
0.293553 0.422431 0.354314
0.320287 0.433051 0.369207
0.362493 0.459480 0.389471
0.430274 0.495949 0.413916
0.586206 0.579980 0.442908
0.770657 0.619989 0.470253
0.919463 0.643030 0.523369
0.401892 0.584955 0.490455
0.408820 0.588067 0.494667
0.437293 0.599634 0.511559
0.486946 0.623194 0.541894
0.545647 0.653468 0.570001
0.633295 0.696407 0.613916
0.761044 0.762387 0.669276
0.883207 0.802152 0.696590
0.581598 0.739986 0.657404
0.582544 0.738888 0.656916
0.599145 0.742916 0.665553
0.637415 0.756039 0.688533
0.678218 0.773648 0.710048
0.727504 0.794675 0.733822
0.783291 0.817014 0.760769
0.853788 0.852811 0.803006
0.772488 0.859159 0.809079
0.777523 0.861112 0.812284
0.787594 0.863828 0.817746
0.808835 0.870665 0.830137
0.832242 0.878813 0.843290
0.851926 0.886839 0.852140
0.876066 0.897124 0.863767
0.900877 0.907927 0.876127
0.071809 0.111696 0.172091
0.100465 0.111788 0.177005
0.183444 0.113222 0.192752
0.272496 0.131960 0.193606
0.426581 0.083192 0.207156
0.617029 0.000000 0.215610
0.823941 0.000000 0.235691
0.991791 0.000000 0.264897
0.111360 0.142306 0.178073
0.123873 0.142824 0.182101
0.185122 0.142855 0.196292
0.273136 0.147951 0.198245
0.423560 0.109468 0.207492
0.611597 0.000000 0.215976
0.811185 0.000000 0.235904
0.980041 0.000000 0.263828
0.152132 0.184176 0.193271
0.160220 0.187808 0.196872
0.194797 0.203677 0.212284
0.301488 0.206912 0.219364
0.460121 0.205661 0.231266
0.647791 0.196689 0.248936
0.828367 0.189181 0.270726
0.981445 0.224826 0.303716
0.218692 0.274235 0.260258
0.230655 0.282567 0.268498
0.257542 0.302098 0.284703
0.311131 0.337072 0.311833
0.465156 0.400366 0.332982
0.651698 0.415198 0.348363
0.824735 0.434882 0.367987
0.965576 0.464759 0.401770
0.317906 0.435431 0.383368
0.322087 0.438392 0.385565
0.343389 0.452979 0.398291
0.394018 0.484138 0.429786
0.463416 0.524834 0.459052
0.615045 0.597925 0.482979
0.786923 0.625788 0.511528
0.925536 0.651728 0.554498
0.424018 0.590509 0.511223
0.430030 0.594446 0.515312
0.451759 0.605371 0.527764
0.502861 0.626764 0.559808
0.556725 0.655329 0.585992
0.640284 0.697963 0.628504
0.770047 0.766140 0.680507
0.888121 0.803952 0.713283
0.599908 0.746517 0.673793
0.600763 0.746090 0.673457
0.611749 0.748775 0.678157
0.646143 0.759518 0.697841
0.687495 0.776181 0.720668
0.736904 0.798520 0.745480
0.795224 0.824216 0.775998
0.865721 0.861784 0.816892
0.775235 0.859464 0.812131
0.775631 0.859312 0.812009
0.784756 0.862028 0.816831
0.809598 0.870756 0.831632
0.834775 0.879118 0.846036
0.856443 0.888823 0.856596
0.880613 0.899687 0.868528
0.904540 0.910338 0.880430
0.101259 0.126528 0.212711
0.115236 0.127779 0.218326
0.170108 0.129030 0.240177
0.287510 0.116030 0.282292
0.429511 0.072572 0.292638
0.635004 0.000000 0.310674
0.813809 0.000000 0.324926
0.968780 0.000000 0.342412
0.126314 0.149935 0.223331
0.135653 0.150240 0.228305
0.181949 0.148409 0.249760
0.298589 0.131594 0.292912
0.442451 0.100160 0.299413
0.640497 0.000000 0.315373
0.813046 0.000000 0.328038
0.966888 0.000000 0.344701
0.152804 0.192355 0.237034
0.158480 0.194461 0.244297
0.195163 0.198154 0.271336
0.319371 0.188449 0.314763
0.487434 0.199252 0.327092
0.670497 0.170779 0.343847
0.846738 0.139590 0.363684
0.986511 0.154391 0.381872
0.199832 0.276829 0.287907
0.209262 0.282200 0.292973
0.253788 0.308354 0.317296
0.349279 0.366369 0.370733
0.509239 0.375982 0.382330
0.676783 0.386725 0.398291
0.838590 0.403967 0.420813
0.974884 0.435248 0.451057
0.316136 0.437903 0.405859
0.326116 0.443030 0.411261
0.372900 0.471595 0.441169
0.437903 0.517174 0.485847
0.510185 0.560723 0.524987
0.659174 0.615930 0.547814
0.814420 0.630640 0.571130
0.936828 0.654719 0.595392
0.475746 0.614984 0.563165
0.488899 0.625177 0.573785
0.505699 0.633570 0.581689
0.545464 0.655695 0.605463
0.604669 0.684016 0.640070
0.671870 0.717372 0.671443
0.791989 0.777249 0.709834
0.898405 0.805509 0.740475
0.621118 0.750820 0.694301
0.625666 0.753292 0.697139
0.641230 0.760494 0.705806
0.672114 0.774289 0.723629
0.719417 0.791592 0.751949
0.760464 0.810605 0.771695
0.810361 0.832792 0.796109
0.878447 0.870085 0.829892
0.788846 0.864347 0.823941
0.790402 0.864866 0.824643
0.797940 0.867552 0.828367
0.814725 0.873655 0.837339
0.839811 0.881712 0.851255
0.862760 0.891386 0.863188
0.886442 0.902678 0.874998
0.910735 0.914458 0.887633
0.120211 0.141207 0.284703
0.130922 0.141543 0.292393
0.176944 0.139559 0.317723
0.280217 0.118746 0.371466
0.451972 0.000000 0.437873
0.618067 0.000000 0.446357
0.835477 0.000000 0.464302
0.980865 0.000000 0.478157
0.132265 0.155367 0.298283
0.141634 0.155459 0.305852
0.185183 0.152132 0.330175
0.285832 0.132021 0.379736
0.461891 0.000000 0.447364
0.627436 0.000000 0.452796
0.836759 0.000000 0.468666
0.979919 0.000000 0.481666
0.143130 0.196658 0.327794
0.152193 0.196597 0.333410
0.194003 0.195071 0.355200
0.298405 0.184878 0.404822
0.483162 0.143679 0.468940
0.640162 0.158297 0.464881
0.830014 0.158389 0.479744
0.968841 0.139101 0.487739
0.185336 0.278538 0.351537
0.194949 0.282933 0.356725
0.235843 0.303319 0.382940
0.326909 0.330907 0.447456
0.518059 0.336004 0.514916
0.682582 0.376196 0.514244
0.835477 0.373449 0.517021
0.966644 0.367132 0.518029
0.268894 0.412085 0.421027
0.279484 0.418341 0.426886
0.321080 0.442390 0.449042
0.403052 0.490700 0.494331
0.527062 0.562036 0.562585
0.678889 0.565087 0.568017
0.824643 0.574578 0.580560
0.948333 0.592615 0.599268
0.387915 0.553582 0.517296
0.397375 0.558984 0.522911
0.433570 0.576257 0.541955
0.510826 0.615778 0.586969
0.593622 0.663142 0.639307
0.676356 0.712215 0.689509
0.801663 0.766049 0.723323
0.907622 0.783780 0.749020
0.591791 0.729793 0.684779
0.596399 0.730922 0.686580
0.621729 0.740169 0.699336
0.665949 0.761135 0.724575
0.712764 0.784726 0.752132
0.764126 0.807614 0.781460
0.812528 0.830564 0.804471
0.883146 0.867735 0.829709
0.767391 0.850278 0.813840
0.769100 0.850828 0.814450
0.777646 0.853849 0.818265
0.803281 0.865293 0.832517
0.829679 0.876219 0.846677
0.861479 0.888457 0.864652
0.885374 0.900420 0.876341
0.909911 0.912535 0.888518
0.115633 0.149233 0.399084
0.127993 0.148562 0.405951
0.178683 0.143771 0.427161
0.273075 0.122316 0.473060
0.439979 0.000000 0.553765
0.650752 0.000000 0.623987
0.802914 0.000000 0.618708
0.986267 0.000000 0.636133
0.121126 0.158602 0.399023
0.132967 0.157809 0.403906
0.179904 0.153140 0.424933
0.271702 0.135042 0.470558
0.432105 0.000000 0.545098
0.641413 0.000000 0.615412
0.794003 0.000000 0.611780
0.978637 0.000000 0.630274
0.121645 0.196597 0.432929
0.134829 0.196292 0.437781
0.187015 0.194064 0.459907
0.283268 0.183444 0.498146
0.447211 0.138277 0.566766
0.662196 0.000000 0.634760
0.812741 0.103639 0.630274
0.981994 0.224521 0.644923
0.157015 0.287114 0.462043
0.167422 0.288884 0.468147
0.224674 0.306188 0.499886
0.319371 0.316533 0.549157
0.485573 0.318364 0.616876
0.705104 0.316350 0.679774
0.845426 0.386236 0.672511
0.983124 0.450202 0.681849
0.237949 0.403204 0.484962
0.247227 0.407324 0.489082
0.285771 0.425635 0.507774
0.360967 0.463752 0.547295
0.487037 0.507378 0.627100
0.696040 0.525139 0.692500
0.837705 0.572290 0.692073
0.956847 0.574243 0.690547
0.344244 0.546288 0.553857
0.355657 0.553552 0.561028
0.391760 0.570062 0.576837
0.462531 0.602716 0.608301
0.566339 0.651972 0.656794
0.705806 0.726680 0.731807
0.832883 0.734035 0.741512
0.933318 0.743313 0.751003
0.507317 0.693050 0.660060
0.517693 0.698024 0.665614
0.549737 0.710780 0.680354
0.611688 0.736233 0.710201
0.701472 0.775143 0.757107
0.781308 0.814755 0.802914
0.831632 0.840848 0.829221
0.900816 0.871611 0.846769
0.715724 0.831388 0.796078
0.718318 0.831693 0.796719
0.736019 0.836820 0.804105
0.774838 0.850340 0.822416
0.819333 0.867552 0.844297
0.855131 0.884428 0.863340
0.888396 0.900481 0.881895
0.913695 0.913909 0.894408
0.037018 0.150301 0.525628
0.089387 0.148836 0.532189
0.164675 0.141176 0.551019
0.268406 0.115236 0.590356
0.413184 0.000000 0.645563
0.612451 0.000000 0.713619
0.814084 0.000000 0.762844
0.928771 0.000000 0.746548
0.045106 0.158022 0.522728
0.091157 0.156863 0.529625
0.163699 0.150118 0.547967
0.264988 0.127840 0.584497
0.406989 0.000000 0.638514
0.602747 0.000000 0.704860
0.802213 0.000000 0.753231
0.916930 0.000000 0.736324
0.006806 0.192325 0.545098
0.076967 0.191318 0.549218
0.163210 0.187137 0.565606
0.268894 0.174594 0.599725
0.412726 0.132082 0.649866
0.611566 0.000000 0.715206
0.818540 0.000000 0.767117
0.934844 0.000000 0.754543
0.082490 0.277897 0.573724
0.109987 0.277226 0.575891
0.180056 0.277195 0.590723
0.284367 0.277440 0.624567
0.428565 0.270085 0.673152
0.629786 0.241215 0.736843
0.839384 0.229526 0.787961
0.947143 0.346654 0.774807
0.176303 0.385565 0.559869
0.184634 0.386633 0.563745
0.219364 0.395361 0.585290
0.295811 0.414282 0.631922
0.431403 0.432105 0.683497
0.622644 0.439765 0.744717
0.836118 0.461952 0.797269
0.945006 0.548241 0.793790
0.268589 0.519677 0.606439
0.277043 0.522667 0.609400
0.311772 0.534295 0.621180
0.377356 0.557702 0.644923
0.479072 0.595941 0.682368
0.637446 0.650141 0.763027
0.836942 0.682216 0.821012
0.934752 0.729488 0.821347
0.427893 0.666865 0.676753
0.436286 0.670283 0.680079
0.466682 0.680568 0.690089
0.526299 0.702144 0.711116
0.613153 0.735164 0.743587
0.724453 0.782101 0.789517
0.840909 0.841703 0.845609
0.919127 0.843717 0.848264
0.598383 0.790707 0.761715
0.604761 0.792721 0.764126
0.633600 0.802487 0.775540
0.682979 0.818051 0.794186
0.751858 0.840421 0.821195
0.831052 0.870298 0.855985
0.890684 0.900145 0.887541
0.921080 0.917845 0.904295
0.000000 0.144625 0.696803
0.000000 0.142611 0.700771
0.166262 0.130343 0.710414
0.288823 0.090150 0.734859
0.430335 0.000000 0.769039
0.602869 0.000000 0.810269
0.808133 0.000000 0.855528
0.972076 0.000000 0.880308
0.000000 0.153658 0.692134
0.000000 0.151736 0.696315
0.161501 0.141238 0.707546
0.284520 0.108614 0.731106
0.425635 0.000000 0.765438
0.598138 0.000000 0.807095
0.802365 0.000000 0.851957
0.966766 0.000000 0.876829
0.000000 0.190524 0.695552
0.000000 0.189212 0.698634
0.150454 0.182376 0.708949
0.281590 0.165408 0.736019
0.423621 0.110048 0.768215
0.595911 0.000000 0.807919
0.801633 0.000000 0.852873
0.967895 0.000000 0.878264
0.000000 0.263645 0.700221
0.000000 0.263584 0.703853
0.133028 0.261112 0.714870
0.272679 0.255680 0.738949
0.419532 0.239353 0.772732
0.595850 0.193698 0.813565
0.803983 0.000000 0.858030
0.972320 0.000000 0.883818
0.000000 0.361212 0.693477
0.000000 0.361334 0.697841
0.000000 0.365972 0.711055
0.246250 0.372229 0.736110
0.397253 0.372137 0.770382
0.577630 0.364782 0.812741
0.791867 0.346563 0.858701
0.967193 0.382788 0.887327
0.123873 0.493416 0.681697
0.137911 0.492927 0.681788
0.185489 0.493751 0.685023
0.255558 0.501488 0.708644
0.363226 0.514366 0.757076
0.559686 0.547509 0.812161
0.779019 0.573877 0.863218
0.952789 0.622248 0.893797
0.310460 0.644709 0.734920
0.317510 0.645502 0.735744
0.345983 0.649683 0.739986
0.403174 0.660975 0.751095
0.487190 0.680385 0.770016
0.600763 0.711666 0.799313
0.772519 0.765530 0.861845
0.927642 0.803067 0.897795
0.535424 0.784817 0.795529
0.539818 0.785550 0.796170
0.560571 0.790127 0.800443
0.604456 0.800992 0.810544
0.669245 0.817594 0.825864
0.752682 0.841215 0.847166
0.845274 0.874754 0.876097
0.926482 0.918975 0.913756
