20 Preset/Car Style/【3】LUT video cho PR-AE-FCPX/Tone  (16).cube
# Created by Adobe Lightroom plugin Export LUT (1.24.0)
# www.johnrellis.com/lightroom/exportlut.htm
# Preset: 17汽车质感（素材江湖）
# Color profile: E:\lut插件\exportlut.1.24\exportlut.lrplugin\color profiles\Rec709gamma2.4.icc
LUT_3D_SIZE 5
DOMAIN_MIN 0.000000 0.000000 0.000000
DOMAIN_MAX 0.903226 0.903226 0.903226
0.000000 0.037903 0.033387
0.122499 0.056580 0.049195
0.364233 0.000000 0.077119
0.728756 0.000000 0.087587
1.000000 0.000000 0.128969
0.000000 0.139803 0.074525
0.121401 0.146456 0.067720
0.363378 0.145998 0.075654
0.731716 0.110780 0.057496
1.000000 0.233646 0.127474
0.000000 0.404486 0.029603
0.000000 0.399878 0.040925
0.415381 0.467201 0.000000
0.748653 0.482856 0.000000
0.999451 0.518090 0.091493
0.000000 0.731533 0.179782
0.000000 0.731960 0.185611
0.367834 0.742458 0.190311
0.741115 0.770016 0.164828
0.985199 0.785000 0.252354
0.483803 0.931456 0.510674
0.510430 0.930938 0.514122
0.575799 0.922118 0.501274
0.782437 0.927550 0.526238
0.956298 0.934569 0.550805
0.000000 0.075441 0.121553
0.112123 0.080903 0.124086
0.334417 0.031800 0.148867
0.706844 0.000000 0.183352
1.000000 0.000000 0.233616
0.006744 0.144472 0.138064
0.132387 0.147311 0.146181
0.367773 0.149294 0.159365
0.706996 0.114473 0.181308
1.000000 0.221866 0.234195
0.000000 0.394934 0.167697
0.000000 0.394842 0.169375
0.396338 0.434058 0.152377
0.710323 0.454475 0.159670
0.989960 0.516777 0.242252
0.000000 0.728573 0.278599
0.000000 0.730037 0.283452
0.382238 0.737545 0.291722
0.738247 0.765194 0.284581
0.978637 0.781735 0.340551
0.501915 0.929870 0.546044
0.525383 0.929107 0.547814
0.616419 0.927855 0.562188
0.792996 0.930480 0.578912
0.957671 0.938109 0.603632
0.000000 0.115541 0.304753
0.124727 0.115541 0.304601
0.329961 0.090272 0.307958
0.616205 0.145541 0.365393
0.975555 0.193454 0.460548
0.000000 0.188968 0.346990
0.141909 0.177981 0.341955
0.357366 0.162875 0.335607
0.644099 0.235142 0.393683
0.984985 0.301396 0.480385
0.000000 0.421576 0.394202
0.033417 0.423865 0.400519
0.414099 0.433417 0.428626
0.715389 0.472541 0.460426
0.978790 0.540612 0.515312
0.052735 0.724331 0.472969
0.237827 0.721157 0.480446
0.448859 0.724727 0.504906
0.733822 0.755306 0.523064
0.955474 0.769497 0.543023
0.536156 0.922759 0.643641
0.560662 0.922881 0.647120
0.643275 0.922271 0.657771
0.783474 0.923796 0.672999
0.947051 0.933501 0.693263
0.000000 0.176669 0.609552
0.000000 0.175265 0.607752
0.382605 0.155581 0.593439
0.620294 0.105806 0.588281
0.878813 0.316808 0.640742
0.000000 0.248600 0.628321
0.105165 0.246433 0.624079
0.395209 0.231235 0.605676
0.623926 0.210880 0.593927
0.877836 0.377905 0.648096
0.000000 0.499886 0.667597
0.183474 0.492988 0.665492
0.418402 0.458686 0.657374
0.648127 0.435340 0.632593
0.893706 0.575708 0.700343
0.000000 0.735103 0.701595
0.177493 0.732570 0.701534
0.461097 0.731991 0.711971
0.717617 0.732662 0.734859
0.940887 0.767300 0.764218
0.531060 0.921141 0.755520
0.561181 0.920928 0.759762
0.670100 0.921355 0.779751
0.795377 0.920439 0.801053
0.938903 0.932097 0.816770
0.257694 0.352514 0.872770
0.327398 0.350652 0.870573
0.513573 0.343542 0.864103
0.722805 0.315892 0.848264
0.913634 0.315831 0.842588
0.264958 0.401556 0.871824
0.332036 0.399390 0.870024
0.512230 0.389746 0.863218
0.718441 0.360266 0.846952
0.909392 0.357671 0.841184
0.342016 0.589136 0.878111
0.359228 0.570397 0.876860
0.512749 0.546288 0.870176
0.713161 0.510735 0.853635
0.906859 0.502770 0.848173
0.416815 0.792813 0.884398
0.450813 0.790188 0.883940
0.576654 0.782589 0.884916
0.726955 0.734890 0.881193
0.911254 0.717494 0.872648
0.543755 0.930541 0.894408
0.567864 0.929503 0.894682
0.664332 0.927367 0.898161
0.797696 0.923278 0.904143
0.931609 0.922271 0.915587
