20 Preset/Car Style/【3】LUT video cho PR-AE-FCPX/Tone  (4).cube
# Created by Adobe Lightroom plugin Export LUT (1.24.0)
# www.johnrellis.com/lightroom/exportlut.htm
# Preset: 05汽车质感（素材江湖）
# Color profile: E:\lut插件\exportlut.1.24\exportlut.lrplugin\color profiles\Rec709gamma2.4.icc
LUT_3D_SIZE 8
DOMAIN_MIN 0.000000 0.000000 0.000000
DOMAIN_MAX 0.903226 0.903226 0.903226
0.121065 0.116884 0.133120
0.139376 0.115602 0.133913
0.203616 0.115755 0.135531
0.324041 0.109743 0.137850
0.468879 0.091249 0.138094
0.606439 0.039704 0.139467
0.740932 0.000000 0.147921
0.857542 0.032288 0.170901
0.121584 0.135683 0.135897
0.138277 0.136934 0.137301
0.207034 0.136049 0.137697
0.324590 0.137636 0.138308
0.466041 0.132723 0.138155
0.602136 0.122713 0.139803
0.732296 0.114931 0.148104
0.850370 0.124239 0.170138
0.123323 0.208621 0.148074
0.146334 0.207828 0.151003
0.217929 0.226261 0.151431
0.358526 0.243107 0.137697
0.482155 0.229862 0.136843
0.617334 0.233249 0.140627
0.745052 0.236240 0.155367
0.858946 0.242954 0.184543
0.093721 0.344091 0.162997
0.138827 0.343053 0.166506
0.234470 0.352850 0.177218
0.366155 0.393927 0.190066
0.545983 0.432776 0.158358
0.643915 0.372503 0.152102
0.752590 0.360784 0.173373
0.860105 0.363867 0.208713
0.076448 0.484474 0.213382
0.140169 0.483925 0.217807
0.249393 0.483772 0.236332
0.364019 0.511650 0.256413
0.502098 0.554528 0.286168
0.675349 0.603449 0.277226
0.769253 0.539971 0.247715
0.857816 0.484108 0.241886
0.136263 0.610224 0.288975
0.174411 0.612696 0.294255
0.268193 0.612573 0.308721
0.373175 0.621790 0.333165
0.487068 0.652583 0.363714
0.615778 0.691341 0.408972
0.776028 0.750423 0.446021
0.877409 0.702541 0.397772
0.224796 0.729580 0.382269
0.245640 0.730129 0.385718
0.311009 0.729763 0.396796
0.401556 0.729885 0.419623
0.497047 0.748165 0.449622
0.604425 0.776394 0.491463
0.717891 0.807126 0.544762
0.836576 0.846311 0.612818
0.347417 0.844968 0.499611
0.358373 0.844877 0.501976
0.400519 0.844877 0.512200
0.469398 0.845243 0.532769
0.542687 0.844938 0.553338
0.629511 0.858793 0.591211
0.717250 0.870359 0.636591
0.795865 0.877623 0.684504
0.117403 0.116518 0.151431
0.138613 0.115206 0.152438
0.200320 0.116243 0.155581
0.320012 0.102754 0.158999
0.463844 0.053468 0.160800
0.599664 0.000000 0.164431
0.727504 0.000000 0.173861
0.844785 0.000000 0.194278
0.120821 0.136019 0.154818
0.141756 0.136812 0.155795
0.205997 0.136934 0.157870
0.325231 0.132052 0.159396
0.465736 0.120180 0.160922
0.600549 0.107118 0.164736
0.724392 0.100038 0.173953
0.840574 0.115145 0.194369
0.117830 0.210880 0.165347
0.145083 0.210117 0.168521
0.217319 0.223301 0.173861
0.352422 0.230472 0.161654
0.479042 0.223697 0.160830
0.609491 0.225528 0.166903
0.731075 0.227726 0.180392
0.846433 0.236454 0.206088
0.067628 0.341436 0.183017
0.132357 0.340764 0.186648
0.233097 0.346807 0.200229
0.357458 0.381903 0.214786
0.526452 0.411841 0.189395
0.624475 0.353887 0.176242
0.736995 0.351049 0.195132
0.847532 0.356542 0.225467
0.063050 0.482063 0.232486
0.135683 0.481178 0.236118
0.247959 0.479927 0.252293
0.360296 0.502983 0.272404
0.494606 0.543603 0.300816
0.665217 0.590875 0.291325
0.759701 0.529198 0.262547
0.850492 0.479255 0.256870
0.133486 0.605859 0.299657
0.171145 0.606012 0.303258
0.265415 0.606195 0.317021
0.370642 0.614343 0.341894
0.484230 0.646082 0.372595
0.612909 0.686427 0.418555
0.773068 0.745602 0.452033
0.872526 0.696620 0.404822
0.220859 0.725032 0.386816
0.239811 0.724361 0.388891
0.306371 0.723934 0.399573
0.397833 0.724636 0.422370
0.494759 0.743191 0.453590
0.601831 0.771847 0.494942
0.714565 0.802609 0.546349
0.834714 0.843076 0.610956
0.341375 0.841764 0.499763
0.353735 0.842252 0.503044
0.396185 0.842191 0.512840
0.465736 0.842710 0.533288
0.546777 0.846311 0.561883
0.631281 0.858854 0.596918
0.717525 0.869810 0.639918
0.796078 0.877226 0.687312
0.111940 0.114656 0.215518
0.134005 0.113863 0.217868
0.205600 0.110109 0.226749
0.327092 0.072755 0.246098
0.471626 0.000000 0.253971
0.608789 0.000000 0.257633
0.733883 0.000000 0.270024
0.848875 0.010132 0.288609
0.107027 0.132998 0.222782
0.131777 0.132418 0.225132
0.210758 0.127291 0.232731
0.333318 0.107546 0.244999
0.473182 0.041444 0.250187
0.607660 0.011780 0.257023
0.730587 0.055848 0.269444
0.845518 0.118532 0.287816
0.071809 0.213382 0.241062
0.115908 0.214694 0.242527
0.225071 0.218967 0.248203
0.352361 0.216220 0.249149
0.486427 0.214878 0.253849
0.615320 0.217899 0.263432
0.734401 0.225101 0.276097
0.847105 0.239963 0.295628
0.000000 0.350011 0.265263
0.093294 0.351843 0.267521
0.236454 0.351232 0.276768
0.362188 0.377630 0.301488
0.516045 0.382971 0.282444
0.626307 0.350744 0.273228
0.740230 0.354040 0.289464
0.849210 0.361822 0.310826
0.000000 0.486519 0.300023
0.114015 0.486213 0.303166
0.248417 0.485573 0.316991
0.366766 0.498268 0.341466
0.498299 0.540612 0.373022
0.659297 0.574456 0.361975
0.751583 0.511284 0.330724
0.849760 0.482704 0.331548
0.132052 0.607416 0.352728
0.171878 0.607721 0.355871
0.268833 0.607630 0.367315
0.377264 0.608148 0.390539
0.487373 0.639399 0.421576
0.613458 0.680964 0.467018
0.770474 0.736965 0.492439
0.866758 0.687007 0.450874
0.228855 0.726925 0.426001
0.247410 0.726406 0.427863
0.312352 0.725521 0.436896
0.403326 0.725551 0.456611
0.500298 0.738918 0.487068
0.606439 0.769100 0.528679
0.718715 0.802304 0.579797
0.839384 0.843442 0.635798
0.343633 0.842069 0.522362
0.354253 0.841764 0.524010
0.397009 0.841642 0.533165
0.468269 0.842802 0.553277
0.550103 0.843748 0.580255
0.635554 0.857633 0.615839
0.721798 0.869261 0.658442
0.799344 0.877043 0.704738
0.076997 0.107454 0.339757
0.121584 0.104921 0.343389
0.215427 0.090364 0.353124
0.334478 0.000000 0.367956
0.470954 0.000000 0.380835
0.607233 0.000000 0.385870
0.728817 0.000000 0.390265
0.841154 0.006653 0.402655
0.000000 0.124392 0.349584
0.100435 0.121798 0.351995
0.212650 0.107729 0.359930
0.339483 0.020600 0.373663
0.476905 0.000000 0.382025
0.609613 0.000000 0.385534
0.728603 0.000000 0.390875
0.840299 0.131807 0.404730
0.000000 0.203769 0.364202
0.000000 0.199313 0.366583
0.176944 0.183566 0.374609
0.350744 0.163088 0.386053
0.493477 0.172244 0.384619
0.616999 0.202945 0.391150
0.734096 0.236728 0.404944
0.843259 0.266087 0.419013
0.000000 0.347356 0.386938
0.000000 0.348241 0.387884
0.175998 0.352605 0.393011
0.364141 0.360327 0.402106
0.495338 0.358007 0.402045
0.616449 0.359136 0.405524
0.732052 0.364385 0.413275
0.842679 0.374151 0.425452
0.000000 0.487434 0.403967
0.000000 0.488075 0.405280
0.230900 0.491981 0.413336
0.374182 0.494667 0.430701
0.501335 0.529351 0.465919
0.639551 0.532799 0.449622
0.739162 0.486641 0.423560
0.845670 0.491615 0.439063
0.160372 0.613397 0.444678
0.177279 0.615717 0.443824
0.266545 0.615503 0.446571
0.386389 0.615686 0.466011
0.497322 0.632105 0.496803
0.617914 0.674617 0.540642
0.762997 0.716335 0.550713
0.856626 0.664271 0.510796
0.222446 0.728878 0.484810
0.244236 0.729122 0.487129
0.315679 0.729397 0.496162
0.411322 0.730098 0.514183
0.511101 0.733028 0.541466
0.614679 0.764981 0.581567
0.724422 0.800168 0.628687
0.847135 0.841764 0.668452
0.340032 0.844694 0.561303
0.351720 0.844602 0.563073
0.396551 0.844388 0.571099
0.468482 0.844419 0.587213
0.552728 0.844419 0.611261
0.640436 0.854704 0.645319
0.727901 0.867857 0.687373
0.805051 0.876646 0.733730
0.000000 0.089540 0.474342
0.076356 0.083070 0.477028
0.208774 0.028870 0.484047
0.333318 0.000000 0.497200
0.468635 0.000000 0.512047
0.604944 0.000000 0.518883
0.728023 0.000000 0.515984
0.841245 0.000000 0.517937
0.000000 0.108248 0.480873
0.000000 0.104067 0.483040
0.199069 0.079377 0.489326
0.331823 0.000000 0.500603
0.471778 0.000000 0.515435
0.607996 0.000000 0.519829
0.729183 0.000000 0.515923
0.841123 0.000000 0.518334
0.000000 0.172763 0.493751
0.000000 0.171054 0.495033
0.133791 0.162081 0.499825
0.320104 0.138125 0.510521
0.479133 0.083742 0.523095
0.613092 0.110658 0.519585
0.729366 0.156069 0.515312
0.837858 0.215610 0.519829
0.000000 0.321355 0.504601
0.000000 0.320592 0.505608
0.000000 0.317235 0.511254
0.303777 0.307866 0.523430
0.489998 0.297368 0.535760
0.620325 0.320958 0.524010
0.727901 0.349462 0.525200
0.833646 0.376562 0.534630
0.000000 0.475654 0.520531
0.000000 0.476692 0.521599
0.075074 0.480293 0.525414
0.323400 0.487282 0.532494
0.491218 0.497383 0.542290
0.608179 0.495125 0.541070
0.721218 0.496345 0.543145
0.831693 0.501152 0.548699
0.000000 0.598383 0.520806
0.000000 0.599237 0.521874
0.198337 0.601434 0.526116
0.359014 0.607233 0.538201
0.491096 0.612543 0.559075
0.613489 0.654353 0.604425
0.741115 0.666224 0.596704
0.839719 0.615442 0.559045
0.174319 0.724300 0.556390
0.202548 0.724300 0.557305
0.289921 0.725765 0.562585
0.388067 0.728542 0.569238
0.506035 0.730282 0.593256
0.613184 0.749935 0.628870
0.726314 0.791562 0.676112
0.847471 0.825345 0.694362
0.269291 0.842802 0.595727
0.285222 0.842710 0.596765
0.347784 0.842313 0.603876
0.441627 0.843626 0.620844
0.540246 0.843839 0.643549
0.636530 0.846708 0.673884
0.730617 0.863645 0.717281
0.810239 0.874540 0.764187
0.000000 0.016266 0.602319
0.000000 0.000610 0.603754
0.192752 0.000000 0.607752
0.324620 0.000000 0.616510
0.457801 0.000000 0.631281
0.594842 0.000000 0.643091
0.727321 0.000000 0.646693
0.842954 0.000000 0.640528
0.000000 0.070863 0.602075
0.000000 0.056123 0.603082
0.177737 0.000000 0.607263
0.318212 0.000000 0.616052
0.454322 0.000000 0.629511
0.593225 0.000000 0.641505
0.725795 0.000000 0.644770
0.841001 0.000000 0.638575
0.000000 0.154421 0.612970
0.000000 0.152102 0.613703
0.057832 0.142245 0.617914
0.297673 0.116182 0.624079
0.450172 0.000000 0.635828
0.598474 0.000000 0.646967
0.731106 0.000000 0.647059
0.843229 0.106966 0.638849
0.000000 0.294499 0.622248
0.000000 0.292210 0.623072
0.000000 0.282536 0.628321
0.265965 0.279179 0.636866
0.446235 0.268833 0.648096
0.608667 0.261082 0.658259
0.738705 0.293950 0.651881
0.846036 0.320989 0.642542
0.000000 0.445228 0.625879
0.000000 0.445167 0.626490
0.000000 0.445075 0.629511
0.261204 0.445686 0.635798
0.434089 0.442237 0.648280
0.607507 0.438270 0.660090
0.731533 0.459205 0.647761
0.834775 0.482795 0.646998
0.000000 0.592157 0.634607
0.000000 0.593408 0.635950
0.000000 0.595758 0.638117
0.279576 0.600671 0.642481
0.447028 0.608698 0.649653
0.603967 0.623743 0.662928
0.716213 0.624384 0.663752
0.828305 0.626429 0.666194
0.000000 0.714321 0.632349
0.000000 0.715328 0.633478
0.108461 0.717494 0.636286
0.323003 0.721920 0.643458
0.476051 0.729671 0.658045
0.607172 0.736965 0.680995
0.729061 0.780575 0.729000
0.842130 0.789242 0.723568
0.151980 0.837858 0.661189
0.183627 0.837827 0.661524
0.274876 0.838743 0.664576
0.390723 0.841672 0.673060
0.501030 0.844480 0.682734
0.624018 0.844755 0.710750
0.731411 0.856718 0.752255
0.817899 0.872251 0.802365
0.000000 0.000000 0.717403
0.000000 0.000000 0.718654
0.172885 0.000000 0.721187
0.313664 0.000000 0.726955
0.442451 0.000000 0.735134
0.573663 0.000000 0.746029
0.706020 0.000000 0.753658
0.834989 0.000000 0.756527
0.000000 0.000000 0.716213
0.000000 0.000000 0.717586
0.154665 0.000000 0.720241
0.305608 0.000000 0.725277
0.437781 0.000000 0.733181
0.570245 0.000000 0.743587
0.703120 0.000000 0.750759
0.831296 0.000000 0.752987
0.000000 0.126802 0.722042
0.000000 0.124086 0.722591
0.000000 0.110109 0.724636
0.278019 0.054292 0.729305
0.427222 0.000000 0.736355
0.568017 0.000000 0.746670
0.707240 0.000000 0.754879
0.837613 0.000000 0.756863
0.000000 0.254612 0.728969
0.000000 0.253635 0.729000
0.000000 0.250797 0.730678
0.224308 0.245640 0.735348
0.409888 0.235477 0.742245
0.564752 0.217868 0.752773
0.713130 0.213535 0.761288
0.842924 0.253971 0.759518
0.000000 0.412085 0.727138
0.000000 0.410742 0.727260
0.000000 0.406134 0.729641
0.133516 0.396368 0.735927
0.381537 0.391882 0.743587
0.552819 0.386603 0.753994
0.713771 0.389654 0.763424
0.844022 0.423529 0.758663
0.000000 0.558801 0.731014
0.000000 0.558862 0.731472
0.000000 0.558648 0.733089
0.151125 0.558373 0.736507
0.377447 0.558923 0.742000
0.545892 0.563134 0.755642
0.715724 0.569146 0.768734
0.838590 0.588128 0.758755
0.000000 0.703975 0.738033
0.000000 0.704646 0.738674
0.000000 0.706142 0.739925
0.198672 0.709621 0.742763
0.398657 0.715267 0.747402
0.557580 0.725032 0.755398
0.711666 0.742702 0.770077
0.822934 0.743221 0.770871
0.000000 0.827420 0.732906
0.000000 0.827817 0.733394
0.000000 0.829892 0.735744
0.229282 0.832792 0.739559
0.421576 0.836912 0.746700
0.581537 0.842802 0.761440
0.722438 0.846983 0.789609
0.825437 0.868589 0.840574
0.000000 0.000000 0.829618
0.000000 0.000000 0.830289
0.158724 0.000000 0.831266
0.306157 0.000000 0.834623
0.434058 0.000000 0.839475
0.559899 0.000000 0.845884
0.688808 0.000000 0.854337
0.817075 0.000000 0.858732
0.000000 0.000000 0.828733
0.000000 0.000000 0.829404
0.134585 0.000000 0.830747
0.298283 0.000000 0.833860
0.429786 0.000000 0.838712
0.557519 0.000000 0.845121
0.687068 0.000000 0.853239
0.815763 0.000000 0.857420
0.000000 0.058503 0.830350
0.000000 0.046296 0.830777
0.000000 0.000000 0.831876
0.264897 0.000000 0.835843
0.414862 0.000000 0.840146
0.550347 0.000000 0.845914
0.684688 0.000000 0.854002
0.816464 0.000000 0.858274
0.000000 0.220615 0.832822
0.000000 0.219883 0.833371
0.000000 0.216098 0.834592
0.185245 0.208865 0.837797
0.386389 0.196658 0.842344
0.537987 0.176394 0.848356
0.680903 0.143557 0.856443
0.819120 0.141482 0.861021
0.000000 0.367987 0.833249
0.000000 0.365972 0.833890
0.000000 0.355138 0.835477
0.000000 0.348028 0.838712
0.334478 0.344610 0.843046
0.514397 0.339696 0.849210
0.671748 0.333776 0.857603
0.820890 0.344884 0.863218
0.000000 0.523369 0.832090
0.000000 0.522026 0.832029
0.000000 0.517266 0.832242
0.000000 0.509209 0.834958
0.260990 0.497444 0.840940
0.484962 0.498787 0.849485
0.662165 0.506706 0.859495
0.822782 0.523583 0.866392
0.000000 0.674830 0.836973
0.000000 0.674525 0.837034
0.000000 0.673487 0.837369
0.000000 0.672297 0.838773
0.280583 0.671321 0.841154
0.479103 0.671626 0.845304
0.653559 0.680598 0.856474
0.819638 0.696223 0.865446
0.000000 0.821286 0.841733
0.000000 0.821347 0.841733
0.000000 0.821897 0.842161
0.000000 0.823514 0.843351
0.326024 0.825986 0.845121
0.505608 0.829770 0.847837
0.672480 0.836362 0.852811
0.817105 0.849516 0.863767
