20 Preset/Car Style/【3】LUT video cho PR-AE-FCPX/Tone  (18).cube
# Created by Adobe Lightroom plugin Export LUT (1.24.0)
# www.johnrellis.com/lightroom/exportlut.htm
# Preset: 19汽车质感（素材江湖）
# Color profile: E:\lut插件\exportlut.1.24\exportlut.lrplugin\color profiles\Rec709gamma2.4.icc
LUT_3D_SIZE 5
DOMAIN_MIN 0.000000 0.000000 0.000000
DOMAIN_MAX 0.903226 0.903226 0.903226
0.083467 0.094362 0.099886
0.179629 0.097841 0.102510
0.442145 0.091524 0.093904
0.726772 0.027314 0.041291
0.966918 0.000092 0.041840
0.000000 0.189456 0.126680
0.154269 0.177676 0.135927
0.365820 0.223575 0.165499
0.707118 0.253574 0.129274
0.965911 0.250767 0.110048
0.000000 0.460578 0.211246
0.000000 0.450568 0.183780
0.387091 0.435004 0.264958
0.583948 0.472847 0.376684
0.837949 0.538750 0.426795
0.000000 0.708186 0.355993
0.000000 0.706203 0.342046
0.238163 0.691554 0.363622
0.607691 0.664485 0.442939
0.788388 0.699428 0.574212
0.000000 0.889067 0.548974
0.000000 0.888212 0.546715
0.202365 0.876188 0.534997
0.604120 0.865293 0.600916
0.806699 0.852934 0.678096
0.066743 0.093965 0.187930
0.176211 0.092409 0.194339
0.431037 0.000000 0.211093
0.715816 0.000000 0.172152
0.945769 0.000000 0.186648
0.000000 0.185550 0.204379
0.183047 0.195895 0.203983
0.440436 0.192416 0.199893
0.712734 0.191135 0.199771
0.942016 0.198764 0.209537
0.000000 0.456611 0.299077
0.000000 0.450690 0.272587
0.387427 0.426032 0.308019
0.572045 0.469245 0.403723
0.853025 0.529412 0.430365
0.000000 0.706752 0.411353
0.000000 0.705501 0.399817
0.260624 0.692836 0.401709
0.613733 0.665034 0.471351
0.788052 0.701595 0.592004
0.000000 0.887877 0.573846
0.000000 0.886717 0.570916
0.291936 0.883543 0.568170
0.620081 0.870298 0.625055
0.815396 0.858518 0.696895
0.000000 0.037659 0.438239
0.203464 0.000000 0.442023
0.440284 0.000000 0.451637
0.705715 0.000000 0.464302
0.943389 0.000000 0.433783
0.000000 0.164065 0.453407
0.135683 0.159762 0.453407
0.446845 0.156985 0.457893
0.709010 0.127108 0.459144
0.947356 0.000000 0.422431
0.000000 0.433967 0.472175
0.000000 0.438239 0.470954
0.454658 0.461128 0.465278
0.705440 0.455543 0.459998
0.924804 0.456428 0.460975
0.000000 0.711055 0.567803
0.147799 0.703731 0.561913
0.378363 0.696101 0.529808
0.642542 0.674220 0.567315
0.790585 0.712734 0.654170
0.262760 0.882444 0.654871
0.303563 0.882139 0.652033
0.419013 0.879576 0.642329
0.626337 0.869108 0.665064
0.819547 0.855558 0.723720
0.000000 0.000000 0.683162
0.191196 0.000000 0.684962
0.441962 0.000000 0.689693
0.689509 0.000000 0.693690
0.918608 0.000000 0.684382
0.000000 0.127657 0.687343
0.056580 0.117433 0.687861
0.429114 0.069459 0.689387
0.685389 0.055909 0.689540
0.913176 0.142489 0.680140
0.000000 0.402228 0.690913
0.000000 0.396857 0.690517
0.391150 0.398596 0.690517
0.683375 0.424598 0.687434
0.904723 0.447120 0.678920
0.000000 0.655085 0.702602
0.000000 0.655879 0.700465
0.398077 0.667048 0.698054
0.688838 0.690822 0.692103
0.891844 0.685817 0.687282
0.000000 0.890623 0.771420
0.240238 0.889860 0.770138
0.502007 0.885924 0.768429
0.663783 0.877012 0.751156
0.838743 0.860807 0.783261
0.000000 0.000000 0.878813
0.148257 0.000000 0.878599
0.412634 0.000000 0.878996
0.646326 0.000000 0.878630
0.876493 0.000000 0.877806
0.000000 0.000000 0.878264
0.000000 0.000000 0.878233
0.395422 0.000000 0.878202
0.641840 0.000000 0.877348
0.875029 0.004913 0.876341
0.000000 0.339849 0.879545
0.000000 0.340246 0.878874
0.338262 0.345983 0.877714
0.630518 0.364111 0.875364
0.873777 0.399756 0.874907
0.000000 0.603113 0.878721
0.000000 0.602777 0.878141
0.218753 0.605097 0.877440
0.620508 0.622675 0.875914
0.874357 0.662318 0.875242
0.000000 0.829404 0.881956
0.206363 0.831022 0.881621
0.444556 0.839506 0.881224
0.667720 0.854948 0.879698
0.876402 0.876707 0.876921
