20 Preset/Car Style/【3】LUT video cho PR-AE-FCPX/Tone  (26).cube
# Created by Adobe Lightroom plugin Export LUT (1.24.0)
# www.johnrellis.com/lightroom/exportlut.htm
# Preset: 01汽车质感（素材江湖）
# Color profile: E:\lut插件\exportlut.1.24\exportlut.lrplugin\color profiles\Rec709gamma2.4.icc
LUT_3D_SIZE 8
DOMAIN_MIN 0.000000 0.000000 0.000000
DOMAIN_MAX 0.903226 0.903226 0.903226
0.056733 0.098756 0.106233
0.115389 0.101686 0.110109
0.196048 0.108248 0.121645
0.342412 0.092561 0.132845
0.546563 0.000000 0.140993
0.748135 0.000000 0.146792
0.938964 0.000000 0.165713
1.000000 0.099733 0.213352
0.088350 0.122103 0.128695
0.094240 0.126894 0.124819
0.187900 0.130129 0.126192
0.323919 0.127169 0.134951
0.522637 0.068788 0.142092
0.724544 0.000000 0.146792
0.910002 0.000000 0.161776
1.000000 0.140505 0.205356
0.127932 0.164370 0.169772
0.130251 0.164034 0.168917
0.142763 0.181094 0.160952
0.318700 0.228885 0.146944
0.516320 0.221225 0.143252
0.731044 0.225528 0.145998
0.918181 0.254704 0.172763
1.000000 0.323125 0.227024
0.155001 0.247410 0.235874
0.157198 0.245518 0.233219
0.152438 0.260197 0.226749
0.210391 0.330724 0.214755
0.509087 0.455634 0.175937
0.726253 0.428260 0.157717
0.894652 0.435096 0.191440
1.000000 0.471290 0.248203
0.208713 0.379583 0.344182
0.210697 0.377630 0.341650
0.221225 0.373266 0.334386
0.194034 0.423957 0.322789
0.309300 0.498054 0.312810
0.608026 0.608942 0.295872
0.827115 0.624598 0.263523
0.979492 0.598596 0.273625
0.283665 0.511315 0.452949
0.289403 0.516503 0.456550
0.295933 0.511925 0.450080
0.295506 0.525444 0.443091
0.266972 0.587915 0.421973
0.442359 0.657191 0.430182
0.724147 0.748196 0.455238
0.921599 0.788632 0.431098
0.402502 0.653620 0.575311
0.405035 0.654292 0.575463
0.406714 0.650141 0.569574
0.412451 0.643915 0.560052
0.408667 0.678431 0.554559
0.426612 0.733303 0.538109
0.602747 0.783749 0.559869
0.822293 0.844541 0.605890
0.592065 0.793484 0.716030
0.592340 0.793118 0.715267
0.595300 0.792477 0.713375
0.602838 0.792264 0.710780
0.586389 0.786465 0.691554
0.603510 0.823880 0.692531
0.653468 0.861173 0.689815
0.775265 0.886961 0.708553
0.073335 0.104005 0.137881
0.112306 0.107515 0.136660
0.183536 0.117098 0.143191
0.325475 0.105745 0.156527
0.524834 0.000000 0.163272
0.722591 0.000000 0.170535
0.901244 0.000000 0.189639
1.000000 0.000000 0.228794
0.094484 0.125826 0.140322
0.117647 0.133089 0.144991
0.187228 0.137423 0.151125
0.322911 0.131533 0.157809
0.517754 0.066194 0.163424
0.715663 0.000000 0.170443
0.886839 0.000000 0.187381
1.000000 0.112215 0.223789
0.142702 0.171420 0.180606
0.144991 0.171267 0.179599
0.156802 0.185031 0.173556
0.322362 0.219852 0.163699
0.508171 0.216281 0.163973
0.707240 0.216342 0.171481
0.881132 0.233402 0.193545
1.000000 0.297063 0.237613
0.168948 0.250584 0.243717
0.171267 0.249302 0.241520
0.173068 0.258152 0.236057
0.218051 0.315465 0.222141
0.479011 0.417670 0.191531
0.685664 0.389014 0.177188
0.855985 0.405493 0.203372
0.995148 0.444587 0.251316
0.222934 0.381994 0.350713
0.224308 0.379095 0.347356
0.232425 0.372747 0.338445
0.212100 0.412329 0.325139
0.309483 0.480232 0.313237
0.594415 0.590082 0.296696
0.810452 0.604456 0.268559
0.966125 0.583856 0.280217
0.289647 0.506126 0.451789
0.291478 0.505425 0.450538
0.297826 0.501701 0.444770
0.301122 0.512444 0.438697
0.276738 0.576287 0.421576
0.442481 0.649348 0.431861
0.719570 0.740780 0.454810
0.915160 0.779049 0.428595
0.397833 0.644800 0.569177
0.396124 0.642267 0.566217
0.397498 0.637720 0.559991
0.404791 0.632898 0.551720
0.405951 0.668238 0.549371
0.420630 0.724117 0.533104
0.592187 0.773892 0.552239
0.813016 0.836149 0.595117
0.581201 0.785580 0.708278
0.584283 0.786801 0.709346
0.586572 0.785763 0.706905
0.594202 0.785580 0.704311
0.602594 0.792538 0.701442
0.612177 0.825345 0.697841
0.653986 0.859831 0.690517
0.775021 0.885801 0.709010
0.097627 0.117067 0.197757
0.122591 0.118959 0.195987
0.181491 0.126894 0.191958
0.293339 0.131991 0.207797
0.520104 0.000000 0.233402
0.747005 0.000000 0.259770
0.918486 0.000000 0.301946
1.000000 0.182559 0.338628
0.109346 0.139284 0.206241
0.132479 0.140230 0.203952
0.187961 0.143587 0.198428
0.307561 0.143618 0.214237
0.524315 0.010224 0.235080
0.741085 0.000000 0.267826
0.904753 0.000000 0.296513
1.000000 0.208713 0.332555
0.143984 0.182071 0.209903
0.156710 0.186435 0.213016
0.211307 0.205692 0.224826
0.360632 0.213596 0.235721
0.543084 0.221073 0.252201
0.733150 0.234073 0.274968
0.894316 0.266728 0.302464
1.000000 0.329961 0.338811
0.220249 0.294133 0.300542
0.234775 0.299474 0.305119
0.251011 0.299626 0.299840
0.286656 0.345861 0.292302
0.519097 0.414160 0.280339
0.709865 0.404883 0.285191
0.871977 0.429847 0.312932
1.000000 0.468116 0.349737
0.289891 0.420996 0.401099
0.291203 0.419318 0.398535
0.296910 0.414008 0.390051
0.297978 0.432654 0.380957
0.370611 0.504662 0.375250
0.639063 0.606043 0.360784
0.824887 0.595758 0.344244
0.969512 0.595605 0.364569
0.344305 0.533410 0.487312
0.345830 0.533074 0.486336
0.349950 0.528557 0.479591
0.357794 0.520378 0.467720
0.346654 0.581018 0.459083
0.481514 0.654047 0.470497
0.741299 0.744137 0.493019
0.920653 0.774929 0.474067
0.447303 0.663478 0.596185
0.445991 0.661524 0.593774
0.444343 0.655695 0.586114
0.446967 0.648737 0.575677
0.450782 0.669917 0.570794
0.462440 0.727810 0.558679
0.623987 0.780728 0.583734
0.832761 0.843595 0.626307
0.604791 0.792233 0.721126
0.603479 0.791073 0.719448
0.605035 0.789792 0.716701
0.614954 0.791318 0.715969
0.621820 0.790738 0.710201
0.635676 0.826078 0.711574
0.673518 0.861936 0.705806
0.788663 0.888304 0.725124
0.098543 0.126619 0.326726
0.134218 0.127016 0.326268
0.218814 0.127199 0.313298
0.311711 0.123232 0.304845
0.454566 0.120180 0.321691
0.672847 0.102174 0.368688
0.874327 0.062440 0.406195
1.000000 0.193454 0.442329
0.098390 0.145571 0.343420
0.136416 0.145052 0.340856
0.225650 0.142916 0.326421
0.323400 0.138735 0.315831
0.464973 0.150179 0.330999
0.680781 0.148196 0.376318
0.875883 0.145113 0.410285
1.000000 0.226841 0.445014
0.000000 0.212772 0.372351
0.015747 0.210788 0.370947
0.228489 0.211856 0.359716
0.347356 0.213657 0.341802
0.498695 0.260319 0.367773
0.718288 0.267491 0.407691
0.903868 0.297490 0.441535
1.000000 0.375769 0.479622
0.199496 0.312108 0.365148
0.216983 0.316747 0.367071
0.281529 0.338445 0.377020
0.382330 0.379431 0.395850
0.553918 0.397681 0.410010
0.723995 0.418830 0.427222
0.877104 0.447852 0.449195
1.000000 0.489723 0.476387
0.335454 0.469673 0.466285
0.345129 0.470985 0.466865
0.385992 0.480720 0.473487
0.416632 0.482948 0.469215
0.463386 0.538231 0.468299
0.684779 0.600092 0.459602
0.847623 0.585077 0.456855
0.973480 0.614588 0.485389
0.451514 0.594476 0.563226
0.457099 0.598108 0.565850
0.456214 0.591730 0.556664
0.458900 0.582971 0.542992
0.462531 0.604242 0.533593
0.557519 0.672816 0.543542
0.785489 0.755032 0.556481
0.932128 0.764309 0.542687
0.526085 0.694575 0.642603
0.527062 0.694423 0.641932
0.527855 0.691585 0.636957
0.529656 0.686000 0.627497
0.531304 0.680446 0.614191
0.546105 0.737148 0.612085
0.671534 0.789731 0.631861
0.859068 0.851194 0.667292
0.655238 0.810208 0.751095
0.655116 0.809689 0.750149
0.655543 0.808072 0.747036
0.658198 0.806058 0.742092
0.661341 0.802213 0.733883
0.673060 0.825589 0.733730
0.702907 0.863981 0.729549
0.811429 0.892668 0.752255
0.034272 0.130312 0.493538
0.125978 0.129458 0.492866
0.240665 0.124025 0.480964
0.355932 0.113802 0.458930
0.471962 0.100740 0.450385
0.609125 0.154208 0.459632
0.795590 0.258366 0.504906
0.973114 0.305028 0.550195
0.034089 0.149783 0.503777
0.128878 0.148989 0.503197
0.245975 0.144533 0.491188
0.362188 0.137362 0.466163
0.479011 0.133669 0.456794
0.615137 0.188022 0.466255
0.799619 0.279271 0.510185
0.974029 0.324193 0.553460
0.000000 0.227665 0.528527
0.108034 0.227695 0.525963
0.252689 0.226108 0.512718
0.381048 0.225498 0.489601
0.494942 0.232792 0.473518
0.626307 0.285985 0.482826
0.809842 0.347356 0.525414
0.973907 0.385595 0.561639
0.000000 0.361273 0.544671
0.000000 0.364874 0.545830
0.214115 0.377630 0.550439
0.400305 0.380072 0.533227
0.523278 0.382544 0.509331
0.661524 0.435584 0.527520
0.840513 0.462043 0.560174
0.985901 0.493843 0.586969
0.303349 0.470893 0.521324
0.316350 0.474922 0.523217
0.365423 0.489693 0.529259
0.447639 0.517174 0.540063
0.549432 0.553185 0.553429
0.704433 0.567803 0.564477
0.850462 0.588495 0.580041
0.971527 0.617243 0.599145
0.448951 0.600641 0.589929
0.455726 0.603021 0.591516
0.478737 0.609400 0.595148
0.529839 0.618372 0.600549
0.559503 0.617792 0.593835
0.622339 0.677516 0.607874
0.815030 0.738491 0.612482
0.944732 0.728969 0.605982
0.579553 0.720882 0.686641
0.582116 0.720211 0.685786
0.596887 0.720302 0.685267
0.611658 0.719448 0.681331
0.610773 0.710231 0.665797
0.618647 0.732479 0.659022
0.713466 0.791165 0.676783
0.883574 0.851530 0.697139
0.696040 0.820340 0.776028
0.695460 0.819699 0.774929
0.694453 0.817533 0.771023
0.701137 0.818326 0.769009
0.702663 0.814359 0.760220
0.706844 0.815183 0.751614
0.731777 0.858640 0.752926
0.827604 0.891234 0.773587
0.126436 0.137911 0.656336
0.173037 0.137179 0.655299
0.282078 0.132784 0.644160
0.404791 0.125521 0.625452
0.523308 0.126436 0.600153
0.640528 0.140444 0.592767
0.756863 0.228763 0.592737
0.920684 0.365881 0.638148
0.133425 0.161776 0.652003
0.176761 0.161044 0.649592
0.282231 0.158175 0.640040
0.403571 0.153597 0.622583
0.518730 0.154543 0.595605
0.634730 0.168521 0.588434
0.751949 0.247349 0.590021
0.915709 0.376074 0.635706
0.165011 0.253605 0.671107
0.202090 0.253513 0.668910
0.304570 0.253574 0.660639
0.421576 0.250492 0.639277
0.534997 0.251621 0.611078
0.646906 0.266117 0.600641
0.765133 0.334722 0.605829
0.918273 0.445777 0.649531
0.000000 0.389624 0.695827
0.131106 0.388556 0.693477
0.305882 0.401953 0.687037
0.444434 0.402960 0.674311
0.567529 0.399817 0.648157
0.674434 0.407691 0.630610
0.791379 0.472053 0.640497
0.929778 0.552178 0.680720
0.212589 0.523339 0.682185
0.233921 0.525628 0.682765
0.306279 0.535882 0.685420
0.411048 0.555413 0.692226
0.569238 0.551080 0.673121
0.678950 0.545769 0.647913
0.802029 0.598077 0.667231
0.945861 0.628382 0.699062
0.427771 0.614252 0.655360
0.439643 0.618524 0.657954
0.473610 0.626490 0.660334
0.533135 0.641779 0.665522
0.610864 0.663874 0.673335
0.706569 0.697749 0.689113
0.845182 0.715908 0.704524
0.954803 0.737179 0.719997
0.608850 0.738705 0.726284
0.614069 0.741085 0.728176
0.628534 0.745724 0.730922
0.656245 0.754696 0.736446
0.700649 0.762753 0.740963
0.721126 0.756832 0.729183
0.776730 0.804471 0.741848
0.917266 0.850553 0.747341
0.718349 0.836820 0.806241
0.719417 0.836271 0.805600
0.728542 0.836454 0.805203
0.749905 0.838987 0.806851
0.768276 0.838773 0.804105
0.765896 0.831449 0.790219
0.779965 0.852842 0.788571
0.855344 0.893889 0.806729
0.264683 0.176150 0.783688
0.288792 0.177157 0.783749
0.363195 0.177005 0.777218
0.469642 0.178347 0.765957
0.581323 0.180819 0.746029
0.681758 0.190829 0.716793
0.787930 0.215610 0.711635
0.870848 0.301274 0.699641
0.264073 0.198032 0.778378
0.288457 0.199283 0.778866
0.360784 0.199344 0.772854
0.464118 0.198520 0.760342
0.574304 0.199649 0.740047
0.672602 0.205356 0.709682
0.776852 0.225681 0.703029
0.860197 0.304265 0.691096
0.286259 0.285771 0.787625
0.306157 0.285801 0.786221
0.374060 0.284916 0.779385
0.474250 0.283757 0.766842
0.581231 0.282170 0.746059
0.679957 0.283848 0.717098
0.785794 0.304906 0.712459
0.874357 0.380652 0.707454
0.287785 0.417884 0.801968
0.307408 0.416144 0.799649
0.378027 0.413275 0.792813
0.483284 0.411444 0.781827
0.593896 0.406592 0.762478
0.696040 0.403601 0.735897
0.797787 0.420325 0.727962
0.887114 0.489448 0.728054
0.166873 0.551965 0.807950
0.203647 0.549737 0.806027
0.312322 0.545403 0.801724
0.450294 0.544396 0.795041
0.589349 0.542596 0.777554
0.698726 0.530724 0.751095
0.796384 0.536309 0.736446
0.897948 0.604120 0.750759
0.374884 0.657862 0.789944
0.385260 0.659571 0.790524
0.424262 0.665339 0.792264
0.490669 0.676204 0.796017
0.577783 0.690883 0.801572
0.714015 0.683925 0.787045
0.812009 0.677577 0.764828
0.912261 0.730129 0.784878
0.559655 0.739284 0.774411
0.566369 0.741207 0.775448
0.588190 0.745632 0.776761
0.630213 0.755123 0.780087
0.687922 0.768673 0.784451
0.758572 0.787716 0.791287
0.835142 0.813077 0.801968
0.937499 0.828489 0.814145
0.741390 0.839750 0.828458
0.743923 0.840635 0.829068
0.755673 0.845090 0.832151
0.773617 0.851225 0.835782
0.798093 0.859342 0.840269
0.831388 0.866117 0.843473
0.846220 0.861387 0.833799
0.892119 0.900542 0.847593
0.433265 0.263218 0.885985
0.446937 0.264622 0.885740
0.491463 0.264836 0.881621
0.570520 0.269291 0.875853
0.664759 0.275395 0.865690
0.759243 0.283909 0.850034
0.843778 0.299718 0.828916
0.929961 0.330755 0.826200
0.429206 0.277714 0.883299
0.442481 0.279118 0.883146
0.488502 0.279911 0.879759
0.566339 0.282658 0.873594
0.660395 0.287419 0.863432
0.755001 0.294255 0.847745
0.838437 0.306065 0.825528
0.924437 0.333989 0.822110
0.430091 0.342412 0.883360
0.441993 0.342840 0.882780
0.486946 0.342229 0.879118
0.568170 0.346746 0.874968
0.659968 0.347417 0.864164
0.752560 0.348486 0.847776
0.836332 0.354833 0.826078
0.921965 0.379278 0.822232
0.418647 0.443030 0.885405
0.432319 0.443732 0.885069
0.480110 0.442725 0.881956
0.560967 0.443030 0.876707
0.656794 0.441749 0.867155
0.752438 0.439429 0.852293
0.837522 0.439185 0.831632
0.921660 0.459419 0.826627
0.337682 0.547570 0.889433
0.354894 0.547723 0.889403
0.432532 0.554314 0.886442
0.535729 0.557671 0.880980
0.640009 0.551141 0.871519
0.742672 0.542412 0.857145
0.832975 0.535027 0.837247
0.918090 0.550896 0.831144
0.335912 0.684657 0.887083
0.342992 0.684199 0.886748
0.376776 0.684413 0.886503
0.468177 0.678584 0.884825
0.589136 0.665888 0.880949
0.732448 0.668269 0.870176
0.836820 0.660609 0.854032
0.919554 0.669551 0.844694
0.526177 0.776669 0.875883
0.530694 0.777005 0.875883
0.550561 0.778805 0.876036
0.591760 0.784146 0.877470
0.651484 0.792538 0.880125
0.727626 0.804440 0.884947
0.839292 0.797421 0.876097
0.916167 0.788968 0.858579
0.696132 0.844999 0.867979
0.698817 0.845274 0.867948
0.711849 0.847440 0.868437
0.739071 0.852781 0.870237
0.777462 0.860716 0.872740
0.824277 0.871641 0.876127
0.876768 0.886870 0.881498
0.930327 0.907103 0.889799
