20 Preset/Car Style/【3】LUT video cho PR-AE-FCPX/Tone  (6).cube
# Created by Adobe Lightroom plugin Export LUT (1.24.0)
# www.johnrellis.com/lightroom/exportlut.htm
# Preset: 07汽车质感（素材江湖）
# Color profile: E:\lut插件\exportlut.1.24\exportlut.lrplugin\color profiles\Rec709gamma2.4.icc
LUT_3D_SIZE 8
DOMAIN_MIN 0.000000 0.000000 0.000000
DOMAIN_MAX 0.903226 0.903226 0.903226
0.104799 0.112367 0.124636
0.147311 0.116091 0.128664
0.235599 0.126284 0.139956
0.316442 0.138033 0.152255
0.423865 0.151522 0.167727
0.562554 0.166567 0.184360
0.727260 0.179446 0.199374
0.885374 0.192599 0.214420
0.123232 0.149691 0.150240
0.148959 0.159670 0.146456
0.233829 0.163058 0.150332
0.313146 0.167727 0.161105
0.419623 0.179202 0.174838
0.556970 0.192630 0.188754
0.714870 0.205722 0.201480
0.874510 0.218784 0.215244
0.172793 0.222019 0.209079
0.184726 0.220249 0.214542
0.226780 0.240574 0.199344
0.321996 0.250584 0.197116
0.433326 0.262181 0.203433
0.578698 0.278782 0.208896
0.737118 0.294530 0.216495
0.891844 0.308324 0.229129
0.224704 0.305303 0.268406
0.233707 0.303777 0.271611
0.254795 0.312902 0.272892
0.334112 0.351110 0.251102
0.479316 0.383581 0.234958
0.613611 0.400427 0.242618
0.755215 0.413336 0.246860
0.899809 0.426886 0.258885
0.288640 0.430884 0.343633
0.297948 0.429572 0.346685
0.332525 0.426856 0.361822
0.364935 0.456580 0.343542
0.473854 0.494850 0.304387
0.630335 0.522545 0.270054
0.764004 0.538109 0.287968
0.902251 0.557946 0.319249
0.387335 0.572595 0.444770
0.398352 0.575616 0.450782
0.429297 0.573480 0.463966
0.462104 0.581506 0.470283
0.507347 0.612360 0.438178
0.623377 0.646845 0.391363
0.787839 0.676417 0.345739
0.913603 0.691493 0.386999
0.528191 0.724453 0.578851
0.535027 0.724880 0.582208
0.556909 0.723049 0.591882
0.596155 0.720607 0.612116
0.612818 0.739315 0.595239
0.664637 0.766629 0.563195
0.769223 0.793118 0.519310
0.914794 0.812497 0.469245
0.702419 0.861143 0.737453
0.705806 0.860899 0.739071
0.720485 0.860502 0.746914
0.747646 0.860136 0.762631
0.761990 0.858396 0.763577
0.778347 0.875792 0.748775
0.818265 0.892424 0.728206
0.885710 0.904631 0.696712
0.103944 0.114717 0.162325
0.144900 0.116457 0.168215
0.229709 0.129519 0.172854
0.310124 0.143587 0.180636
0.416571 0.152956 0.191104
0.552972 0.161593 0.202670
0.707729 0.168093 0.213687
0.865904 0.176699 0.225467
0.112612 0.158846 0.174258
0.152560 0.162203 0.177829
0.229740 0.166567 0.182315
0.309941 0.172183 0.188449
0.417243 0.179812 0.196567
0.554376 0.188449 0.206394
0.703578 0.195895 0.215671
0.859617 0.205722 0.226535
0.177676 0.228031 0.219181
0.190768 0.226658 0.223880
0.227481 0.240543 0.217533
0.317327 0.250523 0.217350
0.428534 0.259739 0.219486
0.567895 0.271977 0.222568
0.716487 0.282841 0.228000
0.872770 0.295903 0.238285
0.225071 0.306249 0.272007
0.234287 0.305333 0.275151
0.258518 0.310277 0.281193
0.326696 0.342931 0.259464
0.460700 0.369665 0.246311
0.590723 0.386023 0.253269
0.731594 0.398810 0.254704
0.880522 0.414160 0.265080
0.288304 0.431067 0.346349
0.297398 0.429358 0.349035
0.331426 0.425513 0.362676
0.362402 0.449042 0.348394
0.464485 0.484596 0.310216
0.618067 0.512230 0.279911
0.751980 0.529107 0.296880
0.891691 0.549645 0.324529
0.383398 0.568719 0.443549
0.391699 0.568444 0.446815
0.422980 0.566705 0.459907
0.459876 0.573358 0.470954
0.503075 0.605341 0.440864
0.618463 0.641535 0.396918
0.781643 0.670954 0.353918
0.907591 0.686275 0.392126
0.521538 0.718990 0.574426
0.526146 0.717586 0.575769
0.548211 0.715541 0.585138
0.588556 0.714046 0.606012
0.609400 0.733364 0.594537
0.659998 0.760983 0.562890
0.763027 0.786679 0.518090
0.908629 0.806271 0.467903
0.695247 0.857786 0.732204
0.700038 0.858305 0.735042
0.714687 0.857694 0.742611
0.742489 0.857481 0.758572
0.768521 0.860990 0.770809
0.781064 0.876463 0.753414
0.818112 0.891783 0.730129
0.885283 0.904021 0.698482
0.105898 0.123384 0.232242
0.136477 0.125490 0.235355
0.219272 0.139864 0.244999
0.303960 0.165652 0.252659
0.420722 0.153109 0.259342
0.570459 0.081544 0.253819
0.725917 0.000000 0.257145
0.881743 0.000000 0.268986
0.132662 0.166079 0.238224
0.154696 0.167849 0.240452
0.222538 0.175296 0.248936
0.305638 0.186069 0.255772
0.424140 0.166720 0.256291
0.571984 0.117708 0.248478
0.721218 0.118563 0.258518
0.876677 0.126284 0.269810
0.162844 0.238895 0.256260
0.180728 0.240269 0.257359
0.234928 0.245212 0.262364
0.324376 0.242405 0.259648
0.443610 0.242954 0.260563
0.583734 0.246799 0.264927
0.729946 0.252415 0.271031
0.882322 0.263249 0.281804
0.221256 0.326665 0.296483
0.237003 0.327214 0.300175
0.277043 0.325475 0.310704
0.335760 0.349584 0.300938
0.467994 0.371221 0.296635
0.601343 0.382696 0.299901
0.743526 0.391760 0.301915
0.890471 0.404364 0.312413
0.288396 0.448157 0.365911
0.299901 0.447211 0.368963
0.341161 0.444129 0.382605
0.382666 0.455207 0.389502
0.473548 0.491341 0.354131
0.622095 0.514183 0.332860
0.755184 0.529900 0.349767
0.895262 0.548486 0.370031
0.388281 0.579736 0.459998
0.397528 0.579706 0.463294
0.430304 0.577722 0.475471
0.481392 0.574670 0.499794
0.512444 0.605158 0.473152
0.620111 0.640864 0.433051
0.779812 0.669673 0.400824
0.907256 0.687404 0.436957
0.527276 0.728054 0.587671
0.532158 0.727047 0.589166
0.554253 0.724208 0.597406
0.594568 0.721645 0.616541
0.622889 0.733852 0.617487
0.667109 0.762203 0.588006
0.767605 0.789548 0.547448
0.910582 0.809445 0.507408
0.696590 0.861234 0.737881
0.699550 0.860685 0.738979
0.714473 0.859953 0.746304
0.744228 0.860502 0.763302
0.777615 0.860502 0.782864
0.788388 0.876890 0.767361
0.822690 0.892576 0.745693
0.887327 0.904814 0.714992
0.116365 0.136599 0.301152
0.141146 0.140505 0.304021
0.212100 0.152712 0.313451
0.304509 0.167880 0.328069
0.414252 0.178866 0.346258
0.560967 0.152499 0.367376
0.718837 0.000000 0.370825
0.881529 0.000000 0.361669
0.142000 0.174441 0.307897
0.160464 0.176089 0.310002
0.220188 0.182040 0.318425
0.309178 0.189700 0.332677
0.419593 0.196139 0.349615
0.566339 0.168551 0.367529
0.722133 0.006439 0.367773
0.883909 0.000000 0.355840
0.173373 0.241642 0.319249
0.186557 0.243076 0.321965
0.234592 0.246525 0.330632
0.320928 0.250278 0.344274
0.440711 0.256474 0.361700
0.592279 0.222995 0.365148
0.750149 0.160861 0.354498
0.902251 0.090883 0.345586
0.176059 0.339788 0.354314
0.192844 0.340581 0.355352
0.252079 0.345647 0.359991
0.347509 0.355627 0.369635
0.478798 0.348608 0.362951
0.613550 0.347875 0.362280
0.754238 0.352728 0.367010
0.900267 0.364111 0.378027
0.248661 0.474983 0.408453
0.267247 0.474342 0.409918
0.334752 0.474006 0.419989
0.415045 0.472541 0.442176
0.486763 0.499641 0.427008
0.627008 0.516533 0.420417
0.761593 0.529747 0.431434
0.902190 0.540429 0.438849
0.407843 0.603967 0.503563
0.416480 0.606500 0.506523
0.439338 0.604761 0.508690
0.499062 0.601495 0.530449
0.542412 0.613733 0.536004
0.630030 0.646509 0.497993
0.781003 0.671321 0.479042
0.907317 0.689479 0.509422
0.525719 0.742611 0.607080
0.532799 0.742672 0.609644
0.559899 0.741634 0.619440
0.605615 0.739956 0.638758
0.655543 0.739467 0.663264
0.683528 0.766995 0.634882
0.773983 0.792752 0.595392
0.910796 0.811185 0.567071
0.699428 0.869993 0.750637
0.703151 0.869749 0.752193
0.718685 0.868833 0.759030
0.747402 0.867765 0.773159
0.783780 0.866392 0.793545
0.801450 0.877134 0.791318
0.829984 0.893278 0.771298
0.890959 0.906249 0.743496
0.132204 0.154299 0.396307
0.154849 0.156558 0.399298
0.222721 0.163424 0.408423
0.317113 0.169467 0.426673
0.430396 0.171908 0.447242
0.559258 0.169711 0.468177
0.709590 0.156985 0.492744
0.872099 0.000000 0.505455
0.147066 0.183169 0.402960
0.166690 0.184085 0.405676
0.228702 0.187259 0.414252
0.320348 0.189944 0.430426
0.434638 0.189883 0.451331
0.563592 0.188846 0.471168
0.712642 0.179934 0.493751
0.874266 0.040742 0.504753
0.159152 0.246952 0.418128
0.176730 0.247440 0.419928
0.235996 0.248631 0.427039
0.328496 0.250553 0.442817
0.445869 0.252720 0.462013
0.573480 0.258274 0.476905
0.721553 0.250950 0.494270
0.880217 0.194308 0.498390
0.174655 0.339879 0.438849
0.192294 0.340581 0.439857
0.253300 0.344823 0.445838
0.345251 0.353582 0.463691
0.467842 0.362066 0.482826
0.597314 0.372930 0.494636
0.747799 0.346502 0.494911
0.903532 0.302586 0.482979
0.180880 0.474189 0.483497
0.202884 0.475410 0.484627
0.275364 0.479347 0.488380
0.376928 0.487068 0.495918
0.493233 0.498085 0.506493
0.629664 0.489052 0.497688
0.769924 0.486519 0.495247
0.910491 0.491646 0.500114
0.295750 0.615656 0.531487
0.313390 0.615686 0.532677
0.373968 0.614221 0.537194
0.469184 0.613458 0.551415
0.558862 0.612390 0.577722
0.631983 0.642573 0.565698
0.775998 0.664881 0.563622
0.904082 0.681422 0.583642
0.500786 0.754543 0.634363
0.508659 0.753750 0.635431
0.543084 0.752193 0.642542
0.591943 0.752621 0.654383
0.656519 0.751034 0.679622
0.698299 0.763699 0.684565
0.775814 0.790280 0.647364
0.906157 0.806210 0.630488
0.685420 0.874327 0.759274
0.688258 0.874083 0.759823
0.700587 0.873442 0.762692
0.734249 0.874022 0.776913
0.778073 0.872465 0.797971
0.816617 0.873838 0.818326
0.835538 0.891173 0.798978
0.891814 0.904692 0.771420
0.145724 0.167330 0.521019
0.168978 0.167910 0.523461
0.238346 0.170321 0.530175
0.334142 0.170718 0.544732
0.451942 0.163119 0.569696
0.580377 0.153231 0.590173
0.714321 0.156405 0.606531
0.868864 0.169100 0.632807
0.150607 0.189273 0.521202
0.171664 0.189548 0.522789
0.238743 0.190158 0.529717
0.333532 0.189487 0.544549
0.449500 0.183322 0.567559
0.578271 0.176242 0.588037
0.712215 0.182589 0.604639
0.866300 0.195895 0.630823
0.142885 0.250431 0.537011
0.166476 0.250553 0.538628
0.238926 0.251072 0.545617
0.336889 0.251072 0.556970
0.455543 0.250950 0.577264
0.587579 0.254520 0.596887
0.722683 0.267765 0.612543
0.872709 0.287053 0.635798
0.150942 0.348638 0.554742
0.172854 0.348699 0.556176
0.244297 0.350835 0.564599
0.350042 0.357641 0.578912
0.473243 0.365972 0.598047
0.608240 0.376471 0.616724
0.743130 0.391821 0.629999
0.887480 0.405585 0.647272
0.194034 0.468940 0.577386
0.214328 0.469673 0.577935
0.281773 0.472786 0.580804
0.378668 0.480049 0.586938
0.489296 0.493599 0.607202
0.619806 0.505852 0.627619
0.753628 0.517235 0.639734
0.904479 0.496834 0.640162
0.246769 0.614954 0.619806
0.265476 0.616724 0.621546
0.325780 0.619043 0.623743
0.415808 0.623865 0.628443
0.521508 0.631647 0.636072
0.644587 0.646876 0.650935
0.788174 0.641474 0.645624
0.921813 0.641291 0.645411
0.375433 0.775814 0.679347
0.389624 0.776516 0.680781
0.439673 0.776181 0.683711
0.523766 0.775540 0.691035
0.628901 0.774655 0.707240
0.723964 0.773068 0.736324
0.785763 0.794278 0.718410
0.906432 0.807431 0.716640
0.631586 0.886015 0.773068
0.636866 0.885496 0.773770
0.661677 0.884489 0.778683
0.709682 0.883635 0.791226
0.764889 0.882353 0.807919
0.817777 0.880766 0.830838
0.847990 0.889799 0.836698
0.895201 0.904509 0.811154
0.154116 0.172457 0.661189
0.178103 0.172519 0.663233
0.252476 0.171328 0.668574
0.351904 0.167117 0.679957
0.466194 0.155520 0.696254
0.594965 0.132998 0.717708
0.728511 0.127169 0.733242
0.860655 0.162814 0.743801
0.150301 0.191409 0.660365
0.175357 0.191409 0.662562
0.249821 0.189975 0.667750
0.349096 0.185641 0.678187
0.463752 0.176242 0.694057
0.592065 0.160464 0.714809
0.724971 0.159060 0.729732
0.856168 0.187686 0.739956
0.119448 0.250523 0.670283
0.152285 0.250401 0.671473
0.238712 0.249790 0.675868
0.345098 0.248569 0.685481
0.463783 0.246891 0.699947
0.595514 0.245853 0.720150
0.732235 0.255528 0.736721
0.866270 0.281621 0.748501
0.026062 0.346868 0.683955
0.118807 0.346838 0.684321
0.227451 0.348119 0.688136
0.344823 0.351568 0.697475
0.469368 0.356909 0.711208
0.604578 0.365911 0.731167
0.744137 0.381018 0.748287
0.877501 0.402197 0.758999
0.168521 0.470100 0.688350
0.189975 0.469978 0.688869
0.260166 0.471382 0.693568
0.358526 0.474830 0.704524
0.478706 0.482673 0.718746
0.612390 0.494697 0.738064
0.753017 0.509728 0.756649
0.888304 0.528740 0.769162
0.240543 0.608331 0.719692
0.257115 0.608698 0.720180
0.316045 0.610010 0.721584
0.403784 0.612512 0.724453
0.508324 0.616785 0.728573
0.632013 0.634058 0.751461
0.771847 0.652979 0.774716
0.897642 0.667567 0.782986
0.327276 0.761532 0.763394
0.339757 0.762387 0.764126
0.385779 0.763790 0.765560
0.463722 0.767025 0.768795
0.562188 0.772030 0.773739
0.673884 0.780087 0.781643
0.792660 0.793454 0.794797
0.910979 0.790127 0.791470
0.505028 0.900328 0.809354
0.514397 0.900206 0.809934
0.552697 0.900084 0.813016
0.617456 0.898833 0.818418
0.701045 0.896666 0.827848
0.791867 0.894285 0.844816
0.863401 0.893095 0.869627
0.900603 0.905577 0.858579
0.161410 0.175326 0.819089
0.187167 0.174929 0.820249
0.266148 0.171237 0.822629
0.369421 0.163577 0.829221
0.484474 0.149844 0.838834
0.608698 0.130861 0.851133
0.741848 0.117220 0.866606
0.873106 0.158755 0.874723
0.151156 0.193088 0.818082
0.179538 0.192569 0.819272
0.261204 0.189425 0.822141
0.366278 0.182925 0.828397
0.482277 0.172610 0.837919
0.607294 0.159792 0.850309
0.740505 0.152712 0.865293
0.871611 0.185885 0.873228
0.092958 0.252262 0.820951
0.139712 0.251957 0.821775
0.241733 0.250584 0.824277
0.357275 0.249424 0.831571
0.478431 0.247318 0.840146
0.605921 0.246464 0.851560
0.740871 0.252140 0.866361
0.872801 0.277714 0.874479
0.000000 0.346777 0.825467
0.000000 0.347173 0.826383
0.211948 0.347967 0.829007
0.344823 0.350378 0.835019
0.474403 0.354406 0.843809
0.606592 0.361517 0.855253
0.743679 0.374121 0.869566
0.876646 0.396674 0.878111
0.000000 0.470375 0.828275
0.000000 0.470008 0.829191
0.195987 0.466712 0.831907
0.335668 0.468177 0.837613
0.471260 0.474403 0.845975
0.606958 0.484199 0.857206
0.745968 0.500053 0.871611
0.880522 0.521752 0.881804
0.201205 0.606683 0.834348
0.219516 0.605890 0.833982
0.281773 0.603784 0.833249
0.371405 0.602625 0.836912
0.479835 0.603571 0.846433
0.615259 0.616938 0.860380
0.755764 0.639155 0.876524
0.887541 0.663783 0.888579
0.332219 0.751675 0.861021
0.342565 0.751522 0.860960
0.383825 0.751278 0.860929
0.455634 0.751736 0.861448
0.547753 0.752987 0.862333
0.653285 0.756680 0.863798
0.777249 0.777859 0.879423
0.893370 0.801083 0.894102
0.497322 0.886534 0.886961
0.503777 0.886564 0.886961
0.531640 0.886961 0.887388
0.584253 0.888243 0.888609
0.656062 0.890043 0.890440
0.740078 0.892760 0.893126
0.827359 0.897337 0.897642
0.905486 0.905638 0.905913
