20 Preset/Car Style/【3】LUT video cho PR-AE-FCPX/Tone  (20).cube
# Created by Adobe Lightroom plugin Export LUT (1.24.0)
# www.johnrellis.com/lightroom/exportlut.htm
# Preset: 21汽车质感（素材江湖）
# Color profile: E:\lut插件\exportlut.1.24\exportlut.lrplugin\color profiles\Rec709gamma2.4.icc
LUT_3D_SIZE 8
DOMAIN_MIN 0.000000 0.000000 0.000000
DOMAIN_MAX 0.903226 0.903226 0.903226
0.025208 0.092592 0.095186
0.078431 0.093233 0.096284
0.159426 0.092042 0.100069
0.282994 0.037812 0.104067
0.450416 0.000000 0.107179
0.664149 0.000000 0.107240
0.934295 0.000000 0.102358
1.000000 0.000000 0.108949
0.044343 0.105226 0.105806
0.057740 0.107088 0.107149
0.143740 0.112520 0.107973
0.262394 0.099886 0.109926
0.422858 0.000000 0.113558
0.631373 0.000000 0.114168
0.885679 0.000000 0.109834
1.000000 0.000000 0.111604
0.097597 0.150668 0.139712
0.104921 0.152163 0.142367
0.132876 0.161532 0.147097
0.252628 0.190066 0.148562
0.422522 0.181582 0.148714
0.670924 0.158083 0.147219
0.928038 0.104768 0.146181
1.000000 0.143374 0.160616
0.161929 0.240848 0.205051
0.168673 0.241398 0.207004
0.196170 0.255161 0.218204
0.263340 0.299779 0.242893
0.454200 0.401953 0.253880
0.708583 0.423438 0.252842
0.921691 0.433600 0.253025
1.000000 0.451850 0.269627
0.235935 0.395087 0.309087
0.243046 0.396948 0.312108
0.276066 0.412116 0.329747
0.327306 0.448676 0.351385
0.416205 0.496559 0.377111
0.618402 0.601801 0.399237
0.845670 0.644099 0.408453
0.999207 0.651820 0.458564
0.332799 0.583948 0.449989
0.352209 0.599023 0.465583
0.389380 0.611109 0.484199
0.449073 0.634424 0.513512
0.521324 0.665431 0.538323
0.629084 0.709377 0.579309
0.794278 0.787137 0.647852
0.929625 0.826749 0.674861
0.549035 0.768643 0.647517
0.559533 0.772274 0.653834
0.583520 0.776577 0.665095
0.632013 0.787533 0.690913
0.675288 0.799954 0.706996
0.737057 0.820371 0.733028
0.806699 0.843656 0.766018
0.882414 0.878202 0.815091
0.787198 0.885679 0.824186
0.789517 0.885985 0.825284
0.801144 0.888243 0.831174
0.823423 0.893339 0.843137
0.825711 0.888640 0.839231
0.854490 0.899138 0.852934
0.884520 0.910399 0.867674
0.910002 0.919310 0.879179
0.032074 0.094606 0.109194
0.081056 0.092805 0.113527
0.150362 0.093690 0.113008
0.261784 0.063661 0.118746
0.422309 0.000000 0.122896
0.623560 0.000000 0.125063
0.863767 0.000000 0.124483
1.000000 0.000000 0.124910
0.046571 0.107607 0.112001
0.074098 0.112337 0.116762
0.152224 0.112917 0.119661
0.263523 0.101015 0.123934
0.417365 0.000000 0.127901
0.618830 0.000000 0.130373
0.842252 0.000000 0.129030
1.000000 0.000000 0.127779
0.109133 0.154482 0.148928
0.114595 0.156222 0.150271
0.140749 0.164981 0.156710
0.253574 0.186923 0.159915
0.410925 0.179110 0.159487
0.629023 0.147463 0.159487
0.857420 0.000000 0.156924
1.000000 0.000000 0.162173
0.164950 0.233982 0.205753
0.169436 0.235721 0.207126
0.196658 0.248753 0.219760
0.247745 0.277104 0.234623
0.403357 0.350713 0.239567
0.629969 0.364324 0.240574
0.850309 0.376898 0.234287
1.000000 0.398871 0.244999
0.237980 0.386633 0.308385
0.242710 0.386847 0.309270
0.271672 0.397162 0.322972
0.315435 0.423621 0.339330
0.390265 0.461067 0.357641
0.581018 0.564416 0.376043
0.815579 0.610986 0.385748
0.985077 0.622431 0.428992
0.320867 0.563226 0.435584
0.329503 0.566827 0.440284
0.364782 0.580224 0.458747
0.426337 0.607721 0.491890
0.499977 0.643153 0.519951
0.613123 0.694118 0.566766
0.782345 0.775204 0.632074
0.923613 0.814542 0.655665
0.519463 0.749691 0.624750
0.521386 0.748287 0.624109
0.545617 0.752651 0.635065
0.599023 0.767147 0.664485
0.654475 0.786221 0.689967
0.718929 0.808286 0.717037
0.789151 0.830808 0.747372
0.871183 0.867491 0.797787
0.767849 0.877470 0.811185
0.773892 0.879271 0.814817
0.785885 0.881437 0.820798
0.810575 0.887144 0.834195
0.836759 0.893889 0.847807
0.857847 0.900725 0.856016
0.883330 0.909422 0.866850
0.908965 0.918334 0.878233
0.040070 0.099977 0.149203
0.074372 0.098726 0.155123
0.164492 0.088808 0.176425
0.282994 0.050843 0.171298
0.438483 0.000000 0.177890
0.645808 0.000000 0.183505
0.885130 0.000000 0.191440
1.000000 0.000000 0.198520
0.057465 0.116976 0.155276
0.086366 0.116304 0.160647
0.168399 0.108431 0.180240
0.280858 0.097841 0.174716
0.431952 0.000000 0.178653
0.637751 0.000000 0.183780
0.870268 0.000000 0.191104
1.000000 0.000000 0.196536
0.107546 0.160494 0.169284
0.121187 0.165469 0.174044
0.174197 0.185641 0.193912
0.295903 0.183627 0.197848
0.461494 0.168032 0.203922
0.677790 0.095186 0.210697
0.890074 0.000000 0.215152
1.000000 0.000000 0.223850
0.190860 0.252354 0.236698
0.204196 0.260655 0.244938
0.231693 0.278264 0.259342
0.284794 0.309270 0.281804
0.455848 0.373663 0.292882
0.678645 0.380957 0.294652
0.887022 0.388037 0.295079
1.000000 0.404303 0.307897
0.271183 0.403784 0.343053
0.275639 0.406744 0.345006
0.297215 0.421820 0.356237
0.352087 0.454536 0.386511
0.430610 0.498177 0.411780
0.620935 0.588830 0.427558
0.838468 0.616785 0.443763
0.990936 0.633112 0.476814
0.353674 0.572412 0.464912
0.360601 0.577142 0.469215
0.386053 0.590112 0.482155
0.451759 0.615167 0.519554
0.519188 0.648585 0.546685
0.626917 0.699184 0.593133
0.795895 0.781827 0.653651
0.927642 0.817136 0.684535
0.549310 0.758663 0.649836
0.550530 0.758053 0.649195
0.566308 0.760830 0.654749
0.614588 0.772366 0.679927
0.670680 0.790188 0.707851
0.733883 0.813626 0.736019
0.804807 0.839353 0.770108
0.883879 0.877195 0.816587
0.773220 0.878141 0.816220
0.773617 0.877897 0.815976
0.784176 0.880125 0.821042
0.812985 0.887663 0.837003
0.841001 0.894499 0.852018
0.863767 0.902831 0.861875
0.888823 0.911986 0.872953
0.913024 0.920775 0.883696
0.035370 0.105562 0.211215
0.070588 0.104707 0.218875
0.150790 0.096834 0.244663
0.293156 0.000000 0.287297
0.443610 0.000000 0.282322
0.674098 0.000000 0.298558
0.876890 0.000000 0.303349
1.000000 0.000000 0.300511
0.057374 0.121370 0.223117
0.089509 0.120607 0.228824
0.158267 0.113252 0.252873
0.302159 0.037751 0.295476
0.454231 0.000000 0.288518
0.678370 0.000000 0.302342
0.875242 0.000000 0.303471
1.000000 0.000000 0.299321
0.109499 0.171511 0.228946
0.119661 0.174228 0.236973
0.172335 0.178042 0.265202
0.314061 0.160891 0.308049
0.495857 0.153902 0.313512
0.706935 0.000000 0.321630
0.913207 0.000000 0.324498
1.000000 0.000000 0.321080
0.168093 0.254490 0.266453
0.179232 0.259739 0.271275
0.227573 0.285100 0.295140
0.329961 0.344213 0.349432
0.512993 0.343816 0.353063
0.712856 0.337713 0.358038
0.906462 0.332067 0.366247
1.000000 0.347692 0.379095
0.268162 0.405402 0.368811
0.279332 0.411536 0.374823
0.331548 0.444862 0.407813
0.405707 0.498024 0.457130
0.491554 0.547173 0.498390
0.682338 0.613397 0.515801
0.873136 0.621027 0.530602
1.000000 0.637385 0.542626
0.422034 0.604547 0.532921
0.437324 0.616785 0.545068
0.458564 0.627253 0.554009
0.508904 0.654231 0.581811
0.585962 0.688258 0.623285
0.673335 0.727199 0.658228
0.823606 0.796689 0.701198
0.936431 0.819669 0.729152
0.585138 0.765042 0.682002
0.591638 0.767758 0.685542
0.613062 0.775875 0.696071
0.654780 0.790921 0.717952
0.717098 0.808957 0.752834
0.767086 0.828214 0.773983
0.824857 0.849882 0.799771
0.898100 0.886595 0.834958
0.792508 0.883421 0.831907
0.794308 0.883818 0.832578
0.802640 0.886015 0.836210
0.821134 0.891142 0.845182
0.848600 0.897612 0.859373
0.872313 0.905760 0.870665
0.896025 0.915221 0.881315
0.919768 0.924834 0.892515
0.000000 0.112367 0.298405
0.038636 0.111391 0.305974
0.141299 0.103548 0.331151
0.270359 0.008331 0.385229
0.467811 0.000000 0.453651
0.655451 0.000000 0.459571
0.908965 0.000000 0.475074
1.000000 0.000000 0.471748
0.021759 0.126131 0.309148
0.065858 0.125124 0.316747
0.149264 0.118105 0.340826
0.275456 0.058747 0.391150
0.476814 0.000000 0.462257
0.664668 0.000000 0.465553
0.909941 0.000000 0.477638
1.000000 0.000000 0.472786
0.095735 0.177951 0.328191
0.110506 0.177737 0.333684
0.167025 0.174319 0.355657
0.287297 0.157229 0.408209
0.493812 0.003937 0.477974
0.675959 0.000000 0.471412
0.901122 0.000000 0.478798
1.000000 0.000000 0.469215
0.152438 0.257603 0.335851
0.162753 0.261784 0.340856
0.206577 0.280735 0.367742
0.303899 0.304326 0.439918
0.526635 0.294133 0.518364
0.725978 0.318761 0.510948
0.906340 0.275761 0.501030
1.000000 0.216068 0.483467
0.216098 0.378668 0.389746
0.226993 0.385382 0.395941
0.272557 0.411688 0.420294
0.366278 0.467750 0.472572
0.521141 0.556146 0.556603
0.713252 0.549798 0.553582
0.888670 0.548486 0.555962
1.000000 0.557916 0.562615
0.317266 0.527276 0.480781
0.328862 0.534051 0.487556
0.374823 0.556939 0.511162
0.474708 0.608209 0.568109
0.582422 0.668055 0.633478
0.687709 0.726375 0.693172
0.838560 0.786435 0.728145
0.947478 0.797391 0.749599
0.546929 0.739925 0.673610
0.553948 0.741360 0.676051
0.591150 0.752895 0.693141
0.653407 0.777707 0.725490
0.714534 0.803738 0.758511
0.777401 0.827329 0.792050
0.831449 0.849851 0.815305
0.905577 0.886107 0.838865
0.770932 0.870726 0.823880
0.772915 0.871153 0.824491
0.782650 0.873808 0.828214
0.811643 0.884184 0.842771
0.840330 0.893645 0.856809
0.873655 0.903838 0.874540
0.897002 0.913939 0.884855
0.920500 0.923888 0.895384
0.000000 0.117739 0.425086
0.000000 0.115999 0.432166
0.126131 0.105348 0.453956
0.258824 0.011261 0.503410
0.460670 0.000000 0.594476
0.700099 0.000000 0.667933
0.868864 0.000000 0.658228
1.000000 0.000000 0.665309
0.000000 0.129702 0.420691
0.000000 0.128328 0.425818
0.130617 0.119722 0.447852
0.257115 0.070100 0.497932
0.449683 0.000000 0.582055
0.687556 0.000000 0.656611
0.858213 0.000000 0.649042
1.000000 0.000000 0.657893
0.000000 0.178622 0.447120
0.024506 0.177676 0.452369
0.150240 0.173465 0.476905
0.271183 0.153750 0.519890
0.461677 0.000000 0.597894
0.706233 0.000000 0.672450
0.879515 0.000000 0.664668
1.000000 0.000000 0.666468
0.071748 0.267094 0.462318
0.096223 0.268223 0.469429
0.175540 0.282902 0.506279
0.291936 0.286809 0.563928
0.490333 0.270665 0.642847
0.752316 0.221103 0.715969
0.917418 0.288151 0.702083
1.000000 0.361151 0.695125
0.167361 0.373602 0.468818
0.178592 0.377783 0.473579
0.224308 0.396002 0.494575
0.311498 0.435889 0.540703
0.468727 0.483680 0.640406
0.736233 0.494636 0.721096
0.902892 0.546227 0.711879
1.000000 0.536706 0.695460
0.250645 0.517967 0.528038
0.263828 0.526696 0.536492
0.311070 0.546838 0.555657
0.403143 0.587793 0.594781
0.542840 0.651514 0.657008
0.730129 0.747616 0.753231
0.876158 0.749050 0.756924
0.976013 0.752285 0.758938
0.419409 0.689235 0.640925
0.433722 0.695583 0.647913
0.480446 0.712428 0.667079
0.571618 0.745235 0.706203
0.700221 0.792447 0.766629
0.801419 0.836698 0.820645
0.855497 0.862577 0.846860
0.923644 0.890471 0.860716
0.704738 0.852598 0.805417
0.708248 0.852811 0.806119
0.731380 0.857603 0.814267
0.780423 0.870451 0.834318
0.832486 0.886534 0.857237
0.869932 0.901457 0.875669
0.902434 0.915038 0.893004
0.925689 0.926085 0.903563
0.000000 0.116030 0.582635
0.000000 0.113100 0.589258
0.087343 0.095552 0.609125
0.262303 0.000000 0.649989
0.441138 0.000000 0.706935
0.672541 0.000000 0.776547
0.889921 0.000000 0.821836
1.000000 0.000000 0.798245
0.000000 0.128664 0.578332
0.000000 0.126040 0.585473
0.089906 0.112123 0.605035
0.258244 0.012848 0.643153
0.434455 0.000000 0.699794
0.662776 0.000000 0.768826
0.880186 0.000000 0.814511
0.996338 0.000000 0.790677
0.000000 0.175021 0.592645
0.000000 0.173342 0.597131
0.096956 0.165438 0.614893
0.261112 0.139254 0.651575
0.436042 0.000000 0.705867
0.667048 0.000000 0.775021
0.893248 0.000000 0.824247
1.000000 0.000000 0.803708
0.000000 0.261692 0.608331
0.000000 0.260441 0.610773
0.063264 0.257939 0.627619
0.256535 0.250767 0.665431
0.436439 0.223941 0.720272
0.674983 0.102358 0.789303
0.910124 0.000000 0.838987
1.000000 0.175967 0.817166
0.000000 0.365301 0.573236
0.000000 0.366308 0.578149
0.070405 0.373480 0.603967
0.221164 0.388128 0.659785
0.411444 0.400946 0.721248
0.653895 0.392584 0.791043
0.904051 0.397223 0.843839
1.000000 0.505089 0.827970
0.065156 0.500084 0.609277
0.107698 0.503075 0.612696
0.186069 0.515435 0.626276
0.289830 0.540734 0.653834
0.429633 0.584100 0.698848
0.643702 0.648310 0.795560
0.884276 0.684993 0.854368
0.974914 0.742763 0.846159
0.293431 0.659663 0.672236
0.306798 0.663569 0.676020
0.356054 0.676326 0.688167
0.446265 0.703151 0.714046
0.575463 0.744228 0.753811
0.732052 0.800473 0.808072
0.869322 0.866453 0.867796
0.944335 0.864042 0.866270
0.529137 0.810056 0.767758
0.539361 0.812192 0.770504
0.582849 0.822049 0.783078
0.655268 0.837766 0.803952
0.749386 0.859861 0.833463
0.845274 0.888670 0.869841
0.907195 0.916106 0.900999
0.934417 0.930968 0.915831
0.000000 0.104952 0.797452
0.000000 0.099153 0.800748
0.188388 0.028779 0.808621
0.337316 0.000000 0.827909
0.500206 0.000000 0.853971
0.689693 0.000000 0.883482
0.898253 0.000000 0.913542
1.000000 0.000000 0.928740
0.000000 0.122683 0.792569
0.000000 0.117678 0.796109
0.180850 0.088624 0.805325
0.331151 0.000000 0.824338
0.494423 0.000000 0.850950
0.684596 0.000000 0.881102
0.893278 0.000000 0.911315
1.000000 0.000000 0.926696
0.000000 0.178500 0.791196
0.000000 0.175753 0.793820
0.154604 0.161624 0.802701
0.321324 0.119875 0.824887
0.486580 0.000000 0.850584
0.677882 0.000000 0.880186
0.890105 0.000000 0.911040
1.000000 0.000000 0.927153
0.000000 0.263188 0.787655
0.000000 0.262089 0.790860
0.000000 0.255833 0.800778
0.286290 0.240208 0.821653
0.465705 0.198367 0.849668
0.666285 0.000000 0.881071
0.886015 0.000000 0.912505
1.000000 0.000000 0.929442
0.000000 0.365209 0.770352
0.000000 0.364202 0.774746
0.000000 0.366888 0.787655
0.190677 0.368505 0.811124
0.411933 0.356878 0.841520
0.630518 0.326329 0.876097
0.865904 0.259709 0.909850
1.000000 0.281346 0.928923
0.000000 0.509545 0.742580
0.000000 0.508812 0.742672
0.000000 0.508263 0.745907
0.034211 0.512596 0.770535
0.317174 0.518700 0.818814
0.582818 0.546075 0.866300
0.833433 0.561273 0.904845
1.000000 0.612879 0.925566
0.000000 0.669123 0.781369
0.000000 0.669856 0.782101
0.183108 0.673335 0.785885
0.304662 0.683406 0.795865
0.437476 0.701106 0.812436
0.594751 0.731441 0.837400
0.803769 0.787533 0.890623
0.955291 0.825345 0.919554
0.456306 0.813596 0.823697
0.463325 0.814267 0.824247
0.495888 0.818296 0.827787
0.560632 0.827665 0.836057
0.649989 0.841978 0.848692
0.756374 0.862760 0.866697
0.861967 0.893339 0.892363
0.942046 0.934447 0.928130
