20 Preset/Car Style/【3】LUT video cho PR-AE-FCPX/Tone  (22).cube
# Created by Adobe Lightroom plugin Export LUT (1.24.0)
# www.johnrellis.com/lightroom/exportlut.htm
# Preset: 23汽车质感（素材江湖）
# Color profile: E:\lut插件\exportlut.1.24\exportlut.lrplugin\color profiles\Rec709gamma2.4.icc
LUT_3D_SIZE 32
DOMAIN_MIN 0.0 0.0 0.0
DOMAIN_MAX 1.0 1.0 1.0
0.000000 0.080049 0.089204
0.000000 0.080049 0.089204
0.001373 0.079652 0.089204
0.018555 0.079133 0.089113
0.041321 0.080934 0.090913
0.077546 0.083864 0.092958
0.101198 0.085512 0.094850
0.125277 0.086183 0.097292
0.153536 0.083345 0.098909
0.184543 0.079072 0.100862
0.218418 0.065034 0.103029
0.253574 0.046815 0.105104
0.289952 0.020294 0.107607
0.327214 0.000000 0.110323
0.365240 0.000000 0.113619
0.403967 0.000000 0.117250
0.444129 0.000000 0.121645
0.486458 0.000000 0.126284
0.530785 0.000000 0.131472
0.577386 0.000000 0.137362
0.625147 0.000000 0.143557
0.686458 0.000000 0.151644
0.751186 0.000000 0.161166
0.808164 0.000000 0.170565
0.858396 0.000000 0.179995
0.903288 0.000000 0.189364
0.944396 0.000000 0.199252
0.982544 0.000000 0.209751
1.000000 0.000000 0.221286
1.000000 0.000000 0.234714
1.000000 0.000000 0.250309
1.000000 0.000000 0.269017
0.000000 0.080049 0.089204
0.000000 0.080049 0.089204
0.000000 0.079774 0.089204
0.016541 0.080629 0.089845
0.038605 0.083162 0.091585
0.073548 0.085481 0.093690
0.098604 0.087434 0.095521
0.122621 0.087617 0.097658
0.149935 0.086122 0.099580
0.180209 0.081910 0.101228
0.213474 0.071168 0.103029
0.248447 0.052094 0.105226
0.284215 0.027802 0.107759
0.320867 0.000000 0.110506
0.358526 0.000000 0.113497
0.396887 0.000000 0.117189
0.437079 0.000000 0.121370
0.479011 0.000000 0.126192
0.522820 0.000000 0.131441
0.568963 0.000000 0.136965
0.615961 0.000000 0.142916
0.675166 0.000000 0.150637
0.737026 0.000000 0.159426
0.792264 0.000000 0.168399
0.841672 0.000000 0.177096
0.886564 0.000000 0.186007
0.928496 0.000000 0.195438
0.967834 0.000000 0.205509
1.000000 0.000000 0.216861
1.000000 0.000000 0.229679
1.000000 0.000000 0.244663
1.000000 0.000000 0.262577
0.000000 0.082643 0.091096
0.000000 0.083375 0.091463
0.000000 0.084596 0.091341
0.009735 0.087221 0.092744
0.028199 0.089540 0.095521
0.061463 0.091005 0.097078
0.093782 0.092256 0.098909
0.117891 0.092164 0.100221
0.145327 0.091524 0.101717
0.175784 0.089265 0.103365
0.208530 0.083650 0.105074
0.243168 0.069490 0.107210
0.279271 0.046082 0.109377
0.315557 0.018402 0.112093
0.352972 0.000000 0.115328
0.391180 0.000000 0.118929
0.430976 0.000000 0.123323
0.472938 0.000000 0.127779
0.516716 0.000000 0.133211
0.562524 0.000000 0.138613
0.609796 0.000000 0.144900
0.669184 0.000000 0.152590
0.729519 0.000000 0.161135
0.783932 0.000000 0.169467
0.832547 0.000000 0.177920
0.877256 0.000000 0.186374
0.919280 0.000000 0.195468
0.959442 0.000000 0.205173
0.997528 0.000000 0.216037
1.000000 0.000000 0.228672
1.000000 0.000000 0.243351
1.000000 0.000000 0.260899
0.001465 0.090608 0.096742
0.003449 0.090547 0.096742
0.003723 0.091341 0.097017
0.010101 0.093172 0.096742
0.030426 0.095430 0.098634
0.045686 0.097383 0.102663
0.085023 0.099123 0.104311
0.110780 0.100343 0.105074
0.138888 0.099977 0.106447
0.169833 0.099031 0.107576
0.202670 0.095796 0.109224
0.237400 0.090791 0.110872
0.272953 0.080903 0.113497
0.309300 0.056458 0.116060
0.346105 0.026154 0.119112
0.383703 0.000000 0.122835
0.422827 0.000000 0.127047
0.463478 0.000000 0.131899
0.506401 0.000000 0.136629
0.551293 0.000000 0.142184
0.597650 0.000000 0.148135
0.656703 0.000000 0.155886
0.714382 0.000000 0.163668
0.768276 0.000000 0.171695
0.818509 0.000000 0.179812
0.865629 0.000000 0.188449
0.910521 0.000000 0.197726
0.952819 0.000000 0.207675
0.992523 0.000000 0.218814
1.000000 0.000000 0.231327
1.000000 0.000000 0.245701
1.000000 0.000000 0.262333
0.010468 0.097963 0.103883
0.011444 0.098299 0.104189
0.012421 0.098634 0.104463
0.014832 0.100374 0.104250
0.025910 0.103548 0.103395
0.059724 0.107454 0.104067
0.083772 0.107362 0.108644
0.097566 0.109377 0.113588
0.127321 0.110689 0.113741
0.158602 0.111299 0.114656
0.192294 0.110048 0.115755
0.227237 0.107576 0.117800
0.263035 0.103151 0.120119
0.299901 0.096284 0.122713
0.336980 0.086763 0.126253
0.375036 0.063020 0.130037
0.414496 0.026398 0.134310
0.455726 0.000000 0.138888
0.499062 0.000000 0.143679
0.544091 0.000000 0.149203
0.592615 0.000000 0.155184
0.650843 0.000000 0.162875
0.706722 0.000000 0.170413
0.760342 0.000000 0.177768
0.810910 0.000000 0.185885
0.858762 0.000000 0.194339
0.903990 0.000000 0.203250
0.946654 0.000000 0.212985
0.986572 0.000000 0.223941
1.000000 0.000000 0.235935
1.000000 0.000000 0.249882
1.000000 0.000000 0.266423
0.020905 0.107485 0.112184
0.019898 0.107851 0.112459
0.020874 0.108125 0.112734
0.023377 0.109316 0.113191
0.027070 0.113039 0.112337
0.049928 0.118044 0.110872
0.096895 0.124758 0.110079
0.111299 0.123049 0.115999
0.125399 0.123507 0.122560
0.146914 0.125704 0.127169
0.181857 0.127077 0.128115
0.218265 0.126864 0.129183
0.255039 0.125246 0.131289
0.292271 0.122438 0.134096
0.330175 0.118288 0.137484
0.368780 0.112276 0.141176
0.408972 0.103914 0.145449
0.450752 0.091890 0.149783
0.494667 0.061067 0.155062
0.540002 0.008087 0.160006
0.593744 0.000000 0.166873
0.650965 0.000000 0.174289
0.785672 0.000000 0.197391
0.840665 0.000000 0.207065
0.888975 0.000000 0.216709
0.932372 0.000000 0.226291
0.971038 0.000000 0.236637
1.000000 0.000000 0.247562
1.000000 0.088075 0.260044
1.000000 0.147921 0.273777
1.000000 0.195651 0.289647
1.000000 0.240085 0.307622
0.032044 0.124208 0.125795
0.033722 0.124147 0.126070
0.035676 0.124636 0.126528
0.041260 0.125490 0.127687
0.043854 0.129122 0.126650
0.056489 0.135012 0.125216
0.092927 0.142214 0.123018
0.134951 0.153750 0.119936
0.153719 0.149935 0.128328
0.170352 0.148623 0.137484
0.187350 0.150454 0.147097
0.218967 0.153475 0.152041
0.258488 0.154604 0.153292
0.297154 0.154543 0.155398
0.336126 0.152987 0.158083
0.375677 0.150423 0.161196
0.416419 0.146853 0.164828
0.459266 0.141604 0.168856
0.504051 0.135225 0.173404
0.556023 0.127596 0.179355
0.620935 0.119203 0.188022
0.686793 0.108553 0.196811
0.750668 0.098329 0.205997
0.810727 0.093294 0.215915
0.865080 0.094545 0.225803
0.912200 0.105226 0.235752
0.953246 0.121798 0.245365
0.989746 0.142214 0.255802
1.000000 0.168368 0.267277
1.000000 0.197604 0.280125
1.000000 0.230716 0.294957
1.000000 0.266209 0.312322
0.055909 0.140414 0.139834
0.055909 0.140414 0.139834
0.059113 0.140993 0.140200
0.064729 0.141756 0.141207
0.072267 0.144198 0.142214
0.078981 0.149813 0.140932
0.094026 0.157076 0.139010
0.119112 0.165988 0.136416
0.162631 0.178714 0.133089
0.190646 0.178012 0.140963
0.208408 0.175051 0.151949
0.225742 0.175906 0.163729
0.243107 0.178866 0.175753
0.280858 0.182010 0.178042
0.320348 0.183413 0.179660
0.360388 0.183719 0.181765
0.401495 0.183230 0.184329
0.444160 0.182040 0.187594
0.491218 0.180667 0.192020
0.549432 0.181277 0.198734
0.609827 0.180697 0.206180
0.672084 0.180484 0.213718
0.734096 0.180148 0.222019
0.792996 0.181613 0.230838
0.846952 0.185824 0.240177
0.894804 0.191165 0.249119
0.936919 0.200015 0.258457
0.974609 0.211704 0.267979
1.000000 0.228855 0.279179
1.000000 0.248844 0.291539
1.000000 0.273838 0.306157
1.000000 0.302251 0.322881
0.089082 0.160250 0.157259
0.088808 0.160433 0.157229
0.090272 0.160739 0.157565
0.092836 0.161501 0.158389
0.098695 0.162631 0.160311
0.099886 0.167636 0.159762
0.105440 0.174777 0.158236
0.121401 0.183383 0.156069
0.149203 0.193515 0.153597
0.193118 0.207004 0.149874
0.229801 0.211368 0.156741
0.248264 0.207126 0.169924
0.265721 0.206394 0.182620
0.283085 0.208377 0.195621
0.304204 0.212375 0.206668
0.344915 0.215579 0.207645
0.386877 0.217716 0.208988
0.432776 0.220401 0.212039
0.486091 0.224796 0.217258
0.541741 0.228153 0.222507
0.599664 0.231449 0.228641
0.659693 0.234562 0.235172
0.720150 0.237919 0.242283
0.778134 0.242222 0.250340
0.831876 0.247593 0.258854
0.879728 0.253178 0.267185
0.922606 0.260349 0.275914
0.961151 0.270268 0.285283
0.996246 0.283391 0.296025
1.000000 0.299321 0.308080
1.000000 0.319677 0.322423
1.000000 0.343908 0.339208
0.110201 0.182528 0.177066
0.110109 0.182528 0.177218
0.110842 0.182803 0.177157
0.113680 0.183566 0.177859
0.118135 0.184482 0.179477
0.122896 0.187076 0.180850
0.124514 0.193668 0.179355
0.132631 0.202060 0.177615
0.150546 0.211765 0.175387
0.179751 0.222995 0.172763
0.222538 0.236606 0.169284
0.267002 0.247196 0.174166
0.286168 0.241947 0.187900
0.304234 0.239994 0.201663
0.322484 0.241123 0.215579
0.340459 0.244480 0.229129
0.374884 0.252598 0.240024
0.425696 0.260197 0.243320
0.478553 0.266972 0.247135
0.533349 0.272648 0.251072
0.589380 0.277989 0.255558
0.646571 0.282292 0.260136
0.702998 0.286961 0.265690
0.757565 0.291661 0.271855
0.809018 0.296483 0.278599
0.856535 0.301671 0.285679
0.900114 0.308568 0.293645
0.940581 0.317144 0.302495
0.977996 0.328496 0.313146
1.000000 0.343694 0.325689
1.000000 0.361700 0.340307
1.000000 0.384100 0.357885
0.131655 0.204807 0.197086
0.132326 0.204898 0.197208
0.133028 0.205264 0.197452
0.135012 0.206027 0.198154
0.139132 0.207309 0.199619
0.145693 0.209018 0.202335
0.147402 0.214786 0.202426
0.151705 0.222812 0.201175
0.162264 0.232547 0.199588
0.182345 0.243931 0.197696
0.212406 0.256718 0.194919
0.254337 0.270573 0.191409
0.307561 0.289464 0.193240
0.328466 0.283177 0.208713
0.351598 0.282841 0.225254
0.374365 0.285435 0.241184
0.397223 0.290043 0.257633
0.420478 0.296666 0.273960
0.464393 0.305028 0.280156
0.518090 0.312810 0.282567
0.573724 0.319554 0.285374
0.629816 0.325963 0.288945
0.685969 0.332341 0.293309
0.740688 0.338506 0.298589
0.792050 0.344640 0.304601
0.840116 0.350805 0.311315
0.884459 0.357946 0.318822
0.925628 0.366644 0.327489
0.963684 0.377630 0.337804
0.998505 0.391363 0.350591
1.000000 0.408179 0.365576
1.000000 0.428504 0.383215
0.155703 0.230838 0.220157
0.156222 0.230900 0.220249
0.157382 0.231357 0.220920
0.159091 0.232273 0.221378
0.161837 0.233616 0.222568
0.167849 0.235447 0.225223
0.173861 0.238956 0.227909
0.175326 0.246983 0.227054
0.181613 0.256809 0.225986
0.194400 0.268223 0.224460
0.215824 0.281224 0.222568
0.250370 0.298619 0.221439
0.325841 0.349462 0.236576
0.401709 0.386389 0.236820
0.430762 0.380743 0.256321
0.457527 0.377874 0.275578
0.483162 0.377508 0.293980
0.508080 0.379461 0.312322
0.532677 0.383612 0.330632
0.557610 0.390295 0.349584
0.615625 0.399603 0.350927
0.672114 0.407691 0.352941
0.726040 0.414618 0.355962
0.776883 0.421363 0.360052
0.824002 0.427466 0.364996
0.867002 0.433356 0.370245
0.906096 0.439551 0.376715
0.941680 0.446540 0.383948
0.974426 0.455207 0.393194
1.000000 0.466407 0.404578
1.000000 0.480629 0.418677
1.000000 0.498299 0.436378
0.187961 0.269078 0.253269
0.188052 0.269078 0.253056
0.188663 0.269108 0.253269
0.189670 0.269505 0.253483
0.191958 0.270146 0.254063
0.196139 0.271519 0.255680
0.203220 0.273777 0.259098
0.207156 0.282078 0.260990
0.212009 0.294316 0.261875
0.222629 0.309331 0.262974
0.241276 0.327703 0.264164
0.270909 0.349645 0.265537
0.314000 0.374853 0.265843
0.370520 0.402136 0.265171
0.455146 0.446448 0.262333
0.489021 0.442115 0.281682
0.514916 0.435431 0.301030
0.538323 0.431159 0.319554
0.561425 0.429755 0.337469
0.584009 0.430640 0.355810
0.606683 0.434363 0.374151
0.638148 0.441047 0.388769
0.692897 0.449592 0.390387
0.744808 0.457588 0.393286
0.793393 0.464973 0.397223
0.838651 0.471839 0.401984
0.879850 0.478981 0.407996
0.917998 0.486580 0.415320
0.952880 0.495857 0.424537
0.984619 0.507408 0.436286
1.000000 0.521324 0.450721
1.000000 0.538201 0.468360
0.214847 0.305821 0.283574
0.214633 0.305669 0.283421
0.215274 0.305486 0.283360
0.216526 0.305913 0.283726
0.218418 0.306828 0.284306
0.221683 0.308476 0.285649
0.228946 0.310979 0.289128
0.236088 0.315740 0.293248
0.237705 0.327001 0.293278
0.244297 0.341161 0.293980
0.257298 0.358923 0.295262
0.279545 0.380316 0.296727
0.313176 0.404669 0.297520
0.359228 0.431159 0.297551
0.417792 0.458045 0.295415
0.501518 0.499184 0.291051
0.544762 0.500969 0.306310
0.568719 0.490852 0.325872
0.591211 0.483894 0.344823
0.612512 0.479530 0.363317
0.633478 0.478553 0.382147
0.655268 0.480751 0.401709
0.677150 0.485725 0.421973
0.715358 0.494148 0.433265
0.765896 0.503014 0.436378
0.812711 0.511284 0.440772
0.855863 0.519188 0.446082
0.895384 0.527672 0.453101
0.931762 0.537224 0.461952
0.964904 0.548852 0.473732
0.993957 0.562860 0.488136
1.000000 0.579492 0.506096
0.241032 0.345556 0.315557
0.240940 0.345495 0.315496
0.241184 0.345159 0.315251
0.242069 0.345037 0.315099
0.243748 0.345098 0.315068
0.246189 0.346014 0.315709
0.251713 0.347997 0.318181
0.259831 0.351202 0.322484
0.263706 0.360082 0.324681
0.267308 0.373938 0.325170
0.276402 0.391211 0.326452
0.293156 0.411994 0.328099
0.319432 0.435370 0.329717
0.356329 0.460578 0.330297
0.404761 0.486336 0.329107
0.463752 0.511345 0.325689
0.545647 0.548150 0.321569
0.598901 0.557153 0.332464
0.621027 0.544671 0.353002
0.641566 0.535424 0.372595
0.661494 0.529534 0.392004
0.682002 0.527398 0.411963
0.702327 0.528435 0.432624
0.722988 0.532403 0.453986
0.743435 0.538994 0.475807
0.785794 0.548394 0.483436
0.830930 0.558007 0.488838
0.872740 0.568017 0.495949
0.911131 0.579431 0.505730
0.945769 0.592767 0.518669
0.976349 0.608331 0.534905
1.000000 0.625940 0.554192
0.264073 0.383246 0.345129
0.264195 0.383398 0.345220
0.264866 0.383581 0.345403
0.265995 0.384009 0.345708
0.267796 0.384741 0.346136
0.270665 0.386450 0.347509
0.275822 0.389532 0.350164
0.284642 0.393683 0.355200
0.294408 0.400183 0.361273
0.296483 0.413947 0.361944
0.302159 0.430060 0.363104
0.313756 0.448493 0.363714
0.333013 0.468818 0.364294
0.360784 0.490364 0.363592
0.398779 0.512627 0.362219
0.447150 0.535088 0.359258
0.505547 0.557366 0.355169
0.582727 0.588525 0.351781
0.645563 0.605554 0.360113
0.666499 0.592370 0.381476
0.687098 0.583337 0.402502
0.707637 0.577935 0.423651
0.727840 0.575921 0.445350
0.747799 0.577142 0.467597
0.767514 0.581079 0.490761
0.786954 0.587915 0.514366
0.807736 0.597436 0.538018
0.851041 0.609003 0.545220
0.890562 0.620935 0.554314
0.925933 0.634058 0.566125
0.956664 0.648615 0.580529
0.983032 0.664698 0.597742
0.286412 0.420417 0.374487
0.286442 0.420508 0.374456
0.287175 0.420752 0.374762
0.288334 0.421363 0.375128
0.290440 0.422400 0.375891
0.293492 0.424353 0.377386
0.298131 0.427436 0.379767
0.306615 0.431556 0.384619
0.317388 0.437110 0.391150
0.322850 0.447425 0.394568
0.326757 0.462593 0.395727
0.334844 0.480018 0.396429
0.349310 0.499062 0.397406
0.371283 0.519310 0.397467
0.401984 0.540276 0.396521
0.441779 0.561151 0.394659
0.490608 0.581445 0.391943
0.548425 0.601862 0.388708
0.621088 0.628717 0.386694
0.691981 0.652949 0.393347
0.712520 0.640314 0.415839
0.732601 0.631708 0.437934
0.752163 0.626398 0.460578
0.771511 0.624628 0.483528
0.790249 0.625757 0.507256
0.808621 0.630060 0.531884
0.826780 0.637049 0.556878
0.844572 0.646662 0.582574
0.869352 0.658961 0.603296
0.905699 0.672663 0.614466
0.937407 0.687160 0.628046
0.964294 0.702815 0.644038
0.312963 0.462409 0.408362
0.313390 0.463020 0.408728
0.337407 0.497383 0.437415
0.338872 0.498238 0.438087
0.341161 0.499428 0.439033
0.344396 0.501213 0.440467
0.348882 0.503838 0.442664
0.356756 0.507591 0.446723
0.368017 0.512688 0.453285
0.380835 0.519677 0.461189
0.383581 0.534386 0.462165
0.390234 0.550591 0.463111
0.401373 0.567315 0.463172
0.419165 0.584436 0.462776
0.443580 0.601312 0.461402
0.475868 0.618006 0.459022
0.515251 0.633967 0.455756
0.561913 0.649683 0.451789
0.615290 0.665187 0.447883
0.679866 0.685389 0.446021
0.751492 0.711482 0.452216
0.771786 0.700740 0.472938
0.788693 0.691371 0.494697
0.804776 0.684962 0.516533
0.819974 0.681270 0.538262
0.834989 0.680476 0.559625
0.849516 0.682460 0.581537
0.864103 0.687434 0.604669
0.878965 0.695766 0.629023
0.893523 0.707240 0.655024
0.918090 0.721248 0.673304
0.945342 0.736263 0.687648
0.348821 0.515129 0.452277
0.351263 0.518456 0.455116
0.354498 0.522271 0.458320
0.358190 0.526024 0.461616
0.362310 0.529564 0.464637
0.366186 0.532341 0.466957
0.370947 0.535119 0.469337
0.376867 0.538354 0.472358
0.387427 0.542779 0.478248
0.400275 0.548211 0.485664
0.408453 0.558495 0.490211
0.413062 0.572747 0.491249
0.421424 0.587732 0.491676
0.434852 0.603326 0.491798
0.454017 0.619165 0.491279
0.479683 0.634913 0.490150
0.512291 0.650507 0.488472
0.551812 0.666133 0.486580
0.598138 0.681788 0.484932
0.650172 0.697353 0.483680
0.709651 0.715297 0.484047
0.783291 0.745083 0.493202
0.806180 0.738521 0.513603
0.821744 0.730159 0.535332
0.836271 0.724178 0.556329
0.850187 0.720760 0.577234
0.863737 0.720119 0.598444
0.877012 0.722408 0.620752
0.890471 0.728023 0.644343
0.903624 0.736812 0.669459
0.916045 0.748409 0.695918
0.927855 0.762417 0.722927
0.374578 0.550256 0.482429
0.377661 0.553735 0.485573
0.381506 0.557519 0.489174
0.385657 0.561608 0.492805
0.390021 0.565148 0.496132
0.394232 0.567864 0.498512
0.398901 0.570397 0.500847
0.404639 0.573297 0.503685
0.414099 0.577081 0.508782
0.426459 0.581659 0.515587
0.440497 0.587549 0.523857
0.444160 0.600092 0.524926
0.450355 0.613703 0.525628
0.461036 0.627832 0.526299
0.476265 0.642420 0.526665
0.496590 0.657069 0.526207
0.522850 0.671626 0.525719
0.555200 0.686183 0.524926
0.593927 0.700801 0.524315
0.638148 0.715511 0.524224
0.686946 0.729915 0.524437
0.740810 0.745327 0.526513
0.808560 0.772885 0.537896
0.837186 0.773251 0.556451
0.850919 0.765652 0.576745
0.863920 0.760098 0.596918
0.876310 0.757321 0.617395
0.888457 0.757229 0.638483
0.900481 0.760311 0.661219
0.912261 0.766476 0.685176
0.923461 0.775448 0.710536
0.933867 0.786648 0.736355
0.406531 0.586938 0.516289
0.409644 0.589868 0.519127
0.413275 0.593317 0.522484
0.417487 0.596765 0.525963
0.422065 0.599908 0.529137
0.426123 0.602350 0.531548
0.431189 0.604669 0.533928
0.436591 0.607324 0.536706
0.444984 0.610834 0.541100
0.456519 0.614832 0.547478
0.470008 0.619837 0.555138
0.479255 0.628321 0.560174
0.484169 0.640528 0.561151
0.492409 0.653346 0.562188
0.504540 0.666743 0.562982
0.521141 0.680598 0.563958
0.543359 0.695094 0.564996
0.571344 0.709865 0.566735
0.605219 0.725063 0.569024
0.644556 0.740352 0.572198
0.688502 0.755612 0.576379
0.735439 0.770291 0.581323
0.783383 0.784024 0.586084
0.842863 0.808530 0.601373
0.873991 0.814908 0.619837
0.885863 0.809140 0.639887
0.896880 0.805570 0.659998
0.907408 0.804257 0.680415
0.917632 0.805722 0.701991
0.927398 0.809598 0.724331
0.936492 0.815854 0.747433
0.944976 0.824063 0.770535
0.464240 0.641169 0.571221
0.465827 0.642390 0.572595
0.467597 0.643580 0.573846
0.469551 0.644739 0.575067
0.472114 0.645899 0.576410
0.474952 0.646937 0.577478
0.478614 0.648341 0.579034
0.483558 0.650568 0.581353
0.490181 0.653498 0.584802
0.501152 0.657343 0.590814
0.514000 0.661830 0.598016
0.528099 0.667018 0.606256
0.532555 0.677546 0.607691
0.539147 0.688991 0.608972
0.548486 0.700771 0.609888
0.561608 0.712947 0.610956
0.578759 0.725368 0.612055
0.600580 0.738094 0.613428
0.627192 0.750820 0.615106
0.658381 0.763668 0.617426
0.693446 0.776303 0.620203
0.731930 0.788602 0.623651
0.772000 0.800168 0.627466
0.812680 0.810941 0.631098
0.862181 0.830533 0.644953
0.894285 0.840238 0.661433
0.904631 0.835660 0.680659
0.914427 0.833127 0.700313
0.923827 0.832853 0.720668
0.932647 0.834806 0.741543
0.940917 0.838804 0.762905
0.948516 0.844663 0.784207
0.504601 0.675502 0.607507
0.505852 0.676539 0.608728
0.507622 0.677546 0.609827
0.509545 0.678676 0.611048
0.511955 0.679805 0.612299
0.514672 0.680842 0.613489
0.518151 0.682246 0.615076
0.522972 0.684230 0.617395
0.529046 0.686946 0.620478
0.538231 0.690364 0.625544
0.550072 0.694362 0.632074
0.563226 0.699031 0.639643
0.572778 0.706020 0.644862
0.578241 0.716396 0.646387
0.586236 0.727230 0.648005
0.597040 0.738430 0.649561
0.611261 0.749935 0.651423
0.629297 0.761593 0.653681
0.651209 0.773281 0.656001
0.677028 0.785000 0.658991
0.706233 0.796536 0.662501
0.738399 0.807675 0.666285
0.772427 0.818296 0.670649
0.807279 0.828214 0.675227
0.835019 0.831662 0.668391
0.876646 0.847837 0.680995
0.908995 0.860227 0.697322
0.918761 0.857023 0.715846
0.927581 0.855467 0.735134
0.935851 0.855894 0.755001
0.943725 0.858366 0.775235
0.950958 0.862638 0.795468
0.559686 0.718532 0.654963
0.561913 0.720027 0.656764
0.563409 0.720882 0.657771
0.564324 0.721157 0.658045
0.565026 0.721065 0.657984
0.565881 0.720821 0.657740
0.567224 0.720668 0.657588
0.569451 0.720943 0.657954
0.573053 0.721859 0.659236
0.578576 0.723537 0.661616
0.587243 0.725490 0.665766
0.597803 0.728450 0.671290
0.609277 0.731838 0.677577
0.613092 0.739559 0.678401
0.617700 0.747921 0.678523
0.624750 0.756863 0.678828
0.634974 0.766262 0.679652
0.648829 0.776303 0.681086
0.666651 0.786893 0.683558
0.688411 0.797910 0.686885
0.713649 0.808865 0.690913
0.740963 0.819303 0.695277
0.769833 0.828855 0.699123
0.799222 0.837552 0.702632
0.828519 0.845426 0.705837
0.857359 0.852598 0.708675
0.891417 0.865476 0.719326
0.920958 0.877897 0.734310
0.930968 0.876524 0.750912
0.938598 0.875425 0.768704
0.945892 0.876188 0.787045
0.952697 0.878782 0.805570
0.594690 0.744503 0.684260
0.596826 0.745876 0.685847
0.598566 0.746914 0.687129
0.599969 0.747585 0.687892
0.601373 0.748043 0.688441
0.603418 0.748653 0.689265
0.606165 0.749630 0.690425
0.609827 0.750942 0.692103
0.614923 0.752865 0.694575
0.620783 0.755306 0.697688
0.629328 0.757900 0.702174
0.639460 0.760922 0.707698
0.650355 0.764096 0.713619
0.658473 0.768887 0.717647
0.662013 0.776211 0.717952
0.667414 0.783749 0.718349
0.675135 0.791745 0.718990
0.685664 0.800168 0.720241
0.699672 0.809232 0.722438
0.716945 0.818570 0.725490
0.737118 0.827939 0.729183
0.759426 0.837064 0.733364
0.782986 0.845670 0.737453
0.807309 0.853666 0.741451
0.831785 0.861051 0.745357
0.855955 0.867765 0.748928
0.879728 0.874113 0.752651
0.907134 0.884489 0.762387
0.933349 0.896818 0.777035
0.943297 0.897246 0.792081
0.949798 0.896757 0.807889
0.955993 0.897948 0.823850
0.641444 0.776577 0.721706
0.642634 0.777249 0.722560
0.643488 0.777676 0.723110
0.644434 0.778103 0.723568
0.645686 0.778378 0.724025
0.647150 0.778744 0.724544
0.649317 0.779385 0.725338
0.652277 0.780362 0.726589
0.656245 0.781735 0.728450
0.661372 0.783627 0.731014
0.668147 0.785794 0.734493
0.677119 0.788266 0.739284
0.686793 0.791073 0.744533
0.696864 0.793881 0.749935
0.700771 0.799649 0.751095
0.704860 0.806149 0.751431
0.710780 0.812894 0.752132
0.718898 0.820096 0.753170
0.729946 0.827787 0.755154
0.743740 0.835874 0.758022
0.759823 0.844022 0.761440
0.777646 0.851926 0.765133
0.796414 0.859434 0.768765
0.815976 0.866453 0.772305
0.835874 0.872953 0.775631
0.855802 0.878904 0.778653
0.875669 0.884550 0.781979
0.895476 0.889799 0.785214
0.917937 0.898192 0.793423
0.940581 0.909300 0.807279
0.951690 0.912169 0.820981
0.957641 0.912322 0.835386
0.682368 0.803037 0.753475
0.683253 0.803525 0.754086
0.684260 0.804044 0.754726
0.685359 0.804532 0.755367
0.687190 0.805264 0.756344
0.689967 0.806394 0.757870
0.694423 0.808347 0.760494
0.699977 0.810849 0.763821
0.706844 0.813962 0.768002
0.714809 0.817594 0.772793
0.723842 0.821500 0.778225
0.734463 0.825315 0.784543
0.745357 0.829129 0.790951
0.755947 0.832670 0.797116
0.764187 0.836851 0.801633
0.768093 0.842405 0.802731
0.772824 0.847929 0.803830
0.778927 0.853635 0.805051
0.786801 0.859678 0.806912
0.796506 0.865965 0.809323
0.807675 0.872282 0.812100
0.820005 0.878477 0.814969
0.832975 0.884276 0.817777
0.846525 0.889769 0.820462
0.860410 0.894835 0.822904
0.874601 0.899596 0.825254
0.889097 0.904021 0.827604
0.903624 0.908232 0.830076
0.918242 0.912291 0.832822
0.934569 0.918273 0.838712
0.951965 0.927214 0.849516
0.962646 0.931365 0.860044
0.747280 0.840818 0.801297
0.747433 0.840879 0.801358
0.747555 0.840879 0.801358
0.747921 0.840879 0.801450
0.748623 0.841062 0.801694
0.749844 0.841367 0.802152
0.751766 0.842008 0.803037
0.754482 0.842893 0.804318
0.758053 0.844205 0.806149
0.762478 0.845792 0.808469
0.767453 0.847684 0.811093
0.773983 0.849760 0.814633
0.781399 0.851926 0.818631
0.788998 0.854124 0.822721
