20 Preset/Car Style/【3】LUT video cho PR-AE-FCPX/Tone  (25).cube
# Created by Adobe Lightroom plugin Export LUT (1.24.0)
# www.johnrellis.com/lightroom/exportlut.htm
# Preset: 26汽车质感（素材江湖）
# Color profile: E:\lut插件\exportlut.1.24\exportlut.lrplugin\color profiles\Rec709gamma2.4.icc
LUT_3D_SIZE 8
DOMAIN_MIN 0.000000 0.000000 0.000000
DOMAIN_MAX 0.903226 0.903226 0.903226
0.030365 0.114595 0.095705
0.070619 0.115145 0.096895
0.131197 0.122560 0.102632
0.222629 0.125368 0.108034
0.366888 0.111025 0.113436
0.565759 0.000000 0.119295
0.827115 0.000000 0.132113
0.967926 0.109010 0.176211
0.018311 0.130678 0.101076
0.059083 0.132143 0.102724
0.130190 0.135592 0.107179
0.217227 0.138918 0.110780
0.352209 0.134035 0.115633
0.542412 0.099825 0.121340
0.782834 0.000000 0.130922
0.945922 0.139986 0.167544
0.000000 0.188998 0.112032
0.000000 0.191440 0.104768
0.125978 0.197086 0.118044
0.245518 0.206607 0.131136
0.387091 0.212924 0.135042
0.611780 0.233738 0.136934
0.840665 0.271794 0.158114
0.962615 0.327825 0.217411
0.000000 0.326818 0.102449
0.000000 0.327153 0.085420
0.000000 0.343847 0.037140
0.242008 0.389014 0.124056
0.495949 0.439765 0.170565
0.677119 0.445075 0.216678
0.845640 0.468940 0.246494
0.945983 0.493263 0.301457
0.000000 0.560449 0.000000
0.000000 0.560967 0.000000
0.000000 0.572473 0.000000
0.000000 0.601373 0.000000
0.398169 0.618585 0.162661
0.658289 0.632410 0.298314
0.807858 0.636561 0.360143
0.895689 0.636744 0.446967
0.000000 0.743832 0.091646
0.000000 0.753140 0.033387
0.000000 0.757137 0.000000
0.000000 0.763516 0.000000
0.000000 0.765377 0.157504
0.585809 0.761593 0.374029
0.771115 0.761410 0.557916
0.864073 0.771206 0.605859
0.000000 0.840574 0.312352
0.000000 0.841886 0.306340
0.000000 0.842893 0.257633
0.000000 0.846006 0.108614
0.000000 0.839902 0.280491
0.497169 0.831144 0.446235
0.726864 0.821622 0.599908
0.825284 0.818570 0.723690
0.000000 0.887510 0.550561
0.000000 0.887724 0.546807
0.000000 0.889006 0.534081
0.000000 0.891875 0.510185
0.000000 0.886442 0.470802
0.556634 0.876616 0.597559
0.738186 0.870939 0.693477
0.827726 0.867765 0.754696
0.027588 0.115938 0.104372
0.059266 0.116732 0.106081
0.124025 0.122896 0.111452
0.207767 0.127291 0.118349
0.342016 0.116732 0.125002
0.526635 0.014801 0.132967
0.756008 0.000000 0.144442
0.928801 0.000000 0.172610
0.044892 0.128267 0.109926
0.075959 0.130983 0.112154
0.130098 0.135866 0.116579
0.213626 0.139834 0.121828
0.345098 0.135042 0.128084
0.528923 0.100771 0.135622
0.738460 0.000000 0.145083
0.912840 0.047791 0.169406
0.000000 0.182437 0.128847
0.000000 0.185183 0.122621
0.132326 0.191012 0.129580
0.239231 0.199893 0.142519
0.373968 0.207065 0.145693
0.567590 0.217868 0.150729
0.772824 0.233585 0.162356
0.929412 0.283024 0.202640
0.000000 0.303929 0.130068
0.000000 0.305974 0.118318
0.000000 0.321691 0.088899
0.227298 0.343633 0.142214
0.430152 0.375036 0.175051
0.596246 0.382940 0.206668
0.785794 0.415534 0.218784
0.919463 0.449866 0.265019
0.000000 0.540368 0.097932
0.000000 0.538628 0.027253
0.000000 0.545129 0.000000
0.000000 0.564172 0.000000
0.369299 0.575341 0.167300
0.623072 0.596521 0.275578
0.784085 0.608423 0.336858
0.885313 0.613794 0.416907
0.000000 0.725246 0.135225
0.000000 0.726894 0.102968
0.000000 0.732479 0.000000
0.000000 0.743313 0.000000
0.000000 0.750118 0.141115
0.573175 0.751614 0.364111
0.763149 0.752865 0.540551
0.859556 0.761563 0.587945
0.000000 0.831296 0.305943
0.000000 0.830442 0.291936
0.000000 0.831266 0.240238
0.000000 0.835813 0.000000
0.000000 0.833310 0.254337
0.471534 0.825437 0.424567
0.711330 0.815061 0.575769
0.816648 0.810971 0.706111
0.000000 0.883696 0.533288
0.000000 0.884398 0.534661
0.000000 0.885588 0.520195
0.000000 0.888609 0.494606
0.000000 0.887999 0.500023
0.566186 0.876829 0.607111
0.736141 0.869902 0.692409
0.826444 0.866575 0.753567
0.030762 0.120089 0.126345
0.053162 0.121889 0.128634
0.116518 0.127901 0.138155
0.200931 0.137514 0.156374
0.360052 0.107240 0.171664
0.569177 0.000000 0.176913
0.796628 0.000000 0.206241
0.949218 0.000000 0.246677
0.052979 0.133791 0.135805
0.074281 0.133944 0.137606
0.126741 0.139071 0.145632
0.213291 0.145724 0.161440
0.361852 0.121706 0.170443
0.564172 0.000000 0.181369
0.778866 0.000000 0.204746
0.937377 0.000000 0.242710
0.098482 0.174411 0.160311
0.111788 0.177096 0.162753
0.162417 0.186740 0.171298
0.260227 0.193729 0.178683
0.407294 0.200290 0.190188
0.603113 0.204807 0.207126
0.799191 0.220279 0.229831
0.937407 0.282322 0.272984
0.000000 0.305669 0.215976
0.000000 0.309697 0.213840
0.000000 0.326268 0.170138
0.267155 0.347570 0.205692
0.460853 0.377508 0.247715
0.637873 0.397192 0.269993
0.817197 0.429023 0.293187
0.926543 0.465614 0.344762
0.000000 0.532525 0.247745
0.000000 0.534386 0.234470
0.000000 0.545434 0.165377
0.000000 0.569146 0.099763
0.412116 0.583703 0.260502
0.655146 0.606806 0.335180
0.790097 0.606409 0.403662
0.887999 0.622431 0.468177
0.000000 0.718715 0.283330
0.000000 0.721248 0.272221
0.000000 0.726314 0.208774
0.000000 0.736568 0.000000
0.000000 0.741878 0.225864
0.586999 0.743923 0.414252
0.770108 0.750759 0.563561
0.857877 0.759915 0.618616
0.000000 0.829313 0.404211
0.000000 0.828885 0.393561
0.000000 0.829068 0.353307
0.000000 0.832609 0.263371
0.000000 0.831388 0.300664
0.495796 0.823239 0.466865
0.727535 0.815091 0.614038
0.825193 0.814908 0.724331
0.000000 0.879362 0.581537
0.000000 0.879423 0.575738
0.000000 0.880644 0.562188
0.000000 0.884276 0.546197
0.000000 0.886992 0.515831
0.580163 0.876097 0.626581
0.744961 0.869963 0.707332
0.831022 0.867338 0.762966
0.018952 0.126192 0.165011
0.038880 0.127291 0.168978
0.110323 0.131685 0.181186
0.194125 0.136294 0.204166
0.321263 0.138949 0.238773
0.536339 0.018311 0.289433
0.770901 0.000000 0.314519
0.937499 0.000000 0.328801
0.022583 0.136538 0.181155
0.049958 0.137392 0.183841
0.120333 0.141024 0.194156
0.208194 0.145693 0.215579
0.335943 0.151308 0.248325
0.553033 0.070039 0.295872
0.775051 0.000000 0.314580
0.937743 0.000000 0.328466
0.053834 0.179049 0.211582
0.088685 0.180148 0.215213
0.143282 0.180789 0.226596
0.244480 0.188846 0.245151
0.390204 0.214084 0.286076
0.621698 0.178714 0.321569
0.831907 0.141299 0.340490
0.949248 0.256565 0.377691
0.120912 0.280552 0.278416
0.139406 0.282963 0.280583
0.205692 0.296269 0.291966
0.321111 0.323888 0.315068
0.480568 0.341436 0.330358
0.654932 0.365637 0.352178
0.819730 0.403143 0.385565
0.925200 0.457923 0.434607
0.000000 0.529046 0.414130
0.000000 0.530388 0.412055
0.000000 0.537255 0.402411
0.000000 0.564172 0.321019
0.476417 0.581048 0.398322
0.678523 0.597772 0.459266
0.801236 0.606653 0.502647
0.891508 0.632502 0.544427
0.000000 0.717830 0.491951
0.000000 0.725490 0.493385
0.000000 0.728695 0.456703
0.000000 0.740017 0.369940
0.113130 0.746365 0.361181
0.631312 0.740810 0.520684
0.789334 0.752956 0.613886
0.855924 0.756863 0.665675
0.000000 0.819760 0.548669
0.000000 0.820706 0.544762
0.000000 0.823209 0.523339
0.000000 0.828428 0.472053
0.000000 0.833829 0.392370
0.547662 0.821469 0.547356
0.748531 0.813413 0.664118
0.834531 0.817319 0.742245
0.408179 0.872465 0.670314
0.405768 0.872679 0.667720
0.398322 0.873899 0.657527
0.390631 0.876707 0.637903
0.367498 0.881193 0.598810
0.593927 0.874784 0.653559
0.755306 0.869352 0.727504
0.838621 0.868528 0.778164
0.000000 0.132845 0.232853
0.000000 0.133730 0.237766
0.087037 0.136477 0.251286
0.182254 0.139010 0.277806
0.309697 0.134615 0.319799
0.488960 0.114626 0.382116
0.697322 0.123720 0.449592
0.912474 0.000000 0.492103
0.000000 0.141329 0.251072
0.000000 0.142275 0.255985
0.092744 0.144625 0.267765
0.191318 0.147097 0.289921
0.322850 0.144259 0.331853
0.502190 0.133913 0.392035
0.708492 0.149874 0.456519
0.915343 0.006226 0.494148
0.000000 0.182193 0.296300
0.000000 0.180423 0.299260
0.102602 0.179538 0.308476
0.221073 0.185550 0.330694
0.361578 0.191135 0.366949
0.530236 0.209934 0.413519
0.739132 0.230869 0.472969
0.913787 0.232853 0.496254
0.000000 0.275181 0.356939
0.000000 0.277226 0.359930
0.137575 0.286900 0.375128
0.268650 0.293339 0.406439
0.437720 0.316747 0.439368
0.602319 0.370275 0.480385
0.800015 0.379583 0.513024
0.917845 0.410468 0.522515
0.105959 0.449989 0.458503
0.141665 0.453895 0.461830
0.237888 0.466773 0.472633
0.365667 0.491035 0.492470
0.513664 0.522057 0.517327
0.670588 0.538445 0.531060
0.802670 0.565332 0.555840
0.888823 0.601495 0.590784
0.000000 0.666835 0.581262
0.000000 0.669001 0.582116
0.127749 0.672541 0.579065
0.295781 0.681941 0.572808
0.289830 0.702113 0.497047
0.651514 0.713924 0.596399
0.786801 0.730404 0.657649
0.852079 0.738430 0.692103
0.323308 0.800534 0.667140
0.326574 0.799771 0.664515
0.359777 0.798489 0.657618
0.381537 0.803067 0.638270
0.320165 0.813382 0.576043
0.547875 0.811765 0.592584
0.757748 0.804044 0.696712
0.839872 0.811948 0.746059
0.542748 0.856931 0.730831
0.540276 0.857145 0.728634
0.533349 0.858305 0.720455
0.543359 0.862699 0.712459
0.531304 0.867674 0.685634
0.561608 0.871519 0.661433
0.752010 0.864439 0.737789
0.838804 0.863645 0.785122
0.000000 0.141512 0.347021
0.000000 0.142031 0.352026
0.000000 0.143404 0.364050
0.152590 0.143679 0.390509
0.301183 0.136751 0.438087
0.473854 0.105257 0.495338
0.682033 0.000000 0.565850
0.860502 0.234134 0.623377
0.000000 0.148013 0.352178
0.000000 0.148318 0.355047
0.000000 0.149752 0.366796
0.155306 0.150912 0.392798
0.299931 0.146151 0.433661
0.469734 0.124178 0.489540
0.674708 0.096773 0.558984
0.854185 0.247013 0.617731
0.000000 0.180636 0.410590
0.000000 0.181186 0.412787
0.000000 0.184024 0.424933
0.175570 0.186496 0.440833
0.332494 0.188846 0.475105
0.508965 0.190372 0.525536
0.709651 0.222782 0.587884
0.860563 0.352667 0.634913
0.000000 0.286503 0.483925
0.000000 0.286290 0.485939
0.000000 0.289464 0.502922
0.211063 0.288121 0.531670
0.403815 0.308873 0.563195
0.591638 0.339300 0.601495
0.763058 0.410773 0.642664
0.868803 0.509850 0.673426
0.000000 0.431830 0.546593
0.000000 0.433814 0.548394
0.008301 0.443000 0.557519
0.270359 0.462623 0.576867
0.447181 0.476448 0.610040
0.633112 0.510399 0.637964
0.766171 0.573480 0.667170
0.875090 0.602808 0.686641
0.251713 0.621210 0.635340
0.278843 0.626398 0.640314
0.344182 0.632532 0.645167
0.445869 0.644678 0.654780
0.566888 0.661830 0.668635
0.694453 0.690761 0.694514
0.793576 0.708034 0.710933
0.862699 0.725338 0.727199
0.524559 0.779019 0.739925
0.533867 0.780453 0.741573
0.552453 0.782376 0.742428
0.587701 0.786252 0.743679
0.636988 0.791440 0.742611
0.638758 0.799680 0.704707
0.781033 0.798642 0.747921
0.849577 0.807889 0.773831
0.625116 0.848600 0.783688
0.625391 0.848173 0.782620
0.634730 0.847898 0.781003
0.659052 0.848753 0.780240
0.675624 0.851164 0.771664
0.660670 0.858518 0.742306
0.748714 0.859922 0.755856
0.844175 0.859892 0.800504
0.000000 0.148745 0.485176
0.000000 0.149020 0.490974
0.000000 0.149203 0.501884
0.000000 0.147189 0.526665
0.262028 0.137453 0.559258
0.439857 0.106172 0.600183
0.626581 0.000000 0.649592
0.814420 0.065034 0.699519
0.000000 0.154025 0.483436
0.000000 0.154665 0.489906
0.000000 0.154910 0.500420
0.000000 0.153414 0.520836
0.258579 0.145937 0.551110
0.431067 0.121706 0.588251
0.611933 0.038178 0.634760
0.797787 0.084138 0.684230
0.000000 0.182254 0.530144
0.000000 0.182406 0.532372
0.000000 0.183230 0.539147
0.000000 0.184024 0.555993
0.276707 0.182193 0.580102
0.456611 0.175814 0.615045
0.645167 0.178836 0.662837
0.825711 0.248569 0.709529
0.000000 0.272099 0.595789
0.000000 0.268223 0.595117
0.000000 0.254704 0.599969
0.000000 0.259037 0.615717
0.312627 0.268345 0.635920
0.507500 0.287388 0.665888
0.694362 0.329259 0.702724
0.843320 0.414496 0.731594
0.000000 0.408698 0.631708
0.000000 0.407080 0.631250
0.000000 0.406775 0.637873
0.105928 0.410132 0.656458
0.338628 0.405249 0.675776
0.542931 0.435492 0.696498
0.720394 0.485359 0.722835
0.840970 0.577966 0.747677
0.000000 0.580713 0.693843
0.000000 0.582147 0.694972
0.115480 0.586816 0.698543
0.294896 0.595758 0.705348
0.442847 0.609277 0.714656
0.619104 0.633509 0.738094
0.759915 0.672328 0.757046
0.836881 0.715450 0.773342
0.490181 0.737972 0.752682
0.501061 0.739467 0.753994
0.531670 0.741909 0.755703
0.587427 0.747280 0.759945
0.655146 0.754574 0.765499
0.726741 0.765133 0.774105
0.794675 0.780209 0.787015
0.854063 0.789761 0.795438
0.698726 0.828794 0.811734
0.700679 0.829221 0.812100
0.710719 0.831540 0.814237
0.723873 0.834562 0.816037
0.741207 0.838834 0.817472
0.764767 0.844846 0.817411
0.771878 0.851774 0.798764
0.853513 0.855558 0.822049
0.000000 0.156985 0.650385
0.000000 0.157015 0.653834
0.000000 0.155398 0.657618
0.000000 0.151278 0.672938
0.200961 0.139376 0.692836
0.408881 0.110384 0.715694
0.592950 0.027649 0.742580
0.759823 0.098512 0.768368
0.000000 0.161868 0.647303
0.000000 0.161868 0.650904
0.000000 0.160494 0.656550
0.000000 0.156832 0.670253
0.198520 0.146426 0.689906
0.406226 0.122438 0.712764
0.588098 0.079713 0.738094
0.754238 0.110109 0.763485
0.000000 0.184451 0.664973
0.000000 0.184604 0.666773
0.000000 0.184054 0.670680
0.000000 0.184298 0.687922
0.203769 0.179446 0.702815
0.413916 0.169528 0.720882
0.597101 0.165835 0.744259
0.761807 0.204471 0.767849
0.000000 0.238804 0.693294
0.000000 0.236362 0.695613
0.000000 0.235203 0.699641
0.000000 0.239200 0.710536
0.206424 0.244358 0.724453
0.432288 0.252415 0.740688
0.619135 0.276188 0.759915
0.779751 0.331518 0.779721
0.000000 0.369024 0.718471
0.000000 0.368536 0.720516
0.000000 0.361608 0.723751
0.000000 0.341314 0.733089
0.175113 0.341405 0.743587
0.442329 0.362768 0.755978
0.637232 0.402838 0.771939
0.794400 0.472114 0.789639
0.000000 0.525048 0.744228
0.000000 0.523339 0.743252
0.000000 0.518608 0.741695
0.000000 0.514275 0.746395
0.246342 0.513603 0.758816
0.476478 0.525566 0.776486
0.680598 0.583825 0.791348
0.813565 0.647791 0.805447
0.296178 0.695277 0.784970
0.305180 0.695155 0.784848
0.341527 0.695460 0.784726
0.413550 0.698543 0.786038
0.505455 0.704189 0.788357
0.609491 0.713985 0.792508
0.737636 0.735042 0.808103
0.831113 0.762417 0.820493
0.659541 0.806821 0.818662
0.661646 0.806821 0.818631
0.673060 0.807675 0.819242
0.697505 0.810422 0.821378
0.730312 0.814267 0.824399
0.769345 0.819608 0.828489
0.812955 0.827817 0.834989
0.860868 0.840726 0.845243
