20 Preset/Car Style/【3】LUT video cho PR-AE-FCPX/Tone  (21).cube
# Created by Adobe Lightroom plugin Export LUT (1.24.0)
# www.johnrellis.com/lightroom/exportlut.htm
# Preset: 22汽车质感（素材江湖）
# Color profile: E:\lut插件\exportlut.1.24\exportlut.lrplugin\color profiles\Rec709gamma2.4.icc
LUT_3D_SIZE 32
DOMAIN_MIN 0.0 0.0 0.0
DOMAIN_MAX 1.0 1.0 1.0
0.071565 0.092134 0.088289
0.074830 0.092409 0.088228
0.081819 0.092439 0.088167
0.091035 0.092500 0.088441
0.101686 0.092439 0.089052
0.115175 0.092134 0.089601
0.129763 0.091707 0.090089
0.147189 0.090639 0.090883
0.166567 0.088869 0.091157
0.190402 0.083558 0.091707
0.219150 0.070893 0.092012
0.254978 0.044068 0.091981
0.298924 0.000000 0.091524
0.349096 0.000000 0.090761
0.402838 0.000000 0.089754
0.457832 0.000000 0.087587
0.513054 0.000000 0.084443
0.568444 0.000000 0.080781
0.623926 0.000000 0.074311
0.679652 0.000000 0.063966
0.734524 0.000000 0.053529
0.798642 0.000000 0.037995
0.860838 0.000000 0.022919
0.913054 0.000000 0.007294
0.956939 0.000000 0.000000
0.994385 0.000000 0.000000
1.000000 0.000000 0.000000
1.000000 0.000000 0.000000
1.000000 0.000000 0.000000
1.000000 0.000000 0.000000
1.000000 0.000000 0.000000
1.000000 0.000000 0.000000
0.073426 0.093294 0.088106
0.076112 0.092775 0.088167
0.082429 0.092805 0.088533
0.091402 0.092866 0.088808
0.101869 0.093233 0.088960
0.114778 0.093019 0.089509
0.129152 0.092226 0.090028
0.145907 0.091341 0.090822
0.164981 0.089296 0.091157
0.187747 0.084932 0.091737
0.215640 0.074495 0.092073
0.250065 0.049134 0.092134
0.292302 0.007050 0.091707
0.341558 0.000000 0.091035
0.394537 0.000000 0.089784
0.449073 0.000000 0.088228
0.504601 0.000000 0.085481
0.559838 0.000000 0.081239
0.615290 0.000000 0.075532
0.670741 0.000000 0.065583
0.725124 0.000000 0.055543
0.787869 0.000000 0.041352
0.848264 0.000000 0.025818
0.899565 0.000000 0.011810
0.943542 0.000000 0.000000
0.981659 0.000000 0.000000
1.000000 0.000000 0.000000
1.000000 0.000000 0.000000
1.000000 0.000000 0.000000
1.000000 0.000000 0.000000
1.000000 0.000000 0.000000
1.000000 0.000000 0.000000
0.080385 0.095674 0.088563
0.082673 0.095521 0.088960
0.084352 0.095033 0.089021
0.092164 0.094759 0.088930
0.102449 0.095125 0.089509
0.115267 0.094911 0.090059
0.129397 0.094606 0.090517
0.145571 0.093507 0.090974
0.164309 0.091524 0.091737
0.186954 0.088441 0.091890
0.214420 0.079408 0.092287
0.248142 0.055940 0.092348
0.289250 0.017304 0.091920
0.337469 0.000000 0.091279
0.390021 0.000000 0.090059
0.444160 0.000000 0.088594
0.498939 0.000000 0.086152
0.554284 0.000000 0.081941
0.609644 0.000000 0.075532
0.665095 0.000000 0.066835
0.719722 0.000000 0.057038
0.783505 0.000000 0.042267
0.842374 0.000000 0.026703
0.893065 0.000000 0.013458
0.936706 0.000000 0.000000
0.974792 0.000000 0.000000
1.000000 0.000000 0.000000
1.000000 0.000000 0.000000
1.000000 0.000000 0.000000
1.000000 0.000000 0.000000
1.000000 0.000000 0.000000
1.000000 0.000000 0.000000
0.089723 0.100984 0.089723
0.091188 0.100862 0.089723
0.094118 0.100557 0.089723
0.097810 0.098726 0.089937
0.105837 0.097719 0.090730
0.117098 0.098848 0.091127
0.130953 0.098543 0.091585
0.147005 0.097047 0.092073
0.165469 0.095613 0.092348
0.188022 0.092256 0.092561
0.215061 0.085939 0.092988
0.248173 0.067079 0.092622
0.288609 0.030518 0.092561
0.335821 0.000000 0.091585
0.386572 0.000000 0.090333
0.439612 0.000000 0.088869
0.493263 0.000000 0.086763
0.546960 0.000000 0.082856
0.601160 0.000000 0.077455
0.655726 0.000000 0.068940
0.709529 0.000000 0.057404
0.773495 0.000000 0.043030
0.830594 0.000000 0.028595
0.881285 0.000000 0.015900
0.926543 0.000000 0.001343
0.967010 0.000000 0.000000
1.000000 0.000000 0.000000
1.000000 0.000000 0.000000
1.000000 0.000000 0.000000
1.000000 0.000000 0.000000
1.000000 0.000000 0.000000
1.000000 0.000000 0.000000
0.099123 0.108278 0.091279
0.099550 0.108553 0.091218
0.104952 0.108339 0.091127
0.108553 0.106905 0.091279
0.112795 0.104067 0.091676
0.121981 0.101686 0.092622
0.134432 0.102235 0.092988
0.148409 0.102602 0.092836
0.166751 0.100923 0.093172
0.188296 0.098024 0.093385
0.214817 0.093477 0.093324
0.247135 0.083833 0.093355
0.286900 0.052094 0.092897
0.333013 0.000000 0.092256
0.383307 0.000000 0.090913
0.436286 0.000000 0.089387
0.489876 0.000000 0.086671
0.543938 0.000000 0.082673
0.598383 0.000000 0.077852
0.652552 0.000000 0.069306
0.708858 0.000000 0.057404
0.771450 0.000000 0.043030
0.826841 0.000000 0.027955
0.877104 0.000000 0.014160
0.922515 0.000000 0.000000
0.963531 0.000000 0.000000
1.000000 0.000000 0.000000
1.000000 0.000000 0.000000
1.000000 0.000000 0.000000
1.000000 0.000000 0.000000
1.000000 0.000000 0.000000
1.000000 0.000000 0.000000
0.110140 0.117311 0.092317
0.111727 0.117128 0.092714
0.115755 0.117311 0.092164
0.121889 0.116579 0.092134
0.126253 0.114229 0.092439
0.131319 0.109773 0.093507
0.141543 0.105837 0.094209
0.155520 0.106355 0.094392
0.171969 0.106630 0.094850
0.192233 0.105806 0.094789
0.219120 0.101717 0.094667
0.251804 0.094820 0.094575
0.291722 0.078859 0.093965
0.337438 0.028901 0.092744
0.387640 0.000000 0.091707
0.439704 0.000000 0.089509
0.493385 0.000000 0.087251
0.547295 0.000000 0.082765
0.601678 0.000000 0.077333
0.655573 0.000000 0.067170
0.716640 0.000000 0.054536
0.777279 0.000000 0.038361
0.901915 0.000000 0.000702
0.949157 0.000000 0.000000
0.988922 0.000000 0.000000
1.000000 0.000000 0.000000
1.000000 0.000000 0.000000
1.000000 0.000000 0.000000
1.000000 0.000000 0.000000
1.000000 0.000000 0.000000
1.000000 0.000000 0.000000
1.000000 0.000000 0.000000
0.128023 0.131258 0.093477
0.128481 0.131197 0.093477
0.133333 0.131411 0.093263
0.142336 0.131319 0.092561
0.147524 0.128878 0.092927
0.153353 0.125185 0.093507
0.159976 0.119081 0.095186
0.172915 0.111879 0.095888
0.191775 0.111421 0.095857
0.213382 0.111727 0.096162
0.239902 0.111513 0.096040
0.275425 0.106600 0.095644
0.318303 0.094057 0.094575
0.365667 0.055085 0.092836
0.415656 0.000000 0.090791
0.466773 0.000000 0.088685
0.518669 0.000000 0.085206
0.571191 0.000000 0.079866
0.624842 0.000000 0.071138
0.684352 0.000000 0.057374
0.754665 0.000000 0.041230
0.819150 0.000000 0.022553
0.877531 0.000000 0.004211
0.929656 0.000000 0.000000
0.974395 0.000000 0.000000
1.000000 0.000000 0.000000
1.000000 0.000000 0.000000
1.000000 0.000000 0.000000
1.000000 0.000000 0.000000
1.000000 0.000000 0.000000
1.000000 0.000000 0.000000
1.000000 0.000000 0.000000
0.144808 0.145144 0.094118
0.145632 0.145083 0.093721
0.150240 0.144961 0.093568
0.158328 0.145296 0.093141
0.167971 0.143771 0.092683
0.174258 0.140627 0.093202
0.181643 0.135714 0.094392
0.189364 0.128328 0.096345
0.204166 0.119142 0.097322
0.228122 0.116945 0.097047
0.255711 0.116548 0.096742
0.287694 0.115663 0.096559
0.324102 0.113680 0.095277
0.369574 0.099733 0.093690
0.417945 0.059541 0.091463
0.467323 0.000000 0.088685
0.518029 0.000000 0.084230
0.569543 0.000000 0.078614
0.624506 0.000000 0.068696
0.690181 0.000000 0.052216
0.754391 0.000000 0.034699
0.814725 0.000000 0.016693
0.870542 0.000000 0.000000
0.921263 0.000000 0.000000
0.965606 0.000000 0.000000
1.000000 0.000000 0.000000
1.000000 0.000000 0.000000
1.000000 0.000000 0.000000
1.000000 0.000000 0.000000
1.000000 0.000000 0.000000
1.000000 0.000000 0.000000
1.000000 0.000000 0.000000
0.166690 0.162966 0.093202
0.167514 0.163058 0.093141
0.171511 0.163149 0.092927
0.179477 0.163272 0.092073
0.193149 0.163272 0.091371
0.200198 0.160159 0.091890
0.208438 0.155947 0.092226
0.217746 0.149416 0.093874
0.227726 0.140352 0.096193
0.244388 0.128237 0.098451
0.276555 0.122957 0.097353
0.309850 0.121828 0.096040
0.345678 0.120363 0.095155
0.383978 0.117769 0.093538
0.425238 0.111147 0.091218
0.473274 0.083375 0.088106
0.522637 0.000000 0.082856
0.576410 0.000000 0.075288
0.637110 0.000000 0.060792
0.697658 0.000000 0.044404
0.757687 0.000000 0.026368
0.814328 0.000000 0.007294
0.867857 0.000000 0.000000
0.916838 0.000000 0.000000
0.960266 0.000000 0.000000
0.997192 0.000000 0.000000
1.000000 0.000000 0.000000
1.000000 0.000000 0.000000
1.000000 0.000000 0.000000
1.000000 0.000000 0.000000
1.000000 0.000000 0.000000
1.000000 0.000000 0.000000
0.193881 0.186831 0.090028
0.194644 0.186740 0.090028
0.198459 0.186740 0.089387
0.206546 0.186801 0.088869
0.219547 0.186893 0.087404
0.232303 0.184848 0.086458
0.240604 0.181003 0.087770
0.251560 0.175631 0.088808
0.262577 0.167239 0.091096
0.275425 0.155642 0.094270
0.292332 0.139864 0.097444
0.331670 0.130159 0.095979
0.368475 0.127504 0.093294
0.405493 0.126253 0.092317
0.444343 0.123964 0.090028
0.484352 0.120211 0.085634
0.535668 0.107301 0.077943
0.592920 0.037934 0.063905
0.650477 0.000000 0.047913
0.707790 0.000000 0.031312
0.763455 0.000000 0.012116
0.815305 0.000000 0.000000
0.864073 0.000000 0.000000
0.909361 0.000000 0.000000
0.950195 0.000000 0.000000
0.986481 0.000000 0.000000
1.000000 0.000000 0.000000
1.000000 0.000000 0.000000
1.000000 0.000000 0.000000
1.000000 0.000000 0.000000
1.000000 0.000000 0.000000
1.000000 0.000000 0.000000
0.225315 0.215793 0.078706
0.225864 0.215824 0.078614
0.230106 0.215824 0.076967
0.238132 0.216312 0.074800
0.251469 0.216648 0.071595
0.269688 0.217350 0.065461
0.279850 0.213230 0.066835
0.291325 0.208682 0.070375
0.305425 0.201846 0.073152
0.318791 0.190707 0.081422
0.334112 0.176333 0.088716
0.351324 0.155856 0.093874
0.395758 0.139712 0.092378
0.434241 0.136995 0.088441
0.477119 0.136233 0.084260
0.520287 0.135531 0.079164
0.564141 0.134615 0.067170
0.608820 0.134310 0.050355
0.659876 0.114015 0.032654
0.713832 0.041840 0.014313
0.766201 0.000000 0.000000
0.815396 0.000000 0.000000
0.862425 0.000000 0.000000
0.906371 0.000000 0.000000
0.946410 0.000000 0.000000
0.982086 0.000000 0.000000
1.000000 0.000000 0.000000
1.000000 0.000000 0.000000
1.000000 0.000000 0.000000
1.000000 0.000000 0.000000
1.000000 0.000000 0.000000
1.000000 0.000000 0.000000
0.263127 0.254704 0.038911
0.264469 0.254856 0.038392
0.268650 0.255039 0.037110
0.276738 0.255528 0.033265
0.289738 0.256291 0.028717
0.308659 0.257206 0.020966
0.326665 0.255039 0.018891
0.338201 0.251041 0.021302
0.352483 0.244785 0.025757
0.368811 0.235752 0.032715
0.384344 0.221744 0.048737
0.406165 0.205264 0.064179
0.475410 0.197147 0.065064
0.530541 0.169467 0.067201
0.575311 0.168826 0.046387
0.618952 0.169955 0.030610
0.660548 0.173739 0.017609
0.702358 0.177951 0.000000
0.743221 0.183352 0.000000
0.782528 0.189853 0.000000
0.828824 0.170626 0.000000
0.871916 0.146700 0.000000
0.912261 0.117433 0.000000
0.949187 0.063935 0.000000
0.982361 0.000000 0.000000
1.000000 0.000000 0.000000
1.000000 0.000000 0.000000
1.000000 0.000000 0.000000
1.000000 0.000000 0.000000
1.000000 0.000000 0.000000
1.000000 0.000000 0.000000
1.000000 0.000000 0.000000
0.318822 0.315099 0.000000
0.319554 0.315099 0.000000
0.323339 0.314855 0.000000
0.330938 0.314336 0.000000
0.343938 0.314061 0.000000
0.361822 0.313756 0.000000
0.385229 0.314336 0.000000
0.401434 0.310399 0.000000
0.418891 0.306767 0.000000
0.440040 0.301701 0.000000
0.464454 0.293462 0.000000
0.490394 0.280125 0.000000
0.519219 0.260380 0.000000
0.549554 0.231174 0.019776
0.605371 0.195346 0.032044
0.647181 0.195865 0.009125
0.687526 0.196658 0.000000
0.724056 0.201907 0.000000
0.759640 0.207401 0.000000
0.793790 0.213596 0.000000
0.826810 0.220645 0.000000
0.861326 0.223301 0.000000
0.900847 0.208957 0.000000
0.937713 0.194430 0.000000
0.971160 0.179690 0.000000
1.000000 0.164950 0.000000
1.000000 0.151980 0.000000
1.000000 0.142092 0.000000
1.000000 0.137453 0.000000
1.000000 0.141299 0.000000
1.000000 0.152743 0.000000
1.000000 0.171298 0.003815
0.369085 0.372442 0.000000
0.369787 0.372137 0.000000
0.373266 0.371313 0.000000
0.381109 0.371008 0.000000
0.392889 0.370550 0.000000
0.410864 0.370459 0.000000
0.434363 0.371221 0.000000
0.457496 0.368078 0.000000
0.472358 0.363500 0.000000
0.491279 0.358373 0.000000
0.514366 0.351720 0.000000
0.539727 0.341009 0.000000
0.566125 0.324895 0.000000
0.594141 0.302525 0.000000
0.622187 0.270634 0.000000
0.671229 0.232059 0.000000
0.711513 0.225742 0.000000
0.746578 0.226139 0.000000
0.778683 0.231235 0.000000
0.809140 0.237613 0.000000
0.839017 0.244755 0.000000
0.868742 0.253025 0.000000
0.897765 0.262333 0.000000
0.930144 0.262455 0.000000
0.963714 0.253422 0.000000
0.994232 0.245090 0.000000
1.000000 0.238071 0.000000
1.000000 0.232334 0.000000
1.000000 0.230350 0.000000
1.000000 0.232486 0.000000
1.000000 0.238834 0.000000
1.000000 0.249943 0.016846
0.419684 0.430365 0.000000
0.420691 0.430182 0.000000
0.423529 0.429114 0.000000
0.430304 0.427924 0.000000
0.441138 0.426337 0.000000
0.457191 0.424964 0.000000
0.478981 0.424628 0.000000
0.506493 0.425055 0.000000
0.522850 0.418463 0.000000
0.539727 0.413519 0.000000
0.560967 0.407904 0.000000
0.586084 0.400427 0.000000
0.611017 0.387549 0.000000
0.636530 0.369726 0.000000
0.662684 0.344305 0.000000
0.687709 0.310155 0.000000
0.729946 0.270756 0.000000
0.768795 0.257206 0.000000
0.799435 0.258091 0.000000
0.827695 0.261814 0.000000
0.854612 0.269139 0.000000
0.881590 0.277440 0.000000
0.908263 0.286809 0.000000
0.934142 0.296971 0.000000
0.958709 0.307866 0.000000
0.987579 0.305455 0.000000
1.000000 0.300725 0.000000
1.000000 0.297673 0.000000
1.000000 0.297002 0.000000
1.000000 0.300237 0.000000
1.000000 0.306828 0.000000
1.000000 0.316747 0.069215
0.465949 0.481147 0.000000
0.467140 0.481270 0.000000
0.470161 0.480842 0.000000
0.477424 0.480385 0.000000
0.488380 0.479683 0.000000
0.504356 0.479408 0.000000
0.525505 0.479835 0.000000
0.553307 0.481086 0.000000
0.578668 0.477852 0.000000
0.594385 0.473518 0.000000
0.612757 0.467720 0.000000
0.633631 0.459937 0.000000
0.656916 0.449287 0.000000
0.677211 0.432258 0.000000
0.698482 0.410346 0.000000
0.719875 0.382086 0.000000
0.741756 0.346441 0.000000
0.777401 0.306920 0.000000
0.815976 0.287510 0.000000
0.843534 0.288792 0.000000
0.870817 0.292210 0.000000
0.895903 0.301518 0.000000
0.920867 0.311406 0.000000
0.945098 0.321965 0.000000
0.968231 0.333318 0.000000
0.990356 0.345129 0.000000
1.000000 0.356878 0.000000
1.000000 0.354925 0.000000
1.000000 0.355077 0.000000
1.000000 0.357305 0.000000
1.000000 0.361944 0.041047
1.000000 0.369390 0.098909
0.509514 0.527642 0.000000
0.510826 0.527581 0.000000
0.514427 0.527337 0.000000
0.520409 0.527001 0.000000
0.531212 0.526726 0.000000
0.546380 0.526543 0.000000
0.566003 0.526940 0.000000
0.591302 0.527733 0.000000
0.621424 0.529168 0.000000
0.638361 0.522515 0.000000
0.654536 0.517144 0.000000
0.672877 0.510277 0.000000
0.693019 0.501213 0.000000
0.713649 0.488106 0.000000
0.732479 0.469703 0.000000
0.751644 0.446723 0.000000
0.771084 0.418341 0.000000
0.791653 0.383459 0.000000
0.822538 0.344854 0.000000
0.861082 0.320714 0.000000
0.886564 0.323003 0.000000
0.911955 0.326482 0.000000
0.934936 0.335882 0.000000
0.957122 0.346868 0.000000
0.978546 0.358404 0.000000
0.999054 0.370367 0.000000
1.000000 0.383124 0.000000
1.000000 0.396551 0.000000
1.000000 0.406500 0.000000
1.000000 0.408881 0.038544
1.000000 0.413306 0.096468
1.000000 0.419745 0.125673
0.557244 0.574792 0.000000
0.558801 0.575250 0.000000
0.595758 0.607080 0.000000
0.601923 0.606775 0.000000
0.611688 0.606378 0.000000
0.625574 0.605554 0.000000
0.643488 0.605097 0.000000
0.666224 0.604822 0.000000
0.693385 0.605035 0.000000
0.718105 0.600244 0.000000
0.731533 0.594629 0.000000
0.746426 0.587518 0.000000
0.762325 0.577844 0.000000
0.779110 0.565301 0.000000
0.795254 0.548943 0.000000
0.810239 0.527947 0.000000
0.825254 0.502586 0.000000
0.841276 0.472572 0.000000
0.858152 0.437324 0.000000
0.882353 0.398535 0.000000
0.918547 0.369482 0.000000
0.939666 0.371466 0.000000
0.960296 0.374609 0.000000
0.979400 0.381415 0.000000
0.996399 0.391577 0.000000
1.000000 0.401892 0.000000
1.000000 0.412665 0.000000
1.000000 0.424140 0.018647
1.000000 0.437140 0.070283
1.000000 0.451698 0.102907
1.000000 0.460151 0.127230
1.000000 0.465644 0.151858
0.611994 0.625757 0.000000
0.615564 0.628473 0.000000
0.621790 0.631281 0.000000
0.629877 0.633631 0.000000
0.640925 0.635187 0.000000
0.654139 0.635492 0.000000
0.670863 0.635035 0.000000
0.690944 0.634485 0.000000
0.714626 0.634272 0.000000
0.742123 0.634241 0.000000
0.757137 0.626520 0.000000
0.769894 0.620264 0.000000
0.783597 0.611994 0.000000
0.798337 0.601678 0.000000
0.813809 0.588800 0.000000
0.828641 0.572076 0.000000
0.842924 0.551537 0.000000
0.858000 0.528099 0.000000
0.874174 0.500389 0.000000
0.891508 0.468574 0.000000
0.913176 0.432654 0.000000
0.950713 0.402045 0.000000
0.970001 0.404791 0.000000
0.988617 0.408484 0.000000
1.000000 0.413062 0.000000
1.000000 0.423743 0.000000
1.000000 0.434424 0.007599
1.000000 0.445808 0.076295
1.000000 0.458442 0.107057
1.000000 0.472358 0.129702
1.000000 0.487587 0.151705
1.000000 0.503838 0.173983
0.647303 0.657313 0.000000
0.650660 0.659968 0.000000
0.656336 0.662654 0.000000
0.664149 0.665064 0.000000
0.674220 0.666529 0.000000
0.686213 0.666926 0.000000
0.701106 0.666590 0.000000
0.718532 0.665980 0.000000
0.740017 0.665461 0.000000
0.764218 0.665064 0.000000
0.786252 0.660029 0.000000
0.797086 0.654322 0.000000
0.809140 0.647089 0.000000
0.822019 0.638422 0.000000
0.835721 0.627710 0.000000
0.850248 0.614588 0.000000
0.863523 0.597986 0.000000
0.877073 0.578332 0.000000
0.891630 0.555962 0.000000
0.907286 0.530388 0.000000
0.923674 0.501122 0.000000
0.942504 0.467659 0.000000
0.977264 0.440406 0.000000
0.996948 0.438636 0.000000
1.000000 0.441901 0.000000
1.000000 0.446113 0.000000
1.000000 0.455756 0.031434
1.000000 0.467201 0.101076
1.000000 0.479683 0.128878
1.000000 0.493294 0.152743
1.000000 0.507927 0.175357
1.000000 0.523674 0.197818
0.683284 0.688533 0.000000
0.686122 0.690730 0.000000
0.691371 0.692927 0.000000
0.698085 0.694820 0.000000
0.706722 0.696071 0.000000
0.717220 0.696345 0.000000
0.730587 0.696010 0.000000
0.746059 0.695460 0.000000
0.765133 0.694881 0.000000
0.786648 0.694423 0.000000
0.811368 0.694087 0.000000
0.824033 0.686519 0.000000
0.834318 0.680232 0.000000
0.845518 0.672755 0.000000
0.857511 0.663966 0.000000
0.870542 0.653193 0.000000
0.884672 0.641016 0.000000
0.897948 0.625696 0.000000
0.912139 0.608667 0.000000
0.927459 0.589563 0.000000
0.943786 0.567590 0.000000
0.960662 0.542535 0.000000
0.977844 0.513390 0.000000
1.000000 0.490547 0.098329
1.000000 0.485969 0.116335
1.000000 0.490608 0.121798
1.000000 0.495888 0.127596
1.000000 0.504997 0.147311
1.000000 0.517937 0.176120
1.000000 0.531670 0.201572
1.000000 0.546319 0.226169
1.000000 0.561578 0.249882
0.733852 0.730587 0.000000
0.735409 0.731350 0.000000
0.737789 0.731868 0.000000
0.742061 0.732082 0.000000
0.748501 0.731899 0.000000
0.756802 0.731289 0.000000
0.767514 0.730556 0.000000
0.781247 0.729702 0.000000
0.797665 0.729061 0.000000
0.816861 0.728573 0.000000
0.838529 0.728237 0.000000
0.857206 0.723659 0.000000
0.865904 0.717983 0.000000
0.875364 0.711513 0.000000
0.885588 0.703670 0.000000
0.896483 0.694606 0.000000
0.908202 0.684016 0.000000
0.920592 0.671687 0.000000
0.932311 0.656672 0.000000
0.945006 0.640101 0.000000
0.958190 0.621546 0.000000
0.972259 0.600427 0.000000
0.986694 0.576379 0.000000
1.000000 0.548791 0.111849
1.000000 0.526909 0.147005
1.000000 0.518608 0.163455
1.000000 0.523522 0.169497
1.000000 0.529534 0.176791
1.000000 0.537652 0.189181
1.000000 0.551446 0.218540
1.000000 0.565789 0.245487
1.000000 0.580682 0.271061
0.765652 0.756222 0.000000
0.766537 0.756802 0.000000
0.769284 0.757259 0.000000
0.773281 0.757412 0.000000
0.778592 0.757321 0.000000
0.785611 0.756893 0.000000
0.795621 0.756191 0.000000
0.807584 0.755489 0.000000
0.821866 0.754971 0.000000
0.838743 0.754513 0.000000
0.857450 0.754116 0.000000
0.878508 0.753719 0.000000
0.889097 0.746853 0.000000
0.897276 0.741451 0.000000
0.906188 0.734951 0.000000
0.915801 0.727565 0.000000
0.926177 0.718929 0.000000
0.937255 0.709041 0.000000
0.948577 0.697261 0.000000
0.959564 0.683680 0.000000
0.971252 0.668574 0.000000
0.983459 0.651575 0.000000
0.996185 0.632471 0.023011
1.000000 0.610895 0.128206
1.000000 0.578393 0.154421
1.000000 0.557763 0.182528
1.000000 0.547265 0.201266
1.000000 0.552850 0.208957
1.000000 0.559625 0.218326
1.000000 0.567834 0.230076
1.000000 0.581689 0.257786
1.000000 0.596887 0.286412
0.803403 0.785824 0.000000
0.804807 0.786679 0.000000
0.806943 0.787015 0.000000
0.809873 0.786709 0.000000
0.813596 0.785946 0.000000
0.818967 0.784756 0.000000
0.826047 0.783352 0.000000
0.835416 0.781827 0.000000
0.846738 0.780362 0.000000
0.860349 0.779049 0.000000
0.875822 0.777707 0.000000
0.893492 0.776577 0.000000
0.908507 0.772152 0.000000
0.914977 0.766110 0.000000
0.921752 0.759762 0.000000
0.929290 0.752621 0.000000
0.937743 0.744503 0.000000
0.947021 0.735805 0.000000
0.957275 0.726253 0.000000
0.967712 0.715389 0.000000
0.978210 0.702907 0.000000
0.989014 0.689082 0.000000
1.000000 0.673152 0.041779
1.000000 0.654902 0.130648
1.000000 0.633997 0.169436
1.000000 0.610132 0.199954
1.000000 0.590448 0.223972
1.000000 0.577539 0.242771
1.000000 0.583032 0.251072
1.000000 0.590051 0.261570
1.000000 0.598657 0.274662
1.000000 0.611170 0.297978
0.826352 0.803555 0.000000
0.827604 0.804318 0.000000
0.829740 0.804715 0.000000
0.832273 0.804715 0.000000
0.836149 0.804379 0.000000
0.841489 0.803891 0.000000
0.848753 0.803250 0.000000
0.857694 0.802609 0.000000
0.868467 0.802029 0.000000
0.880827 0.801480 0.000000
0.895018 0.800778 0.000000
0.910521 0.800107 0.000000
0.926879 0.799344 0.000000
0.935302 0.792782 0.000000
0.941039 0.787442 0.000000
0.947295 0.781308 0.000000
0.954223 0.774380 0.000000
0.961883 0.766873 0.000000
0.970459 0.758755 0.000000
0.979858 0.749844 0.000000
0.988922 0.739620 0.000000
0.998230 0.728115 0.037720
1.000000 0.715236 0.130373
1.000000 0.700862 0.171481
1.000000 0.684291 0.202152
1.000000 0.665827 0.229587
1.000000 0.645167 0.254490
1.000000 0.627710 0.276493
1.000000 0.614740 0.298589
1.000000 0.620966 0.308934
1.000000 0.628748 0.322087
1.000000 0.638209 0.338231
0.853422 0.823941 0.003601
0.854093 0.824277 0.018189
0.855344 0.824369 0.019287
0.857664 0.824247 0.008545
0.860990 0.823880 0.000000
0.865324 0.823362 0.000000
0.871489 0.822751 0.000000
0.878813 0.822110 0.000000
0.888121 0.821408 0.000000
0.898680 0.820798 0.000000
0.910857 0.820127 0.000000
0.924376 0.819486 0.000000
0.938537 0.818845 0.000000
0.950958 0.815457 0.000000
0.956085 0.809964 0.000000
0.961303 0.804746 0.000000
0.967071 0.798917 0.000000
0.973571 0.792416 0.000000
0.980804 0.785489 0.000000
0.988708 0.778073 0.000000
0.997192 0.769833 0.080995
1.000000 0.760250 0.138094
1.000000 0.749447 0.174441
1.000000 0.737392 0.204593
1.000000 0.723751 0.230686
1.000000 0.708614 0.254215
1.000000 0.691859 0.276616
1.000000 0.673243 0.297551
1.000000 0.657313 0.319036
1.000000 0.646784 0.342229
1.000000 0.651728 0.357427
1.000000 0.660731 0.373877
0.875303 0.840391 0.168612
0.875914 0.840635 0.170657
0.876951 0.840818 0.172000
0.878965 0.840848 0.172091
0.882048 0.840787 0.171054
0.886625 0.840787 0.170291
0.892760 0.841093 0.171359
0.900420 0.841489 0.173129
0.909514 0.842039 0.175937
0.919768 0.842710 0.179416
0.931212 0.843412 0.182162
0.943542 0.843992 0.183444
0.956451 0.844388 0.183932
0.969635 0.844541 0.181613
0.976806 0.839719 0.184878
0.981231 0.835782 0.192721
0.985992 0.831174 0.199313
0.991180 0.826017 0.206668
0.996918 0.820462 0.216434
1.000000 0.814420 0.227970
1.000000 0.807858 0.240238
1.000000 0.800443 0.254276
1.000000 0.791836 0.274784
1.000000 0.782315 0.294499
1.000000 0.771725 0.313115
1.000000 0.760037 0.331182
1.000000 0.747127 0.349004
1.000000 0.733059 0.366888
1.000000 0.718166 0.385504
1.000000 0.705196 0.405676
1.000000 0.698573 0.430579
1.000000 0.702602 0.450416
0.904204 0.862882 0.285618
0.904448 0.862882 0.285344
0.905180 0.862791 0.284733
0.906554 0.862577 0.283360
0.908873 0.862333 0.281498
0.912108 0.862028 0.279545
0.916411 0.861723 0.277775
0.921935 0.861448 0.275517
0.928649 0.861204 0.273533
0.936492 0.861021 0.271366
0.945251 0.860807 0.269627
0.954894 0.860655 0.267521
0.965484 0.860410 0.264286
0.976501 0.860105 0.260990
