20 Preset/Car Style/【3】LUT video cho PR-AE-FCPX/Tone  (20).cube
# Created by Adobe Lightroom plugin Export LUT (1.24.0)
# www.johnrellis.com/lightroom/exportlut.htm
# Preset: 21汽车质感（素材江湖）
# Color profile: E:\lut插件\exportlut.1.24\exportlut.lrplugin\color profiles\Rec709gamma2.4.icc
LUT_3D_SIZE 5
DOMAIN_MIN 0.000000 0.000000 0.000000
DOMAIN_MAX 0.903226 0.903226 0.903226
0.025208 0.092592 0.095186
0.136080 0.093507 0.099245
0.361608 0.000000 0.105348
0.736843 0.000000 0.106294
1.000000 0.000000 0.108949
0.085695 0.136477 0.129061
0.113375 0.144198 0.134310
0.340459 0.157137 0.136202
0.744778 0.000000 0.134432
1.000000 0.000000 0.147860
0.202060 0.316381 0.256321
0.227329 0.321294 0.265812
0.340459 0.399786 0.309056
0.721126 0.534173 0.313146
1.000000 0.553155 0.348486
0.393225 0.648096 0.511620
0.426581 0.658381 0.528344
0.527977 0.695369 0.575891
0.681910 0.752255 0.632380
0.915709 0.847684 0.715602
0.787198 0.885679 0.824186
0.797116 0.887419 0.829068
0.812284 0.884581 0.832578
0.862333 0.902159 0.856870
0.910002 0.919310 0.879179
0.038483 0.098543 0.135897
0.138308 0.091402 0.155703
0.343694 0.000000 0.155550
0.690272 0.000000 0.165347
1.000000 0.000000 0.171359
0.094331 0.143709 0.151186
0.144259 0.161501 0.168856
0.357977 0.149783 0.175601
0.712490 0.000000 0.184360
1.000000 0.000000 0.194308
0.225406 0.316442 0.276707
0.242130 0.326116 0.283482
0.334600 0.379156 0.319280
0.691249 0.489662 0.333776
1.000000 0.537652 0.376623
0.413672 0.648035 0.528985
0.441535 0.660487 0.543725
0.546502 0.698726 0.597559
0.689204 0.752987 0.649928
0.916106 0.845304 0.726040
0.787411 0.884733 0.825498
0.795712 0.886229 0.829252
0.833371 0.894285 0.848783
0.873686 0.907622 0.867308
0.916991 0.923980 0.887633
0.022156 0.109102 0.251865
0.123445 0.104005 0.275731
0.373419 0.000000 0.363195
0.746395 0.000000 0.380560
1.000000 0.000000 0.381628
0.094301 0.160647 0.276493
0.145663 0.157595 0.295995
0.394018 0.091646 0.382055
0.750393 0.000000 0.389990
1.000000 0.000000 0.387549
0.192844 0.311955 0.323888
0.233646 0.334142 0.344274
0.418311 0.445747 0.447333
0.760433 0.441810 0.451362
1.000000 0.461372 0.471717
0.434607 0.632197 0.564538
0.473579 0.645838 0.582910
0.581964 0.702235 0.644373
0.726131 0.766598 0.715908
0.924163 0.834073 0.759945
0.776272 0.874662 0.823636
0.787533 0.878202 0.828946
0.825254 0.889738 0.847227
0.875303 0.905211 0.872313
0.917479 0.922332 0.891081
0.000000 0.118196 0.448188
0.074342 0.109316 0.471290
0.338750 0.000000 0.566491
0.738277 0.000000 0.700587
1.000000 0.000000 0.695369
0.000000 0.160372 0.463600
0.105592 0.155520 0.483558
0.342138 0.087129 0.571435
0.736843 0.000000 0.698909
1.000000 0.000000 0.693385
0.118746 0.304753 0.460853
0.154849 0.314702 0.488991
0.344305 0.341405 0.596460
0.761013 0.312413 0.726833
1.000000 0.440711 0.720302
0.262577 0.560510 0.571008
0.304356 0.573602 0.583307
0.476967 0.643824 0.651209
0.771328 0.782650 0.788724
0.964324 0.779080 0.786130
0.675013 0.845396 0.798001
0.700679 0.850950 0.806790
0.795987 0.875517 0.843809
0.882109 0.906615 0.883909
0.927520 0.926970 0.906157
0.000000 0.104952 0.797452
0.149020 0.061555 0.805570
0.416083 0.000000 0.840482
0.741329 0.000000 0.891203
1.000000 0.000000 0.928740
0.000000 0.162051 0.792813
0.119844 0.148257 0.801663
0.404211 0.000000 0.836790
0.733181 0.000000 0.888884
1.000000 0.000000 0.928038
0.000000 0.315587 0.783688
0.000000 0.311711 0.791989
0.344640 0.291142 0.829099
0.702846 0.181064 0.884977
1.000000 0.000000 0.929168
0.000000 0.552544 0.755947
0.000000 0.552941 0.758846
0.250095 0.563958 0.784237
0.636316 0.605524 0.872374
0.989380 0.676387 0.923461
0.456306 0.813596 0.823697
0.484779 0.816831 0.826474
0.602838 0.834226 0.841855
0.783810 0.869352 0.872343
0.942046 0.934447 0.928130
