20 Preset/Car Style/【3】LUT video cho PR-AE-FCPX/Tone  (22).cube
# Created by Adobe Lightroom plugin Export LUT (1.24.0)
# www.johnrellis.com/lightroom/exportlut.htm
# Preset: 23汽车质感（素材江湖）
# Color profile: E:\lut插件\exportlut.1.24\exportlut.lrplugin\color profiles\Rec709gamma2.4.icc
LUT_3D_SIZE 8
DOMAIN_MIN 0.000000 0.000000 0.000000
DOMAIN_MAX 0.903226 0.903226 0.903226
0.000000 0.080049 0.089204
0.041321 0.080934 0.090913
0.153536 0.083345 0.098909
0.289952 0.020294 0.107607
0.444129 0.000000 0.121645
0.625147 0.000000 0.143557
0.858396 0.000000 0.179995
1.000000 0.000000 0.221286
0.010468 0.097963 0.103883
0.025910 0.103548 0.103395
0.127321 0.110689 0.113741
0.263035 0.103151 0.120119
0.414496 0.026398 0.134310
0.592615 0.000000 0.155184
0.810910 0.000000 0.185885
0.986572 0.000000 0.223941
0.089082 0.160250 0.157259
0.098695 0.162631 0.160311
0.149203 0.193515 0.153597
0.265721 0.206394 0.182620
0.386877 0.217716 0.208988
0.599664 0.231449 0.228641
0.831876 0.247593 0.258854
0.996246 0.283391 0.296025
0.187961 0.269078 0.253269
0.191958 0.270146 0.254063
0.212009 0.294316 0.261875
0.314000 0.374853 0.265843
0.514916 0.435431 0.301030
0.606683 0.434363 0.374151
0.793393 0.464973 0.397223
0.952880 0.495857 0.424537
0.286412 0.420417 0.374487
0.290440 0.422400 0.375891
0.317388 0.437110 0.391150
0.349310 0.499062 0.397406
0.490608 0.581445 0.391943
0.712520 0.640314 0.415839
0.790249 0.625757 0.507256
0.869352 0.658961 0.603296
0.406531 0.586938 0.516289
0.422065 0.599908 0.529137
0.444984 0.610834 0.541100
0.484169 0.640528 0.561151
0.543359 0.695094 0.564996
0.688502 0.755612 0.576379
0.873991 0.814908 0.619837
0.917632 0.805722 0.701991
0.594690 0.744503 0.684260
0.601373 0.748043 0.688441
0.614923 0.752865 0.694575
0.650355 0.764096 0.713619
0.675135 0.791745 0.718990
0.737118 0.827939 0.729183
0.831785 0.861051 0.745357
0.933349 0.896818 0.777035
0.786526 0.862974 0.829007
0.788205 0.863493 0.829740
0.796994 0.866667 0.834073
0.816190 0.873381 0.844175
0.816587 0.871946 0.839780
0.841642 0.892515 0.848417
0.877714 0.911620 0.858335
0.916747 0.925750 0.865507
0.000000 0.083986 0.103639
0.015778 0.091035 0.103243
0.137331 0.090028 0.117342
0.271275 0.042237 0.123964
0.421790 0.000000 0.138857
0.596338 0.000000 0.157290
0.799435 0.000000 0.184512
0.971710 0.000000 0.216556
0.009522 0.100649 0.111482
0.036683 0.106447 0.117098
0.150027 0.109682 0.123751
0.272862 0.101808 0.134157
0.415991 0.034699 0.149722
0.587213 0.000000 0.169467
0.776699 0.000000 0.192813
0.949310 0.000000 0.221714
0.105013 0.163638 0.168368
0.112001 0.166567 0.170382
0.153994 0.191379 0.170016
0.254246 0.204807 0.198459
0.384710 0.214511 0.213291
0.572015 0.218418 0.228794
0.773007 0.213352 0.248447
0.953521 0.232486 0.279423
0.188968 0.260746 0.251865
0.193240 0.262760 0.253330
0.214267 0.282567 0.263493
0.291081 0.341283 0.260777
0.450294 0.380346 0.287785
0.534295 0.385107 0.347478
0.732723 0.413886 0.359747
0.913695 0.446906 0.387030
0.287053 0.411597 0.372137
0.289677 0.411933 0.372290
0.310399 0.422370 0.382544
0.336797 0.471015 0.386053
0.458503 0.543938 0.376165
0.671626 0.603510 0.398962
0.757137 0.595331 0.485573
0.851194 0.631159 0.573510
0.393957 0.568566 0.502495
0.399298 0.571801 0.505516
0.420447 0.584070 0.517235
0.463752 0.615381 0.541863
0.522667 0.674372 0.549187
0.673152 0.741939 0.566155
0.862028 0.802518 0.608484
0.908507 0.792660 0.687739
0.572473 0.727321 0.666255
0.572442 0.726314 0.665034
0.585534 0.730983 0.670741
0.623682 0.744961 0.692073
0.657313 0.778073 0.705013
0.720546 0.816800 0.715480
0.817380 0.850156 0.727840
0.926757 0.887846 0.758267
0.769924 0.853727 0.817777
0.774685 0.855894 0.820645
0.783505 0.858946 0.824918
0.803952 0.866361 0.835782
0.827390 0.877104 0.847807
0.844938 0.893736 0.851469
0.876371 0.910460 0.857572
0.915709 0.924743 0.864530
0.000000 0.095064 0.146334
0.019409 0.099062 0.146792
0.100954 0.119631 0.151125
0.203006 0.155520 0.201389
0.416999 0.068025 0.224247
0.615930 0.000000 0.223087
0.820737 0.000000 0.243656
0.991821 0.000000 0.272557
0.000000 0.111421 0.166201
0.036866 0.116152 0.166018
0.119722 0.137942 0.167819
0.229435 0.160067 0.211246
0.427955 0.084749 0.220768
0.610254 0.000000 0.219547
0.806607 0.000000 0.245853
0.978912 0.000000 0.272618
0.088716 0.171511 0.194980
0.111330 0.177646 0.200656
0.183444 0.202518 0.223850
0.306401 0.205997 0.232395
0.455085 0.206638 0.247044
0.636103 0.197696 0.265843
0.817990 0.180636 0.285771
0.977569 0.195438 0.312596
0.214847 0.277775 0.282994
0.228305 0.285771 0.291203
0.256199 0.303716 0.306310
0.318914 0.357214 0.315435
0.454871 0.388037 0.351843
0.590997 0.407111 0.381079
0.783261 0.427070 0.394049
0.943542 0.453132 0.420691
0.314885 0.424292 0.400458
0.319158 0.426947 0.402228
0.338659 0.440925 0.412970
0.375006 0.483619 0.432715
0.487068 0.560601 0.432776
0.673243 0.603754 0.462074
0.751858 0.602075 0.534295
0.873106 0.640040 0.590570
0.417090 0.574151 0.523003
0.423316 0.578210 0.526757
0.443183 0.589410 0.537346
0.489937 0.611627 0.564721
0.536248 0.668788 0.573602
0.675807 0.737057 0.592981
0.853422 0.794522 0.639185
0.903685 0.792569 0.712490
0.592950 0.734157 0.683345
0.593805 0.733700 0.682856
0.603784 0.736721 0.686213
0.633936 0.748623 0.701869
0.671168 0.776394 0.719600
0.730495 0.817197 0.732601
0.826383 0.853971 0.750973
0.929595 0.891783 0.784787
0.773892 0.854032 0.821408
0.774380 0.853849 0.821256
0.782864 0.856809 0.825223
0.805631 0.866453 0.837797
0.832181 0.875639 0.851774
0.850645 0.894316 0.857481
0.881071 0.911833 0.864286
0.918730 0.926146 0.871122
0.000000 0.106752 0.215427
0.000000 0.110780 0.218112
0.121370 0.132204 0.222507
0.195438 0.174868 0.235966
0.303380 0.220310 0.294896
0.519188 0.222232 0.368719
0.780392 0.000000 0.386816
0.968902 0.000000 0.372198
0.000000 0.124971 0.237522
0.019532 0.129427 0.238590
0.141268 0.150576 0.240421
0.212284 0.192508 0.251133
0.316625 0.236881 0.308019
0.538415 0.226139 0.374426
0.789029 0.000000 0.383551
0.968017 0.000000 0.366278
0.000000 0.176059 0.277226
0.042359 0.182010 0.280400
0.181216 0.204959 0.286595
0.255467 0.246311 0.292454
0.369543 0.302678 0.359289
0.626917 0.245640 0.392859
0.844175 0.114992 0.383642
0.992950 0.000000 0.372869
0.174380 0.280400 0.313664
0.188022 0.285466 0.317967
0.242618 0.309728 0.339330
0.346044 0.363684 0.386450
0.502220 0.367864 0.393744
0.669276 0.371710 0.405005
0.834104 0.380560 0.422400
0.976715 0.402625 0.446693
0.312596 0.425452 0.421729
0.322301 0.430549 0.426642
0.368475 0.458412 0.454200
0.432746 0.503349 0.495674
0.523339 0.575128 0.516289
0.663813 0.599145 0.552667
0.764218 0.614252 0.591913
0.910613 0.640894 0.610956
0.469368 0.598688 0.573602
0.482734 0.609094 0.583886
0.499794 0.617792 0.591211
0.539483 0.640711 0.613336
0.590723 0.683833 0.639246
0.699611 0.744289 0.653681
0.845304 0.787198 0.695125
0.895232 0.791897 0.749966
0.615595 0.738552 0.704067
0.620417 0.741146 0.706844
0.636652 0.748867 0.715053
0.667628 0.763607 0.731655
0.712459 0.783932 0.756741
0.755276 0.822629 0.767178
0.837156 0.857420 0.781888
0.928740 0.891112 0.812924
0.788602 0.859251 0.833524
0.790280 0.859770 0.834165
0.798123 0.862577 0.837613
0.814847 0.869169 0.845640
0.838376 0.877928 0.857542
0.859098 0.894224 0.866453
0.887083 0.912871 0.873625
0.923827 0.928557 0.881712
0.000000 0.125032 0.298314
0.000000 0.129305 0.301396
0.124056 0.147707 0.306249
0.222232 0.190433 0.314336
0.298924 0.247410 0.336797
0.421851 0.301640 0.410468
0.605768 0.400092 0.520867
0.884672 0.318425 0.576013
0.000000 0.141909 0.314977
0.000000 0.146365 0.317723
0.142519 0.164096 0.321599
0.234684 0.204440 0.326207
0.310582 0.261723 0.348608
0.433082 0.316045 0.421729
0.621424 0.403601 0.528252
0.891356 0.322911 0.576623
0.000000 0.192874 0.357855
0.087251 0.196902 0.358831
0.178256 0.213016 0.360876
0.272068 0.252384 0.367529
0.346624 0.310613 0.385687
0.462745 0.363928 0.453254
0.672724 0.408789 0.544244
0.911620 0.327672 0.566430
0.000000 0.273320 0.398505
0.056519 0.277195 0.402991
0.170901 0.295018 0.423743
0.322423 0.343755 0.447913
0.421088 0.411749 0.464515
0.544732 0.474434 0.536065
0.777951 0.435157 0.568048
0.966369 0.359106 0.546014
0.234867 0.402686 0.440284
0.246464 0.408515 0.445472
0.294285 0.431006 0.465339
0.385473 0.477790 0.506523
0.524315 0.550317 0.570916
0.677150 0.547723 0.571374
0.826017 0.551141 0.578698
0.954620 0.563714 0.592248
0.380255 0.535058 0.528985
0.389837 0.540520 0.534356
0.426337 0.558465 0.552331
0.504875 0.599512 0.595544
0.589990 0.649256 0.646479
0.692958 0.723751 0.685908
0.814420 0.756161 0.727626
0.877836 0.771481 0.764157
0.585046 0.715724 0.694942
0.589776 0.716854 0.696468
0.616388 0.726894 0.708797
0.662745 0.749447 0.733425
0.710903 0.774868 0.759915
0.759365 0.810178 0.783993
0.835264 0.849882 0.798764
0.918669 0.877073 0.825010
0.766659 0.844144 0.824033
0.768460 0.844724 0.824613
0.777432 0.847959 0.828092
0.804135 0.860166 0.841733
0.830961 0.871855 0.854826
0.861112 0.886473 0.870603
0.885924 0.908232 0.877775
0.923003 0.925689 0.885557
0.000000 0.151156 0.400427
0.000000 0.154849 0.402777
0.124300 0.170260 0.406348
0.234592 0.204562 0.414984
0.337194 0.271244 0.433356
0.425483 0.342077 0.468330
0.562890 0.404089 0.550439
0.751797 0.538293 0.675013
0.000000 0.162264 0.403235
0.000000 0.165438 0.404211
0.135500 0.179934 0.408026
0.239139 0.213107 0.417762
0.337041 0.275731 0.432074
0.423346 0.345373 0.466163
0.559167 0.407050 0.547601
0.746395 0.537835 0.670771
0.000000 0.208530 0.447364
0.040650 0.211856 0.448249
0.171267 0.226719 0.453773
0.270603 0.257481 0.458015
0.370642 0.319036 0.470283
0.458259 0.393317 0.502312
0.595392 0.459754 0.584497
0.766903 0.581872 0.696071
0.000000 0.280461 0.504051
0.000000 0.284215 0.506493
0.175631 0.305852 0.522332
0.313237 0.345251 0.539025
0.441688 0.414221 0.555627
0.537560 0.497078 0.583093
0.667720 0.565972 0.658473
0.822263 0.647791 0.743893
0.000000 0.388251 0.530510
0.000000 0.391547 0.534081
0.152926 0.406531 0.551019
0.273960 0.437598 0.587152
0.481361 0.510460 0.622766
0.601373 0.592218 0.644556
0.720668 0.652979 0.711208
0.901854 0.632166 0.740139
0.287938 0.529442 0.570245
0.300603 0.536675 0.577111
0.344549 0.553033 0.591424
0.427863 0.585992 0.620539
0.548791 0.637232 0.666224
0.707485 0.717006 0.739681
0.837278 0.719417 0.744533
0.941405 0.724483 0.749416
0.494240 0.674678 0.670771
0.504784 0.679927 0.676112
0.538384 0.693751 0.690364
0.603632 0.721218 0.719265
0.698756 0.763699 0.765316
0.782742 0.807095 0.810605
0.847257 0.850919 0.832273
0.912505 0.868223 0.852842
0.710994 0.823178 0.807431
0.713771 0.823484 0.807980
0.732601 0.829129 0.814878
0.773953 0.843809 0.832364
0.821042 0.862425 0.853147
0.857725 0.880522 0.871092
0.889189 0.903563 0.886595
0.925689 0.924743 0.895140
0.000000 0.177493 0.517418
0.000000 0.181003 0.520531
0.105531 0.194034 0.524987
0.239048 0.223087 0.535637
0.352911 0.274540 0.547967
0.458869 0.362829 0.561883
0.555566 0.441596 0.600763
0.681575 0.501915 0.668177
0.000000 0.185458 0.517144
0.000000 0.188876 0.520592
0.114748 0.201297 0.524987
0.240146 0.228580 0.533227
0.351415 0.278386 0.544793
0.454749 0.363104 0.556847
0.547814 0.438849 0.593133
0.671626 0.496407 0.659236
0.000000 0.221195 0.549523
0.000000 0.224063 0.550591
0.136263 0.235996 0.553399
0.258579 0.262821 0.560845
0.372198 0.312108 0.570886
0.480720 0.398505 0.584344
0.578119 0.481971 0.622583
0.704494 0.547234 0.692103
0.000000 0.281682 0.600732
0.000000 0.283848 0.599847
0.116945 0.295995 0.602136
0.274968 0.325170 0.611139
0.407568 0.377966 0.622095
0.531609 0.469001 0.637812
0.630121 0.558129 0.671656
0.748836 0.620417 0.736202
0.000000 0.356207 0.624781
0.000000 0.357824 0.625635
0.000000 0.369604 0.635004
0.228519 0.401587 0.657343
0.423072 0.457862 0.672755
0.577813 0.545647 0.687770
0.679591 0.633997 0.716365
0.797848 0.701228 0.783444
0.000000 0.497505 0.652583
0.000000 0.500084 0.655299
0.000000 0.509911 0.665644
0.212131 0.529625 0.686885
0.376349 0.561822 0.720699
0.634943 0.652033 0.760586
0.762417 0.739620 0.787411
0.855070 0.792050 0.837156
0.342473 0.649439 0.694240
0.354070 0.652949 0.697353
0.394812 0.663569 0.706294
0.471473 0.686030 0.725582
0.578576 0.720912 0.755367
0.711452 0.771542 0.798856
0.845670 0.837003 0.853635
0.924773 0.835294 0.852811
0.583215 0.777432 0.775174
0.589929 0.779660 0.777401
0.620966 0.790311 0.788235
0.673793 0.807370 0.805692
0.747768 0.831968 0.831174
0.832334 0.864744 0.864286
0.894285 0.897154 0.894499
0.930663 0.924681 0.908537
0.000000 0.218540 0.689265
0.000000 0.221592 0.691157
0.102510 0.232456 0.691157
0.264530 0.258701 0.697292
0.393469 0.306035 0.704494
0.517021 0.385412 0.711513
0.626795 0.506889 0.719234
0.715358 0.581964 0.748745
0.000000 0.223331 0.686275
0.000000 0.226322 0.688228
0.102388 0.237583 0.690059
0.263188 0.262943 0.695186
0.391577 0.309300 0.702388
0.515221 0.387610 0.709712
0.623590 0.505943 0.716304
0.710811 0.579980 0.744839
0.000000 0.247990 0.697658
0.000000 0.250736 0.698573
0.090608 0.261509 0.699611
0.267796 0.288853 0.708797
0.399634 0.334630 0.714229
0.524865 0.410956 0.719753
0.635920 0.527520 0.726955
0.721706 0.601740 0.754208
0.000000 0.288701 0.719051
0.000000 0.291936 0.720455
0.000000 0.303410 0.722469
0.255039 0.330419 0.728878
0.407324 0.378729 0.736233
0.546288 0.457618 0.743618
0.664302 0.571160 0.751644
0.748104 0.646479 0.776577
0.000000 0.345403 0.740261
0.000000 0.347601 0.742428
0.000000 0.354406 0.746578
0.146365 0.380438 0.753689
0.386572 0.429847 0.760708
0.558190 0.509453 0.768551
0.693324 0.618921 0.778500
0.779904 0.700618 0.802884
0.000000 0.448890 0.756100
0.000000 0.447730 0.756039
0.000000 0.445167 0.758480
0.000000 0.454047 0.768490
0.263737 0.491188 0.787625
0.557763 0.579889 0.805905
0.740810 0.691707 0.821775
0.830777 0.777310 0.843290
0.000000 0.620142 0.783230
0.000000 0.620752 0.783841
0.000000 0.623896 0.787137
0.000000 0.633143 0.796323
0.289525 0.649653 0.811917
0.486030 0.676173 0.836210
0.774838 0.770840 0.863218
0.879026 0.849149 0.879576
0.428870 0.773709 0.816037
0.435645 0.774472 0.816556
0.466468 0.779263 0.819974
0.528405 0.790646 0.828367
0.615595 0.808164 0.841093
0.723476 0.833249 0.859159
0.838163 0.869352 0.884703
0.930571 0.917388 0.919768
