20 Preset/Car Style/【3】LUT video cho PR-AE-FCPX/Tone  (9).cube
# Created by Adobe Lightroom plugin Export LUT (1.24.0)
# www.johnrellis.com/lightroom/exportlut.htm
# Preset: 10汽车质感（素材江湖）
# Color profile: E:\lut插件\exportlut.1.24\exportlut.lrplugin\color profiles\Rec709gamma2.4.icc
LUT_3D_SIZE 8
DOMAIN_MIN 0.000000 0.000000 0.000000
DOMAIN_MAX 0.903226 0.903226 0.903226
0.122713 0.122713 0.122713
0.127596 0.127596 0.127596
0.153323 0.153323 0.153323
0.192264 0.192264 0.192264
0.241978 0.241978 0.241978
0.306004 0.306004 0.306004
0.417975 0.417975 0.417975
0.552636 0.552636 0.552636
0.143618 0.143618 0.143618
0.149416 0.149416 0.149416
0.170687 0.170687 0.170687
0.201999 0.201999 0.201999
0.247166 0.247166 0.247166
0.307469 0.307469 0.307469
0.403510 0.403510 0.403510
0.531640 0.531640 0.531640
0.219852 0.219852 0.219852
0.222049 0.222049 0.222049
0.234409 0.234409 0.234409
0.265507 0.265507 0.265507
0.302770 0.302770 0.302770
0.376074 0.376074 0.376074
0.487312 0.487312 0.487312
0.616785 0.616785 0.616785
0.327642 0.327642 0.327642
0.327642 0.327642 0.327642
0.340551 0.340551 0.340551
0.383490 0.383490 0.383490
0.458015 0.458015 0.458015
0.519951 0.519951 0.519951
0.604761 0.604761 0.604761
0.702663 0.702663 0.702663
0.496529 0.496529 0.496529
0.496803 0.496803 0.496803
0.505516 0.505516 0.505516
0.533898 0.533898 0.533898
0.568353 0.568353 0.568353
0.639765 0.639765 0.639765
0.705043 0.705043 0.705043
0.777584 0.777584 0.777584
0.684199 0.684199 0.684199
0.697169 0.697169 0.697169
0.701808 0.701808 0.701808
0.713283 0.713283 0.713283
0.731228 0.731228 0.731228
0.758358 0.758358 0.758358
0.812589 0.812589 0.812589
0.847257 0.847257 0.847257
0.826688 0.826688 0.826688
0.828519 0.828519 0.828519
0.829068 0.829068 0.829068
0.832090 0.832090 0.832090
0.836423 0.836423 0.836423
0.846098 0.846098 0.846098
0.857847 0.857847 0.857847
0.878874 0.878874 0.878874
0.889891 0.889891 0.889891
0.889952 0.889952 0.889952
0.890684 0.890684 0.890684
0.892424 0.892424 0.892424
0.888945 0.888945 0.888945
0.893309 0.893309 0.893309
0.898039 0.898039 0.898039
0.901701 0.901701 0.901701
0.124392 0.124392 0.124392
0.127840 0.127840 0.127840
0.153506 0.153506 0.153506
0.193790 0.193790 0.193790
0.240757 0.240757 0.240757
0.299077 0.299077 0.299077
0.385840 0.385840 0.385840
0.501610 0.501610 0.501610
0.140291 0.140291 0.140291
0.150851 0.150851 0.150851
0.173373 0.173373 0.173373
0.206119 0.206119 0.206119
0.250095 0.250095 0.250095
0.308324 0.308324 0.308324
0.386053 0.386053 0.386053
0.493690 0.493690 0.493690
0.217594 0.217594 0.217594
0.219944 0.219944 0.219944
0.231479 0.231479 0.231479
0.261082 0.261082 0.261082
0.297002 0.297002 0.297002
0.358892 0.358892 0.358892
0.440681 0.440681 0.440681
0.560723 0.560723 0.560723
0.314427 0.314427 0.314427
0.315587 0.315587 0.315587
0.327886 0.327886 0.327886
0.354376 0.354376 0.354376
0.407446 0.407446 0.407446
0.459388 0.459388 0.459388
0.536187 0.536187 0.536187
0.642878 0.642878 0.642878
0.482460 0.482460 0.482460
0.480842 0.480842 0.480842
0.484932 0.484932 0.484932
0.503197 0.503197 0.503197
0.529015 0.529015 0.529015
0.598993 0.598993 0.598993
0.669337 0.669337 0.669337
0.750484 0.750484 0.750484
0.661006 0.661006 0.661006
0.662959 0.662959 0.662959
0.669398 0.669398 0.669398
0.685267 0.685267 0.685267
0.708370 0.708370 0.708370
0.742977 0.742977 0.742977
0.800534 0.800534 0.800534
0.837644 0.837644 0.837644
0.813321 0.813321 0.813321
0.811673 0.811673 0.811673
0.811978 0.811978 0.811978
0.817136 0.817136 0.817136
0.825925 0.825925 0.825925
0.836912 0.836912 0.836912
0.848325 0.848325 0.848325
0.871580 0.871580 0.871580
0.885863 0.885863 0.885863
0.886656 0.886656 0.886656
0.887297 0.887297 0.887297
0.889281 0.889281 0.889281
0.891539 0.891539 0.891539
0.894011 0.894011 0.894011
0.897429 0.897429 0.897429
0.901061 0.901061 0.901061
0.135653 0.135653 0.135653
0.139101 0.139101 0.139101
0.156954 0.156954 0.156954
0.201785 0.201785 0.201785
0.253086 0.253086 0.253086
0.323064 0.323064 0.323064
0.415869 0.415869 0.415869
0.536248 0.536248 0.536248
0.162417 0.162417 0.162417
0.165591 0.165591 0.165591
0.178286 0.178286 0.178286
0.215122 0.215122 0.215122
0.262242 0.262242 0.262242
0.330053 0.330053 0.330053
0.414435 0.414435 0.414435
0.530480 0.530480 0.530480
0.210788 0.210788 0.210788
0.216617 0.216617 0.216617
0.238590 0.238590 0.238590
0.267948 0.267948 0.267948
0.314549 0.314549 0.314549
0.380499 0.380499 0.380499
0.464027 0.464027 0.464027
0.579431 0.579431 0.579431
0.324590 0.324590 0.324590
0.330114 0.330114 0.330114
0.342596 0.342596 0.342596
0.368231 0.368231 0.368231
0.422644 0.422644 0.422644
0.480995 0.480995 0.480995
0.563622 0.563622 0.563622
0.667109 0.667109 0.667109
0.487465 0.487465 0.487465
0.488563 0.488563 0.488563
0.496162 0.496162 0.496162
0.517174 0.517174 0.517174
0.547936 0.547936 0.547936
0.612024 0.612024 0.612024
0.679774 0.679774 0.679774
0.758572 0.758572 0.758572
0.662440 0.662440 0.662440
0.665339 0.665339 0.665339
0.670619 0.670619 0.670619
0.682185 0.682185 0.682185
0.703670 0.703670 0.703670
0.738888 0.738888 0.738888
0.798215 0.798215 0.798215
0.839231 0.839231 0.839231
0.818265 0.818265 0.818265
0.817105 0.817105 0.817105
0.815976 0.815976 0.815976
0.818936 0.818936 0.818936
0.826108 0.826108 0.826108
0.838254 0.838254 0.838254
0.852201 0.852201 0.852201
0.875608 0.875608 0.875608
0.886198 0.886198 0.886198
0.885924 0.885924 0.885924
0.886473 0.886473 0.886473
0.889311 0.889311 0.889311
0.891478 0.891478 0.891478
0.894713 0.894713 0.894713
0.898375 0.898375 0.898375
0.901946 0.901946 0.901946
0.157137 0.157137 0.157137
0.161593 0.161593 0.161593
0.176730 0.176730 0.176730
0.201999 0.201999 0.201999
0.250187 0.250187 0.250187
0.323552 0.323552 0.323552
0.409155 0.409155 0.409155
0.523919 0.523919 0.523919
0.183719 0.183719 0.183719
0.186679 0.186679 0.186679
0.197543 0.197543 0.197543
0.218662 0.218662 0.218662
0.264469 0.264469 0.264469
0.336095 0.336095 0.336095
0.419196 0.419196 0.419196
0.532860 0.532860 0.532860
0.225254 0.225254 0.225254
0.233616 0.233616 0.233616
0.253269 0.253269 0.253269
0.268589 0.268589 0.268589
0.323430 0.323430 0.323430
0.394965 0.394965 0.394965
0.493141 0.493141 0.493141
0.602502 0.602502 0.602502
0.310094 0.310094 0.310094
0.314427 0.314427 0.314427
0.334813 0.334813 0.334813
0.376043 0.376043 0.376043
0.420905 0.420905 0.420905
0.482155 0.482155 0.482155
0.566827 0.566827 0.566827
0.670954 0.670954 0.670954
0.494453 0.494453 0.494453
0.496010 0.496010 0.496010
0.510399 0.510399 0.510399
0.537133 0.537133 0.537133
0.568994 0.568994 0.568994
0.629816 0.629816 0.629816
0.696895 0.696895 0.696895
0.767636 0.767636 0.767636
0.687251 0.687251 0.687251
0.697658 0.697658 0.697658
0.699245 0.699245 0.699245
0.709773 0.709773 0.709773
0.726406 0.726406 0.726406
0.751156 0.751156 0.751156
0.803037 0.803037 0.803037
0.842435 0.842435 0.842435
0.822507 0.822507 0.822507
0.823636 0.823636 0.823636
0.825895 0.825895 0.825895
0.830350 0.830350 0.830350
0.835904 0.835904 0.835904
0.844999 0.844999 0.844999
0.856046 0.856046 0.856046
0.878080 0.878080 0.878080
0.889189 0.889189 0.889189
0.889220 0.889220 0.889220
0.889616 0.889616 0.889616
0.890929 0.890929 0.890929
0.892699 0.892699 0.892699
0.895506 0.895506 0.895506
0.899290 0.899290 0.899290
0.903319 0.903319 0.903319
0.188632 0.188632 0.188632
0.192660 0.192660 0.192660
0.204593 0.204593 0.204593
0.225345 0.225345 0.225345
0.256443 0.256443 0.256443
0.315312 0.315312 0.315312
0.411933 0.411933 0.411933
0.526726 0.526726 0.526726
0.210575 0.210575 0.210575
0.213809 0.213809 0.213809
0.223392 0.223392 0.223392
0.240299 0.240299 0.240299
0.270420 0.270420 0.270420
0.328557 0.328557 0.328557
0.423377 0.423377 0.423377
0.537072 0.537072 0.537072
0.269383 0.269383 0.269383
0.271214 0.271214 0.271214
0.277562 0.277562 0.277562
0.293431 0.293431 0.293431
0.319066 0.319066 0.319066
0.372168 0.372168 0.372168
0.462196 0.462196 0.462196
0.568078 0.568078 0.568078
0.322728 0.322728 0.322728
0.327337 0.327337 0.327337
0.350011 0.350011 0.350011
0.393683 0.393683 0.393683
0.415961 0.415961 0.415961
0.475959 0.475959 0.475959
0.556756 0.556756 0.556756
0.651728 0.651728 0.651728
0.441047 0.441047 0.441047
0.446052 0.446052 0.446052
0.464454 0.464454 0.464454
0.501030 0.501030 0.501030
0.552392 0.552392 0.552392
0.601892 0.601892 0.601892
0.670222 0.670222 0.670222
0.745937 0.745937 0.745937
0.637690 0.637690 0.637690
0.640681 0.640681 0.640681
0.647303 0.647303 0.647303
0.669368 0.669368 0.669368
0.693355 0.693355 0.693355
0.734707 0.734707 0.734707
0.791409 0.791409 0.791409
0.833890 0.833890 0.833890
0.814084 0.814084 0.814084
0.813474 0.813474 0.813474
0.814939 0.814939 0.814939
0.822629 0.822629 0.822629
0.830655 0.830655 0.830655
0.839658 0.839658 0.839658
0.851194 0.851194 0.851194
0.873442 0.873442 0.873442
0.884794 0.884794 0.884794
0.884764 0.884764 0.884764
0.885069 0.885069 0.885069
0.888365 0.888365 0.888365
0.890715 0.890715 0.890715
0.893645 0.893645 0.893645
0.897581 0.897581 0.897581
0.901640 0.901640 0.901640
0.230777 0.230777 0.230777
0.233707 0.233707 0.233707
0.243076 0.243076 0.243076
0.261234 0.261234 0.261234
0.292515 0.292515 0.292515
0.333135 0.333135 0.333135
0.399725 0.399725 0.399725
0.534722 0.534722 0.534722
0.244175 0.244175 0.244175
0.246281 0.246281 0.246281
0.254398 0.254398 0.254398
0.271763 0.271763 0.271763
0.298955 0.298955 0.298955
0.337713 0.337713 0.337713
0.402777 0.402777 0.402777
0.534203 0.534203 0.534203
0.306065 0.306065 0.306065
0.307774 0.307774 0.307774
0.316075 0.316075 0.316075
0.327886 0.327886 0.327886
0.350683 0.350683 0.350683
0.386755 0.386755 0.386755
0.454932 0.454932 0.454932
0.583520 0.583520 0.583520
0.383520 0.383520 0.383520
0.389807 0.389807 0.389807
0.421424 0.421424 0.421424
0.441535 0.441535 0.441535
0.465217 0.465217 0.465217
0.497566 0.497566 0.497566
0.569818 0.569818 0.569818
0.680140 0.680140 0.680140
0.461036 0.461036 0.461036
0.465034 0.465034 0.465034
0.483009 0.483009 0.483009
0.520409 0.520409 0.520409
0.580804 0.580804 0.580804
0.604242 0.604242 0.604242
0.669917 0.669917 0.669917
0.744076 0.744076 0.744076
0.603723 0.603723 0.603723
0.611597 0.611597 0.611597
0.624445 0.624445 0.624445
0.649958 0.649958 0.649958
0.687007 0.687007 0.687007
0.742153 0.742153 0.742153
0.787289 0.787289 0.787289
0.828367 0.828367 0.828367
0.808927 0.808927 0.808927
0.811551 0.811551 0.811551
0.815305 0.815305 0.815305
0.822843 0.822843 0.822843
0.834165 0.834165 0.834165
0.844938 0.844938 0.844938
0.855589 0.855589 0.855589
0.876341 0.876341 0.876341
0.882719 0.882719 0.882719
0.882506 0.882506 0.882506
0.883207 0.883207 0.883207
0.886107 0.886107 0.886107
0.889372 0.889372 0.889372
0.892576 0.892576 0.892576
0.896849 0.896849 0.896849
0.901183 0.901183 0.901183
0.277501 0.277501 0.277501
0.279942 0.279942 0.279942
0.289281 0.289281 0.289281
0.306920 0.306920 0.306920
0.331792 0.331792 0.331792
0.365026 0.365026 0.365026
0.414343 0.414343 0.414343
0.486610 0.486610 0.486610
0.292668 0.292668 0.292668
0.294835 0.294835 0.294835
0.303166 0.303166 0.303166
0.319188 0.319188 0.319188
0.343297 0.343297 0.343297
0.375830 0.375830 0.375830
0.424414 0.424414 0.424414
0.496864 0.496864 0.496864
0.346960 0.346960 0.346960
0.348669 0.348669 0.348669
0.355749 0.355749 0.355749
0.369909 0.369909 0.369909
0.392035 0.392035 0.392035
0.423041 0.423041 0.423041
0.470375 0.470375 0.470375
0.545281 0.545281 0.545281
0.444007 0.444007 0.444007
0.444099 0.444099 0.444099
0.450477 0.450477 0.450477
0.463661 0.463661 0.463661
0.484443 0.484443 0.484443
0.514000 0.514000 0.514000
0.557305 0.557305 0.557305
0.630335 0.630335 0.630335
0.496925 0.496925 0.496925
0.503502 0.503502 0.503502
0.531640 0.531640 0.531640
0.585565 0.585565 0.585565
0.611322 0.611322 0.611322
0.634455 0.634455 0.634455
0.668025 0.668025 0.668025
0.732265 0.732265 0.732265
0.637568 0.637568 0.637568
0.640497 0.640497 0.640497
0.652461 0.652461 0.652461
0.675074 0.675074 0.675074
0.708064 0.708064 0.708064
0.759792 0.759792 0.759792
0.779049 0.779049 0.779049
0.820493 0.820493 0.820493
0.773190 0.773190 0.773190
0.774868 0.774868 0.774868
0.781277 0.781277 0.781277
0.793668 0.793668 0.793668
0.811429 0.811429 0.811429
0.833036 0.833036 0.833036
0.855955 0.855955 0.855955
0.873411 0.873411 0.873411
0.879149 0.879149 0.879149
0.879484 0.879484 0.879484
0.880919 0.880919 0.880919
0.883574 0.883574 0.883574
0.887510 0.887510 0.887510
0.892576 0.892576 0.892576
0.897459 0.897459 0.897459
0.902068 0.902068 0.902068
0.367712 0.367712 0.367712
0.369970 0.369970 0.369970
0.378424 0.378424 0.378424
0.395331 0.395331 0.395331
0.421271 0.421271 0.421271
0.456886 0.456886 0.456886
0.503075 0.503075 0.503075
0.569451 0.569451 0.569451
0.381476 0.381476 0.381476
0.383429 0.383429 0.383429
0.391669 0.391669 0.391669
0.407904 0.407904 0.407904
0.433143 0.433143 0.433143
0.468330 0.468330 0.468330
0.513603 0.513603 0.513603
0.578576 0.578576 0.578576
0.434638 0.434638 0.434638
0.436408 0.436408 0.436408
0.443793 0.443793 0.443793
0.459236 0.459236 0.459236
0.483162 0.483162 0.483162
0.516442 0.516442 0.516442
0.558495 0.558495 0.558495
0.617853 0.617853 0.617853
0.530907 0.530907 0.530907
0.532555 0.532555 0.532555
0.539239 0.539239 0.539239
0.552758 0.552758 0.552758
0.573663 0.573663 0.573663
0.601770 0.601770 0.601770
0.636957 0.636957 0.636957
0.685756 0.685756 0.685756
0.621515 0.621515 0.621515
0.627283 0.627283 0.627283
0.650538 0.650538 0.650538
0.668757 0.668757 0.668757
0.683864 0.683864 0.683864
0.703883 0.703883 0.703883
0.728298 0.728298 0.728298
0.760525 0.760525 0.760525
0.689174 0.689174 0.689174
0.690822 0.690822 0.690822
0.697993 0.697993 0.697993
0.727382 0.727382 0.727382
0.774563 0.774563 0.774563
0.796445 0.796445 0.796445
0.811002 0.811002 0.811002
0.828702 0.828702 0.828702
0.809964 0.809964 0.809964
0.810849 0.810849 0.810849
0.814572 0.814572 0.814572
0.821897 0.821897 0.821897
0.832731 0.832731 0.832731
0.846464 0.846464 0.846464
0.867796 0.867796 0.867796
0.875578 0.875578 0.875578
0.872221 0.872221 0.872221
0.872587 0.872587 0.872587
0.874205 0.874205 0.874205
0.877379 0.877379 0.877379
0.882109 0.882109 0.882109
0.888304 0.888304 0.888304
0.895750 0.895750 0.895750
0.904204 0.904204 0.904204
