20 Preset/Car Style/【3】LUT video cho PR-AE-FCPX/Tone  (8).cube
# Created by Adobe Lightroom plugin Export LUT (1.24.0)
# www.johnrellis.com/lightroom/exportlut.htm
# Preset: 09汽车质感（素材江湖）
# Color profile: E:\lut插件\exportlut.1.24\exportlut.lrplugin\color profiles\Rec709gamma2.4.icc
LUT_3D_SIZE 5
DOMAIN_MIN 0.000000 0.000000 0.000000
DOMAIN_MAX 0.903226 0.903226 0.903226
0.096712 0.096712 0.096712
0.110384 0.110384 0.110384
0.183169 0.183169 0.183169
0.339849 0.339849 0.339849
0.560052 0.560052 0.560052
0.161593 0.161593 0.161593
0.178439 0.178439 0.178439
0.255253 0.255253 0.255253
0.398260 0.398260 0.398260
0.603174 0.603174 0.603174
0.421973 0.421973 0.421973
0.426947 0.426947 0.426947
0.480751 0.480751 0.480751
0.585107 0.585107 0.585107
0.718532 0.718532 0.718532
0.711666 0.711666 0.711666
0.715663 0.715663 0.715663
0.733059 0.733059 0.733059
0.767330 0.767330 0.767330
0.855009 0.855009 0.855009
0.918273 0.918273 0.918273
0.919493 0.919493 0.919493
0.919677 0.919677 0.919677
0.932555 0.932555 0.932555
0.947784 0.947784 0.947784
0.103731 0.103731 0.103731
0.112306 0.112306 0.112306
0.200320 0.200320 0.200320
0.352972 0.352972 0.352972
0.548699 0.548699 0.548699
0.156435 0.156435 0.156435
0.186801 0.186801 0.186801
0.266972 0.266972 0.266972
0.401038 0.401038 0.401038
0.586297 0.586297 0.586297
0.420172 0.420172 0.420172
0.427161 0.427161 0.427161
0.467720 0.467720 0.467720
0.570397 0.570397 0.570397
0.714260 0.714260 0.714260
0.711666 0.711666 0.711666
0.716243 0.716243 0.716243
0.733059 0.733059 0.733059
0.766171 0.766171 0.766171
0.853727 0.853727 0.853727
0.918090 0.918090 0.918090
0.919097 0.919097 0.919097
0.924437 0.924437 0.924437
0.935210 0.935210 0.935210
0.950103 0.950103 0.950103
0.136873 0.136873 0.136873
0.152285 0.152285 0.152285
0.211917 0.211917 0.211917
0.370855 0.370855 0.370855
0.561883 0.561883 0.561883
0.226261 0.226261 0.226261
0.236240 0.236240 0.236240
0.281193 0.281193 0.281193
0.419837 0.419837 0.419837
0.598047 0.598047 0.598047
0.398840 0.398840 0.398840
0.417426 0.417426 0.417426
0.490120 0.490120 0.490120
0.581353 0.581353 0.581353
0.711788 0.711788 0.711788
0.712245 0.712245 0.712245
0.715724 0.715724 0.715724
0.734371 0.734371 0.734371
0.768704 0.768704 0.768704
0.850492 0.850492 0.850492
0.915679 0.915679 0.915679
0.917327 0.917327 0.917327
0.923095 0.923095 0.923095
0.933532 0.933532 0.933532
0.948516 0.948516 0.948516
0.238499 0.238499 0.238499
0.252140 0.252140 0.252140
0.301823 0.301823 0.301823
0.386084 0.386084 0.386084
0.566003 0.566003 0.566003
0.314092 0.314092 0.314092
0.323613 0.323613 0.323613
0.360815 0.360815 0.360815
0.430518 0.430518 0.430518
0.598260 0.598260 0.598260
0.452064 0.452064 0.452064
0.479255 0.479255 0.479255
0.541863 0.541863 0.541863
0.587793 0.587793 0.587793
0.712032 0.712032 0.712032
0.676967 0.676967 0.676967
0.683619 0.683619 0.683619
0.715999 0.715999 0.715999
0.777249 0.777249 0.777249
0.845243 0.845243 0.845243
0.912963 0.912963 0.912963
0.914824 0.914824 0.914824
0.923613 0.923613 0.923613
0.935607 0.935607 0.935607
0.950103 0.950103 0.950103
0.447181 0.447181 0.447181
0.455970 0.455970 0.455970
0.490852 0.490852 0.490852
0.552056 0.552056 0.552056
0.639429 0.639429 0.639429
0.497841 0.497841 0.497841
0.505058 0.505058 0.505058
0.534722 0.534722 0.534722
0.588312 0.588312 0.588312
0.665156 0.665156 0.665156
0.643091 0.643091 0.643091
0.647333 0.647333 0.647333
0.665095 0.665095 0.665095
0.697627 0.697627 0.697627
0.747646 0.747646 0.747646
0.748684 0.748684 0.748684
0.752407 0.752407 0.752407
0.772976 0.772976 0.772976
0.828458 0.828458 0.828458
0.857633 0.857633 0.857633
0.902037 0.902037 0.902037
0.904082 0.904082 0.904082
0.912840 0.912840 0.912840
0.930022 0.930022 0.930022
0.956970 0.956970 0.956970
