20 Preset/Car Style/【3】LUT video cho PR-AE-FCPX/Tone  (4).cube
# Created by Adobe Lightroom plugin Export LUT (1.24.0)
# www.johnrellis.com/lightroom/exportlut.htm
# Preset: 05汽车质感（素材江湖）
# Color profile: E:\lut插件\exportlut.1.24\exportlut.lrplugin\color profiles\Rec709gamma2.4.icc
LUT_3D_SIZE 5
DOMAIN_MIN 0.000000 0.000000 0.000000
DOMAIN_MAX 0.903226 0.903226 0.903226
0.121065 0.116884 0.133120
0.183291 0.115999 0.135195
0.396887 0.101900 0.137575
0.641352 0.025452 0.141024
0.857542 0.032288 0.170901
0.124971 0.183597 0.145418
0.189731 0.194766 0.148074
0.411170 0.201755 0.137789
0.648707 0.204868 0.142336
0.860380 0.214359 0.181552
0.064851 0.417243 0.183841
0.215579 0.414496 0.199893
0.438666 0.478553 0.235630
0.687343 0.472847 0.194034
0.857969 0.423346 0.223239
0.158480 0.643610 0.312963
0.252171 0.643732 0.325292
0.431434 0.662745 0.368780
0.642237 0.722408 0.442481
0.876616 0.751003 0.443122
0.347417 0.844968 0.499611
0.387060 0.844846 0.508782
0.501549 0.840665 0.537774
0.651820 0.862089 0.602045
0.795865 0.877623 0.684504
0.114870 0.115084 0.192691
0.181765 0.113649 0.200626
0.397131 0.017792 0.222995
0.637171 0.000000 0.228977
0.845487 0.000000 0.258732
0.108034 0.186282 0.211093
0.196078 0.190097 0.216068
0.413153 0.185122 0.219303
0.641718 0.185336 0.233768
0.846647 0.207431 0.265873
0.000000 0.417731 0.254643
0.211154 0.415778 0.267979
0.429816 0.460578 0.309972
0.666255 0.441932 0.272313
0.852384 0.422889 0.298741
0.163882 0.643153 0.359442
0.256870 0.643671 0.370489
0.437018 0.656641 0.412024
0.642786 0.717556 0.484138
0.870603 0.742458 0.481147
0.349340 0.844511 0.519768
0.388647 0.844266 0.527855
0.510124 0.844358 0.562188
0.658076 0.862303 0.622736
0.799771 0.877989 0.703059
0.003662 0.100191 0.408331
0.185733 0.082460 0.416693
0.402319 0.000000 0.441505
0.637690 0.000000 0.451514
0.840970 0.000000 0.459327
0.000000 0.158816 0.427588
0.126284 0.149844 0.432685
0.413184 0.075959 0.452979
0.643000 0.104952 0.451087
0.840421 0.211398 0.466041
0.000000 0.412726 0.455848
0.000000 0.416083 0.459663
0.429786 0.430152 0.474769
0.641016 0.428717 0.476081
0.837339 0.439551 0.489204
0.125582 0.640497 0.492866
0.247898 0.641474 0.498360
0.444221 0.644373 0.522820
0.644984 0.700832 0.593652
0.850278 0.698970 0.568963
0.312596 0.842527 0.576013
0.362127 0.842741 0.583459
0.501457 0.843168 0.612665
0.661250 0.854643 0.667933
0.806638 0.875242 0.746212
0.000000 0.000000 0.629267
0.150027 0.000000 0.633478
0.385718 0.000000 0.648951
0.621241 0.000000 0.669703
0.838834 0.000000 0.668269
0.000000 0.124575 0.636286
0.000000 0.110964 0.639338
0.372930 0.000000 0.652644
0.622766 0.000000 0.671443
0.838834 0.000000 0.666560
0.000000 0.359503 0.644282
0.000000 0.355291 0.647486
0.333776 0.342962 0.661463
0.628473 0.332403 0.679133
0.840482 0.378119 0.666468
0.000000 0.621759 0.662593
0.000000 0.622980 0.663661
0.353552 0.631525 0.671412
0.630518 0.653559 0.690272
0.825895 0.653925 0.691188
0.000000 0.835904 0.677760
0.200565 0.837034 0.680354
0.433204 0.842496 0.694575
0.648707 0.846128 0.730739
0.819944 0.871550 0.812284
0.000000 0.000000 0.829618
0.103914 0.000000 0.830838
0.370825 0.000000 0.836942
0.591760 0.000000 0.847868
0.817075 0.000000 0.858732
0.000000 0.000000 0.830167
0.000000 0.000000 0.831449
0.350469 0.000000 0.837186
0.585962 0.000000 0.847807
0.817044 0.000000 0.858701
0.000000 0.286320 0.833890
0.000000 0.284215 0.834684
0.262394 0.276402 0.839658
0.564416 0.259068 0.849516
0.819821 0.254582 0.861814
0.000000 0.562646 0.834379
0.000000 0.559319 0.834623
0.000000 0.548180 0.837919
0.526452 0.542870 0.851072
0.822232 0.566735 0.866423
0.000000 0.821286 0.841733
0.000000 0.821683 0.841978
0.203067 0.824674 0.844175
0.547326 0.831083 0.848844
0.817105 0.849516 0.863767
