20 Preset/Car Style/【3】LUT video cho PR-AE-FCPX/Tone  (9).cube
# Created by Adobe Lightroom plugin Export LUT (1.24.0)
# www.johnrellis.com/lightroom/exportlut.htm
# Preset: 10汽车质感（素材江湖）
# Color profile: E:\lut插件\exportlut.1.24\exportlut.lrplugin\color profiles\Rec709gamma2.4.icc
LUT_3D_SIZE 5
DOMAIN_MIN 0.000000 0.000000 0.000000
DOMAIN_MAX 0.903226 0.903226 0.903226
0.122713 0.122713 0.122713
0.145357 0.145357 0.145357
0.215885 0.215885 0.215885
0.330541 0.330541 0.330541
0.552636 0.552636 0.552636
0.200198 0.200198 0.200198
0.212345 0.212345 0.212345
0.264958 0.264958 0.264958
0.383825 0.383825 0.383825
0.608728 0.608728 0.608728
0.412116 0.412116 0.412116
0.412238 0.412238 0.412238
0.479072 0.479072 0.479072
0.593042 0.593042 0.593042
0.737026 0.737026 0.737026
0.740932 0.740932 0.740932
0.744808 0.744808 0.744808
0.761227 0.761227 0.761227
0.792233 0.792233 0.792233
0.856748 0.856748 0.856748
0.889891 0.889891 0.889891
0.890379 0.890379 0.890379
0.887419 0.887419 0.887419
0.894591 0.894591 0.894591
0.901701 0.901701 0.901701
0.131807 0.131807 0.131807
0.146456 0.146456 0.146456
0.222995 0.222995 0.222995
0.333806 0.333806 0.333806
0.514672 0.514672 0.514672
0.191501 0.191501 0.191501
0.214115 0.214115 0.214115
0.268498 0.268498 0.268498
0.374334 0.374334 0.374334
0.557733 0.557733 0.557733
0.396735 0.396735 0.396735
0.401373 0.401373 0.401373
0.440620 0.440620 0.440620
0.549584 0.549584 0.549584
0.723232 0.723232 0.723232
0.735927 0.735927 0.735927
0.741268 0.741268 0.741268
0.757504 0.757504 0.757504
0.787259 0.787259 0.787259
0.854093 0.854093 0.854093
0.889372 0.889372 0.889372
0.889677 0.889677 0.889677
0.892149 0.892149 0.892149
0.897032 0.897032 0.897032
0.903777 0.903777 0.903777
0.172183 0.172183 0.172183
0.185336 0.185336 0.185336
0.227390 0.227390 0.227390
0.344640 0.344640 0.344640
0.523857 0.523857 0.523857
0.238590 0.238590 0.238590
0.244907 0.244907 0.244907
0.275731 0.275731 0.275731
0.386908 0.386908 0.386908
0.569390 0.569390 0.569390
0.369970 0.369970 0.369970
0.386084 0.386084 0.386084
0.457343 0.457343 0.457343
0.555200 0.555200 0.555200
0.711299 0.711299 0.711299
0.723445 0.723445 0.723445
0.723415 0.723415 0.723415
0.745022 0.745022 0.745022
0.781460 0.781460 0.781460
0.846036 0.846036 0.846036
0.885557 0.885557 0.885557
0.886534 0.886534 0.886534
0.889555 0.889555 0.889555
0.894469 0.894469 0.894469
0.901457 0.901457 0.901457
0.237369 0.237369 0.237369
0.246708 0.246708 0.246708
0.281956 0.281956 0.281956
0.345830 0.345830 0.345830
0.511467 0.511467 0.511467
0.290867 0.290867 0.290867
0.297917 0.297917 0.297917
0.325689 0.325689 0.325689
0.380652 0.380652 0.380652
0.545159 0.545159 0.545159
0.402869 0.402869 0.402869
0.429084 0.429084 0.429084
0.493690 0.493690 0.493690
0.542321 0.542321 0.542321
0.693904 0.693904 0.693904
0.656794 0.656794 0.656794
0.663294 0.663294 0.663294
0.705318 0.705318 0.705318
0.776761 0.776761 0.776761
0.837125 0.837125 0.837125
0.881956 0.881956 0.881956
0.883055 0.883055 0.883055
0.888365 0.888365 0.888365
0.894652 0.894652 0.894652
0.901183 0.901183 0.901183
0.367712 0.367712 0.367712
0.375525 0.375525 0.375525
0.407202 0.407202 0.407202
0.467445 0.467445 0.467445
0.569451 0.569451 0.569451
0.417395 0.417395 0.417395
0.424292 0.424292 0.424292
0.453254 0.453254 0.453254
0.510796 0.510796 0.510796
0.605493 0.605493 0.605493
0.590661 0.590661 0.590661
0.595850 0.595850 0.595850
0.617731 0.617731 0.617731
0.659236 0.659236 0.659236
0.722957 0.722957 0.722957
0.725521 0.725521 0.725521
0.731075 0.731075 0.731075
0.759213 0.759213 0.759213
0.818662 0.818662 0.818662
0.842496 0.842496 0.842496
0.872221 0.872221 0.872221
0.873655 0.873655 0.873655
0.879545 0.879545 0.879545
0.890043 0.890043 0.890043
0.904204 0.904204 0.904204
