20 Preset/Car Style/【3】LUT video cho PR-AE-FCPX/Tone  (3).cube
# Created by Adobe Lightroom plugin Export LUT (1.24.0)
# www.johnrellis.com/lightroom/exportlut.htm
# Preset: 04汽车质感（素材江湖）
# Color profile: E:\lut插件\exportlut.1.24\exportlut.lrplugin\color profiles\Rec709gamma2.4.icc
LUT_3D_SIZE 5
DOMAIN_MIN 0.000000 0.000000 0.000000
DOMAIN_MAX 0.903226 0.903226 0.903226
0.148470 0.119265 0.115999
0.211856 0.112245 0.114626
0.424140 0.038849 0.105745
0.678065 0.000000 0.063264
0.953338 0.000000 0.000000
0.181033 0.155673 0.129641
0.195743 0.150149 0.132876
0.429725 0.181338 0.093263
0.686091 0.155550 0.004089
0.956847 0.000000 0.000000
0.276402 0.269108 0.163638
0.282780 0.250614 0.171420
0.336584 0.250401 0.178897
0.658991 0.330419 0.000000
0.950683 0.374212 0.000000
0.381628 0.394629 0.217899
0.386633 0.381750 0.221805
0.412390 0.364874 0.229465
0.473335 0.360632 0.245029
0.817655 0.459663 0.198856
0.567163 0.611261 0.333898
0.572625 0.602014 0.337682
0.570947 0.550011 0.342504
0.652613 0.580896 0.363622
0.762142 0.598108 0.403754
0.149691 0.116640 0.177707
0.201389 0.124208 0.166934
0.404211 0.037354 0.191379
0.673610 0.000000 0.163088
0.938933 0.000000 0.132265
0.146304 0.185733 0.180240
0.217350 0.183017 0.178408
0.431708 0.159030 0.169802
0.677760 0.084169 0.153750
0.940551 0.000000 0.117861
0.280430 0.315526 0.196475
0.304723 0.295048 0.204166
0.354803 0.275212 0.214847
0.674617 0.345006 0.119173
0.948241 0.359777 0.000000
0.391302 0.424109 0.246067
0.399908 0.410986 0.249332
0.422034 0.380224 0.256107
0.484718 0.376745 0.271000
0.837644 0.475166 0.226200
0.567224 0.627039 0.343603
0.573419 0.616632 0.346777
0.589654 0.577478 0.360418
0.663874 0.595300 0.378851
0.774289 0.611597 0.420966
0.163363 0.093935 0.400427
0.248875 0.081117 0.396155
0.400702 0.116915 0.366522
0.598047 0.180179 0.392981
0.909667 0.000000 0.422431
0.000000 0.162356 0.410224
0.210391 0.156497 0.409735
0.413031 0.196078 0.378027
0.618250 0.238010 0.401740
0.922423 0.001617 0.414588
0.000000 0.422309 0.412421
0.000000 0.420844 0.411170
0.440406 0.411872 0.402716
0.684016 0.394018 0.393896
0.941497 0.359136 0.376745
0.311101 0.556970 0.342992
0.382391 0.544030 0.362036
0.477546 0.479072 0.373022
0.537041 0.452247 0.380713
0.908721 0.539147 0.342535
0.539452 0.697230 0.388739
0.556756 0.687312 0.390906
0.601892 0.641352 0.398566
0.657832 0.607019 0.411597
0.772335 0.621393 0.452522
0.163424 0.000000 0.651087
0.259251 0.000000 0.652613
0.452369 0.000000 0.632593
0.629358 0.193240 0.599115
0.845029 0.271855 0.629847
0.000000 0.125429 0.656519
0.205234 0.111788 0.657313
0.446662 0.143343 0.639063
0.630671 0.258122 0.600244
0.846677 0.321874 0.631250
0.000000 0.375891 0.663630
0.000000 0.368292 0.664332
0.402869 0.366400 0.663661
0.652918 0.426459 0.622278
0.858762 0.482460 0.645533
0.000000 0.673579 0.662867
0.000000 0.671778 0.661036
0.288182 0.669520 0.658869
0.679500 0.659785 0.649012
0.892973 0.643183 0.638422
0.000000 0.820981 0.527703
0.172610 0.817563 0.522850
0.473823 0.797238 0.535332
0.682856 0.709712 0.537377
0.790188 0.674495 0.559472
0.138491 0.000000 0.846494
0.240024 0.000000 0.846464
0.443519 0.000000 0.843381
0.661341 0.236606 0.832273
0.840238 0.376074 0.818204
0.000000 0.020417 0.846738
0.189517 0.000000 0.846616
0.431312 0.092439 0.843961
0.660334 0.287694 0.832578
0.840146 0.412055 0.818082
0.000000 0.330755 0.844877
0.000000 0.332403 0.844633
0.381384 0.340795 0.843259
0.651728 0.423560 0.832914
0.838315 0.531518 0.816312
0.000000 0.580072 0.835019
0.000000 0.577111 0.835172
0.229191 0.568048 0.835172
0.637324 0.615717 0.828428
0.830808 0.711086 0.809049
0.000000 0.822293 0.814481
0.000000 0.822080 0.814237
0.450385 0.820768 0.812924
0.711727 0.818570 0.810544
0.829587 0.816922 0.808713
