20 Preset/Car Style/【3】LUT video cho PR-AE-FCPX/Tone  (13).cube
# Created by Adobe Lightroom plugin Export LUT (1.24.0)
# www.johnrellis.com/lightroom/exportlut.htm
# Preset: 14汽车质感（素材江湖）
# Color profile: E:\lut插件\exportlut.1.24\exportlut.lrplugin\color profiles\Rec709gamma2.4.icc
LUT_3D_SIZE 5
DOMAIN_MIN 0.000000 0.000000 0.000000
DOMAIN_MAX 0.903226 0.903226 0.903226
0.113741 0.128603 0.140414
0.214481 0.151797 0.166384
0.407446 0.181491 0.202640
0.678279 0.209628 0.244724
0.900908 0.332525 0.364935
0.162142 0.223728 0.218509
0.199954 0.226810 0.225010
0.386908 0.267796 0.249943
0.674739 0.324529 0.304204
0.898924 0.415595 0.411414
0.236027 0.473304 0.392767
0.283513 0.465370 0.392859
0.446021 0.494484 0.436591
0.625055 0.551904 0.498848
0.817411 0.612085 0.570916
0.461677 0.698573 0.599847
0.482277 0.697597 0.602564
0.541314 0.699611 0.605707
0.663935 0.708003 0.645777
0.793332 0.764248 0.713558
0.698665 0.861448 0.786221
0.706203 0.861234 0.787808
0.720882 0.851164 0.783566
0.773587 0.861387 0.798306
0.843778 0.872618 0.829313
0.114504 0.136324 0.217136
0.185000 0.176577 0.216190
0.392187 0.182589 0.261570
0.661036 0.185763 0.287633
0.871122 0.316960 0.383398
0.164279 0.225254 0.245090
0.219486 0.237797 0.252140
0.426398 0.259037 0.277165
0.664607 0.310735 0.333257
0.868223 0.394659 0.418647
0.270207 0.469581 0.412604
0.310491 0.466011 0.411902
0.438025 0.477180 0.438239
0.609705 0.534752 0.498482
0.819913 0.605127 0.571405
0.476539 0.698543 0.610376
0.496925 0.698512 0.613245
0.556085 0.698848 0.618708
0.666468 0.706783 0.651759
0.793515 0.763058 0.717037
0.700496 0.861479 0.788876
0.707271 0.860929 0.789792
0.737423 0.860990 0.797696
0.782925 0.867308 0.807950
0.851530 0.878599 0.838132
0.124392 0.157046 0.367468
0.207797 0.178103 0.369848
0.351843 0.242893 0.377325
0.536889 0.377996 0.461158
0.850126 0.371252 0.524071
0.069490 0.225986 0.415045
0.212100 0.235782 0.419715
0.389441 0.313664 0.413489
0.583978 0.406012 0.487282
0.857420 0.411536 0.530022
0.218235 0.466560 0.496895
0.297917 0.474067 0.499611
0.494270 0.507317 0.513787
0.679469 0.531640 0.540398
0.853971 0.579461 0.590173
0.490883 0.706966 0.651606
0.520592 0.701747 0.649836
0.592523 0.700649 0.655024
0.683223 0.710780 0.679438
0.798917 0.760220 0.731624
0.697139 0.859525 0.795895
0.705867 0.860014 0.797421
0.737270 0.860533 0.803250
0.780545 0.864225 0.811398
0.849973 0.874296 0.839170
0.122469 0.165316 0.586084
0.218479 0.173007 0.587152
0.403937 0.243595 0.585016
0.568322 0.393835 0.584192
0.724605 0.528588 0.646326
0.019959 0.226780 0.607355
0.209598 0.236484 0.609979
0.422309 0.312047 0.601587
0.578393 0.433570 0.593988
0.726894 0.554040 0.653986
0.119753 0.442634 0.648341
0.251804 0.449195 0.649348
0.475227 0.488716 0.655604
0.627558 0.562737 0.641535
0.753140 0.649744 0.698299
0.434730 0.679530 0.709316
0.461830 0.680751 0.708339
0.563989 0.693812 0.712459
0.712215 0.720974 0.723110
0.853361 0.740841 0.744869
0.650355 0.872709 0.826230
0.665827 0.872190 0.826413
0.727321 0.871824 0.830381
0.797696 0.870848 0.837125
0.860105 0.877653 0.854673
0.101137 0.157046 0.799832
0.220310 0.171023 0.798672
0.429358 0.263890 0.793881
0.628107 0.428840 0.779843
0.762692 0.572320 0.772244
0.000000 0.227237 0.804227
0.211917 0.240360 0.804166
0.437720 0.322972 0.798215
0.634974 0.462074 0.783536
0.765957 0.592706 0.775387
0.145235 0.429908 0.816800
0.253605 0.437232 0.816617
0.459632 0.473365 0.817319
0.660731 0.566400 0.801633
0.784329 0.664942 0.793057
0.358434 0.655573 0.839811
0.385931 0.656153 0.839353
0.493050 0.662562 0.839261
0.691676 0.700374 0.840208
0.824399 0.770626 0.831601
0.632807 0.847715 0.874723
0.643915 0.848905 0.874907
0.691707 0.855558 0.877165
0.774380 0.868101 0.881224
0.885344 0.889464 0.889921
