20 Preset/Car Style/【3】LUT video cho PR-AE-FCPX/Tone  (20).cube
# Created by Adobe Lightroom plugin Export LUT (1.24.0)
# www.johnrellis.com/lightroom/exportlut.htm
# Preset: 21汽车质感（素材江湖）
# Color profile: E:\lut插件\exportlut.1.24\exportlut.lrplugin\color profiles\Rec709gamma2.4.icc
LUT_3D_SIZE 32
DOMAIN_MIN 0.0 0.0 0.0
DOMAIN_MAX 1.0 1.0 1.0
0.025208 0.092592 0.095186
0.029175 0.092439 0.095155
0.036103 0.092531 0.095491
0.052277 0.092683 0.095766
0.078431 0.093233 0.096284
0.097047 0.093965 0.097078
0.115633 0.093843 0.098238
0.136080 0.093507 0.099245
0.159426 0.092042 0.100069
0.186130 0.088777 0.101167
0.215366 0.081727 0.102022
0.247684 0.065583 0.102968
0.282994 0.037812 0.104067
0.321111 0.000549 0.104738
0.361608 0.000000 0.105348
0.404578 0.000000 0.106538
0.450416 0.000000 0.107179
0.499275 0.000000 0.107790
0.551324 0.000000 0.107881
0.606928 0.000000 0.107668
0.664149 0.000000 0.107240
0.736843 0.000000 0.106294
0.811948 0.000000 0.104799
0.877745 0.000000 0.103426
0.934295 0.000000 0.102358
0.982177 0.000000 0.102144
1.000000 0.000000 0.103059
1.000000 0.000000 0.105409
1.000000 0.000000 0.108949
1.000000 0.000000 0.115267
1.000000 0.000000 0.125185
1.000000 0.000000 0.138308
0.026184 0.092958 0.095521
0.028168 0.092866 0.095491
0.034394 0.093446 0.095796
0.050538 0.093599 0.096040
0.076600 0.094087 0.096956
0.096040 0.094453 0.097414
0.113588 0.094911 0.098543
0.134157 0.094270 0.099550
0.156863 0.093080 0.100404
0.182467 0.090303 0.101137
0.211246 0.084962 0.102022
0.242679 0.071595 0.103059
0.277379 0.044892 0.104219
0.314733 0.010529 0.104921
0.354711 0.000000 0.105592
0.397070 0.000000 0.106538
0.442359 0.000000 0.107240
0.490669 0.000000 0.107942
0.542351 0.000000 0.108156
0.596857 0.000000 0.108156
0.653620 0.000000 0.107729
0.723934 0.000000 0.106661
0.795865 0.000000 0.105409
0.859678 0.000000 0.103975
0.915862 0.000000 0.103090
0.964843 0.000000 0.102419
1.000000 0.000000 0.102480
1.000000 0.000000 0.103670
1.000000 0.000000 0.106813
1.000000 0.000000 0.111940
1.000000 0.000000 0.120485
1.000000 0.000000 0.132662
0.029084 0.094759 0.097200
0.030365 0.095094 0.097139
0.031342 0.095430 0.097475
0.043061 0.096895 0.097963
0.069123 0.097383 0.098878
0.093050 0.098177 0.099641
0.110475 0.098360 0.100008
0.130892 0.097871 0.100649
0.153536 0.096895 0.101503
0.179507 0.094423 0.102235
0.207462 0.090822 0.103120
0.238804 0.082429 0.104158
0.273045 0.061067 0.104891
0.310063 0.027314 0.105653
0.349676 0.000000 0.106722
0.391608 0.000000 0.107332
0.436439 0.000000 0.108400
0.484627 0.000000 0.108797
0.535821 0.000000 0.109041
0.590112 0.000000 0.109377
0.646815 0.000000 0.108980
0.718288 0.000000 0.108095
0.788327 0.000000 0.106935
0.850919 0.000000 0.105623
0.906401 0.000000 0.104280
0.955291 0.000000 0.103334
0.999298 0.000000 0.103243
1.000000 0.000000 0.103822
1.000000 0.000000 0.106600
1.000000 0.000000 0.111299
1.000000 0.000000 0.119356
1.000000 0.000000 0.130861
0.037110 0.098939 0.100710
0.037110 0.098939 0.100710
0.038087 0.099275 0.101015
0.043305 0.100130 0.101595
0.059144 0.103120 0.102174
0.087861 0.104005 0.102907
0.106783 0.104433 0.103212
0.126925 0.104494 0.103822
0.150210 0.103334 0.104341
0.175784 0.102022 0.104616
0.204288 0.098512 0.105501
0.235386 0.093507 0.106081
0.269230 0.083192 0.106813
0.305577 0.056916 0.107546
0.344152 0.016663 0.108614
0.385138 0.000000 0.109224
0.429023 0.000000 0.109957
0.475807 0.000000 0.110780
0.525719 0.000000 0.111086
0.578820 0.000000 0.111147
0.634119 0.000000 0.110964
0.705348 0.000000 0.110201
0.772488 0.000000 0.108919
0.834653 0.000000 0.107973
0.891966 0.000000 0.106538
0.944152 0.000000 0.105318
0.991211 0.000000 0.104860
1.000000 0.000000 0.105959
1.000000 0.000000 0.108370
1.000000 0.000000 0.113313
1.000000 0.000000 0.121004
1.000000 0.000000 0.131716
0.044343 0.105226 0.105806
0.044343 0.105226 0.105806
0.047303 0.105470 0.106081
0.051270 0.105959 0.106661
0.057740 0.107088 0.107149
0.078279 0.110903 0.107851
0.099245 0.112886 0.107973
0.120546 0.112398 0.108278
0.143740 0.112520 0.107973
0.169711 0.111543 0.108583
0.197848 0.109224 0.109071
0.228672 0.105715 0.109316
0.262394 0.099886 0.109926
0.298711 0.090669 0.110903
0.337163 0.066590 0.111818
0.378546 0.020600 0.112612
0.422858 0.000000 0.113558
0.469978 0.000000 0.113832
0.520043 0.000000 0.114046
0.573266 0.000000 0.114321
0.631373 0.000000 0.114168
0.701503 0.000000 0.113497
0.766537 0.000000 0.112306
0.828122 0.000000 0.111177
0.885679 0.000000 0.109834
0.938567 0.000000 0.108522
0.986297 0.000000 0.108309
1.000000 0.000000 0.109224
1.000000 0.000000 0.111604
1.000000 0.000000 0.116304
1.000000 0.000000 0.123781
1.000000 0.000000 0.134524
0.054078 0.112825 0.111604
0.054078 0.112825 0.111604
0.057038 0.113039 0.111879
0.060670 0.113497 0.112734
0.066468 0.114809 0.113161
0.077180 0.116274 0.113802
0.092348 0.120027 0.114931
0.113252 0.123995 0.114015
0.137575 0.124178 0.114351
0.164370 0.123140 0.114656
0.193484 0.122255 0.114626
0.224613 0.120577 0.114992
0.258915 0.116701 0.115175
0.295567 0.110842 0.116213
0.334661 0.102083 0.116884
0.376104 0.087068 0.117525
0.421118 0.037476 0.118135
0.468788 0.000000 0.118746
0.519524 0.000000 0.118868
0.572747 0.000000 0.118776
0.637659 0.000000 0.118807
0.706142 0.000000 0.118013
0.861723 0.000000 0.117281
0.922881 0.000000 0.117159
0.974212 0.000000 0.117800
1.000000 0.000000 0.119539
1.000000 0.000000 0.122499
1.000000 0.000000 0.127535
1.000000 0.000000 0.134524
1.000000 0.000000 0.143404
1.000000 0.000000 0.154788
1.000000 0.000000 0.168978
0.070924 0.124941 0.120577
0.070924 0.124941 0.120577
0.073579 0.125124 0.121096
0.078798 0.125460 0.121859
0.083650 0.126558 0.122225
0.089693 0.128054 0.123049
0.097292 0.130037 0.124025
0.109255 0.134707 0.125856
0.136843 0.141848 0.124239
0.166384 0.143771 0.123964
0.198489 0.142428 0.124758
0.233494 0.140658 0.124910
0.269749 0.138674 0.125246
0.308202 0.135042 0.125246
0.348608 0.129397 0.125460
0.391363 0.120211 0.125856
0.437140 0.105989 0.126284
0.485695 0.080507 0.126284
0.537774 0.000000 0.126284
0.599329 0.000000 0.126009
0.677699 0.000000 0.125856
0.754208 0.000000 0.125124
0.826963 0.000000 0.124514
0.894408 0.000000 0.123964
0.952697 0.000000 0.124331
1.000000 0.000000 0.126162
1.000000 0.000000 0.129122
1.000000 0.000000 0.133211
1.000000 0.000000 0.139528
1.000000 0.000000 0.147616
1.000000 0.000000 0.158480
1.000000 0.000000 0.171878
0.085695 0.136477 0.129061
0.085695 0.136477 0.129061
0.088045 0.136843 0.129488
0.090028 0.137148 0.130434
0.094057 0.138033 0.131533
0.098512 0.139559 0.132265
0.104433 0.141604 0.133120
0.113375 0.144198 0.134310
0.126986 0.149355 0.136660
0.156893 0.159701 0.135348
0.189334 0.163699 0.134951
0.224216 0.163912 0.135378
0.261784 0.160494 0.136477
0.300237 0.159487 0.136263
0.340459 0.157137 0.136202
0.383001 0.152499 0.136080
0.428351 0.145785 0.135683
0.476753 0.135958 0.135622
0.531182 0.121218 0.135378
0.600610 0.097322 0.135500
0.672847 0.015900 0.134920
0.744778 0.000000 0.134432
0.814633 0.000000 0.133700
0.880095 0.000000 0.133333
0.938476 0.000000 0.133944
0.986816 0.000000 0.135164
1.000000 0.000000 0.138064
1.000000 0.000000 0.142061
1.000000 0.000000 0.147860
1.000000 0.000000 0.155795
1.000000 0.061891 0.166445
1.000000 0.149844 0.179965
0.097597 0.150668 0.139712
0.097597 0.150668 0.139712
0.098268 0.151034 0.140108
0.101686 0.151400 0.140932
0.104921 0.152163 0.142367
0.109255 0.153445 0.143221
0.114473 0.155612 0.144167
0.122530 0.158267 0.145388
0.132876 0.161532 0.147097
0.147677 0.167056 0.149783
0.180423 0.180941 0.149660
0.214847 0.187716 0.148470
0.252628 0.190066 0.148562
0.292576 0.188663 0.149325
0.334173 0.184756 0.150698
0.376867 0.184207 0.149477
0.422522 0.181582 0.148714
0.474403 0.178256 0.148379
0.536736 0.174502 0.148440
0.602380 0.167605 0.147951
0.670924 0.158083 0.147219
0.739528 0.145571 0.146456
0.806882 0.130892 0.145632
0.870634 0.116396 0.145663
0.928038 0.104768 0.146181
0.976349 0.100160 0.147677
1.000000 0.104707 0.150271
1.000000 0.119814 0.154574
1.000000 0.143374 0.160616
1.000000 0.171420 0.168521
1.000000 0.201083 0.179324
1.000000 0.233005 0.192477
0.110384 0.167422 0.152163
0.110567 0.167239 0.152193
0.111757 0.167514 0.152346
0.114046 0.167849 0.153292
0.117830 0.168460 0.154543
0.122316 0.169497 0.155917
0.127260 0.171359 0.156741
0.133883 0.174044 0.157992
0.142855 0.177249 0.159457
0.154452 0.181369 0.161654
0.170138 0.186801 0.164370
0.203494 0.203403 0.165835
0.241123 0.213931 0.163668
0.280644 0.218936 0.163210
0.323522 0.220493 0.163882
0.368688 0.218235 0.164950
0.422919 0.218845 0.166537
0.480568 0.222019 0.166049
0.541466 0.223667 0.165408
0.605219 0.223880 0.164126
0.670710 0.222354 0.162905
0.734554 0.219181 0.161746
0.796780 0.215763 0.160800
0.855955 0.213077 0.160189
0.910460 0.210605 0.160342
0.958312 0.210910 0.161288
1.000000 0.213962 0.163699
1.000000 0.220951 0.167605
1.000000 0.233829 0.173831
1.000000 0.250645 0.182376
1.000000 0.270848 0.193423
1.000000 0.294682 0.207462
0.123995 0.184848 0.165072
0.123751 0.185031 0.165225
0.125338 0.185061 0.165560
0.127810 0.185641 0.166537
0.131533 0.186435 0.167788
0.136263 0.187686 0.170016
0.141543 0.189670 0.171176
0.147555 0.192416 0.172549
0.155917 0.196048 0.174258
0.166445 0.200412 0.176364
0.179232 0.205447 0.178775
0.195651 0.211093 0.181704
0.228916 0.229526 0.185367
0.271153 0.245701 0.182223
0.317418 0.257053 0.182315
0.367742 0.264591 0.183352
0.422248 0.268162 0.185061
0.480659 0.267613 0.186984
0.540215 0.270085 0.186587
0.602289 0.273869 0.184695
0.665431 0.276646 0.182559
0.727260 0.278141 0.181033
0.787991 0.279698 0.179568
0.846464 0.280735 0.179049
0.900420 0.282506 0.179385
0.948180 0.285130 0.180545
0.990295 0.289281 0.183078
1.000000 0.295628 0.187564
1.000000 0.305516 0.193790
1.000000 0.318761 0.202731
1.000000 0.335058 0.214115
1.000000 0.354131 0.228763
0.139223 0.206668 0.180850
0.139620 0.206638 0.180850
0.140963 0.206943 0.181430
0.143130 0.207675 0.182376
0.147127 0.208560 0.183597
0.152132 0.209964 0.185794
0.158083 0.212039 0.188296
0.164034 0.215061 0.189822
0.171633 0.218997 0.191592
0.181338 0.223423 0.193790
0.193301 0.228733 0.196445
0.210208 0.237217 0.200992
0.253056 0.271550 0.222385
0.294591 0.300053 0.232547
0.352789 0.330175 0.227695
0.410040 0.348180 0.225528
0.471901 0.360418 0.224979
0.537285 0.367407 0.225223
0.604791 0.369665 0.226505
0.672297 0.366278 0.229282
0.734157 0.371466 0.226719
0.792538 0.375616 0.224521
0.847837 0.378943 0.223392
0.898405 0.382177 0.223362
0.943359 0.384955 0.224460
0.982361 0.387610 0.226627
1.000000 0.390753 0.229953
1.000000 0.395056 0.234562
1.000000 0.401404 0.241276
1.000000 0.410010 0.250278
1.000000 0.421607 0.262028
1.000000 0.436164 0.277592
0.161929 0.240848 0.205051
0.162081 0.240726 0.204929
0.163119 0.240757 0.205325
0.165194 0.240940 0.205783
0.168673 0.241398 0.207004
0.173281 0.242405 0.208743
0.179995 0.244266 0.211582
0.187320 0.248997 0.214878
0.196170 0.255161 0.218204
0.207645 0.263066 0.222629
0.222324 0.273289 0.228275
0.240604 0.285496 0.234958
0.263340 0.299779 0.242893
0.289921 0.315343 0.251255
0.331670 0.345525 0.265507
0.395361 0.382208 0.258610
0.454200 0.401953 0.253880
0.516106 0.415229 0.251652
0.580957 0.423377 0.250492
0.645624 0.425666 0.250736
0.708583 0.423438 0.252842
0.769070 0.420508 0.255192
0.824125 0.425360 0.253239
0.875517 0.429755 0.252262
0.921691 0.433600 0.253025
0.962554 0.436866 0.254582
0.998138 0.440772 0.257694
1.000000 0.445594 0.262608
1.000000 0.451850 0.269627
1.000000 0.460487 0.279057
1.000000 0.471321 0.291630
1.000000 0.484474 0.307561
0.182437 0.276188 0.229343
0.182437 0.276005 0.229129
0.183047 0.275883 0.229282
0.185336 0.276158 0.229862
0.188693 0.276799 0.231205
0.193851 0.278141 0.233280
0.200259 0.280674 0.236423
0.208499 0.284398 0.240543
0.216434 0.289921 0.243320
0.226535 0.297368 0.247318
0.239963 0.307134 0.252598
0.256657 0.319432 0.259342
0.277501 0.333440 0.267124
0.301671 0.348852 0.275212
0.329168 0.364355 0.283330
0.370581 0.393256 0.297215
0.435187 0.432471 0.291417
0.495094 0.453773 0.284337
0.557885 0.468360 0.280583
0.621088 0.476692 0.278843
0.683162 0.480201 0.278935
0.744472 0.479927 0.281559
0.803128 0.476753 0.286107
0.857267 0.477150 0.288487
0.904204 0.482277 0.288731
0.945953 0.486732 0.290105
0.982544 0.491005 0.293095
1.000000 0.495888 0.297551
1.000000 0.502312 0.304875
1.000000 0.510552 0.314794
1.000000 0.520897 0.327916
1.000000 0.533623 0.344823
0.202060 0.316381 0.256321
0.202365 0.316136 0.256260
0.203220 0.315801 0.256199
0.204959 0.315526 0.256535
0.208042 0.315465 0.257267
0.212772 0.316075 0.258854
0.218875 0.317937 0.261631
0.227329 0.321294 0.265812
0.235538 0.326390 0.269535
0.245060 0.333715 0.273350
0.257633 0.343572 0.278721
0.273320 0.355810 0.285527
0.292576 0.369574 0.293004
0.315221 0.384527 0.301183
0.340459 0.399786 0.309056
0.368414 0.414282 0.316533
0.409369 0.441108 0.329656
0.472450 0.479713 0.327642
0.537194 0.505913 0.318853
0.598810 0.520287 0.313817
0.660212 0.529320 0.312230
0.721126 0.534173 0.313146
0.779660 0.535912 0.316350
0.835599 0.534447 0.321477
0.886381 0.530480 0.328862
0.929412 0.533898 0.331640
0.966949 0.539513 0.334722
0.999908 0.545678 0.340307
1.000000 0.553155 0.348486
1.000000 0.562799 0.360327
1.000000 0.574273 0.375860
1.000000 0.587976 0.395850
0.219303 0.355322 0.282353
0.219638 0.355627 0.282658
0.220951 0.355596 0.282994
0.223026 0.356085 0.283818
0.226383 0.356664 0.284947
0.231724 0.358312 0.287266
0.238499 0.361212 0.290806
0.247532 0.365545 0.295598
0.258335 0.371557 0.301823
0.267796 0.379126 0.305791
0.279362 0.388098 0.310674
0.293553 0.398505 0.316289
0.310460 0.410071 0.322362
0.329931 0.422217 0.328862
0.352056 0.434730 0.335241
0.377111 0.447333 0.341650
0.405188 0.460578 0.348455
0.445228 0.484871 0.360845
0.507256 0.523278 0.364782
0.575830 0.552941 0.355474
0.637232 0.568780 0.350805
0.698573 0.579858 0.351110
0.757809 0.587030 0.353613
0.814298 0.590967 0.358343
0.865812 0.591699 0.365301
0.912230 0.590570 0.374670
0.953185 0.588769 0.385962
0.986206 0.596002 0.391913
1.000000 0.603754 0.400397
1.000000 0.612970 0.412268
1.000000 0.623346 0.427558
1.000000 0.635676 0.446845
0.235935 0.395087 0.309087
0.236179 0.395117 0.309239
0.237217 0.395331 0.309636
0.239536 0.395911 0.310460
0.243046 0.396948 0.312108
0.248661 0.398810 0.314427
0.255619 0.401831 0.318090
0.264805 0.406256 0.323125
0.276066 0.412116 0.329747
0.286809 0.419287 0.335119
0.297704 0.427710 0.339727
0.311284 0.437598 0.345159
0.327306 0.448676 0.351385
0.345708 0.460212 0.357488
0.366857 0.472267 0.364141
0.390173 0.484230 0.370397
0.416205 0.496559 0.377111
0.445686 0.509819 0.384314
0.486030 0.532189 0.397070
0.546349 0.568872 0.408057
0.618402 0.601801 0.399237
0.678645 0.618463 0.395911
0.737667 0.630732 0.397253
0.794064 0.639155 0.401465
0.845670 0.644099 0.408453
0.892149 0.646662 0.417609
0.933349 0.648005 0.429603
0.969268 0.648402 0.443946
0.999207 0.651820 0.458564
1.000000 0.661402 0.471046
1.000000 0.672023 0.486946
1.000000 0.683650 0.506004
0.255161 0.441108 0.340856
0.255711 0.441749 0.341375
0.274723 0.480568 0.369512
0.277592 0.481239 0.370642
0.281865 0.482582 0.372625
0.287785 0.484352 0.375097
0.295842 0.487037 0.378851
0.306035 0.491096 0.384131
0.318608 0.496864 0.391089
0.333471 0.504326 0.399786
0.345586 0.512627 0.404730
0.359777 0.521782 0.410132
0.376013 0.531121 0.415564
0.394232 0.540551 0.421118
0.414221 0.549706 0.426307
0.436591 0.558770 0.431678
0.460365 0.567346 0.436561
0.486427 0.576226 0.441749
0.515343 0.586023 0.448005
0.553094 0.602533 0.459541
0.609918 0.635248 0.477882
0.681971 0.667903 0.469032
0.737087 0.682918 0.466072
0.789273 0.692988 0.466987
0.836393 0.698939 0.470924
0.879057 0.702174 0.476967
0.916991 0.703822 0.485389
0.950500 0.704799 0.496559
0.979828 0.706233 0.511498
1.000000 0.708492 0.529595
1.000000 0.715816 0.547051
1.000000 0.726528 0.565057
0.282536 0.500633 0.383673
0.284672 0.504387 0.386633
0.288273 0.508690 0.390326
0.292760 0.513085 0.394141
0.298375 0.517174 0.397986
0.305058 0.519982 0.401495
0.313024 0.522942 0.405341
0.322820 0.526513 0.410254
0.335180 0.531456 0.416602
0.349859 0.537865 0.424933
0.363745 0.545159 0.431830
0.377234 0.553185 0.436988
0.392401 0.561517 0.442359
0.409583 0.569940 0.447700
0.428595 0.578546 0.453193
0.449531 0.587274 0.459022
0.472053 0.596002 0.464576
0.497230 0.605219 0.471046
0.525078 0.615320 0.478492
0.555322 0.626337 0.486976
0.591730 0.641505 0.499458
0.647578 0.674159 0.526757
0.715633 0.705592 0.520897
0.770138 0.723079 0.518761
0.816770 0.732448 0.519615
0.858885 0.738674 0.524590
0.896269 0.742824 0.531853
0.929473 0.745876 0.542046
0.958648 0.748836 0.555627
0.983825 0.752407 0.572686
1.000000 0.756680 0.593256
1.000000 0.761898 0.616602
0.303807 0.541192 0.414496
0.306706 0.545129 0.417792
0.310765 0.549645 0.421729
0.315984 0.554223 0.426001
0.322118 0.558190 0.430243
0.328954 0.561212 0.433997
0.337499 0.563958 0.437995
0.347295 0.567193 0.442786
0.359106 0.571405 0.448859
0.373571 0.576745 0.456672
0.390387 0.583307 0.466133
0.403082 0.590265 0.471015
0.417853 0.597589 0.476173
0.434302 0.605341 0.481788
0.452338 0.613336 0.487617
0.471962 0.621363 0.493416
0.493324 0.629541 0.499489
0.516381 0.638117 0.505913
0.541985 0.647211 0.512993
0.569757 0.657404 0.521508
0.599817 0.668208 0.530999
0.633845 0.681483 0.543114
0.687678 0.712551 0.572076
0.748104 0.740871 0.573571
0.800229 0.759335 0.572198
0.841367 0.768399 0.574029
0.878050 0.774807 0.579675
0.910491 0.779812 0.588647
0.939178 0.784207 0.601007
0.964111 0.788663 0.616693
0.985229 0.793484 0.635981
1.000000 0.798764 0.657527
0.332799 0.583948 0.449989
0.335973 0.587488 0.453315
0.340307 0.591516 0.457313
0.345769 0.595483 0.461433
0.352209 0.599023 0.465583
0.359258 0.601770 0.469276
0.367346 0.604273 0.473243
0.377173 0.607202 0.478004
0.389380 0.611109 0.484199
0.403418 0.615717 0.491676
0.419989 0.621607 0.500816
0.435492 0.627893 0.508537
0.449073 0.634424 0.513512
0.464363 0.641352 0.518883
0.481331 0.648798 0.524651
0.500175 0.656703 0.531029
0.521324 0.665431 0.538323
0.544610 0.674952 0.546624
0.570459 0.685420 0.556146
0.598627 0.696986 0.566979
0.629084 0.709377 0.579309
0.661128 0.722042 0.592737
0.693294 0.734401 0.606378
0.743221 0.762295 0.637446
0.794278 0.787137 0.647852
0.841062 0.805539 0.649470
0.874510 0.814298 0.654444
0.903929 0.820981 0.662684
0.929625 0.826749 0.674861
0.951873 0.831907 0.689540
0.970703 0.836942 0.706630
0.986419 0.841917 0.725246
0.393225 0.648096 0.511620
0.395087 0.649653 0.513237
0.397253 0.650996 0.514855
0.400641 0.652338 0.516716
0.405188 0.653559 0.518853
0.410468 0.654597 0.521141
0.417578 0.656092 0.524163
0.426581 0.658381 0.528344
0.437995 0.661585 0.534020
0.452064 0.665949 0.541497
0.467628 0.671168 0.550164
0.485512 0.677119 0.560266
0.498360 0.682856 0.565332
0.512535 0.688930 0.570459
0.527977 0.695369 0.575891
0.545129 0.702052 0.581811
0.563561 0.709194 0.588067
0.583856 0.716732 0.595087
0.605951 0.724880 0.602838
0.629999 0.733608 0.611810
0.655238 0.742702 0.621607
0.681910 0.752255 0.632380
0.709102 0.761685 0.643549
0.736141 0.770962 0.654963
0.777584 0.792813 0.682033
0.819883 0.814023 0.696834
0.861906 0.832029 0.699672
0.890501 0.840757 0.706325
0.915709 0.847684 0.715602
0.937377 0.853696 0.728298
0.955932 0.859037 0.742733
0.971618 0.863951 0.758480
0.438666 0.688899 0.553887
0.440314 0.690089 0.555322
0.442573 0.691341 0.556909
0.445930 0.692531 0.558709
0.450080 0.693751 0.560845
0.455268 0.694881 0.563104
0.461921 0.696315 0.566094
0.470405 0.698329 0.570092
0.480934 0.701289 0.575525
0.493965 0.705043 0.582391
0.508721 0.709651 0.590448
0.525261 0.714931 0.599817
0.540642 0.720272 0.607599
0.553857 0.725826 0.612848
0.568444 0.731624 0.618372
0.584405 0.737667 0.624292
0.601678 0.744228 0.630884
0.620539 0.751095 0.638178
0.640711 0.758267 0.646052
0.662104 0.765896 0.654688
0.684901 0.773892 0.664210
0.708461 0.782101 0.674434
0.732479 0.790402 0.685389
0.756283 0.798642 0.696376
0.769711 0.798734 0.695155
0.804379 0.816342 0.718441
0.840116 0.835294 0.736995
0.876432 0.851926 0.741238
0.902617 0.861662 0.748684
0.924376 0.868650 0.758511
0.943053 0.874846 0.771206
0.958923 0.880369 0.785122
0.504875 0.739437 0.611322
0.507561 0.741207 0.613519
0.509972 0.742153 0.615015
0.511681 0.742397 0.615747
0.513512 0.742123 0.616052
0.516320 0.741695 0.616510
0.519890 0.741299 0.617273
0.525078 0.741268 0.618921
0.532280 0.742000 0.621698
0.541772 0.743557 0.625971
0.552911 0.745632 0.631220
0.566278 0.748745 0.638117
0.581109 0.752346 0.646174
0.591821 0.755825 0.649866
0.602808 0.759274 0.653101
0.615137 0.763210 0.657008
0.628962 0.767697 0.661555
0.644770 0.773007 0.667414
0.662745 0.779171 0.674617
0.682582 0.786252 0.683345
0.703487 0.793698 0.692897
0.724636 0.801053 0.702541
0.745510 0.808042 0.711879
0.765682 0.814572 0.720851
0.785183 0.820584 0.729122
0.803983 0.826291 0.737301
0.831327 0.839811 0.755917
0.859953 0.855741 0.775113
0.890135 0.870146 0.779477
0.913787 0.880217 0.786496
0.932280 0.886900 0.795865
0.948241 0.892760 0.807034
0.549035 0.768643 0.647517
0.551690 0.770108 0.649592
0.554223 0.771206 0.651270
0.556634 0.771817 0.652522
0.559533 0.772274 0.653834
0.563226 0.772763 0.655421
0.568292 0.773587 0.657679
0.575036 0.774807 0.660853
0.583520 0.776577 0.665095
0.593683 0.778775 0.670375
0.605219 0.781369 0.676387
0.618128 0.784390 0.683406
0.632013 0.787533 0.690913
0.644099 0.790616 0.696925
0.653620 0.793454 0.699977
0.663905 0.796536 0.703182
0.675288 0.799954 0.706996
0.688228 0.804013 0.711757
0.703120 0.808896 0.717861
0.719600 0.814450 0.725124
0.737057 0.820371 0.733028
0.754910 0.826474 0.741451
0.772824 0.832456 0.749996
0.790066 0.838224 0.758175
0.806699 0.843656 0.766018
0.822721 0.848844 0.773587
0.838224 0.853910 0.781094
0.859373 0.864469 0.795987
0.882414 0.878202 0.815091
0.906676 0.890562 0.819883
0.927092 0.900328 0.826291
0.942138 0.906493 0.834592
0.609918 0.802884 0.694972
0.611444 0.803586 0.696071
0.612879 0.804013 0.696925
0.614557 0.804318 0.697749
0.616663 0.804532 0.698573
0.619532 0.804746 0.699733
0.623682 0.805203 0.701472
0.628962 0.805936 0.703944
0.635737 0.807065 0.707210
0.644221 0.808713 0.711513
0.653834 0.810605 0.716457
0.664759 0.812955 0.722377
0.676570 0.815457 0.728786
0.688899 0.818112 0.735531
0.697414 0.820432 0.738735
0.705776 0.822812 0.741360
0.715145 0.825528 0.744564
0.725917 0.828733 0.748562
0.738186 0.832578 0.753567
0.751858 0.837034 0.759609
0.766323 0.841886 0.766354
0.781094 0.846860 0.773342
0.795621 0.851713 0.780301
0.809812 0.856413 0.787015
0.823484 0.860868 0.793423
0.836637 0.865141 0.799588
0.849454 0.869322 0.805631
0.861967 0.873472 0.811612
0.878752 0.881682 0.823026
0.898466 0.893797 0.839536
0.918425 0.904967 0.846372
0.936767 0.914733 0.852750
0.662409 0.829618 0.734646
0.663630 0.830106 0.735470
0.665156 0.830564 0.736385
0.666957 0.830991 0.737362
0.669673 0.831601 0.738827
0.673823 0.832609 0.741146
0.680323 0.834348 0.744808
0.688441 0.836576 0.749599
0.698177 0.839322 0.755428
0.709224 0.842527 0.762081
0.721340 0.845975 0.769406
0.733730 0.849454 0.776852
0.746181 0.852873 0.784298
0.758145 0.855985 0.791348
0.768399 0.858762 0.797024
0.775509 0.860960 0.799802
0.782742 0.863188 0.802640
0.790646 0.865629 0.805692
0.799527 0.868498 0.809537
0.809201 0.871733 0.813840
0.819394 0.875242 0.818631
0.829709 0.878813 0.823514
0.839780 0.882292 0.828183
0.849699 0.885618 0.832670
0.859251 0.888792 0.836942
0.868528 0.891844 0.841062
0.877653 0.894835 0.845121
0.886625 0.897887 0.849149
0.895598 0.900999 0.853452
0.907195 0.906676 0.860929
0.921874 0.916136 0.873136
0.936217 0.924895 0.879911
0.742306 0.865660 0.792599
0.742489 0.865690 0.792691
0.742794 0.865690 0.792782
0.743374 0.865660 0.792966
0.744625 0.865721 0.793423
0.746487 0.865904 0.794278
0.749294 0.866300 0.795651
0.753140 0.866972 0.797543
0.758236 0.867918 0.800198
0.764187 0.869169 0.803342
0.770962 0.870634 0.807034
0.778531 0.872282 0.811154
0.786435 0.874083 0.815549
0.794461 0.875883 0.819974
