20 Preset/Dark Style/【1】LRtemplate Lightroom bản cũ/19Tones  (6)/City Subway DenBych.lrtemplate
s = {
	id = "2E8681BA-4101-48A9-9C90-D979311A54DE",
	internalName = "City Subway DenBych",
	title = "City Subway DenBych",
	type = "Develop",
	value = {
		settings = {
			AutoLateralCA = 0,
			Blacks2012 = -32,
			BlueHue = -3,
			BlueSaturation = 0,
			CameraProfile = "Adobe Standard",
			ChromaticAberrationB = 0,
			ChromaticAberrationR = 0,
			Clarity2012 = 0,
			ColorNoiseReduction = 25,
			ColorNoiseReductionDetail = 50,
			ColorNoiseReductionSmoothness = 50,
			Contrast2012 = 0,
			ConvertToGrayscale = false,
			CropConstrainToWarp = 0,
			Defringe = 0,
			DefringeGreenAmount = 0,
			DefringeGreenHueHi = 60,
			DefringeGreenHueLo = 40,
			DefringePurpleAmount = 0,
			DefringePurpleHueHi = 70,
			DefringePurpleHueLo = 30,
			Dehaze = 0,
			EnableCalibration = true,
			EnableColorAdjustments = true,
			EnableDetail = true,
			EnableEffects = true,
			EnableLensCorrections = true,
			EnableSplitToning = true,
			Exposure2012 = 2.25,
			GrainAmount = 0,
			GrainFrequency = 50,
			GrainSize = 25,
			GreenHue = -56,
			GreenSaturation = 0,
			Highlights2012 = -85,
			HueAdjustmentAqua = 100,
			HueAdjustmentBlue = 0,
			HueAdjustmentGreen = -100,
			HueAdjustmentMagenta = 0,
			HueAdjustmentOrange = -59,
			HueAdjustmentPurple = 0,
			HueAdjustmentRed = -12,
			HueAdjustmentYellow = -100,
			LensManualDistortionAmount = 0,
			LensProfileEnable = 0,
			LensProfileSetup = "LensDefaults",
			LuminanceAdjustmentAqua = 0,
			LuminanceAdjustmentBlue = 4,
			LuminanceAdjustmentGreen = 6,
			LuminanceAdjustmentMagenta = 0,
			LuminanceAdjustmentOrange = -57,
			LuminanceAdjustmentPurple = 0,
			LuminanceAdjustmentRed = 0,
			LuminanceAdjustmentYellow = -38,
			LuminanceNoiseReductionContrast = 0,
			LuminanceNoiseReductionDetail = 50,
			LuminanceSmoothing = 0,
			ParametricDarks = 0,
			ParametricHighlightSplit = 75,
			ParametricHighlights = 0,
			ParametricLights = 0,
			ParametricMidtoneSplit = 50,
			ParametricShadowSplit = 25,
			ParametricShadows = 0,
			PostCropVignetteAmount = 0,
			PostCropVignetteFeather = 50,
			PostCropVignetteHighlightContrast = 0,
			PostCropVignetteMidpoint = 50,
			PostCropVignetteRoundness = 0,
			PostCropVignetteStyle = 1,
			ProcessVersion = "6.7",
			RedHue = 1,
			RedSaturation = 0,
			Saturation = 0,
			SaturationAdjustmentAqua = 3,
			SaturationAdjustmentBlue = 4,
			SaturationAdjustmentGreen = -100,
			SaturationAdjustmentMagenta = -2,
			SaturationAdjustmentOrange = -17,
			SaturationAdjustmentPurple = -3,
			SaturationAdjustmentRed = -8,
			SaturationAdjustmentYellow = -100,
			ShadowTint = 21,
			Shadows2012 = 100,
			SharpenDetail = 25,
			SharpenEdgeMasking = 0,
			SharpenRadius = 1,
			Sharpness = 25,
			SplitToningBalance = 0,
			SplitToningHighlightHue = 0,
			SplitToningHighlightSaturation = 0,
			SplitToningShadowHue = 0,
			SplitToningShadowSaturation = 0,
			Temperature = 5250,
			Tint = 3,
			ToneCurveName2012 = "Custom",
			ToneCurvePV2012 = {
				0,
				44,
				33,
				47,
				122,
				125,
				172,
				217,
				255,
				255,
			},
			ToneCurvePV2012Blue = {
				0,
				0,
				41,
				12,
				128,
				135,
				181,
				215,
				255,
				255,
			},
			ToneCurvePV2012Green = {
				0,
				0,
				66,
				30,
				128,
				122,
				186,
				209,
				255,
				255,
			},
			ToneCurvePV2012Red = {
				0,
				0,
				64,
				21,
				129,
				116,
				191,
				214,
				255,
				255,
			},
			Vibrance = 0,
			VignetteAmount = 0,
			VignetteMidpoint = 50,
			WhiteBalance = "Custom",
			Whites2012 = 28,
		},
		uuid = "4FB52394-3550-4140-91F2-A6EDE231B09E",
	},
	version = 0,
}
