20 Preset/Japan Style/【2】XMP cho Photoshop - Lightroom CC/Japan Style/Tone 16.xmp
<x:xmpmeta xmlns:x="adobe:ns:meta/" x:xmptk="Adobe XMP Core 5.6-c140 79.160451, 2017/05/06-01:08:21        ">
 <rdf:RDF xmlns:rdf="http://www.w3.org/1999/02/22-rdf-syntax-ns#">
  <rdf:Description rdf:about=""
    xmlns:crs="http://ns.adobe.com/camera-raw-settings/1.0/"
   crs:PresetType="Normal"
   crs:Cluster=""
   crs:UUID="807B8DD6FE622548B3F095360DCDEE09"
   crs:SupportsAmount="False"
   crs:SupportsColor="True"
   crs:SupportsMonochrome="True"
   crs:SupportsHighDynamicRange="True"
   crs:SupportsNormalDynamicRange="True"
   crs:SupportsSceneReferred="True"
   crs:SupportsOutputReferred="True"
   crs:CameraModelRestriction=""
   crs:Copyright=""
   crs:ContactInfo=""
   crs:Version="12.0"
   crs:ProcessVersion="6.7"
   crs:WhiteBalance="Custom"
   crs:Temperature="5889"
   crs:Tint="0"
   crs:Saturation="-9"
   crs:Sharpness="0"
   crs:LuminanceSmoothing="0"
   crs:ColorNoiseReduction="0"
   crs:VignetteAmount="0"
   crs:ShadowTint="-4"
   crs:RedHue="+30"
   crs:RedSaturation="+40"
   crs:GreenHue="+70"
   crs:GreenSaturation="+5"
   crs:BlueHue="-20"
   crs:BlueSaturation="0"
   crs:Vibrance="+3"
   crs:HueAdjustmentRed="+10"
   crs:HueAdjustmentOrange="+21"
   crs:HueAdjustmentYellow="+6"
   crs:HueAdjustmentGreen="+26"
   crs:HueAdjustmentAqua="+16"
   crs:HueAdjustmentBlue="+6"
   crs:HueAdjustmentPurple="+20"
   crs:HueAdjustmentMagenta="+30"
   crs:SaturationAdjustmentRed="-25"
   crs:SaturationAdjustmentOrange="-19"
   crs:SaturationAdjustmentYellow="-46"
   crs:SaturationAdjustmentGreen="-66"
   crs:SaturationAdjustmentAqua="-46"
   crs:SaturationAdjustmentBlue="-37"
   crs:SaturationAdjustmentPurple="-45"
   crs:SaturationAdjustmentMagenta="-45"
   crs:LuminanceAdjustmentRed="+5"
   crs:LuminanceAdjustmentOrange="0"
   crs:LuminanceAdjustmentYellow="+10"
   crs:LuminanceAdjustmentGreen="+1"
   crs:LuminanceAdjustmentAqua="0"
   crs:LuminanceAdjustmentBlue="-25"
   crs:LuminanceAdjustmentPurple="-15"
   crs:LuminanceAdjustmentMagenta="0"
   crs:SplitToningShadowHue="103"
   crs:SplitToningShadowSaturation="2"
   crs:SplitToningHighlightHue="214"
   crs:SplitToningHighlightSaturation="0"
   crs:SplitToningBalance="0"
   crs:ParametricShadows="0"
   crs:ParametricDarks="0"
   crs:ParametricLights="0"
   crs:ParametricHighlights="0"
   crs:ParametricShadowSplit="20"
   crs:ParametricMidtoneSplit="48"
   crs:ParametricHighlightSplit="75"
   crs:SharpenRadius="+1.0"
   crs:SharpenDetail="25"
   crs:SharpenEdgeMasking="0"
   crs:PostCropVignetteAmount="0"
   crs:GrainAmount="20"
   crs:GrainSize="20"
   crs:GrainFrequency="65"
   crs:LensProfileEnable="1"
   crs:LensManualDistortionAmount="0"
   crs:AutoLateralCA="0"
   crs:Exposure2012="+0.70"
   crs:Contrast2012="+4"
   crs:Highlights2012="-73"
   crs:Shadows2012="+12"
   crs:Whites2012="-80"
   crs:Blacks2012="+25"
   crs:Clarity2012="-3"
   crs:DefringePurpleAmount="0"
   crs:DefringePurpleHueLo="30"
   crs:DefringePurpleHueHi="70"
   crs:DefringeGreenAmount="0"
   crs:DefringeGreenHueLo="40"
   crs:DefringeGreenHueHi="60"
   crs:Dehaze="0"
   crs:ConvertToGrayscale="False"
   crs:OverrideLookVignette="False"
   crs:ToneCurveName2012="Custom"
   crs:CameraProfile="Agfa Vista 100 - F"
   crs:LensProfileSetup="Custom"
   crs:LensProfileName="Adobe (Canon EF 50mm f/1.4 USM)"
   crs:LensProfileFilename="Canon EOS-1Ds Mark III (Canon EF 50mm f1.4 USM) - RAW.lcp"
   crs:LensProfileDigest="8F32FC2D56959D4DCB55E9F4227F12F8"
   crs:LensProfileDistortionScale="100"
   crs:LensProfileChromaticAberrationScale="100"
   crs:LensProfileVignettingScale="56"
   crs:HasSettings="True"
   crs:CropConstrainToWarp="0">
   <crs:Name>
    <rdf:Alt>
     <rdf:li xml:lang="x-default">Tone 16</rdf:li>
    </rdf:Alt>
   </crs:Name>
   <crs:ShortName>
    <rdf:Alt>
     <rdf:li xml:lang="x-default"/>
    </rdf:Alt>
   </crs:ShortName>
   <crs:SortName>
    <rdf:Alt>
     <rdf:li xml:lang="x-default"/>
    </rdf:Alt>
   </crs:SortName>
   <crs:Group>
    <rdf:Alt>
     <rdf:li xml:lang="x-default">Japan Style</rdf:li>
    </rdf:Alt>
   </crs:Group>
   <crs:Description>
    <rdf:Alt>
     <rdf:li xml:lang="x-default"/>
    </rdf:Alt>
   </crs:Description>
   <crs:ToneCurvePV2012>
    <rdf:Seq>
     <rdf:li>0, 15</rdf:li>
     <rdf:li>61, 54</rdf:li>
     <rdf:li>188, 189</rdf:li>
     <rdf:li>255, 245</rdf:li>
    </rdf:Seq>
   </crs:ToneCurvePV2012>
   <crs:ToneCurvePV2012Red>
    <rdf:Seq>
     <rdf:li>0, 0</rdf:li>
     <rdf:li>42, 7</rdf:li>
     <rdf:li>79, 43</rdf:li>
     <rdf:li>127, 120</rdf:li>
     <rdf:li>182, 202</rdf:li>
     <rdf:li>255, 255</rdf:li>
    </rdf:Seq>
   </crs:ToneCurvePV2012Red>
   <crs:ToneCurvePV2012Green>
    <rdf:Seq>
     <rdf:li>0, 0</rdf:li>
     <rdf:li>36, 10</rdf:li>
     <rdf:li>76, 46</rdf:li>
     <rdf:li>124, 122</rdf:li>
     <rdf:li>181, 201</rdf:li>
     <rdf:li>219, 230</rdf:li>
     <rdf:li>255, 255</rdf:li>
    </rdf:Seq>
   </crs:ToneCurvePV2012Green>
   <crs:ToneCurvePV2012Blue>
    <rdf:Seq>
     <rdf:li>0, 0</rdf:li>
     <rdf:li>34, 11</rdf:li>
     <rdf:li>75, 47</rdf:li>
     <rdf:li>119, 118</rdf:li>
     <rdf:li>183, 206</rdf:li>
     <rdf:li>222, 235</rdf:li>
     <rdf:li>255, 255</rdf:li>
    </rdf:Seq>
   </crs:ToneCurvePV2012Blue>
   <crs:Look
    crs:Name=""/>
  </rdf:Description>
 </rdf:RDF>
</x:xmpmeta>
