20 Preset/City Style/【3】LUT video cho PR-AE-FCPX/TONE 2/Darky City Lights.cube
# Created by Adobe Lightroom plugin Export LUT (1.24.0)
# www.johnrellis.com/lightroom/exportlut.htm
# Preset: Darky City Lights
# Color profile: E:\lut插件\exportlut.1.24\exportlut.lrplugin\color profiles\Rec709gamma2.4.icc
LUT_3D_SIZE 5
DOMAIN_MIN 0.000000 0.000000 0.000000
DOMAIN_MAX 0.903226 0.903226 0.903226
0.000000 0.089479 0.108522
0.312718 0.136721 0.016205
0.892546 0.391424 0.000000
1.000000 0.532586 0.000000
1.000000 0.611810 0.000000
0.205661 0.231571 0.227787
0.712337 0.455299 0.000000
0.993103 0.517113 0.000000
1.000000 0.574731 0.000000
1.000000 0.641962 0.000000
0.772183 0.743282 0.724819
0.829068 0.772000 0.712581
0.966644 0.800748 0.649775
1.000000 0.766232 0.489235
1.000000 0.741909 0.319249
0.874754 0.839963 0.826200
0.886748 0.847593 0.823758
0.932830 0.868711 0.809201
1.000000 0.881224 0.774777
1.000000 0.872404 0.734279
0.923064 0.891508 0.874601
0.928649 0.894835 0.871336
0.947051 0.899687 0.850156
0.986419 0.915038 0.835142
1.000000 0.918090 0.816678
0.479530 0.546929 0.704463
0.317082 0.341650 0.371832
0.915129 0.407355 0.000000
1.000000 0.537804 0.000000
1.000000 0.602655 0.000000
0.611200 0.643549 0.684535
0.616938 0.622889 0.632136
0.951049 0.565881 0.242893
1.000000 0.575555 0.000000
1.000000 0.626856 0.000000
0.766873 0.744656 0.745571
0.809476 0.778683 0.768978
0.920623 0.820676 0.754910
1.000000 0.764675 0.525719
1.000000 0.738949 0.315709
0.872313 0.840879 0.836820
0.883757 0.849760 0.837491
0.928008 0.874205 0.828824
0.997589 0.886198 0.793881
1.000000 0.871000 0.731624
0.922728 0.894255 0.885039
0.927855 0.897612 0.882017
0.949889 0.909148 0.868833
0.988403 0.917235 0.837217
1.000000 0.919432 0.818296
0.882109 0.859678 0.891447
0.884062 0.856901 0.879911
0.813352 0.783780 0.784146
0.945037 0.799619 0.801663
1.000000 0.716243 0.564691
0.913451 0.894713 0.914488
0.907927 0.884489 0.900298
0.834501 0.803586 0.801938
0.935271 0.800839 0.791104
1.000000 0.729488 0.559533
0.904173 0.882292 0.887297
0.901183 0.876982 0.879484
0.886290 0.855100 0.850309
0.939788 0.841001 0.803708
1.000000 0.819638 0.701991
0.852811 0.821500 0.817990
0.872190 0.840726 0.836698
0.912261 0.882322 0.874022
0.974151 0.914336 0.875303
1.000000 0.894621 0.810636
0.924743 0.898375 0.894163
0.928710 0.903197 0.899046
0.943755 0.918822 0.907836
0.976684 0.932555 0.888579
1.000000 0.919524 0.822416
0.935760 0.919829 0.943297
0.938628 0.921691 0.942260
0.939361 0.917571 0.929931
0.890593 0.859190 0.856382
0.969329 0.936919 0.938872
0.949218 0.935729 0.951965
0.949401 0.934874 0.949828
0.945861 0.926146 0.935943
0.893675 0.862547 0.859495
0.970642 0.928496 0.931701
0.970001 0.962432 0.969116
0.969909 0.961547 0.967590
0.964874 0.952178 0.956237
0.912779 0.884154 0.880430
0.979858 0.900114 0.897581
0.961547 0.950011 0.952667
0.961028 0.948943 0.951202
0.958862 0.944579 0.944945
0.950988 0.931060 0.927337
0.989502 0.917876 0.887724
0.876646 0.845274 0.841154
0.889220 0.858427 0.854093
0.936187 0.912322 0.908385
0.967071 0.951751 0.946777
0.995209 0.960449 0.937072
0.960357 0.948943 0.962707
0.961395 0.949798 0.962554
0.964660 0.952178 0.961578
0.964294 0.949157 0.954345
0.943694 0.921233 0.918853
0.965026 0.954742 0.965850
0.965728 0.955200 0.965637
0.967590 0.956115 0.964080
0.966064 0.951659 0.956359
0.945098 0.923003 0.920592
0.976471 0.969238 0.974578
0.977020 0.969665 0.974517
0.976623 0.968261 0.972534
0.973266 0.962036 0.964935
0.954467 0.935393 0.933043
0.985870 0.981323 0.982666
0.985870 0.981231 0.982574
0.985901 0.980865 0.981903
0.983978 0.977417 0.978149
0.970855 0.957946 0.956054
0.982086 0.976135 0.977142
0.982300 0.976349 0.977264
0.983398 0.977478 0.977935
0.984222 0.978058 0.977905
0.984222 0.977050 0.975677
