20 Preset/City Style/【3】LUT video cho PR-AE-FCPX/TONE 2/Darky Street.cube
# Created by Adobe Lightroom plugin Export LUT (1.24.0)
# www.johnrellis.com/lightroom/exportlut.htm
# Preset: Darky Street
# Color profile: E:\lut插件\exportlut.1.24\exportlut.lrplugin\color profiles\Rec709gamma2.4.icc
LUT_3D_SIZE 5
DOMAIN_MIN 0.000000 0.000000 0.000000
DOMAIN_MAX 0.903226 0.903226 0.903226
0.000000 0.125673 0.152224
0.112947 0.139040 0.166903
0.000061 0.160769 0.188296
0.195102 0.155764 0.184207
0.615229 0.000000 0.167361
0.088930 0.162264 0.189822
0.089723 0.161013 0.187381
0.017975 0.158663 0.189670
0.237156 0.162142 0.181033
0.683253 0.083467 0.154940
0.091005 0.163577 0.191012
0.080262 0.159121 0.186557
0.189059 0.193210 0.177554
0.461891 0.259861 0.142977
0.781796 0.336095 0.004181
0.295171 0.322911 0.345800
0.287694 0.315404 0.338476
0.263340 0.290593 0.309667
0.567193 0.454292 0.246494
0.983001 0.581872 0.000000
0.776181 0.752499 0.752834
0.773037 0.749783 0.750332
0.692073 0.683803 0.689723
0.788724 0.744961 0.690120
0.958495 0.824918 0.662867
0.078523 0.144442 0.188205
0.096712 0.152163 0.185214
0.000000 0.164034 0.188083
0.196628 0.143099 0.177768
0.514641 0.000000 0.178775
0.090333 0.160922 0.188602
0.074372 0.157382 0.184909
0.063966 0.154177 0.181827
0.236027 0.148165 0.176089
0.557092 0.090974 0.175509
0.106233 0.172457 0.200015
0.099702 0.168673 0.196231
0.165255 0.186526 0.184604
0.395575 0.235111 0.162020
0.749783 0.308995 0.127352
0.323796 0.351843 0.374395
0.318120 0.346136 0.368658
0.284642 0.312505 0.335576
0.566064 0.462745 0.278752
0.972961 0.583978 0.160464
0.782467 0.757778 0.757748
0.776944 0.753079 0.753384
0.766842 0.744625 0.745541
0.814572 0.772396 0.730465
0.962158 0.844907 0.711879
0.051637 0.162478 0.177188
0.037324 0.159152 0.177615
0.057038 0.152804 0.180240
0.477363 0.000000 0.313146
0.728115 0.000000 0.282506
0.060456 0.150912 0.194034
0.082429 0.149752 0.190249
0.108064 0.151125 0.187533
0.465858 0.000000 0.285161
0.721859 0.000000 0.274907
0.103670 0.213291 0.237461
0.135927 0.224277 0.247868
0.247257 0.277470 0.301488
0.448768 0.281498 0.287846
0.748867 0.289311 0.302617
0.436011 0.466682 0.487282
0.431403 0.462135 0.482856
0.418647 0.449653 0.470710
0.598749 0.533867 0.433173
0.939178 0.605097 0.364782
0.799557 0.772549 0.771511
0.799039 0.772091 0.771054
0.788052 0.762570 0.762173
0.764248 0.740932 0.735927
0.945556 0.837278 0.722560
0.159884 0.139864 0.254398
0.172030 0.140352 0.252018
0.186618 0.157870 0.234623
0.274266 0.156649 0.254520
0.919646 0.000000 0.570428
0.176364 0.143954 0.293370
0.193942 0.145846 0.287053
0.222568 0.167880 0.261814
0.294591 0.175143 0.271672
0.931701 0.000000 0.580438
0.000000 0.231724 0.428748
0.000000 0.220462 0.428931
0.322026 0.258152 0.416815
0.410498 0.306981 0.389380
1.000000 0.000000 0.650355
0.376593 0.558740 0.567712
0.401129 0.563684 0.572351
0.531579 0.615045 0.620783
0.710964 0.698970 0.703609
0.893004 0.666072 0.653864
0.850614 0.819394 0.815976
0.852262 0.820981 0.817533
0.862760 0.831235 0.827451
0.852689 0.821408 0.817929
0.931090 0.858305 0.797299
0.452766 0.064424 0.573754
0.465461 0.091066 0.563897
0.509667 0.161044 0.533135
0.446815 0.310216 0.433814
0.663691 0.230900 0.508415
0.443336 0.115877 0.587671
0.460822 0.124788 0.579889
0.512383 0.177829 0.547631
0.463020 0.316014 0.449226
0.665797 0.257481 0.516045
0.375677 0.239475 0.687098
0.416144 0.239475 0.675868
0.537285 0.264958 0.642023
0.577783 0.371649 0.557824
0.731014 0.397711 0.591913
0.000000 0.564599 0.790951
0.000000 0.555016 0.789883
0.000000 0.523369 0.797665
0.738216 0.589502 0.772793
0.862333 0.704829 0.766018
0.794644 0.853391 0.845304
0.800717 0.854368 0.846403
0.834470 0.864469 0.857053
0.886351 0.884245 0.877775
0.937896 0.914458 0.910582
