20 Preset/City Style/【3】LUT video cho PR-AE-FCPX/TONE 2/Darky City Lights.cube
# Created by Adobe Lightroom plugin Export LUT (1.24.0)
# www.johnrellis.com/lightroom/exportlut.htm
# Preset: Darky City Lights
# Color profile: E:\lut插件\exportlut.1.24\exportlut.lrplugin\color profiles\Rec709gamma2.4.icc
LUT_3D_SIZE 32
DOMAIN_MIN 0.0 0.0 0.0
DOMAIN_MAX 1.0 1.0 1.0
0.000000 0.089479 0.108522
0.000000 0.087037 0.107790
0.000000 0.079561 0.106661
0.000000 0.067842 0.103456
0.000000 0.071870 0.097658
0.085512 0.093812 0.089601
0.197238 0.113924 0.066194
0.312718 0.136721 0.016205
0.417762 0.166995 0.000000
0.515404 0.204044 0.000000
0.606806 0.244053 0.000000
0.694026 0.284123 0.000000
0.773068 0.322942 0.000000
0.839811 0.359503 0.000000
0.892546 0.391424 0.000000
0.931945 0.418189 0.000000
0.961578 0.440711 0.000000
0.984527 0.460212 0.000000
1.000000 0.476722 0.000000
1.000000 0.499336 0.000000
1.000000 0.517388 0.000000
1.000000 0.532586 0.000000
1.000000 0.545983 0.000000
1.000000 0.558129 0.000000
1.000000 0.569299 0.000000
1.000000 0.579858 0.000000
1.000000 0.590356 0.000000
1.000000 0.600916 0.000000
1.000000 0.611810 0.000000
1.000000 0.623224 0.000000
1.000000 0.634852 0.000000
1.000000 0.646479 0.000000
0.000000 0.085878 0.104768
0.000000 0.084047 0.106294
0.000000 0.077089 0.105776
0.000000 0.065431 0.102815
0.000000 0.070680 0.097719
0.077455 0.093507 0.089754
0.186343 0.113741 0.067933
0.298741 0.136110 0.021729
0.401709 0.165255 0.000000
0.497536 0.200504 0.000000
0.588403 0.238804 0.000000
0.675563 0.278019 0.000000
0.755581 0.316594 0.000000
0.824521 0.353491 0.000000
0.880156 0.386114 0.000000
0.922362 0.413886 0.000000
0.954284 0.437232 0.000000
0.978820 0.457160 0.000000
0.998566 0.474464 0.000000
1.000000 0.496254 0.000000
1.000000 0.513237 0.000000
1.000000 0.527794 0.000000
1.000000 0.540520 0.000000
1.000000 0.552117 0.000000
1.000000 0.562860 0.000000
1.000000 0.573266 0.000000
1.000000 0.583734 0.000000
1.000000 0.594446 0.000000
1.000000 0.605615 0.000000
1.000000 0.617304 0.000000
1.000000 0.629419 0.000000
1.000000 0.641566 0.000000
0.000000 0.069276 0.095033
0.000000 0.064912 0.095247
0.000000 0.059998 0.098634
0.000000 0.058259 0.097963
0.000000 0.075929 0.093050
0.101259 0.098848 0.083406
0.199496 0.120485 0.057923
0.298741 0.143893 0.014252
0.389654 0.172366 0.000000
0.481697 0.206332 0.000000
0.571710 0.243198 0.000000
0.658259 0.281041 0.000000
0.739010 0.318395 0.000000
0.809567 0.354498 0.000000
0.867796 0.386877 0.000000
0.912627 0.414740 0.000000
0.946654 0.438331 0.000000
0.973053 0.458106 0.000000
0.994781 0.475959 0.000000
1.000000 0.496895 0.000000
1.000000 0.513481 0.000000
1.000000 0.527550 0.000000
1.000000 0.539635 0.000000
1.000000 0.550866 0.000000
1.000000 0.561212 0.000000
1.000000 0.571069 0.000000
1.000000 0.581415 0.000000
1.000000 0.592065 0.000000
1.000000 0.603174 0.000000
1.000000 0.614984 0.000000
1.000000 0.627161 0.000000
1.000000 0.639399 0.000000
0.000000 0.042512 0.072694
0.000000 0.041535 0.075105
0.000000 0.040314 0.078462
0.000000 0.052644 0.080964
0.049256 0.090333 0.078706
0.162783 0.113802 0.056306
0.266758 0.138552 0.018158
0.362036 0.166445 0.000000
0.447272 0.197940 0.000000
0.525933 0.230930 0.000000
0.600366 0.264256 0.000000
0.673610 0.298405 0.000000
0.742855 0.332097 0.000000
0.805234 0.364446 0.000000
0.857969 0.393805 0.000000
0.901884 0.420264 0.000000
0.936034 0.442573 0.000000
0.963134 0.461707 0.000000
0.987671 0.479927 0.000000
1.000000 0.498878 0.000000
1.000000 0.513695 0.000000
1.000000 0.526635 0.000000
1.000000 0.538079 0.000000
1.000000 0.549004 0.000000
1.000000 0.559564 0.000000
1.000000 0.570092 0.000000
1.000000 0.581109 0.000000
1.000000 0.592218 0.000000
1.000000 0.603723 0.000000
1.000000 0.615503 0.000000
1.000000 0.627344 0.000000
1.000000 0.639063 0.000000
0.000000 0.047120 0.068666
0.000000 0.049317 0.068360
0.000000 0.060212 0.062287
0.000000 0.085054 0.056794
0.104250 0.107301 0.043214
0.263951 0.145449 0.000580
0.360937 0.174838 0.000000
0.445960 0.206210 0.000000
0.522759 0.237736 0.000000
0.594965 0.269139 0.000000
0.662379 0.299443 0.000000
0.726741 0.329656 0.000000
0.786282 0.359594 0.000000
0.838651 0.387243 0.000000
0.883299 0.412909 0.000000
0.919585 0.435248 0.000000
0.948760 0.454719 0.000000
0.972015 0.471382 0.000000
0.993988 0.488655 0.000000
1.000000 0.504967 0.000000
1.000000 0.518517 0.000000
1.000000 0.530358 0.000000
1.000000 0.541283 0.000000
1.000000 0.551995 0.000000
1.000000 0.562554 0.000000
1.000000 0.573053 0.000000
1.000000 0.583642 0.000000
1.000000 0.594354 0.000000
1.000000 0.605432 0.000000
1.000000 0.616815 0.000000
1.000000 0.628229 0.000000
1.000000 0.639673 0.000000
0.000000 0.092134 0.101595
0.000000 0.094026 0.101350
0.000000 0.100465 0.095827
0.077211 0.116976 0.086549
0.160403 0.146181 0.057374
0.288212 0.185641 0.000000
0.469764 0.241672 0.000000
0.575677 0.279820 0.000000
0.641566 0.306676 0.000000
0.702296 0.332219 0.000000
0.757259 0.356573 0.000000
0.807309 0.380499 0.000000
0.851316 0.403052 0.000000
0.888518 0.423499 0.000000
0.920439 0.442329 0.000000
0.946654 0.458961 0.000000
0.968597 0.473884 0.000000
0.986572 0.487190 0.000000
1.000000 0.502953 0.000000
1.000000 0.516320 0.000000
1.000000 0.528252 0.000000
1.000000 0.538994 0.000000
1.000000 0.581262 0.000000
1.000000 0.591974 0.000000
1.000000 0.602045 0.000000
1.000000 0.611444 0.000000
1.000000 0.620661 0.000000
1.000000 0.629694 0.000000
1.000000 0.638819 0.000000
1.000000 0.647730 0.000000
1.000000 0.656397 0.000000
1.000000 0.664515 0.000000
0.100404 0.158816 0.164706
0.106722 0.160922 0.163272
0.138491 0.173373 0.156466
0.197299 0.197238 0.139590
0.284031 0.232639 0.105959
0.400244 0.285161 0.000000
0.546258 0.343969 0.000000
0.721981 0.397559 0.000000
0.832212 0.428901 0.000000
0.863951 0.438758 0.000000
0.892424 0.449409 0.000000
0.917235 0.459937 0.000000
0.938048 0.469642 0.000000
0.956268 0.479103 0.000000
0.972351 0.488502 0.000000
0.986236 0.497047 0.000000
0.998383 0.505364 0.000000
1.000000 0.515587 0.000000
1.000000 0.528985 0.000000
1.000000 0.541100 0.000000
1.000000 0.553155 0.000000
1.000000 0.565423 0.000000
1.000000 0.577966 0.000000
1.000000 0.590326 0.000000
1.000000 0.601953 0.000000
1.000000 0.612238 0.000000
1.000000 0.621485 0.000000
1.000000 0.630182 0.000000
1.000000 0.638911 0.000000
1.000000 0.647425 0.000000
1.000000 0.655970 0.000000
1.000000 0.664271 0.000000
0.205661 0.231571 0.227787
0.210971 0.234012 0.226413
0.236820 0.246860 0.218906
0.283513 0.271275 0.204929
0.356115 0.308263 0.176791
0.453132 0.353948 0.119539
0.574548 0.406226 0.000000
0.712337 0.455299 0.000000
0.840482 0.486549 0.000000
0.930236 0.503960 0.000000
0.945678 0.504784 0.000000
0.959564 0.506828 0.000000
0.971862 0.509606 0.000000
0.982940 0.513176 0.000000
0.993103 0.517113 0.000000
1.000000 0.521447 0.000000
1.000000 0.526055 0.000000
1.000000 0.535973 0.000000
1.000000 0.545342 0.000000
1.000000 0.554528 0.000000
1.000000 0.564141 0.000000
1.000000 0.574731 0.000000
1.000000 0.585687 0.000000
1.000000 0.596887 0.000000
1.000000 0.607416 0.000000
1.000000 0.616968 0.000000
1.000000 0.625544 0.000000
1.000000 0.633631 0.000000
1.000000 0.641962 0.000000
1.000000 0.650111 0.000000
1.000000 0.658320 0.000000
1.000000 0.666346 0.000000
0.310094 0.322576 0.306340
0.314580 0.325109 0.304875
0.333196 0.336400 0.298405
0.371252 0.359655 0.287266
0.431220 0.393591 0.265599
0.512840 0.434241 0.228275
0.616358 0.476631 0.160403
0.730770 0.513939 0.000000
0.832975 0.543389 0.000000
0.910674 0.552300 0.000000
0.976837 0.557061 0.000000
0.988525 0.553491 0.000000
0.996277 0.550835 0.000000
1.000000 0.549462 0.000000
1.000000 0.549279 0.000000
1.000000 0.549737 0.000000
1.000000 0.554742 0.000000
1.000000 0.560571 0.000000
1.000000 0.566552 0.000000
1.000000 0.573022 0.000000
1.000000 0.580652 0.000000
1.000000 0.589197 0.000000
1.000000 0.598413 0.000000
1.000000 0.608057 0.000000
1.000000 0.617273 0.000000
1.000000 0.625605 0.000000
1.000000 0.633356 0.000000
1.000000 0.640742 0.000000
1.000000 0.648310 0.000000
1.000000 0.655787 0.000000
1.000000 0.663386 0.000000
1.000000 0.670832 0.000000
0.404425 0.418189 0.396124
0.408057 0.420294 0.394110
0.423133 0.429389 0.388403
0.454994 0.448829 0.379553
0.504997 0.476112 0.361852
0.573297 0.508812 0.335027
0.657221 0.543267 0.295445
0.747890 0.573602 0.237156
0.831022 0.593164 0.139040
0.897795 0.601404 0.000000
0.948211 0.600519 0.000000
0.992401 0.596643 0.000000
1.000000 0.590509 0.000000
1.000000 0.585992 0.000000
1.000000 0.583032 0.000000
1.000000 0.584375 0.000000
1.000000 0.587060 0.000000
1.000000 0.589685 0.000000
1.000000 0.593133 0.000000
1.000000 0.597192 0.000000
1.000000 0.602167 0.000000
1.000000 0.607568 0.000000
1.000000 0.613794 0.000000
1.000000 0.620386 0.000000
1.000000 0.627161 0.000000
1.000000 0.633600 0.000000
1.000000 0.640223 0.000000
1.000000 0.646967 0.000000
1.000000 0.654078 0.000000
1.000000 0.661433 0.000000
1.000000 0.668788 0.000000
1.000000 0.676204 0.000000
0.486915 0.498939 0.474037
0.490272 0.500877 0.473152
0.503166 0.508446 0.469673
0.530938 0.524346 0.463600
0.573480 0.547173 0.452857
0.629877 0.574304 0.436072
0.696986 0.602564 0.411475
0.767117 0.627253 0.378790
0.831235 0.643397 0.335546
0.887541 0.649592 0.273716
0.933837 0.646815 0.189670
0.968505 0.641566 0.141268
1.000000 0.634577 0.014771
1.000000 0.628382 0.000000
1.000000 0.626856 0.000000
1.000000 0.625238 0.000000
1.000000 0.623865 0.000000
1.000000 0.622980 0.000000
1.000000 0.623133 0.000000
1.000000 0.624140 0.000000
1.000000 0.626215 0.000000
1.000000 0.629267 0.000000
1.000000 0.633356 0.000000
1.000000 0.638025 0.000000
1.000000 0.643000 0.000000
1.000000 0.648127 0.000000
1.000000 0.653376 0.000000
1.000000 0.658900 0.000000
1.000000 0.664973 0.000000
1.000000 0.671382 0.000000
1.000000 0.677943 0.000000
1.000000 0.684504 0.000000
0.575525 0.577325 0.551080
0.578088 0.578698 0.550622
0.589746 0.585382 0.548821
0.610986 0.597253 0.544701
0.644129 0.614557 0.537682
0.686641 0.635340 0.528161
0.735805 0.656672 0.514611
0.785916 0.675105 0.496315
0.833646 0.688197 0.472175
0.876982 0.694789 0.439612
0.916136 0.693843 0.393256
0.951446 0.685664 0.328344
0.984192 0.712551 0.411597
1.000000 0.714656 0.407263
1.000000 0.715572 0.393103
1.000000 0.709163 0.360113
1.000000 0.702602 0.324163
1.000000 0.696864 0.288029
1.000000 0.692164 0.251469
1.000000 0.688746 0.215366
1.000000 0.686488 0.177951
1.000000 0.685328 0.135927
1.000000 0.685054 0.066590
1.000000 0.685695 0.000000
1.000000 0.686763 0.000000
1.000000 0.687953 0.000000
1.000000 0.689540 0.000000
1.000000 0.691341 0.000000
1.000000 0.693751 0.000000
1.000000 0.696803 0.000000
1.000000 0.700313 0.000000
1.000000 0.704280 0.000000
0.684871 0.668696 0.643763
0.686366 0.669368 0.643000
0.692164 0.672389 0.640986
0.704829 0.678950 0.637507
0.723873 0.688228 0.631983
0.748562 0.699763 0.624781
0.777615 0.712032 0.615961
0.809171 0.723537 0.605005
0.840909 0.733059 0.591882
0.871519 0.739254 0.575280
0.901396 0.744259 0.560632
0.930724 0.747616 0.545464
0.961303 0.746212 0.516228
0.985138 0.749630 0.516777
1.000000 0.750607 0.506920
1.000000 0.750759 0.490272
1.000000 0.742519 0.456458
1.000000 0.733333 0.418982
1.000000 0.725307 0.382177
1.000000 0.718441 0.346563
1.000000 0.713008 0.312474
1.000000 0.709102 0.280674
1.000000 0.706477 0.250919
1.000000 0.704982 0.222049
1.000000 0.704189 0.192233
1.000000 0.703883 0.159518
1.000000 0.704250 0.122072
1.000000 0.705104 0.046052
1.000000 0.706600 0.000000
1.000000 0.708919 0.000000
1.000000 0.711666 0.000000
1.000000 0.714839 0.000000
0.730800 0.707362 0.685451
0.731258 0.707546 0.684871
0.735286 0.709499 0.682948
0.743374 0.713680 0.680690
0.755489 0.719722 0.676997
0.772549 0.727779 0.671778
0.792752 0.736782 0.666194
0.816983 0.748043 0.663355
0.841611 0.758419 0.660212
0.864988 0.766873 0.656458
0.887816 0.773251 0.650813
0.911345 0.777584 0.641108
0.936584 0.779263 0.624109
0.963622 0.777676 0.597620
0.985260 0.779477 0.591119
1.000000 0.778378 0.576196
1.000000 0.777157 0.557610
1.000000 0.769497 0.526848
1.000000 0.759548 0.491341
1.000000 0.750484 0.456245
1.000000 0.743008 0.423316
1.000000 0.736934 0.392248
1.000000 0.732204 0.363165
1.000000 0.728756 0.336339
1.000000 0.726192 0.310582
1.000000 0.724269 0.285191
1.000000 0.723018 0.260472
1.000000 0.722408 0.236027
1.000000 0.722805 0.214023
1.000000 0.723903 0.192355
1.000000 0.725551 0.171603
1.000000 0.727779 0.151003
0.772183 0.743282 0.724819
0.772915 0.743618 0.724483
0.775357 0.744961 0.723629
0.780606 0.747707 0.722194
0.788785 0.752163 0.720241
0.799863 0.757870 0.717769
0.813657 0.764767 0.715358
0.829068 0.772000 0.712581
0.845670 0.779141 0.709804
0.862730 0.785794 0.706905
0.880705 0.791745 0.703029
0.899779 0.796902 0.697627
0.920378 0.800626 0.688350
0.942840 0.801968 0.672267
0.966644 0.800748 0.649775
0.986236 0.801419 0.640375
1.000000 0.799649 0.625360
1.000000 0.798184 0.607568
1.000000 0.792599 0.583032
1.000000 0.782712 0.550958
1.000000 0.773831 0.519310
1.000000 0.766232 0.489235
1.000000 0.759670 0.460304
1.000000 0.754421 0.433387
1.000000 0.750027 0.407172
1.000000 0.746639 0.382849
1.000000 0.744106 0.359594
1.000000 0.742580 0.338659
1.000000 0.741909 0.319249
1.000000 0.742275 0.302495
1.000000 0.743313 0.287663
1.000000 0.744930 0.274144
0.800961 0.768978 0.752621
0.801450 0.769284 0.752682
0.803250 0.770352 0.752255
0.806821 0.772396 0.751583
0.812192 0.775418 0.750332
0.819638 0.779507 0.749050
0.828946 0.784543 0.747860
0.839872 0.790127 0.746365
0.852049 0.795926 0.744808
0.865202 0.801572 0.742702
0.879423 0.806912 0.739742
0.894926 0.811612 0.734981
0.911681 0.815366 0.727840
0.929870 0.817624 0.716854
0.949889 0.817685 0.699916
0.970062 0.816373 0.681117
0.987762 0.816464 0.671168
1.000000 0.814633 0.657588
1.000000 0.813809 0.642939
1.000000 0.810513 0.624262
1.000000 0.801999 0.597559
1.000000 0.794217 0.571069
1.000000 0.787228 0.544976
1.000000 0.781155 0.519707
1.000000 0.775906 0.495552
1.000000 0.771572 0.472541
1.000000 0.767941 0.450385
1.000000 0.765194 0.429755
1.000000 0.763210 0.410224
1.000000 0.762142 0.392920
1.000000 0.761563 0.376318
1.000000 0.761532 0.360906
0.818296 0.785214 0.770657
0.818662 0.785397 0.770565
0.819883 0.786160 0.770260
0.822354 0.787594 0.769772
0.826261 0.789883 0.769009
0.831693 0.792996 0.768154
0.838590 0.796841 0.767147
0.846952 0.801266 0.765957
0.856535 0.806088 0.764584
0.867247 0.810941 0.762722
0.879210 0.815885 0.760281
0.892271 0.820554 0.756832
0.906615 0.824704 0.751705
0.922087 0.827909 0.744350
0.938750 0.829740 0.733639
0.956970 0.829587 0.717769
0.974273 0.829343 0.704219
0.990326 0.829679 0.695644
1.000000 0.828428 0.684688
1.000000 0.828000 0.672389
1.000000 0.826169 0.658625
1.000000 0.819699 0.637934
1.000000 0.812924 0.615900
1.000000 0.806577 0.593439
1.000000 0.800900 0.571374
1.000000 0.795895 0.549828
1.000000 0.791562 0.529046
1.000000 0.788022 0.509392
1.000000 0.785153 0.490791
1.000000 0.782956 0.473030
1.000000 0.781399 0.456825
1.000000 0.780209 0.440925
0.832670 0.798825 0.785336
0.833097 0.799191 0.785489
0.846006 0.811307 0.797513
0.847715 0.812436 0.797177
0.850401 0.814054 0.796628
0.854063 0.816220 0.795865
0.858976 0.819028 0.794858
0.865141 0.822416 0.793729
0.872526 0.826291 0.792447
0.881224 0.830655 0.790890
0.891051 0.835111 0.788815
0.901976 0.839536 0.786099
0.913695 0.843473 0.782101
0.926329 0.846769 0.776669
0.939666 0.849149 0.769406
0.953918 0.850217 0.759335
0.969360 0.849577 0.745205
0.983551 0.849454 0.735348
0.997223 0.849302 0.727413
1.000000 0.847959 0.718074
1.000000 0.846921 0.707546
1.000000 0.845121 0.696284
1.000000 0.840330 0.680934
1.000000 0.834073 0.662348
1.000000 0.827817 0.642573
1.000000 0.821836 0.622339
1.000000 0.816220 0.601556
1.000000 0.811215 0.581170
1.000000 0.807095 0.562188
1.000000 0.803861 0.544579
1.000000 0.801175 0.527611
1.000000 0.798947 0.511254
0.847471 0.813138 0.800137
0.848722 0.814237 0.801083
0.850523 0.815763 0.801999
0.852873 0.817594 0.802670
0.855924 0.819730 0.802945
0.859373 0.821897 0.802548
0.863645 0.824399 0.801724
0.868772 0.827268 0.800626
0.875059 0.830655 0.799374
0.882536 0.834440 0.797818
0.891081 0.838529 0.795987
0.900633 0.842618 0.793576
0.911040 0.846464 0.790280
0.922118 0.849851 0.785946
0.934020 0.852659 0.780301
0.946654 0.854643 0.772976
0.960113 0.855497 0.763149
0.974640 0.855070 0.750240
0.987243 0.856199 0.744564
1.000000 0.856626 0.738277
1.000000 0.856077 0.731136
1.000000 0.855650 0.723018
1.000000 0.854368 0.713863
1.000000 0.850950 0.702052
1.000000 0.845487 0.686458
1.000000 0.840055 0.669917
1.000000 0.834745 0.652735
1.000000 0.829892 0.635309
1.000000 0.825528 0.617975
1.000000 0.821866 0.601587
1.000000 0.818784 0.585748
1.000000 0.816037 0.570367
0.854704 0.820127 0.807095
0.855924 0.821256 0.808042
0.857633 0.822721 0.808957
0.859800 0.824460 0.809689
0.862486 0.826413 0.809995
0.865568 0.828397 0.809689
0.869261 0.830625 0.808927
0.873747 0.833158 0.807889
0.879240 0.836149 0.806699
0.885679 0.839506 0.805234
0.893156 0.843168 0.803464
0.901579 0.846983 0.801266
0.910765 0.850645 0.798489
0.920714 0.854093 0.794888
0.931334 0.857115 0.790311
0.942596 0.859525 0.784482
0.954589 0.861143 0.777096
0.967315 0.861784 0.767575
0.979950 0.862364 0.758938
0.991638 0.863615 0.754269
1.000000 0.864195 0.748989
1.000000 0.864073 0.743282
1.000000 0.863737 0.736538
1.000000 0.862669 0.728786
1.000000 0.860075 0.719326
1.000000 0.855283 0.706142
1.000000 0.850614 0.692287
1.000000 0.846128 0.677943
1.000000 0.842069 0.663691
1.000000 0.838407 0.649409
1.000000 0.835233 0.635492
1.000000 0.832212 0.621332
0.862058 0.827298 0.813993
0.863035 0.828244 0.814847
0.864530 0.829526 0.815640
0.866453 0.831052 0.816220
0.868772 0.832761 0.816434
0.871489 0.834531 0.816159
0.874723 0.836515 0.815488
0.878660 0.838834 0.814572
0.883604 0.841581 0.813382
0.889250 0.844602 0.812039
0.895903 0.847990 0.810422
0.903410 0.851499 0.808438
0.911650 0.855009 0.805875
0.920623 0.858366 0.802731
0.930205 0.861448 0.798917
0.940459 0.864195 0.794156
0.951507 0.866545 0.788479
0.963226 0.868315 0.781399
0.975708 0.869322 0.772671
0.986847 0.871580 0.769223
0.997986 0.873442 0.765957
1.000000 0.874632 0.762448
1.000000 0.874968 0.758358
1.000000 0.874937 0.753628
1.000000 0.874174 0.747707
1.000000 0.872099 0.740566
1.000000 0.868437 0.730404
1.000000 0.864775 0.719753
1.000000 0.861357 0.708888
1.000000 0.858061 0.697627
1.000000 0.854978 0.686244
1.000000 0.851865 0.674128
0.874754 0.839963 0.826200
0.875212 0.840421 0.826535
0.875944 0.840970 0.826688
0.877043 0.841764 0.826627
0.878630 0.842802 0.826261
0.880674 0.844022 0.825650
0.883299 0.845609 0.824796
0.886748 0.847593 0.823758
0.891020 0.850004 0.822629
0.896178 0.852842 0.821347
0.902159 0.855985 0.819852
0.908873 0.859281 0.817960
0.916197 0.862516 0.815610
0.924224 0.865721 0.812741
0.932830 0.868711 0.809201
0.942046 0.871397 0.804898
0.951751 0.873686 0.799832
0.962127 0.875486 0.793729
0.973022 0.876707 0.786374
0.983551 0.878202 0.781094
0.993408 0.879973 0.778042
1.000000 0.881224 0.774777
1.000000 0.881834 0.771176
1.000000 0.881682 0.767178
1.000000 0.881254 0.762844
1.000000 0.880308 0.757443
1.000000 0.878447 0.751400
1.000000 0.875486 0.743282
1.000000 0.872404 0.734279
1.000000 0.869413 0.724880
1.000000 0.866484 0.715175
1.000000 0.863584 0.704921
0.881437 0.846708 0.832547
0.881804 0.847074 0.832822
0.882475 0.847623 0.832975
0.883513 0.848356 0.832914
0.884947 0.849302 0.832609
0.886778 0.850431 0.832059
0.889220 0.851896 0.831235
0.892302 0.853727 0.830259
0.896117 0.855924 0.829191
0.900755 0.858579 0.827970
0.906126 0.861448 0.826474
0.912169 0.864500 0.824735
0.918914 0.867613 0.822477
0.926238 0.870695 0.819883
0.934142 0.873686 0.816709
0.942565 0.876402 0.812894
0.951598 0.878843 0.808377
0.961059 0.880919 0.803067
0.971099 0.882414 0.796658
0.981018 0.883909 0.791043
0.990173 0.885954 0.788479
0.999390 0.887510 0.785763
1.000000 0.888579 0.782834
1.000000 0.888975 0.779629
1.000000 0.886595 0.773556
1.000000 0.886046 0.769650
1.000000 0.885161 0.764889
1.000000 0.883482 0.759701
1.000000 0.881010 0.753079
1.000000 0.878355 0.745327
1.000000 0.875761 0.737240
1.000000 0.873106 0.728603
0.891173 0.856809 0.842100
0.891752 0.857389 0.842588
0.892363 0.857847 0.842679
0.893065 0.858274 0.842374
0.893950 0.858732 0.841703
0.895232 0.859342 0.840726
0.896880 0.860166 0.839475
0.899199 0.861295 0.838071
0.902159 0.862791 0.836454
0.905882 0.864714 0.834775
0.910216 0.866819 0.832822
0.915373 0.869291 0.830716
0.921111 0.871855 0.828305
0.927489 0.874357 0.825406
0.934295 0.876738 0.822019
0.941711 0.879026 0.818082
0.949676 0.881163 0.813626
0.958343 0.883085 0.808591
0.967559 0.884764 0.802792
0.976989 0.886503 0.797574
0.985718 0.888884 0.795407
0.994446 0.890806 0.793027
1.000000 0.892119 0.790402
1.000000 0.892790 0.787442
1.000000 0.892760 0.784054
1.000000 0.892088 0.780423
1.000000 0.891264 0.776791
1.000000 0.890135 0.772244
1.000000 0.888365 0.767453
1.000000 0.886015 0.761776
1.000000 0.883604 0.754818
1.000000 0.881254 0.747677
0.895628 0.861418 0.846342
0.896147 0.861936 0.846799
0.896757 0.862486 0.847013
0.897551 0.863005 0.846830
0.898558 0.863676 0.846403
0.899992 0.864500 0.845762
0.901884 0.865629 0.844938
0.904387 0.867094 0.843931
0.907439 0.868864 0.842802
0.911131 0.870939 0.841489
0.915343 0.873198 0.839841
0.920165 0.875639 0.837980
0.925505 0.878080 0.835691
0.931273 0.880461 0.832883
0.937499 0.882719 0.829587
0.944213 0.884825 0.825742
0.951446 0.886748 0.821347
0.959228 0.888548 0.816434
0.967651 0.890135 0.810880
0.976135 0.891905 0.806332
0.984161 0.894255 0.804318
0.992218 0.896269 0.802182
1.000000 0.897826 0.799863
1.000000 0.898802 0.797299
1.000000 0.899229 0.794491
1.000000 0.899046 0.791379
1.000000 0.898314 0.788144
1.000000 0.897368 0.785000
1.000000 0.896147 0.780911
1.000000 0.894285 0.776455
1.000000 0.891936 0.771603
1.000000 0.889677 0.765377
0.902464 0.868742 0.853208
0.902800 0.869017 0.853452
0.903197 0.869352 0.853422
0.903807 0.869718 0.853178
0.904692 0.870268 0.852720
0.905943 0.870970 0.851987
0.907591 0.871916 0.851102
0.909758 0.873167 0.850034
0.912444 0.874662 0.848814
0.915709 0.876493 0.847410
0.919554 0.878477 0.845731
0.923919 0.880705 0.843809
0.928771 0.882994 0.841550
0.934081 0.885191 0.838804
0.939788 0.887266 0.835508
0.945922 0.889220 0.831693
0.952544 0.891020 0.827420
0.959716 0.892668 0.822538
0.967437 0.894163 0.817105
0.974945 0.896300 0.814023
0.982361 0.898650 0.812131
0.989868 0.900664 0.810117
0.997314 0.902251 0.807858
1.000000 0.903380 0.805447
1.000000 0.903990 0.802792
1.000000 0.904051 0.799924
1.000000 0.903624 0.796872
1.000000 0.902708 0.793668
1.000000 0.901701 0.790768
1.000000 0.900389 0.787015
1.000000 0.898497 0.782956
1.000000 0.896147 0.778592
0.907774 0.874357 0.858427
0.907988 0.874632 0.858610
0.908415 0.874968 0.858610
0.909056 0.875395 0.858488
0.910033 0.876097 0.858213
0.911467 0.877073 0.857847
0.913573 0.878569 0.857572
0.916167 0.880430 0.857237
0.919402 0.882658 0.856809
0.923186 0.885191 0.856260
0.927428 0.887938 0.855436
0.932006 0.890684 0.854215
0.937011 0.893431 0.852537
0.942229 0.895933 0.850217
0.947723 0.898161 0.847196
0.953368 0.899962 0.843381
0.959380 0.901518 0.838956
0.965789 0.902861 0.833829
0.972534 0.904234 0.829038
0.978912 0.906462 0.827146
0.985443 0.908476 0.825223
0.992096 0.910246 0.823148
0.998688 0.911559 0.820829
1.000000 0.912474 0.818387
1.000000 0.912932 0.815671
1.000000 0.912932 0.812833
1.000000 0.912474 0.809781
1.000000 0.911620 0.806668
1.000000 0.910338 0.803403
1.000000 0.908934 0.800534
1.000000 0.907073 0.796689
1.000000 0.904753 0.792416
0.918364 0.886229 0.869780
0.918425 0.886259 0.869749
0.918639 0.886381 0.869596
0.919036 0.886595 0.869230
0.919738 0.886992 0.868681
0.920775 0.887541 0.868009
0.922210 0.888396 0.867185
0.924102 0.889494 0.866178
0.926452 0.890898 0.865019
0.929259 0.892485 0.863676
0.932525 0.894285 0.862089
0.936248 0.896178 0.860166
0.940368 0.898131 0.857847
0.944823 0.900053 0.855039
