20 Preset/City Style/【3】LUT video cho PR-AE-FCPX/TONE 2/Darky Sunset II.cube
# Created by Adobe Lightroom plugin Export LUT (1.24.0)
# www.johnrellis.com/lightroom/exportlut.htm
# Preset: Darky Sunset II
# Color profile: E:\lut插件\exportlut.1.24\exportlut.lrplugin\color profiles\Rec709gamma2.4.icc
LUT_3D_SIZE 5
DOMAIN_MIN 0.000000 0.000000 0.000000
DOMAIN_MAX 0.903226 0.903226 0.903226
0.000000 0.117189 0.142916
0.017762 0.117525 0.143404
0.118685 0.122438 0.149355
0.483772 0.000000 0.143435
0.894469 0.000000 0.089052
0.000000 0.126925 0.153536
0.000000 0.122683 0.156252
0.095216 0.134554 0.154482
0.469398 0.118257 0.134035
0.908293 0.000000 0.000000
0.000000 0.132052 0.158877
0.000000 0.128847 0.154116
0.227268 0.203372 0.145724
0.537926 0.296330 0.045747
0.866423 0.335119 0.000000
0.182376 0.224460 0.250553
0.175113 0.219150 0.245457
0.264439 0.272343 0.245945
0.592493 0.473884 0.215885
0.935698 0.606134 0.140566
0.517967 0.541436 0.558465
0.512779 0.536950 0.554253
0.432685 0.463416 0.484138
0.695674 0.645777 0.534874
0.926635 0.777859 0.558862
0.000000 0.126345 0.155398
0.000000 0.129061 0.155703
0.093080 0.126375 0.155184
0.395727 0.015625 0.146090
0.788571 0.000000 0.106661
0.000000 0.122225 0.148257
0.000000 0.119448 0.147951
0.115084 0.126711 0.145968
0.399542 0.101747 0.135225
0.795895 0.000000 0.062837
0.006073 0.134707 0.161807
0.000000 0.131350 0.158175
0.182528 0.181918 0.151705
0.455543 0.253696 0.116793
0.840818 0.308659 0.000000
0.195499 0.234287 0.259953
0.189395 0.229709 0.255558
0.263523 0.274693 0.255283
0.585168 0.472572 0.238071
0.925689 0.600946 0.192203
0.521904 0.544823 0.561639
0.513939 0.537987 0.555200
0.495583 0.521874 0.540002
0.721462 0.670710 0.570184
0.935363 0.796048 0.600702
0.000000 0.122347 0.142550
0.000000 0.119661 0.143069
0.000000 0.127138 0.153719
0.446937 0.000000 0.229862
0.821622 0.000000 0.130831
0.000000 0.119081 0.153994
0.000000 0.119478 0.150210
0.083558 0.159731 0.187411
0.459724 0.000000 0.187686
0.818540 0.000000 0.120912
0.110445 0.175143 0.202731
0.123049 0.183108 0.210391
0.232547 0.225040 0.212467
0.475746 0.249271 0.188174
0.843992 0.205051 0.119203
0.267124 0.295659 0.319219
0.250462 0.280430 0.304356
0.253513 0.278172 0.289250
0.588159 0.493812 0.328252
0.895415 0.584375 0.304723
0.529747 0.551537 0.567926
0.527459 0.549584 0.566094
0.507317 0.532219 0.549767
0.664485 0.635279 0.565179
0.919615 0.786557 0.611536
0.000000 0.124208 0.184115
0.000000 0.126558 0.181033
0.009369 0.135225 0.164523
0.238071 0.269322 0.293706
0.785611 0.446723 0.597070
0.000000 0.140810 0.211948
0.000000 0.142306 0.204898
0.050202 0.149050 0.179843
0.278202 0.306279 0.329534
0.806394 0.384802 0.568536
0.054780 0.224063 0.290745
0.109102 0.228244 0.297612
0.207340 0.240879 0.279088
0.464271 0.418097 0.465919
0.881437 0.000000 0.412634
0.369665 0.399512 0.421454
0.371923 0.401831 0.423774
0.402991 0.433722 0.455146
0.606714 0.549065 0.488228
0.889220 0.538872 0.420752
0.645045 0.646235 0.655360
0.647852 0.648463 0.657404
0.631586 0.635431 0.645441
0.569970 0.584375 0.594903
0.910491 0.802152 0.684321
0.102052 0.191226 0.343297
0.124147 0.192355 0.331518
0.168307 0.201114 0.292027
0.199893 0.237827 0.263401
0.510979 0.535332 0.552758
0.118685 0.207187 0.363409
0.140871 0.208103 0.352056
0.184573 0.213993 0.308629
0.211643 0.247013 0.272282
0.535790 0.556695 0.572717
0.163760 0.304875 0.489998
0.187320 0.297032 0.473182
0.259007 0.292027 0.413764
0.271641 0.299962 0.323369
0.667842 0.664485 0.672053
0.304875 0.525048 0.598230
0.318700 0.525811 0.601404
0.390967 0.538170 0.625757
0.525780 0.541863 0.592248
0.850370 0.819120 0.815732
0.724178 0.709682 0.713405
0.726650 0.711635 0.715206
0.748196 0.729152 0.731289
0.781338 0.756832 0.756863
0.900755 0.841886 0.809049
