20 Preset/City Style/【3】LUT video cho PR-AE-FCPX/TONE 2/Darky Sunset.cube
# Created by Adobe Lightroom plugin Export LUT (1.24.0)
# www.johnrellis.com/lightroom/exportlut.htm
# Preset: Darky Sunset
# Color profile: E:\lut插件\exportlut.1.24\exportlut.lrplugin\color profiles\Rec709gamma2.4.icc
LUT_3D_SIZE 8
DOMAIN_MIN 0.000000 0.000000 0.000000
DOMAIN_MAX 0.903226 0.903226 0.903226
0.128939 0.187320 0.214481
0.125154 0.187289 0.214420
0.125246 0.186679 0.213840
0.207950 0.180270 0.212497
0.442603 0.133455 0.207034
0.785763 0.000000 0.188998
0.990692 0.000000 0.167239
1.000000 0.000000 0.145815
0.127260 0.185977 0.213138
0.124056 0.185672 0.213962
0.123995 0.186007 0.213413
0.178805 0.184939 0.212222
0.372595 0.167819 0.207401
0.654139 0.000000 0.194522
0.901793 0.000000 0.173404
1.000000 0.000000 0.148043
0.124575 0.184054 0.211460
0.125856 0.184604 0.211246
0.155673 0.191287 0.210666
0.194583 0.196353 0.209079
0.335241 0.206424 0.203555
0.605310 0.201907 0.186007
0.914733 0.125826 0.147066
1.000000 0.000000 0.108370
0.149874 0.201175 0.228092
0.156649 0.203616 0.225040
0.213962 0.225406 0.214572
0.467445 0.312505 0.176211
0.558984 0.320623 0.163424
0.530236 0.290166 0.176059
0.834806 0.324834 0.114137
1.000000 0.323674 0.000000
0.202701 0.240085 0.265537
0.209689 0.243503 0.262577
0.275731 0.279545 0.250248
0.454566 0.374151 0.207401
0.760525 0.471870 0.000000
0.839506 0.459174 0.000000
0.792569 0.417975 0.000000
0.952880 0.445869 0.000000
0.313603 0.341497 0.364111
0.323919 0.352087 0.374578
0.392004 0.399542 0.362829
0.545342 0.492775 0.326177
0.765499 0.584833 0.228916
0.973663 0.623774 0.000000
1.000000 0.611383 0.000000
1.000000 0.591699 0.000000
0.525048 0.547539 0.564172
0.527703 0.549767 0.566278
0.548272 0.560845 0.554131
0.660853 0.625788 0.533837
0.801511 0.690089 0.485451
0.940185 0.735439 0.403784
1.000000 0.732937 0.200717
1.000000 0.707179 0.000000
0.800412 0.773251 0.772183
0.799222 0.772244 0.771237
0.797665 0.770871 0.769955
0.833951 0.795590 0.766720
0.867247 0.802396 0.715267
0.941070 0.839811 0.696712
1.000000 0.855924 0.651362
1.000000 0.829191 0.508812
0.129274 0.187167 0.214115
0.126467 0.187045 0.214023
0.121309 0.186923 0.213962
0.169619 0.184787 0.212650
0.346654 0.169528 0.208591
0.611139 0.014038 0.197787
0.861357 0.000000 0.179385
1.000000 0.000000 0.156130
0.127016 0.185824 0.213016
0.123720 0.185702 0.213718
0.122652 0.185641 0.213352
0.164126 0.186099 0.212192
0.322362 0.179660 0.208164
0.564630 0.127169 0.198154
0.810819 0.000000 0.181094
1.000000 0.000000 0.157168
0.124331 0.184207 0.211551
0.126162 0.184726 0.211215
0.150423 0.189639 0.210666
0.178988 0.193393 0.209812
0.278172 0.200870 0.206394
0.503166 0.203037 0.194736
0.784451 0.152804 0.169497
1.000000 0.000000 0.132235
0.140108 0.194553 0.221622
0.145022 0.196658 0.220096
0.186374 0.211185 0.213870
0.355261 0.257877 0.195163
0.420081 0.263706 0.189700
0.412024 0.249729 0.193057
0.693965 0.284337 0.158297
0.961639 0.286320 0.088563
0.196445 0.235080 0.260716
0.201205 0.236851 0.257237
0.256748 0.265446 0.244755
0.404761 0.337987 0.209537
0.680598 0.425544 0.099397
0.765011 0.420142 0.013062
0.723781 0.385260 0.106905
0.896635 0.414923 0.000000
0.293614 0.321324 0.344244
0.291875 0.319646 0.342596
0.352239 0.361334 0.333410
0.496590 0.452461 0.303990
0.723873 0.553948 0.215488
0.955352 0.606683 0.000000
1.000000 0.595605 0.000000
1.000000 0.571984 0.000000
0.482612 0.510216 0.528985
0.473579 0.502037 0.521233
0.490089 0.510216 0.507561
0.610559 0.583642 0.491188
0.772274 0.663783 0.452857
0.924224 0.715145 0.369055
1.000000 0.713680 0.136233
1.000000 0.689021 0.000000
0.771939 0.748898 0.749508
0.775875 0.752224 0.752590
0.772732 0.749569 0.750118
0.811887 0.775601 0.747463
0.878264 0.815610 0.734676
0.942168 0.843168 0.704524
1.000000 0.853758 0.648188
1.000000 0.827054 0.504967
0.128237 0.186282 0.211551
0.126467 0.185611 0.212161
0.123934 0.183932 0.211215
0.198642 0.177035 0.211093
0.402136 0.154238 0.206516
0.640375 0.050446 0.193973
0.877165 0.000000 0.170565
1.000000 0.000000 0.144564
0.125551 0.184451 0.211276
0.124392 0.184207 0.211429
0.130709 0.183474 0.211460
0.193545 0.181888 0.210513
0.360204 0.173465 0.206577
0.586816 0.138064 0.195224
0.829862 0.000000 0.173098
1.000000 0.000000 0.144778
0.127657 0.186221 0.213474
0.128786 0.186465 0.213321
0.163088 0.191531 0.210391
0.190005 0.194705 0.209354
0.331395 0.204837 0.204196
0.546349 0.208377 0.190951
0.799039 0.183261 0.163302
1.000000 0.012543 0.122957
0.152987 0.203311 0.230137
0.157290 0.205417 0.229252
0.211978 0.226017 0.220340
0.416968 0.282017 0.192477
0.441382 0.272282 0.189670
0.466926 0.264744 0.188296
0.736843 0.299016 0.148226
0.981994 0.307744 0.034424
0.213291 0.248356 0.273533
0.215000 0.248814 0.271366
0.277195 0.283574 0.260105
0.439429 0.366094 0.223270
0.735378 0.453193 0.093263
0.776913 0.427222 0.034852
0.731563 0.389075 0.108614
0.908965 0.423438 0.000000
0.307897 0.335790 0.358434
0.307286 0.334997 0.357733
0.359503 0.370916 0.348455
0.498421 0.457618 0.319524
0.719356 0.554284 0.242222
0.952636 0.605646 0.000000
1.000000 0.591638 0.000000
1.000000 0.572717 0.000000
0.509697 0.534295 0.551720
0.501884 0.527459 0.545281
0.498177 0.520806 0.528008
0.612055 0.589044 0.508782
0.769833 0.666926 0.472511
0.923430 0.721767 0.405097
1.000000 0.725490 0.240787
1.000000 0.701442 0.000000
0.778775 0.754696 0.754849
0.775082 0.751522 0.751949
0.770901 0.748043 0.748684
0.805295 0.772213 0.751888
0.873533 0.814023 0.739773
0.940764 0.846677 0.717708
1.000000 0.859525 0.670130
1.000000 0.834348 0.543175
0.125216 0.184787 0.211246
0.124361 0.184390 0.211154
0.123934 0.183932 0.211215
0.163088 0.190982 0.224491
0.446479 0.088441 0.235447
0.708034 0.000000 0.202792
0.893797 0.000000 0.184543
1.000000 0.000000 0.158572
0.123781 0.183749 0.212650
0.124300 0.183871 0.212253
0.125673 0.185031 0.212345
0.209751 0.187198 0.230961
0.475074 0.016297 0.220676
0.691157 0.000000 0.201144
0.878233 0.000000 0.182589
1.000000 0.000000 0.155520
0.131380 0.191073 0.218051
0.136233 0.192569 0.219547
0.160433 0.194491 0.218936
0.252171 0.193118 0.215824
0.430640 0.186679 0.208988
0.655299 0.160220 0.193912
0.891051 0.048157 0.166720
1.000000 0.000000 0.132204
0.189029 0.229404 0.255314
0.184939 0.226413 0.252323
0.227634 0.243137 0.241001
0.426246 0.286839 0.211185
0.403113 0.260472 0.203738
0.529534 0.270695 0.190249
0.782650 0.285405 0.155428
1.000000 0.283879 0.092073
0.264683 0.293462 0.317021
0.259556 0.288579 0.312230
0.306767 0.316747 0.299840
0.487526 0.411719 0.267185
0.800259 0.489998 0.160708
0.780911 0.434668 0.122652
0.730159 0.389654 0.128542
0.953552 0.426062 0.000000
0.363836 0.393561 0.415595
0.372290 0.402258 0.424170
0.400214 0.419409 0.410407
0.549676 0.511315 0.388891
0.763210 0.599390 0.331762
0.971252 0.632105 0.201663
1.000000 0.597436 0.000000
1.000000 0.571923 0.000000
0.549126 0.567956 0.583185
0.548486 0.567407 0.582727
0.538201 0.558740 0.574640
0.634699 0.617639 0.564324
0.786801 0.694972 0.538567
0.926482 0.744228 0.487068
1.000000 0.743771 0.365240
1.000000 0.713802 0.193545
0.808682 0.780575 0.779019
0.807309 0.779385 0.777920
0.803037 0.775601 0.774350
0.799588 0.772274 0.770169
0.868040 0.816037 0.758145
0.935698 0.850675 0.738521
1.000000 0.866880 0.701167
1.000000 0.847257 0.605310
0.123476 0.183749 0.217075
0.124483 0.183841 0.216678
0.127321 0.185763 0.214176
0.142428 0.196323 0.223178
0.379187 0.280888 0.350256
0.757046 0.000000 0.348058
0.966461 0.000000 0.249393
1.000000 0.000000 0.202243
0.124147 0.184604 0.221164
0.126589 0.185092 0.220584
0.131930 0.188693 0.217075
0.158602 0.207279 0.233921
0.430274 0.259648 0.355016
0.768551 0.000000 0.329076
0.965057 0.000000 0.226780
1.000000 0.000000 0.199496
0.128481 0.198917 0.250584
0.139498 0.199954 0.248417
0.162081 0.209506 0.236179
0.248295 0.278386 0.302373
0.519310 0.159762 0.295445
0.741756 0.000000 0.231693
0.916228 0.000000 0.209110
1.000000 0.000000 0.187381
0.230320 0.262516 0.287114
0.235630 0.267063 0.291569
0.246525 0.274723 0.294163
0.362799 0.284642 0.262150
0.461219 0.268986 0.236423
0.646784 0.260288 0.215549
0.853208 0.231327 0.191318
1.000000 0.170199 0.163149
0.324224 0.352361 0.374823
0.321263 0.349279 0.371832
0.306065 0.333867 0.356603
0.479347 0.427893 0.331060
0.744991 0.472969 0.264042
0.680140 0.394629 0.201083
0.741329 0.369207 0.168154
0.975738 0.383551 0.113252
0.388342 0.418860 0.440558
0.385809 0.416144 0.437934
0.367285 0.397040 0.419043
0.480934 0.470863 0.402930
0.699550 0.569238 0.368994
0.957336 0.631312 0.316045
0.970855 0.576501 0.183871
0.969146 0.535363 0.000000
0.580804 0.594232 0.607599
0.573358 0.588128 0.601923
0.554345 0.572290 0.587274
0.564691 0.576379 0.575250
0.743648 0.678309 0.564965
0.902922 0.741085 0.530907
1.000000 0.748836 0.448920
1.000000 0.704585 0.281132
0.798703 0.771786 0.770809
0.796689 0.770047 0.769131
0.790433 0.764614 0.764096
0.795712 0.769223 0.768368
0.830961 0.791684 0.760464
0.915190 0.840421 0.745785
0.988769 0.864042 0.715175
1.000000 0.848692 0.635828
0.124971 0.185611 0.242618
0.128115 0.186496 0.242283
0.141451 0.190921 0.236423
0.160983 0.208988 0.235599
0.285985 0.313878 0.336950
0.665827 0.549126 0.610529
0.968292 0.314672 0.580407
1.000000 0.000000 0.494453
0.126711 0.187533 0.247868
0.131014 0.188266 0.246006
0.144198 0.192996 0.237827
0.162539 0.210117 0.236667
0.288396 0.316197 0.339239
0.671870 0.498390 0.584649
0.962219 0.252110 0.548211
1.000000 0.000000 0.462593
0.135256 0.207919 0.305425
0.149722 0.209598 0.299962
0.187320 0.220951 0.282078
0.221378 0.255100 0.279973
0.413550 0.444526 0.465736
0.777340 0.412421 0.560052
0.988983 0.106203 0.478889
1.000000 0.000000 0.381201
0.160220 0.319768 0.396216
0.180575 0.320623 0.398901
0.287266 0.340612 0.415381
0.424353 0.455238 0.476173
0.688045 0.415564 0.500908
0.874418 0.259525 0.394934
0.999329 0.180087 0.349004
1.000000 0.000000 0.325963
0.421210 0.452186 0.473182
0.425544 0.456428 0.477363
0.438575 0.469215 0.489723
0.505394 0.498177 0.467720
0.663478 0.485969 0.396857
0.682033 0.405402 0.297246
0.879026 0.385534 0.275456
1.000000 0.353796 0.264836
0.519188 0.542504 0.559442
0.522179 0.545068 0.561852
0.503746 0.529046 0.546838
0.505577 0.524254 0.523125
0.714504 0.623743 0.510704
0.930449 0.660151 0.479835
0.909850 0.552483 0.291630
0.990509 0.517021 0.211032
0.672694 0.668330 0.675593
0.674342 0.669642 0.676783
0.662867 0.660487 0.668421
0.638758 0.641199 0.650752
0.717006 0.685176 0.636255
0.884611 0.763119 0.624567
1.000000 0.783047 0.591241
1.000000 0.719356 0.422766
0.828122 0.798184 0.795682
0.824979 0.795285 0.792935
0.819303 0.790127 0.788052
0.815122 0.786343 0.784451
0.803281 0.775784 0.774533
0.881926 0.825895 0.764431
0.971588 0.866545 0.747829
1.000000 0.860349 0.696864
0.123903 0.189761 0.301244
0.131472 0.190951 0.300420
0.156069 0.196719 0.286839
0.183413 0.216526 0.263218
0.246830 0.276921 0.300999
0.494209 0.520684 0.538903
0.801694 0.743801 0.756710
0.990112 0.617853 0.741085
0.124666 0.191928 0.303532
0.133150 0.193301 0.303227
0.159030 0.199252 0.289860
0.185611 0.218601 0.264378
0.247868 0.277836 0.301884
0.487037 0.514153 0.532769
0.796902 0.713832 0.739010
0.989960 0.578363 0.718471
0.123995 0.210666 0.363531
0.140749 0.212650 0.359350
0.188235 0.222232 0.339300
0.231052 0.252476 0.303136
0.310307 0.338140 0.360815
0.592981 0.604211 0.616785
0.861601 0.693263 0.746944
1.000000 0.578882 0.714870
0.000000 0.296300 0.497963
0.119631 0.299382 0.493507
0.244938 0.308659 0.468299
0.341527 0.356023 0.421149
0.462501 0.491829 0.511437
0.756435 0.735988 0.737575
0.933623 0.638605 0.723751
1.000000 0.530236 0.666804
0.261967 0.495125 0.544671
0.274601 0.494759 0.544732
0.334569 0.505638 0.557458
0.452461 0.525139 0.592096
0.665614 0.662654 0.670405
0.849729 0.565423 0.627893
0.983062 0.472633 0.554345
1.000000 0.444221 0.532036
0.634943 0.638148 0.647944
0.638514 0.640986 0.650538
0.650599 0.650721 0.659449
0.673213 0.668757 0.675990
0.695094 0.673823 0.653956
0.833555 0.662348 0.592828
0.889097 0.568322 0.467109
1.000000 0.557519 0.475685
0.757168 0.736599 0.738155
0.759365 0.738399 0.739803
0.756954 0.736416 0.737972
0.739345 0.721950 0.724666
0.704677 0.693904 0.698970
0.853849 0.776272 0.703243
0.985595 0.801907 0.692653
1.000000 0.686610 0.470436
0.860105 0.828641 0.824918
0.859953 0.828489 0.824765
0.860868 0.829374 0.825650
0.856840 0.825467 0.821836
0.847135 0.816037 0.812772
0.838926 0.806821 0.798825
0.945892 0.871336 0.794095
1.000000 0.881346 0.776120
0.092348 0.200351 0.435950
0.115572 0.202243 0.433906
0.173404 0.210178 0.410010
0.233860 0.236301 0.373327
0.269413 0.297826 0.321233
0.410224 0.441199 0.462470
0.725277 0.710536 0.714168
0.879362 0.848081 0.843900
0.090822 0.202457 0.435767
0.114229 0.204593 0.433936
0.174929 0.212955 0.413214
0.235935 0.238651 0.375219
0.271122 0.299474 0.322850
0.412512 0.443488 0.464729
0.724575 0.709957 0.713649
0.878996 0.847684 0.843534
0.000000 0.220279 0.482216
0.092622 0.222538 0.478401
0.183444 0.232578 0.455543
0.266911 0.266880 0.423011
0.305730 0.333440 0.356207
0.464179 0.493477 0.513024
0.767330 0.745022 0.745937
0.898283 0.856626 0.856626
0.000000 0.272007 0.576837
0.000000 0.275914 0.574426
0.177249 0.289525 0.555413
0.316991 0.329046 0.518700
0.385809 0.407996 0.446479
0.577356 0.591394 0.604944
0.835477 0.804990 0.802152
0.933684 0.851255 0.866148
0.000000 0.411658 0.662989
0.000000 0.409491 0.666377
0.000000 0.404547 0.666072
0.346227 0.447547 0.655024
0.521355 0.524163 0.600793
0.706111 0.695064 0.700038
0.887907 0.857053 0.852720
0.963714 0.829770 0.857786
0.435431 0.683101 0.709804
0.440436 0.682795 0.710323
0.466590 0.683619 0.714687
0.523919 0.687404 0.727474
0.618158 0.684627 0.751461
0.803006 0.775570 0.774350
0.927764 0.833890 0.847349
1.000000 0.782956 0.814633
0.816526 0.787594 0.785641
0.816861 0.787930 0.785946
0.819059 0.789914 0.787839
0.825589 0.795865 0.793484
0.836088 0.805539 0.802701
0.840543 0.809812 0.806729
0.895506 0.787686 0.751614
0.988556 0.758267 0.722957
0.881224 0.850034 0.845792
0.881224 0.850004 0.845792
0.882872 0.851713 0.847471
0.887602 0.856748 0.852415
0.893584 0.863127 0.858762
0.887541 0.856626 0.852323
0.910613 0.870817 0.844663
0.997040 0.903899 0.856413
