20 Preset/City Style/【3】LUT video cho PR-AE-FCPX/TONE 2/Darky Flashing Lines.cube
# Created by Adobe Lightroom plugin Export LUT (1.24.0)
# www.johnrellis.com/lightroom/exportlut.htm
# Preset: Darky Flashing Lines
# Color profile: E:\lut插件\exportlut.1.24\exportlut.lrplugin\color profiles\Rec709gamma2.4.icc
LUT_3D_SIZE 8
DOMAIN_MIN 0.000000 0.000000 0.000000
DOMAIN_MAX 0.903226 0.903226 0.903226
0.117220 0.179629 0.207034
0.111299 0.180026 0.206088
0.006744 0.182071 0.197696
0.109560 0.178408 0.204532
0.282353 0.145754 0.247654
0.518578 0.000000 0.345129
0.902434 0.000000 0.547448
1.000000 0.000000 0.697230
0.110719 0.175296 0.202853
0.110445 0.175143 0.202731
0.071290 0.174350 0.202884
0.084596 0.175326 0.199832
0.248753 0.149264 0.231357
0.462165 0.000000 0.316320
0.812528 0.000000 0.496132
1.000000 0.000000 0.665522
0.086824 0.161074 0.188754
0.087434 0.161257 0.188907
0.088685 0.162112 0.189548
0.130251 0.168704 0.188113
0.213107 0.159426 0.188663
0.480201 0.000000 0.245609
0.891844 0.000000 0.458656
1.000000 0.000000 0.640406
0.184390 0.226017 0.251957
0.184604 0.225986 0.252079
0.201328 0.238987 0.264378
0.224704 0.257725 0.282567
0.361730 0.302678 0.233188
0.409674 0.293523 0.242161
0.695552 0.212650 0.258610
1.000000 0.000000 0.340002
0.329290 0.357610 0.380072
0.330480 0.358801 0.381201
0.346624 0.375586 0.397803
0.390570 0.421118 0.442786
0.371893 0.401770 0.423743
0.496956 0.450660 0.340398
0.764645 0.475380 0.242649
0.689570 0.466621 0.334264
0.549035 0.567864 0.583154
0.577142 0.591241 0.604791
0.590997 0.602533 0.615259
0.620233 0.626307 0.637079
0.638300 0.640833 0.650446
0.597436 0.607843 0.620111
0.744472 0.671290 0.545556
0.997070 0.702449 0.372076
0.801968 0.774655 0.773465
0.807279 0.779355 0.777859
0.809964 0.781735 0.780087
0.819883 0.790646 0.788540
0.830198 0.800107 0.797513
0.814939 0.786191 0.784329
0.790127 0.764340 0.763851
0.889891 0.811154 0.702663
0.920409 0.893278 0.889006
0.920684 0.893614 0.889311
0.922942 0.896239 0.892027
0.928038 0.902373 0.898222
0.919707 0.892424 0.888121
0.919371 0.892058 0.887755
0.917723 0.890135 0.885801
0.909331 0.880491 0.876097
0.119081 0.173800 0.197208
0.122744 0.175174 0.194583
0.034363 0.181949 0.188998
0.112490 0.173373 0.201938
0.273106 0.141939 0.242222
0.484382 0.000000 0.327611
0.808225 0.000000 0.494789
1.000000 0.000000 0.653254
0.111910 0.170382 0.196536
0.106661 0.168704 0.194308
0.091127 0.171115 0.188968
0.121553 0.166079 0.199435
0.267887 0.136843 0.237797
0.475044 0.000000 0.321569
0.763180 0.000000 0.469581
1.000000 0.000000 0.628290
0.086793 0.161440 0.189029
0.088319 0.161929 0.189425
0.095827 0.166659 0.194034
0.122988 0.172732 0.196292
0.273167 0.143099 0.224002
0.493111 0.000000 0.328527
0.789944 0.000000 0.489906
1.000000 0.000000 0.651820
0.160708 0.208743 0.235294
0.162875 0.210330 0.236851
0.181827 0.224063 0.250187
0.218570 0.252567 0.277592
0.287785 0.267552 0.242252
0.319280 0.263310 0.251225
0.636164 0.044251 0.255406
0.977264 0.000000 0.393439
0.321630 0.349615 0.372198
0.320226 0.348333 0.370886
0.329839 0.358221 0.380621
0.360357 0.389837 0.411872
0.360632 0.390082 0.412146
0.443244 0.419623 0.347662
0.685878 0.444282 0.271519
0.647028 0.437201 0.335149
0.517113 0.540673 0.557733
0.521843 0.544793 0.561578
0.538445 0.558923 0.574823
0.575616 0.589990 0.603632
0.625666 0.630640 0.641108
0.599512 0.609552 0.621698
0.714748 0.656611 0.552728
0.980987 0.687587 0.379339
0.771481 0.748531 0.749142
0.767330 0.745022 0.745907
0.769619 0.746944 0.747677
0.786282 0.761044 0.760800
0.809110 0.780941 0.779355
0.801144 0.773922 0.772793
0.765499 0.743526 0.744533
0.861448 0.783902 0.674311
0.910826 0.882231 0.877836
0.913085 0.884764 0.880400
0.915190 0.887205 0.882841
0.921141 0.894102 0.889830
0.927337 0.901518 0.897368
0.924224 0.897795 0.893553
0.918151 0.890654 0.886320
0.908995 0.880156 0.875761
0.088045 0.173861 0.209201
0.084596 0.175296 0.213046
0.055024 0.178164 0.227726
0.044678 0.170687 0.250156
0.255344 0.133639 0.305516
0.638819 0.000000 0.481544
0.998932 0.000000 0.611017
1.000000 0.000000 0.715145
0.006714 0.171237 0.214176
0.000000 0.171939 0.217136
0.000000 0.173831 0.230259
0.000000 0.171115 0.253239
0.234043 0.135561 0.298589
0.611261 0.000000 0.464729
0.957671 0.000000 0.586267
1.000000 0.000000 0.700832
0.000000 0.185641 0.222110
0.002228 0.188022 0.225406
0.040894 0.197055 0.239780
0.000000 0.208927 0.288060
0.238010 0.169345 0.350072
0.668696 0.000000 0.482887
0.961791 0.000000 0.601801
1.000000 0.000000 0.707912
0.145205 0.247166 0.269139
0.153292 0.254337 0.276158
0.181888 0.273533 0.294865
0.247318 0.321904 0.343267
0.351873 0.401923 0.430213
0.670710 0.339147 0.528313
0.935485 0.122530 0.637659
1.000000 0.000000 0.726741
0.379217 0.409430 0.431250
0.382147 0.412421 0.434180
0.400519 0.431281 0.452766
0.447944 0.478157 0.498360
0.516472 0.540124 0.557214
0.535119 0.556115 0.572198
0.692500 0.558618 0.501732
0.924743 0.480964 0.499031
0.576684 0.590814 0.604425
0.583856 0.596704 0.609888
0.599054 0.609125 0.621332
0.631220 0.635126 0.645197
0.679622 0.673854 0.680629
0.746273 0.727596 0.729854
0.745480 0.716732 0.688472
0.986084 0.747921 0.567407
0.810025 0.781796 0.780179
0.807553 0.779599 0.778103
0.806363 0.778500 0.777096
0.815976 0.787106 0.785183
0.833402 0.803067 0.800351
0.858366 0.826932 0.823270
0.842008 0.811124 0.808042
0.880156 0.825742 0.767910
0.916167 0.888304 0.883970
0.915648 0.887694 0.883360
0.917449 0.889799 0.885496
0.925170 0.898894 0.894682
0.930938 0.905882 0.901823
0.935790 0.911803 0.907897
0.931395 0.906432 0.902373
0.923796 0.897276 0.893065
0.000000 0.211795 0.333318
0.000000 0.214878 0.345068
0.000000 0.217166 0.367315
0.000000 0.217594 0.412116
0.000000 0.206424 0.483406
0.221958 0.065858 0.569268
0.794278 0.000000 0.737087
1.000000 0.000000 0.818479
0.000000 0.224247 0.355230
0.000000 0.225223 0.361303
0.000000 0.225864 0.381079
0.000000 0.227878 0.436255
0.000000 0.212467 0.503014
0.179599 0.090059 0.578576
0.782956 0.000000 0.734737
1.000000 0.000000 0.816312
0.000000 0.266087 0.372107
0.000000 0.270573 0.380743
0.000000 0.281926 0.411627
0.000000 0.277256 0.454688
0.000000 0.264286 0.535790
0.000000 0.168124 0.636713
0.834531 0.000000 0.791196
1.000000 0.000000 0.828275
0.000000 0.360937 0.427710
0.000000 0.361059 0.428779
0.000000 0.372564 0.445563
0.114351 0.402808 0.489082
0.000000 0.449348 0.586938
0.000000 0.391485 0.666987
0.807431 0.259342 0.784665
1.000000 0.294224 0.802243
0.238407 0.507927 0.527489
0.243748 0.508782 0.528771
0.277928 0.527703 0.548180
0.366125 0.578424 0.597772
0.497963 0.641627 0.659724
0.649165 0.705745 0.727687
0.838224 0.714382 0.815915
1.000000 0.713405 0.840757
0.635889 0.687892 0.685054
0.662745 0.706447 0.702449
0.681483 0.714656 0.710994
0.732448 0.742336 0.738521
0.797208 0.780392 0.776822
0.853727 0.822354 0.818845
0.889799 0.859068 0.854734
0.936553 0.849119 0.814267
0.855375 0.823972 0.820401
0.857694 0.826291 0.822629
0.863157 0.831662 0.827848
0.873259 0.841855 0.837797
0.885100 0.854093 0.849790
0.899657 0.869688 0.865293
0.915099 0.887083 0.882719
0.902525 0.871183 0.861967
0.929900 0.904601 0.900511
0.930083 0.904814 0.900725
0.931395 0.906432 0.902403
0.934936 0.910796 0.906828
0.939452 0.916411 0.912566
0.945006 0.923461 0.919829
0.947997 0.927276 0.923766
0.943389 0.921416 0.917754
0.000000 0.327001 0.592493
0.000000 0.333837 0.607477
0.000000 0.338170 0.629664
0.000000 0.343633 0.672786
0.000000 0.332494 0.718563
0.000000 0.292302 0.756588
0.000000 0.097261 0.811734
0.785885 0.000000 0.881285
0.000000 0.354711 0.620966
0.000000 0.363073 0.637476
0.000000 0.364813 0.655970
0.000000 0.358251 0.681147
0.000000 0.342779 0.721675
0.000000 0.300908 0.760098
0.000000 0.115694 0.814084
0.782132 0.000000 0.882444
0.000000 0.423377 0.649805
0.000000 0.424170 0.654597
0.000000 0.416846 0.661769
0.000000 0.403601 0.679744
0.000000 0.381201 0.711696
0.000000 0.336736 0.747219
0.000000 0.174655 0.810422
0.761074 0.000000 0.878080
0.000000 0.474678 0.622248
0.000000 0.477607 0.626734
0.000000 0.495613 0.651331
0.000000 0.527459 0.696895
0.000000 0.518578 0.736202
0.000000 0.481300 0.778286
0.000000 0.390173 0.831540
0.802976 0.000000 0.894804
0.000000 0.596399 0.666773
0.000000 0.600061 0.670497
0.000000 0.609735 0.681117
0.243259 0.628626 0.701839
0.383642 0.650996 0.728542
0.498421 0.702022 0.792935
0.352483 0.647364 0.841611
0.875669 0.580072 0.897642
0.428382 0.701503 0.710750
0.436957 0.704341 0.713436
0.455787 0.706600 0.716243
0.511498 0.722774 0.732143
0.610254 0.755734 0.763851
0.752926 0.810147 0.816495
0.859434 0.858488 0.863920
0.925933 0.880003 0.908232
0.824704 0.836667 0.826505
0.824308 0.835386 0.825345
0.831571 0.836545 0.827054
0.857145 0.850340 0.842069
0.886137 0.869230 0.862394
0.913359 0.889311 0.884184
0.932158 0.907347 0.903288
0.941375 0.918853 0.915099
0.929747 0.904417 0.900328
0.929839 0.904540 0.900450
0.930999 0.905943 0.901884
0.937926 0.914549 0.910674
0.943145 0.921050 0.917357
0.948821 0.928374 0.924926
0.954528 0.935851 0.932647
0.955383 0.937041 0.933867
0.000000 0.523308 0.849088
0.000000 0.526543 0.854215
0.000000 0.517388 0.854307
0.000000 0.507561 0.864195
0.000000 0.484596 0.875151
0.000000 0.447303 0.891051
0.000000 0.389044 0.912230
0.000000 0.147463 0.945251
0.000000 0.507530 0.822324
0.000000 0.506157 0.823148
0.000000 0.500664 0.827207
0.000000 0.492531 0.838956
0.000000 0.475929 0.856535
0.000000 0.444556 0.878172
0.000000 0.389715 0.902739
0.000000 0.153994 0.938689
0.000000 0.573480 0.840848
0.000000 0.570550 0.840604
0.000000 0.563500 0.843961
0.000000 0.539818 0.843290
0.000000 0.519554 0.858183
0.000000 0.487129 0.879637
0.000000 0.430579 0.905608
0.000000 0.242374 0.940429
0.000000 0.662776 0.839750
0.000000 0.661097 0.839322
0.000000 0.661891 0.844816
0.000000 0.662501 0.861204
0.000000 0.645502 0.876677
0.000000 0.608515 0.893400
0.000000 0.547265 0.917021
0.000000 0.409796 0.947112
0.120790 0.695277 0.801724
0.149630 0.695583 0.802213
0.215427 0.703120 0.810178
0.309331 0.722225 0.829282
0.409552 0.743465 0.852903
0.366857 0.735134 0.873869
0.000000 0.688930 0.899962
0.000000 0.558068 0.934752
0.500633 0.782986 0.822629
0.521019 0.788418 0.827085
0.543572 0.790799 0.829740
0.588220 0.796567 0.835660
0.650263 0.805325 0.844511
0.748165 0.828031 0.864714
0.827604 0.862882 0.900389
0.781918 0.830350 0.924193
0.788510 0.871153 0.870329
0.794827 0.873381 0.872526
0.803647 0.875303 0.874388
0.821134 0.879423 0.878386
0.847593 0.886564 0.885222
0.881346 0.898192 0.896849
0.913787 0.913054 0.912169
0.944518 0.932036 0.931029
0.925780 0.918181 0.911803
0.925750 0.917662 0.911315
0.928710 0.918425 0.912383
0.937041 0.922698 0.917540
0.947051 0.928862 0.924895
0.955993 0.937835 0.934722
0.961700 0.945495 0.942687
0.966186 0.951598 0.949065
0.000000 0.606592 0.920287
0.000000 0.607904 0.922362
0.000000 0.603052 0.924315
0.000000 0.594934 0.929992
0.000000 0.576989 0.936584
0.000000 0.547662 0.945006
0.000000 0.502770 0.955047
0.000000 0.436011 0.966857
0.000000 0.605890 0.913146
0.000000 0.607782 0.915740
0.000000 0.603296 0.918120
0.000000 0.593103 0.922637
0.000000 0.574853 0.929351
0.000000 0.544793 0.937346
0.000000 0.499672 0.947112
0.000000 0.433661 0.959350
0.000000 0.648585 0.915862
0.000000 0.647364 0.916381
0.000000 0.640467 0.917662
0.000000 0.628595 0.921691
0.000000 0.607568 0.927306
0.000000 0.577508 0.936400
0.000000 0.534874 0.949371
0.000000 0.467628 0.964630
0.000000 0.728389 0.915190
0.000000 0.724666 0.914549
0.000000 0.716640 0.915435
0.000000 0.706691 0.920287
0.000000 0.686275 0.926635
0.000000 0.658289 0.936889
0.000000 0.615503 0.950195
0.000000 0.539910 0.965911
0.396765 0.788113 0.900572
0.388647 0.786221 0.899992
0.399603 0.786313 0.901732
0.447639 0.791653 0.907897
0.377966 0.780056 0.915251
0.219486 0.758541 0.925353
0.000000 0.724239 0.939117
0.000000 0.662867 0.960174
0.653468 0.833982 0.891386
0.658106 0.834653 0.891875
0.673426 0.836484 0.893431
0.701656 0.840208 0.896788
0.732601 0.849699 0.906737
0.783566 0.865263 0.920439
0.776150 0.860899 0.932006
0.706050 0.827604 0.947753
0.806760 0.888945 0.907225
0.809689 0.889738 0.907866
0.816587 0.891051 0.908965
0.830930 0.894133 0.911467
0.850614 0.898528 0.914977
0.875395 0.904967 0.920165
0.903624 0.914031 0.927520
0.922667 0.925566 0.943023
0.905821 0.929564 0.927489
0.906889 0.929931 0.927886
0.912322 0.932158 0.930022
0.919036 0.934478 0.932158
0.927581 0.937346 0.934752
0.938811 0.941497 0.938567
0.952728 0.948455 0.945678
0.965270 0.957183 0.955016
0.000000 0.686397 0.965972
0.000000 0.686305 0.966552
0.000000 0.679866 0.967071
0.000000 0.671015 0.969726
0.000000 0.654658 0.973510
0.000000 0.628626 0.978485
0.000000 0.591791 0.985351
0.000000 0.537163 0.993194
0.000000 0.688899 0.963561
0.000000 0.688869 0.964233
0.000000 0.683589 0.965209
0.000000 0.674128 0.967712
0.000000 0.657771 0.971649
0.000000 0.631739 0.976837
0.000000 0.594293 0.983642
0.000000 0.539635 0.991638
0.000000 0.717189 0.960510
0.000000 0.716426 0.960876
0.000000 0.710323 0.961761
0.000000 0.704219 0.965484
0.000000 0.686183 0.969207
0.000000 0.658320 0.974334
0.000000 0.620539 0.981811
0.000000 0.564080 0.990723
0.000000 0.772671 0.955047
0.000000 0.772427 0.955535
0.000000 0.767758 0.956756
0.000000 0.760403 0.959777
0.000000 0.745571 0.964263
0.000000 0.720912 0.970397
0.000000 0.684535 0.978759
0.000000 0.626032 0.989044
0.627283 0.845426 0.947509
0.624720 0.844968 0.947997
0.596307 0.839384 0.949218
0.565820 0.833097 0.952026
0.521843 0.823514 0.956298
0.450446 0.808042 0.962524
0.263218 0.776822 0.970336
0.000000 0.720302 0.981079
0.802792 0.889067 0.941985
0.802213 0.888762 0.942046
0.802640 0.888548 0.942687
0.808652 0.889799 0.944671
0.821927 0.893004 0.948241
0.800565 0.884977 0.953307
0.772366 0.872770 0.959716
0.705226 0.843870 0.968383
0.872190 0.916014 0.940429
0.872557 0.915984 0.940429
0.874540 0.916106 0.940551
0.880278 0.917144 0.941344
0.889189 0.918914 0.942687
0.898833 0.923278 0.947417
0.914153 0.930480 0.954223
0.900420 0.922210 0.960418
0.917540 0.940734 0.946410
0.917723 0.940764 0.946410
0.919677 0.941344 0.946868
0.924620 0.943175 0.948302
0.931273 0.945678 0.950286
0.939483 0.948852 0.952850
0.950103 0.953429 0.956725
0.962646 0.959594 0.962280
