20 Preset/City Style/【3】LUT video cho PR-AE-FCPX/TONE 2/Darky Street.cube
# Created by Adobe Lightroom plugin Export LUT (1.24.0)
# www.johnrellis.com/lightroom/exportlut.htm
# Preset: Darky Street
# Color profile: E:\lut插件\exportlut.1.24\exportlut.lrplugin\color profiles\Rec709gamma2.4.icc
LUT_3D_SIZE 32
DOMAIN_MIN 0.0 0.0 0.0
DOMAIN_MAX 1.0 1.0 1.0
0.000000 0.125673 0.152224
0.000000 0.126131 0.152590
0.000885 0.126650 0.153323
0.015381 0.128054 0.154726
0.043366 0.130526 0.157351
0.081727 0.133333 0.160555
0.101198 0.136141 0.163668
0.112947 0.139040 0.166903
0.118624 0.142275 0.170199
0.116976 0.145754 0.173831
0.108095 0.149691 0.177340
0.094759 0.153048 0.180697
0.063874 0.156283 0.183810
0.024567 0.158694 0.186313
0.000061 0.160769 0.188296
0.000000 0.161959 0.189548
0.011902 0.162539 0.190188
0.057038 0.162448 0.189914
0.101167 0.161624 0.189212
0.131228 0.160464 0.187991
0.162509 0.158328 0.186252
0.195102 0.155764 0.184207
0.228885 0.151888 0.181918
0.275395 0.145449 0.178714
0.338384 0.133394 0.174746
0.401343 0.116396 0.171450
0.466712 0.090333 0.169039
0.537377 0.000000 0.167605
0.615229 0.000000 0.167361
0.700832 0.000000 0.168612
0.793301 0.000000 0.173587
0.889311 0.000000 0.184817
0.000000 0.126650 0.153140
0.000000 0.126650 0.152956
0.001465 0.127169 0.153262
0.017945 0.128511 0.154665
0.044953 0.130739 0.157107
0.081483 0.133608 0.160342
0.100130 0.136233 0.163302
0.112276 0.138888 0.166384
0.118013 0.142123 0.169711
0.117494 0.145541 0.173159
0.110262 0.148928 0.176577
0.097017 0.152529 0.180087
0.073457 0.155520 0.183078
0.032837 0.158145 0.185885
0.005097 0.160128 0.187900
0.000000 0.161624 0.189425
0.007660 0.162234 0.190066
0.045533 0.162448 0.190097
0.094301 0.161990 0.189517
0.124361 0.160830 0.188327
0.154665 0.159030 0.186740
0.186038 0.156497 0.184787
0.218418 0.153475 0.182498
0.262303 0.147585 0.179599
0.319646 0.137545 0.175906
0.377234 0.123903 0.172641
0.437598 0.103700 0.169894
0.503441 0.046479 0.168093
0.577661 0.000000 0.167178
0.661372 0.000000 0.167849
0.753841 0.000000 0.171023
0.852079 0.000000 0.179660
0.000000 0.129274 0.156069
0.000000 0.129488 0.156222
0.002258 0.129885 0.155184
0.024140 0.130861 0.154818
0.051331 0.133333 0.156619
0.086549 0.135622 0.159731
0.102449 0.137728 0.162936
0.113130 0.139986 0.165896
0.118471 0.142550 0.168948
0.117617 0.145754 0.172457
0.110506 0.148928 0.176089
0.098604 0.152071 0.179477
0.077760 0.155062 0.182650
0.037446 0.157717 0.185306
0.007416 0.159731 0.187472
0.000000 0.161227 0.189151
0.004700 0.162112 0.189944
0.040284 0.162356 0.190127
0.090791 0.161990 0.189700
0.120790 0.161074 0.188632
0.150881 0.159609 0.186893
0.182284 0.157198 0.185092
0.214389 0.154208 0.182834
0.258579 0.148898 0.179904
0.312779 0.139742 0.176333
0.366888 0.127871 0.173068
0.424231 0.110536 0.170382
0.487465 0.075868 0.168338
0.559594 0.000000 0.167086
0.641871 0.000000 0.167086
0.733242 0.000000 0.169680
0.831144 0.000000 0.176822
0.006043 0.135164 0.162142
0.006043 0.135164 0.162142
0.007294 0.135378 0.162112
0.023926 0.136507 0.160037
0.063783 0.137026 0.158328
0.092409 0.140169 0.159579
0.106020 0.141604 0.162112
0.114443 0.143069 0.164981
0.118593 0.144564 0.168215
0.116579 0.146731 0.171847
0.109255 0.149477 0.175540
0.097902 0.151949 0.178836
0.078096 0.154696 0.182223
0.038483 0.157107 0.184878
0.010132 0.159121 0.187228
0.000000 0.160616 0.188907
0.004425 0.161746 0.189822
0.035035 0.162295 0.190127
0.086397 0.162173 0.189853
0.115297 0.161654 0.188937
0.144137 0.160433 0.187503
0.174716 0.158602 0.185702
0.206546 0.155917 0.183474
0.251713 0.150942 0.180392
0.303136 0.143160 0.176883
0.356878 0.132570 0.173526
0.415106 0.116640 0.170535
0.479622 0.090364 0.168124
0.552758 0.000000 0.166659
0.635126 0.000000 0.166354
0.724300 0.000000 0.168368
0.818021 0.000000 0.174380
0.025666 0.142672 0.169986
0.025666 0.142672 0.169986
0.025666 0.142672 0.169986
0.031556 0.143679 0.168978
0.060761 0.144930 0.165682
0.096468 0.144045 0.162112
0.107301 0.146059 0.163241
0.114687 0.147585 0.164462
0.117800 0.147677 0.167330
0.115724 0.148348 0.170626
0.108217 0.149996 0.174472
0.097292 0.151797 0.178042
0.078706 0.153902 0.181186
0.041566 0.156130 0.184207
0.014893 0.158083 0.186709
0.000610 0.160006 0.188510
0.008148 0.161318 0.189731
0.037720 0.162051 0.190158
0.088197 0.162295 0.189822
0.115908 0.161990 0.189029
0.144289 0.161166 0.187594
0.174441 0.159579 0.185763
0.206912 0.157015 0.183658
0.253880 0.152468 0.180331
0.303807 0.145357 0.176791
0.356390 0.135683 0.173434
0.413428 0.121736 0.170230
0.476295 0.099519 0.167666
0.547448 0.025330 0.165927
0.627283 0.000000 0.165255
0.714046 0.000000 0.166476
0.805844 0.000000 0.171511
0.051850 0.150942 0.178500
0.050843 0.151156 0.178653
0.051850 0.150942 0.178500
0.051850 0.150942 0.178500
0.066621 0.152529 0.176455
0.090486 0.153201 0.172580
0.107118 0.150759 0.167636
0.113527 0.150881 0.168246
0.113313 0.151461 0.169772
0.109865 0.151827 0.171878
0.102296 0.152010 0.175326
0.090791 0.152956 0.178805
0.065248 0.154360 0.181796
0.033417 0.156069 0.184695
0.011017 0.157961 0.187045
0.005432 0.159518 0.188846
0.018494 0.160922 0.189883
0.052918 0.161959 0.190127
0.095399 0.162478 0.189761
0.122835 0.162234 0.188785
0.151431 0.161593 0.187289
0.181033 0.160433 0.185550
0.288823 0.151827 0.177859
0.357061 0.142763 0.173037
0.426520 0.129213 0.168643
0.497902 0.109895 0.165225
0.572351 0.067811 0.162814
0.649104 0.000000 0.161593
0.728267 0.000000 0.162173
0.808469 0.000000 0.165866
0.887816 0.000000 0.174228
0.959655 0.000000 0.190127
0.082948 0.159579 0.187289
0.082521 0.159762 0.187259
0.082948 0.159579 0.187289
0.082338 0.159396 0.187137
0.082734 0.159396 0.186831
0.090669 0.160678 0.184787
0.097017 0.160281 0.182101
0.103334 0.157198 0.177707
0.100923 0.155032 0.177005
0.093599 0.154604 0.178592
0.079805 0.154299 0.180484
0.053498 0.154543 0.182773
0.027680 0.155764 0.185367
0.012268 0.157321 0.187564
0.009247 0.158877 0.189059
0.023865 0.160433 0.189914
0.055604 0.161715 0.190158
0.094728 0.162509 0.189761
0.120790 0.162936 0.188876
0.148867 0.162783 0.187350
0.180484 0.161990 0.185367
0.222293 0.159976 0.182467
0.280766 0.155978 0.178042
0.344854 0.149172 0.173312
0.412696 0.139742 0.168734
0.481880 0.126802 0.164675
0.552575 0.107881 0.161410
0.624872 0.063783 0.159335
0.700099 0.000000 0.158633
0.776455 0.000000 0.160403
0.854276 0.000000 0.165774
0.928923 0.000000 0.177279
0.088930 0.162264 0.189822
0.088930 0.162264 0.189822
0.088930 0.162264 0.189822
0.088930 0.162264 0.189822
0.088930 0.162264 0.189822
0.089174 0.162264 0.189548
0.089876 0.162051 0.188937
0.089723 0.161013 0.187381
0.088258 0.158907 0.184848
0.075685 0.156252 0.183474
0.052277 0.155886 0.184817
0.032441 0.155642 0.186007
0.018433 0.155856 0.187076
0.013153 0.157076 0.188479
0.017975 0.158663 0.189670
0.036469 0.160372 0.190188
0.073335 0.161929 0.190066
0.102235 0.163027 0.189487
0.127077 0.163577 0.188449
0.154330 0.163882 0.186831
0.189822 0.163546 0.184543
0.237156 0.162142 0.181033
0.290562 0.159274 0.176791
0.349310 0.154910 0.172274
0.412299 0.148318 0.167849
0.476509 0.139528 0.163851
0.542412 0.128664 0.160098
0.610742 0.112642 0.156771
0.683253 0.083467 0.154940
0.757717 0.000000 0.155154
0.834318 0.000000 0.158358
0.909911 0.000000 0.167391
0.088228 0.161563 0.189303
0.088228 0.161563 0.189303
0.088228 0.161563 0.189303
0.087953 0.161776 0.189303
0.087831 0.161776 0.189456
0.088319 0.161929 0.189425
0.085878 0.161440 0.189792
0.079469 0.160494 0.190219
0.066407 0.159243 0.190249
0.047761 0.158083 0.189670
0.025788 0.156649 0.188510
0.013367 0.156680 0.189151
0.009491 0.156893 0.189731
0.014954 0.157748 0.190066
0.033783 0.159121 0.190188
0.061707 0.161044 0.190219
0.093324 0.162600 0.189761
0.114260 0.164126 0.188968
0.138186 0.165225 0.187655
0.172152 0.166140 0.185519
0.211215 0.166415 0.182467
0.255467 0.165866 0.179049
0.305486 0.164523 0.174899
0.360632 0.161959 0.170626
0.419745 0.158206 0.166110
0.480262 0.153231 0.161929
0.543175 0.146792 0.157809
0.608789 0.137911 0.154086
0.678431 0.126497 0.150271
0.750637 0.109804 0.148989
0.825315 0.094606 0.150851
0.899718 0.095003 0.157778
0.080903 0.158907 0.186435
0.080903 0.158907 0.186435
0.080720 0.158907 0.186587
0.080262 0.159121 0.186557
0.080690 0.159274 0.186862
0.081300 0.159426 0.186984
0.082155 0.159396 0.187289
0.073457 0.158419 0.188205
0.057465 0.157137 0.189273
0.040375 0.156283 0.190158
0.021027 0.156252 0.190677
0.008392 0.156710 0.190646
0.010498 0.157626 0.190707
0.027375 0.158633 0.190555
0.053346 0.160250 0.190311
0.088472 0.162112 0.189853
0.108431 0.164675 0.189120
0.135103 0.167117 0.187655
0.165286 0.169223 0.185580
0.198215 0.170779 0.183047
0.234867 0.171847 0.180056
0.274968 0.172152 0.176608
0.318883 0.171756 0.172854
0.366583 0.171084 0.168917
0.417823 0.169650 0.164736
0.471839 0.167239 0.160586
0.529686 0.164462 0.156527
0.592737 0.160647 0.151980
0.661067 0.155367 0.147494
0.733822 0.150912 0.142855
0.810208 0.145602 0.142153
0.887205 0.149416 0.146426
0.068177 0.155825 0.183383
0.068177 0.155825 0.183383
0.070161 0.155764 0.183383
0.069856 0.155764 0.183536
0.070832 0.155947 0.183688
0.069825 0.156161 0.183810
0.070802 0.156344 0.183932
0.068055 0.155764 0.184482
0.055360 0.154604 0.185580
0.041199 0.153841 0.186618
0.028321 0.153658 0.187900
0.019104 0.154574 0.189029
0.021363 0.157046 0.189975
0.056977 0.159640 0.189609
0.091371 0.161990 0.188937
0.113191 0.164797 0.187839
0.137118 0.168032 0.186587
0.162997 0.172061 0.184970
0.190585 0.176181 0.182986
0.221897 0.178134 0.180240
0.256260 0.179690 0.177218
0.293828 0.181125 0.173831
0.335454 0.182193 0.170047
0.380896 0.182986 0.165927
0.429938 0.183536 0.161715
0.482002 0.183780 0.157259
0.538018 0.183871 0.152651
0.599115 0.183474 0.147585
0.665400 0.182803 0.142153
0.736538 0.182986 0.136721
0.811002 0.186587 0.131289
0.886473 0.193942 0.133730
0.057740 0.152560 0.180240
0.057740 0.152560 0.180240
0.057740 0.152560 0.180240
0.057038 0.152804 0.180240
0.058717 0.152743 0.180392
0.058015 0.152956 0.180362
0.059693 0.152926 0.180514
0.058686 0.153140 0.180667
0.052399 0.152438 0.181399
0.046387 0.151736 0.181979
0.040925 0.151797 0.182773
0.046357 0.153079 0.183413
0.109377 0.161318 0.179629
0.135500 0.166445 0.180331
0.182010 0.175387 0.178927
0.208286 0.180362 0.177005
0.236118 0.186038 0.174960
0.265843 0.192203 0.172366
0.297581 0.199435 0.169406
0.331731 0.207828 0.165560
0.368780 0.214328 0.161471
0.409705 0.217075 0.157168
0.454139 0.220066 0.152468
0.502159 0.223239 0.147616
0.552850 0.226474 0.142306
0.604883 0.228824 0.137270
0.657496 0.230747 0.131960
0.711696 0.232334 0.126772
0.768399 0.235203 0.121370
0.828580 0.240848 0.115785
0.890349 0.250584 0.112459
0.950439 0.266880 0.116213
0.053498 0.151308 0.178958
0.051820 0.151339 0.178775
0.051820 0.151339 0.178775
0.051820 0.151339 0.178775
0.052827 0.151125 0.178622
0.050843 0.151156 0.178653
0.050843 0.151156 0.178653
0.051850 0.150942 0.178500
0.051148 0.151156 0.178470
0.058228 0.151827 0.178378
0.073548 0.153964 0.178103
0.093965 0.157931 0.177554
0.116152 0.163546 0.176669
0.145846 0.170626 0.175570
0.179202 0.177005 0.174807
0.239719 0.188724 0.172061
0.265843 0.194583 0.170077
0.292454 0.200595 0.167819
0.320500 0.207462 0.164920
0.350072 0.215274 0.161654
0.382025 0.224369 0.157534
0.417395 0.234989 0.152224
0.457221 0.241062 0.146975
0.502037 0.245029 0.141604
0.549767 0.249180 0.135958
0.599725 0.252873 0.129915
0.651453 0.256474 0.123445
0.705470 0.260136 0.116365
0.762570 0.264988 0.108553
0.823301 0.272313 0.100221
0.885344 0.283482 0.092775
0.945342 0.299748 0.092317
0.068177 0.155825 0.183383
0.069184 0.155612 0.183230
0.068513 0.155428 0.182956
0.066560 0.155093 0.182681
0.064912 0.154757 0.182223
0.063966 0.154177 0.181827
0.062318 0.153841 0.181399
0.060365 0.153506 0.181125
0.059663 0.153323 0.180819
0.066346 0.154208 0.180545
0.084230 0.157321 0.179812
0.101686 0.161990 0.178988
0.122835 0.168582 0.177798
0.151308 0.176364 0.175875
0.186252 0.184970 0.173495
0.223758 0.191867 0.170809
0.288029 0.204196 0.166293
0.319585 0.211582 0.163455
0.345861 0.218448 0.160678
0.372992 0.226017 0.157382
0.403082 0.234836 0.153170
0.436774 0.245487 0.147860
0.473182 0.257572 0.140963
0.513695 0.271824 0.131777
0.559747 0.277653 0.124361
0.608240 0.282322 0.116823
0.658564 0.286931 0.108583
0.711208 0.291630 0.098848
0.767025 0.297917 0.087251
0.826505 0.306859 0.058991
0.887419 0.318883 0.031983
0.946380 0.335515 0.022400
0.091005 0.163577 0.191012
0.090517 0.163424 0.191043
0.090181 0.162905 0.190646
0.088930 0.162264 0.189822
0.087984 0.161410 0.189029
0.085359 0.160586 0.188083
0.082338 0.159762 0.187411
0.080262 0.159121 0.186557
0.079683 0.158572 0.186160
0.078645 0.158236 0.185733
0.091249 0.161593 0.185153
0.107668 0.167239 0.184360
0.129183 0.174624 0.182925
0.156069 0.183474 0.180728
0.189059 0.193210 0.177554
0.226902 0.202792 0.173404
0.267521 0.210117 0.168704
0.328557 0.222080 0.162173
0.375555 0.233433 0.156680
0.401556 0.240848 0.152987
0.429969 0.249393 0.148623
0.461891 0.259861 0.142977
0.496773 0.271916 0.135592
0.535515 0.285679 0.125765
0.576562 0.300877 0.112764
0.620813 0.315435 0.095888
0.670832 0.321080 0.080140
0.724300 0.327550 0.044953
0.781796 0.336095 0.004181
0.843015 0.347814 0.000000
0.905241 0.362982 0.000000
0.963684 0.382116 0.000000
0.107027 0.172915 0.200504
0.106813 0.173098 0.200504
0.106233 0.172793 0.200259
0.105653 0.172183 0.199771
0.104372 0.171420 0.198886
0.103182 0.170474 0.198154
0.101717 0.169741 0.197391
0.100252 0.168978 0.196628
0.099489 0.168521 0.195987
0.098177 0.167880 0.195468
0.099458 0.168215 0.194858
0.115816 0.174655 0.193545
0.136477 0.182223 0.191653
0.160922 0.191135 0.188937
0.189792 0.200839 0.185183
0.223667 0.210819 0.180423
0.263035 0.220859 0.174624
0.305547 0.229374 0.168124
0.363561 0.240787 0.159731
0.428717 0.257511 0.149783
0.458045 0.266819 0.144472
0.490547 0.277806 0.137972
0.526390 0.290471 0.129244
0.565423 0.304723 0.117891
0.606897 0.320134 0.102083
0.651026 0.337011 0.070741
0.697566 0.355413 0.000000
0.748257 0.370550 0.000000
0.804074 0.379889 0.000000
0.861875 0.391577 0.000000
0.918334 0.405768 0.000000
0.971191 0.422827 0.000000
0.124819 0.184482 0.211795
0.125063 0.184329 0.211673
0.124331 0.183902 0.211337
0.123293 0.183536 0.210758
0.122103 0.182864 0.210178
0.120974 0.181857 0.209262
0.119142 0.181064 0.208316
0.118135 0.180209 0.207614
0.116976 0.179171 0.206668
0.115480 0.178347 0.205844
0.114076 0.177493 0.204868
0.121736 0.180606 0.203799
0.141604 0.188998 0.202029
0.165408 0.198581 0.199344
0.193027 0.209018 0.195712
0.225071 0.220340 0.190738
0.261326 0.231907 0.184604
0.303258 0.243656 0.177218
0.349706 0.254520 0.168460
0.405005 0.265293 0.157870
0.492927 0.289677 0.140047
0.525536 0.300725 0.132082
0.560876 0.313329 0.122255
0.599542 0.327428 0.108583
0.640528 0.342748 0.089296
0.684199 0.359686 0.031250
0.730495 0.378332 0.000000
0.778744 0.398932 0.000000
0.829343 0.422187 0.000000
0.883116 0.439033 0.000000
0.935943 0.452949 0.000000
0.984436 0.469551 0.000000
0.149386 0.200809 0.227665
0.149203 0.200961 0.227787
0.182528 0.224582 0.250645
0.181308 0.223636 0.249729
0.179843 0.222507 0.248661
0.177218 0.220737 0.246921
0.174716 0.218845 0.245090
0.172000 0.216800 0.243137
0.169223 0.214755 0.241154
0.166537 0.212772 0.239261
0.163455 0.210788 0.237339
0.160311 0.208255 0.235019
0.178958 0.217350 0.232242
0.205203 0.229892 0.228244
0.234409 0.243259 0.222934
0.266819 0.257084 0.215854
0.302739 0.271000 0.207065
0.342504 0.284642 0.196597
0.387762 0.298436 0.184421
0.439002 0.310948 0.169955
0.495064 0.320470 0.153170
0.601801 0.350195 0.119631
0.639765 0.361578 0.102968
0.672786 0.372747 0.082795
0.706264 0.384283 0.027131
0.741787 0.397406 0.000000
0.779385 0.411994 0.000000
0.819944 0.429389 0.000000
0.863584 0.449958 0.000000
0.908263 0.473304 0.000000
0.951812 0.499306 0.000000
0.994995 0.515282 0.000000
0.187625 0.228305 0.254276
0.190799 0.230808 0.256596
0.194156 0.233433 0.259098
0.196445 0.235080 0.260716
0.197543 0.235935 0.261570
0.196323 0.234958 0.260624
0.193912 0.233249 0.258915
0.190921 0.230900 0.256687
0.187778 0.228641 0.254429
0.184939 0.226413 0.252323
0.181704 0.223941 0.250095
0.178164 0.221256 0.247471
0.178408 0.220615 0.244297
0.202914 0.233066 0.241032
0.230411 0.246738 0.236423
0.260746 0.261265 0.230411
0.294682 0.276555 0.222782
0.332982 0.292424 0.213474
0.376837 0.309239 0.202121
0.426703 0.326360 0.188846
0.483711 0.342565 0.171969
0.546960 0.356207 0.151278
0.649500 0.384009 0.112215
0.706630 0.400000 0.067170
0.738460 0.410620 0.007813
0.771633 0.422492 0.000000
0.806516 0.436072 0.000000
0.844266 0.452155 0.000000
0.884215 0.471168 0.000000
0.925109 0.493263 0.000000
0.964965 0.518059 0.000000
1.000000 0.544945 0.000000
0.210666 0.246403 0.271641
0.214572 0.249424 0.274540
0.218082 0.252323 0.277287
0.221286 0.254826 0.279759
0.222599 0.255955 0.280827
0.221592 0.255283 0.280125
0.219333 0.253391 0.278294
0.216281 0.250858 0.275883
0.213169 0.248264 0.273442
0.209689 0.245609 0.270817
0.206119 0.242679 0.268101
0.202152 0.239628 0.265049
0.197543 0.235935 0.261570
0.207645 0.241001 0.258091
0.234012 0.255283 0.254154
0.263279 0.270695 0.248722
0.295781 0.287083 0.241703
0.332189 0.304448 0.233188
0.373632 0.322881 0.222782
0.421180 0.342321 0.210178
0.475257 0.361975 0.194705
0.537316 0.380987 0.175113
0.604395 0.396185 0.150546
0.700557 0.420661 0.107027
0.773281 0.440223 0.000000
0.804257 0.450874 0.000000
0.836301 0.463172 0.000000
0.870298 0.477638 0.000000
0.906126 0.495064 0.000000
0.942901 0.515526 0.000000
0.978576 0.538750 0.000000
1.000000 0.564080 0.000000
0.238437 0.269474 0.293858
0.241733 0.272496 0.296757
0.245212 0.275517 0.299687
0.247959 0.278080 0.302098
0.249424 0.279362 0.303319
0.248661 0.278691 0.302647
0.246464 0.276768 0.300877
0.243534 0.274235 0.298375
0.240391 0.271305 0.295537
0.236942 0.268376 0.292790
0.233219 0.265141 0.289586
0.229435 0.261753 0.286442
0.224491 0.257572 0.282414
0.218997 0.253117 0.278050
0.240818 0.265873 0.274632
0.269718 0.282719 0.270268
0.302922 0.301701 0.264866
0.340703 0.322789 0.258091
0.384619 0.346136 0.249912
0.435615 0.371832 0.239475
0.494697 0.398871 0.226200
0.560967 0.425177 0.209171
0.631525 0.447761 0.187442
0.706142 0.466316 0.158785
0.796933 0.488746 0.111421
0.880980 0.512627 0.000000
0.909361 0.524407 0.000000
0.937896 0.538079 0.000000
0.966735 0.554498 0.000000
0.994751 0.573419 0.000000
1.000000 0.594507 0.000000
1.000000 0.617182 0.000000
0.295171 0.322911 0.345800
0.296818 0.324529 0.347387
0.297826 0.325566 0.348394
0.297612 0.325383 0.348241
0.296544 0.324254 0.347173
0.294163 0.321965 0.344884
0.290990 0.318822 0.341772
0.287694 0.315404 0.338476
0.283909 0.311864 0.334936
0.280766 0.308751 0.331945
0.277226 0.305272 0.328557
0.273228 0.301396 0.324804
0.268101 0.296635 0.320073
0.262455 0.291325 0.314885
0.263340 0.290593 0.309667
0.292363 0.309361 0.305547
0.324987 0.329747 0.300053
0.362066 0.352331 0.293400
0.404089 0.376532 0.285069
0.452522 0.402319 0.274571
0.506859 0.428748 0.261936
0.567193 0.454292 0.246494
0.631250 0.477058 0.227573
0.697108 0.495644 0.204257
0.767056 0.511986 0.174594
0.845304 0.529412 0.132601
0.931945 0.554223 0.015991
0.957794 0.566949 0.000000
0.983001 0.581872 0.000000
1.000000 0.598993 0.000000
1.000000 0.617884 0.008606
1.000000 0.638544 0.105470
0.331121 0.359503 0.381903
0.332616 0.360998 0.383429
0.333715 0.362127 0.384497
0.333715 0.362127 0.384497
0.332830 0.361334 0.383734
0.330510 0.358862 0.381323
0.327581 0.355810 0.378332
0.324224 0.352361 0.374823
0.321080 0.349004 0.371557
0.317601 0.345556 0.368139
0.314092 0.341955 0.364569
0.310185 0.338018 0.360693
0.305303 0.333043 0.355779
0.300175 0.327977 0.350744
0.294408 0.322087 0.345068
0.308446 0.331212 0.340337
0.341924 0.354009 0.336278
0.379400 0.378698 0.330968
0.422431 0.405432 0.324041
0.471077 0.433600 0.315709
0.525170 0.461891 0.305303
0.584314 0.489204 0.292821
0.646754 0.514366 0.277897
0.710719 0.536370 0.259831
0.748379 0.534356 0.223484
0.814023 0.549859 0.195560
0.881590 0.563653 0.160739
0.959319 0.588037 0.116884
0.991608 0.603174 0.104372
1.000000 0.618982 0.114778
1.000000 0.637110 0.139925
1.000000 0.656855 0.174990
0.394171 0.424811 0.446418
0.397528 0.428290 0.449805
0.398688 0.429511 0.450965
0.397223 0.427985 0.449531
0.393561 0.424262 0.445838
0.388464 0.419013 0.440681
0.382391 0.412726 0.434516
0.375586 0.405676 0.427558
0.368750 0.398596 0.420569
0.362402 0.392035 0.414099
0.355779 0.385077 0.407233
0.349340 0.378393 0.400580
0.342840 0.371527 0.393866
0.335302 0.363836 0.386236
0.326970 0.355230 0.377661
0.318364 0.346227 0.368811
0.345312 0.364843 0.363134
0.380285 0.388586 0.357946
0.420966 0.415290 0.352392
0.468666 0.444862 0.346349
0.521721 0.474952 0.339025
0.578851 0.503777 0.329717
0.637629 0.529595 0.317479
0.696559 0.551781 0.301488
0.754177 0.569543 0.281804
0.809445 0.582727 0.257816
0.866178 0.594781 0.231724
0.920623 0.603906 0.203067
0.985168 0.624842 0.179446
1.000000 0.640040 0.176059
1.000000 0.655879 0.195071
1.000000 0.674098 0.225834
0.432013 0.462776 0.483497
0.435615 0.466316 0.486946
0.437415 0.468055 0.488624
0.437263 0.467842 0.488411
0.435279 0.465949 0.486580
0.432319 0.463142 0.483864
0.428748 0.459602 0.480415
0.424689 0.455634 0.476539
0.420844 0.451759 0.472786
0.416693 0.447578 0.468727
0.411780 0.442634 0.463905
0.406439 0.437354 0.458686
0.400214 0.431006 0.452461
0.392737 0.423407 0.445014
0.383917 0.414221 0.436011
0.374456 0.404456 0.426368
0.375738 0.403174 0.417487
0.410986 0.427893 0.412268
0.452461 0.455573 0.407202
0.499733 0.485176 0.402441
0.551965 0.515251 0.397162
0.607691 0.544579 0.390723
0.664942 0.571618 0.382513
0.722347 0.595819 0.371588
0.777829 0.616205 0.357427
0.829404 0.631891 0.340612
0.876616 0.642908 0.321050
0.923125 0.653010 0.302495
0.967529 0.661677 0.285039
1.000000 0.677699 0.279759
1.000000 0.691798 0.287785
1.000000 0.707759 0.316930
0.499794 0.525566 0.543511
0.501732 0.527306 0.545159
0.502251 0.527794 0.545617
0.501366 0.526970 0.544823
0.498909 0.524804 0.542809
0.495277 0.521599 0.539727
0.491279 0.517998 0.536370
0.486641 0.513878 0.532464
0.481849 0.509575 0.528374
0.477150 0.505333 0.524315
0.472053 0.500633 0.519890
0.466560 0.495674 0.515099
0.460334 0.489876 0.509575
0.452735 0.482704 0.502708
0.443580 0.474037 0.494362
0.433295 0.464057 0.484718
0.423041 0.453956 0.474952
0.441657 0.465675 0.468116
0.482795 0.493202 0.463722
0.529168 0.522332 0.460304
0.579797 0.552026 0.456916
0.633021 0.581018 0.452827
0.687037 0.607691 0.446479
0.740230 0.631708 0.438300
0.790433 0.651789 0.427527
0.836576 0.667384 0.414038
0.878813 0.679316 0.398932
0.917052 0.687190 0.380926
0.954742 0.695247 0.366522
0.991821 0.703761 0.357763
1.000000 0.716670 0.361028
1.000000 0.730037 0.375555
0.564416 0.580743 0.595087
0.566125 0.582147 0.596368
0.567376 0.583154 0.597345
0.567376 0.583154 0.597345
0.567285 0.583093 0.597253
0.567285 0.583093 0.597253
0.569635 0.585046 0.599084
0.572869 0.587732 0.601556
0.577356 0.591394 0.604944
0.582361 0.595514 0.608759
0.587762 0.599969 0.612848
0.591974 0.603388 0.616022
0.594781 0.605646 0.618128
0.594690 0.605585 0.618036
0.591638 0.603113 0.615778
0.584527 0.597314 0.610407
0.575677 0.590051 0.603693
0.566674 0.582574 0.596796
0.606836 0.608087 0.594049
0.651820 0.635187 0.591974
0.698299 0.662348 0.590387
0.744198 0.687709 0.588251
0.786496 0.709468 0.584955
0.825010 0.727932 0.580346
0.859617 0.742763 0.573754
0.890715 0.754330 0.565423
0.919097 0.762966 0.555779
0.945281 0.768643 0.544366
0.969696 0.771664 0.531823
0.994110 0.774929 0.523308
1.000000 0.780728 0.524193
1.000000 0.788815 0.534020
0.703273 0.692805 0.697963
0.703243 0.692744 0.697932
0.702541 0.692195 0.697414
0.700954 0.690974 0.696284
0.698817 0.689265 0.694728
0.696498 0.687343 0.692988
0.694392 0.685664 0.691432
0.692378 0.684077 0.689967
0.690791 0.682795 0.688808
0.689631 0.681880 0.687953
0.688472 0.680964 0.687129
0.687404 0.680079 0.686336
0.685481 0.678584 0.684932
0.682307 0.676020 0.682612
