20 Preset/City Style/【3】LUT video cho PR-AE-FCPX/TONE 2/Darky Timing Attacks.cube
# Created by Adobe Lightroom plugin Export LUT (1.24.0)
# www.johnrellis.com/lightroom/exportlut.htm
# Preset: Darky Timing Attacks
# Color profile: E:\lut插件\exportlut.1.24\exportlut.lrplugin\color profiles\Rec709gamma2.4.icc
LUT_3D_SIZE 8
DOMAIN_MIN 0.000000 0.000000 0.000000
DOMAIN_MAX 0.903226 0.903226 0.903226
0.000000 0.080598 0.100526
0.000000 0.120302 0.145815
0.115755 0.121889 0.143862
0.400885 0.210513 0.223819
0.813687 0.491188 0.477119
0.950561 0.685115 0.662196
0.984619 0.794766 0.772091
0.993957 0.861997 0.844816
0.000000 0.121675 0.148745
0.000000 0.115755 0.141024
0.148867 0.129000 0.137423
0.421180 0.205966 0.198032
0.747250 0.409186 0.375006
0.926665 0.610193 0.579217
0.979614 0.752407 0.723903
0.994507 0.842832 0.822171
0.107149 0.159274 0.161624
0.188357 0.189151 0.149416
0.608759 0.304112 0.000000
0.780514 0.360296 0.070771
0.866331 0.476661 0.321294
0.976440 0.640284 0.557885
1.000000 0.785306 0.740566
1.000000 0.860166 0.834623
0.439368 0.421729 0.329290
0.485969 0.443763 0.304845
0.713649 0.532158 0.196933
1.000000 0.599298 0.000000
1.000000 0.639002 0.270939
1.000000 0.712673 0.536553
1.000000 0.799741 0.716732
1.000000 0.860899 0.819944
0.641596 0.602075 0.496223
0.673579 0.617243 0.486091
0.804685 0.675593 0.451972
0.975677 0.732876 0.377050
1.000000 0.710475 0.135073
1.000000 0.727962 0.416938
1.000000 0.790005 0.637201
1.000000 0.856809 0.786313
0.817014 0.756863 0.670466
0.842588 0.775937 0.681910
0.892393 0.801236 0.669947
0.964630 0.829862 0.643946
1.000000 0.833585 0.584924
1.000000 0.789700 0.460121
1.000000 0.809476 0.608331
1.000000 0.858824 0.757870
0.910063 0.861875 0.811032
0.916381 0.866697 0.812192
0.934417 0.876371 0.805447
0.965484 0.890379 0.794003
1.000000 0.896025 0.769070
1.000000 0.886259 0.728695
1.000000 0.844511 0.639124
1.000000 0.853910 0.711788
0.954162 0.927123 0.905699
0.955688 0.928130 0.905089
0.962310 0.932616 0.903410
0.974151 0.939727 0.900877
0.988098 0.937041 0.877440
1.000000 0.938323 0.866178
1.000000 0.927764 0.840330
1.000000 0.889372 0.764950
0.000000 0.110079 0.139345
0.000000 0.122164 0.148470
0.091707 0.121004 0.144259
0.361608 0.191806 0.200687
0.699001 0.376043 0.348211
0.903380 0.577020 0.548852
0.971130 0.728054 0.700404
0.991333 0.826902 0.805692
0.000000 0.117617 0.145083
0.000000 0.119081 0.146914
0.151278 0.132296 0.141573
0.403204 0.205051 0.193698
0.699641 0.367071 0.321569
0.900511 0.557336 0.518029
0.969726 0.706142 0.673396
0.991730 0.812039 0.787625
0.130495 0.171939 0.169436
0.202823 0.197452 0.157961
0.565698 0.278904 0.000000
0.698970 0.331029 0.134798
0.791440 0.426825 0.284092
0.944762 0.575982 0.479988
0.994293 0.722927 0.667231
1.000000 0.826535 0.794797
0.375891 0.361822 0.288334
0.420874 0.385382 0.271641
0.636408 0.476631 0.188937
0.989654 0.536034 0.000000
1.000000 0.569146 0.185183
1.000000 0.645502 0.447272
1.000000 0.740902 0.632715
1.000000 0.827573 0.775662
0.621607 0.586267 0.484321
0.649744 0.598444 0.471656
0.774899 0.651362 0.431586
0.952148 0.703914 0.342229
1.000000 0.686549 0.000000
1.000000 0.706142 0.376684
1.000000 0.769772 0.602747
1.000000 0.838651 0.756985
0.793668 0.735958 0.648157
0.810361 0.745052 0.646235
0.868864 0.775021 0.635309
0.952911 0.811215 0.612970
1.000000 0.821317 0.558648
1.000000 0.783932 0.448737
1.000000 0.803830 0.597253
1.000000 0.851865 0.745388
0.896391 0.846250 0.792508
0.899931 0.847318 0.788235
0.920989 0.858427 0.780423
0.958190 0.876860 0.770840
1.000000 0.887968 0.751888
1.000000 0.879301 0.710689
1.000000 0.835721 0.613458
1.000000 0.844694 0.689693
0.948577 0.919493 0.896666
0.951232 0.921996 0.897734
0.958495 0.926848 0.895689
0.971679 0.935027 0.893370
0.988098 0.940856 0.886442
1.000000 0.939757 0.870451
1.000000 0.927459 0.840055
1.000000 0.889433 0.765866
0.000000 0.118563 0.140932
0.000000 0.115572 0.140352
0.132662 0.189700 0.216831
0.424994 0.311406 0.331640
0.747707 0.488380 0.484016
0.917113 0.643763 0.621546
0.976471 0.761807 0.734371
0.996338 0.839322 0.816739
0.000000 0.121736 0.151858
0.000000 0.129000 0.155886
0.187991 0.192630 0.219852
0.464179 0.301854 0.307042
0.738888 0.461952 0.443427
0.912963 0.621820 0.592187
0.975402 0.744106 0.712520
0.997162 0.828794 0.803464
0.178958 0.221683 0.247318
0.263737 0.259983 0.233951
0.588067 0.320623 0.177768
0.701228 0.398688 0.278904
0.839841 0.515801 0.423713
0.951354 0.645594 0.579736
0.992187 0.754879 0.707088
1.000000 0.833219 0.801083
0.432380 0.430610 0.378271
0.490944 0.464515 0.370245
0.703059 0.544213 0.311833
1.000000 0.580896 0.133944
1.000000 0.626093 0.382452
1.000000 0.698299 0.557671
1.000000 0.778470 0.697078
1.000000 0.842191 0.795590
0.647974 0.615076 0.533013
0.678798 0.630304 0.526879
0.798428 0.683101 0.502617
0.958801 0.733700 0.452094
1.000000 0.717311 0.326452
1.000000 0.740322 0.503166
1.000000 0.794278 0.664118
1.000000 0.850828 0.780545
0.799863 0.745785 0.670741
0.816373 0.755428 0.670466
0.869993 0.783078 0.661189
0.948180 0.815854 0.641169
1.000000 0.826474 0.598505
1.000000 0.795621 0.520928
1.000000 0.819974 0.652399
1.000000 0.864408 0.775235
0.899077 0.852842 0.807797
0.902800 0.854398 0.804593
0.921416 0.863798 0.795773
0.955749 0.880247 0.785122
0.996612 0.891173 0.767910
1.000000 0.885588 0.737545
1.000000 0.850553 0.670161
1.000000 0.863127 0.740658
0.946563 0.919127 0.900603
0.947906 0.919738 0.899168
0.955322 0.924895 0.897063
0.969665 0.935149 0.897246
0.986023 0.941558 0.891020
1.000000 0.942351 0.879332
1.000000 0.932158 0.854459
1.000000 0.898192 0.791714
0.000000 0.122988 0.164920
0.000000 0.130312 0.170443
0.132876 0.189822 0.216922
0.510887 0.535271 0.552667
0.700374 0.608698 0.623255
0.877958 0.698695 0.696223
0.951293 0.781308 0.766751
0.981781 0.847257 0.831357
0.083833 0.167117 0.215915
0.114717 0.178103 0.220066
0.258457 0.287633 0.311376
0.516320 0.539971 0.557092
0.744076 0.611444 0.622644
0.889525 0.697841 0.691157
0.955200 0.779446 0.762264
0.983703 0.846098 0.828885
0.255589 0.324834 0.377325
0.337743 0.389776 0.399542
0.498817 0.425574 0.416632
0.650690 0.497230 0.484443
0.835142 0.611048 0.587823
0.935698 0.719722 0.689693
0.978668 0.807645 0.780148
0.992981 0.861173 0.840146
0.487251 0.513695 0.525628
0.513329 0.529107 0.523552
0.722866 0.612390 0.489143
0.971038 0.638300 0.453498
0.977569 0.677058 0.552789
0.981811 0.737728 0.653285
0.997009 0.804349 0.750576
1.000000 0.859709 0.826658
0.685084 0.665248 0.631800
0.713252 0.679744 0.626215
0.821469 0.730373 0.613031
0.957183 0.776913 0.596338
1.000000 0.767758 0.551171
1.000000 0.793240 0.656733
1.000000 0.831540 0.747738
1.000000 0.872374 0.822202
0.826169 0.779690 0.731136
0.846189 0.794736 0.739101
0.886534 0.816098 0.731533
0.950103 0.844846 0.722438
1.000000 0.854520 0.700832
1.000000 0.829007 0.653986
1.000000 0.851499 0.740841
1.000000 0.884794 0.820096
0.895842 0.856565 0.827878
0.901701 0.860960 0.828183
0.921996 0.874571 0.826078
0.954009 0.892912 0.821744
0.989990 0.904265 0.810758
1.000000 0.900298 0.789181
1.000000 0.872221 0.743404
1.000000 0.885893 0.798428
0.945037 0.921630 0.913207
0.946715 0.922972 0.912627
0.953674 0.928344 0.910735
0.966308 0.937041 0.908019
0.982116 0.944244 0.902556
1.000000 0.946288 0.893126
1.000000 0.939117 0.875181
1.000000 0.912810 0.831296
0.113771 0.187686 0.261112
0.144015 0.200504 0.268986
0.220951 0.250187 0.287236
0.569177 0.584619 0.598688
0.820005 0.790707 0.788632
0.845182 0.792905 0.791806
0.926635 0.829496 0.824552
0.965179 0.874144 0.866178
0.199741 0.246464 0.320500
0.225132 0.261204 0.328679
0.301579 0.325811 0.356909
0.670283 0.666407 0.673793
0.809689 0.781491 0.779904
0.858640 0.789792 0.788968
0.931731 0.828794 0.822843
0.967224 0.873747 0.865049
0.424781 0.475807 0.530327
0.455299 0.494301 0.541985
0.527306 0.549523 0.566003
0.729732 0.714137 0.717494
0.795926 0.724849 0.728237
0.890776 0.766598 0.761257
0.946868 0.820554 0.808713
0.973938 0.867674 0.855375
0.567407 0.658564 0.637537
0.629572 0.669703 0.650294
0.747677 0.697963 0.663416
0.887083 0.717586 0.667689
0.904753 0.739437 0.697658
0.946014 0.782254 0.746548
0.974029 0.830686 0.802884
0.987701 0.873655 0.853849
0.719203 0.706020 0.700435
0.720180 0.705898 0.707454
0.808316 0.756619 0.705898
0.932555 0.801450 0.698238
1.000000 0.802792 0.691554
1.000000 0.816190 0.735103
1.000000 0.844999 0.789883
1.000000 0.880400 0.846311
0.789151 0.761105 0.751797
0.803159 0.770382 0.751583
0.849454 0.797482 0.745480
0.920897 0.833188 0.740505
0.993133 0.853056 0.733608
1.000000 0.849729 0.734157
1.000000 0.872221 0.797971
1.000000 0.897612 0.850736
0.877012 0.845487 0.840818
0.878660 0.846403 0.839231
0.896757 0.859068 0.834562
0.934569 0.884977 0.833982
0.976043 0.905211 0.831144
1.000000 0.907134 0.819272
1.000000 0.886992 0.791928
1.000000 0.899748 0.833921
0.938109 0.914214 0.904417
0.937896 0.913848 0.904997
0.937011 0.913115 0.908354
0.954345 0.929046 0.911406
0.973632 0.941497 0.908232
0.993286 0.947326 0.901976
1.000000 0.943145 0.888884
1.000000 0.922026 0.856748
0.286473 0.331762 0.443977
0.311345 0.350134 0.455848
0.379400 0.402136 0.474220
0.521324 0.544305 0.561181
0.883146 0.852049 0.847776
0.923369 0.896788 0.892515
0.918120 0.890593 0.886259
0.952239 0.908629 0.904906
0.323339 0.367803 0.471351
0.339330 0.377508 0.473823
0.394995 0.419074 0.483436
0.533074 0.554406 0.570611
0.884215 0.853117 0.848875
0.913878 0.885679 0.881315
0.912169 0.881285 0.877043
0.951904 0.903838 0.899870
0.528985 0.563470 0.632288
0.541466 0.568872 0.631647
0.591577 0.598566 0.635431
0.725978 0.711116 0.714717
0.906462 0.877287 0.872862
0.896422 0.866209 0.861814
0.930632 0.877775 0.873716
0.959960 0.903716 0.898741
0.706355 0.717739 0.748135
0.729763 0.731899 0.755764
0.816220 0.789456 0.792874
0.876036 0.844663 0.840543
0.901030 0.846647 0.841886
0.933318 0.861448 0.854002
0.958099 0.884215 0.875456
0.973327 0.909545 0.901732
0.788876 0.811063 0.781277
0.809262 0.815702 0.787961
0.839689 0.809262 0.802304
0.919951 0.849454 0.809659
0.970550 0.854124 0.814328
0.970031 0.858274 0.825345
0.976471 0.877836 0.853849
0.985046 0.904692 0.889128
0.850523 0.823575 0.806027
0.855497 0.826139 0.811734
0.857694 0.825864 0.820951
0.915282 0.863981 0.822110
0.973510 0.884947 0.822904
1.000000 0.887999 0.831754
1.000000 0.898924 0.858885
1.000000 0.915740 0.888853
0.904631 0.876890 0.861631
0.906584 0.878264 0.864591
0.907347 0.877714 0.869902
0.926665 0.893523 0.872831
0.961364 0.915129 0.872129
0.996521 0.923980 0.869535
1.000000 0.915129 0.861723
1.000000 0.925536 0.888243
0.943297 0.925170 0.909545
0.943053 0.924224 0.909148
0.943847 0.923095 0.910826
0.945556 0.923613 0.917266
0.959442 0.935454 0.918395
0.983062 0.948760 0.915679
1.000000 0.950195 0.909941
1.000000 0.936736 0.892332
0.424842 0.471351 0.594842
0.442756 0.482856 0.599725
0.490486 0.511925 0.602319
0.565820 0.572503 0.612024
0.776089 0.752407 0.752743
0.942901 0.920775 0.917082
0.955077 0.936584 0.933440
0.952422 0.933074 0.929778
0.441016 0.486061 0.601190
0.459297 0.497932 0.606806
0.504936 0.525078 0.609430
0.571771 0.578302 0.614954
0.779355 0.755154 0.755276
0.942199 0.919860 0.916136
0.951324 0.931609 0.928283
0.949554 0.929320 0.925902
0.579034 0.604791 0.687312
0.589624 0.609766 0.687617
0.625849 0.628351 0.686976
0.680720 0.669154 0.689967
0.846738 0.815610 0.812345
0.954223 0.935454 0.932250
0.949218 0.928923 0.925475
0.948333 0.927764 0.924285
0.747707 0.747219 0.783963
0.758846 0.752773 0.786343
0.788663 0.767544 0.791501
0.824125 0.792477 0.795956
0.923552 0.897002 0.892790
0.946715 0.925628 0.922087
0.940429 0.917662 0.913878
0.958862 0.926970 0.923613
0.787015 0.790982 0.820798
0.796902 0.796841 0.823423
0.840848 0.826139 0.840391
0.903288 0.876158 0.874662
0.925475 0.895354 0.891173
0.942626 0.901244 0.896147
0.958526 0.911772 0.905913
0.971008 0.927733 0.922301
0.826261 0.873350 0.852323
0.838804 0.876036 0.854185
0.880552 0.886687 0.864744
0.916503 0.891508 0.881529
0.951781 0.912779 0.891905
0.979919 0.917693 0.897856
0.979431 0.920165 0.903655
0.983246 0.932494 0.921447
0.910246 0.905913 0.880491
0.912993 0.906065 0.882048
0.920958 0.905211 0.886473
0.929442 0.904692 0.895293
0.948333 0.919860 0.902434
0.980163 0.936004 0.907012
1.000000 0.937407 0.911376
1.000000 0.941527 0.922179
0.942870 0.936919 0.917144
0.943938 0.937041 0.917937
0.948638 0.938109 0.921996
0.953887 0.938354 0.927092
0.956634 0.938354 0.933745
0.971771 0.950805 0.935027
0.992279 0.958434 0.933867
1.000000 0.953735 0.929412
0.621210 0.634272 0.739559
0.631678 0.640375 0.740810
0.655665 0.651331 0.735988
0.704982 0.683589 0.735592
0.750179 0.728695 0.734951
0.900847 0.871031 0.866606
0.966735 0.952361 0.949859
0.973602 0.961944 0.959930
0.623743 0.637324 0.739040
0.634577 0.643397 0.740597
0.661677 0.656794 0.738155
0.707820 0.686458 0.736660
0.752407 0.730617 0.736507
0.902495 0.872831 0.868437
0.967132 0.952911 0.950439
0.973175 0.961303 0.959228
0.681941 0.686397 0.767453
0.688899 0.689723 0.767544
0.710750 0.699550 0.764736
0.758267 0.730678 0.769009
0.793545 0.765743 0.768185
0.918242 0.890745 0.886442
0.971069 0.958404 0.956207
0.972747 0.960723 0.958618
0.769314 0.763729 0.814450
0.774563 0.766110 0.815335
0.790707 0.772610 0.814878
0.823880 0.792508 0.817075
0.854215 0.821378 0.821103
0.942992 0.920867 0.917174
0.975006 0.963897 0.961975
0.971923 0.959594 0.957427
0.799954 0.806668 0.844968
0.809293 0.812497 0.847929
0.837003 0.828641 0.855497
0.883970 0.859129 0.872831
0.909575 0.879545 0.879698
0.959045 0.941894 0.938964
0.972045 0.959747 0.957610
0.969329 0.955932 0.953613
0.829892 0.839689 0.876829
0.835142 0.842741 0.877958
0.858183 0.856870 0.884154
0.897002 0.884215 0.898283
0.938262 0.919310 0.920470
0.968841 0.955291 0.952941
0.965545 0.949584 0.947021
0.973083 0.953826 0.951324
0.822232 0.876768 0.903410
0.828061 0.880369 0.904112
0.851530 0.894896 0.907683
0.891142 0.918639 0.916442
0.938109 0.936919 0.927245
0.962524 0.945617 0.940948
0.980316 0.953429 0.946105
0.981872 0.956115 0.950439
0.913359 0.945037 0.925902
0.915526 0.945159 0.926055
0.925444 0.946471 0.927947
0.942718 0.949950 0.933867
0.959258 0.953521 0.942473
0.967742 0.953887 0.949676
0.981170 0.964660 0.954925
0.994690 0.968444 0.959350
