20 Preset/City Style/【3】LUT video cho PR-AE-FCPX/TONE 2/Darky Sunset II.cube
# Created by Adobe Lightroom plugin Export LUT (1.24.0)
# www.johnrellis.com/lightroom/exportlut.htm
# Preset: Darky Sunset II
# Color profile: E:\lut插件\exportlut.1.24\exportlut.lrplugin\color profiles\Rec709gamma2.4.icc
LUT_3D_SIZE 32
DOMAIN_MIN 0.0 0.0 0.0
DOMAIN_MAX 1.0 1.0 1.0
0.000000 0.117189 0.142916
0.000000 0.117189 0.142916
0.000000 0.117128 0.142916
0.000000 0.117220 0.142824
0.023346 0.117098 0.142763
0.042512 0.116823 0.142702
0.040223 0.116884 0.142916
0.017762 0.117525 0.143404
0.000000 0.118502 0.144289
0.000000 0.119265 0.145357
0.000000 0.120180 0.146365
0.000000 0.121157 0.147280
0.021363 0.121767 0.147951
0.082216 0.122438 0.148928
0.118685 0.122438 0.149355
0.152956 0.121798 0.149905
0.190158 0.119692 0.150057
0.230411 0.115572 0.150240
0.273655 0.108553 0.149752
0.330602 0.093233 0.148836
0.409491 0.015686 0.146700
0.483772 0.000000 0.143435
0.551873 0.000000 0.139406
0.615595 0.000000 0.134279
0.674495 0.000000 0.128695
0.730495 0.000000 0.121767
0.785245 0.000000 0.113649
0.839841 0.000000 0.103029
0.894469 0.000000 0.089052
0.948943 0.000000 0.051392
1.000000 0.000000 0.001190
1.000000 0.000000 0.000000
0.000000 0.117189 0.142916
0.000000 0.117189 0.142916
0.000000 0.117433 0.142885
0.000000 0.117525 0.142794
0.022644 0.117403 0.142733
0.041810 0.117128 0.142672
0.041505 0.117128 0.142885
0.020020 0.118013 0.143557
0.000000 0.118715 0.144472
0.000000 0.119509 0.145541
0.000000 0.120241 0.146365
0.000000 0.121309 0.147311
0.010163 0.121798 0.147982
0.065827 0.122683 0.148745
0.109926 0.122774 0.149447
0.144289 0.122530 0.149996
0.180911 0.120760 0.150210
0.220340 0.117281 0.150210
0.262852 0.111147 0.149996
0.318303 0.098146 0.149172
0.390997 0.043244 0.147463
0.459754 0.000000 0.144533
0.523339 0.000000 0.141299
0.583917 0.000000 0.136843
0.640925 0.000000 0.131930
0.696101 0.000000 0.126009
0.751431 0.000000 0.118715
0.807645 0.000000 0.109804
0.864714 0.000000 0.097383
0.922362 0.000000 0.075959
0.978973 0.000000 0.025666
1.000000 0.000000 0.000000
0.000000 0.117433 0.143313
0.000000 0.117433 0.143313
0.000000 0.118257 0.142794
0.000000 0.119326 0.142855
0.016052 0.119875 0.143160
0.031617 0.119966 0.143740
0.033722 0.119600 0.144228
0.016358 0.119509 0.144961
0.000000 0.119875 0.145663
0.000000 0.120394 0.146548
0.000000 0.120851 0.147402
0.000000 0.121706 0.148135
0.001587 0.122530 0.148775
0.052308 0.123293 0.149355
0.103639 0.123629 0.149844
0.137819 0.123384 0.150210
0.173770 0.122377 0.150423
0.212741 0.119509 0.150454
0.255070 0.114260 0.150271
0.312474 0.102113 0.149416
0.381689 0.064485 0.147616
0.447700 0.000000 0.145083
0.508965 0.000000 0.141939
0.567803 0.000000 0.137728
0.623621 0.000000 0.133089
0.677882 0.000000 0.127504
0.733272 0.000000 0.120577
0.790036 0.000000 0.112093
0.848295 0.000000 0.100496
0.907256 0.000000 0.082429
0.965484 0.000000 0.034791
1.000000 0.000000 0.000000
0.000000 0.121431 0.147707
0.000000 0.121675 0.147677
0.000000 0.121920 0.147189
0.000000 0.122591 0.145815
0.009186 0.123568 0.145449
0.019165 0.124056 0.146639
0.020996 0.123171 0.146944
0.006378 0.122194 0.147311
0.000000 0.121675 0.147890
0.000000 0.121584 0.148379
0.000000 0.122042 0.148989
0.000000 0.122927 0.149508
0.000000 0.123568 0.149966
0.038025 0.124758 0.150301
0.096376 0.125277 0.150820
0.129580 0.125490 0.150973
0.164889 0.124727 0.151217
0.202121 0.122866 0.151064
0.242741 0.118837 0.150729
0.300938 0.108919 0.149874
0.362432 0.090822 0.148257
0.422644 0.028351 0.145937
0.480781 0.000000 0.143069
0.539757 0.000000 0.139162
0.598230 0.000000 0.134524
0.656977 0.000000 0.128817
0.717159 0.000000 0.121523
0.778164 0.000000 0.112337
0.839506 0.000000 0.100252
0.899931 0.000000 0.080873
0.958007 0.000000 0.033814
1.000000 0.000000 0.000000
0.000000 0.125460 0.152071
0.000000 0.125460 0.152071
0.000000 0.125460 0.152071
0.000000 0.126131 0.151156
0.003021 0.126497 0.149630
0.011475 0.126558 0.148745
0.010712 0.125765 0.149477
0.000000 0.125063 0.150210
0.000000 0.123629 0.150423
0.000000 0.122988 0.150759
0.000000 0.122896 0.151003
0.000000 0.123873 0.151308
0.000000 0.124971 0.151553
0.019593 0.125978 0.151888
0.085298 0.127260 0.152132
0.121065 0.127932 0.152071
0.156802 0.127810 0.152071
0.195285 0.126467 0.151705
0.239536 0.123110 0.151247
0.297856 0.115236 0.150088
0.355535 0.101503 0.148348
0.412665 0.070527 0.146120
0.469306 0.000000 0.142947
0.527794 0.000000 0.139040
0.587060 0.000000 0.134066
0.646845 0.000000 0.128115
0.707668 0.000000 0.120485
0.768795 0.000000 0.110994
0.829984 0.000000 0.098482
0.890227 0.000000 0.078370
0.948363 0.000000 0.028443
1.000000 0.000000 0.000000
0.000000 0.128115 0.154818
0.000000 0.128115 0.154818
0.000000 0.128115 0.154818
0.000000 0.128328 0.154574
0.000000 0.128786 0.153933
0.000183 0.128511 0.152926
0.000000 0.126833 0.152102
0.000000 0.125490 0.152468
0.000000 0.124239 0.153048
0.000000 0.123568 0.153384
0.000000 0.123781 0.153597
0.000000 0.124483 0.153719
0.000000 0.126101 0.153689
0.010651 0.127687 0.153597
0.079469 0.129244 0.153597
0.118227 0.130709 0.153231
0.154635 0.131136 0.152987
0.193423 0.130648 0.152529
0.247562 0.127749 0.151492
0.303685 0.121187 0.149844
0.359716 0.110384 0.147738
0.416022 0.092378 0.144900
0.628534 0.000000 0.124697
0.691920 0.000000 0.115328
0.750790 0.000000 0.104829
0.806180 0.000000 0.091768
0.858366 0.000000 0.065003
0.908415 0.000000 0.024079
0.956115 0.000000 0.000000
1.000000 0.000000 0.000000
1.000000 0.000000 0.000000
1.000000 0.000000 0.000000
0.000000 0.128847 0.155520
0.000000 0.128847 0.155520
0.000000 0.128847 0.155520
0.000000 0.128786 0.155520
0.000000 0.128328 0.155764
0.000000 0.127413 0.155886
0.000000 0.126040 0.155856
0.000000 0.123812 0.155520
0.000000 0.122957 0.155856
0.000000 0.123201 0.156069
0.000000 0.123995 0.156161
0.000000 0.125826 0.155947
0.000000 0.128206 0.155612
0.041993 0.130892 0.155123
0.100832 0.133181 0.154574
0.137026 0.134829 0.154116
0.174228 0.135958 0.153231
0.230594 0.135866 0.151614
0.290166 0.132479 0.149508
0.352300 0.125673 0.146487
0.418341 0.112520 0.142336
0.489052 0.088106 0.136538
0.563745 0.000000 0.128481
0.638087 0.000000 0.118502
0.708492 0.000000 0.106416
0.771359 0.000000 0.092226
0.827878 0.000000 0.063233
0.879881 0.000000 0.021393
0.929595 0.000000 0.000000
0.976165 0.000000 0.000000
1.000000 0.000000 0.000000
1.000000 0.000000 0.000000
0.000000 0.126925 0.153536
0.000000 0.126925 0.153536
0.000000 0.126925 0.153536
0.000000 0.126864 0.153536
0.000000 0.126680 0.153964
0.000000 0.125490 0.154696
0.000000 0.124086 0.155459
0.000000 0.122683 0.156252
0.000000 0.121675 0.156588
0.000000 0.122316 0.156527
0.000000 0.123568 0.156405
0.000000 0.125734 0.155947
0.000000 0.128023 0.155428
0.033326 0.131380 0.155123
0.095216 0.134554 0.154482
0.135012 0.137667 0.153628
0.181857 0.140566 0.152102
0.231754 0.141848 0.150240
0.284886 0.141054 0.147677
0.341466 0.137423 0.144503
0.402899 0.130465 0.140078
0.469398 0.118257 0.134035
0.540551 0.095430 0.125856
0.612573 0.009735 0.115511
0.682338 0.000000 0.102846
0.745510 0.000000 0.087709
0.803159 0.000000 0.051392
0.856748 0.000000 0.008301
0.908293 0.000000 0.000000
0.956847 0.000000 0.000000
1.000000 0.000000 0.000000
1.000000 0.000000 0.000000
0.000000 0.123690 0.150179
0.000000 0.123690 0.150179
0.000000 0.123995 0.150149
0.000000 0.123995 0.150362
0.000000 0.123995 0.150576
0.000000 0.122683 0.151156
0.000000 0.121492 0.152102
0.000000 0.120241 0.153079
0.000000 0.119844 0.154147
0.000000 0.121065 0.155032
0.000000 0.123293 0.154788
0.000000 0.125826 0.154086
0.007813 0.128817 0.153475
0.064027 0.132448 0.152255
0.110048 0.136660 0.150820
0.149233 0.140993 0.149660
0.190616 0.144839 0.148226
0.235447 0.147463 0.146395
0.284398 0.148714 0.143832
0.337591 0.148318 0.140352
0.395819 0.145754 0.135561
0.459174 0.140322 0.129274
0.527459 0.129641 0.120455
0.597345 0.110903 0.109071
0.665370 0.061982 0.095064
0.728145 0.000000 0.069764
0.786374 0.000000 0.026123
0.840940 0.000000 0.000000
0.893492 0.000000 0.000000
0.943023 0.000000 0.000000
0.989807 0.000000 0.000000
1.000000 0.000000 0.000000
0.000000 0.120638 0.146700
0.000000 0.120638 0.146700
0.000000 0.120638 0.146914
0.000000 0.120912 0.146883
0.000000 0.121218 0.147066
0.000000 0.120394 0.147585
0.000000 0.119326 0.148165
0.000000 0.118593 0.148867
0.000000 0.118379 0.149752
0.000000 0.119509 0.150484
0.000000 0.123018 0.150912
0.016297 0.128206 0.150027
0.062287 0.132143 0.148989
0.102419 0.136202 0.147616
0.130251 0.140505 0.146029
0.159854 0.144930 0.144198
0.196841 0.149508 0.142367
0.241642 0.153323 0.140414
0.289769 0.156497 0.137575
0.341039 0.158724 0.133944
0.395087 0.159915 0.129061
0.451728 0.159945 0.122744
0.512718 0.156252 0.114168
0.575311 0.148684 0.103243
0.637263 0.135042 0.089387
0.697292 0.112490 0.057282
0.755489 0.053803 0.013947
0.812314 0.000000 0.000000
0.867735 0.000000 0.000000
0.921294 0.000000 0.000000
0.971923 0.000000 0.000000
1.000000 0.000000 0.000000
0.000000 0.118227 0.144137
0.000000 0.118227 0.144137
0.000000 0.118227 0.144137
0.000000 0.118227 0.144137
0.000000 0.118227 0.144350
0.000000 0.118227 0.144350
0.000000 0.117739 0.144625
0.000000 0.117494 0.144656
0.000000 0.117983 0.144808
0.000000 0.119844 0.145052
0.001282 0.123262 0.145052
0.038514 0.129366 0.145113
0.100984 0.138308 0.143648
0.125917 0.142855 0.142275
0.152529 0.147219 0.140902
0.181216 0.152010 0.139040
0.212406 0.156680 0.136812
0.246189 0.161440 0.134371
0.290959 0.166079 0.131197
0.339910 0.170138 0.127077
0.391394 0.173587 0.122103
0.445747 0.176486 0.114931
0.503807 0.178378 0.105715
0.564050 0.178408 0.093416
0.625086 0.172976 0.067231
0.684688 0.163302 0.023957
0.742947 0.147799 0.000000
0.800015 0.125002 0.000000
0.856046 0.089174 0.000000
0.910369 0.000000 0.000000
0.961883 0.000000 0.000000
1.000000 0.000000 0.000000
0.000000 0.117189 0.143130
0.000000 0.117189 0.143130
0.000000 0.117189 0.143130
0.000000 0.117189 0.142916
0.000000 0.117189 0.142916
0.000000 0.117189 0.142916
0.000000 0.117494 0.142885
0.000000 0.118288 0.142794
0.000000 0.119539 0.142641
0.000061 0.122316 0.142275
0.020752 0.126589 0.141939
0.062440 0.132662 0.141054
0.167971 0.164736 0.136110
0.235203 0.186038 0.129732
0.267308 0.191348 0.126619
0.299931 0.196719 0.123262
0.333196 0.202243 0.119539
0.367712 0.207980 0.114717
0.403845 0.214511 0.108919
0.444068 0.221622 0.101045
0.498085 0.227207 0.087709
0.553216 0.231479 0.053101
0.608667 0.234134 0.009552
0.664302 0.234745 0.000000
0.718135 0.233555 0.000000
0.769986 0.228214 0.000000
0.818875 0.219760 0.000000
0.865660 0.208255 0.000000
0.910826 0.195315 0.000000
0.954894 0.180545 0.000000
0.996612 0.165194 0.000000
1.000000 0.150301 0.000000
0.000000 0.121981 0.148074
0.000000 0.121675 0.148104
0.000000 0.121675 0.147677
0.000000 0.121431 0.147494
0.000000 0.120912 0.147097
0.000000 0.120394 0.146517
0.000000 0.120638 0.146059
0.000000 0.122683 0.145815
0.001221 0.125917 0.145418
0.024445 0.130495 0.145022
0.066255 0.137484 0.144228
0.106477 0.147677 0.142763
0.145449 0.160952 0.140322
0.194125 0.177218 0.135866
0.275456 0.206668 0.126467
0.309941 0.213443 0.122316
0.342870 0.219425 0.117861
0.375158 0.224796 0.112978
0.408759 0.230625 0.106874
0.443366 0.237034 0.099641
0.480201 0.244297 0.090211
0.525475 0.251469 0.063416
0.579583 0.256413 0.017151
0.634577 0.260075 0.000000
0.688624 0.261692 0.000000
0.741360 0.261723 0.000000
0.792325 0.259586 0.000000
0.841978 0.254215 0.000000
0.890471 0.247318 0.000000
0.937377 0.240482 0.000000
0.981628 0.233310 0.000000
1.000000 0.227115 0.000000
0.000000 0.126192 0.152804
0.000000 0.126192 0.152590
0.000000 0.125673 0.152224
0.000000 0.125216 0.151675
0.000000 0.124758 0.151125
0.000000 0.123995 0.150362
0.000000 0.123201 0.149599
0.000000 0.125185 0.149386
0.005585 0.128542 0.149172
0.027100 0.133486 0.148959
0.066896 0.140780 0.148562
0.105226 0.150759 0.147799
0.140963 0.163973 0.145937
0.184512 0.180331 0.142519
0.236515 0.198581 0.136446
0.324285 0.234775 0.122560
0.356176 0.240543 0.117281
0.387274 0.245823 0.111421
0.419501 0.251408 0.104738
0.452644 0.257267 0.096773
0.487709 0.264195 0.085634
0.525536 0.272068 0.058625
0.564630 0.280400 0.022583
0.615900 0.287083 0.000000
0.670497 0.291203 0.000000
0.723995 0.293797 0.000000
0.775448 0.295140 0.000000
0.825772 0.294926 0.000000
0.875303 0.292271 0.000000
0.923796 0.289586 0.000000
0.969696 0.286656 0.000000
1.000000 0.284794 0.000000
0.000000 0.132052 0.158877
0.000824 0.131807 0.158724
0.000000 0.131624 0.158358
0.000000 0.130648 0.157687
0.000000 0.129976 0.156588
0.000000 0.128786 0.155734
0.000000 0.128115 0.154604
0.000000 0.128847 0.154116
0.009552 0.132509 0.154086
0.033326 0.137667 0.154025
0.076753 0.145022 0.154177
0.107271 0.155245 0.153994
0.140597 0.168490 0.152987
0.179904 0.184756 0.150668
0.227268 0.203372 0.145724
0.280064 0.223484 0.137423
0.365026 0.261295 0.120577
0.405219 0.272313 0.110628
0.436255 0.277470 0.102846
0.468177 0.282780 0.093751
0.501823 0.289097 0.078462
0.537926 0.296330 0.045747
0.575341 0.304051 0.009491
0.614557 0.312169 0.000000
0.655665 0.320562 0.000000
0.709255 0.325139 0.000000
0.762264 0.328893 0.000000
0.814542 0.332341 0.000000
0.866423 0.335119 0.000000
0.917876 0.336767 0.000000
0.966674 0.338781 0.000000
1.000000 0.341558 0.000000
0.013214 0.138399 0.165469
0.013214 0.138399 0.165469
0.013245 0.137942 0.165164
0.011597 0.137545 0.164645
0.008972 0.136934 0.163973
0.007660 0.136049 0.162966
0.007019 0.135378 0.162295
0.005402 0.134493 0.161471
0.021454 0.138827 0.161898
0.050721 0.144625 0.162264
0.089448 0.152407 0.162661
0.114778 0.162478 0.162600
0.143679 0.174990 0.161685
0.178653 0.189670 0.159762
0.219272 0.206851 0.155856
0.265507 0.225895 0.149294
0.317327 0.247013 0.139101
0.399390 0.285832 0.119448
0.450416 0.303960 0.103029
0.482399 0.309636 0.092531
0.516869 0.316197 0.072023
0.553033 0.323644 0.034852
0.590875 0.331701 0.000000
0.630152 0.340002 0.000000
0.670314 0.348730 0.000000
0.711177 0.357794 0.000000
0.757443 0.365972 0.000000
0.810941 0.371374 0.000000
0.862821 0.376562 0.000000
0.912993 0.381292 0.000000
0.960571 0.384802 0.000000
1.000000 0.388708 0.000000
0.033173 0.145663 0.172915
0.033173 0.145663 0.172915
0.033204 0.145266 0.172610
0.031556 0.144869 0.172152
0.028901 0.144320 0.171542
0.027283 0.143496 0.170748
0.025666 0.142672 0.169986
0.023072 0.141665 0.169039
0.032563 0.143465 0.168826
0.062776 0.149599 0.169619
0.094697 0.157412 0.170138
0.118288 0.167575 0.170535
0.145754 0.179934 0.170352
0.178378 0.194553 0.169223
0.215885 0.211551 0.166354
0.258671 0.230961 0.161501
0.305882 0.252201 0.153384
0.359319 0.276036 0.141299
0.440681 0.316197 0.118105
0.503380 0.342412 0.092256
0.536919 0.348425 0.066743
0.572503 0.355352 0.026612
0.609583 0.362737 0.000000
0.648219 0.370733 0.000000
0.687831 0.379248 0.000000
0.728115 0.388281 0.000000
0.769192 0.398199 0.000000
0.810422 0.408942 0.000000
0.860014 0.417273 0.000000
0.910216 0.424445 0.000000
0.957549 0.430732 0.000000
1.000000 0.436622 0.000000
0.068177 0.155825 0.183383
0.070161 0.155764 0.183383
0.101991 0.170230 0.197757
0.100862 0.169619 0.197116
0.099702 0.168673 0.196231
0.097292 0.167422 0.194949
0.095155 0.165988 0.193515
0.092592 0.164370 0.191958
0.089296 0.162783 0.190219
0.107332 0.170504 0.191440
0.129244 0.180819 0.192813
0.154849 0.193393 0.193790
0.184298 0.208103 0.193820
0.217746 0.225254 0.192874
0.255100 0.244602 0.190036
0.296117 0.265904 0.184970
0.340673 0.289006 0.176852
0.389807 0.313451 0.164828
0.445014 0.339513 0.147494
0.525628 0.379644 0.116365
0.598138 0.410559 0.057679
0.629572 0.413642 0.012146
0.662562 0.417578 0.000000
0.696193 0.422065 0.000000
0.729397 0.426398 0.000000
0.763058 0.431617 0.000000
0.797177 0.437537 0.000000
0.832547 0.445136 0.000000
0.869413 0.455024 0.000000
0.907927 0.466346 0.000000
0.953674 0.474403 0.000000
0.995911 0.481575 0.000000
0.105745 0.172183 0.199649
0.107881 0.173678 0.201114
0.110262 0.174990 0.202457
0.111727 0.175875 0.203464
0.111818 0.176181 0.203555
0.110780 0.175601 0.202945
0.108186 0.174166 0.201480
0.105959 0.172305 0.199893
0.102846 0.170657 0.198276
0.109804 0.173373 0.197787
0.129915 0.182895 0.199283
0.153109 0.194736 0.200595
0.179965 0.208560 0.201205
0.210544 0.224735 0.201114
0.244785 0.243168 0.199710
0.283024 0.263890 0.196323
0.324590 0.286839 0.191012
0.371130 0.312108 0.182650
0.423438 0.339605 0.170169
0.482246 0.368750 0.151858
0.561700 0.408179 0.121553
0.647456 0.447974 0.049989
0.679896 0.451514 0.000000
0.712459 0.455177 0.000000
0.744350 0.458808 0.000000
0.776394 0.462928 0.000000
0.808896 0.467964 0.000000
0.842466 0.474586 0.000000
0.877409 0.483467 0.000000
0.913176 0.494636 0.000000
0.948486 0.508019 0.000000
0.986023 0.520165 0.000000
0.121859 0.182406 0.209842
0.124392 0.184207 0.211429
0.127016 0.185824 0.213016
0.128725 0.186893 0.214176
0.129519 0.187442 0.214725
0.128237 0.186923 0.214176
0.126345 0.185428 0.212680
0.123934 0.183658 0.210971
0.120546 0.181888 0.209140
0.117464 0.179782 0.207156
0.135317 0.188479 0.208499
0.157595 0.199832 0.210117
0.182742 0.213382 0.211185
0.211704 0.229191 0.211765
0.243961 0.247440 0.211490
0.279545 0.268009 0.209567
0.318822 0.290929 0.206058
0.362402 0.316075 0.199832
0.411139 0.343694 0.190982
0.466224 0.373541 0.177554
0.526085 0.403357 0.158846
0.603693 0.440833 0.130007
0.698756 0.487068 0.064759
0.730373 0.490272 0.011658
0.761196 0.493141 0.000000
0.791714 0.496376 0.000000
0.822293 0.500298 0.000000
0.853941 0.505943 0.000000
0.886900 0.513817 0.000000
0.920531 0.524071 0.000000
0.953704 0.536431 0.000000
0.985168 0.550713 0.000000
0.141238 0.195285 0.222354
0.144045 0.197147 0.224155
0.146242 0.198886 0.225711
0.147982 0.199832 0.226749
0.148898 0.200443 0.227268
0.147616 0.199863 0.226749
0.145998 0.198489 0.225528
0.142947 0.196689 0.223606
0.140322 0.194675 0.221714
0.136995 0.192508 0.219669
0.143099 0.195438 0.219028
0.164096 0.206638 0.220981
0.188052 0.219944 0.222690
0.215915 0.235691 0.223819
0.246616 0.253758 0.224369
0.280949 0.274815 0.223972
0.319524 0.298955 0.222721
0.363317 0.326390 0.219455
0.413001 0.357336 0.214298
0.469490 0.391241 0.206058
0.531731 0.426001 0.194461
0.599054 0.459968 0.177981
0.676692 0.496773 0.155032
0.775418 0.546593 0.124910
0.810666 0.553338 0.109651
0.840665 0.556909 0.093904
0.869810 0.560998 0.065034
0.898833 0.566308 0.028534
0.928069 0.573663 0.012543
0.956847 0.583032 0.017731
0.984436 0.594354 0.056123
1.000000 0.607202 0.102571
0.182376 0.224460 0.250553
0.183444 0.225284 0.251347
0.184115 0.225803 0.251804
0.183841 0.225589 0.251621
0.182925 0.224887 0.250889
0.180758 0.223239 0.249393
0.178073 0.221378 0.247471
0.175113 0.219150 0.245457
0.172000 0.216800 0.243137
0.168765 0.214420 0.240879
0.165011 0.211887 0.238407
0.183749 0.222477 0.240269
0.207370 0.236698 0.242649
0.234562 0.253239 0.244572
0.264439 0.272343 0.245945
0.297642 0.294133 0.246555
0.334386 0.318761 0.246128
0.376165 0.346258 0.244266
0.422522 0.376532 0.240726
0.474800 0.409064 0.234897
0.531243 0.441718 0.226902
0.592493 0.473884 0.215885
0.655573 0.503807 0.200870
0.723598 0.533959 0.181827
0.813382 0.579553 0.164736
0.852903 0.590753 0.153719
0.880735 0.594598 0.146548
0.908415 0.599512 0.141573
0.935698 0.606134 0.140566
0.962158 0.614466 0.146059
0.987274 0.624475 0.158633
1.000000 0.635920 0.177066
0.208377 0.244511 0.269780
0.209354 0.245335 0.270603
0.209934 0.245792 0.270970
0.209812 0.245701 0.270909
0.208957 0.244968 0.270176
0.207156 0.243503 0.268803
0.204776 0.241581 0.266941
0.201877 0.239231 0.264805
0.198825 0.236973 0.262577
0.195499 0.234501 0.260105
0.192294 0.231754 0.257572
0.196933 0.234287 0.256901
0.220279 0.249119 0.259709
0.246220 0.266087 0.262577
0.275608 0.285954 0.264927
0.308019 0.308415 0.266819
0.344427 0.334020 0.268101
0.384863 0.362310 0.268284
0.430701 0.393561 0.267216
0.481178 0.426459 0.264714
0.535973 0.459754 0.260624
0.594965 0.492500 0.254795
0.655665 0.523430 0.246983
0.716732 0.551934 0.236332
0.758328 0.562707 0.207095
0.841184 0.605615 0.199100
0.885069 0.622156 0.194003
0.911376 0.626764 0.191928
0.937194 0.632868 0.193210
0.962341 0.640620 0.199649
0.986481 0.650263 0.212100
1.000000 0.661372 0.230655
0.250797 0.280583 0.304570
0.252781 0.282475 0.306310
0.253452 0.282902 0.306798
0.252354 0.282078 0.305974
0.249943 0.279820 0.303807
0.246372 0.276707 0.300786
0.242100 0.272801 0.297032
0.237339 0.268681 0.293065
0.232181 0.264256 0.288701
0.227176 0.259831 0.284581
0.221958 0.255436 0.280369
0.216709 0.251194 0.276188
0.231662 0.260746 0.276951
0.255192 0.276585 0.278996
0.280949 0.294377 0.280674
0.309697 0.314763 0.281895
0.342412 0.337896 0.282872
0.379614 0.364416 0.283604
0.422461 0.394659 0.284031
0.470680 0.427588 0.283879
0.523644 0.461585 0.283146
0.579950 0.494728 0.281010
0.637476 0.525811 0.276677
0.694392 0.553765 0.269566
0.749142 0.578241 0.259159
0.801297 0.599268 0.245029
0.873381 0.637171 0.244022
0.916655 0.656397 0.244266
0.939757 0.660578 0.244022
0.962554 0.666773 0.249393
0.984771 0.674952 0.260166
1.000000 0.685145 0.277806
0.274693 0.302983 0.326268
0.276799 0.305028 0.328222
0.277989 0.305943 0.329229
0.277531 0.305699 0.328893
0.276097 0.304265 0.327581
0.274144 0.302373 0.325719
0.271794 0.300114 0.323491
0.268711 0.297185 0.320653
0.265721 0.294377 0.317937
0.262638 0.291447 0.315038
0.258701 0.287846 0.311589
0.254551 0.284031 0.307866
0.254368 0.283207 0.304875
0.277714 0.299992 0.307683
0.303197 0.318639 0.310002
0.331212 0.339544 0.312016
0.363012 0.363043 0.313664
0.399054 0.389532 0.315373
0.440558 0.419593 0.317235
0.486885 0.451667 0.319219
0.537682 0.484901 0.321416
0.592035 0.517723 0.322850
0.647547 0.548974 0.323064
0.702724 0.577935 0.321782
0.755764 0.603845 0.318242
0.805875 0.626459 0.312230
0.852415 0.645991 0.304112
0.911254 0.678950 0.311986
0.951507 0.701228 0.322271
0.971374 0.706325 0.328161
0.990509 0.713161 0.339330
1.000000 0.721859 0.355718
0.315068 0.342870 0.365545
0.316197 0.344152 0.366735
0.316381 0.344305 0.366888
0.315831 0.343816 0.366369
0.314183 0.342077 0.364752
0.311894 0.339696 0.362341
0.309087 0.336889 0.359564
0.306065 0.333745 0.356542
0.302678 0.330388 0.353185
0.299290 0.327031 0.349859
0.295384 0.323095 0.345953
0.291173 0.319005 0.342016
0.286687 0.314519 0.337591
0.297765 0.322515 0.337407
0.322667 0.341711 0.340185
0.350195 0.362676 0.342718
0.381079 0.386236 0.344976
0.416297 0.412726 0.347509
0.456245 0.441840 0.350683
0.500755 0.473121 0.354620
0.549706 0.505333 0.358709
0.601251 0.537163 0.362707
0.653773 0.567590 0.365423
0.705623 0.595850 0.366949
0.755398 0.621363 0.366674
0.802182 0.643946 0.364324
0.845884 0.663783 0.360479
0.885649 0.680629 0.354681
0.933623 0.708797 0.365179
0.971527 0.733394 0.382757
0.989166 0.739559 0.393347
1.000000 0.747524 0.408881
0.353857 0.383124 0.405280
0.355047 0.384283 0.406409
0.355596 0.384924 0.407080
0.355352 0.384710 0.406806
0.355138 0.384405 0.406561
0.354925 0.384192 0.406378
0.355932 0.385107 0.407263
0.357305 0.386603 0.408698
0.359442 0.388861 0.410956
0.361486 0.391089 0.413123
0.363989 0.393591 0.415656
0.365515 0.395209 0.417273
0.366125 0.395758 0.417792
0.364752 0.394415 0.416480
0.393713 0.418280 0.423133
0.424903 0.442817 0.428260
0.458259 0.467994 0.432624
0.495216 0.494759 0.437110
0.536156 0.522972 0.442634
0.580713 0.552483 0.448981
0.627619 0.582238 0.455604
0.675349 0.611292 0.462135
0.721920 0.638361 0.467323
0.766262 0.663111 0.471504
0.807584 0.685206 0.473976
0.845396 0.704646 0.475044
0.879606 0.721584 0.475074
0.910277 0.736019 0.473793
0.937774 0.748165 0.471412
0.969329 0.767758 0.483162
0.998322 0.789792 0.505211
1.000000 0.796048 0.518791
0.448005 0.478218 0.498421
0.448005 0.478309 0.498482
0.447242 0.477516 0.497719
0.446021 0.476326 0.496590
0.444190 0.474525 0.494881
0.441901 0.472450 0.492836
0.439857 0.470375 0.490883
0.437781 0.468391 0.488930
0.436011 0.466682 0.487282
0.434302 0.464973 0.485634
0.432410 0.463233 0.483925
0.430488 0.461311 0.482094
0.428077 0.458900 0.479713
0.424506 0.455390 0.476356
