20 Preset/City Style/【3】LUT video cho PR-AE-FCPX/TONE 2/Darky Flashing Lines.cube
# Created by Adobe Lightroom plugin Export LUT (1.24.0)
# www.johnrellis.com/lightroom/exportlut.htm
# Preset: Darky Flashing Lines
# Color profile: E:\lut插件\exportlut.1.24\exportlut.lrplugin\color profiles\Rec709gamma2.4.icc
LUT_3D_SIZE 5
DOMAIN_MIN 0.000000 0.000000 0.000000
DOMAIN_MAX 0.903226 0.903226 0.903226
0.117220 0.179629 0.207034
0.043275 0.181582 0.199771
0.190829 0.168124 0.221012
0.590936 0.000000 0.380865
1.000000 0.000000 0.697230
0.089296 0.162417 0.189975
0.087984 0.161410 0.189029
0.152804 0.161044 0.188235
0.608911 0.000000 0.333928
1.000000 0.000000 0.683680
0.256992 0.286320 0.310063
0.256992 0.286320 0.310063
0.302434 0.330144 0.352911
0.595880 0.380407 0.227634
0.878050 0.291447 0.295628
0.648981 0.649378 0.658259
0.661067 0.658991 0.667048
0.705959 0.694942 0.699916
0.655024 0.654200 0.662654
0.961944 0.746700 0.473579
0.920409 0.893278 0.889006
0.922087 0.895232 0.890990
0.915618 0.887694 0.883360
0.919402 0.892088 0.887785
0.909331 0.880491 0.876097
0.111360 0.169863 0.193118
0.109529 0.175174 0.203281
0.171481 0.159762 0.240818
0.697139 0.000000 0.436500
1.000000 0.000000 0.686580
0.040192 0.169619 0.201419
0.046815 0.175570 0.211460
0.149935 0.160891 0.265080
0.694514 0.000000 0.443671
1.000000 0.000000 0.689296
0.269474 0.297887 0.321355
0.279911 0.307958 0.331151
0.355505 0.384833 0.406958
0.501549 0.425452 0.394873
1.000000 0.000000 0.509819
0.684810 0.678035 0.684443
0.700587 0.690669 0.695979
0.745602 0.727077 0.729397
0.762509 0.741024 0.742214
0.951995 0.780362 0.602747
0.922667 0.895964 0.891691
0.923796 0.897276 0.893065
0.930968 0.905913 0.901854
0.935607 0.911620 0.907652
0.928191 0.902525 0.898375
0.000000 0.256779 0.449836
0.000000 0.261387 0.474891
0.000000 0.270726 0.581079
0.000000 0.135897 0.683223
1.000000 0.000000 0.894957
0.000000 0.325078 0.511254
0.000000 0.322179 0.524285
0.000000 0.310735 0.593591
0.000000 0.190951 0.693996
1.000000 0.000000 0.902983
0.000000 0.469917 0.546319
0.000000 0.478462 0.557519
0.198550 0.526879 0.618189
0.000000 0.550774 0.752834
1.000000 0.461891 0.899992
0.643702 0.739284 0.729732
0.647730 0.736995 0.728237
0.746578 0.781827 0.773434
0.866178 0.849363 0.843107
0.939330 0.889158 0.872251
0.926482 0.900481 0.896300
0.928954 0.903471 0.899321
0.936461 0.912657 0.908721
0.946258 0.925048 0.921508
0.946532 0.925383 0.921843
0.000000 0.522332 0.848478
0.000000 0.524804 0.857969
0.000000 0.509148 0.876036
0.000000 0.457130 0.903838
0.000000 0.309697 0.944640
0.000000 0.557824 0.846098
0.000000 0.553185 0.849577
0.000000 0.533837 0.866209
0.000000 0.479957 0.893889
0.000000 0.347784 0.938872
0.000000 0.671351 0.827604
0.000000 0.673213 0.831357
0.000000 0.679713 0.853910
0.000000 0.627771 0.880949
0.000000 0.489021 0.939605
0.623072 0.823362 0.854795
0.628351 0.821836 0.854002
0.692195 0.831052 0.863035
0.800748 0.854093 0.883940
0.824735 0.858915 0.925719
0.916289 0.919738 0.912871
0.920104 0.921050 0.914397
0.936400 0.928344 0.922881
0.956603 0.942046 0.938537
0.968261 0.954467 0.952087
0.000000 0.686397 0.965972
0.000000 0.681727 0.966766
0.000000 0.664149 0.971527
0.000000 0.620722 0.980102
0.000000 0.537163 0.993194
0.000000 0.708919 0.961883
0.000000 0.704524 0.962982
0.000000 0.686061 0.967895
0.000000 0.641779 0.977081
0.000000 0.557153 0.991577
0.351751 0.807065 0.951507
0.312261 0.802518 0.952361
0.104189 0.787594 0.957427
0.000000 0.751278 0.968048
0.000000 0.666743 0.985718
0.829221 0.897642 0.941222
0.829801 0.897673 0.941802
0.839322 0.900267 0.945495
0.839200 0.898344 0.953063
0.773983 0.866636 0.965454
0.917540 0.940734 0.946410
0.918914 0.941100 0.946654
0.927855 0.944396 0.949279
0.941924 0.949889 0.953674
0.962646 0.959594 0.962280
