20 Preset/City Style/【3】LUT video cho PR-AE-FCPX/TONE 2/Darky Street.cube
# Created by Adobe Lightroom plugin Export LUT (1.24.0)
# www.johnrellis.com/lightroom/exportlut.htm
# Preset: Darky Street
# Color profile: E:\lut插件\exportlut.1.24\exportlut.lrplugin\color profiles\Rec709gamma2.4.icc
LUT_3D_SIZE 8
DOMAIN_MIN 0.000000 0.000000 0.000000
DOMAIN_MAX 0.903226 0.903226 0.903226
0.000000 0.125673 0.152224
0.043366 0.130526 0.157351
0.118624 0.142275 0.170199
0.063874 0.156283 0.183810
0.011902 0.162539 0.190188
0.162509 0.158328 0.186252
0.338384 0.133394 0.174746
0.615229 0.000000 0.167361
0.025666 0.142672 0.169986
0.060761 0.144930 0.165682
0.117800 0.147677 0.167330
0.078706 0.153902 0.181186
0.008148 0.161318 0.189731
0.144289 0.161166 0.187594
0.303807 0.145357 0.176791
0.547448 0.025330 0.165927
0.088228 0.161563 0.189303
0.087831 0.161776 0.189456
0.066407 0.159243 0.190249
0.009491 0.156893 0.189731
0.093324 0.162600 0.189761
0.211215 0.166415 0.182467
0.419745 0.158206 0.166110
0.678431 0.126497 0.150271
0.053498 0.151308 0.178958
0.052827 0.151125 0.178622
0.051148 0.151156 0.178470
0.116152 0.163546 0.176669
0.265843 0.194583 0.170077
0.382025 0.224369 0.157534
0.549767 0.249180 0.135958
0.762570 0.264988 0.108553
0.124819 0.184482 0.211795
0.122103 0.182864 0.210178
0.116976 0.179171 0.206668
0.141604 0.188998 0.202029
0.261326 0.231907 0.184604
0.492927 0.289677 0.140047
0.640528 0.342748 0.089296
0.829343 0.422187 0.000000
0.238437 0.269474 0.293858
0.249424 0.279362 0.303319
0.240391 0.271305 0.295537
0.224491 0.257572 0.282414
0.302922 0.301701 0.264866
0.494697 0.398871 0.226200
0.796933 0.488746 0.111421
0.966735 0.554498 0.000000
0.432013 0.462776 0.483497
0.435279 0.465949 0.486580
0.420844 0.451759 0.472786
0.400214 0.431006 0.452461
0.375738 0.403174 0.417487
0.551965 0.515251 0.397162
0.777829 0.616205 0.357427
0.967529 0.661677 0.285039
0.776181 0.752499 0.752834
0.774655 0.751186 0.751614
0.772885 0.749660 0.750240
0.773770 0.750454 0.750942
0.687922 0.680507 0.686702
0.751797 0.721645 0.688014
0.877256 0.796628 0.689387
0.958495 0.824918 0.662867
0.017914 0.132937 0.167819
0.032288 0.135134 0.165377
0.118715 0.141146 0.175113
0.044800 0.161776 0.188968
0.000000 0.162417 0.189761
0.139773 0.157504 0.185275
0.280217 0.141970 0.177066
0.489754 0.069673 0.168826
0.021637 0.147127 0.174685
0.056092 0.152224 0.179812
0.100038 0.157137 0.184329
0.032441 0.161440 0.189334
0.006714 0.161715 0.189670
0.141543 0.158114 0.185336
0.270451 0.146426 0.177462
0.457252 0.105013 0.168856
0.084138 0.160250 0.187808
0.084749 0.160433 0.187930
0.062501 0.158572 0.189731
0.005554 0.157534 0.190585
0.085786 0.160739 0.188357
0.187015 0.162203 0.181765
0.329381 0.155306 0.172366
0.544060 0.129488 0.161746
0.050843 0.151156 0.178653
0.051850 0.150942 0.178500
0.051850 0.150942 0.178500
0.092256 0.156863 0.178164
0.188052 0.174716 0.176608
0.280980 0.193545 0.170016
0.414313 0.205600 0.158785
0.617853 0.219059 0.140871
0.123873 0.183658 0.211124
0.120058 0.181308 0.208682
0.112551 0.176638 0.204044
0.124666 0.179995 0.197726
0.220340 0.210239 0.182834
0.417548 0.254398 0.154238
0.559258 0.304326 0.123934
0.747860 0.379187 0.000000
0.223697 0.256901 0.281712
0.222385 0.255955 0.280827
0.215854 0.250492 0.275578
0.205020 0.241764 0.267094
0.274876 0.279789 0.254459
0.461952 0.375738 0.224826
0.758724 0.464790 0.125734
0.933165 0.527428 0.000000
0.395392 0.426123 0.447669
0.387060 0.417609 0.439307
0.373297 0.403265 0.425147
0.359533 0.388952 0.411078
0.342138 0.370001 0.389593
0.507469 0.478401 0.370428
0.723751 0.573754 0.322087
0.934661 0.623499 0.233982
0.734768 0.718257 0.721279
0.741054 0.723354 0.725948
0.736934 0.719966 0.722835
0.737942 0.720821 0.723629
0.728969 0.713527 0.716945
0.760372 0.729854 0.699367
0.871794 0.791318 0.683803
0.955688 0.820523 0.655970
0.087037 0.149752 0.191135
0.094362 0.153262 0.190433
0.095216 0.158206 0.188724
0.020996 0.159304 0.182162
0.106264 0.157595 0.187472
0.196658 0.138552 0.178225
0.343847 0.117525 0.182010
0.563470 0.000000 0.189609
0.085054 0.160372 0.188693
0.087587 0.161624 0.188998
0.083589 0.162631 0.189364
0.000000 0.164553 0.185275
0.104097 0.153964 0.183536
0.189303 0.142580 0.178164
0.330053 0.124941 0.180148
0.535302 0.000000 0.185550
0.085328 0.156161 0.184085
0.079561 0.155184 0.182956
0.056092 0.152224 0.179812
0.063966 0.151888 0.179171
0.136507 0.151797 0.177768
0.239811 0.150637 0.177523
0.380713 0.141085 0.179232
0.586847 0.101869 0.182559
0.079683 0.158175 0.185885
0.083558 0.160098 0.187686
0.085176 0.160586 0.188235
0.121218 0.169375 0.183658
0.234134 0.186587 0.176608
0.334722 0.203159 0.171572
0.478767 0.210513 0.170382
0.679805 0.219547 0.167330
0.165011 0.211643 0.238224
0.162387 0.209995 0.236576
0.154482 0.204623 0.231327
0.146151 0.198276 0.224247
0.262760 0.242496 0.207645
0.461006 0.284916 0.174868
0.594781 0.328466 0.145846
0.780331 0.385199 0.092439
0.263432 0.292180 0.315740
0.263157 0.291966 0.315618
0.254643 0.284092 0.307927
0.239292 0.270359 0.294621
0.281254 0.292699 0.279423
0.471015 0.392981 0.257084
0.780850 0.484565 0.188815
0.939605 0.544518 0.132082
0.447089 0.477363 0.497566
0.439094 0.469703 0.490181
0.418891 0.449775 0.470893
0.396307 0.427070 0.448615
0.368750 0.398596 0.420569
0.518669 0.497200 0.407660
0.751461 0.605982 0.382025
0.956237 0.658259 0.330480
0.754391 0.734310 0.736019
0.749081 0.729946 0.731991
0.743587 0.725429 0.727871
0.753201 0.733333 0.735134
0.742885 0.724880 0.727352
0.764920 0.737240 0.717983
0.875700 0.802029 0.708949
0.955596 0.831022 0.686458
0.062959 0.163241 0.180484
0.054597 0.163577 0.180301
0.045655 0.161074 0.182223
0.024872 0.159426 0.181827
0.161074 0.153628 0.203799
0.335576 0.084779 0.231571
0.458717 0.000000 0.220615
0.622889 0.000000 0.220584
0.062715 0.161898 0.177371
0.054047 0.161105 0.177676
0.038636 0.157534 0.179110
0.033631 0.155459 0.179843
0.183383 0.146456 0.207828
0.338750 0.069947 0.226291
0.451820 0.000000 0.216587
0.612329 0.000000 0.218967
0.059571 0.155154 0.184268
0.050202 0.153353 0.184787
0.063813 0.150454 0.183810
0.084077 0.151492 0.182040
0.253544 0.123873 0.221927
0.356481 0.106264 0.218265
0.493141 0.063539 0.228336
0.646876 0.099977 0.257389
0.049500 0.172335 0.198856
0.061921 0.173922 0.200351
0.104036 0.183139 0.209384
0.154788 0.204593 0.231449
0.252781 0.209720 0.226658
0.360937 0.211704 0.229740
0.505577 0.213870 0.235813
0.702663 0.212741 0.246555
0.227298 0.259922 0.284672
0.228183 0.260868 0.285466
0.242649 0.273289 0.297459
0.250980 0.280735 0.304692
0.326543 0.314031 0.286503
0.523186 0.353460 0.257267
0.650935 0.382513 0.224002
0.823239 0.392798 0.230594
0.367437 0.397192 0.419226
0.384619 0.414984 0.436744
0.375769 0.405859 0.427710
0.354192 0.383398 0.405585
0.334081 0.359319 0.373663
0.532525 0.467384 0.355077
0.835050 0.544762 0.323003
0.947143 0.581598 0.290196
0.541650 0.561700 0.577386
0.541375 0.561456 0.577173
0.531090 0.552728 0.569024
0.510430 0.534905 0.552300
0.472999 0.501488 0.520745
0.558648 0.549706 0.497261
0.780697 0.651362 0.480537
0.970703 0.701686 0.461524
0.809934 0.781704 0.780087
0.808225 0.780148 0.778653
0.803128 0.775692 0.774441
0.797086 0.770413 0.769467
0.784115 0.759182 0.759060
0.766629 0.744442 0.745388
0.876738 0.813687 0.741878
0.954955 0.847959 0.733608
0.074678 0.157382 0.184756
0.076356 0.156161 0.185214
0.075532 0.152865 0.183993
0.071504 0.150423 0.180758
0.115053 0.148104 0.187442
0.331029 0.072602 0.257694
0.706142 0.000000 0.425971
0.848631 0.000000 0.391516
0.087984 0.152712 0.192599
0.090211 0.151766 0.193118
0.093324 0.149874 0.190341
0.087678 0.150881 0.183993
0.127413 0.148562 0.191501
0.350896 0.032441 0.265934
0.704250 0.000000 0.418158
0.843748 0.000000 0.384253
0.075502 0.149264 0.223819
0.090150 0.149447 0.222660
0.116548 0.150484 0.216770
0.130648 0.159365 0.206058
0.162417 0.160922 0.209903
0.397253 0.000000 0.290227
0.666102 0.000000 0.375189
0.797299 0.000000 0.348852
0.000000 0.190158 0.266606
0.000000 0.190768 0.269047
0.000000 0.194644 0.282963
0.198642 0.208988 0.287327
0.249821 0.230198 0.276982
0.542046 0.106447 0.384222
0.641718 0.101350 0.349981
0.765499 0.023926 0.342107
0.166354 0.283604 0.303777
0.176303 0.288853 0.308659
0.215000 0.306737 0.325872
0.290318 0.343359 0.362890
0.357763 0.387121 0.409186
0.487037 0.386847 0.381445
0.623682 0.375219 0.372717
0.787015 0.371954 0.373510
0.373754 0.403815 0.425696
0.377264 0.407446 0.429328
0.381903 0.412177 0.433997
0.403449 0.434363 0.455787
0.408057 0.438941 0.460243
0.536675 0.512169 0.463142
0.801144 0.578729 0.458381
0.914855 0.595697 0.408301
0.598993 0.609125 0.621302
0.594873 0.605737 0.618158
0.592340 0.603662 0.616266
0.606256 0.615045 0.626703
0.572290 0.587213 0.601068
0.542718 0.558404 0.560327
0.769619 0.670253 0.555200
0.967285 0.718502 0.546685
0.815610 0.786801 0.784878
0.815152 0.786404 0.784482
0.809506 0.781338 0.779751
0.815213 0.786435 0.784543
0.803861 0.776333 0.775021
0.784573 0.759579 0.759396
0.853208 0.801846 0.750362
0.942687 0.843778 0.744289
0.148623 0.141604 0.243931
0.152804 0.141299 0.244022
0.160830 0.142275 0.237613
0.171023 0.149172 0.228916
0.142275 0.175296 0.212741
0.252415 0.154971 0.243687
0.558221 0.000000 0.376501
0.988251 0.000000 0.607202
0.145937 0.142245 0.245609
0.148745 0.142245 0.244297
0.158999 0.143526 0.238773
0.171572 0.150271 0.230442
0.142336 0.174777 0.212650
0.245548 0.157565 0.241611
0.543145 0.000000 0.368780
0.974212 0.000000 0.598322
0.168734 0.149691 0.303685
0.175753 0.149996 0.301030
0.200870 0.153109 0.293126
0.218631 0.163455 0.271061
0.194553 0.196262 0.243992
0.291630 0.183902 0.273716
0.616114 0.000000 0.418311
1.000000 0.000000 0.624598
0.000000 0.190097 0.407599
0.000000 0.192813 0.405371
0.184054 0.208804 0.406897
0.303868 0.227939 0.397467
0.341131 0.275792 0.362036
0.410193 0.287388 0.379706
0.779629 0.000000 0.540368
1.000000 0.000000 0.638636
0.000000 0.327276 0.444068
0.000000 0.328893 0.446845
0.000000 0.337682 0.462165
0.000000 0.355596 0.497871
0.409461 0.393133 0.513664
0.492317 0.437476 0.494575
0.864225 0.333440 0.629450
0.946929 0.332280 0.575830
0.305669 0.485054 0.498573
0.322759 0.497108 0.510002
0.359594 0.511955 0.524102
0.432044 0.542382 0.553063
0.541131 0.585779 0.596094
0.646204 0.647181 0.656214
0.784817 0.649287 0.635248
0.893523 0.627436 0.617060
0.694087 0.685451 0.691249
0.701228 0.691188 0.696468
0.707576 0.696254 0.701137
0.720241 0.706447 0.710445
0.738827 0.721523 0.724300
0.723842 0.709377 0.713130
0.807248 0.745571 0.695857
0.948150 0.778836 0.693507
0.842679 0.811795 0.808652
0.840604 0.809812 0.806790
0.839933 0.809201 0.806149
0.845945 0.814878 0.811643
0.851682 0.820401 0.816953
0.833646 0.803311 0.800534
0.832334 0.797910 0.782162
0.933074 0.854032 0.784482
0.255802 0.125856 0.352850
0.263188 0.125948 0.354955
0.275975 0.130678 0.346715
0.296452 0.144594 0.334203
0.293095 0.179507 0.306188
0.217441 0.239811 0.270573
0.410254 0.172854 0.334325
0.741238 0.000000 0.490883
0.247196 0.129976 0.348547
0.255161 0.130098 0.351629
0.269078 0.134127 0.344030
0.286534 0.146609 0.328283
0.285130 0.177707 0.301244
0.210819 0.232486 0.264439
0.385718 0.172519 0.319677
0.700343 0.000000 0.466407
0.269932 0.142824 0.408301
0.275822 0.143496 0.406104
0.294194 0.147799 0.393774
0.320775 0.161685 0.373724
0.328313 0.194369 0.341314
0.256687 0.257939 0.295628
0.436774 0.208774 0.362127
0.787015 0.000000 0.526421
0.248539 0.197971 0.521263
0.260227 0.197086 0.514366
0.305913 0.198978 0.498970
0.372534 0.212741 0.479133
0.414893 0.247929 0.441749
0.365270 0.326940 0.384771
0.531731 0.303471 0.453132
0.888121 0.000000 0.606989
0.000000 0.307378 0.599023
0.000000 0.300664 0.594995
0.000000 0.282444 0.593011
0.271885 0.312047 0.596033
0.462959 0.343481 0.567407
0.503410 0.412451 0.513512
0.603815 0.434791 0.543481
0.962158 0.328588 0.692439
0.000000 0.519310 0.637354
0.000000 0.521721 0.640101
0.000000 0.528099 0.648737
0.000000 0.540276 0.666529
0.307408 0.553338 0.693538
0.658900 0.606683 0.710750
0.755001 0.665797 0.704616
0.991852 0.628626 0.792844
0.556268 0.708400 0.704768
0.566796 0.712459 0.708583
0.593713 0.720027 0.715755
0.648798 0.737087 0.732204
0.719905 0.760250 0.755001
0.802213 0.791775 0.787167
0.852537 0.821256 0.817777
0.913420 0.810239 0.795041
0.868650 0.837156 0.833219
0.869657 0.838132 0.834165
0.875181 0.843778 0.839689
0.880278 0.849027 0.844846
0.885588 0.854582 0.850309
0.891752 0.861143 0.856779
0.884276 0.853208 0.848936
0.928466 0.877317 0.842985
0.452766 0.064424 0.573754
0.460121 0.073152 0.574975
0.469306 0.097322 0.559808
0.496986 0.133822 0.545159
0.514977 0.193729 0.515282
0.470558 0.283787 0.451423
0.380194 0.376013 0.412543
0.663691 0.230900 0.508415
0.438483 0.089143 0.565209
0.446326 0.092073 0.566796
0.460517 0.106203 0.556115
0.486305 0.137697 0.539055
0.505150 0.193301 0.509117
0.464302 0.279332 0.446815
0.367132 0.368139 0.402258
0.642634 0.226352 0.494514
0.439185 0.127504 0.593622
0.445258 0.129397 0.592370
0.461707 0.137606 0.580072
0.505974 0.165713 0.574090
0.528313 0.213687 0.540002
0.493568 0.292851 0.475990
0.373754 0.394415 0.420172
0.659449 0.262455 0.513603
0.420050 0.193332 0.650111
0.430640 0.195499 0.650263
0.461921 0.200168 0.640681
0.517845 0.219120 0.627955
0.569024 0.260227 0.600671
0.573938 0.334264 0.552667
0.444892 0.449714 0.482002
0.711452 0.349065 0.566857
0.221134 0.287877 0.723476
0.259892 0.293462 0.724941
0.354650 0.298192 0.716243
0.472267 0.306035 0.701472
0.581476 0.332464 0.674434
0.641444 0.393652 0.631739
0.556695 0.506279 0.561364
0.765255 0.467170 0.631556
0.000000 0.486305 0.773861
0.000000 0.481514 0.772152
0.000000 0.466743 0.770047
0.000000 0.435737 0.771206
0.432380 0.458015 0.768521
0.700130 0.526604 0.750271
0.756558 0.630152 0.711604
0.850340 0.661494 0.742458
0.349096 0.742733 0.815091
0.354284 0.742367 0.815152
0.378790 0.741329 0.816098
0.437232 0.742916 0.820981
0.519738 0.744900 0.829282
0.626459 0.745968 0.842893
0.848905 0.779416 0.840543
0.895171 0.817472 0.834348
0.794644 0.853391 0.845304
0.795743 0.853361 0.845274
0.803647 0.855131 0.847166
0.822416 0.860716 0.853086
0.847349 0.868528 0.861357
0.877928 0.880400 0.873777
0.913176 0.897734 0.892180
0.937896 0.914458 0.910582
