20 Preset/City Style/【3】LUT video cho PR-AE-FCPX/TONE 2/Darky Timing Attacks.cube
# Created by Adobe Lightroom plugin Export LUT (1.24.0)
# www.johnrellis.com/lightroom/exportlut.htm
# Preset: Darky Timing Attacks
# Color profile: E:\lut插件\exportlut.1.24\exportlut.lrplugin\color profiles\Rec709gamma2.4.icc
LUT_3D_SIZE 32
DOMAIN_MIN 0.0 0.0 0.0
DOMAIN_MAX 1.0 1.0 1.0
0.000000 0.080598 0.100526
0.000000 0.084382 0.103853
0.000000 0.093233 0.113161
0.000000 0.106905 0.130068
0.000000 0.120302 0.145815
0.000000 0.121462 0.148196
0.000000 0.116579 0.142794
0.035950 0.115969 0.139406
0.115755 0.121889 0.143862
0.175906 0.134157 0.155398
0.246616 0.151980 0.172610
0.323064 0.177066 0.195499
0.400885 0.210513 0.223819
0.531914 0.282719 0.283299
0.649348 0.359442 0.351263
0.742580 0.429023 0.417121
0.813687 0.491188 0.477119
0.865812 0.546227 0.529747
0.903624 0.596551 0.577874
0.931243 0.643427 0.622278
0.950561 0.685115 0.662196
0.963958 0.720607 0.696773
0.973114 0.749172 0.725063
0.979797 0.773709 0.750088
0.984619 0.794766 0.772091
0.988159 0.813413 0.791836
0.990814 0.830625 0.810391
0.992737 0.846708 0.827909
0.993957 0.861997 0.844816
0.994720 0.876493 0.860960
0.995056 0.890135 0.876280
0.995087 0.902708 0.890471
0.000000 0.086488 0.105409
0.000000 0.086824 0.102541
0.000000 0.094789 0.112612
0.003601 0.107729 0.129702
0.000000 0.120058 0.145632
0.000000 0.121462 0.148623
0.000000 0.117220 0.143404
0.028717 0.115877 0.139437
0.110414 0.120821 0.142489
0.168246 0.131838 0.152621
0.235233 0.148440 0.168490
0.309483 0.171389 0.189761
0.385931 0.202884 0.216648
0.509850 0.268345 0.270237
0.620722 0.338231 0.330816
0.713497 0.404669 0.392706
0.788540 0.466316 0.451789
0.845640 0.521813 0.505486
0.888396 0.573327 0.554925
0.920073 0.621027 0.600275
0.942077 0.663996 0.641352
0.957366 0.701137 0.677333
0.967956 0.731258 0.706905
0.975677 0.757504 0.733333
0.981476 0.780148 0.756680
0.985809 0.800351 0.777859
0.989136 0.819150 0.798032
0.991608 0.836881 0.817197
0.993317 0.853544 0.835508
0.994354 0.869383 0.853056
0.994903 0.884215 0.869688
0.995026 0.897887 0.885008
0.000000 0.100374 0.121004
0.000000 0.102266 0.119326
0.031739 0.100649 0.109468
0.034943 0.110048 0.126986
0.000000 0.119875 0.145235
0.000000 0.120760 0.148714
0.000000 0.117708 0.143771
0.039460 0.116762 0.139528
0.114626 0.121279 0.141238
0.171298 0.131441 0.150118
0.236393 0.146853 0.164675
0.308629 0.168673 0.184939
0.386481 0.199893 0.211276
0.503990 0.261418 0.261143
0.607935 0.325475 0.315770
0.697047 0.387823 0.373144
0.772335 0.447486 0.430274
0.832670 0.503807 0.485206
0.878508 0.556085 0.535973
0.913268 0.605463 0.583612
0.937743 0.650324 0.626703
0.954437 0.689326 0.664607
0.965820 0.720974 0.695796
0.974060 0.748409 0.723384
0.980224 0.771939 0.747585
0.984894 0.792874 0.769558
0.988556 0.812497 0.790555
0.991241 0.831113 0.810666
0.993164 0.848692 0.829984
0.994385 0.865232 0.848295
0.994995 0.880705 0.865599
0.995209 0.894835 0.881529
0.000000 0.118257 0.141878
0.000000 0.118990 0.141085
0.006714 0.119539 0.136782
0.032013 0.111727 0.126284
0.000000 0.116457 0.142550
0.000000 0.119722 0.149264
0.000000 0.118990 0.144472
0.073640 0.119509 0.139345
0.130434 0.123690 0.139590
0.185458 0.133089 0.147036
0.248508 0.147433 0.160464
0.317601 0.168399 0.179019
0.405402 0.203830 0.207919
0.509514 0.258030 0.251164
0.602380 0.314916 0.298985
0.684565 0.370947 0.349706
0.755154 0.425696 0.402411
0.814847 0.478218 0.454200
0.862425 0.529015 0.504723
0.900053 0.577630 0.552667
0.927733 0.623133 0.597192
0.947295 0.664240 0.637598
0.961028 0.699611 0.672572
0.971069 0.731258 0.704463
0.978637 0.758907 0.732784
0.984253 0.783780 0.758938
0.988556 0.806394 0.783230
0.991608 0.826993 0.805570
0.993652 0.845884 0.826383
0.994812 0.863127 0.845609
0.995392 0.878691 0.863066
0.995544 0.892607 0.878752
0.000000 0.121675 0.148745
0.000000 0.121431 0.148775
0.000000 0.120211 0.149111
0.000000 0.117708 0.148348
0.000000 0.115755 0.141024
0.001343 0.123140 0.147890
0.051820 0.125368 0.145937
0.106600 0.125399 0.139284
0.148867 0.129000 0.137423
0.201724 0.137179 0.142123
0.261570 0.149599 0.153017
0.327398 0.168643 0.169375
0.421180 0.205966 0.198032
0.511406 0.252262 0.234348
0.596399 0.302831 0.275914
0.676020 0.355474 0.323461
0.747250 0.409186 0.375006
0.809171 0.462928 0.429450
0.858885 0.514549 0.482368
0.897795 0.564202 0.533043
0.926665 0.610193 0.579217
0.947112 0.651942 0.621118
0.961242 0.689326 0.658961
0.971801 0.722805 0.693202
0.979614 0.752407 0.723903
0.985412 0.778805 0.751980
0.989654 0.802365 0.777584
0.992615 0.823575 0.800839
0.994507 0.842832 0.822171
0.995636 0.860227 0.841703
0.996094 0.876005 0.859556
0.996155 0.890135 0.875608
0.000000 0.115816 0.143282
0.000000 0.115541 0.143526
0.000000 0.115023 0.144503
0.000000 0.115938 0.146151
0.000000 0.121920 0.148074
0.101900 0.133639 0.146212
0.157839 0.141421 0.144717
0.183383 0.140780 0.138277
0.212985 0.141665 0.133089
0.245243 0.148562 0.136080
0.294285 0.160830 0.145693
0.375067 0.185946 0.163638
0.457832 0.220401 0.188998
0.539178 0.262119 0.221714
0.619409 0.308965 0.261112
0.694697 0.359075 0.307683
0.763577 0.411353 0.360082
0.823362 0.464057 0.415778
0.871031 0.515618 0.471168
0.907683 0.564630 0.523369
0.934630 0.610285 0.571130
0.953704 0.652247 0.614984
0.991608 0.780423 0.748714
0.994537 0.801907 0.772915
0.996460 0.820371 0.793942
0.997589 0.836942 0.812924
0.998230 0.851743 0.829953
0.998444 0.865385 0.845701
0.998383 0.877958 0.860288
0.998047 0.889677 0.873899
0.997589 0.900359 0.886290
0.997101 0.909880 0.897398
0.000000 0.119051 0.140414
0.000000 0.119295 0.140139
0.000000 0.121614 0.139620
0.030091 0.127016 0.138186
0.095247 0.137087 0.137026
0.157839 0.152102 0.136324
0.269291 0.172702 0.133852
0.346441 0.181430 0.122988
0.365850 0.178622 0.116213
0.406989 0.189151 0.116945
0.465553 0.215579 0.131716
0.523491 0.251652 0.160433
0.591638 0.292302 0.196292
0.670588 0.335912 0.238285
0.740566 0.381598 0.287266
0.800595 0.427893 0.340368
0.851438 0.475227 0.396887
0.892180 0.522026 0.453620
0.924559 0.569116 0.508598
0.949462 0.616419 0.562371
0.967834 0.662898 0.613977
0.980621 0.706538 0.662318
0.989105 0.745083 0.705226
0.994507 0.777523 0.742000
0.997681 0.803891 0.772457
0.999359 0.824704 0.796719
0.999969 0.842008 0.817044
1.000000 0.856962 0.834592
0.999878 0.870634 0.850736
0.999481 0.882994 0.865293
0.998871 0.894408 0.878721
0.998199 0.904723 0.890898
0.030457 0.134188 0.147829
0.034577 0.134829 0.147494
0.056489 0.138125 0.145937
0.096010 0.144747 0.142641
0.134157 0.155947 0.137148
0.190829 0.171237 0.130007
0.272923 0.189395 0.120760
0.424628 0.223178 0.098177
0.534905 0.246311 0.019074
0.565728 0.251591 0.016022
0.601007 0.266545 0.060121
0.638758 0.288945 0.109865
0.674281 0.317967 0.154025
0.708064 0.351720 0.201205
0.749874 0.387945 0.249668
0.804196 0.425879 0.299596
0.852201 0.467170 0.355169
0.892302 0.510002 0.412757
0.925109 0.554498 0.470924
0.950866 0.600183 0.527703
0.969970 0.646021 0.582635
0.983368 0.690150 0.634363
0.991943 0.730282 0.681331
0.997375 0.764553 0.721675
1.000000 0.792660 0.755184
1.000000 0.815183 0.782406
1.000000 0.833768 0.804868
1.000000 0.849912 0.824399
1.000000 0.864500 0.841947
1.000000 0.877745 0.857877
1.000000 0.889830 0.872404
0.999603 0.900816 0.885527
0.107149 0.159274 0.161624
0.109773 0.160037 0.161105
0.120150 0.163851 0.159121
0.145541 0.173129 0.155764
0.188357 0.189151 0.149416
0.251377 0.211398 0.137697
0.336797 0.239048 0.116304
0.446296 0.268498 0.059358
0.608759 0.304112 0.000000
0.715236 0.325872 0.000000
0.735348 0.329992 0.000000
0.758358 0.342290 0.000000
0.780514 0.360296 0.070771
0.802396 0.383185 0.147280
0.822538 0.410376 0.204593
0.840421 0.441566 0.262699
0.866331 0.476661 0.321294
0.903471 0.513909 0.380255
0.934081 0.554376 0.441138
0.958282 0.596887 0.500664
0.976440 0.640284 0.557885
0.989136 0.682582 0.611841
0.997070 0.722133 0.661494
1.000000 0.756558 0.704372
1.000000 0.785306 0.740566
1.000000 0.808591 0.770016
1.000000 0.828061 0.794583
1.000000 0.844907 0.815671
1.000000 0.860166 0.834623
1.000000 0.873869 0.851560
1.000000 0.886473 0.867063
1.000000 0.897826 0.880919
0.189975 0.209964 0.191073
0.192325 0.211063 0.190249
0.202976 0.215366 0.187686
0.226047 0.225528 0.182559
0.262913 0.240940 0.173281
0.314031 0.261753 0.158267
0.382818 0.287572 0.133516
0.472145 0.316106 0.086519
0.582605 0.341436 0.000000
0.740688 0.369970 0.000000
0.834287 0.387915 0.000000
0.846342 0.390600 0.000000
0.860014 0.400214 0.000000
0.874235 0.415534 0.000000
0.889311 0.436500 0.148348
0.904479 0.461707 0.215000
0.920104 0.492988 0.280491
0.932647 0.528496 0.349676
0.948852 0.566125 0.416175
0.970459 0.604669 0.479164
0.985809 0.642939 0.537224
0.996185 0.679805 0.590417
1.000000 0.714748 0.638941
1.000000 0.746304 0.681819
1.000000 0.773678 0.718746
1.000000 0.797116 0.750210
1.000000 0.817685 0.777340
1.000000 0.836027 0.801389
1.000000 0.852750 0.822904
1.000000 0.867918 0.842222
1.000000 0.881743 0.859648
1.000000 0.894194 0.875212
0.252934 0.254459 0.216556
0.255100 0.255619 0.215915
0.264561 0.260136 0.213382
0.284611 0.270176 0.208072
0.316381 0.285679 0.198825
0.361639 0.306828 0.184146
0.422156 0.332738 0.160555
0.500328 0.361883 0.121370
0.596307 0.389807 0.000000
0.710323 0.411231 0.000000
0.854520 0.434699 0.000000
0.931334 0.449134 0.000000
0.938384 0.451362 0.000000
0.946319 0.459998 0.000000
0.954772 0.474250 0.000000
0.963867 0.493935 0.167758
0.972625 0.518334 0.244877
0.980438 0.546380 0.313695
0.985718 0.577752 0.382635
0.988708 0.611810 0.450111
0.994232 0.646235 0.511742
1.000000 0.679683 0.567132
1.000000 0.712276 0.618067
1.000000 0.742702 0.663874
1.000000 0.769619 0.703334
1.000000 0.793057 0.737057
1.000000 0.813748 0.766262
1.000000 0.832364 0.792020
1.000000 0.849424 0.815091
1.000000 0.865019 0.835752
1.000000 0.879210 0.854307
1.000000 0.892027 0.870787
0.317021 0.307622 0.249027
0.318975 0.308690 0.248569
0.328283 0.314031 0.245975
0.346014 0.323796 0.241032
0.374823 0.339086 0.232059
0.415930 0.360296 0.218357
0.471290 0.386358 0.197696
0.542382 0.415412 0.164828
0.629816 0.444343 0.104738
0.729213 0.468849 0.000000
0.833646 0.484382 0.000000
0.949889 0.500237 0.000000
1.000000 0.586694 0.000000
1.000000 0.591058 0.000000
1.000000 0.599908 0.114870
1.000000 0.612940 0.244022
1.000000 0.629725 0.329320
1.000000 0.649378 0.401617
1.000000 0.671260 0.465278
1.000000 0.694606 0.521996
1.000000 0.720241 0.577905
1.000000 0.745480 0.628229
1.000000 0.768612 0.671839
1.000000 0.789334 0.709194
1.000000 0.808042 0.741238
1.000000 0.824643 0.768582
1.000000 0.839536 0.792020
1.000000 0.853147 0.812619
1.000000 0.865873 0.831235
1.000000 0.877928 0.848295
1.000000 0.889250 0.863920
1.000000 0.899901 0.878264
0.439368 0.421729 0.329290
0.440589 0.422065 0.328344
0.446937 0.424933 0.323919
0.461982 0.432258 0.316442
0.485969 0.443763 0.304845
0.521996 0.460029 0.288396
0.571435 0.481117 0.266636
0.635584 0.505821 0.237583
0.713649 0.532158 0.196933
0.801480 0.557794 0.130922
0.890471 0.577996 0.000000
0.971527 0.589197 0.000000
1.000000 0.599298 0.000000
1.000000 0.606806 0.000000
1.000000 0.615686 0.000000
1.000000 0.626154 0.158419
1.000000 0.639002 0.270939
1.000000 0.654414 0.352422
1.000000 0.672297 0.421729
1.000000 0.691920 0.482521
1.000000 0.712673 0.536553
1.000000 0.734768 0.587304
1.000000 0.758206 0.636774
1.000000 0.780240 0.679927
1.000000 0.799741 0.716732
1.000000 0.816983 0.748043
1.000000 0.832670 0.774960
1.000000 0.847227 0.798703
1.000000 0.860899 0.819944
1.000000 0.873838 0.839231
1.000000 0.885863 0.856657
1.000000 0.897093 0.872404
0.488899 0.467872 0.367559
0.488930 0.467475 0.366064
0.494026 0.469337 0.361151
0.506523 0.474800 0.353826
0.526390 0.483314 0.343053
0.557458 0.496956 0.327977
0.600397 0.515068 0.309697
0.655695 0.536980 0.286809
0.723262 0.561700 0.257420
0.799771 0.586938 0.218479
0.877775 0.609155 0.163699
0.951080 0.625238 0.000000
1.000000 0.631373 0.000000
1.000000 0.635157 0.000000
1.000000 0.636835 0.000000
1.000000 0.643732 0.000000
1.000000 0.652644 0.205936
1.000000 0.664179 0.304021
1.000000 0.678553 0.381384
1.000000 0.694972 0.447242
1.000000 0.713161 0.505180
1.000000 0.732692 0.557580
1.000000 0.752346 0.604608
1.000000 0.774289 0.653101
1.000000 0.794675 0.694545
1.000000 0.813321 0.730312
1.000000 0.829374 0.760494
1.000000 0.844053 0.786679
1.000000 0.857908 0.809995
1.000000 0.871183 0.831052
1.000000 0.883604 0.850004
1.000000 0.895232 0.867124
0.542412 0.516533 0.411505
0.543450 0.516808 0.410498
0.547875 0.518120 0.406500
0.557824 0.521935 0.399237
0.575372 0.529046 0.389044
0.601465 0.539696 0.375616
0.638544 0.555077 0.359930
0.686366 0.574243 0.341497
0.744900 0.596979 0.319219
0.809964 0.620203 0.293248
0.877165 0.641962 0.261051
0.940887 0.659815 0.220310
0.997253 0.670100 0.156558
1.000000 0.669978 0.000000
1.000000 0.666743 0.000000
1.000000 0.662379 0.000000
1.000000 0.668635 0.116030
1.000000 0.677028 0.254978
1.000000 0.688319 0.342809
1.000000 0.701717 0.414343
1.000000 0.717250 0.476783
1.000000 0.734493 0.532311
1.000000 0.752346 0.581872
1.000000 0.770626 0.627008
1.000000 0.790127 0.671565
1.000000 0.808865 0.711116
1.000000 0.826383 0.745388
1.000000 0.842802 0.775631
1.000000 0.857206 0.801785
1.000000 0.871092 0.825376
1.000000 0.884215 0.846555
1.000000 0.896422 0.865354
0.593164 0.560632 0.454200
0.594873 0.561486 0.453681
0.600183 0.563928 0.451514
0.611200 0.569085 0.447333
0.628504 0.576837 0.440314
0.654353 0.588464 0.431403
0.689540 0.604364 0.421302
0.733150 0.623316 0.409064
0.783291 0.644221 0.394324
0.836637 0.664607 0.377050
0.890105 0.682795 0.354833
0.940581 0.697261 0.326696
0.986419 0.706050 0.289555
1.000000 0.707149 0.237003
1.000000 0.699489 0.154635
1.000000 0.689723 0.000000
1.000000 0.681300 0.000000
1.000000 0.687617 0.186099
1.000000 0.696345 0.295109
1.000000 0.707790 0.376867
1.000000 0.721767 0.446235
1.000000 0.737514 0.506920
1.000000 0.754299 0.560632
1.000000 0.771633 0.609033
1.000000 0.788968 0.652247
1.000000 0.807279 0.694545
1.000000 0.825132 0.732509
1.000000 0.841886 0.765682
1.000000 0.857603 0.794766
1.000000 0.871824 0.819944
1.000000 0.884398 0.841825
1.000000 0.896147 0.861112
0.641596 0.602075 0.496223
0.642695 0.602716 0.496071
0.648035 0.605005 0.494057
0.657679 0.609613 0.490883
0.673579 0.617243 0.486091
0.696742 0.628168 0.479805
0.726802 0.641932 0.472053
0.763394 0.658137 0.462745
0.804685 0.675593 0.451972
0.848478 0.693050 0.438514
0.893095 0.709438 0.422431
0.935790 0.723262 0.402655
0.975677 0.732876 0.377050
1.000000 0.736843 0.343572
1.000000 0.733883 0.298131
1.000000 0.722957 0.233005
1.000000 0.710475 0.135073
1.000000 0.699672 0.057710
1.000000 0.706935 0.248966
1.000000 0.716121 0.341466
1.000000 0.727962 0.416938
1.000000 0.741878 0.482124
1.000000 0.757229 0.539574
1.000000 0.773373 0.590845
1.000000 0.790005 0.637201
1.000000 0.806119 0.677699
1.000000 0.823697 0.718257
1.000000 0.840787 0.754696
1.000000 0.856809 0.786313
1.000000 0.871733 0.813840
1.000000 0.885588 0.838041
1.000000 0.897459 0.858549
0.697017 0.648859 0.544732
0.699245 0.650233 0.545129
0.762600 0.703120 0.599451
0.770230 0.706783 0.597375
0.782162 0.712337 0.593744
0.797848 0.719570 0.589044
0.818387 0.728878 0.582849
0.842924 0.739803 0.575769
0.870115 0.751858 0.568261
0.899687 0.764248 0.559167
0.929351 0.775601 0.548669
0.958679 0.784878 0.535271
0.986725 0.790494 0.517327
1.000000 0.792050 0.493385
1.000000 0.788571 0.461738
1.000000 0.779385 0.420020
1.000000 0.763485 0.364660
1.000000 0.745754 0.298589
1.000000 0.730434 0.260288
1.000000 0.737789 0.351659
1.000000 0.746975 0.424811
1.000000 0.758358 0.488228
1.000000 0.771267 0.544030
1.000000 0.784939 0.593683
1.000000 0.798734 0.637201
1.000000 0.812436 0.675776
1.000000 0.825772 0.709682
1.000000 0.841276 0.745785
1.000000 0.856565 0.778286
1.000000 0.871244 0.807095
1.000000 0.885008 0.832456
1.000000 0.897704 0.854643
0.761593 0.704677 0.606012
0.767208 0.709255 0.610651
0.775540 0.715328 0.614801
0.786130 0.722347 0.617914
0.799496 0.730190 0.618463
0.813931 0.737667 0.616175
0.831357 0.745907 0.611536
0.851347 0.755032 0.605585
0.874144 0.765347 0.599115
0.898802 0.776028 0.591669
0.924590 0.786313 0.583062
0.950317 0.795163 0.572320
0.975708 0.801450 0.557885
1.000000 0.804776 0.540215
1.000000 0.804257 0.516686
1.000000 0.799374 0.486366
1.000000 0.789578 0.447913
1.000000 0.774228 0.398962
1.000000 0.757473 0.343236
1.000000 0.741878 0.305089
1.000000 0.750393 0.388952
1.000000 0.760800 0.459388
1.000000 0.772671 0.519677
1.000000 0.785306 0.572137
1.000000 0.798367 0.618402
1.000000 0.811460 0.659174
1.000000 0.824430 0.695247
1.000000 0.837766 0.728756
1.000000 0.853239 0.764279
1.000000 0.868223 0.795743
1.000000 0.882444 0.823423
1.000000 0.895567 0.847410
0.789548 0.730434 0.637354
0.794858 0.734951 0.641932
0.802121 0.740444 0.646235
0.811307 0.746914 0.649561
0.822171 0.753689 0.650904
0.834257 0.760342 0.649439
0.848478 0.767269 0.645686
0.864714 0.775021 0.641016
0.883177 0.783597 0.635554
0.903441 0.792508 0.629175
0.924956 0.801419 0.622126
0.947082 0.809445 0.613550
0.968994 0.815702 0.602533
0.990600 0.819760 0.588800
1.000000 0.821042 0.571221
1.000000 0.818845 0.548760
1.000000 0.812802 0.520439
1.000000 0.802426 0.485084
1.000000 0.787167 0.440803
1.000000 0.770779 0.391852
1.000000 0.754238 0.351843
1.000000 0.763577 0.428901
1.000000 0.774472 0.494179
1.000000 0.786343 0.550713
1.000000 0.798581 0.599512
1.000000 0.811185 0.643061
1.000000 0.823606 0.680903
1.000000 0.836240 0.715419
1.000000 0.850156 0.749630
1.000000 0.865354 0.783810
1.000000 0.879850 0.813657
1.000000 0.893339 0.839597
0.817014 0.756863 0.670466
0.820920 0.760433 0.674434
0.826810 0.765133 0.677943
0.834012 0.770382 0.680751
0.842588 0.775937 0.681910
0.852323 0.781460 0.680751
0.863676 0.787320 0.678157
0.876982 0.793881 0.674342
0.892393 0.801236 0.669947
0.909117 0.808865 0.664912
0.927092 0.816678 0.659327
0.945892 0.823850 0.652461
0.964630 0.829862 0.643946
0.983429 0.834257 0.633570
1.000000 0.836545 0.620508
1.000000 0.836332 0.604059
1.000000 0.833585 0.584924
1.000000 0.827543 0.560967
1.000000 0.818112 0.532647
1.000000 0.804593 0.497932
1.000000 0.789700 0.460121
1.000000 0.773404 0.424109
1.000000 0.784482 0.494881
1.000000 0.796689 0.555535
1.000000 0.809476 0.608331
1.000000 0.822049 0.653376
1.000000 0.834379 0.692287
1.000000 0.846586 0.726711
1.000000 0.858824 0.757870
1.000000 0.873045 0.790860
1.000000 0.887022 0.820615
1.000000 0.899779 0.845975
0.859434 0.800534 0.726070
0.860990 0.801968 0.727474
0.863249 0.803677 0.728115
0.866850 0.805936 0.728054
0.871916 0.808774 0.726925
0.878264 0.811978 0.724758
0.886259 0.816037 0.721950
0.896208 0.820920 0.718654
0.907927 0.826688 0.715145
0.921233 0.833097 0.711513
0.935546 0.839597 0.707332
0.950500 0.845701 0.702419
0.965637 0.850828 0.696071
0.980987 0.854795 0.688319
0.996429 0.857115 0.678462
1.000000 0.857542 0.666285
1.000000 0.855894 0.651637
1.000000 0.851774 0.633631
1.000000 0.844846 0.611353
1.000000 0.834775 0.584375
1.000000 0.820920 0.551141
1.000000 0.805570 0.514641
1.000000 0.787045 0.471748
1.000000 0.797391 0.533104
1.000000 0.809018 0.587762
1.000000 0.821134 0.635615
1.000000 0.833341 0.677424
1.000000 0.845518 0.714382
1.000000 0.857664 0.747463
1.000000 0.870176 0.778286
1.000000 0.884428 0.810483
1.000000 0.897490 0.837797
0.877684 0.821408 0.754452
0.878721 0.822446 0.755581
0.880613 0.823941 0.756191
0.883635 0.825895 0.756191
0.887541 0.828214 0.755489
0.892729 0.830991 0.753872
0.899351 0.834440 0.751675
0.907408 0.838651 0.749050
0.916869 0.843473 0.746365
0.927825 0.848936 0.743435
0.939513 0.854490 0.740230
0.951965 0.859861 0.736324
0.964782 0.864591 0.731685
0.977813 0.868498 0.725948
0.990967 0.871183 0.718746
1.000000 0.872435 0.710018
1.000000 0.872099 0.699550
1.000000 0.869932 0.686976
1.000000 0.865599 0.671443
1.000000 0.858824 0.652522
1.000000 0.849180 0.629175
1.000000 0.835935 0.599512
1.000000 0.821164 0.566369
1.000000 0.802182 0.523308
1.000000 0.806729 0.559594
1.000000 0.817990 0.610040
1.000000 0.830076 0.655818
1.000000 0.842191 0.695888
1.000000 0.854246 0.731411
1.000000 0.866209 0.763088
1.000000 0.880186 0.796597
1.000000 0.893980 0.826932
0.900999 0.849546 0.792752
0.902281 0.850980 0.794369
0.903685 0.852049 0.794919
0.905333 0.852995 0.794186
0.907530 0.853849 0.792386
0.910674 0.855039 0.789670
0.914733 0.856504 0.786313
0.920073 0.858640 0.782528
0.926818 0.861448 0.778470
0.934722 0.864866 0.774472
0.943603 0.868437 0.770047
0.953460 0.872313 0.765591
0.963867 0.875853 0.760433
0.974762 0.878752 0.754391
0.985809 0.880674 0.746944
0.997345 0.881651 0.738430
1.000000 0.881559 0.728725
1.000000 0.880186 0.717769
1.000000 0.877562 0.705867
1.000000 0.873259 0.692164
1.000000 0.866758 0.675380
1.000000 0.857603 0.654536
1.000000 0.844785 0.626612
1.000000 0.829862 0.593286
1.000000 0.810422 0.548669
1.000000 0.817960 0.591791
1.000000 0.828733 0.637720
1.000000 0.839872 0.678401
1.000000 0.851347 0.715328
1.000000 0.862913 0.748379
1.000000 0.875334 0.780362
1.000000 0.889647 0.813718
0.910063 0.861875 0.811032
0.911192 0.863127 0.812467
0.912505 0.864317 0.813199
0.914153 0.865415 0.813016
0.916381 0.866697 0.812192
0.919371 0.868315 0.810910
0.923369 0.870451 0.809262
0.928466 0.873167 0.807340
0.934417 0.876371 0.805447
0.941314 0.879973 0.803250
0.948821 0.883543 0.800656
0.956970 0.887175 0.797696
0.965484 0.890379 0.794003
0.974334 0.893004 0.789395
0.983490 0.894835 0.783597
0.992950 0.895872 0.776852
1.000000 0.896025 0.769070
1.000000 0.895293 0.760464
1.000000 0.893614 0.751247
1.000000 0.890715 0.740902
1.000000 0.886259 0.728695
1.000000 0.879850 0.713741
1.000000 0.870939 0.694636
1.000000 0.858885 0.669703
1.000000 0.844511 0.639124
1.000000 0.826200 0.598718
1.000000 0.832273 0.632837
1.000000 0.842802 0.674128
1.000000 0.853910 0.711788
1.000000 0.864897 0.744930
1.000000 0.875731 0.774380
1.000000 0.889525 0.808072
0.923064 0.879698 0.836606
0.923644 0.880339 0.837217
0.924376 0.880919 0.837369
0.925566 0.881621 0.837034
0.927214 0.882567 0.836179
0.929503 0.883787 0.834958
0.932586 0.885405 0.833402
0.936492 0.887449 0.831571
0.941161 0.889921 0.829740
0.946624 0.892790 0.827756
0.952697 0.895750 0.825467
0.959319 0.898772 0.823026
0.966339 0.901579 0.820157
0.973693 0.903929 0.816403
0.981323 0.905669 0.811704
0.989258 0.906767 0.806210
0.997498 0.907225 0.799924
1.000000 0.906981 0.793088
1.000000 0.906035 0.785733
1.000000 0.904234 0.777951
1.000000 0.901244 0.768826
1.000000 0.896696 0.757626
1.000000 0.890257 0.743435
1.000000 0.881376 0.724941
1.000000 0.869627 0.701167
1.000000 0.855528 0.671443
1.000000 0.837644 0.632715
1.000000 0.841672 0.658198
1.000000 0.851804 0.696040
1.000000 0.862608 0.731136
1.000000 0.873198 0.761868
1.000000 0.885832 0.794675
0.932036 0.893004 0.856291
0.932433 0.893462 0.856779
0.933135 0.894072 0.857053
0.934234 0.894835 0.856992
0.935821 0.895995 0.856809
0.938079 0.897642 0.856687
0.941314 0.900145 0.857115
0.945220 0.903105 0.857664
0.949798 0.906584 0.858457
0.954772 0.910307 0.859342
0.960113 0.914153 0.860136
0.965576 0.917723 0.860533
0.971160 0.920958 0.860380
0.976776 0.923613 0.859434
0.982452 0.925597 0.857420
0.988281 0.926787 0.854154
0.994324 0.927337 0.850095
1.000000 0.927398 0.845518
1.000000 0.926909 0.840543
1.000000 0.925780 0.835111
1.000000 0.923857 0.828977
1.000000 0.920836 0.821347
1.000000 0.916442 0.811673
1.000000 0.910399 0.799466
1.000000 0.902220 0.783505
1.000000 0.891508 0.763119
1.000000 0.878172 0.736599
1.000000 0.861326 0.701900
1.000000 0.863279 0.716976
1.000000 0.872038 0.746517
1.000000 0.881224 0.773739
1.000000 0.891173 0.800381
0.947601 0.916258 0.889433
0.947723 0.916320 0.889403
0.947997 0.916472 0.889158
0.948516 0.916747 0.888792
0.949401 0.917235 0.888182
0.950713 0.917998 0.887480
0.952514 0.919097 0.886748
0.954803 0.920500 0.886046
0.957549 0.922271 0.885313
0.960784 0.924254 0.884550
0.964355 0.926360 0.883726
0.968292 0.928496 0.882780
0.972473 0.930571 0.881468
0.976806 0.932372 0.879881
