20 Preset/City Style/【3】LUT video cho PR-AE-FCPX/TONE 2/Darky Timing Attacks.cube
# Created by Adobe Lightroom plugin Export LUT (1.24.0)
# www.johnrellis.com/lightroom/exportlut.htm
# Preset: Darky Timing Attacks
# Color profile: E:\lut插件\exportlut.1.24\exportlut.lrplugin\color profiles\Rec709gamma2.4.icc
LUT_3D_SIZE 5
DOMAIN_MIN 0.000000 0.000000 0.000000
DOMAIN_MAX 0.903226 0.903226 0.903226
0.000000 0.080598 0.100526
0.035950 0.115969 0.139406
0.649348 0.359442 0.351263
0.963958 0.720607 0.696773
0.993957 0.861997 0.844816
0.030457 0.134188 0.147829
0.424628 0.223178 0.098177
0.749874 0.387945 0.249668
0.983368 0.690150 0.634363
1.000000 0.864500 0.841947
0.542412 0.516533 0.411505
0.686366 0.574243 0.341497
1.000000 0.666743 0.000000
1.000000 0.734493 0.532311
1.000000 0.857206 0.801785
0.859434 0.800534 0.726070
0.896208 0.820920 0.718654
0.996429 0.857115 0.678462
1.000000 0.805570 0.514641
1.000000 0.857664 0.747463
0.954162 0.927123 0.905699
0.960113 0.931121 0.903868
0.978790 0.934203 0.881376
1.000000 0.937285 0.862150
1.000000 0.889372 0.764950
0.000000 0.121981 0.145480
0.024689 0.142489 0.169833
0.566705 0.344823 0.344518
0.930327 0.639948 0.611810
0.994141 0.827909 0.804837
0.095552 0.165988 0.192935
0.419776 0.228214 0.150423
0.691279 0.396979 0.310552
0.955474 0.645197 0.588067
1.000000 0.828977 0.798764
0.520439 0.503960 0.421973
0.667933 0.569360 0.378210
1.000000 0.638666 0.083040
1.000000 0.718990 0.535973
1.000000 0.849485 0.790799
0.856229 0.800443 0.733455
0.893462 0.822110 0.729427
0.991180 0.859464 0.698177
1.000000 0.814603 0.567193
1.000000 0.865019 0.767391
0.951659 0.925536 0.907134
0.957580 0.929503 0.904936
0.979065 0.941314 0.898283
1.000000 0.942626 0.877867
1.000000 0.900969 0.797818
0.004211 0.147799 0.205386
0.133822 0.187411 0.222690
0.702693 0.692348 0.697536
0.885466 0.757290 0.755520
0.973510 0.859373 0.847745
0.314366 0.360723 0.412421
0.398718 0.429450 0.450965
0.699611 0.630640 0.641962
0.916472 0.750942 0.738949
0.981567 0.862455 0.847105
0.605463 0.614160 0.616907
0.713069 0.670893 0.612696
1.000000 0.732876 0.583490
1.000000 0.787442 0.709010
1.000000 0.870512 0.836820
0.842405 0.802884 0.774166
0.871702 0.818906 0.764645
0.970245 0.866911 0.757382
1.000000 0.851652 0.717556
1.000000 0.887907 0.824460
0.936645 0.912566 0.907378
0.942168 0.917845 0.908751
0.968902 0.937316 0.904906
1.000000 0.944945 0.890898
1.000000 0.914366 0.837278
0.300114 0.346319 0.461707
0.363653 0.391241 0.479957
0.657893 0.656519 0.664790
0.930114 0.904875 0.900786
0.945922 0.910185 0.906615
0.453834 0.497841 0.584222
0.502556 0.525750 0.588281
0.780941 0.756497 0.756527
0.915190 0.887205 0.882841
0.951232 0.905119 0.901183
0.709926 0.726711 0.758602
0.783505 0.772763 0.785916
0.888975 0.826932 0.817075
0.939605 0.852964 0.840635
0.973480 0.905364 0.896147
0.876005 0.851774 0.831846
0.878843 0.848112 0.836637
0.939300 0.887999 0.846494
1.000000 0.901823 0.854307
1.000000 0.919371 0.893034
0.944305 0.928435 0.911864
0.946166 0.928191 0.914183
0.949645 0.929259 0.925292
0.985779 0.952483 0.921965
1.000000 0.940764 0.901549
0.621210 0.634272 0.739559
0.646998 0.646723 0.736904
0.730190 0.705013 0.735500
0.926665 0.900725 0.896544
0.973602 0.961944 0.959930
0.667231 0.673548 0.760128
0.691005 0.684871 0.758877
0.762936 0.733822 0.757778
0.937255 0.913634 0.909728
0.973053 0.961212 0.959106
0.786160 0.786435 0.830045
0.817258 0.803769 0.837705
0.867460 0.834012 0.844144
0.962768 0.946899 0.944182
0.970825 0.958038 0.955810
0.835813 0.847349 0.883787
0.856260 0.859586 0.889036
0.920592 0.905791 0.913664
0.963195 0.946807 0.944091
0.975219 0.953735 0.950866
0.913359 0.945037 0.925902
0.922148 0.945953 0.927184
0.952117 0.952483 0.938689
0.968139 0.954253 0.951781
0.994690 0.968444 0.959350
