20 Preset/City Style/【3】LUT video cho PR-AE-FCPX/TONE 2/Darky EYES.cube
# Created by Adobe Lightroom plugin Export LUT (1.24.0)
# www.johnrellis.com/lightroom/exportlut.htm
# Preset: Darky EYES
# Color profile: E:\lut插件\exportlut.1.24\exportlut.lrplugin\color profiles\Rec709gamma2.4.icc
LUT_3D_SIZE 5
DOMAIN_MIN 0.000000 0.000000 0.000000
DOMAIN_MAX 0.903226 0.903226 0.903226
0.000000 0.109194 0.133944
0.226902 0.102846 0.142885
0.878416 0.000000 0.094789
1.000000 0.000000 0.000000
1.000000 0.000000 0.120058
0.026337 0.142885 0.170291
0.393469 0.242191 0.100740
0.700099 0.244724 0.000000
1.000000 0.192752 0.000000
1.000000 0.257023 0.187716
0.463081 0.492073 0.510582
0.587915 0.560601 0.468147
0.957610 0.653193 0.306920
0.950011 0.557794 0.232303
1.000000 0.590936 0.378668
0.737453 0.720424 0.723262
0.761501 0.735012 0.718532
0.870817 0.789670 0.694484
1.000000 0.801572 0.603113
1.000000 0.762722 0.549676
0.883940 0.852873 0.848600
0.882963 0.851835 0.847593
0.901305 0.859556 0.825467
0.965972 0.889891 0.802823
1.000000 0.878996 0.725917
0.000000 0.122683 0.149050
0.115023 0.150790 0.187655
0.836973 0.000000 0.102571
1.000000 0.000000 0.000000
1.000000 0.000000 0.089876
0.150973 0.201877 0.228702
0.440925 0.272801 0.170321
0.689082 0.249058 0.114931
1.000000 0.225040 0.000000
1.000000 0.244999 0.144106
0.452613 0.482582 0.502617
0.576043 0.556023 0.481575
0.928222 0.636896 0.358648
0.905791 0.531975 0.250248
1.000000 0.579889 0.358343
0.739620 0.722194 0.724880
0.760525 0.735164 0.721736
0.868376 0.790707 0.702968
1.000000 0.806180 0.630976
1.000000 0.766323 0.574060
0.885466 0.854459 0.850187
0.884001 0.852903 0.848661
0.908965 0.869963 0.840574
0.967407 0.896208 0.815915
1.000000 0.886534 0.747616
0.104585 0.171572 0.199161
0.134096 0.190311 0.217502
0.791592 0.660548 0.706874
1.000000 0.000000 0.430121
1.000000 0.120668 0.335576
0.389075 0.419562 0.441230
0.417456 0.448371 0.469490
0.886320 0.493263 0.591302
1.000000 0.318944 0.399084
1.000000 0.361791 0.384039
0.637232 0.639948 0.649622
0.618738 0.623255 0.627771
0.893126 0.710445 0.619043
0.873686 0.577813 0.446113
1.000000 0.612268 0.498970
0.766384 0.744228 0.745174
0.752468 0.732692 0.734554
0.855772 0.792660 0.731258
0.994415 0.827268 0.712673
1.000000 0.774044 0.637720
0.888884 0.858061 0.853727
0.888518 0.857694 0.853361
0.895384 0.862119 0.848936
0.957214 0.895781 0.830442
1.000000 0.893400 0.781369
0.380133 0.410376 0.432197
0.397620 0.428351 0.449928
0.597467 0.607874 0.620142
0.909667 0.834134 0.846433
1.000000 0.695918 0.774380
0.514092 0.538140 0.555352
0.519341 0.542596 0.559564
0.691493 0.683375 0.689326
0.934081 0.804349 0.832303
1.000000 0.677516 0.750179
0.744564 0.726192 0.728573
0.764248 0.742458 0.743526
0.841459 0.750668 0.750576
0.945495 0.704189 0.704311
1.000000 0.693507 0.697200
0.839994 0.809262 0.806241
0.831846 0.801633 0.798978
0.843046 0.805661 0.786801
0.965118 0.850278 0.794980
0.970428 0.778042 0.703853
0.914275 0.886137 0.881743
0.913115 0.884825 0.880461
0.909758 0.880980 0.876585
0.940642 0.900816 0.866972
1.000000 0.913664 0.845121
0.654536 0.653834 0.662287
0.653956 0.653346 0.661891
0.658412 0.656916 0.665126
0.816220 0.787320 0.785397
0.932311 0.907530 0.903502
0.681910 0.675715 0.682338
0.682124 0.675868 0.682490
0.685023 0.678187 0.684596
0.837736 0.807126 0.804196
0.942290 0.910521 0.909850
0.774014 0.750637 0.751095
0.784085 0.759152 0.759030
0.786343 0.761105 0.760830
0.897856 0.867735 0.863340
0.971008 0.904753 0.915312
0.879881 0.848600 0.844419
0.882567 0.851408 0.847166
0.895445 0.865110 0.860716
0.940734 0.913603 0.911101
0.999054 0.872221 0.877714
0.937377 0.913787 0.909911
0.938201 0.914794 0.910948
0.943389 0.921386 0.917693
0.942168 0.919860 0.916136
0.990204 0.943999 0.923278
