20 Preset/City Style/【3】LUT video cho PR-AE-FCPX/TONE 2/Darky Sunset.cube
# Created by Adobe Lightroom plugin Export LUT (1.24.0)
# www.johnrellis.com/lightroom/exportlut.htm
# Preset: Darky Sunset
# Color profile: E:\lut插件\exportlut.1.24\exportlut.lrplugin\color profiles\Rec709gamma2.4.icc
LUT_3D_SIZE 5
DOMAIN_MIN 0.000000 0.000000 0.000000
DOMAIN_MAX 0.903226 0.903226 0.903226
0.128939 0.187320 0.214481
0.119783 0.187015 0.213962
0.296696 0.169436 0.210910
0.850370 0.000000 0.183505
1.000000 0.000000 0.145815
0.124086 0.183780 0.211215
0.132784 0.186404 0.212131
0.260746 0.196567 0.207706
0.731258 0.144747 0.178164
1.000000 0.000000 0.116487
0.171542 0.216495 0.242863
0.211551 0.233494 0.229953
0.631861 0.399695 0.123995
0.644343 0.350225 0.142306
0.993622 0.389380 0.000000
0.372778 0.402716 0.424628
0.409064 0.427619 0.415534
0.678614 0.579278 0.348486
1.000000 0.655085 0.000000
1.000000 0.623987 0.000000
0.800412 0.773251 0.772183
0.797910 0.771084 0.770138
0.829740 0.780636 0.722164
0.958618 0.846799 0.690150
1.000000 0.829191 0.508812
0.129213 0.186648 0.212131
0.124147 0.184390 0.211551
0.254032 0.177951 0.210300
0.653925 0.074342 0.192111
1.000000 0.000000 0.151095
0.124819 0.184176 0.211551
0.137240 0.186130 0.210819
0.237522 0.194217 0.208194
0.594141 0.189731 0.188876
1.000000 0.000000 0.133455
0.168917 0.214755 0.241154
0.205905 0.231052 0.232456
0.538903 0.345983 0.166201
0.551873 0.311437 0.169589
0.964843 0.379400 0.000000
0.377050 0.407111 0.428992
0.407507 0.428260 0.422400
0.673610 0.579095 0.364874
0.996765 0.651606 0.000000
1.000000 0.616876 0.000000
0.800076 0.773007 0.771908
0.795926 0.769375 0.768551
0.851591 0.805051 0.757321
0.961486 0.858488 0.718746
1.000000 0.841947 0.563806
0.124178 0.184024 0.212985
0.124605 0.184176 0.211948
0.253208 0.215976 0.265629
0.795132 0.000000 0.221256
1.000000 0.000000 0.175326
0.125856 0.189578 0.226810
0.139773 0.194278 0.221286
0.378119 0.166812 0.249241
0.749325 0.000000 0.204166
1.000000 0.000000 0.162997
0.246036 0.276219 0.300298
0.234348 0.265721 0.288823
0.589960 0.374517 0.220310
0.564752 0.308690 0.188540
0.989929 0.336950 0.095949
0.426123 0.457038 0.477943
0.402625 0.433417 0.454841
0.642451 0.575555 0.427832
0.991608 0.665858 0.295903
1.000000 0.589319 0.000000
0.792630 0.766506 0.765866
0.791989 0.765957 0.765347
0.805600 0.773709 0.757656
0.941527 0.848569 0.726955
1.000000 0.842374 0.603662
0.124849 0.186130 0.248417
0.138308 0.189364 0.243320
0.183200 0.225071 0.251072
0.689998 0.585199 0.637415
1.000000 0.201358 0.561730
0.131228 0.197360 0.284672
0.159426 0.203403 0.272435
0.233127 0.265049 0.289525
0.766293 0.496925 0.610163
1.000000 0.000000 0.495552
0.240879 0.366217 0.396857
0.290654 0.383124 0.412268
0.537530 0.401862 0.432166
0.810697 0.310460 0.352056
1.000000 0.217288 0.328832
0.594507 0.605463 0.617914
0.573693 0.588373 0.602167
0.600244 0.595666 0.568811
0.950134 0.698054 0.534752
0.976318 0.536950 0.232853
0.836790 0.806210 0.803342
0.834104 0.803708 0.800931
0.826627 0.796780 0.794369
0.901823 0.842283 0.776455
1.000000 0.864469 0.714717
0.092348 0.200351 0.435950
0.158236 0.207004 0.417243
0.255863 0.261326 0.346166
0.462287 0.491646 0.511315
0.879362 0.848081 0.843900
0.039673 0.214328 0.469306
0.162814 0.222873 0.451331
0.281132 0.283177 0.375433
0.506371 0.531334 0.548943
0.892058 0.859983 0.856199
0.000000 0.326848 0.626856
0.000000 0.336706 0.619287
0.401678 0.407752 0.550042
0.708431 0.696956 0.701747
0.948241 0.841489 0.863554
0.575677 0.721492 0.722774
0.592584 0.724300 0.726711
0.669276 0.740993 0.749844
0.868009 0.836515 0.832547
1.000000 0.752804 0.781216
0.881224 0.850034 0.845792
0.882170 0.850980 0.846769
0.890654 0.859953 0.855619
0.883452 0.852323 0.848081
0.997040 0.903899 0.856413
