20 Preset/City Style/【3】LUT video cho PR-AE-FCPX/TONE 2/Darky EYES.cube
# Created by Adobe Lightroom plugin Export LUT (1.24.0)
# www.johnrellis.com/lightroom/exportlut.htm
# Preset: Darky EYES
# Color profile: E:\lut插件\exportlut.1.24\exportlut.lrplugin\color profiles\Rec709gamma2.4.icc
LUT_3D_SIZE 8
DOMAIN_MIN 0.000000 0.000000 0.000000
DOMAIN_MAX 0.903226 0.903226 0.903226
0.000000 0.109194 0.133944
0.017456 0.113252 0.138613
0.337957 0.028504 0.141970
0.746273 0.000000 0.118654
0.993988 0.000000 0.008301
1.000000 0.000000 0.000000
1.000000 0.000000 0.000000
1.000000 0.000000 0.120058
0.000000 0.122683 0.149050
0.000000 0.121218 0.147494
0.188144 0.136965 0.145846
0.598718 0.000000 0.117067
0.923766 0.000000 0.000000
1.000000 0.000000 0.000000
1.000000 0.000000 0.000000
1.000000 0.000000 0.105318
0.097963 0.167391 0.194949
0.173922 0.199405 0.183993
0.566674 0.337469 0.000000
0.554528 0.278965 0.035218
0.798734 0.290654 0.000000
1.000000 0.276158 0.000000
1.000000 0.295384 0.113985
1.000000 0.316808 0.202213
0.378271 0.407385 0.426917
0.423102 0.435981 0.409094
0.627283 0.541131 0.346014
0.914824 0.592279 0.168276
0.932036 0.531182 0.106416
0.897765 0.491005 0.172519
1.000000 0.514672 0.255100
1.000000 0.525475 0.325414
0.543938 0.563561 0.579156
0.567681 0.577996 0.573938
0.669368 0.634852 0.559533
0.822721 0.696834 0.527733
0.980194 0.698787 0.404120
1.000000 0.645991 0.314092
0.987549 0.619562 0.340459
1.000000 0.648280 0.440681
0.693446 0.684932 0.690761
0.707912 0.695644 0.697200
0.751766 0.721645 0.690639
0.825162 0.758419 0.676661
0.913390 0.787106 0.645472
1.000000 0.785611 0.574945
1.000000 0.756344 0.516197
1.000000 0.745876 0.538537
0.805234 0.777523 0.776181
0.806119 0.778317 0.776913
0.817014 0.784817 0.771817
0.854490 0.807126 0.762722
0.903655 0.829160 0.744747
0.963622 0.845182 0.718135
1.000000 0.838773 0.664851
1.000000 0.812558 0.605859
0.883940 0.852873 0.848600
0.883543 0.852415 0.848173
0.882811 0.851682 0.847440
0.899443 0.863859 0.843717
0.917723 0.869078 0.820523
0.955627 0.886503 0.807248
0.998932 0.894194 0.782162
1.000000 0.878996 0.725917
0.000000 0.119051 0.145144
0.000000 0.123201 0.149416
0.279637 0.090486 0.146212
0.601434 0.000000 0.123629
0.906188 0.000000 0.005493
1.000000 0.000000 0.000000
1.000000 0.000000 0.000000
1.000000 0.000000 0.058381
0.000000 0.120394 0.146304
0.000000 0.122866 0.148379
0.194461 0.135683 0.143191
0.532372 0.101167 0.118502
0.861204 0.000000 0.000000
1.000000 0.000000 0.000000
1.000000 0.000000 0.000000
1.000000 0.000000 0.039704
0.116457 0.178470 0.204746
0.193454 0.212009 0.193484
0.545983 0.323339 0.031067
0.502464 0.258885 0.101717
0.727779 0.271305 0.000000
0.955108 0.261357 0.000000
1.000000 0.249546 0.000000
1.000000 0.267399 0.147677
0.325383 0.351781 0.369970
0.369909 0.381933 0.359045
0.572320 0.495308 0.310704
0.863859 0.544915 0.118135
0.866514 0.477852 0.000000
0.828977 0.432837 0.104891
0.997711 0.456306 0.162325
1.000000 0.476173 0.252567
0.528344 0.550347 0.566796
0.549584 0.562829 0.559655
0.648646 0.617121 0.540856
0.801968 0.675593 0.499977
0.964904 0.674647 0.370306
0.991577 0.621576 0.284215
0.968933 0.592432 0.302403
1.000000 0.619196 0.392889
0.674006 0.669368 0.676539
0.677516 0.671443 0.675227
0.726589 0.700679 0.669886
0.808316 0.742580 0.659022
0.903532 0.775296 0.631556
1.000000 0.778531 0.568597
1.000000 0.748806 0.509789
1.000000 0.732601 0.515801
0.790219 0.764431 0.763912
0.786618 0.761379 0.761074
0.796902 0.767208 0.755520
0.839384 0.792721 0.748257
0.895171 0.819944 0.734615
0.957916 0.837491 0.708736
1.000000 0.830289 0.652705
1.000000 0.803220 0.591943
0.875944 0.844572 0.840452
0.877043 0.845701 0.841550
0.875883 0.844511 0.840391
0.892699 0.856779 0.837156
0.921752 0.874601 0.828061
0.956115 0.888273 0.810727
0.997864 0.893553 0.782437
1.000000 0.878630 0.727169
0.000000 0.120638 0.146700
0.000000 0.120089 0.146334
0.251011 0.196811 0.255009
0.784115 0.000000 0.149233
0.968658 0.000000 0.108858
1.000000 0.000000 0.080446
1.000000 0.000000 0.045777
1.000000 0.000000 0.113588
0.007660 0.136049 0.162966
0.018158 0.140047 0.167269
0.414954 0.000000 0.203128
0.714076 0.000000 0.142702
0.918944 0.000000 0.107698
1.000000 0.000000 0.080323
1.000000 0.000000 0.036530
1.000000 0.000000 0.110201
0.243168 0.273747 0.297948
0.262516 0.282933 0.287053
0.595209 0.376928 0.220188
0.517113 0.288762 0.175448
0.811856 0.309148 0.138369
0.977691 0.304723 0.129671
1.000000 0.310430 0.139651
1.000000 0.318029 0.171115
0.399359 0.430121 0.451575
0.431861 0.453101 0.448219
0.621393 0.554101 0.421942
0.885618 0.595911 0.343114
0.860288 0.510674 0.244419
0.866453 0.470405 0.217624
1.000000 0.492378 0.256992
1.000000 0.502220 0.282963
0.560449 0.577386 0.592004
0.572473 0.584405 0.588220
0.667140 0.638727 0.580072
0.810422 0.698024 0.561700
0.962676 0.709834 0.495430
0.977935 0.648920 0.402686
0.958831 0.610895 0.376165
1.000000 0.631708 0.422889
0.685939 0.678920 0.685267
0.684810 0.678004 0.684443
0.730434 0.705623 0.679927
0.807309 0.745235 0.670405
0.899260 0.778164 0.649500
0.999390 0.786557 0.607294
1.000000 0.759030 0.559380
1.000000 0.743069 0.554955
0.801144 0.773922 0.772793
0.798215 0.771359 0.770382
0.800778 0.771756 0.763821
0.840146 0.795438 0.755703
0.894041 0.822141 0.743130
0.956298 0.841733 0.723171
1.000000 0.839597 0.682643
1.000000 0.816770 0.634974
0.879606 0.848356 0.844175
0.878447 0.847135 0.842985
0.877043 0.845701 0.841550
0.891234 0.856809 0.841123
0.920226 0.875151 0.832670
0.955444 0.890990 0.818723
0.996521 0.897551 0.794003
1.000000 0.883970 0.744991
0.010956 0.136873 0.163973
0.023072 0.141665 0.169039
0.137423 0.192782 0.219883
0.686183 0.523064 0.600885
0.998016 0.000000 0.454932
1.000000 0.000000 0.258305
1.000000 0.000000 0.243931
1.000000 0.000000 0.237339
0.142031 0.195804 0.222782
0.149020 0.200565 0.227481
0.264836 0.293614 0.317144
0.774624 0.476997 0.591089
1.000000 0.000000 0.379095
1.000000 0.000000 0.268589
1.000000 0.000000 0.254673
1.000000 0.142184 0.248478
0.383917 0.414313 0.436072
0.416205 0.447150 0.468299
0.518486 0.435767 0.428412
0.742123 0.382483 0.367620
0.909087 0.353460 0.330449
1.000000 0.362280 0.322728
1.000000 0.397803 0.343328
1.000000 0.390448 0.330297
0.549554 0.568322 0.583551
0.533898 0.555077 0.571221
0.637842 0.606439 0.553735
0.852293 0.642329 0.529931
0.800412 0.527428 0.378088
0.891173 0.510277 0.353521
1.000000 0.528710 0.386511
1.000000 0.536156 0.403540
0.638697 0.641169 0.650690
0.630152 0.634302 0.644434
0.691249 0.669581 0.638361
0.820249 0.728969 0.638605
0.956451 0.754116 0.623041
0.949218 0.687526 0.536980
0.936889 0.639734 0.477272
1.000000 0.660548 0.507317
0.729000 0.713558 0.716945
0.734310 0.717861 0.720912
0.755245 0.730007 0.715084
0.823148 0.767819 0.711055
0.904509 0.800107 0.700710
0.992676 0.809934 0.677607
1.000000 0.779202 0.631647
1.000000 0.758602 0.609705
0.816648 0.787747 0.785794
0.816464 0.787564 0.785611
0.812772 0.784237 0.782467
0.848051 0.807462 0.778103
0.898436 0.834409 0.769039
0.955444 0.853300 0.753628
1.000000 0.853056 0.724849
1.000000 0.831510 0.685145
0.891997 0.861418 0.857053
0.891478 0.860868 0.856504
0.889952 0.859220 0.854856
0.890715 0.859281 0.852476
0.918761 0.878233 0.844541
0.953002 0.895018 0.832334
0.993194 0.903532 0.812589
1.000000 0.893400 0.774899
0.180392 0.223148 0.249180
0.191043 0.230991 0.256779
0.215122 0.249882 0.274937
0.513237 0.537316 0.554559
0.848295 0.734676 0.765591
1.000000 0.574426 0.691493
1.000000 0.367041 0.546685
1.000000 0.283879 0.456672
0.260838 0.289738 0.313420
0.269566 0.297948 0.321416
0.292699 0.320531 0.343450
0.601678 0.611322 0.623316
0.870115 0.715938 0.759335
1.000000 0.555413 0.671809
1.000000 0.361212 0.526085
1.000000 0.329747 0.464240
0.497505 0.523613 0.541680
0.506371 0.531334 0.548943
0.524193 0.546807 0.563470
0.761685 0.723171 0.732265
0.919493 0.595666 0.667597
1.000000 0.439155 0.531518
1.000000 0.438544 0.498421
1.000000 0.434058 0.477760
0.665827 0.662837 0.670588
0.671138 0.667109 0.674464
0.676905 0.668177 0.666438
0.760952 0.657374 0.626001
0.815640 0.596460 0.552026
0.925597 0.581842 0.532799
1.000000 0.579919 0.531731
1.000000 0.569543 0.525048
0.711238 0.699184 0.703822
0.706874 0.695705 0.700618
0.692622 0.683314 0.685878
0.812467 0.745205 0.692012
0.922301 0.762325 0.683436
0.893858 0.683101 0.588708
0.929351 0.650172 0.544182
1.000000 0.666011 0.565057
0.745754 0.727199 0.729519
0.743526 0.725368 0.727810
0.728756 0.713375 0.716793
0.795743 0.753445 0.716121
0.883299 0.793454 0.716793
0.980377 0.819547 0.721981
0.981842 0.781979 0.672877
0.981750 0.754452 0.637476
0.829923 0.799802 0.797208
0.827298 0.797421 0.794949
0.820310 0.791043 0.788907
0.827420 0.795132 0.784573
0.884672 0.830838 0.782010
0.944701 0.855222 0.773678
1.000000 0.860136 0.757015
1.000000 0.834653 0.715328
0.893126 0.862638 0.858244
0.892424 0.861875 0.857511
0.890257 0.859556 0.855222
0.891691 0.861082 0.856718
0.906645 0.871672 0.851987
0.943847 0.893462 0.842893
0.985321 0.905577 0.827573
1.000000 0.898680 0.798489
0.358587 0.388006 0.410101
0.368536 0.398413 0.420386
0.388983 0.419471 0.441169
0.500175 0.525933 0.543877
0.771633 0.748592 0.749233
0.906920 0.825071 0.839597
1.000000 0.734615 0.798917
1.000000 0.655146 0.742824
0.393256 0.423957 0.445533
0.396002 0.426764 0.448310
0.405982 0.436866 0.458228
0.512535 0.536736 0.554070
0.777707 0.753750 0.753994
0.911864 0.810330 0.831357
1.000000 0.720638 0.787259
1.000000 0.642176 0.730343
0.570611 0.585809 0.599786
0.570336 0.585595 0.599603
0.574945 0.589410 0.603143
0.659663 0.657923 0.666041
0.844419 0.813413 0.810239
0.942718 0.775631 0.811612
1.000000 0.694087 0.755642
1.000000 0.627405 0.700313
0.714839 0.702113 0.706447
0.720394 0.706538 0.710536
0.753536 0.733577 0.735378
0.831937 0.801724 0.799039
0.908232 0.758938 0.777340
0.973358 0.703120 0.724300
1.000000 0.686793 0.702998
1.000000 0.674647 0.691218
0.793668 0.767391 0.766690
0.795224 0.768765 0.767971
0.793820 0.767544 0.766812
0.824735 0.782254 0.761990
0.871244 0.770932 0.737118
0.867430 0.711482 0.670100
0.956847 0.714260 0.672480
1.000000 0.711269 0.674922
0.813382 0.784756 0.782986
0.813993 0.785336 0.783536
0.804807 0.777157 0.775814
0.808438 0.777340 0.766567
0.883726 0.818479 0.773129
0.959258 0.836149 0.776547
0.944915 0.783078 0.712245
0.982116 0.766812 0.689357
0.862913 0.831418 0.827634
0.863493 0.831998 0.828183
0.859831 0.828367 0.824643
0.852018 0.820737 0.817258
0.878355 0.838193 0.813230
0.936461 0.868406 0.812802
0.999573 0.880461 0.810575
1.000000 0.849241 0.764675
0.909606 0.880797 0.876402
0.908415 0.879515 0.875090
0.906188 0.876951 0.872557
0.904204 0.874784 0.870359
0.899535 0.869566 0.865141
0.931182 0.891752 0.859648
0.975586 0.911406 0.851896
1.000000 0.910002 0.834623
0.508324 0.533013 0.550530
0.513329 0.537407 0.554650
0.518059 0.541466 0.558495
0.530816 0.552483 0.568780
0.681788 0.675624 0.682246
0.848661 0.817502 0.814176
0.923980 0.873503 0.877531
0.997589 0.808957 0.852415
0.519158 0.542443 0.559442
0.524681 0.547204 0.563867
0.528985 0.550896 0.567346
0.537072 0.557794 0.573754
0.687282 0.680018 0.686275
0.850340 0.819120 0.815702
0.926146 0.865629 0.873045
0.998596 0.800381 0.845731
0.613581 0.620935 0.632136
0.614160 0.621393 0.632563
0.614923 0.622004 0.633173
0.619806 0.625940 0.636774
0.749325 0.730129 0.732174
0.880735 0.849485 0.845304
0.946868 0.856504 0.873106
1.000000 0.799832 0.842313
0.728878 0.713466 0.716884
0.733150 0.716915 0.720027
0.734829 0.718288 0.721279
0.739590 0.722164 0.724819
0.835782 0.805264 0.802426
0.919860 0.884184 0.882780
0.971588 0.833768 0.857084
1.000000 0.787411 0.822690
0.800473 0.773373 0.772244
0.801968 0.774655 0.773465
0.812985 0.784451 0.782650
0.835264 0.804837 0.801999
0.891478 0.850187 0.849271
0.941222 0.807004 0.816709
0.988464 0.778683 0.788479
1.000000 0.771756 0.781918
0.862821 0.831327 0.827512
0.863737 0.832181 0.828367
0.866972 0.835447 0.831540
0.871000 0.839506 0.835508
0.879301 0.842008 0.827604
0.916075 0.837278 0.810910
0.929198 0.801602 0.769009
0.994354 0.805112 0.775753
0.893675 0.863188 0.858824
0.894377 0.864012 0.859617
0.892119 0.861509 0.857176
0.886290 0.855344 0.851041
0.875181 0.843778 0.839689
0.926452 0.878447 0.846921
0.980468 0.892302 0.850553
0.975067 0.846952 0.791775
0.927001 0.901091 0.896910
0.926940 0.901030 0.896849
0.927214 0.901366 0.897215
0.925719 0.899535 0.895354
0.922118 0.895262 0.891020
0.920897 0.892546 0.884642
0.963745 0.919615 0.882383
1.000000 0.926940 0.879454
0.654536 0.653834 0.662287
0.656306 0.655238 0.663630
0.653803 0.653223 0.661769
0.656764 0.655604 0.663935
0.673915 0.669306 0.676478
0.790738 0.764858 0.764309
0.890806 0.860105 0.855772
0.932311 0.907530 0.903502
0.656519 0.655390 0.663752
0.658381 0.656886 0.665095
0.658015 0.656550 0.664820
0.659571 0.657832 0.665980
0.676204 0.671107 0.678157
0.793790 0.767514 0.766812
0.892424 0.861845 0.857481
0.933379 0.908873 0.904845
0.691432 0.683314 0.689265
0.691859 0.683619 0.689570
0.690547 0.682551 0.688594
0.696742 0.687556 0.693141
0.706966 0.695766 0.700649
0.817624 0.788602 0.786587
0.906340 0.877104 0.872709
0.945983 0.909514 0.910704
0.750057 0.730709 0.732723
0.750973 0.731441 0.733394
0.750881 0.731411 0.733364
0.753597 0.733639 0.735409
0.756771 0.736233 0.737819
0.857206 0.825803 0.822141
0.928649 0.903105 0.898985
0.963561 0.907836 0.915923
0.794339 0.767971 0.767208
0.796506 0.769863 0.768978
0.803555 0.776059 0.774807
0.823026 0.793515 0.791257
0.826596 0.796780 0.794339
0.895201 0.864866 0.860472
0.948669 0.928130 0.924681
0.978210 0.900511 0.912566
0.864134 0.832670 0.828824
0.864683 0.833188 0.829343
0.867796 0.836301 0.832364
0.875242 0.843839 0.839719
0.887205 0.856321 0.852018
0.921294 0.894316 0.890043
0.962371 0.907866 0.911955
0.994202 0.882231 0.891417
0.915007 0.886961 0.882597
0.915221 0.887236 0.882872
0.916350 0.888548 0.884184
0.919219 0.891875 0.887572
0.923430 0.896849 0.892607
0.923491 0.896910 0.892668
0.941131 0.890867 0.875975
0.977264 0.882506 0.866636
0.937377 0.913787 0.909911
0.937469 0.913939 0.910033
0.938628 0.915343 0.911498
0.941497 0.918975 0.915221
0.945373 0.923919 0.920317
0.943420 0.921416 0.917754
0.953552 0.928771 0.915923
0.990204 0.943999 0.923278
