20 Preset/City Style/【3】LUT video cho PR-AE-FCPX/TONE 2/Darky Package Cityscapes.cube
# Created by Adobe Lightroom plugin Export LUT (1.24.0)
# www.johnrellis.com/lightroom/exportlut.htm
# Preset: Darky Package Cityscapes
# Color profile: E:\lut插件\exportlut.1.24\exportlut.lrplugin\color profiles\Rec709gamma2.4.icc
LUT_3D_SIZE 5
DOMAIN_MIN 0.000000 0.000000 0.000000
DOMAIN_MAX 0.903226 0.903226 0.903226
0.000000 0.106752 0.130953
0.060456 0.114076 0.138094
0.424018 0.066621 0.135622
0.914672 0.000000 0.000000
1.000000 0.192416 0.000000
0.018799 0.120058 0.136446
0.098146 0.127260 0.143252
0.400946 0.141176 0.134096
0.898192 0.115633 0.000000
1.000000 0.288365 0.067903
0.241733 0.189334 0.133211
0.269505 0.179446 0.132509
0.582788 0.250706 0.056428
0.917144 0.387274 0.128450
1.000000 0.453864 0.210178
0.566735 0.369543 0.000000
0.598718 0.364630 0.000000
0.767910 0.357244 0.000000
0.989990 0.462623 0.000000
1.000000 0.651881 0.456519
0.921050 0.606226 0.000000
0.937011 0.600366 0.000000
0.963745 0.537469 0.000000
1.000000 0.570397 0.000000
1.000000 0.698024 0.426612
0.000000 0.123262 0.150881
0.000000 0.127291 0.170932
0.378302 0.120089 0.154055
0.799954 0.152987 0.084749
1.000000 0.247349 0.000000
0.000000 0.137209 0.164736
0.094575 0.160433 0.181643
0.389258 0.173892 0.166781
0.800565 0.217136 0.091981
1.000000 0.302129 0.011475
0.278599 0.248661 0.158755
0.320226 0.236942 0.149020
0.536614 0.252354 0.127504
0.834958 0.372534 0.141909
1.000000 0.468757 0.217075
0.588342 0.417823 0.000000
0.623011 0.412177 0.000000
0.760922 0.365576 0.000000
0.977905 0.452399 0.000000
1.000000 0.642573 0.429969
0.914885 0.614527 0.000000
0.929290 0.608026 0.000000
0.991760 0.577752 0.000000
1.000000 0.581537 0.000000
1.000000 0.707149 0.433967
0.000000 0.186282 0.237308
0.062745 0.208560 0.261753
0.256382 0.311437 0.477394
0.903410 0.333379 0.475532
1.000000 0.425360 0.385168
0.118563 0.235477 0.283268
0.164431 0.259770 0.308293
0.331395 0.378851 0.501640
0.865568 0.407263 0.466072
1.000000 0.471504 0.411261
0.339574 0.409186 0.434241
0.385321 0.446021 0.468910
0.580560 0.578363 0.566308
0.844266 0.574060 0.532158
1.000000 0.579889 0.471321
0.588434 0.666133 0.541161
0.620661 0.639002 0.476570
0.761105 0.587060 0.387793
0.944793 0.574029 0.393835
1.000000 0.673335 0.515068
0.857664 0.683314 0.000000
0.879149 0.679622 0.000000
0.953613 0.648524 0.000000
1.000000 0.574640 0.000000
1.000000 0.671931 0.293736
0.197238 0.383978 0.469825
0.230869 0.403632 0.489113
0.341680 0.465126 0.544854
0.566613 0.585748 0.739437
0.984833 0.820127 0.869322
0.244388 0.413489 0.491920
0.267582 0.425299 0.502647
0.369909 0.484291 0.555291
0.591363 0.606439 0.736690
0.980896 0.806424 0.851865
0.372564 0.505272 0.557305
0.394476 0.517021 0.567041
0.507836 0.582971 0.622126
0.712093 0.704036 0.756497
0.970855 0.765591 0.783047
0.673701 0.701595 0.708705
0.688350 0.709438 0.715389
0.766262 0.757870 0.758267
0.862547 0.823484 0.807736
0.966155 0.814939 0.785397
0.840024 0.855680 0.827146
0.834501 0.857298 0.821103
0.842374 0.852140 0.778012
0.955962 0.789334 0.621668
1.000000 0.788266 0.665339
0.573358 0.686854 0.744656
0.581720 0.688838 0.745663
0.628443 0.705409 0.756680
0.708461 0.736385 0.777584
0.820737 0.792630 0.871733
0.574823 0.685786 0.741299
0.584802 0.688899 0.743313
0.629419 0.704891 0.754055
0.709834 0.736812 0.776120
0.826261 0.798001 0.871672
0.623011 0.711879 0.754421
0.628412 0.712551 0.754543
0.666896 0.726467 0.764096
0.744228 0.759915 0.788418
0.858671 0.829953 0.880705
0.740841 0.778164 0.796048
0.742916 0.778317 0.796139
0.764248 0.787472 0.803708
0.825589 0.821225 0.832059
0.904967 0.878721 0.899016
0.862943 0.856748 0.855344
0.865812 0.858427 0.856870
0.883268 0.870817 0.868467
0.914488 0.895659 0.892119
0.957366 0.935668 0.928069
