20 Preset/City Style/【3】LUT video cho PR-AE-FCPX/TONE 2/Darky Sunset.cube
# Created by Adobe Lightroom plugin Export LUT (1.24.0)
# www.johnrellis.com/lightroom/exportlut.htm
# Preset: Darky Sunset
# Color profile: E:\lut插件\exportlut.1.24\exportlut.lrplugin\color profiles\Rec709gamma2.4.icc
LUT_3D_SIZE 32
DOMAIN_MIN 0.0 0.0 0.0
DOMAIN_MAX 1.0 1.0 1.0
0.128939 0.187320 0.214481
0.128939 0.187320 0.214481
0.128939 0.187320 0.214481
0.129091 0.187167 0.214511
0.125154 0.187289 0.214420
0.121035 0.187381 0.214298
0.118532 0.187228 0.214084
0.119783 0.187015 0.213962
0.125246 0.186679 0.213840
0.135653 0.185977 0.213565
0.151949 0.184848 0.213382
0.175998 0.183017 0.212985
0.207950 0.180270 0.212497
0.248997 0.176028 0.211795
0.296696 0.169436 0.210910
0.348943 0.159854 0.209720
0.442603 0.133455 0.207034
0.538415 0.065400 0.203525
0.628870 0.000000 0.199283
0.712184 0.000000 0.194308
0.785763 0.000000 0.188998
0.850370 0.000000 0.183505
0.904417 0.000000 0.177981
0.951049 0.000000 0.172580
0.990692 0.000000 0.167239
1.000000 0.000000 0.162051
1.000000 0.000000 0.156619
1.000000 0.000000 0.151400
1.000000 0.000000 0.145815
1.000000 0.000000 0.140291
1.000000 0.000000 0.135225
1.000000 0.000000 0.131044
0.128939 0.187320 0.214481
0.128939 0.187320 0.214481
0.128939 0.187320 0.214481
0.128481 0.187350 0.214481
0.125154 0.187289 0.214420
0.121035 0.187381 0.214298
0.118441 0.187228 0.214206
0.119295 0.187045 0.213962
0.124269 0.186740 0.213840
0.133944 0.186099 0.213565
0.148653 0.185122 0.213382
0.170291 0.183627 0.213016
0.199863 0.181186 0.212680
0.238346 0.177401 0.212039
0.284184 0.171695 0.211185
0.334905 0.163210 0.210056
0.423041 0.141115 0.207645
0.512200 0.100099 0.204410
0.597864 0.000000 0.200595
0.679530 0.000000 0.196201
0.752590 0.000000 0.191257
0.817136 0.000000 0.186252
0.871885 0.000000 0.181155
0.920928 0.000000 0.175875
0.963439 0.000000 0.170718
1.000000 0.000000 0.165499
1.000000 0.000000 0.160281
1.000000 0.000000 0.154788
1.000000 0.000000 0.148989
1.000000 0.000000 0.143343
1.000000 0.000000 0.137697
1.000000 0.000000 0.132784
0.128939 0.187320 0.214481
0.128939 0.187320 0.214481
0.128939 0.187320 0.214481
0.128176 0.187228 0.214511
0.125154 0.187289 0.214420
0.121035 0.187381 0.214298
0.118441 0.187228 0.214206
0.119295 0.187045 0.213962
0.123964 0.186618 0.213870
0.132784 0.186038 0.213596
0.146395 0.185306 0.213382
0.166445 0.184146 0.213016
0.194034 0.182071 0.212558
0.229953 0.179110 0.211917
0.273808 0.174166 0.211093
0.324865 0.166751 0.210086
0.409277 0.148562 0.207736
0.492592 0.117556 0.204776
0.573816 0.014069 0.201266
0.654841 0.000000 0.197086
0.729030 0.000000 0.192355
0.794980 0.000000 0.187350
0.851743 0.000000 0.182345
0.902464 0.000000 0.177157
0.946685 0.000000 0.172122
0.986267 0.000000 0.166934
1.000000 0.000000 0.161563
1.000000 0.000000 0.155947
1.000000 0.000000 0.150027
1.000000 0.000000 0.144167
1.000000 0.000000 0.138430
1.000000 0.000000 0.133303
0.128481 0.186770 0.214054
0.128481 0.186770 0.214054
0.128481 0.186770 0.214054
0.127108 0.186679 0.214328
0.124880 0.186374 0.214267
0.121828 0.186435 0.214023
0.119387 0.186587 0.213901
0.119966 0.186557 0.213779
0.123995 0.186313 0.213626
0.131991 0.186099 0.213443
0.144442 0.185641 0.213107
0.162692 0.184848 0.212863
0.187686 0.183474 0.212375
0.220920 0.181155 0.211887
0.262089 0.177371 0.211063
0.319066 0.170474 0.209659
0.391180 0.157778 0.207675
0.462806 0.138430 0.205203
0.535454 0.105592 0.202152
0.610285 0.000000 0.198520
0.682826 0.000000 0.194247
0.750027 0.000000 0.189548
0.810575 0.000000 0.184726
0.867460 0.000000 0.179416
0.919677 0.000000 0.173709
0.966522 0.000000 0.168063
1.000000 0.000000 0.161898
1.000000 0.000000 0.155673
1.000000 0.000000 0.149416
1.000000 0.000000 0.143252
1.000000 0.000000 0.137270
1.000000 0.000000 0.132143
0.127260 0.185977 0.213138
0.127260 0.185977 0.213138
0.126955 0.185824 0.213138
0.126589 0.185702 0.213291
0.124056 0.185672 0.213962
0.122042 0.185519 0.213870
0.120699 0.185611 0.213626
0.121035 0.185733 0.213596
0.123995 0.186007 0.213413
0.130220 0.185916 0.213230
0.140536 0.185946 0.213016
0.156619 0.185550 0.212589
0.178805 0.184939 0.212222
0.208835 0.183658 0.211612
0.247776 0.181308 0.210880
0.308324 0.176150 0.209293
0.372595 0.167819 0.207401
0.439643 0.154635 0.205173
0.509148 0.133669 0.202243
0.581537 0.096223 0.198734
0.654139 0.000000 0.194522
0.722560 0.000000 0.189853
0.785702 0.000000 0.184970
0.845762 0.000000 0.179477
0.901793 0.000000 0.173404
0.952544 0.000000 0.167391
0.998260 0.000000 0.160891
1.000000 0.000000 0.154421
1.000000 0.000000 0.148043
1.000000 0.000000 0.141451
1.000000 0.000000 0.135317
1.000000 0.000000 0.129946
0.125887 0.184848 0.212253
0.125887 0.184848 0.212253
0.125887 0.184848 0.212253
0.125521 0.184726 0.212406
0.123507 0.184665 0.212924
0.121492 0.184939 0.213565
0.121340 0.185092 0.213535
0.122286 0.185214 0.213260
0.124483 0.185397 0.212985
0.129976 0.185946 0.212863
0.138979 0.186221 0.212619
0.153201 0.186313 0.212314
0.173556 0.186404 0.211887
0.201877 0.186130 0.211185
0.248020 0.184878 0.210086
0.302617 0.182193 0.208560
0.362737 0.176852 0.206760
0.427314 0.168032 0.204288
0.495613 0.154116 0.201328
0.567254 0.130739 0.197665
0.640040 0.088624 0.193210
0.710018 0.000000 0.188388
0.939727 0.000000 0.161868
0.984466 0.000000 0.155093
1.000000 0.000000 0.148623
1.000000 0.000000 0.142367
1.000000 0.000000 0.136263
1.000000 0.000000 0.130556
1.000000 0.000000 0.124941
1.000000 0.000000 0.120150
1.000000 0.000000 0.116274
1.000000 0.000000 0.114351
0.124086 0.184085 0.211460
0.124086 0.184085 0.211460
0.124086 0.184085 0.211460
0.124269 0.183902 0.211460
0.123629 0.183932 0.211734
0.123568 0.184237 0.212070
0.124910 0.185061 0.212863
0.129519 0.185977 0.212863
0.131197 0.186191 0.212436
0.133791 0.186160 0.212161
0.143069 0.187015 0.211826
0.158755 0.187839 0.211551
0.187137 0.189242 0.210697
0.229191 0.190585 0.209476
0.281224 0.190982 0.207950
0.338750 0.189822 0.205966
0.401007 0.186313 0.203494
0.467567 0.179629 0.200351
0.539513 0.168124 0.196353
0.618738 0.148074 0.191257
0.700984 0.112245 0.184909
0.781857 0.000000 0.177279
0.858061 0.000000 0.168704
0.926055 0.000000 0.159335
0.981659 0.000000 0.150332
1.000000 0.000000 0.142214
1.000000 0.000000 0.134920
1.000000 0.000000 0.128237
1.000000 0.000000 0.121889
1.000000 0.000000 0.116426
1.000000 0.000000 0.111574
1.000000 0.000000 0.108431
0.124086 0.183780 0.211215
0.124086 0.183780 0.211215
0.124086 0.183780 0.211215
0.123934 0.183932 0.211215
0.124422 0.183902 0.211215
0.125277 0.184329 0.211276
0.127291 0.185092 0.211551
0.132784 0.186404 0.212131
0.144289 0.188418 0.211917
0.148440 0.188724 0.211582
0.152987 0.189090 0.211215
0.159396 0.189761 0.210788
0.184329 0.191958 0.210025
0.218173 0.194461 0.208988
0.260746 0.196567 0.207706
0.309453 0.197879 0.205905
0.364141 0.197910 0.203647
0.424201 0.196109 0.200748
0.490974 0.192050 0.197116
0.566247 0.183474 0.192294
0.648157 0.168795 0.185946
0.731258 0.144747 0.178164
0.810849 0.105257 0.169436
0.884550 0.000000 0.159518
0.946777 0.000000 0.149416
0.996338 0.000000 0.140322
1.000000 0.000000 0.131777
1.000000 0.000000 0.124025
1.000000 0.000000 0.116487
1.000000 0.000000 0.109865
1.000000 0.000000 0.103731
1.000000 0.000000 0.099763
0.124575 0.184054 0.211460
0.124575 0.184054 0.211460
0.124575 0.184054 0.211460
0.124727 0.184360 0.211398
0.125856 0.184604 0.211246
0.127718 0.185397 0.211002
0.132113 0.186496 0.210849
0.140169 0.188327 0.210666
0.155673 0.191287 0.210666
0.186648 0.196597 0.209689
0.190158 0.196658 0.209506
0.192905 0.196658 0.209201
0.194583 0.196353 0.209079
0.206027 0.197147 0.208743
0.242588 0.200687 0.207370
0.285466 0.203799 0.205783
0.335241 0.206424 0.203555
0.390936 0.208133 0.200839
0.454261 0.208530 0.197269
0.525566 0.206790 0.192477
0.605310 0.201907 0.186007
0.689021 0.191897 0.178073
0.770779 0.176150 0.168673
0.847166 0.154452 0.158297
0.914733 0.125826 0.147066
0.969665 0.080537 0.136660
1.000000 0.000000 0.126864
1.000000 0.000000 0.117525
1.000000 0.000000 0.108370
1.000000 0.000000 0.099855
1.000000 0.000000 0.091951
1.000000 0.000000 0.085878
0.126802 0.185702 0.212924
0.126802 0.185702 0.212924
0.126802 0.185702 0.212924
0.127291 0.186130 0.212741
0.129610 0.186618 0.212284
0.132540 0.187655 0.211734
0.137484 0.188968 0.211032
0.146334 0.191318 0.210239
0.161929 0.194553 0.209537
0.188724 0.199496 0.208774
0.239353 0.209567 0.206668
0.239658 0.208377 0.206546
0.239200 0.207126 0.206729
0.237217 0.205661 0.206851
0.234592 0.204410 0.206943
0.259922 0.207126 0.205936
0.307378 0.212131 0.203769
0.362005 0.216922 0.200931
0.423896 0.221317 0.197116
0.492988 0.224613 0.192111
0.568566 0.225803 0.185641
0.647974 0.223697 0.177951
0.725795 0.217777 0.168856
0.800076 0.207675 0.158755
0.868437 0.194553 0.147738
0.928161 0.178408 0.136507
0.979065 0.160861 0.124971
1.000000 0.141512 0.113558
1.000000 0.122377 0.101747
1.000000 0.104372 0.089906
1.000000 0.084901 0.071321
1.000000 0.053346 0.051453
0.129580 0.187716 0.214817
0.129580 0.187716 0.214817
0.129580 0.187716 0.214817
0.131014 0.188083 0.214511
0.133639 0.188968 0.213993
0.137026 0.190249 0.213321
0.143191 0.192203 0.212253
0.153384 0.194949 0.211032
0.169253 0.199130 0.209628
0.195590 0.205234 0.207767
0.237034 0.213748 0.205600
0.310460 0.230716 0.200931
0.306615 0.227481 0.201480
0.301701 0.224338 0.202152
0.295750 0.221164 0.202823
0.289616 0.218296 0.203464
0.283268 0.215763 0.204044
0.332555 0.222599 0.201266
0.390051 0.229679 0.197543
0.454994 0.236332 0.192660
0.526543 0.242313 0.186404
0.603998 0.246372 0.178378
0.683742 0.247257 0.168826
0.760555 0.244572 0.157839
0.832151 0.239231 0.145693
0.896818 0.231724 0.132540
0.952819 0.222629 0.118898
1.000000 0.213230 0.104433
1.000000 0.204898 0.089052
1.000000 0.198276 0.057374
1.000000 0.193301 0.025483
1.000000 0.189883 0.002655
0.134646 0.190707 0.217929
0.134646 0.190707 0.217929
0.134554 0.190860 0.217807
0.136049 0.191501 0.217472
0.139132 0.192630 0.216800
0.144045 0.194461 0.215915
0.151583 0.197086 0.214755
0.163272 0.200931 0.213107
0.181369 0.206394 0.211002
0.209140 0.214481 0.208225
0.250553 0.225376 0.204471
0.307774 0.238926 0.199649
0.560967 0.334447 0.157534
0.538384 0.318791 0.165682
0.513909 0.303899 0.172763
0.489570 0.290257 0.178683
0.465858 0.277989 0.183597
0.444526 0.267796 0.187442
0.447883 0.264683 0.188052
0.522026 0.277379 0.179629
0.601160 0.288670 0.169223
0.680385 0.296574 0.156649
0.756039 0.300908 0.142733
0.827176 0.302586 0.126467
0.890990 0.302190 0.108003
0.945556 0.299321 0.087861
0.991333 0.295048 0.044404
1.000000 0.290288 0.003906
1.000000 0.285924 0.000000
1.000000 0.282078 0.000000
1.000000 0.278721 0.000000
1.000000 0.276829 0.000000
0.149874 0.201175 0.228092
0.149691 0.201053 0.228000
0.149691 0.200931 0.227543
0.152163 0.201999 0.226566
0.156649 0.203616 0.225040
0.163210 0.206241 0.223209
0.173495 0.210300 0.220890
0.189639 0.216281 0.218143
0.213962 0.225406 0.214572
0.250431 0.238834 0.209751
0.302525 0.258030 0.202853
0.374090 0.283360 0.192264
0.467445 0.312505 0.176211
0.615595 0.360479 0.139254
0.604059 0.349371 0.146365
0.583368 0.335271 0.155123
0.558984 0.320623 0.163424
0.533684 0.306676 0.170596
0.510704 0.294530 0.176272
0.490364 0.284276 0.180667
0.530236 0.290166 0.176059
0.609400 0.303655 0.164034
0.688228 0.313695 0.149935
0.764126 0.320592 0.133639
0.834806 0.324834 0.114137
0.898405 0.326696 0.090364
0.952636 0.326513 0.035920
0.999298 0.325200 0.000000
1.000000 0.323674 0.000000
1.000000 0.322911 0.000000
1.000000 0.322362 0.000000
1.000000 0.321996 0.000000
0.159091 0.207614 0.234226
0.158724 0.207370 0.234134
0.158419 0.207034 0.233402
0.160830 0.208072 0.232212
0.164981 0.209628 0.230747
0.171878 0.212467 0.228458
0.182345 0.216678 0.226047
0.198154 0.223178 0.223148
0.221530 0.232822 0.219303
0.255680 0.246738 0.214237
0.302617 0.266331 0.207187
0.366613 0.292546 0.196414
0.448768 0.323613 0.179934
0.548516 0.354955 0.155886
0.700130 0.402014 0.093568
0.682856 0.387243 0.111269
0.659236 0.370764 0.127413
0.633631 0.354498 0.140566
0.608515 0.339696 0.151064
0.584558 0.326238 0.159457
0.563958 0.315007 0.165713
0.548089 0.306065 0.170260
0.629023 0.321965 0.155917
0.708980 0.334630 0.138521
0.785031 0.343725 0.117861
0.855161 0.350347 0.090608
0.916838 0.354284 0.022736
0.969818 0.356268 0.000000
1.000000 0.357794 0.000000
1.000000 0.359411 0.000000
1.000000 0.361151 0.000000
1.000000 0.363134 0.000000
0.171542 0.216495 0.242863
0.171450 0.216373 0.242649
0.170230 0.215518 0.241917
0.172824 0.216464 0.240604
0.177188 0.218387 0.238682
0.184146 0.221408 0.236149
0.195407 0.226169 0.233371
0.211551 0.233494 0.229953
0.234745 0.244083 0.226017
0.267124 0.258762 0.220645
0.311498 0.279271 0.213199
0.369757 0.306035 0.202274
0.443977 0.338048 0.185428
0.532799 0.371557 0.160250
0.631861 0.399695 0.123995
0.774441 0.440894 0.000000
0.756954 0.424720 0.000000
0.732631 0.406836 0.071077
0.708553 0.390265 0.103639
0.684962 0.375097 0.120699
0.662837 0.361425 0.133364
0.644343 0.350225 0.142306
0.628748 0.340826 0.148959
0.655543 0.343236 0.144411
0.735286 0.357458 0.122560
0.810422 0.368475 0.093904
0.880003 0.377417 0.013245
0.940856 0.383917 0.000000
0.993622 0.389380 0.000000
1.000000 0.394812 0.000000
1.000000 0.400336 0.000000
1.000000 0.405859 0.000000
0.185916 0.226993 0.253025
0.185702 0.227024 0.252934
0.185306 0.226505 0.252506
0.187594 0.227604 0.251438
0.193362 0.230381 0.249699
0.202090 0.234714 0.247593
0.215396 0.241337 0.244968
0.233738 0.250828 0.241733
0.259098 0.263615 0.237369
0.291691 0.280552 0.231479
0.333806 0.301915 0.223056
0.386481 0.328099 0.211002
0.450813 0.357763 0.193759
0.526665 0.388739 0.169100
0.611566 0.416693 0.133761
0.698146 0.436072 0.072023
0.823911 0.470497 0.000000
0.816342 0.456947 0.000000
0.794430 0.439185 0.000000
0.773404 0.423133 0.000000
0.754940 0.409461 0.047944
0.737697 0.397070 0.090730
0.723110 0.386786 0.105196
0.711696 0.378332 0.115114
0.703456 0.371801 0.121828
0.772152 0.385107 0.094026
0.848203 0.399176 0.000000
0.915709 0.410224 0.000000
0.973541 0.419104 0.000000
1.000000 0.427100 0.000000
1.000000 0.434211 0.000000
1.000000 0.440955 0.000000
0.202701 0.240085 0.265537
0.202823 0.239994 0.265476
0.202152 0.239628 0.265049
0.203250 0.240116 0.264134
0.209689 0.243503 0.262577
0.219547 0.248661 0.260563
0.232914 0.255955 0.258030
0.251469 0.266178 0.254490
0.275731 0.279545 0.250248
0.306859 0.296818 0.244175
0.346532 0.318486 0.235904
0.395514 0.344518 0.224002
0.454566 0.374151 0.207401
0.524285 0.405493 0.183383
0.601678 0.434394 0.149599
0.681422 0.456886 0.098268
0.760525 0.471870 0.000000
0.871519 0.500908 0.000000
0.874571 0.490974 0.000000
0.856321 0.474098 0.000000
0.839506 0.459174 0.000000
0.824857 0.446387 0.000000
0.811704 0.435157 0.000000
0.800443 0.425422 0.000000
0.792569 0.417975 0.000000
0.788296 0.412573 0.023102
0.814145 0.416510 0.000000
0.888914 0.432776 0.000000
0.952880 0.445869 0.000000
1.000000 0.457221 0.000000
1.000000 0.467170 0.000000
1.000000 0.476112 0.000000
0.226505 0.259434 0.284123
0.226993 0.259678 0.284428
0.259190 0.288273 0.312047
0.258885 0.287785 0.310765
0.267033 0.292882 0.308934
0.278691 0.300084 0.306035
0.294835 0.310338 0.302434
0.316228 0.323796 0.297734
0.343999 0.341497 0.291875
0.379614 0.363745 0.284154
0.423072 0.389990 0.273716
0.475471 0.419440 0.258885
0.535790 0.449897 0.238010
0.601678 0.478248 0.209720
0.669123 0.501762 0.171603
0.737057 0.520043 0.113527
0.803647 0.532158 0.000000
0.866178 0.537560 0.000000
0.947021 0.554253 0.000000
0.952880 0.543633 0.000000
0.937530 0.525963 0.000000
0.924071 0.511009 0.000000
0.912291 0.498085 0.000000
0.901579 0.486732 0.000000
0.891081 0.476143 0.000000
0.883421 0.467750 0.000000
0.878904 0.461524 0.000000
0.879484 0.458534 0.000000
0.933501 0.471077 0.000000
0.990173 0.484810 0.000000
1.000000 0.497322 0.000000
1.000000 0.508446 0.000000
0.263645 0.292393 0.316014
0.266911 0.295445 0.318944
0.269780 0.298161 0.321599
0.271733 0.300023 0.323430
0.280156 0.306279 0.324010
0.292485 0.314549 0.322393
0.307988 0.324804 0.319280
0.327764 0.337530 0.314794
0.353277 0.354223 0.309514
0.385443 0.374853 0.302403
0.425147 0.399481 0.293095
0.472480 0.427222 0.280461
0.527337 0.456184 0.262699
0.587366 0.484016 0.239506
0.650172 0.508629 0.209171
0.714412 0.529259 0.167453
0.778378 0.545190 0.099886
0.840635 0.555840 0.000000
0.898466 0.560235 0.000000
0.970550 0.575158 0.000000
0.983032 0.568048 0.000000
0.973236 0.553429 0.000000
0.964019 0.540215 0.000000
0.955657 0.528618 0.000000
0.947936 0.518151 0.000000
0.940826 0.508843 0.000000
0.936370 0.501793 0.000000
0.935576 0.497505 0.000000
0.940093 0.496956 0.000000
0.966247 0.504631 0.000000
1.000000 0.520470 0.000000
1.000000 0.534386 0.000000
0.286198 0.314061 0.337102
0.289586 0.317418 0.340398
0.292912 0.320714 0.343694
0.295537 0.323339 0.346197
0.300633 0.327276 0.347295
0.312718 0.335851 0.346197
0.327886 0.346380 0.343297
0.347082 0.359167 0.339239
0.371191 0.375433 0.334081
0.401404 0.395178 0.327459
0.438483 0.418616 0.318883
0.482673 0.444953 0.307561
0.533623 0.472663 0.292485
0.589075 0.499550 0.272923
0.647517 0.524254 0.247593
0.707179 0.545586 0.214633
0.767391 0.563256 0.169375
0.826108 0.576440 0.094057
0.881376 0.584253 0.000000
0.932555 0.586664 0.000000
0.994324 0.598474 0.000000
1.000000 0.593591 0.000000
1.000000 0.580713 0.000000
0.997864 0.568872 0.000000
0.991913 0.558160 0.000000
0.986816 0.548699 0.000000
0.982757 0.540917 0.000000
0.981415 0.535668 0.000000
0.984192 0.533989 0.000000
0.991516 0.536156 0.000000
1.000000 0.542718 0.000000
1.000000 0.558495 0.000000
0.313603 0.341497 0.364111
0.317174 0.345037 0.367681
0.320409 0.348516 0.371038
0.323095 0.351202 0.373663
0.323919 0.352087 0.374578
0.334997 0.360174 0.373785
0.349615 0.370611 0.371283
0.368261 0.383368 0.367346
0.392004 0.399542 0.362829
0.420813 0.418738 0.356695
0.456153 0.441474 0.349218
0.498024 0.466712 0.339239
0.545342 0.492775 0.326177
0.596765 0.518425 0.309545
0.650874 0.542565 0.288823
0.707454 0.564752 0.262303
0.765499 0.584833 0.228916
0.822782 0.601434 0.184115
0.877165 0.613703 0.116030
0.927672 0.621271 0.000000
0.973663 0.623774 0.000000
1.000000 0.633448 0.000000
1.000000 0.630365 0.000000
1.000000 0.620417 0.000000
1.000000 0.611383 0.000000
1.000000 0.603326 0.000000
1.000000 0.597009 0.000000
1.000000 0.592767 0.000000
1.000000 0.591699 0.000000
1.000000 0.594079 0.000000
1.000000 0.600153 0.000000
1.000000 0.609857 0.000000
0.372778 0.402716 0.424628
0.374456 0.404547 0.426429
0.375280 0.405402 0.427314
0.375097 0.405127 0.427008
0.373693 0.403662 0.425605
0.376440 0.405127 0.422736
0.390478 0.414801 0.419379
0.409064 0.427619 0.415534
0.432654 0.443732 0.410773
0.462409 0.463416 0.405615
0.497597 0.485664 0.399084
0.538231 0.509545 0.390692
0.581720 0.533318 0.379858
0.629236 0.556970 0.366094
0.678614 0.579278 0.348486
0.729763 0.600092 0.326574
0.781491 0.618738 0.299687
0.831815 0.634119 0.266453
0.879362 0.645563 0.224033
0.923980 0.653162 0.165743
0.964843 0.656489 0.000000
1.000000 0.655085 0.000000
1.000000 0.659266 0.000000
1.000000 0.654505 0.000000
1.000000 0.644739 0.000000
1.000000 0.636439 0.000000
1.000000 0.629877 0.000000
1.000000 0.625635 0.000000
1.000000 0.623987 0.000000
1.000000 0.625208 0.000000
1.000000 0.629603 0.000000
1.000000 0.637293 0.000000
0.413001 0.443946 0.465156
0.414679 0.445655 0.466835
0.415808 0.446662 0.467811
0.415717 0.446601 0.467750
0.414191 0.445136 0.466346
0.411627 0.442573 0.463783
0.423194 0.450233 0.460609
0.441138 0.462684 0.457130
0.464668 0.478370 0.452979
0.493324 0.496956 0.448524
0.526329 0.517449 0.443000
0.563622 0.539300 0.436469
0.604578 0.561700 0.427741
0.648310 0.584070 0.416846
0.694423 0.605890 0.403143
0.741970 0.626490 0.385962
0.789761 0.645106 0.365454
0.835386 0.660731 0.340612
0.879149 0.673304 0.310094
0.920104 0.682490 0.272557
0.958221 0.687984 0.223514
0.993713 0.689296 0.150332
1.000000 0.685847 0.000000
1.000000 0.686549 0.000000
1.000000 0.672969 0.000000
1.000000 0.663966 0.000000
1.000000 0.657130 0.000000
1.000000 0.652277 0.000000
1.000000 0.649989 0.000000
1.000000 0.650477 0.000000
1.000000 0.654017 0.000000
1.000000 0.660670 0.000000
0.483528 0.511070 0.529839
0.487068 0.514275 0.532830
0.488045 0.515099 0.533654
0.486397 0.513664 0.532250
0.482612 0.510216 0.528985
0.476844 0.505058 0.524071
0.473732 0.501518 0.518029
0.488228 0.510033 0.511925
0.506798 0.521111 0.505272
0.530297 0.534966 0.498634
0.557183 0.550561 0.491096
0.589136 0.568383 0.483009
0.624170 0.586938 0.473793
0.661769 0.605707 0.462440
0.701137 0.623774 0.448524
0.742428 0.641474 0.432227
0.784298 0.657954 0.413214
0.826078 0.672847 0.391974
0.867033 0.686244 0.368048
0.906523 0.697444 0.340185
0.943481 0.705653 0.305760
0.977661 0.709987 0.262028
1.000000 0.709560 0.199039
1.000000 0.704005 0.053010
1.000000 0.701259 0.000000
1.000000 0.694026 0.000000
1.000000 0.685389 0.000000
1.000000 0.679042 0.000000
1.000000 0.675166 0.000000
1.000000 0.674434 0.000000
1.000000 0.676570 0.000000
1.000000 0.681849 0.000000
0.525048 0.547539 0.564172
0.528527 0.550469 0.566918
0.530205 0.551965 0.568292
0.529656 0.551507 0.567895
0.527703 0.549767 0.566278
0.524498 0.547021 0.563714
0.520836 0.543938 0.560784
0.528405 0.548272 0.557549
0.548272 0.560845 0.554131
0.571832 0.575280 0.550652
0.598627 0.591119 0.545983
0.628595 0.608331 0.540673
0.660853 0.625788 0.533837
0.695033 0.643275 0.524926
0.730129 0.659907 0.513756
0.765682 0.675502 0.500603
0.801511 0.690089 0.485451
0.837247 0.703517 0.468574
0.872831 0.715938 0.449928
0.907256 0.726802 0.428992
0.940185 0.735439 0.403784
0.971252 0.741024 0.372961
1.000000 0.742763 0.332525
1.000000 0.740261 0.278691
1.000000 0.732937 0.200717
1.000000 0.727413 0.000000
1.000000 0.718929 0.000000
1.000000 0.711574 0.000000
1.000000 0.707179 0.000000
1.000000 0.705776 0.000000
1.000000 0.707362 0.000000
1.000000 0.711727 0.000000
0.590417 0.602106 0.614862
0.592187 0.603571 0.616175
0.592706 0.603967 0.616571
0.591791 0.603265 0.615900
0.589593 0.601434 0.614221
0.586328 0.598810 0.611780
0.582483 0.595636 0.608850
0.578027 0.591943 0.605493
0.592737 0.600763 0.602014
0.613336 0.613336 0.598505
0.637079 0.627314 0.594354
0.663935 0.642847 0.589837
0.692714 0.658778 0.584253
0.722713 0.674525 0.577111
0.753109 0.689296 0.567895
0.783536 0.703151 0.557214
0.814145 0.716274 0.545190
0.845151 0.728695 0.532006
0.875975 0.740475 0.517723
0.906249 0.751278 0.502373
0.935424 0.760220 0.484443
0.963317 0.766690 0.462318
0.990021 0.769772 0.432990
1.000000 0.769253 0.394751
1.000000 0.764553 0.343084
1.000000 0.755459 0.273655
1.000000 0.747494 0.174777
1.000000 0.737179 0.000000
1.000000 0.730648 0.000000
1.000000 0.727993 0.000000
1.000000 0.729152 0.000000
1.000000 0.732876 0.027131
0.647517 0.648188 0.657191
0.648920 0.649317 0.658198
0.649866 0.650080 0.658900
0.649744 0.649989 0.658808
0.649500 0.649775 0.658625
0.649439 0.649714 0.658595
0.651057 0.651057 0.659785
0.653285 0.652796 0.661372
0.659419 0.657374 0.663600
0.684474 0.673945 0.665949
0.711086 0.691493 0.668238
0.738186 0.708858 0.669734
0.765072 0.725612 0.669947
0.790829 0.740902 0.668391
0.815274 0.754665 0.664881
0.838254 0.766415 0.658442
0.860594 0.777005 0.650477
0.883085 0.786954 0.641444
0.905547 0.796323 0.632044
0.927855 0.804837 0.621912
0.949737 0.812039 0.610315
0.971130 0.817380 0.596002
0.991974 0.820157 0.577264
1.000000 0.820249 0.553063
1.000000 0.817166 0.521508
1.000000 0.810391 0.479408
1.000000 0.799313 0.422339
1.000000 0.787411 0.348394
1.000000 0.772915 0.248783
1.000000 0.767178 0.223056
1.000000 0.766995 0.236240
1.000000 0.770352 0.274022
0.750118 0.730800 0.732784
0.750118 0.730800 0.732784
0.749538 0.730312 0.732357
0.748470 0.729427 0.731533
0.746975 0.728206 0.730434
0.745327 0.726864 0.729183
0.743740 0.725521 0.727932
0.742306 0.724361 0.726864
0.741115 0.723384 0.725978
0.746609 0.726894 0.724941
0.763119 0.737484 0.723384
0.780911 0.748806 0.721736
0.799527 0.760281 0.719417
0.818051 0.771420 0.716365
