20 Preset/City Style/【3】LUT video cho PR-AE-FCPX/TONE 2/Darky Rain.cube
# Created by Adobe Lightroom plugin Export LUT (1.24.0)
# www.johnrellis.com/lightroom/exportlut.htm
# Preset: Darky Rain
# Color profile: E:\lut插件\exportlut.1.24\exportlut.lrplugin\color profiles\Rec709gamma2.4.icc
LUT_3D_SIZE 8
DOMAIN_MIN 0.000000 0.000000 0.000000
DOMAIN_MAX 0.903226 0.903226 0.903226
0.000000 0.104311 0.128176
0.000000 0.105043 0.128573
0.077882 0.107851 0.130648
0.231876 0.107271 0.136782
0.450660 0.070649 0.153109
0.767330 0.020081 0.194339
1.000000 0.263157 0.290166
1.000000 0.443732 0.427741
0.000000 0.105898 0.129793
0.000000 0.107424 0.129610
0.041688 0.111482 0.132692
0.196689 0.117281 0.139132
0.399451 0.110872 0.155367
0.688167 0.112337 0.191012
0.953246 0.225528 0.261845
1.000000 0.405127 0.390295
0.000000 0.118807 0.144717
0.000000 0.122988 0.149233
0.081178 0.142458 0.141054
0.195865 0.158663 0.165682
0.405676 0.185428 0.188113
0.722652 0.249210 0.240177
0.990234 0.379614 0.350072
1.000000 0.525414 0.489326
0.107118 0.173251 0.200626
0.114778 0.178225 0.205600
0.160037 0.208286 0.234897
0.311559 0.296147 0.197421
0.483833 0.358404 0.306798
0.771420 0.439857 0.368597
0.968139 0.527428 0.463874
1.000000 0.625330 0.573144
0.264775 0.293523 0.317082
0.272404 0.300664 0.324041
0.313085 0.340917 0.363592
0.397253 0.427924 0.449470
0.563256 0.517235 0.296696
0.704341 0.537621 0.431922
0.894102 0.624628 0.548547
1.000000 0.711604 0.649805
0.437629 0.468238 0.488777
0.465827 0.494911 0.514397
0.506523 0.531487 0.549096
0.592248 0.603632 0.616236
0.689601 0.681819 0.687922
0.824460 0.733089 0.497871
0.915465 0.749233 0.623590
0.960815 0.810361 0.757168
0.686519 0.679408 0.685695
0.698116 0.688685 0.694179
0.721675 0.707607 0.711513
0.770047 0.747311 0.748043
0.825589 0.795865 0.793484
0.872831 0.841398 0.837339
0.935637 0.855772 0.694881
0.972259 0.856382 0.758206
0.870726 0.839231 0.835233
0.872679 0.841215 0.837186
0.882292 0.851102 0.846860
0.900175 0.870268 0.865843
0.905303 0.875944 0.871550
0.930266 0.905089 0.900969
0.950072 0.926696 0.914397
0.977203 0.929473 0.845579
0.000000 0.104891 0.129397
0.000000 0.104616 0.129885
0.057404 0.106508 0.131624
0.187778 0.111666 0.141817
0.387121 0.100771 0.160311
0.656733 0.078096 0.194675
0.919066 0.180362 0.254520
1.000000 0.357305 0.363226
0.000000 0.106172 0.130282
0.000000 0.107698 0.132143
0.034791 0.111879 0.136080
0.181247 0.119478 0.145418
0.374487 0.119142 0.164370
0.633417 0.123537 0.197910
0.883207 0.187716 0.249241
1.000000 0.339544 0.345983
0.000000 0.118807 0.144717
0.000000 0.122438 0.148653
0.050141 0.139315 0.149233
0.179873 0.156222 0.168856
0.370794 0.179202 0.190311
0.632197 0.221897 0.229953
0.895445 0.299260 0.295964
1.000000 0.441199 0.416144
0.090272 0.162905 0.190494
0.098299 0.167880 0.195346
0.141451 0.195407 0.222446
0.250156 0.250797 0.194736
0.380011 0.286351 0.260472
0.630732 0.351904 0.303258
0.877592 0.429389 0.375616
1.000000 0.540246 0.490089
0.248905 0.278904 0.302922
0.253696 0.283268 0.307134
0.286473 0.314183 0.337285
0.352667 0.381781 0.403937
0.485817 0.454261 0.278019
0.625452 0.481849 0.391882
0.849424 0.573571 0.499184
0.988067 0.668666 0.604700
0.402655 0.433539 0.454963
0.411536 0.442420 0.463691
0.447944 0.478157 0.498360
0.533135 0.554467 0.570611
0.640192 0.642329 0.651820
0.794797 0.708949 0.479286
0.897490 0.727565 0.601984
0.953948 0.791226 0.734463
0.640467 0.642512 0.652003
0.640864 0.642847 0.652277
0.665095 0.662257 0.670008
0.723659 0.709194 0.712978
0.798917 0.771969 0.770962
0.854307 0.822934 0.819425
0.921843 0.837461 0.662379
0.964569 0.836912 0.727016
0.852201 0.820890 0.817441
0.857633 0.826200 0.822568
0.868070 0.836576 0.832639
0.888853 0.858030 0.853727
0.911894 0.883421 0.879057
0.931640 0.906737 0.902678
0.948669 0.925170 0.913481
0.976013 0.927733 0.843259
0.000000 0.108400 0.138613
0.000000 0.107881 0.142092
0.091096 0.104097 0.150332
0.260746 0.079744 0.148440
0.448951 0.036622 0.179782
0.724331 0.095033 0.240787
0.952331 0.249607 0.330602
1.000000 0.426856 0.449134
0.000000 0.113252 0.142702
0.000000 0.114504 0.146090
0.077974 0.111513 0.154879
0.235508 0.107362 0.156649
0.417700 0.110140 0.187167
0.679896 0.144991 0.244419
0.920806 0.246403 0.319158
1.000000 0.411780 0.432654
0.000000 0.127901 0.154696
0.000000 0.131380 0.158236
0.029572 0.145937 0.173404
0.199710 0.166476 0.193973
0.412024 0.199924 0.230655
0.677333 0.251926 0.283421
0.918761 0.340185 0.360998
1.000000 0.479011 0.475624
0.102327 0.170016 0.197635
0.113802 0.177340 0.204776
0.156619 0.205875 0.232639
0.253849 0.268009 0.252659
0.415229 0.319341 0.304662
0.674067 0.388678 0.360815
0.906767 0.474342 0.445319
1.000000 0.584588 0.553216
0.249943 0.279820 0.303807
0.257145 0.286473 0.310185
0.291264 0.319066 0.342016
0.368048 0.397833 0.419837
0.497993 0.479133 0.356329
0.626154 0.510735 0.458595
0.859281 0.596063 0.539727
0.987610 0.688563 0.638025
0.397620 0.428351 0.449928
0.407050 0.438025 0.459327
0.439673 0.470253 0.490730
0.513848 0.537896 0.555138
0.623590 0.629023 0.639582
0.772641 0.700557 0.520928
0.882139 0.728359 0.630396
0.953643 0.798276 0.748714
0.646113 0.647089 0.656153
0.647700 0.648341 0.657282
0.666835 0.663661 0.671290
0.718074 0.704677 0.708827
0.790860 0.764981 0.764431
0.854215 0.822873 0.819333
0.920775 0.844602 0.700038
0.962890 0.850004 0.762356
0.848508 0.817350 0.814023
0.849363 0.818173 0.814786
0.860075 0.828611 0.824887
0.885252 0.854215 0.849943
0.908934 0.880064 0.875669
0.932067 0.907256 0.903227
0.949493 0.927581 0.919554
0.975219 0.930236 0.854490
0.000000 0.121248 0.174868
0.000000 0.122255 0.182620
0.000000 0.116335 0.202060
0.275059 0.063661 0.222965
0.568994 0.000000 0.202182
0.809476 0.000000 0.256138
0.980011 0.183413 0.343450
1.000000 0.407141 0.466072
0.000000 0.135012 0.186709
0.000000 0.136751 0.192416
0.000000 0.130007 0.211276
0.277012 0.097505 0.232609
0.571588 0.000000 0.216617
0.797177 0.000000 0.270481
0.967559 0.223362 0.354925
1.000000 0.421424 0.475013
0.000000 0.162783 0.202213
0.000000 0.166781 0.206638
0.084993 0.179995 0.225010
0.242924 0.164950 0.252049
0.527977 0.166690 0.266484
0.774533 0.247349 0.340703
0.969604 0.391516 0.451667
1.000000 0.532006 0.557733
0.107179 0.209628 0.235782
0.118196 0.213565 0.239628
0.161868 0.233371 0.258793
0.237491 0.274601 0.298711
0.422675 0.325048 0.346746
0.669825 0.391333 0.410803
0.899962 0.484810 0.498756
1.000000 0.603937 0.600793
0.259739 0.300511 0.321965
0.265019 0.302953 0.324712
0.293797 0.321508 0.344488
0.367285 0.397040 0.419043
0.490181 0.502525 0.478309
0.660273 0.552544 0.528771
0.876829 0.632258 0.603143
0.986969 0.714015 0.683467
0.413428 0.444404 0.465583
0.433783 0.464576 0.485206
0.461463 0.490913 0.510613
0.534356 0.555444 0.571588
0.648402 0.648920 0.657801
0.767422 0.715450 0.614832
0.866453 0.746822 0.692500
0.954864 0.810971 0.773098
0.635828 0.638849 0.648585
0.644800 0.646021 0.655207
0.674403 0.669673 0.676814
0.729671 0.714076 0.717433
0.798398 0.771511 0.770535
0.860929 0.829435 0.825681
0.915312 0.851377 0.748318
0.956054 0.860380 0.798550
0.851041 0.819760 0.816342
0.853178 0.821866 0.818357
0.863096 0.831601 0.827787
0.882658 0.851469 0.847257
0.906157 0.876890 0.872496
0.930938 0.905882 0.901793
0.949798 0.929686 0.926268
0.973938 0.934325 0.872038
0.000000 0.162753 0.262852
0.000000 0.165103 0.272526
0.000000 0.156283 0.295140
0.180026 0.127016 0.335424
0.582971 0.000000 0.391821
0.945892 0.000000 0.335393
1.000000 0.000000 0.389410
1.000000 0.413336 0.512139
0.000000 0.183474 0.277684
0.000000 0.186709 0.287388
0.000000 0.178103 0.309728
0.185214 0.145113 0.343694
0.579034 0.000000 0.400000
0.937926 0.000000 0.349615
1.000000 0.123629 0.405188
1.000000 0.433753 0.523705
0.004822 0.230472 0.302220
0.056306 0.234318 0.307958
0.144320 0.247105 0.332097
0.205905 0.219638 0.369146
0.528435 0.172061 0.409735
0.863890 0.068940 0.378668
1.000000 0.300389 0.447791
1.000000 0.482704 0.549706
0.145296 0.289067 0.332738
0.158175 0.293614 0.337560
0.206485 0.315587 0.361822
0.286595 0.351812 0.406958
0.464851 0.326421 0.453498
0.790585 0.373175 0.465217
0.945556 0.480537 0.541985
1.000000 0.595514 0.624567
0.244419 0.350286 0.372076
0.252781 0.355993 0.377691
0.284459 0.375189 0.396857
0.342473 0.412329 0.433845
0.420386 0.461067 0.481880
0.628809 0.520012 0.537865
0.856382 0.600519 0.610529
0.982391 0.691676 0.688075
0.363012 0.425879 0.442969
0.369024 0.429999 0.447181
0.386450 0.438636 0.456641
0.429511 0.464851 0.484565
0.529961 0.551751 0.568078
0.697475 0.680751 0.659663
0.838895 0.737606 0.712001
0.952667 0.801877 0.775570
0.577752 0.591699 0.605249
0.579004 0.592737 0.606226
0.597528 0.607904 0.620172
0.659205 0.657527 0.665705
0.746578 0.727840 0.730098
0.832090 0.801846 0.799161
0.893309 0.839841 0.770901
0.937560 0.853147 0.812955
0.800656 0.773495 0.772396
0.803372 0.775875 0.774624
0.816617 0.787716 0.785763
0.853422 0.822080 0.818601
0.886168 0.855192 0.850919
0.917967 0.890410 0.886076
0.943542 0.921599 0.917906
0.967193 0.929473 0.875731
0.000000 0.264408 0.448463
0.000000 0.266697 0.457923
0.000000 0.251194 0.477180
0.202853 0.225528 0.531365
0.491798 0.116030 0.589654
0.927611 0.000000 0.615625
1.000000 0.222019 0.538811
1.000000 0.466407 0.597986
0.000000 0.272465 0.436561
0.000000 0.272496 0.441474
0.000549 0.267674 0.466072
0.192660 0.233677 0.505058
0.450660 0.149203 0.561181
0.892515 0.000000 0.598566
1.000000 0.216159 0.530602
1.000000 0.457221 0.590234
0.137118 0.356085 0.491188
0.158053 0.359136 0.496101
0.211490 0.366735 0.517906
0.245823 0.324712 0.535119
0.414130 0.251682 0.574914
0.868315 0.215640 0.618341
1.000000 0.387976 0.580591
1.000000 0.543664 0.636286
0.225437 0.439521 0.527153
0.237522 0.441047 0.529046
0.293004 0.460090 0.550072
0.403388 0.504112 0.602045
0.464271 0.447974 0.636500
0.842741 0.449775 0.674189
1.000000 0.581476 0.671260
1.000000 0.672724 0.715572
0.290471 0.481910 0.525109
0.299657 0.485634 0.528771
0.338903 0.503899 0.546654
0.416571 0.540520 0.582666
0.522545 0.580285 0.626154
0.703792 0.545739 0.663722
0.953002 0.643977 0.689967
1.000000 0.722988 0.741726
0.387366 0.529686 0.545769
0.401312 0.540093 0.555505
0.428687 0.552667 0.567285
0.482582 0.577630 0.590906
0.556573 0.612024 0.623133
0.663630 0.669001 0.676081
0.852049 0.736690 0.737667
0.960235 0.801022 0.794736
0.594934 0.652186 0.654139
0.604761 0.658076 0.659724
0.623804 0.665797 0.667567
0.659815 0.681086 0.683223
0.710933 0.703700 0.706905
0.801022 0.773831 0.772702
0.881163 0.843870 0.821592
0.934295 0.867887 0.848600
0.773190 0.753689 0.753079
0.772335 0.751949 0.751705
0.780789 0.756344 0.756405
0.811093 0.782712 0.781064
0.851377 0.820096 0.816678
0.896971 0.866789 0.862394
0.934966 0.910796 0.906859
0.960296 0.927672 0.889677
0.000000 0.403815 0.644343
0.000000 0.408453 0.652735
0.169406 0.403693 0.666407
0.254551 0.362585 0.692500
0.427527 0.288884 0.719448
0.796933 0.127901 0.765621
1.000000 0.272313 0.742275
1.000000 0.521111 0.680446
0.000000 0.405921 0.630030
0.093385 0.411200 0.639307
0.179568 0.407935 0.653468
0.247349 0.366125 0.675380
0.408209 0.295628 0.702052
0.759701 0.150423 0.745388
1.000000 0.237339 0.726497
1.000000 0.484047 0.660060
0.239353 0.482521 0.657343
0.259342 0.486030 0.661280
0.288518 0.482094 0.670344
0.324498 0.452766 0.689479
0.427649 0.382757 0.710567
0.731167 0.289189 0.749325
1.000000 0.390997 0.748135
1.000000 0.592187 0.710658
0.335027 0.564446 0.681971
0.343847 0.563592 0.681666
0.396063 0.572473 0.690669
0.482277 0.590478 0.714412
0.506828 0.540215 0.733639
0.681666 0.451942 0.763729
1.000000 0.554864 0.780392
1.000000 0.695338 0.763668
0.393317 0.611444 0.677790
0.397559 0.609949 0.676753
0.434577 0.617578 0.684077
0.513451 0.640314 0.706538
0.621057 0.670039 0.738125
0.653742 0.605249 0.759030
0.945037 0.642725 0.789517
1.000000 0.768124 0.803555
0.482368 0.660029 0.685420
0.491249 0.663233 0.688258
0.523278 0.674311 0.698512
0.581903 0.695216 0.717952
0.660975 0.723659 0.745266
0.760250 0.761563 0.784482
0.886229 0.746883 0.814633
0.992340 0.826444 0.838468
0.605646 0.713313 0.713771
0.614221 0.717433 0.717617
0.634546 0.724758 0.724605
0.674739 0.740475 0.739528
0.726101 0.760586 0.758846
0.785946 0.787076 0.784451
0.845029 0.818906 0.815488
0.939849 0.861082 0.855711
0.771847 0.795590 0.786862
0.775296 0.797147 0.788510
0.791653 0.805478 0.797116
0.812894 0.814786 0.807065
0.838834 0.826047 0.819425
0.868254 0.840055 0.835355
0.915221 0.887236 0.882872
0.952422 0.927245 0.910277
0.403754 0.594507 0.804654
0.418036 0.597467 0.807858
0.444800 0.591577 0.811276
0.467140 0.560632 0.824918
0.538872 0.501091 0.840543
0.679896 0.387976 0.857206
1.000000 0.381445 0.887938
1.000000 0.571679 0.833371
0.400397 0.593683 0.797177
0.414679 0.597101 0.800717
0.445441 0.594476 0.806210
0.466621 0.565026 0.818906
0.532921 0.506432 0.834745
0.670588 0.396429 0.851743
0.996612 0.377050 0.882078
1.000000 0.560998 0.829068
0.467262 0.634180 0.797696
0.474708 0.635218 0.799619
0.494697 0.632258 0.804105
0.549371 0.632532 0.820401
0.568231 0.571069 0.834043
0.672084 0.468910 0.848966
0.972717 0.444831 0.878294
1.000000 0.606500 0.835996
0.508812 0.675563 0.797024
0.524285 0.680049 0.800107
0.569757 0.689906 0.806943
0.623987 0.699245 0.820462
0.642054 0.670283 0.834562
0.698054 0.594812 0.850767
0.932708 0.555627 0.877043
1.000000 0.688716 0.852903
0.535912 0.712703 0.793637
0.547631 0.716182 0.796475
0.576318 0.720516 0.801205
0.649622 0.738766 0.815579
0.724880 0.755612 0.832975
0.735073 0.711452 0.847318
0.867430 0.646998 0.870298
1.000000 0.761776 0.870420
0.597223 0.755367 0.795285
0.598871 0.754604 0.794919
0.614954 0.756008 0.796963
0.659144 0.765957 0.806912
0.730190 0.785916 0.826535
0.824155 0.820554 0.857450
0.851530 0.785824 0.877592
0.991821 0.840513 0.897490
0.695491 0.803311 0.812284
0.698512 0.803922 0.812924
0.712520 0.807218 0.816220
0.745144 0.816953 0.825834
0.791043 0.832547 0.841154
0.845426 0.855100 0.863432
0.897185 0.879820 0.889555
0.959716 0.875273 0.905791
0.789944 0.841337 0.834989
0.791379 0.841642 0.835294
0.800656 0.844663 0.838468
0.821134 0.852567 0.846647
0.847288 0.863279 0.857725
0.876188 0.876646 0.871550
0.906523 0.893431 0.888884
0.933288 0.911009 0.907073
