20 Preset/City Style/【3】LUT video cho PR-AE-FCPX/TONE 2/Darky EYES.cube
# Created by Adobe Lightroom plugin Export LUT (1.24.0)
# www.johnrellis.com/lightroom/exportlut.htm
# Preset: Darky EYES
# Color profile: E:\lut插件\exportlut.1.24\exportlut.lrplugin\color profiles\Rec709gamma2.4.icc
LUT_3D_SIZE 32
DOMAIN_MIN 0.0 0.0 0.0
DOMAIN_MAX 1.0 1.0 1.0
0.000000 0.109194 0.133944
0.000000 0.109224 0.134157
0.001251 0.110170 0.134951
0.025696 0.110903 0.136202
0.017456 0.113252 0.138613
0.015137 0.115328 0.140932
0.126986 0.114565 0.142672
0.226902 0.102846 0.142885
0.337957 0.028504 0.141970
0.448920 0.000000 0.139132
0.555047 0.000000 0.134371
0.656611 0.000000 0.127321
0.746273 0.000000 0.118654
0.819089 0.000000 0.107729
0.878416 0.000000 0.094789
0.927001 0.000000 0.070985
0.993988 0.000000 0.008301
1.000000 0.000000 0.000000
1.000000 0.000000 0.000000
1.000000 0.000000 0.000000
1.000000 0.000000 0.000000
1.000000 0.000000 0.000000
1.000000 0.000000 0.000000
1.000000 0.000000 0.000000
1.000000 0.000000 0.000000
1.000000 0.000000 0.009918
1.000000 0.000000 0.059113
1.000000 0.000000 0.097230
1.000000 0.000000 0.120058
1.000000 0.000000 0.142702
1.000000 0.000000 0.165377
1.000000 0.000000 0.188693
0.000000 0.110628 0.135744
0.000000 0.110903 0.134707
0.000000 0.112581 0.135927
0.019959 0.112947 0.137209
0.016083 0.114168 0.139437
0.006867 0.116152 0.141573
0.114809 0.116304 0.142916
0.210147 0.108064 0.143252
0.316381 0.066407 0.142519
0.424689 0.000000 0.139712
0.530877 0.000000 0.135378
0.633234 0.000000 0.128756
0.725551 0.000000 0.120302
0.800595 0.000000 0.109468
0.862913 0.000000 0.097108
0.915496 0.000000 0.076356
0.981415 0.000000 0.015717
1.000000 0.000000 0.000000
1.000000 0.000000 0.000000
1.000000 0.000000 0.000000
1.000000 0.000000 0.000000
1.000000 0.000000 0.000000
1.000000 0.000000 0.000000
1.000000 0.000000 0.000000
1.000000 0.000000 0.000000
1.000000 0.000000 0.000000
1.000000 0.000000 0.025849
1.000000 0.000000 0.079347
1.000000 0.000000 0.107027
1.000000 0.000000 0.130892
1.000000 0.000000 0.154788
1.000000 0.000000 0.178622
0.000000 0.115816 0.141238
0.000000 0.116335 0.141176
0.000000 0.115999 0.137697
0.002472 0.118349 0.140902
0.003052 0.118532 0.142885
0.000000 0.118807 0.144472
0.093599 0.120821 0.144930
0.183810 0.118410 0.144808
0.286809 0.101656 0.143252
0.394263 0.010986 0.140536
0.500389 0.000000 0.135775
0.603601 0.000000 0.129000
0.699153 0.000000 0.120089
0.778897 0.000000 0.108980
0.844511 0.000000 0.095888
0.905699 0.000000 0.068055
0.969055 0.000000 0.009735
1.000000 0.000000 0.000000
1.000000 0.000000 0.000000
1.000000 0.000000 0.000000
1.000000 0.000000 0.000000
1.000000 0.000000 0.000000
1.000000 0.000000 0.000000
1.000000 0.000000 0.000000
1.000000 0.000000 0.000000
1.000000 0.000000 0.000000
1.000000 0.000000 0.011261
1.000000 0.000000 0.064302
1.000000 0.000000 0.101961
1.000000 0.000000 0.126375
1.000000 0.000000 0.150423
1.000000 0.000000 0.174655
0.000000 0.121675 0.147677
0.000000 0.121675 0.147677
0.000000 0.122103 0.146517
0.001740 0.120577 0.142916
0.000000 0.120027 0.145449
0.000000 0.121065 0.147768
0.042634 0.124453 0.147585
0.148745 0.128176 0.146548
0.245731 0.124331 0.144503
0.351568 0.105104 0.141054
0.458106 0.008545 0.135775
0.562249 0.000000 0.128450
0.660273 0.000000 0.118227
0.746517 0.000000 0.105837
0.816922 0.000000 0.090974
0.889586 0.000000 0.046784
0.949248 0.000000 0.000000
0.992584 0.000000 0.000000
1.000000 0.000000 0.000000
1.000000 0.000000 0.000000
1.000000 0.000000 0.000000
1.000000 0.000000 0.000000
1.000000 0.000000 0.000000
1.000000 0.000000 0.000000
1.000000 0.000000 0.000000
1.000000 0.000000 0.000000
1.000000 0.000000 0.005005
1.000000 0.000000 0.062684
1.000000 0.000000 0.102327
1.000000 0.000000 0.127504
1.000000 0.000000 0.151369
1.000000 0.000000 0.174594
0.000000 0.122683 0.149050
0.000000 0.122683 0.149050
0.000000 0.122164 0.149508
0.000000 0.121004 0.149660
0.000000 0.121218 0.147494
0.013245 0.124971 0.147860
0.015290 0.125673 0.149050
0.100862 0.131197 0.148226
0.188144 0.136965 0.145846
0.287175 0.135439 0.141909
0.391577 0.122499 0.136172
0.496620 0.087129 0.128206
0.598718 0.000000 0.117067
0.694057 0.000000 0.102449
0.780789 0.000000 0.079408
0.863127 0.000000 0.019776
0.923766 0.000000 0.000000
0.970520 0.000000 0.000000
1.000000 0.000000 0.000000
1.000000 0.000000 0.000000
1.000000 0.000000 0.000000
1.000000 0.000000 0.000000
1.000000 0.000000 0.000000
1.000000 0.000000 0.000000
1.000000 0.000000 0.000000
1.000000 0.000000 0.000000
1.000000 0.000000 0.007172
1.000000 0.000000 0.067079
1.000000 0.000000 0.105318
1.000000 0.000000 0.130007
1.000000 0.000000 0.153780
1.000000 0.000000 0.176699
0.000000 0.119844 0.145937
0.000000 0.119844 0.145937
0.000000 0.119844 0.145937
0.000000 0.120394 0.146731
0.005158 0.125978 0.147768
0.104433 0.138643 0.147066
0.159518 0.147524 0.144961
0.144808 0.142550 0.145724
0.137850 0.139498 0.145602
0.226993 0.147921 0.141787
0.328191 0.150668 0.135714
0.432502 0.146273 0.126619
0.537163 0.130068 0.114107
0.646143 0.089509 0.094972
0.752560 0.000000 0.040528
0.835813 0.000000 0.000000
0.899931 0.000000 0.000000
0.950195 0.000000 0.000000
0.990906 0.000000 0.000000
1.000000 0.000000 0.000000
1.000000 0.000000 0.000000
1.000000 0.000000 0.000000
1.000000 0.000000 0.000000
1.000000 0.000000 0.050263
1.000000 0.000000 0.096712
1.000000 0.000000 0.119234
1.000000 0.000000 0.139590
1.000000 0.004028 0.158877
1.000000 0.105653 0.177829
1.000000 0.143374 0.196872
1.000000 0.173068 0.216068
1.000000 0.196811 0.234806
0.000000 0.126925 0.153323
0.000000 0.126650 0.153353
0.000000 0.126864 0.152499
0.024811 0.133547 0.149172
0.097017 0.145510 0.144076
0.164553 0.164889 0.137819
0.268467 0.188846 0.131014
0.347112 0.202487 0.123384
0.307622 0.183658 0.129610
0.274784 0.170687 0.133242
0.294316 0.169131 0.131930
0.403876 0.180087 0.120424
0.538689 0.190799 0.097261
0.667140 0.191012 0.029175
0.771603 0.178103 0.000000
0.849729 0.154879 0.000000
0.910185 0.122072 0.000000
0.958007 0.063752 0.000000
0.997833 0.000000 0.000000
1.000000 0.000000 0.000000
1.000000 0.000000 0.000000
1.000000 0.000000 0.000000
1.000000 0.000000 0.000000
1.000000 0.064118 0.015534
1.000000 0.114107 0.089845
1.000000 0.140017 0.118227
1.000000 0.158297 0.140780
1.000000 0.174716 0.160250
1.000000 0.191135 0.179843
1.000000 0.206943 0.198581
1.000000 0.223606 0.217746
1.000000 0.239994 0.236667
0.026337 0.142885 0.170291
0.025666 0.142672 0.169986
0.029053 0.142885 0.168704
0.082612 0.151400 0.164675
0.127291 0.166079 0.157137
0.188724 0.187106 0.145083
0.277317 0.213840 0.126497
0.393469 0.242191 0.100740
0.500084 0.267979 0.038697
0.463081 0.243503 0.088930
0.431830 0.225132 0.103609
0.404486 0.211215 0.113436
0.470192 0.220462 0.103090
0.590417 0.237736 0.051759
0.700099 0.244724 0.000000
0.786587 0.241093 0.000000
0.855985 0.231449 0.000000
0.911803 0.219089 0.000000
0.958587 0.206394 0.000000
0.998596 0.196078 0.000000
1.000000 0.190738 0.000000
1.000000 0.192752 0.000000
1.000000 0.200107 0.000000
1.000000 0.211643 0.026795
1.000000 0.222965 0.096742
1.000000 0.232181 0.125185
1.000000 0.240543 0.147890
1.000000 0.247715 0.167788
1.000000 0.257023 0.187716
1.000000 0.266789 0.206790
1.000000 0.277440 0.226047
1.000000 0.288701 0.245182
0.097963 0.167391 0.194949
0.097627 0.167239 0.194827
0.102968 0.169284 0.193698
0.130190 0.180514 0.190463
0.173922 0.199405 0.183993
0.236545 0.226902 0.171572
0.321721 0.262669 0.148501
0.431373 0.303563 0.102937
0.566674 0.337469 0.000000
0.678218 0.358587 0.000000
0.633967 0.327489 0.000000
0.592798 0.301335 0.000000
0.554528 0.278965 0.035218
0.520592 0.260716 0.088319
0.619501 0.278416 0.020478
0.718318 0.288914 0.000000
0.798734 0.290654 0.000000
0.864042 0.287602 0.000000
0.918364 0.282689 0.000000
0.964446 0.277989 0.000000
1.000000 0.276158 0.000000
1.000000 0.277348 0.000000
1.000000 0.281651 0.000000
1.000000 0.288304 0.067750
1.000000 0.295384 0.113985
1.000000 0.300938 0.140322
1.000000 0.305852 0.162325
1.000000 0.310918 0.182742
1.000000 0.316808 0.202213
1.000000 0.323186 0.221592
1.000000 0.330694 0.240665
1.000000 0.338628 0.259800
0.169375 0.214847 0.241245
0.168460 0.214206 0.240696
0.176150 0.217868 0.238315
0.200229 0.230167 0.234012
0.238254 0.249607 0.225559
0.290135 0.276310 0.212039
0.359564 0.310796 0.189609
0.448615 0.349737 0.151919
0.557061 0.385321 0.052674
0.678614 0.405219 0.000000
0.775723 0.415930 0.000000
0.738430 0.386664 0.000000
0.701381 0.360388 0.000000
0.665736 0.337438 0.000000
0.634333 0.318364 0.000000
0.634577 0.310643 0.015564
0.732509 0.327092 0.000000
0.812161 0.334630 0.000000
0.876524 0.337560 0.000000
0.929412 0.338048 0.000000
0.972869 0.338293 0.000000
1.000000 0.338811 0.000000
1.000000 0.340948 0.025452
1.000000 0.343786 0.095247
1.000000 0.347387 0.125002
1.000000 0.350347 0.149722
1.000000 0.354070 0.171511
1.000000 0.358129 0.192721
1.000000 0.363439 0.213565
1.000000 0.369635 0.234348
1.000000 0.376501 0.255192
1.000000 0.383917 0.275578
0.218997 0.253117 0.278050
0.219791 0.253483 0.277379
0.229587 0.259068 0.275669
0.250462 0.271427 0.271733
0.283055 0.290959 0.265049
0.328099 0.317479 0.253513
0.388464 0.351141 0.235447
0.465064 0.389319 0.206851
0.557366 0.426307 0.161196
0.661433 0.453437 0.029908
0.762081 0.460182 0.000000
0.848783 0.465217 0.000000
0.818509 0.438453 0.000000
0.788785 0.414466 0.000000
0.759609 0.392920 0.000000
0.733455 0.374884 0.000000
0.711025 0.360479 0.000000
0.751125 0.364569 0.000000
0.825803 0.375067 0.000000
0.886473 0.380957 0.000000
0.936248 0.384344 0.000000
0.977386 0.387030 0.019348
1.000000 0.390234 0.090547
1.000000 0.393652 0.121859
1.000000 0.397467 0.148287
1.000000 0.400916 0.171572
1.000000 0.404303 0.193545
1.000000 0.408026 0.214389
1.000000 0.412573 0.235080
1.000000 0.418036 0.256352
1.000000 0.423987 0.277195
1.000000 0.430518 0.298100
0.273167 0.301213 0.323613
0.275242 0.302586 0.323339
0.284855 0.308843 0.321813
0.302373 0.320745 0.318944
0.331029 0.339605 0.313146
0.371283 0.365515 0.304143
0.425055 0.398077 0.290288
0.492714 0.434668 0.269291
0.574182 0.470710 0.237613
0.661769 0.499001 0.191897
0.748653 0.513878 0.114260
0.831357 0.512230 0.000000
0.965759 0.572198 0.000000
0.944945 0.546014 0.000000
0.923095 0.521691 0.000000
0.901915 0.500481 0.000000
0.882353 0.482673 0.041413
0.865904 0.468849 0.092439
0.852018 0.459602 0.121859
0.902342 0.467170 0.140169
0.947570 0.473213 0.160891
0.984771 0.477699 0.181888
1.000000 0.481483 0.202579
1.000000 0.484871 0.222812
1.000000 0.487465 0.241550
1.000000 0.488991 0.258976
1.000000 0.489906 0.274784
1.000000 0.490303 0.289647
1.000000 0.491035 0.304814
1.000000 0.492714 0.320562
1.000000 0.494789 0.336400
1.000000 0.498024 0.353277
0.378271 0.407385 0.426917
0.379614 0.408301 0.426001
0.385687 0.412146 0.422827
0.400153 0.421332 0.417365
0.423102 0.435981 0.409094
0.456672 0.456336 0.398016
0.502647 0.482399 0.384222
0.560327 0.511772 0.367010
0.627283 0.541131 0.346014
0.699275 0.566949 0.320348
0.773068 0.586206 0.287785
0.845762 0.595850 0.242618
0.914824 0.592279 0.168276
0.980713 0.592065 0.000000
0.965942 0.571435 0.060883
0.949157 0.550530 0.093782
0.932036 0.531182 0.106416
0.915770 0.514672 0.119448
0.901732 0.501640 0.133272
0.890349 0.492226 0.148898
0.897765 0.491005 0.172519
0.941955 0.498756 0.192966
0.978576 0.504875 0.214023
1.000000 0.510277 0.235142
1.000000 0.514672 0.255100
1.000000 0.518120 0.273960
1.000000 0.520867 0.291691
1.000000 0.523095 0.308446
1.000000 0.525475 0.325414
1.000000 0.528405 0.342626
1.000000 0.531487 0.359808
1.000000 0.534966 0.376989
0.419196 0.449409 0.468177
0.419501 0.449317 0.466835
0.424689 0.451942 0.463142
0.436194 0.459083 0.458015
0.454688 0.470283 0.450477
0.483284 0.487251 0.440803
0.521691 0.508751 0.429725
0.570092 0.534020 0.416999
0.626520 0.560510 0.402411
0.688258 0.585657 0.386023
0.752590 0.607019 0.366125
0.817227 0.622492 0.340032
0.879728 0.628809 0.301701
0.938811 0.623621 0.241489
1.000000 0.621912 0.163424
0.986847 0.600946 0.164706
0.972137 0.580133 0.163973
0.957519 0.561456 0.164401
0.943969 0.545953 0.169314
0.931975 0.533532 0.176699
0.922423 0.524956 0.188113
0.914397 0.520592 0.207889
0.940887 0.526390 0.230686
0.976684 0.534447 0.253300
1.000000 0.541344 0.274968
1.000000 0.546838 0.295171
1.000000 0.551293 0.314183
1.000000 0.555047 0.332097
1.000000 0.558709 0.349981
1.000000 0.562646 0.368017
1.000000 0.566705 0.385962
1.000000 0.570886 0.403845
0.463081 0.492073 0.510582
0.464363 0.492622 0.509728
0.468116 0.494759 0.506645
0.477058 0.499794 0.502037
0.492866 0.508782 0.495125
0.516136 0.521935 0.486763
0.547967 0.539574 0.477913
0.587915 0.560601 0.468147
0.635096 0.583642 0.457954
0.687098 0.606561 0.447364
0.742519 0.627741 0.434791
0.798611 0.645380 0.419623
0.853880 0.656794 0.396674
0.906645 0.660090 0.361730
0.957610 0.653193 0.306920
1.000000 0.649470 0.236728
1.000000 0.628931 0.228672
0.991211 0.609216 0.221408
0.979065 0.591699 0.217990
0.967651 0.576959 0.218601
0.957794 0.565454 0.223087
0.950011 0.557794 0.232303
0.943450 0.553765 0.248234
0.942321 0.554681 0.272251
0.976196 0.563836 0.295201
1.000000 0.571618 0.317113
1.000000 0.578546 0.337865
1.000000 0.584771 0.358282
1.000000 0.590936 0.378668
1.000000 0.597223 0.399115
1.000000 0.603510 0.419471
1.000000 0.609705 0.439246
0.504204 0.529351 0.546654
0.505516 0.530297 0.546746
0.510063 0.533104 0.545403
0.519463 0.538689 0.542840
0.533837 0.547448 0.538964
0.554742 0.559869 0.534478
0.582818 0.575891 0.529931
0.616968 0.594659 0.524651
0.656580 0.614954 0.519005
0.699580 0.634974 0.511894
0.744686 0.653468 0.503075
0.790677 0.669093 0.490761
0.836362 0.680537 0.473457
0.881498 0.686549 0.448127
0.925902 0.685939 0.411414
0.970031 0.676509 0.357153
1.000000 0.671107 0.291417
1.000000 0.652247 0.277409
1.000000 0.634119 0.269108
0.995270 0.618280 0.264652
0.986358 0.605554 0.264744
0.978698 0.595972 0.269352
0.972564 0.589685 0.278141
0.967590 0.586877 0.293126
0.962127 0.588067 0.318456
0.978058 0.595575 0.343786
1.000000 0.605188 0.366918
1.000000 0.613733 0.389075
1.000000 0.621363 0.410132
1.000000 0.628504 0.430426
1.000000 0.635004 0.449744
1.000000 0.641077 0.468086
0.543938 0.563561 0.579156
0.543450 0.563165 0.578759
0.547448 0.565698 0.577905
0.555047 0.570367 0.576318
0.567681 0.577996 0.573938
0.585351 0.588586 0.570947
0.608606 0.602075 0.567559
0.637018 0.617823 0.563745
0.669368 0.634852 0.559533
0.705013 0.652216 0.554253
0.743496 0.669154 0.547814
0.782773 0.684260 0.539239
0.822721 0.696834 0.527733
0.862181 0.705623 0.511223
0.901427 0.709712 0.487312
0.940703 0.707973 0.452827
0.980194 0.698787 0.404120
1.000000 0.692988 0.347112
1.000000 0.676448 0.328710
1.000000 0.659876 0.318853
1.000000 0.645991 0.314092
1.000000 0.634791 0.313542
0.996551 0.626673 0.318029
0.991608 0.621515 0.326329
0.987549 0.619562 0.340459
0.982422 0.622034 0.366796
0.980224 0.627588 0.394507
1.000000 0.638514 0.418341
1.000000 0.648280 0.440681
1.000000 0.657008 0.461585
1.000000 0.664881 0.481300
1.000000 0.671778 0.499611
0.588220 0.600366 0.613214
0.588617 0.600671 0.613489
0.637232 0.639765 0.648249
0.643091 0.643214 0.647181
0.652033 0.648615 0.645411
0.664118 0.655665 0.643030
0.680476 0.664881 0.639979
0.700282 0.675807 0.636683
0.723690 0.688106 0.633173
0.750088 0.701350 0.629267
0.778408 0.714443 0.624353
0.807950 0.726680 0.618250
0.837949 0.737057 0.609308
0.868376 0.745235 0.597406
0.898924 0.750423 0.580957
0.929931 0.751858 0.559136
0.961822 0.748196 0.528527
0.994995 0.738186 0.486213
1.000000 0.729915 0.435523
1.000000 0.713924 0.410407
1.000000 0.698329 0.397101
1.000000 0.685420 0.389105
1.000000 0.675013 0.385870
1.000000 0.667048 0.386969
1.000000 0.661189 0.391241
1.000000 0.658442 0.401709
1.000000 0.659907 0.424079
0.995850 0.664088 0.448371
1.000000 0.672724 0.471656
1.000000 0.682277 0.491676
1.000000 0.690852 0.510674
1.000000 0.698116 0.527703
0.641077 0.643061 0.652461
0.644984 0.646143 0.655299
0.648249 0.648768 0.657710
0.656550 0.654597 0.659602
0.667048 0.661463 0.660243
0.678584 0.668513 0.659205
0.692592 0.676631 0.656886
0.709071 0.685847 0.653986
0.728817 0.696468 0.650813
0.751064 0.707942 0.647303
0.775662 0.719844 0.643183
0.801572 0.731350 0.638117
0.828305 0.741756 0.631189
0.855406 0.750546 0.622187
0.882994 0.757382 0.610285
0.911009 0.761654 0.594598
0.939483 0.762600 0.574182
0.968902 0.759487 0.547234
0.999573 0.751156 0.511131
1.000000 0.744381 0.468299
1.000000 0.730922 0.444495
1.000000 0.717891 0.433631
1.000000 0.706844 0.427131
1.000000 0.697688 0.424018
1.000000 0.690364 0.423926
1.000000 0.685176 0.427497
1.000000 0.683375 0.439307
1.000000 0.686000 0.462043
1.000000 0.691615 0.487190
1.000000 0.700069 0.513390
1.000000 0.709926 0.532372
1.000000 0.718318 0.549584
0.666773 0.663600 0.671260
0.670314 0.666438 0.673854
0.673884 0.669276 0.676448
0.678798 0.672877 0.678309
0.687892 0.678950 0.679164
0.697810 0.685115 0.678431
0.709438 0.692042 0.676600
0.723354 0.699947 0.674128
0.739803 0.708980 0.671290
0.758541 0.718868 0.668147
0.779416 0.729335 0.664546
0.801755 0.739834 0.660304
0.825071 0.749691 0.654749
0.849088 0.758663 0.647730
0.873564 0.766262 0.638911
0.898528 0.772000 0.627253
0.923919 0.775387 0.612543
0.949828 0.775967 0.593805
0.976745 0.773068 0.569818
1.000000 0.765743 0.538354
1.000000 0.759548 0.501091
1.000000 0.747921 0.477913
1.000000 0.736690 0.468513
1.000000 0.726925 0.462165
1.000000 0.718563 0.458503
1.000000 0.712154 0.458503
1.000000 0.707881 0.462043
1.000000 0.707668 0.476692
1.000000 0.711513 0.499611
1.000000 0.717922 0.524468
1.000000 0.726528 0.550317
1.000000 0.735836 0.569970
0.693446 0.684932 0.690761
0.696559 0.687404 0.693019
0.699367 0.689662 0.695125
0.701350 0.691249 0.696559
0.707912 0.695644 0.697200
0.716213 0.700984 0.696651
0.725978 0.706905 0.695125
0.737758 0.713649 0.693050
0.751766 0.721645 0.690639
0.767666 0.730282 0.687861
0.785489 0.739590 0.684840
0.804776 0.749172 0.681270
0.825162 0.758419 0.676661
0.846250 0.767147 0.671046
0.867948 0.774990 0.664179
0.890349 0.781704 0.655665
0.913390 0.787106 0.645472
0.936919 0.790677 0.633173
0.961028 0.792050 0.618036
0.985870 0.790707 0.599176
1.000000 0.785611 0.574945
1.000000 0.781003 0.545647
1.000000 0.771939 0.525994
1.000000 0.763577 0.519951
1.000000 0.756344 0.516197
1.000000 0.750179 0.514214
1.000000 0.745754 0.515465
1.000000 0.743404 0.520195
1.000000 0.745876 0.538537
1.000000 0.750759 0.560204
1.000000 0.757321 0.582574
1.000000 0.765072 0.604913
0.737453 0.720424 0.723262
0.738552 0.721340 0.724086
0.739101 0.721767 0.724483
0.738918 0.721614 0.724331
0.739284 0.721706 0.723629
0.744930 0.725185 0.722194
0.752255 0.729580 0.720516
0.761501 0.735012 0.718532
0.772671 0.741543 0.716396
0.786069 0.749203 0.714107
0.800961 0.757382 0.711574
0.817166 0.765866 0.708553
0.834257 0.774166 0.704768
0.852201 0.782223 0.700221
0.870817 0.789670 0.694484
0.890013 0.796262 0.687587
0.909728 0.801785 0.679408
0.929992 0.805966 0.669612
0.950744 0.808530 0.657862
0.972137 0.809079 0.643671
0.994202 0.807034 0.625910
1.000000 0.801572 0.603113
1.000000 0.796109 0.575372
1.000000 0.786831 0.553674
1.000000 0.778836 0.546593
1.000000 0.772122 0.542107
1.000000 0.766964 0.540612
1.000000 0.763546 0.542321
1.000000 0.762722 0.549676
1.000000 0.766293 0.569604
1.000000 0.771267 0.589960
1.000000 0.777371 0.610407
0.760006 0.738949 0.740291
0.760861 0.739620 0.740963
0.761349 0.740047 0.741299
0.761227 0.739956 0.741238
0.760525 0.739376 0.740688
0.762936 0.740780 0.739620
0.769192 0.744686 0.738125
0.777066 0.749447 0.736446
0.786587 0.755184 0.734554
0.797940 0.761898 0.732631
0.810636 0.769162 0.730404
0.824613 0.776883 0.727871
0.839597 0.784665 0.724697
0.855375 0.792355 0.721004
0.871916 0.799680 0.716518
0.888975 0.806394 0.711208
0.906645 0.812406 0.704829
0.924651 0.817411 0.697475
0.943175 0.821195 0.688685
0.962158 0.823423 0.678096
0.981659 0.823819 0.665370
1.000000 0.821836 0.649500
1.000000 0.816770 0.629328
1.000000 0.811246 0.604120
1.000000 0.797543 0.571984
1.000000 0.790188 0.565087
1.000000 0.784390 0.561059
1.000000 0.780087 0.560052
1.000000 0.777584 0.562158
1.000000 0.778683 0.574914
1.000000 0.782773 0.594385
1.000000 0.787930 0.614008
0.790494 0.764675 0.764126
0.791775 0.765805 0.765194
0.792142 0.766110 0.765499
0.791562 0.765560 0.764981
0.790036 0.764279 0.763760
0.787778 0.762356 0.761990
0.791012 0.764126 0.759701
0.796231 0.767056 0.757076
0.802914 0.770932 0.754360
0.811307 0.775753 0.751553
0.820920 0.781125 0.748440
0.832181 0.787320 0.745357
0.844450 0.793698 0.741787
0.857694 0.800076 0.737667
0.871427 0.806180 0.732845
0.886107 0.812009 0.727352
0.901488 0.817441 0.721187
0.917601 0.822446 0.714534
0.934478 0.826841 0.707240
0.951904 0.830411 0.699184
0.969818 0.832609 0.689570
0.988067 0.832883 0.677668
1.000000 0.830594 0.662348
1.000000 0.825223 0.642451
1.000000 0.818784 0.616846
1.000000 0.809476 0.592615
1.000000 0.802457 0.585107
1.000000 0.796933 0.580560
1.000000 0.792935 0.578759
1.000000 0.790829 0.581018
1.000000 0.793637 0.598657
1.000000 0.797787 0.616938
0.805234 0.777523 0.776181
0.806455 0.778592 0.777157
0.806973 0.779080 0.777615
0.806851 0.778927 0.777493
0.806119 0.778317 0.776913
0.805051 0.777371 0.776028
0.804807 0.777005 0.774899
0.810361 0.780545 0.773373
0.817014 0.784817 0.771817
0.824887 0.789822 0.770108
0.833860 0.795254 0.767941
0.843809 0.801144 0.765591
0.854490 0.807126 0.762722
0.865873 0.813016 0.759182
0.877836 0.818662 0.754940
0.890379 0.824002 0.750149
0.903655 0.829160 0.744747
0.917632 0.833921 0.738857
0.932403 0.838376 0.732631
0.947753 0.842283 0.725948
0.963622 0.845182 0.718135
0.979767 0.846769 0.709010
0.996368 0.846525 0.697627
1.000000 0.844053 0.683284
1.000000 0.838773 0.664851
1.000000 0.832181 0.640925
1.000000 0.823209 0.616876
1.000000 0.817075 0.610040
1.000000 0.812558 0.605859
1.000000 0.809262 0.604120
1.000000 0.809476 0.613092
1.000000 0.812406 0.629145
0.825956 0.796201 0.793790
0.826505 0.796658 0.794247
0.826627 0.796780 0.794369
0.826352 0.796567 0.794125
0.825650 0.795926 0.793515
0.824674 0.795010 0.792660
0.823484 0.793881 0.791623
0.824887 0.794614 0.790280
0.830350 0.798245 0.788632
0.836942 0.802548 0.786923
0.844572 0.807340 0.784878
0.853147 0.812589 0.782712
0.862425 0.818021 0.780148
0.872343 0.823453 0.777035
0.882750 0.828641 0.773251
0.893736 0.833646 0.768887
0.905303 0.838468 0.764065
0.917693 0.843168 0.758877
0.930755 0.847623 0.753475
0.944457 0.851713 0.747738
0.958587 0.855100 0.741268
0.973083 0.857420 0.733700
0.987884 0.858274 0.724422
1.000000 0.857420 0.712947
1.000000 0.854429 0.698695
1.000000 0.848844 0.680598
1.000000 0.841794 0.656947
1.000000 0.832364 0.631342
1.000000 0.826688 0.624384
1.000000 0.822751 0.620233
1.000000 0.820493 0.620508
1.000000 0.822721 0.635157
0.842130 0.811276 0.808164
0.842527 0.811612 0.808530
0.842741 0.811856 0.808743
0.842741 0.811856 0.808713
0.842618 0.811734 0.808621
0.842618 0.811704 0.808591
0.843015 0.812070 0.808927
0.843565 0.812619 0.809476
0.848417 0.816403 0.809903
0.855802 0.821988 0.810178
0.863981 0.828031 0.810330
0.872587 0.834195 0.810086
0.881590 0.840360 0.809354
0.890684 0.846189 0.807889
0.899901 0.851591 0.805631
0.909148 0.856382 0.802365
0.918730 0.860807 0.798459
0.928923 0.865049 0.794125
0.939666 0.869139 0.789578
0.950958 0.872892 0.784665
0.962646 0.876097 0.779202
0.974792 0.878447 0.772885
0.987152 0.879667 0.765194
0.999939 0.879484 0.755886
1.000000 0.877714 0.744503
1.000000 0.874083 0.730617
1.000000 0.868193 0.713466
1.000000 0.860166 0.690303
1.000000 0.849973 0.663661
1.000000 0.844511 0.655695
1.000000 0.840513 0.649531
1.000000 0.840604 0.657282
0.869841 0.838346 0.834379
0.869871 0.838376 0.834379
0.869688 0.838193 0.834195
0.869383 0.837858 0.833890
0.868956 0.837461 0.833494
0.868437 0.836942 0.832975
0.867948 0.836454 0.832486
0.867491 0.835966 0.832059
0.867094 0.835569 0.831662
0.871550 0.838834 0.830686
0.877195 0.842893 0.829526
0.883482 0.847318 0.828153
0.890349 0.851896 0.826535
0.897581 0.856504 0.824491
