20 Preset/City Style/【3】LUT video cho PR-AE-FCPX/TONE 2/Darky Package Cityscapes.cube
# Created by Adobe Lightroom plugin Export LUT (1.24.0)
# www.johnrellis.com/lightroom/exportlut.htm
# Preset: Darky Package Cityscapes
# Color profile: E:\lut插件\exportlut.1.24\exportlut.lrplugin\color profiles\Rec709gamma2.4.icc
LUT_3D_SIZE 8
DOMAIN_MIN 0.000000 0.000000 0.000000
DOMAIN_MAX 0.903226 0.903226 0.903226
0.000000 0.106752 0.130953
0.021576 0.108980 0.132540
0.101778 0.115999 0.139467
0.297581 0.108644 0.140688
0.553826 0.000000 0.125032
0.836362 0.000000 0.044709
1.000000 0.000000 0.000000
1.000000 0.192416 0.000000
0.001678 0.114015 0.132082
0.013581 0.115267 0.136507
0.084291 0.120974 0.142550
0.257877 0.122347 0.142184
0.499458 0.066468 0.128664
0.780911 0.000000 0.076020
0.999786 0.000000 0.000000
1.000000 0.170047 0.000000
0.031067 0.123507 0.138827
0.052216 0.121889 0.137057
0.139345 0.134463 0.143130
0.288304 0.151431 0.140780
0.518273 0.153902 0.122499
0.822568 0.154055 0.027741
1.000000 0.222293 0.000000
1.000000 0.303288 0.083223
0.174716 0.163088 0.139712
0.182650 0.160983 0.139162
0.245151 0.158450 0.134463
0.399512 0.189364 0.123903
0.658625 0.275731 0.109377
0.893187 0.329259 0.084993
1.000000 0.368139 0.103639
1.000000 0.410132 0.173587
0.326513 0.228580 0.118227
0.335454 0.226993 0.117769
0.376623 0.219913 0.115114
0.525414 0.245243 0.072755
0.717494 0.304479 0.000000
0.881712 0.389227 0.040925
1.000000 0.464881 0.197635
1.000000 0.507683 0.266636
0.499397 0.328008 0.000000
0.523278 0.336400 0.000000
0.558831 0.329503 0.000000
0.643488 0.315435 0.000000
0.811948 0.363043 0.000000
0.951141 0.431495 0.000000
1.000000 0.533165 0.206455
1.000000 0.629480 0.425086
0.700771 0.451759 0.000000
0.712123 0.453223 0.000000
0.737087 0.445075 0.000000
0.788357 0.425940 0.000000
0.902953 0.427497 0.000000
1.000000 0.479011 0.000000
1.000000 0.550591 0.000000
1.000000 0.653742 0.409674
0.921050 0.606226 0.000000
0.924834 0.604395 0.000000
0.943542 0.598444 0.000000
0.980774 0.584741 0.000000
1.000000 0.528008 0.000000
1.000000 0.558099 0.000000
1.000000 0.615625 0.000000
1.000000 0.698024 0.426612
0.000000 0.117311 0.144472
0.000000 0.119295 0.147707
0.056123 0.121431 0.146120
0.220859 0.128847 0.144045
0.460243 0.112520 0.130739
0.740993 0.000000 0.088533
0.965484 0.000000 0.000000
1.000000 0.153262 0.000000
0.000000 0.120394 0.146731
0.000000 0.122225 0.148043
0.060090 0.124788 0.147707
0.220340 0.133211 0.143984
0.450813 0.125216 0.130800
0.725429 0.039521 0.090486
0.939818 0.000000 0.000000
1.000000 0.149630 0.000000
0.026642 0.131563 0.147921
0.049653 0.131502 0.147402
0.138582 0.136843 0.146120
0.258488 0.153292 0.143282
0.462196 0.166232 0.128573
0.739223 0.174868 0.081025
0.957214 0.196811 0.000000
1.000000 0.263523 0.000000
0.169100 0.167483 0.142092
0.178317 0.165682 0.141695
0.231937 0.159579 0.139803
0.363348 0.181369 0.129580
0.546868 0.231113 0.113985
0.770932 0.284977 0.096437
0.961578 0.316777 0.028351
1.000000 0.362585 0.109926
0.330083 0.237858 0.118471
0.336584 0.234684 0.118196
0.372839 0.224704 0.116274
0.490425 0.233707 0.095644
0.645106 0.276341 0.000000
0.820188 0.351385 0.000000
0.969177 0.435737 0.168063
1.000000 0.479072 0.225406
0.480507 0.323369 0.000000
0.489235 0.322576 0.000000
0.523613 0.316594 0.000000
0.603326 0.302678 0.000000
0.768399 0.343999 0.000000
0.926024 0.414191 0.000000
1.000000 0.511315 0.162112
1.000000 0.610620 0.394507
0.665126 0.435554 0.000000
0.665858 0.430671 0.000000
0.688899 0.421607 0.000000
0.742824 0.405463 0.000000
0.866911 0.408515 0.000000
0.982605 0.461067 0.000000
1.000000 0.526452 0.000000
1.000000 0.623651 0.351904
0.890959 0.586633 0.000000
0.900206 0.588861 0.000000
0.919066 0.582940 0.000000
0.959442 0.571252 0.000000
1.000000 0.543969 0.000000
1.000000 0.561334 0.000000
1.000000 0.611292 0.000000
1.000000 0.692317 0.411261
0.000000 0.125917 0.155276
0.000000 0.128115 0.158968
0.000000 0.137331 0.195163
0.323064 0.105867 0.186099
0.524193 0.122683 0.166049
0.785367 0.159335 0.136080
0.973510 0.232151 0.013092
1.000000 0.294987 0.010193
0.000000 0.130587 0.161013
0.000000 0.134005 0.165133
0.015290 0.148348 0.197696
0.301518 0.140352 0.186007
0.506401 0.146883 0.168856
0.760281 0.177249 0.139498
0.950072 0.231662 0.018769
1.000000 0.289586 0.000000
0.035340 0.155856 0.184085
0.066987 0.163119 0.191012
0.152041 0.195712 0.212619
0.319036 0.205020 0.207034
0.542260 0.222843 0.187900
0.778378 0.250401 0.151247
0.957519 0.293523 0.065522
1.000000 0.342229 0.089845
0.179263 0.252354 0.216953
0.214511 0.252415 0.207218
0.289586 0.237613 0.187228
0.434699 0.241276 0.180758
0.611536 0.304631 0.198154
0.804288 0.352697 0.187320
0.968139 0.385626 0.135866
1.000000 0.424537 0.169345
0.377813 0.323247 0.167514
0.387610 0.320531 0.164218
0.432349 0.307347 0.150576
0.537713 0.275608 0.124575
0.698207 0.325963 0.111269
0.842832 0.387732 0.131838
0.964385 0.465766 0.193881
1.000000 0.514733 0.265141
0.514366 0.388342 0.086366
0.524559 0.387945 0.076173
0.559258 0.377844 0.025299
0.624781 0.347967 0.000000
0.773251 0.360082 0.000000
0.916747 0.421942 0.000000
1.000000 0.499794 0.025147
1.000000 0.629847 0.420233
0.695094 0.486610 0.000000
0.697169 0.481910 0.000000
0.716457 0.467994 0.000000
0.766567 0.445045 0.000000
0.857969 0.412543 0.000000
0.980682 0.463447 0.000000
1.000000 0.530480 0.000000
1.000000 0.631250 0.345892
0.890379 0.603204 0.000000
0.892027 0.599420 0.000000
0.910246 0.592035 0.000000
0.956085 0.585931 0.000000
1.000000 0.555627 0.000000
1.000000 0.564111 0.000000
1.000000 0.612634 0.000000
1.000000 0.692317 0.397009
0.000000 0.156222 0.199405
0.000000 0.162844 0.207309
0.058900 0.187808 0.235172
0.165499 0.228000 0.353735
0.708095 0.288945 0.509636
0.826871 0.235111 0.317937
0.967163 0.297551 0.281590
1.000000 0.362646 0.252903
0.000000 0.172549 0.216251
0.000000 0.178256 0.222629
0.105196 0.204013 0.250004
0.197513 0.250950 0.368292
0.705257 0.309758 0.494148
0.824643 0.266453 0.324712
0.962951 0.314336 0.286595
1.000000 0.372290 0.256870
0.105776 0.209476 0.248295
0.120668 0.217075 0.255680
0.178317 0.248539 0.286473
0.284794 0.324773 0.397253
0.641962 0.347234 0.402869
0.837339 0.376196 0.368811
0.985138 0.419745 0.351690
1.000000 0.445472 0.309880
0.253239 0.313176 0.338781
0.265629 0.322606 0.347478
0.325353 0.370855 0.393622
0.446357 0.457954 0.450599
0.635004 0.467506 0.442359
0.817685 0.466438 0.404639
0.962066 0.478096 0.371588
1.000000 0.497902 0.335302
0.385901 0.517144 0.484962
0.381476 0.522423 0.476967
0.453529 0.528466 0.444678
0.595850 0.494484 0.377173
0.747890 0.473945 0.363317
0.862425 0.528283 0.412573
0.961517 0.576226 0.445624
1.000000 0.583612 0.407996
0.577417 0.558190 0.334417
0.599451 0.561639 0.332219
0.632410 0.549554 0.311254
0.705440 0.521050 0.277043
0.817227 0.457923 0.222354
0.928008 0.511101 0.276249
1.000000 0.579767 0.363195
1.000000 0.650507 0.457527
0.717556 0.585290 0.168246
0.725856 0.584833 0.163546
0.754940 0.576715 0.138033
0.810025 0.554650 0.042634
0.882719 0.501183 0.000000
0.990631 0.509789 0.000000
1.000000 0.564416 0.137057
1.000000 0.628626 0.301183
0.897215 0.667933 0.000000
0.901152 0.665644 0.000000
0.918914 0.656916 0.000000
0.955169 0.639063 0.000000
1.000000 0.601373 0.000000
1.000000 0.566339 0.000000
1.000000 0.611719 0.000000
1.000000 0.691341 0.365118
0.015656 0.226169 0.285832
0.057282 0.234775 0.295354
0.135409 0.260533 0.323247
0.233829 0.320836 0.388006
0.343816 0.397650 0.581048
0.856077 0.531548 0.729335
0.977661 0.484779 0.587823
1.000000 0.511864 0.526848
0.097749 0.247135 0.306798
0.115358 0.256779 0.317662
0.165896 0.283116 0.345556
0.252567 0.337835 0.403174
0.364355 0.416205 0.587396
0.862852 0.559136 0.732631
0.972259 0.485389 0.577295
1.000000 0.520714 0.529870
0.180728 0.299626 0.355138
0.191073 0.306340 0.362097
0.227726 0.329564 0.385473
0.305028 0.384558 0.440406
0.424506 0.470008 0.595331
0.869413 0.624292 0.728206
0.943267 0.519585 0.565057
1.000000 0.537926 0.527031
0.272129 0.373754 0.417334
0.281682 0.380957 0.424079
0.326635 0.416388 0.457801
0.419440 0.488136 0.524163
0.572381 0.593957 0.640558
0.821561 0.608148 0.638605
0.932280 0.602625 0.597253
1.000000 0.597864 0.555200
0.438178 0.511315 0.533318
0.451179 0.520745 0.541924
0.501701 0.555627 0.573236
0.600336 0.620844 0.631830
0.695705 0.674128 0.658747
0.805509 0.673854 0.653315
0.921233 0.660304 0.616632
1.000000 0.652888 0.578302
0.628840 0.657984 0.658137
0.627588 0.662348 0.659663
0.611872 0.672084 0.653437
0.636439 0.683223 0.624353
0.746517 0.638636 0.542565
0.876188 0.631678 0.547539
0.950713 0.687160 0.603235
1.000000 0.729580 0.639277
0.673884 0.736355 0.608453
0.674891 0.729915 0.593164
0.699367 0.706447 0.529046
0.768734 0.678187 0.452155
0.850401 0.645960 0.409644
0.952270 0.579461 0.341985
1.000000 0.635584 0.435004
1.000000 0.690700 0.515557
0.828183 0.720729 0.278141
0.832547 0.718929 0.271794
0.852628 0.712245 0.248081
0.904662 0.708431 0.217655
0.963531 0.677485 0.111788
1.000000 0.613825 0.000000
1.000000 0.627344 0.000000
1.000000 0.676234 0.302831
0.197940 0.383948 0.469612
0.210239 0.392676 0.478645
0.239384 0.403235 0.487404
0.303624 0.438666 0.519951
0.403510 0.495338 0.570092
0.544244 0.568536 0.726131
0.900908 0.669001 0.826749
0.995880 0.777127 0.825925
0.193240 0.365576 0.446052
0.200046 0.368688 0.448859
0.229496 0.383001 0.462654
0.289769 0.418311 0.496345
0.390661 0.481636 0.554589
0.534478 0.560967 0.715511
0.897459 0.666163 0.820249
0.994202 0.764096 0.814267
0.262791 0.423224 0.497230
0.268040 0.425177 0.498787
0.294835 0.439490 0.511681
0.341436 0.461707 0.530327
0.443214 0.523644 0.584985
0.591547 0.607172 0.727138
0.911650 0.724880 0.828580
0.990997 0.756924 0.797024
0.350347 0.490150 0.547906
0.355169 0.491676 0.548913
0.387732 0.510796 0.565087
0.464576 0.558465 0.605859
0.574121 0.621241 0.657832
0.707149 0.699611 0.762539
0.934234 0.813626 0.852659
0.983032 0.752712 0.768154
0.453956 0.558007 0.593469
0.461585 0.562188 0.596887
0.496132 0.582055 0.613458
0.566644 0.623590 0.648432
0.661707 0.680873 0.696956
0.777615 0.757473 0.774258
0.910826 0.773648 0.782895
0.974975 0.761776 0.751583
0.623255 0.663050 0.673487
0.636164 0.671595 0.681086
0.662257 0.687037 0.694575
0.712612 0.718105 0.721950
0.781979 0.763821 0.763149
0.841947 0.802884 0.786374
0.906523 0.808469 0.788876
0.975341 0.797696 0.763058
0.822507 0.795621 0.792752
0.828092 0.800137 0.797116
0.839719 0.809873 0.806638
0.827207 0.818326 0.806607
0.825376 0.825132 0.787564
0.883177 0.782284 0.707393
0.954803 0.768002 0.701991
0.994629 0.802518 0.738888
0.801450 0.848051 0.787259
0.800748 0.846708 0.783963
0.808621 0.844480 0.775357
0.816892 0.828641 0.714717
0.883146 0.790860 0.579736
0.957794 0.757504 0.529992
1.000000 0.704433 0.474342
1.000000 0.763943 0.605921
0.319493 0.514183 0.600336
0.330266 0.520531 0.605615
0.352758 0.528618 0.611505
0.403082 0.550164 0.627955
0.473701 0.579797 0.649866
0.568872 0.626246 0.688808
0.687007 0.679561 0.802182
0.907134 0.727260 0.867002
0.310765 0.503075 0.588251
0.322087 0.510369 0.594568
0.344366 0.519158 0.601343
0.388464 0.537194 0.615076
0.457801 0.567071 0.637751
0.552239 0.612421 0.674678
0.669703 0.666072 0.792050
0.901823 0.714839 0.859464
0.364782 0.537835 0.613245
0.369696 0.539818 0.614801
0.387274 0.545342 0.618616
0.428016 0.561730 0.630762
0.491463 0.588556 0.650690
0.585840 0.634211 0.686061
0.708736 0.697963 0.801358
0.918395 0.763119 0.870268
0.448341 0.588586 0.647517
0.447974 0.587030 0.646021
0.462440 0.591150 0.648615
0.504295 0.609522 0.662409
0.564843 0.636744 0.683070
0.655818 0.683619 0.720211
0.768002 0.747738 0.816831
0.938445 0.819547 0.883696
0.518334 0.626459 0.668177
0.517540 0.624903 0.666651
0.530663 0.629572 0.669978
0.566217 0.646418 0.683375
0.626276 0.676204 0.707057
0.710933 0.722133 0.744228
0.810483 0.785428 0.824857
0.956725 0.872892 0.899535
0.626032 0.688533 0.709346
0.630518 0.691035 0.711330
0.646784 0.699428 0.718288
0.679072 0.716457 0.732479
0.727901 0.743099 0.754757
0.799008 0.787381 0.792935
0.874418 0.845853 0.853788
0.956756 0.868162 0.871885
0.763912 0.771878 0.773678
0.768551 0.774838 0.776394
0.780087 0.781613 0.782406
0.803677 0.796536 0.795804
0.836728 0.819089 0.816526
0.879057 0.852567 0.848295
0.911772 0.877653 0.864836
0.953582 0.878569 0.862425
0.878904 0.854612 0.849454
0.880949 0.856291 0.851164
0.890562 0.864714 0.859648
0.904082 0.876585 0.871824
0.908202 0.888151 0.881102
0.897917 0.892638 0.865782
0.945525 0.858885 0.797024
0.997620 0.858762 0.808530
0.573358 0.686854 0.744656
0.579339 0.689540 0.746639
0.584985 0.689448 0.745998
0.611109 0.699062 0.752407
0.647120 0.712001 0.760983
0.693690 0.729885 0.773068
0.755581 0.763943 0.807279
0.820737 0.792630 0.871733
0.562066 0.679225 0.737942
0.568414 0.682338 0.740261
0.578302 0.684901 0.741726
0.602655 0.693355 0.747280
0.639338 0.706691 0.756252
0.687434 0.725460 0.769070
0.749447 0.759091 0.802487
0.817288 0.789487 0.869078
0.576104 0.685969 0.740536
0.579431 0.687221 0.741451
0.587152 0.688777 0.742184
0.620630 0.703365 0.752712
0.652461 0.714168 0.759854
0.696345 0.730892 0.771267
0.759243 0.764675 0.802304
0.826932 0.798764 0.870939
0.604761 0.701381 0.748531
0.609400 0.703487 0.750118
0.618921 0.706386 0.752010
0.644251 0.716548 0.759152
0.679347 0.730404 0.768856
0.725460 0.750057 0.782956
0.785214 0.781247 0.807523
0.848600 0.819852 0.877836
0.644587 0.723537 0.760525
0.648554 0.725521 0.762081
0.652857 0.726192 0.762570
0.673976 0.734463 0.768673
0.707118 0.747951 0.778347
0.753140 0.769131 0.794156
0.812345 0.802335 0.820523
0.869963 0.841489 0.884276
0.711208 0.760403 0.783047
0.710323 0.759518 0.782284
0.712123 0.759182 0.781918
0.724086 0.763882 0.785733
0.748836 0.775509 0.795438
0.799771 0.803372 0.818143
0.852811 0.836942 0.846281
0.898924 0.872099 0.896666
0.799619 0.814115 0.821927
0.800534 0.814511 0.822293
0.805020 0.816709 0.824125
0.814481 0.821561 0.828305
0.828977 0.829282 0.834989
0.850858 0.842313 0.846494
0.883665 0.865049 0.867002
0.927550 0.904234 0.911040
0.862943 0.856748 0.855344
0.863401 0.856962 0.855497
0.867277 0.859403 0.857755
0.876799 0.866148 0.864012
0.890471 0.876188 0.873472
0.908812 0.890806 0.887388
0.934081 0.914031 0.910307
0.957366 0.935668 0.928069
