20 Preset/City Style/【3】LUT video cho PR-AE-FCPX/TONE 2/Darky Rain.cube
# Created by Adobe Lightroom plugin Export LUT (1.24.0)
# www.johnrellis.com/lightroom/exportlut.htm
# Preset: Darky Rain
# Color profile: E:\lut插件\exportlut.1.24\exportlut.lrplugin\color profiles\Rec709gamma2.4.icc
LUT_3D_SIZE 32
DOMAIN_MIN 0.0 0.0 0.0
DOMAIN_MAX 1.0 1.0 1.0
0.000000 0.104311 0.128176
0.000000 0.104311 0.128176
0.000000 0.104585 0.128115
0.000000 0.104524 0.128389
0.000000 0.105043 0.128573
0.000000 0.105409 0.129030
0.000519 0.105837 0.129397
0.027131 0.106905 0.129946
0.077882 0.107851 0.130648
0.111727 0.108827 0.131685
0.146090 0.109346 0.132967
0.186007 0.109255 0.134615
0.231876 0.107271 0.136782
0.283268 0.102815 0.139467
0.337102 0.096345 0.143221
0.392737 0.087922 0.147738
0.450660 0.070649 0.153109
0.511681 0.045136 0.159792
0.576349 0.021942 0.167056
0.654322 0.002167 0.176852
0.767330 0.020081 0.194339
0.857511 0.108309 0.214572
0.925689 0.162997 0.237583
0.978027 0.214878 0.263035
1.000000 0.263157 0.290166
1.000000 0.308263 0.319677
1.000000 0.353216 0.352026
1.000000 0.397650 0.387610
1.000000 0.443732 0.427741
1.000000 0.492164 0.472053
1.000000 0.543206 0.520531
1.000000 0.595850 0.571710
0.000000 0.104646 0.128145
0.000000 0.104646 0.128145
0.000000 0.104585 0.128115
0.000000 0.104524 0.128389
0.000000 0.105104 0.128573
0.000000 0.105501 0.129030
0.000000 0.105959 0.129427
0.023896 0.106691 0.129976
0.068666 0.107820 0.130678
0.105898 0.108827 0.131502
0.139071 0.109529 0.132845
0.177615 0.109560 0.134340
0.221775 0.108217 0.136355
0.271122 0.104799 0.139223
0.323980 0.098909 0.142489
0.378851 0.091463 0.147036
0.436225 0.079713 0.152071
0.496437 0.055726 0.158541
0.560021 0.034821 0.165652
0.636561 0.012024 0.175113
0.742794 0.014374 0.190463
0.830747 0.092256 0.208347
0.899199 0.143038 0.228489
0.953582 0.190921 0.250401
0.996155 0.236851 0.274571
1.000000 0.281071 0.301335
1.000000 0.325872 0.331609
1.000000 0.371191 0.365911
1.000000 0.417945 0.404822
1.000000 0.467323 0.448920
1.000000 0.519585 0.497719
1.000000 0.574121 0.550225
0.000000 0.104585 0.128389
0.000000 0.104585 0.128389
0.000000 0.104952 0.128359
0.000000 0.104891 0.128634
0.000000 0.105409 0.128817
0.000000 0.105837 0.129244
0.000000 0.106325 0.129641
0.018891 0.107179 0.130220
0.061677 0.108370 0.130922
0.101778 0.109560 0.131991
0.134249 0.110567 0.133089
0.171633 0.110842 0.134615
0.214176 0.110109 0.136690
0.262608 0.107240 0.139406
0.314366 0.102510 0.142763
0.368597 0.096254 0.147219
0.425086 0.089021 0.152407
0.484962 0.075685 0.158389
0.548302 0.054627 0.165530
0.626062 0.037354 0.174990
0.728878 0.040345 0.189700
0.815518 0.097780 0.206699
0.884276 0.140597 0.225254
0.939788 0.185061 0.246098
0.983673 0.228122 0.268925
1.000000 0.270420 0.293797
1.000000 0.314244 0.322698
1.000000 0.359228 0.355932
1.000000 0.406378 0.394263
1.000000 0.456031 0.437903
1.000000 0.508202 0.486366
1.000000 0.562921 0.539025
0.000000 0.104891 0.128878
0.000000 0.104891 0.128878
0.000000 0.105226 0.129091
0.000000 0.105531 0.128817
0.000000 0.105745 0.129549
0.000000 0.106508 0.129946
0.000000 0.107393 0.130312
0.015869 0.108248 0.130861
0.054688 0.109560 0.131594
0.098665 0.111086 0.132631
0.129824 0.112428 0.133944
0.166629 0.113069 0.135500
0.207553 0.113161 0.137575
0.254337 0.111574 0.140505
0.304417 0.108186 0.143954
0.356786 0.104280 0.148043
0.411383 0.099428 0.153170
0.468757 0.093782 0.159091
0.529656 0.088167 0.165835
0.607630 0.081575 0.175479
0.700496 0.083497 0.188174
0.783413 0.105043 0.202976
0.853483 0.137392 0.219760
0.913603 0.176486 0.239109
0.963928 0.218265 0.261234
1.000000 0.262211 0.287114
1.000000 0.308659 0.317235
1.000000 0.355749 0.351934
1.000000 0.404395 0.391241
1.000000 0.454322 0.435431
1.000000 0.505211 0.482918
1.000000 0.557366 0.532769
0.000000 0.105898 0.129793
0.000000 0.105806 0.129793
0.000000 0.106172 0.130007
0.000000 0.106477 0.130495
0.000000 0.107424 0.129610
0.000000 0.107576 0.130617
0.000000 0.108553 0.131228
0.007538 0.109773 0.132021
0.041688 0.111482 0.132692
0.091279 0.113283 0.133700
0.121584 0.114961 0.135042
0.156802 0.116274 0.136812
0.196689 0.117281 0.139132
0.242191 0.117098 0.142092
0.291386 0.116030 0.145663
0.344091 0.113741 0.150118
0.399451 0.110872 0.155367
0.457343 0.108705 0.161471
0.518669 0.106325 0.168429
0.600305 0.106874 0.178592
0.688167 0.112337 0.191012
0.768368 0.127504 0.204959
0.838621 0.153536 0.220829
0.900359 0.186954 0.239689
0.953246 0.225528 0.261845
0.997131 0.267613 0.287510
1.000000 0.311925 0.317449
1.000000 0.357763 0.351415
1.000000 0.405127 0.390295
1.000000 0.453407 0.432990
1.000000 0.502983 0.479225
1.000000 0.553887 0.528313
0.000000 0.107118 0.131197
0.000000 0.107118 0.131197
0.000000 0.107424 0.131655
0.000000 0.108003 0.132357
0.000000 0.108278 0.132815
0.000000 0.110658 0.130526
0.000000 0.111299 0.131930
0.001465 0.112398 0.133730
0.032593 0.114473 0.134585
0.086030 0.116548 0.135836
0.117494 0.118837 0.137545
0.152834 0.121157 0.139437
0.192416 0.123171 0.142061
0.237491 0.124483 0.145449
0.287022 0.124849 0.149660
0.339788 0.124788 0.154208
0.395514 0.124971 0.159823
0.454170 0.125216 0.166049
0.519158 0.127016 0.173861
0.604791 0.132326 0.185122
0.690272 0.141939 0.197848
0.769192 0.158236 0.211887
0.975494 0.281895 0.290227
1.000000 0.326116 0.322698
1.000000 0.368872 0.356542
1.000000 0.410071 0.391333
1.000000 0.449928 0.427497
1.000000 0.489754 0.464759
1.000000 0.530358 0.504051
1.000000 0.571374 0.544091
1.000000 0.611963 0.584466
1.000000 0.650996 0.623468
0.000000 0.109804 0.134615
0.000000 0.110079 0.134829
0.000000 0.110353 0.135286
0.000000 0.111238 0.136385
0.000000 0.113039 0.138094
0.000000 0.113863 0.138949
0.000427 0.118715 0.133028
0.026123 0.120211 0.134707
0.040803 0.121279 0.139956
0.095277 0.124910 0.141787
0.130648 0.128756 0.143954
0.170413 0.132479 0.146853
0.214298 0.135775 0.150332
0.262516 0.138338 0.154574
0.313756 0.140780 0.159213
0.366766 0.143099 0.164492
0.422919 0.146029 0.170535
0.481971 0.149813 0.177432
0.566918 0.159365 0.189242
0.663844 0.173709 0.203952
0.759548 0.194553 0.221744
0.846952 0.225193 0.244358
0.921691 0.265110 0.272526
0.980987 0.310887 0.306188
1.000000 0.357580 0.343175
1.000000 0.401526 0.380041
1.000000 0.441871 0.416571
1.000000 0.480507 0.453040
1.000000 0.519707 0.490822
1.000000 0.559045 0.529656
1.000000 0.598810 0.569268
1.000000 0.637751 0.608545
0.000000 0.113283 0.138766
0.000000 0.113619 0.138735
0.000000 0.114137 0.139376
0.000000 0.115297 0.140627
0.000000 0.117189 0.142672
0.000000 0.119051 0.145144
0.000000 0.121462 0.144869
0.027924 0.128695 0.136324
0.079103 0.131350 0.137667
0.084627 0.131533 0.147280
0.121370 0.136385 0.150088
0.160464 0.141451 0.153292
0.203616 0.146181 0.156863
0.250706 0.150454 0.160983
0.300664 0.154574 0.165835
0.352392 0.158755 0.171115
0.407691 0.163485 0.177157
0.475624 0.171908 0.186069
0.558831 0.185245 0.198184
0.646662 0.200229 0.212039
0.736263 0.219730 0.228580
0.821378 0.246464 0.249699
0.896757 0.280644 0.276005
0.958679 0.321080 0.307683
1.000000 0.363684 0.342687
1.000000 0.404303 0.377874
1.000000 0.442725 0.413123
1.000000 0.479988 0.448585
1.000000 0.517998 0.486122
1.000000 0.556390 0.524224
1.000000 0.595300 0.563378
1.000000 0.633753 0.602441
0.000000 0.118807 0.144717
0.000000 0.119051 0.144930
0.000000 0.119600 0.145510
0.000000 0.120943 0.146883
0.000000 0.122988 0.149233
0.000000 0.126192 0.152804
0.000000 0.128847 0.155306
0.013306 0.132937 0.153201
0.081178 0.142458 0.141054
0.116060 0.146761 0.141634
0.123537 0.146365 0.154360
0.152255 0.152377 0.161868
0.195865 0.158663 0.165682
0.242771 0.164584 0.170016
0.292607 0.170596 0.174960
0.343938 0.176638 0.180484
0.405676 0.185428 0.188113
0.478187 0.198550 0.198672
0.554864 0.213016 0.210178
0.637079 0.229374 0.223728
0.722652 0.249210 0.240177
0.804654 0.274052 0.260594
0.879210 0.304997 0.285893
0.941711 0.341192 0.316197
0.990234 0.379614 0.350072
1.000000 0.417182 0.383856
1.000000 0.453285 0.418189
1.000000 0.488991 0.452888
1.000000 0.525414 0.489326
1.000000 0.562188 0.526726
1.000000 0.599573 0.564721
1.000000 0.636500 0.602686
0.000000 0.126680 0.153140
0.000000 0.126650 0.153353
0.000000 0.127138 0.153902
0.000000 0.128847 0.155306
0.000000 0.130922 0.157656
0.004700 0.134279 0.161105
0.014588 0.138796 0.166140
0.022095 0.141482 0.168887
0.065034 0.148135 0.163485
0.114809 0.159548 0.147677
0.152377 0.166140 0.145998
0.162570 0.164248 0.162173
0.183474 0.170413 0.175265
0.231022 0.178500 0.179965
0.281498 0.186618 0.185183
0.342473 0.198398 0.193240
0.409674 0.212558 0.203128
0.480171 0.227634 0.213931
0.554742 0.244114 0.226078
0.634302 0.261997 0.239811
0.714839 0.281804 0.255711
0.790433 0.303655 0.274662
0.859007 0.329442 0.297246
0.918456 0.358343 0.323308
0.966644 0.389960 0.352178
1.000000 0.422248 0.382513
1.000000 0.455726 0.415045
1.000000 0.490120 0.449073
1.000000 0.526085 0.485542
1.000000 0.563500 0.524102
1.000000 0.601404 0.563317
1.000000 0.639094 0.602564
0.007691 0.135592 0.162661
0.008667 0.135805 0.162814
0.009003 0.136477 0.163668
0.013245 0.137942 0.165164
0.019806 0.140444 0.167758
0.029908 0.144076 0.171389
0.045960 0.149264 0.176699
0.064607 0.154757 0.182406
0.079652 0.158938 0.186435
0.114199 0.168887 0.176364
0.153292 0.182223 0.156130
0.192782 0.190249 0.152193
0.210147 0.188052 0.171450
0.226444 0.196139 0.194217
0.285069 0.210422 0.202304
0.345769 0.225101 0.210941
0.409613 0.240421 0.220584
0.477302 0.256840 0.231266
0.548180 0.274174 0.243137
0.623987 0.292424 0.256474
0.701167 0.311925 0.272129
0.774502 0.333227 0.290471
0.842527 0.357458 0.312688
0.902129 0.384192 0.338109
0.951476 0.413306 0.366064
0.990326 0.443366 0.395972
1.000000 0.474495 0.427100
1.000000 0.507134 0.460761
1.000000 0.541283 0.496162
1.000000 0.577111 0.533684
1.000000 0.613336 0.571710
1.000000 0.649378 0.609949
0.041352 0.148379 0.175814
0.042329 0.148531 0.175967
0.045655 0.149264 0.176883
0.051850 0.150942 0.178500
0.061341 0.153658 0.181247
0.078004 0.157687 0.185336
0.091279 0.163394 0.191043
0.103456 0.170962 0.198520
0.113558 0.177188 0.204654
0.123293 0.183536 0.210758
0.160128 0.197116 0.193484
0.204990 0.215366 0.168429
0.308629 0.267918 0.170840
0.349096 0.273625 0.207614
0.371862 0.287541 0.250736
0.432166 0.310826 0.271122
0.506828 0.333745 0.284703
0.585138 0.355932 0.299351
0.664515 0.377600 0.315709
0.739895 0.399023 0.334356
0.808072 0.420630 0.355352
0.867918 0.442878 0.378668
0.918608 0.466285 0.403937
0.959930 0.491035 0.430732
0.992035 0.516289 0.458320
1.000000 0.541070 0.485634
1.000000 0.565667 0.512718
1.000000 0.590356 0.539971
1.000000 0.615534 0.567620
1.000000 0.641993 0.596612
1.000000 0.669398 0.626764
1.000000 0.697810 0.657862
0.107118 0.173251 0.200626
0.107301 0.173373 0.200870
0.108492 0.173983 0.201358
0.110994 0.175448 0.202976
0.114778 0.178225 0.205600
0.121218 0.182010 0.209384
0.130404 0.187961 0.215152
0.142367 0.196048 0.223087
0.160037 0.208286 0.234897
0.177066 0.220645 0.246830
0.198856 0.236759 0.262394
0.254948 0.265629 0.235019
0.311559 0.296147 0.197421
0.368231 0.317601 0.181186
0.417029 0.325597 0.225040
0.440131 0.336522 0.274083
0.483833 0.358404 0.306798
0.556756 0.380011 0.319829
0.631983 0.400763 0.334356
0.704189 0.420356 0.350317
0.771420 0.439857 0.368597
0.832731 0.459998 0.389563
0.886534 0.481270 0.412604
0.931762 0.504021 0.437690
0.968139 0.527428 0.463874
0.996521 0.551385 0.490669
1.000000 0.575586 0.517540
1.000000 0.600153 0.545068
1.000000 0.625330 0.573144
1.000000 0.651789 0.602716
1.000000 0.678706 0.632837
1.000000 0.706172 0.663661
0.139712 0.194278 0.221408
0.139712 0.194278 0.221408
0.140841 0.195041 0.222141
0.143832 0.197024 0.224033
0.148653 0.200320 0.227268
0.156008 0.205417 0.232120
0.166232 0.212558 0.239078
0.180331 0.222934 0.249119
0.198825 0.236973 0.262577
0.219394 0.253269 0.278294
0.238621 0.269810 0.294133
0.265446 0.292027 0.309606
0.323919 0.324620 0.268925
0.378943 0.355108 0.220310
0.431006 0.373449 0.191958
0.483742 0.379950 0.241459
0.504967 0.385229 0.295659
0.530175 0.403265 0.343023
0.603174 0.424628 0.356359
0.674311 0.444312 0.371008
0.741787 0.463325 0.388006
0.804532 0.483070 0.407843
0.860197 0.503410 0.429633
0.908415 0.525261 0.453864
0.947692 0.547631 0.478950
0.978668 0.570489 0.504845
1.000000 0.593652 0.531090
1.000000 0.616999 0.557671
1.000000 0.641016 0.585168
1.000000 0.666285 0.614038
1.000000 0.692073 0.643366
1.000000 0.718502 0.673701
0.186984 0.227817 0.253727
0.186984 0.227817 0.253727
0.187625 0.228305 0.254276
0.189395 0.229709 0.255558
0.192691 0.232273 0.257969
0.198123 0.236423 0.262058
0.206699 0.243137 0.268498
0.219120 0.253208 0.278141
0.235538 0.267002 0.291478
0.256291 0.285557 0.309392
0.276707 0.304967 0.328161
0.298894 0.326543 0.349401
0.333165 0.354345 0.356909
0.391455 0.386877 0.305516
0.444587 0.414649 0.244816
0.490578 0.427527 0.203189
0.548882 0.433387 0.258549
0.569726 0.434424 0.318059
0.584375 0.449500 0.377783
0.648737 0.469795 0.396033
0.716243 0.489082 0.411872
0.779568 0.508629 0.430457
0.836606 0.528313 0.451087
0.886381 0.548730 0.473579
0.927764 0.570001 0.497475
0.960937 0.591913 0.522362
0.987213 0.614496 0.548302
1.000000 0.637842 0.575067
1.000000 0.662196 0.603326
1.000000 0.687739 0.633051
1.000000 0.714107 0.663783
1.000000 0.740566 0.694972
0.227695 0.260441 0.285100
0.228275 0.260746 0.285466
0.229160 0.261692 0.286290
0.231693 0.263645 0.288212
0.235355 0.266819 0.291356
0.241428 0.272251 0.296544
0.250614 0.280430 0.304417
0.263188 0.291966 0.315557
0.279240 0.307225 0.330419
0.298955 0.326757 0.349584
0.322423 0.350469 0.372992
0.341436 0.370153 0.392493
0.363012 0.392615 0.414679
0.400732 0.419135 0.405127
0.454627 0.445472 0.341070
0.502342 0.465705 0.268742
0.542199 0.473579 0.213504
0.605646 0.480049 0.273869
0.627161 0.478553 0.337957
0.642878 0.491096 0.401343
0.689784 0.512718 0.436408
0.755734 0.533867 0.455268
0.815152 0.554620 0.475898
0.867247 0.575860 0.498573
0.910887 0.597436 0.522484
0.946075 0.619440 0.547417
0.973907 0.641749 0.572992
0.995453 0.664210 0.599145
1.000000 0.686885 0.626062
1.000000 0.710079 0.653773
1.000000 0.733364 0.681697
1.000000 0.756741 0.709987
0.264775 0.293523 0.317082
0.265019 0.293736 0.317296
0.266056 0.294652 0.318181
0.268498 0.296971 0.320409
0.272404 0.300664 0.324041
0.278264 0.306371 0.329564
0.286809 0.314641 0.337774
0.298283 0.325994 0.348913
0.313085 0.340917 0.363592
0.330938 0.359228 0.381659
0.353124 0.382330 0.404517
0.376104 0.406287 0.428138
0.397253 0.427924 0.449470
0.420539 0.451484 0.472511
0.463966 0.477424 0.447150
0.516655 0.500114 0.376379
0.563256 0.517235 0.296696
0.598535 0.522210 0.227176
0.666102 0.529473 0.294835
0.687587 0.525994 0.364324
0.704341 0.537621 0.431922
0.734340 0.559838 0.483040
0.795163 0.581537 0.503227
0.848814 0.602991 0.525261
0.894102 0.624628 0.548547
0.931060 0.646265 0.572930
0.960327 0.668116 0.597925
0.983001 0.689815 0.623560
1.000000 0.711604 0.649805
1.000000 0.733333 0.676326
1.000000 0.755062 0.703182
1.000000 0.776425 0.729885
0.306523 0.334295 0.357031
0.307622 0.335302 0.358068
0.356085 0.385382 0.407538
0.358709 0.388098 0.410193
0.362921 0.392523 0.414588
0.368902 0.398718 0.420691
0.377539 0.407660 0.429480
0.389258 0.419837 0.441474
0.404883 0.435767 0.457160
0.425238 0.456123 0.476997
0.449928 0.480049 0.500114
0.479286 0.507286 0.526207
0.505364 0.530480 0.548150
0.530144 0.551904 0.568231
0.555200 0.573083 0.587976
0.597528 0.591516 0.542382
0.640955 0.603571 0.460090
0.678370 0.610681 0.365789
0.702419 0.606928 0.272465
0.764065 0.609979 0.349584
0.780209 0.603052 0.423987
0.792142 0.611902 0.494575
0.801297 0.632380 0.557916
0.849912 0.650813 0.575799
0.890349 0.667811 0.593652
0.923461 0.684657 0.612360
0.950347 0.701320 0.631708
0.971954 0.718563 0.652552
0.989014 0.736934 0.675196
1.000000 0.755917 0.699214
1.000000 0.775326 0.723934
1.000000 0.794461 0.748440
0.363684 0.393225 0.415290
0.368658 0.398505 0.420478
0.374853 0.404913 0.426795
0.381872 0.412146 0.433936
0.389563 0.420081 0.441718
0.396582 0.427314 0.448859
0.405158 0.436103 0.457465
0.416083 0.447028 0.468147
0.430121 0.460975 0.481727
0.448737 0.478859 0.499031
0.471382 0.500023 0.519341
0.498817 0.524712 0.542718
0.528496 0.550500 0.566949
0.551568 0.570031 0.585168
0.575525 0.589899 0.603571
0.599786 0.609705 0.621851
0.641840 0.625605 0.565087
0.682704 0.636713 0.487343
0.719814 0.644099 0.396033
0.742824 0.641596 0.294408
0.805295 0.647395 0.375311
0.822873 0.642756 0.454688
0.834440 0.651575 0.525963
0.841062 0.670436 0.589258
0.872709 0.688716 0.616297
0.907286 0.704952 0.633509
0.935424 0.720821 0.651575
0.958312 0.736995 0.671077
0.976623 0.754025 0.692287
0.991058 0.771786 0.714992
1.000000 0.789853 0.738521
1.000000 0.807889 0.761898
0.397528 0.428290 0.449836
0.403021 0.433875 0.455268
0.409918 0.440833 0.462135
0.417700 0.448615 0.469703
0.425818 0.456641 0.477546
0.433387 0.464210 0.484871
0.441901 0.472450 0.492836
0.452583 0.482551 0.502586
0.466377 0.495399 0.514916
0.483680 0.511223 0.529992
0.505272 0.530388 0.548089
0.530358 0.552087 0.568414
0.558556 0.575891 0.590600
0.585351 0.597986 0.611048
0.608087 0.616480 0.628107
0.631006 0.634974 0.645075
0.655604 0.653407 0.656855
0.694423 0.666590 0.597040
0.731380 0.675929 0.523430
0.765927 0.682002 0.435218
0.787167 0.678706 0.334752
0.842954 0.684565 0.410559
0.861357 0.682155 0.489265
0.870909 0.690394 0.559716
0.875517 0.706569 0.619623
0.892332 0.724910 0.655726
0.921508 0.740078 0.672358
0.945373 0.755306 0.690394
0.964721 0.771145 0.710292
0.980163 0.787533 0.731472
0.992248 0.804318 0.753567
1.000000 0.820951 0.775509
0.437629 0.468238 0.488777
0.443091 0.473518 0.493904
0.449928 0.480049 0.500114
0.457679 0.487343 0.507164
0.465827 0.494911 0.514397
0.473579 0.502098 0.521263
0.482338 0.509972 0.528740
0.492622 0.519219 0.537530
0.506523 0.531487 0.549096
0.523125 0.545892 0.562646
0.543236 0.563043 0.578637
0.566461 0.582422 0.596643
0.592248 0.603632 0.616236
0.619837 0.625971 0.636805
0.643366 0.644892 0.654139
0.665675 0.662684 0.670405
0.689601 0.681819 0.687922
0.717433 0.700618 0.690333
0.754299 0.714443 0.638972
0.790219 0.725338 0.576043
0.824460 0.733089 0.497871
0.847288 0.731868 0.406043
0.892027 0.738308 0.477333
0.909026 0.740291 0.556023
0.915465 0.749233 0.623590
0.917601 0.764340 0.679683
0.921996 0.782315 0.722133
0.943420 0.796323 0.739101
0.960815 0.810361 0.757168
0.974792 0.824491 0.775814
0.985931 0.838590 0.794583
0.994873 0.852354 0.812924
0.521904 0.544823 0.561639
0.524926 0.547448 0.564080
0.528191 0.550195 0.566674
0.532067 0.553582 0.569787
0.536706 0.557458 0.573449
0.541955 0.561944 0.577600
0.549248 0.568048 0.583307
0.558679 0.575921 0.590661
0.571374 0.586481 0.600427
0.587518 0.599756 0.612665
0.606439 0.615137 0.626825
0.627863 0.632441 0.642725
0.650813 0.650843 0.659571
0.675319 0.670436 0.677485
0.700404 0.690517 0.695857
0.719692 0.705989 0.710048
0.739437 0.721981 0.724727
0.759609 0.738582 0.739986
0.782986 0.752987 0.732235
0.811307 0.762509 0.685359
0.838834 0.769253 0.627405
0.865995 0.773159 0.554162
0.884123 0.768826 0.466316
0.917235 0.771572 0.523827
0.931273 0.772793 0.594141
0.935271 0.779812 0.656672
0.936034 0.793240 0.709773
0.935271 0.810544 0.754665
0.951385 0.824521 0.773953
0.966033 0.837675 0.791104
0.977905 0.850614 0.808255
0.987579 0.863127 0.824887
0.573388 0.588159 0.601923
0.575647 0.590021 0.603662
0.578759 0.592584 0.606043
0.582574 0.595697 0.608911
0.587091 0.599390 0.612329
0.592370 0.603693 0.616297
0.599268 0.609308 0.621485
0.608148 0.616571 0.628107
0.619928 0.626001 0.636866
0.634424 0.637690 0.647547
0.651545 0.651392 0.660121
0.670466 0.666529 0.673945
0.691341 0.683284 0.689235
0.713344 0.700893 0.705348
0.736202 0.719387 0.722316
0.756832 0.736294 0.737881
0.774655 0.751186 0.751614
0.792294 0.766201 0.765591
0.809720 0.781521 0.779904
0.830076 0.793240 0.765743
0.852934 0.800931 0.725734
0.875853 0.806180 0.675105
0.898863 0.808804 0.610620
0.915068 0.804349 0.533196
0.933501 0.795377 0.558526
0.945922 0.796689 0.623835
0.948760 0.803342 0.683742
0.949004 0.815793 0.734218
0.947936 0.831815 0.776913
0.956970 0.846372 0.801389
0.969909 0.859129 0.817960
0.980529 0.871305 0.833951
0.649195 0.649531 0.658412
0.653010 0.652613 0.661219
0.655634 0.654719 0.663142
0.657557 0.656214 0.664515
0.658900 0.657282 0.665492
0.660578 0.658656 0.666712
0.663294 0.660792 0.668696
0.667750 0.664393 0.671962
0.674617 0.669825 0.676967
0.683986 0.677394 0.683864
0.695247 0.686397 0.692073
0.709499 0.697841 0.702571
0.725216 0.710475 0.714137
0.741909 0.724056 0.726589
0.759091 0.738155 0.739590
0.776974 0.753140 0.753445
0.791714 0.765713 0.765133
0.806271 0.778439 0.777035
0.821530 0.792142 0.789944
0.837095 0.806516 0.803616
0.856138 0.816587 0.784421
0.875975 0.823270 0.748959
0.895628 0.827176 0.702907
0.915312 0.828183 0.642603
0.928985 0.822171 0.569116
0.949340 0.821164 0.602625
0.959442 0.821958 0.660517
0.960662 0.827207 0.714626
0.959991 0.838041 0.760800
0.958587 0.852232 0.799619
0.962280 0.866484 0.826719
0.973693 0.878080 0.841703
0.686519 0.679408 0.685695
0.689937 0.682124 0.688197
0.692958 0.684535 0.690425
0.695460 0.686519 0.692226
0.698116 0.688685 0.694179
0.701686 0.691524 0.696773
0.706416 0.695369 0.700282
0.713161 0.700771 0.705226
0.721675 0.707607 0.711513
0.732021 0.715999 0.719203
0.743648 0.725460 0.727901
0.756558 0.736049 0.737636
0.770047 0.747311 0.748043
0.783902 0.759030 0.758877
0.797726 0.770962 0.769986
0.811856 0.783413 0.781704
0.825589 0.795865 0.793484
0.836790 0.806210 0.803342
0.848692 0.817533 0.814206
0.860899 0.829404 0.825681
0.872831 0.841398 0.837339
0.887724 0.848081 0.815427
0.903014 0.852811 0.785672
0.918883 0.855436 0.746731
0.935637 0.855772 0.694881
0.948211 0.850370 0.632441
0.964080 0.849424 0.658534
0.972076 0.850828 0.709316
0.972259 0.856382 0.758206
0.971099 0.866361 0.798825
0.969787 0.878630 0.832090
0.969787 0.891447 0.858396
0.739864 0.722377 0.725063
0.741604 0.723781 0.726345
0.743008 0.724941 0.727413
0.744778 0.726375 0.728725
0.746578 0.727840 0.730098
0.749355 0.730129 0.732174
0.752956 0.733120 0.734920
0.757992 0.737270 0.738766
0.764462 0.742641 0.743709
0.772549 0.749416 0.749966
0.781857 0.757229 0.757259
0.792355 0.766232 0.765621
0.803311 0.775845 0.774594
0.814542 0.785855 0.783993
0.825681 0.795926 0.793545
0.836881 0.806332 0.803464
0.848386 0.817227 0.813901
0.858732 0.827298 0.823606
0.868254 0.836759 0.832822
0.878141 0.846830 0.842679
0.887907 0.856992 0.852689
0.897459 0.866300 0.858610
0.909056 0.871000 0.838712
0.921111 0.874205 0.813199
0.934112 0.875669 0.779202
0.948455 0.875181 0.733425
0.959533 0.870054 0.679469
0.972656 0.868681 0.697749
0.979492 0.870207 0.742367
0.979309 0.875853 0.787106
0.978271 0.885161 0.823636
0.977325 0.896239 0.853269
0.779934 0.755673 0.755764
0.781186 0.756741 0.756741
0.782528 0.757839 0.757778
0.784451 0.759487 0.759304
0.787015 0.761685 0.761349
0.791073 0.765164 0.764584
0.797269 0.770504 0.769589
0.804959 0.777279 0.775937
0.814023 0.785336 0.783536
0.824216 0.794614 0.792264
0.835019 0.804562 0.801755
0.845701 0.814664 0.811398
0.856138 0.824735 0.821134
0.865843 0.834318 0.830442
0.874784 0.843381 0.839292
0.882872 0.851713 0.847501
0.890654 0.859983 0.855650
0.898619 0.868589 0.864195
0.905119 0.875761 0.871336
0.911589 0.883055 0.878691
0.918059 0.890501 0.886198
0.924224 0.897826 0.893584
0.930541 0.903532 0.894072
0.938018 0.906279 0.879545
0.946014 0.907958 0.861082
0.955077 0.908476 0.836851
0.965667 0.907774 0.804257
0.974365 0.903441 0.765682
0.983795 0.902220 0.775937
0.988769 0.903593 0.807431
0.988464 0.908415 0.840482
0.987884 0.915648 0.867369
0.843137 0.812222 0.809079
0.843259 0.812345 0.809201
0.843503 0.812558 0.809384
0.844022 0.813016 0.809842
0.844999 0.813962 0.810758
0.846555 0.815457 0.812192
0.848966 0.817777 0.814420
0.852262 0.820981 0.817533
0.856474 0.825040 0.821469
0.861387 0.829892 0.826139
0.867033 0.835477 0.831601
0.873075 0.841611 0.837552
0.879423 0.848142 0.843961
0.885801 0.854826 0.850523
