20 Preset/City Style/【3】LUT video cho PR-AE-FCPX/TONE 2/Darky Sunset II.cube
# Created by Adobe Lightroom plugin Export LUT (1.24.0)
# www.johnrellis.com/lightroom/exportlut.htm
# Preset: Darky Sunset II
# Color profile: E:\lut插件\exportlut.1.24\exportlut.lrplugin\color profiles\Rec709gamma2.4.icc
LUT_3D_SIZE 8
DOMAIN_MIN 0.000000 0.000000 0.000000
DOMAIN_MAX 0.903226 0.903226 0.903226
0.000000 0.117189 0.142916
0.023346 0.117098 0.142763
0.000000 0.118502 0.144289
0.021363 0.121767 0.147951
0.190158 0.119692 0.150057
0.409491 0.015686 0.146700
0.674495 0.000000 0.128695
0.894469 0.000000 0.089052
0.000000 0.125460 0.152071
0.003021 0.126497 0.149630
0.000000 0.123629 0.150423
0.000000 0.124971 0.151553
0.156802 0.127810 0.152071
0.355535 0.101503 0.148348
0.587060 0.000000 0.134066
0.829984 0.000000 0.098482
0.000000 0.123690 0.150179
0.000000 0.123995 0.150576
0.000000 0.119844 0.154147
0.007813 0.128817 0.153475
0.190616 0.144839 0.148226
0.395819 0.145754 0.135561
0.665370 0.061982 0.095064
0.893492 0.000000 0.000000
0.000000 0.121981 0.148074
0.000000 0.120912 0.147097
0.001221 0.125917 0.145418
0.145449 0.160952 0.140322
0.342870 0.219425 0.117861
0.480201 0.244297 0.090211
0.688624 0.261692 0.000000
0.890471 0.247318 0.000000
0.033173 0.145663 0.172915
0.028901 0.144320 0.171542
0.032563 0.143465 0.168826
0.145754 0.179934 0.170352
0.305882 0.252201 0.153384
0.536919 0.348425 0.066743
0.687831 0.379248 0.000000
0.860014 0.417273 0.000000
0.141238 0.195285 0.222354
0.148898 0.200443 0.227268
0.140322 0.194675 0.221714
0.188052 0.219944 0.222690
0.319524 0.298955 0.222721
0.531731 0.426001 0.194461
0.810666 0.553338 0.109651
0.928069 0.573663 0.012543
0.274693 0.302983 0.326268
0.276097 0.304265 0.327581
0.265721 0.294377 0.317937
0.254368 0.283207 0.304875
0.363012 0.363043 0.313664
0.537682 0.484901 0.321416
0.755764 0.603845 0.318242
0.951507 0.701228 0.322271
0.517967 0.541436 0.558465
0.515831 0.539605 0.556695
0.511955 0.536248 0.553582
0.508965 0.533623 0.551110
0.486671 0.504570 0.494209
0.651118 0.617334 0.526116
0.816098 0.718563 0.554467
0.926635 0.777859 0.558862
0.000000 0.120089 0.148287
0.000000 0.122438 0.148653
0.000000 0.124086 0.150362
0.000000 0.126253 0.152865
0.148226 0.126406 0.153017
0.328985 0.104891 0.149508
0.543572 0.000000 0.138552
0.779934 0.000000 0.112428
0.000000 0.126864 0.153536
0.000000 0.128054 0.153994
0.000000 0.126802 0.154849
0.000000 0.127413 0.155001
0.141268 0.130129 0.154147
0.316228 0.116365 0.149844
0.508904 0.000000 0.139528
0.737942 0.000000 0.114809
0.000000 0.122683 0.148836
0.000000 0.122683 0.149050
0.000000 0.119570 0.151919
0.005188 0.126375 0.150881
0.159274 0.138369 0.148104
0.329534 0.140078 0.140871
0.537774 0.111299 0.122164
0.783688 0.000000 0.050996
0.000000 0.119356 0.145113
0.000000 0.118807 0.144717
0.000000 0.121920 0.144137
0.100221 0.141665 0.140505
0.237980 0.175051 0.130922
0.360052 0.194705 0.118746
0.554376 0.211917 0.072663
0.781765 0.212528 0.000000
0.029908 0.144076 0.171389
0.023713 0.142306 0.169680
0.018006 0.139651 0.165866
0.123995 0.167330 0.165133
0.256870 0.221256 0.151369
0.464851 0.302525 0.104829
0.618616 0.339879 0.000000
0.801663 0.380011 0.000000
0.129366 0.187289 0.214481
0.128023 0.186496 0.213840
0.121706 0.182284 0.209598
0.164553 0.204135 0.211398
0.290929 0.276188 0.213321
0.501579 0.402869 0.191440
0.778378 0.529686 0.107271
0.900053 0.549187 0.000000
0.250919 0.280827 0.304692
0.245426 0.275853 0.299901
0.235080 0.266575 0.291051
0.223331 0.256657 0.281071
0.334539 0.336584 0.295293
0.502739 0.455055 0.301305
0.714687 0.570550 0.286992
0.927581 0.671534 0.272465
0.475715 0.504021 0.523125
0.481147 0.508873 0.527764
0.475380 0.503685 0.522789
0.472450 0.500999 0.520226
0.515190 0.531029 0.521996
0.658350 0.624292 0.535607
0.809689 0.713191 0.549523
0.923156 0.773709 0.553582
0.000000 0.128115 0.155795
0.000000 0.128573 0.155734
0.000000 0.127657 0.154269
0.000000 0.123110 0.149813
0.181704 0.113191 0.152346
0.377722 0.000000 0.145144
0.595605 0.000000 0.130220
0.828000 0.000000 0.097353
0.000000 0.128359 0.152346
0.000000 0.127901 0.153017
0.000000 0.122164 0.148470
0.001984 0.123537 0.150576
0.177066 0.117250 0.150210
0.357122 0.049744 0.143435
0.561791 0.000000 0.130404
0.795163 0.000000 0.098756
0.000000 0.118288 0.144137
0.000000 0.117739 0.143282
0.000000 0.117739 0.143740
0.076936 0.124025 0.142245
0.209049 0.128664 0.139040
0.378180 0.112276 0.131106
0.579889 0.000000 0.112123
0.807462 0.000000 0.030274
0.000000 0.127871 0.154421
0.000000 0.127596 0.154269
0.000336 0.129305 0.152621
0.125551 0.155184 0.149660
0.268772 0.187228 0.141390
0.404181 0.204959 0.126680
0.607385 0.212161 0.081666
0.823911 0.194430 0.000000
0.074403 0.157015 0.184634
0.069184 0.155612 0.183230
0.053468 0.151705 0.179232
0.142275 0.181827 0.180850
0.290593 0.246891 0.171633
0.489235 0.321263 0.136355
0.635126 0.350713 0.091859
0.824063 0.382788 0.000000
0.149874 0.201175 0.228092
0.149203 0.200961 0.227787
0.141451 0.195407 0.222446
0.167636 0.208469 0.220829
0.291386 0.280369 0.225742
0.500389 0.406683 0.214878
0.771695 0.529686 0.175601
0.902678 0.555535 0.146731
0.276097 0.304265 0.327581
0.271122 0.299474 0.322850
0.257572 0.286839 0.310521
0.240635 0.271366 0.295689
0.334752 0.340215 0.307073
0.508812 0.464698 0.322026
0.733425 0.590784 0.329900
0.938048 0.691920 0.346899
0.490730 0.517540 0.535943
0.485084 0.512505 0.531151
0.478035 0.506157 0.525109
0.483375 0.510948 0.529686
0.504601 0.524620 0.525780
0.660883 0.629633 0.550195
0.815824 0.722744 0.570672
0.926116 0.782712 0.579065
0.000000 0.126802 0.146426
0.000000 0.125856 0.146548
0.000000 0.122744 0.148409
0.000000 0.117433 0.143313
0.170321 0.118013 0.177737
0.394232 0.000000 0.172488
0.586481 0.000000 0.134157
0.797421 0.000000 0.114168
0.000000 0.121523 0.142855
0.000000 0.121035 0.143160
0.000000 0.119051 0.144686
0.000000 0.120912 0.147097
0.200229 0.111574 0.180026
0.398627 0.000000 0.161837
0.576104 0.000000 0.132509
0.794461 0.000000 0.111147
0.000000 0.118410 0.146548
0.000000 0.118654 0.147372
0.000000 0.120333 0.147158
0.087984 0.129702 0.164096
0.253941 0.080934 0.149508
0.424231 0.000000 0.141421
0.641108 0.000000 0.126741
0.848234 0.000000 0.090669
0.033204 0.145266 0.172610
0.036164 0.146426 0.174014
0.046632 0.149447 0.177035
0.146029 0.172488 0.175998
0.262211 0.187716 0.170077
0.421668 0.189090 0.155215
0.620905 0.170352 0.129183
0.838468 0.058076 0.048219
0.143130 0.196811 0.223728
0.138796 0.193668 0.220737
0.128023 0.186496 0.213840
0.170901 0.207340 0.214603
0.334112 0.287816 0.218265
0.518303 0.348699 0.199619
0.660975 0.369879 0.171023
0.857084 0.375738 0.100130
0.213291 0.248356 0.273533
0.219730 0.253727 0.278660
0.207340 0.243687 0.269078
0.198611 0.235416 0.258030
0.329900 0.321965 0.272557
0.537133 0.446937 0.277012
0.780758 0.547356 0.273198
0.907744 0.567956 0.252110
0.317784 0.345739 0.368353
0.317327 0.345281 0.367834
0.309789 0.337530 0.360204
0.294774 0.322515 0.345464
0.355444 0.368048 0.349462
0.533715 0.496101 0.374823
0.753048 0.617273 0.397986
0.939910 0.709133 0.431037
0.548363 0.567315 0.582635
0.545617 0.565026 0.580499
0.537011 0.557763 0.573754
0.525414 0.547875 0.564477
0.503868 0.529137 0.546899
0.656641 0.632685 0.571221
0.818967 0.732753 0.599451
0.930266 0.797818 0.621698
0.000000 0.118227 0.145663
0.000000 0.117678 0.145724
0.000000 0.117128 0.144472
0.000000 0.118502 0.144533
0.058686 0.153140 0.180667
0.333196 0.240116 0.309361
0.624170 0.000000 0.302800
0.851957 0.000000 0.250217
0.000000 0.117037 0.150912
0.000000 0.117311 0.150881
0.000000 0.117861 0.148074
0.000000 0.121431 0.147494
0.092348 0.164218 0.191684
0.360876 0.225315 0.310582
0.629877 0.000000 0.293065
0.850431 0.000000 0.235019
0.000000 0.129244 0.176913
0.000000 0.129641 0.175692
0.000000 0.130800 0.168795
0.013275 0.137484 0.164828
0.155489 0.205051 0.231846
0.402930 0.148318 0.274083
0.620142 0.000000 0.232425
0.819730 0.000000 0.157504
0.000000 0.162356 0.196109
0.000000 0.164279 0.198032
0.068238 0.174014 0.208164
0.134859 0.191104 0.218265
0.301396 0.167178 0.222812
0.448646 0.106935 0.194675
0.628168 0.000000 0.177920
0.830686 0.000000 0.148959
0.178897 0.221775 0.247929
0.183078 0.224979 0.250980
0.197177 0.235660 0.261295
0.189029 0.229404 0.255314
0.331579 0.300542 0.266117
0.463447 0.320653 0.249729
0.640955 0.319371 0.219333
0.846555 0.289281 0.174136
0.259037 0.288151 0.311833
0.257053 0.286381 0.310124
0.242985 0.273594 0.297795
0.223484 0.256718 0.281590
0.293065 0.302678 0.288182
0.518242 0.446509 0.327184
0.744991 0.530510 0.339422
0.880735 0.546166 0.313481
0.367712 0.397528 0.419471
0.361852 0.391424 0.413489
0.346929 0.375891 0.398138
0.332372 0.360784 0.383185
0.320531 0.346288 0.363043
0.505486 0.486091 0.403021
0.737148 0.617060 0.442267
0.919677 0.695247 0.465949
0.549767 0.568505 0.583734
0.546105 0.565423 0.580865
0.534722 0.555810 0.571893
0.539178 0.559533 0.575402
0.518120 0.541527 0.558556
0.600214 0.596674 0.565881
0.790311 0.716548 0.602838
0.918761 0.791836 0.631861
0.000000 0.122286 0.178500
0.000000 0.122988 0.177920
0.000000 0.124788 0.172030
0.002106 0.130709 0.165560
0.052522 0.151125 0.178805
0.220035 0.254002 0.278904
0.490028 0.516930 0.535363
0.848112 0.326970 0.559838
0.000000 0.124575 0.180911
0.000000 0.125063 0.179721
0.000000 0.126894 0.175051
0.001770 0.131197 0.166049
0.049195 0.150790 0.178195
0.217838 0.251957 0.277073
0.487282 0.497169 0.523033
0.837949 0.288060 0.537346
0.000000 0.149966 0.223362
0.000000 0.149844 0.220340
0.033417 0.151247 0.210941
0.065217 0.151583 0.190585
0.113985 0.177493 0.205020
0.286687 0.314519 0.337591
0.590723 0.443580 0.526757
0.868345 0.220035 0.509545
0.001373 0.205844 0.291295
0.046815 0.206271 0.288762
0.139101 0.215274 0.287236
0.181582 0.221195 0.268742
0.232425 0.264500 0.289006
0.442847 0.473304 0.493690
0.717983 0.343236 0.493843
0.921508 0.000000 0.428687
0.171542 0.263493 0.291600
0.177523 0.265934 0.293858
0.203525 0.278202 0.305547
0.254429 0.306462 0.332738
0.348241 0.341985 0.372198
0.518822 0.281071 0.322911
0.694087 0.218692 0.294743
0.886503 0.000000 0.259434
0.319280 0.347326 0.369848
0.326787 0.354925 0.377417
0.334966 0.363409 0.385779
0.351690 0.380804 0.402991
0.325872 0.354009 0.376501
0.553460 0.501549 0.439857
0.721218 0.524315 0.425116
0.899718 0.501610 0.375311
0.457954 0.487587 0.507378
0.463325 0.492622 0.512230
0.468330 0.497292 0.516655
0.456764 0.486488 0.506371
0.418463 0.449409 0.470497
0.500999 0.506615 0.476020
0.759976 0.658442 0.542748
0.918639 0.713863 0.559014
0.634333 0.637659 0.647486
0.629908 0.634058 0.644190
0.617304 0.623896 0.634882
0.603998 0.613214 0.625055
0.574762 0.589319 0.603021
0.535088 0.556146 0.572198
0.759548 0.705623 0.625330
0.911864 0.798825 0.671077
0.000000 0.143099 0.233951
0.000000 0.144350 0.233951
0.016541 0.146609 0.225803
0.073121 0.151797 0.212100
0.084779 0.158419 0.190707
0.160708 0.208743 0.235294
0.348425 0.377447 0.399603
0.627405 0.632044 0.642359
0.000000 0.144778 0.233951
0.000000 0.146426 0.234470
0.019684 0.148409 0.226596
0.071931 0.152071 0.211429
0.083131 0.157900 0.190188
0.154513 0.204349 0.231144
0.333989 0.362402 0.384741
0.601923 0.611475 0.623468
0.022919 0.170230 0.273045
0.038788 0.170626 0.270542
0.090333 0.170962 0.258915
0.114870 0.173556 0.239231
0.118135 0.177279 0.211460
0.194491 0.233738 0.259434
0.398871 0.429603 0.451179
0.675654 0.670710 0.677760
0.124392 0.235264 0.359319
0.128267 0.231785 0.352789
0.156191 0.228550 0.335363
0.189792 0.229404 0.309300
0.196841 0.230106 0.269444
0.279759 0.307836 0.331029
0.520897 0.543999 0.560845
0.777615 0.665675 0.706661
0.138003 0.311650 0.408972
0.143801 0.309941 0.407782
0.174319 0.312261 0.414984
0.250523 0.323613 0.418860
0.296056 0.319951 0.372351
0.365118 0.394842 0.416815
0.635187 0.638300 0.648127
0.864469 0.568017 0.667964
0.287968 0.401434 0.426154
0.292729 0.404700 0.429358
0.311528 0.416388 0.440986
0.349737 0.439948 0.464607
0.411353 0.476600 0.501823
0.536980 0.557641 0.573632
0.749599 0.452705 0.510216
0.923644 0.361059 0.457527
0.506371 0.531395 0.549004
0.509789 0.534386 0.551812
0.517296 0.540856 0.557916
0.533165 0.554498 0.570672
0.555413 0.573266 0.588128
0.529992 0.551781 0.568139
0.769314 0.694240 0.638911
0.891814 0.692317 0.608179
0.669551 0.665827 0.673304
0.671534 0.667384 0.674708
0.682765 0.676387 0.682948
0.693294 0.684779 0.690639
0.703700 0.693141 0.698268
0.664820 0.662043 0.669825
0.709529 0.687098 0.659541
0.908171 0.817838 0.734249
0.102052 0.191226 0.343297
0.111330 0.192721 0.342565
0.130434 0.192813 0.327276
0.158022 0.197818 0.306584
0.172976 0.204196 0.274022
0.173587 0.217990 0.244266
0.291936 0.319707 0.342718
0.510979 0.535332 0.552758
0.101045 0.191867 0.341283
0.110201 0.193362 0.340764
0.131563 0.194583 0.328008
0.157595 0.198306 0.306157
0.172366 0.204135 0.273686
0.172000 0.216800 0.243137
0.287541 0.315282 0.338354
0.502739 0.528161 0.545983
0.123323 0.213199 0.371588
0.130739 0.213718 0.369116
0.151400 0.213321 0.353979
0.184268 0.219974 0.336278
0.197543 0.222538 0.297215
0.188876 0.229313 0.255222
0.310552 0.338354 0.361028
0.539513 0.559838 0.575677
0.149752 0.261753 0.439704
0.160281 0.262638 0.437751
0.187655 0.261631 0.421912
0.224216 0.263645 0.395972
0.247166 0.264958 0.352392
0.237064 0.266361 0.294560
0.366491 0.396216 0.418219
0.623468 0.628901 0.639490
0.131411 0.345068 0.530846
0.152010 0.347417 0.531548
0.205753 0.347845 0.522606
0.264195 0.344488 0.500084
0.309545 0.338506 0.449409
0.313939 0.333349 0.376989
0.438087 0.468696 0.489204
0.726436 0.711452 0.715053
0.233097 0.475898 0.577386
0.236088 0.474342 0.576959
0.254124 0.472847 0.579644
0.298314 0.476234 0.592401
0.388251 0.484352 0.601038
0.465217 0.488319 0.554803
0.582269 0.595422 0.608667
0.833402 0.803067 0.800320
0.468605 0.603632 0.618799
0.471046 0.604303 0.619593
0.482063 0.608179 0.623590
0.509148 0.619501 0.635096
0.553185 0.638117 0.654292
0.620356 0.666102 0.685115
0.694545 0.685817 0.691554
0.894347 0.750301 0.776883
0.724178 0.709682 0.713405
0.724269 0.709712 0.713436
0.728389 0.713008 0.716487
0.740383 0.722805 0.725460
0.756191 0.735775 0.737362
0.775692 0.752041 0.752407
0.788418 0.762875 0.762478
0.900755 0.841886 0.809049
