20 Preset/City Style/【3】LUT video cho PR-AE-FCPX/TONE 2/Darky City Lights.cube
# Created by Adobe Lightroom plugin Export LUT (1.24.0)
# www.johnrellis.com/lightroom/exportlut.htm
# Preset: Darky City Lights
# Color profile: E:\lut插件\exportlut.1.24\exportlut.lrplugin\color profiles\Rec709gamma2.4.icc
LUT_3D_SIZE 8
DOMAIN_MIN 0.000000 0.000000 0.000000
DOMAIN_MAX 0.903226 0.903226 0.903226
0.000000 0.089479 0.108522
0.000000 0.071870 0.097658
0.417762 0.166995 0.000000
0.773068 0.322942 0.000000
0.961578 0.440711 0.000000
1.000000 0.517388 0.000000
1.000000 0.569299 0.000000
1.000000 0.611810 0.000000
0.000000 0.047120 0.068666
0.104250 0.107301 0.043214
0.522759 0.237736 0.000000
0.786282 0.359594 0.000000
0.948760 0.454719 0.000000
1.000000 0.518517 0.000000
1.000000 0.562554 0.000000
1.000000 0.605432 0.000000
0.310094 0.322576 0.306340
0.431220 0.393591 0.265599
0.832975 0.543389 0.000000
0.996277 0.550835 0.000000
1.000000 0.554742 0.000000
1.000000 0.580652 0.000000
1.000000 0.617273 0.000000
1.000000 0.648310 0.000000
0.684871 0.668696 0.643763
0.723873 0.688228 0.631983
0.840909 0.733059 0.591882
0.961303 0.746212 0.516228
1.000000 0.742519 0.456458
1.000000 0.713008 0.312474
1.000000 0.704189 0.192233
1.000000 0.706600 0.000000
0.818296 0.785214 0.770657
0.826261 0.789883 0.769009
0.856535 0.806088 0.764584
0.906615 0.824704 0.751705
0.974273 0.829343 0.704219
1.000000 0.826169 0.658625
1.000000 0.800900 0.571374
1.000000 0.785153 0.490791
0.862058 0.827298 0.813993
0.868772 0.832761 0.816434
0.883604 0.841581 0.813382
0.911650 0.855009 0.805875
0.951507 0.866545 0.788479
0.997986 0.873442 0.765957
1.000000 0.874174 0.747707
1.000000 0.861357 0.708888
0.895628 0.861418 0.846342
0.898558 0.863676 0.846403
0.907439 0.868864 0.842802
0.925505 0.878080 0.835691
0.951446 0.886748 0.821347
0.984161 0.894255 0.804318
1.000000 0.899229 0.794491
1.000000 0.896147 0.780911
0.923064 0.891508 0.874601
0.924468 0.892332 0.873686
0.930846 0.896117 0.870146
0.943633 0.902617 0.862638
0.957580 0.903319 0.843046
0.980346 0.912993 0.836881
1.000000 0.918944 0.828458
1.000000 0.918090 0.816678
0.000000 0.090730 0.156832
0.000000 0.084504 0.105562
0.415015 0.146120 0.000000
0.738125 0.332311 0.000000
0.936767 0.445472 0.000000
1.000000 0.510460 0.000000
1.000000 0.552239 0.000000
1.000000 0.592462 0.000000
0.000000 0.135012 0.184390
0.086671 0.160586 0.186984
0.513909 0.244816 0.000000
0.824613 0.387152 0.000000
0.960082 0.468055 0.000000
1.000000 0.518578 0.000000
1.000000 0.553429 0.000000
1.000000 0.591089 0.000000
0.349279 0.378241 0.400458
0.418585 0.438911 0.433722
0.798337 0.577203 0.310460
0.984192 0.555871 0.000000
1.000000 0.551629 0.000000
1.000000 0.569879 0.000000
1.000000 0.594720 0.000000
1.000000 0.627283 0.000000
0.650263 0.650385 0.659205
0.690517 0.675257 0.657069
0.815183 0.733425 0.636225
0.931823 0.748135 0.578424
1.000000 0.701869 0.344121
1.000000 0.677729 0.190036
1.000000 0.672847 0.000000
1.000000 0.683040 0.000000
0.811337 0.781491 0.774716
0.818631 0.785855 0.772610
0.847898 0.801938 0.767453
0.895262 0.819303 0.754726
0.961028 0.822232 0.708125
1.000000 0.809995 0.625574
1.000000 0.786130 0.536980
1.000000 0.772274 0.457313
0.855253 0.821958 0.812222
0.859129 0.824613 0.811948
0.874327 0.834134 0.809842
0.903288 0.849119 0.804562
0.943938 0.862730 0.790707
0.995422 0.868833 0.760342
1.000000 0.870054 0.741299
1.000000 0.856718 0.700160
0.889281 0.855680 0.843229
0.890593 0.856260 0.841733
0.899443 0.861570 0.838437
0.918425 0.872099 0.832914
0.946227 0.883360 0.821683
0.980957 0.890074 0.800229
1.000000 0.894865 0.789670
1.000000 0.892271 0.775540
0.918883 0.887541 0.872679
0.921050 0.889281 0.872679
0.927398 0.893095 0.869291
0.940490 0.900267 0.862608
0.959289 0.906920 0.848722
0.980896 0.913664 0.837522
1.000000 0.918425 0.827817
1.000000 0.917601 0.816037
0.688289 0.695827 0.777340
0.680659 0.681178 0.757046
0.435370 0.462165 0.490913
0.908141 0.509453 0.553643
0.976440 0.470069 0.030884
1.000000 0.533715 0.000000
1.000000 0.577264 0.000000
1.000000 0.613306 0.000000
0.758541 0.749996 0.789242
0.742153 0.731991 0.771695
0.518669 0.539849 0.561639
0.885252 0.529992 0.522332
0.960479 0.491859 0.000000
1.000000 0.543359 0.000000
1.000000 0.577783 0.000000
1.000000 0.612177 0.000000
0.737148 0.733455 0.753414
0.732296 0.726650 0.743282
0.724025 0.709102 0.711574
0.877165 0.674769 0.585168
0.977234 0.630335 0.379614
1.000000 0.611261 0.000000
1.000000 0.614954 0.000000
1.000000 0.640131 0.000000
0.653285 0.652796 0.661372
0.718685 0.705226 0.709316
0.800168 0.771237 0.764462
0.885130 0.808591 0.766842
0.960510 0.805356 0.725032
1.000000 0.748531 0.547753
1.000000 0.692958 0.165164
1.000000 0.697475 0.000000
0.814176 0.785519 0.783688
0.820310 0.791043 0.788907
0.843473 0.810544 0.801450
0.887327 0.835019 0.800443
0.943664 0.851133 0.789395
1.000000 0.851713 0.755398
1.000000 0.797696 0.574670
1.000000 0.778225 0.474678
0.855619 0.824247 0.820645
0.858610 0.827146 0.823484
0.871366 0.837430 0.826352
0.898314 0.853910 0.823728
0.936614 0.870085 0.816129
0.983948 0.880797 0.800656
1.000000 0.874113 0.755428
1.000000 0.857420 0.701259
0.891081 0.860410 0.856046
0.891783 0.861021 0.856291
0.899535 0.866331 0.853025
0.916930 0.877043 0.848356
0.943206 0.889281 0.839750
0.976593 0.898283 0.824247
1.000000 0.897368 0.793973
1.000000 0.894133 0.777859
0.919097 0.890990 0.884459
0.920073 0.891508 0.883268
0.926055 0.895659 0.880400
0.939605 0.904631 0.876249
0.957397 0.912078 0.864561
0.980743 0.916014 0.843381
1.000000 0.919127 0.828397
1.000000 0.918059 0.816464
0.854520 0.831022 0.862516
0.857176 0.831754 0.859861
0.850309 0.819394 0.835660
0.757229 0.734951 0.740017
0.889860 0.829099 0.834257
0.956603 0.721248 0.693751
1.000000 0.645411 0.451301
1.000000 0.625940 0.000000
0.872129 0.848844 0.874327
0.871366 0.846403 0.869474
0.860746 0.830198 0.843717
0.777432 0.752346 0.755154
0.894713 0.822873 0.829770
0.954040 0.723598 0.689174
1.000000 0.650690 0.448402
1.000000 0.631098 0.000000
0.897398 0.879210 0.896696
0.896208 0.875944 0.891356
0.882414 0.854765 0.863279
0.815305 0.786099 0.785061
0.896422 0.793790 0.792905
0.944793 0.741878 0.680995
1.000000 0.699123 0.494179
1.000000 0.680781 0.224735
0.876158 0.851987 0.856992
0.875029 0.850034 0.854154
0.868437 0.840604 0.841245
0.860929 0.829252 0.825010
0.900542 0.822263 0.797421
0.939940 0.807095 0.752529
0.996490 0.788907 0.676539
1.000000 0.743618 0.454383
0.699947 0.690089 0.695491
0.742214 0.724331 0.726833
0.832792 0.802518 0.799802
0.880156 0.847959 0.841001
0.932280 0.875334 0.845487
0.979980 0.879545 0.830747
1.000000 0.860472 0.782864
1.000000 0.825376 0.664454
0.859556 0.828061 0.824369
0.865660 0.834165 0.830289
0.877226 0.845853 0.841733
0.899199 0.867491 0.858488
0.933806 0.888853 0.858518
0.973754 0.901915 0.852934
1.000000 0.902892 0.835050
1.000000 0.876616 0.762814
0.895598 0.865293 0.860899
0.897673 0.867521 0.863127
0.904601 0.875181 0.870756
0.918883 0.888884 0.877928
0.942565 0.903899 0.873991
0.971252 0.914305 0.864652
1.000000 0.915587 0.845640
1.000000 0.900938 0.797543
0.928099 0.902464 0.898314
0.928710 0.903136 0.899016
0.931304 0.906340 0.902251
0.940276 0.913878 0.901549
0.955505 0.922332 0.893095
0.975647 0.927642 0.877379
1.000000 0.925811 0.848020
1.000000 0.918761 0.817136
0.902464 0.881956 0.912718
0.904356 0.883024 0.911925
0.905516 0.880583 0.903044
0.897246 0.866484 0.878141
0.843992 0.812284 0.810758
0.918059 0.890532 0.886229
0.965667 0.826200 0.826841
0.994415 0.807645 0.769589
0.912688 0.893217 0.919677
0.913939 0.893767 0.918853
0.913176 0.889433 0.909514
0.902739 0.872831 0.883513
0.847837 0.816007 0.814176
0.921508 0.894591 0.890318
0.964019 0.826810 0.825254
0.993591 0.808286 0.767941
0.934356 0.918730 0.935637
0.934813 0.918517 0.934447
0.931365 0.911742 0.925597
0.916930 0.890013 0.897948
0.858152 0.826230 0.823575
0.927672 0.893523 0.892027
0.955230 0.825559 0.814939
0.989715 0.805570 0.753964
0.954864 0.945922 0.955657
0.954681 0.945098 0.954345
0.952789 0.940246 0.947601
0.939025 0.918578 0.922484
0.882780 0.851408 0.847593
0.930999 0.854795 0.852720
0.946807 0.830472 0.802365
0.990021 0.811276 0.734798
0.926635 0.907836 0.912322
0.926635 0.907439 0.911467
0.924743 0.903716 0.906004
0.915648 0.890471 0.889433
0.908232 0.879088 0.874205
0.936339 0.874174 0.853666
0.963592 0.862242 0.821012
1.000000 0.853880 0.780484
0.759487 0.739651 0.742031
0.747280 0.729061 0.731777
0.797177 0.770474 0.769528
0.868711 0.837217 0.833249
0.913054 0.883787 0.877073
0.956695 0.912505 0.888975
0.993317 0.919371 0.883482
1.000000 0.898222 0.832486
0.873442 0.842008 0.837949
0.876768 0.845426 0.841276
0.892821 0.862242 0.857908
0.910521 0.881865 0.877470
0.932830 0.906432 0.898161
0.960266 0.924163 0.898131
0.988128 0.931579 0.892241
1.000000 0.923796 0.864805
0.922820 0.896117 0.891875
0.923766 0.897215 0.892973
0.927947 0.902220 0.898070
0.938689 0.915465 0.911620
0.950286 0.927794 0.918578
0.968261 0.938079 0.911833
0.989807 0.940978 0.895689
1.000000 0.931304 0.858488
0.933654 0.917418 0.941497
0.935058 0.918547 0.941588
0.937499 0.919554 0.939361
0.938750 0.917967 0.932555
0.929595 0.903349 0.911254
0.886259 0.854551 0.851835
0.937499 0.913970 0.910063
0.979004 0.910460 0.915984
0.936675 0.920806 0.942779
0.937102 0.920928 0.942199
0.938262 0.920562 0.939239
0.937804 0.916899 0.931090
0.927886 0.901335 0.909056
0.883909 0.852110 0.849363
0.936492 0.912688 0.908782
0.978820 0.904723 0.910338
0.953491 0.940917 0.954650
0.953277 0.940368 0.953887
0.952728 0.938445 0.950896
0.948638 0.930877 0.941131
0.937102 0.913237 0.919036
0.892485 0.861387 0.858244
0.944701 0.923064 0.919432
0.982910 0.896178 0.899931
0.966949 0.958190 0.965972
0.966857 0.957824 0.965393
0.966918 0.956847 0.963348
0.964813 0.952392 0.957580
0.954345 0.936217 0.939178
0.912688 0.884001 0.880400
0.959442 0.942443 0.939513
0.985199 0.894285 0.889250
0.972961 0.966247 0.970825
0.973297 0.966583 0.970916
0.974853 0.968017 0.971557
0.974395 0.966217 0.968780
0.964111 0.950347 0.951598
0.924956 0.898497 0.894621
0.961059 0.905303 0.903685
0.980591 0.882475 0.859190
0.955016 0.941863 0.944915
0.955749 0.942596 0.945434
0.955383 0.941588 0.943725
0.953643 0.938293 0.939178
0.946715 0.927733 0.926513
0.944274 0.922332 0.918334
0.967834 0.920928 0.904234
0.993256 0.908568 0.871702
0.887419 0.858854 0.856870
0.886412 0.857633 0.855497
0.876646 0.846769 0.844022
0.859220 0.827756 0.824063
0.918608 0.891203 0.886870
0.953613 0.933837 0.928862
0.977783 0.949187 0.933501
1.000000 0.949004 0.924163
0.892882 0.862333 0.857969
0.894713 0.864317 0.859953
0.906188 0.877012 0.872587
0.930114 0.904845 0.900755
0.948333 0.927733 0.924254
0.962585 0.945251 0.939361
0.980316 0.955810 0.936858
0.998657 0.955627 0.925200
0.948333 0.934600 0.953552
0.949157 0.935332 0.953674
0.950774 0.936339 0.952850
0.953033 0.937346 0.950774
0.952850 0.934844 0.944549
0.945464 0.923033 0.928191
0.914611 0.885801 0.883024
0.948363 0.927764 0.924285
0.949920 0.936522 0.954376
0.950713 0.937224 0.954498
0.951995 0.937865 0.953552
0.953338 0.937835 0.950866
0.952544 0.934539 0.944121
0.944091 0.921386 0.926574
0.911101 0.881804 0.878935
0.945800 0.924437 0.920867
0.959991 0.948699 0.961242
0.960082 0.948669 0.961028
0.960327 0.948272 0.959777
0.960418 0.947021 0.956847
0.958190 0.942138 0.949737
0.949432 0.928527 0.932708
0.918334 0.890227 0.887236
0.953460 0.934447 0.931212
0.971252 0.962799 0.969818
0.971221 0.962646 0.969512
0.971191 0.962097 0.968505
0.970306 0.960052 0.965942
0.967346 0.954742 0.959503
0.959075 0.941802 0.944457
0.930388 0.904753 0.901671
0.962707 0.946838 0.944091
0.978149 0.972015 0.976165
0.978058 0.971801 0.975921
0.978058 0.971435 0.975250
0.977813 0.970367 0.973541
0.975128 0.965759 0.968444
0.967163 0.953338 0.954864
0.939300 0.915953 0.912749
0.971801 0.959411 0.957244
0.980682 0.975158 0.977569
0.980926 0.975402 0.977722
0.981781 0.976318 0.978271
0.983246 0.977813 0.979187
0.983551 0.977661 0.978546
0.977722 0.968658 0.969055
0.955962 0.937652 0.934783
0.979004 0.947204 0.946502
0.972686 0.964233 0.966186
0.972961 0.964508 0.966369
0.973236 0.964691 0.966278
0.973693 0.964813 0.965911
0.973297 0.963622 0.964019
0.970459 0.958862 0.958068
0.968811 0.955169 0.952575
0.984100 0.952911 0.941497
0.945617 0.928099 0.928313
0.945342 0.927611 0.927733
0.944335 0.925841 0.925414
0.938293 0.917418 0.915862
0.924834 0.899077 0.895384
0.956512 0.938506 0.935393
0.975830 0.964477 0.961364
0.988647 0.971221 0.961730
0.960357 0.948943 0.962707
0.960845 0.949432 0.962799
0.961761 0.950042 0.962463
0.963775 0.951598 0.962127
0.965270 0.952270 0.960510
0.964874 0.950286 0.956146
0.960418 0.942931 0.945892
0.943694 0.921233 0.918853
0.961181 0.949981 0.963226
0.961669 0.950439 0.963317
0.962646 0.951141 0.963073
0.964263 0.952300 0.962524
0.965545 0.952667 0.960784
0.964904 0.950408 0.956207
0.960021 0.942412 0.945403
0.942504 0.919677 0.917266
0.966430 0.956481 0.966857
0.966613 0.956603 0.966827
0.967071 0.956786 0.966400
0.968536 0.957824 0.966003
0.968841 0.957183 0.963867
0.967437 0.953948 0.958953
0.962310 0.945678 0.948241
0.945068 0.922972 0.920562
0.973663 0.965515 0.972168
0.973785 0.965637 0.972137
0.973846 0.965484 0.971740
0.974182 0.965301 0.970947
0.973968 0.964202 0.968933
0.972259 0.960784 0.964446
0.967193 0.952636 0.954528
0.951385 0.931273 0.928893
0.978882 0.972412 0.976745
0.979034 0.972595 0.976776
0.979248 0.972656 0.976593
0.980011 0.973083 0.976287
0.979187 0.971435 0.974395
0.977264 0.967956 0.970397
0.972534 0.960357 0.961608
0.958862 0.941344 0.939086
0.984283 0.979400 0.981415
0.984253 0.979339 0.981353
0.984253 0.979217 0.981170
0.984344 0.979034 0.980774
0.984192 0.978424 0.979858
0.983154 0.976410 0.977508
0.979858 0.970977 0.971466
0.969177 0.955535 0.953582
0.985382 0.980621 0.981720
0.985473 0.980713 0.981781
0.985901 0.981140 0.982055
0.986755 0.982055 0.982666
0.987854 0.983246 0.983429
0.988220 0.983490 0.983429
0.985473 0.979248 0.979156
0.976776 0.966339 0.964691
0.982086 0.976135 0.977142
0.982147 0.976196 0.977142
0.982422 0.976471 0.977325
0.983032 0.977111 0.977722
0.983734 0.977752 0.978088
0.984161 0.978088 0.978027
0.984039 0.977478 0.976928
0.984222 0.977050 0.975677
