20 Preset/City Style/【3】LUT video cho PR-AE-FCPX/TONE 2/Darky Flashing Lines.cube
# Created by Adobe Lightroom plugin Export LUT (1.24.0)
# www.johnrellis.com/lightroom/exportlut.htm
# Preset: Darky Flashing Lines
# Color profile: E:\lut插件\exportlut.1.24\exportlut.lrplugin\color profiles\Rec709gamma2.4.icc
LUT_3D_SIZE 32
DOMAIN_MIN 0.0 0.0 0.0
DOMAIN_MAX 1.0 1.0 1.0
0.117220 0.179629 0.207034
0.117220 0.179629 0.207034
0.117220 0.179629 0.207034
0.117220 0.179629 0.207034
0.111299 0.180026 0.206088
0.100526 0.180362 0.204135
0.082673 0.181003 0.201968
0.043275 0.181582 0.199771
0.006744 0.182071 0.197696
0.000000 0.182071 0.196445
0.002441 0.181704 0.197055
0.055360 0.180606 0.199588
0.109560 0.178408 0.204532
0.149294 0.174228 0.211612
0.190829 0.168124 0.221012
0.234867 0.159274 0.232914
0.282353 0.145754 0.247654
0.333928 0.123659 0.265690
0.389502 0.077974 0.287388
0.451392 0.000000 0.313939
0.518578 0.000000 0.345129
0.590936 0.000000 0.380865
0.677089 0.000000 0.424964
0.799588 0.000000 0.490059
0.902434 0.000000 0.547448
0.983917 0.000000 0.595941
1.000000 0.000000 0.635767
1.000000 0.000000 0.668910
1.000000 0.000000 0.697230
1.000000 0.000000 0.721859
1.000000 0.000000 0.743191
1.000000 0.000000 0.761288
0.117220 0.179629 0.207034
0.117220 0.179629 0.207034
0.117220 0.179629 0.207034
0.117220 0.179629 0.207034
0.111879 0.179995 0.206088
0.101076 0.180331 0.204257
0.086213 0.180880 0.202090
0.048615 0.181491 0.200046
0.012390 0.181979 0.197848
0.000000 0.182223 0.196567
0.000000 0.181796 0.196750
0.040955 0.180850 0.198886
0.101564 0.178714 0.203342
0.140871 0.175021 0.209781
0.181064 0.169497 0.218448
0.224399 0.161379 0.229740
0.271214 0.149020 0.243809
0.321569 0.129366 0.260990
0.375982 0.094606 0.281804
0.435981 0.000000 0.306889
0.500420 0.000000 0.336400
0.569970 0.000000 0.370275
0.653254 0.000000 0.412512
0.767361 0.000000 0.472572
0.866636 0.000000 0.527092
0.949920 0.000000 0.575128
1.000000 0.000000 0.616938
1.000000 0.000000 0.652491
1.000000 0.000000 0.683375
1.000000 0.000000 0.710628
1.000000 0.000000 0.734279
1.000000 0.000000 0.754391
0.117220 0.179629 0.207034
0.117220 0.179629 0.207034
0.117220 0.179629 0.207034
0.117220 0.179629 0.207034
0.111299 0.180026 0.206088
0.101472 0.180453 0.204227
0.087068 0.180850 0.202365
0.050599 0.181460 0.200046
0.014099 0.181949 0.197971
0.000000 0.182193 0.196719
0.000000 0.181827 0.197055
0.034730 0.180636 0.198795
0.098451 0.178103 0.202213
0.136202 0.174655 0.208316
0.175601 0.169375 0.216678
0.217533 0.161776 0.227420
0.263523 0.150118 0.240818
0.313207 0.131930 0.257481
0.366949 0.100252 0.277684
0.425879 0.000000 0.302190
0.490059 0.000000 0.331151
0.558587 0.000000 0.364233
0.645167 0.000000 0.408087
0.753994 0.000000 0.465156
0.849332 0.000000 0.517266
0.931243 0.000000 0.563989
1.000000 0.000000 0.606226
1.000000 0.000000 0.642939
1.000000 0.000000 0.675319
1.000000 0.000000 0.703975
1.000000 0.000000 0.728878
1.000000 0.000000 0.750027
0.115206 0.178195 0.205722
0.115206 0.178195 0.205722
0.115297 0.178195 0.205600
0.115023 0.178042 0.205478
0.111788 0.177707 0.206485
0.108797 0.176974 0.205264
0.092805 0.178592 0.205325
0.062531 0.179690 0.204074
0.021027 0.180423 0.202182
0.000000 0.180941 0.200381
0.000000 0.180697 0.199039
0.030854 0.179568 0.199344
0.095644 0.177279 0.201633
0.132662 0.173831 0.206455
0.170657 0.168490 0.214084
0.211276 0.160922 0.224552
0.255192 0.150088 0.237186
0.302159 0.133883 0.252689
0.353246 0.106752 0.271397
0.409308 0.005188 0.294194
0.470069 0.000000 0.321111
0.536095 0.000000 0.352544
0.626459 0.000000 0.397894
0.727565 0.000000 0.450690
0.822599 0.000000 0.502098
0.909483 0.000000 0.551019
0.985199 0.000000 0.596490
1.000000 0.000000 0.636225
1.000000 0.000000 0.670710
1.000000 0.000000 0.700435
1.000000 0.000000 0.725704
1.000000 0.000000 0.746731
0.110719 0.175296 0.202853
0.110231 0.175326 0.202701
0.110719 0.175296 0.202853
0.110231 0.175326 0.202701
0.110445 0.175143 0.202731
0.104128 0.174441 0.204623
0.094392 0.174716 0.205753
0.095552 0.173404 0.203311
0.071290 0.174350 0.202884
0.020447 0.176852 0.202731
0.000366 0.177737 0.200900
0.020691 0.177127 0.199527
0.084596 0.175326 0.199832
0.124819 0.172335 0.203037
0.164858 0.167422 0.209506
0.205142 0.160128 0.218540
0.248753 0.149264 0.231357
0.295903 0.132998 0.247990
0.346929 0.105928 0.267765
0.401984 0.010468 0.289921
0.462165 0.000000 0.316320
0.529931 0.000000 0.348516
0.623255 0.000000 0.395422
0.719509 0.000000 0.445838
0.812528 0.000000 0.496132
0.898924 0.000000 0.544793
0.975830 0.000000 0.590570
1.000000 0.000000 0.630701
1.000000 0.000000 0.665522
1.000000 0.000000 0.695705
1.000000 0.000000 0.721462
1.000000 0.000000 0.743160
0.104860 0.171725 0.199283
0.104860 0.171725 0.199283
0.104860 0.171725 0.199283
0.104097 0.171267 0.198764
0.103670 0.171115 0.198795
0.104097 0.171267 0.198764
0.096925 0.170016 0.201053
0.078431 0.171115 0.203922
0.074464 0.170047 0.201846
0.077211 0.168551 0.199069
0.039460 0.170260 0.198825
0.032959 0.172122 0.198367
0.082063 0.171267 0.197482
0.119905 0.168734 0.198489
0.158694 0.164248 0.202670
0.200076 0.157717 0.210239
0.247349 0.146731 0.222568
0.296086 0.130220 0.238163
0.347112 0.102144 0.258091
0.402197 0.000000 0.282719
0.462562 0.000000 0.312902
0.545342 0.000000 0.355047
0.806088 0.000000 0.492470
0.911833 0.000000 0.552483
0.994476 0.000000 0.602930
1.000000 0.000000 0.643183
1.000000 0.000000 0.675532
1.000000 0.000000 0.702205
1.000000 0.000000 0.724544
1.000000 0.000000 0.743374
1.000000 0.000000 0.759304
1.000000 0.000000 0.772580
0.095064 0.165988 0.193668
0.095155 0.165988 0.193515
0.095155 0.165652 0.193271
0.094270 0.165164 0.192752
0.093202 0.164706 0.192355
0.092958 0.164889 0.192355
0.093568 0.164858 0.192477
0.086763 0.163790 0.194705
0.065370 0.164706 0.197818
0.051942 0.166018 0.198276
0.066133 0.164279 0.194705
0.079469 0.163729 0.192386
0.101656 0.164614 0.192020
0.134493 0.161898 0.191684
0.171817 0.156893 0.193729
0.213169 0.149783 0.200351
0.259251 0.138155 0.211093
0.310369 0.119081 0.226749
0.367224 0.075868 0.247898
0.430976 0.000000 0.275547
0.522972 0.000000 0.318242
0.631037 0.000000 0.375738
0.747494 0.000000 0.442817
0.859648 0.000000 0.511467
0.956451 0.000000 0.574151
1.000000 0.000000 0.625483
1.000000 0.000000 0.660883
1.000000 0.000000 0.689265
1.000000 0.000000 0.713405
1.000000 0.000000 0.733700
1.000000 0.000000 0.751125
1.000000 0.000000 0.765866
0.089296 0.162417 0.189975
0.088563 0.162448 0.189975
0.088930 0.162264 0.189822
0.088197 0.161929 0.189578
0.088228 0.161563 0.189303
0.086793 0.161440 0.189029
0.086793 0.161440 0.189029
0.087984 0.161410 0.189029
0.085695 0.161074 0.189670
0.082124 0.162051 0.191684
0.088869 0.165377 0.194064
0.095918 0.164248 0.191226
0.099367 0.163210 0.189059
0.118105 0.163516 0.188388
0.152804 0.161044 0.188235
0.193576 0.152651 0.188266
0.237461 0.141878 0.193332
0.284703 0.127840 0.204074
0.343420 0.099092 0.221286
0.419013 0.000000 0.247471
0.506950 0.000000 0.284794
0.608911 0.000000 0.333928
0.721675 0.000000 0.394202
0.830716 0.000000 0.459846
0.926879 0.000000 0.522515
1.000000 0.000000 0.576287
1.000000 0.000000 0.618555
1.000000 0.000000 0.654200
1.000000 0.000000 0.683680
1.000000 0.000000 0.708156
1.000000 0.000000 0.728115
1.000000 0.000000 0.743923
0.086824 0.161074 0.188754
0.086824 0.161074 0.188754
0.086824 0.161074 0.188754
0.086366 0.161288 0.188754
0.087434 0.161257 0.188907
0.088228 0.161563 0.189303
0.088563 0.162112 0.189700
0.088563 0.162112 0.189700
0.088685 0.162112 0.189548
0.089876 0.162417 0.189212
0.099519 0.164523 0.188144
0.113527 0.167086 0.188327
0.130251 0.168704 0.188113
0.130343 0.168032 0.187442
0.129915 0.168368 0.188632
0.166842 0.166812 0.188296
0.213107 0.159426 0.188663
0.270512 0.141238 0.189456
0.332494 0.112978 0.198123
0.401129 0.026551 0.217685
0.480201 0.000000 0.245609
0.573297 0.000000 0.284916
0.679347 0.000000 0.335271
0.789487 0.000000 0.395209
0.891844 0.000000 0.458656
0.976165 0.000000 0.516930
1.000000 0.000000 0.566033
1.000000 0.000000 0.606165
1.000000 0.000000 0.640406
1.000000 0.000000 0.668147
1.000000 0.000000 0.692287
1.000000 0.000000 0.711177
0.091493 0.163912 0.191592
0.091493 0.163912 0.191592
0.091981 0.164065 0.191562
0.092592 0.164370 0.191958
0.092958 0.164889 0.192355
0.094820 0.165469 0.193149
0.096040 0.166812 0.194308
0.098848 0.168185 0.195743
0.098177 0.167880 0.195468
0.098543 0.167697 0.195346
0.098848 0.167697 0.194919
0.115023 0.171786 0.190951
0.136172 0.174929 0.187778
0.173739 0.177890 0.185763
0.174807 0.178531 0.187350
0.173251 0.180026 0.191104
0.186954 0.182162 0.194705
0.241245 0.177401 0.194949
0.303899 0.161715 0.196201
0.373754 0.124056 0.198123
0.449470 0.000000 0.208988
0.532219 0.000000 0.237400
0.624842 0.000000 0.274235
0.724788 0.000000 0.320806
0.822690 0.000000 0.373968
0.911803 0.000000 0.429389
0.988312 0.000000 0.484535
1.000000 0.000000 0.532433
1.000000 0.000000 0.575525
1.000000 0.000000 0.612238
1.000000 0.000000 0.642451
1.000000 0.000000 0.668421
0.101991 0.170230 0.197757
0.102632 0.170169 0.197757
0.102632 0.170504 0.198001
0.103456 0.170962 0.198520
0.104860 0.171725 0.199283
0.106538 0.172946 0.200381
0.109438 0.174563 0.202121
0.114076 0.177493 0.204868
0.119051 0.180758 0.208225
0.119814 0.181186 0.208560
0.120302 0.181460 0.208774
0.120485 0.181582 0.209018
0.142397 0.188327 0.202518
0.173129 0.194308 0.195560
0.210605 0.196109 0.189425
0.238163 0.197910 0.188785
0.232120 0.198978 0.195285
0.225803 0.201266 0.202426
0.257908 0.202090 0.205875
0.323095 0.192844 0.206607
0.396551 0.167300 0.208347
0.478157 0.100069 0.211276
0.567681 0.000000 0.220310
0.663508 0.000000 0.254276
0.762417 0.000000 0.297398
0.856046 0.000000 0.346136
0.940673 0.000000 0.398871
1.000000 0.000000 0.452003
1.000000 0.000000 0.502220
1.000000 0.000000 0.545830
1.000000 0.000000 0.583398
1.000000 0.000000 0.614740
0.125887 0.185153 0.212467
0.126101 0.185306 0.212589
0.126741 0.185702 0.213046
0.128023 0.186496 0.213840
0.129732 0.187869 0.215061
0.132876 0.189822 0.216922
0.137087 0.192508 0.219547
0.142428 0.196048 0.222965
0.149203 0.200687 0.227573
0.155306 0.204959 0.231754
0.154665 0.204746 0.231418
0.154147 0.204135 0.230930
0.196902 0.235447 0.261143
0.226627 0.247959 0.248478
0.274479 0.261814 0.231357
0.329595 0.268406 0.214542
0.402289 0.269596 0.198062
0.381842 0.265324 0.211643
0.363256 0.263798 0.224887
0.346593 0.264591 0.237980
0.413428 0.262577 0.240055
0.506462 0.243748 0.241337
0.609674 0.192752 0.244053
0.717464 0.000000 0.248051
0.822538 0.000000 0.253483
0.911589 0.000000 0.295689
0.986175 0.000000 0.347448
1.000000 0.000000 0.399115
1.000000 0.000000 0.449042
1.000000 0.000000 0.494484
1.000000 0.000000 0.534600
1.000000 0.000000 0.569909
0.184390 0.226017 0.251957
0.184390 0.226017 0.251957
0.183963 0.225711 0.251713
0.183963 0.225711 0.251713
0.184604 0.225986 0.252079
0.186069 0.227085 0.253117
0.188876 0.229313 0.255222
0.193881 0.233036 0.258854
0.201328 0.238987 0.264378
0.212100 0.247379 0.272587
0.220127 0.254063 0.278965
0.222599 0.256138 0.280980
0.224704 0.257725 0.282567
0.225223 0.258335 0.283085
0.253635 0.272404 0.272648
0.304631 0.291691 0.253544
0.361730 0.302678 0.233188
0.429175 0.303227 0.212772
0.454780 0.301183 0.212467
0.430976 0.295872 0.227756
0.409674 0.293523 0.242161
0.398230 0.293736 0.255436
0.488777 0.289860 0.255222
0.589410 0.267643 0.256229
0.695552 0.212650 0.258610
0.800626 0.000000 0.262547
0.896818 0.000000 0.267460
0.980194 0.000000 0.289250
1.000000 0.000000 0.340002
1.000000 0.000000 0.391577
1.000000 0.000000 0.440497
1.000000 0.000000 0.485603
0.220096 0.253880 0.278904
0.219333 0.253391 0.278294
0.218143 0.252415 0.277440
0.217716 0.251896 0.276982
0.217136 0.251560 0.276493
0.217441 0.251621 0.276677
0.219425 0.253483 0.278355
0.223606 0.256992 0.281804
0.230320 0.262699 0.287236
0.240391 0.271305 0.295537
0.253788 0.283360 0.307195
0.260929 0.289799 0.313481
0.262516 0.291386 0.315038
0.263432 0.292180 0.315740
0.261570 0.290379 0.314061
0.283360 0.301274 0.301061
0.335027 0.322881 0.278660
0.392584 0.336980 0.254582
0.458930 0.342168 0.231357
0.534874 0.342596 0.210239
0.507042 0.334417 0.229038
0.482918 0.329503 0.245792
0.461250 0.327184 0.261295
0.473121 0.328130 0.271824
0.574029 0.323247 0.271550
0.680385 0.298344 0.272435
0.785611 0.243442 0.274968
0.884398 0.104402 0.279149
0.974029 0.000000 0.285496
1.000000 0.000000 0.293767
1.000000 0.000000 0.330968
1.000000 0.000000 0.383917
0.256992 0.286320 0.310063
0.256809 0.286015 0.309789
0.255558 0.284916 0.308721
0.254124 0.283665 0.307530
0.252873 0.282536 0.306371
0.252262 0.282017 0.305913
0.253635 0.283207 0.307042
0.256992 0.286320 0.310063
0.263432 0.292180 0.315740
0.272648 0.300847 0.324224
0.285191 0.313024 0.336126
0.301305 0.328985 0.351812
0.304509 0.332311 0.355047
0.304448 0.332280 0.355016
0.302434 0.330144 0.352911
0.296788 0.324529 0.347448
0.313176 0.331884 0.332464
0.366125 0.356085 0.306981
0.426184 0.374395 0.280461
0.494453 0.383917 0.253208
0.585809 0.386267 0.221836
0.595880 0.380407 0.227634
0.568048 0.372534 0.247257
0.542962 0.367529 0.264958
0.520928 0.364721 0.281071
0.557061 0.366522 0.289128
0.663966 0.360540 0.288914
0.772885 0.337011 0.290806
0.878050 0.291447 0.295628
0.973053 0.209781 0.303807
1.000000 0.000000 0.315801
1.000000 0.000000 0.331060
0.292363 0.320073 0.343053
0.292760 0.320439 0.343450
0.292424 0.320287 0.343236
0.292424 0.320287 0.343236
0.292576 0.320409 0.343328
0.293828 0.321508 0.344427
0.296849 0.324590 0.347509
0.301823 0.329473 0.352300
0.308904 0.336706 0.359411
0.318090 0.346014 0.368627
0.329107 0.357336 0.379828
0.341955 0.370611 0.392920
0.352392 0.381537 0.403723
0.348821 0.377844 0.400092
0.343389 0.372168 0.394476
0.335821 0.364294 0.386664
0.327245 0.355505 0.377966
0.338964 0.359655 0.362554
0.394171 0.387121 0.335973
0.457282 0.409400 0.307530
0.530419 0.424872 0.277775
0.614405 0.429267 0.246891
0.691157 0.430610 0.222934
0.664027 0.421820 0.246342
0.639338 0.415686 0.266697
0.616785 0.411933 0.285771
0.597498 0.410895 0.304204
0.657740 0.415656 0.312200
0.770687 0.412024 0.314366
0.878843 0.395422 0.320195
0.973388 0.365301 0.329503
1.000000 0.322087 0.343664
0.329290 0.357610 0.380072
0.329290 0.357610 0.380072
0.329290 0.357610 0.380072
0.329656 0.357946 0.380377
0.330480 0.358801 0.381201
0.332219 0.360632 0.383032
0.335210 0.363714 0.386084
0.340002 0.368719 0.390997
0.346624 0.375586 0.397803
0.354925 0.384100 0.406287
0.365209 0.394934 0.416968
0.377142 0.407324 0.429145
0.390570 0.421118 0.442786
0.395483 0.426123 0.447700
0.389136 0.419684 0.441352
0.381415 0.411658 0.433478
0.371893 0.401770 0.423743
0.361852 0.391424 0.413489
0.370275 0.393530 0.398505
0.429023 0.424170 0.370825
0.496956 0.450660 0.340398
0.575097 0.470314 0.307713
0.660670 0.479316 0.272801
0.771572 0.483375 0.225650
0.764645 0.475380 0.242649
0.741299 0.468544 0.267002
0.720485 0.464576 0.289891
0.702815 0.463722 0.311467
0.689570 0.466621 0.334264
0.770016 0.476478 0.344762
0.881315 0.479225 0.352789
0.975006 0.473396 0.366064
0.377508 0.407660 0.429541
0.378454 0.408698 0.430549
0.445747 0.476051 0.496345
0.446296 0.476631 0.496895
0.447242 0.477516 0.497719
0.448554 0.478706 0.498909
0.450782 0.480903 0.500969
0.455024 0.484901 0.504814
0.461646 0.491066 0.510765
0.470741 0.499519 0.518791
0.481575 0.509361 0.528161
0.493812 0.520287 0.538537
0.505638 0.530663 0.548333
0.517296 0.540856 0.557916
0.508721 0.533379 0.550896
0.493172 0.519738 0.538018
0.475502 0.503807 0.522881
0.456550 0.486275 0.506157
0.438544 0.469184 0.489693
0.438331 0.463661 0.469123
0.504479 0.496620 0.435340
0.578851 0.524285 0.399725
0.658808 0.543725 0.360815
0.742184 0.552972 0.319371
0.829313 0.550164 0.271305
0.878874 0.545098 0.245640
0.852964 0.533440 0.272496
0.830350 0.525719 0.297002
0.813199 0.523583 0.321904
0.801877 0.526513 0.348028
0.797696 0.535393 0.376623
0.883513 0.551476 0.393439
0.452308 0.482307 0.502342
0.459174 0.488716 0.508507
0.466773 0.495857 0.515282
0.474037 0.502464 0.521660
0.480171 0.508049 0.526909
0.483742 0.511254 0.529992
0.486610 0.513848 0.532464
0.490059 0.516899 0.535332
0.495552 0.521843 0.540032
0.502983 0.528405 0.546227
0.512505 0.536706 0.554040
0.523278 0.546044 0.562799
0.534112 0.555230 0.571374
0.544884 0.564416 0.579950
0.552117 0.570459 0.585565
0.538109 0.558648 0.574578
0.522545 0.545403 0.562188
0.506126 0.531121 0.548760
0.489631 0.516503 0.534997
0.473365 0.501823 0.521019
0.472480 0.496834 0.503563
0.543267 0.533227 0.472145
0.620203 0.562829 0.436988
0.699794 0.583825 0.397650
0.779294 0.594415 0.353704
0.857420 0.593408 0.304723
0.945556 0.591089 0.238407
0.926390 0.580743 0.268772
0.910613 0.575158 0.297337
0.899535 0.574945 0.326055
0.893706 0.580529 0.357061
0.893248 0.592096 0.391608
0.496925 0.523033 0.541131
0.504417 0.529686 0.547387
0.512840 0.537011 0.554284
0.520928 0.543969 0.560815
0.527550 0.549676 0.566186
0.531487 0.553033 0.569329
0.534295 0.555413 0.571527
0.537499 0.558160 0.574060
0.542107 0.562097 0.577722
0.548302 0.567285 0.582574
0.556329 0.573999 0.588830
0.565759 0.581842 0.596124
0.575463 0.589837 0.603479
0.585657 0.598199 0.611231
0.595727 0.606470 0.618860
0.592767 0.604028 0.616632
0.578698 0.592493 0.605951
0.562768 0.579370 0.593835
0.546960 0.566155 0.581567
0.530877 0.552514 0.568811
0.514916 0.538811 0.555993
0.514122 0.534722 0.540795
0.587274 0.571984 0.510399
0.663722 0.602014 0.476051
0.740352 0.622858 0.435920
0.816037 0.634668 0.390906
0.887785 0.636072 0.340276
0.962371 0.631647 0.277836
0.984070 0.626368 0.268315
0.974487 0.623529 0.300725
0.968292 0.626032 0.334417
0.965515 0.633783 0.370947
0.549035 0.567864 0.583154
0.556115 0.573816 0.588678
0.563806 0.580224 0.594598
0.571191 0.586297 0.600244
0.577142 0.591241 0.604791
0.580865 0.594354 0.607660
0.583764 0.596643 0.609796
0.586572 0.598932 0.611933
0.590997 0.602533 0.615259
0.596277 0.606867 0.619226
0.603326 0.612604 0.624506
0.611688 0.619348 0.630732
0.620233 0.626307 0.637079
0.629389 0.633661 0.643854
0.638972 0.641382 0.650904
0.648524 0.649012 0.657893
0.638300 0.640833 0.650446
0.627649 0.632288 0.642573
0.617426 0.624018 0.635004
0.607141 0.615717 0.627375
0.597436 0.607843 0.620111
0.587121 0.599420 0.612390
0.591424 0.599725 0.600702
0.668421 0.639796 0.575402
0.744472 0.671290 0.545556
0.817136 0.693416 0.509545
0.883146 0.705867 0.468666
0.942718 0.708858 0.422644
0.997070 0.702449 0.372076
1.000000 0.697353 0.322667
1.000000 0.698970 0.360571
1.000000 0.705043 0.401190
0.648981 0.649378 0.658259
0.651881 0.651698 0.660365
0.654383 0.653681 0.662196
0.656367 0.655329 0.663661
0.657649 0.656336 0.664607
0.658289 0.656825 0.665064
0.659144 0.657465 0.665675
0.661067 0.658991 0.667048
0.664393 0.661677 0.669520
0.669490 0.665797 0.673274
0.675898 0.670893 0.677913
0.683101 0.676631 0.683162
0.690486 0.682582 0.688594
0.698268 0.688808 0.694270
0.705959 0.694942 0.699916
0.713893 0.701350 0.705806
0.712093 0.699855 0.704433
0.701472 0.691402 0.696651
0.690486 0.682582 0.688594
0.679072 0.673426 0.680232
0.667201 0.663905 0.671565
0.655024 0.654200 0.662654
0.641474 0.643336 0.652705
0.645594 0.642969 0.638544
0.716579 0.679225 0.612726
0.786160 0.708278 0.583673
0.851102 0.729183 0.550866
0.909361 0.742000 0.514427
0.961944 0.746700 0.473579
1.000000 0.742306 0.427161
1.000000 0.733089 0.363409
1.000000 0.733761 0.383520
0.701747 0.691585 0.696834
0.704005 0.693385 0.698482
0.706203 0.695155 0.700099
0.708095 0.696651 0.701503
0.709468 0.697810 0.702510
0.710292 0.698421 0.703120
0.711269 0.699214 0.703822
0.713008 0.700649 0.705135
0.715999 0.703029 0.707332
0.720394 0.706538 0.710536
0.725765 0.710872 0.714534
0.731991 0.715999 0.719173
0.738521 0.721279 0.724056
0.745388 0.726925 0.729213
0.752560 0.732815 0.734646
0.759915 0.738857 0.740230
0.765072 0.743160 0.744167
0.757961 0.737240 0.738735
0.749844 0.730556 0.732570
0.741207 0.723476 0.726070
0.732448 0.716365 0.719539
0.722774 0.708522 0.712337
0.712398 0.700130 0.704677
0.700771 0.690791 0.696132
0.687739 0.675837 0.665278
0.753689 0.709621 0.640772
0.817960 0.737331 0.614252
0.876158 0.757443 0.584771
0.928069 0.770474 0.552514
0.975128 0.776089 0.516320
1.000000 0.773922 0.475593
1.000000 0.764370 0.422217
0.772854 0.749660 0.750210
0.776059 0.752346 0.752682
0.777646 0.753689 0.753933
0.777646 0.753689 0.753933
0.776364 0.752590 0.752926
0.774472 0.751003 0.751461
0.772244 0.749142 0.749752
0.770382 0.747585 0.748257
0.769497 0.746822 0.747585
0.769802 0.747097 0.747829
0.770809 0.747921 0.748623
0.773220 0.749996 0.750515
0.776242 0.752499 0.752834
0.779355 0.755154 0.755306
0.782467 0.757809 0.757748
0.786130 0.760922 0.760647
0.790494 0.764675 0.764157
0.785214 0.760128 0.759915
0.778866 0.754757 0.754940
0.772976 0.749752 0.750301
0.767056 0.744808 0.745724
0.760403 0.739284 0.740627
0.751675 0.732052 0.733974
0.740505 0.722896 0.725551
0.726497 0.711543 0.715114
0.739773 0.716762 0.698665
0.796719 0.745602 0.674800
0.850919 0.769070 0.649195
0.900572 0.786404 0.621485
0.945708 0.797971 0.592309
0.986938 0.803403 0.559960
1.000000 0.801724 0.523064
0.801968 0.774655 0.773465
0.804623 0.776974 0.775631
0.806363 0.778500 0.777096
0.807095 0.779171 0.777707
0.807279 0.779355 0.777859
0.807309 0.779385 0.777920
0.807706 0.779721 0.778225
0.808438 0.780392 0.778866
0.809964 0.781735 0.780087
0.812039 0.783597 0.781888
0.814389 0.785672 0.783841
0.817197 0.788205 0.786221
0.819883 0.790646 0.788540
0.822538 0.793027 0.790799
0.824857 0.795163 0.792813
0.827329 0.797452 0.794980
0.830198 0.800107 0.797513
0.828275 0.798306 0.795773
0.823392 0.793820 0.791562
0.819059 0.789853 0.787808
0.814939 0.786191 0.784329
0.810575 0.782254 0.780636
0.805234 0.777523 0.776181
0.798489 0.771633 0.770626
0.790127 0.764340 0.763851
0.779995 0.755703 0.755825
0.800290 0.766232 0.741421
0.845914 0.790677 0.722438
0.889891 0.811154 0.702663
0.930053 0.826230 0.681361
0.966400 0.835904 0.658473
0.999725 0.839780 0.632288
0.839963 0.809232 0.806210
0.841062 0.810269 0.807218
0.841611 0.810788 0.807706
0.841917 0.811032 0.807950
0.841825 0.810971 0.807889
0.841642 0.810819 0.807736
0.841611 0.810788 0.807706
0.841917 0.811032 0.807950
0.842679 0.811795 0.808652
0.843992 0.813016 0.809842
0.845579 0.814542 0.811307
0.847654 0.816495 0.813199
0.849821 0.818631 0.815244
0.851896 0.820615 0.817166
0.853727 0.822354 0.818845
0.855497 0.824094 0.820554
0.857603 0.826169 0.822538
0.856962 0.825528 0.821897
0.853330 0.821988 0.818479
0.850217 0.819028 0.815610
0.847440 0.816342 0.813046
0.844358 0.813382 0.810208
0.840421 0.809689 0.806638
0.835630 0.805173 0.802304
0.829709 0.799649 0.797086
0.822354 0.792874 0.790646
0.814084 0.785458 0.783597
0.838376 0.799313 0.769375
0.875669 0.819791 0.753323
0.912963 0.838132 0.737972
0.946777 0.851713 0.721859
0.977447 0.860349 0.704189
0.865476 0.833951 0.830076
0.866148 0.834653 0.830747
0.866789 0.835325 0.831388
0.867369 0.835843 0.831937
0.868009 0.836515 0.832578
0.869169 0.837644 0.833677
0.871397 0.839902 0.835904
0.874205 0.842802 0.838712
0.877775 0.846403 0.842283
0.881682 0.850492 0.846281
0.885863 0.854887 0.850584
0.889921 0.859190 0.854856
0.893706 0.863249 0.858854
0.896971 0.866758 0.862364
0.899626 0.869688 0.865293
0.901579 0.871824 0.867399
0.903380 0.873838 0.869413
0.903471 0.873930 0.869505
0.901793 0.872068 0.867643
0.900359 0.870512 0.866117
0.899046 0.869047 0.864652
0.897642 0.867521 0.863127
0.895750 0.865446 0.861051
0.893370 0.862882 0.858518
0.890288 0.859586 0.855253
0.886656 0.855711 0.851408
0.882475 0.851316 0.847074
0.877775 0.846403 0.842283
0.898741 0.859953 0.831449
0.921752 0.873259 0.820981
0.945647 0.885924 0.812406
0.967407 0.894896 0.803586
0.904509 0.875090 0.870695
0.904540 0.875120 0.870726
0.904448 0.875029 0.870634
0.904417 0.874968 0.870573
0.904387 0.874907 0.870512
0.904417 0.874998 0.870573
0.904753 0.875334 0.870939
0.905333 0.876005 0.871611
0.906279 0.877043 0.872648
0.907469 0.878416 0.873991
0.908934 0.880064 0.875639
0.910582 0.881895 0.877501
0.912261 0.883848 0.879484
0.913909 0.885740 0.881376
