20 Preset/City Style/【3】LUT video cho PR-AE-FCPX/TONE 2/Darky Rain.cube
# Created by Adobe Lightroom plugin Export LUT (1.24.0)
# www.johnrellis.com/lightroom/exportlut.htm
# Preset: Darky Rain
# Color profile: E:\lut插件\exportlut.1.24\exportlut.lrplugin\color profiles\Rec709gamma2.4.icc
LUT_3D_SIZE 5
DOMAIN_MIN 0.000000 0.000000 0.000000
DOMAIN_MAX 0.903226 0.903226 0.903226
0.000000 0.104311 0.128176
0.027131 0.106905 0.129946
0.337102 0.096345 0.143221
0.857511 0.108309 0.214572
1.000000 0.443732 0.427741
0.000000 0.113283 0.138766
0.027924 0.128695 0.136324
0.300664 0.154574 0.165835
0.821378 0.246464 0.249699
1.000000 0.517998 0.486122
0.186984 0.227817 0.253727
0.219120 0.253208 0.278141
0.444587 0.414649 0.244816
0.779568 0.508629 0.430457
1.000000 0.662196 0.603326
0.521904 0.544823 0.561639
0.558679 0.575921 0.590661
0.700404 0.690517 0.695857
0.865995 0.773159 0.554162
0.951385 0.824521 0.773953
0.870726 0.839231 0.835233
0.878904 0.847654 0.843473
0.891966 0.861357 0.857023
0.935515 0.911498 0.907561
0.977203 0.929473 0.845579
0.000000 0.106813 0.134463
0.034394 0.104829 0.140963
0.315129 0.094484 0.158083
0.739345 0.123049 0.241245
1.000000 0.385016 0.405707
0.000000 0.118593 0.144350
0.000000 0.130037 0.156771
0.282780 0.159060 0.189273
0.725704 0.227237 0.267185
1.000000 0.446143 0.443091
0.168307 0.214084 0.240604
0.199405 0.237247 0.262913
0.357763 0.348974 0.269383
0.696223 0.453681 0.400977
1.000000 0.648554 0.601831
0.502556 0.528008 0.545830
0.540581 0.560723 0.576471
0.680049 0.674189 0.680934
0.847471 0.764126 0.581048
0.948180 0.821408 0.774014
0.864622 0.833127 0.829282
0.872496 0.841001 0.836973
0.903746 0.874235 0.869841
0.940093 0.917205 0.913420
0.978058 0.935424 0.863432
0.000000 0.137118 0.211398
0.000000 0.134188 0.233646
0.408057 0.000000 0.289067
0.915251 0.000000 0.291630
1.000000 0.406683 0.484749
0.000000 0.182467 0.240085
0.059236 0.191958 0.257816
0.392615 0.143160 0.316106
0.867033 0.138766 0.342901
1.000000 0.485542 0.536187
0.175021 0.270665 0.294224
0.207523 0.286870 0.309941
0.323644 0.360143 0.382605
0.706935 0.471962 0.490303
1.000000 0.652125 0.648798
0.446967 0.477241 0.497475
0.461585 0.491005 0.510704
0.593256 0.604425 0.616968
0.797665 0.748379 0.673152
0.941985 0.813596 0.778744
0.821530 0.792142 0.789944
0.835843 0.805356 0.802518
0.879606 0.848325 0.844144
0.929381 0.903990 0.899901
0.969268 0.928923 0.867887
0.000000 0.279973 0.474372
0.000000 0.283177 0.502922
0.289555 0.212345 0.572442
0.959258 0.000000 0.638392
1.000000 0.447456 0.600519
0.109499 0.346593 0.501213
0.161105 0.349798 0.519005
0.297429 0.286595 0.573602
0.915435 0.152865 0.635950
1.000000 0.494850 0.619959
0.237522 0.452705 0.525261
0.276188 0.463905 0.537285
0.427802 0.517052 0.599664
0.790585 0.459693 0.656794
1.000000 0.669886 0.714809
0.453132 0.591455 0.602838
0.470436 0.596002 0.607202
0.564538 0.637140 0.645594
0.716213 0.710323 0.713985
0.952087 0.809934 0.804013
0.775296 0.765988 0.762417
0.784421 0.769711 0.766690
0.828428 0.798459 0.795926
0.904936 0.875578 0.871153
0.958404 0.927398 0.894102
0.403754 0.594507 0.804654
0.434546 0.592950 0.809659
0.496223 0.536126 0.832761
0.739864 0.353948 0.862699
1.000000 0.571679 0.833371
0.452033 0.624628 0.799344
0.477058 0.624872 0.804959
0.527611 0.583032 0.826688
0.716335 0.411780 0.855619
1.000000 0.602594 0.836698
0.519463 0.693935 0.795956
0.555047 0.699977 0.800412
0.667811 0.722255 0.822812
0.722042 0.618585 0.847959
1.000000 0.722011 0.859892
0.635889 0.775357 0.804868
0.649470 0.777035 0.806851
0.721492 0.794614 0.824430
0.846464 0.837247 0.865415
0.984466 0.850004 0.899962
0.789944 0.841337 0.834989
0.797299 0.843473 0.837247
0.833921 0.857725 0.851957
0.883818 0.880583 0.875608
0.933288 0.911009 0.907073
