20 Preset/City Style/【3】LUT video cho PR-AE-FCPX/TONE 2/Darky Package Cityscapes.cube
# Created by Adobe Lightroom plugin Export LUT (1.24.0)
# www.johnrellis.com/lightroom/exportlut.htm
# Preset: Darky Package Cityscapes
# Color profile: E:\lut插件\exportlut.1.24\exportlut.lrplugin\color profiles\Rec709gamma2.4.icc
LUT_3D_SIZE 32
DOMAIN_MIN 0.0 0.0 0.0
DOMAIN_MAX 1.0 1.0 1.0
0.000000 0.106752 0.130953
0.000000 0.106752 0.130953
0.000000 0.106783 0.130922
0.000000 0.107118 0.131044
0.021576 0.108980 0.132540
0.030793 0.110506 0.134279
0.035767 0.112154 0.136294
0.060456 0.114076 0.138094
0.101778 0.115999 0.139467
0.139773 0.117342 0.140780
0.185275 0.117403 0.141543
0.238285 0.115053 0.141543
0.297581 0.108644 0.140688
0.360235 0.096254 0.138674
0.424018 0.066621 0.135622
0.488563 0.002869 0.131228
0.553826 0.000000 0.125032
0.620142 0.000000 0.116915
0.687068 0.000000 0.106294
0.752956 0.000000 0.092378
0.836362 0.000000 0.044709
0.914672 0.000000 0.000000
0.971893 0.000000 0.000000
1.000000 0.000000 0.000000
1.000000 0.000000 0.000000
1.000000 0.000000 0.000000
1.000000 0.092409 0.000000
1.000000 0.149966 0.000000
1.000000 0.192416 0.000000
1.000000 0.231083 0.017578
1.000000 0.268009 0.101991
1.000000 0.305486 0.145022
0.000000 0.106752 0.130953
0.000000 0.106752 0.130953
0.000000 0.107149 0.130892
0.000000 0.107851 0.131258
0.018585 0.109377 0.132753
0.029786 0.110842 0.134493
0.032776 0.112551 0.136477
0.054475 0.114260 0.138125
0.096773 0.116152 0.139528
0.132570 0.117769 0.140658
0.175814 0.118166 0.141482
0.226963 0.116060 0.141665
0.284550 0.110506 0.140993
0.345678 0.100771 0.139315
0.408576 0.080720 0.136385
0.472633 0.024201 0.132235
0.537591 0.000000 0.126650
0.603723 0.000000 0.119142
0.670832 0.000000 0.109316
0.736812 0.000000 0.096101
0.818692 0.000000 0.056764
0.894896 0.000000 0.000000
0.952056 0.000000 0.000000
0.996521 0.000000 0.000000
1.000000 0.000000 0.000000
1.000000 0.000000 0.000000
1.000000 0.000000 0.000000
1.000000 0.117769 0.000000
1.000000 0.168399 0.000000
1.000000 0.210208 0.000000
1.000000 0.249638 0.073732
1.000000 0.288762 0.127108
0.000000 0.107942 0.130831
0.000000 0.107942 0.130831
0.000000 0.108309 0.131258
0.000000 0.109804 0.132570
0.015503 0.111025 0.133822
0.024750 0.112551 0.135561
0.029725 0.113558 0.137118
0.050172 0.114961 0.138766
0.093324 0.117037 0.139925
0.128267 0.118593 0.141085
0.170657 0.119112 0.141726
0.219974 0.118013 0.141939
0.276097 0.113344 0.141146
0.335973 0.104860 0.139620
0.397833 0.090364 0.136812
0.461067 0.046265 0.132876
0.525353 0.000000 0.127535
0.591852 0.000000 0.120302
0.658900 0.000000 0.110506
0.725795 0.000000 0.097688
0.808927 0.000000 0.062959
0.883635 0.000000 0.004639
0.941375 0.000000 0.000000
0.986297 0.000000 0.000000
1.000000 0.000000 0.000000
1.000000 0.000000 0.000000
1.000000 0.000000 0.000000
1.000000 0.104463 0.000000
1.000000 0.158358 0.000000
1.000000 0.202274 0.000000
1.000000 0.242069 0.048768
1.000000 0.281041 0.117800
0.000000 0.110750 0.130983
0.000000 0.110323 0.130770
0.000000 0.110079 0.131014
0.003174 0.111727 0.133547
0.008789 0.114199 0.136416
0.018769 0.114748 0.137728
0.024750 0.115419 0.139040
0.043824 0.116884 0.140200
0.091341 0.118593 0.141146
0.125673 0.120272 0.142092
0.166995 0.121462 0.142489
0.215152 0.120668 0.142275
0.269383 0.117342 0.141512
0.327581 0.110384 0.139864
0.387671 0.098756 0.137240
0.448768 0.076997 0.133547
0.511131 0.019837 0.128328
0.574945 0.000000 0.121614
0.640742 0.000000 0.112856
0.706752 0.000000 0.100771
0.788602 0.000000 0.074678
0.860472 0.000000 0.020172
0.918761 0.000000 0.000000
0.967346 0.000000 0.000000
1.000000 0.000000 0.000000
1.000000 0.000000 0.000000
1.000000 0.000000 0.000000
1.000000 0.108339 0.000000
1.000000 0.161593 0.000000
1.000000 0.204440 0.000000
1.000000 0.242679 0.040955
1.000000 0.279026 0.113069
0.001678 0.114015 0.132082
0.003967 0.113954 0.131838
0.008392 0.112917 0.131685
0.015412 0.113252 0.132845
0.013581 0.115267 0.136507
0.009491 0.117311 0.140291
0.016083 0.117952 0.141115
0.036164 0.119051 0.142061
0.084291 0.120974 0.142550
0.119875 0.122560 0.143069
0.159030 0.124117 0.143252
0.205447 0.124331 0.143069
0.257877 0.122347 0.142184
0.315129 0.117281 0.140414
0.374426 0.109285 0.137575
0.436225 0.096376 0.133913
0.499458 0.066468 0.128664
0.564508 0.004578 0.121889
0.630579 0.000000 0.113191
0.697292 0.000000 0.101472
0.780911 0.000000 0.076020
0.850614 0.000000 0.024445
0.908568 0.000000 0.000000
0.958373 0.000000 0.000000
0.999786 0.000000 0.000000
1.000000 0.000000 0.000000
1.000000 0.017884 0.000000
1.000000 0.124025 0.000000
1.000000 0.170047 0.000000
1.000000 0.208957 0.000000
1.000000 0.245029 0.036469
1.000000 0.280095 0.109926
0.010956 0.116670 0.132967
0.012665 0.116609 0.133211
0.015381 0.115663 0.132815
0.021180 0.114565 0.133181
0.020050 0.115419 0.135531
0.015930 0.117464 0.139345
0.014374 0.119936 0.142947
0.032410 0.121614 0.144228
0.084199 0.123629 0.144472
0.119142 0.125826 0.144472
0.158846 0.127565 0.144198
0.204501 0.128481 0.143526
0.256352 0.127596 0.142336
0.313146 0.124300 0.140200
0.372412 0.118379 0.137240
0.434180 0.109377 0.133394
0.497841 0.096162 0.127810
0.563500 0.062287 0.120943
0.630243 0.000000 0.111666
0.704280 0.000000 0.098085
0.784848 0.000000 0.067506
0.852934 0.000000 0.017426
1.000000 0.027802 0.000000
1.000000 0.122896 0.000000
1.000000 0.164370 0.000000
1.000000 0.197665 0.000000
1.000000 0.227085 0.000000
1.000000 0.253819 0.012146
1.000000 0.280552 0.089723
1.000000 0.306859 0.125826
1.000000 0.333532 0.159213
1.000000 0.360327 0.192599
0.014923 0.118502 0.135195
0.014923 0.118502 0.135195
0.018616 0.117830 0.135012
0.021363 0.116884 0.134615
0.029114 0.116335 0.135378
0.031159 0.118471 0.138460
0.043641 0.121920 0.142153
0.078004 0.125765 0.144930
0.103944 0.128756 0.146090
0.142092 0.131868 0.145388
0.186038 0.134035 0.144533
0.237247 0.135256 0.143099
0.292302 0.134768 0.140810
0.350439 0.132448 0.137942
0.410101 0.127932 0.134096
0.470954 0.121279 0.129244
0.533806 0.111849 0.122713
0.598810 0.097841 0.114473
0.665339 0.067994 0.103395
0.754543 0.005707 0.080079
0.840482 0.000000 0.020691
0.913848 0.000000 0.000000
0.974609 0.084169 0.000000
1.000000 0.132876 0.000000
1.000000 0.172061 0.000000
1.000000 0.204349 0.000000
1.000000 0.231662 0.000000
1.000000 0.256199 0.000000
1.000000 0.280522 0.073243
1.000000 0.304692 0.115053
1.000000 0.329412 0.147921
1.000000 0.355047 0.180789
0.018799 0.120058 0.136446
0.018799 0.120058 0.136446
0.021790 0.119692 0.136233
0.025483 0.119020 0.136049
0.034150 0.118502 0.136080
0.053498 0.119905 0.137026
0.074525 0.123049 0.140322
0.098146 0.127260 0.143252
0.121889 0.131685 0.145083
0.147280 0.135348 0.145510
0.185031 0.138949 0.144808
0.233616 0.141451 0.143099
0.287022 0.142672 0.140719
0.343114 0.142458 0.138033
0.400946 0.141176 0.134096
0.460029 0.138430 0.129213
0.521660 0.133822 0.122927
0.585870 0.127443 0.114870
0.658717 0.118746 0.102968
0.747951 0.109255 0.079744
0.827329 0.106905 0.026032
0.898192 0.115633 0.000000
0.958770 0.137148 0.000000
1.000000 0.165530 0.000000
1.000000 0.194186 0.000000
1.000000 0.220737 0.000000
1.000000 0.244297 0.000000
1.000000 0.265965 0.000000
1.000000 0.288365 0.067903
1.000000 0.310796 0.112825
1.000000 0.333959 0.144961
1.000000 0.358160 0.177096
0.031067 0.123507 0.138827
0.031373 0.123507 0.138582
0.034668 0.123140 0.138155
0.042237 0.122683 0.137453
0.052216 0.121889 0.137057
0.080018 0.122194 0.136904
0.098726 0.125582 0.138460
0.115663 0.129671 0.141176
0.139345 0.134463 0.143130
0.169619 0.139345 0.144076
0.200198 0.143526 0.143771
0.236088 0.148501 0.143160
0.288304 0.151431 0.140780
0.343175 0.153414 0.137789
0.399481 0.154513 0.133852
0.457649 0.154726 0.128908
0.518273 0.153902 0.122499
0.581140 0.152377 0.114351
0.665461 0.151675 0.100587
0.747646 0.151156 0.078187
0.822568 0.154055 0.027741
0.889952 0.163394 0.000000
0.949035 0.179171 0.000000
0.997772 0.199863 0.000000
1.000000 0.222293 0.000000
1.000000 0.243778 0.000000
1.000000 0.263737 0.000000
1.000000 0.283360 0.013367
1.000000 0.303288 0.083223
1.000000 0.323461 0.117067
1.000000 0.344976 0.148074
1.000000 0.367407 0.179507
0.064332 0.129366 0.140993
0.064637 0.129366 0.140749
0.069612 0.129000 0.140566
0.076478 0.128847 0.139864
0.086946 0.128206 0.138949
0.095979 0.127352 0.138033
0.115663 0.128786 0.137331
0.134768 0.132967 0.139071
0.156283 0.137362 0.141268
0.184634 0.142702 0.142336
0.220157 0.147829 0.142061
0.254307 0.152529 0.141115
0.292515 0.158419 0.140139
0.340246 0.163912 0.138369
0.397070 0.167636 0.134188
0.455818 0.170901 0.129152
0.517693 0.173617 0.122713
0.595148 0.178256 0.112764
0.676417 0.183169 0.098695
0.753597 0.187625 0.074311
0.822782 0.193668 0.028901
0.884337 0.201907 0.000000
0.938262 0.213535 0.000000
0.983795 0.227848 0.000000
1.000000 0.243992 0.000000
1.000000 0.260197 0.000000
1.000000 0.277317 0.000000
1.000000 0.294957 0.016724
1.000000 0.313787 0.083833
1.000000 0.333654 0.118349
1.000000 0.354589 0.149508
1.000000 0.376928 0.181704
0.097658 0.136263 0.141970
0.097658 0.136263 0.141970
0.099214 0.136172 0.141482
0.103120 0.135897 0.141268
0.108858 0.135470 0.140322
0.115572 0.134432 0.139681
0.131960 0.134524 0.138460
0.156710 0.137240 0.136873
0.178592 0.142000 0.138705
0.205600 0.147219 0.140139
0.239353 0.152407 0.139956
0.279210 0.158633 0.138277
0.316381 0.164492 0.136782
0.356542 0.172122 0.135470
0.400610 0.182345 0.135622
0.459174 0.188144 0.130434
0.531304 0.196902 0.122805
0.607507 0.205264 0.112795
0.682887 0.212955 0.099550
0.754665 0.219608 0.080049
0.819730 0.226871 0.039490
0.878264 0.235355 0.003540
0.930877 0.246159 0.000000
0.976013 0.258549 0.000000
1.000000 0.272282 0.000000
1.000000 0.286503 0.000000
1.000000 0.301427 0.001740
1.000000 0.317052 0.052094
1.000000 0.334051 0.100710
1.000000 0.352331 0.130159
1.000000 0.372015 0.159854
1.000000 0.392828 0.191318
0.125612 0.145724 0.141878
0.126070 0.145693 0.141878
0.127993 0.145510 0.141634
0.131502 0.145418 0.141360
0.136843 0.144900 0.140658
0.144686 0.144045 0.139925
0.155123 0.142824 0.139193
0.177646 0.143282 0.137606
0.206699 0.148196 0.136233
0.233219 0.153353 0.137240
0.265568 0.159060 0.136995
0.303410 0.165316 0.135286
0.399176 0.186435 0.126009
0.442603 0.196872 0.123079
0.491646 0.211429 0.121981
0.563897 0.237797 0.122957
0.643763 0.258885 0.117556
0.723903 0.272831 0.104280
0.795010 0.284733 0.089815
0.857328 0.295689 0.063752
0.911162 0.306401 0.040528
0.956756 0.317021 0.030152
0.994781 0.328130 0.035981
1.000000 0.339330 0.057282
1.000000 0.350652 0.088899
1.000000 0.361456 0.106722
1.000000 0.372015 0.125246
1.000000 0.382635 0.144106
1.000000 0.394354 0.164584
1.000000 0.407721 0.187320
1.000000 0.422644 0.212100
1.000000 0.439979 0.240513
0.174716 0.163088 0.139712
0.175021 0.163058 0.139712
0.175875 0.162600 0.139559
0.178439 0.161898 0.139376
0.182650 0.160983 0.139162
0.189334 0.159487 0.138521
0.196811 0.157046 0.137972
0.215915 0.156252 0.136751
0.245151 0.158450 0.134463
0.277958 0.164279 0.132784
0.312108 0.171237 0.131899
0.352819 0.179507 0.128786
0.399512 0.189364 0.123903
0.464759 0.206058 0.115084
0.531334 0.226352 0.107027
0.595636 0.249699 0.104250
0.658625 0.275731 0.109377
0.720150 0.299657 0.116152
0.784756 0.310430 0.104799
0.842161 0.320043 0.094545
0.893187 0.329259 0.084993
0.938445 0.338628 0.078828
0.977234 0.348089 0.081636
1.000000 0.358007 0.091279
1.000000 0.368139 0.103639
1.000000 0.378149 0.118654
1.000000 0.388159 0.135409
1.000000 0.398749 0.153536
1.000000 0.410132 0.173587
1.000000 0.423529 0.196750
1.000000 0.438270 0.221927
1.000000 0.454841 0.250248
0.207004 0.175296 0.136995
0.207095 0.175113 0.137026
0.207797 0.174502 0.137118
0.209842 0.173861 0.136934
0.213626 0.172641 0.136812
0.219486 0.171054 0.136416
0.227787 0.169162 0.135958
0.238804 0.166506 0.135500
0.264317 0.166262 0.133364
0.300206 0.171542 0.130068
0.333684 0.178592 0.127871
0.376196 0.188449 0.124208
0.432136 0.202304 0.116243
0.494850 0.219242 0.104341
0.561486 0.239567 0.090059
0.622034 0.260594 0.077607
0.678340 0.283146 0.078767
0.730282 0.307225 0.094697
0.778653 0.333928 0.117830
0.831937 0.344762 0.113832
0.881285 0.353399 0.108095
0.926024 0.362524 0.105562
0.965148 0.371527 0.107088
0.999115 0.380835 0.113893
1.000000 0.390448 0.123964
1.000000 0.399695 0.137209
1.000000 0.409186 0.152407
1.000000 0.419074 0.169497
1.000000 0.430091 0.188968
1.000000 0.442908 0.211460
1.000000 0.457069 0.236698
1.000000 0.473426 0.265263
0.241733 0.189334 0.133211
0.242100 0.189273 0.133211
0.242679 0.188724 0.133303
0.244450 0.187839 0.133425
0.247745 0.186557 0.133303
0.253147 0.184848 0.132906
0.261204 0.182803 0.132723
0.269505 0.179446 0.132509
0.290929 0.178531 0.130739
0.325139 0.180514 0.127535
0.371221 0.191592 0.121401
0.414679 0.202945 0.115724
0.465675 0.216617 0.106294
0.522240 0.232639 0.091585
0.582788 0.250706 0.056428
0.643305 0.271092 0.017700
0.697902 0.291844 0.005310
0.745571 0.313237 0.020844
0.790036 0.336522 0.075654
0.830411 0.362158 0.115969
0.873350 0.378759 0.130068
0.917144 0.387274 0.128450
0.955749 0.395850 0.130739
0.989563 0.404486 0.136538
1.000000 0.413153 0.145480
1.000000 0.422309 0.157534
1.000000 0.431678 0.172091
1.000000 0.441932 0.189609
1.000000 0.453864 0.210178
1.000000 0.467597 0.234562
1.000000 0.483314 0.262455
1.000000 0.500938 0.293797
0.279942 0.205997 0.127687
0.280491 0.206058 0.127657
0.281956 0.205936 0.127596
0.285069 0.205509 0.127535
0.289769 0.204807 0.127169
0.297398 0.204196 0.126589
0.307897 0.203220 0.125887
0.321111 0.201572 0.125124
0.336980 0.199100 0.124025
0.368292 0.200076 0.120516
0.408728 0.206638 0.114107
0.454597 0.219455 0.104555
0.498970 0.231968 0.093629
0.547845 0.245823 0.065736
0.599878 0.260960 0.018067
0.653193 0.277989 0.000000
0.706783 0.297398 0.000000
0.754452 0.317510 0.000000
0.796567 0.338201 0.000000
0.836027 0.361669 0.049622
0.873075 0.387854 0.116732
0.909453 0.411780 0.152102
0.948638 0.420813 0.154849
0.983154 0.429938 0.161410
1.000000 0.439277 0.171359
1.000000 0.448585 0.183597
1.000000 0.458534 0.198642
1.000000 0.469001 0.216617
1.000000 0.480476 0.237064
1.000000 0.493324 0.260777
1.000000 0.507530 0.287297
1.000000 0.523705 0.317235
0.326513 0.228580 0.118227
0.326757 0.228519 0.118227
0.328099 0.228275 0.118227
0.330785 0.227756 0.118166
0.335454 0.226993 0.117769
0.342260 0.226108 0.117189
0.351598 0.224918 0.116457
0.364172 0.223362 0.115480
0.376623 0.219913 0.115114
0.400671 0.219150 0.112154
0.434424 0.219699 0.107362
0.480446 0.231846 0.094484
0.525414 0.245243 0.072755
0.570520 0.258457 0.029267
0.618647 0.272374 0.000000
0.668391 0.287724 0.000000
0.717494 0.304479 0.000000
0.765072 0.323583 0.000000
0.808316 0.344152 0.000000
0.845945 0.365179 0.000000
0.881712 0.389227 0.040925
0.914549 0.416266 0.126101
0.943267 0.445991 0.180270
0.977508 0.455451 0.187991
1.000000 0.464881 0.197635
1.000000 0.474708 0.210971
1.000000 0.485145 0.226810
1.000000 0.495918 0.245090
1.000000 0.507683 0.266636
1.000000 0.520653 0.290806
1.000000 0.534905 0.317815
1.000000 0.550500 0.347784
0.372992 0.253361 0.104463
0.374060 0.253544 0.104280
0.415106 0.276066 0.085695
0.418250 0.275517 0.085389
0.423102 0.274632 0.084321
0.429877 0.273381 0.083009
0.439155 0.271763 0.081331
0.451270 0.269566 0.079255
0.466041 0.266423 0.076600
0.483070 0.261784 0.074006
0.516930 0.262486 0.051423
0.557488 0.266270 0.018677
0.611292 0.283696 0.000000
0.654994 0.296605 0.000000
0.699367 0.309789 0.000000
0.742428 0.323186 0.000000
0.782986 0.337469 0.000000
0.821378 0.353277 0.000000
0.857389 0.371099 0.000000
0.890349 0.390723 0.000000
0.918822 0.411566 0.000000
0.945647 0.435828 0.091035
0.969024 0.462440 0.161196
0.988220 0.491463 0.222110
1.000000 0.503288 0.241764
1.000000 0.510369 0.252445
1.000000 0.517693 0.265049
1.000000 0.526116 0.280858
1.000000 0.536309 0.300114
1.000000 0.548211 0.323369
1.000000 0.561730 0.349798
1.000000 0.576684 0.378912
0.430213 0.286076 0.066865
0.434485 0.288518 0.060487
0.440040 0.290684 0.053803
0.446662 0.292638 0.047028
0.454108 0.293462 0.041810
0.461311 0.292851 0.038209
0.469917 0.291264 0.034546
0.480507 0.288792 0.032349
0.494331 0.285954 0.028840
0.507317 0.280430 0.030243
0.532799 0.278386 0.017395
0.567102 0.278080 0.000000
0.611872 0.287480 0.000000
0.662074 0.303685 0.000000
0.703578 0.315862 0.000000
0.744503 0.328374 0.000000
0.783993 0.341588 0.000000
0.822385 0.356481 0.000000
0.858762 0.373205 0.000000
0.893095 0.392279 0.000000
0.924102 0.413184 0.000000
0.950988 0.436011 0.000000
0.974334 0.460975 0.114229
0.993652 0.488289 0.185367
1.000000 0.517021 0.248569
1.000000 0.532952 0.279576
1.000000 0.540154 0.291905
1.000000 0.548516 0.307500
1.000000 0.558343 0.326268
1.000000 0.569940 0.349004
1.000000 0.583368 0.375250
1.000000 0.598260 0.404303
0.463722 0.306249 0.013367
0.468605 0.308934 0.005493
0.474800 0.311589 0.000000
0.481544 0.313939 0.000000
0.489143 0.314946 0.000000
0.496345 0.314611 0.000000
0.504173 0.312902 0.000000
0.514122 0.310613 0.000000
0.526390 0.307622 0.000000
0.540032 0.303288 0.000000
0.555444 0.297215 0.000000
0.587274 0.296971 0.000000
0.622553 0.295537 0.000000
0.674403 0.312718 0.000000
0.718441 0.326543 0.000000
0.757137 0.338354 0.000000
0.794949 0.350805 0.000000
0.831449 0.364111 0.000000
0.866178 0.379461 0.000000
0.899443 0.396857 0.000000
0.929656 0.416236 0.000000
0.957061 0.437903 0.000000
0.980346 0.461524 0.000000
0.999695 0.487160 0.143771
1.000000 0.514366 0.214633
1.000000 0.543816 0.281193
1.000000 0.563287 0.321416
1.000000 0.571191 0.336126
1.000000 0.580865 0.354559
1.000000 0.592370 0.377050
1.000000 0.605432 0.402808
1.000000 0.619837 0.431006
0.499397 0.328008 0.000000
0.504021 0.330663 0.000000
0.509758 0.333196 0.000000
0.516258 0.335302 0.000000
0.523278 0.336400 0.000000
0.530022 0.336065 0.000000
0.537774 0.334539 0.000000
0.547082 0.332341 0.000000
0.558831 0.329503 0.000000
0.572778 0.325994 0.000000
0.585382 0.319432 0.000000
0.610132 0.316625 0.000000
0.643488 0.315435 0.000000
0.685817 0.321233 0.000000
0.736507 0.338628 0.000000
0.774075 0.350469 0.000000
0.811948 0.363043 0.000000
0.849149 0.376837 0.000000
0.885344 0.392889 0.000000
0.919738 0.411109 0.000000
0.951141 0.431495 0.000000
0.978607 0.453895 0.000000
1.000000 0.478126 0.000000
1.000000 0.504753 0.117617
1.000000 0.533165 0.206455
1.000000 0.563287 0.281895
1.000000 0.594995 0.354223
1.000000 0.619135 0.405127
1.000000 0.629480 0.425086
1.000000 0.641047 0.447730
1.000000 0.653956 0.472938
1.000000 0.667720 0.499580
0.566735 0.369543 0.000000
0.569055 0.370886 0.000000
0.571679 0.371618 0.000000
0.575097 0.371679 0.000000
0.579095 0.370916 0.000000
0.583978 0.369360 0.000000
0.590143 0.367193 0.000000
0.598718 0.364630 0.000000
0.609766 0.361700 0.000000
0.623774 0.358404 0.000000
0.638178 0.353307 0.000000
0.654444 0.346715 0.000000
0.687068 0.346105 0.000000
0.722896 0.344610 0.000000
0.767910 0.357244 0.000000
0.810636 0.372229 0.000000
0.844724 0.383734 0.000000
0.878019 0.396246 0.000000
0.909819 0.410254 0.000000
0.939544 0.425849 0.000000
0.966278 0.443336 0.000000
0.989990 0.462623 0.000000
1.000000 0.483619 0.000000
1.000000 0.506188 0.000000
1.000000 0.532280 0.165286
1.000000 0.560815 0.248173
1.000000 0.591699 0.324895
1.000000 0.625025 0.400671
1.000000 0.651881 0.456519
1.000000 0.663203 0.478187
1.000000 0.675471 0.501793
1.000000 0.688533 0.526940
0.606592 0.393988 0.000000
0.608637 0.395178 0.000000
0.611322 0.395789 0.000000
0.614740 0.395941 0.000000
0.618738 0.395483 0.000000
0.623438 0.394079 0.000000
0.629664 0.392065 0.000000
0.637781 0.389624 0.000000
0.648249 0.387091 0.000000
0.661738 0.384009 0.000000
0.677119 0.380163 0.000000
0.690669 0.373266 0.000000
0.716976 0.370306 0.000000
0.750698 0.369177 0.000000
0.787716 0.370520 0.000000
0.832456 0.387152 0.000000
0.868528 0.400397 0.000000
0.900237 0.412512 0.000000
0.930266 0.425879 0.000000
0.957977 0.440803 0.000000
0.982879 0.457221 0.000000
1.000000 0.475288 0.000000
1.000000 0.495247 0.000000
1.000000 0.516838 0.000000
1.000000 0.529076 0.103151
1.000000 0.555169 0.204837
1.000000 0.584985 0.287694
1.000000 0.617212 0.366400
1.000000 0.651850 0.443763
1.000000 0.679927 0.500847
1.000000 0.692500 0.524529
1.000000 0.705562 0.549157
0.669673 0.432654 0.000000
0.673121 0.434760 0.000000
0.675593 0.435309 0.000000
0.677363 0.434516 0.000000
0.678676 0.432471 0.000000
0.680598 0.429297 0.000000
0.683314 0.425544 0.000000
0.687770 0.421302 0.000000
0.694423 0.416693 0.000000
0.703456 0.411933 0.000000
0.715358 0.406897 0.000000
0.728115 0.400488 0.000000
0.742855 0.392615 0.000000
0.771847 0.390265 0.000000
0.801602 0.386328 0.000000
0.837949 0.393774 0.000000
0.876768 0.408698 0.000000
0.905943 0.419562 0.000000
0.934600 0.431861 0.000000
0.961944 0.446052 0.000000
0.986847 0.461830 0.000000
1.000000 0.478920 0.000000
1.000000 0.496956 0.000000
1.000000 0.516167 0.000000
1.000000 0.536217 0.000000
1.000000 0.557549 0.168704
1.000000 0.583520 0.255711
1.000000 0.613275 0.336645
1.000000 0.645930 0.415656
1.000000 0.680659 0.491096
1.000000 0.708034 0.545525
1.000000 0.720455 0.568719
0.700771 0.451759 0.000000
0.704067 0.453559 0.000000
0.706996 0.454536 0.000000
0.709468 0.454353 0.000000
0.712123 0.453223 0.000000
0.715694 0.451575 0.000000
0.720851 0.449500 0.000000
0.727810 0.447211 0.000000
0.737087 0.445075 0.000000
0.748562 0.442451 0.000000
0.761563 0.438880 0.000000
0.776211 0.434150 0.000000
0.788357 0.425940 0.000000
0.810483 0.420935 0.000000
0.838163 0.417090 0.000000
0.866728 0.412879 0.000000
0.902953 0.427497 0.000000
0.933928 0.440253 0.000000
0.959258 0.451545 0.000000
0.983429 0.464424 0.000000
1.000000 0.479011 0.000000
1.000000 0.495003 0.000000
1.000000 0.512200 0.000000
1.000000 0.530785 0.000000
1.000000 0.550591 0.000000
1.000000 0.571801 0.153780
1.000000 0.594476 0.243992
1.000000 0.621668 0.326452
1.000000 0.653742 0.409674
1.000000 0.687709 0.487984
1.000000 0.721950 0.559289
1.000000 0.745998 0.605859
0.751095 0.483711 0.000000
0.752926 0.484627 0.000000
0.754604 0.484993 0.000000
0.756435 0.484535 0.000000
0.758816 0.483497 0.000000
0.761959 0.481910 0.000000
0.766445 0.479866 0.000000
0.772488 0.477485 0.000000
0.780423 0.474891 0.000000
0.790372 0.471962 0.000000
0.801907 0.468116 0.000000
0.815457 0.463661 0.000000
0.828061 0.456703 0.000000
0.842039 0.448035 0.000000
0.867582 0.444434 0.000000
0.893645 0.439490 0.000000
0.923033 0.443336 0.000000
0.954711 0.457557 0.000000
0.978759 0.468544 0.000000
1.000000 0.480598 0.000000
1.000000 0.494057 0.000000
1.000000 0.508721 0.000000
1.000000 0.524559 0.000000
1.000000 0.541711 0.000000
1.000000 0.560113 0.000000
1.000000 0.579980 0.119509
1.000000 0.601495 0.226505
1.000000 0.624506 0.306767
1.000000 0.652216 0.386358
1.000000 0.685451 0.468330
1.000000 0.719387 0.543145
1.000000 0.752010 0.609033
0.793637 0.512444 0.000000
0.795163 0.513329 0.000000
0.797055 0.513695 0.000000
0.799344 0.513725 0.000000
0.802731 0.513542 0.000000
0.807828 0.513359 0.000000
0.816007 0.513939 0.000000
0.826413 0.514733 0.000000
0.838987 0.515740 0.000000
0.853788 0.516442 0.000000
0.870146 0.516533 0.000000
0.887144 0.515404 0.000000
0.904204 0.512230 0.000000
0.918486 0.505180 0.000000
0.939391 0.500420 0.000000
0.962341 0.495979 0.000000
0.984466 0.489967 0.000000
1.000000 0.501823 0.000000
1.000000 0.514214 0.000000
1.000000 0.525017 0.000000
1.000000 0.537285 0.000000
1.000000 0.550683 0.000000
1.000000 0.565362 0.000000
1.000000 0.581445 0.000000
1.000000 0.599023 0.000000
1.000000 0.618524 0.178866
1.000000 0.639734 0.277775
1.000000 0.662470 0.359533
1.000000 0.686275 0.432593
1.000000 0.713222 0.503227
1.000000 0.744625 0.575097
1.000000 0.773404 0.635554
0.877623 0.571527 0.000000
0.877897 0.571527 0.000000
0.878264 0.571099 0.000000
0.879118 0.570214 0.000000
0.880888 0.568902 0.000000
0.883574 0.567346 0.000000
0.887633 0.565667 0.000000
0.893278 0.563714 0.000000
0.900511 0.561669 0.000000
0.909270 0.559136 0.000000
0.919463 0.556115 0.000000
0.930785 0.552392 0.000000
0.943084 0.547234 0.000000
0.954192 0.539483 0.000000
