20 Preset/Ocident style/【3】LUT video cho PR-AE-FCPX/Ocident style 5/Tone  (2).cube
# Created by Adobe Lightroom plugin Export LUT (1.24.0)
# www.johnrellis.com/lightroom/exportlut.htm
# Preset: Cvatik_Artemis_6
# Color profile: E:\lut插件\exportlut.1.24\exportlut.lrplugin\color profiles\Rec709gamma2.4.icc
LUT_3D_SIZE 32
DOMAIN_MIN 0.0 0.0 0.0
DOMAIN_MAX 1.0 1.0 1.0
0.141634 0.107790 0.116487
0.141634 0.107790 0.116487
0.148806 0.106905 0.116396
0.188602 0.101503 0.116915
0.273228 0.105592 0.114778
0.397559 0.127291 0.105196
0.513725 0.168856 0.089113
0.609003 0.220951 0.036805
0.684810 0.270207 0.000000
0.745418 0.312139 0.000000
0.794949 0.349859 0.060609
0.837247 0.383825 0.127565
0.873472 0.414984 0.178653
0.903624 0.444709 0.227115
0.928191 0.472816 0.274296
0.946685 0.500359 0.321202
0.960052 0.527520 0.367193
0.973785 0.567163 0.432288
0.980499 0.599908 0.484016
0.982605 0.628412 0.528374
0.982086 0.652918 0.565270
0.980072 0.673823 0.596124
0.977173 0.691676 0.622126
0.974182 0.706844 0.643641
0.971130 0.720089 0.662135
0.968017 0.731838 0.678309
0.964599 0.743008 0.693446
0.961212 0.753414 0.707332
0.957519 0.763485 0.720607
0.953307 0.773617 0.733852
0.948760 0.783627 0.746822
0.943511 0.793942 0.760037
0.141634 0.107790 0.116487
0.141634 0.107790 0.116487
0.147677 0.107088 0.116426
0.185641 0.106081 0.116487
0.265965 0.112703 0.114656
0.386358 0.134340 0.107301
0.500908 0.171786 0.093843
0.596948 0.220920 0.048005
0.672847 0.269688 0.000000
0.734310 0.311315 0.000000
0.785458 0.348089 0.067079
0.828885 0.381567 0.125460
0.865934 0.412512 0.174472
0.896544 0.442725 0.223575
0.922240 0.470741 0.270542
0.941833 0.498177 0.317174
0.956268 0.525322 0.363348
0.970764 0.563073 0.425055
0.978027 0.595514 0.476905
0.980957 0.623255 0.520165
0.981384 0.646845 0.555932
0.980102 0.667353 0.586542
0.977722 0.685054 0.612390
0.975219 0.700191 0.634028
0.972625 0.713344 0.652583
0.969848 0.725307 0.669123
0.966735 0.736690 0.684657
0.963531 0.747372 0.699062
0.960021 0.757778 0.712886
0.956085 0.768063 0.726375
0.951507 0.778531 0.740017
0.946471 0.788968 0.753475
0.143252 0.114687 0.118807
0.144289 0.115084 0.119875
0.144869 0.118227 0.120607
0.175570 0.125582 0.120974
0.243351 0.137026 0.121157
0.358251 0.162203 0.116274
0.473182 0.196689 0.104219
0.571283 0.239475 0.083986
0.652522 0.283909 0.046632
0.717128 0.323705 0.052216
0.770443 0.359136 0.100099
0.815763 0.391150 0.139559
0.854185 0.421118 0.185367
0.886503 0.449714 0.231571
0.913115 0.477424 0.278782
0.934173 0.503563 0.322545
0.949584 0.530816 0.369421
0.965270 0.566644 0.428168
0.973480 0.597070 0.477058
0.977325 0.623743 0.518944
0.978302 0.647333 0.555261
0.977600 0.667567 0.585657
0.976196 0.684230 0.610193
0.973968 0.699336 0.632044
0.971771 0.712184 0.650233
0.969604 0.723507 0.666011
0.966766 0.734859 0.681605
0.963775 0.745510 0.696040
0.960540 0.755825 0.709804
0.956634 0.766323 0.723720
0.952300 0.776669 0.737270
0.947417 0.787015 0.750698
0.158450 0.131014 0.134310
0.158663 0.131716 0.134676
0.159243 0.134066 0.135592
0.167056 0.154665 0.140597
0.234836 0.189120 0.137881
0.332921 0.210483 0.131289
0.426947 0.232547 0.122286
0.528710 0.271519 0.112734
0.617029 0.312322 0.107149
0.688045 0.349401 0.114839
0.746242 0.382116 0.137514
0.794400 0.412268 0.170504
0.835172 0.440375 0.211093
0.869627 0.466896 0.253147
0.898314 0.491646 0.293706
0.920623 0.516930 0.337713
0.939025 0.543236 0.383185
0.954711 0.575402 0.436927
0.964080 0.602564 0.481422
0.969512 0.626490 0.519738
0.972442 0.647242 0.551995
0.973114 0.666438 0.581567
0.972595 0.683040 0.606470
0.971496 0.697841 0.628138
0.969970 0.711086 0.647150
0.967803 0.723629 0.664912
0.965179 0.735561 0.681514
0.962402 0.746548 0.696559
0.959197 0.757168 0.710811
0.955535 0.767483 0.724575
0.951476 0.777462 0.737728
0.947082 0.787137 0.750301
0.176486 0.161501 0.155306
0.177432 0.161929 0.156008
0.176730 0.165286 0.156924
0.177432 0.185336 0.162600
0.189822 0.228489 0.165988
0.286625 0.286015 0.158480
0.422797 0.331548 0.167239
0.477485 0.316930 0.149264
0.555840 0.339086 0.145541
0.637812 0.376623 0.155856
0.704067 0.408606 0.175753
0.758663 0.437629 0.204868
0.804105 0.464607 0.241215
0.842802 0.489418 0.279118
0.874510 0.513909 0.321447
0.900664 0.537285 0.361761
0.922850 0.564477 0.408881
0.940398 0.592157 0.455695
0.951904 0.615961 0.495613
0.959136 0.637385 0.530877
0.963317 0.656886 0.562188
0.965576 0.673945 0.588891
0.966430 0.689143 0.612116
0.966186 0.703304 0.633295
0.965270 0.716213 0.652186
0.963928 0.728023 0.669093
0.961883 0.739315 0.684993
0.959594 0.749813 0.699489
0.956786 0.759915 0.713283
0.953552 0.769680 0.726406
0.949950 0.779110 0.738918
0.945800 0.788449 0.751217
0.202548 0.206729 0.186160
0.203769 0.207370 0.186801
0.202914 0.210422 0.187716
0.203220 0.223117 0.192081
0.204044 0.264775 0.203494
0.222385 0.313542 0.206516
0.312505 0.367224 0.192813
0.499458 0.472938 0.260929
0.549340 0.441382 0.227481
0.581140 0.413275 0.200443
0.650507 0.439368 0.215396
0.713954 0.469825 0.245823
0.766262 0.496254 0.278874
0.810056 0.520562 0.316564
0.846189 0.543816 0.356603
0.876249 0.565209 0.394293
0.903105 0.593042 0.443214
0.922850 0.616938 0.484901
0.936431 0.637995 0.521447
0.945892 0.656184 0.552300
0.951751 0.673304 0.580682
0.955505 0.688441 0.605127
0.953033 0.738033 0.678340
0.951476 0.749325 0.695125
0.949737 0.759091 0.709255
0.947814 0.767910 0.721736
0.945403 0.776394 0.733577
0.942962 0.784146 0.744198
0.939910 0.792050 0.754849
0.936828 0.799435 0.764706
0.933410 0.806760 0.774319
0.929778 0.813779 0.783383
0.252140 0.276768 0.238102
0.251896 0.277317 0.238254
0.252415 0.280003 0.239628
0.251652 0.286992 0.242008
0.252201 0.321965 0.255131
0.253208 0.365393 0.267399
0.279942 0.409827 0.277134
0.330083 0.440589 0.241337
0.521538 0.567834 0.342229
0.616114 0.589715 0.377935
0.647364 0.548608 0.332494
0.670008 0.515129 0.295933
0.730922 0.543603 0.333867
0.780667 0.567468 0.372320
0.820981 0.588464 0.410101
0.856535 0.612360 0.453956
0.886503 0.637842 0.500008
0.907439 0.658198 0.537438
0.922271 0.675868 0.569696
0.932555 0.692134 0.598352
0.939483 0.707546 0.624506
0.943450 0.722652 0.649256
0.945068 0.736934 0.671931
0.945220 0.749935 0.691768
0.944396 0.761227 0.708736
0.942962 0.770932 0.722927
0.941405 0.779141 0.734768
0.939635 0.786465 0.745083
0.937469 0.793576 0.754940
0.935058 0.800381 0.764218
0.932219 0.807156 0.773342
0.929015 0.813840 0.782254
0.302495 0.327214 0.284154
0.302312 0.327459 0.284215
0.301335 0.330083 0.284916
0.301823 0.333593 0.286748
0.302495 0.359869 0.298772
0.303227 0.394263 0.313420
0.303319 0.433265 0.325383
0.319524 0.472969 0.333776
0.343511 0.489662 0.294560
0.503288 0.601740 0.389075
0.640162 0.695552 0.529107
0.672724 0.652552 0.473671
0.697505 0.611658 0.420233
0.723354 0.586938 0.389471
0.773037 0.611505 0.431952
0.818570 0.639521 0.481117
0.853056 0.660792 0.521782
0.878752 0.677638 0.554345
0.897917 0.692958 0.584466
0.912322 0.706661 0.610254
0.922454 0.720241 0.635035
0.929320 0.733364 0.657710
0.933471 0.745907 0.678706
0.935454 0.757809 0.697841
0.936187 0.768154 0.714107
0.936126 0.776883 0.727443
0.935637 0.784329 0.738582
0.934813 0.790921 0.748318
0.933227 0.797696 0.758053
0.931334 0.804044 0.766995
0.929076 0.810330 0.775753
0.926482 0.816464 0.784054
0.354620 0.375738 0.333227
0.354589 0.376135 0.333440
0.353735 0.377691 0.333898
0.354162 0.380560 0.335454
0.354253 0.400336 0.345739
0.353277 0.428260 0.359503
0.351232 0.461097 0.374029
0.349126 0.496956 0.386481
0.354711 0.532433 0.392340
0.374670 0.549828 0.364965
0.485786 0.624537 0.421881
0.627283 0.728328 0.569238
0.694331 0.739864 0.602289
0.717403 0.700587 0.549004
0.742367 0.670802 0.508476
0.773770 0.660517 0.497383
0.814725 0.680873 0.536950
0.846220 0.697017 0.570336
0.870726 0.710597 0.598505
0.889342 0.723140 0.624048
0.903166 0.735012 0.647181
0.912963 0.746639 0.668910
0.919738 0.757656 0.688594
0.923857 0.768063 0.706447
0.926299 0.777340 0.721798
0.927642 0.785092 0.734432
0.928252 0.791745 0.745022
0.928130 0.797940 0.754574
0.927428 0.803922 0.763638
0.926238 0.809659 0.772000
0.924529 0.815396 0.780270
0.922515 0.820981 0.788083
0.401831 0.423316 0.383459
0.401404 0.423468 0.383337
0.400641 0.424323 0.383459
0.400458 0.426551 0.384680
0.398901 0.442329 0.392950
0.395941 0.464820 0.404608
0.392950 0.492042 0.418708
0.389319 0.522576 0.433295
0.387518 0.553155 0.445411
0.388891 0.582727 0.449928
0.404761 0.599329 0.431800
0.466255 0.635737 0.436835
0.611597 0.745754 0.594629
0.724758 0.812497 0.711330
0.744411 0.781277 0.669093
0.763210 0.748714 0.623438
0.780758 0.717128 0.578790
0.809110 0.712123 0.577356
0.839994 0.726955 0.609277
0.863859 0.739162 0.635676
0.881590 0.750057 0.658961
0.894652 0.759823 0.679072
0.904234 0.768673 0.696529
0.910948 0.777035 0.712428
0.915618 0.784482 0.725917
0.918883 0.790951 0.737331
0.920745 0.797177 0.747982
0.921752 0.802945 0.757504
0.921874 0.808682 0.766629
0.921233 0.814389 0.775387
0.920043 0.819944 0.783688
0.918273 0.825528 0.791897
0.433234 0.469490 0.428748
0.433509 0.469398 0.428840
0.434516 0.469490 0.429480
0.436042 0.470436 0.430854
0.435920 0.483253 0.439094
0.433356 0.502495 0.450172
0.429938 0.525719 0.463325
0.426978 0.551202 0.477913
0.424048 0.577661 0.491676
0.421851 0.604150 0.502464
0.420844 0.629023 0.505425
0.437232 0.649104 0.499947
0.456184 0.656184 0.456306
0.608820 0.770260 0.627710
0.728206 0.837613 0.743954
0.770840 0.837858 0.754055
0.781430 0.807736 0.712215
0.794217 0.777615 0.669764
0.808499 0.749447 0.629725
0.833555 0.750576 0.638758
0.856718 0.761654 0.664057
0.874022 0.771145 0.685267
0.886961 0.779568 0.703365
0.896483 0.787228 0.719234
0.903258 0.794125 0.732998
0.908049 0.800229 0.744686
0.911345 0.805753 0.754910
0.913481 0.811032 0.764309
0.914488 0.816220 0.773190
0.914580 0.821469 0.781735
0.914000 0.826627 0.789822
0.912810 0.831693 0.797574
0.460700 0.519890 0.478096
0.460945 0.519982 0.478340
0.461524 0.520470 0.478981
0.463050 0.520928 0.480171
0.468605 0.527367 0.487892
0.466346 0.542901 0.497414
0.463355 0.561852 0.509087
0.459907 0.583215 0.521996
0.456550 0.606012 0.535210
0.454627 0.631220 0.549584
0.455024 0.658381 0.563714
0.455848 0.682948 0.569818
0.492226 0.733150 0.607202
0.498634 0.735592 0.561883
0.635187 0.818296 0.694972
0.757046 0.874846 0.799313
0.812406 0.892760 0.845182
0.813382 0.869566 0.810575
0.818875 0.844968 0.775265
0.828305 0.821042 0.741299
0.840635 0.798856 0.709865
0.858183 0.803159 0.723720
0.871611 0.809934 0.740444
0.881468 0.815610 0.753964
0.888518 0.820554 0.765255
0.893675 0.824765 0.774655
0.897307 0.828489 0.782650
0.899962 0.831876 0.789548
0.901640 0.835233 0.796017
0.902525 0.838682 0.802274
0.902617 0.842313 0.808469
0.901946 0.846189 0.814786
0.494179 0.581567 0.542443
0.494240 0.581384 0.542290
0.494545 0.581018 0.542229
0.495247 0.580529 0.542229
0.501579 0.582727 0.547478
0.500206 0.592828 0.554284
0.497627 0.608270 0.564233
0.496193 0.629389 0.579156
0.495216 0.652369 0.595361
0.494759 0.676356 0.611658
0.495125 0.700618 0.626947
0.497078 0.724178 0.639673
0.499947 0.745571 0.646235
0.514733 0.760128 0.646540
0.516655 0.762997 0.607355
0.622583 0.820768 0.694820
0.744198 0.875578 0.798825
0.813718 0.902220 0.860227
0.820645 0.891234 0.846433
0.822934 0.871061 0.816220
0.829252 0.850309 0.786191
0.838773 0.830442 0.757870
0.851041 0.813352 0.734096
0.865110 0.819760 0.750454
0.875456 0.824949 0.763516
0.882902 0.829465 0.774533
0.888334 0.833341 0.783597
0.892149 0.836942 0.791592
0.894804 0.840360 0.798825
0.896361 0.843931 0.805722
0.897032 0.847471 0.812222
0.896910 0.851194 0.818692
0.518608 0.624720 0.589563
0.518547 0.624414 0.589258
0.518578 0.623682 0.588708
0.519371 0.623804 0.589227
0.524437 0.625849 0.593683
0.526177 0.633509 0.600549
0.523888 0.646204 0.608881
0.521630 0.661524 0.619196
0.519799 0.678920 0.630976
0.518700 0.698024 0.643885
0.518486 0.718135 0.657038
0.519524 0.738430 0.669368
0.521691 0.757565 0.678767
0.525078 0.774502 0.683040
0.539208 0.785733 0.683497
0.536278 0.787076 0.647059
0.612573 0.823789 0.695216
0.732418 0.875700 0.797299
0.806424 0.902861 0.856535
0.826535 0.905943 0.872587
0.826810 0.890318 0.847959
0.830747 0.873350 0.822538
0.838132 0.856413 0.797848
0.848142 0.840360 0.774807
0.860075 0.829923 0.761471
0.870481 0.834806 0.774350
0.877928 0.839017 0.785122
0.883421 0.842588 0.793942
0.887175 0.846098 0.802029
0.889616 0.849577 0.809415
0.891051 0.852995 0.816281
0.891508 0.856535 0.822904
0.541833 0.662959 0.632349
0.541802 0.662806 0.632197
0.541711 0.662104 0.631586
0.541802 0.661341 0.631037
0.544701 0.661646 0.632868
0.547204 0.665919 0.637507
0.544823 0.675410 0.643427
0.542199 0.687282 0.650935
0.540307 0.701350 0.660243
0.539086 0.717128 0.670802
0.538903 0.734218 0.682246
0.540063 0.751827 0.693721
0.542382 0.768887 0.703822
0.545190 0.784482 0.710872
0.548699 0.798032 0.713436
0.562158 0.806546 0.713741
0.556634 0.807401 0.681666
0.604944 0.827665 0.697108
0.723201 0.876402 0.796811
0.797604 0.902525 0.855009
0.830655 0.915160 0.890715
0.830198 0.904082 0.872038
0.832456 0.890745 0.851072
0.837858 0.876707 0.829862
0.845975 0.862821 0.809415
0.856077 0.849729 0.790524
0.866545 0.844083 0.784726
0.873899 0.848234 0.795651
0.879057 0.852049 0.805081
0.882353 0.855863 0.813779
0.884245 0.859678 0.821836
0.885039 0.863462 0.829374
0.559777 0.689937 0.662928
0.559838 0.689998 0.663111
0.559991 0.689784 0.662959
0.560357 0.689479 0.662898
0.562188 0.689662 0.664057
0.565148 0.693507 0.668574
0.563653 0.701930 0.674067
0.561975 0.712398 0.680934
0.560845 0.724544 0.689174
0.560082 0.737881 0.698177
0.560082 0.751919 0.707607
0.560571 0.766262 0.716732
0.561700 0.780270 0.724971
0.563378 0.793332 0.731472
0.565759 0.805203 0.735622
0.569024 0.815457 0.736477
0.581720 0.822293 0.736721
0.574975 0.823178 0.708797
0.598566 0.831449 0.698939
0.715236 0.877043 0.796109
0.790005 0.902220 0.853666
0.826474 0.915038 0.888609
0.832822 0.913237 0.889403
0.833951 0.903258 0.872648
0.837797 0.892210 0.855222
0.844266 0.880827 0.837980
0.852659 0.869963 0.821927
0.862364 0.859770 0.807248
0.870420 0.858000 0.807614
0.875029 0.861692 0.817044
0.877958 0.865171 0.825345
0.879515 0.868589 0.832944
0.575189 0.710994 0.687129
0.575219 0.710964 0.687098
0.575341 0.710872 0.687129
0.575708 0.710658 0.687160
0.576410 0.710567 0.687434
0.579065 0.713893 0.691310
0.577874 0.721004 0.695949
0.576776 0.729793 0.701747
0.575921 0.740017 0.708644
0.575341 0.751308 0.716182
0.575402 0.763546 0.724392
0.575982 0.776120 0.732540
0.577295 0.788724 0.740383
0.579248 0.800809 0.747280
0.581628 0.812009 0.752651
0.584619 0.822080 0.755917
0.589410 0.830808 0.757259
0.601740 0.836790 0.758053
0.594781 0.838132 0.734310
0.598474 0.838529 0.707301
0.711727 0.879576 0.798489
0.785428 0.902953 0.854276
0.824063 0.915770 0.887633
0.834836 0.919158 0.901671
0.835172 0.911925 0.888579
0.837797 0.903471 0.874510
0.842771 0.894530 0.860441
0.849577 0.885679 0.846983
0.857664 0.877317 0.834714
0.866453 0.869780 0.824063
0.871489 0.870665 0.828519
0.873777 0.874022 0.836759
0.590753 0.730861 0.709865
0.590967 0.731106 0.710140
0.603601 0.747158 0.727993
0.603876 0.747097 0.728084
0.604334 0.746975 0.728237
0.605310 0.749538 0.730495
0.604486 0.755276 0.734157
0.603876 0.762356 0.738796
0.603601 0.770748 0.744350
0.603937 0.780270 0.750790
0.604669 0.790494 0.757626
0.606104 0.801053 0.764675
0.607813 0.811460 0.771237
0.610163 0.821500 0.777279
0.613001 0.830838 0.782376
0.616327 0.839384 0.786313
0.619989 0.846891 0.788571
0.624842 0.853269 0.789212
0.634943 0.857450 0.789151
0.626856 0.858518 0.768948
0.627558 0.859098 0.745968
0.719112 0.886931 0.810697
0.786770 0.906065 0.860380
0.822293 0.916838 0.890288
0.835355 0.921965 0.908080
0.836088 0.918090 0.901061
0.837797 0.911894 0.889921
0.841428 0.904906 0.878264
0.846799 0.897826 0.867063
0.853391 0.891020 0.856748
0.860624 0.884825 0.847776
0.868009 0.879332 0.840208
0.608759 0.751919 0.733883
0.609918 0.753201 0.735348
0.611200 0.754574 0.736934
0.612482 0.755795 0.738399
0.612848 0.757046 0.739498
0.612665 0.759152 0.740841
0.612207 0.764279 0.744137
0.611658 0.770382 0.748104
0.611475 0.777646 0.752865
0.611688 0.785916 0.758358
0.612543 0.795010 0.764523
0.613825 0.804562 0.770901
0.615564 0.814176 0.777127
0.617884 0.823575 0.783047
0.620874 0.832609 0.788540
0.624445 0.841123 0.793271
0.628626 0.848875 0.797055
0.633295 0.855924 0.799619
0.639857 0.861997 0.801389
0.649836 0.866239 0.801755
0.643122 0.867979 0.784909
0.644099 0.869566 0.765835
0.720760 0.890562 0.815213
0.785550 0.907439 0.861906
0.820035 0.917052 0.890227
0.834134 0.921965 0.907225
0.836576 0.921386 0.908141
0.837644 0.916838 0.899413
0.840330 0.911559 0.890135
0.844541 0.906035 0.881010
0.849851 0.900664 0.872648
0.855802 0.895659 0.865202
0.617121 0.763882 0.746273
0.618158 0.765225 0.747646
0.619165 0.766629 0.749111
0.619989 0.768032 0.750454
0.620508 0.769192 0.751522
0.620356 0.770016 0.752010
0.620020 0.774197 0.754665
0.619806 0.779629 0.758206
0.619745 0.786038 0.762448
0.620142 0.793332 0.767300
0.620874 0.801419 0.772671
0.622339 0.810056 0.778531
0.624292 0.818814 0.784390
0.626825 0.827695 0.790219
0.630030 0.836332 0.795804
0.633875 0.844511 0.800931
0.638331 0.852232 0.805447
0.643519 0.859281 0.809232
0.648798 0.865660 0.811734
0.656703 0.871153 0.814145
0.665553 0.874998 0.814176
0.660121 0.877104 0.800046
0.661067 0.879149 0.783841
0.725093 0.894865 0.821408
0.785885 0.909148 0.864286
0.818845 0.917571 0.890837
0.833371 0.922179 0.906767
0.836881 0.923461 0.913024
0.837522 0.920256 0.906401
0.839475 0.916350 0.899138
0.842679 0.912169 0.891875
0.846921 0.907927 0.885039
0.624170 0.776303 0.758022
0.625116 0.777340 0.759182
0.625940 0.778531 0.760372
0.626642 0.779660 0.761440
0.627039 0.780667 0.762295
0.626856 0.781399 0.762661
0.626642 0.783322 0.763851
0.626581 0.788174 0.767025
0.626795 0.794034 0.770932
0.627344 0.800565 0.775326
0.628412 0.807889 0.780301
0.629969 0.815763 0.785702
0.632044 0.823880 0.791226
0.634821 0.832120 0.796841
0.638361 0.840299 0.802457
0.642695 0.848356 0.807919
0.648096 0.856138 0.813291
0.654597 0.863554 0.818387
0.661646 0.870451 0.822812
0.668879 0.876738 0.826291
0.679713 0.882109 0.830381
0.688319 0.886046 0.830838
0.685176 0.888701 0.820188
0.687312 0.891447 0.808164
0.739620 0.902342 0.836088
0.792416 0.912902 0.872496
0.820523 0.919219 0.895048
0.833371 0.922942 0.908629
0.836851 0.924681 0.916442
0.837308 0.922942 0.912657
0.838590 0.920470 0.907713
0.840787 0.917723 0.902678
0.636286 0.794034 0.775296
0.636622 0.794430 0.775692
0.636866 0.794766 0.776028
0.636774 0.795102 0.776211
0.636500 0.795407 0.776303
0.636103 0.795621 0.776211
0.635492 0.795895 0.776181
0.635492 0.799466 0.778439
0.636011 0.804623 0.781918
0.636988 0.810727 0.786130
0.638453 0.817441 0.790799
0.640436 0.824674 0.795865
0.642939 0.832120 0.801114
0.646204 0.839780 0.806577
0.650172 0.847379 0.812070
0.654902 0.854917 0.817472
0.660548 0.862150 0.822812
0.667262 0.869078 0.828031
0.674372 0.875425 0.832670
0.681514 0.881254 0.836545
0.688533 0.886442 0.839506
0.699733 0.890745 0.843473
0.705074 0.893767 0.842161
0.702022 0.895995 0.832700
0.703639 0.898466 0.822049
0.748165 0.906645 0.844205
0.795560 0.914946 0.876402
0.821073 0.920104 0.896696
0.832975 0.923217 0.909117
0.836576 0.924712 0.916350
0.837156 0.924163 0.915648
0.838071 0.922393 0.911864
0.641474 0.804410 0.784237
0.641749 0.804746 0.784573
0.641810 0.805051 0.784817
0.641840 0.805356 0.785000
0.641688 0.805600 0.785122
0.641230 0.805875 0.785092
0.640620 0.806241 0.785000
0.640375 0.807187 0.785489
0.641108 0.811887 0.788754
0.642359 0.817472 0.792691
0.644038 0.823667 0.797055
0.646296 0.830350 0.801877
0.649073 0.837400 0.806973
0.652705 0.844602 0.812314
0.657130 0.851896 0.817807
0.662379 0.859098 0.823362
0.668696 0.866209 0.828977
0.675990 0.872984 0.834501
0.683894 0.879301 0.839719
0.691707 0.885008 0.844266
0.699550 0.890135 0.848112
0.707210 0.894743 0.851133
0.719478 0.898344 0.855650
0.722591 0.900938 0.853361
0.714748 0.901305 0.841459
0.716518 0.903716 0.832151
0.756252 0.910246 0.851408
0.798795 0.916777 0.879973
0.821805 0.920897 0.898253
0.832792 0.923461 0.909575
0.836423 0.924804 0.916228
0.837064 0.924895 0.917571
0.648798 0.817105 0.795346
0.649226 0.817533 0.795804
0.649348 0.817777 0.795987
0.649165 0.817838 0.795926
0.648585 0.817777 0.795682
0.647822 0.817655 0.795285
0.646876 0.817563 0.794766
0.645869 0.817533 0.794308
0.645747 0.819364 0.795377
0.646754 0.824094 0.798581
0.648157 0.829343 0.802243
0.650233 0.835294 0.806485
0.652918 0.841550 0.811032
0.656184 0.848051 0.815824
0.660182 0.854551 0.820706
0.665034 0.861143 0.825772
0.670893 0.867674 0.830991
0.677913 0.874113 0.836362
0.686061 0.880308 0.841825
0.694636 0.886107 0.846952
0.703212 0.891386 0.851530
0.711513 0.895995 0.855314
0.720119 0.899931 0.858640
0.731930 0.902953 0.862791
0.731441 0.904967 0.858518
0.729335 0.906706 0.851102
0.730892 0.908873 0.842924
0.766262 0.913848 0.859800
0.803067 0.918639 0.884306
0.823178 0.921782 0.900267
0.832914 0.923796 0.910307
0.836362 0.924895 0.916320
0.650324 0.824674 0.800595
0.650690 0.825071 0.800961
0.650904 0.825345 0.801236
0.650843 0.825498 0.801297
0.650538 0.825620 0.801236
0.650172 0.825742 0.801114
0.649622 0.825986 0.801053
0.649012 0.826322 0.800992
0.648341 0.826810 0.800961
0.649622 0.830137 0.803433
0.651698 0.835386 0.807309
0.654353 0.841093 0.811643
0.657649 0.847135 0.816251
0.661524 0.853330 0.821073
0.666072 0.859586 0.825986
0.671443 0.865843 0.831083
0.677790 0.872038 0.836362
0.685206 0.878141 0.841764
0.693874 0.884092 0.847379
0.702876 0.889647 0.852720
0.711940 0.894652 0.857572
0.720760 0.899138 0.861875
0.729030 0.903044 0.865415
0.738735 0.906218 0.869139
0.750057 0.908721 0.873075
0.747311 0.910460 0.867979
0.746395 0.912169 0.862119
0.748592 0.914153 0.855863
0.779782 0.917693 0.871092
0.809598 0.920836 0.890867
0.825681 0.922911 0.903746
0.833463 0.924315 0.911894
0.653285 0.833982 0.807309
0.653529 0.834104 0.807492
0.653498 0.834257 0.807553
0.653346 0.834348 0.807553
0.653101 0.834409 0.807462
0.652674 0.834501 0.807340
0.652094 0.834684 0.807187
0.651484 0.834897 0.807065
0.650874 0.835264 0.806973
0.650355 0.835691 0.806973
0.652491 0.840024 0.810330
0.655512 0.845426 0.814572
0.659174 0.851164 0.819150
0.663508 0.857115 0.823972
0.668544 0.863157 0.828946
0.674372 0.869169 0.834104
0.681209 0.875151 0.839445
0.689113 0.881071 0.844999
0.698238 0.886809 0.850767
0.707973 0.892180 0.856382
0.717556 0.897063 0.861540
0.726833 0.901366 0.866148
0.735409 0.905119 0.870054
0.743496 0.908354 0.873320
0.753811 0.910826 0.877226
0.760739 0.912749 0.878813
0.758633 0.914275 0.874327
0.758267 0.915801 0.869383
0.760952 0.917632 0.864439
0.790036 0.920256 0.879362
0.814328 0.922271 0.895537
0.827543 0.923705 0.906218
0.654200 0.841733 0.812070
0.654292 0.841825 0.812222
0.654353 0.842008 0.812284
0.654292 0.842130 0.812345
0.654200 0.842313 0.812406
0.654017 0.842618 0.812528
0.653986 0.843168 0.812802
0.654047 0.843809 0.813199
0.654139 0.844633 0.813687
0.654170 0.845609 0.814237
0.654688 0.846677 0.815030
0.659083 0.852323 0.819913
0.664393 0.858396 0.825254
0.670527 0.864561 0.830838
0.677424 0.870756 0.836606
0.685145 0.876768 0.842435
0.693690 0.882658 0.848356
0.703365 0.888396 0.854459
0.714046 0.893858 0.860685
0.724758 0.898772 0.866514
0.735073 0.903166 0.871824
0.744808 0.906981 0.876555
0.753719 0.910246 0.880613
0.761837 0.912993 0.884092
0.769863 0.915251 0.887297
0.779141 0.916991 0.890806
0.781979 0.918303 0.890593
0.781155 0.919493 0.887663
0.781582 0.920684 0.884459
0.784237 0.921996 0.881407
0.805997 0.923156 0.892912
0.821897 0.924010 0.903410
0.658534 0.852415 0.819821
0.658534 0.852445 0.819821
0.658442 0.852445 0.819791
0.658289 0.852476 0.819730
0.657923 0.852537 0.819638
0.657649 0.852659 0.819577
0.657343 0.852811 0.819486
0.656825 0.853117 0.819455
0.656397 0.853513 0.819455
0.655909 0.853971 0.819486
0.655390 0.854551 0.819547
0.655940 0.855650 0.820340
0.661341 0.861204 0.825437
0.667689 0.867002 0.830900
