20 Preset/Ocident style/【3】LUT video cho PR-AE-FCPX/Ocident style 5/Tone  (5).cube
# Created by Adobe Lightroom plugin Export LUT (1.24.0)
# www.johnrellis.com/lightroom/exportlut.htm
# Preset: Cvatik_Artemis_9
# Color profile: E:\lut插件\exportlut.1.24\exportlut.lrplugin\color profiles\Rec709gamma2.4.icc
LUT_3D_SIZE 32
DOMAIN_MIN 0.0 0.0 0.0
DOMAIN_MAX 1.0 1.0 1.0
0.044587 0.056764 0.025269
0.058045 0.058595 0.025879
0.088502 0.063294 0.026764
0.114778 0.071809 0.029664
0.171176 0.072999 0.032929
0.254429 0.045960 0.033539
0.354528 0.000000 0.029877
0.463081 0.000000 0.019532
0.569848 0.000000 0.004883
0.667018 0.000000 0.000000
0.745754 0.000000 0.000000
0.806302 0.000000 0.000000
0.853330 0.000000 0.000000
0.889738 0.000000 0.000000
0.917998 0.000000 0.000000
0.939452 0.127230 0.000000
0.956085 0.197787 0.000000
0.969146 0.247196 0.000000
0.979706 0.285496 0.012482
0.988342 0.318395 0.087709
0.996643 0.352300 0.125643
1.000000 0.382666 0.159762
1.000000 0.406775 0.188663
1.000000 0.427039 0.214298
1.000000 0.444129 0.237888
1.000000 0.458900 0.259373
1.000000 0.472450 0.280430
1.000000 0.484718 0.300206
1.000000 0.496162 0.319707
1.000000 0.507042 0.338781
1.000000 0.517205 0.357366
1.000000 0.526635 0.374823
0.048524 0.067445 0.027131
0.053773 0.067994 0.026947
0.089509 0.070802 0.026825
0.115999 0.078737 0.029694
0.172702 0.079805 0.032807
0.254276 0.057313 0.033143
0.351812 0.000000 0.028534
0.458259 0.000000 0.018830
0.563409 0.000000 0.003143
0.659632 0.000000 0.000000
0.739132 0.000000 0.000000
0.800473 0.000000 0.000000
0.848386 0.000000 0.000000
0.885557 0.000000 0.000000
0.914519 0.000000 0.000000
0.936614 0.127291 0.000000
0.953826 0.196597 0.000000
0.967285 0.245426 0.000000
0.978180 0.284154 0.002502
0.986999 0.316869 0.079011
0.995331 0.349554 0.120302
1.000000 0.378851 0.153872
1.000000 0.402747 0.182010
1.000000 0.422736 0.207523
1.000000 0.439551 0.230716
1.000000 0.454658 0.252598
1.000000 0.468330 0.273442
1.000000 0.481025 0.294102
1.000000 0.492805 0.314000
1.000000 0.503990 0.333471
1.000000 0.514305 0.352209
1.000000 0.524224 0.370672
0.061769 0.092012 0.035309
0.069673 0.092470 0.037263
0.089265 0.094575 0.037049
0.122377 0.099550 0.032929
0.183688 0.099397 0.030823
0.265507 0.093843 0.027985
0.361181 0.041505 0.021363
0.464485 0.000000 0.010315
0.566491 0.000000 0.000000
0.660487 0.000000 0.000000
0.738186 0.000000 0.000000
0.798550 0.000000 0.000000
0.845823 0.000000 0.000000
0.882780 0.000000 0.000000
0.911803 0.006043 0.000000
0.934173 0.156069 0.000000
0.951507 0.213565 0.000000
0.965301 0.256596 0.000000
0.976410 0.292149 0.000000
0.985412 0.323278 0.068269
0.993896 0.355169 0.118227
1.000000 0.382818 0.151095
1.000000 0.405005 0.179385
1.000000 0.424262 0.204868
1.000000 0.440620 0.227970
1.000000 0.454994 0.249577
1.000000 0.468482 0.270787
1.000000 0.480964 0.291142
1.000000 0.492683 0.311406
1.000000 0.503807 0.330999
1.000000 0.514214 0.350195
1.000000 0.524071 0.368688
0.069978 0.128450 0.050446
0.081605 0.129366 0.051881
0.101350 0.132113 0.056062
0.129519 0.137972 0.052522
0.198856 0.149722 0.033814
0.286809 0.142214 0.020874
0.384283 0.119570 0.007446
0.483711 0.080049 0.000000
0.580468 0.000000 0.000000
0.669154 0.000000 0.000000
0.741970 0.000000 0.000000
0.799313 0.000000 0.000000
0.844724 0.000000 0.000000
0.880552 0.055207 0.000000
0.908873 0.150973 0.000000
0.930846 0.203250 0.000000
0.948180 0.244327 0.000000
0.961913 0.279606 0.000000
0.973175 0.309941 0.000000
0.982422 0.336797 0.048310
0.991150 0.364691 0.112032
0.997955 0.389288 0.145571
1.000000 0.409918 0.174166
1.000000 0.427955 0.200320
1.000000 0.443915 0.224552
1.000000 0.458503 0.247349
1.000000 0.471992 0.269841
1.000000 0.484321 0.291112
1.000000 0.495949 0.311711
1.000000 0.506737 0.331548
1.000000 0.516747 0.350622
1.000000 0.526024 0.368658
0.035492 0.202640 0.079774
0.052552 0.204135 0.082033
0.112428 0.207706 0.088319
0.156619 0.212650 0.088441
0.203616 0.213474 0.077760
0.290929 0.224125 0.027832
0.399115 0.212497 0.000000
0.500420 0.183627 0.000000
0.595209 0.149477 0.000000
0.677272 0.129244 0.000000
0.744411 0.121523 0.000000
0.798581 0.134310 0.000000
0.841978 0.162112 0.000000
0.876799 0.193790 0.000000
0.904601 0.227756 0.000000
0.926726 0.259281 0.000000
0.944244 0.288487 0.000000
0.958282 0.314611 0.000000
0.969818 0.338201 0.000000
0.979370 0.360845 0.034760
0.988220 0.384894 0.109957
0.995117 0.405219 0.145174
1.000000 0.422858 0.173922
1.000000 0.439002 0.200656
1.000000 0.453529 0.225498
1.000000 0.466835 0.248600
1.000000 0.479194 0.271000
1.000000 0.490700 0.292729
1.000000 0.501457 0.313054
1.000000 0.511620 0.333013
1.000000 0.520958 0.351598
1.000000 0.529747 0.369635
0.000000 0.305150 0.102144
0.000000 0.306706 0.103761
0.093080 0.311192 0.109102
0.182986 0.321660 0.120058
0.242771 0.318334 0.111086
0.301274 0.309514 0.095827
0.393103 0.315282 0.019409
0.511986 0.307134 0.000000
0.606073 0.282841 0.000000
0.689387 0.255985 0.000000
0.752651 0.245212 0.000000
0.801785 0.252018 0.000000
0.841947 0.265293 0.000000
0.874632 0.282506 0.000000
0.901305 0.302831 0.000000
0.922789 0.321904 0.000000
0.940032 0.341680 0.000000
0.954223 0.359777 0.000000
0.965881 0.377203 0.000000
0.976287 0.394812 0.047669
0.985138 0.413001 0.113771
0.992126 0.428992 0.149691
1.000000 0.468086 0.219120
1.000000 0.480629 0.244755
1.000000 0.491646 0.268101
1.000000 0.501549 0.289342
1.000000 0.510674 0.309270
1.000000 0.518914 0.327642
1.000000 0.526909 0.345342
1.000000 0.534203 0.361975
1.000000 0.541131 0.377813
1.000000 0.547326 0.392370
0.000000 0.450233 0.146609
0.000000 0.451026 0.147799
0.057923 0.455787 0.155825
0.223972 0.464424 0.171145
0.317144 0.468788 0.179904
0.378363 0.453803 0.159213
0.433875 0.433997 0.134005
0.513481 0.430304 0.070100
0.623987 0.427771 0.000000
0.702571 0.409339 0.000000
0.764004 0.389990 0.000000
0.814939 0.372564 0.000000
0.851377 0.371496 0.000000
0.879728 0.378668 0.000000
0.903105 0.387854 0.000000
0.922118 0.397467 0.000000
0.937865 0.407813 0.000000
0.950958 0.418555 0.066255
0.962188 0.429450 0.111543
0.973266 0.445380 0.148196
0.982238 0.459602 0.177554
0.989685 0.472602 0.204776
0.995880 0.484565 0.228855
1.000000 0.494850 0.249393
1.000000 0.503166 0.266178
1.000000 0.512444 0.289281
1.000000 0.520378 0.309697
1.000000 0.527642 0.328252
1.000000 0.534569 0.345830
1.000000 0.540917 0.362371
1.000000 0.547051 0.378088
1.000000 0.552789 0.392737
0.041230 0.554986 0.221012
0.106813 0.555352 0.222293
0.196323 0.558526 0.229892
0.290379 0.563287 0.245457
0.388342 0.571313 0.270817
0.447425 0.563897 0.261845
0.492805 0.546471 0.232120
0.534752 0.524559 0.199039
0.592187 0.515526 0.153292
0.678889 0.514824 0.091768
0.745541 0.502098 0.000000
0.795102 0.485206 0.000000
0.836210 0.468482 0.000000
0.870329 0.453620 0.000000
0.893889 0.453285 0.040284
0.912566 0.456641 0.096407
0.928374 0.460914 0.122377
0.941741 0.466285 0.144930
0.954131 0.475654 0.172732
0.964813 0.485023 0.197696
0.973632 0.494392 0.221592
0.981109 0.503593 0.243961
0.987671 0.512078 0.264134
0.993225 0.520195 0.283207
0.998230 0.526665 0.298131
1.000000 0.531212 0.308934
1.000000 0.534234 0.316167
1.000000 0.539239 0.331670
1.000000 0.545037 0.348943
1.000000 0.550561 0.365637
1.000000 0.555688 0.381048
1.000000 0.560723 0.395789
0.292546 0.630182 0.321141
0.301274 0.630396 0.322728
0.333532 0.631739 0.328862
0.389075 0.633997 0.342809
0.457099 0.637812 0.364385
0.520989 0.641382 0.387060
0.549798 0.629114 0.358495
0.580957 0.613611 0.324987
0.611566 0.594903 0.286839
0.650111 0.582605 0.241398
0.718624 0.581750 0.207065
0.775113 0.572961 0.177890
0.815549 0.557153 0.167971
0.849760 0.542016 0.165713
0.878599 0.527398 0.169497
0.902678 0.513725 0.175265
0.918517 0.513085 0.190890
0.932708 0.516625 0.212314
0.944915 0.521111 0.232242
0.955291 0.525933 0.251835
0.964080 0.531487 0.270817
0.971618 0.537255 0.289647
0.978332 0.542931 0.306920
0.984131 0.548486 0.322942
0.989410 0.552972 0.335912
0.994293 0.556023 0.345159
0.998962 0.557733 0.351019
1.000000 0.558434 0.354284
1.000000 0.558190 0.355474
1.000000 0.562554 0.371801
1.000000 0.566735 0.386816
1.000000 0.570794 0.401068
0.426093 0.681544 0.423621
0.430701 0.681605 0.424689
0.447395 0.681971 0.429084
0.479255 0.683162 0.439857
0.520867 0.684901 0.455573
0.566796 0.687953 0.476509
0.598260 0.685267 0.476753
0.617823 0.674861 0.449378
0.639734 0.661738 0.415808
0.662959 0.645716 0.375372
0.692134 0.633692 0.328191
0.744533 0.631128 0.301671
0.791318 0.623499 0.278538
0.827512 0.610468 0.267124
0.856779 0.596704 0.263859
0.881804 0.583185 0.262852
0.904082 0.573205 0.270665
0.922667 0.564202 0.278813
0.934417 0.565301 0.295262
0.944701 0.566674 0.310094
0.953368 0.568902 0.325383
0.960998 0.571221 0.339269
0.967773 0.573816 0.352026
0.973785 0.576501 0.363958
0.979370 0.578637 0.373785
0.984680 0.579828 0.380224
0.989593 0.580743 0.385687
0.994537 0.580560 0.388006
0.999420 0.579706 0.388434
1.000000 0.577600 0.385443
1.000000 0.578485 0.392828
1.000000 0.581872 0.407294
0.513115 0.715908 0.506157
0.515587 0.715999 0.507134
0.525536 0.716457 0.510582
0.544732 0.717281 0.518242
0.571679 0.718715 0.529992
0.603052 0.720851 0.545678
0.636469 0.723995 0.565026
0.650172 0.718013 0.549279
0.664332 0.709407 0.525322
0.681086 0.698543 0.494972
0.699458 0.685481 0.458656
0.724483 0.676081 0.414923
0.763455 0.670741 0.388983
0.802670 0.664057 0.370428
0.835904 0.654505 0.359960
0.861387 0.643458 0.358343
0.883421 0.632349 0.358953
0.902556 0.621668 0.360113
0.919036 0.611872 0.363195
0.932708 0.604364 0.367895
0.941497 0.603967 0.379461
0.949279 0.604150 0.390051
0.956268 0.604852 0.400183
0.962646 0.605707 0.409308
0.968505 0.606378 0.417121
0.973938 0.606683 0.422950
0.979248 0.606378 0.426429
0.984466 0.605432 0.427955
0.989685 0.603815 0.427466
0.994995 0.601373 0.424598
1.000000 0.597314 0.417578
1.000000 0.594781 0.416205
0.577264 0.743832 0.576104
0.578637 0.743862 0.576776
0.585290 0.744167 0.579644
0.597070 0.744839 0.585077
0.614710 0.745907 0.593469
0.636194 0.747494 0.604944
0.660029 0.749813 0.619196
0.679561 0.750454 0.626825
0.687953 0.744350 0.609461
0.698512 0.737026 0.588098
0.711238 0.728054 0.561883
0.726162 0.717311 0.529870
0.757412 0.723751 0.525811
0.786923 0.720150 0.509209
0.818173 0.715145 0.498787
0.845823 0.706996 0.487984
0.866453 0.696681 0.484382
0.884550 0.686427 0.481483
0.900450 0.676570 0.479530
0.914580 0.667231 0.478096
0.927031 0.658473 0.477485
0.937041 0.652186 0.478584
0.943847 0.650416 0.483497
0.950164 0.648768 0.487282
0.956085 0.647059 0.489876
0.961822 0.644953 0.490852
0.967254 0.642573 0.490486
0.972778 0.639521 0.487922
0.978332 0.635950 0.483803
0.984009 0.631739 0.477729
0.990021 0.626429 0.468818
0.996551 0.619654 0.456031
0.634699 0.770993 0.644709
0.635492 0.771023 0.645045
0.638880 0.771084 0.646418
0.645930 0.771298 0.649439
0.656336 0.771756 0.654261
0.669978 0.772580 0.661250
0.686091 0.773983 0.670405
0.703548 0.775937 0.681422
0.712551 0.773739 0.677211
0.719600 0.769375 0.664454
0.729091 0.764981 0.650782
0.740475 0.759609 0.633906
0.753628 0.753140 0.612787
0.770993 0.747616 0.585901
0.794186 0.743557 0.568139
0.820432 0.738766 0.558556
0.844297 0.731167 0.547601
0.863615 0.721706 0.540002
0.879698 0.712062 0.535393
0.894133 0.702663 0.531365
0.907134 0.693660 0.528222
0.918822 0.685298 0.525689
0.929503 0.677424 0.523491
0.937987 0.672145 0.523125
0.944244 0.669703 0.524773
0.950256 0.667170 0.525231
0.955993 0.664454 0.524468
0.961669 0.661402 0.522576
0.967407 0.657862 0.518853
0.973144 0.653834 0.513664
0.979248 0.648798 0.505882
0.985748 0.642481 0.494850
0.665278 0.787076 0.683040
0.665675 0.787045 0.683131
0.668147 0.787076 0.684169
0.673304 0.787381 0.686671
0.680873 0.787930 0.690547
0.691310 0.788846 0.696132
0.703487 0.790188 0.703334
0.717372 0.792020 0.712184
0.731228 0.794064 0.721126
0.735622 0.790890 0.712551
0.741360 0.787320 0.702358
0.748531 0.783139 0.690272
0.757229 0.778164 0.675288
0.767422 0.772061 0.656519
0.781003 0.766262 0.632441
0.799374 0.761563 0.613123
0.821653 0.756985 0.603784
0.842313 0.750118 0.593439
0.860746 0.741817 0.584222
0.875242 0.732937 0.579004
0.888396 0.724392 0.574792
0.900450 0.716304 0.571283
0.911559 0.708583 0.567926
0.921813 0.701198 0.564874
0.931243 0.694026 0.561669
0.938720 0.689143 0.559747
0.944579 0.686213 0.559045
0.950500 0.682826 0.556664
0.956237 0.679377 0.553521
0.962066 0.675441 0.548943
0.968170 0.670619 0.541924
0.974670 0.664729 0.532189
0.693416 0.802548 0.718593
0.693874 0.802548 0.718776
0.695369 0.802518 0.719295
0.698604 0.802548 0.720546
0.703700 0.802731 0.722835
0.710750 0.803098 0.726131
0.719600 0.803861 0.730861
0.729915 0.805020 0.736843
0.741421 0.806668 0.744137
0.749142 0.806577 0.745510
0.752651 0.803708 0.737942
0.757321 0.800504 0.729213
0.763027 0.796628 0.718502
0.769772 0.792020 0.705318
0.777951 0.786374 0.688655
0.788754 0.780545 0.667170
0.803525 0.775753 0.648035
0.822721 0.771695 0.639460
0.840909 0.765805 0.630488
0.857969 0.758572 0.621241
0.871366 0.750790 0.615900
0.883482 0.743191 0.611841
0.894713 0.735866 0.608209
0.905119 0.728756 0.604700
0.914885 0.721767 0.600885
0.923980 0.714900 0.597009
0.932616 0.708034 0.592462
0.939239 0.703700 0.589807
0.945068 0.700282 0.587152
0.950835 0.696681 0.583520
0.956786 0.692470 0.578271
0.963073 0.687312 0.570459
0.713039 0.813443 0.742794
0.713436 0.813474 0.743038
0.714656 0.813535 0.743557
0.717281 0.813626 0.744717
0.721187 0.813870 0.746487
0.726680 0.814267 0.749203
0.733669 0.814969 0.752987
0.741909 0.815976 0.757687
0.751186 0.817288 0.763333
0.760922 0.818875 0.769589
0.764218 0.817105 0.765621
0.766842 0.814267 0.758572
0.770169 0.811032 0.750118
0.774350 0.807065 0.739712
0.779477 0.802457 0.727108
0.785916 0.796963 0.711696
0.794766 0.791409 0.692866
0.806851 0.786831 0.674495
0.823728 0.783352 0.667201
0.839872 0.778378 0.659693
0.855222 0.772488 0.652155
0.868437 0.765896 0.646632
0.879545 0.759335 0.643153
0.889952 0.752865 0.640009
0.899626 0.746517 0.636774
0.908812 0.740200 0.633173
0.917449 0.733944 0.629236
0.925628 0.727565 0.624903
0.933654 0.720974 0.619715
0.939818 0.716701 0.615717
0.945678 0.712551 0.610895
0.951781 0.707637 0.603998
0.728176 0.821775 0.760952
0.728420 0.821775 0.761044
0.729397 0.821836 0.761501
0.731319 0.821958 0.762387
0.734524 0.822171 0.763851
0.738888 0.822507 0.765988
0.744381 0.823026 0.768826
0.751034 0.823758 0.772427
0.758480 0.824765 0.776699
0.766476 0.825895 0.781491
0.773251 0.826444 0.784360
0.774868 0.824216 0.778958
0.777005 0.821622 0.772519
0.779690 0.818540 0.764706
0.783108 0.814939 0.755367
0.787442 0.810727 0.744076
0.792905 0.805905 0.730648
0.800320 0.800931 0.714748
0.810330 0.796719 0.697597
0.825223 0.793820 0.691493
0.839628 0.789761 0.685298
0.853452 0.784878 0.679194
0.866300 0.779324 0.673457
0.876463 0.773526 0.670466
0.886046 0.767788 0.667536
0.894987 0.762112 0.664546
0.903471 0.756435 0.661311
0.911620 0.750668 0.657435
0.919432 0.744747 0.653162
0.927062 0.738552 0.648035
0.934661 0.731838 0.641596
0.940764 0.727047 0.635462
0.741787 0.829068 0.776699
0.742153 0.829129 0.776944
0.750576 0.833036 0.785855
0.752071 0.833158 0.786557
0.754360 0.833310 0.787564
0.757473 0.833524 0.788968
0.761532 0.833860 0.790921
0.766445 0.834318 0.793362
0.772091 0.834958 0.796323
0.778286 0.835752 0.799802
0.784848 0.836698 0.803586
0.787869 0.835935 0.802426
0.788846 0.833860 0.797452
0.790188 0.831388 0.791470
0.791958 0.828489 0.784298
0.794369 0.825162 0.775906
0.797635 0.821317 0.765866
0.801907 0.817044 0.754147
0.807797 0.812497 0.740627
0.815671 0.808499 0.724697
0.828397 0.805905 0.718990
0.840879 0.802396 0.713649
0.852934 0.798123 0.708156
0.864530 0.793240 0.702419
0.874083 0.787778 0.698299
0.882719 0.782315 0.694728
0.890959 0.776761 0.690822
0.898924 0.771145 0.686763
0.906462 0.765652 0.682704
0.913878 0.759945 0.678126
0.921172 0.753933 0.672602
0.928588 0.747311 0.665644
0.755581 0.836057 0.791989
0.756344 0.836393 0.792752
0.757687 0.836759 0.793729
0.759457 0.837125 0.794919
0.761807 0.837491 0.796262
0.764584 0.837736 0.797604
0.767971 0.838041 0.799222
0.771969 0.838407 0.801083
0.776638 0.838865 0.803464
0.781857 0.839445 0.806180
0.787442 0.840177 0.809293
0.793149 0.840970 0.812497
0.793729 0.839292 0.808499
0.794522 0.837339 0.803799
0.795682 0.835050 0.798215
0.797299 0.832456 0.791714
0.799527 0.829526 0.784207
0.802579 0.826230 0.775479
0.806638 0.822660 0.765591
0.811948 0.818875 0.754330
0.819486 0.815946 0.740902
0.830228 0.813474 0.735531
0.841520 0.810636 0.731044
0.852415 0.807004 0.726375
0.862913 0.802670 0.721218
0.872313 0.797848 0.716640
0.880217 0.792874 0.713313
0.887816 0.787839 0.709865
0.895171 0.782834 0.706233
0.902281 0.777737 0.702358
0.909239 0.772457 0.697932
0.916228 0.766629 0.692378
0.764187 0.840360 0.801205
0.764981 0.840665 0.801938
0.766171 0.841001 0.802853
0.767727 0.841337 0.803891
0.769711 0.841672 0.805051
0.772030 0.841886 0.806180
0.774868 0.842100 0.807462
0.778134 0.842374 0.808988
0.781979 0.842741 0.810849
0.786282 0.843198 0.813016
0.791012 0.843748 0.815518
0.795956 0.844388 0.818235
0.799069 0.844236 0.818570
0.799557 0.842679 0.814847
0.800259 0.840909 0.810452
0.801297 0.838895 0.805356
0.802762 0.836606 0.799527
0.804868 0.834043 0.792844
0.807706 0.831266 0.785245
0.811429 0.828305 0.776761
0.816220 0.825101 0.767269
0.823362 0.822934 0.755825
0.832273 0.820523 0.750423
0.842405 0.818112 0.746670
0.852232 0.814939 0.742489
0.861753 0.811124 0.737881
0.870939 0.806821 0.732906
0.878233 0.802304 0.729915
0.885191 0.797848 0.726925
0.891966 0.793301 0.723720
0.898558 0.788602 0.720089
0.905119 0.783505 0.715511
0.772549 0.844358 0.809873
0.773190 0.844602 0.810452
0.774166 0.844846 0.811185
0.775479 0.845121 0.812039
0.777096 0.845365 0.812955
0.779019 0.845548 0.813901
0.781308 0.845731 0.814939
0.784024 0.845975 0.816190
0.787259 0.846281 0.817685
0.790860 0.846616 0.819455
0.794827 0.847074 0.821500
0.799100 0.847562 0.823728
0.803464 0.848112 0.826108
0.804562 0.847257 0.824186
0.804959 0.845884 0.820768
0.805661 0.844327 0.816831
0.806729 0.842649 0.812406
0.808225 0.840818 0.807462
0.810391 0.838834 0.801999
0.813260 0.836759 0.795987
0.816922 0.834592 0.789395
0.821500 0.832303 0.782040
0.828153 0.830900 0.772854
0.835447 0.828733 0.768124
0.844358 0.826841 0.765255
0.852934 0.824247 0.761959
0.861295 0.821073 0.758297
0.869413 0.817472 0.754330
0.876219 0.813626 0.751461
0.882353 0.809720 0.748959
0.888304 0.805631 0.746059
0.894194 0.801205 0.742367
0.783474 0.849241 0.820798
0.783780 0.849332 0.821012
0.784207 0.849393 0.821317
0.784970 0.849485 0.821683
0.785977 0.849577 0.822110
0.787350 0.849638 0.822690
0.789090 0.849729 0.823423
0.791257 0.849882 0.824338
0.793851 0.850095 0.825528
0.796872 0.850401 0.826993
0.800229 0.850767 0.828641
0.803769 0.851164 0.830472
0.807401 0.851560 0.832395
0.810483 0.851804 0.833616
0.810636 0.850736 0.830869
0.810971 0.849546 0.827756
0.811612 0.848173 0.824247
0.812558 0.846769 0.820310
0.813962 0.845182 0.815946
0.815885 0.843503 0.811093
0.818387 0.841733 0.805783
0.821622 0.839872 0.799924
0.825681 0.837888 0.793362
0.831540 0.836606 0.785092
0.837675 0.834470 0.780026
0.845609 0.832761 0.777310
0.853330 0.830503 0.774441
0.860807 0.827756 0.771389
0.868132 0.824643 0.768063
0.874784 0.821195 0.764889
0.880308 0.817594 0.762509
0.885740 0.813748 0.759640
0.790311 0.852293 0.827512
0.790555 0.852354 0.827695
0.790982 0.852415 0.827909
0.791562 0.852506 0.828244
0.792447 0.852567 0.828611
0.793576 0.852628 0.829068
0.795041 0.852720 0.829679
0.796872 0.852842 0.830472
0.799008 0.853025 0.831449
0.801572 0.853239 0.832670
0.804318 0.853544 0.834012
0.807370 0.853849 0.835538
0.810513 0.854215 0.837156
0.813779 0.854612 0.838895
0.815213 0.854307 0.838407
0.815427 0.853391 0.835996
0.815824 0.852415 0.833249
0.816495 0.851316 0.830228
0.817441 0.850156 0.826810
0.818784 0.848875 0.823117
0.820645 0.847532 0.819028
0.823026 0.846189 0.814511
0.826017 0.844724 0.809598
0.829740 0.843198 0.804135
0.834287 0.841123 0.794858
0.839567 0.839231 0.789761
0.846769 0.837766 0.787472
0.853727 0.835813 0.785000
0.860533 0.833433 0.782376
0.867094 0.830716 0.779507
0.873472 0.827634 0.776364
0.878538 0.824308 0.774075
0.798306 0.855619 0.835080
0.798611 0.855711 0.835355
0.798947 0.855741 0.835538
0.799313 0.855772 0.835691
0.799863 0.855772 0.835813
0.800565 0.855741 0.836027
0.801541 0.855711 0.836301
0.802762 0.855741 0.836728
0.804349 0.855802 0.837308
0.806241 0.855894 0.838071
0.808408 0.856016 0.838987
0.810788 0.856229 0.840085
0.813382 0.856443 0.841337
0.816068 0.856687 0.842618
0.818784 0.856962 0.843992
0.818845 0.856229 0.842008
0.818967 0.855375 0.839658
0.819333 0.854490 0.837095
0.819974 0.853544 0.834348
0.821042 0.852598 0.831388
0.822385 0.851591 0.828183
0.824186 0.850553 0.824643
0.826444 0.849393 0.820706
0.829160 0.848173 0.816220
0.832578 0.846799 0.811185
0.837156 0.845670 0.804685
0.841672 0.843961 0.799527
0.848051 0.842557 0.797330
0.854276 0.840787 0.795010
0.860319 0.838682 0.792691
0.866209 0.836210 0.790127
0.871885 0.833463 0.787320
0.803281 0.857694 0.839750
0.803525 0.857786 0.839963
0.803861 0.857847 0.840177
0.804196 0.857877 0.840330
0.804746 0.857877 0.840543
0.805509 0.857908 0.840818
0.806424 0.857969 0.841215
0.807675 0.858030 0.841703
0.809140 0.858152 0.842344
0.810849 0.858274 0.843107
0.812741 0.858427 0.843961
0.814817 0.858579 0.844968
0.817014 0.858793 0.845975
0.819303 0.859007 0.847105
0.821622 0.859190 0.848234
0.823148 0.859129 0.848386
0.823087 0.858488 0.846464
0.823270 0.857786 0.844419
0.823667 0.857084 0.842222
0.824338 0.856352 0.839872
0.825345 0.855619 0.837339
0.826658 0.854826 0.834592
0.828336 0.854002 0.831571
0.830411 0.853147 0.828183
0.832975 0.852201 0.824430
0.836149 0.851194 0.820279
0.840177 0.850340 0.814847
0.844053 0.848875 0.810086
0.849607 0.847715 0.808316
0.855009 0.846189 0.806485
0.860166 0.844327 0.804532
0.865202 0.842069 0.802243
0.809110 0.859983 0.845121
0.809232 0.860014 0.845182
0.809415 0.860044 0.845304
0.809720 0.860044 0.845426
0.810117 0.860075 0.845579
0.810697 0.860075 0.845762
0.811460 0.860105 0.846067
0.812436 0.860166 0.846433
0.813596 0.860227 0.846921
0.815030 0.860288 0.847532
0.816587 0.860410 0.848234
0.818326 0.860563 0.849058
0.820188 0.860716 0.849912
0.822141 0.860838 0.850828
0.824094 0.861021 0.851804
0.826139 0.861204 0.852750
0.826627 0.860868 0.851896
0.826658 0.860349 0.850248
0.826902 0.859800 0.848447
0.827359 0.859251 0.846555
0.828061 0.858701 0.844572
0.828977 0.858122 0.842405
0.830198 0.857511 0.839963
0.831754 0.856870 0.837308
0.833677 0.856168 0.834318
0.836027 0.855436 0.831022
0.838926 0.854673 0.827420
0.842557 0.853941 0.822721
0.845914 0.852689 0.818173
0.850767 0.851682 0.816770
0.855497 0.850278 0.815183
0.859983 0.848478 0.813199
0.813962 0.861814 0.849485
0.814054 0.861845 0.849546
0.814237 0.861845 0.849668
0.814511 0.861875 0.849821
0.814908 0.861906 0.849973
0.815549 0.861967 0.850278
0.816403 0.862058 0.850736
0.817472 0.862181 0.851286
0.818723 0.862333 0.851957
0.820188 0.862486 0.852750
0.821775 0.862699 0.853605
0.823453 0.862882 0.854490
0.825193 0.863066 0.855436
0.826902 0.863249 0.856352
0.828580 0.863432 0.857237
0.830259 0.863584 0.858061
0.831693 0.863676 0.858671
0.831693 0.863340 0.857450
0.831815 0.862974 0.856168
0.832120 0.862638 0.854795
0.832547 0.862272 0.853330
0.833188 0.861906 0.851743
0.834012 0.861509 0.849973
0.835080 0.861082 0.848020
0.836393 0.860624 0.845853
0.838041 0.860166 0.843442
0.840116 0.859709 0.840848
0.842618 0.859220 0.838010
0.845640 0.858671 0.834257
0.848386 0.857633 0.830198
0.852110 0.856565 0.828641
0.855833 0.855161 0.827024
0.820890 0.864103 0.855589
0.820920 0.864073 0.855589
0.820981 0.864103 0.855619
0.821164 0.864103 0.855650
0.821378 0.864103 0.855741
0.821744 0.864103 0.855894
0.822263 0.864134 0.856077
0.822934 0.864164 0.856382
0.823758 0.864225 0.856748
0.824735 0.864286 0.857176
0.825803 0.864378 0.857694
0.827024 0.864469 0.858274
0.828336 0.864561 0.858885
0.829648 0.864652 0.859556
