20 Preset/Ocident style/【3】LUT video cho PR-AE-FCPX/Ocident style 5/Tone  (5).cube
# Created by Adobe Lightroom plugin Export LUT (1.24.0)
# www.johnrellis.com/lightroom/exportlut.htm
# Preset: Cvatik_Artemis_9
# Color profile: E:\lut插件\exportlut.1.24\exportlut.lrplugin\color profiles\Rec709gamma2.4.icc
LUT_3D_SIZE 5
DOMAIN_MIN 0.000000 0.000000 0.000000
DOMAIN_MAX 0.903226 0.903226 0.903226
0.044587 0.056764 0.025269
0.463081 0.000000 0.019532
0.917998 0.000000 0.000000
1.000000 0.382666 0.159762
1.000000 0.496162 0.319707
0.041230 0.554986 0.221012
0.534752 0.524559 0.199039
0.893889 0.453285 0.040284
0.981109 0.503593 0.243961
1.000000 0.545037 0.348943
0.693416 0.802548 0.718593
0.729915 0.805020 0.736843
0.777951 0.786374 0.688655
0.883482 0.743191 0.611841
0.945068 0.700282 0.587152
0.783474 0.849241 0.820798
0.791257 0.849882 0.824338
0.810636 0.850736 0.830869
0.821622 0.839872 0.799924
0.868132 0.824643 0.768063
0.825254 0.865476 0.859342
0.827054 0.865568 0.860105
0.831876 0.865446 0.861448
0.836912 0.865171 0.860319
0.843809 0.863554 0.849454
0.000000 0.108248 0.390082
0.483375 0.111025 0.382788
0.871122 0.350164 0.353887
0.955444 0.511437 0.417517
0.992828 0.559228 0.445441
0.000000 0.549920 0.523064
0.572015 0.555932 0.509056
0.843198 0.550378 0.461921
0.933501 0.586114 0.483955
0.975708 0.606867 0.501976
0.679286 0.792355 0.726894
0.721218 0.795224 0.743923
0.770382 0.780179 0.715480
0.866575 0.747036 0.663478
0.922026 0.726223 0.657954
0.783566 0.847440 0.823758
0.791653 0.848417 0.827481
0.813809 0.851041 0.837675
0.821225 0.839872 0.809110
0.864103 0.827085 0.783108
0.825559 0.865354 0.860258
0.827268 0.865415 0.860929
0.833768 0.865904 0.863890
0.838529 0.865690 0.863279
0.844419 0.864225 0.853788
0.000000 0.272526 0.800443
0.402411 0.348669 0.791836
0.802762 0.568292 0.762936
0.861082 0.687678 0.726925
0.896056 0.720607 0.728817
0.483314 0.632013 0.795926
0.581415 0.628565 0.789731
0.782834 0.675868 0.769284
0.843015 0.723262 0.745754
0.889677 0.737850 0.742702
0.670497 0.790860 0.803799
0.702876 0.791531 0.802274
0.776028 0.792203 0.796567
0.829953 0.784787 0.783932
0.873350 0.781857 0.776761
0.768948 0.843137 0.828763
0.778012 0.843015 0.830350
0.809262 0.846189 0.841550
0.821897 0.841611 0.833066
0.854246 0.833555 0.819333
0.820096 0.864805 0.859739
0.823758 0.864866 0.861326
0.833066 0.865385 0.865446
0.840635 0.866087 0.868193
0.844602 0.864500 0.860410
0.443305 0.558984 0.861448
0.549798 0.594110 0.857481
0.724300 0.673976 0.845518
0.832731 0.738979 0.836088
0.859922 0.786923 0.824430
0.625971 0.697261 0.851560
0.649500 0.698421 0.850431
0.741451 0.726253 0.842985
0.826719 0.760891 0.835721
0.855467 0.794736 0.826932
0.724910 0.798032 0.850065
0.739773 0.800900 0.849027
0.775601 0.803098 0.845151
0.818112 0.806180 0.839048
0.845548 0.819577 0.837705
0.775204 0.842741 0.855161
0.780667 0.842863 0.854856
0.800565 0.844175 0.854826
0.824887 0.845243 0.854032
0.846494 0.843351 0.850797
0.807645 0.864591 0.863066
0.811368 0.864622 0.863645
0.824521 0.865202 0.866300
0.840574 0.866117 0.871397
0.845670 0.865751 0.869535
0.654749 0.709499 0.873930
0.674189 0.717403 0.872770
0.734707 0.745754 0.869108
0.798032 0.775937 0.864683
0.847410 0.804349 0.863584
0.694820 0.747036 0.870451
0.704829 0.749477 0.869993
0.747890 0.766384 0.867521
0.800076 0.786435 0.863981
0.845884 0.809354 0.863371
0.750546 0.804807 0.867826
0.760281 0.808225 0.867216
0.779049 0.810971 0.866484
0.808377 0.816190 0.864469
0.842924 0.828550 0.865110
0.783444 0.839933 0.869718
0.787320 0.840604 0.869627
0.803647 0.844358 0.869749
0.823392 0.847379 0.869688
0.843870 0.853178 0.871153
0.813870 0.862364 0.873808
0.816068 0.862577 0.873869
0.825193 0.863767 0.874510
0.836851 0.865354 0.875334
0.846616 0.866728 0.876097
