20 Preset/Ocident style/【3】LUT video cho PR-AE-FCPX/Ocident style 5/Tone  (1).cube
# Created by Adobe Lightroom plugin Export LUT (1.24.0)
# www.johnrellis.com/lightroom/exportlut.htm
# Preset: Cvatik_Artemis_5
# Color profile: E:\lut插件\exportlut.1.24\exportlut.lrplugin\color profiles\Rec709gamma2.4.icc
LUT_3D_SIZE 5
DOMAIN_MIN 0.000000 0.000000 0.000000
DOMAIN_MAX 0.903226 0.903226 0.903226
0.081056 0.045502 0.032807
0.250797 0.000000 0.028870
0.528893 0.000000 0.004730
0.721584 0.000000 0.000000
0.857389 0.000000 0.000000
0.000000 0.228489 0.112215
0.210971 0.199161 0.103975
0.531518 0.220523 0.000000
0.714595 0.212711 0.000000
0.852018 0.230014 0.000000
0.000000 0.487373 0.223972
0.000000 0.489631 0.211887
0.436316 0.436652 0.215427
0.661158 0.469856 0.154604
0.833921 0.462623 0.000000
0.000000 0.668727 0.361608
0.000000 0.669612 0.356329
0.000000 0.663661 0.272282
0.567956 0.620386 0.378668
0.737453 0.660853 0.420905
0.000000 0.844541 0.522545
0.000000 0.845457 0.520623
0.000000 0.850034 0.514000
0.347692 0.838834 0.466682
0.683345 0.813199 0.599359
0.110567 0.035828 0.204746
0.265873 0.000000 0.204623
0.534173 0.000000 0.207462
0.721157 0.000000 0.200443
0.855406 0.110719 0.199710
0.132418 0.235050 0.201205
0.282597 0.233585 0.200137
0.537163 0.218845 0.196933
0.713558 0.225498 0.194339
0.850370 0.252873 0.196231
0.000000 0.485664 0.290562
0.098451 0.487617 0.281437
0.462898 0.449622 0.278965
0.671748 0.477089 0.223972
0.831724 0.468635 0.188418
0.000000 0.665980 0.402228
0.000000 0.666773 0.397650
0.131838 0.664485 0.344976
0.575402 0.624842 0.412879
0.742550 0.665827 0.440558
0.000000 0.843168 0.546410
0.000000 0.844114 0.544579
0.000000 0.848112 0.537011
0.354040 0.839689 0.485908
0.686244 0.813901 0.611231
0.165988 0.000000 0.440833
0.298375 0.000000 0.440558
0.539239 0.000000 0.439887
0.710628 0.112642 0.421332
0.839658 0.256565 0.425055
0.204837 0.234104 0.439612
0.317082 0.232883 0.439551
0.538201 0.233158 0.438239
0.701015 0.273991 0.423133
0.832273 0.337591 0.432197
0.267491 0.488441 0.432288
0.350988 0.487800 0.432044
0.525170 0.487526 0.430945
0.672572 0.488746 0.431281
0.818997 0.492622 0.432227
0.364446 0.661799 0.508507
0.402136 0.661402 0.514855
0.434638 0.664515 0.506645
0.598169 0.640986 0.509880
0.768490 0.677363 0.498604
0.174105 0.839963 0.623682
0.185519 0.840879 0.621759
0.227085 0.844968 0.614191
0.384924 0.844938 0.566217
0.698817 0.818753 0.655818
0.234958 0.000000 0.649165
0.324071 0.000000 0.648859
0.513481 0.000000 0.647425
0.682856 0.164523 0.644221
0.829984 0.270848 0.631586
0.275792 0.237949 0.647730
0.347478 0.239445 0.647272
0.514977 0.252323 0.645502
0.676844 0.291356 0.642695
0.823148 0.345281 0.631312
0.340215 0.474342 0.637964
0.389227 0.476204 0.635584
0.514946 0.485115 0.633692
0.651911 0.490974 0.628901
0.804013 0.507622 0.631586
0.364172 0.666957 0.637018
0.397436 0.667262 0.637110
0.497108 0.668391 0.636988
0.632593 0.671229 0.636805
0.793759 0.671656 0.637812
0.319066 0.843168 0.700862
0.351537 0.843259 0.704036
0.456245 0.842893 0.716762
0.525475 0.846952 0.715480
0.723751 0.828092 0.730159
0.277043 0.000000 0.830716
0.336187 0.000000 0.829923
0.483772 0.080873 0.829465
0.637659 0.181247 0.827054
0.791897 0.262791 0.824247
0.296178 0.227451 0.825834
0.347448 0.230259 0.825406
0.483406 0.246372 0.824582
0.632624 0.281285 0.822019
0.786374 0.327123 0.820157
0.337774 0.459998 0.819303
0.372381 0.459297 0.818051
0.480842 0.461738 0.816373
0.617914 0.467811 0.813443
0.774319 0.482887 0.816220
0.320073 0.642664 0.818357
0.351293 0.641596 0.817105
0.454108 0.641444 0.816098
0.596948 0.646601 0.817777
0.769467 0.660334 0.825071
0.253117 0.834409 0.827268
0.293553 0.834348 0.826902
0.419013 0.836515 0.827909
0.580529 0.838651 0.827939
0.763912 0.839353 0.827237
