20 Preset/Ocident style/【3】LUT video cho PR-AE-FCPX/Ocident style 5/Tone  (1).cube
# Created by Adobe Lightroom plugin Export LUT (1.24.0)
# www.johnrellis.com/lightroom/exportlut.htm
# Preset: Cvatik_Artemis_5
# Color profile: E:\lut插件\exportlut.1.24\exportlut.lrplugin\color profiles\Rec709gamma2.4.icc
LUT_3D_SIZE 32
DOMAIN_MIN 0.0 0.0 0.0
DOMAIN_MAX 1.0 1.0 1.0
0.081056 0.045502 0.032807
0.086000 0.044617 0.032776
0.099397 0.043977 0.033326
0.120516 0.041291 0.032227
0.147372 0.037354 0.032624
0.178317 0.029664 0.031128
0.213321 0.015503 0.029938
0.250797 0.000000 0.028870
0.289982 0.000000 0.026734
0.330510 0.000000 0.024598
0.371130 0.000000 0.021912
0.411933 0.000000 0.017914
0.452247 0.000000 0.014496
0.491554 0.000000 0.010285
0.528893 0.000000 0.004730
0.563714 0.000000 0.000000
0.595758 0.000000 0.000000
0.625238 0.000000 0.000000
0.652735 0.000000 0.000000
0.677974 0.000000 0.000000
0.700832 0.000000 0.000000
0.721584 0.000000 0.000000
0.740841 0.000000 0.000000
0.759915 0.000000 0.000000
0.779049 0.000000 0.000000
0.798306 0.000000 0.000000
0.817746 0.000000 0.000000
0.837400 0.000000 0.000000
0.857389 0.000000 0.000000
0.877714 0.000000 0.000000
0.898558 0.011383 0.000000
0.919921 0.061952 0.000000
0.079713 0.051301 0.034333
0.083864 0.049439 0.034455
0.099550 0.049561 0.032563
0.121035 0.046632 0.032593
0.147707 0.043885 0.031678
0.179110 0.035767 0.031312
0.213931 0.021607 0.030152
0.251438 0.000641 0.029053
0.290776 0.000000 0.026764
0.331121 0.000000 0.024475
0.372015 0.000000 0.022065
0.412696 0.000000 0.017914
0.453040 0.000000 0.014343
0.492348 0.000000 0.009949
0.529625 0.000000 0.004242
0.564294 0.000000 0.000000
0.596307 0.000000 0.000000
0.625635 0.000000 0.000000
0.653193 0.000000 0.000000
0.678431 0.000000 0.000000
0.701228 0.000000 0.000000
0.721981 0.000000 0.000000
0.741238 0.000000 0.000000
0.760281 0.000000 0.000000
0.779477 0.000000 0.000000
0.798703 0.000000 0.000000
0.818112 0.000000 0.000000
0.837797 0.000000 0.000000
0.857755 0.000000 0.000000
0.878111 0.000000 0.000000
0.898924 0.022004 0.000000
0.920287 0.072572 0.000000
0.074128 0.077607 0.038788
0.075105 0.078401 0.039765
0.095277 0.069764 0.039063
0.118410 0.076753 0.035462
0.149203 0.073243 0.029786
0.180545 0.064881 0.029419
0.215488 0.050294 0.028229
0.253056 0.028870 0.027131
0.292088 0.000977 0.024842
0.332311 0.000000 0.022095
0.373083 0.000000 0.019348
0.413733 0.000000 0.015045
0.453895 0.000000 0.012299
0.493019 0.000000 0.007782
0.530236 0.000000 0.002899
0.564904 0.000000 0.000000
0.596674 0.000000 0.000000
0.626062 0.000000 0.000000
0.653468 0.000000 0.000000
0.678492 0.000000 0.000000
0.701320 0.000000 0.000000
0.721889 0.000000 0.000000
0.741146 0.000000 0.000000
0.760281 0.000000 0.000000
0.779446 0.000000 0.000000
0.798672 0.000000 0.000000
0.818112 0.000000 0.000000
0.837827 0.000000 0.000000
0.857816 0.000000 0.000000
0.878141 0.012146 0.000000
0.898924 0.064576 0.000000
0.920348 0.095125 0.000000
0.058473 0.101503 0.051911
0.058778 0.101503 0.050782
0.073091 0.101076 0.041657
0.113313 0.094972 0.050080
0.139773 0.097505 0.052522
0.181064 0.098604 0.030396
0.217899 0.094484 0.025116
0.255375 0.086793 0.023682
0.294285 0.065827 0.022187
0.334417 0.031830 0.019440
0.374853 0.000000 0.015106
0.415381 0.000000 0.012299
0.455329 0.000000 0.007965
0.494179 0.000000 0.002014
0.531243 0.000000 0.000000
0.565515 0.000000 0.000000
0.597162 0.000000 0.000000
0.626307 0.000000 0.000000
0.653681 0.000000 0.000000
0.678706 0.000000 0.000000
0.701350 0.000000 0.000000
0.721889 0.000000 0.000000
0.741054 0.000000 0.000000
0.760098 0.000000 0.000000
0.779232 0.000000 0.000000
0.798459 0.000000 0.000000
0.817838 0.000000 0.000000
0.837491 0.000000 0.000000
0.857450 0.044862 0.000000
0.877806 0.089204 0.000000
0.898711 0.105867 0.000000
0.920195 0.119326 0.000000
0.030854 0.127230 0.071107
0.032136 0.127474 0.070954
0.038270 0.127596 0.067353
0.092561 0.123781 0.050172
0.134401 0.115541 0.069642
0.161074 0.116274 0.079316
0.207675 0.123079 0.048402
0.258366 0.121950 0.016571
0.297490 0.115480 0.014740
0.337224 0.107454 0.012329
0.377264 0.095521 0.008820
0.417578 0.073762 0.004578
0.457130 0.033478 0.000000
0.495766 0.000000 0.000000
0.532189 0.000000 0.000000
0.566186 0.000000 0.000000
0.597345 0.000000 0.000000
0.626307 0.000000 0.000000
0.653376 0.000000 0.000000
0.678187 0.000000 0.000000
0.700679 0.000000 0.000000
0.721126 0.000000 0.000000
0.740322 0.000000 0.000000
0.759396 0.000000 0.000000
0.778531 0.000000 0.000000
0.797787 0.039612 0.000000
0.817227 0.082368 0.000000
0.836912 0.100984 0.000000
0.856901 0.116152 0.000000
0.877348 0.128389 0.000000
0.898314 0.138796 0.000000
0.919829 0.147921 0.000000
0.000000 0.157565 0.089754
0.000000 0.157534 0.089326
0.000000 0.157656 0.087984
0.008942 0.156924 0.074983
0.109621 0.150149 0.062531
0.157290 0.139315 0.085237
0.183658 0.136049 0.096162
0.235233 0.148623 0.069947
0.290105 0.152865 0.028168
0.339635 0.150362 0.000641
0.379553 0.144259 0.000000
0.419440 0.136934 0.000000
0.458686 0.128908 0.000000
0.496712 0.119631 0.000000
0.532769 0.110597 0.000000
0.566094 0.101778 0.000000
0.597009 0.094728 0.000000
0.625727 0.090089 0.000000
0.652583 0.089296 0.000000
0.677180 0.089998 0.000000
0.699306 0.093996 0.000000
0.719661 0.099214 0.000000
0.736629 0.101991 0.000000
0.755856 0.110170 0.000000
0.775051 0.119142 0.000000
0.794461 0.128389 0.000000
0.814054 0.137789 0.000000
0.833921 0.146212 0.000000
0.854124 0.155001 0.000000
0.874662 0.162936 0.000000
0.895750 0.170169 0.000000
0.917449 0.176516 0.000000
0.000000 0.190799 0.100374
0.000000 0.190951 0.099947
0.000000 0.191165 0.099123
0.000000 0.191714 0.096590
0.000000 0.188144 0.064851
0.128542 0.179049 0.074128
0.181796 0.167269 0.094057
0.207645 0.157870 0.111818
0.262394 0.175509 0.090913
0.319219 0.184237 0.045747
0.374395 0.186770 0.000000
0.419257 0.184054 0.000000
0.458076 0.179385 0.000000
0.495644 0.174624 0.000000
0.531304 0.169955 0.000000
0.564355 0.166232 0.000000
0.595056 0.163058 0.000000
0.623499 0.161410 0.000000
0.650233 0.160525 0.000000
0.674464 0.161044 0.000000
0.696437 0.161563 0.000000
0.716579 0.162905 0.000000
0.735805 0.164920 0.000000
0.754849 0.168368 0.000000
0.774044 0.172183 0.000000
0.793423 0.177127 0.000000
0.813077 0.182284 0.000000
0.833005 0.187778 0.000000
0.853239 0.193515 0.000000
0.873960 0.198550 0.000000
0.895109 0.203799 0.000000
0.916899 0.208713 0.000000
0.000000 0.228489 0.112215
0.000000 0.228367 0.111940
0.000000 0.228855 0.110811
0.000000 0.229129 0.108736
0.000000 0.228489 0.098268
0.000000 0.223026 0.056062
0.153567 0.212009 0.086000
0.210971 0.199161 0.103975
0.241978 0.189639 0.123232
0.291691 0.205509 0.108736
0.349554 0.217929 0.077638
0.405158 0.224155 0.008972
0.458106 0.226200 0.000000
0.496468 0.223484 0.000000
0.531518 0.220523 0.000000
0.563897 0.218112 0.000000
0.594232 0.215885 0.000000
0.622370 0.214847 0.000000
0.648798 0.214176 0.000000
0.672663 0.213260 0.000000
0.694484 0.212619 0.000000
0.714595 0.212711 0.000000
0.733852 0.213107 0.000000
0.753079 0.214450 0.000000
0.772366 0.216678 0.000000
0.791897 0.219364 0.000000
0.811612 0.222751 0.000000
0.831724 0.226017 0.000000
0.852018 0.230014 0.000000
0.872801 0.233616 0.000000
0.894102 0.237186 0.000000
0.916075 0.240360 0.000000
0.000000 0.267582 0.124849
0.000000 0.267674 0.124544
0.000000 0.267979 0.123323
0.000000 0.268376 0.121492
0.000000 0.269139 0.118227
0.000000 0.265904 0.094301
0.000000 0.258640 0.068513
0.182712 0.247288 0.096254
0.242405 0.234165 0.115450
0.277012 0.223850 0.135836
0.321874 0.236973 0.128969
0.379309 0.252659 0.101930
0.434760 0.261387 0.041444
0.486152 0.265782 0.000000
0.530999 0.266819 0.000000
0.562890 0.264683 0.000000
0.592676 0.262913 0.000000
0.620508 0.261418 0.000000
0.646448 0.260197 0.000000
0.670100 0.258762 0.000000
0.691737 0.257725 0.000000
0.711879 0.256565 0.000000
0.731319 0.255924 0.000000
0.750729 0.256260 0.000000
0.770169 0.257176 0.000000
0.789853 0.258488 0.000000
0.809720 0.260533 0.000000
0.829892 0.262791 0.000000
0.850370 0.265324 0.000000
0.871275 0.267887 0.000000
0.892729 0.270237 0.000000
0.914824 0.272557 0.000000
0.000000 0.307530 0.138155
0.000000 0.307622 0.137911
0.000000 0.307774 0.137118
0.000000 0.308263 0.135470
0.000000 0.308721 0.132509
0.000000 0.308507 0.122194
0.000000 0.303960 0.083986
0.091829 0.295354 0.085206
0.215488 0.283696 0.107973
0.275731 0.270756 0.128817
0.311498 0.258793 0.150210
0.352331 0.269322 0.151919
0.408881 0.287297 0.125307
0.462776 0.298009 0.091005
0.511955 0.304021 0.000000
0.555627 0.306584 0.000000
0.590478 0.306340 0.000000
0.617945 0.304417 0.000000
0.643397 0.302770 0.000000
0.666835 0.300877 0.000000
0.688441 0.299168 0.000000
0.708675 0.297185 0.000000
0.728359 0.295995 0.000000
0.748043 0.295384 0.000000
0.767727 0.295598 0.000000
0.787594 0.296117 0.000000
0.807614 0.297246 0.000000
0.827970 0.298528 0.000000
0.848600 0.300053 0.000000
0.869627 0.301640 0.000000
0.891234 0.303136 0.000000
0.913451 0.304509 0.000000
0.000000 0.347356 0.153384
0.000000 0.347417 0.153140
0.000000 0.347601 0.152224
0.000000 0.347936 0.150820
0.000000 0.348425 0.148074
0.000000 0.349248 0.144381
0.000000 0.346563 0.119814
0.000000 0.341741 0.058900
0.143648 0.331762 0.098116
0.250828 0.319860 0.121431
0.310124 0.307195 0.143679
0.345800 0.294347 0.165713
0.382269 0.301030 0.176303
0.437110 0.320409 0.150820
0.488380 0.332494 0.120150
0.533959 0.339574 0.067903
0.574975 0.343206 0.000000
0.612207 0.344579 0.000000
0.639918 0.343084 0.000000
0.663203 0.340703 0.000000
0.684779 0.338109 0.000000
0.705043 0.335760 0.000000
0.724941 0.333989 0.000000
0.744839 0.332769 0.000000
0.764767 0.332219 0.000000
0.784756 0.332250 0.000000
0.804990 0.332555 0.000000
0.825528 0.333135 0.000000
0.846311 0.333776 0.000000
0.867552 0.334752 0.000000
0.889311 0.335546 0.000000
0.911711 0.336217 0.000000
0.000000 0.385595 0.169528
0.000000 0.385657 0.169497
0.000000 0.385748 0.168551
0.000000 0.385992 0.167361
0.000000 0.386450 0.164950
0.000000 0.387030 0.161837
0.000000 0.386969 0.152285
0.000000 0.383093 0.116182
0.000000 0.376745 0.086732
0.192508 0.366430 0.113466
0.287297 0.354742 0.137270
0.344579 0.342199 0.159945
0.378088 0.327855 0.181216
0.408515 0.328893 0.200595
0.460700 0.349401 0.176089
0.508476 0.362799 0.148409
0.551385 0.371069 0.114199
0.590265 0.375921 0.032715
0.625696 0.377813 0.000000
0.657313 0.376898 0.000000
0.679011 0.374060 0.000000
0.699489 0.371252 0.000000
0.719692 0.369085 0.000000
0.739864 0.367590 0.000000
0.760067 0.366644 0.000000
0.780331 0.366064 0.000000
0.800870 0.366033 0.000000
0.821683 0.366125 0.000000
0.842771 0.366400 0.000000
0.864347 0.366705 0.000000
0.886351 0.367041 0.000000
0.908995 0.367285 0.000000
0.000000 0.420691 0.186496
0.000000 0.420722 0.186343
0.000000 0.420966 0.185763
0.000000 0.421180 0.184543
0.000000 0.421607 0.182589
0.000000 0.422339 0.179660
0.000000 0.423072 0.175967
0.000000 0.420874 0.153079
0.000000 0.416632 0.111269
0.000000 0.408820 0.105135
0.237003 0.398169 0.130343
0.322118 0.386450 0.154025
0.376562 0.374304 0.176669
0.411353 0.362371 0.199313
0.435767 0.357885 0.227054
0.484504 0.379278 0.203525
0.528893 0.393591 0.177890
0.569085 0.402960 0.148226
0.605982 0.408576 0.109895
0.639124 0.410590 0.005951
0.669123 0.409613 0.000000
0.695308 0.406958 0.000000
0.715816 0.404517 0.000000
0.736202 0.402716 0.000000
0.756588 0.401312 0.000000
0.777127 0.400275 0.000000
0.797848 0.399756 0.000000
0.818814 0.399359 0.000000
0.840116 0.399084 0.000000
0.861875 0.398901 0.000000
0.884123 0.398718 0.000000
0.907012 0.398413 0.000000
0.000000 0.455177 0.204929
0.000000 0.455238 0.204898
0.000000 0.455299 0.204196
0.000000 0.455573 0.203250
0.000000 0.456031 0.201511
0.000000 0.456489 0.198886
0.000000 0.457008 0.195621
0.000000 0.457130 0.187350
0.000000 0.453407 0.153628
0.000000 0.449042 0.106111
0.129335 0.439887 0.124880
0.279484 0.429206 0.149447
0.356542 0.417853 0.172671
0.407813 0.406317 0.195560
0.441718 0.395026 0.218021
0.465980 0.390509 0.245762
0.505638 0.407538 0.231846
0.546777 0.422675 0.207736
0.584863 0.433051 0.181033
0.619348 0.438788 0.149477
0.650599 0.440894 0.109224
0.679866 0.440620 0.000000
0.708064 0.438972 0.000000
0.732113 0.436561 0.000000
0.752712 0.434943 0.000000
0.773495 0.433600 0.000000
0.794430 0.432593 0.000000
0.815640 0.431769 0.000000
0.837156 0.431159 0.000000
0.859159 0.430579 0.000000
0.881590 0.430030 0.000000
0.904753 0.429358 0.000000
0.000000 0.487373 0.223972
0.000000 0.487434 0.223819
0.000000 0.487556 0.223423
0.000000 0.487770 0.222477
0.000000 0.488075 0.220859
0.000000 0.488533 0.218662
0.000000 0.489021 0.215640
0.000000 0.489631 0.211887
0.000000 0.487770 0.191104
0.000000 0.483955 0.154299
0.000000 0.478462 0.120363
0.203128 0.468818 0.146120
0.319127 0.458259 0.169894
0.388342 0.447578 0.192813
0.436316 0.436652 0.215427
0.468696 0.426093 0.237919
0.492866 0.422156 0.264652
0.524224 0.434363 0.260563
0.562890 0.450355 0.237797
0.598444 0.460914 0.213291
0.630793 0.466896 0.186252
0.661158 0.469856 0.154604
0.690394 0.470741 0.112062
0.719020 0.470008 0.000000
0.747127 0.467872 0.000000
0.769528 0.466102 0.000000
0.790707 0.464820 0.000000
0.812161 0.463630 0.000000
0.833921 0.462623 0.000000
0.856077 0.461677 0.000000
0.878813 0.460761 0.000000
0.902159 0.459754 0.000000
0.000000 0.518181 0.243412
0.000000 0.518242 0.243381
0.000000 0.518242 0.242832
0.000000 0.518425 0.242008
0.000000 0.518700 0.240574
0.000000 0.519005 0.238590
0.000000 0.519402 0.235935
0.000000 0.519890 0.232547
0.000000 0.519982 0.225742
0.000000 0.516625 0.194827
0.000000 0.512627 0.155673
0.000000 0.505760 0.143984
0.257267 0.496315 0.168032
0.354284 0.486275 0.191165
0.417456 0.476051 0.213931
0.461677 0.465919 0.236393
0.492439 0.456001 0.258610
0.516503 0.452674 0.284215
0.540948 0.460029 0.289433
0.577050 0.476417 0.267857
0.610315 0.487190 0.245518
0.641596 0.493996 0.221256
0.671565 0.498054 0.194217
0.701015 0.500023 0.161349
0.729976 0.500298 0.115419
0.758663 0.498939 0.000000
0.786709 0.496223 0.000000
0.808347 0.494820 0.000000
0.830381 0.493507 0.000000
0.852873 0.492287 0.000000
0.875914 0.491096 0.000000
0.899626 0.489876 0.000000
0.000000 0.546990 0.263096
0.000000 0.546960 0.263035
0.000000 0.547021 0.262608
0.000000 0.547143 0.261784
0.000000 0.547326 0.260533
0.000000 0.547539 0.258762
0.000000 0.547814 0.256413
0.000000 0.548241 0.253422
0.000000 0.548699 0.249699
0.000000 0.547143 0.231846
0.000000 0.543725 0.199069
0.000000 0.539788 0.158175
0.135805 0.531884 0.167819
0.302647 0.522606 0.190921
0.386236 0.513146 0.213474
0.443153 0.503563 0.235691
0.484138 0.494057 0.257725
0.513298 0.484688 0.279820
0.535912 0.480415 0.304387
0.555993 0.484596 0.318120
0.589685 0.501152 0.298344
0.621454 0.512657 0.277806
0.651942 0.520470 0.256168
0.681941 0.525780 0.231937
0.711604 0.528862 0.203922
0.741024 0.530083 0.169467
0.770413 0.529381 0.119753
0.799649 0.526970 0.000000
0.826688 0.523919 0.000000
0.849516 0.522484 0.000000
0.872862 0.521080 0.000000
0.896910 0.519585 0.000000
0.000000 0.572961 0.282383
0.000000 0.572961 0.282292
0.000000 0.571832 0.280949
0.000000 0.571893 0.280308
0.000000 0.572076 0.279240
0.000000 0.572290 0.277653
0.000000 0.572534 0.275456
0.000000 0.572869 0.272831
0.000000 0.573266 0.269596
0.000000 0.573449 0.264378
0.000000 0.570520 0.236362
0.000000 0.567193 0.203128
0.000000 0.562890 0.169223
0.219760 0.554437 0.191653
0.340307 0.545769 0.213931
0.413092 0.537102 0.235782
0.465034 0.528283 0.257633
0.503258 0.519646 0.279271
0.531304 0.511162 0.300877
0.552544 0.506218 0.324529
0.569299 0.507744 0.346715
0.601190 0.524865 0.328740
0.631769 0.537133 0.310277
0.662074 0.546258 0.290562
0.692164 0.552789 0.268894
0.722164 0.557031 0.244419
0.752163 0.559136 0.215396
0.782284 0.559258 0.178500
0.812528 0.557458 0.124788
0.843107 0.553704 0.000000
0.869718 0.550744 0.000000
0.894133 0.549157 0.000000
0.000000 0.596735 0.301244
0.000000 0.596674 0.301091
0.000000 0.596582 0.300572
0.000000 0.596582 0.299992
0.000000 0.596643 0.298985
0.000000 0.596796 0.297551
0.000000 0.597040 0.295659
0.000000 0.597314 0.293309
0.000000 0.597681 0.290379
0.000000 0.598077 0.287053
0.000000 0.596857 0.271855
0.000000 0.593988 0.243442
0.000000 0.590661 0.209812
0.000000 0.585351 0.195987
0.277440 0.577356 0.217563
0.374151 0.569299 0.239078
0.438025 0.561273 0.260288
0.485328 0.553246 0.281590
0.521324 0.545281 0.302831
0.547967 0.537530 0.323888
0.568170 0.532006 0.346441
0.582055 0.531182 0.376776
0.612482 0.548669 0.360327
0.642603 0.562097 0.343389
0.672663 0.572412 0.325475
0.702968 0.579980 0.305943
0.733272 0.585229 0.284398
0.763943 0.588220 0.259281
0.794858 0.589044 0.229160
0.826200 0.587884 0.190127
0.858091 0.584619 0.130373
0.890532 0.579065 0.000000
0.000000 0.620813 0.321050
0.000000 0.620752 0.320867
0.000000 0.620661 0.320470
0.000000 0.620661 0.319860
0.000000 0.620691 0.318975
0.000000 0.620813 0.317723
0.000000 0.621057 0.315923
0.000000 0.621332 0.314000
0.000000 0.621668 0.311498
0.000000 0.622065 0.308537
0.000000 0.622522 0.304906
0.000000 0.619928 0.279911
0.000000 0.617029 0.251469
0.000000 0.613733 0.218997
0.170871 0.607477 0.223117
0.321630 0.599969 0.243992
0.402991 0.592493 0.264866
0.460456 0.585077 0.285679
0.504112 0.577661 0.306523
0.537804 0.570367 0.327214
0.563409 0.563165 0.347906
0.582391 0.557031 0.369360
0.597192 0.557763 0.400549
0.623468 0.572503 0.392798
0.653315 0.587060 0.377325
0.683558 0.598444 0.361059
0.714046 0.607050 0.343572
0.744961 0.613214 0.324285
0.776242 0.617090 0.302678
0.808072 0.618830 0.277104
0.840635 0.618372 0.245640
0.873930 0.615625 0.203464
0.000000 0.645014 0.341375
0.000000 0.644923 0.341222
0.000000 0.644831 0.340826
0.000000 0.644831 0.340276
0.000000 0.644923 0.339513
0.000000 0.645014 0.338384
0.000000 0.645258 0.336919
0.000000 0.645502 0.335088
0.000000 0.645869 0.332891
0.000000 0.646235 0.330205
0.000000 0.646693 0.327184
0.000000 0.645808 0.314458
0.000000 0.643275 0.289342
0.000000 0.640345 0.261143
0.000000 0.637110 0.230198
0.246494 0.630091 0.250523
0.357641 0.623011 0.270787
0.428351 0.615961 0.291173
0.480537 0.609003 0.311437
0.521080 0.602014 0.331823
0.553094 0.595087 0.352270
0.577783 0.588312 0.372717
0.595880 0.581659 0.393225
0.611719 0.583978 0.424292
0.634150 0.596063 0.425360
0.663935 0.611658 0.411566
0.694209 0.624018 0.397070
0.725124 0.633539 0.381415
0.756588 0.640620 0.364538
0.788785 0.645411 0.345617
0.821744 0.648005 0.323857
0.855528 0.648432 0.297704
0.000000 0.668727 0.361608
0.000000 0.668727 0.361547
0.000000 0.668696 0.361303
0.000000 0.668788 0.360845
0.000000 0.668910 0.360174
0.000000 0.669062 0.359228
0.000000 0.669276 0.357946
0.000000 0.669612 0.356329
0.000000 0.669886 0.354345
0.000000 0.670314 0.352026
0.000000 0.670710 0.349310
0.000000 0.671168 0.346166
0.000000 0.669062 0.324620
0.000000 0.666529 0.299748
0.000000 0.663661 0.272282
0.037873 0.659480 0.257877
0.296147 0.652888 0.277775
0.387701 0.646296 0.297856
0.450782 0.639796 0.317906
0.499092 0.633265 0.338048
0.537316 0.626795 0.358251
0.567956 0.620386 0.378668
0.591974 0.614038 0.399176
0.609949 0.607935 0.419440
0.626703 0.611017 0.448737
0.645747 0.620417 0.457984
0.675471 0.636957 0.446143
0.706081 0.650294 0.433875
0.737453 0.660853 0.420905
0.769711 0.668971 0.406989
0.802884 0.674830 0.391455
0.837095 0.678462 0.373602
0.000000 0.693233 0.383001
0.000000 0.693202 0.382940
0.000000 0.693233 0.382727
0.000000 0.693263 0.382300
0.000000 0.693355 0.381689
0.000000 0.693538 0.380865
0.000000 0.693782 0.379644
0.000000 0.694026 0.378210
0.000000 0.694362 0.376501
0.000000 0.694728 0.374395
0.000000 0.695125 0.371923
0.000000 0.695613 0.369207
0.000000 0.695003 0.358373
0.000000 0.692775 0.336095
0.000000 0.690242 0.311620
0.000000 0.687526 0.285313
0.199710 0.682612 0.286320
0.334722 0.676448 0.305974
0.413550 0.670344 0.325719
0.471229 0.664210 0.345647
0.516472 0.658137 0.365820
0.553033 0.652094 0.386114
0.582544 0.646113 0.406317
0.606073 0.640253 0.426154
0.624262 0.634882 0.446113
0.642023 0.638636 0.473701
0.658045 0.645319 0.490669
0.688167 0.662684 0.480781
0.719203 0.676967 0.470832
0.751400 0.688502 0.460456
0.784604 0.697749 0.449653
0.818875 0.704799 0.438025
0.000000 0.717494 0.404395
0.000000 0.717464 0.404303
0.000000 0.717464 0.404089
0.000000 0.717556 0.403784
0.000000 0.717678 0.403265
0.000000 0.717922 0.402564
0.000000 0.718166 0.401587
0.000000 0.718502 0.400397
0.000000 0.718837 0.398871
0.000000 0.719265 0.397040
0.000000 0.719753 0.394965
0.000000 0.720272 0.392493
0.000000 0.720851 0.389776
0.000000 0.719142 0.371160
0.000000 0.717006 0.349157
0.000000 0.714656 0.325566
0.000000 0.712062 0.300694
0.260929 0.706630 0.315953
0.366918 0.700923 0.335515
0.437140 0.695216 0.355352
0.490608 0.689540 0.375433
0.533410 0.683864 0.395483
0.568475 0.678279 0.415290
0.597253 0.672816 0.434791
0.620630 0.667445 0.454078
0.638880 0.662257 0.473121
0.657435 0.666072 0.499397
0.671260 0.670771 0.524132
0.701961 0.689052 0.516289
0.733913 0.704280 0.508721
0.767178 0.716976 0.501274
0.801663 0.727382 0.494026
0.000000 0.742519 0.426886
0.000000 0.742489 0.426764
0.000000 0.742489 0.426612
0.000000 0.742519 0.426307
0.000000 0.742641 0.425818
0.000000 0.742824 0.425208
0.000000 0.743069 0.424292
0.000000 0.743282 0.423102
0.000000 0.743618 0.421698
0.000000 0.744015 0.420050
0.000000 0.744411 0.418189
0.000000 0.744961 0.416022
0.000000 0.745510 0.413550
0.000000 0.745235 0.404730
0.000000 0.743374 0.384833
0.000000 0.741360 0.363592
0.000000 0.739132 0.341161
0.112581 0.736110 0.326970
0.305486 0.730800 0.346532
0.394965 0.725521 0.366400
0.458778 0.720211 0.386206
0.508629 0.714992 0.405798
0.549432 0.709834 0.425299
0.583459 0.704738 0.444465
0.611902 0.699702 0.463508
0.635401 0.694789 0.482277
0.654108 0.690089 0.500969
0.672938 0.693233 0.526848
0.685420 0.696956 0.559319
0.717128 0.716213 0.553948
0.750301 0.732631 0.549340
0.784237 0.745693 0.544274
0.000000 0.767514 0.449531
0.000000 0.767514 0.449470
0.000000 0.767483 0.449348
0.000000 0.767575 0.449042
0.000000 0.767697 0.448646
0.000000 0.767880 0.448035
0.000000 0.768124 0.447242
0.000000 0.768399 0.446296
0.000000 0.768704 0.445075
0.000000 0.769070 0.443641
0.000000 0.769558 0.441932
0.000000 0.770047 0.439979
0.000000 0.770626 0.437873
0.000000 0.771298 0.435492
0.000000 0.770016 0.419684
0.000000 0.768276 0.400366
0.000000 0.766354 0.380346
0.000000 0.764279 0.359655
0.213321 0.760647 0.359625
0.341985 0.755764 0.379217
0.420050 0.751003 0.398688
0.478676 0.746212 0.418006
0.525902 0.741482 0.437140
0.565484 0.736782 0.456214
0.598993 0.732204 0.475105
0.627466 0.727718 0.493874
0.651362 0.723384 0.512871
0.670863 0.719203 0.531853
0.690089 0.721767 0.557336
0.704921 0.727443 0.591974
0.733974 0.744289 0.593927
0.767514 0.760464 0.590845
0.000000 0.793057 0.473030
0.000000 0.793027 0.472999
0.000000 0.793057 0.472877
0.000000 0.793118 0.472572
0.000000 0.793210 0.472206
0.000000 0.793362 0.471656
0.000000 0.793515 0.470924
0.000000 0.793698 0.469947
0.000000 0.793942 0.468757
0.000000 0.794217 0.467384
0.000000 0.794614 0.465827
0.000000 0.795041 0.464027
0.000000 0.795560 0.462043
0.000000 0.796139 0.459937
0.000000 0.796139 0.452888
0.000000 0.794614 0.435462
0.000000 0.792996 0.417517
0.000000 0.791196 0.398993
0.000000 0.789303 0.380438
0.268315 0.785336 0.392554
0.371496 0.780972 0.411749
0.442054 0.776638 0.430854
0.497292 0.772366 0.449958
0.542901 0.768185 0.468940
0.581750 0.764065 0.487984
0.615290 0.760037 0.507134
0.644190 0.756161 0.526452
0.668757 0.752285 0.545647
0.688685 0.748257 0.564324
0.707820 0.749447 0.588281
0.724727 0.756100 0.622583
0.751339 0.770901 0.632868
0.000000 0.818326 0.496681
0.000000 0.818357 0.496620
0.000000 0.818387 0.496590
0.000000 0.818448 0.496345
0.000000 0.818601 0.496071
0.000000 0.818753 0.495644
0.000000 0.818997 0.495064
0.000000 0.819242 0.494301
0.000000 0.819577 0.493385
0.000000 0.819974 0.492287
0.000000 0.820401 0.491096
0.000000 0.820890 0.489631
0.000000 0.821500 0.488045
0.000000 0.822171 0.486305
