20 Preset/Ocident style/【3】LUT video cho PR-AE-FCPX/Ocident style 5/Tone  (6).cube
# Created by Adobe Lightroom plugin Export LUT (1.24.0)
# www.johnrellis.com/lightroom/exportlut.htm
# Preset: Cvatik_Artemis_10
# Color profile: E:\lut插件\exportlut.1.24\exportlut.lrplugin\color profiles\Rec709gamma2.4.icc
LUT_3D_SIZE 8
DOMAIN_MIN 0.000000 0.000000 0.000000
DOMAIN_MAX 0.903226 0.903226 0.903226
0.080140 0.071870 0.052949
0.119448 0.076814 0.054566
0.198672 0.094118 0.076967
0.323064 0.096620 0.092042
0.459205 0.111421 0.105379
0.611322 0.148165 0.123659
0.749874 0.201724 0.154147
0.838010 0.261906 0.206241
0.093141 0.125826 0.059144
0.123934 0.127687 0.065003
0.195438 0.135409 0.094148
0.323674 0.141665 0.101503
0.458228 0.160342 0.114900
0.609979 0.194339 0.131930
0.743648 0.238224 0.160952
0.833097 0.289036 0.213016
0.109468 0.228885 0.089113
0.136477 0.232059 0.087343
0.229709 0.232059 0.092348
0.345586 0.240391 0.119997
0.475319 0.288151 0.163058
0.626459 0.328557 0.176211
0.749264 0.362432 0.210239
0.828000 0.395819 0.268803
0.175113 0.373541 0.102815
0.196872 0.377356 0.097780
0.268254 0.388190 0.086427
0.367559 0.389288 0.098665
0.477943 0.402289 0.118929
0.631922 0.482246 0.234257
0.733761 0.525658 0.332464
0.799222 0.545434 0.393713
0.127108 0.556176 0.084321
0.154147 0.559258 0.070192
0.236088 0.571557 0.013336
0.353826 0.579980 0.005066
0.474372 0.571862 0.073854
0.575219 0.555261 0.111116
0.702083 0.608881 0.298466
0.750179 0.673945 0.534600
0.000000 0.696162 0.170382
0.071595 0.699092 0.172000
0.197910 0.704616 0.166842
0.312688 0.710780 0.173007
0.434791 0.707790 0.185092
0.549126 0.699733 0.200259
0.656641 0.691920 0.217258
0.742550 0.703944 0.408545
0.220981 0.779049 0.331762
0.232517 0.779812 0.332586
0.271641 0.781918 0.332219
0.339452 0.784817 0.339727
0.423011 0.786496 0.354131
0.517357 0.781704 0.363684
0.610101 0.776181 0.376074
0.704677 0.773770 0.396521
0.405219 0.835264 0.527428
0.408362 0.835477 0.527611
0.422492 0.836545 0.529107
0.453193 0.837919 0.537072
0.492927 0.837736 0.543999
0.548852 0.836912 0.557305
0.609888 0.834623 0.568353
0.672877 0.831724 0.578759
0.086671 0.094484 0.102358
0.118502 0.091371 0.107637
0.187747 0.103883 0.116701
0.317144 0.095003 0.127565
0.451209 0.101137 0.141665
0.600916 0.130007 0.158145
0.736751 0.183169 0.181857
0.829679 0.250401 0.224430
0.102510 0.126436 0.108766
0.124025 0.131167 0.115389
0.200992 0.136721 0.123934
0.324254 0.140841 0.134768
0.454749 0.154849 0.148714
0.602899 0.182803 0.164950
0.734707 0.224826 0.188235
0.826261 0.279973 0.231601
0.122347 0.222385 0.134737
0.142458 0.227176 0.134951
0.225101 0.234653 0.133211
0.342107 0.244144 0.158450
0.468269 0.284306 0.188693
0.614832 0.318639 0.201572
0.737392 0.350896 0.228824
0.820676 0.387884 0.280827
0.175113 0.362493 0.149966
0.193973 0.366461 0.147341
0.260807 0.381689 0.137758
0.358892 0.383368 0.140932
0.467201 0.393622 0.157321
0.618067 0.473457 0.261570
0.723598 0.514855 0.337469
0.793271 0.538018 0.396307
0.123903 0.548638 0.149599
0.149752 0.551293 0.146212
0.228183 0.564996 0.130526
0.344030 0.575677 0.123995
0.467170 0.566339 0.137453
0.569635 0.550439 0.152712
0.696407 0.607111 0.321874
0.743923 0.675410 0.547936
0.000000 0.691127 0.207919
0.070985 0.692561 0.207340
0.195377 0.698482 0.204044
0.308659 0.706416 0.206882
0.430060 0.705653 0.216831
0.545678 0.698421 0.229831
0.653742 0.690547 0.242588
0.738766 0.703883 0.425940
0.227481 0.775875 0.349493
0.236606 0.776150 0.348577
0.273991 0.778317 0.348211
0.339635 0.781949 0.354284
0.422217 0.785031 0.371008
0.515831 0.780270 0.378943
0.607660 0.774441 0.388373
0.701839 0.771908 0.405615
0.407538 0.833524 0.534295
0.411536 0.833921 0.535485
0.425208 0.834958 0.536797
0.454231 0.836667 0.543297
0.498939 0.837888 0.558434
0.551476 0.836973 0.568811
0.610376 0.834348 0.576532
0.672480 0.831449 0.585657
0.071901 0.143923 0.179171
0.095216 0.134432 0.183932
0.197726 0.128573 0.197910
0.294285 0.142367 0.205661
0.427527 0.152316 0.240513
0.585962 0.125246 0.265476
0.730556 0.042756 0.266148
0.822049 0.213870 0.296910
0.106600 0.179721 0.186252
0.127871 0.178225 0.191226
0.198917 0.163394 0.205081
0.303197 0.168887 0.213962
0.433936 0.174624 0.244358
0.589990 0.153079 0.262242
0.727321 0.141115 0.263584
0.820279 0.250767 0.302190
0.154879 0.232029 0.203067
0.173495 0.234775 0.207095
0.238163 0.243931 0.222019
0.337896 0.248386 0.240909
0.465705 0.257328 0.252110
0.608606 0.282292 0.271855
0.730892 0.321538 0.299351
0.813230 0.376715 0.344793
0.213931 0.340276 0.237369
0.225101 0.345586 0.241062
0.260227 0.367987 0.249210
0.345006 0.400122 0.251865
0.470100 0.410529 0.272099
0.610742 0.489052 0.370977
0.713405 0.513268 0.402411
0.782101 0.543786 0.453895
0.116213 0.531640 0.269963
0.155001 0.535546 0.276097
0.223392 0.551019 0.277623
0.321630 0.579034 0.269718
0.455970 0.580102 0.269596
0.569635 0.563073 0.271122
0.683833 0.623651 0.438056
0.726894 0.692470 0.608301
0.125093 0.682094 0.331365
0.149508 0.683833 0.331456
0.218296 0.690089 0.330571
0.310094 0.701717 0.329412
0.420386 0.708583 0.335607
0.537743 0.701320 0.340276
0.647242 0.694087 0.344396
0.725673 0.714199 0.514641
0.284672 0.771054 0.439155
0.290623 0.771481 0.438697
0.316716 0.773617 0.438209
0.365332 0.778378 0.440101
0.435920 0.782895 0.452094
0.519615 0.780941 0.459968
0.606073 0.775937 0.465614
0.696590 0.774228 0.477150
0.435309 0.830350 0.579950
0.437598 0.830564 0.579706
0.449042 0.831693 0.580804
0.473365 0.834287 0.585138
0.511833 0.836088 0.595605
0.560021 0.836576 0.607050
0.614252 0.834287 0.611780
0.672572 0.831601 0.617243
0.000000 0.216953 0.301061
0.000000 0.211246 0.305577
0.150912 0.184939 0.319371
0.332921 0.173709 0.338323
0.432013 0.179660 0.351385
0.541314 0.216495 0.384283
0.686213 0.232731 0.426337
0.796567 0.266514 0.438056
0.055024 0.251377 0.311009
0.115663 0.249119 0.315190
0.177066 0.221561 0.328038
0.332891 0.202640 0.345892
0.435676 0.204593 0.358801
0.544793 0.239109 0.390204
0.688350 0.253513 0.428595
0.796139 0.286687 0.439155
0.172641 0.315282 0.326452
0.193912 0.317754 0.330632
0.254368 0.322515 0.346166
0.327306 0.290898 0.367926
0.444862 0.288548 0.383581
0.557977 0.323522 0.416358
0.700099 0.336095 0.442573
0.795560 0.365728 0.448951
0.227420 0.379278 0.344823
0.238254 0.381781 0.348211
0.278752 0.392157 0.362524
0.348791 0.412512 0.391089
0.446601 0.425116 0.423255
0.588373 0.432410 0.435828
0.696803 0.470436 0.464271
0.768368 0.522698 0.508598
0.252873 0.485389 0.375158
0.259525 0.489418 0.378882
0.287846 0.507836 0.395911
0.341863 0.545830 0.427283
0.434943 0.594842 0.455879
0.559533 0.585657 0.447211
0.651270 0.663172 0.601099
0.715511 0.688167 0.638270
0.195651 0.661952 0.444373
0.212497 0.665370 0.448951
0.263432 0.673274 0.459815
0.366613 0.687373 0.497597
0.434333 0.705653 0.501671
0.529686 0.708797 0.502617
0.632990 0.701869 0.495521
0.703944 0.733669 0.630884
0.371984 0.759945 0.556207
0.378088 0.760708 0.558221
0.393530 0.763851 0.559869
0.423987 0.769802 0.563134
0.469917 0.778103 0.567834
0.533257 0.782712 0.576867
0.605249 0.777981 0.574304
0.686763 0.776852 0.574670
0.475105 0.825406 0.642420
0.477058 0.825711 0.642542
0.485847 0.826993 0.643397
0.503838 0.829648 0.645594
0.531518 0.833371 0.648798
0.573022 0.835874 0.659693
0.620356 0.834257 0.661830
0.673030 0.832029 0.663447
0.000000 0.323003 0.488899
0.000000 0.318059 0.492500
0.000000 0.290318 0.502892
0.272221 0.253239 0.519402
0.445960 0.239384 0.536584
0.570886 0.235660 0.547112
0.653742 0.290867 0.552697
0.743801 0.383978 0.582269
0.000000 0.353063 0.497383
0.000000 0.350683 0.501488
0.109041 0.325689 0.511040
0.266880 0.278416 0.525689
0.443030 0.263951 0.541222
0.571099 0.259007 0.551263
0.653956 0.312230 0.556725
0.741268 0.402289 0.585443
0.000000 0.432837 0.514824
0.000000 0.431434 0.517479
0.182742 0.422461 0.526970
0.280034 0.382055 0.541894
0.429358 0.349584 0.554833
0.566735 0.341161 0.563134
0.650477 0.390021 0.570611
0.734524 0.458778 0.594995
0.078950 0.498268 0.522515
0.125917 0.500175 0.525322
0.221866 0.508904 0.537835
0.329961 0.525017 0.560754
0.420752 0.492561 0.580377
0.555901 0.475441 0.589471
0.637446 0.514916 0.599115
0.726131 0.544701 0.613245
0.193149 0.560601 0.526940
0.209689 0.562707 0.529900
0.266300 0.570459 0.541100
0.351202 0.583368 0.560845
0.445472 0.600824 0.587518
0.531579 0.613092 0.616388
0.633631 0.620478 0.624445
0.711452 0.642817 0.640681
0.315496 0.610529 0.517723
0.321477 0.613214 0.521050
0.345800 0.622644 0.533104
0.390478 0.640955 0.556695
0.457923 0.671901 0.597131
0.531823 0.705470 0.635767
0.614221 0.708888 0.630457
0.686427 0.756649 0.722316
0.370336 0.740719 0.598535
0.375158 0.741421 0.599817
0.395666 0.745083 0.606378
0.438422 0.753140 0.623590
0.505913 0.764034 0.656733
0.547662 0.777340 0.662898
0.605432 0.779873 0.664363
0.676814 0.777920 0.656550
0.484352 0.816922 0.678798
0.489082 0.817136 0.680964
0.508568 0.818143 0.690089
0.529168 0.821744 0.696986
0.551476 0.826627 0.700191
0.583398 0.832364 0.704677
0.625788 0.834073 0.710323
0.672694 0.831693 0.708095
0.000000 0.440070 0.667201
0.000000 0.435981 0.668574
0.000000 0.416022 0.672297
0.092470 0.368627 0.680323
0.366766 0.353155 0.685817
0.531151 0.344762 0.691096
0.657893 0.349035 0.697383
0.722164 0.416785 0.691798
0.000000 0.461158 0.666682
0.000000 0.459327 0.667811
0.000000 0.440314 0.671260
0.146273 0.395270 0.678126
0.364385 0.371099 0.684260
0.527306 0.362829 0.689937
0.654658 0.365698 0.696468
0.719020 0.430610 0.691554
0.000000 0.528405 0.672114
0.000000 0.526879 0.672938
0.142794 0.521202 0.676509
0.266239 0.494270 0.681361
0.369757 0.449714 0.688746
0.518059 0.441444 0.693690
0.645686 0.439185 0.700221
0.708248 0.494362 0.696681
0.139406 0.606744 0.676081
0.173526 0.607843 0.676936
0.263951 0.612940 0.681239
0.357214 0.608942 0.687953
0.433936 0.590448 0.695583
0.513817 0.562951 0.701259
0.628992 0.552544 0.707485
0.688930 0.588861 0.707088
0.249516 0.650721 0.671046
0.264897 0.651637 0.672053
0.319402 0.655604 0.676478
0.397040 0.663935 0.685084
0.474952 0.675715 0.697261
0.531853 0.665827 0.706294
0.612665 0.644953 0.712459
0.672969 0.665339 0.716609
0.325353 0.690211 0.665461
0.335271 0.691279 0.667201
0.367742 0.693507 0.671473
0.419867 0.697475 0.679316
0.481483 0.703426 0.690394
0.546288 0.714046 0.707027
0.604974 0.722225 0.725124
0.679622 0.726314 0.729549
0.424994 0.716854 0.653040
0.429297 0.717464 0.654383
0.444404 0.719020 0.658259
0.471839 0.723720 0.667170
0.509697 0.738949 0.686976
0.558312 0.759396 0.713405
0.611658 0.781674 0.737453
0.671015 0.781643 0.730251
0.492744 0.803220 0.711269
0.494545 0.803555 0.711635
0.503075 0.805600 0.714199
0.520867 0.810147 0.719875
0.550896 0.816770 0.730373
0.598688 0.824216 0.750637
0.633570 0.832822 0.756741
0.674525 0.832609 0.756191
0.000000 0.548669 0.759274
0.000000 0.548974 0.760952
0.148196 0.538231 0.762020
0.244602 0.517357 0.765530
0.342779 0.489052 0.769223
0.472633 0.489357 0.770138
0.589105 0.484932 0.771115
0.694270 0.486061 0.772457
0.000000 0.554986 0.752773
0.106020 0.557244 0.754879
0.175113 0.546624 0.756252
0.250431 0.523430 0.758938
0.335698 0.488624 0.762509
0.464240 0.484169 0.762509
0.581048 0.474739 0.762600
0.688075 0.470192 0.763394
0.222538 0.607965 0.755520
0.239841 0.607965 0.755795
0.294255 0.606287 0.755825
0.342321 0.592035 0.757717
0.382788 0.556176 0.760464
0.474891 0.542962 0.762173
0.580621 0.539910 0.765377
0.683284 0.540154 0.769741
0.338018 0.675441 0.758053
0.344305 0.674403 0.757717
0.371923 0.671626 0.757290
0.424598 0.671015 0.759487
0.466163 0.657771 0.761746
0.505119 0.632959 0.766262
0.584253 0.627619 0.769741
0.674098 0.617639 0.773739
0.384863 0.710780 0.752163
0.387396 0.709682 0.751217
0.409857 0.710536 0.751614
0.453468 0.715908 0.755550
0.499855 0.713954 0.759030
0.538354 0.701167 0.762905
0.583276 0.683711 0.767056
0.666377 0.679194 0.776028
0.417914 0.736324 0.746975
0.423346 0.736934 0.747616
0.442420 0.738613 0.749722
0.476143 0.742123 0.754086
0.519341 0.747402 0.760586
0.571313 0.757595 0.771786
0.606958 0.750423 0.778714
0.665400 0.737667 0.783383
0.460060 0.764828 0.747524
0.464729 0.765682 0.748684
0.477333 0.766445 0.750454
0.501488 0.768643 0.754574
0.533928 0.771450 0.760159
0.574914 0.775967 0.768276
0.621698 0.783963 0.780484
0.668208 0.788083 0.791562
0.519982 0.787472 0.744045
0.522026 0.787808 0.744625
0.531945 0.790005 0.748135
0.545769 0.791592 0.751308
0.564843 0.795163 0.756497
0.593042 0.806546 0.769009
0.635615 0.821378 0.787686
0.680507 0.834653 0.802457
0.345800 0.648890 0.805997
0.351598 0.649104 0.806607
0.358984 0.641138 0.806455
0.384253 0.631586 0.808438
0.415747 0.613184 0.811032
0.475319 0.603571 0.812375
0.553033 0.603235 0.813901
0.634577 0.596429 0.815091
0.350561 0.652125 0.802914
0.356176 0.652399 0.803616
0.365850 0.646174 0.804074
0.387549 0.635279 0.805783
0.417304 0.616571 0.808438
0.473365 0.604578 0.810056
0.549432 0.601343 0.811124
0.631067 0.592340 0.812009
0.378241 0.675257 0.800778
0.385199 0.675898 0.800992
0.407752 0.675898 0.800778
0.430793 0.670954 0.804044
0.449287 0.651911 0.805936
0.485023 0.631220 0.807523
0.553277 0.626917 0.809018
0.629541 0.617670 0.810452
0.411048 0.708248 0.799039
0.417395 0.709041 0.799496
0.435981 0.708919 0.799741
0.471656 0.710780 0.801389
0.495155 0.701442 0.803616
0.512413 0.678676 0.806729
0.565270 0.672084 0.808988
0.631647 0.663722 0.811246
0.447333 0.745022 0.797665
0.451484 0.745327 0.798245
0.460456 0.742763 0.798306
0.487098 0.741787 0.799863
0.522881 0.740047 0.801633
0.548150 0.728939 0.804379
0.576959 0.713283 0.808652
0.635798 0.709194 0.812863
0.478401 0.769162 0.797360
0.479316 0.768612 0.797024
0.486946 0.767910 0.796780
0.506737 0.769070 0.798428
0.538811 0.773068 0.802670
0.580591 0.775113 0.809201
0.612573 0.769955 0.816648
0.652491 0.764126 0.822324
0.527276 0.800626 0.806424
0.528740 0.800565 0.806455
0.535363 0.800473 0.806821
0.549981 0.801114 0.808286
0.572259 0.802426 0.810880
0.602564 0.805234 0.815335
0.641505 0.811032 0.822354
0.664485 0.800412 0.825864
0.547753 0.817472 0.803647
0.548608 0.817380 0.803586
0.554406 0.817563 0.804288
0.567712 0.818753 0.806577
0.586694 0.820188 0.809689
0.611444 0.822080 0.813809
0.644129 0.825406 0.820157
0.684260 0.830350 0.828916
