20 Preset/Ocident style/【3】LUT video cho PR-AE-FCPX/Ocident style 5/Tone  (5).cube
# Created by Adobe Lightroom plugin Export LUT (1.24.0)
# www.johnrellis.com/lightroom/exportlut.htm
# Preset: Cvatik_Artemis_9
# Color profile: E:\lut插件\exportlut.1.24\exportlut.lrplugin\color profiles\Rec709gamma2.4.icc
LUT_3D_SIZE 8
DOMAIN_MIN 0.000000 0.000000 0.000000
DOMAIN_MAX 0.903226 0.903226 0.903226
0.044587 0.056764 0.025269
0.171176 0.072999 0.032929
0.569848 0.000000 0.004883
0.853330 0.000000 0.000000
0.956085 0.197787 0.000000
0.996643 0.352300 0.125643
1.000000 0.444129 0.237888
1.000000 0.496162 0.319707
0.035492 0.202640 0.079774
0.203616 0.213474 0.077760
0.595209 0.149477 0.000000
0.841978 0.162112 0.000000
0.944244 0.288487 0.000000
0.988220 0.384894 0.109957
1.000000 0.453529 0.225498
1.000000 0.501457 0.313054
0.292546 0.630182 0.321141
0.457099 0.637812 0.364385
0.611566 0.594903 0.286839
0.815549 0.557153 0.167971
0.918517 0.513085 0.190890
0.964080 0.531487 0.270817
0.989410 0.552972 0.335912
1.000000 0.558190 0.355474
0.634699 0.770993 0.644709
0.656336 0.771756 0.654261
0.712551 0.773739 0.677211
0.753628 0.753140 0.612787
0.844297 0.731167 0.547601
0.907134 0.693660 0.528222
0.944244 0.669703 0.524773
0.967407 0.657862 0.518853
0.728176 0.821775 0.760952
0.734524 0.822171 0.763851
0.758480 0.824765 0.776699
0.777005 0.821622 0.772519
0.792905 0.805905 0.730648
0.839628 0.789761 0.685298
0.886046 0.767788 0.667536
0.919432 0.744747 0.653162
0.772549 0.844358 0.809873
0.777096 0.845365 0.812955
0.787259 0.846281 0.817685
0.803464 0.848112 0.826108
0.806729 0.842649 0.812406
0.816922 0.834592 0.789395
0.844358 0.826841 0.765255
0.876219 0.813626 0.751461
0.803281 0.857694 0.839750
0.804746 0.857877 0.840543
0.809140 0.858152 0.842344
0.817014 0.858793 0.845975
0.823087 0.858488 0.846464
0.825345 0.855619 0.837339
0.832975 0.852201 0.824430
0.849607 0.847715 0.808316
0.825254 0.865476 0.859342
0.825681 0.865507 0.859525
0.827726 0.865599 0.860410
0.831510 0.865873 0.862211
0.834531 0.865690 0.862821
0.836576 0.865354 0.861265
0.838712 0.864561 0.856687
0.843809 0.863554 0.849454
0.018128 0.084108 0.136049
0.182925 0.093385 0.138735
0.540764 0.000000 0.129397
0.825345 0.091798 0.134463
0.936370 0.286107 0.144564
0.981353 0.390417 0.195193
1.000000 0.453010 0.251408
1.000000 0.490517 0.300725
0.000000 0.217594 0.186893
0.234104 0.233219 0.186099
0.586389 0.221958 0.168856
0.826017 0.260899 0.153750
0.928832 0.353491 0.170169
0.974182 0.426246 0.219913
0.998169 0.472114 0.268009
1.000000 0.498238 0.298222
0.299504 0.609094 0.391455
0.447730 0.616205 0.418616
0.611963 0.595026 0.387274
0.805234 0.559716 0.297368
0.902953 0.531853 0.296849
0.948760 0.545586 0.338689
0.975769 0.561028 0.376684
0.996704 0.569421 0.394873
0.621088 0.759945 0.641291
0.645472 0.761532 0.651911
0.712001 0.769162 0.688167
0.744228 0.742855 0.615412
0.834287 0.718959 0.545739
0.898711 0.683375 0.526268
0.936370 0.664576 0.526085
0.960571 0.657893 0.528099
0.724849 0.818662 0.760159
0.730861 0.818845 0.762509
0.754543 0.821134 0.774289
0.774166 0.818173 0.771572
0.788205 0.800626 0.727108
0.835630 0.784878 0.683162
0.882475 0.764553 0.668177
0.916472 0.743099 0.655665
0.769314 0.842252 0.807645
0.772274 0.842527 0.809018
0.783169 0.843656 0.814206
0.800595 0.845975 0.823545
0.805112 0.840970 0.811521
0.815366 0.833036 0.789364
0.842771 0.825345 0.765560
0.874754 0.812467 0.752041
0.800717 0.856535 0.837827
0.801480 0.856504 0.837980
0.806088 0.856748 0.839811
0.814755 0.857603 0.843961
0.822202 0.857755 0.845792
0.824338 0.854704 0.836484
0.831601 0.850767 0.822568
0.848569 0.846036 0.805722
0.823697 0.865049 0.858244
0.824491 0.865141 0.858671
0.826566 0.865263 0.859586
0.830564 0.865568 0.861479
0.835355 0.865934 0.863859
0.837034 0.865476 0.862089
0.838743 0.864530 0.857053
0.843748 0.863462 0.849821
0.000000 0.121218 0.503136
0.000000 0.129183 0.497566
0.592035 0.156527 0.481819
0.810056 0.362005 0.459663
0.894835 0.457038 0.444160
0.933959 0.538750 0.482551
0.956817 0.580529 0.510155
0.978271 0.593835 0.511406
0.000000 0.310826 0.547204
0.083314 0.286961 0.539483
0.613458 0.347417 0.513390
0.787655 0.453010 0.484810
0.884550 0.498329 0.466041
0.926055 0.558068 0.496254
0.952605 0.587518 0.513268
0.974792 0.599695 0.515435
0.248631 0.622400 0.606012
0.399298 0.622736 0.603143
0.635431 0.624231 0.591363
0.775601 0.612512 0.561181
0.858793 0.617212 0.551598
0.904692 0.629450 0.558343
0.933898 0.639673 0.566552
0.957824 0.642573 0.564843
0.594903 0.754269 0.680568
0.625940 0.755886 0.688014
0.706691 0.763333 0.716548
0.747127 0.752438 0.695827
0.820645 0.734676 0.657832
0.875120 0.713100 0.643854
0.905303 0.708766 0.644251
0.930297 0.703059 0.638361
0.719600 0.814878 0.769314
0.727260 0.815030 0.772091
0.753079 0.817624 0.783413
0.782132 0.821500 0.795743
0.789975 0.804868 0.760067
0.830259 0.791623 0.727993
0.870237 0.776089 0.717739
0.901274 0.760006 0.707790
0.769619 0.840208 0.812436
0.773220 0.840421 0.814145
0.783352 0.841794 0.818479
0.800443 0.844388 0.827054
0.807675 0.841398 0.821408
0.815091 0.833371 0.801511
0.839963 0.827115 0.782925
0.868498 0.817563 0.774807
0.802365 0.856229 0.841123
0.803189 0.856229 0.841306
0.807431 0.856443 0.842832
0.815640 0.857267 0.846494
0.824643 0.858244 0.850431
0.826108 0.855344 0.842222
0.832395 0.851835 0.830472
0.847837 0.848051 0.817166
0.824308 0.864988 0.859495
0.824704 0.864958 0.859556
0.826719 0.865080 0.860410
0.831022 0.865507 0.862547
0.835782 0.865934 0.864866
0.838254 0.865782 0.864378
0.839689 0.864927 0.859953
0.844083 0.863920 0.853452
0.000000 0.203128 0.747005
0.000000 0.222629 0.746578
0.524743 0.297093 0.731411
0.778988 0.463264 0.712154
0.850065 0.593561 0.679377
0.865110 0.651881 0.673426
0.899504 0.668696 0.669673
0.922332 0.683314 0.672572
0.000000 0.397314 0.755093
0.004852 0.384558 0.753567
0.564263 0.441505 0.737057
0.769650 0.540459 0.718166
0.839353 0.625574 0.690730
0.857877 0.667109 0.683040
0.896269 0.677028 0.676112
0.919432 0.689357 0.677852
0.444739 0.652125 0.761624
0.504021 0.656245 0.759640
0.626734 0.652216 0.747372
0.749447 0.670069 0.730892
0.810422 0.697078 0.718624
0.850584 0.706264 0.710140
0.882109 0.718441 0.713954
0.907500 0.719448 0.707485
0.608392 0.761166 0.772122
0.626581 0.761227 0.771145
0.684901 0.762173 0.768276
0.751553 0.762692 0.762722
0.800137 0.755428 0.749935
0.838224 0.752407 0.742672
0.868528 0.751949 0.739010
0.893889 0.749447 0.732937
0.699123 0.809567 0.785641
0.707546 0.809720 0.786770
0.738430 0.811887 0.793271
0.779599 0.817655 0.807828
0.793332 0.810727 0.796811
0.824704 0.802152 0.780606
0.855741 0.792874 0.774289
0.878050 0.787045 0.768490
0.764981 0.839536 0.819760
0.769955 0.840360 0.822080
0.781857 0.840665 0.825650
0.800381 0.842802 0.833249
0.814603 0.844755 0.838163
0.817044 0.836301 0.821225
0.837644 0.831632 0.808652
0.860533 0.825223 0.804318
0.799741 0.855772 0.843412
0.801511 0.855894 0.844144
0.808042 0.856077 0.846830
0.817044 0.857053 0.850706
0.826963 0.858701 0.855589
0.829587 0.856931 0.851408
0.833555 0.853330 0.841184
0.846860 0.850401 0.831449
0.824491 0.865171 0.861295
0.825254 0.865171 0.861631
0.828244 0.865202 0.863035
0.831785 0.865537 0.864469
0.836484 0.865995 0.866575
0.840116 0.866270 0.867735
0.841123 0.865476 0.864134
0.844755 0.864652 0.858976
0.000000 0.355840 0.830442
0.000000 0.378607 0.829099
0.502800 0.452705 0.820432
0.705257 0.553948 0.804898
0.815396 0.640986 0.794858
0.853300 0.705409 0.776333
0.861570 0.731807 0.766384
0.868833 0.757107 0.775021
0.290227 0.496895 0.826444
0.360815 0.501396 0.825956
0.556146 0.545617 0.818235
0.710109 0.602441 0.804288
0.810575 0.664088 0.795651
0.848814 0.716976 0.779812
0.858213 0.738552 0.770016
0.868711 0.759030 0.776089
0.579095 0.685023 0.819455
0.600824 0.688533 0.818112
0.647120 0.686366 0.814511
0.726589 0.700465 0.805570
0.797879 0.720485 0.797635
0.833341 0.745754 0.786496
0.847166 0.758267 0.780056
0.868315 0.764858 0.778439
0.661494 0.766140 0.821897
0.672450 0.767819 0.821500
0.710506 0.774594 0.820462
0.750515 0.774166 0.814572
0.791928 0.777188 0.807523
0.818479 0.783200 0.801083
0.840024 0.783658 0.795224
0.865171 0.783139 0.790921
0.713649 0.811612 0.824735
0.719387 0.811948 0.824674
0.739071 0.812711 0.824033
0.767117 0.813474 0.822660
0.794217 0.812802 0.819425
0.816953 0.808713 0.813321
0.839780 0.806394 0.809110
0.860502 0.804105 0.804929
0.747219 0.833494 0.825986
0.750088 0.833402 0.826108
0.759762 0.832486 0.825589
0.781949 0.834470 0.829618
0.807950 0.839017 0.838560
0.816892 0.836637 0.834409
0.836027 0.834165 0.828122
0.854704 0.829923 0.825559
0.788968 0.854307 0.844663
0.790188 0.854276 0.844785
0.796414 0.854307 0.846006
0.809354 0.854948 0.849973
0.823392 0.856535 0.855650
0.831724 0.857694 0.858305
0.833646 0.853727 0.849363
0.845884 0.851255 0.842100
0.815366 0.864836 0.859007
0.816434 0.864805 0.859342
0.820706 0.864744 0.860838
0.828672 0.865049 0.864256
0.835233 0.865568 0.867155
0.840665 0.866331 0.869749
0.842100 0.865782 0.867643
0.844907 0.864897 0.863188
0.402258 0.535180 0.858854
0.448249 0.547845 0.857633
0.565820 0.586877 0.852323
0.684932 0.642939 0.844938
0.770291 0.687831 0.835782
0.830503 0.728359 0.831449
0.853758 0.764187 0.821317
0.860838 0.784512 0.818021
0.491066 0.595239 0.853483
0.512474 0.599054 0.852720
0.595758 0.624567 0.848661
0.691188 0.662104 0.842069
0.769253 0.697078 0.833707
0.827726 0.733120 0.829953
0.851652 0.766354 0.820890
0.859556 0.785183 0.817655
0.653101 0.721736 0.846677
0.657801 0.721096 0.846372
0.678248 0.720302 0.845243
0.723873 0.729854 0.840452
0.775387 0.743709 0.834318
0.821775 0.762875 0.831724
0.845151 0.784909 0.826322
0.854582 0.796567 0.823209
0.710780 0.782620 0.847929
0.716304 0.783597 0.847349
0.737667 0.788327 0.845670
0.760525 0.790127 0.844144
0.788876 0.793393 0.840421
0.818845 0.799161 0.837949
0.838651 0.809873 0.835752
0.848539 0.814267 0.832975
0.740322 0.814633 0.847807
0.743954 0.815244 0.847745
0.757900 0.817716 0.847562
0.779080 0.821714 0.847501
0.796780 0.820523 0.844663
0.816739 0.820890 0.841428
0.832456 0.823941 0.839292
0.844938 0.825071 0.837400
0.764675 0.837308 0.849882
0.767636 0.837797 0.850217
0.775631 0.838224 0.850095
0.788663 0.838926 0.849882
0.803891 0.839536 0.849302
0.820066 0.840330 0.848905
0.834409 0.839445 0.847135
0.847990 0.838437 0.845274
0.787778 0.854246 0.855131
0.789425 0.854368 0.855375
0.794125 0.854246 0.855344
0.802487 0.854032 0.855375
0.816037 0.855100 0.857359
0.831113 0.857328 0.861936
0.835691 0.855955 0.859373
0.846403 0.854673 0.856046
0.809018 0.864714 0.861814
0.809689 0.864683 0.861845
0.813382 0.864683 0.862455
0.820615 0.864958 0.864134
0.830381 0.865202 0.866819
0.839261 0.865812 0.870298
0.843534 0.866392 0.871611
0.845487 0.865537 0.868315
0.567285 0.641993 0.868925
0.584375 0.649500 0.868376
0.631098 0.667933 0.865782
0.694514 0.696895 0.861784
0.752956 0.725185 0.857053
0.801907 0.749111 0.851957
0.840269 0.774166 0.850858
0.855619 0.795804 0.843931
0.591638 0.662898 0.865965
0.605158 0.668635 0.865690
0.643549 0.682582 0.863554
0.697902 0.704433 0.859922
0.752407 0.728145 0.855375
0.799802 0.748440 0.850065
0.838346 0.771267 0.848539
0.854734 0.792020 0.841245
0.681361 0.739590 0.861112
0.684596 0.739773 0.860990
0.697078 0.740169 0.860166
0.728634 0.749844 0.857877
0.765194 0.760800 0.854520
0.802243 0.772152 0.850584
0.835813 0.789273 0.850462
0.851469 0.806455 0.846128
0.734554 0.791562 0.860380
0.737575 0.792233 0.859983
0.750851 0.795956 0.858824
0.762417 0.795163 0.858244
0.783658 0.798611 0.856168
0.808499 0.803281 0.853788
0.833890 0.812192 0.853971
0.847776 0.822416 0.851438
0.756710 0.818601 0.861204
0.758328 0.818723 0.860929
0.767269 0.820401 0.860410
0.782254 0.822873 0.859464
0.795865 0.822812 0.858152
0.812375 0.823575 0.856077
0.831724 0.827329 0.855619
0.845182 0.835935 0.856138
0.775174 0.837217 0.861997
0.777066 0.837583 0.862028
0.783810 0.838834 0.862150
0.795285 0.840970 0.862425
0.808988 0.843534 0.862760
0.821103 0.843961 0.862181
0.834043 0.845182 0.861479
0.843503 0.847807 0.861082
0.794461 0.853239 0.865293
0.795956 0.853513 0.865446
0.800137 0.853880 0.865537
0.807828 0.854643 0.865843
0.817166 0.855467 0.866026
0.827207 0.856352 0.866239
0.836851 0.857176 0.866392
0.845243 0.857267 0.866026
0.810269 0.864958 0.869474
0.811154 0.864958 0.869535
0.814969 0.865141 0.869902
0.820218 0.865141 0.870085
0.826688 0.865110 0.870268
0.835050 0.865537 0.871275
0.843473 0.866453 0.873655
0.846311 0.866423 0.873075
0.654749 0.709499 0.873930
0.661585 0.712856 0.873655
0.680659 0.720119 0.872374
0.715419 0.736355 0.870329
0.753628 0.754788 0.867826
0.789517 0.771817 0.865232
0.821622 0.787076 0.863035
0.847410 0.804349 0.863584
0.662928 0.717647 0.872770
0.669093 0.720577 0.872526
0.687434 0.727779 0.871427
0.718685 0.741390 0.869535
0.754665 0.757839 0.867216
0.789456 0.773373 0.864744
0.820829 0.786984 0.862425
0.846769 0.803342 0.862852
0.705257 0.757046 0.869566
0.707668 0.757565 0.869505
0.715999 0.758633 0.869047
0.740261 0.769039 0.868009
0.766140 0.778073 0.866331
0.793729 0.787198 0.864317
0.821195 0.796994 0.862455
0.845274 0.810239 0.863096
0.745052 0.795651 0.867460
0.748806 0.797391 0.867369
0.754055 0.797696 0.867185
0.763546 0.798306 0.867063
0.781521 0.803159 0.866117
0.801755 0.808164 0.864897
0.823239 0.813748 0.863676
0.843717 0.822873 0.864530
0.758267 0.815305 0.868162
0.760800 0.816129 0.868162
0.767849 0.817685 0.867704
0.783963 0.823026 0.867124
0.794125 0.823301 0.866789
0.808469 0.825498 0.865934
0.825254 0.828611 0.865202
0.842679 0.835355 0.866331
0.776364 0.834684 0.869047
0.777188 0.834714 0.868956
0.781857 0.835569 0.868772
0.792020 0.837980 0.868772
0.804837 0.840391 0.868559
0.818112 0.842985 0.868833
0.830961 0.845945 0.869078
0.843626 0.850217 0.870268
0.795621 0.850431 0.870909
0.796445 0.850553 0.870909
0.800076 0.851102 0.870939
0.807553 0.852537 0.871153
0.817411 0.854582 0.871641
0.828244 0.857176 0.872404
0.837064 0.858701 0.872984
0.844602 0.859739 0.873075
0.813870 0.862364 0.873808
0.814389 0.862394 0.873808
0.816922 0.862669 0.873930
0.822080 0.863340 0.874266
0.828489 0.864195 0.874693
0.835203 0.865110 0.875212
0.841489 0.866056 0.875731
0.846616 0.866728 0.876097
