20 Preset/Ocident style/【3】LUT video cho PR-AE-FCPX/Ocident style 5/Tone  (6).cube
# Created by Adobe Lightroom plugin Export LUT (1.24.0)
# www.johnrellis.com/lightroom/exportlut.htm
# Preset: Cvatik_Artemis_10
# Color profile: E:\lut插件\exportlut.1.24\exportlut.lrplugin\color profiles\Rec709gamma2.4.icc
LUT_3D_SIZE 32
DOMAIN_MIN 0.0 0.0 0.0
DOMAIN_MAX 1.0 1.0 1.0
0.080140 0.071870 0.052949
0.082612 0.071412 0.052949
0.091859 0.070375 0.052705
0.104494 0.069520 0.052094
0.119448 0.076814 0.054566
0.137301 0.081514 0.058900
0.156069 0.087068 0.063691
0.176150 0.090791 0.071290
0.198672 0.094118 0.076967
0.224155 0.096590 0.081117
0.253269 0.098299 0.085481
0.286656 0.098421 0.089326
0.323064 0.096620 0.092042
0.359136 0.096193 0.094697
0.393072 0.098451 0.097719
0.425635 0.104005 0.101595
0.459205 0.111421 0.105379
0.495460 0.119173 0.109834
0.533745 0.127504 0.114168
0.572930 0.136660 0.118715
0.611322 0.148165 0.123659
0.651026 0.161044 0.129885
0.687678 0.174380 0.136812
0.720821 0.187716 0.144747
0.749874 0.201724 0.154147
0.775631 0.215885 0.165072
0.798642 0.230411 0.177310
0.819364 0.245884 0.190982
0.838010 0.261906 0.206241
0.854856 0.279606 0.223301
0.870268 0.298650 0.242618
0.884215 0.319646 0.264347
0.082155 0.072633 0.052796
0.084627 0.072175 0.052766
0.092805 0.072358 0.052399
0.103914 0.075319 0.052461
0.119478 0.080781 0.054932
0.136721 0.085878 0.060273
0.155337 0.089631 0.065217
0.175570 0.093050 0.071656
0.197940 0.096284 0.077363
0.223301 0.098787 0.082094
0.252232 0.100160 0.086549
0.285771 0.099977 0.089174
0.321813 0.098573 0.091920
0.357946 0.098939 0.095247
0.391791 0.100496 0.098360
0.424384 0.106325 0.101808
0.457862 0.113436 0.105959
0.493904 0.121279 0.110079
0.532341 0.129671 0.114382
0.571374 0.138643 0.118959
0.609583 0.149783 0.123690
0.648829 0.161837 0.129641
0.685084 0.175021 0.136690
0.718105 0.188540 0.144442
0.747250 0.201785 0.153597
0.773129 0.215946 0.164187
0.796414 0.230381 0.176181
0.817411 0.245457 0.189731
0.836271 0.261418 0.204837
0.853391 0.278691 0.221866
0.868986 0.297612 0.240818
0.883146 0.318395 0.262516
0.086580 0.086793 0.050019
0.088319 0.087282 0.049866
0.094301 0.087526 0.050599
0.103883 0.089296 0.056214
0.117342 0.093080 0.061830
0.134981 0.095918 0.066011
0.154086 0.098970 0.071931
0.174380 0.101595 0.077424
0.197269 0.104097 0.081331
0.222690 0.106661 0.084962
0.252049 0.108125 0.088319
0.285374 0.108400 0.090761
0.321691 0.107332 0.093446
0.357671 0.107424 0.096345
0.391424 0.109895 0.099641
0.423957 0.115145 0.103029
0.457465 0.122652 0.107271
0.493660 0.129915 0.111269
0.531823 0.138033 0.115450
0.570764 0.147494 0.120089
0.609308 0.157748 0.125002
0.648157 0.169894 0.131044
0.684169 0.182010 0.137636
0.716976 0.195041 0.145541
0.746029 0.208103 0.154543
0.771908 0.221012 0.165011
0.795193 0.235142 0.176913
0.816190 0.249760 0.190402
0.835203 0.265385 0.205447
0.852384 0.282414 0.222354
0.868009 0.300755 0.241550
0.882200 0.321111 0.262974
0.089723 0.104311 0.053315
0.090944 0.104524 0.053162
0.096620 0.104646 0.055055
0.107454 0.105806 0.056092
0.121767 0.106966 0.062440
0.134310 0.109957 0.076905
0.151736 0.113375 0.082307
0.172824 0.116091 0.084840
0.196506 0.118013 0.087739
0.222721 0.120027 0.089540
0.252537 0.121431 0.091646
0.286290 0.122011 0.093965
0.322637 0.122164 0.096223
0.358251 0.123171 0.099306
0.391699 0.125887 0.102327
0.424018 0.131594 0.106081
0.457435 0.138674 0.110018
0.493355 0.146090 0.114015
0.531426 0.154147 0.118166
0.570184 0.162814 0.122591
0.608820 0.173007 0.127382
0.646693 0.183963 0.133150
0.682216 0.195590 0.139803
0.714961 0.207553 0.147555
0.744228 0.219913 0.156527
0.770382 0.232486 0.167208
0.793973 0.245853 0.179477
0.815244 0.259709 0.192996
0.834257 0.274754 0.208255
0.851438 0.291020 0.225376
0.867002 0.308598 0.244450
0.881041 0.328313 0.265873
0.093141 0.125826 0.059144
0.093507 0.126040 0.060121
0.098848 0.126406 0.060731
0.109560 0.127047 0.061921
0.123934 0.127687 0.065003
0.140993 0.127962 0.068971
0.156222 0.129091 0.082277
0.172488 0.132448 0.091890
0.195438 0.135409 0.094148
0.222446 0.137636 0.095583
0.253208 0.139254 0.096986
0.287510 0.140444 0.098909
0.323674 0.141665 0.101503
0.359197 0.143374 0.104189
0.392218 0.147402 0.107668
0.424628 0.153414 0.110842
0.458228 0.160342 0.114900
0.494606 0.167819 0.118563
0.532647 0.175937 0.122469
0.571313 0.184604 0.126864
0.609979 0.194339 0.131930
0.647150 0.205020 0.137728
0.682216 0.215854 0.143954
0.714656 0.226658 0.151827
0.743648 0.238224 0.160952
0.769711 0.249912 0.171695
0.793149 0.261997 0.183932
0.814206 0.274815 0.197604
0.833097 0.289036 0.213016
0.850126 0.304234 0.230259
0.865507 0.320989 0.249302
0.879393 0.339849 0.271031
0.095399 0.148989 0.066499
0.096834 0.149325 0.067323
0.101625 0.149416 0.066957
0.111238 0.150210 0.068025
0.125429 0.150698 0.069978
0.143679 0.150973 0.073762
0.161990 0.150088 0.078065
0.181552 0.151064 0.085939
0.201053 0.153353 0.095369
0.224002 0.157839 0.104402
0.255528 0.160464 0.105928
0.290776 0.162600 0.107546
0.326970 0.164920 0.109529
0.361639 0.168215 0.112123
0.394415 0.173312 0.115450
0.426703 0.179690 0.118563
0.460731 0.186893 0.122042
0.497536 0.194736 0.125460
0.535760 0.203098 0.129335
0.574487 0.211917 0.133455
0.612940 0.222019 0.138582
0.649592 0.231998 0.144198
0.698848 0.249302 0.154604
0.729519 0.259586 0.163729
0.756558 0.269963 0.174075
0.780728 0.280613 0.185824
0.802274 0.291752 0.199130
0.821561 0.303655 0.213657
0.838865 0.316808 0.229923
0.854490 0.331212 0.247868
0.868681 0.347417 0.267887
0.881315 0.365576 0.290196
0.098665 0.174960 0.073274
0.099519 0.175235 0.072969
0.103975 0.175845 0.073274
0.113313 0.176455 0.074342
0.127993 0.176974 0.074983
0.146944 0.177096 0.078523
0.167758 0.177218 0.080507
0.188876 0.175601 0.084596
0.213169 0.176211 0.089296
0.237797 0.178408 0.099733
0.266392 0.183017 0.110231
0.299321 0.189181 0.120516
0.335058 0.192905 0.122225
0.368597 0.197879 0.124147
0.400641 0.203983 0.126772
0.432959 0.211215 0.129641
0.467689 0.219028 0.132540
0.504845 0.227207 0.135653
0.543145 0.235843 0.139437
0.583398 0.246159 0.143740
0.622492 0.256626 0.148806
0.659815 0.267063 0.154879
0.694606 0.277287 0.162387
0.725826 0.287358 0.171481
0.753475 0.296910 0.182254
0.777798 0.306584 0.194583
0.799344 0.316503 0.207797
0.818448 0.327276 0.222629
0.835569 0.339178 0.238956
0.851072 0.352117 0.257023
0.865080 0.367163 0.277195
0.877531 0.384344 0.299840
0.103212 0.200778 0.081910
0.104036 0.201022 0.081727
0.108370 0.201938 0.080232
0.117067 0.202579 0.080781
0.130373 0.203738 0.080720
0.149569 0.203922 0.082246
0.171786 0.203861 0.084199
0.195895 0.203647 0.087190
0.219669 0.202213 0.090364
0.245182 0.201144 0.093172
0.276677 0.204532 0.103456
0.308049 0.209689 0.115816
0.339910 0.217838 0.128756
0.371252 0.227878 0.139223
0.402777 0.235325 0.141299
0.435309 0.243412 0.143557
0.470558 0.251774 0.145876
0.507927 0.260990 0.148470
0.547326 0.270817 0.152071
0.586267 0.280827 0.155795
0.624018 0.290776 0.160678
0.660334 0.300755 0.166629
0.694026 0.310216 0.173892
0.724300 0.319341 0.183291
0.751308 0.327947 0.194339
0.775113 0.336522 0.206638
0.796353 0.345464 0.220096
0.815183 0.354833 0.234958
0.832090 0.365545 0.251743
0.847318 0.377661 0.270146
0.861051 0.391485 0.290654
0.873228 0.407630 0.313573
0.109468 0.228885 0.089113
0.110750 0.229068 0.088991
0.114931 0.229679 0.088136
0.122805 0.231052 0.087526
0.136477 0.232059 0.087343
0.153445 0.233402 0.087251
0.177218 0.233097 0.088258
0.202670 0.232609 0.090486
0.229709 0.232059 0.092348
0.256687 0.230716 0.095064
0.280430 0.227329 0.097749
0.315221 0.233310 0.106477
0.345586 0.240391 0.119997
0.375311 0.251072 0.134859
0.405829 0.264927 0.151125
0.438880 0.278264 0.161349
0.475319 0.288151 0.163058
0.513329 0.298344 0.165316
0.551812 0.308568 0.168032
0.589685 0.318486 0.171695
0.626459 0.328557 0.176211
0.661524 0.337835 0.181979
0.693965 0.346502 0.189578
0.723110 0.354681 0.199130
0.749264 0.362432 0.210239
0.772457 0.369879 0.222629
0.793179 0.377630 0.236393
0.811551 0.386114 0.251865
0.828000 0.395819 0.268803
0.842863 0.406989 0.287694
0.856199 0.419867 0.308721
0.867918 0.435065 0.332158
0.119295 0.259129 0.094301
0.120272 0.259373 0.094148
0.124269 0.259983 0.093690
0.132723 0.261357 0.092622
0.145968 0.262760 0.091310
0.163394 0.263981 0.090700
0.185092 0.264866 0.090791
0.212100 0.264408 0.092439
0.240024 0.263645 0.094667
0.268009 0.262791 0.096895
0.295018 0.261601 0.099428
0.316564 0.258122 0.102815
0.347784 0.265049 0.108064
0.376928 0.274510 0.123537
0.407630 0.287968 0.140017
0.441779 0.304143 0.157565
0.479927 0.323491 0.177005
0.518730 0.338354 0.186282
0.556512 0.349065 0.188693
0.593530 0.359319 0.191714
0.629023 0.369024 0.196170
0.662440 0.377386 0.201724
0.692988 0.385016 0.209140
0.720699 0.391791 0.218509
0.745632 0.398352 0.229465
0.768154 0.404700 0.241825
0.788266 0.411627 0.256016
0.806302 0.419257 0.271550
0.822477 0.428107 0.289158
0.836973 0.438575 0.308812
0.850004 0.450752 0.330327
0.861295 0.465217 0.354498
0.133486 0.291691 0.099062
0.134554 0.291814 0.098573
0.138491 0.292485 0.098024
0.147097 0.293767 0.096895
0.159854 0.295933 0.095033
0.177707 0.297337 0.094118
0.198428 0.299046 0.093080
0.224094 0.299565 0.093172
0.251682 0.298924 0.095216
0.278996 0.298222 0.097383
0.304662 0.297612 0.099641
0.329168 0.297520 0.102388
0.348882 0.293736 0.106752
0.374762 0.298344 0.110048
0.407782 0.312810 0.124941
0.441840 0.328222 0.142885
0.479500 0.346227 0.162539
0.519249 0.366644 0.184085
0.559197 0.388891 0.208316
0.596063 0.402075 0.216770
0.630426 0.411139 0.220737
0.662287 0.418860 0.226383
0.691463 0.425635 0.233829
0.717983 0.431464 0.243290
0.742061 0.437110 0.254643
0.763668 0.442817 0.267430
0.783108 0.448859 0.281743
0.800504 0.455695 0.297826
0.816098 0.463752 0.315831
0.830076 0.473518 0.335973
0.842435 0.485054 0.358129
0.853208 0.498604 0.382422
0.153140 0.327977 0.101625
0.154177 0.328130 0.101472
0.157900 0.328832 0.100862
0.165957 0.330144 0.099641
0.178256 0.332189 0.097169
0.194339 0.334508 0.095369
0.214298 0.336553 0.093843
0.236515 0.339147 0.092226
0.262211 0.339361 0.093324
0.287816 0.338964 0.095766
0.312444 0.338750 0.098238
0.336065 0.338476 0.100862
0.365179 0.346868 0.104005
0.385504 0.343297 0.108919
0.407874 0.342412 0.110414
0.448524 0.362768 0.123903
0.487190 0.380835 0.145357
0.527214 0.400732 0.169009
0.567041 0.422034 0.195010
0.605707 0.443946 0.224613
0.641199 0.465522 0.258213
0.670192 0.472175 0.266300
0.696620 0.476905 0.274266
0.720729 0.481209 0.283970
0.742641 0.485420 0.295476
0.762325 0.489662 0.308354
0.779904 0.494636 0.322911
0.795773 0.500328 0.338994
0.810025 0.507347 0.356847
0.822843 0.515923 0.376471
0.834073 0.526329 0.398169
0.843717 0.538872 0.422309
0.175113 0.373541 0.102815
0.175723 0.373693 0.102296
0.179324 0.374304 0.101625
0.186130 0.375433 0.100404
0.196872 0.377356 0.097780
0.210513 0.380255 0.093965
0.227787 0.382452 0.091890
0.247074 0.385168 0.089357
0.268254 0.388190 0.086427
0.293309 0.388128 0.089326
0.318059 0.388373 0.091920
0.342718 0.388769 0.095583
0.367559 0.389288 0.098665
0.392615 0.389532 0.102571
0.414984 0.386297 0.108278
0.437964 0.384161 0.110811
0.477943 0.402289 0.118929
0.517693 0.421759 0.143587
0.557366 0.441932 0.170626
0.595972 0.462409 0.200656
0.631922 0.482246 0.234257
0.663050 0.500969 0.272648
0.689265 0.518364 0.311681
0.712581 0.522087 0.321324
0.733761 0.525658 0.332464
0.752865 0.529412 0.345434
0.769986 0.533806 0.359930
0.785336 0.539025 0.376043
0.799222 0.545434 0.393713
0.811490 0.553460 0.413428
0.822324 0.563104 0.434882
0.831510 0.574701 0.458412
0.183902 0.418311 0.100526
0.184298 0.418402 0.100069
0.187655 0.418677 0.099275
0.193484 0.419684 0.097536
0.202182 0.421454 0.094789
0.214542 0.424201 0.090059
0.229709 0.427100 0.084810
0.247410 0.429847 0.079927
0.267033 0.433326 0.073335
0.290135 0.435767 0.069764
0.315923 0.435859 0.077974
0.342321 0.436164 0.083436
0.369055 0.436347 0.089052
0.395880 0.436286 0.093233
0.422278 0.435676 0.098207
0.445930 0.431861 0.104433
0.468727 0.428016 0.109071
0.502800 0.439033 0.114961
0.545373 0.461769 0.139925
0.584222 0.481422 0.172152
0.620996 0.500328 0.207340
0.653712 0.517662 0.246464
0.681666 0.534325 0.289647
0.704585 0.552026 0.337407
0.723262 0.566705 0.377111
0.741665 0.569940 0.389410
0.758175 0.573846 0.403540
0.773068 0.578454 0.418952
0.786404 0.584314 0.436133
0.798276 0.591608 0.455146
0.808591 0.600458 0.475837
0.817350 0.611078 0.498451
0.177981 0.464912 0.095308
0.178439 0.465064 0.095094
0.181949 0.465309 0.094240
0.187411 0.466133 0.092500
0.196262 0.467659 0.089082
0.207889 0.470008 0.082063
0.222293 0.473487 0.068116
0.240208 0.476234 0.059083
0.260533 0.479652 0.048768
0.282536 0.484016 0.037201
0.310094 0.485084 0.040253
0.338933 0.485206 0.050111
0.367895 0.484962 0.063416
0.396277 0.484627 0.075074
0.424323 0.483711 0.084230
0.451453 0.482246 0.091402
0.475959 0.478126 0.099153
0.498177 0.472755 0.106813
0.525841 0.474983 0.109590
0.570245 0.500175 0.135897
0.608057 0.518822 0.174594
0.642420 0.535332 0.216098
0.672297 0.550469 0.260960
0.697353 0.565576 0.309514
0.717128 0.581872 0.361456
0.731533 0.600336 0.415778
0.744320 0.613092 0.451820
0.758724 0.617395 0.466651
0.771725 0.622827 0.483009
0.783169 0.629694 0.501244
0.793118 0.637903 0.520989
0.801663 0.647578 0.542199
0.159213 0.511254 0.089052
0.159945 0.511437 0.088746
0.162936 0.511894 0.087922
0.169375 0.512963 0.084718
0.179019 0.514580 0.078370
0.191897 0.517113 0.066224
0.207584 0.520592 0.049348
0.227115 0.524315 0.033539
0.249699 0.527703 0.024750
0.273930 0.531731 0.013214
0.300267 0.535821 0.003265
0.332097 0.534966 0.014405
0.363104 0.534020 0.027100
0.393194 0.532677 0.041657
0.422339 0.531121 0.056336
0.450568 0.528985 0.072511
0.477913 0.526787 0.085817
0.502983 0.522606 0.095094
0.525628 0.516838 0.104891
0.549401 0.513054 0.107118
0.592157 0.535882 0.133150
0.628962 0.553124 0.179599
0.660945 0.567529 0.227695
0.688350 0.580835 0.278508
0.710628 0.594659 0.331975
0.727474 0.610101 0.388220
0.739101 0.627955 0.445533
0.746090 0.648493 0.502678
0.755612 0.659571 0.532067
0.766934 0.665400 0.547875
0.777127 0.672084 0.564569
0.786069 0.679835 0.582208
0.127108 0.556176 0.084321
0.127993 0.556268 0.084047
0.132753 0.556695 0.082551
0.141512 0.557702 0.078492
0.154147 0.559258 0.070192
0.170199 0.561517 0.057740
0.189456 0.564599 0.041962
0.210971 0.568658 0.020539
0.236088 0.571557 0.013336
0.262547 0.575067 0.003357
0.289952 0.579034 0.000000
0.320806 0.581109 0.000000
0.353826 0.579980 0.005066
0.385870 0.578393 0.021057
0.416358 0.576562 0.037507
0.445991 0.574426 0.055634
0.474372 0.571862 0.073854
0.501915 0.569299 0.088228
0.527764 0.565393 0.097475
0.551354 0.559686 0.107607
0.575219 0.555261 0.111116
0.610895 0.568048 0.136599
0.647303 0.584771 0.187655
0.677119 0.597040 0.242466
0.702083 0.608881 0.298466
0.721645 0.621515 0.356847
0.735897 0.636378 0.416632
0.745144 0.653864 0.476570
0.750179 0.673945 0.534600
0.753017 0.694362 0.585534
0.762142 0.702296 0.604608
0.771725 0.708492 0.619013
0.071473 0.599054 0.091066
0.076265 0.599329 0.090517
0.068544 0.607996 0.093690
0.095552 0.608759 0.091920
0.117891 0.610010 0.088899
0.141024 0.611810 0.082460
0.166506 0.614191 0.068696
0.192538 0.617273 0.049989
0.220829 0.620050 0.039582
0.250584 0.622553 0.036011
0.279942 0.625513 0.031281
0.309453 0.628717 0.027283
0.343481 0.628168 0.036500
0.377203 0.626093 0.053712
0.409094 0.623774 0.071351
0.439918 0.621180 0.085939
0.469459 0.618097 0.094087
0.498116 0.614954 0.100221
0.525658 0.611688 0.107851
0.552209 0.607813 0.114229
0.577081 0.602869 0.121798
0.601160 0.597803 0.126833
0.629664 0.600214 0.146761
0.665156 0.615534 0.201511
0.692439 0.625635 0.262547
0.714504 0.635798 0.323430
0.731319 0.647364 0.385382
0.743038 0.661494 0.447791
0.750057 0.678614 0.509178
0.753841 0.697414 0.565423
0.756497 0.715938 0.612696
0.759030 0.733181 0.651637
0.000000 0.638392 0.111696
0.000000 0.639124 0.112093
0.000000 0.640101 0.112032
0.022553 0.641382 0.111696
0.088899 0.642878 0.110231
0.120211 0.644434 0.107424
0.149630 0.646387 0.103639
0.178653 0.648707 0.098665
0.207614 0.651392 0.093843
0.238529 0.653285 0.093965
0.268559 0.655543 0.094209
0.298405 0.658106 0.094606
0.328985 0.660182 0.095460
0.363378 0.658381 0.101106
0.396155 0.656336 0.106813
0.427710 0.654017 0.112276
0.457893 0.651484 0.117739
0.487251 0.648737 0.122896
0.515679 0.645899 0.128511
0.543389 0.643030 0.133577
0.570336 0.639887 0.139071
0.596307 0.636316 0.144350
0.621363 0.632136 0.149294
0.644465 0.626581 0.158114
0.679072 0.640803 0.215763
0.704433 0.649653 0.281590
0.724300 0.658869 0.346929
0.739040 0.670069 0.413001
0.748745 0.684169 0.477943
0.754116 0.700923 0.539879
0.757443 0.718410 0.593317
0.760189 0.735286 0.637476
0.000000 0.668971 0.138521
0.000000 0.669612 0.139315
0.000000 0.670466 0.139590
0.000000 0.671534 0.139925
0.054292 0.672724 0.139620
0.107881 0.674006 0.138064
0.140200 0.675563 0.135592
0.170291 0.677424 0.133150
0.199435 0.679652 0.129976
0.229892 0.681331 0.130037
0.260014 0.683101 0.131258
0.289677 0.685023 0.133028
0.318853 0.687160 0.134737
0.350500 0.687465 0.137453
0.383673 0.685634 0.141421
0.415381 0.683589 0.145083
0.445899 0.681300 0.149142
0.475563 0.678889 0.152987
0.504356 0.676326 0.156924
0.532403 0.673762 0.160952
0.559716 0.671077 0.165499
0.586725 0.668330 0.169986
0.613184 0.665644 0.174105
0.639521 0.662989 0.178561
0.660578 0.654871 0.183169
0.690700 0.663355 0.235813
0.715267 0.671870 0.303014
0.733272 0.680629 0.372992
0.745968 0.691829 0.442237
0.753780 0.705867 0.509575
0.758145 0.721889 0.570153
0.761288 0.738003 0.620233
0.000000 0.696162 0.170382
0.000000 0.696651 0.171115
0.000000 0.697322 0.171786
0.005737 0.698177 0.172213
0.071595 0.699092 0.172000
0.111147 0.700130 0.171237
0.141360 0.701350 0.170169
0.170047 0.702815 0.168399
0.197910 0.704616 0.166842
0.226017 0.706233 0.166415
0.255467 0.707607 0.168154
0.284276 0.709102 0.170687
0.312688 0.710780 0.173007
0.340764 0.712520 0.175753
0.372839 0.711360 0.178683
0.404303 0.709621 0.181735
0.434791 0.707790 0.185092
0.464363 0.705837 0.188388
0.493202 0.703853 0.192050
0.521416 0.701839 0.195987
0.549126 0.699733 0.200259
0.576287 0.697597 0.204501
0.602960 0.695277 0.208774
0.629877 0.693477 0.212924
0.656641 0.691920 0.217258
0.677974 0.684413 0.222049
0.703212 0.686793 0.263737
0.726802 0.695216 0.333532
0.742550 0.703944 0.408545
0.752895 0.715419 0.481605
0.758663 0.729458 0.549279
0.762448 0.744259 0.605585
0.038911 0.722652 0.210636
0.044495 0.722866 0.210971
0.065858 0.723110 0.211246
0.092683 0.723476 0.211154
0.112642 0.724025 0.210849
0.134768 0.724636 0.210300
0.157382 0.725490 0.209506
0.180819 0.726650 0.208530
0.205478 0.727993 0.207462
0.230594 0.729580 0.207004
0.257969 0.730617 0.209354
0.284916 0.731777 0.212100
0.311620 0.733059 0.215000
0.338445 0.734432 0.218173
0.366308 0.735073 0.221195
0.396735 0.733516 0.223575
0.426398 0.731807 0.226047
0.455177 0.730007 0.228916
0.483314 0.728145 0.231693
0.511009 0.726131 0.234714
0.538018 0.724147 0.237858
0.564752 0.722042 0.241215
0.590967 0.719783 0.244511
0.616846 0.717433 0.247929
0.643336 0.715969 0.251835
0.670008 0.714870 0.255894
0.691890 0.708827 0.260655
0.713649 0.706752 0.289616
0.736568 0.715358 0.361212
0.750362 0.724147 0.440650
0.758541 0.735744 0.516411
0.763302 0.749172 0.581964
0.125154 0.743343 0.248569
0.126497 0.743496 0.248875
0.131167 0.743709 0.249027
0.139162 0.744015 0.249271
0.151064 0.744442 0.248997
0.165316 0.744991 0.248814
0.182254 0.745693 0.248173
0.200717 0.746578 0.247776
0.220737 0.747677 0.247471
0.242435 0.749020 0.247074
0.266026 0.749966 0.248997
0.290623 0.750881 0.252049
0.315496 0.751888 0.255100
0.340307 0.753017 0.258854
0.365118 0.754208 0.262791
0.392645 0.753658 0.265537
0.420905 0.752255 0.267796
0.448463 0.750729 0.270359
0.475624 0.749111 0.272801
0.502190 0.747433 0.275700
0.528557 0.745693 0.278599
0.554437 0.743832 0.281743
0.579980 0.741970 0.285008
0.605310 0.739956 0.288060
0.629511 0.736721 0.287907
0.655268 0.735653 0.292058
0.681697 0.735225 0.296910
0.704433 0.731106 0.302495
0.723934 0.725826 0.317693
0.745113 0.734371 0.393957
0.757565 0.743679 0.475837
0.763943 0.755276 0.552331
0.178317 0.762966 0.292058
0.179416 0.763180 0.292607
0.182162 0.763333 0.292882
0.186770 0.763516 0.292760
0.193637 0.763729 0.292302
0.203311 0.764004 0.291814
0.214572 0.764401 0.291051
0.228428 0.764950 0.290257
0.244022 0.765682 0.289647
0.260990 0.766629 0.289189
0.280705 0.767361 0.290043
0.302098 0.767971 0.292668
0.324102 0.768673 0.295659
0.346624 0.769467 0.299077
0.369177 0.770291 0.302525
0.392462 0.770901 0.306157
0.418616 0.769558 0.307774
0.444465 0.768215 0.309819
0.470100 0.766812 0.312200
0.495491 0.765408 0.315068
0.520623 0.763973 0.318120
0.545525 0.762448 0.321080
0.570092 0.760800 0.324010
0.594354 0.758999 0.326848
0.618433 0.757076 0.329534
0.642267 0.755032 0.332219
0.667231 0.754269 0.336400
0.693050 0.754482 0.342443
0.716548 0.752377 0.349340
0.734951 0.746304 0.358373
0.753384 0.753262 0.432380
0.764157 0.762020 0.511894
0.220981 0.779049 0.331762
0.221805 0.779202 0.332311
0.223911 0.779385 0.332677
0.227268 0.779568 0.332616
0.232517 0.779812 0.332586
0.239384 0.780148 0.332494
0.248386 0.780606 0.332464
0.259281 0.781186 0.332250
0.271641 0.781918 0.332219
0.285740 0.782803 0.332494
0.301793 0.783627 0.333440
0.320287 0.784176 0.336522
0.339452 0.784817 0.339727
0.359350 0.785428 0.343389
0.379675 0.786099 0.347173
0.400397 0.786862 0.351507
0.423011 0.786496 0.354131
0.446540 0.785306 0.355871
0.470161 0.784115 0.358129
0.493812 0.782925 0.360693
0.517357 0.781704 0.363684
0.540764 0.780453 0.366705
0.564019 0.779110 0.369818
0.587121 0.777707 0.372992
0.610101 0.776181 0.376074
0.632898 0.774624 0.379187
0.655543 0.773007 0.382147
0.679438 0.772702 0.387854
0.704677 0.773770 0.396521
0.728389 0.773342 0.404700
0.745663 0.767758 0.414038
0.760983 0.771450 0.474403
0.265385 0.794736 0.376226
0.266056 0.794827 0.376593
0.267308 0.794919 0.376654
0.269749 0.795041 0.376684
0.273411 0.795254 0.376684
0.278721 0.795499 0.376623
0.285252 0.795865 0.376532
0.293400 0.796323 0.376562
0.303166 0.796902 0.376654
0.314458 0.797604 0.376989
0.327245 0.798367 0.377691
0.342870 0.798856 0.380682
0.359533 0.799313 0.384253
0.376837 0.799863 0.387854
0.394903 0.800412 0.392096
0.413306 0.801022 0.396246
0.432380 0.801572 0.401068
0.453529 0.800595 0.402747
0.474952 0.799619 0.404883
0.496468 0.798642 0.407538
0.518181 0.797665 0.410620
0.539818 0.796658 0.413977
0.561395 0.795590 0.417121
0.583032 0.794461 0.420569
0.604547 0.793271 0.424018
0.625910 0.792081 0.427344
0.647242 0.790829 0.430976
0.668330 0.789242 0.433448
0.690547 0.788815 0.438178
0.714412 0.789975 0.446754
0.737911 0.791012 0.456825
0.754238 0.786587 0.468727
0.308812 0.808865 0.421698
0.309270 0.808927 0.422065
0.310216 0.809018 0.422278
0.312139 0.809171 0.422400
0.315068 0.809384 0.422675
0.319341 0.809689 0.423011
0.325170 0.810147 0.423865
0.332341 0.810697 0.425086
0.340826 0.811398 0.426429
0.350408 0.812253 0.428077
0.361486 0.813169 0.429999
0.375311 0.813718 0.434302
0.389868 0.814298 0.438911
0.405188 0.814878 0.443763
0.420966 0.815457 0.448615
0.437171 0.815976 0.453681
0.453834 0.816526 0.459113
0.471595 0.816342 0.462715
0.490150 0.815640 0.465248
0.509087 0.814908 0.468269
0.528283 0.814176 0.471565
0.547601 0.813443 0.475044
0.566766 0.812467 0.477790
0.585870 0.811429 0.480415
0.605035 0.810330 0.482826
0.624231 0.809140 0.485176
0.643366 0.807950 0.487770
0.662623 0.806699 0.490272
0.681880 0.805417 0.492714
0.702235 0.805142 0.498024
0.724453 0.806821 0.508537
0.746883 0.808927 0.520806
0.360967 0.823453 0.478645
0.361212 0.823453 0.478737
0.361852 0.823514 0.478706
0.363012 0.823575 0.478676
0.365179 0.823697 0.478767
0.368078 0.823911 0.478920
0.372076 0.824186 0.479194
0.377050 0.824521 0.479561
0.383215 0.825010 0.480385
0.390356 0.825559 0.481300
0.398688 0.826200 0.482551
0.409613 0.826535 0.486030
0.421607 0.826902 0.490089
0.434394 0.827298 0.494514
