20 Preset/Ocident style/【3】LUT video cho PR-AE-FCPX/Ocident style 5/Tone  (2).cube
# Created by Adobe Lightroom plugin Export LUT (1.24.0)
# www.johnrellis.com/lightroom/exportlut.htm
# Preset: Cvatik_Artemis_6
# Color profile: E:\lut插件\exportlut.1.24\exportlut.lrplugin\color profiles\Rec709gamma2.4.icc
LUT_3D_SIZE 5
DOMAIN_MIN 0.000000 0.000000 0.000000
DOMAIN_MAX 0.903226 0.903226 0.903226
0.141634 0.107790 0.116487
0.609003 0.220951 0.036805
0.928191 0.472816 0.274296
0.980072 0.673823 0.596124
0.957519 0.763485 0.720607
0.302495 0.327214 0.284154
0.319524 0.472969 0.333776
0.773037 0.611505 0.431952
0.929320 0.733364 0.657710
0.933227 0.797696 0.758053
0.541833 0.662959 0.632349
0.542199 0.687282 0.650935
0.548699 0.798032 0.713436
0.830198 0.904082 0.872038
0.879057 0.852049 0.805081
0.636286 0.794034 0.775296
0.635492 0.799466 0.778439
0.650172 0.847379 0.812070
0.699733 0.890745 0.843473
0.832975 0.923217 0.909117
0.657191 0.859251 0.822782
0.655940 0.860075 0.822660
0.663752 0.871458 0.831174
0.744747 0.908507 0.877592
0.795438 0.922148 0.897246
0.000000 0.386511 0.663447
0.424170 0.361364 0.630732
0.766598 0.584039 0.649500
0.881773 0.809232 0.806912
0.901274 0.832242 0.819638
0.000000 0.644404 0.656367
0.327092 0.668788 0.682368
0.659419 0.671351 0.686427
0.859800 0.819364 0.808408
0.890929 0.843442 0.828153
0.441169 0.736324 0.679988
0.500481 0.745937 0.699306
0.630152 0.778897 0.762539
0.803220 0.895323 0.871702
0.858122 0.871885 0.845701
0.615198 0.809476 0.779873
0.631708 0.814084 0.788632
0.690517 0.841215 0.826963
0.719356 0.888243 0.857511
0.829770 0.922026 0.908110
0.677241 0.852628 0.827939
0.675624 0.853422 0.827726
0.686519 0.869505 0.840269
0.758236 0.908415 0.884001
0.805814 0.922362 0.904051
0.181552 0.674830 0.899504
0.421942 0.721828 0.895384
0.623529 0.753414 0.885283
0.804471 0.755428 0.858091
0.856565 0.871641 0.882750
0.322393 0.772396 0.892760
0.458930 0.794797 0.895323
0.651881 0.825315 0.891325
0.770993 0.790005 0.865293
0.849210 0.881926 0.888853
0.366949 0.854368 0.868864
0.460426 0.860746 0.872618
0.651637 0.880674 0.886198
0.762661 0.890990 0.895201
0.833433 0.905608 0.902770
0.502037 0.876799 0.842924
0.540032 0.877653 0.846403
0.659480 0.886137 0.864591
0.763394 0.897063 0.886229
0.808988 0.913573 0.900572
0.667811 0.857969 0.832029
0.670497 0.857603 0.832395
0.697993 0.861967 0.843137
0.778439 0.900755 0.890135
0.811460 0.920806 0.908598
0.488411 0.790799 0.924285
0.556573 0.813931 0.922301
0.695827 0.861265 0.917418
0.744778 0.859922 0.914824
0.823117 0.857603 0.911650
0.513634 0.817075 0.921569
0.571618 0.833219 0.920806
0.699275 0.870024 0.917113
0.752132 0.873899 0.914092
0.815793 0.864164 0.910979
0.507744 0.854459 0.911559
0.559533 0.863035 0.911864
0.694820 0.887999 0.913756
0.784146 0.905241 0.915373
0.805356 0.888762 0.911345
0.488533 0.889097 0.898161
0.533867 0.892027 0.899443
0.664302 0.902556 0.904936
0.778347 0.914061 0.912352
0.816709 0.916625 0.914702
0.508843 0.903380 0.871580
0.515679 0.902373 0.869932
0.546685 0.897612 0.862730
0.761410 0.909972 0.896300
0.823667 0.919585 0.914061
0.652674 0.858976 0.924804
0.683589 0.869566 0.923766
0.759060 0.895109 0.921386
0.792630 0.904417 0.920684
0.808316 0.903685 0.920745
0.652522 0.862364 0.924407
0.683345 0.872343 0.923430
0.758999 0.896605 0.921233
0.797299 0.907622 0.920470
0.810117 0.906340 0.920562
0.608209 0.861692 0.922881
0.648707 0.872190 0.922179
0.752743 0.899687 0.920745
0.806271 0.914092 0.920165
0.816617 0.913848 0.920165
0.452461 0.859281 0.917144
0.516075 0.868009 0.917113
0.681758 0.894285 0.917723
0.800015 0.916136 0.919463
0.825132 0.920897 0.920073
0.331365 0.887724 0.902586
0.333532 0.888243 0.902373
0.343694 0.890593 0.901457
0.731533 0.914763 0.912444
0.826383 0.923919 0.919524
