20 Preset/Ocident style/【3】LUT video cho PR-AE-FCPX/Ocident style 5/Tone  (1).cube
# Created by Adobe Lightroom plugin Export LUT (1.24.0)
# www.johnrellis.com/lightroom/exportlut.htm
# Preset: Cvatik_Artemis_5
# Color profile: E:\lut插件\exportlut.1.24\exportlut.lrplugin\color profiles\Rec709gamma2.4.icc
LUT_3D_SIZE 8
DOMAIN_MIN 0.000000 0.000000 0.000000
DOMAIN_MAX 0.903226 0.903226 0.903226
0.081056 0.045502 0.032807
0.147372 0.037354 0.032624
0.289982 0.000000 0.026734
0.452247 0.000000 0.014496
0.595758 0.000000 0.000000
0.700832 0.000000 0.000000
0.779049 0.000000 0.000000
0.857389 0.000000 0.000000
0.030854 0.127230 0.071107
0.134401 0.115541 0.069642
0.297490 0.115480 0.014740
0.457130 0.033478 0.000000
0.597345 0.000000 0.000000
0.700679 0.000000 0.000000
0.778531 0.000000 0.000000
0.856901 0.116152 0.000000
0.000000 0.267582 0.124849
0.000000 0.269139 0.118227
0.242405 0.234165 0.115450
0.434760 0.261387 0.041444
0.592676 0.262913 0.000000
0.691737 0.257725 0.000000
0.770169 0.257176 0.000000
0.850370 0.265324 0.000000
0.000000 0.420691 0.186496
0.000000 0.421607 0.182589
0.000000 0.416632 0.111269
0.376562 0.374304 0.176669
0.528893 0.393591 0.177890
0.669123 0.409613 0.000000
0.756588 0.401312 0.000000
0.840116 0.399084 0.000000
0.000000 0.546990 0.263096
0.000000 0.547326 0.260533
0.000000 0.548699 0.249699
0.135805 0.531884 0.167819
0.484138 0.494057 0.257725
0.589685 0.501152 0.298344
0.711604 0.528862 0.203922
0.826688 0.523919 0.000000
0.000000 0.645014 0.341375
0.000000 0.644923 0.339513
0.000000 0.645869 0.332891
0.000000 0.643275 0.289342
0.357641 0.623011 0.270787
0.553094 0.595087 0.352270
0.634150 0.596063 0.425360
0.756588 0.640620 0.364538
0.000000 0.742519 0.426886
0.000000 0.742641 0.425818
0.000000 0.743618 0.421698
0.000000 0.745510 0.413550
0.000000 0.739132 0.341161
0.458778 0.720211 0.386206
0.611902 0.699702 0.463508
0.685420 0.696956 0.559319
0.000000 0.844541 0.522545
0.000000 0.844816 0.522026
0.000000 0.845792 0.519890
0.000000 0.847776 0.515679
0.000000 0.849241 0.494728
0.225254 0.842557 0.448096
0.538384 0.827634 0.523461
0.683345 0.813199 0.599359
0.094301 0.042878 0.117800
0.153841 0.036225 0.117372
0.295323 0.000000 0.119783
0.457893 0.000000 0.115267
0.599084 0.000000 0.110903
0.702663 0.000000 0.105959
0.779995 0.000000 0.103487
0.858091 0.000000 0.102815
0.102632 0.128817 0.117067
0.162234 0.127443 0.116457
0.302495 0.111849 0.115267
0.460883 0.019379 0.111879
0.599237 0.000000 0.106355
0.701228 0.000000 0.100862
0.778805 0.049775 0.099336
0.857237 0.133425 0.099580
0.000000 0.269596 0.157748
0.006958 0.270970 0.153079
0.264958 0.245426 0.149752
0.450690 0.268559 0.110658
0.594690 0.263890 0.064515
0.692561 0.260227 0.058991
0.771115 0.262058 0.073793
0.851072 0.271214 0.082826
0.000000 0.422248 0.211307
0.000000 0.423072 0.207797
0.000000 0.420478 0.166018
0.389746 0.380896 0.201419
0.537285 0.401465 0.197635
0.673915 0.412268 0.000000
0.757656 0.404211 0.000000
0.840940 0.402350 0.027039
0.000000 0.546624 0.280003
0.000000 0.547051 0.277684
0.000000 0.548547 0.267582
0.169039 0.534600 0.193606
0.490089 0.497688 0.274510
0.593469 0.506188 0.309056
0.714076 0.531395 0.221012
0.826932 0.525658 0.000000
0.000000 0.644739 0.353979
0.000000 0.644892 0.352575
0.000000 0.645869 0.346288
0.000000 0.644160 0.310979
0.365637 0.624659 0.286290
0.555718 0.596948 0.363348
0.636133 0.599359 0.431525
0.758297 0.642390 0.372412
0.000000 0.742519 0.436591
0.000000 0.742824 0.435767
0.000000 0.743801 0.431739
0.000000 0.745663 0.423743
0.000000 0.739803 0.357580
0.462135 0.721401 0.395727
0.613550 0.701167 0.470588
0.687312 0.699550 0.563256
0.000000 0.844633 0.529778
0.000000 0.844785 0.529168
0.000000 0.845792 0.527031
0.000000 0.847807 0.522881
0.000000 0.848966 0.503380
0.228153 0.842771 0.453681
0.539635 0.828061 0.528099
0.684352 0.813596 0.602899
0.115785 0.033326 0.235935
0.171389 0.022644 0.235874
0.307469 0.000000 0.235721
0.462989 0.000000 0.234226
0.597559 0.000000 0.238773
0.695613 0.000000 0.245548
0.775631 0.000000 0.231693
0.853513 0.133944 0.231907
0.126711 0.127352 0.236118
0.180148 0.125246 0.236118
0.313420 0.113130 0.235721
0.465888 0.078431 0.234958
0.597589 0.067536 0.239445
0.695125 0.126650 0.242649
0.774380 0.136843 0.231113
0.852598 0.181125 0.231540
0.145510 0.274327 0.231815
0.197024 0.274174 0.231540
0.325048 0.273045 0.230472
0.470619 0.266606 0.228977
0.595300 0.262974 0.227420
0.689815 0.267399 0.226627
0.767147 0.277501 0.227451
0.847105 0.290410 0.229282
0.191989 0.420935 0.275914
0.233768 0.420172 0.279149
0.267063 0.422065 0.271794
0.425940 0.396155 0.270298
0.562066 0.416907 0.251835
0.673579 0.413672 0.218021
0.754086 0.410163 0.222141
0.837125 0.411353 0.226413
0.133120 0.542962 0.338903
0.140414 0.543328 0.336950
0.166690 0.544762 0.328740
0.269291 0.540063 0.280583
0.507317 0.506554 0.328008
0.604791 0.519982 0.343725
0.721584 0.535851 0.273808
0.823880 0.529839 0.226291
0.000000 0.641382 0.399878
0.000000 0.641566 0.398505
0.000000 0.642603 0.393133
0.024079 0.644648 0.382513
0.390784 0.628840 0.338231
0.564874 0.602319 0.402899
0.643275 0.609949 0.452583
0.763790 0.646601 0.398932
0.000000 0.739925 0.471107
0.000000 0.740230 0.470375
0.000000 0.741329 0.466804
0.000000 0.743313 0.459693
0.174441 0.740414 0.415473
0.472663 0.723903 0.428473
0.618402 0.703853 0.494362
0.692683 0.706264 0.574304
0.000000 0.843046 0.555200
0.000000 0.843381 0.554742
0.000000 0.844419 0.552697
0.000000 0.846372 0.548363
0.000000 0.849241 0.539452
0.250401 0.843809 0.480140
0.543999 0.829221 0.545556
0.687678 0.814633 0.616236
0.147524 0.003326 0.372320
0.196689 0.000000 0.372045
0.324620 0.000000 0.372076
0.472175 0.000000 0.371710
0.600580 0.000000 0.367651
0.694148 0.023194 0.361151
0.766659 0.183017 0.361517
0.840940 0.253513 0.373022
0.161410 0.122286 0.371862
0.207218 0.119966 0.371832
0.329992 0.106935 0.371679
0.473732 0.069551 0.371191
0.599451 0.083009 0.367102
0.691798 0.152651 0.361578
0.764309 0.222751 0.363378
0.838987 0.279301 0.375647
0.187930 0.273594 0.370672
0.228763 0.273747 0.370581
0.342504 0.272953 0.370245
0.476844 0.271733 0.369512
0.593133 0.277287 0.364446
0.680812 0.297673 0.364508
0.753750 0.327733 0.371038
0.835172 0.339879 0.372473
0.219272 0.424598 0.365118
0.254643 0.424292 0.365087
0.356756 0.423194 0.364630
0.475135 0.422065 0.363592
0.581628 0.420783 0.363073
0.666896 0.422309 0.363287
0.745998 0.426001 0.364141
0.829313 0.430426 0.365545
0.291112 0.543359 0.397620
0.312963 0.542901 0.399756
0.383642 0.541070 0.408728
0.426246 0.541772 0.406409
0.533104 0.522179 0.406409
0.625818 0.538323 0.398718
0.730282 0.539055 0.364111
0.817380 0.538293 0.366247
0.354131 0.636255 0.471565
0.355657 0.636255 0.470314
0.361486 0.637415 0.465858
0.372351 0.639643 0.457252
0.425788 0.635981 0.416754
0.579248 0.611597 0.462837
0.657374 0.627100 0.486305
0.776883 0.650996 0.439063
0.254398 0.736385 0.528801
0.256229 0.736599 0.527947
0.264256 0.737545 0.524620
0.279026 0.739590 0.518151
0.309422 0.742092 0.504173
0.486000 0.728908 0.479133
0.627161 0.709255 0.534722
0.704005 0.718837 0.594141
0.000000 0.840604 0.597192
0.000000 0.840879 0.596735
0.000000 0.841947 0.594690
0.000000 0.844175 0.590661
0.000000 0.847440 0.584344
0.314641 0.845029 0.541894
0.550286 0.831876 0.575921
0.694057 0.816739 0.639979
0.186404 0.000000 0.505821
0.226291 0.000000 0.505547
0.337865 0.000000 0.505425
0.470466 0.000000 0.504997
0.591669 0.000000 0.504051
0.688075 0.087709 0.494423
0.762356 0.193668 0.478340
0.837858 0.259922 0.480171
0.201205 0.116365 0.505303
0.237461 0.113588 0.505028
0.343450 0.103944 0.504875
0.472358 0.092012 0.504540
0.590631 0.108949 0.503380
0.685695 0.165011 0.493599
0.759976 0.230808 0.479072
0.835904 0.284672 0.481636
0.237003 0.273655 0.503532
0.266789 0.273716 0.503441
0.358953 0.273594 0.503258
0.475135 0.275181 0.502342
0.585199 0.283024 0.500786
0.675624 0.303380 0.491157
0.750637 0.333074 0.482856
0.828550 0.362951 0.487922
0.270817 0.417517 0.499245
0.296452 0.417884 0.499062
0.378149 0.419562 0.498268
0.477699 0.422797 0.497047
0.574182 0.426276 0.495949
0.657527 0.435309 0.488991
0.734249 0.448768 0.491463
0.815915 0.462409 0.499062
0.311986 0.543572 0.493843
0.330236 0.543450 0.493751
0.392248 0.543145 0.493538
0.477607 0.543114 0.492988
0.561456 0.544305 0.492561
0.640284 0.544793 0.492683
0.722683 0.545830 0.492714
0.810727 0.546593 0.492775
0.360388 0.641627 0.512535
0.372045 0.641382 0.513970
0.414221 0.640284 0.519646
0.475837 0.638209 0.529503
0.512169 0.641566 0.530938
0.596918 0.626154 0.530816
0.682551 0.645075 0.527886
0.800015 0.647730 0.491768
0.362890 0.736629 0.582055
0.370916 0.736660 0.583215
0.402228 0.736629 0.587793
0.429114 0.737697 0.587671
0.439063 0.740963 0.578088
0.492317 0.738521 0.539666
0.639857 0.717983 0.586786
0.724025 0.735805 0.620600
0.295964 0.838987 0.653071
0.297581 0.839261 0.652552
0.303990 0.840391 0.650599
0.315984 0.842374 0.646296
0.333562 0.845396 0.639704
0.373541 0.848112 0.624079
0.555566 0.836912 0.616480
0.704219 0.820706 0.673518
0.225071 0.000000 0.619074
0.254765 0.000000 0.618952
0.346227 0.000000 0.619013
0.460853 0.000000 0.618708
0.569024 0.000000 0.617243
0.665736 0.136019 0.615351
0.752926 0.206760 0.609979
0.831785 0.267735 0.599176
0.239780 0.117159 0.619745
0.266850 0.116335 0.619745
0.353307 0.114229 0.619593
0.463264 0.120211 0.618921
0.568841 0.146304 0.617273
0.664332 0.190768 0.615259
0.751034 0.241337 0.609857
0.830198 0.291661 0.599786
0.278386 0.275425 0.617151
0.299748 0.275792 0.617121
0.371618 0.277256 0.616663
0.468391 0.282444 0.615991
0.565850 0.293706 0.614649
0.657374 0.312688 0.612940
0.742245 0.338170 0.608057
0.823239 0.366796 0.601068
0.321080 0.415290 0.612665
0.339055 0.416541 0.612573
0.399786 0.421973 0.611780
0.476173 0.424231 0.610895
0.560632 0.429358 0.609918
0.645197 0.438270 0.608942
0.727474 0.450599 0.606043
0.811643 0.463508 0.604211
0.347051 0.533928 0.609857
0.360693 0.534447 0.609766
0.409735 0.536614 0.609277
0.480629 0.541039 0.608362
0.554772 0.544915 0.607813
0.632197 0.547662 0.607538
0.714687 0.551324 0.606683
0.802670 0.555596 0.609400
0.364019 0.642206 0.607996
0.374365 0.642054 0.607813
0.412390 0.642298 0.607782
0.470954 0.642817 0.607660
0.540307 0.643977 0.607568
0.618097 0.645533 0.607202
0.703517 0.645747 0.607111
0.796994 0.645777 0.607568
0.354833 0.741482 0.622187
0.362982 0.741390 0.622980
0.394781 0.741329 0.626612
0.449042 0.741268 0.633967
0.518547 0.741238 0.645869
0.561456 0.743832 0.647181
0.657069 0.730129 0.649928
0.756466 0.751034 0.653620
0.322667 0.841947 0.691463
0.331518 0.842039 0.692409
0.365728 0.842161 0.696193
0.423255 0.842069 0.703365
0.476722 0.842863 0.708492
0.490333 0.846738 0.699397
0.556542 0.844724 0.668513
0.719020 0.826322 0.717433
0.260014 0.000000 0.734493
0.283146 0.000000 0.735775
0.357000 0.000000 0.734890
0.454841 0.004059 0.734463
0.552514 0.109957 0.733272
0.643915 0.172366 0.731075
0.731563 0.227420 0.728176
0.820554 0.274479 0.724392
0.268345 0.119570 0.727993
0.290227 0.121645 0.729580
0.359838 0.124331 0.729030
0.453681 0.136690 0.727840
0.549157 0.164675 0.725917
0.638941 0.203525 0.722591
0.725093 0.244999 0.718715
0.812100 0.283574 0.714076
0.302312 0.277531 0.729641
0.319036 0.278050 0.729519
0.376806 0.279789 0.727962
0.459571 0.285527 0.726345
0.547753 0.296300 0.723415
0.634668 0.314427 0.721157
0.721309 0.339269 0.720912
0.810666 0.364843 0.719570
0.348058 0.423102 0.729152
0.359533 0.422858 0.728664
0.401709 0.422644 0.726680
0.469551 0.425849 0.726070
0.547387 0.430304 0.723995
0.629389 0.439796 0.723415
0.714321 0.453040 0.723934
0.803281 0.463508 0.721553
0.357946 0.530755 0.721767
0.368109 0.530205 0.720272
0.408148 0.531701 0.718349
0.470222 0.536034 0.717891
0.539879 0.537713 0.717037
0.616754 0.539971 0.716091
0.700587 0.544335 0.716518
0.794614 0.552300 0.719570
0.356786 0.633143 0.717220
0.366094 0.633539 0.717433
0.400366 0.634424 0.717556
0.455909 0.635859 0.718105
0.525719 0.637781 0.718410
0.605585 0.642542 0.720851
0.692775 0.646509 0.722286
0.787808 0.648493 0.721035
0.335515 0.739345 0.721157
0.344518 0.740139 0.721981
0.377844 0.740261 0.721828
0.434577 0.741207 0.722133
0.506432 0.741756 0.721523
0.588708 0.743038 0.721218
0.680354 0.745846 0.722499
0.782925 0.747463 0.725429
0.299260 0.844633 0.729763
0.309178 0.844785 0.730678
0.348974 0.846098 0.735286
0.410956 0.846342 0.741604
0.487861 0.845823 0.750454
0.575738 0.845090 0.763302
0.630335 0.846921 0.766018
0.739742 0.833433 0.770993
0.277043 0.000000 0.830716
0.294804 0.000000 0.831266
0.354376 0.000000 0.829618
0.438788 0.020630 0.829618
0.528496 0.112734 0.828794
0.615991 0.167514 0.827207
0.702663 0.220035 0.826383
0.791897 0.262791 0.824247
0.281926 0.114199 0.826932
0.298863 0.116213 0.827573
0.356664 0.120607 0.826810
0.438941 0.135653 0.826322
0.527062 0.164004 0.825528
0.613916 0.201083 0.823972
0.699855 0.240909 0.822416
0.788296 0.276310 0.819791
0.301305 0.262943 0.824216
0.315435 0.263676 0.824277
0.365850 0.265507 0.823148
0.442420 0.275212 0.824887
0.525658 0.286198 0.823148
0.609735 0.301884 0.820676
0.694881 0.323461 0.819547
0.783719 0.344030 0.817594
0.327245 0.399084 0.820859
0.338903 0.399878 0.821195
0.380194 0.400732 0.820584
0.446174 0.404608 0.820829
0.522881 0.410193 0.820310
0.603784 0.417578 0.819028
0.688197 0.428565 0.818601
0.778317 0.439002 0.817746
0.337438 0.512413 0.817136
0.348028 0.513512 0.817594
0.384833 0.514397 0.816648
0.443397 0.515831 0.816526
0.514183 0.516808 0.815640
0.592554 0.518669 0.814694
0.677638 0.523308 0.815274
0.771695 0.529259 0.816922
0.322118 0.613489 0.814908
0.330297 0.612818 0.814176
0.364111 0.611353 0.812558
0.421363 0.610986 0.811917
0.494514 0.612818 0.812985
0.578515 0.619135 0.816495
0.669886 0.627314 0.820768
0.770382 0.634546 0.824277
0.294408 0.721126 0.819852
0.303655 0.721004 0.819608
0.339849 0.720607 0.818997
0.400916 0.721523 0.819181
0.477852 0.723415 0.819852
0.565667 0.727687 0.821805
0.663844 0.736049 0.826413
0.767056 0.738552 0.827024
0.253117 0.834409 0.827268
0.264042 0.834287 0.827054
0.307408 0.834470 0.826932
0.377935 0.835752 0.827573
0.462348 0.837125 0.827970
0.555749 0.838315 0.827939
0.657740 0.839414 0.827848
0.763912 0.839353 0.827237
