20 Preset/Ocident style/【3】LUT video cho PR-AE-FCPX/Ocident style 5/Tone  (6).cube
# Created by Adobe Lightroom plugin Export LUT (1.24.0)
# www.johnrellis.com/lightroom/exportlut.htm
# Preset: Cvatik_Artemis_10
# Color profile: E:\lut插件\exportlut.1.24\exportlut.lrplugin\color profiles\Rec709gamma2.4.icc
LUT_3D_SIZE 5
DOMAIN_MIN 0.000000 0.000000 0.000000
DOMAIN_MAX 0.903226 0.903226 0.903226
0.080140 0.071870 0.052949
0.176150 0.090791 0.071290
0.393072 0.098451 0.097719
0.651026 0.161044 0.129885
0.838010 0.261906 0.206241
0.103212 0.200778 0.081910
0.195895 0.203647 0.087190
0.402777 0.235325 0.141299
0.660334 0.300755 0.166629
0.832090 0.365545 0.251743
0.177981 0.464912 0.095308
0.240208 0.476234 0.059083
0.424323 0.483711 0.084230
0.642420 0.535332 0.216098
0.771725 0.622827 0.483009
0.038911 0.722652 0.210636
0.180819 0.726650 0.208530
0.366308 0.735073 0.221195
0.564752 0.722042 0.241215
0.736568 0.715358 0.361212
0.405219 0.835264 0.527428
0.417731 0.836179 0.528527
0.468238 0.837095 0.534966
0.563775 0.836423 0.560052
0.672877 0.831724 0.578759
0.083406 0.129458 0.156313
0.172885 0.117861 0.171633
0.366491 0.137331 0.202457
0.629755 0.003388 0.224643
0.824704 0.225071 0.273533
0.137606 0.202731 0.176120
0.199863 0.212680 0.191196
0.398047 0.219120 0.213687
0.641138 0.260685 0.245029
0.819028 0.346410 0.310246
0.175235 0.440833 0.227420
0.232486 0.456764 0.231754
0.406561 0.485237 0.221439
0.630518 0.539788 0.329168
0.758694 0.626246 0.522515
0.146639 0.715145 0.326482
0.211948 0.719631 0.326635
0.367437 0.732662 0.331609
0.558495 0.723598 0.339940
0.727230 0.720455 0.444282
0.430854 0.832151 0.570428
0.441352 0.833127 0.571221
0.487770 0.836362 0.579706
0.572107 0.836576 0.599207
0.673579 0.832334 0.611353
0.000000 0.266636 0.388037
0.017945 0.242741 0.400671
0.390356 0.203891 0.434516
0.567834 0.236606 0.454475
0.772030 0.326757 0.514977
0.126680 0.355596 0.412177
0.206485 0.347936 0.423804
0.380591 0.290806 0.454780
0.574792 0.313939 0.475196
0.769436 0.389807 0.524315
0.208194 0.469703 0.434119
0.252506 0.478676 0.446387
0.395453 0.511467 0.493721
0.585351 0.534325 0.540307
0.737484 0.591211 0.584161
0.268254 0.676509 0.508782
0.301976 0.681971 0.518090
0.420325 0.707027 0.565606
0.549065 0.730434 0.588373
0.693294 0.744411 0.652399
0.489326 0.820737 0.667292
0.496742 0.822202 0.668452
0.527092 0.827756 0.672602
0.588434 0.834745 0.684077
0.672206 0.831418 0.684077
0.000000 0.465278 0.694820
0.000000 0.450538 0.698054
0.233921 0.383062 0.707820
0.546319 0.375830 0.714778
0.728878 0.427588 0.729458
0.000000 0.528069 0.695796
0.040772 0.523735 0.698390
0.290074 0.466651 0.707942
0.537499 0.443091 0.715053
0.716823 0.479805 0.728054
0.228367 0.640467 0.692409
0.282872 0.642115 0.693385
0.421485 0.650446 0.704128
0.523095 0.607355 0.710780
0.674250 0.622827 0.723659
0.369451 0.713344 0.691096
0.391760 0.714473 0.693751
0.467170 0.720394 0.705470
0.566827 0.733913 0.727962
0.673640 0.743740 0.747402
0.499519 0.798367 0.719875
0.506981 0.800381 0.722469
0.538018 0.809201 0.733150
0.611353 0.824063 0.763210
0.675624 0.833097 0.768246
0.345800 0.648890 0.805997
0.355596 0.643336 0.806302
0.399725 0.624018 0.809751
0.494484 0.603754 0.812741
0.634577 0.596429 0.815091
0.373938 0.669947 0.801938
0.397436 0.671199 0.802213
0.427588 0.651575 0.805417
0.499489 0.623621 0.808988
0.631525 0.614527 0.812192
0.427070 0.726101 0.798550
0.440406 0.724605 0.798276
0.494484 0.723201 0.799832
0.529442 0.692775 0.803983
0.632227 0.684352 0.810971
0.494697 0.778805 0.800687
0.501122 0.778378 0.800656
0.534722 0.780484 0.803830
0.597284 0.785336 0.812833
0.654261 0.772702 0.822629
0.547753 0.817472 0.803647
0.552300 0.817441 0.803983
0.576654 0.819516 0.808103
0.618921 0.822751 0.815152
0.684260 0.830350 0.828916
