20 Preset/Ocident style/【3】LUT video cho PR-AE-FCPX/Ocident style 5/Tone  (2).cube
# Created by Adobe Lightroom plugin Export LUT (1.24.0)
# www.johnrellis.com/lightroom/exportlut.htm
# Preset: Cvatik_Artemis_6
# Color profile: E:\lut插件\exportlut.1.24\exportlut.lrplugin\color profiles\Rec709gamma2.4.icc
LUT_3D_SIZE 8
DOMAIN_MIN 0.000000 0.000000 0.000000
DOMAIN_MAX 0.903226 0.903226 0.903226
0.141634 0.107790 0.116487
0.273228 0.105592 0.114778
0.684810 0.270207 0.000000
0.873472 0.414984 0.178653
0.960052 0.527520 0.367193
0.982086 0.652918 0.565270
0.971130 0.720089 0.662135
0.957519 0.763485 0.720607
0.176486 0.161501 0.155306
0.189822 0.228489 0.165988
0.555840 0.339086 0.145541
0.804105 0.464607 0.241215
0.922850 0.564477 0.408881
0.963317 0.656886 0.562188
0.965270 0.716213 0.652186
0.956786 0.759915 0.713283
0.354620 0.375738 0.333227
0.354253 0.400336 0.345739
0.354711 0.532433 0.392340
0.694331 0.739864 0.602289
0.814725 0.680873 0.536950
0.903166 0.735012 0.647181
0.926299 0.777340 0.721798
0.927428 0.803922 0.763638
0.494179 0.581567 0.542443
0.501579 0.582727 0.547478
0.495216 0.652369 0.595361
0.499947 0.745571 0.646235
0.744198 0.875578 0.798825
0.829252 0.850309 0.786191
0.875456 0.824949 0.763516
0.894804 0.840360 0.798825
0.575189 0.710994 0.687129
0.576410 0.710567 0.687434
0.575921 0.740017 0.708644
0.577295 0.788724 0.740383
0.589410 0.830808 0.757259
0.711727 0.879576 0.798489
0.835172 0.911925 0.888579
0.857664 0.877317 0.834714
0.624170 0.776303 0.758022
0.627039 0.780667 0.762295
0.626795 0.794034 0.770932
0.632044 0.823880 0.791226
0.648096 0.856138 0.813291
0.679713 0.882109 0.830381
0.739620 0.902342 0.836088
0.836851 0.924681 0.916442
0.650324 0.824674 0.800595
0.650538 0.825620 0.801236
0.648341 0.826810 0.800961
0.657649 0.847135 0.816251
0.677790 0.872038 0.836362
0.711940 0.894652 0.857572
0.750057 0.908721 0.873075
0.779782 0.917693 0.871092
0.657191 0.859251 0.822782
0.656764 0.859434 0.822721
0.655512 0.860441 0.822629
0.655116 0.863401 0.823941
0.682338 0.883268 0.843961
0.732601 0.904540 0.871672
0.774594 0.917052 0.890990
0.795438 0.922148 0.897246
0.000000 0.177493 0.311528
0.248753 0.137728 0.308476
0.599237 0.237675 0.343511
0.792782 0.529686 0.503929
0.894377 0.638209 0.591394
0.934722 0.703700 0.659754
0.944518 0.743954 0.705135
0.943542 0.775143 0.741299
0.000000 0.323033 0.320928
0.144625 0.346471 0.344640
0.482338 0.367864 0.377356
0.746181 0.556420 0.509209
0.870390 0.654261 0.599329
0.922423 0.710506 0.662104
0.938842 0.745083 0.702937
0.941833 0.773922 0.737514
0.261906 0.459266 0.385046
0.321843 0.474983 0.405432
0.463294 0.523430 0.482216
0.622461 0.715114 0.637995
0.776089 0.701717 0.616541
0.874540 0.751125 0.690852
0.909880 0.781186 0.736049
0.919829 0.805325 0.769802
0.441718 0.605463 0.542443
0.461189 0.611566 0.554253
0.526299 0.640650 0.606409
0.525231 0.717372 0.656916
0.668757 0.829404 0.743801
0.801999 0.829252 0.763638
0.862181 0.815640 0.757046
0.891081 0.834562 0.793851
0.551965 0.720912 0.684810
0.556390 0.721004 0.686641
0.588037 0.730953 0.708583
0.589899 0.773648 0.738613
0.589837 0.816129 0.755062
0.670466 0.858610 0.769192
0.831479 0.909392 0.885161
0.854307 0.871458 0.827176
0.615625 0.773556 0.752529
0.616846 0.773831 0.753231
0.633692 0.781308 0.765774
0.636713 0.813413 0.787442
0.649439 0.848295 0.810941
0.676570 0.877867 0.829282
0.721798 0.896391 0.825467
0.836576 0.924407 0.915770
0.654597 0.816861 0.797757
0.653315 0.816526 0.796994
0.650996 0.817624 0.796658
0.658625 0.839719 0.812680
0.677180 0.866850 0.833921
0.708034 0.890715 0.854887
0.741207 0.905516 0.868559
0.768490 0.915129 0.863035
0.659541 0.855436 0.821866
0.659754 0.855985 0.822232
0.658289 0.856992 0.822110
0.657832 0.860136 0.823514
0.690486 0.883940 0.847898
0.736721 0.904448 0.873625
0.774655 0.916533 0.891112
0.795987 0.921843 0.897826
0.000000 0.451545 0.742794
0.000000 0.459052 0.738430
0.455634 0.451362 0.705379
0.661769 0.485023 0.661524
0.811795 0.678645 0.734157
0.866697 0.816831 0.825559
0.875608 0.848844 0.846311
0.884276 0.855619 0.848203
0.000000 0.573999 0.740505
0.000000 0.583948 0.746822
0.425788 0.589410 0.731777
0.610986 0.538109 0.671168
0.782742 0.685634 0.732967
0.858213 0.819791 0.826291
0.874479 0.845090 0.841398
0.884764 0.852811 0.844358
0.000000 0.703914 0.721279
0.000000 0.710109 0.727138
0.389197 0.729458 0.745266
0.564233 0.753109 0.773648
0.711971 0.745388 0.759579
0.831235 0.843076 0.839475
0.861601 0.853849 0.845274
0.876036 0.861448 0.850248
0.291814 0.761288 0.717647
0.337316 0.766659 0.725551
0.452430 0.776913 0.742123
0.572625 0.789639 0.764004
0.648341 0.797971 0.783108
0.759487 0.835142 0.809476
0.835630 0.861875 0.842588
0.861997 0.872374 0.855619
0.485664 0.780789 0.731350
0.498665 0.782620 0.735164
0.546532 0.791073 0.751553
0.616175 0.806668 0.780240
0.674128 0.824063 0.810269
0.674220 0.851621 0.813565
0.820249 0.908019 0.890715
0.841245 0.878935 0.849546
0.573510 0.803525 0.764462
0.580896 0.805509 0.768063
0.608209 0.811704 0.780484
0.653040 0.823270 0.802609
0.693935 0.843229 0.829465
0.710689 0.875486 0.850492
0.723842 0.892149 0.845274
0.835050 0.923796 0.915404
0.652277 0.825467 0.803525
0.652338 0.824857 0.803067
0.657435 0.824796 0.804776
0.690333 0.835386 0.823545
0.705928 0.862760 0.844694
0.730190 0.888914 0.865507
0.754971 0.905882 0.878447
0.767239 0.914397 0.869505
0.682124 0.848539 0.827756
0.681453 0.848600 0.827512
0.679774 0.849638 0.827390
0.679072 0.853483 0.829160
0.706142 0.879789 0.853025
0.748013 0.902861 0.878477
0.782162 0.916014 0.895109
0.804471 0.921782 0.903532
0.000000 0.617670 0.875273
0.169192 0.639246 0.875120
0.441382 0.687190 0.867185
0.569696 0.688075 0.856077
0.705287 0.667048 0.830320
0.811917 0.725399 0.814206
0.856077 0.830808 0.854185
0.856016 0.886595 0.888182
0.000000 0.686000 0.877287
0.250797 0.699031 0.878660
0.453437 0.730648 0.873533
0.578698 0.736812 0.864622
0.688746 0.693355 0.834501
0.801083 0.739223 0.819852
0.851194 0.834958 0.856413
0.854246 0.888609 0.889616
0.188846 0.766476 0.860166
0.282506 0.774044 0.862272
0.453834 0.796841 0.869230
0.609216 0.824613 0.879759
0.668452 0.797147 0.858366
0.766629 0.790829 0.842588
0.835233 0.860319 0.872190
0.846555 0.900572 0.898772
0.290684 0.832212 0.849058
0.335882 0.834257 0.850278
0.459693 0.843626 0.856535
0.591516 0.858701 0.867704
0.693050 0.871244 0.878019
0.721553 0.846098 0.860960
0.813687 0.877928 0.879667
0.841001 0.901884 0.897642
0.403082 0.862577 0.837583
0.424262 0.863127 0.838865
0.498573 0.867155 0.845701
0.597345 0.875334 0.857969
0.686763 0.883207 0.870207
0.739345 0.885008 0.875242
0.777157 0.886748 0.876341
0.830259 0.900206 0.890410
0.516655 0.856107 0.817411
0.530724 0.858701 0.821317
0.569207 0.861082 0.827512
0.631983 0.867369 0.840635
0.700160 0.876799 0.858427
0.751919 0.885283 0.874479
0.771359 0.897459 0.885069
0.830289 0.921508 0.913176
0.604425 0.851591 0.814572
0.605707 0.851621 0.814786
0.622705 0.853971 0.820188
0.668910 0.862638 0.837278
0.722591 0.874479 0.859037
0.766964 0.887877 0.880034
0.780148 0.905180 0.891875
0.792081 0.915221 0.894102
0.689326 0.850858 0.832944
0.689784 0.850675 0.832975
0.691951 0.850004 0.833249
0.696498 0.848966 0.834104
0.733913 0.871672 0.860075
0.765499 0.899474 0.884703
0.792996 0.914794 0.900267
0.812100 0.921721 0.908568
0.318151 0.717891 0.912444
0.372900 0.731960 0.912108
0.498665 0.769436 0.909178
0.604120 0.799100 0.905608
0.667201 0.796811 0.899931
0.736019 0.768856 0.886625
0.825803 0.801480 0.879515
0.854948 0.847807 0.878050
0.366003 0.750271 0.913024
0.409888 0.761440 0.912871
0.517937 0.790768 0.910369
0.625025 0.820005 0.905791
0.673457 0.812467 0.900572
0.732784 0.785519 0.888151
0.821073 0.807889 0.881315
0.852537 0.850553 0.879179
0.407813 0.800870 0.905516
0.437446 0.806271 0.905882
0.527855 0.824155 0.906706
0.637507 0.848814 0.907591
0.697292 0.853605 0.902190
0.725399 0.830137 0.891478
0.801389 0.826566 0.885130
0.843717 0.858244 0.881651
0.406470 0.838163 0.894224
0.432868 0.841215 0.894652
0.519860 0.853025 0.896788
0.626703 0.869963 0.900725
0.720027 0.886290 0.905425
0.754696 0.884886 0.902098
0.775082 0.859129 0.889952
0.831998 0.878477 0.890227
0.426520 0.870085 0.882231
0.448127 0.871641 0.883116
0.519188 0.877104 0.886229
0.614313 0.885954 0.891691
0.701015 0.895262 0.897887
0.759518 0.901976 0.902922
0.782162 0.897612 0.900755
0.821592 0.898344 0.898772
0.455665 0.886900 0.868925
0.470314 0.887541 0.869871
0.520684 0.889342 0.872831
0.597345 0.893431 0.878965
0.680537 0.899138 0.887358
0.751400 0.905913 0.897124
0.787778 0.908690 0.901457
0.813107 0.912261 0.905211
0.512383 0.882109 0.844572
0.513451 0.881437 0.843748
0.545769 0.881407 0.845823
0.615351 0.885283 0.856016
0.694972 0.892454 0.871916
0.757931 0.900450 0.887602
0.793118 0.906035 0.898161
0.805295 0.914122 0.904570
0.642237 0.867735 0.835111
0.642908 0.867491 0.835019
0.645869 0.866636 0.834714
0.653498 0.866117 0.835599
0.708003 0.877012 0.856779
0.773526 0.895293 0.886168
0.801999 0.911620 0.903136
0.815152 0.920378 0.910552
0.484260 0.789059 0.924071
0.508629 0.797330 0.923491
0.576257 0.819791 0.921050
0.662715 0.849149 0.917998
0.707210 0.858061 0.915953
0.737148 0.854765 0.913695
0.774929 0.842771 0.910369
0.837461 0.857115 0.909636
0.481849 0.793606 0.922667
0.501396 0.799435 0.922057
0.567285 0.819821 0.919982
0.651942 0.846799 0.917174
0.705715 0.859586 0.915007
0.735225 0.856565 0.912871
0.771359 0.844633 0.909483
0.834257 0.856352 0.908751
0.512993 0.824002 0.919341
0.529656 0.828031 0.919158
0.591058 0.843931 0.918608
0.666224 0.863401 0.917082
0.729610 0.879576 0.914916
0.751095 0.877287 0.913085
0.773709 0.866514 0.910277
0.825620 0.867338 0.909087
0.516991 0.848569 0.913481
0.532280 0.851316 0.913420
0.590875 0.862791 0.913603
0.675471 0.880583 0.914641
0.749111 0.896849 0.915892
0.780850 0.901915 0.914885
0.787472 0.894255 0.912688
0.817472 0.885191 0.910521
0.496834 0.867796 0.905211
0.512078 0.869596 0.905425
0.568048 0.876646 0.906523
0.649134 0.887968 0.908721
0.726131 0.899565 0.911498
0.777981 0.908019 0.913970
0.799466 0.909148 0.913848
0.809537 0.895445 0.909483
0.485084 0.886442 0.895811
0.501183 0.887785 0.896544
0.551263 0.891356 0.898283
0.625696 0.897429 0.901518
0.704158 0.904631 0.905791
0.767605 0.911650 0.910552
0.802457 0.915831 0.913664
0.813291 0.912902 0.912383
0.429969 0.900847 0.883726
0.445930 0.901427 0.884459
0.501823 0.903136 0.886839
0.586633 0.906249 0.891356
0.679133 0.910307 0.897856
0.757229 0.914641 0.905455
0.797726 0.917571 0.910552
0.816800 0.918303 0.912291
0.542687 0.896727 0.861753
0.544182 0.896300 0.861143
0.551690 0.894743 0.859068
0.568444 0.891600 0.855131
0.626795 0.890776 0.858762
0.746334 0.904082 0.887999
0.803616 0.913848 0.905760
0.822629 0.919249 0.913542
0.559991 0.821469 0.925689
0.574548 0.826566 0.925200
0.622339 0.843137 0.923583
0.689601 0.866361 0.921324
0.744625 0.884581 0.919463
0.758846 0.884001 0.919097
0.776364 0.881926 0.918456
0.799222 0.875639 0.917723
0.561883 0.824857 0.925231
0.576196 0.829709 0.924804
0.622461 0.845121 0.923278
0.687343 0.866728 0.921141
0.743008 0.884703 0.919310
0.759274 0.885161 0.918822
0.775570 0.882506 0.918151
0.797696 0.875883 0.917357
0.575830 0.839414 0.923705
0.588525 0.843137 0.923461
0.633204 0.856321 0.922454
0.694697 0.874662 0.920714
0.747738 0.890166 0.919188
0.772000 0.894926 0.918456
0.783505 0.892302 0.917937
0.800443 0.886534 0.917388
0.573602 0.853239 0.920500
0.584558 0.855741 0.920378
0.628779 0.866331 0.919921
0.696376 0.883146 0.919463
0.756130 0.898405 0.919097
0.786954 0.905669 0.918425
0.795987 0.904540 0.917906
0.805142 0.899199 0.917388
0.545647 0.864073 0.916075
0.557244 0.865995 0.916075
0.602594 0.873899 0.916167
0.672053 0.886656 0.916655
0.743435 0.900816 0.917388
0.789792 0.910735 0.918364
0.806790 0.913329 0.918090
0.811490 0.909606 0.917571
0.501244 0.876524 0.909789
0.514824 0.878019 0.909972
0.564538 0.883665 0.910735
0.640558 0.892973 0.912230
0.721157 0.903838 0.914397
0.780545 0.912810 0.916655
0.810208 0.917815 0.918120
0.818997 0.917479 0.918059
0.415015 0.889097 0.900420
0.433082 0.890074 0.900816
0.496620 0.893828 0.902220
0.590509 0.900359 0.905058
0.688838 0.908232 0.909117
0.764523 0.915221 0.913420
0.804715 0.919615 0.916472
0.822385 0.921508 0.917998
0.421790 0.905699 0.890349
0.422705 0.905852 0.890257
0.427008 0.906462 0.889860
0.435615 0.907622 0.888853
0.545830 0.911009 0.892393
0.705745 0.916258 0.902953
0.797391 0.920531 0.912749
0.823758 0.922637 0.916808
0.652674 0.858976 0.924804
0.661952 0.862211 0.924498
0.693538 0.872984 0.923430
0.738705 0.888304 0.921965
0.775753 0.900694 0.920928
0.790616 0.904326 0.920714
0.799039 0.904570 0.920684
0.808316 0.903685 0.920745
0.651270 0.859373 0.924743
0.660639 0.862577 0.924407
0.692714 0.873381 0.923339
0.737697 0.888426 0.921935
0.775143 0.900755 0.920897
0.791592 0.905028 0.920623
0.799557 0.905150 0.920623
0.808469 0.904173 0.920684
0.651362 0.863127 0.924285
0.660182 0.865965 0.924010
0.692195 0.876066 0.923033
0.739040 0.890898 0.921721
0.776364 0.902525 0.920775
0.798367 0.909056 0.920317
0.803677 0.908446 0.920409
0.810666 0.907103 0.920500
0.632471 0.863981 0.923430
0.643183 0.867002 0.923217
0.681147 0.877684 0.922423
0.736263 0.893400 0.921447
0.777371 0.905119 0.920623
0.801663 0.911955 0.920226
0.810208 0.913237 0.920195
0.814542 0.911650 0.920256
0.579614 0.860563 0.921874
0.591333 0.863157 0.921721
0.633143 0.872526 0.921324
0.705196 0.889708 0.920562
0.768826 0.905547 0.920195
0.803128 0.914336 0.920195
0.815854 0.917205 0.920073
0.818967 0.916075 0.920104
0.489631 0.859617 0.918364
0.504906 0.861906 0.918334
0.561975 0.871000 0.918242
0.648188 0.885893 0.918334
0.735683 0.902129 0.918822
0.794949 0.914458 0.919554
0.818479 0.919738 0.920134
0.823972 0.920104 0.920073
0.201144 0.857084 0.911833
0.220584 0.858335 0.911681
0.380804 0.868009 0.912047
0.539269 0.883513 0.913085
0.676905 0.900420 0.915068
0.770199 0.913329 0.917540
0.812711 0.920104 0.919341
0.826871 0.922545 0.920134
0.331365 0.887724 0.902586
0.331975 0.887846 0.902525
0.334447 0.888426 0.902312
0.339757 0.889677 0.901823
0.458991 0.896483 0.903014
0.692866 0.911711 0.910491
0.798581 0.920775 0.916899
0.826383 0.923919 0.919524
