20 Preset/Classic brown/【3】LUT video cho PR-AE-FCPX/Tone (7).cube
# Created by Adobe Lightroom plugin Export LUT (1.24.0)
# www.johnrellis.com/lightroom/exportlut.htm
# Preset: 人文电影-素材江湖08
# Color profile: E:\lut插件\exportlut.1.24\exportlut.lrplugin\color profiles\Rec709gamma2.4.icc
LUT_3D_SIZE 32
DOMAIN_MIN 0.0 0.0 0.0
DOMAIN_MAX 1.0 1.0 1.0
0.050843 0.079469 0.071595
0.050843 0.079469 0.071595
0.050843 0.079469 0.071595
0.050843 0.079469 0.071595
0.088991 0.080354 0.076143
0.120668 0.082612 0.083070
0.158877 0.081727 0.090028
0.204379 0.068482 0.094301
0.257176 0.031739 0.097932
0.314702 0.000000 0.101259
0.375982 0.000000 0.105287
0.440223 0.000000 0.109346
0.503532 0.000000 0.114137
0.564141 0.000000 0.119539
0.619348 0.000000 0.126009
0.668025 0.000000 0.132998
0.710170 0.000000 0.141329
0.745541 0.000000 0.150607
0.775479 0.000000 0.160952
0.800717 0.000000 0.172335
0.822751 0.000000 0.184054
0.844938 0.000000 0.197696
0.868040 0.000000 0.215671
0.886503 0.000000 0.232364
0.901579 0.000000 0.248234
0.914366 0.000000 0.263401
0.925689 0.079927 0.278416
0.936095 0.158633 0.293797
0.945830 0.205478 0.309606
0.955200 0.243687 0.325933
0.964324 0.277440 0.342931
0.973022 0.308812 0.360723
0.050843 0.079469 0.071595
0.050843 0.079469 0.071595
0.050843 0.079469 0.071595
0.050843 0.079469 0.071595
0.088991 0.080354 0.076143
0.119844 0.082124 0.083162
0.156649 0.081941 0.089662
0.200687 0.070863 0.093599
0.251743 0.036469 0.097353
0.307622 0.000000 0.101228
0.367681 0.000000 0.105013
0.431220 0.000000 0.108858
0.494362 0.000000 0.113466
0.554955 0.000000 0.118715
0.610681 0.000000 0.124880
0.660151 0.000000 0.131991
0.703731 0.000000 0.139895
0.740047 0.000000 0.148959
0.770871 0.000000 0.159182
0.796628 0.000000 0.170413
0.818906 0.000000 0.181735
0.841032 0.000000 0.195468
0.863645 0.000000 0.211887
0.881804 0.000000 0.228153
0.896971 0.000000 0.243107
0.909941 0.000000 0.257847
0.921569 0.000000 0.272770
0.932341 0.136324 0.288151
0.942504 0.189425 0.303868
0.952270 0.230259 0.320104
0.961700 0.266087 0.337438
0.970794 0.298772 0.355322
0.050843 0.079469 0.071595
0.050843 0.079469 0.071595
0.050843 0.079469 0.071595
0.050843 0.079469 0.071595
0.091188 0.079927 0.076112
0.120668 0.082612 0.083070
0.156435 0.081331 0.089723
0.199039 0.071229 0.093690
0.248814 0.037873 0.097505
0.303899 0.000000 0.100984
0.363439 0.000000 0.104524
0.425940 0.000000 0.108492
0.488502 0.000000 0.112917
0.548821 0.000000 0.118013
0.604639 0.000000 0.123964
0.654810 0.000000 0.130709
0.698695 0.000000 0.138796
0.735988 0.000000 0.147738
0.767422 0.000000 0.158083
0.793820 0.000000 0.168917
0.816526 0.000000 0.180545
0.839261 0.000000 0.194583
0.861357 0.000000 0.210727
0.879332 0.000000 0.226596
0.894377 0.000000 0.241459
0.907347 0.000000 0.255711
0.919127 0.000000 0.270207
0.930053 0.131716 0.285313
0.940398 0.185489 0.301305
0.950378 0.227115 0.317632
0.959930 0.263279 0.335088
0.969177 0.295689 0.352697
0.050843 0.079469 0.071595
0.050843 0.079469 0.071595
0.050843 0.079469 0.071595
0.050843 0.079469 0.071595
0.096590 0.080934 0.077882
0.124239 0.082246 0.084352
0.158297 0.081239 0.090089
0.200229 0.070130 0.094057
0.248783 0.039063 0.097078
0.302525 0.000000 0.100649
0.360937 0.000000 0.104280
0.422126 0.000000 0.108339
0.483833 0.000000 0.112551
0.543389 0.000000 0.117494
0.598871 0.000000 0.123323
0.648463 0.000000 0.130037
0.692561 0.000000 0.137606
0.730068 0.000000 0.145876
0.761990 0.000000 0.155917
0.788968 0.000000 0.167178
0.811948 0.000000 0.178988
0.835264 0.000000 0.193393
0.856657 0.000000 0.208927
0.874754 0.000000 0.223789
0.890379 0.000000 0.238804
0.904082 0.000000 0.253880
0.916564 0.013062 0.268986
0.928069 0.143587 0.284855
0.938842 0.193851 0.300755
0.948974 0.233494 0.317357
0.958556 0.267491 0.334386
0.967651 0.297887 0.351629
0.056458 0.088746 0.081086
0.056458 0.088746 0.081086
0.055482 0.088380 0.080476
0.060578 0.089815 0.080079
0.100801 0.090608 0.081880
0.128054 0.089601 0.087221
0.160769 0.086458 0.090822
0.199985 0.073732 0.093904
0.246464 0.040772 0.097169
0.298192 0.000000 0.100465
0.354742 0.000000 0.103822
0.415076 0.000000 0.107759
0.475807 0.000000 0.111849
0.535332 0.000000 0.116884
0.591180 0.000000 0.122713
0.642695 0.000000 0.129397
0.688197 0.000000 0.137209
0.727077 0.000000 0.146212
0.759701 0.000000 0.156527
0.786893 0.000000 0.167849
0.809842 0.000000 0.180026
0.833860 0.000000 0.194736
0.854551 0.000000 0.209384
0.872465 0.000000 0.224216
0.888060 0.000000 0.239353
0.902007 0.000000 0.254307
0.914580 0.104891 0.269505
0.926146 0.166049 0.284855
0.936858 0.208927 0.300969
0.946960 0.244327 0.317479
0.956573 0.275578 0.334142
0.965637 0.304356 0.351385
0.075532 0.105470 0.096498
0.075227 0.105470 0.096895
0.075837 0.105470 0.096132
0.081544 0.106844 0.096620
0.097200 0.110597 0.094606
0.133181 0.113008 0.092439
0.170962 0.110414 0.095064
0.211215 0.103120 0.096864
0.256687 0.090333 0.099763
0.307317 0.046754 0.102663
0.362585 0.000000 0.105531
0.421454 0.000000 0.109560
0.481361 0.000000 0.113832
0.540063 0.000000 0.118929
0.595331 0.000000 0.124941
0.645747 0.000000 0.131533
0.690578 0.000000 0.139986
0.728786 0.000000 0.148836
0.760647 0.000000 0.159487
0.787320 0.000000 0.171084
0.810941 0.000000 0.183719
0.834775 0.000000 0.198917
0.878325 0.000000 0.235508
0.894591 0.109194 0.252689
0.908110 0.169955 0.269200
0.919921 0.209628 0.284642
0.930297 0.242069 0.299992
0.939849 0.269261 0.315160
0.948760 0.294469 0.330419
0.957244 0.317449 0.345861
0.965362 0.338872 0.361059
0.973022 0.358770 0.376318
0.090791 0.129030 0.114199
0.090639 0.129274 0.113863
0.092805 0.129885 0.113741
0.097536 0.131075 0.113466
0.106691 0.135561 0.110292
0.135286 0.142214 0.106386
0.190799 0.148379 0.099825
0.242985 0.143282 0.100923
0.291203 0.132326 0.103182
0.344305 0.116457 0.106508
0.401312 0.088991 0.109987
0.460609 0.000000 0.113893
0.518456 0.000000 0.118685
0.573480 0.000000 0.124269
0.624170 0.000000 0.130709
0.669490 0.000000 0.138186
0.709224 0.000000 0.146822
0.742885 0.000000 0.156527
0.771725 0.000000 0.167605
0.796323 0.000000 0.179660
0.823148 0.000000 0.195682
0.847501 0.000000 0.213443
0.868254 0.082643 0.231205
0.886046 0.158175 0.249088
0.901122 0.202487 0.266911
0.913756 0.236118 0.283299
0.924743 0.262852 0.298711
0.934539 0.286320 0.313817
0.943725 0.307866 0.328679
0.952422 0.327886 0.343603
0.960693 0.347173 0.358953
0.968658 0.365667 0.373877
0.106691 0.156924 0.137667
0.106783 0.156924 0.137453
0.108370 0.157595 0.137087
0.112490 0.158877 0.136568
0.120577 0.161746 0.134493
0.137881 0.167575 0.127779
0.178042 0.176394 0.119020
0.245487 0.184970 0.105409
0.305577 0.179843 0.102693
0.357824 0.168490 0.106600
0.413703 0.154025 0.110170
0.470008 0.134707 0.114870
0.525414 0.107698 0.120272
0.577874 0.041810 0.126345
0.626154 0.000000 0.132448
0.669459 0.000000 0.140047
0.707637 0.000000 0.148989
0.740230 0.000000 0.159030
0.768368 0.000000 0.170169
0.794858 0.000000 0.183536
0.820920 0.053040 0.199710
0.843503 0.135103 0.216526
0.863188 0.178775 0.233646
0.880369 0.214939 0.251011
0.895323 0.245121 0.267857
0.908019 0.270085 0.284276
0.919219 0.291081 0.299443
0.929290 0.310002 0.314336
0.938781 0.328313 0.329076
0.947662 0.345830 0.344152
0.956268 0.362615 0.359197
0.964508 0.379004 0.374060
0.129915 0.191592 0.168765
0.130404 0.192020 0.168521
0.130526 0.192599 0.167544
0.134340 0.194095 0.167239
0.141726 0.196201 0.166415
0.153201 0.201175 0.161440
0.178775 0.208194 0.152895
0.229892 0.219394 0.141451
0.305303 0.228702 0.122896
0.372412 0.223941 0.110719
0.428534 0.214145 0.108186
0.483070 0.203433 0.113588
0.536034 0.190097 0.119631
0.585992 0.176699 0.126772
0.631708 0.163394 0.133913
0.672724 0.151492 0.142214
0.708644 0.144320 0.151492
0.739498 0.143313 0.162020
0.767941 0.152529 0.174411
0.795163 0.174472 0.189883
0.818967 0.197879 0.205356
0.839933 0.221927 0.221347
0.858732 0.245579 0.238102
0.875273 0.269078 0.255222
0.889891 0.290471 0.271855
0.902586 0.308690 0.287602
0.913939 0.324804 0.302586
0.924193 0.340032 0.317388
0.933837 0.354833 0.332280
0.942992 0.369085 0.346807
0.951812 0.383337 0.361608
0.960235 0.397406 0.376684
0.157931 0.231510 0.203403
0.158389 0.231907 0.203464
0.159945 0.233371 0.203616
0.161563 0.235050 0.202762
0.167971 0.236515 0.201602
0.178225 0.238865 0.199924
0.193027 0.246036 0.191867
0.226169 0.254093 0.181308
0.285924 0.267613 0.168002
0.366430 0.277256 0.146792
0.434821 0.273625 0.132052
0.490272 0.265110 0.125734
0.541863 0.257908 0.123323
0.590356 0.250675 0.123568
0.634821 0.244450 0.133272
0.674372 0.239536 0.142275
0.709041 0.237736 0.153109
0.740963 0.240696 0.166171
0.769955 0.251225 0.181033
0.794797 0.262638 0.197024
0.816495 0.275547 0.212131
0.835660 0.288518 0.227543
0.852934 0.302312 0.243198
0.868498 0.316472 0.258824
0.882444 0.330236 0.274083
0.895048 0.342504 0.289220
0.906493 0.355200 0.304112
0.917266 0.367041 0.318700
0.927398 0.379522 0.333745
0.937011 0.392157 0.348882
0.946380 0.404547 0.363989
0.955322 0.417029 0.379156
0.187106 0.272465 0.237980
0.187930 0.273045 0.238224
0.189975 0.274998 0.239048
0.191531 0.277653 0.238590
0.196567 0.279820 0.238163
0.205661 0.282719 0.237522
0.217868 0.287907 0.233402
0.239445 0.296788 0.224582
0.279637 0.306126 0.213230
0.347662 0.322515 0.197665
0.428595 0.333440 0.175021
0.494636 0.331640 0.159030
0.548516 0.324041 0.148348
0.594965 0.319341 0.146761
0.637629 0.315984 0.144717
0.676570 0.314336 0.144350
0.712367 0.317449 0.156558
0.742611 0.321294 0.171817
0.768490 0.326268 0.187594
0.791440 0.332158 0.203189
0.811826 0.339086 0.218753
0.830167 0.346899 0.234043
0.846891 0.355596 0.249485
0.862150 0.364965 0.265171
0.876097 0.374273 0.280400
0.888701 0.383124 0.295323
0.900328 0.392096 0.310155
0.911315 0.401160 0.324743
0.921691 0.410529 0.339330
0.931609 0.420508 0.354528
0.941192 0.430610 0.369512
0.950439 0.440803 0.384527
0.220951 0.320806 0.276677
0.221561 0.321386 0.277104
0.224033 0.323400 0.278050
0.227573 0.327123 0.279393
0.230411 0.329503 0.278233
0.238285 0.332738 0.277806
0.250584 0.336980 0.277226
0.265293 0.345037 0.270787
0.293645 0.354833 0.260441
0.339483 0.365179 0.248081
0.410986 0.383581 0.231022
0.488289 0.395209 0.207706
0.575555 0.424933 0.207309
0.627893 0.425208 0.196872
0.669245 0.427771 0.200076
0.704372 0.429816 0.203494
0.734340 0.430854 0.207004
0.761013 0.431891 0.210483
0.784329 0.433173 0.218540
0.804501 0.435004 0.236088
0.822599 0.437049 0.252049
0.838865 0.439460 0.267491
0.853635 0.442512 0.282628
0.867247 0.445808 0.297551
0.879667 0.449256 0.311711
0.891203 0.452338 0.325170
0.901823 0.455634 0.337835
0.911833 0.459052 0.350561
0.921477 0.462898 0.363195
0.930907 0.467506 0.375982
0.940002 0.472877 0.388983
0.948791 0.479255 0.402808
0.270542 0.389197 0.330999
0.270726 0.389471 0.331029
0.272587 0.390631 0.331548
0.276219 0.393805 0.332799
0.277440 0.395727 0.331090
0.283177 0.397559 0.329778
0.292912 0.400580 0.328588
0.306676 0.405585 0.326116
0.324773 0.414954 0.316716
0.358251 0.425360 0.305455
0.410773 0.440223 0.295354
0.487160 0.466896 0.282200
0.563348 0.486427 0.264683
0.620020 0.493965 0.254429
0.664759 0.493202 0.244053
0.696895 0.491737 0.247074
0.725032 0.489540 0.249088
0.750240 0.487312 0.249882
0.773098 0.484993 0.250614
0.793820 0.482582 0.251164
0.812100 0.480812 0.259037
0.828275 0.480262 0.274388
0.843320 0.480415 0.289006
0.857206 0.481239 0.303227
0.870085 0.482246 0.317205
0.882078 0.483558 0.330510
0.893248 0.485115 0.343664
0.903868 0.487098 0.356359
0.914092 0.489693 0.369299
0.923980 0.493172 0.382269
0.933562 0.497108 0.395483
0.942809 0.501915 0.409033
0.305455 0.436713 0.369177
0.305730 0.436835 0.369085
0.307012 0.437629 0.369268
0.310307 0.440131 0.370336
0.312291 0.443488 0.370001
0.317418 0.446357 0.369543
0.326482 0.450782 0.369970
0.340246 0.456764 0.370916
0.355596 0.466163 0.367407
0.380438 0.478676 0.360235
0.419348 0.492744 0.352087
0.472663 0.509178 0.345251
0.541955 0.532769 0.330480
0.604059 0.546563 0.314702
0.649256 0.548150 0.304021
0.686549 0.543603 0.291478
0.714046 0.539361 0.291752
0.738613 0.535088 0.291142
0.760891 0.531182 0.290837
0.781491 0.527031 0.289158
0.800443 0.523339 0.287968
0.818235 0.520195 0.287480
0.833799 0.518120 0.298772
0.848112 0.516960 0.312902
0.861387 0.516258 0.326452
0.873747 0.515923 0.339788
0.885313 0.516014 0.352544
0.896361 0.516381 0.365087
0.906981 0.517540 0.377630
0.917205 0.519738 0.390936
0.927184 0.522301 0.403815
0.936858 0.525750 0.417304
0.350988 0.496864 0.418769
0.351232 0.497017 0.418799
0.352331 0.497719 0.418952
0.354986 0.499519 0.419745
0.357397 0.502190 0.419745
0.359594 0.503441 0.417853
0.366125 0.506218 0.417395
0.376318 0.510185 0.417365
0.390845 0.516350 0.417945
0.406470 0.526390 0.411292
0.433814 0.538018 0.404211
0.472694 0.550774 0.396612
0.522576 0.565972 0.389990
0.580255 0.582757 0.376745
0.631098 0.590112 0.361669
0.668696 0.588159 0.350469
0.701900 0.583093 0.337011
0.727230 0.577569 0.333196
0.749233 0.572442 0.331487
0.769406 0.567498 0.329442
0.788357 0.562829 0.326909
0.806424 0.558679 0.323980
0.823636 0.554620 0.321080
0.839200 0.551202 0.324651
0.852873 0.548760 0.337652
0.865599 0.547051 0.350530
0.877592 0.546014 0.363439
0.889128 0.545708 0.376043
0.900237 0.546136 0.389166
0.911070 0.547570 0.402533
0.921538 0.549828 0.416236
0.931762 0.552575 0.429847
0.389288 0.544854 0.460426
0.389837 0.545281 0.460700
0.390936 0.546166 0.461128
0.393805 0.548180 0.462348
0.397040 0.551110 0.463447
0.398383 0.552941 0.461921
0.404303 0.555810 0.462318
0.413062 0.559899 0.463020
0.425391 0.565301 0.464759
0.438270 0.572625 0.462654
0.455818 0.581384 0.456458
0.482155 0.590326 0.448524
0.516777 0.598810 0.439399
0.559564 0.609247 0.431037
0.606653 0.618616 0.417121
0.649317 0.621454 0.401434
0.682948 0.618555 0.389136
0.713130 0.613275 0.375799
0.737026 0.607355 0.369329
0.757168 0.602289 0.367468
0.776303 0.597772 0.364996
0.794675 0.593500 0.362188
0.812161 0.589380 0.358801
0.828977 0.585290 0.354803
0.844968 0.581048 0.352239
0.858213 0.578332 0.365026
0.870665 0.576379 0.377783
0.882536 0.575189 0.390265
0.893950 0.574578 0.403021
0.904967 0.574670 0.415686
0.915618 0.575280 0.428412
0.925872 0.576684 0.441535
0.422187 0.583673 0.496407
0.422461 0.583795 0.496407
0.423529 0.584649 0.496956
0.425788 0.586358 0.498054
0.429725 0.589166 0.499855
0.430274 0.590997 0.498451
0.434974 0.593347 0.498787
0.441840 0.596490 0.499519
0.451270 0.600580 0.500969
0.463447 0.605371 0.502739
0.474434 0.612146 0.497383
0.491920 0.619165 0.491035
0.516655 0.626001 0.483223
0.547906 0.632166 0.473976
0.585840 0.640375 0.466011
0.626490 0.646540 0.452857
0.665187 0.648554 0.437659
0.695552 0.645502 0.426093
0.723384 0.640467 0.413550
0.746181 0.634546 0.405219
0.765286 0.629755 0.402564
0.783597 0.625391 0.399878
0.801114 0.621332 0.396765
0.818204 0.617060 0.392157
0.834745 0.612604 0.387030
0.850614 0.608057 0.382300
0.863798 0.605097 0.393286
0.876097 0.602899 0.405524
0.887785 0.601648 0.418128
0.899077 0.600977 0.430518
0.910002 0.600824 0.442878
0.920470 0.601251 0.455390
0.454658 0.618372 0.531518
0.455329 0.618830 0.532036
0.477485 0.641108 0.555993
0.479316 0.642390 0.557031
0.482155 0.644373 0.558587
0.482612 0.645808 0.557549
0.485573 0.647211 0.557610
0.490150 0.649165 0.557946
0.496437 0.651942 0.558892
0.504906 0.655329 0.560357
0.513451 0.659541 0.559136
0.523461 0.664302 0.554070
0.538323 0.668666 0.547509
0.558679 0.672633 0.539422
0.584405 0.676143 0.530388
0.616999 0.681941 0.520928
0.652369 0.685512 0.507012
0.685939 0.685206 0.491066
0.712337 0.680598 0.478431
0.737179 0.674708 0.465126
0.758877 0.668025 0.453407
0.776516 0.662745 0.449439
0.793606 0.657679 0.444404
0.810178 0.652552 0.438911
0.826322 0.646967 0.431922
0.842161 0.641047 0.423835
0.857694 0.634821 0.415290
0.870298 0.630488 0.423590
0.882048 0.627710 0.434546
0.893339 0.626032 0.446204
0.904356 0.625025 0.457954
0.915068 0.624414 0.469459
0.488136 0.652583 0.568658
0.490059 0.654505 0.570733
0.492653 0.656886 0.573266
0.495766 0.659571 0.575982
0.499428 0.662501 0.578729
0.500664 0.664363 0.578882
0.502861 0.665705 0.578820
0.506249 0.667170 0.578943
0.511070 0.669215 0.579614
0.517540 0.671809 0.580499
0.525750 0.674922 0.581842
0.532433 0.678950 0.577996
0.542718 0.682826 0.572442
0.557458 0.686488 0.565881
0.577111 0.689815 0.557946
0.601434 0.693111 0.550347
0.632563 0.698726 0.540612
0.665095 0.701900 0.528527
0.696376 0.701839 0.514977
0.721004 0.698054 0.504265
0.744442 0.693202 0.492897
0.766323 0.687495 0.481361
0.783322 0.682704 0.477119
0.799924 0.677729 0.471839
0.816037 0.672419 0.465339
0.831968 0.666651 0.457282
0.847715 0.660548 0.448127
0.863218 0.654322 0.439460
0.875547 0.650263 0.448737
0.887083 0.647883 0.459846
0.898344 0.646326 0.470893
0.909209 0.645228 0.482338
0.507134 0.672084 0.590326
0.508934 0.673884 0.592340
0.511254 0.676051 0.594690
0.513970 0.678584 0.597223
0.517082 0.681178 0.599725
0.518303 0.682918 0.600092
0.519768 0.684169 0.599939
0.522515 0.685451 0.600122
0.526329 0.687190 0.600549
0.531365 0.689326 0.601190
0.537865 0.691920 0.602106
0.544427 0.695094 0.601068
0.551507 0.698573 0.596674
0.562310 0.702052 0.591272
0.577173 0.705257 0.585046
0.596277 0.708186 0.577569
0.619165 0.710994 0.571160
0.649012 0.716396 0.561425
0.678981 0.718837 0.550378
0.707759 0.718654 0.538262
0.730495 0.715114 0.528893
0.752499 0.710811 0.518975
0.773526 0.705776 0.508324
0.790494 0.701076 0.502922
0.806546 0.696010 0.497017
0.822385 0.690547 0.489570
0.838163 0.684657 0.480720
0.854032 0.678462 0.470710
0.869200 0.672480 0.464149
0.881254 0.668788 0.474067
0.892576 0.666773 0.484901
0.903593 0.665126 0.495613
0.524346 0.691005 0.610925
0.525689 0.692500 0.612543
0.527520 0.694423 0.614527
0.529747 0.696529 0.616663
0.532280 0.698817 0.618769
0.533043 0.700282 0.618891
0.534264 0.701411 0.618738
0.536645 0.702571 0.618982
0.539971 0.704128 0.619379
0.544121 0.705959 0.619928
0.549615 0.708278 0.620813
0.556451 0.710842 0.621820
0.561700 0.713924 0.618128
0.569696 0.717037 0.613703
0.581140 0.720150 0.608667
0.596277 0.723201 0.602838
0.615381 0.726345 0.596612
0.638087 0.729763 0.591455
0.666529 0.735134 0.583673
0.694789 0.737850 0.575067
0.721920 0.738308 0.565820
0.743404 0.735866 0.559228
0.764126 0.732448 0.551507
0.784329 0.728420 0.542901
0.801511 0.724117 0.536980
0.817227 0.719448 0.531243
0.832914 0.714321 0.523888
0.848631 0.708705 0.515221
0.864622 0.702632 0.504936
0.879118 0.696956 0.501579
0.890745 0.693599 0.510735
0.901701 0.691127 0.519951
0.547662 0.717617 0.640070
0.548302 0.718257 0.640803
0.549157 0.719020 0.641535
0.550256 0.719997 0.642420
0.551781 0.721187 0.643397
0.551537 0.721767 0.642542
0.552453 0.722438 0.642206
0.554437 0.723323 0.642329
0.557214 0.724636 0.642603
0.560937 0.726345 0.643275
0.565698 0.728420 0.644190
0.571527 0.730770 0.645197
0.576837 0.733333 0.644038
0.582666 0.736110 0.640162
0.591241 0.738888 0.635676
0.603021 0.741604 0.630518
0.618067 0.744259 0.624903
0.636744 0.746914 0.618738
0.658534 0.749966 0.613397
0.684627 0.753750 0.605585
0.710292 0.755184 0.597040
0.735134 0.754635 0.587793
0.754665 0.751431 0.580621
0.773648 0.747372 0.572503
0.792660 0.743038 0.563714
0.809934 0.738399 0.556085
0.825315 0.733822 0.550134
0.840879 0.728786 0.542535
0.856657 0.723262 0.533379
0.872709 0.716976 0.522393
0.885832 0.711696 0.524773
0.896910 0.708736 0.533135
0.562463 0.734279 0.658564
0.562951 0.734798 0.659113
0.563775 0.735439 0.659815
0.564904 0.736355 0.660639
0.565515 0.737148 0.660945
0.565423 0.737728 0.660273
0.566583 0.738308 0.660182
0.568292 0.739193 0.660304
0.570703 0.740352 0.660731
0.573968 0.741939 0.661341
0.578088 0.743740 0.662135
0.583093 0.745846 0.663172
0.588952 0.748104 0.663935
0.593317 0.750759 0.660700
0.600031 0.753414 0.656977
0.609369 0.756069 0.652735
0.621576 0.758816 0.648096
0.636957 0.761532 0.643000
0.655207 0.764065 0.637842
0.676753 0.767147 0.632319
0.701198 0.770077 0.625025
0.725399 0.770962 0.616907
0.748623 0.769955 0.608057
0.766995 0.766659 0.601221
0.782437 0.759121 0.587945
0.800656 0.754757 0.579278
0.818143 0.750240 0.570733
0.833371 0.745693 0.564446
0.848966 0.740658 0.556390
0.864866 0.734920 0.546349
0.880430 0.728695 0.537438
0.892058 0.724666 0.544976
0.581506 0.754696 0.681941
0.582300 0.755428 0.682826
0.582910 0.756008 0.683436
0.583246 0.756313 0.683436
0.582757 0.756313 0.682582
0.582361 0.756252 0.681514
0.582849 0.756130 0.680781
0.583764 0.756222 0.680110
0.585229 0.756588 0.679622
0.587488 0.757321 0.679469
0.590356 0.758267 0.679347
0.594232 0.759609 0.679561
0.599023 0.761196 0.679957
0.602930 0.762966 0.677760
0.607477 0.764858 0.673732
0.614374 0.766781 0.669398
0.623865 0.768887 0.664698
0.636255 0.771237 0.659754
0.651759 0.773800 0.654841
0.669612 0.776089 0.650538
0.691341 0.779477 0.645045
0.714626 0.781765 0.638025
0.737423 0.781979 0.629694
0.759304 0.780270 0.620386
0.776333 0.776272 0.612726
0.792782 0.771481 0.604120
0.809995 0.766781 0.594842
0.827420 0.761807 0.584924
0.842466 0.756893 0.577447
0.857939 0.751492 0.568109
0.873869 0.745266 0.556817
0.887388 0.739498 0.555993
0.592859 0.767178 0.695857
0.593439 0.767788 0.696529
0.593896 0.768338 0.696925
0.593988 0.768643 0.696895
0.593896 0.768917 0.696529
0.594385 0.769192 0.696345
0.595331 0.769650 0.696284
0.596643 0.770260 0.696345
0.598444 0.771115 0.696590
0.600885 0.772244 0.696986
0.603845 0.773526 0.697444
0.607477 0.774960 0.697993
0.611749 0.776547 0.698543
0.616022 0.778164 0.698024
0.619532 0.779873 0.694545
0.624842 0.781643 0.690669
0.632258 0.783505 0.686458
0.642206 0.785580 0.682063
0.655024 0.787900 0.677607
0.670741 0.790494 0.673091
0.687495 0.792050 0.669245
0.709010 0.795163 0.663172
0.730922 0.796567 0.656062
0.752438 0.796139 0.647761
0.773068 0.793973 0.638483
0.789151 0.789883 0.630854
0.804837 0.785061 0.622309
0.821256 0.780301 0.613092
0.838651 0.775235 0.602472
0.853971 0.770016 0.593378
0.869352 0.764096 0.582757
0.884611 0.757259 0.572137
0.606775 0.782467 0.712795
0.607080 0.782803 0.713191
0.607202 0.783017 0.713222
0.607263 0.783230 0.713100
0.607568 0.783383 0.712978
0.607996 0.783566 0.712825
0.608789 0.783841 0.712673
0.609918 0.784298 0.712642
0.611444 0.784970 0.712734
0.613489 0.785916 0.713008
0.616114 0.786954 0.713344
0.619318 0.788266 0.713863
0.623102 0.789700 0.714382
0.627527 0.791165 0.714839
0.630426 0.792752 0.712032
0.634546 0.794339 0.708522
0.640497 0.796017 0.704799
0.648646 0.797910 0.700832
0.659236 0.800076 0.696895
0.672480 0.802518 0.692866
0.688411 0.805051 0.688777
0.704646 0.806180 0.684779
0.725399 0.808499 0.678187
0.746090 0.808957 0.670649
0.766384 0.807767 0.661891
0.785641 0.804929 0.652033
0.800717 0.800534 0.644007
0.815427 0.795407 0.635004
0.831174 0.790311 0.625055
0.848356 0.785061 0.613642
0.864256 0.779232 0.602258
0.879820 0.772549 0.589441
0.618921 0.795529 0.727230
0.619257 0.795773 0.727565
0.619593 0.796048 0.727810
0.619989 0.796323 0.727993
0.620600 0.796689 0.728206
0.621485 0.797269 0.728603
0.623011 0.798337 0.729488
0.625025 0.799619 0.730587
0.627588 0.801297 0.732021
0.630579 0.803220 0.733669
0.634150 0.805356 0.735500
0.638148 0.807553 0.737270
0.642481 0.809720 0.738949
0.647211 0.811795 0.740383
0.650843 0.813779 0.739681
0.654444 0.815549 0.737148
0.659327 0.817227 0.734279
0.665949 0.819059 0.731014
0.674678 0.821073 0.727810
0.685725 0.823301 0.724483
0.699123 0.825589 0.721035
0.714351 0.827359 0.717189
0.730282 0.828061 0.712337
0.749355 0.829068 0.705440
0.768154 0.828397 0.697414
0.786587 0.826261 0.688045
0.804196 0.822721 0.677760
0.817899 0.817777 0.669123
0.831357 0.812192 0.659358
0.845853 0.806394 0.648310
0.862455 0.800259 0.634821
0.878630 0.793027 0.619287
0.640558 0.815854 0.751369
0.640558 0.815885 0.751400
0.640650 0.815915 0.751339
0.640772 0.815915 0.751247
0.641016 0.816007 0.751156
0.641535 0.816190 0.751095
0.642329 0.816587 0.751186
0.643427 0.817105 0.751369
0.644923 0.817868 0.751736
0.646845 0.818845 0.752255
0.649256 0.819944 0.752926
0.652155 0.821256 0.753689
0.655482 0.822629 0.754482
0.659236 0.824063 0.755184
