20 Preset/Classic brown/【3】LUT video cho PR-AE-FCPX/Tone (5).cube
# Created by Adobe Lightroom plugin Export LUT (1.24.0)
# www.johnrellis.com/lightroom/exportlut.htm
# Preset: 人文电影-素材江湖06
# Color profile: E:\lut插件\exportlut.1.24\exportlut.lrplugin\color profiles\Rec709gamma2.4.icc
LUT_3D_SIZE 32
DOMAIN_MIN 0.0 0.0 0.0
DOMAIN_MAX 1.0 1.0 1.0
0.000000 0.000000 0.000000
0.000000 0.000000 0.000000
0.001984 0.000000 0.000000
0.016846 0.001373 0.002869
0.051423 0.004089 0.005219
0.087251 0.010529 0.008057
0.106355 0.017578 0.011658
0.128023 0.022705 0.013855
0.155520 0.020600 0.014832
0.188022 0.011200 0.015351
0.224399 0.000000 0.015320
0.264134 0.000000 0.013367
0.307164 0.000000 0.011780
0.353185 0.000000 0.009796
0.402167 0.000000 0.005035
0.452552 0.000000 0.000549
0.503471 0.000000 0.000000
0.553887 0.000000 0.000000
0.610681 0.000000 0.000000
0.661952 0.000000 0.000000
0.707485 0.000000 0.000000
0.746548 0.000000 0.000000
0.779049 0.000000 0.000000
0.806912 0.000000 0.000000
0.830961 0.000000 0.000000
0.851896 0.000000 0.000000
0.870451 0.000000 0.000000
0.887205 0.000000 0.000000
0.902098 0.000000 0.000000
0.914672 0.000000 0.000000
0.924651 0.000000 0.000000
0.931762 0.000000 0.000000
0.000000 0.000000 0.000000
0.000000 0.000000 0.000000
0.001984 0.000000 0.000000
0.018128 0.002350 0.002716
0.052674 0.005097 0.005066
0.086183 0.012940 0.008881
0.106142 0.018769 0.011505
0.127382 0.024140 0.013703
0.154696 0.022248 0.014710
0.186557 0.013519 0.015259
0.222629 0.000000 0.015259
0.261936 0.000000 0.013489
0.304723 0.000000 0.011933
0.350591 0.000000 0.008698
0.399176 0.000000 0.005310
0.449561 0.000000 0.000885
0.500420 0.000000 0.000000
0.550652 0.000000 0.000000
0.606348 0.000000 0.000000
0.657038 0.000000 0.000000
0.702235 0.000000 0.000000
0.741360 0.000000 0.000000
0.774136 0.000000 0.000000
0.802335 0.000000 0.000000
0.826841 0.000000 0.000000
0.848295 0.000000 0.000000
0.867277 0.000000 0.000000
0.884489 0.000000 0.000000
0.899779 0.000000 0.000000
0.912902 0.000000 0.000000
0.923369 0.000000 0.000000
0.930968 0.000000 0.000000
0.000275 0.002167 0.000824
0.000000 0.003388 0.000671
0.003784 0.005127 0.001495
0.022217 0.007477 0.003052
0.052674 0.014038 0.004974
0.086183 0.021881 0.008789
0.106722 0.027497 0.011414
0.128176 0.030457 0.013916
0.155306 0.028565 0.014893
0.187289 0.019593 0.015442
0.223087 0.000366 0.014466
0.262058 0.000000 0.013703
0.304448 0.000000 0.011017
0.349889 0.000000 0.008972
0.398108 0.000000 0.004334
0.448371 0.000000 0.000000
0.498939 0.000000 0.000000
0.550042 0.000000 0.000000
0.604547 0.000000 0.000000
0.654658 0.000000 0.000000
0.699733 0.000000 0.000000
0.738796 0.000000 0.000000
0.771786 0.000000 0.000000
0.800198 0.000000 0.000000
0.824857 0.000000 0.000000
0.846403 0.000000 0.000000
0.865629 0.000000 0.000000
0.882994 0.000000 0.000000
0.898558 0.000000 0.000000
0.911925 0.000000 0.000000
0.922576 0.000000 0.000000
0.930419 0.000000 0.000000
0.000000 0.023468 0.003601
0.000458 0.024445 0.003449
0.007080 0.024750 0.005524
0.021118 0.028748 0.005829
0.053864 0.035096 0.006592
0.089601 0.036713 0.008881
0.108522 0.041352 0.011658
0.130526 0.043854 0.013001
0.157809 0.041505 0.014008
0.189883 0.030915 0.013519
0.225437 0.012421 0.013519
0.264195 0.000000 0.011749
0.306188 0.000000 0.009918
0.351110 0.000000 0.006744
0.399145 0.000000 0.002930
0.448432 0.000000 0.000000
0.498482 0.000000 0.000000
0.549798 0.000000 0.000000
0.601984 0.000000 0.000000
0.650660 0.000000 0.000000
0.694881 0.000000 0.000000
0.733761 0.000000 0.000000
0.767269 0.000000 0.000000
0.796445 0.000000 0.000000
0.821958 0.000000 0.000000
0.844419 0.000000 0.000000
0.864225 0.000000 0.000000
0.882048 0.000000 0.000000
0.897856 0.000000 0.000000
0.911315 0.000000 0.000000
0.921996 0.000000 0.000000
0.929778 0.000000 0.000000
0.007874 0.052308 0.014160
0.008850 0.053285 0.015137
0.017792 0.053376 0.016083
0.027558 0.055634 0.015595
0.046845 0.060182 0.015717
0.088533 0.069337 0.012421
0.109804 0.069947 0.011078
0.134249 0.064332 0.012146
0.161868 0.060121 0.012116
0.193423 0.050263 0.012634
0.228733 0.030152 0.011627
0.267033 0.002075 0.010681
0.308690 0.000000 0.007385
0.353216 0.000000 0.003906
0.400641 0.000000 0.000000
0.450202 0.000000 0.000000
0.500206 0.000000 0.000000
0.552178 0.000000 0.000000
0.603052 0.000000 0.000000
0.650690 0.000000 0.000000
0.694270 0.000000 0.000000
0.732662 0.000000 0.000000
0.766201 0.000000 0.000000
0.795468 0.000000 0.000000
0.821103 0.000000 0.000000
0.843687 0.000000 0.000000
0.863523 0.000000 0.000000
0.881315 0.000000 0.000000
0.897063 0.000000 0.000000
0.910491 0.000000 0.000000
0.921202 0.000000 0.000000
0.929015 0.000000 0.000000
0.015991 0.084260 0.024964
0.017273 0.084871 0.024811
0.024201 0.085054 0.025757
0.037690 0.086183 0.026368
0.055970 0.088197 0.025544
0.083711 0.089845 0.023194
0.109377 0.095094 0.018708
0.137392 0.094148 0.014588
0.167300 0.089326 0.013153
0.200229 0.079316 0.010925
0.235355 0.061952 0.008270
0.273747 0.034302 0.005798
0.315007 0.000000 0.003296
0.359503 0.000000 0.000000
0.407080 0.000000 0.000000
0.456123 0.000000 0.000000
0.505943 0.000000 0.000000
0.558495 0.000000 0.000000
0.608362 0.000000 0.000000
0.654994 0.000000 0.000000
0.697841 0.000000 0.000000
0.735439 0.000000 0.000000
0.793484 0.000000 0.000000
0.818967 0.000000 0.000000
0.841062 0.000000 0.000000
0.860380 0.000000 0.000000
0.877592 0.000000 0.000000
0.892912 0.000000 0.000000
0.906157 0.000000 0.000000
0.917052 0.000000 0.000000
0.925414 0.000000 0.000000
0.931182 0.114046 0.000000
0.021485 0.106386 0.035828
0.023468 0.106325 0.035798
0.031678 0.106722 0.036591
0.048829 0.107118 0.038331
0.069123 0.108125 0.037476
0.089265 0.109804 0.035004
0.105928 0.112032 0.031830
0.138430 0.118898 0.023529
0.175387 0.117098 0.015808
0.210300 0.110719 0.011505
0.248447 0.100038 0.007874
0.289311 0.082582 0.003937
0.331365 0.047089 0.000000
0.376715 0.000000 0.000000
0.424292 0.000000 0.000000
0.472724 0.000000 0.000000
0.525597 0.000000 0.000000
0.577661 0.000000 0.000000
0.626825 0.000000 0.000000
0.672938 0.000000 0.000000
0.715175 0.000000 0.000000
0.752743 0.000000 0.000000
0.785122 0.000000 0.000000
0.813077 0.000000 0.000000
0.836973 0.000000 0.000000
0.857237 0.000000 0.000000
0.874876 0.000000 0.000000
0.890379 0.000000 0.000000
0.903838 0.000000 0.000000
0.914916 0.000000 0.000000
0.923522 0.063752 0.000000
0.929595 0.140047 0.000000
0.019379 0.130526 0.045655
0.021363 0.130495 0.045655
0.030854 0.130983 0.046296
0.046571 0.131838 0.047730
0.074769 0.132845 0.048798
0.093843 0.133700 0.046448
0.110811 0.134615 0.042603
0.131380 0.137179 0.037079
0.169619 0.144930 0.025544
0.212406 0.143771 0.012116
0.251438 0.136019 0.007477
0.292882 0.124208 0.002289
0.337438 0.105806 0.000000
0.383673 0.078462 0.000000
0.430457 0.010712 0.000000
0.480934 0.000000 0.000000
0.532372 0.000000 0.000000
0.581903 0.000000 0.000000
0.629389 0.000000 0.000000
0.674403 0.000000 0.000000
0.715145 0.000000 0.000000
0.751736 0.000000 0.000000
0.783536 0.000000 0.000000
0.811124 0.000000 0.000000
0.834867 0.000000 0.000000
0.855131 0.000000 0.000000
0.872770 0.000000 0.000000
0.888334 0.000000 0.000000
0.901793 0.000000 0.000000
0.912993 0.054200 0.000000
0.921721 0.130098 0.000000
0.927855 0.170138 0.000000
0.006714 0.160311 0.057679
0.009277 0.160616 0.057343
0.020752 0.160983 0.057984
0.043397 0.161654 0.060365
0.082887 0.162875 0.064179
0.100038 0.163577 0.061646
0.118227 0.163912 0.055634
0.138216 0.164370 0.049042
0.162020 0.166384 0.041444
0.204379 0.174685 0.023743
0.251469 0.173587 0.006806
0.296880 0.165682 0.000000
0.341741 0.153536 0.000000
0.389502 0.135866 0.000000
0.442145 0.108919 0.000000
0.492287 0.066011 0.000000
0.541100 0.000000 0.000000
0.588373 0.000000 0.000000
0.634180 0.000000 0.000000
0.677424 0.000000 0.000000
0.717006 0.000000 0.000000
0.752438 0.000000 0.000000
0.783536 0.000000 0.000000
0.810636 0.000000 0.000000
0.833890 0.000000 0.000000
0.853758 0.000000 0.000000
0.871275 0.000000 0.000000
0.886687 0.000000 0.000000
0.900114 0.102174 0.000000
0.911192 0.141604 0.000000
0.919860 0.172396 0.000000
0.926055 0.200595 0.000000
0.000000 0.194827 0.076509
0.000000 0.195071 0.076204
0.014282 0.195285 0.076814
0.044129 0.196109 0.079896
0.088685 0.197330 0.082673
0.109682 0.198276 0.082673
0.128206 0.197848 0.077729
0.148898 0.197421 0.069429
0.170962 0.196872 0.060700
0.196902 0.198215 0.048859
0.242100 0.206760 0.024414
0.293004 0.206149 0.000641
0.345830 0.200015 0.000000
0.396033 0.188388 0.000000
0.447700 0.172854 0.000000
0.499001 0.150912 0.000000
0.550347 0.119112 0.000000
0.596857 0.090913 0.000000
0.641169 0.025147 0.000000
0.682673 0.000000 0.000000
0.720241 0.000000 0.000000
0.753567 0.000000 0.000000
0.782803 0.000000 0.000000
0.808621 0.000000 0.000000
0.831327 0.000000 0.000000
0.851133 0.064698 0.000000
0.868559 0.110018 0.000000
0.884062 0.137911 0.000000
0.897581 0.163577 0.000000
0.908843 0.186374 0.000000
0.917632 0.208133 0.000000
0.923919 0.229953 0.000000
0.000000 0.232242 0.092012
0.000000 0.232273 0.091951
0.015473 0.232853 0.092775
0.054536 0.233524 0.094209
0.095857 0.235264 0.096498
0.123293 0.237247 0.099519
0.142123 0.236667 0.096162
0.162753 0.235752 0.091798
0.185061 0.234714 0.086488
0.208896 0.232853 0.077974
0.237827 0.234531 0.060212
0.286351 0.244236 0.027436
0.342931 0.244968 0.000000
0.401587 0.240208 0.000000
0.452766 0.228458 0.000000
0.503593 0.214206 0.000000
0.553338 0.196719 0.000000
0.602045 0.175051 0.000000
0.647944 0.149599 0.000000
0.687434 0.140291 0.000000
0.723079 0.135012 0.000000
0.754635 0.135225 0.000000
0.782742 0.139956 0.000000
0.807767 0.148318 0.000000
0.829831 0.159030 0.000000
0.849210 0.170809 0.000000
0.866697 0.183200 0.000000
0.882414 0.195651 0.000000
0.895720 0.211643 0.000000
0.906798 0.227573 0.000000
0.915373 0.243687 0.000000
0.921630 0.260288 0.000000
0.002167 0.275029 0.106752
0.002991 0.275395 0.106905
0.029633 0.275669 0.107607
0.073793 0.276677 0.109163
0.108309 0.278294 0.111116
0.136385 0.280644 0.114656
0.160983 0.281498 0.114778
0.182284 0.280766 0.110628
0.205386 0.279759 0.105501
0.229862 0.278386 0.099580
0.255314 0.275608 0.091981
0.285466 0.276188 0.077363
0.355901 0.300694 0.037964
0.418219 0.303166 0.000000
0.479774 0.299657 0.000000
0.533013 0.289921 0.000000
0.582147 0.277256 0.000000
0.628870 0.263676 0.000000
0.672236 0.249699 0.000000
0.711604 0.235294 0.000000
0.745510 0.224735 0.000000
0.772580 0.226627 0.000000
0.796841 0.229831 0.000000
0.818509 0.234806 0.000000
0.837858 0.240513 0.000000
0.855192 0.246616 0.000000
0.870878 0.253178 0.000000
0.884916 0.259800 0.000000
0.897185 0.266331 0.000000
0.907103 0.274693 0.000000
0.914519 0.285344 0.000000
0.919799 0.297490 0.000000
0.038087 0.332647 0.128084
0.045594 0.332799 0.128237
0.072175 0.333135 0.129244
0.103731 0.334173 0.130465
0.130678 0.335851 0.132662
0.160647 0.338384 0.136141
0.192081 0.341527 0.140993
0.213352 0.339696 0.136049
0.236881 0.337774 0.130373
0.262028 0.335454 0.124056
0.288365 0.332982 0.116426
0.316045 0.329961 0.107973
0.348974 0.329992 0.094820
0.401740 0.339666 0.054932
0.464118 0.344274 0.000000
0.524407 0.342626 0.000000
0.577661 0.335790 0.000000
0.623133 0.325536 0.000000
0.665522 0.315038 0.000000
0.703548 0.304967 0.000000
0.737636 0.294347 0.000000
0.767910 0.283696 0.000000
0.793332 0.279698 0.000000
0.814603 0.283146 0.000000
0.833677 0.287022 0.000000
0.850950 0.291661 0.000000
0.866575 0.296696 0.000000
0.880644 0.301518 0.000000
0.892943 0.306432 0.000000
0.903227 0.311101 0.000000
0.911376 0.315740 0.000000
0.916655 0.325292 0.000000
0.102052 0.386938 0.151156
0.105165 0.386877 0.151156
0.115877 0.386633 0.151583
0.134463 0.387457 0.152926
0.158877 0.388312 0.155062
0.187930 0.390173 0.158419
0.219516 0.392737 0.162966
0.246159 0.392981 0.162936
0.267857 0.389837 0.157137
0.291478 0.386694 0.149966
0.316716 0.383581 0.142428
0.343206 0.379644 0.133516
0.369635 0.374762 0.123476
0.400824 0.373083 0.108888
0.449653 0.381048 0.082612
0.509758 0.386175 0.000763
0.566369 0.385748 0.000000
0.617517 0.381506 0.000000
0.658656 0.373724 0.000000
0.696040 0.365484 0.000000
0.729427 0.356939 0.000000
0.759304 0.348669 0.000000
0.786282 0.340185 0.000000
0.810513 0.331975 0.000000
0.830167 0.331456 0.000000
0.847196 0.334447 0.000000
0.862638 0.337926 0.000000
0.876555 0.341253 0.000000
0.888640 0.344732 0.000000
0.898772 0.347997 0.000000
0.906828 0.350988 0.000000
0.912993 0.354192 0.000000
0.150484 0.439948 0.177249
0.152804 0.439796 0.177615
0.160983 0.439673 0.178195
0.175967 0.439734 0.179049
0.197269 0.440223 0.181277
0.223209 0.441413 0.184543
0.253483 0.443671 0.188998
0.286107 0.446601 0.194491
0.305791 0.442969 0.188144
0.327092 0.439582 0.181338
0.350317 0.435584 0.173190
0.374853 0.431281 0.164279
0.399420 0.425818 0.153841
0.423194 0.419074 0.142061
0.451484 0.415595 0.125826
0.495583 0.421424 0.101350
0.551965 0.427192 0.030182
0.603906 0.428107 0.000000
0.651423 0.426429 0.000000
0.688289 0.420356 0.000000
0.720790 0.413245 0.000000
0.750423 0.406134 0.000000
0.777188 0.398657 0.000000
0.801389 0.391180 0.000000
0.823209 0.383276 0.000000
0.843046 0.375708 0.000000
0.858610 0.377081 0.000000
0.872313 0.379431 0.000000
0.884245 0.381659 0.000000
0.894133 0.383856 0.000000
0.901976 0.386175 0.000000
0.907897 0.388556 0.000000
0.204318 0.489418 0.207584
0.205936 0.489570 0.207858
0.212589 0.489815 0.208438
0.225315 0.490333 0.209903
0.242863 0.491066 0.212406
0.266728 0.492592 0.215976
0.294865 0.495155 0.221256
0.326848 0.498634 0.228092
0.352178 0.498726 0.228367
0.371008 0.494820 0.220584
0.391058 0.490120 0.211978
0.412207 0.484504 0.201907
0.433326 0.477913 0.190494
0.453895 0.470130 0.177584
0.473732 0.460609 0.163272
0.498054 0.455085 0.145113
0.536584 0.459113 0.121553
0.588861 0.465461 0.084230
0.635584 0.467536 0.000000
0.677516 0.467201 0.000000
0.711910 0.463020 0.000000
0.741146 0.457099 0.000000
0.767758 0.450782 0.000000
0.791928 0.443977 0.000000
0.813931 0.436927 0.000000
0.834012 0.429786 0.000000
0.852293 0.422400 0.000000
0.868132 0.416083 0.000000
0.879576 0.417212 0.000000
0.889067 0.418128 0.000000
0.896544 0.419013 0.000000
0.902190 0.420325 0.000000
0.258915 0.535760 0.242283
0.260014 0.535637 0.242527
0.265507 0.535882 0.243168
0.275914 0.536553 0.244663
0.290990 0.537377 0.247410
0.312200 0.538781 0.251133
0.337285 0.540856 0.256535
0.366369 0.543694 0.263493
0.397681 0.547204 0.271977
0.413611 0.543297 0.263951
0.431037 0.538384 0.254856
0.449012 0.533074 0.244419
0.467689 0.526665 0.232517
0.486000 0.518822 0.218814
0.503471 0.509972 0.204044
0.520287 0.499611 0.187350
0.541436 0.493080 0.167941
0.574517 0.495766 0.145876
0.621698 0.502861 0.116915
0.663081 0.505333 0.064973
0.700130 0.505364 0.000000
0.732174 0.502373 0.000000
0.758389 0.496834 0.000000
0.782406 0.490639 0.000000
0.804318 0.484169 0.000000
0.824460 0.477577 0.000000
0.842802 0.470649 0.000000
0.859098 0.463264 0.000000
0.873014 0.455451 0.000000
0.883574 0.450568 0.000000
0.890684 0.450690 0.007050
0.895995 0.451148 0.085573
0.317205 0.578882 0.283452
0.318975 0.579065 0.283940
0.343328 0.592767 0.299901
0.352209 0.592981 0.301823
0.365148 0.593683 0.304601
0.382147 0.594537 0.308415
0.403235 0.595819 0.313664
0.427802 0.597589 0.320592
0.454383 0.600061 0.329198
0.474952 0.599512 0.329625
0.488289 0.595056 0.319890
0.502556 0.589807 0.308415
0.517082 0.583459 0.294835
0.531701 0.575952 0.279850
0.545892 0.567132 0.263310
0.559625 0.556970 0.244938
0.572381 0.545190 0.224613
0.589532 0.537438 0.202274
0.615534 0.537621 0.180026
0.656062 0.543450 0.156497
0.691218 0.544945 0.130892
0.723232 0.544060 0.099672
0.752224 0.540917 0.026764
0.775174 0.534874 0.002594
0.796353 0.528313 0.000000
0.816007 0.521324 0.000000
0.833707 0.514214 0.000000
0.849546 0.506554 0.012024
0.863157 0.498695 0.048493
0.874479 0.490608 0.091463
0.883574 0.482795 0.114229
0.889281 0.480049 0.138308
0.380957 0.618494 0.333227
0.383703 0.619562 0.334874
0.389197 0.620813 0.337377
0.397620 0.622004 0.340398
0.409644 0.623285 0.344457
0.423957 0.624140 0.348608
0.441871 0.625177 0.353735
0.461952 0.626429 0.360266
0.484413 0.628077 0.368200
0.508171 0.630243 0.378119
0.518761 0.626581 0.368688
0.530266 0.622339 0.357916
0.542321 0.616968 0.344732
0.554864 0.610803 0.330205
0.567590 0.603601 0.313756
0.580346 0.595331 0.295689
0.592584 0.585992 0.276097
0.604517 0.575372 0.254795
0.620386 0.568292 0.231907
0.642420 0.567590 0.210666
0.677974 0.572656 0.192325
0.709712 0.574060 0.173495
0.738582 0.572961 0.153964
0.764858 0.569665 0.132753
0.786648 0.564233 0.123507
0.806088 0.557671 0.121370
0.823667 0.550835 0.123079
0.839322 0.543511 0.128969
0.852781 0.535760 0.138796
0.863951 0.527947 0.151247
0.872923 0.520409 0.167086
0.879820 0.513542 0.183932
0.430762 0.645899 0.377966
0.433387 0.646815 0.379706
0.437598 0.647883 0.382238
0.444770 0.648951 0.385595
0.454383 0.649805 0.389441
0.466163 0.650599 0.393439
0.480262 0.651331 0.398444
0.496345 0.652308 0.404456
0.514183 0.653437 0.412024
0.533623 0.654932 0.421180
0.548211 0.654536 0.422400
0.556725 0.651087 0.411627
0.566278 0.646815 0.399329
0.576593 0.641932 0.385565
0.587427 0.636255 0.369879
0.598688 0.629694 0.352392
0.610193 0.622034 0.333013
0.621546 0.613550 0.312444
0.632837 0.603906 0.289677
0.647547 0.597528 0.266178
0.666041 0.595666 0.245274
0.697261 0.599573 0.231449
0.725704 0.600305 0.217197
0.751644 0.598810 0.203159
0.775540 0.595483 0.189151
0.796292 0.590082 0.180484
0.813687 0.583551 0.181216
0.829007 0.576440 0.185519
0.842161 0.569024 0.192447
0.853086 0.561517 0.202914
0.861784 0.554284 0.216159
0.868467 0.547601 0.231510
0.476844 0.669398 0.425605
0.478676 0.670008 0.427161
0.482368 0.670771 0.429450
0.487953 0.671565 0.432532
0.494911 0.672267 0.435798
0.504173 0.672786 0.439704
0.515312 0.673365 0.444404
0.528038 0.674037 0.449958
0.542657 0.674922 0.456794
0.558221 0.675959 0.464851
0.574792 0.677363 0.474372
0.581781 0.675013 0.466499
0.588708 0.671687 0.455024
0.596490 0.667872 0.442176
0.605188 0.663478 0.428016
0.614679 0.658442 0.411933
0.624933 0.652735 0.394141
0.635676 0.646357 0.374609
0.646845 0.639277 0.353979
0.658015 0.631495 0.331762
0.672389 0.626368 0.308965
0.688624 0.624292 0.288518
0.715999 0.626764 0.278477
0.741482 0.627192 0.268894
0.765042 0.625483 0.259922
0.786465 0.621759 0.250675
0.805234 0.616083 0.244144
0.819669 0.609247 0.248356
0.831907 0.602045 0.255283
0.841886 0.594842 0.265263
0.849729 0.588037 0.277653
0.855528 0.582025 0.292851
0.526055 0.692348 0.482734
0.526848 0.692561 0.483467
0.528710 0.692775 0.484504
0.532158 0.692988 0.486305
0.537163 0.693202 0.488441
0.543572 0.693385 0.491188
0.551659 0.693660 0.494850
0.561425 0.694087 0.499641
0.572534 0.694728 0.505394
0.585016 0.695491 0.512474
0.598108 0.696468 0.520500
0.608148 0.696468 0.523003
0.612848 0.694026 0.513542
0.618219 0.691127 0.502617
0.624384 0.687831 0.490303
0.631434 0.683955 0.475532
0.639429 0.679530 0.459266
0.648280 0.674464 0.441352
0.657801 0.668818 0.421820
0.668025 0.662531 0.400275
0.678492 0.655451 0.376745
0.691768 0.650629 0.352850
0.705837 0.647578 0.331182
0.729671 0.648554 0.322484
0.752651 0.648066 0.315099
0.773556 0.645808 0.309056
0.792416 0.641444 0.303288
0.808621 0.635309 0.299077
0.820645 0.628412 0.304540
0.830076 0.621637 0.314397
0.837369 0.615229 0.327123
0.842924 0.609247 0.340764
0.561334 0.707668 0.527031
0.561852 0.707820 0.527611
0.563378 0.708003 0.528527
0.565972 0.708125 0.529961
0.569696 0.708309 0.531731
0.574609 0.708431 0.534203
0.580865 0.708644 0.537346
0.588281 0.708919 0.541222
0.597040 0.709316 0.545983
0.606897 0.709834 0.551843
0.617334 0.710475 0.558526
0.628260 0.711238 0.565881
0.632898 0.709957 0.561120
0.636622 0.707973 0.552422
0.641047 0.705653 0.542321
0.646174 0.702998 0.531121
0.652247 0.699794 0.517876
0.659022 0.696223 0.502922
0.666896 0.692073 0.486091
0.675563 0.687373 0.466957
0.685054 0.682155 0.446204
0.695216 0.676204 0.423194
0.707881 0.672053 0.399573
0.721248 0.669459 0.378454
0.740658 0.667079 0.365789
0.760861 0.665827 0.361059
0.779171 0.662867 0.357885
0.794949 0.658045 0.356023
0.808194 0.651789 0.355230
0.818051 0.645075 0.361486
0.824918 0.638941 0.373510
0.829984 0.633387 0.386969
0.595331 0.720516 0.571252
0.596155 0.720668 0.572076
0.597284 0.720760 0.572869
0.598871 0.720729 0.573602
0.601221 0.720699 0.574578
0.604517 0.720638 0.576013
0.608698 0.720516 0.577844
0.613947 0.720485 0.580346
0.620294 0.720485 0.583642
0.627527 0.720607 0.587701
0.635340 0.720729 0.592432
0.643885 0.720974 0.598016
0.650904 0.720882 0.600855
0.653010 0.719539 0.593622
0.655573 0.717891 0.585107
0.658930 0.715938 0.575616
0.662989 0.713710 0.564446
0.667994 0.711177 0.552209
0.673976 0.708339 0.538628
0.681056 0.705104 0.523705
0.689052 0.701442 0.506554
0.697932 0.697230 0.487312
0.707607 0.692378 0.465370
0.719600 0.688746 0.442298
0.732387 0.686275 0.421210
0.749599 0.684169 0.413550
0.766659 0.681697 0.410712
0.781613 0.677882 0.410437
0.794156 0.672694 0.411810
0.804410 0.666438 0.413489
0.812192 0.660029 0.418402
0.816709 0.655116 0.432136
0.620325 0.727718 0.603449
0.620905 0.727810 0.604181
0.621851 0.727871 0.604883
0.623255 0.727901 0.605646
0.625238 0.727871 0.606744
0.627985 0.727840 0.608209
0.631464 0.727840 0.610132
0.635950 0.727779 0.612696
0.641108 0.727779 0.615747
0.646967 0.727810 0.619409
0.653285 0.727871 0.623529
0.660121 0.727901 0.628229
0.667140 0.727932 0.633173
0.670130 0.727413 0.631128
0.671382 0.726497 0.624811
0.673152 0.725399 0.617304
0.675532 0.724086 0.608820
0.678737 0.722560 0.599329
0.682826 0.720821 0.588861
0.687922 0.718837 0.577142
0.693996 0.716579 0.564080
0.701076 0.713924 0.549157
0.709255 0.710842 0.532067
0.718379 0.707210 0.512505
0.729732 0.704524 0.491646
0.741817 0.702602 0.472908
0.755489 0.699306 0.466651
0.768856 0.695857 0.466743
0.780148 0.691524 0.469093
0.789273 0.686366 0.472572
0.796445 0.681086 0.477272
0.801999 0.675990 0.483223
0.645411 0.732601 0.634730
0.645716 0.732631 0.635035
0.646326 0.732631 0.635431
0.647242 0.732631 0.635981
0.648737 0.732570 0.636805
0.650813 0.732479 0.637934
0.653407 0.732387 0.639399
0.656703 0.732326 0.641352
0.660517 0.732235 0.643732
0.664973 0.732143 0.646601
0.669886 0.732052 0.649866
0.675135 0.731899 0.653498
0.680476 0.731838 0.657435
0.685573 0.731716 0.661036
0.685878 0.731228 0.656306
0.686427 0.730709 0.650660
0.687495 0.730007 0.644312
0.689113 0.729152 0.637110
0.691524 0.728206 0.629175
0.694697 0.727108 0.620447
0.698817 0.725826 0.610620
0.703883 0.724269 0.599512
0.709926 0.722499 0.586755
0.717098 0.720363 0.572076
0.725490 0.717861 0.555077
0.735775 0.715877 0.537072
0.746822 0.714321 0.520470
0.757198 0.710231 0.514549
0.767361 0.706142 0.514885
0.775418 0.702083 0.520073
0.781613 0.697963 0.526543
0.786191 0.694179 0.534142
0.666987 0.735073 0.660304
0.667231 0.735073 0.660487
0.667659 0.735073 0.660792
0.668482 0.735042 0.661341
0.669673 0.735012 0.662135
0.671443 0.734920 0.663325
0.673823 0.734859 0.664973
0.676661 0.734768 0.667018
0.680018 0.734707 0.669490
0.683772 0.734615 0.672297
0.687831 0.734493 0.675410
0.691859 0.734432 0.678584
0.695979 0.734340 0.681849
0.699947 0.734218 0.685084
0.702022 0.734096 0.685542
0.702022 0.733852 0.682216
0.702144 0.733608 0.678370
0.702571 0.733242 0.673793
0.703456 0.732876 0.668666
0.704829 0.732418 0.662867
0.706783 0.731868 0.656245
0.709529 0.731197 0.648646
0.713008 0.730312 0.639521
0.717464 0.729274 0.629023
0.723110 0.727993 0.616876
0.730068 0.726436 0.602869
0.738827 0.725124 0.588128
0.748013 0.724025 0.575128
0.755276 0.720027 0.570520
0.761898 0.716121 0.572137
0.766659 0.713039 0.579217
0.770047 0.710475 0.587671
0.689448 0.736324 0.685237
0.689509 0.736294 0.685237
0.689723 0.736294 0.685389
0.690120 0.736263 0.685603
0.690791 0.736233 0.686000
0.691768 0.736141 0.686610
0.693080 0.736110 0.687434
0.694728 0.736019 0.688441
0.696620 0.735927 0.689754
0.698756 0.735836 0.691218
0.701106 0.735744 0.692927
0.703639 0.735683 0.694759
0.706233 0.735592 0.696651
0.708766 0.735531 0.698604
