20 Preset/Classic brown/【3】LUT video cho PR-AE-FCPX/Tone (9).cube
# Created by Adobe Lightroom plugin Export LUT (1.24.0)
# www.johnrellis.com/lightroom/exportlut.htm
# Preset: 人文电影-素材江湖10
# Color profile: E:\lut插件\exportlut.1.24\exportlut.lrplugin\color profiles\Rec709gamma2.4.icc
LUT_3D_SIZE 32
DOMAIN_MIN 0.0 0.0 0.0
DOMAIN_MAX 1.0 1.0 1.0
0.065095 0.078492 0.035431
0.070344 0.078828 0.035248
0.082918 0.079835 0.035859
0.097322 0.082277 0.036896
0.116152 0.084779 0.039643
0.141390 0.088014 0.042420
0.172213 0.087495 0.043610
0.206180 0.084291 0.043854
0.243290 0.075044 0.043244
0.283604 0.052399 0.041505
0.327214 0.019837 0.038025
0.373968 0.000000 0.034913
0.423590 0.000000 0.029664
0.475257 0.000000 0.023835
0.527367 0.000000 0.015351
0.578820 0.000000 0.005859
0.629114 0.000000 0.000000
0.677455 0.000000 0.000000
0.722377 0.000000 0.000000
0.763272 0.000000 0.000000
0.807309 0.000000 0.000000
0.844938 0.000000 0.000000
0.876371 0.000000 0.000000
0.903929 0.000000 0.000000
0.928191 0.000000 0.000000
0.949981 0.000000 0.000000
0.969940 0.000000 0.000000
0.988464 0.112062 0.000000
1.000000 0.161257 0.000000
1.000000 0.199466 0.000000
1.000000 0.233402 0.000000
1.000000 0.265141 0.000000
0.065644 0.081209 0.037079
0.067628 0.081086 0.037079
0.083436 0.082551 0.036378
0.097871 0.084260 0.037568
0.116640 0.086732 0.039185
0.141360 0.089296 0.041962
0.171603 0.089082 0.043153
0.205203 0.086946 0.043427
0.241947 0.079286 0.042847
0.281468 0.058930 0.041169
0.324315 0.026184 0.038056
0.370550 0.000000 0.035187
0.419898 0.000000 0.030182
0.471260 0.000000 0.023285
0.523186 0.000000 0.016052
0.574517 0.000000 0.005676
0.625086 0.000000 0.000000
0.673121 0.000000 0.000000
0.718654 0.000000 0.000000
0.759823 0.000000 0.000000
0.802945 0.000000 0.000000
0.839933 0.000000 0.000000
0.871092 0.000000 0.000000
0.898650 0.000000 0.000000
0.923064 0.000000 0.000000
0.945129 0.000000 0.000000
0.965484 0.000000 0.000000
0.984436 0.099489 0.000000
1.000000 0.152529 0.000000
1.000000 0.192905 0.000000
1.000000 0.227512 0.000000
1.000000 0.259800 0.000000
0.074067 0.089326 0.040558
0.075746 0.089265 0.041688
0.084321 0.090822 0.040864
0.098512 0.093111 0.039368
0.118532 0.093538 0.041260
0.144259 0.094820 0.041871
0.174014 0.094972 0.042908
0.207095 0.093324 0.043214
0.243351 0.088380 0.041627
0.282567 0.075257 0.039796
0.325017 0.043946 0.037690
0.370886 0.000000 0.033875
0.419501 0.000000 0.028595
0.470283 0.000000 0.021942
0.521843 0.000000 0.013336
0.573114 0.000000 0.004120
0.623255 0.000000 0.000000
0.671626 0.000000 0.000000
0.716854 0.000000 0.000000
0.757992 0.000000 0.000000
0.801266 0.000000 0.000000
0.837736 0.000000 0.000000
0.868681 0.000000 0.000000
0.896147 0.000000 0.000000
0.920531 0.000000 0.000000
0.942565 0.000000 0.000000
0.963073 0.000000 0.000000
0.982238 0.104005 0.000000
1.000000 0.155001 0.000000
1.000000 0.194247 0.000000
1.000000 0.228305 0.000000
1.000000 0.259892 0.000000
0.084565 0.101503 0.050202
0.085786 0.101442 0.050202
0.090486 0.101381 0.053407
0.097536 0.105592 0.051179
0.120485 0.110536 0.046204
0.148836 0.109529 0.044129
0.179599 0.106538 0.044068
0.212833 0.104463 0.041047
0.248447 0.100435 0.039307
0.287144 0.093446 0.037446
0.328954 0.077211 0.034180
0.374365 0.034363 0.029877
0.422400 0.000000 0.024475
0.472358 0.000000 0.017426
0.522911 0.000000 0.008881
0.573175 0.000000 0.000000
0.622705 0.000000 0.000000
0.669917 0.000000 0.000000
0.714717 0.000000 0.000000
0.756313 0.000000 0.000000
0.797665 0.000000 0.000000
0.833066 0.000000 0.000000
0.863798 0.000000 0.000000
0.891630 0.000000 0.000000
0.916808 0.000000 0.000000
0.939788 0.000000 0.000000
0.960998 0.020752 0.000000
0.980743 0.124392 0.000000
0.999176 0.168276 0.000000
1.000000 0.203738 0.000000
1.000000 0.235355 0.000000
1.000000 0.265049 0.000000
0.089601 0.120302 0.064637
0.089967 0.120546 0.065614
0.094697 0.120455 0.066560
0.102541 0.121736 0.069917
0.116060 0.127749 0.063325
0.147524 0.135439 0.051331
0.184115 0.132601 0.044160
0.218296 0.125978 0.042695
0.255039 0.118288 0.040711
0.293126 0.112306 0.035554
0.333989 0.103365 0.031006
0.378668 0.088930 0.024292
0.425910 0.046235 0.016999
0.475257 0.000000 0.009644
0.525292 0.000000 0.001190
0.575433 0.000000 0.000000
0.624506 0.000000 0.000000
0.671626 0.000000 0.000000
0.715908 0.000000 0.000000
0.758206 0.000000 0.000000
0.797971 0.000000 0.000000
0.832273 0.000000 0.000000
0.862547 0.000000 0.000000
0.890318 0.000000 0.000000
0.915465 0.000000 0.000000
0.938628 0.000000 0.000000
0.959869 0.108492 0.000000
0.979553 0.152041 0.000000
0.997894 0.187381 0.000000
1.000000 0.218082 0.000000
1.000000 0.246891 0.000000
1.000000 0.274449 0.000000
0.090761 0.144686 0.082094
0.091615 0.144625 0.081392
0.095857 0.144381 0.081361
0.108614 0.143862 0.086000
0.119722 0.147738 0.085939
0.140047 0.155917 0.077119
0.178714 0.166171 0.055329
0.224735 0.162997 0.037110
0.262333 0.153719 0.037781
0.302617 0.142092 0.035859
0.345159 0.130037 0.031556
0.389227 0.120241 0.025422
0.436103 0.106142 0.017700
0.484504 0.083650 0.009369
0.534112 0.019898 0.000000
0.583215 0.000000 0.000000
0.631403 0.000000 0.000000
0.677699 0.000000 0.000000
0.721035 0.000000 0.000000
0.763729 0.000000 0.000000
0.801755 0.000000 0.000000
0.835080 0.000000 0.000000
0.892424 0.000397 0.000000
0.917815 0.100893 0.000000
0.940398 0.139193 0.000000
0.960815 0.169558 0.000000
0.979431 0.196628 0.000000
0.996735 0.221256 0.000000
1.000000 0.245274 0.000000
1.000000 0.268315 0.000000
1.000000 0.290959 0.000000
1.000000 0.313024 0.000000
0.087953 0.178225 0.094789
0.089082 0.178012 0.094453
0.093629 0.177829 0.094057
0.109529 0.176974 0.096315
0.129122 0.175296 0.101198
0.143679 0.182773 0.096925
0.171786 0.193088 0.088808
0.218814 0.206912 0.059205
0.272770 0.203464 0.024659
0.320958 0.192813 0.023041
0.365850 0.179538 0.022309
0.413947 0.163088 0.020935
0.461860 0.148074 0.014496
0.509606 0.135714 0.005890
0.557641 0.120516 0.000000
0.604791 0.101472 0.000000
0.650752 0.069978 0.000000
0.694636 0.019196 0.000000
0.738369 0.000000 0.000000
0.780880 0.005097 0.000000
0.818692 0.048463 0.000000
0.852415 0.098451 0.000000
0.882872 0.128511 0.000000
0.910338 0.156527 0.000000
0.934691 0.181735 0.000000
0.956146 0.204562 0.000000
0.975341 0.225315 0.000000
0.992767 0.245457 0.000000
1.000000 0.265660 0.000000
1.000000 0.285130 0.000000
1.000000 0.305150 0.000000
1.000000 0.325292 0.000000
0.077882 0.211429 0.106477
0.079225 0.211154 0.105898
0.088472 0.210849 0.104921
0.104646 0.209842 0.105684
0.129366 0.208530 0.110842
0.151186 0.208103 0.114748
0.169528 0.218082 0.107301
0.203281 0.229313 0.096101
0.254490 0.244266 0.067750
0.314549 0.245457 0.015534
0.373327 0.236332 0.000000
0.420661 0.222660 0.005280
0.469703 0.207095 0.005035
0.519219 0.188876 0.002747
0.567163 0.174228 0.000000
0.612665 0.164462 0.000000
0.657038 0.155734 0.000000
0.700435 0.148928 0.000000
0.744472 0.149020 0.000000
0.783597 0.152743 0.000000
0.818814 0.161624 0.000000
0.850919 0.174472 0.000000
0.880400 0.189639 0.000000
0.907164 0.207462 0.000000
0.931273 0.224826 0.000000
0.952636 0.241733 0.000000
0.971832 0.258091 0.000000
0.989502 0.273747 0.000000
1.000000 0.290562 0.000000
1.000000 0.307408 0.000000
1.000000 0.324620 0.000000
1.000000 0.342321 0.000000
0.049226 0.248661 0.119356
0.052918 0.248417 0.119142
0.067475 0.248081 0.118044
0.092164 0.247288 0.116976
0.125399 0.245426 0.121706
0.155123 0.242863 0.128115
0.176150 0.246159 0.128511
0.199710 0.257359 0.118624
0.238071 0.270024 0.105348
0.292943 0.284947 0.081575
0.359319 0.292210 0.006653
0.424201 0.285496 0.000000
0.477028 0.272892 0.000000
0.525933 0.258762 0.000000
0.574456 0.242985 0.000000
0.622034 0.225345 0.000000
0.667048 0.215183 0.000000
0.711513 0.214084 0.000000
0.751492 0.215091 0.000000
0.787808 0.217929 0.000000
0.820951 0.224002 0.000000
0.851347 0.232456 0.000000
0.879606 0.243015 0.000000
0.905516 0.255253 0.000000
0.929015 0.268315 0.000000
0.950042 0.280858 0.000000
0.969116 0.293553 0.000000
0.986664 0.306401 0.000000
1.000000 0.319677 0.000000
1.000000 0.333165 0.000000
1.000000 0.347784 0.000000
1.000000 0.363104 0.000000
0.000000 0.290318 0.134951
0.004303 0.290105 0.134768
0.022278 0.289464 0.133455
0.061707 0.288731 0.131868
0.114687 0.286412 0.134524
0.152163 0.283604 0.140536
0.185061 0.280156 0.148196
0.205295 0.287938 0.143618
0.233829 0.300359 0.132540
0.276371 0.313817 0.117403
0.333227 0.327916 0.094697
0.403357 0.341039 0.008209
0.471077 0.336248 0.000000
0.529381 0.326970 0.000000
0.577874 0.313909 0.000000
0.627039 0.301488 0.000000
0.675837 0.290288 0.000000
0.720699 0.277348 0.000000
0.759121 0.274205 0.000000
0.792996 0.276036 0.000000
0.823941 0.279850 0.000000
0.852049 0.284703 0.000000
0.878325 0.291478 0.000000
0.902708 0.299321 0.000000
0.925048 0.308293 0.000000
0.945525 0.317388 0.000000
0.964446 0.327245 0.000000
0.982177 0.337530 0.000000
0.998871 0.348577 0.000000
1.000000 0.360296 0.000000
1.000000 0.371923 0.000000
1.000000 0.385138 0.000000
0.000000 0.333593 0.152316
0.000000 0.333410 0.151980
0.000000 0.332952 0.150851
0.012696 0.332280 0.149325
0.095064 0.330694 0.149599
0.145113 0.328222 0.155581
0.186099 0.324804 0.163119
0.219333 0.322271 0.171023
0.239780 0.334112 0.161532
0.273533 0.347448 0.148775
0.319677 0.361273 0.132052
0.377661 0.374975 0.109133
0.449958 0.391821 0.017121
0.518273 0.390539 0.000000
0.583703 0.385626 0.000000
0.633387 0.376104 0.000000
0.679255 0.365667 0.000000
0.721431 0.354803 0.000000
0.760037 0.344060 0.000000
0.795621 0.332830 0.000000
0.825559 0.331426 0.000000
0.852354 0.334173 0.000000
0.877592 0.338506 0.000000
0.901244 0.343908 0.000000
0.922972 0.350256 0.000000
0.943084 0.357000 0.000000
0.961761 0.364416 0.000000
0.979339 0.372320 0.000000
0.995911 0.380987 0.000000
1.000000 0.390478 0.000000
1.000000 0.400305 0.000000
1.000000 0.410437 0.000000
0.000000 0.381353 0.173404
0.000000 0.381323 0.173251
0.000000 0.380896 0.172305
0.000000 0.380194 0.170535
0.030610 0.378943 0.168215
0.134829 0.376471 0.173556
0.184573 0.373419 0.181338
0.226047 0.369879 0.190341
0.255467 0.371710 0.193057
0.281193 0.384314 0.182040
0.318761 0.397620 0.168368
0.369055 0.412543 0.150759
0.450141 0.446540 0.135042
0.526238 0.468330 0.071687
0.595209 0.469978 0.000000
0.657649 0.466133 0.000000
0.705531 0.457679 0.000000
0.744259 0.446632 0.000000
0.779812 0.435523 0.000000
0.812589 0.424689 0.000000
0.842649 0.414099 0.000000
0.870420 0.404059 0.000000
0.893462 0.403571 0.000000
0.914366 0.405768 0.000000
0.933837 0.408484 0.000000
0.951934 0.411780 0.000000
0.968719 0.415686 0.000000
0.984588 0.420203 0.000000
0.999695 0.425299 0.000000
1.000000 0.431342 0.000000
1.000000 0.438056 0.000000
1.000000 0.445472 0.019257
0.000000 0.439673 0.203372
0.000000 0.439429 0.202914
0.000000 0.438849 0.201724
0.000000 0.437476 0.199619
0.000000 0.435706 0.196597
0.124849 0.433021 0.198856
0.186374 0.429297 0.205966
0.234470 0.424964 0.214542
0.276646 0.421942 0.225772
0.304540 0.431037 0.224002
0.337377 0.446418 0.213291
0.381933 0.462776 0.200473
0.437263 0.479133 0.183474
0.499977 0.494820 0.162112
0.572259 0.516289 0.117678
0.635096 0.518151 0.000000
0.691402 0.513146 0.000000
0.737331 0.505699 0.000000
0.771298 0.494270 0.000000
0.802640 0.483131 0.000000
0.831907 0.472206 0.000000
0.859281 0.462287 0.000000
0.885069 0.452857 0.000000
0.909087 0.444312 0.000000
0.928649 0.444587 0.000000
0.946746 0.446296 0.009522
0.963745 0.448737 0.019165
0.979797 0.451698 0.035645
0.995117 0.455543 0.054078
1.000000 0.460273 0.080537
1.000000 0.465553 0.094392
1.000000 0.471778 0.108248
0.000000 0.489052 0.234104
0.000000 0.488777 0.233524
0.000000 0.487800 0.231907
0.000000 0.487098 0.230350
0.030152 0.485573 0.227298
0.124361 0.483467 0.225986
0.191226 0.480812 0.233036
0.244297 0.477241 0.241642
0.289342 0.473976 0.252171
0.329778 0.470832 0.264927
0.354864 0.483955 0.255772
0.390509 0.498390 0.244846
0.436316 0.512840 0.231479
0.489754 0.526604 0.215579
0.547723 0.539147 0.195468
0.612268 0.555596 0.159457
0.668635 0.557946 0.105959
0.718379 0.552575 0.000000
0.761471 0.544823 0.000000
0.794308 0.534661 0.000000
0.822629 0.524010 0.000000
0.849760 0.514153 0.022614
0.875212 0.504936 0.052888
0.899290 0.496407 0.080629
0.921782 0.488319 0.094270
0.942718 0.481025 0.102998
0.959625 0.481941 0.108492
0.975677 0.483558 0.114870
0.990997 0.486122 0.122316
1.000000 0.489631 0.130678
1.000000 0.493782 0.140017
1.000000 0.498695 0.150515
0.000000 0.539178 0.270939
0.000000 0.539147 0.270939
0.004913 0.538109 0.269230
0.067750 0.536767 0.266667
0.113680 0.534905 0.263584
0.146792 0.532586 0.259709
0.205203 0.529381 0.264225
0.257481 0.525658 0.271946
0.303838 0.521965 0.281376
0.345617 0.518364 0.292790
0.378943 0.519646 0.299474
0.406989 0.532128 0.290532
0.444404 0.544640 0.279515
0.488624 0.556420 0.266850
0.538140 0.566949 0.251041
0.589563 0.576074 0.232517
0.646082 0.588037 0.203433
0.696986 0.591699 0.163638
0.742214 0.586542 0.114015
0.782284 0.578515 0.027955
0.815061 0.570001 0.052186
0.841398 0.560357 0.100099
0.866392 0.551293 0.115114
0.890105 0.542687 0.126436
0.912444 0.534661 0.135683
0.933501 0.527184 0.142947
0.953307 0.520531 0.150240
0.971832 0.515190 0.157748
0.987274 0.516869 0.164736
1.000000 0.519615 0.173281
1.000000 0.523156 0.182742
1.000000 0.527520 0.193210
0.136843 0.580804 0.309239
0.137728 0.580743 0.308873
0.144289 0.580194 0.307469
0.156924 0.579339 0.305608
0.174014 0.577996 0.302739
0.195071 0.576318 0.298741
0.233799 0.574060 0.300145
0.281590 0.571221 0.307439
0.326635 0.567895 0.316411
0.368048 0.564263 0.326787
0.405280 0.560693 0.338689
0.432563 0.564965 0.338048
0.460639 0.574395 0.328496
0.495125 0.583276 0.316594
0.534874 0.591516 0.303105
0.578210 0.598901 0.287297
0.623804 0.605646 0.269780
0.673640 0.614618 0.245426
0.720943 0.619715 0.212039
0.762387 0.615076 0.175692
0.800504 0.607935 0.133669
0.833188 0.601007 0.133883
0.858671 0.592676 0.150912
0.882109 0.584405 0.164675
0.904265 0.576867 0.174441
0.925261 0.569665 0.182467
0.945159 0.563165 0.190188
0.963989 0.557153 0.198093
0.981933 0.551843 0.205600
0.998413 0.548882 0.213901
1.000000 0.551293 0.222507
1.000000 0.554498 0.232273
0.211643 0.614710 0.347509
0.212222 0.614588 0.347082
0.216190 0.614221 0.346441
0.223209 0.613519 0.344579
0.234165 0.612543 0.342046
0.249058 0.611200 0.338720
0.269902 0.609461 0.336217
0.311925 0.606683 0.342687
0.351995 0.603632 0.350530
0.389990 0.600214 0.359533
0.426184 0.596460 0.370214
0.458930 0.592676 0.381872
0.480720 0.599573 0.374792
0.507408 0.607080 0.364721
0.539086 0.614099 0.353277
0.574823 0.620600 0.340002
0.613581 0.626429 0.325261
0.654536 0.631861 0.308873
0.698939 0.638788 0.288121
0.743282 0.645106 0.260044
0.781979 0.641352 0.229282
0.817685 0.635523 0.198001
0.848997 0.629023 0.187778
0.874937 0.621973 0.196475
0.896666 0.614588 0.209689
0.917388 0.607721 0.220005
0.937102 0.601495 0.229282
0.955901 0.595789 0.237339
0.973816 0.590723 0.245579
0.990784 0.586419 0.254276
1.000000 0.582727 0.263767
1.000000 0.581750 0.273594
0.280613 0.644709 0.388708
0.281559 0.644739 0.388342
0.312779 0.656214 0.406012
0.317357 0.655634 0.404547
0.324651 0.654810 0.402350
0.333989 0.653529 0.399145
0.346105 0.651911 0.395636
0.374060 0.649470 0.399298
0.406378 0.646448 0.405737
0.438911 0.643183 0.413764
0.469825 0.639582 0.422431
0.499092 0.635798 0.432410
0.523186 0.633845 0.438361
0.541405 0.639490 0.428870
0.564111 0.644800 0.418189
0.591058 0.649653 0.405646
0.621607 0.653925 0.391821
0.654963 0.657893 0.376806
0.690517 0.661585 0.360662
0.728634 0.666285 0.341955
0.769619 0.673365 0.317266
0.804746 0.670100 0.290593
0.837461 0.664607 0.264012
0.866941 0.657923 0.245212
0.892180 0.651514 0.247196
0.911681 0.644282 0.259831
0.930449 0.637507 0.269474
0.948516 0.631495 0.278172
0.965942 0.626307 0.286717
0.982666 0.621912 0.295689
0.998749 0.618250 0.304814
1.000000 0.615320 0.314977
0.351293 0.673304 0.434272
0.354223 0.674189 0.435767
0.358709 0.674952 0.436805
0.364599 0.675502 0.437568
0.371862 0.675380 0.436744
0.379828 0.674617 0.434699
0.389807 0.673365 0.431983
0.406928 0.671321 0.431922
0.434333 0.668574 0.437446
0.462074 0.665583 0.444068
0.489906 0.662348 0.451789
0.516472 0.658869 0.460334
0.541161 0.654871 0.469123
0.559075 0.655726 0.468940
0.576135 0.660578 0.459754
0.597223 0.665187 0.449531
0.621790 0.669459 0.437995
0.649683 0.673457 0.425605
0.680476 0.677272 0.412360
0.713130 0.680964 0.398169
0.747768 0.684932 0.382666
0.787259 0.693599 0.361791
0.819883 0.691157 0.338476
0.850523 0.686549 0.315435
0.878874 0.680323 0.292180
0.902861 0.674556 0.293004
0.922606 0.668452 0.301610
0.940337 0.662470 0.312779
0.957427 0.657435 0.322942
0.974029 0.653132 0.332738
0.989899 0.649805 0.343603
1.000000 0.646967 0.354253
0.402960 0.693385 0.470069
0.405524 0.694179 0.471412
0.409552 0.694942 0.472847
0.414618 0.695491 0.473548
0.420783 0.695521 0.473457
0.427283 0.694911 0.472023
0.434638 0.693782 0.469306
0.444709 0.692378 0.467292
0.467018 0.689906 0.471748
0.490333 0.687282 0.477180
0.514244 0.684260 0.483497
0.537682 0.681117 0.490639
0.560021 0.677668 0.498299
0.580926 0.673976 0.506310
0.594720 0.677119 0.501091
0.610529 0.681392 0.492439
0.629847 0.685359 0.482979
0.652277 0.689174 0.472511
0.677699 0.692775 0.461494
0.705623 0.696284 0.449439
0.735073 0.699672 0.437079
0.766110 0.702998 0.424018
0.803403 0.711757 0.405615
0.833707 0.710933 0.385962
0.862333 0.707057 0.365545
0.889067 0.701717 0.345251
0.912505 0.696284 0.339269
0.932769 0.691157 0.344121
0.949432 0.686244 0.357153
0.965637 0.682185 0.368902
0.981231 0.678950 0.381292
0.996246 0.676387 0.393164
0.451179 0.712276 0.505425
0.453468 0.712978 0.506798
0.456703 0.713558 0.507958
0.460639 0.713954 0.508568
0.465278 0.713985 0.508476
0.470314 0.713466 0.507103
0.476509 0.712551 0.505058
0.483619 0.711360 0.502678
0.499458 0.709499 0.504936
0.518944 0.707057 0.509392
0.539330 0.704524 0.514763
0.560052 0.701686 0.520867
0.579919 0.698573 0.527153
0.599176 0.695308 0.534081
0.615900 0.693141 0.539117
0.627863 0.697108 0.532372
0.643061 0.701076 0.524865
0.661250 0.705043 0.517082
0.682490 0.708949 0.508843
0.706081 0.712795 0.500114
0.731899 0.716640 0.491218
0.759182 0.720333 0.481788
0.787289 0.723842 0.471656
0.821195 0.731991 0.457618
0.849851 0.733364 0.442481
0.876493 0.730617 0.426093
0.901549 0.726406 0.409644
0.924529 0.721645 0.399329
0.944305 0.717922 0.404334
0.960327 0.714229 0.417609
0.975250 0.711269 0.431739
0.989532 0.709041 0.445441
0.506828 0.734127 0.548394
0.507774 0.734432 0.548974
0.508995 0.734463 0.548913
0.511192 0.734340 0.548669
0.513787 0.733944 0.547662
0.517113 0.733211 0.546075
0.521416 0.732296 0.544060
0.527001 0.731289 0.542138
0.536614 0.729793 0.541833
0.553002 0.727779 0.545647
0.570306 0.725551 0.550256
0.587945 0.723110 0.555291
0.605371 0.720394 0.560601
0.622400 0.717556 0.566552
0.638605 0.714504 0.572656
0.651087 0.714565 0.573236
0.662226 0.718013 0.566827
0.675990 0.721492 0.560021
0.692287 0.724880 0.552697
0.711116 0.728267 0.545129
0.732052 0.731563 0.537255
0.754818 0.734829 0.528679
0.778897 0.737881 0.519646
0.803830 0.740780 0.510063
0.834012 0.747982 0.498299
0.861082 0.750881 0.485786
0.885924 0.748989 0.472450
0.909575 0.745907 0.459876
0.932097 0.742031 0.447761
0.950866 0.739223 0.453956
0.967193 0.736477 0.464210
0.981109 0.734310 0.478889
0.545678 0.750027 0.579797
0.546380 0.750210 0.580224
0.547601 0.750332 0.580499
0.549218 0.750149 0.580041
0.551476 0.749874 0.579492
0.554192 0.749294 0.578119
0.557855 0.748562 0.576654
0.562310 0.747646 0.574762
0.567926 0.746670 0.573144
0.581720 0.744869 0.576349
0.596338 0.742916 0.580102
0.611536 0.740841 0.584436
0.627070 0.738521 0.589227
0.642267 0.736110 0.594324
0.657038 0.733455 0.599756
0.671260 0.730770 0.605585
0.680903 0.732876 0.602747
0.691524 0.736172 0.597253
0.704402 0.739498 0.591516
0.719509 0.742733 0.585321
0.736660 0.745998 0.578882
0.755520 0.749203 0.572107
0.775998 0.752316 0.564843
0.797604 0.755306 0.557305
0.817868 0.755947 0.543847
0.845151 0.762448 0.534142
0.870878 0.766964 0.524529
0.894194 0.766018 0.514427
0.916503 0.764004 0.505303
0.937835 0.761288 0.496620
0.956451 0.759091 0.499336
0.973022 0.757351 0.507378
0.587640 0.767300 0.614801
0.588647 0.767605 0.615473
0.589654 0.767697 0.615656
0.590509 0.767422 0.614984
0.591547 0.766903 0.613855
0.593103 0.766171 0.612268
0.595148 0.765194 0.610285
0.597955 0.764065 0.608057
0.601587 0.762905 0.605798
0.610254 0.761227 0.606439
0.621881 0.759213 0.608911
0.634577 0.757076 0.612116
0.647364 0.754818 0.615503
0.660395 0.752438 0.619440
0.673091 0.749844 0.623529
0.685695 0.747158 0.628016
0.697139 0.745113 0.631769
0.705043 0.748043 0.626947
0.715023 0.751156 0.622034
0.727169 0.754421 0.617029
0.741360 0.757687 0.611994
0.757076 0.760891 0.606531
0.774289 0.763851 0.600488
0.792599 0.766659 0.593835
0.811978 0.769253 0.586328
0.832120 0.771633 0.578424
0.856504 0.777371 0.570214
0.880644 0.783047 0.562768
0.902403 0.782803 0.555169
0.923278 0.781765 0.548699
0.943236 0.780087 0.543389
0.961456 0.778439 0.543755
0.617365 0.780270 0.640345
0.618280 0.780545 0.640955
0.619135 0.780667 0.641230
0.620203 0.780545 0.640986
0.621485 0.780240 0.640345
0.623194 0.779782 0.639368
0.625483 0.779232 0.638300
0.628565 0.778561 0.637049
0.632197 0.777768 0.635676
0.638178 0.776761 0.635523
0.648432 0.775265 0.638025
0.659358 0.773587 0.640955
0.670649 0.771725 0.644099
0.682094 0.769619 0.647425
0.693355 0.767453 0.650996
0.704524 0.765042 0.654749
0.715450 0.762661 0.658900
0.724117 0.762539 0.659724
0.731685 0.765408 0.655543
0.741085 0.768429 0.651453
0.752255 0.771542 0.647333
0.765042 0.774624 0.642939
0.779202 0.777615 0.638178
0.794583 0.780484 0.633051
0.811063 0.783200 0.627497
0.828489 0.785794 0.621332
0.846769 0.788296 0.614801
0.868589 0.793668 0.608911
0.891356 0.800656 0.604486
0.911528 0.801358 0.600031
0.930785 0.801328 0.596887
0.949126 0.800504 0.594293
0.649744 0.794461 0.668666
0.650263 0.794614 0.668971
0.650843 0.794614 0.669062
0.651545 0.794491 0.668788
0.652461 0.794186 0.668116
0.653803 0.793729 0.667201
0.655543 0.793240 0.666194
0.657923 0.792630 0.665064
0.660883 0.791958 0.663844
0.664393 0.791196 0.662654
0.672938 0.789883 0.664698
0.682246 0.788479 0.667170
0.691920 0.786893 0.669917
0.701930 0.785153 0.672847
0.711940 0.783230 0.675898
0.721859 0.781155 0.679103
0.731655 0.779141 0.682704
0.741360 0.777096 0.686702
0.748104 0.778653 0.685176
0.755428 0.781491 0.681819
0.764218 0.784451 0.678462
0.774472 0.787381 0.675013
0.785946 0.790249 0.671046
0.798611 0.793027 0.666926
0.812406 0.795712 0.662348
0.827146 0.798245 0.657404
0.842863 0.800748 0.652186
0.859342 0.803189 0.646632
0.878904 0.808164 0.642237
0.900816 0.816281 0.640192
0.919005 0.817746 0.638422
0.936828 0.818387 0.637476
0.678218 0.807370 0.694026
0.678553 0.807492 0.694209
0.679103 0.807523 0.694362
0.679805 0.807431 0.694148
0.680934 0.807340 0.693996
0.682521 0.807187 0.693721
0.684871 0.807126 0.693690
0.687922 0.807095 0.693751
0.691615 0.807034 0.693904
0.695827 0.807004 0.694209
0.702998 0.806668 0.696345
0.711818 0.806027 0.699550
0.720974 0.805203 0.702846
0.730190 0.804227 0.706203
0.739162 0.803006 0.709407
0.747982 0.801511 0.712520
0.756558 0.799954 0.715724
0.765133 0.798367 0.719203
0.773251 0.797208 0.722560
0.778653 0.799832 0.720058
0.785306 0.802579 0.717617
0.793149 0.805356 0.714961
0.801999 0.808072 0.712093
0.811948 0.810758 0.708919
0.822873 0.813291 0.705470
0.834745 0.815763 0.701717
0.847562 0.818204 0.697749
0.861234 0.820645 0.693660
0.875608 0.823056 0.689387
0.892454 0.827420 0.686244
0.912016 0.835325 0.686122
0.928466 0.838071 0.686732
0.714321 0.823667 0.726375
0.714412 0.823667 0.726467
0.714565 0.823606 0.726223
0.714900 0.823453 0.725978
0.715511 0.823270 0.725582
0.716426 0.822995 0.725032
0.717830 0.822721 0.724575
0.719600 0.822354 0.723995
0.721828 0.822080 0.723537
0.724544 0.821683 0.723018
0.728634 0.821225 0.723293
0.735378 0.820432 0.725429
0.742580 0.819486 0.727657
0.749966 0.818479 0.730098
