20 Preset/Classic brown/【3】LUT video cho PR-AE-FCPX/Tone (3).cube
# Created by Adobe Lightroom plugin Export LUT (1.24.0)
# www.johnrellis.com/lightroom/exportlut.htm
# Preset: 人文电影-素材江湖04
# Color profile: E:\lut插件\exportlut.1.24\exportlut.lrplugin\color profiles\Rec709gamma2.4.icc
LUT_3D_SIZE 32
DOMAIN_MIN 0.0 0.0 0.0
DOMAIN_MAX 1.0 1.0 1.0
0.067323 0.091463 0.087984
0.067323 0.091463 0.087984
0.067323 0.091463 0.087984
0.072297 0.091676 0.088350
0.089479 0.092226 0.089784
0.102358 0.093507 0.091432
0.117647 0.093690 0.093538
0.134829 0.093507 0.095033
0.154208 0.092592 0.097200
0.176883 0.090364 0.098848
0.202792 0.085908 0.100587
0.233158 0.078157 0.103029
0.269291 0.055055 0.105043
0.311406 0.019257 0.107546
0.359960 0.000000 0.110353
0.414679 0.000000 0.112978
0.474311 0.000000 0.115785
0.537377 0.000000 0.118776
0.610834 0.000000 0.122042
0.691890 0.000000 0.126314
0.756008 0.000000 0.131441
0.807218 0.000000 0.137362
0.847593 0.000000 0.144381
0.880430 0.000000 0.152773
0.907439 0.000000 0.162387
0.930266 0.000000 0.174075
0.950256 0.000000 0.187442
0.968109 0.000000 0.203311
0.984161 0.105684 0.222019
0.998657 0.188388 0.244327
1.000000 0.247562 0.270848
1.000000 0.300267 0.302342
0.067323 0.091463 0.087984
0.067323 0.091463 0.087984
0.067323 0.091463 0.087984
0.072297 0.091676 0.088350
0.089479 0.092226 0.089784
0.101930 0.093141 0.091493
0.116609 0.093843 0.093538
0.133974 0.093660 0.095033
0.152834 0.092927 0.096803
0.174685 0.090578 0.098543
0.200015 0.088075 0.100587
0.229862 0.079805 0.102754
0.264927 0.059907 0.105165
0.306126 0.027008 0.107362
0.353704 0.000000 0.110262
0.407385 0.000000 0.112947
0.466712 0.000000 0.115572
0.529351 0.000000 0.118379
0.602228 0.000000 0.121584
0.680873 0.000000 0.125551
0.744503 0.000000 0.130465
0.795621 0.000000 0.135775
0.836728 0.000000 0.142245
0.870512 0.000000 0.150179
0.898650 0.000000 0.159060
0.922545 0.000000 0.169497
0.943603 0.000000 0.182681
0.962463 0.000000 0.197696
0.979400 0.029145 0.215763
0.994751 0.168826 0.237491
1.000000 0.232486 0.263615
1.000000 0.287388 0.294499
0.067323 0.091463 0.087984
0.067323 0.091463 0.087984
0.067323 0.091463 0.087984
0.076265 0.091493 0.088350
0.089937 0.092592 0.089723
0.102358 0.093507 0.091432
0.116945 0.094179 0.093477
0.133791 0.094087 0.094972
0.152407 0.094209 0.097047
0.174258 0.093202 0.099001
0.199680 0.090669 0.101015
0.228885 0.085328 0.103151
0.263493 0.069673 0.105196
0.303990 0.038331 0.107424
0.351019 0.000000 0.110231
0.404120 0.000000 0.113008
0.462623 0.000000 0.115602
0.525322 0.000000 0.118105
0.598871 0.000000 0.121218
0.675410 0.000000 0.125399
0.738766 0.000000 0.129885
0.789822 0.000000 0.135134
0.831296 0.000000 0.141085
0.865568 0.000000 0.148745
0.894011 0.000000 0.157473
0.918334 0.000000 0.167758
0.939849 0.000000 0.180056
0.959136 0.000000 0.195132
0.976593 0.019959 0.213199
0.992309 0.166079 0.234440
1.000000 0.229831 0.260166
1.000000 0.284154 0.290440
0.068360 0.095399 0.089967
0.068360 0.095399 0.089967
0.070344 0.095308 0.089967
0.079011 0.096101 0.090608
0.092226 0.097749 0.091432
0.104067 0.099031 0.093111
0.119173 0.099184 0.094301
0.135470 0.099489 0.096132
0.154208 0.099519 0.097810
0.175753 0.098573 0.099702
0.200809 0.096681 0.101686
0.229953 0.092958 0.103761
0.264317 0.084657 0.105715
0.304356 0.058930 0.107881
0.350256 0.014496 0.110353
0.402197 0.000000 0.113008
0.459663 0.000000 0.115602
0.520226 0.000000 0.118196
0.593957 0.000000 0.121431
0.666011 0.000000 0.124666
0.727047 0.000000 0.128908
0.777859 0.000000 0.133516
0.820279 0.000000 0.139193
0.856565 0.000000 0.146242
0.887175 0.000000 0.155093
0.913451 0.000000 0.165530
0.936461 0.000000 0.178470
0.956725 0.000000 0.193759
0.974792 0.093629 0.211978
0.990723 0.180026 0.233982
1.000000 0.237705 0.259342
1.000000 0.288365 0.288914
0.073640 0.103548 0.094484
0.073365 0.103548 0.094881
0.078492 0.103334 0.095644
0.083436 0.103731 0.096315
0.091341 0.105898 0.095491
0.106538 0.108064 0.094850
0.121279 0.108186 0.096010
0.137423 0.108095 0.097475
0.155947 0.107790 0.099184
0.177432 0.107240 0.100587
0.201999 0.105653 0.102571
0.231296 0.102602 0.104219
0.265080 0.097322 0.106416
0.304845 0.087892 0.108461
0.350378 0.054444 0.111055
0.402625 0.000000 0.113497
0.460060 0.000000 0.115938
0.523278 0.000000 0.118288
0.596643 0.000000 0.121706
0.665614 0.000000 0.124605
0.724788 0.000000 0.128145
0.774411 0.000000 0.132967
0.816678 0.000000 0.138277
0.853361 0.000000 0.145327
0.884459 0.000000 0.153902
0.911131 0.000000 0.165011
0.934295 0.000000 0.177890
0.954589 0.000000 0.193423
0.972595 0.135500 0.211734
0.988495 0.199924 0.233524
1.000000 0.251316 0.258610
1.000000 0.298314 0.288212
0.081392 0.113741 0.101137
0.083070 0.113375 0.101198
0.086397 0.113191 0.101900
0.090242 0.112886 0.103334
0.094148 0.114992 0.102571
0.103273 0.117739 0.101595
0.123445 0.121370 0.099794
0.141726 0.120699 0.099397
0.160983 0.120211 0.100618
0.182498 0.119570 0.102022
0.207767 0.118105 0.103914
0.237217 0.116060 0.105684
0.271580 0.112337 0.107332
0.311559 0.105745 0.109407
0.358099 0.093629 0.111666
0.410559 0.051240 0.114076
0.468452 0.000000 0.116396
0.537682 0.000000 0.119081
0.608515 0.000000 0.121920
0.674311 0.000000 0.124849
0.730922 0.000000 0.128115
0.778988 0.000000 0.132662
0.874327 0.000000 0.150393
0.901732 0.000000 0.160830
0.924590 0.000000 0.173220
0.944366 0.124208 0.187259
0.961547 0.178103 0.203433
0.976806 0.220371 0.222324
0.990417 0.259464 0.244083
1.000000 0.296452 0.268437
1.000000 0.332860 0.296605
1.000000 0.368139 0.327642
0.090059 0.128908 0.110780
0.090944 0.128573 0.111147
0.093935 0.128084 0.111818
0.098116 0.127199 0.113161
0.101442 0.128542 0.112245
0.108034 0.131289 0.110719
0.121584 0.134737 0.109529
0.147524 0.140383 0.106416
0.172946 0.140597 0.104128
0.198062 0.139376 0.104005
0.225864 0.138308 0.105501
0.258640 0.136629 0.107149
0.296025 0.133700 0.108980
0.339178 0.128115 0.111360
0.388190 0.118196 0.113283
0.441779 0.101442 0.115480
0.509331 0.045228 0.117525
0.582086 0.000000 0.120150
0.651850 0.000000 0.122683
0.713893 0.000000 0.125429
0.768124 0.000000 0.129824
0.815244 0.000000 0.135653
0.855070 0.000000 0.143954
0.887968 0.014862 0.154665
0.914855 0.129397 0.168124
0.936584 0.176608 0.183261
0.954833 0.214267 0.199863
0.970611 0.247868 0.218967
0.984680 0.280369 0.240391
0.997070 0.312261 0.264683
1.000000 0.344579 0.292363
1.000000 0.377295 0.322850
0.096773 0.143557 0.120790
0.097444 0.143526 0.120790
0.100374 0.142885 0.121431
0.104128 0.142123 0.122866
0.108980 0.141970 0.123659
0.114107 0.144472 0.121492
0.123659 0.147616 0.118441
0.140536 0.151858 0.116365
0.170169 0.159426 0.113008
0.202914 0.161898 0.108553
0.233982 0.160891 0.106813
0.267857 0.159762 0.107607
0.305821 0.157961 0.109407
0.349218 0.154910 0.110994
0.397803 0.149020 0.113130
0.459419 0.140108 0.115084
0.525505 0.125643 0.117037
0.591669 0.103731 0.118746
0.655818 0.065187 0.120485
0.713466 0.017456 0.122927
0.764553 0.021668 0.126741
0.809873 0.085054 0.132601
0.848844 0.126711 0.140383
0.881407 0.163821 0.151369
0.908324 0.197971 0.164858
0.930358 0.227573 0.180545
0.948882 0.255192 0.198093
0.964996 0.281865 0.217258
0.979339 0.309056 0.239292
0.992004 0.336584 0.263737
1.000000 0.364965 0.291814
1.000000 0.394263 0.322820
0.105409 0.161318 0.132601
0.106203 0.161074 0.132631
0.108217 0.160555 0.133181
0.113283 0.159823 0.134463
0.119265 0.158389 0.136782
0.123354 0.160586 0.134890
0.130617 0.163607 0.131777
0.143099 0.167483 0.128237
0.163333 0.172183 0.124331
0.198001 0.182315 0.120607
0.238865 0.188022 0.113985
0.277348 0.188724 0.110750
0.320195 0.187533 0.108034
0.368872 0.187381 0.109834
0.425269 0.185824 0.111696
0.484077 0.181918 0.113130
0.545098 0.175662 0.114412
0.606073 0.168704 0.115358
0.665095 0.163821 0.116915
0.718379 0.164126 0.119112
0.766171 0.172549 0.122988
0.808835 0.188388 0.128115
0.846067 0.209445 0.136751
0.877348 0.232609 0.148684
0.903624 0.256107 0.163149
0.925383 0.278111 0.179507
0.943877 0.299626 0.197940
0.960052 0.321050 0.218326
0.974395 0.343511 0.241215
0.987182 0.366674 0.266331
0.998444 0.391241 0.294926
1.000000 0.416602 0.326207
0.115877 0.182254 0.146426
0.116579 0.182040 0.146456
0.119051 0.181399 0.146975
0.123568 0.180606 0.148348
0.129610 0.179171 0.150179
0.135134 0.179263 0.150484
0.140627 0.182254 0.147311
0.151003 0.186160 0.143771
0.166781 0.190555 0.139345
0.190494 0.196536 0.134524
0.232273 0.210025 0.128817
0.282475 0.220127 0.120760
0.336095 0.225864 0.114199
0.390265 0.227481 0.109712
0.448188 0.227756 0.107027
0.505150 0.227237 0.107973
0.564416 0.226871 0.108522
0.623438 0.227085 0.108858
0.678157 0.229923 0.109773
0.727260 0.235630 0.112123
0.770748 0.244846 0.116060
0.809079 0.257237 0.122652
0.842710 0.271916 0.131533
0.871580 0.287846 0.143832
0.896300 0.304448 0.159152
0.917601 0.320897 0.176028
0.936248 0.338048 0.195254
0.952819 0.355810 0.216861
0.967712 0.375067 0.240879
0.980957 0.395605 0.267613
0.992737 0.417273 0.297704
1.000000 0.440314 0.330602
0.127260 0.205631 0.161227
0.128267 0.205447 0.161440
0.130037 0.205173 0.162020
0.135073 0.204318 0.163210
0.142123 0.203128 0.165347
0.150057 0.201663 0.168185
0.155184 0.205264 0.165469
0.164096 0.210544 0.162478
0.179080 0.216556 0.158846
0.200290 0.223545 0.153811
0.230961 0.232456 0.148196
0.281712 0.249577 0.139193
0.341283 0.263279 0.127779
0.406287 0.273045 0.115114
0.465003 0.276402 0.107698
0.526482 0.279088 0.097902
0.584039 0.281559 0.095827
0.638788 0.285466 0.095552
0.688411 0.290929 0.096742
0.733211 0.297826 0.100710
0.773129 0.306828 0.106264
0.808865 0.317357 0.114504
0.840452 0.329595 0.125795
0.868040 0.342626 0.140444
0.891936 0.355810 0.157809
0.912718 0.368902 0.177096
0.931090 0.382422 0.197940
0.947509 0.396948 0.220859
0.962341 0.412543 0.246464
0.975647 0.429694 0.274418
0.987488 0.448096 0.305364
0.997711 0.467872 0.339330
0.142733 0.240299 0.182040
0.143465 0.240238 0.182193
0.146395 0.239963 0.183017
0.152071 0.239384 0.184451
0.160281 0.238499 0.186984
0.169711 0.237552 0.190463
0.177554 0.239353 0.190890
0.185763 0.244755 0.187472
0.198764 0.250889 0.183139
0.218143 0.258335 0.177829
0.244633 0.266514 0.171359
0.281712 0.277073 0.163973
0.391028 0.337407 0.160433
0.466987 0.358556 0.136172
0.545190 0.376349 0.107576
0.607233 0.384710 0.086397
0.661646 0.390723 0.042908
0.709163 0.395727 0.015015
0.747860 0.401007 0.037079
0.782925 0.406836 0.073060
0.813718 0.412848 0.097963
0.840940 0.418769 0.118196
0.865019 0.425208 0.138369
0.886595 0.431922 0.160067
0.905699 0.438788 0.182650
0.922759 0.445991 0.204929
0.937987 0.453590 0.228000
0.951781 0.461952 0.252628
0.964385 0.471748 0.278538
0.975921 0.483253 0.306706
0.986175 0.496590 0.337865
0.995178 0.511986 0.371313
0.170809 0.301884 0.217685
0.171145 0.301640 0.217746
0.174655 0.300603 0.218143
0.180941 0.298985 0.219272
0.190188 0.296666 0.221195
0.201205 0.293889 0.224338
0.213413 0.291417 0.228122
0.220554 0.296544 0.223697
0.232853 0.303319 0.218509
0.251926 0.312352 0.212802
0.280095 0.323674 0.206394
0.318029 0.337011 0.198367
0.368841 0.353887 0.188968
0.442542 0.382757 0.173098
0.521477 0.409003 0.143709
0.596674 0.430304 0.111666
0.654963 0.441718 0.078309
0.700954 0.447395 0.031769
0.742702 0.452277 0.000000
0.776944 0.455970 0.017029
0.806180 0.459449 0.077089
0.832486 0.463325 0.108492
0.856229 0.467414 0.133852
0.877684 0.472145 0.158785
0.896971 0.476997 0.182406
0.914305 0.482216 0.207401
0.929900 0.488228 0.232609
0.944152 0.494972 0.258640
0.957183 0.502953 0.286351
0.968994 0.512749 0.316533
0.979522 0.524254 0.348302
0.988708 0.537560 0.382727
0.193271 0.349523 0.244541
0.193668 0.348943 0.244450
0.197024 0.347173 0.244572
0.203159 0.345098 0.245365
0.212619 0.342016 0.246830
0.224674 0.338506 0.249546
0.238346 0.335119 0.253727
0.248386 0.336675 0.253239
0.258610 0.343328 0.247868
0.275700 0.352331 0.242466
0.300420 0.363806 0.236271
0.334478 0.377234 0.228702
0.377173 0.391913 0.219394
0.430762 0.409674 0.208377
0.503044 0.438056 0.190890
0.576715 0.463996 0.158328
0.640864 0.483192 0.125460
0.693538 0.495308 0.091798
0.733577 0.500008 0.066407
0.769619 0.503319 0.039612
0.801328 0.505638 0.043885
0.826749 0.507561 0.104433
0.849882 0.509819 0.134463
0.871000 0.512718 0.162966
0.890074 0.515953 0.189731
0.907408 0.519493 0.215885
0.923033 0.523644 0.243107
0.937316 0.528649 0.270268
0.950439 0.534966 0.299138
0.962280 0.543023 0.330266
0.972930 0.552728 0.362890
0.982116 0.564446 0.398260
0.221317 0.400916 0.274418
0.222171 0.400427 0.274418
0.225681 0.398627 0.274418
0.231418 0.396216 0.274968
0.240726 0.392584 0.276280
0.253025 0.388434 0.278660
0.267308 0.384955 0.282719
0.282567 0.382269 0.287388
0.291691 0.388769 0.282292
0.306493 0.397467 0.276829
0.328313 0.408545 0.270848
0.358495 0.421881 0.263981
0.396185 0.436133 0.255344
0.440467 0.450538 0.244266
0.493324 0.467079 0.231846
0.559747 0.492958 0.213657
0.623346 0.515709 0.182498
0.677943 0.531823 0.152865
0.726558 0.543725 0.122957
0.761196 0.546593 0.115816
0.792416 0.548302 0.115267
0.821012 0.549615 0.118410
0.844724 0.550347 0.141787
0.865171 0.551385 0.172641
0.883848 0.552941 0.200931
0.900908 0.555047 0.228946
0.916564 0.558038 0.257481
0.930968 0.562005 0.286503
0.944213 0.567437 0.317418
0.956176 0.574609 0.350469
0.966796 0.583673 0.385718
0.975921 0.594568 0.423072
0.254887 0.451820 0.306554
0.255985 0.451881 0.306828
0.259403 0.450904 0.307317
0.266148 0.449500 0.308598
0.275822 0.447059 0.310430
0.288945 0.444617 0.313756
0.304814 0.442603 0.318761
0.322789 0.440620 0.325658
0.336187 0.444160 0.326329
0.349065 0.452705 0.321111
0.367651 0.462257 0.314733
0.392432 0.472969 0.307225
0.423102 0.484199 0.298100
0.459327 0.495277 0.286503
0.500420 0.505974 0.272953
0.547265 0.518547 0.258915
0.603906 0.539147 0.242130
0.659236 0.558648 0.214725
0.707332 0.572351 0.188144
0.750332 0.582238 0.167575
0.783413 0.586084 0.162478
0.811582 0.587427 0.166812
0.837308 0.588251 0.175387
0.860594 0.588525 0.188937
0.878904 0.589044 0.219547
0.895750 0.590356 0.248783
0.911223 0.592340 0.278935
0.925414 0.595300 0.308934
0.938323 0.599390 0.341009
0.950011 0.605005 0.373907
0.960235 0.612268 0.408972
0.968994 0.621393 0.445533
0.293584 0.502495 0.341894
0.294530 0.502342 0.342138
0.297856 0.501732 0.342809
0.303929 0.500603 0.344030
0.313542 0.499092 0.346349
0.326513 0.497200 0.349828
0.341833 0.495399 0.354894
0.359777 0.493782 0.361791
0.378027 0.492744 0.369451
0.388800 0.500114 0.364172
0.404395 0.508721 0.358312
0.424994 0.518090 0.351415
0.450690 0.527855 0.343023
0.481117 0.537377 0.332860
0.515526 0.546380 0.320958
0.552819 0.554681 0.306401
0.594018 0.565057 0.292699
0.642634 0.581781 0.279057
0.691707 0.598810 0.255772
0.734005 0.609979 0.232547
0.771878 0.618219 0.219699
0.803281 0.622065 0.215366
0.828336 0.622858 0.223941
0.851560 0.623102 0.234653
0.873075 0.622919 0.247593
0.890715 0.623224 0.272923
0.905852 0.624475 0.303593
0.919738 0.626520 0.335210
0.932403 0.629847 0.367620
0.943694 0.634607 0.401648
0.953613 0.640772 0.437171
0.962066 0.648707 0.473304
0.342992 0.554589 0.385077
0.344244 0.554986 0.385748
0.383490 0.585473 0.418128
0.388922 0.584588 0.419471
0.397070 0.583368 0.421790
0.407935 0.581537 0.425086
0.421576 0.579492 0.429633
0.437018 0.577508 0.436011
0.454231 0.575738 0.444312
0.467201 0.578241 0.445869
0.478798 0.584314 0.439826
0.493782 0.590906 0.433082
0.512261 0.597101 0.424384
0.534051 0.603113 0.413855
0.559045 0.608698 0.401221
0.586877 0.613764 0.386755
0.616999 0.618341 0.369818
0.650660 0.624628 0.355077
0.689479 0.635492 0.342382
0.729702 0.647181 0.322057
0.764675 0.654139 0.301152
0.796658 0.659297 0.293095
0.825071 0.661646 0.288365
0.846494 0.660822 0.297642
0.866361 0.659510 0.308354
0.885008 0.658045 0.320684
0.901732 0.656794 0.338018
0.914641 0.657191 0.367559
0.926513 0.659144 0.398901
0.937255 0.662654 0.431983
0.946777 0.667811 0.466438
0.955047 0.674342 0.500816
0.407172 0.607813 0.441810
0.411139 0.610224 0.445045
0.417182 0.612573 0.449012
0.424750 0.614282 0.453315
0.434272 0.614954 0.457832
0.444404 0.614405 0.461799
0.456275 0.612970 0.466346
0.469306 0.611170 0.471839
0.484169 0.609430 0.479011
0.499306 0.608118 0.487465
0.507713 0.613184 0.482185
0.519036 0.618647 0.476326
0.532921 0.624018 0.468788
0.549981 0.629389 0.459968
0.569940 0.634485 0.449470
0.592950 0.639399 0.436927
0.618463 0.644068 0.423133
0.646662 0.648737 0.408026
0.677852 0.655024 0.395483
0.712001 0.664302 0.386572
0.748104 0.674525 0.370672
0.780362 0.681025 0.354498
0.809445 0.685481 0.350134
0.836088 0.687648 0.347082
0.856138 0.686885 0.356085
0.874418 0.685542 0.368048
0.891447 0.684382 0.381628
0.907530 0.683467 0.397742
0.919768 0.684474 0.426459
0.930236 0.687221 0.458930
0.939574 0.691524 0.492378
0.947814 0.697139 0.525231
0.451331 0.641047 0.483986
0.455055 0.643366 0.487373
0.460121 0.645533 0.491249
0.467018 0.647303 0.495674
0.474678 0.648188 0.499825
0.483253 0.647944 0.503655
0.493050 0.646754 0.507652
0.504082 0.645350 0.512566
0.516381 0.643915 0.518669
0.529564 0.642451 0.526024
0.539666 0.643946 0.527825
0.547875 0.648402 0.522759
0.558343 0.653040 0.516716
0.571405 0.657740 0.509545
0.587060 0.662348 0.501183
0.605249 0.666712 0.491096
0.626062 0.670893 0.479866
0.649256 0.675013 0.467109
0.674708 0.679286 0.453285
0.702480 0.684688 0.442969
0.731960 0.691768 0.436561
0.764187 0.700343 0.423926
0.793484 0.706020 0.411170
0.819944 0.709804 0.409918
0.844297 0.711482 0.409033
0.863981 0.711025 0.416052
0.880613 0.710079 0.429694
0.896300 0.709407 0.444923
0.911040 0.709407 0.462806
0.923339 0.710750 0.487037
0.932525 0.714229 0.518639
0.940581 0.719020 0.550378
0.492927 0.672938 0.527428
0.495674 0.674769 0.530297
0.500008 0.676509 0.533745
0.505303 0.677913 0.537407
0.511620 0.678614 0.541039
0.518578 0.678370 0.544366
0.526635 0.677638 0.547875
0.535973 0.676448 0.551995
0.546624 0.675319 0.557458
0.557824 0.674098 0.563684
0.569787 0.673030 0.571405
0.575982 0.676539 0.567529
0.583764 0.680323 0.562646
0.593622 0.684260 0.556725
0.605554 0.688289 0.550317
0.619867 0.692348 0.542748
0.636927 0.696681 0.534905
0.656245 0.701137 0.526146
0.677943 0.705898 0.517144
0.701656 0.710903 0.507927
0.726986 0.716548 0.502068
0.752956 0.722896 0.500206
0.781460 0.730282 0.491768
0.808042 0.735592 0.484840
0.831876 0.739254 0.487495
0.854215 0.740932 0.489937
0.873198 0.741238 0.497047
0.888243 0.741054 0.511864
0.902251 0.741451 0.528527
0.915160 0.742489 0.547173
0.926879 0.744259 0.567224
0.934234 0.748226 0.595697
0.545251 0.711574 0.586175
0.546410 0.712245 0.587396
0.548272 0.712581 0.588586
0.551110 0.712581 0.590051
0.554803 0.712184 0.591577
0.559625 0.711482 0.593530
0.565515 0.710506 0.595972
0.572839 0.709468 0.599329
0.581292 0.708492 0.603632
0.590967 0.707637 0.609277
0.601068 0.706874 0.615869
0.609033 0.707698 0.618738
0.614405 0.710780 0.614771
0.621424 0.714015 0.610346
0.630030 0.717281 0.604913
0.640528 0.720577 0.598779
0.653071 0.723964 0.592187
0.667750 0.727443 0.584710
0.684443 0.731044 0.577020
0.703334 0.734798 0.568566
0.723934 0.738643 0.559899
0.745785 0.742733 0.554284
0.767697 0.746761 0.551598
0.792691 0.752193 0.543481
0.816678 0.756497 0.538354
0.838499 0.759640 0.541802
0.859129 0.761501 0.545892
0.877836 0.762448 0.552636
0.891600 0.763119 0.568475
0.904295 0.764279 0.585595
0.915740 0.765927 0.603784
0.926116 0.767971 0.622278
0.577996 0.735470 0.625330
0.578851 0.735897 0.626246
0.580438 0.736233 0.627436
0.582788 0.736263 0.628748
0.585840 0.736049 0.630213
0.589807 0.735531 0.631891
0.594720 0.734798 0.634058
0.600732 0.734035 0.636957
0.607752 0.733303 0.640711
0.615869 0.732692 0.645533
0.624445 0.732052 0.651026
0.633326 0.731441 0.657252
0.638087 0.733639 0.655756
0.643305 0.736477 0.652369
0.649714 0.739498 0.648493
0.657649 0.742550 0.644129
0.667323 0.745724 0.639216
0.678676 0.749050 0.633967
0.691890 0.752377 0.628046
0.706966 0.755886 0.621912
0.723812 0.759487 0.615381
0.742428 0.763088 0.608331
0.761868 0.766629 0.603998
0.781094 0.769833 0.602533
0.801541 0.770382 0.586267
0.823392 0.774197 0.584039
0.843687 0.777493 0.589227
0.862943 0.779751 0.594934
0.880919 0.781399 0.602014
0.893736 0.782650 0.617426
0.905272 0.784390 0.634211
0.915679 0.786526 0.651484
0.613855 0.761746 0.669886
0.615076 0.762387 0.671229
0.616205 0.762631 0.672053
0.617578 0.762387 0.672541
0.619287 0.761685 0.672816
0.621576 0.760708 0.673182
0.624537 0.759518 0.673854
0.628504 0.758206 0.675013
0.633387 0.756924 0.676905
0.639185 0.755764 0.679652
0.645472 0.754604 0.683009
0.652522 0.753597 0.687343
0.658473 0.753323 0.690028
0.661677 0.755245 0.686549
0.665797 0.757198 0.682490
0.671168 0.759335 0.678035
0.678157 0.761715 0.673457
0.686732 0.764370 0.668849
0.697200 0.767422 0.664240
0.709529 0.770840 0.659937
0.723415 0.774380 0.655360
0.738949 0.777890 0.650294
0.755856 0.781125 0.644434
0.773312 0.783902 0.640040
0.790311 0.785794 0.637781
0.810605 0.789029 0.630549
0.830320 0.792294 0.630365
0.848905 0.795285 0.635370
0.866514 0.797482 0.641291
0.883177 0.799191 0.648188
0.895689 0.800839 0.661433
0.906126 0.802914 0.676967
0.635523 0.778775 0.697627
0.636530 0.779355 0.698726
0.637720 0.779660 0.699641
0.638941 0.779660 0.700343
0.640772 0.779355 0.701137
0.643153 0.778988 0.702052
0.646326 0.778500 0.703456
0.650324 0.777951 0.705257
0.655116 0.777432 0.707729
0.660578 0.776944 0.710719
0.666377 0.776394 0.714107
0.672633 0.775875 0.718044
0.678981 0.775235 0.722255
0.682734 0.776150 0.721889
0.685756 0.777890 0.718898
0.689631 0.779721 0.715389
0.694667 0.781704 0.711788
0.701076 0.783932 0.708095
0.709102 0.786587 0.704555
0.718654 0.789517 0.701198
0.729732 0.792660 0.697871
0.742306 0.795834 0.694209
0.756222 0.798917 0.690150
0.771542 0.801816 0.685512
0.787381 0.804196 0.682216
0.802457 0.805600 0.680507
0.820768 0.808347 0.674861
0.838254 0.811307 0.676997
0.855253 0.814481 0.682826
0.871366 0.816953 0.689296
0.886351 0.818997 0.696468
0.898314 0.820920 0.707240
0.659754 0.798062 0.728420
0.660243 0.798337 0.728939
0.660914 0.798398 0.729335
0.661921 0.798306 0.729793
0.663325 0.798032 0.730312
0.665278 0.797635 0.730983
0.667781 0.797177 0.731960
0.670954 0.796658 0.733394
0.674891 0.796170 0.735225
0.679408 0.795712 0.737575
0.684413 0.795224 0.740291
0.689815 0.794827 0.743557
0.695430 0.794369 0.747097
0.700893 0.793912 0.750454
0.703151 0.795438 0.748074
0.705959 0.797024 0.745388
0.709773 0.798764 0.742550
0.714717 0.800717 0.739681
0.720943 0.803006 0.736965
0.728511 0.805631 0.734432
0.737423 0.808408 0.731899
0.747494 0.811185 0.729122
0.758846 0.813901 0.725978
0.771450 0.816434 0.722194
0.785275 0.818784 0.718013
0.799527 0.820645 0.714717
0.812924 0.821469 0.713222
0.829221 0.823758 0.709529
0.844938 0.826383 0.712062
0.860624 0.829679 0.718318
0.875273 0.832517 0.725277
0.888762 0.834958 0.732906
0.680049 0.814450 0.753597
0.680385 0.814664 0.753964
0.681056 0.814786 0.754391
0.682033 0.814786 0.754940
0.683528 0.814755 0.755703
0.685634 0.814847 0.756893
0.688716 0.815122 0.758816
0.692470 0.815549 0.761227
0.696986 0.816098 0.764187
0.702144 0.816739 0.767636
0.707668 0.817472 0.771450
0.713436 0.818051 0.775387
0.719295 0.818540 0.779385
0.724971 0.818784 0.783322
0.729091 0.819608 0.784970
0.731533 0.821225 0.783474
0.734463 0.822812 0.781613
0.738155 0.824552 0.779660
0.742916 0.826535 0.777829
0.748653 0.828702 0.776089
0.755520 0.830991 0.774319
0.763394 0.833371 0.772396
0.772274 0.835630 0.770138
0.782132 0.837797 0.767575
0.793057 0.839811 0.764492
0.805142 0.841703 0.760983
0.817502 0.843076 0.758236
0.828916 0.843412 0.756527
0.842344 0.844999 0.755184
0.855711 0.846891 0.756924
0.869230 0.849912 0.762661
0.881682 0.852506 0.768887
0.708248 0.835874 0.786191
0.708370 0.835874 0.786252
0.708644 0.835813 0.786313
0.709163 0.835691 0.786496
0.710170 0.835477 0.786801
0.711543 0.835264 0.787289
0.713405 0.835050 0.788083
0.715938 0.834867 0.789242
0.718959 0.834775 0.790738
0.722560 0.834684 0.792569
0.726528 0.834653 0.794705
0.730892 0.834623 0.797116
0.735439 0.834562 0.799741
0.740108 0.834409 0.802487
