20 Preset/Classic brown/【3】LUT video cho PR-AE-FCPX/Tone (6).cube
# Created by Adobe Lightroom plugin Export LUT (1.24.0)
# www.johnrellis.com/lightroom/exportlut.htm
# Preset: 人文电影-素材江湖07
# Color profile: E:\lut插件\exportlut.1.24\exportlut.lrplugin\color profiles\Rec709gamma2.4.icc
LUT_3D_SIZE 5
DOMAIN_MIN 0.000000 0.000000 0.000000
DOMAIN_MAX 0.903226 0.903226 0.903226
0.059541 0.087678 0.081971
0.088411 0.087282 0.081605
0.562768 0.000000 0.027649
0.848112 0.000000 0.000000
0.915618 0.000000 0.000000
0.032258 0.105623 0.077699
0.093568 0.108095 0.075105
0.573846 0.102602 0.000000
0.845396 0.000000 0.000000
0.911467 0.000000 0.000000
0.000000 0.469856 0.229923
0.194888 0.445624 0.255161
0.479530 0.479500 0.125368
0.801053 0.463905 0.000000
0.880247 0.358618 0.000000
0.478889 0.661067 0.528283
0.512047 0.657252 0.537316
0.588190 0.645655 0.564233
0.667994 0.656062 0.459327
0.813413 0.612970 0.089631
0.636408 0.710475 0.665339
0.641566 0.709712 0.666957
0.657557 0.704433 0.671107
0.675624 0.706081 0.671748
0.714412 0.717250 0.639673
0.058442 0.087373 0.091524
0.062928 0.087404 0.083375
0.510124 0.000000 0.049409
0.838712 0.000000 0.000000
0.909636 0.000000 0.000000
0.000000 0.120211 0.125856
0.115724 0.136049 0.133974
0.526940 0.000000 0.059205
0.835325 0.000000 0.000000
0.905180 0.000000 0.000000
0.000000 0.476875 0.287755
0.183566 0.467262 0.307103
0.468818 0.468574 0.256535
0.787472 0.463996 0.000000
0.877989 0.364416 0.000000
0.491249 0.661463 0.550042
0.517082 0.658717 0.553979
0.595727 0.646235 0.583215
0.663508 0.655360 0.504662
0.803220 0.620752 0.276646
0.634791 0.711086 0.666865
0.640101 0.710231 0.668360
0.658656 0.707546 0.674678
0.677394 0.707637 0.676417
0.715419 0.719295 0.648981
0.000000 0.070802 0.370764
0.000000 0.046021 0.385534
0.459144 0.000000 0.382818
0.790921 0.000000 0.364904
0.871672 0.232822 0.331029
0.000000 0.160281 0.377081
0.000000 0.172091 0.397864
0.478370 0.192172 0.412512
0.776242 0.241032 0.400702
0.858824 0.328405 0.358404
0.000000 0.454170 0.475166
0.000000 0.467353 0.479774
0.533684 0.539239 0.530266
0.723384 0.528252 0.488167
0.818631 0.502708 0.423957
0.386267 0.668574 0.580468
0.454047 0.664363 0.584649
0.597620 0.656641 0.614801
0.655665 0.657008 0.602106
0.761074 0.646571 0.537530
0.614832 0.712184 0.667231
0.625299 0.711727 0.670588
0.651331 0.710506 0.677974
0.678340 0.706783 0.686702
0.711818 0.717800 0.665766
0.000000 0.140475 0.617792
0.000000 0.149264 0.624933
0.508446 0.198123 0.647242
0.733394 0.303960 0.636500
0.775235 0.498024 0.599390
0.000000 0.225071 0.612696
0.000000 0.239078 0.619471
0.509789 0.310124 0.641321
0.713954 0.401556 0.635279
0.762387 0.531670 0.609064
0.000000 0.399786 0.590448
0.000000 0.409552 0.589105
0.488045 0.502159 0.627771
0.667872 0.574121 0.641871
0.732845 0.609766 0.638788
0.218265 0.632074 0.645655
0.318425 0.633356 0.645624
0.517876 0.642451 0.649866
0.660243 0.668879 0.671443
0.726223 0.666499 0.660182
0.524254 0.720058 0.680598
0.546319 0.718715 0.681483
0.608728 0.715785 0.685756
0.668971 0.716091 0.695125
0.711696 0.720363 0.688716
0.240696 0.324224 0.718471
0.323339 0.337835 0.718349
0.521721 0.403174 0.717800
0.677699 0.525353 0.716274
0.746426 0.562615 0.705043
0.267033 0.370489 0.713832
0.341253 0.384070 0.713832
0.524407 0.444068 0.713436
0.672297 0.550134 0.712886
0.737789 0.582971 0.703792
0.145083 0.450843 0.702358
0.296330 0.470588 0.701869
0.515618 0.531304 0.701900
0.657557 0.605310 0.705165
0.717403 0.633478 0.703731
0.000000 0.571740 0.696986
0.094942 0.572076 0.695552
0.368872 0.575982 0.690181
0.630640 0.641871 0.697047
0.709346 0.674861 0.712947
0.436316 0.694148 0.713069
0.460395 0.694209 0.712490
0.538842 0.695644 0.711421
0.623499 0.699702 0.711604
0.720180 0.735988 0.746731
