20 Preset/Classic brown/【3】LUT video cho PR-AE-FCPX/Tone (4).cube
# Created by Adobe Lightroom plugin Export LUT (1.24.0)
# www.johnrellis.com/lightroom/exportlut.htm
# Preset: 人文电影-素材江湖05
# Color profile: E:\lut插件\exportlut.1.24\exportlut.lrplugin\color profiles\Rec709gamma2.4.icc
LUT_3D_SIZE 5
DOMAIN_MIN 0.000000 0.000000 0.000000
DOMAIN_MAX 0.903226 0.903226 0.903226
0.050843 0.079469 0.071595
0.100191 0.089357 0.087098
0.243198 0.043610 0.097261
0.538476 0.000000 0.115999
0.809995 0.000000 0.156741
0.071534 0.097902 0.092103
0.101839 0.103639 0.090303
0.240696 0.087068 0.097108
0.532891 0.000000 0.115023
0.816800 0.000000 0.158968
0.119051 0.168307 0.143832
0.126101 0.170230 0.137209
0.273320 0.215030 0.103731
0.569268 0.197910 0.098268
0.810330 0.190494 0.150698
0.234775 0.325597 0.264073
0.244419 0.331090 0.262028
0.298100 0.352697 0.231693
0.560693 0.422492 0.138827
0.813626 0.476173 0.136629
0.502647 0.592523 0.506035
0.509819 0.596277 0.505730
0.521447 0.594720 0.475563
0.617609 0.625422 0.430488
0.807523 0.676265 0.370581
0.060212 0.090364 0.092836
0.080323 0.087922 0.089204
0.212863 0.067964 0.096162
0.473091 0.000000 0.111360
0.768887 0.000000 0.145418
0.072969 0.098909 0.095186
0.091798 0.104097 0.098848
0.218448 0.103334 0.096407
0.480140 0.000000 0.110719
0.773983 0.000000 0.146059
0.124788 0.164614 0.152010
0.128542 0.167300 0.149020
0.232700 0.196963 0.124300
0.520897 0.194095 0.096345
0.796963 0.192142 0.144381
0.241001 0.323278 0.274083
0.249271 0.329564 0.273381
0.295750 0.350317 0.249760
0.542504 0.415595 0.176089
0.808713 0.474159 0.131350
0.503624 0.590234 0.511864
0.509239 0.593317 0.510979
0.542351 0.609827 0.508415
0.623224 0.634302 0.459846
0.811643 0.685115 0.394110
0.058137 0.108003 0.141695
0.064546 0.109224 0.139040
0.154086 0.109651 0.144625
0.414435 0.000000 0.158785
0.752529 0.000000 0.150088
0.059632 0.121920 0.138430
0.085634 0.123751 0.139712
0.160006 0.130556 0.154360
0.412696 0.077546 0.168032
0.758175 0.000000 0.158572
0.123079 0.162997 0.161868
0.135439 0.169497 0.168460
0.213321 0.211124 0.199222
0.443610 0.220432 0.201450
0.772366 0.216648 0.178714
0.259678 0.306798 0.292576
0.265751 0.315282 0.297551
0.300999 0.350103 0.308537
0.496620 0.407507 0.270207
0.783932 0.467811 0.226993
0.501244 0.570306 0.521721
0.510216 0.579522 0.527672
0.534966 0.599725 0.532128
0.600885 0.626307 0.502220
0.788602 0.677272 0.447944
0.000000 0.139590 0.206607
0.000000 0.139956 0.204013
0.139559 0.153384 0.240665
0.312078 0.154330 0.263798
0.666926 0.000000 0.317784
0.000000 0.149538 0.200168
0.021607 0.150790 0.200412
0.147127 0.168978 0.239811
0.311070 0.176944 0.266667
0.663996 0.126223 0.321569
0.091310 0.191562 0.218296
0.107485 0.194675 0.220798
0.168307 0.215885 0.245487
0.346014 0.260990 0.305547
0.692775 0.264530 0.351873
0.211368 0.281529 0.279423
0.222507 0.286473 0.283879
0.283757 0.323857 0.318669
0.459541 0.424933 0.394385
0.741634 0.466468 0.406104
0.493843 0.520043 0.504601
0.500023 0.528710 0.512200
0.533043 0.569604 0.548028
0.595850 0.631312 0.589990
0.757809 0.680842 0.552300
0.000000 0.209384 0.350134
0.000000 0.208713 0.347112
0.005982 0.224704 0.375799
0.368658 0.257786 0.478523
0.624567 0.263737 0.504784
0.000000 0.214694 0.338750
0.000000 0.213779 0.335973
0.035248 0.232853 0.370123
0.368322 0.275669 0.476326
0.625208 0.291417 0.509178
0.000000 0.255863 0.355291
0.000000 0.254795 0.352758
0.032136 0.252750 0.346685
0.360235 0.331853 0.470985
0.635065 0.384436 0.534081
0.000000 0.357122 0.406775
0.000000 0.355840 0.405493
0.149081 0.352850 0.403418
0.297917 0.373083 0.431403
0.656886 0.532311 0.592462
0.375250 0.524071 0.515373
0.386023 0.526207 0.517327
0.433906 0.539391 0.530175
0.536492 0.581323 0.573541
0.719295 0.706355 0.699733
