20 Preset/Classic brown/【3】LUT video cho PR-AE-FCPX/Tone (10).cube
# Created by Adobe Lightroom plugin Export LUT (1.24.0)
# www.johnrellis.com/lightroom/exportlut.htm
# Preset: 人文电影-素材江湖11
# Color profile: E:\lut插件\exportlut.1.24\exportlut.lrplugin\color profiles\Rec709gamma2.4.icc
LUT_3D_SIZE 8
DOMAIN_MIN 0.000000 0.000000 0.000000
DOMAIN_MAX 0.903226 0.903226 0.903226
0.000000 0.000000 0.000000
0.041810 0.003052 0.002167
0.137453 0.024781 0.007080
0.272831 0.000000 0.006928
0.459419 0.000000 0.000000
0.650538 0.000000 0.000000
0.795987 0.000000 0.000000
0.884764 0.000000 0.000000
0.003388 0.055177 0.010498
0.042359 0.063050 0.012055
0.145388 0.067262 0.008453
0.278202 0.014496 0.006256
0.459846 0.000000 0.000000
0.645899 0.000000 0.000000
0.786252 0.000000 0.000000
0.878447 0.097078 0.000000
0.000000 0.173007 0.054994
0.010773 0.177218 0.059846
0.164157 0.188571 0.073610
0.325414 0.186374 0.023713
0.506584 0.139406 0.010864
0.678218 0.121309 0.000793
0.802335 0.182773 0.014252
0.882322 0.269139 0.086458
0.000000 0.366461 0.158389
0.000000 0.368719 0.161837
0.220279 0.385321 0.185519
0.373083 0.400000 0.191897
0.547814 0.405951 0.149630
0.706416 0.377111 0.128328
0.806302 0.378119 0.144503
0.874205 0.414191 0.179690
0.000000 0.570245 0.312932
0.127657 0.571069 0.317082
0.320409 0.578149 0.337743
0.495796 0.596460 0.394507
0.569299 0.580407 0.360967
0.660273 0.566674 0.305516
0.773831 0.558251 0.288853
0.853483 0.549248 0.302068
0.400000 0.686824 0.486976
0.426062 0.689143 0.495369
0.493660 0.689998 0.513176
0.576776 0.696468 0.544213
0.647425 0.703304 0.575433
0.678645 0.687617 0.535271
0.728389 0.675563 0.484260
0.812802 0.678584 0.477424
0.576349 0.761410 0.631556
0.584283 0.761898 0.634699
0.610803 0.762203 0.644251
0.649683 0.765408 0.660761
0.694545 0.771267 0.685267
0.723598 0.771115 0.689296
0.741604 0.759121 0.658350
0.772152 0.748989 0.616815
0.679866 0.815946 0.736049
0.683162 0.816037 0.737484
0.696773 0.816556 0.743832
0.716793 0.818936 0.753567
0.738582 0.820096 0.762478
0.767147 0.825620 0.780331
0.777920 0.822202 0.771359
0.789639 0.815122 0.750912
0.000000 0.005249 0.033265
0.048127 0.014710 0.034302
0.135653 0.045991 0.038209
0.272496 0.011170 0.048737
0.455177 0.000000 0.046540
0.639277 0.000000 0.040162
0.778561 0.000000 0.040711
0.872221 0.070100 0.069215
0.000000 0.073518 0.047578
0.049989 0.078553 0.050355
0.148165 0.089326 0.055940
0.283635 0.065217 0.058930
0.462867 0.000000 0.057038
0.641901 0.000000 0.051484
0.775540 0.000000 0.052094
0.868376 0.129824 0.080201
0.000000 0.176486 0.105531
0.000641 0.182101 0.106905
0.175387 0.195377 0.117159
0.330205 0.186862 0.099580
0.502922 0.163607 0.097414
0.665339 0.152010 0.098726
0.785763 0.191287 0.105196
0.870909 0.269474 0.126223
0.000000 0.360021 0.183505
0.000000 0.363104 0.185977
0.213504 0.378790 0.204562
0.366430 0.390784 0.215488
0.532921 0.391516 0.176242
0.689754 0.359106 0.157656
0.790707 0.368719 0.169558
0.864073 0.407202 0.197238
0.000000 0.565332 0.327428
0.082124 0.565484 0.330053
0.310124 0.570062 0.348058
0.482216 0.586023 0.394781
0.561181 0.572290 0.369848
0.654139 0.559960 0.316991
0.768185 0.551690 0.301396
0.849271 0.543236 0.311376
0.383093 0.682155 0.487190
0.403937 0.682429 0.491035
0.476081 0.683528 0.507805
0.566613 0.689998 0.539696
0.644678 0.699763 0.577874
0.676265 0.685206 0.540337
0.726192 0.673457 0.490333
0.810117 0.675868 0.482368
0.566735 0.758022 0.627680
0.573053 0.757687 0.629023
0.600702 0.757931 0.638087
0.642817 0.761166 0.655604
0.690639 0.768063 0.682185
0.721889 0.769070 0.689204
0.739193 0.756313 0.657099
0.769314 0.745480 0.614160
0.674525 0.814084 0.732753
0.678523 0.814450 0.734798
0.692317 0.814939 0.741024
0.713710 0.817166 0.751369
0.740017 0.821042 0.765469
0.767422 0.825803 0.781674
0.778012 0.822110 0.772702
0.789456 0.814878 0.752071
0.000000 0.034699 0.154543
0.000000 0.039765 0.156435
0.153902 0.062562 0.162539
0.311772 0.082155 0.171298
0.476417 0.114626 0.188022
0.650324 0.105440 0.200290
0.782467 0.154025 0.210269
0.868376 0.243687 0.221683
0.000000 0.100435 0.173953
0.000000 0.096254 0.175448
0.161166 0.107362 0.178653
0.317815 0.126162 0.184573
0.478523 0.154482 0.198947
0.651514 0.147036 0.207340
0.779110 0.180575 0.212863
0.865293 0.258732 0.223972
0.000000 0.208469 0.225772
0.000000 0.211398 0.226749
0.170932 0.220218 0.229007
0.349248 0.240146 0.231296
0.515404 0.249638 0.234043
0.673396 0.253910 0.235264
0.783688 0.284764 0.240574
0.863066 0.338476 0.252903
0.000000 0.375921 0.290654
0.000000 0.379889 0.293339
0.176272 0.391730 0.297398
0.405707 0.419257 0.325719
0.564172 0.404913 0.293828
0.693355 0.402258 0.290898
0.785336 0.420020 0.297459
0.855589 0.450568 0.311803
0.000000 0.561700 0.398260
0.000000 0.563622 0.400336
0.272679 0.572412 0.411139
0.470619 0.583093 0.440986
0.578454 0.587213 0.454322
0.666835 0.574365 0.405859
0.769406 0.560357 0.389837
0.842069 0.560662 0.397223
0.357855 0.680415 0.521355
0.380468 0.680934 0.524193
0.455818 0.681880 0.534844
0.555749 0.685023 0.559350
0.643000 0.697292 0.599573
0.678737 0.688380 0.578912
0.727596 0.678309 0.535119
0.807065 0.680049 0.529503
0.556420 0.757870 0.641077
0.563226 0.757595 0.642267
0.590906 0.757534 0.648829
0.637903 0.759030 0.665003
0.687129 0.765621 0.688838
0.725978 0.771542 0.707454
0.741299 0.759365 0.677882
0.770108 0.749020 0.637995
0.667384 0.813748 0.735348
0.670527 0.813657 0.736355
0.684993 0.814115 0.742061
0.711421 0.816007 0.754818
0.738216 0.819974 0.768185
0.767056 0.825406 0.784939
0.780484 0.823606 0.781094
0.790646 0.816190 0.760769
0.000000 0.077241 0.345190
0.000000 0.083589 0.348486
0.000000 0.098451 0.352728
0.317662 0.116121 0.355627
0.529503 0.142885 0.364996
0.681971 0.220920 0.372625
0.762600 0.314214 0.383246
0.839322 0.363897 0.385229
0.000000 0.126162 0.369024
0.000000 0.121584 0.370306
0.000000 0.134035 0.370886
0.329107 0.154879 0.370306
0.536492 0.185885 0.377356
0.681880 0.253666 0.382238
0.760159 0.335698 0.391272
0.838468 0.377661 0.391119
0.000000 0.252262 0.419379
0.000000 0.253605 0.418738
0.076112 0.251804 0.415015
0.353460 0.266331 0.411139
0.550591 0.307347 0.415106
0.682033 0.362524 0.422889
0.756191 0.422065 0.433814
0.839139 0.436896 0.422004
0.000000 0.432685 0.482521
0.000000 0.433875 0.481941
0.025147 0.440040 0.481941
0.382757 0.447028 0.480903
0.563256 0.460578 0.472114
0.667323 0.485939 0.471962
0.758114 0.493294 0.462623
0.831846 0.510430 0.459449
0.000000 0.588128 0.537407
0.000000 0.587854 0.536980
0.257053 0.589014 0.537560
0.436530 0.592676 0.539757
0.584558 0.599176 0.544030
0.680995 0.590173 0.528374
0.757717 0.590600 0.521813
0.821805 0.597742 0.519951
0.339055 0.678920 0.588525
0.362280 0.680476 0.591211
0.422614 0.679500 0.590997
0.526024 0.684352 0.602014
0.627192 0.692622 0.624201
0.687190 0.698390 0.639307
0.733547 0.689204 0.603693
0.804288 0.686397 0.595697
0.528527 0.755184 0.663661
0.536980 0.755612 0.665217
0.568505 0.756893 0.670832
0.620172 0.759060 0.682277
0.678798 0.762783 0.701534
0.728908 0.773617 0.729305
0.744778 0.764096 0.709071
0.772976 0.754788 0.674189
0.651759 0.814328 0.742489
0.655818 0.814328 0.743587
0.671656 0.814633 0.748348
0.699794 0.815732 0.758297
0.734310 0.818051 0.773342
0.764706 0.824094 0.789212
0.784695 0.826169 0.794858
0.792935 0.818570 0.775387
0.000000 0.121401 0.565606
0.000000 0.126558 0.567132
0.000000 0.144106 0.567041
0.264225 0.168246 0.566735
0.525841 0.203891 0.560876
0.689174 0.279606 0.561669
0.781155 0.385321 0.556664
0.826413 0.469825 0.554345
0.000000 0.169924 0.577325
0.000000 0.166262 0.578973
0.000000 0.179202 0.577691
0.282200 0.202243 0.574975
0.530785 0.238102 0.566857
0.688441 0.308080 0.566278
0.778500 0.405035 0.561486
0.823636 0.481605 0.558404
0.000000 0.313970 0.604089
0.000000 0.315007 0.603540
0.000000 0.298772 0.601617
0.319951 0.310857 0.595422
0.539635 0.343450 0.583520
0.679561 0.395544 0.577813
0.766873 0.469764 0.576806
0.812436 0.520684 0.571252
0.000000 0.476936 0.634333
0.000000 0.478767 0.634058
0.110384 0.481849 0.631312
0.391730 0.482063 0.623987
0.551781 0.487495 0.614435
0.670741 0.518578 0.605982
0.750881 0.559747 0.606806
0.797604 0.580713 0.596338
0.000000 0.605432 0.655818
0.136904 0.606134 0.655818
0.305730 0.608209 0.655207
0.453620 0.612451 0.654139
0.574823 0.615900 0.649592
0.666651 0.617090 0.636408
0.734554 0.631800 0.632929
0.793912 0.631647 0.618250
0.368444 0.687709 0.676448
0.383978 0.687800 0.676448
0.435676 0.687129 0.674922
0.512016 0.687251 0.673304
0.595758 0.689662 0.672450
0.674556 0.693965 0.673243
0.740169 0.694423 0.667689
0.796078 0.694606 0.660456
0.502739 0.753017 0.706050
0.507988 0.752560 0.705226
0.530571 0.751522 0.702907
0.576471 0.751247 0.702632
0.644587 0.755581 0.711910
0.711147 0.763424 0.730770
0.747463 0.767514 0.739376
0.776638 0.758907 0.709865
0.606897 0.810117 0.746670
0.611933 0.810147 0.747433
0.632105 0.810636 0.751003
0.669154 0.813107 0.760433
0.712947 0.815366 0.773007
0.754543 0.819577 0.789548
0.788602 0.828336 0.809049
0.794156 0.819608 0.789731
0.000000 0.195438 0.712276
0.000000 0.200778 0.712947
0.000000 0.218723 0.711299
0.233646 0.248478 0.708400
0.500664 0.291814 0.701045
0.660517 0.356268 0.689235
0.761227 0.441993 0.688655
0.820951 0.532616 0.684810
0.000000 0.233890 0.710903
0.000000 0.230808 0.710719
0.000000 0.244755 0.708949
0.246220 0.271672 0.705379
0.500328 0.312413 0.698634
0.657374 0.372717 0.687678
0.757321 0.452796 0.687282
0.818143 0.538476 0.684382
0.000000 0.378485 0.721218
0.000000 0.375219 0.720821
0.000000 0.361181 0.720027
0.316350 0.372869 0.713710
0.519493 0.405676 0.705898
0.656214 0.451148 0.694881
0.749111 0.510277 0.693416
0.810758 0.574243 0.692409
0.000000 0.522728 0.732631
0.122408 0.523339 0.731594
0.302861 0.528893 0.728878
0.427985 0.526757 0.726925
0.552270 0.536309 0.721157
0.659419 0.558831 0.710567
0.740719 0.589075 0.707454
0.801877 0.627924 0.707607
0.305791 0.626795 0.741176
0.327855 0.627771 0.741024
0.402747 0.631952 0.740444
0.500237 0.637476 0.738338
0.590997 0.638788 0.731014
0.661585 0.637507 0.723201
0.733730 0.650385 0.717556
0.793210 0.674525 0.717647
0.449500 0.698695 0.749691
0.460975 0.699702 0.750301
0.495796 0.701015 0.749874
0.550378 0.703761 0.749172
0.613001 0.707759 0.748013
0.678798 0.712642 0.746059
0.736110 0.712825 0.736507
0.781704 0.720729 0.730526
0.539025 0.760769 0.769619
0.544701 0.761257 0.769924
0.563500 0.761715 0.769436
0.597070 0.762753 0.768185
0.641444 0.764126 0.765896
0.693172 0.765255 0.762936
0.743557 0.767422 0.762356
0.786465 0.766751 0.755428
0.596551 0.811093 0.785031
0.598901 0.810819 0.784421
0.610559 0.810330 0.782834
0.633936 0.810025 0.780453
0.671595 0.809873 0.779324
0.729213 0.815274 0.791531
0.777981 0.822538 0.808896
0.797635 0.822782 0.808865
0.000000 0.291264 0.792294
0.000000 0.296849 0.792721
0.000000 0.313634 0.791135
0.284733 0.345159 0.788479
0.494789 0.388922 0.783169
0.632013 0.444617 0.775204
0.726680 0.501671 0.764584
0.793576 0.562127 0.762661
0.000000 0.318639 0.789670
0.000000 0.319219 0.790433
0.000000 0.333959 0.788937
0.293553 0.360967 0.785763
0.493874 0.400305 0.780179
0.628168 0.450172 0.771756
0.722438 0.502281 0.760678
0.790036 0.559472 0.758358
0.000000 0.437293 0.791592
0.000000 0.435492 0.791501
0.150027 0.427466 0.790555
0.363897 0.443671 0.787228
0.516808 0.472328 0.781186
0.633448 0.509667 0.773465
0.721279 0.550164 0.764706
0.787106 0.595666 0.764340
0.337926 0.566857 0.793851
0.354559 0.567407 0.793057
0.412421 0.570550 0.790768
0.465034 0.561852 0.789883
0.556786 0.571557 0.785428
0.647272 0.592096 0.779385
0.721614 0.614160 0.772061
0.782803 0.641535 0.771206
0.431189 0.648920 0.797848
0.439338 0.648585 0.796994
0.477394 0.649805 0.795071
0.538720 0.653651 0.792325
0.597375 0.653071 0.788815
0.658076 0.656031 0.784085
0.721309 0.666804 0.777218
0.780301 0.686732 0.778378
0.510857 0.711299 0.802243
0.517266 0.711940 0.802274
0.541527 0.714199 0.802213
0.582300 0.718502 0.802090
0.632959 0.723354 0.800961
0.687526 0.726040 0.796475
0.731472 0.725887 0.791470
0.782162 0.734096 0.789120
0.577295 0.761929 0.809751
0.581903 0.762570 0.809995
0.596918 0.763760 0.809934
0.624903 0.766445 0.809934
0.661616 0.770230 0.809598
0.703487 0.775326 0.809354
0.746548 0.779904 0.808042
0.786893 0.779110 0.801083
0.626246 0.811582 0.825498
0.628931 0.811826 0.825559
0.640742 0.813138 0.826017
0.660182 0.814694 0.825864
0.686397 0.816526 0.824949
0.717952 0.818601 0.822873
0.758267 0.818845 0.819425
0.801938 0.826566 0.828794
0.000000 0.420294 0.842283
0.003601 0.424689 0.842161
0.252781 0.436194 0.840482
0.402808 0.462379 0.838041
0.527489 0.498238 0.834104
0.628260 0.539147 0.828794
0.707942 0.580011 0.823087
0.770352 0.614466 0.816464
0.000000 0.436530 0.840665
0.132113 0.439094 0.840696
0.274479 0.450782 0.839292
0.410376 0.473976 0.836820
0.529656 0.507256 0.832975
0.628260 0.545342 0.827787
0.706722 0.582910 0.821927
0.768948 0.615564 0.815244
0.304662 0.512779 0.837919
0.316075 0.512657 0.837888
0.354620 0.509636 0.837308
0.455634 0.529808 0.835691
0.550805 0.552911 0.831937
0.635523 0.579339 0.827024
0.708034 0.608392 0.821897
0.767727 0.634913 0.815854
0.454841 0.607294 0.834745
0.460609 0.607294 0.834806
0.479286 0.605035 0.834440
0.514824 0.602106 0.834195
0.581689 0.614099 0.831662
0.650202 0.630732 0.827909
0.713008 0.649958 0.823758
0.767941 0.668788 0.818784
0.505058 0.666590 0.836393
0.512047 0.667567 0.836332
0.534234 0.668940 0.835264
0.583032 0.677485 0.833341
0.613794 0.672786 0.832486
0.664729 0.679652 0.829801
0.719356 0.692531 0.826596
0.770199 0.706996 0.823178
0.559960 0.725185 0.840696
0.562860 0.725002 0.840391
0.577173 0.725032 0.839414
0.605951 0.726558 0.838102
0.646418 0.729915 0.836362
0.691005 0.735042 0.835355
0.734035 0.742367 0.834348
0.776669 0.749752 0.830808
0.615534 0.772091 0.845426
0.618219 0.772396 0.845365
0.629480 0.773831 0.845274
0.651881 0.777249 0.845335
0.682155 0.782193 0.845365
0.716945 0.787564 0.845060
0.752499 0.788724 0.842008
0.784482 0.788296 0.838376
0.655543 0.811276 0.850126
0.657343 0.811429 0.850065
0.665705 0.812406 0.850095
0.682551 0.814725 0.850401
0.706020 0.818021 0.850736
0.734646 0.822293 0.851133
0.768124 0.827604 0.851743
0.802304 0.832731 0.851987
