20 Preset/Classic brown/【3】LUT video cho PR-AE-FCPX/Tone (8).cube
# Created by Adobe Lightroom plugin Export LUT (1.24.0)
# www.johnrellis.com/lightroom/exportlut.htm
# Preset: 人文电影-素材江湖09
# Color profile: E:\lut插件\exportlut.1.24\exportlut.lrplugin\color profiles\Rec709gamma2.4.icc
LUT_3D_SIZE 8
DOMAIN_MIN 0.000000 0.000000 0.000000
DOMAIN_MAX 0.903226 0.903226 0.903226
0.060731 0.078645 0.044495
0.095735 0.082399 0.047120
0.138216 0.089754 0.055634
0.197055 0.092775 0.064179
0.277195 0.086183 0.069459
0.381659 0.031342 0.072633
0.499458 0.000000 0.074495
0.626307 0.000000 0.076967
0.080568 0.099489 0.061341
0.094270 0.102358 0.062959
0.139467 0.101167 0.060090
0.196811 0.101930 0.063935
0.274540 0.097932 0.068208
0.373144 0.069215 0.070741
0.484840 0.000000 0.072084
0.613519 0.000000 0.074403
0.099123 0.136477 0.094240
0.108186 0.135988 0.096498
0.135470 0.145296 0.093172
0.212192 0.147463 0.082521
0.295689 0.134585 0.080659
0.395880 0.122591 0.080079
0.514305 0.090303 0.073060
0.641047 0.000000 0.060609
0.119753 0.196078 0.124086
0.129366 0.195041 0.125765
0.155612 0.197055 0.130648
0.209598 0.220279 0.122560
0.328191 0.233982 0.100740
0.432868 0.208347 0.096529
0.543755 0.183474 0.091951
0.661463 0.172580 0.080659
0.149630 0.278813 0.166171
0.159304 0.277714 0.167575
0.192325 0.274998 0.174716
0.228092 0.285588 0.174258
0.297368 0.307469 0.157717
0.424140 0.325200 0.123964
0.549096 0.310979 0.110048
0.677668 0.295384 0.101900
0.191531 0.375860 0.218387
0.203403 0.378729 0.221988
0.236851 0.375616 0.227939
0.283391 0.370459 0.239658
0.324224 0.388708 0.226261
0.408118 0.411810 0.206424
0.547356 0.443214 0.169924
0.688624 0.451423 0.144686
0.272679 0.494759 0.296696
0.281254 0.495247 0.298833
0.310002 0.491554 0.303227
0.355291 0.486213 0.313237
0.396857 0.486336 0.316686
0.452186 0.505669 0.301213
0.541985 0.526879 0.281468
0.673426 0.560052 0.253727
0.427070 0.620111 0.422461
0.430671 0.619684 0.422492
0.452491 0.618128 0.427619
0.490669 0.615930 0.438727
0.520439 0.602655 0.440742
0.562707 0.613581 0.441627
0.623438 0.630915 0.433112
0.701045 0.646235 0.418830
0.063478 0.082124 0.069642
0.095735 0.086793 0.072114
0.134005 0.096407 0.072694
0.191257 0.101869 0.079652
0.270085 0.097993 0.080323
0.366217 0.072602 0.080476
0.474586 0.000000 0.076753
0.600702 0.000000 0.074403
0.079225 0.102571 0.080232
0.097627 0.104952 0.081209
0.136965 0.107515 0.082155
0.194491 0.109743 0.082765
0.272435 0.106142 0.083436
0.366400 0.090639 0.082216
0.470375 0.000000 0.079103
0.594141 0.000000 0.072999
0.103639 0.139284 0.100771
0.111788 0.139528 0.101961
0.137392 0.146883 0.100771
0.210086 0.147707 0.093568
0.289342 0.138399 0.091707
0.382177 0.128359 0.090761
0.488594 0.102632 0.088411
0.615290 0.000000 0.077058
0.124971 0.195560 0.128878
0.130709 0.195041 0.128634
0.157748 0.195377 0.134981
0.204044 0.213901 0.125765
0.310704 0.223178 0.107179
0.408209 0.200046 0.103212
0.514244 0.179507 0.099550
0.634882 0.167269 0.092103
0.153933 0.278294 0.169986
0.160159 0.276860 0.169741
0.192081 0.273136 0.175723
0.226169 0.279942 0.175448
0.290013 0.299443 0.159426
0.412787 0.316320 0.128542
0.535363 0.302495 0.117372
0.663539 0.286046 0.109133
0.192966 0.371283 0.219181
0.199191 0.370977 0.219425
0.232120 0.368444 0.225406
0.278874 0.364416 0.237339
0.319921 0.382513 0.226322
0.403815 0.407294 0.208377
0.541405 0.437720 0.173129
0.680690 0.444190 0.148959
0.268803 0.488075 0.294347
0.271885 0.486366 0.293034
0.300786 0.482704 0.297307
0.346929 0.478309 0.307866
0.391852 0.479988 0.314458
0.445838 0.499458 0.299077
0.532799 0.519310 0.278080
0.663539 0.551659 0.248692
0.418250 0.614832 0.417304
0.422644 0.615564 0.418128
0.443488 0.613855 0.422248
0.482612 0.611780 0.433326
0.528191 0.607904 0.448707
0.565759 0.615137 0.446357
0.622370 0.630030 0.434058
0.699641 0.645136 0.419165
0.070649 0.090761 0.104372
0.091188 0.094331 0.105135
0.135286 0.103426 0.107790
0.193515 0.116396 0.110170
0.276219 0.113558 0.109468
0.376226 0.104494 0.111727
0.486702 0.041566 0.110719
0.613611 0.000000 0.105653
0.088350 0.108400 0.109743
0.098268 0.109102 0.110140
0.139559 0.116060 0.111788
0.193393 0.127108 0.113893
0.277104 0.122377 0.111910
0.374853 0.114595 0.113375
0.482368 0.077455 0.111269
0.608453 0.000000 0.106294
0.096437 0.148867 0.124575
0.108827 0.150332 0.124666
0.149599 0.154940 0.124910
0.214084 0.154574 0.122530
0.296635 0.154238 0.121706
0.391089 0.147189 0.120699
0.497047 0.128542 0.117983
0.621210 0.081758 0.112520
0.119936 0.209873 0.147860
0.134157 0.210849 0.149294
0.172946 0.211124 0.155032
0.218631 0.224552 0.151400
0.321782 0.227878 0.138735
0.420233 0.206332 0.132937
0.524407 0.197299 0.130037
0.643977 0.187106 0.124422
0.161837 0.290105 0.189334
0.173678 0.290013 0.190951
0.202457 0.288548 0.192844
0.243809 0.290227 0.199100
0.305028 0.310552 0.184390
0.426581 0.323186 0.157626
0.543450 0.306737 0.149111
0.670741 0.289647 0.141482
0.213474 0.381598 0.240970
0.220951 0.381842 0.241428
0.240574 0.379583 0.240146
0.289220 0.374273 0.250675
0.330388 0.386755 0.245121
0.410620 0.411048 0.228428
0.547784 0.439857 0.196933
0.685389 0.445899 0.180972
0.291905 0.498512 0.317449
0.294041 0.497047 0.315435
0.308415 0.493233 0.311925
0.355566 0.487221 0.320806
0.403540 0.483894 0.331029
0.454749 0.503990 0.316777
0.542382 0.525658 0.298283
0.674250 0.558282 0.272343
0.431434 0.619013 0.433509
0.432807 0.618189 0.432013
0.442725 0.617121 0.429480
0.485512 0.616083 0.442054
0.532158 0.611780 0.456611
0.572656 0.617700 0.459815
0.627832 0.633021 0.448219
0.704097 0.648127 0.433387
0.062623 0.099733 0.145296
0.085084 0.101900 0.146975
0.130739 0.109010 0.150454
0.203769 0.119203 0.155428
0.285374 0.132845 0.156191
0.367681 0.140749 0.156710
0.481849 0.108980 0.151339
0.606592 0.000000 0.149386
0.077790 0.113466 0.153323
0.093324 0.114900 0.154086
0.136568 0.120821 0.156161
0.209140 0.130373 0.159823
0.288945 0.143618 0.160250
0.373266 0.144137 0.157137
0.483803 0.120729 0.153750
0.608087 0.045136 0.151308
0.091615 0.153902 0.168276
0.103609 0.155154 0.168734
0.147494 0.157900 0.169955
0.221256 0.168734 0.171328
0.295201 0.183047 0.172793
0.396521 0.174960 0.168490
0.508080 0.164797 0.167239
0.629572 0.136385 0.161227
0.093935 0.225132 0.194430
0.110811 0.226139 0.194125
0.164858 0.230716 0.194003
0.239231 0.237736 0.193545
0.326757 0.232364 0.186893
0.418463 0.229007 0.183078
0.524102 0.222141 0.178714
0.645167 0.211917 0.172427
0.131991 0.313176 0.222995
0.149081 0.312779 0.223270
0.204898 0.312840 0.226261
0.272007 0.311955 0.236027
0.329168 0.327611 0.227909
0.446235 0.331579 0.209049
0.559655 0.310582 0.198581
0.675959 0.307622 0.192020
0.202884 0.404334 0.270420
0.216922 0.407477 0.273747
0.260746 0.406226 0.278141
0.312200 0.403082 0.283055
0.359869 0.404608 0.286900
0.431189 0.425208 0.269047
0.566247 0.447791 0.240146
0.695552 0.447425 0.231052
0.285924 0.513268 0.341924
0.296391 0.513481 0.343694
0.335698 0.513176 0.350195
0.372351 0.509972 0.350072
0.428870 0.501732 0.363348
0.474769 0.515770 0.352667
0.556756 0.534874 0.333043
0.687587 0.564416 0.308324
0.436774 0.630549 0.458381
0.443793 0.630213 0.459724
0.471351 0.629023 0.465187
0.491798 0.627100 0.461555
0.540978 0.621637 0.474311
0.584466 0.621454 0.483772
0.635676 0.637171 0.472084
0.712154 0.653498 0.458534
0.011902 0.110323 0.206546
0.039765 0.111818 0.208255
0.119203 0.117433 0.211368
0.198215 0.126497 0.216617
0.300603 0.136507 0.222995
0.401770 0.151278 0.220676
0.483375 0.169436 0.218997
0.602014 0.139498 0.212284
0.022095 0.121645 0.213779
0.053529 0.123140 0.215274
0.125338 0.128084 0.217472
0.203464 0.136599 0.220798
0.304601 0.147311 0.226383
0.403204 0.162722 0.223514
0.484352 0.179568 0.221744
0.605005 0.148714 0.214237
0.069215 0.163333 0.229709
0.092500 0.163912 0.230289
0.137697 0.164157 0.232212
0.218051 0.173892 0.234104
0.314763 0.186313 0.235477
0.401678 0.201114 0.230625
0.483467 0.215061 0.230259
0.613947 0.179538 0.218875
0.070527 0.227695 0.252506
0.098024 0.228824 0.252781
0.155367 0.233890 0.253880
0.236515 0.240085 0.255497
0.334722 0.255100 0.255253
0.410071 0.265904 0.250492
0.518822 0.253483 0.241184
0.638788 0.237583 0.231632
0.081697 0.321630 0.282078
0.108248 0.322972 0.282353
0.175021 0.327001 0.282322
0.260746 0.333867 0.281865
0.349920 0.339361 0.278935
0.447730 0.328283 0.266941
0.551476 0.322179 0.258122
0.668025 0.316320 0.248020
0.131746 0.417700 0.309606
0.153109 0.417823 0.309575
0.214633 0.416175 0.308812
0.297398 0.414954 0.311620
0.377386 0.411902 0.322728
0.445624 0.432746 0.315312
0.579919 0.445502 0.295293
0.703273 0.433021 0.282750
0.233738 0.527977 0.373358
0.244572 0.527001 0.372900
0.287327 0.524773 0.372961
0.364843 0.524529 0.381109
0.436713 0.520348 0.389685
0.489570 0.520989 0.392523
0.565881 0.539361 0.371862
0.697108 0.562036 0.343969
0.368505 0.635920 0.465705
0.377722 0.635462 0.466438
0.415320 0.633997 0.470436
0.485542 0.634791 0.485664
0.536675 0.631434 0.490730
0.592370 0.624140 0.507012
0.638148 0.637385 0.497505
0.712795 0.653101 0.481086
0.000000 0.123995 0.289921
0.000000 0.125368 0.291051
0.079347 0.129976 0.292485
0.186679 0.138857 0.299413
0.298253 0.148775 0.304692
0.420966 0.157961 0.308507
0.540093 0.179049 0.308354
0.633417 0.205325 0.307469
0.000000 0.133089 0.291051
0.000000 0.134432 0.291295
0.091188 0.138766 0.293553
0.188937 0.146822 0.297551
0.297368 0.156863 0.302495
0.418250 0.167361 0.306767
0.534936 0.188296 0.306676
0.628595 0.212650 0.306126
0.000000 0.175326 0.310643
0.000000 0.173526 0.310887
0.110048 0.174929 0.312291
0.204959 0.182589 0.311772
0.312535 0.194553 0.314794
0.430152 0.208347 0.317388
0.539117 0.230259 0.315862
0.631647 0.249363 0.314885
0.000000 0.242008 0.334447
0.020569 0.242527 0.333989
0.143435 0.246189 0.334966
0.228794 0.250034 0.339483
0.341497 0.264500 0.341527
0.455451 0.281468 0.341131
0.551354 0.299596 0.336278
0.641382 0.310521 0.333074
0.000000 0.327733 0.356664
0.023163 0.328618 0.356664
0.151644 0.332341 0.357061
0.245457 0.339330 0.358404
0.350774 0.344701 0.358831
0.464424 0.361334 0.357183
0.546807 0.367285 0.349096
0.665309 0.349493 0.333776
0.013184 0.433295 0.387976
0.093751 0.435462 0.389410
0.179538 0.437812 0.389136
0.271794 0.442451 0.388983
0.373571 0.448371 0.387854
0.479835 0.455879 0.386816
0.595483 0.443305 0.371496
0.706844 0.436225 0.357092
0.153841 0.552300 0.441810
0.174655 0.553582 0.442695
0.234531 0.554986 0.442603
0.324132 0.555352 0.441779
0.429999 0.552270 0.442786
0.524285 0.543938 0.452277
0.591485 0.556207 0.436561
0.722560 0.566033 0.412543
0.312871 0.653590 0.513481
0.320989 0.652766 0.512596
0.358007 0.651301 0.511864
0.425238 0.649928 0.513756
0.515404 0.646326 0.521141
0.596643 0.640711 0.533501
0.649073 0.641627 0.538842
0.720455 0.657771 0.520470
0.000000 0.140200 0.393469
0.000000 0.141329 0.395300
0.000000 0.145388 0.396582
0.153384 0.152834 0.400519
0.287205 0.161318 0.404273
0.423529 0.169741 0.408209
0.556176 0.183017 0.411048
0.670802 0.221256 0.409766
0.000000 0.147555 0.391516
0.000000 0.149020 0.393378
0.000000 0.152834 0.394812
0.156558 0.159701 0.397223
0.285924 0.168246 0.400336
0.418585 0.176791 0.402930
0.547326 0.189273 0.404364
0.660578 0.223667 0.402472
0.000000 0.181552 0.407568
0.000000 0.181338 0.407813
0.000000 0.185122 0.407782
0.173526 0.192447 0.408911
0.299657 0.201938 0.410132
0.430732 0.213718 0.412696
0.559716 0.231449 0.416205
0.674006 0.268040 0.417517
0.000000 0.252995 0.430610
0.000000 0.252811 0.429664
0.018677 0.253758 0.428840
0.191775 0.252354 0.430915
0.320836 0.263615 0.431403
0.453742 0.280003 0.433753
0.578485 0.301183 0.435950
0.682734 0.331426 0.434028
0.000000 0.338048 0.450263
0.000000 0.337438 0.449012
0.000000 0.337957 0.447761
0.201907 0.339208 0.448463
0.324834 0.339910 0.449470
0.462013 0.356054 0.449744
0.586145 0.376898 0.450172
0.686946 0.401251 0.449683
0.000000 0.444007 0.478126
0.000000 0.444709 0.478401
0.000000 0.446479 0.478859
0.214420 0.449500 0.479622
0.338659 0.452644 0.480140
0.474250 0.457099 0.482887
0.608301 0.478523 0.483589
0.691493 0.481880 0.471504
0.000000 0.558618 0.519310
0.000000 0.559686 0.520104
0.160433 0.561028 0.520226
0.277745 0.564080 0.521111
0.391333 0.567559 0.521324
0.510765 0.572442 0.521660
0.622553 0.575616 0.518883
0.732418 0.558679 0.497078
0.254154 0.665217 0.580774
0.266758 0.665553 0.580987
0.316289 0.667536 0.582910
0.388525 0.669245 0.583734
0.477363 0.670619 0.583795
0.579950 0.666346 0.584100
0.672694 0.657893 0.593225
0.736507 0.668574 0.579217
0.000000 0.162509 0.526146
0.000000 0.163516 0.527123
0.000000 0.166659 0.526329
0.004334 0.172763 0.528771
0.281743 0.179629 0.531304
0.438056 0.186221 0.533654
0.584680 0.200839 0.537591
0.708125 0.235019 0.538781
0.000000 0.168887 0.524010
0.000000 0.169833 0.525139
0.000000 0.173190 0.525444
0.019684 0.179355 0.527123
0.281712 0.186313 0.529595
0.436591 0.193271 0.531792
0.581231 0.207431 0.534752
0.703822 0.239567 0.535302
0.000000 0.196902 0.530968
0.000000 0.197848 0.531243
0.000000 0.200931 0.530907
0.084840 0.208621 0.534997
0.291173 0.216526 0.535698
0.442115 0.225742 0.536065
0.585168 0.242618 0.538750
0.705959 0.273960 0.539422
0.000000 0.263462 0.543206
0.000000 0.264134 0.543816
0.000000 0.257389 0.544305
0.081056 0.259434 0.546349
0.299199 0.269871 0.547570
0.452338 0.282872 0.548455
0.595453 0.303197 0.550774
0.713893 0.334234 0.551385
0.000000 0.344274 0.559564
0.000000 0.344213 0.560235
0.000000 0.340948 0.559289
0.016205 0.341894 0.559991
0.282261 0.337774 0.561181
0.449866 0.352392 0.561395
0.600305 0.375219 0.563745
0.721370 0.408026 0.566491
0.000000 0.454200 0.582025
0.000000 0.453101 0.581231
0.000000 0.450263 0.579339
0.000000 0.446998 0.578546
0.253361 0.441474 0.579278
0.437415 0.444404 0.584894
0.609674 0.472663 0.590967
0.735775 0.505455 0.594903
0.000000 0.572992 0.615778
0.000000 0.572839 0.615595
0.000000 0.572351 0.615045
0.123354 0.572778 0.615564
0.318090 0.573449 0.616785
0.465400 0.574884 0.619593
0.612085 0.575128 0.620294
0.743099 0.593866 0.620356
0.160464 0.673091 0.658076
0.179416 0.672938 0.657862
0.244419 0.673365 0.658106
0.336492 0.675135 0.659724
0.438514 0.677363 0.661494
0.544884 0.680049 0.663355
0.655818 0.684474 0.665827
0.763668 0.687739 0.665064
