20 Preset/Classic brown/【3】LUT video cho PR-AE-FCPX/Tone (12).cube
# Created by Adobe Lightroom plugin Export LUT (1.24.0)
# www.johnrellis.com/lightroom/exportlut.htm
# Preset: 人文电影-素材江湖13
# Color profile: E:\lut插件\exportlut.1.24\exportlut.lrplugin\color profiles\Rec709gamma2.4.icc
LUT_3D_SIZE 8
DOMAIN_MIN 0.000000 0.000000 0.000000
DOMAIN_MAX 0.903226 0.903226 0.903226
0.037385 0.067109 0.042054
0.088167 0.063996 0.042481
0.154208 0.062379 0.063478
0.265110 0.000000 0.082643
0.424384 0.000000 0.096986
0.605951 0.000000 0.117494
0.778561 0.000000 0.156283
0.884703 0.000000 0.210178
0.065278 0.096040 0.082795
0.082124 0.101015 0.075319
0.161532 0.098451 0.072419
0.269963 0.055879 0.085939
0.425391 0.000000 0.098970
0.606012 0.000000 0.119661
0.766751 0.000000 0.154879
0.876280 0.000000 0.207675
0.111635 0.155123 0.153964
0.117891 0.153323 0.158663
0.155764 0.177493 0.129488
0.323674 0.187961 0.092927
0.486030 0.147463 0.108217
0.663630 0.000000 0.135897
0.800168 0.000000 0.178836
0.891417 0.023926 0.235569
0.190585 0.261601 0.269078
0.197421 0.259739 0.272251
0.208682 0.268345 0.274418
0.303441 0.325383 0.225834
0.558770 0.381048 0.155764
0.724178 0.381903 0.158114
0.816251 0.371649 0.212314
0.889647 0.382971 0.273503
0.318822 0.404578 0.388251
0.324590 0.403113 0.390478
0.345861 0.400397 0.402319
0.358740 0.435157 0.384039
0.471778 0.487922 0.322240
0.671595 0.543236 0.260899
0.799588 0.560906 0.266423
0.875761 0.565148 0.337407
0.462318 0.548363 0.504479
0.471504 0.552880 0.511040
0.486946 0.551568 0.520104
0.503410 0.554528 0.532891
0.520073 0.592248 0.494453
0.613336 0.629236 0.438209
0.749630 0.668635 0.408209
0.851164 0.689235 0.439857
0.586175 0.668849 0.635889
0.589075 0.669581 0.638331
0.596460 0.668757 0.643488
0.608576 0.668544 0.655055
0.611994 0.679438 0.650752
0.635157 0.704921 0.621973
0.702144 0.729854 0.579675
0.798764 0.757443 0.567285
0.678035 0.767575 0.761288
0.679164 0.767544 0.762081
0.684169 0.768063 0.766171
0.693294 0.769741 0.774746
0.696498 0.764096 0.777523
0.700740 0.781430 0.769833
0.724514 0.801541 0.753414
0.776028 0.818692 0.725612
0.045563 0.072999 0.073823
0.054139 0.087037 0.065370
0.149294 0.076143 0.076783
0.258366 0.048066 0.084077
0.414618 0.000000 0.097932
0.593744 0.000000 0.117861
0.754971 0.000000 0.150301
0.867094 0.000000 0.200259
0.053864 0.100008 0.093172
0.086183 0.104646 0.095369
0.157351 0.105348 0.092866
0.269688 0.093050 0.087251
0.424628 0.000000 0.099947
0.601648 0.000000 0.120577
0.752804 0.000000 0.151827
0.862638 0.000000 0.200473
0.111879 0.161959 0.161196
0.121096 0.160616 0.165530
0.156558 0.179629 0.146181
0.314702 0.188083 0.116762
0.478248 0.159823 0.106661
0.645045 0.067506 0.132784
0.777218 0.000000 0.169223
0.875669 0.000000 0.223178
0.185397 0.260258 0.266331
0.193240 0.258793 0.269688
0.207675 0.263432 0.276402
0.288182 0.310857 0.228367
0.523400 0.354833 0.172976
0.696254 0.357885 0.145205
0.795712 0.348516 0.195377
0.876677 0.361913 0.256809
0.314549 0.403693 0.386633
0.319738 0.401404 0.388037
0.340337 0.396826 0.398108
0.350042 0.424445 0.381353
0.456458 0.473274 0.320623
0.659052 0.529686 0.264225
0.790524 0.549706 0.253483
0.869749 0.555016 0.323949
0.453986 0.542565 0.498421
0.458747 0.542443 0.500725
0.475319 0.541680 0.510002
0.495735 0.544244 0.526238
0.512322 0.584222 0.490120
0.608087 0.623957 0.437293
0.745449 0.663905 0.408331
0.848051 0.683833 0.429236
0.579248 0.663020 0.628107
0.580346 0.661952 0.628168
0.587915 0.660822 0.633173
0.601495 0.661433 0.645899
0.607507 0.673793 0.645747
0.630274 0.699672 0.616876
0.696834 0.723781 0.572473
0.794400 0.751461 0.558434
0.673182 0.763210 0.755184
0.675166 0.764004 0.757107
0.680110 0.764370 0.761044
0.689509 0.766201 0.769924
0.699794 0.768124 0.781918
0.702083 0.782559 0.772366
0.723751 0.800809 0.753414
0.775113 0.817899 0.725338
0.063355 0.092103 0.119356
0.083894 0.097627 0.115114
0.092958 0.117433 0.114076
0.219577 0.115877 0.152224
0.418585 0.000000 0.140414
0.613886 0.000000 0.139315
0.771572 0.000000 0.160220
0.876493 0.000000 0.211490
0.057618 0.107881 0.145052
0.092348 0.115297 0.140810
0.105837 0.135103 0.137636
0.243870 0.123568 0.161868
0.424262 0.000000 0.150454
0.616541 0.000000 0.148043
0.768795 0.000000 0.160891
0.872923 0.000000 0.212222
0.068177 0.173526 0.190127
0.099367 0.177768 0.192874
0.167086 0.193240 0.200595
0.301854 0.191684 0.194461
0.474250 0.177279 0.189029
0.652216 0.143618 0.179171
0.786435 0.129610 0.175998
0.878935 0.149966 0.230259
0.174502 0.282811 0.284245
0.191928 0.286687 0.290532
0.235752 0.288853 0.309148
0.305455 0.329198 0.277165
0.532494 0.364904 0.251041
0.691310 0.367864 0.235904
0.799832 0.375525 0.223331
0.880339 0.387182 0.266178
0.318151 0.424811 0.399420
0.326604 0.425391 0.402075
0.355474 0.422309 0.412604
0.373693 0.439338 0.412329
0.471351 0.488838 0.359197
0.666163 0.540154 0.321141
0.789792 0.557305 0.316381
0.871336 0.562737 0.330632
0.457160 0.555749 0.506981
0.462684 0.556085 0.509514
0.481147 0.554803 0.518212
0.505394 0.553765 0.535912
0.517998 0.587182 0.508873
0.608301 0.625849 0.460365
0.745052 0.666560 0.440620
0.846738 0.687312 0.455970
0.581933 0.671107 0.635401
0.583459 0.670253 0.635798
0.590967 0.668513 0.639796
0.604608 0.667964 0.650874
0.612879 0.675898 0.656489
0.632746 0.702266 0.630213
0.698634 0.727840 0.591455
0.796658 0.757107 0.583856
0.672480 0.766140 0.756985
0.673396 0.765774 0.757290
0.678614 0.765957 0.761105
0.689723 0.768704 0.771267
0.700710 0.770596 0.783139
0.704646 0.784054 0.778744
0.725246 0.802792 0.761074
0.776028 0.819852 0.733974
0.064668 0.106569 0.185061
0.090913 0.111910 0.183688
0.123659 0.137881 0.171664
0.132631 0.169100 0.181827
0.275944 0.188663 0.245853
0.552300 0.000000 0.256840
0.751064 0.000000 0.235050
0.870848 0.000000 0.227878
0.071443 0.125002 0.212711
0.098146 0.129824 0.209812
0.136507 0.154269 0.195224
0.145876 0.185183 0.201755
0.301244 0.196323 0.258396
0.571344 0.000000 0.262852
0.753719 0.000000 0.243992
0.871031 0.000000 0.235477
0.000000 0.168399 0.268711
0.005768 0.171298 0.271916
0.169711 0.204135 0.264195
0.194247 0.240116 0.264714
0.407019 0.226780 0.298619
0.627497 0.164858 0.287480
0.776089 0.177798 0.286778
0.879606 0.209384 0.270634
0.094148 0.297337 0.326818
0.122713 0.300999 0.328649
0.204227 0.319402 0.338811
0.328985 0.348791 0.348211
0.507134 0.353979 0.343694
0.660670 0.362524 0.338903
0.779294 0.379004 0.332036
0.873838 0.399390 0.318639
0.283024 0.445899 0.415625
0.297276 0.447425 0.417823
0.352911 0.457282 0.431434
0.416968 0.464576 0.458839
0.491920 0.510277 0.419806
0.670405 0.551843 0.410193
0.780911 0.563439 0.410101
0.862760 0.568872 0.405097
0.453681 0.576349 0.522820
0.465675 0.581231 0.529442
0.495338 0.586206 0.542779
0.526207 0.585626 0.558953
0.540368 0.603540 0.554070
0.615198 0.636683 0.508659
0.747127 0.675715 0.503746
0.842374 0.695369 0.525780
0.579065 0.680842 0.643061
0.583093 0.682063 0.645899
0.594476 0.683742 0.652735
0.612360 0.684108 0.664820
0.628717 0.684932 0.682399
0.639582 0.709590 0.657527
0.700282 0.733303 0.620691
0.799039 0.763241 0.619257
0.673091 0.774502 0.764309
0.674067 0.774502 0.764736
0.679530 0.774594 0.767819
0.690578 0.775509 0.775723
0.703273 0.776822 0.787076
0.709468 0.786007 0.789883
0.726986 0.805356 0.773281
0.777676 0.823270 0.748806
0.064302 0.128237 0.269627
0.095735 0.133272 0.268925
0.147646 0.154818 0.261295
0.175937 0.206058 0.240879
0.193332 0.239139 0.263706
0.324987 0.290562 0.336706
0.635279 0.219883 0.374304
0.831754 0.020569 0.372442
0.082246 0.144808 0.290227
0.105013 0.149569 0.289464
0.158755 0.169833 0.280308
0.189029 0.219181 0.257542
0.206027 0.252781 0.278172
0.347662 0.298192 0.347173
0.648157 0.229770 0.380255
0.836393 0.104799 0.375280
0.018677 0.186191 0.343847
0.103120 0.194797 0.343664
0.187411 0.218235 0.336309
0.240330 0.265995 0.315221
0.255161 0.303532 0.327184
0.431434 0.323156 0.380652
0.689631 0.269261 0.398413
0.847227 0.196811 0.376806
0.000000 0.279484 0.397772
0.000000 0.282597 0.399725
0.166323 0.295872 0.409247
0.324895 0.353338 0.405310
0.354223 0.400824 0.409277
0.575647 0.386328 0.435645
0.745327 0.366461 0.425635
0.850248 0.386114 0.416632
0.198825 0.443549 0.450782
0.218418 0.447211 0.452735
0.285649 0.461280 0.459876
0.385809 0.489845 0.476753
0.506004 0.520165 0.485176
0.644923 0.531090 0.485389
0.751400 0.541741 0.484352
0.843412 0.551843 0.478035
0.392554 0.575311 0.526970
0.402258 0.576898 0.528893
0.438758 0.581231 0.535332
0.501213 0.592615 0.554894
0.551476 0.599664 0.584833
0.612787 0.638575 0.554284
0.743526 0.677974 0.570520
0.833585 0.692317 0.585260
0.549401 0.681544 0.639063
0.552575 0.681514 0.639704
0.568139 0.683528 0.645594
0.600610 0.691737 0.664759
0.629725 0.695186 0.685542
0.641382 0.710048 0.682521
0.697414 0.734066 0.647791
0.799771 0.764614 0.652979
0.647761 0.769711 0.750637
0.650111 0.770077 0.751827
0.660365 0.772122 0.757748
0.682033 0.779355 0.773953
0.699519 0.780972 0.785794
0.714626 0.783810 0.801205
0.725246 0.804257 0.784634
0.775021 0.822477 0.759670
0.100496 0.157443 0.361151
0.120699 0.161837 0.360632
0.175937 0.180301 0.354772
0.237705 0.223545 0.342870
0.248966 0.297246 0.321447
0.280674 0.329015 0.349645
0.365698 0.412146 0.418372
0.694087 0.388098 0.487892
0.110933 0.169619 0.370825
0.129244 0.173465 0.369451
0.183413 0.190921 0.363317
0.245029 0.232090 0.350927
0.256077 0.304448 0.328038
0.287755 0.335851 0.355566
0.375952 0.415015 0.422492
0.697383 0.390204 0.488808
0.135073 0.217411 0.419684
0.155612 0.221103 0.418158
0.217838 0.238376 0.412055
0.287327 0.276616 0.395514
0.304265 0.352148 0.369299
0.335332 0.382452 0.394324
0.455268 0.441016 0.456519
0.725185 0.421057 0.508690
0.000000 0.262211 0.478462
0.000000 0.269230 0.478248
0.221256 0.307713 0.479225
0.353338 0.363561 0.473060
0.405188 0.436072 0.449958
0.425879 0.471046 0.466285
0.579858 0.495644 0.519127
0.769558 0.483253 0.545403
0.122621 0.420661 0.517815
0.151003 0.423194 0.519188
0.231846 0.434424 0.525536
0.340551 0.455268 0.539330
0.491310 0.518730 0.537865
0.512993 0.558679 0.543816
0.680476 0.553368 0.571618
0.813931 0.541711 0.565576
0.329015 0.577295 0.570092
0.342443 0.580652 0.572839
0.384527 0.588220 0.577966
0.454383 0.602991 0.588647
0.535546 0.626001 0.608179
0.624292 0.653956 0.625483
0.730220 0.668238 0.636469
0.816800 0.674678 0.637598
0.507866 0.689662 0.658686
0.513817 0.691066 0.660517
0.533288 0.693904 0.664607
0.568780 0.699947 0.673915
0.616846 0.710414 0.693202
0.656947 0.718044 0.722072
0.699550 0.742550 0.693507
0.805203 0.774105 0.714351
0.620020 0.772946 0.753414
0.621942 0.772854 0.753506
0.631861 0.774166 0.756466
0.652613 0.778561 0.765286
0.683986 0.785794 0.781918
0.714290 0.791440 0.802579
0.726833 0.805081 0.803983
0.774258 0.824552 0.779843
0.159945 0.191623 0.455756
0.176059 0.195651 0.455512
0.226352 0.212406 0.451514
0.295933 0.249729 0.442237
0.349218 0.317784 0.422492
0.347417 0.394171 0.403845
0.381750 0.427649 0.430915
0.465675 0.510521 0.499702
0.166842 0.201022 0.462013
0.182773 0.205112 0.461921
0.232395 0.221134 0.457588
0.300603 0.257023 0.447425
0.354620 0.323644 0.427497
0.352239 0.398901 0.407721
0.385138 0.431037 0.433631
0.466194 0.511009 0.500053
0.190433 0.239872 0.496651
0.206088 0.243412 0.495613
0.258488 0.258854 0.490394
0.331212 0.294408 0.479744
0.390143 0.358770 0.459449
0.390295 0.436072 0.437751
0.422827 0.468025 0.463813
0.496803 0.541955 0.527947
0.144900 0.287114 0.547417
0.178256 0.294041 0.546685
0.277775 0.326604 0.545983
0.371008 0.362127 0.536492
0.447883 0.422339 0.517784
0.458625 0.503471 0.493599
0.486152 0.531121 0.517967
0.557122 0.583886 0.575280
0.000000 0.376349 0.593774
0.000000 0.376593 0.593957
0.134859 0.379187 0.597406
0.333867 0.421637 0.599084
0.489937 0.497536 0.589624
0.534051 0.572564 0.565423
0.549920 0.597620 0.583154
0.653651 0.622278 0.635584
0.227451 0.552209 0.634089
0.241978 0.553521 0.635035
0.293126 0.558465 0.638361
0.372778 0.568139 0.645258
0.470527 0.583368 0.656855
0.600549 0.640192 0.660883
0.618280 0.672877 0.668116
0.746304 0.673610 0.698878
0.441230 0.679316 0.686275
0.447303 0.680507 0.687404
0.469978 0.684413 0.690578
0.511376 0.692744 0.697688
0.566979 0.706294 0.709712
0.631678 0.728206 0.731350
0.704616 0.752895 0.750668
0.795499 0.764462 0.761898
0.574914 0.776272 0.769345
0.577996 0.776761 0.769986
0.591333 0.779416 0.773281
0.615351 0.783536 0.778439
0.650080 0.789609 0.786679
0.694392 0.799283 0.802213
0.737484 0.808988 0.827970
0.775387 0.829587 0.809781
0.273411 0.245457 0.583825
0.285039 0.249516 0.583429
0.326268 0.265751 0.578576
0.391272 0.302586 0.570092
0.456001 0.366155 0.553460
0.485664 0.458686 0.524071
0.477211 0.522087 0.509850
0.504936 0.550378 0.535851
0.275334 0.252293 0.587213
0.287419 0.256199 0.586786
0.328985 0.272557 0.582452
0.393652 0.308507 0.573663
0.458900 0.370977 0.557061
0.489479 0.462165 0.527947
0.480201 0.525139 0.512566
0.506950 0.552453 0.537835
0.284123 0.282078 0.608057
0.295964 0.285710 0.607294
0.339544 0.301335 0.602716
0.409094 0.337652 0.595544
0.476631 0.397070 0.578912
0.510948 0.483345 0.550439
0.501915 0.547295 0.532952
0.525872 0.572137 0.557061
0.261051 0.325017 0.642359
0.282780 0.332921 0.642420
0.340642 0.351629 0.639033
0.420783 0.385290 0.631403
0.499550 0.441718 0.616846
0.545098 0.521599 0.592065
0.539788 0.586786 0.571862
0.559197 0.607568 0.593744
0.000000 0.338994 0.681239
0.000000 0.344945 0.681086
0.190280 0.368658 0.678462
0.382300 0.431617 0.675380
0.504723 0.493324 0.663935
0.575189 0.563714 0.643244
0.581506 0.631861 0.620447
0.597742 0.649805 0.640925
0.000000 0.505577 0.716243
0.000000 0.504570 0.716030
0.016999 0.501396 0.715969
0.233677 0.495705 0.717647
0.414282 0.520378 0.717159
0.590204 0.614038 0.708492
0.634882 0.683436 0.690333
0.646052 0.704677 0.706691
0.345403 0.668696 0.757351
0.351263 0.668849 0.757473
0.375952 0.669825 0.758206
0.421332 0.672389 0.760342
0.483558 0.676814 0.764462
0.558251 0.682643 0.771420
0.678401 0.731014 0.773861
0.697078 0.763760 0.778500
0.522271 0.771420 0.801053
0.524895 0.771725 0.801205
0.537011 0.773434 0.802304
0.561486 0.777554 0.805203
0.597864 0.784360 0.809934
0.646387 0.795193 0.817899
0.708644 0.814023 0.833310
0.782437 0.839414 0.853574
