20 Preset/Classic brown/【3】LUT video cho PR-AE-FCPX/Tone (1).cube
# Created by Adobe Lightroom plugin Export LUT (1.24.0)
# www.johnrellis.com/lightroom/exportlut.htm
# Preset: 人文电影-素材江湖02
# Color profile: E:\lut插件\exportlut.1.24\exportlut.lrplugin\color profiles\Rec709gamma2.4.icc
LUT_3D_SIZE 8
DOMAIN_MIN 0.000000 0.000000 0.000000
DOMAIN_MAX 0.903226 0.903226 0.903226
0.038178 0.065431 0.056947
0.038178 0.065431 0.056947
0.143771 0.063783 0.075654
0.282780 0.000000 0.092592
0.454047 0.000000 0.105684
0.622797 0.000000 0.126894
0.773526 0.000000 0.167025
0.865995 0.000000 0.219608
0.038178 0.065431 0.056947
0.038178 0.065431 0.056947
0.142214 0.064668 0.075685
0.269108 0.000000 0.091493
0.434150 0.000000 0.103822
0.600855 0.000000 0.123232
0.747738 0.000000 0.157259
0.849577 0.000000 0.208377
0.078553 0.106111 0.092836
0.093263 0.108858 0.090028
0.180301 0.108217 0.088808
0.309941 0.030671 0.096437
0.460670 0.000000 0.107881
0.634058 0.000000 0.130098
0.777310 0.000000 0.169253
0.870726 0.000000 0.222934
0.145937 0.190097 0.140597
0.156680 0.191409 0.134432
0.234104 0.205173 0.113252
0.409216 0.207797 0.103517
0.572503 0.172732 0.129030
0.697688 0.103700 0.156374
0.795163 0.002899 0.193912
0.874327 0.118563 0.243351
0.249546 0.323064 0.230289
0.258213 0.324590 0.225071
0.309575 0.334661 0.205783
0.454597 0.364202 0.156069
0.599573 0.353857 0.130037
0.703670 0.335485 0.168887
0.788998 0.328740 0.213077
0.866941 0.351476 0.271153
0.359472 0.466407 0.333440
0.372778 0.476997 0.336797
0.405219 0.483803 0.321630
0.486946 0.499550 0.292515
0.620233 0.520043 0.223239
0.720119 0.509514 0.206821
0.796017 0.506828 0.265995
0.865995 0.518120 0.331975
0.475380 0.608362 0.460426
0.481025 0.611139 0.459785
0.498695 0.613642 0.448066
0.543603 0.619898 0.425727
0.624842 0.630457 0.389075
0.723384 0.633875 0.334905
0.800473 0.626154 0.339452
0.859922 0.626703 0.398718
0.583642 0.721645 0.598932
0.585534 0.722072 0.597467
0.596002 0.725032 0.592676
0.621790 0.731441 0.584009
0.654749 0.723476 0.545312
0.735836 0.738735 0.523369
0.818692 0.741665 0.501305
0.875242 0.733272 0.516960
0.038178 0.065431 0.056947
0.038178 0.065431 0.056947
0.129793 0.065827 0.071015
0.251011 0.013428 0.090486
0.419165 0.000000 0.102571
0.586908 0.000000 0.120760
0.731380 0.000000 0.151888
0.835203 0.000000 0.199069
0.038178 0.065431 0.056947
0.038178 0.065431 0.056947
0.134615 0.065553 0.072877
0.254307 0.010376 0.090364
0.417548 0.000000 0.102296
0.583825 0.000000 0.120455
0.720607 0.000000 0.148623
0.825071 0.000000 0.192966
0.084962 0.110262 0.096803
0.096040 0.112642 0.093080
0.175051 0.115267 0.088624
0.297124 0.079744 0.096132
0.442725 0.000000 0.106600
0.603082 0.000000 0.125460
0.736690 0.000000 0.154940
0.840696 0.000000 0.202457
0.143191 0.186435 0.145846
0.153017 0.188449 0.141238
0.225803 0.203586 0.121462
0.374823 0.198611 0.101167
0.517967 0.158633 0.119356
0.645533 0.042542 0.142153
0.755276 0.000000 0.173617
0.845518 0.000000 0.220066
0.246830 0.319524 0.235721
0.253544 0.319554 0.229923
0.298711 0.325963 0.209476
0.432074 0.347845 0.161715
0.570733 0.332067 0.122652
0.679255 0.314153 0.158206
0.771267 0.308019 0.199893
0.852079 0.327489 0.254551
0.349035 0.453559 0.329351
0.355444 0.455818 0.326543
0.387060 0.463478 0.312688
0.468391 0.481514 0.287480
0.604913 0.505455 0.223270
0.710964 0.500664 0.197482
0.787594 0.497078 0.254948
0.857816 0.505791 0.318212
0.462196 0.594446 0.450019
0.463844 0.593133 0.445258
0.481117 0.595361 0.433051
0.527611 0.604028 0.413184
0.613947 0.619928 0.381506
0.713497 0.624048 0.327428
0.790524 0.613397 0.320745
0.850370 0.612085 0.377691
0.573236 0.712062 0.589532
0.576959 0.714290 0.590204
0.586816 0.716915 0.584924
0.612726 0.723690 0.576318
0.659785 0.731044 0.558984
0.735988 0.741512 0.531090
0.816648 0.740505 0.498939
0.873625 0.731838 0.513787
0.036988 0.085420 0.102571
0.036225 0.084230 0.100496
0.111635 0.086915 0.100221
0.257206 0.009705 0.093935
0.425483 0.000000 0.103731
0.602014 0.000000 0.124483
0.743618 0.000000 0.156466
0.845975 0.000000 0.205753
0.043214 0.097047 0.104158
0.053681 0.098177 0.104616
0.123659 0.099153 0.108309
0.261509 0.045991 0.099977
0.423926 0.000000 0.104463
0.596124 0.000000 0.124453
0.733761 0.000000 0.153872
0.837980 0.000000 0.200473
0.099062 0.131777 0.128298
0.109499 0.136599 0.133028
0.176761 0.141634 0.130312
0.304051 0.126467 0.119600
0.467445 0.010101 0.111635
0.622004 0.000000 0.133364
0.746853 0.000000 0.164340
0.843992 0.000000 0.210361
0.172030 0.221744 0.200473
0.179507 0.225162 0.200229
0.238437 0.239384 0.182925
0.387396 0.235630 0.152285
0.532860 0.213962 0.136568
0.659724 0.179599 0.148074
0.765438 0.156191 0.183810
0.851408 0.173800 0.232273
0.266911 0.344091 0.281773
0.271946 0.346105 0.277836
0.309880 0.355077 0.261662
0.436774 0.379126 0.225284
0.576379 0.368750 0.178897
0.683223 0.353948 0.161349
0.771542 0.347356 0.205447
0.852079 0.363256 0.262760
0.360967 0.469215 0.364965
0.366522 0.472145 0.363134
0.392065 0.478828 0.350195
0.462837 0.492012 0.327062
0.594812 0.515038 0.273899
0.702052 0.511162 0.233860
0.783017 0.509819 0.256443
0.856382 0.521050 0.324834
0.472389 0.607355 0.480629
0.473884 0.606561 0.476814
0.486580 0.607172 0.463752
0.526543 0.613031 0.443305
0.607080 0.626337 0.413855
0.707820 0.632837 0.367376
0.791379 0.625849 0.334264
0.853910 0.627436 0.393103
0.575402 0.715511 0.603815
0.576104 0.715114 0.601434
0.584466 0.717556 0.596185
0.610315 0.726497 0.590936
0.654658 0.733547 0.573877
0.731258 0.746304 0.551995
0.814725 0.746822 0.516167
0.874296 0.737697 0.520745
0.008484 0.123751 0.154604
0.009369 0.124269 0.154330
0.103517 0.131197 0.172152
0.221469 0.134371 0.179324
0.421149 0.000000 0.170077
0.597833 0.000000 0.155703
0.731685 0.000000 0.158633
0.833005 0.000000 0.203555
0.013733 0.137087 0.163027
0.033967 0.139467 0.166567
0.120699 0.146944 0.183932
0.235935 0.150271 0.190372
0.435981 0.037049 0.177890
0.601831 0.000000 0.162173
0.732204 0.000000 0.160464
0.832670 0.000000 0.205325
0.098421 0.177371 0.191440
0.110933 0.181399 0.195377
0.162875 0.193912 0.213199
0.287022 0.192569 0.217716
0.469825 0.165499 0.208377
0.628107 0.119692 0.190433
0.758083 0.083345 0.177890
0.847807 0.080903 0.224491
0.195926 0.260868 0.252842
0.205112 0.264866 0.256229
0.244083 0.286107 0.274296
0.371496 0.287480 0.258152
0.513603 0.276799 0.241825
0.644251 0.264988 0.223056
0.757290 0.256291 0.198978
0.846738 0.262547 0.239780
0.309331 0.392676 0.352972
0.312139 0.395392 0.352941
0.329320 0.402136 0.346563
0.433173 0.426123 0.321965
0.569146 0.420691 0.290349
0.675532 0.413733 0.272923
0.768460 0.408087 0.249454
0.851133 0.412451 0.275669
0.396796 0.511101 0.433906
0.405951 0.518853 0.439429
0.417426 0.522759 0.428077
0.471199 0.534020 0.406928
0.591608 0.553460 0.369909
0.691157 0.543450 0.334295
0.774411 0.541253 0.323308
0.855131 0.546288 0.337743
0.489021 0.623468 0.527489
0.491371 0.625147 0.526726
0.500725 0.629633 0.519707
0.531548 0.637293 0.504967
0.600427 0.647272 0.480537
0.699580 0.653803 0.440620
0.782864 0.644953 0.406165
0.854704 0.644038 0.408148
0.587243 0.727199 0.635950
0.588006 0.727657 0.634730
0.593072 0.729915 0.629786
0.610040 0.735348 0.621088
0.648005 0.741817 0.605402
0.720272 0.753475 0.585412
0.807126 0.756771 0.554528
0.874662 0.747799 0.533593
0.000000 0.176486 0.227695
0.000000 0.180301 0.232334
0.066560 0.193729 0.248814
0.228733 0.212985 0.292241
0.377295 0.224033 0.297642
0.568994 0.172885 0.287175
0.718379 0.067262 0.260685
0.825772 0.119936 0.247196
0.000000 0.193240 0.241093
0.000000 0.197910 0.246708
0.103090 0.211398 0.262974
0.243137 0.227878 0.301549
0.385351 0.238132 0.304814
0.574609 0.188815 0.292424
0.719509 0.132815 0.268406
0.825742 0.151736 0.251286
0.100465 0.242191 0.275547
0.114656 0.245609 0.279057
0.163058 0.256657 0.291051
0.279362 0.273472 0.323796
0.408667 0.279118 0.322545
0.583429 0.233707 0.301213
0.717952 0.229587 0.288243
0.821622 0.223178 0.260349
0.188510 0.309117 0.315465
0.198672 0.312688 0.318334
0.240543 0.329808 0.333074
0.338415 0.357397 0.366217
0.472786 0.351293 0.359411
0.613550 0.343297 0.343175
0.728908 0.340307 0.321447
0.828214 0.330632 0.287724
0.304906 0.405463 0.377874
0.313115 0.409888 0.381415
0.344518 0.427771 0.396033
0.393866 0.457130 0.411963
0.523278 0.452674 0.392065
0.634760 0.448188 0.374975
0.735866 0.445014 0.353796
0.831876 0.439521 0.322118
0.404211 0.511650 0.459480
0.407813 0.515160 0.462013
0.419440 0.525872 0.467628
0.440620 0.534783 0.458747
0.546044 0.555383 0.434150
0.657588 0.559136 0.419989
0.747982 0.562829 0.413397
0.838163 0.563012 0.393225
0.499672 0.634974 0.561425
0.498604 0.634150 0.559258
0.502159 0.634180 0.555810
0.519860 0.642329 0.552178
0.570642 0.653223 0.532799
0.672419 0.664027 0.502525
0.759701 0.655543 0.472602
0.837369 0.652491 0.459480
0.576226 0.722621 0.644404
0.577173 0.722835 0.644038
0.582818 0.724605 0.643732
0.600977 0.734585 0.647669
0.628443 0.743008 0.634638
0.692653 0.753475 0.616419
0.787655 0.761227 0.588617
0.860410 0.752285 0.563928
0.000000 0.258213 0.327031
0.000000 0.262608 0.331548
0.020081 0.273259 0.341985
0.209995 0.304417 0.381720
0.397162 0.330907 0.431617
0.519738 0.347082 0.423194
0.678096 0.333898 0.419867
0.800778 0.320226 0.398657
0.000000 0.260838 0.324071
0.000000 0.263401 0.326390
0.080049 0.273899 0.337133
0.211765 0.302251 0.373663
0.391608 0.328985 0.423438
0.513176 0.347143 0.417670
0.673152 0.332769 0.414801
0.796475 0.319005 0.394232
0.084169 0.309728 0.356756
0.103822 0.311589 0.358404
0.160006 0.321843 0.368322
0.252201 0.343206 0.394476
0.418097 0.373175 0.442573
0.527398 0.390356 0.436072
0.681971 0.373114 0.429541
0.799496 0.361120 0.407630
0.196658 0.376471 0.394965
0.206241 0.378302 0.396460
0.245762 0.391363 0.407538
0.317266 0.419989 0.434943
0.462806 0.460060 0.484443
0.569329 0.465095 0.477821
0.700465 0.449897 0.462623
0.800473 0.461891 0.454566
0.291173 0.448981 0.433539
0.297856 0.451759 0.435645
0.326696 0.464576 0.445991
0.380713 0.490700 0.468025
0.475288 0.521538 0.499763
0.595911 0.514092 0.492317
0.700679 0.515038 0.481483
0.801755 0.511406 0.460822
0.401678 0.536889 0.491249
0.409033 0.542199 0.495918
0.429145 0.552148 0.504479
0.466224 0.573114 0.523583
0.514183 0.598383 0.536156
0.621607 0.599390 0.526787
0.717922 0.600183 0.517693
0.815640 0.595850 0.496986
0.516014 0.641688 0.585321
0.519310 0.644770 0.588312
0.527031 0.651575 0.594415
0.543023 0.665400 0.606043
0.562371 0.677424 0.607630
0.641505 0.689601 0.585138
0.736416 0.684901 0.564569
0.822599 0.683864 0.553521
0.584985 0.725185 0.664576
0.585229 0.725216 0.664332
0.590143 0.729030 0.667140
0.603937 0.740139 0.675959
0.619104 0.747494 0.676112
0.660334 0.758267 0.658961
0.762264 0.771939 0.637354
0.843534 0.764675 0.615747
0.000000 0.326207 0.400763
0.000000 0.330053 0.404273
0.000000 0.339391 0.412634
0.171695 0.359503 0.432074
0.340154 0.409461 0.491981
0.526757 0.449805 0.544701
0.615045 0.467781 0.529992
0.727871 0.470222 0.525658
0.000000 0.329107 0.399573
0.000000 0.333165 0.403388
0.000000 0.342321 0.411688
0.178439 0.360082 0.429114
0.338170 0.407355 0.486488
0.519005 0.443702 0.535668
0.606836 0.459113 0.520226
0.721523 0.457679 0.514733
0.000000 0.365576 0.421576
0.008240 0.367590 0.423438
0.132174 0.375128 0.430060
0.219638 0.391821 0.446021
0.359625 0.436774 0.498177
0.527794 0.474098 0.545464
0.614740 0.493935 0.535729
0.729641 0.494362 0.533288
0.170321 0.423438 0.454566
0.179355 0.423926 0.454902
0.216068 0.430610 0.460578
0.280797 0.448463 0.476631
0.395697 0.491554 0.522820
0.545708 0.530877 0.568261
0.625422 0.548882 0.561364
0.739162 0.539879 0.555108
0.263554 0.484810 0.485542
0.268223 0.484840 0.485420
0.292271 0.490730 0.490333
0.338018 0.505791 0.503929
0.415930 0.534783 0.532799
0.552667 0.579492 0.583032
0.637812 0.586603 0.578149
0.751949 0.584497 0.575433
0.365667 0.561303 0.530663
0.370489 0.563195 0.532311
0.388464 0.570489 0.538750
0.423377 0.584985 0.551781
0.475746 0.607477 0.572930
0.572229 0.646326 0.616938
0.668879 0.644617 0.612512
0.769986 0.644892 0.607111
0.481147 0.642725 0.592004
0.485084 0.644800 0.594110
0.497932 0.650324 0.599420
0.523400 0.662318 0.611292
0.559655 0.681575 0.631006
0.600916 0.707118 0.653651
0.697871 0.708492 0.644038
0.794736 0.705013 0.632074
0.583276 0.722866 0.671046
0.585626 0.724056 0.672419
0.596521 0.730220 0.679591
0.611048 0.739773 0.690059
0.628779 0.754696 0.704585
0.653437 0.773678 0.718715
0.720851 0.786862 0.700435
0.820920 0.784878 0.683558
0.000000 0.421485 0.494545
0.000000 0.423896 0.496651
0.000000 0.428046 0.499855
0.161746 0.441260 0.511589
0.299687 0.473182 0.543572
0.474159 0.533898 0.604273
0.621790 0.581933 0.647852
0.686610 0.597894 0.635401
0.000000 0.422095 0.492653
0.000000 0.424720 0.494881
0.000000 0.429999 0.499336
0.168276 0.442390 0.510338
0.300114 0.473091 0.541161
0.472633 0.533715 0.602075
0.618982 0.579889 0.644587
0.683925 0.595483 0.632166
0.000000 0.442145 0.501854
0.000000 0.443732 0.503136
0.086793 0.448157 0.506950
0.202274 0.463630 0.520592
0.311833 0.487831 0.544671
0.478065 0.548272 0.605249
0.619867 0.593927 0.647852
0.685176 0.609003 0.637568
0.095674 0.477119 0.518639
0.116365 0.479103 0.520287
0.171023 0.484108 0.524498
0.245121 0.496864 0.535698
0.331792 0.515373 0.553582
0.489906 0.578210 0.614954
0.625513 0.623133 0.659052
0.691707 0.636957 0.652491
0.201633 0.525170 0.542565
0.208255 0.526543 0.543938
0.230442 0.527794 0.545678
0.285679 0.537835 0.554833
0.363256 0.555657 0.571344
0.495033 0.607935 0.622217
0.631617 0.655787 0.673274
0.702144 0.670161 0.672145
0.320287 0.593347 0.581872
0.322820 0.593011 0.581628
0.335393 0.593622 0.582574
0.363134 0.597986 0.587488
0.408362 0.607538 0.598108
0.493416 0.635981 0.625818
0.646998 0.702174 0.700984
0.720455 0.706233 0.696162
0.446693 0.666957 0.632013
0.448737 0.667262 0.632319
0.457404 0.668940 0.633906
0.476448 0.673762 0.638727
0.506340 0.682460 0.647700
0.548699 0.697261 0.664088
0.645289 0.738949 0.716030
0.746120 0.742794 0.719326
0.544732 0.728145 0.682399
0.546136 0.728450 0.682673
0.553368 0.731014 0.685420
0.569848 0.737972 0.692744
0.595972 0.749172 0.704829
0.635248 0.767453 0.724697
0.691402 0.799008 0.760159
0.778042 0.808682 0.760922
