20 Preset/Classic brown/【3】LUT video cho PR-AE-FCPX/Tone (9).cube
# Created by Adobe Lightroom plugin Export LUT (1.24.0)
# www.johnrellis.com/lightroom/exportlut.htm
# Preset: 人文电影-素材江湖10
# Color profile: E:\lut插件\exportlut.1.24\exportlut.lrplugin\color profiles\Rec709gamma2.4.icc
LUT_3D_SIZE 8
DOMAIN_MIN 0.000000 0.000000 0.000000
DOMAIN_MAX 0.903226 0.903226 0.903226
0.065095 0.078492 0.035431
0.116152 0.084779 0.039643
0.243290 0.075044 0.043244
0.423590 0.000000 0.029664
0.629114 0.000000 0.000000
0.807309 0.000000 0.000000
0.928191 0.000000 0.000000
1.000000 0.161257 0.000000
0.089601 0.120302 0.064637
0.116060 0.127749 0.063325
0.255039 0.118288 0.040711
0.425910 0.046235 0.016999
0.624506 0.000000 0.000000
0.797971 0.000000 0.000000
0.915465 0.000000 0.000000
0.997894 0.187381 0.000000
0.049226 0.248661 0.119356
0.125399 0.245426 0.121706
0.238071 0.270024 0.105348
0.477028 0.272892 0.000000
0.667048 0.215183 0.000000
0.820951 0.224002 0.000000
0.929015 0.268315 0.000000
1.000000 0.319677 0.000000
0.000000 0.439673 0.203372
0.000000 0.435706 0.196597
0.276646 0.421942 0.225772
0.437263 0.479133 0.183474
0.691402 0.513146 0.000000
0.831907 0.472206 0.000000
0.928649 0.444587 0.000000
0.995117 0.455543 0.054078
0.211643 0.614710 0.347509
0.234165 0.612543 0.342046
0.351995 0.603632 0.350530
0.480720 0.599573 0.374792
0.613581 0.626429 0.325261
0.781979 0.641352 0.229282
0.896666 0.614588 0.209689
0.973816 0.590723 0.245579
0.451179 0.712276 0.505425
0.465278 0.713985 0.508476
0.499458 0.709499 0.504936
0.579919 0.698573 0.527153
0.643061 0.701076 0.524865
0.731899 0.716640 0.491218
0.849851 0.733364 0.442481
0.944305 0.717922 0.404334
0.617365 0.780270 0.640345
0.621485 0.780240 0.640345
0.632197 0.777768 0.635676
0.670649 0.771725 0.644099
0.715450 0.762661 0.658900
0.752255 0.771542 0.647333
0.811063 0.783200 0.627497
0.891356 0.800656 0.604486
0.740627 0.836271 0.750515
0.741848 0.836027 0.750027
0.747616 0.835325 0.748928
0.764553 0.833646 0.752407
0.783474 0.825742 0.753414
0.810910 0.825132 0.764065
0.836301 0.835660 0.757992
0.873350 0.845060 0.748226
0.070985 0.086091 0.084871
0.118257 0.092531 0.087739
0.239200 0.094972 0.083925
0.414282 0.027100 0.080751
0.616449 0.000000 0.043366
0.789914 0.000000 0.000000
0.907652 0.000000 0.000000
0.992035 0.157015 0.000000
0.065858 0.130251 0.100893
0.127352 0.136019 0.100893
0.253788 0.137453 0.097719
0.426154 0.109926 0.087922
0.622553 0.000000 0.049958
0.790158 0.000000 0.000000
0.902739 0.000000 0.000000
0.986877 0.188357 0.000000
0.017243 0.259861 0.141970
0.139376 0.259617 0.146944
0.247593 0.274784 0.138521
0.472908 0.274266 0.094514
0.657527 0.230411 0.069673
0.805020 0.231846 0.000000
0.909667 0.261845 0.000000
0.989807 0.311406 0.000000
0.000000 0.438392 0.216403
0.113069 0.437049 0.221683
0.279942 0.425788 0.237095
0.426246 0.465766 0.202396
0.669215 0.492042 0.000000
0.810025 0.452033 0.076112
0.909972 0.429877 0.090028
0.982818 0.444465 0.100740
0.200351 0.614069 0.356023
0.252811 0.611597 0.358526
0.347082 0.601923 0.355169
0.476448 0.591638 0.379889
0.602472 0.617090 0.328496
0.772274 0.632593 0.236057
0.888518 0.606989 0.223484
0.967651 0.583825 0.253178
0.440284 0.709041 0.503838
0.458045 0.708248 0.506981
0.486580 0.704555 0.499214
0.572045 0.694362 0.522606
0.638270 0.696376 0.524651
0.728267 0.713558 0.493996
0.846525 0.730007 0.444770
0.941161 0.714107 0.406775
0.608698 0.777188 0.636042
0.613489 0.775998 0.635798
0.624170 0.773373 0.630396
0.662501 0.767941 0.637873
0.711025 0.759945 0.655238
0.748531 0.768215 0.644831
0.806760 0.779171 0.622766
0.887938 0.796078 0.597467
0.735348 0.834012 0.747036
0.738460 0.834195 0.748013
0.744045 0.833371 0.746548
0.760342 0.831846 0.749233
0.787686 0.828336 0.758938
0.812741 0.825956 0.767269
0.836088 0.835203 0.758877
0.872923 0.844541 0.748836
0.017273 0.095888 0.172976
0.098451 0.098390 0.177218
0.258000 0.101900 0.190036
0.434516 0.132479 0.183505
0.633356 0.023377 0.169772
0.801816 0.040467 0.163729
0.912596 0.167727 0.151888
0.993256 0.245182 0.135744
0.006409 0.139376 0.197086
0.097566 0.136324 0.199741
0.273075 0.150515 0.205600
0.433753 0.185245 0.195834
0.635645 0.140566 0.178470
0.798825 0.149905 0.169680
0.907622 0.199985 0.154116
0.988983 0.264073 0.138308
0.000000 0.289403 0.249546
0.000000 0.294530 0.248997
0.285588 0.304509 0.239780
0.482795 0.297368 0.225589
0.669703 0.290166 0.209720
0.810422 0.296178 0.193057
0.909880 0.318822 0.178988
0.986755 0.353613 0.168490
0.000000 0.481270 0.300023
0.000000 0.482460 0.301915
0.309270 0.479103 0.315068
0.464485 0.492073 0.306767
0.691096 0.505486 0.245274
0.818540 0.466285 0.246647
0.908965 0.463111 0.239109
0.980072 0.472602 0.236790
0.157656 0.632715 0.413397
0.229801 0.631342 0.415412
0.396429 0.625483 0.430518
0.516625 0.609705 0.448219
0.623865 0.630518 0.411109
0.782986 0.639704 0.329686
0.888029 0.613214 0.331914
0.965576 0.591028 0.342687
0.437140 0.717250 0.533410
0.457679 0.716579 0.536797
0.527459 0.712337 0.549493
0.586419 0.703395 0.552026
0.652613 0.698939 0.562188
0.732998 0.715999 0.534356
0.846830 0.731380 0.489784
0.937652 0.716915 0.468605
0.608759 0.782742 0.651423
0.615991 0.781643 0.652399
0.646174 0.778195 0.658473
0.670802 0.773312 0.655085
0.718379 0.764858 0.669642
0.755459 0.770352 0.665400
0.810941 0.782437 0.647089
0.889982 0.799405 0.624720
0.731350 0.836454 0.751217
0.735073 0.835904 0.752071
0.750759 0.834745 0.756924
0.763302 0.834287 0.756649
0.790372 0.830686 0.765377
0.817594 0.827237 0.776486
0.839384 0.836790 0.768856
0.874662 0.846098 0.759121
0.000000 0.105867 0.319249
0.000000 0.108217 0.326116
0.202640 0.112886 0.341100
0.470588 0.064912 0.359472
0.667933 0.162325 0.339330
0.777707 0.263127 0.330968
0.898528 0.259190 0.297490
0.978485 0.316655 0.289799
0.000000 0.144045 0.350164
0.000000 0.142763 0.353307
0.214237 0.151827 0.361944
0.485084 0.145815 0.375097
0.671351 0.221134 0.351751
0.778836 0.290898 0.337682
0.897520 0.289189 0.305791
0.976837 0.337285 0.296757
0.000000 0.283482 0.401740
0.000000 0.285740 0.403296
0.210025 0.285252 0.405707
0.505364 0.308721 0.408637
0.665003 0.372992 0.389837
0.799741 0.377905 0.364904
0.900664 0.401007 0.352911
0.975982 0.419135 0.335363
0.000000 0.512016 0.475959
0.000000 0.514122 0.475105
0.177005 0.522972 0.472511
0.510552 0.527855 0.460365
0.684047 0.516197 0.439307
0.799680 0.509331 0.418982
0.891417 0.507622 0.400763
0.965759 0.510887 0.384924
0.000000 0.667079 0.527123
0.000000 0.665187 0.525505
0.354864 0.659236 0.524773
0.560693 0.648676 0.541283
0.654719 0.648981 0.533684
0.795163 0.650477 0.478248
0.883330 0.625940 0.480110
0.954406 0.612879 0.469215
0.434577 0.736172 0.596460
0.460151 0.737148 0.601007
0.527306 0.732540 0.605066
0.627405 0.725246 0.621057
0.688991 0.712612 0.630121
0.747555 0.725368 0.606226
0.851072 0.736263 0.564477
0.931548 0.721950 0.559350
0.598688 0.791897 0.676967
0.608240 0.791501 0.678706
0.643183 0.789120 0.684871
0.699947 0.784817 0.698726
0.735164 0.777554 0.700649
0.770809 0.776181 0.703334
0.817380 0.787228 0.684962
0.892241 0.802487 0.662867
0.723995 0.842954 0.762142
0.728450 0.842588 0.763210
0.746761 0.841245 0.768185
0.777981 0.839200 0.778286
0.795926 0.836332 0.778622
0.823453 0.831998 0.788449
0.844572 0.839017 0.785122
0.877897 0.848875 0.776730
0.000000 0.125978 0.510857
0.000000 0.128450 0.515526
0.000000 0.132998 0.524865
0.410651 0.117189 0.538781
0.687098 0.095888 0.554101
0.826139 0.286473 0.521843
0.880156 0.391852 0.493874
0.939940 0.449836 0.486030
0.000000 0.156985 0.531212
0.000000 0.159731 0.534783
0.000000 0.166384 0.540917
0.420783 0.163851 0.548852
0.691768 0.175601 0.561089
0.822690 0.324712 0.527092
0.876097 0.415198 0.500481
0.940856 0.456733 0.487312
0.000000 0.295872 0.568872
0.000000 0.294560 0.570031
0.000000 0.279271 0.573632
0.438819 0.300694 0.576745
0.693904 0.340368 0.577905
0.800992 0.435554 0.540398
0.857969 0.488869 0.523827
0.939910 0.489967 0.497292
0.000000 0.492378 0.607446
0.000000 0.493751 0.607446
0.000000 0.500328 0.608637
0.444984 0.506889 0.607782
0.684443 0.533898 0.605249
0.772732 0.570459 0.580377
0.856962 0.565850 0.556634
0.937987 0.558892 0.532036
0.000000 0.663172 0.647089
0.000000 0.663905 0.647272
0.278080 0.665614 0.646479
0.508690 0.668086 0.643732
0.678218 0.665187 0.633967
0.779477 0.653590 0.616205
0.861112 0.642847 0.596521
0.932708 0.633997 0.575799
0.357580 0.747768 0.667018
0.382269 0.747494 0.666865
0.461158 0.745052 0.664515
0.580224 0.737545 0.663142
0.699062 0.728450 0.673884
0.758358 0.730587 0.672633
0.855375 0.735958 0.637781
0.923339 0.721340 0.640436
0.562707 0.802823 0.712490
0.570550 0.801846 0.711940
0.604639 0.798795 0.712062
0.670405 0.794614 0.718563
0.746639 0.788724 0.734157
0.785183 0.779355 0.739559
0.821988 0.789761 0.722683
0.893889 0.801083 0.697688
0.683040 0.848081 0.767025
0.688777 0.847562 0.767758
0.711971 0.845823 0.771542
0.755276 0.844388 0.782620
0.802274 0.841459 0.796872
0.825986 0.837339 0.799741
0.848569 0.839322 0.801755
0.878935 0.848997 0.792538
0.000000 0.155947 0.672694
0.000000 0.157992 0.674342
0.000000 0.163088 0.676539
0.355077 0.162966 0.684688
0.630854 0.176577 0.690059
0.822965 0.268315 0.692409
0.903349 0.436652 0.657130
0.938811 0.525231 0.638178
0.000000 0.181827 0.674586
0.000000 0.183627 0.675013
0.000000 0.189761 0.677668
0.355901 0.194553 0.682551
0.626307 0.215152 0.687160
0.817655 0.297612 0.689845
0.897856 0.451972 0.656123
0.934630 0.532158 0.637751
0.000000 0.312200 0.697841
0.000000 0.310094 0.698146
0.000000 0.295964 0.700130
0.377813 0.312444 0.698299
0.632532 0.349981 0.698543
0.811246 0.418738 0.698238
0.885496 0.527459 0.669398
0.923644 0.575677 0.652522
0.000000 0.494942 0.717128
0.000000 0.495033 0.716640
0.000000 0.498787 0.717098
0.408820 0.497841 0.720241
0.640894 0.530419 0.718685
0.800046 0.569360 0.715816
0.867033 0.620233 0.693660
0.908232 0.638819 0.679988
0.000000 0.641749 0.730465
0.000000 0.642298 0.730282
0.263584 0.644923 0.730007
0.476600 0.650599 0.729580
0.644526 0.656214 0.726955
0.782742 0.669276 0.724849
0.842893 0.685023 0.708675
0.902373 0.677699 0.690150
0.357092 0.744961 0.751064
0.383642 0.745876 0.752010
0.458869 0.746212 0.751431
0.564446 0.747005 0.750515
0.675776 0.748348 0.748409
0.781430 0.748806 0.745296
0.850797 0.741146 0.733669
0.911192 0.731868 0.718166
0.544488 0.814633 0.774777
0.555138 0.814817 0.775143
0.589685 0.813901 0.774350
0.648524 0.812314 0.773159
0.724392 0.807309 0.772305
0.801236 0.799863 0.779355
0.834928 0.799252 0.773983
0.902251 0.804471 0.751003
0.657923 0.858854 0.799283
0.662074 0.858274 0.798917
0.682338 0.856626 0.799039
0.721004 0.854246 0.801022
0.773739 0.850401 0.806363
0.832181 0.846586 0.820981
0.858152 0.841917 0.826139
0.882963 0.851774 0.816983
0.000000 0.193606 0.776730
0.000000 0.196109 0.778042
0.000000 0.202029 0.778836
0.311833 0.211276 0.781094
0.576593 0.237278 0.782132
0.765927 0.314000 0.781613
0.896635 0.419013 0.779385
0.941619 0.543969 0.744839
0.000000 0.214145 0.775265
0.000000 0.216983 0.776730
0.000000 0.223331 0.777462
0.310887 0.233738 0.778470
0.572412 0.260197 0.778988
0.759854 0.329870 0.777554
0.890715 0.425513 0.774594
0.937194 0.543694 0.740169
0.000000 0.317082 0.785245
0.000000 0.311467 0.785611
0.000000 0.313878 0.785306
0.337072 0.331456 0.784909
0.579095 0.364141 0.783291
0.756710 0.426307 0.780880
0.883207 0.502983 0.779232
0.930480 0.593469 0.751400
0.000000 0.489052 0.793790
0.000000 0.488594 0.793210
0.000000 0.490303 0.792325
0.374151 0.484901 0.793210
0.591699 0.514183 0.790524
0.754269 0.556054 0.788235
0.871611 0.600183 0.787167
0.919402 0.655940 0.766079
0.000000 0.624903 0.798032
0.000000 0.624353 0.797208
0.235050 0.625360 0.796201
0.440803 0.629023 0.795468
0.606928 0.634455 0.794278
0.748226 0.652827 0.792477
0.856992 0.677211 0.791592
0.906950 0.712612 0.780484
0.341192 0.726558 0.807462
0.362188 0.726925 0.807523
0.432685 0.727932 0.807462
0.534722 0.729915 0.807248
0.646998 0.733272 0.806424
0.759365 0.740719 0.805844
0.850980 0.753231 0.806180
0.893980 0.763424 0.795804
0.528588 0.804562 0.823972
0.538872 0.804990 0.824338
0.573327 0.805386 0.824277
0.633448 0.806607 0.824369
0.705684 0.808255 0.823972
0.780545 0.810941 0.823392
0.849973 0.812650 0.821836
0.899443 0.806332 0.812497
0.646967 0.864164 0.844297
0.652186 0.864103 0.844297
0.674800 0.864134 0.844694
0.711025 0.863554 0.844266
0.757687 0.862577 0.843595
0.811521 0.860044 0.843565
0.867613 0.855924 0.850889
0.890562 0.857694 0.848447
0.000000 0.249699 0.851225
0.000000 0.252171 0.851621
0.000000 0.259159 0.851011
0.322545 0.276768 0.851255
0.552544 0.312474 0.850614
0.722530 0.379309 0.848478
0.851133 0.471382 0.845457
0.942077 0.551476 0.842374
0.000000 0.266239 0.850126
0.000000 0.268986 0.850553
0.000000 0.276738 0.850340
0.323980 0.294316 0.850217
0.551415 0.329229 0.849454
0.720363 0.393164 0.847196
0.848386 0.479225 0.843839
0.939605 0.554681 0.840604
0.000000 0.338933 0.851896
0.000000 0.341283 0.851926
0.000000 0.349706 0.851225
0.347570 0.372198 0.851774
0.557702 0.406134 0.849851
0.718257 0.459785 0.846616
0.843412 0.528466 0.843442
0.933227 0.588556 0.840879
0.000000 0.488289 0.851469
0.000000 0.490700 0.851621
0.156863 0.490852 0.851530
0.376532 0.490120 0.852079
0.569024 0.519402 0.850126
0.719356 0.557153 0.847440
0.837705 0.601953 0.845090
0.924010 0.643885 0.843656
0.000000 0.603510 0.852598
0.000000 0.603967 0.852750
0.204776 0.603174 0.852140
0.435981 0.613947 0.851102
0.582635 0.620508 0.850431
0.719570 0.641993 0.848417
0.830838 0.670680 0.847227
0.913909 0.701411 0.847532
0.290623 0.706020 0.856107
0.307774 0.705592 0.855741
0.374395 0.704829 0.854826
0.478767 0.705379 0.854002
0.600580 0.708248 0.853361
0.730617 0.721767 0.854032
0.831754 0.743130 0.855253
0.906584 0.765927 0.857176
0.500938 0.788296 0.865171
0.508782 0.788327 0.865080
0.541833 0.788602 0.864714
0.601862 0.790219 0.864561
0.677577 0.793271 0.864469
0.758145 0.798672 0.864744
0.838254 0.808194 0.865049
0.899840 0.819272 0.865904
0.641047 0.853330 0.877623
0.645411 0.853330 0.877562
0.664515 0.853788 0.877623
0.700801 0.855161 0.878050
0.748287 0.857206 0.878599
0.801144 0.860105 0.879179
0.855039 0.864103 0.880125
0.901396 0.867826 0.880980
