20 Preset/Classic brown/【3】LUT video cho PR-AE-FCPX/Tone (5).cube
# Created by Adobe Lightroom plugin Export LUT (1.24.0)
# www.johnrellis.com/lightroom/exportlut.htm
# Preset: 人文电影-素材江湖06
# Color profile: E:\lut插件\exportlut.1.24\exportlut.lrplugin\color profiles\Rec709gamma2.4.icc
LUT_3D_SIZE 8
DOMAIN_MIN 0.000000 0.000000 0.000000
DOMAIN_MAX 0.903226 0.903226 0.903226
0.000000 0.000000 0.000000
0.051423 0.004089 0.005219
0.155520 0.020600 0.014832
0.307164 0.000000 0.011780
0.503471 0.000000 0.000000
0.707485 0.000000 0.000000
0.830961 0.000000 0.000000
0.902098 0.000000 0.000000
0.007874 0.052308 0.014160
0.046845 0.060182 0.015717
0.161868 0.060121 0.012116
0.308690 0.000000 0.007385
0.500206 0.000000 0.000000
0.694270 0.000000 0.000000
0.821103 0.000000 0.000000
0.897063 0.000000 0.000000
0.006714 0.160311 0.057679
0.082887 0.162875 0.064179
0.162020 0.166384 0.041444
0.341741 0.153536 0.000000
0.541100 0.000000 0.000000
0.717006 0.000000 0.000000
0.833890 0.000000 0.000000
0.900114 0.102174 0.000000
0.038087 0.332647 0.128084
0.130678 0.335851 0.132662
0.236881 0.337774 0.130373
0.348974 0.329992 0.094820
0.577661 0.335790 0.000000
0.737636 0.294347 0.000000
0.833677 0.287022 0.000000
0.892943 0.306432 0.000000
0.258915 0.535760 0.242283
0.290990 0.537377 0.247410
0.397681 0.547204 0.271977
0.467689 0.526665 0.232517
0.541436 0.493080 0.167941
0.700130 0.505364 0.000000
0.804318 0.484169 0.000000
0.873014 0.455451 0.000000
0.476844 0.669398 0.425605
0.494911 0.672267 0.435798
0.542657 0.674922 0.456794
0.588708 0.671687 0.455024
0.624933 0.652735 0.394141
0.672389 0.626368 0.308965
0.765042 0.625483 0.259922
0.831907 0.602045 0.255283
0.620325 0.727718 0.603449
0.625238 0.727871 0.606744
0.641108 0.727779 0.615747
0.667140 0.727932 0.633173
0.675532 0.724086 0.608820
0.693996 0.716579 0.564080
0.729732 0.704524 0.491646
0.780148 0.691524 0.469093
0.703151 0.737057 0.699733
0.704097 0.736965 0.700282
0.707881 0.736477 0.702724
0.713954 0.735714 0.707027
0.716762 0.735409 0.706722
0.717586 0.735561 0.698695
0.722164 0.734615 0.682918
0.737606 0.732631 0.651911
0.000000 0.007446 0.028412
0.050629 0.013519 0.027649
0.150607 0.032197 0.028473
0.294621 0.000000 0.024414
0.489509 0.000000 0.000000
0.683986 0.000000 0.000000
0.814359 0.000000 0.000000
0.893156 0.000000 0.000000
0.007538 0.060548 0.037873
0.059693 0.068025 0.039246
0.158175 0.077333 0.039551
0.302068 0.005188 0.028290
0.494118 0.000000 0.000000
0.683131 0.000000 0.000000
0.811032 0.000000 0.000000
0.889982 0.000000 0.000000
0.037690 0.161776 0.088045
0.097383 0.164248 0.091310
0.167880 0.169619 0.079133
0.336309 0.155367 0.028412
0.524010 0.057099 0.000000
0.698116 0.000000 0.000000
0.817899 0.000000 0.000000
0.892424 0.072267 0.000000
0.091890 0.322545 0.141543
0.142641 0.325566 0.145724
0.238651 0.328985 0.146517
0.336980 0.318242 0.113924
0.550988 0.318486 0.000000
0.715908 0.276005 0.000000
0.819150 0.275151 0.000000
0.885435 0.299840 0.000000
0.260502 0.528618 0.250919
0.291142 0.529534 0.255222
0.392096 0.537957 0.277195
0.459724 0.516777 0.240299
0.530663 0.482704 0.177707
0.692164 0.495705 0.037354
0.798703 0.477028 0.000000
0.870024 0.450752 0.000000
0.469856 0.664088 0.423072
0.484016 0.664881 0.428290
0.533684 0.668086 0.449470
0.584100 0.666529 0.453162
0.621027 0.648066 0.395178
0.669337 0.622980 0.313939
0.762661 0.622644 0.266178
0.830564 0.599878 0.259739
0.614954 0.726101 0.598627
0.618494 0.725917 0.599908
0.635187 0.725917 0.609033
0.662959 0.726467 0.627710
0.673915 0.722835 0.607050
0.692409 0.714931 0.561944
0.727749 0.701869 0.487648
0.779904 0.689326 0.462989
0.701228 0.736904 0.698024
0.702510 0.736873 0.698970
0.706447 0.736660 0.701442
0.712978 0.735836 0.706020
0.717708 0.735256 0.708400
0.717983 0.735470 0.700069
0.722133 0.734554 0.683558
0.737453 0.732540 0.652461
0.000000 0.032593 0.108278
0.046906 0.039124 0.106355
0.156161 0.057130 0.107454
0.294041 0.067262 0.110658
0.495491 0.000000 0.098543
0.686549 0.000000 0.084932
0.815152 0.000000 0.020996
0.893339 0.000000 0.000000
0.019745 0.092042 0.115145
0.067048 0.089662 0.114229
0.168795 0.099001 0.114595
0.306096 0.092836 0.111696
0.498085 0.000000 0.103731
0.683558 0.000000 0.089754
0.811490 0.000000 0.022400
0.890471 0.000000 0.000000
0.015930 0.172946 0.137545
0.095674 0.177249 0.138186
0.200595 0.187686 0.137331
0.348913 0.174624 0.126741
0.531762 0.148623 0.117739
0.700130 0.102174 0.098238
0.815091 0.127993 0.039094
0.888304 0.189181 0.000000
0.119265 0.332464 0.191287
0.171756 0.336309 0.197177
0.279179 0.347784 0.211490
0.363958 0.336095 0.178531
0.567132 0.330175 0.140444
0.721706 0.300023 0.110262
0.817075 0.315984 0.087953
0.881193 0.337530 0.060914
0.280034 0.526146 0.295811
0.309697 0.528252 0.300755
0.406836 0.538079 0.322942
0.483284 0.527276 0.304845
0.548272 0.496468 0.242283
0.699611 0.504875 0.182376
0.798764 0.484138 0.157687
0.865934 0.465248 0.161654
0.477119 0.660822 0.451301
0.491310 0.661891 0.456489
0.538781 0.665156 0.475654
0.593652 0.667140 0.492500
0.624231 0.648890 0.436530
0.669764 0.624842 0.357427
0.761654 0.624414 0.319066
0.826871 0.603449 0.317113
0.618891 0.725368 0.610285
0.622553 0.725277 0.611688
0.638209 0.725246 0.619501
0.664881 0.725734 0.636194
0.677729 0.722988 0.623743
0.693599 0.715541 0.583001
0.726986 0.703609 0.515740
0.776425 0.691768 0.497078
0.701564 0.736721 0.699550
0.702388 0.736690 0.699947
0.706294 0.736538 0.702327
0.713222 0.735775 0.707118
0.718898 0.735042 0.710872
0.719020 0.735256 0.703853
0.722560 0.734585 0.689418
0.736416 0.732662 0.660639
0.000000 0.066316 0.209934
0.000000 0.074159 0.209293
0.157931 0.088136 0.202304
0.325048 0.091737 0.203281
0.503136 0.105898 0.206882
0.674281 0.000000 0.192111
0.803311 0.000000 0.180667
0.880919 0.154726 0.173404
0.000000 0.108461 0.219150
0.000000 0.107912 0.217929
0.176364 0.117922 0.210391
0.337377 0.128542 0.211246
0.507286 0.146975 0.214267
0.679744 0.018219 0.196231
0.803037 0.083864 0.185061
0.879820 0.185794 0.177432
0.000000 0.204898 0.243320
0.062165 0.207401 0.242924
0.216770 0.209049 0.236790
0.368231 0.226658 0.234379
0.534936 0.223331 0.227298
0.698878 0.213291 0.216342
0.809659 0.245182 0.209079
0.878996 0.281773 0.198611
0.000000 0.344366 0.277653
0.125643 0.346593 0.277684
0.273503 0.359045 0.281315
0.419806 0.365026 0.274479
0.583215 0.343175 0.251194
0.712947 0.347539 0.240940
0.805844 0.363836 0.232303
0.870085 0.383429 0.227451
0.259892 0.529290 0.363195
0.295384 0.530388 0.365911
0.407599 0.538048 0.382757
0.518242 0.546349 0.403021
0.572961 0.517052 0.338811
0.707668 0.516228 0.304417
0.799649 0.494057 0.282628
0.855406 0.493050 0.286595
0.487251 0.659541 0.498787
0.505669 0.661646 0.506889
0.548211 0.664607 0.520470
0.610712 0.672328 0.551751
0.636011 0.657832 0.512474
0.673854 0.633509 0.433387
0.761044 0.630243 0.404486
0.819883 0.609644 0.402197
0.618463 0.723598 0.623835
0.623285 0.723781 0.626276
0.640894 0.724269 0.635187
0.668269 0.725277 0.651270
0.687037 0.724514 0.654475
0.696834 0.717586 0.618494
0.725154 0.705928 0.557092
0.770779 0.694545 0.543053
0.702174 0.736538 0.702510
0.703151 0.736507 0.703029
0.707027 0.736385 0.705165
0.713558 0.735683 0.709041
0.719936 0.734859 0.713436
0.720699 0.734890 0.709529
0.723293 0.734676 0.697871
0.734829 0.732906 0.673579
0.000000 0.104372 0.364996
0.000000 0.107881 0.363989
0.115358 0.118929 0.354040
0.335515 0.129335 0.337469
0.545006 0.136507 0.344915
0.694392 0.193851 0.342412
0.774899 0.275090 0.339666
0.862821 0.288518 0.318639
0.000000 0.136110 0.372778
0.000000 0.139437 0.371893
0.149294 0.149386 0.362371
0.350439 0.160464 0.344701
0.551476 0.173495 0.350896
0.693477 0.224002 0.347112
0.777829 0.282444 0.339117
0.862303 0.302739 0.321721
0.000000 0.251316 0.396979
0.000000 0.251133 0.394537
0.211063 0.241733 0.385901
0.390723 0.253422 0.366278
0.568078 0.276890 0.369818
0.683436 0.309972 0.359960
0.784695 0.319982 0.340703
0.857786 0.351873 0.333654
0.000000 0.390021 0.429786
0.080201 0.390997 0.428412
0.275944 0.396185 0.426337
0.449073 0.396307 0.412726
0.584314 0.412726 0.405524
0.698390 0.408545 0.384436
0.786862 0.418463 0.371740
0.850828 0.432746 0.362402
0.212772 0.528801 0.459693
0.252903 0.528649 0.458869
0.361212 0.532525 0.459052
0.512444 0.547875 0.472877
0.605707 0.539910 0.449287
0.710048 0.517815 0.418494
0.782803 0.516533 0.408026
0.838315 0.518334 0.402472
0.424750 0.649226 0.527306
0.442603 0.650111 0.529656
0.504753 0.650996 0.538048
0.587213 0.656184 0.561151
0.639857 0.659541 0.571618
0.673365 0.637812 0.509941
0.756435 0.632715 0.491859
0.811795 0.611994 0.481849
0.592645 0.721706 0.629175
0.597803 0.721462 0.630426
0.620020 0.720974 0.637629
0.656794 0.721950 0.654566
0.691890 0.724544 0.675929
0.698878 0.718685 0.650782
0.721889 0.706600 0.594903
0.765286 0.695338 0.583673
0.688777 0.737026 0.697383
0.691005 0.736843 0.698482
0.699397 0.736202 0.702724
0.710079 0.735927 0.708705
0.718654 0.734981 0.713710
0.722316 0.734554 0.714778
0.723690 0.734676 0.705531
0.733089 0.732723 0.683986
0.000000 0.156680 0.554437
0.000000 0.160128 0.553246
0.000000 0.170596 0.544182
0.357824 0.180301 0.528283
0.561028 0.194034 0.507378
0.718318 0.255558 0.509087
0.792966 0.351659 0.495125
0.827420 0.439246 0.495949
0.000000 0.184878 0.552117
0.000000 0.187442 0.550042
0.000000 0.195712 0.541344
0.364813 0.204532 0.523888
0.559472 0.219089 0.503655
0.714473 0.276280 0.507164
0.788479 0.363439 0.494118
0.824186 0.445777 0.496071
0.000000 0.307347 0.568841
0.000000 0.300023 0.567224
0.191409 0.291112 0.559747
0.411078 0.297368 0.539300
0.580255 0.314122 0.518517
0.714168 0.365240 0.520226
0.777127 0.426001 0.506371
0.812955 0.488045 0.511772
0.000000 0.458259 0.592920
0.155947 0.456428 0.590295
0.323796 0.451820 0.581994
0.468360 0.439826 0.571374
0.609430 0.453223 0.552026
0.709651 0.491981 0.548791
0.757717 0.517510 0.534844
0.809140 0.532250 0.527733
0.267765 0.572930 0.600000
0.297704 0.572900 0.599359
0.391547 0.573663 0.597040
0.512657 0.577020 0.594232
0.618738 0.573907 0.578759
0.686580 0.581750 0.568017
0.751308 0.575250 0.551232
0.804379 0.576104 0.542504
0.416541 0.659022 0.613336
0.433112 0.659236 0.613642
0.485420 0.656275 0.609766
0.556542 0.656153 0.608331
0.639460 0.664637 0.621027
0.686061 0.656794 0.601892
0.751278 0.640772 0.582818
0.790311 0.634882 0.576715
0.554406 0.719234 0.649317
0.562615 0.719539 0.650721
0.589563 0.719814 0.654841
0.633600 0.720577 0.664118
0.682216 0.721523 0.681300
0.705867 0.722744 0.688197
0.719478 0.710109 0.644160
0.756313 0.700343 0.637537
0.670161 0.738186 0.696376
0.672358 0.738003 0.696956
0.682216 0.737240 0.699977
0.698360 0.736172 0.705928
0.714351 0.735470 0.713222
0.723476 0.734310 0.718410
0.724331 0.734340 0.714015
0.731136 0.732876 0.697414
0.000000 0.228977 0.686549
0.000000 0.232975 0.686824
0.000000 0.241428 0.681910
0.384009 0.254398 0.672999
0.582147 0.274998 0.656550
0.712154 0.322545 0.642054
0.790280 0.412818 0.624384
0.815946 0.500237 0.602594
0.000000 0.248661 0.680842
0.000000 0.252964 0.681483
0.000000 0.260197 0.676875
0.385168 0.270420 0.666865
0.576837 0.287510 0.649592
0.704829 0.327581 0.633875
0.784634 0.409461 0.616419
0.814206 0.490822 0.594781
0.000000 0.359564 0.685725
0.000000 0.353796 0.685206
0.215457 0.347967 0.680385
0.426917 0.356329 0.670436
0.588037 0.369421 0.652979
0.702968 0.401709 0.638270
0.776181 0.474525 0.625147
0.802213 0.539788 0.610254
0.270451 0.505119 0.691524
0.298100 0.503838 0.689815
0.383337 0.498482 0.684321
0.480293 0.484016 0.678462
0.602747 0.492317 0.663478
0.698390 0.513756 0.650477
0.759915 0.563012 0.641077
0.784024 0.594659 0.628626
0.374182 0.603235 0.692439
0.387243 0.602319 0.691066
0.445319 0.603052 0.688411
0.532250 0.601862 0.682124
0.609125 0.593164 0.671107
0.686397 0.598627 0.656947
0.741604 0.625025 0.651942
0.765469 0.640589 0.646143
0.474983 0.672511 0.692287
0.484596 0.672877 0.692195
0.518791 0.673793 0.691341
0.571954 0.675685 0.689937
0.631250 0.678431 0.687831
0.686580 0.675624 0.679194
0.725307 0.680476 0.672267
0.753262 0.678523 0.665126
0.558373 0.722744 0.698756
0.564416 0.722866 0.698970
0.582544 0.722499 0.698360
0.615198 0.721584 0.697139
0.656214 0.719112 0.694484
0.699825 0.720638 0.699153
0.720302 0.716548 0.691279
0.744900 0.707546 0.682765
0.642939 0.738949 0.703334
0.645563 0.738766 0.703548
0.657313 0.738033 0.704799
0.679622 0.736660 0.708034
0.702815 0.735500 0.712734
0.719509 0.734768 0.717861
0.726009 0.733944 0.721218
0.729091 0.733120 0.710231
0.000000 0.326146 0.745907
0.000000 0.329870 0.745693
0.229160 0.336828 0.743404
0.423682 0.355932 0.739528
0.575677 0.383825 0.732815
0.687190 0.420874 0.722225
0.767269 0.480201 0.714412
0.798886 0.558770 0.687953
0.000000 0.341009 0.744106
0.000000 0.344488 0.743923
0.247013 0.352270 0.741878
0.427497 0.368780 0.737881
0.574914 0.394232 0.731167
0.685084 0.428504 0.720485
0.765011 0.482521 0.712367
0.797940 0.558312 0.686458
0.198947 0.421515 0.740352
0.219944 0.418677 0.740322
0.318273 0.418555 0.738582
0.461921 0.436622 0.735439
0.582788 0.455055 0.728756
0.680842 0.478309 0.718441
0.757015 0.521294 0.710842
0.788907 0.584527 0.688045
0.389776 0.538384 0.733486
0.409735 0.541253 0.732967
0.439887 0.533562 0.732448
0.505455 0.530175 0.730678
0.595727 0.543114 0.725368
0.676265 0.557092 0.717189
0.744350 0.583093 0.710811
0.773068 0.628565 0.693263
0.447883 0.612665 0.730220
0.460151 0.613855 0.729976
0.495430 0.614893 0.728573
0.564569 0.624720 0.725063
0.610559 0.619532 0.722316
0.671870 0.624659 0.716304
0.730648 0.637934 0.711025
0.755032 0.672297 0.700862
0.528649 0.673426 0.725673
0.532525 0.673426 0.725460
0.552361 0.674556 0.724636
0.591058 0.678798 0.723354
0.637934 0.683986 0.721218
0.680720 0.687129 0.718227
0.720790 0.694240 0.714870
0.738491 0.708431 0.710170
0.610681 0.716579 0.723293
0.613703 0.716762 0.723201
0.626520 0.717617 0.722835
0.650935 0.719692 0.722255
0.678309 0.722225 0.721401
0.702815 0.724666 0.720455
0.718471 0.723384 0.718013
0.730251 0.724666 0.715389
0.662470 0.736660 0.722530
0.663935 0.736599 0.722469
0.670893 0.736446 0.722316
0.683955 0.736141 0.722194
0.698726 0.735744 0.721950
0.712062 0.734951 0.721370
0.722408 0.734340 0.721126
0.727047 0.733486 0.720882
