20 Preset/Classic brown/【3】LUT video cho PR-AE-FCPX/Tone (10).cube
# Created by Adobe Lightroom plugin Export LUT (1.24.0)
# www.johnrellis.com/lightroom/exportlut.htm
# Preset: 人文电影-素材江湖11
# Color profile: E:\lut插件\exportlut.1.24\exportlut.lrplugin\color profiles\Rec709gamma2.4.icc
LUT_3D_SIZE 5
DOMAIN_MIN 0.000000 0.000000 0.000000
DOMAIN_MAX 0.903226 0.903226 0.903226
0.000000 0.000000 0.000000
0.115389 0.022004 0.005921
0.361944 0.000000 0.002502
0.695399 0.000000 0.000000
0.884764 0.000000 0.000000
0.000000 0.138735 0.036713
0.130861 0.151186 0.044312
0.404944 0.113222 0.007935
0.710780 0.000000 0.000000
0.884581 0.236210 0.049744
0.000000 0.478126 0.228977
0.196994 0.484993 0.244694
0.484230 0.503349 0.274876
0.717708 0.483467 0.203525
0.865995 0.479438 0.232517
0.463386 0.710384 0.532799
0.513848 0.711086 0.546685
0.633173 0.721248 0.596979
0.697597 0.708156 0.570886
0.800259 0.700313 0.517601
0.679866 0.815946 0.736049
0.692287 0.816342 0.741665
0.724758 0.817960 0.754696
0.772061 0.826139 0.782071
0.789639 0.815122 0.750912
0.000000 0.026093 0.119661
0.125307 0.049683 0.126253
0.373358 0.095460 0.146059
0.686122 0.000000 0.162997
0.868193 0.202762 0.180362
0.000000 0.166201 0.173892
0.135531 0.175509 0.177401
0.408698 0.197147 0.182376
0.698817 0.191745 0.186252
0.866789 0.291600 0.206516
0.000000 0.468757 0.307805
0.142977 0.480598 0.316838
0.489357 0.503166 0.354772
0.713497 0.478492 0.297063
0.854063 0.500969 0.325109
0.443732 0.707759 0.554040
0.497108 0.708736 0.564813
0.626642 0.716762 0.608637
0.698573 0.709957 0.600397
0.798520 0.702419 0.550164
0.673030 0.815305 0.737575
0.685725 0.815610 0.742641
0.726375 0.818997 0.761563
0.775174 0.827817 0.789731
0.791562 0.817227 0.760708
0.000000 0.097200 0.461433
0.000000 0.113344 0.464759
0.423621 0.151156 0.465064
0.721523 0.276280 0.472663
0.823697 0.434974 0.480323
0.000000 0.245090 0.508080
0.000000 0.232547 0.505852
0.447913 0.268070 0.496590
0.714931 0.369787 0.496864
0.814267 0.482582 0.502190
0.000000 0.532708 0.583001
0.000000 0.535607 0.582177
0.490639 0.543755 0.578759
0.689143 0.567773 0.567132
0.811429 0.578729 0.549279
0.404639 0.702998 0.645747
0.445991 0.701259 0.643732
0.571283 0.701808 0.645777
0.706203 0.719875 0.681697
0.794980 0.707118 0.640894
0.630884 0.812222 0.742641
0.648188 0.812711 0.746914
0.705013 0.814969 0.764279
0.768276 0.823545 0.793545
0.792721 0.818265 0.780911
0.000000 0.212833 0.732387
0.000000 0.230014 0.732235
0.379492 0.285710 0.726162
0.679225 0.390204 0.709285
0.815518 0.536400 0.706722
0.000000 0.345800 0.737301
0.000000 0.334813 0.736690
0.414710 0.373693 0.729244
0.674647 0.452857 0.711727
0.808011 0.565240 0.709895
0.229587 0.579858 0.749630
0.329412 0.581445 0.746822
0.515038 0.585473 0.739437
0.669551 0.598779 0.724483
0.792813 0.648920 0.726284
0.493812 0.717769 0.768368
0.517693 0.718379 0.767575
0.597345 0.723415 0.766781
0.697810 0.731258 0.763638
0.782773 0.736538 0.750301
0.603510 0.813016 0.798428
0.614282 0.812833 0.797299
0.655329 0.812314 0.792813
0.735012 0.815640 0.797604
0.798856 0.823911 0.814237
0.000000 0.420294 0.842283
0.212253 0.431983 0.841001
0.468391 0.479591 0.836332
0.650141 0.549767 0.827420
0.770352 0.614466 0.816464
0.261875 0.491188 0.838987
0.310002 0.489845 0.838651
0.494148 0.524987 0.834226
0.653712 0.577600 0.826139
0.768582 0.630549 0.816251
0.483070 0.638178 0.835233
0.513817 0.643091 0.833799
0.567193 0.638148 0.832425
0.670192 0.656367 0.826688
0.768368 0.686519 0.820340
0.577478 0.738827 0.842283
0.589746 0.739956 0.841886
0.637934 0.744076 0.840208
0.708431 0.750057 0.837003
0.778012 0.758907 0.832212
0.655543 0.811276 0.850126
0.662837 0.812070 0.850065
0.693599 0.816281 0.850553
0.742672 0.823545 0.851255
0.802304 0.832731 0.851987
