20 Preset/Classic brown/【3】LUT video cho PR-AE-FCPX/Tone (7).cube
# Created by Adobe Lightroom plugin Export LUT (1.24.0)
# www.johnrellis.com/lightroom/exportlut.htm
# Preset: 人文电影-素材江湖08
# Color profile: E:\lut插件\exportlut.1.24\exportlut.lrplugin\color profiles\Rec709gamma2.4.icc
LUT_3D_SIZE 5
DOMAIN_MIN 0.000000 0.000000 0.000000
DOMAIN_MAX 0.903226 0.903226 0.903226
0.050843 0.079469 0.071595
0.204379 0.068482 0.094301
0.619348 0.000000 0.126009
0.844938 0.000000 0.197696
0.945830 0.205478 0.309606
0.106691 0.156924 0.137667
0.245487 0.184970 0.105409
0.626154 0.000000 0.132448
0.843503 0.135103 0.216526
0.938781 0.328313 0.329076
0.350988 0.496864 0.418769
0.376318 0.510185 0.417365
0.631098 0.590112 0.361669
0.806424 0.558679 0.323980
0.900237 0.546136 0.389166
0.547662 0.717617 0.640070
0.554437 0.723323 0.642329
0.591241 0.738888 0.635676
0.735134 0.754635 0.587793
0.856657 0.723262 0.533379
0.654688 0.828763 0.766201
0.658015 0.830411 0.766873
0.666499 0.829892 0.760006
0.717098 0.844724 0.744747
0.827512 0.837034 0.690974
0.000000 0.140597 0.189425
0.120546 0.151919 0.218235
0.534630 0.096223 0.241794
0.811185 0.189578 0.259342
0.921416 0.299351 0.303716
0.023621 0.220066 0.237522
0.171298 0.255558 0.272526
0.559075 0.264134 0.304082
0.802090 0.323003 0.298985
0.914397 0.375799 0.318914
0.366552 0.489845 0.441566
0.400061 0.518486 0.464790
0.565240 0.595392 0.470619
0.758145 0.584039 0.446204
0.884276 0.574548 0.410376
0.548119 0.712581 0.645747
0.559533 0.722316 0.655085
0.593042 0.744656 0.667689
0.716426 0.761959 0.628870
0.838224 0.738582 0.588312
0.657801 0.828611 0.771633
0.661646 0.831571 0.773587
0.677089 0.838773 0.777218
0.717983 0.850523 0.764187
0.822934 0.845640 0.718929
0.000000 0.303075 0.409857
0.000000 0.311803 0.413855
0.364691 0.436500 0.543755
0.655329 0.547082 0.590173
0.818784 0.570489 0.580072
0.000000 0.373816 0.444862
0.000000 0.389075 0.457404
0.376745 0.490486 0.553948
0.643671 0.591150 0.608087
0.811185 0.604761 0.599634
0.229557 0.545647 0.534264
0.288792 0.559258 0.544884
0.452094 0.615808 0.592096
0.634516 0.690364 0.662898
0.792477 0.692103 0.652338
0.511803 0.700374 0.646967
0.523827 0.704616 0.651423
0.581750 0.737881 0.687800
0.662348 0.783841 0.725917
0.786496 0.777707 0.706752
0.642664 0.813169 0.764126
0.649836 0.818235 0.769741
0.677180 0.836606 0.789578
0.709102 0.853635 0.798093
0.798459 0.858244 0.772457
0.000000 0.485908 0.582788
0.000000 0.490669 0.584344
0.137728 0.524926 0.603265
0.528008 0.647150 0.690455
0.701686 0.719020 0.747585
0.000000 0.514488 0.589593
0.000000 0.518730 0.591211
0.212528 0.548791 0.609308
0.528222 0.656794 0.689326
0.698939 0.727443 0.749203
0.145998 0.595636 0.618067
0.213718 0.600488 0.620905
0.364965 0.625269 0.637232
0.536645 0.690486 0.692775
0.703548 0.765682 0.765805
0.437263 0.701381 0.677150
0.449561 0.703822 0.679072
0.500603 0.720485 0.694514
0.591150 0.760403 0.733639
0.728298 0.817411 0.793332
0.584924 0.800748 0.758602
0.593774 0.803799 0.761685
0.633082 0.819699 0.778439
0.707149 0.851438 0.815610
0.772671 0.876341 0.831571
0.005768 0.633234 0.700221
0.002319 0.633112 0.699702
0.251621 0.648371 0.705684
0.458930 0.693263 0.730709
0.643275 0.779355 0.800961
0.119936 0.640955 0.701320
0.120577 0.641016 0.700984
0.280430 0.656977 0.707851
0.466072 0.699214 0.732753
0.645655 0.783749 0.802426
0.242679 0.672389 0.712245
0.241032 0.671656 0.711391
0.351568 0.688197 0.720089
0.495033 0.725612 0.745937
0.657801 0.801511 0.810239
0.371008 0.728786 0.738521
0.382086 0.730251 0.739620
0.431708 0.738705 0.746761
0.535668 0.766873 0.769650
0.685145 0.832792 0.826902
0.502983 0.794369 0.777340
0.511589 0.796536 0.779171
0.550256 0.808255 0.789517
0.625422 0.834287 0.812863
0.737636 0.876982 0.854307
