20 Preset/Classic brown/【3】LUT video cho PR-AE-FCPX/Tone (1).cube
# Created by Adobe Lightroom plugin Export LUT (1.24.0)
# www.johnrellis.com/lightroom/exportlut.htm
# Preset: 人文电影-素材江湖02
# Color profile: E:\lut插件\exportlut.1.24\exportlut.lrplugin\color profiles\Rec709gamma2.4.icc
LUT_3D_SIZE 5
DOMAIN_MIN 0.000000 0.000000 0.000000
DOMAIN_MAX 0.903226 0.903226 0.903226
0.038178 0.065431 0.056947
0.119417 0.065187 0.068574
0.367864 0.000000 0.098451
0.671168 0.000000 0.136294
0.865995 0.000000 0.219608
0.061311 0.093874 0.084077
0.144930 0.094575 0.082979
0.373785 0.000000 0.099336
0.673701 0.000000 0.136965
0.873533 0.000000 0.225193
0.197543 0.255833 0.184634
0.242557 0.260410 0.162020
0.521538 0.282414 0.114900
0.724697 0.234226 0.170779
0.869139 0.252445 0.253330
0.397009 0.514305 0.372290
0.421576 0.520409 0.360204
0.561151 0.548455 0.304082
0.742061 0.541802 0.236851
0.863890 0.547936 0.346899
0.583642 0.721645 0.598932
0.592157 0.723964 0.594263
0.626947 0.719142 0.554345
0.758480 0.741299 0.515282
0.875242 0.733272 0.516960
0.034760 0.076509 0.092531
0.096284 0.076539 0.088563
0.331975 0.000000 0.095979
0.628351 0.000000 0.127962
0.836362 0.000000 0.199832
0.083589 0.111269 0.107759
0.139223 0.118532 0.109194
0.362768 0.030152 0.101228
0.641474 0.000000 0.133974
0.841184 0.000000 0.203708
0.207523 0.267765 0.222293
0.242130 0.274998 0.205051
0.481270 0.281010 0.138796
0.693233 0.245731 0.160281
0.857908 0.275608 0.249363
0.402258 0.521904 0.399664
0.423896 0.529046 0.390051
0.553185 0.555077 0.341253
0.734493 0.548028 0.248966
0.859251 0.553002 0.345647
0.583307 0.722683 0.609186
0.590265 0.724483 0.604120
0.635309 0.733913 0.585168
0.758907 0.751492 0.544457
0.878904 0.743038 0.531029
0.000000 0.147921 0.189395
0.041871 0.157656 0.202060
0.298772 0.174868 0.237339
0.626795 0.000000 0.207950
0.831113 0.000000 0.208194
0.075532 0.194949 0.223575
0.129244 0.205997 0.236576
0.335912 0.221683 0.263706
0.635767 0.143954 0.233768
0.835874 0.113802 0.218479
0.248478 0.330327 0.313878
0.281559 0.346990 0.327611
0.453376 0.369299 0.324102
0.668086 0.361212 0.293553
0.843015 0.358373 0.254826
0.430426 0.554131 0.480903
0.436103 0.552239 0.475135
0.515892 0.573632 0.447944
0.701625 0.578668 0.392645
0.844877 0.572229 0.361364
0.577630 0.721279 0.635462
0.585351 0.724453 0.637079
0.615167 0.735714 0.623468
0.728481 0.753841 0.588952
0.865904 0.745998 0.539513
0.000000 0.264714 0.334539
0.000000 0.277073 0.346929
0.276860 0.328557 0.413397
0.539849 0.368719 0.443610
0.780514 0.353155 0.428656
0.000000 0.301396 0.356237
0.108827 0.310246 0.364691
0.301976 0.358160 0.423804
0.542107 0.395209 0.449561
0.778378 0.375586 0.432074
0.226535 0.404913 0.412696
0.255253 0.413550 0.419593
0.373083 0.459998 0.464820
0.578210 0.480812 0.484596
0.781827 0.489174 0.475532
0.427558 0.571374 0.522759
0.441505 0.576837 0.527581
0.504417 0.611231 0.559960
0.638514 0.628534 0.557275
0.806699 0.620966 0.528496
0.586938 0.725185 0.667842
0.592004 0.729397 0.671565
0.617212 0.749996 0.688991
0.674617 0.766781 0.671168
0.838560 0.768795 0.631006
0.000000 0.421485 0.494545
0.000000 0.426246 0.498390
0.222293 0.450202 0.520195
0.515496 0.547967 0.617487
0.686610 0.597894 0.635401
0.000000 0.436957 0.499916
0.000000 0.441932 0.504051
0.242832 0.464698 0.524895
0.517144 0.558099 0.617823
0.686122 0.607202 0.637842
0.147189 0.498482 0.529168
0.186496 0.501701 0.531823
0.302861 0.522362 0.550134
0.526207 0.602289 0.628443
0.695552 0.651667 0.660548
0.357092 0.615930 0.597436
0.367437 0.616876 0.598474
0.415503 0.625910 0.608087
0.531701 0.662379 0.646937
0.725460 0.713832 0.700893
0.544732 0.728145 0.682399
0.550805 0.730068 0.684382
0.581659 0.743038 0.698207
0.647791 0.774105 0.732052
0.778042 0.808682 0.760922
