20 Preset/Classic brown/【3】LUT video cho PR-AE-FCPX/Tone (1).cube
# Created by Adobe Lightroom plugin Export LUT (1.24.0)
# www.johnrellis.com/lightroom/exportlut.htm
# Preset: 人文电影-素材江湖02
# Color profile: E:\lut插件\exportlut.1.24\exportlut.lrplugin\color profiles\Rec709gamma2.4.icc
LUT_3D_SIZE 32
DOMAIN_MIN 0.0 0.0 0.0
DOMAIN_MAX 1.0 1.0 1.0
0.038178 0.065431 0.056947
0.038178 0.065431 0.056947
0.038178 0.065431 0.056947
0.038178 0.065431 0.056947
0.038178 0.065431 0.056947
0.060029 0.062959 0.056855
0.098299 0.063539 0.062318
0.119417 0.065187 0.068574
0.143771 0.063783 0.075654
0.172488 0.058076 0.082063
0.205539 0.043427 0.086641
0.242710 0.019135 0.089998
0.282780 0.000000 0.092592
0.324804 0.000000 0.095125
0.367864 0.000000 0.098451
0.411322 0.000000 0.101961
0.454047 0.000000 0.105684
0.496437 0.000000 0.109865
0.537713 0.000000 0.114382
0.578088 0.000000 0.119814
0.622797 0.000000 0.126894
0.671168 0.000000 0.136294
0.711116 0.000000 0.146059
0.744869 0.000000 0.156435
0.773526 0.000000 0.167025
0.798428 0.000000 0.178500
0.821500 0.000000 0.190829
0.843900 0.000000 0.204318
0.865995 0.000000 0.219608
0.888029 0.000000 0.236728
0.909880 0.000000 0.256657
0.931395 0.000000 0.279026
0.038178 0.065431 0.056947
0.038178 0.065431 0.056947
0.038178 0.065431 0.056947
0.038178 0.065431 0.056947
0.038178 0.065431 0.056947
0.057313 0.064393 0.056703
0.097047 0.063996 0.061189
0.117464 0.066072 0.067475
0.140810 0.064363 0.074739
0.169131 0.058350 0.080903
0.201358 0.046265 0.086122
0.237583 0.022980 0.089357
0.276921 0.000000 0.091981
0.318242 0.000000 0.095033
0.360876 0.000000 0.098024
0.404120 0.000000 0.101289
0.447425 0.000000 0.105104
0.489601 0.000000 0.109407
0.531121 0.000000 0.113710
0.571435 0.000000 0.118929
0.615412 0.000000 0.125704
0.662013 0.000000 0.134585
0.701045 0.000000 0.143465
0.734676 0.000000 0.152956
0.763485 0.000000 0.163149
0.788998 0.000000 0.173800
0.812436 0.000000 0.185855
0.835264 0.000000 0.199191
0.857939 0.000000 0.213687
0.880644 0.000000 0.230716
0.903227 0.000000 0.250034
0.925383 0.000000 0.272313
0.038178 0.065431 0.056947
0.038178 0.065431 0.056947
0.038178 0.065431 0.056947
0.038178 0.065431 0.056947
0.038178 0.065431 0.056947
0.061311 0.063935 0.056672
0.097719 0.063783 0.061189
0.117647 0.064881 0.067628
0.140414 0.064607 0.074739
0.168185 0.059022 0.080903
0.199771 0.046632 0.085542
0.235264 0.025666 0.089387
0.273777 0.000000 0.091737
0.314488 0.000000 0.094453
0.356847 0.000000 0.097841
0.399786 0.000000 0.100771
0.442725 0.000000 0.104707
0.485298 0.000000 0.108675
0.526787 0.000000 0.113375
0.567346 0.000000 0.118074
0.611170 0.000000 0.125032
0.657099 0.000000 0.133333
0.695827 0.000000 0.142031
0.729458 0.000000 0.151553
0.758419 0.000000 0.161044
0.783963 0.000000 0.171481
0.807706 0.000000 0.183261
0.830686 0.000000 0.196323
0.853727 0.000000 0.210849
0.876677 0.000000 0.227573
0.899504 0.000000 0.246860
0.921965 0.000000 0.268528
0.038178 0.065431 0.056947
0.038178 0.065431 0.056947
0.038178 0.065431 0.056947
0.038178 0.065431 0.056947
0.038178 0.065431 0.056947
0.070222 0.064027 0.057618
0.100038 0.064088 0.062135
0.119417 0.065187 0.068574
0.141604 0.063935 0.074708
0.168826 0.058595 0.080903
0.199771 0.046632 0.085542
0.234379 0.025574 0.089052
0.272374 0.000000 0.091341
0.312322 0.000000 0.094545
0.353429 0.000000 0.097627
0.395392 0.000000 0.100679
0.437629 0.000000 0.104341
0.479133 0.000000 0.108095
0.520165 0.000000 0.112337
0.560204 0.000000 0.117189
0.603113 0.000000 0.123537
0.647211 0.000000 0.131380
0.685512 0.000000 0.139742
0.720119 0.000000 0.148684
0.750759 0.000000 0.158572
0.778256 0.000000 0.169009
0.803708 0.000000 0.181033
0.827848 0.000000 0.194553
0.851652 0.000000 0.209415
0.874968 0.000000 0.226291
0.897642 0.000000 0.245121
0.919585 0.000000 0.266209
0.038178 0.065431 0.056947
0.038178 0.065431 0.056947
0.038178 0.065431 0.056947
0.038178 0.065431 0.056947
0.038178 0.065431 0.056947
0.082490 0.063447 0.058534
0.102663 0.065370 0.062928
0.120760 0.065705 0.068391
0.142214 0.064668 0.075685
0.168521 0.058808 0.080903
0.198032 0.048188 0.085573
0.232273 0.026825 0.089143
0.269108 0.000000 0.091493
0.308507 0.000000 0.094301
0.349310 0.000000 0.097078
0.391608 0.000000 0.100496
0.434150 0.000000 0.103822
0.476295 0.000000 0.107607
0.517571 0.000000 0.112245
0.557702 0.000000 0.117067
0.600855 0.000000 0.123232
0.643671 0.000000 0.130617
0.681575 0.000000 0.138552
0.716457 0.000000 0.147402
0.747738 0.000000 0.157259
0.775845 0.000000 0.167971
0.801572 0.000000 0.180087
0.825864 0.000000 0.193423
0.849577 0.000000 0.208377
0.872801 0.000000 0.224704
0.895445 0.000000 0.243168
0.917327 0.000000 0.263828
0.038178 0.065431 0.056947
0.038178 0.065431 0.056947
0.038178 0.065431 0.056947
0.038178 0.065431 0.056947
0.052064 0.063844 0.056886
0.090669 0.063813 0.059297
0.107790 0.064546 0.063844
0.125124 0.065888 0.070283
0.146700 0.063203 0.075441
0.172244 0.058289 0.081361
0.201602 0.046021 0.086122
0.235050 0.025879 0.089387
0.271733 0.000000 0.091341
0.310613 0.000000 0.094209
0.351476 0.000000 0.097353
0.393347 0.000000 0.100435
0.435920 0.000000 0.104097
0.478187 0.000000 0.107790
0.519402 0.000000 0.112398
0.559411 0.000000 0.117281
0.605432 0.000000 0.123934
0.647059 0.000000 0.131350
0.737423 0.000000 0.153811
0.769192 0.000000 0.165469
0.796323 0.000000 0.177340
0.820432 0.000000 0.190433
0.842924 0.000000 0.203952
0.864439 0.000000 0.218479
0.885161 0.000000 0.234501
0.905180 0.000000 0.251957
0.924437 0.000000 0.271397
0.942687 0.032959 0.292638
0.042817 0.079438 0.067231
0.043122 0.079438 0.066102
0.042084 0.080171 0.067109
0.049226 0.081117 0.064485
0.081178 0.082979 0.062318
0.098848 0.081422 0.065217
0.117769 0.079530 0.071138
0.139467 0.073976 0.076936
0.162356 0.064271 0.080201
0.189151 0.052613 0.083925
0.220462 0.035218 0.088289
0.255619 0.009796 0.090700
0.293004 0.000000 0.092988
0.332341 0.000000 0.095949
0.372930 0.000000 0.098970
0.413825 0.000000 0.102144
0.455268 0.000000 0.105928
0.496162 0.000000 0.109560
0.536706 0.000000 0.114504
0.583398 0.000000 0.120485
0.632624 0.000000 0.128603
0.677607 0.000000 0.137972
0.718868 0.000000 0.148196
0.755032 0.000000 0.159792
0.786038 0.000000 0.172549
0.812192 0.000000 0.185733
0.835630 0.000000 0.199405
0.857389 0.000000 0.213535
0.878447 0.000000 0.229007
0.898589 0.000000 0.245823
0.918090 0.000000 0.264561
0.936767 0.000000 0.285222
0.061311 0.093874 0.084077
0.061616 0.093874 0.083375
0.062593 0.094209 0.083986
0.068299 0.095552 0.082185
0.085206 0.096712 0.079530
0.103548 0.097536 0.075685
0.121798 0.096071 0.078981
0.144930 0.094575 0.082979
0.172000 0.090883 0.086122
0.198581 0.081361 0.088472
0.228885 0.058442 0.089876
0.262181 0.025727 0.091890
0.297581 0.000000 0.093996
0.335027 0.000000 0.096437
0.373785 0.000000 0.099336
0.413275 0.000000 0.102113
0.453803 0.000000 0.105684
0.494148 0.000000 0.109712
0.537407 0.000000 0.114412
0.585534 0.000000 0.120912
0.630915 0.000000 0.128511
0.673701 0.000000 0.136965
0.713588 0.000000 0.146883
0.749325 0.000000 0.157809
0.780209 0.000000 0.169986
0.806607 0.000000 0.182773
0.830167 0.000000 0.195987
0.852232 0.000000 0.210086
0.873533 0.000000 0.225193
0.894011 0.000000 0.241794
0.913909 0.000000 0.260380
0.932952 0.000000 0.280919
0.078553 0.106111 0.092836
0.078553 0.106111 0.092836
0.080781 0.106355 0.092348
0.085389 0.107454 0.091676
0.093263 0.108858 0.090028
0.107820 0.111574 0.088380
0.129488 0.112428 0.085328
0.152651 0.110933 0.087190
0.180301 0.108217 0.088808
0.212345 0.103304 0.090303
0.242405 0.094270 0.092103
0.275029 0.076051 0.094057
0.309941 0.030671 0.096437
0.346166 0.000000 0.098909
0.383948 0.000000 0.101320
0.421942 0.000000 0.104189
0.460670 0.000000 0.107881
0.501793 0.000000 0.111513
0.547662 0.000000 0.116823
0.591760 0.000000 0.122866
0.634058 0.000000 0.130098
0.674281 0.000000 0.137850
0.712428 0.000000 0.147341
0.747005 0.000000 0.157412
0.777310 0.000000 0.169253
0.803555 0.000000 0.181033
0.827146 0.000000 0.194217
0.849332 0.000000 0.207919
0.870726 0.000000 0.222934
0.891295 0.000000 0.239414
0.911254 0.000000 0.257908
0.930480 0.000000 0.277989
0.092073 0.120455 0.100252
0.092927 0.120394 0.099886
0.093233 0.120943 0.099428
0.096498 0.121798 0.098848
0.103212 0.122927 0.097353
0.114382 0.124880 0.095918
0.136660 0.128756 0.092073
0.162661 0.129274 0.090089
0.189700 0.127108 0.090089
0.220706 0.123812 0.092256
0.255772 0.117769 0.094179
0.287541 0.107607 0.095979
0.321599 0.092195 0.098726
0.357366 0.048096 0.101076
0.394537 0.000000 0.103700
0.432654 0.000000 0.106661
0.474891 0.000000 0.110658
0.519036 0.000000 0.115419
0.561822 0.000000 0.120699
0.602930 0.000000 0.126650
0.641688 0.000000 0.133455
0.678126 0.000000 0.141329
0.712459 0.000000 0.149752
0.743923 0.000000 0.158968
0.772030 0.000000 0.169314
0.797330 0.000000 0.180392
0.820554 0.000000 0.192477
0.843076 0.000000 0.205173
0.865141 0.000000 0.219883
0.886625 0.000000 0.235874
0.907469 0.000000 0.254154
0.927489 0.000000 0.274632
0.104524 0.136263 0.107942
0.104921 0.136477 0.107912
0.106142 0.137087 0.107424
0.109560 0.137758 0.106538
0.115663 0.139376 0.105440
0.125765 0.141207 0.103426
0.144259 0.145510 0.100862
0.172915 0.149660 0.095766
0.202670 0.149447 0.093141
0.233738 0.146792 0.093050
0.267430 0.142489 0.095521
0.304417 0.135866 0.097597
0.337987 0.124178 0.100252
0.373053 0.108522 0.103212
0.411170 0.083314 0.105867
0.453071 0.008576 0.109895
0.494423 0.000000 0.114443
0.534874 0.000000 0.119234
0.574121 0.000000 0.124605
0.611963 0.000000 0.130861
0.647974 0.000000 0.137392
0.681971 0.000000 0.144564
0.714595 0.000000 0.153262
0.744503 0.000000 0.162631
0.771786 0.000000 0.172580
0.796292 0.000000 0.183383
0.819150 0.000000 0.195041
0.841367 0.000000 0.208011
0.863157 0.000000 0.222232
0.884642 0.000000 0.237980
0.905638 0.000000 0.255100
0.926024 0.000000 0.274571
0.120241 0.157168 0.119570
0.120638 0.157351 0.119234
0.122164 0.157809 0.118807
0.125277 0.158755 0.117403
0.131899 0.159945 0.115511
0.141390 0.161959 0.112703
0.156741 0.165072 0.110872
0.182834 0.170809 0.106203
0.216983 0.175021 0.099825
0.250004 0.173983 0.096437
0.284459 0.169894 0.095644
0.320165 0.164736 0.098390
0.394537 0.171786 0.104250
0.438270 0.162356 0.109316
0.480903 0.149081 0.114351
0.522271 0.132235 0.119692
0.561669 0.109895 0.125948
0.599390 0.067475 0.132357
0.634974 0.000000 0.139315
0.668544 0.000000 0.146761
0.699794 0.000000 0.154574
0.728389 0.000000 0.162631
0.754574 0.000000 0.172183
0.778714 0.000000 0.181979
0.800748 0.000000 0.192569
0.821530 0.000000 0.203525
0.841184 0.000000 0.215305
0.860349 0.000000 0.227451
0.879118 0.000000 0.241245
0.897856 0.000000 0.256168
0.916350 0.106081 0.273075
0.934691 0.159884 0.292058
0.145937 0.190097 0.140597
0.146090 0.190097 0.139925
0.147463 0.190311 0.139376
0.150790 0.190677 0.137118
0.156680 0.191409 0.134432
0.165743 0.192599 0.130709
0.179416 0.194553 0.126192
0.201419 0.198642 0.121370
0.234104 0.205173 0.113252
0.276493 0.211215 0.105226
0.318120 0.211887 0.101778
0.363012 0.210117 0.099855
0.409216 0.207797 0.103517
0.456306 0.204288 0.109316
0.497993 0.196689 0.116091
0.536339 0.185672 0.122103
0.572503 0.172732 0.129030
0.606226 0.158053 0.134920
0.638483 0.141604 0.141848
0.668940 0.123140 0.148989
0.697688 0.103700 0.156374
0.724727 0.079957 0.164858
0.749935 0.037568 0.173922
0.773465 0.012726 0.183352
0.795163 0.002899 0.193912
0.815854 0.014496 0.204898
0.835721 0.046326 0.216678
0.855161 0.091310 0.229374
0.874327 0.118563 0.243351
0.893400 0.148074 0.258640
0.912108 0.178775 0.275761
0.930632 0.211154 0.294743
0.168917 0.219242 0.159457
0.169100 0.219089 0.159121
0.170474 0.219150 0.158083
0.173617 0.219760 0.156741
0.179202 0.220676 0.153811
0.188022 0.222141 0.150179
0.201480 0.224552 0.145602
0.221317 0.228183 0.140414
0.251011 0.235538 0.133272
0.290318 0.243229 0.121736
0.336858 0.248844 0.110536
0.380285 0.248875 0.107362
0.425727 0.246494 0.104067
0.469673 0.244205 0.108461
0.511803 0.240787 0.116457
0.548577 0.233616 0.123262
0.581872 0.223911 0.130526
0.613062 0.213626 0.136934
0.642969 0.203220 0.144259
0.671321 0.192264 0.151431
0.698329 0.182864 0.159243
0.724086 0.174563 0.167880
0.748226 0.168338 0.176974
0.771115 0.164492 0.186435
0.792386 0.163943 0.197452
0.812863 0.165957 0.208591
0.832578 0.171878 0.220554
0.851896 0.180941 0.233127
0.871000 0.194369 0.247105
0.890043 0.212192 0.262943
0.908751 0.233463 0.280339
0.927276 0.258549 0.299809
0.197543 0.255833 0.184634
0.197604 0.255833 0.184298
0.199130 0.255528 0.182925
0.201297 0.255406 0.181003
0.206180 0.255558 0.177432
0.213840 0.256352 0.173190
0.225772 0.257908 0.168307
0.242557 0.260410 0.162020
0.267338 0.265263 0.157290
0.303807 0.274449 0.145785
0.347143 0.282231 0.131563
0.395880 0.287816 0.116548
0.437995 0.287602 0.113527
0.481117 0.285435 0.110109
0.521538 0.282414 0.114900
0.558495 0.278721 0.123568
0.591272 0.271763 0.131838
0.620447 0.263371 0.139284
0.648341 0.255070 0.146670
0.674861 0.247105 0.154147
0.700191 0.240055 0.162509
0.724697 0.234226 0.170779
0.747738 0.230198 0.180331
0.769589 0.227543 0.190616
0.790280 0.226810 0.201022
0.810330 0.228946 0.212894
0.830137 0.233310 0.225040
0.849638 0.241062 0.238346
0.869139 0.252445 0.253330
0.888487 0.267887 0.270085
0.907744 0.286992 0.288853
0.926574 0.309545 0.310155
0.224094 0.289799 0.207828
0.224308 0.290043 0.207645
0.225620 0.290105 0.206790
0.228580 0.290501 0.204898
0.233310 0.291142 0.202060
0.240604 0.292393 0.198398
0.251987 0.294469 0.193576
0.268070 0.297704 0.188266
0.290715 0.302220 0.182223
0.321416 0.310033 0.174777
0.361425 0.319158 0.160922
0.405707 0.326055 0.144778
0.450965 0.329473 0.126772
0.489296 0.327245 0.120699
0.527855 0.322698 0.117189
0.562890 0.317876 0.121279
0.595331 0.313725 0.130739
0.624750 0.307713 0.139742
0.651209 0.300938 0.148196
0.676814 0.294591 0.156680
0.701503 0.289311 0.165438
0.725246 0.285039 0.174594
0.747768 0.282261 0.184634
0.769253 0.280705 0.195285
0.789639 0.280888 0.207004
0.809812 0.283024 0.218906
0.829465 0.287816 0.232303
0.848905 0.294560 0.246281
0.868101 0.304143 0.261601
0.886992 0.316960 0.278904
0.905608 0.332433 0.297429
0.923857 0.351019 0.318456
0.249546 0.323064 0.230289
0.249760 0.323186 0.230259
0.251194 0.323369 0.229129
0.253635 0.323766 0.227726
0.258213 0.324590 0.225071
0.265415 0.325872 0.221500
0.275700 0.327977 0.217533
0.290043 0.330907 0.212131
0.309575 0.334661 0.205783
0.334905 0.340215 0.200168
0.370611 0.349706 0.188846
0.410986 0.358068 0.173922
0.454597 0.364202 0.156069
0.496254 0.366125 0.137850
0.532036 0.363287 0.129427
0.567590 0.358587 0.126040
0.599573 0.353857 0.130037
0.628779 0.350286 0.140444
0.655970 0.345861 0.149813
0.680140 0.340093 0.159579
0.703670 0.335485 0.168887
0.726314 0.331914 0.179110
0.748043 0.329473 0.189914
0.768826 0.328313 0.201358
0.788998 0.328740 0.213077
0.808896 0.331273 0.226047
0.828550 0.335821 0.239933
0.847837 0.342412 0.255009
0.866941 0.351476 0.271153
0.885710 0.363012 0.289006
0.904112 0.376867 0.308537
0.922087 0.393530 0.330327
0.277745 0.359869 0.255528
0.278599 0.360357 0.255589
0.301640 0.388495 0.274327
0.304326 0.389105 0.272953
0.308537 0.389807 0.270603
0.315068 0.390845 0.266789
0.324590 0.392401 0.262028
0.337407 0.394659 0.256352
0.354803 0.398016 0.250065
0.377630 0.402289 0.242618
0.406806 0.409186 0.235508
0.444190 0.419013 0.221164
0.484138 0.425696 0.203769
0.524437 0.429755 0.183169
0.560571 0.428748 0.164218
0.592004 0.424445 0.149905
0.622400 0.418067 0.145327
0.649622 0.411688 0.148562
0.673426 0.406409 0.159487
0.695766 0.400549 0.170230
0.716060 0.394385 0.180789
0.736324 0.389685 0.191104
0.755856 0.386297 0.202548
0.774868 0.383917 0.214054
0.793423 0.382849 0.226169
0.811734 0.383124 0.238315
0.829862 0.385107 0.251987
0.847990 0.389319 0.266453
0.866087 0.396277 0.282780
0.884245 0.405921 0.300664
0.902220 0.418158 0.320775
0.919921 0.432441 0.342473
0.312474 0.404700 0.287266
0.314763 0.407355 0.289067
0.318029 0.410376 0.290318
0.322271 0.413336 0.290654
0.327764 0.416083 0.289647
0.334020 0.417853 0.287175
0.342504 0.419471 0.282933
0.353765 0.421332 0.277836
0.368841 0.424018 0.271275
0.387945 0.427283 0.263981
0.412390 0.432258 0.257420
0.444068 0.440345 0.247288
0.480476 0.448493 0.231937
0.518120 0.454139 0.213809
0.556329 0.457130 0.192599
0.588769 0.455329 0.175174
0.618067 0.451484 0.161593
0.646540 0.446326 0.157687
0.672084 0.440925 0.161563
0.694453 0.436805 0.173648
0.715602 0.432532 0.185672
0.735286 0.428382 0.197116
0.754360 0.425177 0.209171
0.773129 0.423011 0.221134
0.791348 0.421729 0.233555
0.809354 0.421851 0.246769
0.827207 0.423255 0.260594
0.844968 0.426978 0.275181
0.862882 0.432959 0.291966
0.880827 0.441535 0.310735
0.898741 0.452491 0.330907
0.916320 0.465614 0.353613
0.335180 0.434638 0.309331
0.337499 0.437507 0.311070
0.340856 0.440650 0.312627
0.345129 0.443824 0.313573
0.350134 0.446448 0.312779
0.356176 0.448341 0.310735
0.363745 0.449805 0.306706
0.373632 0.451575 0.301854
0.386389 0.453864 0.296178
0.403113 0.456550 0.289158
0.423896 0.459968 0.281315
0.449073 0.465187 0.275517
0.482551 0.474098 0.261936
0.517540 0.481056 0.246006
0.553338 0.485847 0.227268
0.589044 0.488319 0.205661
0.617914 0.485786 0.190494
0.645014 0.481910 0.177310
0.671107 0.476875 0.174533
0.694606 0.471931 0.179141
0.714900 0.468116 0.191684
0.734463 0.464820 0.204959
0.753170 0.461982 0.217685
0.771664 0.459876 0.230167
0.789670 0.458778 0.243046
0.807370 0.458564 0.256687
0.824826 0.459693 0.270726
0.842405 0.462593 0.286107
0.860044 0.467842 0.302739
0.877775 0.475380 0.321904
0.895476 0.485176 0.342870
0.913024 0.496712 0.365515
0.359472 0.466407 0.333440
0.361425 0.468940 0.335088
0.364660 0.471748 0.336797
0.368322 0.474586 0.337346
0.372778 0.476997 0.336797
0.378027 0.478676 0.334813
0.384924 0.480201 0.331518
0.393622 0.481697 0.326848
0.405219 0.483803 0.321630
0.419715 0.486183 0.315190
0.437690 0.489174 0.308171
0.459785 0.493355 0.301061
0.486946 0.499550 0.292515
0.519463 0.507500 0.278294
0.552880 0.513634 0.262272
0.586725 0.517937 0.243473
0.620233 0.520043 0.223239
0.646723 0.517937 0.210178
0.672572 0.515435 0.200229
0.697536 0.512291 0.200198
0.720119 0.509514 0.206821
0.739834 0.507927 0.221530
0.758785 0.506554 0.235874
0.777646 0.506432 0.250950
0.796017 0.506828 0.265995
0.813840 0.507774 0.280888
0.831296 0.509606 0.296727
0.848631 0.512902 0.313664
0.865995 0.518120 0.331975
0.883360 0.525078 0.352331
0.900572 0.533867 0.374029
0.917571 0.544060 0.397559
0.397009 0.514305 0.372290
0.398047 0.515465 0.373114
0.399512 0.516381 0.373022
0.401678 0.517205 0.372381
0.404517 0.517998 0.370794
0.408484 0.518486 0.367987
0.414008 0.519219 0.364599
0.421576 0.520409 0.360204
0.431556 0.522118 0.355291
0.444556 0.524407 0.349523
0.460487 0.527184 0.343084
0.479469 0.530236 0.335271
0.501701 0.534508 0.329564
0.530053 0.541619 0.318486
0.561151 0.548455 0.304082
0.592279 0.553033 0.287663
0.623194 0.555505 0.269810
0.652247 0.555444 0.251072
0.675990 0.552422 0.239139
0.699153 0.549004 0.230259
0.721401 0.545220 0.230716
0.742061 0.541802 0.236851
0.759762 0.539452 0.250462
0.776944 0.537438 0.263828
0.794553 0.537224 0.278782
0.812100 0.538018 0.294133
0.829465 0.540002 0.310491
0.846677 0.543175 0.328099
0.863890 0.547936 0.346899
0.881010 0.554162 0.367376
0.898039 0.561822 0.389166
0.914702 0.571038 0.412757
0.422126 0.545342 0.399268
0.422797 0.546197 0.400031
0.424201 0.547143 0.399939
0.426246 0.547906 0.399542
0.428901 0.548669 0.398199
0.432532 0.549248 0.395850
0.437507 0.550011 0.392493
0.444160 0.551080 0.388769
0.452827 0.552636 0.384314
0.464240 0.554711 0.379034
0.478126 0.557214 0.373175
0.494667 0.559960 0.366430
0.514366 0.563348 0.359258
0.537041 0.567742 0.353368
0.565789 0.575128 0.340856
0.594690 0.580438 0.327337
0.623774 0.583886 0.311955
0.652430 0.585412 0.295079
0.678401 0.584619 0.279240
0.700771 0.581842 0.268925
0.722713 0.579004 0.263157
0.744076 0.576104 0.264591
0.763668 0.573541 0.271305
0.780514 0.571893 0.284886
0.792264 0.563195 0.290532
0.809140 0.563348 0.305425
0.826352 0.565179 0.322148
0.843442 0.568200 0.339940
0.860502 0.572595 0.359197
0.877562 0.578393 0.379950
0.894530 0.585931 0.402625
0.911315 0.594659 0.426429
0.455146 0.584375 0.435950
0.456367 0.585840 0.437171
0.457649 0.586511 0.437354
0.458778 0.586603 0.436286
0.460426 0.586328 0.434058
0.462562 0.585748 0.430915
0.465614 0.585168 0.426886
0.470222 0.584771 0.421973
0.476814 0.584894 0.416541
0.485542 0.585443 0.410803
0.496559 0.586389 0.404089
0.510155 0.587823 0.396826
0.526421 0.589532 0.388708
0.545281 0.592004 0.381994
0.567681 0.595605 0.373053
0.593774 0.600397 0.359960
0.620386 0.603571 0.345556
0.647089 0.605402 0.330144
0.673823 0.606104 0.313787
0.698085 0.605341 0.300725
0.719936 0.603388 0.291844
0.740993 0.601312 0.290257
0.761318 0.598779 0.292515
0.779568 0.596033 0.298619
0.794705 0.593561 0.311284
0.809354 0.591180 0.323095
0.825101 0.591272 0.337682
0.841459 0.593225 0.354955
0.857939 0.596643 0.373602
0.874510 0.601648 0.393988
0.891234 0.608270 0.416052
0.907683 0.616632 0.440162
0.475380 0.608362 0.460426
0.476600 0.609552 0.461463
0.477790 0.610437 0.461952
0.479103 0.610895 0.461311
0.481025 0.611139 0.459785
0.483558 0.611444 0.457832
0.487160 0.611872 0.455116
0.492073 0.612573 0.451759
0.498695 0.613642 0.448066
0.506889 0.615045 0.443671
0.517082 0.616510 0.438453
0.529229 0.618250 0.432776
0.543603 0.619898 0.425727
0.559899 0.621576 0.417945
0.577966 0.623346 0.411933
0.600488 0.627100 0.401678
0.624842 0.630457 0.389075
0.649500 0.632593 0.375647
0.674800 0.633967 0.361242
0.700587 0.634730 0.345892
0.723384 0.633875 0.334905
0.744259 0.632319 0.327855
0.764004 0.630640 0.329412
0.783322 0.628504 0.332341
0.800473 0.626154 0.339452
0.814878 0.624292 0.351965
0.828824 0.622675 0.364233
0.843839 0.623316 0.379675
0.859922 0.626703 0.398718
0.876066 0.631281 0.419043
0.892149 0.637446 0.441138
0.908141 0.645045 0.464637
0.501366 0.637354 0.492683
0.502037 0.637934 0.493416
0.502739 0.638300 0.493202
0.503777 0.638483 0.492622
0.505119 0.638605 0.491066
0.507164 0.638727 0.489052
0.510063 0.638941 0.486580
0.514214 0.639338 0.483345
0.519493 0.640131 0.479988
0.526513 0.641169 0.475837
0.535180 0.642359 0.471138
0.545647 0.643824 0.465919
0.558007 0.645350 0.460060
0.572168 0.646723 0.452766
0.588342 0.648096 0.445808
0.605676 0.649348 0.439857
0.628046 0.653010 0.428717
0.651270 0.655787 0.416846
0.675380 0.657954 0.404364
0.700252 0.659571 0.391150
0.725307 0.660487 0.376776
0.746548 0.659602 0.368048
0.765988 0.658106 0.364965
0.784573 0.656306 0.367712
0.802640 0.653956 0.370428
0.818357 0.651514 0.377356
0.831754 0.649775 0.389502
0.844724 0.648188 0.401373
0.858946 0.649195 0.416602
0.874693 0.653742 0.437385
0.890501 0.659632 0.459266
0.906065 0.666926 0.482429
0.523735 0.661280 0.522240
0.524285 0.661738 0.522606
0.525048 0.662135 0.522820
0.526085 0.662531 0.522362
0.527733 0.663050 0.521782
0.530144 0.663935 0.521019
0.533989 0.665492 0.520348
0.538933 0.667414 0.519768
0.545220 0.669917 0.519158
0.553002 0.672724 0.518364
0.562066 0.675807 0.517235
0.572473 0.678859 0.515251
0.584314 0.681819 0.512474
0.597498 0.684413 0.508202
0.612116 0.686580 0.502678
0.627802 0.688350 0.497963
0.645716 0.690730 0.491829
0.667659 0.694545 0.482277
0.690517 0.697597 0.472419
0.714015 0.699977 0.461830
0.737789 0.701625 0.450446
0.761746 0.702205 0.437568
0.781033 0.700893 0.430793
0.798611 0.699336 0.431495
0.815549 0.697261 0.434302
0.831968 0.694697 0.437110
0.846250 0.692317 0.443763
0.858274 0.690669 0.455055
0.870115 0.689387 0.465980
0.882841 0.690455 0.480446
0.897459 0.695644 0.501335
0.911894 0.702052 0.522942
0.559899 0.697414 0.569055
0.559991 0.697414 0.569085
0.560235 0.697414 0.568597
0.560723 0.697444 0.567956
0.561700 0.697475 0.566827
0.563134 0.697627 0.565515
0.565332 0.698085 0.563745
0.568475 0.698756 0.561944
0.572656 0.699794 0.560021
0.577966 0.701076 0.557763
0.584466 0.702571 0.555108
0.592370 0.704250 0.552056
0.601709 0.705989 0.548333
0.612299 0.707698 0.543969
