20 Preset/Classic brown/【3】LUT video cho PR-AE-FCPX/Tone (4).cube
# Created by Adobe Lightroom plugin Export LUT (1.24.0)
# www.johnrellis.com/lightroom/exportlut.htm
# Preset: 人文电影-素材江湖05
# Color profile: E:\lut插件\exportlut.1.24\exportlut.lrplugin\color profiles\Rec709gamma2.4.icc
LUT_3D_SIZE 8
DOMAIN_MIN 0.000000 0.000000 0.000000
DOMAIN_MAX 0.903226 0.903226 0.903226
0.050843 0.079469 0.071595
0.050843 0.079469 0.071595
0.112978 0.091218 0.090211
0.189364 0.081086 0.095583
0.305791 0.000000 0.101320
0.487037 0.000000 0.112398
0.670893 0.000000 0.128847
0.809995 0.000000 0.156741
0.050843 0.079469 0.071595
0.050843 0.079469 0.071595
0.110933 0.091096 0.090272
0.180941 0.083314 0.095430
0.290410 0.000000 0.100435
0.456580 0.000000 0.110597
0.634028 0.000000 0.124453
0.788937 0.000000 0.150515
0.078279 0.104036 0.096712
0.081117 0.104555 0.096590
0.113954 0.112062 0.092775
0.190890 0.108797 0.095155
0.310735 0.079530 0.100893
0.482246 0.000000 0.110933
0.672236 0.000000 0.127687
0.812589 0.000000 0.157351
0.101442 0.139193 0.122011
0.103059 0.140230 0.121279
0.117311 0.146975 0.114534
0.209049 0.173159 0.100069
0.372076 0.175692 0.094057
0.532799 0.137545 0.105470
0.691890 0.000000 0.123354
0.815702 0.000000 0.156313
0.140719 0.200534 0.168521
0.142367 0.201144 0.167330
0.152773 0.206851 0.161898
0.194400 0.220829 0.144747
0.339757 0.258610 0.107576
0.530785 0.266087 0.062013
0.686305 0.261936 0.098299
0.809934 0.283543 0.144961
0.205173 0.288426 0.235843
0.211826 0.295445 0.239628
0.223270 0.301030 0.236973
0.247807 0.312993 0.220005
0.320745 0.328740 0.187747
0.514946 0.385107 0.128725
0.702022 0.421973 0.025605
0.815122 0.444404 0.138705
0.321141 0.424048 0.341619
0.325139 0.427314 0.342840
0.334539 0.431464 0.339635
0.355413 0.441718 0.328557
0.399420 0.454017 0.297032
0.499702 0.473426 0.250980
0.678645 0.533318 0.191501
0.803769 0.560632 0.179904
0.502647 0.592523 0.506035
0.504173 0.593347 0.505638
0.513054 0.597925 0.506004
0.534936 0.608301 0.508537
0.538354 0.602045 0.465400
0.597375 0.620264 0.438972
0.689509 0.641413 0.401617
0.807523 0.676265 0.370581
0.050843 0.079469 0.071595
0.050843 0.079469 0.071595
0.104280 0.090028 0.088502
0.169100 0.087526 0.094881
0.278050 0.010864 0.099519
0.436103 0.000000 0.109224
0.610254 0.000000 0.122042
0.769741 0.000000 0.145571
0.050843 0.079469 0.071595
0.050843 0.079469 0.071595
0.105165 0.090303 0.088869
0.169680 0.087221 0.095277
0.276066 0.019318 0.099306
0.430365 0.000000 0.108705
0.595666 0.000000 0.120821
0.756039 0.000000 0.142458
0.080232 0.103182 0.097200
0.080507 0.104250 0.096254
0.108827 0.111055 0.093080
0.179934 0.110719 0.095003
0.289281 0.092012 0.099550
0.442725 0.000000 0.108400
0.614160 0.000000 0.121401
0.774929 0.000000 0.145998
0.101137 0.135683 0.122316
0.102327 0.136568 0.121614
0.113680 0.142000 0.116426
0.186709 0.161044 0.100526
0.321050 0.162875 0.094545
0.469245 0.132845 0.103304
0.631800 0.000000 0.116823
0.779568 0.000000 0.144137
0.139803 0.196262 0.168551
0.140749 0.196262 0.166964
0.148989 0.199863 0.161593
0.182925 0.210056 0.144778
0.311009 0.241978 0.113069
0.495247 0.250370 0.073732
0.656794 0.244419 0.097566
0.790829 0.261418 0.136904
0.199313 0.278080 0.231174
0.201328 0.279606 0.230869
0.211704 0.285283 0.228855
0.235538 0.298253 0.215427
0.304845 0.315190 0.186954
0.496559 0.372930 0.136721
0.688441 0.409918 0.019409
0.804593 0.430793 0.128634
0.307378 0.408026 0.331029
0.307042 0.406958 0.328649
0.315251 0.410590 0.325292
0.337346 0.422583 0.317113
0.383978 0.439582 0.290929
0.482124 0.459052 0.247227
0.661860 0.517418 0.186435
0.790860 0.544579 0.160159
0.486702 0.579370 0.492164
0.491157 0.582422 0.494514
0.499519 0.586755 0.494392
0.522057 0.597711 0.497139
0.548547 0.610529 0.480476
0.599237 0.622736 0.446693
0.686152 0.639063 0.402380
0.805112 0.673701 0.366430
0.066865 0.094392 0.099306
0.065217 0.093721 0.098238
0.090669 0.091066 0.095644
0.163973 0.086122 0.097536
0.273472 0.029664 0.099428
0.438544 0.000000 0.108827
0.619776 0.000000 0.122530
0.780362 0.000000 0.148104
0.066163 0.094820 0.099245
0.066499 0.094057 0.098207
0.092317 0.094087 0.097536
0.159335 0.093324 0.100282
0.269291 0.054597 0.099031
0.429480 0.000000 0.108248
0.605798 0.000000 0.121096
0.769772 0.000000 0.145205
0.081941 0.105348 0.102052
0.084993 0.106142 0.102998
0.100801 0.113344 0.107515
0.162570 0.117464 0.107973
0.285588 0.109255 0.103670
0.446418 0.000000 0.107637
0.619257 0.000000 0.120607
0.776761 0.000000 0.146059
0.110506 0.138399 0.133242
0.112673 0.141543 0.135683
0.118624 0.147799 0.135622
0.175875 0.162936 0.124514
0.309819 0.171176 0.112642
0.474647 0.152651 0.101656
0.642542 0.088716 0.116091
0.787045 0.000000 0.145083
0.151766 0.199893 0.183505
0.151919 0.200717 0.182712
0.157900 0.205081 0.180331
0.184604 0.215518 0.168002
0.302586 0.246006 0.145632
0.486915 0.258152 0.107851
0.657374 0.258183 0.093324
0.792477 0.276158 0.136141
0.209384 0.280034 0.244572
0.211368 0.281956 0.244755
0.218418 0.287053 0.242924
0.237888 0.297673 0.233433
0.296635 0.312688 0.208469
0.477394 0.367559 0.173648
0.677607 0.409186 0.100771
0.804196 0.436500 0.127596
0.320836 0.413794 0.347875
0.320714 0.413184 0.346044
0.325383 0.415259 0.341680
0.345525 0.424903 0.336248
0.383734 0.440162 0.311040
0.477882 0.460914 0.272679
0.659510 0.522789 0.228061
0.795956 0.554681 0.171176
0.491585 0.579614 0.502159
0.491554 0.579400 0.500572
0.498756 0.583673 0.500328
0.523033 0.597528 0.506889
0.549035 0.610346 0.495125
0.598718 0.625238 0.467048
0.683772 0.642084 0.425574
0.804257 0.677485 0.387030
0.068299 0.103670 0.125673
0.068574 0.103670 0.125399
0.087221 0.102815 0.125124
0.127840 0.102541 0.124483
0.233616 0.090913 0.132570
0.397284 0.000000 0.131533
0.588067 0.000000 0.125917
0.759823 0.000000 0.142855
0.065461 0.107179 0.125032
0.065339 0.107515 0.124453
0.090455 0.108278 0.126070
0.129488 0.108309 0.127291
0.236698 0.098970 0.136141
0.396002 0.000000 0.136995
0.586175 0.000000 0.128023
0.759304 0.000000 0.142458
0.077668 0.118776 0.125216
0.082063 0.119722 0.125338
0.097444 0.123293 0.129702
0.135561 0.127901 0.137118
0.245884 0.125826 0.145846
0.409308 0.102296 0.150454
0.613733 0.000000 0.142916
0.780301 0.000000 0.146273
0.107546 0.140749 0.138705
0.110079 0.142061 0.140108
0.124971 0.151217 0.149386
0.166995 0.171359 0.162173
0.265507 0.176425 0.162112
0.417578 0.175113 0.162478
0.611292 0.142184 0.151614
0.781735 0.096254 0.142428
0.165530 0.197055 0.193851
0.166995 0.199527 0.195926
0.177554 0.213718 0.206912
0.195102 0.230472 0.209537
0.290196 0.254246 0.194400
0.458930 0.267582 0.180545
0.639765 0.277531 0.168582
0.793515 0.294163 0.138552
0.234348 0.287205 0.269230
0.241093 0.294865 0.275303
0.247776 0.305577 0.278965
0.262577 0.316533 0.276982
0.305303 0.330053 0.255497
0.464149 0.374365 0.231785
0.662257 0.414862 0.197971
0.800504 0.445869 0.171878
0.345769 0.418433 0.374395
0.346777 0.421271 0.374975
0.350591 0.427863 0.374243
0.367803 0.440467 0.373907
0.399451 0.455787 0.357885
0.478706 0.472938 0.322118
0.650690 0.528496 0.290105
0.791745 0.563104 0.250370
0.511833 0.587274 0.529046
0.512535 0.588067 0.528801
0.517266 0.592187 0.528710
0.531731 0.601831 0.530388
0.556603 0.614374 0.527092
0.596338 0.628687 0.501091
0.676173 0.644923 0.461799
0.800290 0.684565 0.437476
0.043915 0.115450 0.157992
0.043519 0.115785 0.157778
0.064240 0.117556 0.157168
0.124575 0.118807 0.170596
0.189487 0.119631 0.172000
0.335241 0.108370 0.193545
0.532677 0.000000 0.193088
0.731044 0.000000 0.202335
0.042206 0.119997 0.155642
0.041505 0.120302 0.155612
0.074464 0.122591 0.158022
0.126711 0.124331 0.171145
0.191653 0.125887 0.174685
0.336797 0.117220 0.196231
0.533104 0.000000 0.195773
0.731258 0.000000 0.204715
0.055818 0.133028 0.155459
0.065309 0.133516 0.155581
0.091615 0.136538 0.158450
0.133852 0.144289 0.176974
0.196536 0.148684 0.183352
0.334417 0.145327 0.201236
0.528222 0.021515 0.203372
0.726894 0.000000 0.208377
0.096925 0.156619 0.166842
0.100313 0.157565 0.167575
0.115297 0.163180 0.173007
0.150668 0.180667 0.194034
0.221378 0.195102 0.211704
0.362951 0.193149 0.221439
0.547295 0.186221 0.230930
0.743252 0.150515 0.221561
0.144381 0.191379 0.190799
0.147768 0.193393 0.192844
0.163272 0.202152 0.201419
0.202182 0.229618 0.228580
0.270695 0.260197 0.244205
0.396399 0.265049 0.242832
0.577905 0.276310 0.245548
0.758755 0.290837 0.234440
0.229862 0.257328 0.255039
0.232059 0.260410 0.257633
0.239567 0.271458 0.266758
0.262791 0.300755 0.289433
0.289860 0.324773 0.291936
0.426032 0.365515 0.281102
0.624933 0.403845 0.274418
0.775814 0.439399 0.271000
0.338659 0.388800 0.367529
0.339208 0.390021 0.368048
0.347051 0.400061 0.374548
0.375677 0.431342 0.395972
0.400732 0.452918 0.397436
0.457374 0.470100 0.367926
0.623102 0.520104 0.344244
0.773037 0.555840 0.320653
0.490822 0.555169 0.515007
0.492897 0.557153 0.516411
0.503563 0.566705 0.523919
0.527977 0.590448 0.541527
0.549645 0.606531 0.545495
0.583703 0.623560 0.532769
0.655512 0.639734 0.496956
0.782467 0.679133 0.476783
0.002136 0.135897 0.198795
0.003326 0.135897 0.198215
0.019043 0.136995 0.197116
0.107942 0.145205 0.217777
0.205570 0.149569 0.252842
0.289708 0.148562 0.247501
0.469734 0.145663 0.280522
0.695491 0.000000 0.299046
0.006500 0.137514 0.192599
0.007019 0.137331 0.191745
0.031739 0.139437 0.193698
0.109712 0.147829 0.213901
0.200931 0.152590 0.246647
0.283452 0.152987 0.243778
0.460822 0.151736 0.276921
0.687007 0.000000 0.295476
0.012726 0.151461 0.194827
0.021210 0.151675 0.194797
0.064240 0.154147 0.196597
0.122621 0.165713 0.218387
0.206882 0.175662 0.251286
0.291997 0.180606 0.254582
0.471473 0.184237 0.288487
0.693172 0.105653 0.306340
0.076204 0.177218 0.207675
0.084443 0.177829 0.207706
0.104677 0.181491 0.210880
0.139651 0.193423 0.225437
0.228275 0.222507 0.273198
0.325017 0.235599 0.286900
0.507652 0.242618 0.317144
0.715755 0.220340 0.331182
0.124910 0.209995 0.223514
0.128603 0.211032 0.224552
0.143862 0.216617 0.229679
0.173953 0.231144 0.243809
0.241917 0.270359 0.288060
0.350530 0.295781 0.315801
0.531731 0.296696 0.330388
0.721035 0.320378 0.349737
0.194675 0.258061 0.256748
0.199283 0.261357 0.259953
0.213474 0.268925 0.267063
0.244999 0.288457 0.285130
0.311742 0.335088 0.329778
0.419348 0.388525 0.360418
0.586969 0.407080 0.367102
0.751217 0.440742 0.376226
0.344854 0.365789 0.358709
0.350652 0.369726 0.362768
0.363378 0.380621 0.373327
0.382361 0.406287 0.395514
0.421393 0.453376 0.433936
0.465431 0.493416 0.446326
0.606317 0.531609 0.424659
0.762570 0.567803 0.425055
0.491585 0.527794 0.507988
0.491493 0.528466 0.508263
0.497322 0.536675 0.514794
0.515496 0.558526 0.533257
0.548425 0.592615 0.561761
0.581018 0.621393 0.574792
0.635248 0.640864 0.550805
0.763149 0.680018 0.535943
0.000000 0.159884 0.248631
0.000000 0.160128 0.248081
0.000000 0.160128 0.245792
0.059113 0.170901 0.266239
0.171969 0.182467 0.303441
0.330541 0.187106 0.361700
0.423041 0.183139 0.344030
0.605341 0.210117 0.384436
0.000000 0.161593 0.244205
0.000000 0.161593 0.243778
0.000000 0.162509 0.243595
0.069062 0.173220 0.264164
0.173281 0.185885 0.301549
0.328069 0.192386 0.359106
0.420233 0.189273 0.342840
0.602014 0.214878 0.383093
0.000000 0.171450 0.240970
0.000000 0.171420 0.240635
0.000000 0.172244 0.240055
0.092348 0.184695 0.261936
0.181277 0.203159 0.302495
0.331914 0.218265 0.362036
0.429145 0.219333 0.353216
0.613611 0.247959 0.396551
0.000000 0.194766 0.251743
0.000000 0.194797 0.251225
0.028046 0.196139 0.251591
0.106691 0.200931 0.256718
0.192935 0.232334 0.306645
0.339910 0.262089 0.371160
0.447791 0.271702 0.374548
0.633082 0.300755 0.418494
0.065217 0.229343 0.268254
0.078462 0.229526 0.268315
0.104189 0.231449 0.269841
0.136751 0.236576 0.274968
0.192020 0.254368 0.296727
0.343175 0.313939 0.381415
0.471748 0.338262 0.403784
0.661952 0.367102 0.447425
0.151461 0.281315 0.298192
0.154879 0.282231 0.298985
0.168856 0.286137 0.302434
0.195895 0.295079 0.310704
0.240482 0.314153 0.329534
0.351873 0.377630 0.398840
0.516838 0.434791 0.457404
0.698299 0.454170 0.484077
0.257542 0.354620 0.349401
0.261143 0.356359 0.350896
0.275029 0.362463 0.356451
0.305333 0.377325 0.370123
0.359045 0.408026 0.398993
0.458839 0.476448 0.465736
0.584558 0.548272 0.518029
0.727901 0.570184 0.530266
0.463050 0.498268 0.484169
0.466590 0.500145 0.486244
0.482643 0.509026 0.495979
0.512932 0.526329 0.515465
0.546105 0.557671 0.547784
0.582910 0.605524 0.592767
0.628382 0.651453 0.621302
0.742031 0.687526 0.608148
0.000000 0.209384 0.350134
0.000000 0.209415 0.349706
0.000000 0.208347 0.345830
0.000000 0.215183 0.358068
0.144594 0.234470 0.399329
0.316075 0.253483 0.459876
0.548486 0.266636 0.539300
0.624567 0.263737 0.504784
0.000000 0.210483 0.345892
0.000000 0.210513 0.345495
0.000000 0.209598 0.342016
0.000000 0.217075 0.355779
0.146273 0.237125 0.397375
0.315618 0.257298 0.458289
0.546960 0.272740 0.538170
0.622797 0.269780 0.504112
0.000000 0.216464 0.335637
0.000000 0.216373 0.335180
0.000000 0.215610 0.332555
0.000000 0.225711 0.350774
0.154147 0.249577 0.394446
0.316838 0.274876 0.456397
0.546563 0.301823 0.539788
0.624933 0.300237 0.510338
0.000000 0.239902 0.346868
0.000000 0.239780 0.346563
0.000000 0.238895 0.343908
0.000000 0.237675 0.339940
0.154269 0.265446 0.383948
0.316289 0.304692 0.454444
0.543236 0.349126 0.542870
0.631495 0.353338 0.524865
0.000000 0.277012 0.365423
0.000000 0.276677 0.365209
0.000000 0.274266 0.362707
0.000000 0.272618 0.359411
0.130129 0.274022 0.360113
0.302953 0.335454 0.445991
0.532311 0.402197 0.545281
0.640192 0.420935 0.546471
0.000000 0.336706 0.395026
0.000000 0.336156 0.394476
0.000000 0.334173 0.392615
0.066285 0.331701 0.390631
0.155184 0.328557 0.389746
0.255650 0.344640 0.410132
0.517144 0.462867 0.550561
0.653925 0.509575 0.582422
0.176577 0.422614 0.444282
0.180514 0.422675 0.444221
0.198001 0.423102 0.444465
0.230259 0.425086 0.446143
0.275547 0.430091 0.451026
0.337041 0.442206 0.464271
0.477058 0.504417 0.533867
0.670863 0.602716 0.630274
0.375250 0.524071 0.515373
0.377935 0.524498 0.515770
0.390234 0.527153 0.518273
0.415717 0.533928 0.524804
0.456184 0.546746 0.537560
0.516930 0.571588 0.563226
0.608148 0.627070 0.623499
0.719295 0.706355 0.699733
