20 Preset/Classic brown/【3】LUT video cho PR-AE-FCPX/Tone (15).cube
# Created by Adobe Lightroom plugin Export LUT (1.24.0)
# www.johnrellis.com/lightroom/exportlut.htm
# Preset: 人文电影-素材江湖01
# Color profile: E:\lut插件\exportlut.1.24\exportlut.lrplugin\color profiles\Rec709gamma2.4.icc
LUT_3D_SIZE 8
DOMAIN_MIN 0.000000 0.000000 0.000000
DOMAIN_MAX 0.903226 0.903226 0.903226
0.050843 0.079469 0.071595
0.073640 0.079896 0.074434
0.164157 0.083558 0.092164
0.288579 0.013825 0.103914
0.456214 0.000000 0.116274
0.632532 0.000000 0.136995
0.762173 0.000000 0.171542
0.840513 0.000000 0.222995
0.052125 0.100252 0.086824
0.085115 0.102052 0.089631
0.165499 0.100038 0.096132
0.286992 0.075319 0.105257
0.451575 0.000000 0.117281
0.621149 0.000000 0.136995
0.748562 0.000000 0.168276
0.832731 0.000000 0.219059
0.091615 0.176577 0.133333
0.115633 0.172824 0.138552
0.170809 0.187350 0.130495
0.333227 0.195132 0.110109
0.496345 0.171695 0.123934
0.648981 0.145418 0.148226
0.765591 0.172641 0.187320
0.837552 0.244175 0.243076
0.159823 0.319341 0.226322
0.185306 0.315221 0.230381
0.241947 0.312596 0.239841
0.346899 0.347356 0.212131
0.552239 0.376104 0.158419
0.680415 0.359411 0.166201
0.767086 0.364782 0.214572
0.829526 0.392309 0.275364
0.284764 0.461952 0.336675
0.300572 0.459510 0.339727
0.354498 0.452949 0.355901
0.406714 0.465736 0.352544
0.503349 0.489570 0.317906
0.647242 0.515099 0.265446
0.747372 0.513848 0.261479
0.813230 0.525536 0.322026
0.417823 0.581628 0.451362
0.431312 0.584466 0.457923
0.464302 0.580865 0.468513
0.508659 0.576074 0.487221
0.543145 0.592218 0.467781
0.613306 0.610864 0.440986
0.705684 0.631891 0.414496
0.790311 0.649744 0.422583
0.533501 0.676692 0.565454
0.538659 0.676997 0.567864
0.554711 0.674952 0.573510
0.581018 0.672236 0.585626
0.602045 0.674037 0.589776
0.628077 0.686915 0.577295
0.675776 0.702358 0.560540
0.747494 0.728664 0.551812
0.605493 0.772000 0.660029
0.608118 0.771786 0.660914
0.618982 0.771603 0.665400
0.638544 0.771878 0.674891
0.656519 0.763729 0.680354
0.674006 0.773892 0.680659
0.701991 0.788418 0.673732
0.745510 0.801938 0.661677
0.046601 0.080812 0.085176
0.074098 0.081117 0.080568
0.157961 0.084108 0.091554
0.274601 0.063416 0.104005
0.441260 0.000000 0.116182
0.609949 0.000000 0.134798
0.738918 0.000000 0.164431
0.826841 0.000000 0.212528
0.028138 0.102937 0.097597
0.088655 0.103761 0.096254
0.163180 0.108431 0.097261
0.283391 0.101656 0.106233
0.446662 0.000000 0.117800
0.610468 0.000000 0.136599
0.734066 0.000000 0.164797
0.821958 0.000000 0.211490
0.093141 0.180056 0.141604
0.118929 0.176577 0.146334
0.171298 0.187289 0.138766
0.325109 0.198550 0.110750
0.481910 0.179202 0.122286
0.630121 0.154025 0.144289
0.745083 0.162753 0.177462
0.825132 0.227085 0.230442
0.153048 0.309606 0.224277
0.179355 0.306218 0.228519
0.237583 0.303166 0.241093
0.327672 0.330510 0.213016
0.521141 0.354223 0.149722
0.654322 0.339361 0.154849
0.749386 0.344671 0.199191
0.818387 0.373083 0.258946
0.279881 0.458595 0.336706
0.295354 0.455421 0.339147
0.348272 0.447181 0.353124
0.397528 0.455207 0.349432
0.489784 0.476661 0.314275
0.635798 0.502373 0.258152
0.740536 0.504021 0.250767
0.807523 0.514885 0.310185
0.409735 0.575647 0.446693
0.419287 0.575006 0.449378
0.453651 0.571771 0.460304
0.501488 0.567193 0.481453
0.536919 0.584985 0.463813
0.609125 0.605890 0.439857
0.702510 0.627100 0.410986
0.787350 0.643519 0.414221
0.526299 0.671656 0.559289
0.529595 0.670497 0.559716
0.546380 0.668269 0.565393
0.574578 0.666163 0.578668
0.598413 0.669123 0.585901
0.624384 0.681971 0.573388
0.671687 0.696162 0.554833
0.743618 0.721370 0.542351
0.600671 0.767239 0.655085
0.604028 0.767910 0.656947
0.614923 0.767544 0.661219
0.634821 0.767910 0.670771
0.658930 0.767727 0.684443
0.674952 0.775082 0.682918
0.701228 0.787533 0.673793
0.744594 0.800900 0.661463
0.026947 0.090242 0.128420
0.068269 0.091463 0.127596
0.137819 0.099825 0.124819
0.280491 0.074525 0.126925
0.453376 0.000000 0.124422
0.623072 0.000000 0.139223
0.747829 0.000000 0.171542
0.830808 0.107942 0.221988
0.056733 0.111452 0.136965
0.092073 0.113344 0.137758
0.149630 0.123018 0.139284
0.291081 0.113191 0.138521
0.456001 0.078767 0.130953
0.621149 0.000000 0.140200
0.743038 0.000000 0.171847
0.826810 0.142458 0.221561
0.000000 0.194553 0.182742
0.072358 0.197910 0.183108
0.183566 0.200443 0.182071
0.328740 0.206912 0.165530
0.493233 0.203372 0.155764
0.640436 0.196292 0.147646
0.749874 0.210300 0.183078
0.825956 0.258061 0.236484
0.134127 0.330297 0.255009
0.176364 0.330724 0.260227
0.260838 0.322545 0.277165
0.343511 0.344823 0.259098
0.527764 0.365667 0.213321
0.659663 0.358221 0.184237
0.754147 0.366583 0.206332
0.820859 0.391241 0.267277
0.281590 0.469947 0.357916
0.297459 0.468238 0.359686
0.357977 0.461555 0.373693
0.414618 0.465034 0.382086
0.500023 0.487434 0.352514
0.639582 0.511772 0.303990
0.740841 0.511467 0.263828
0.808804 0.521782 0.315587
0.410315 0.581292 0.458930
0.420569 0.581018 0.461860
0.456214 0.577447 0.471656
0.504906 0.572015 0.491127
0.539605 0.585748 0.480415
0.608118 0.606439 0.458930
0.700771 0.628931 0.433783
0.788418 0.645686 0.416938
0.527459 0.676112 0.567559
0.531273 0.675074 0.568139
0.547570 0.672358 0.572747
0.575586 0.669429 0.584253
0.601373 0.670161 0.594568
0.625940 0.683711 0.583581
0.672816 0.699672 0.568505
0.746120 0.726802 0.555566
0.597009 0.769406 0.657252
0.599481 0.768795 0.657771
0.610956 0.768276 0.661891
0.632746 0.769680 0.672541
0.657984 0.769406 0.686122
0.676387 0.776608 0.688624
0.702358 0.789609 0.680049
0.745663 0.803006 0.667811
0.016144 0.100343 0.184176
0.063111 0.103120 0.186679
0.153811 0.112184 0.194156
0.246067 0.127352 0.198459
0.432654 0.085542 0.208103
0.615808 0.000000 0.205081
0.741238 0.000000 0.196048
0.826596 0.147921 0.221775
0.030854 0.124361 0.201938
0.085298 0.126406 0.203861
0.167147 0.135042 0.209628
0.260777 0.150332 0.212894
0.448188 0.118196 0.217990
0.619684 0.049531 0.213230
0.741238 0.103365 0.203098
0.825772 0.181949 0.224613
0.020630 0.195499 0.239872
0.091005 0.198917 0.241611
0.190585 0.211582 0.250645
0.304417 0.228824 0.256779
0.488594 0.223087 0.255436
0.637324 0.230686 0.245731
0.751736 0.258946 0.239048
0.828855 0.287968 0.244694
0.000000 0.347478 0.322179
0.000000 0.349279 0.322210
0.224735 0.354009 0.321202
0.358343 0.359655 0.324437
0.522881 0.366522 0.296422
0.646296 0.373266 0.288334
0.745388 0.386297 0.278599
0.821134 0.401801 0.271244
0.236576 0.488960 0.395727
0.264775 0.487770 0.396674
0.355627 0.486091 0.407965
0.442176 0.479103 0.432929
0.512230 0.501823 0.410193
0.644800 0.524590 0.374273
0.737667 0.522423 0.345220
0.809140 0.530480 0.341039
0.410285 0.596063 0.487800
0.425757 0.598718 0.493202
0.460914 0.596551 0.498726
0.516197 0.591211 0.516197
0.553399 0.597345 0.518486
0.611383 0.614252 0.497871
0.700771 0.635889 0.476112
0.787411 0.650294 0.452461
0.525933 0.682216 0.581292
0.531212 0.682521 0.583062
0.546807 0.681605 0.586206
0.578241 0.679591 0.597803
0.610163 0.676936 0.614160
0.630396 0.689418 0.603754
0.673915 0.704250 0.588952
0.748531 0.732570 0.576837
0.591089 0.776669 0.665583
0.592767 0.776547 0.665431
0.604547 0.775967 0.668574
0.627955 0.775387 0.677394
0.656153 0.774533 0.690608
0.678462 0.778744 0.698756
0.703304 0.792233 0.690547
0.747555 0.806699 0.679408
0.000000 0.120027 0.269566
0.000000 0.122286 0.273106
0.151400 0.130220 0.283055
0.284306 0.144228 0.301030
0.398749 0.167178 0.300267
0.577813 0.158175 0.314458
0.726406 0.113863 0.302159
0.817807 0.214267 0.310307
0.000000 0.141085 0.284367
0.022400 0.143557 0.287633
0.164462 0.151858 0.296635
0.296483 0.167483 0.312016
0.409064 0.190463 0.311131
0.584283 0.183658 0.322606
0.728359 0.155093 0.308904
0.816800 0.238285 0.315831
0.000000 0.211704 0.316991
0.081697 0.214481 0.321111
0.192599 0.225284 0.332341
0.331395 0.248783 0.347784
0.436072 0.269993 0.345769
0.599756 0.260807 0.346532
0.727108 0.277012 0.343389
0.811093 0.310521 0.333745
0.016571 0.322789 0.371954
0.110414 0.325933 0.373083
0.222751 0.339483 0.379614
0.366583 0.367742 0.398383
0.492195 0.382727 0.403906
0.626032 0.388312 0.396216
0.727382 0.402960 0.385840
0.806149 0.415900 0.370764
0.105287 0.488960 0.454139
0.156435 0.490944 0.455177
0.269596 0.497841 0.458717
0.419898 0.499794 0.460548
0.513054 0.505974 0.463264
0.635981 0.515007 0.436103
0.721309 0.519951 0.429419
0.796689 0.527398 0.418769
0.336919 0.596704 0.507591
0.353063 0.596704 0.508385
0.409003 0.594842 0.510887
0.492775 0.594079 0.524254
0.553857 0.591547 0.544182
0.607660 0.613794 0.531884
0.700252 0.636439 0.515068
0.784878 0.644984 0.493965
0.486610 0.684779 0.586175
0.492592 0.684138 0.586572
0.517601 0.683131 0.590539
0.561761 0.684291 0.602991
0.604364 0.682155 0.618830
0.630030 0.688991 0.621057
0.671351 0.703822 0.607019
0.749569 0.731899 0.593408
0.554864 0.774472 0.661646
0.559075 0.774380 0.662470
0.576928 0.774502 0.666529
0.607660 0.777951 0.676661
0.644312 0.777249 0.690272
0.678614 0.776944 0.709071
0.700618 0.790768 0.700252
0.744930 0.805112 0.687984
0.000000 0.145144 0.368353
0.000000 0.147433 0.371679
0.139132 0.155581 0.381353
0.293034 0.172244 0.403876
0.449439 0.193149 0.424292
0.552758 0.234379 0.413916
0.687098 0.272160 0.430579
0.795804 0.288823 0.429145
0.000000 0.162387 0.373754
0.000000 0.164553 0.375860
0.151461 0.172915 0.385657
0.297459 0.189731 0.405127
0.448798 0.212070 0.424506
0.550896 0.250828 0.415991
0.684962 0.283757 0.431861
0.793271 0.299290 0.430091
0.000000 0.229496 0.405219
0.030793 0.231174 0.408087
0.190829 0.241855 0.416907
0.329503 0.261631 0.431373
0.473426 0.291783 0.449958
0.566552 0.325261 0.443458
0.692775 0.345922 0.455024
0.791531 0.359289 0.449897
0.045563 0.326879 0.434241
0.113436 0.329351 0.434943
0.224521 0.344213 0.446479
0.369329 0.374884 0.473518
0.511772 0.415167 0.496773
0.590784 0.438758 0.493843
0.704097 0.442481 0.494972
0.788296 0.455909 0.489723
0.175937 0.454902 0.492256
0.201480 0.457099 0.493233
0.281376 0.465614 0.497688
0.391211 0.482765 0.507256
0.519738 0.514855 0.528771
0.614130 0.525322 0.531243
0.701320 0.533898 0.527092
0.779324 0.541955 0.518456
0.275608 0.600458 0.561975
0.294102 0.602502 0.563775
0.351324 0.605951 0.565972
0.435492 0.613092 0.570520
0.545006 0.614038 0.574365
0.610315 0.623285 0.580591
0.700343 0.633478 0.564996
0.777310 0.640467 0.558495
0.429328 0.693660 0.614405
0.439185 0.694209 0.615412
0.472145 0.694026 0.616876
0.525841 0.694240 0.621149
0.588159 0.696193 0.632410
0.635859 0.695399 0.649531
0.673304 0.710964 0.636286
0.760311 0.738552 0.622797
0.511070 0.779568 0.676112
0.514885 0.779110 0.675807
0.531792 0.779080 0.676570
0.565179 0.780819 0.680903
0.616327 0.783139 0.692470
0.668025 0.783200 0.711238
0.699306 0.791684 0.717830
0.744076 0.806699 0.704952
0.000000 0.173465 0.466377
0.000000 0.175784 0.469764
0.124269 0.183688 0.478798
0.294255 0.199832 0.497505
0.468513 0.228580 0.523369
0.597070 0.260960 0.536187
0.669154 0.318791 0.519066
0.747524 0.382513 0.527886
0.000000 0.186740 0.466804
0.000000 0.189212 0.470283
0.136812 0.197330 0.479042
0.296757 0.213046 0.495888
0.466041 0.242222 0.520775
0.591455 0.272282 0.532372
0.662470 0.325109 0.515190
0.743038 0.381231 0.523247
0.000000 0.241917 0.486275
0.000000 0.244236 0.488167
0.177920 0.253269 0.495644
0.323095 0.272557 0.511345
0.480751 0.306737 0.533898
0.599786 0.340673 0.547021
0.667689 0.386389 0.534936
0.744961 0.431464 0.543206
0.000000 0.326055 0.502251
0.052033 0.328283 0.504509
0.209018 0.340520 0.516472
0.349401 0.364630 0.534722
0.498756 0.402869 0.557000
0.611566 0.443488 0.574578
0.670802 0.476844 0.565942
0.744900 0.499519 0.569970
0.090639 0.429541 0.532860
0.128359 0.429877 0.532433
0.219364 0.434638 0.533684
0.331212 0.447181 0.540520
0.491920 0.489601 0.573632
0.610681 0.536919 0.597864
0.664271 0.558556 0.593591
0.746914 0.568170 0.598779
0.236728 0.560204 0.587701
0.252873 0.561303 0.588342
0.309453 0.565026 0.590478
0.394537 0.572442 0.594934
0.493294 0.585290 0.602350
0.606012 0.622156 0.626337
0.675380 0.637476 0.632624
0.756161 0.643183 0.631464
0.367559 0.684688 0.647028
0.376684 0.685695 0.647883
0.410864 0.687373 0.649256
0.468757 0.691554 0.652644
0.536004 0.699489 0.658900
0.614496 0.706966 0.665003
0.672969 0.715938 0.670954
0.764767 0.728725 0.658228
0.439338 0.784146 0.705776
0.445136 0.784390 0.705959
0.468696 0.786191 0.707424
0.508690 0.787778 0.708186
0.565057 0.789731 0.710201
0.635157 0.793332 0.719417
0.701289 0.794980 0.743862
0.744228 0.811032 0.731716
0.000000 0.209354 0.570520
0.000000 0.211490 0.572717
0.142977 0.218112 0.578607
0.314153 0.233280 0.592798
0.478950 0.262242 0.612482
0.629816 0.322332 0.635004
0.710262 0.358618 0.638544
0.747005 0.422156 0.612238
0.000000 0.219120 0.569299
0.000000 0.221378 0.571649
0.150698 0.228580 0.578149
0.315831 0.243931 0.591821
0.477943 0.273106 0.611261
0.627344 0.332097 0.633753
0.707240 0.366247 0.636896
0.744045 0.426093 0.610834
0.000000 0.260105 0.575036
0.000000 0.262242 0.576684
0.173190 0.270176 0.582757
0.329259 0.289891 0.597986
0.483833 0.321660 0.615778
0.624384 0.378943 0.636744
0.702724 0.412787 0.641199
0.739376 0.462776 0.618128
0.000000 0.322881 0.579370
0.000000 0.326055 0.582208
0.170718 0.335851 0.591028
0.330114 0.357336 0.604425
0.483894 0.393103 0.622675
0.618189 0.450782 0.643946
0.695460 0.487617 0.651575
0.733181 0.524834 0.634730
0.000000 0.392981 0.574426
0.000000 0.394110 0.575769
0.000000 0.399420 0.583795
0.279026 0.422095 0.603723
0.458381 0.461402 0.626612
0.600000 0.517510 0.649073
0.683772 0.564446 0.663996
0.726894 0.592096 0.656855
0.000000 0.518517 0.621027
0.000000 0.517937 0.620417
0.089601 0.516594 0.619104
0.251286 0.516106 0.618189
0.375189 0.517418 0.617884
0.571038 0.582544 0.656703
0.680934 0.646113 0.691402
0.730678 0.662745 0.689967
0.260105 0.650538 0.672908
0.271275 0.650568 0.672847
0.313237 0.650874 0.672724
0.381506 0.652430 0.673335
0.465187 0.656001 0.674678
0.552850 0.663630 0.678431
0.659785 0.701900 0.708370
0.737667 0.728450 0.722347
0.397894 0.764370 0.727413
0.402380 0.764645 0.727565
0.421576 0.766903 0.729305
0.456428 0.772580 0.733852
0.502678 0.781582 0.740841
0.570214 0.790707 0.747707
0.659480 0.803555 0.758450
0.740993 0.814389 0.770474
