20 Preset/Classic brown/【3】LUT video cho PR-AE-FCPX/Tone (6).cube
# Created by Adobe Lightroom plugin Export LUT (1.24.0)
# www.johnrellis.com/lightroom/exportlut.htm
# Preset: 人文电影-素材江湖07
# Color profile: E:\lut插件\exportlut.1.24\exportlut.lrplugin\color profiles\Rec709gamma2.4.icc
LUT_3D_SIZE 32
DOMAIN_MIN 0.0 0.0 0.0
DOMAIN_MAX 1.0 1.0 1.0
0.059541 0.087678 0.081971
0.059541 0.087678 0.081971
0.059541 0.087678 0.081971
0.059541 0.087678 0.081971
0.059541 0.087678 0.081971
0.059541 0.087678 0.081971
0.059541 0.087678 0.081971
0.088411 0.087282 0.081605
0.131899 0.082124 0.080446
0.185458 0.061555 0.078553
0.248417 0.014130 0.074159
0.321172 0.000000 0.067048
0.401282 0.000000 0.057008
0.483986 0.000000 0.043732
0.562768 0.000000 0.027649
0.632685 0.000000 0.010132
0.691371 0.000000 0.000000
0.738979 0.000000 0.000000
0.776913 0.000000 0.000000
0.806699 0.000000 0.000000
0.829892 0.000000 0.000000
0.848112 0.000000 0.000000
0.864500 0.000000 0.000000
0.877592 0.000000 0.000000
0.887694 0.000000 0.000000
0.895903 0.000000 0.000000
0.902678 0.000000 0.000000
0.909026 0.000000 0.000000
0.915618 0.000000 0.000000
0.923003 0.000000 0.000000
0.931609 0.000000 0.012696
0.941894 0.000000 0.083009
0.059541 0.087678 0.081971
0.059541 0.087678 0.081971
0.059541 0.087678 0.081971
0.059541 0.087678 0.081971
0.059541 0.087678 0.081971
0.059541 0.087678 0.081971
0.059541 0.087678 0.081971
0.086275 0.087556 0.081605
0.130129 0.082673 0.080446
0.182315 0.065217 0.078523
0.244327 0.020233 0.074189
0.316503 0.000000 0.067201
0.395697 0.000000 0.057191
0.478309 0.000000 0.043946
0.557122 0.000000 0.028168
0.627344 0.000000 0.010864
0.687495 0.000000 0.000000
0.735653 0.000000 0.000000
0.774258 0.000000 0.000000
0.804471 0.000000 0.000000
0.827970 0.000000 0.000000
0.846525 0.000000 0.000000
0.862882 0.000000 0.000000
0.876036 0.000000 0.000000
0.886198 0.000000 0.000000
0.894560 0.000000 0.000000
0.901457 0.000000 0.000000
0.907866 0.000000 0.000000
0.914397 0.000000 0.000000
0.921691 0.000000 0.000000
0.930175 0.000000 0.002808
0.940307 0.000000 0.073793
0.059541 0.087678 0.081971
0.059541 0.087678 0.081971
0.059541 0.087678 0.081971
0.059541 0.087678 0.081971
0.059541 0.087678 0.081971
0.059541 0.087678 0.081971
0.059541 0.087678 0.081971
0.088136 0.087953 0.081514
0.129915 0.085542 0.080079
0.181704 0.072450 0.077882
0.243168 0.031739 0.072847
0.314214 0.000000 0.065797
0.393164 0.000000 0.055421
0.475013 0.000000 0.042176
0.553857 0.000000 0.026184
0.624506 0.000000 0.008453
0.684596 0.000000 0.000000
0.733486 0.000000 0.000000
0.772396 0.000000 0.000000
0.802945 0.000000 0.000000
0.826810 0.000000 0.000000
0.845457 0.000000 0.000000
0.862058 0.000000 0.000000
0.875151 0.000000 0.000000
0.885344 0.000000 0.000000
0.893706 0.000000 0.000000
0.900694 0.000000 0.000000
0.907134 0.000000 0.000000
0.913664 0.000000 0.000000
0.920867 0.000000 0.000000
0.929229 0.000000 0.000000
0.939269 0.000000 0.064485
0.059541 0.087678 0.081971
0.059541 0.087678 0.081971
0.059541 0.087678 0.081971
0.059541 0.087678 0.081971
0.059541 0.087678 0.081971
0.059541 0.087678 0.081971
0.059541 0.087678 0.081971
0.090791 0.089326 0.081117
0.132052 0.089845 0.079194
0.183108 0.083680 0.075715
0.244388 0.050477 0.070069
0.314794 0.000000 0.062104
0.392767 0.000000 0.051179
0.474006 0.000000 0.037263
0.551812 0.000000 0.020813
0.621637 0.000000 0.002502
0.681697 0.000000 0.000000
0.730434 0.000000 0.000000
0.769528 0.000000 0.000000
0.800351 0.000000 0.000000
0.824521 0.000000 0.000000
0.843595 0.000000 0.000000
0.860258 0.000000 0.000000
0.873472 0.000000 0.000000
0.883940 0.000000 0.000000
0.892607 0.000000 0.000000
0.899809 0.000000 0.000000
0.906371 0.000000 0.000000
0.912993 0.000000 0.000000
0.920226 0.000000 0.000000
0.928496 0.000000 0.000000
0.938262 0.000000 0.060060
0.059541 0.087678 0.081971
0.059541 0.087678 0.081971
0.059541 0.087678 0.081971
0.059541 0.087678 0.081971
0.059541 0.087678 0.081971
0.059541 0.087678 0.081971
0.059541 0.087678 0.081971
0.094087 0.091890 0.080415
0.133913 0.096010 0.077363
0.184329 0.094942 0.071992
0.244785 0.083680 0.065003
0.314549 0.026001 0.055726
0.391455 0.000000 0.043671
0.472145 0.000000 0.028748
0.549554 0.000000 0.010773
0.619745 0.000000 0.000000
0.679927 0.000000 0.000000
0.728969 0.000000 0.000000
0.768093 0.000000 0.000000
0.798978 0.000000 0.000000
0.823117 0.000000 0.000000
0.842924 0.000000 0.000000
0.859281 0.000000 0.000000
0.872404 0.000000 0.000000
0.882963 0.000000 0.000000
0.891722 0.000000 0.000000
0.898955 0.000000 0.000000
0.905516 0.000000 0.000000
0.912108 0.000000 0.000000
0.919310 0.000000 0.000000
0.927520 0.000000 0.000000
0.937102 0.000000 0.051850
0.059541 0.087678 0.081971
0.059541 0.087678 0.081971
0.059541 0.087678 0.081971
0.059541 0.087678 0.081971
0.059541 0.087678 0.081971
0.059541 0.087678 0.081971
0.059541 0.087678 0.081971
0.099458 0.097993 0.078767
0.139864 0.105837 0.072663
0.189792 0.109194 0.065126
0.250034 0.105257 0.056062
0.319341 0.089662 0.044404
0.396399 0.003174 0.029969
0.476143 0.000000 0.012726
0.552636 0.000000 0.000000
0.622156 0.000000 0.000000
0.681392 0.000000 0.000000
0.729732 0.000000 0.000000
0.768399 0.000000 0.000000
0.798856 0.000000 0.000000
0.822690 0.000000 0.000000
0.843015 0.000000 0.000000
0.868040 0.000000 0.000000
0.879881 0.000000 0.000000
0.889189 0.000000 0.000000
0.896635 0.000000 0.000000
0.903166 0.000000 0.000000
0.909545 0.000000 0.000000
0.916289 0.000000 0.000000
0.923827 0.000000 0.000000
0.932555 0.000000 0.016663
0.942565 0.000000 0.091188
0.059541 0.087678 0.081971
0.059541 0.087678 0.081971
0.059541 0.087678 0.081971
0.059541 0.087678 0.081971
0.059541 0.087678 0.081971
0.059541 0.087678 0.081971
0.059541 0.087678 0.081971
0.095247 0.101747 0.077821
0.148379 0.122469 0.063478
0.205478 0.131868 0.050385
0.270329 0.134066 0.035981
0.342626 0.126894 0.019623
0.420233 0.104128 0.001038
0.498787 0.005341 0.000000
0.572320 0.000000 0.000000
0.637415 0.000000 0.000000
0.692958 0.000000 0.000000
0.737881 0.000000 0.000000
0.774258 0.000000 0.000000
0.803067 0.000000 0.000000
0.827573 0.000000 0.000000
0.847868 0.000000 0.000000
0.863737 0.000000 0.000000
0.876371 0.000000 0.000000
0.886381 0.000000 0.000000
0.894163 0.000000 0.000000
0.900847 0.000000 0.000000
0.907256 0.000000 0.000000
0.913939 0.000000 0.000000
0.921324 0.000000 0.000000
0.929808 0.000000 0.000000
0.939605 0.000000 0.078981
0.032258 0.105623 0.077699
0.032959 0.105287 0.077852
0.038361 0.104433 0.078126
0.046601 0.101991 0.078676
0.055543 0.099153 0.079316
0.063508 0.098878 0.079316
0.078096 0.103029 0.077974
0.093568 0.108095 0.075105
0.128511 0.125368 0.063722
0.194583 0.149325 0.040375
0.271275 0.165255 0.012879
0.346746 0.167178 0.000000
0.425025 0.158846 0.000000
0.501579 0.139376 0.000000
0.573846 0.102602 0.000000
0.637201 0.000000 0.000000
0.691402 0.000000 0.000000
0.735622 0.000000 0.000000
0.771450 0.000000 0.000000
0.801022 0.000000 0.000000
0.825925 0.000000 0.000000
0.845396 0.000000 0.000000
0.860960 0.000000 0.000000
0.873533 0.000000 0.000000
0.883696 0.000000 0.000000
0.891508 0.000000 0.000000
0.898314 0.000000 0.000000
0.904784 0.000000 0.000000
0.911467 0.000000 0.000000
0.918761 0.000000 0.000000
0.927184 0.000000 0.000000
0.936889 0.000000 0.058442
0.000000 0.137148 0.061799
0.000000 0.136843 0.061952
0.000000 0.135958 0.062379
0.000000 0.133303 0.063661
0.017517 0.129671 0.068788
0.052918 0.124483 0.077882
0.072206 0.127504 0.065614
0.097780 0.132845 0.061463
0.122713 0.139315 0.055604
0.169619 0.156954 0.038087
0.248569 0.183536 0.001465
0.342962 0.203525 0.000000
0.426917 0.209110 0.000000
0.506981 0.203067 0.000000
0.577111 0.188296 0.000000
0.638727 0.167300 0.000000
0.691188 0.138186 0.000000
0.734218 0.095949 0.000000
0.770230 0.000000 0.000000
0.800198 0.000000 0.000000
0.823697 0.000000 0.000000
0.842527 0.000000 0.000000
0.857877 0.000000 0.000000
0.870451 0.000000 0.000000
0.880613 0.000000 0.000000
0.888487 0.000000 0.000000
0.895415 0.000000 0.000000
0.901976 0.000000 0.000000
0.908721 0.000000 0.000000
0.916136 0.000000 0.000000
0.924468 0.000000 0.000000
0.934081 0.000000 0.039979
0.000000 0.176211 0.077852
0.000000 0.175814 0.078126
0.000000 0.174228 0.079561
0.000000 0.172000 0.083253
0.000000 0.167514 0.088350
0.036896 0.162448 0.093324
0.085908 0.157778 0.096223
0.099916 0.163821 0.083925
0.124117 0.171115 0.054627
0.159945 0.178775 0.021607
0.217685 0.195224 0.000000
0.307408 0.223056 0.000000
0.410620 0.245060 0.000000
0.498451 0.253391 0.000000
0.575128 0.254582 0.000000
0.639307 0.245243 0.000000
0.690272 0.231174 0.000000
0.734432 0.214664 0.000000
0.769863 0.194034 0.000000
0.798093 0.167239 0.000000
0.820615 0.132387 0.000000
0.838682 0.057252 0.000000
0.853666 0.000000 0.000000
0.866178 0.000000 0.000000
0.876188 0.000000 0.000000
0.884245 0.000000 0.000000
0.891386 0.000000 0.000000
0.898192 0.000000 0.000000
0.905089 0.000000 0.000000
0.912596 0.000000 0.000000
0.921019 0.000000 0.000000
0.930663 0.000000 0.015625
0.000000 0.221042 0.095857
0.000000 0.220768 0.095949
0.000000 0.219547 0.097139
0.000000 0.217166 0.100099
0.000000 0.213565 0.104341
0.000000 0.208164 0.109743
0.090639 0.200900 0.117006
0.112184 0.201389 0.113497
0.131624 0.209079 0.098146
0.163394 0.217746 0.066865
0.207401 0.226749 0.010803
0.273350 0.243198 0.000000
0.373327 0.269780 0.000000
0.476631 0.292119 0.000000
0.565850 0.304570 0.000000
0.634668 0.309056 0.000000
0.690394 0.306035 0.000000
0.733303 0.294682 0.000000
0.766537 0.278935 0.000000
0.793606 0.258915 0.000000
0.815549 0.235752 0.000000
0.833463 0.209262 0.000000
0.848600 0.178500 0.000000
0.861326 0.138216 0.000000
0.871366 0.097322 0.000000
0.879698 0.013581 0.000000
0.887144 0.000000 0.000000
0.894163 0.000000 0.000000
0.901366 0.000000 0.000000
0.908965 0.000000 0.000000
0.917510 0.066957 0.000000
0.927245 0.132815 0.000000
0.000000 0.274723 0.116243
0.000000 0.274479 0.116640
0.000000 0.273503 0.118105
0.000000 0.271244 0.120790
0.000000 0.267430 0.124941
0.000000 0.262669 0.131136
0.080079 0.256077 0.139254
0.132815 0.247898 0.148745
0.149172 0.254520 0.135164
0.174685 0.263371 0.115267
0.212985 0.273167 0.084932
0.265202 0.284031 0.000000
0.362615 0.320226 0.000000
0.469673 0.349187 0.000000
0.569757 0.368170 0.000000
0.650477 0.379706 0.000000
0.701686 0.379278 0.000000
0.742061 0.375219 0.000000
0.773953 0.360998 0.000000
0.798154 0.341131 0.000000
0.817960 0.319036 0.000000
0.834440 0.295079 0.000000
0.848417 0.269474 0.000000
0.859464 0.248600 0.000000
0.868803 0.229313 0.000000
0.876982 0.211521 0.000000
0.884428 0.197696 0.000000
0.891661 0.187808 0.000000
0.899016 0.184726 0.000000
0.906920 0.190188 0.000000
0.915740 0.203891 0.000000
0.925658 0.225834 0.000000
0.000000 0.344152 0.148409
0.000000 0.344060 0.148836
0.000000 0.342596 0.149966
0.000000 0.339849 0.152682
0.000000 0.336034 0.156985
0.000000 0.330449 0.162692
0.050843 0.324224 0.170840
0.146365 0.317144 0.181308
0.184512 0.314000 0.185977
0.204746 0.324895 0.168063
0.238651 0.337530 0.144350
0.287663 0.350713 0.109468
0.350408 0.364172 0.002716
0.431342 0.382177 0.000000
0.529198 0.407874 0.000000
0.615991 0.423651 0.000000
0.683284 0.428962 0.000000
0.728389 0.422614 0.000000
0.760647 0.414618 0.000000
0.786770 0.400153 0.000000
0.807919 0.380377 0.000000
0.824949 0.357702 0.000000
0.839322 0.335332 0.000000
0.851011 0.315801 0.000000
0.861021 0.297581 0.000000
0.869871 0.280980 0.000000
0.877836 0.267491 0.000000
0.885527 0.257633 0.000000
0.893278 0.252873 0.000000
0.901518 0.254063 0.000000
0.910521 0.262455 0.000000
0.920714 0.276860 0.000000
0.000000 0.410407 0.186709
0.000000 0.409857 0.186587
0.000000 0.408392 0.187655
0.000000 0.405982 0.190311
0.000000 0.402380 0.193942
0.000000 0.397498 0.199557
0.062867 0.391516 0.207187
0.164279 0.384558 0.216953
0.217472 0.376562 0.228733
0.243259 0.379644 0.222873
0.268223 0.390723 0.203098
0.306615 0.402686 0.176638
0.357305 0.414893 0.139956
0.419135 0.426307 0.067109
0.492744 0.439796 0.000000
0.576776 0.459449 0.000000
0.648981 0.470802 0.000000
0.704646 0.471443 0.000000
0.744930 0.462959 0.000000
0.772885 0.448798 0.000000
0.795590 0.432563 0.000000
0.814511 0.412970 0.000000
0.829496 0.393194 0.000000
0.841917 0.373785 0.000000
0.852598 0.355749 0.000000
0.861997 0.339300 0.000000
0.870603 0.325505 0.000000
0.878813 0.314702 0.000000
0.887022 0.308598 0.000000
0.895598 0.307774 0.000000
0.904997 0.312444 0.000000
0.915312 0.323888 0.000000
0.000000 0.469856 0.229923
0.000000 0.469398 0.229831
0.000000 0.468147 0.230716
0.000000 0.465705 0.232517
0.000000 0.462074 0.235538
0.000000 0.457404 0.239994
0.119234 0.452033 0.246525
0.194888 0.445624 0.255161
0.248356 0.438453 0.266178
0.291417 0.430823 0.279362
0.308049 0.440070 0.262303
0.336034 0.450385 0.241123
0.374395 0.460914 0.214328
0.422919 0.470771 0.178531
0.479530 0.479500 0.125368
0.543847 0.488777 0.000000
0.613214 0.502434 0.000000
0.673121 0.509667 0.000000
0.719692 0.506859 0.000000
0.756039 0.496437 0.000000
0.780606 0.480659 0.000000
0.801053 0.463905 0.000000
0.817868 0.445014 0.000000
0.832090 0.425360 0.000000
0.843381 0.407294 0.000000
0.853422 0.390845 0.000000
0.862638 0.376684 0.000000
0.871458 0.365667 0.000000
0.880247 0.358618 0.000000
0.889372 0.356512 0.000000
0.899229 0.360143 0.000000
0.910124 0.369177 0.000000
0.000000 0.518242 0.274113
0.000000 0.518181 0.274662
0.000000 0.517388 0.275547
0.000000 0.515618 0.277134
0.000000 0.513085 0.280339
0.109102 0.509667 0.284642
0.185489 0.505516 0.290929
0.240482 0.500816 0.298955
0.288304 0.495277 0.309270
0.329656 0.488930 0.321233
0.357763 0.486915 0.324559
0.375402 0.494514 0.306279
0.401648 0.502373 0.283238
0.436164 0.509606 0.255528
0.479042 0.516228 0.220493
0.528191 0.521569 0.172702
0.582879 0.527672 0.103609
0.639582 0.536492 0.000000
0.690089 0.540246 0.000000
0.730098 0.535241 0.000000
0.762234 0.523888 0.000000
0.786130 0.508049 0.000000
0.804623 0.490974 0.000000
0.819944 0.472724 0.000000
0.833158 0.454566 0.000000
0.844388 0.437690 0.000000
0.854185 0.423621 0.000000
0.863584 0.412299 0.000000
0.872953 0.404547 0.000000
0.882597 0.401160 0.000000
0.892882 0.402869 0.000000
0.904021 0.409644 0.000000
0.000000 0.557244 0.319493
0.000000 0.557061 0.319738
0.000000 0.556359 0.320500
0.102693 0.555230 0.321965
0.155520 0.553094 0.324651
0.202121 0.550500 0.328710
0.246189 0.547173 0.334081
0.288151 0.543267 0.341375
0.327733 0.538720 0.350072
0.364294 0.533379 0.360113
0.397650 0.527367 0.372168
0.414710 0.529870 0.365179
0.432044 0.536248 0.346960
0.456306 0.542077 0.324376
0.487434 0.547478 0.297581
0.525048 0.552148 0.263523
0.567590 0.556023 0.221561
0.614008 0.560052 0.169100
0.660639 0.564813 0.114534
0.703365 0.565881 0.000000
0.738216 0.559899 0.000000
0.766995 0.548150 0.000000
0.790036 0.532067 0.000000
0.806973 0.514763 0.000000
0.821225 0.497383 0.000000
0.833646 0.481086 0.000000
0.845365 0.465858 0.000000
0.855314 0.454597 0.000000
0.865202 0.446601 0.000000
0.875456 0.442481 0.000000
0.886351 0.442969 0.000000
0.897887 0.448463 0.000000
0.206027 0.588983 0.365942
0.208774 0.589075 0.366430
0.254398 0.598688 0.384558
0.266789 0.597772 0.386053
0.285252 0.596307 0.388251
0.307469 0.594141 0.391394
0.333806 0.591302 0.395483
0.362371 0.588128 0.401251
0.391516 0.584466 0.408392
0.420630 0.580255 0.416815
0.448066 0.575525 0.426551
0.472053 0.570855 0.436225
0.481209 0.575128 0.420874
0.495338 0.579187 0.402808
0.515038 0.582727 0.380835
0.540185 0.585901 0.354467
0.570397 0.588342 0.322271
0.605280 0.590417 0.283360
0.643702 0.592157 0.238987
0.680201 0.592615 0.207767
0.715938 0.591272 0.134035
0.745907 0.584070 0.000000
0.771145 0.571740 0.000000
0.792844 0.554955 0.000000
0.808988 0.537407 0.000000
0.822477 0.521019 0.000000
0.834501 0.506645 0.000000
0.846433 0.493904 0.000000
0.857450 0.484932 0.000000
0.868223 0.480262 0.000000
0.879515 0.479988 0.000000
0.891630 0.483803 0.000000
0.306584 0.615991 0.415015
0.310277 0.616663 0.416693
0.317571 0.617060 0.419043
0.328313 0.616999 0.421515
0.343084 0.616297 0.424628
0.359564 0.614893 0.427680
0.379644 0.612787 0.431525
0.401068 0.610193 0.436011
0.424475 0.607172 0.441962
0.448188 0.603815 0.448859
0.471626 0.600000 0.457008
0.493446 0.595880 0.466163
0.507774 0.594507 0.466621
0.516320 0.597925 0.452277
0.529107 0.601129 0.434913
0.546471 0.603998 0.414466
0.568536 0.606531 0.390051
0.595239 0.608576 0.360845
0.626123 0.610407 0.327062
0.660090 0.611749 0.286748
0.690730 0.610559 0.265415
0.722255 0.608637 0.213504
0.749020 0.601434 0.136446
0.772030 0.589502 0.000000
0.792538 0.573480 0.000000
0.809689 0.556176 0.000000
0.822995 0.541558 0.000000
0.835233 0.529625 0.000000
0.847715 0.520012 0.000000
0.860563 0.513725 0.000000
0.872465 0.512566 0.000000
0.884947 0.515526 0.000000
0.369940 0.633234 0.452644
0.372839 0.633783 0.454322
0.378515 0.634119 0.456336
0.386664 0.634119 0.458900
0.396979 0.633631 0.461585
0.409339 0.632502 0.464240
0.424048 0.630854 0.467353
0.440345 0.628870 0.471229
0.458381 0.626490 0.475990
0.477333 0.623713 0.481636
0.496223 0.620874 0.488380
0.514885 0.617456 0.495888
0.532067 0.613825 0.504021
0.539696 0.615076 0.497139
0.547539 0.617823 0.484077
0.558587 0.620386 0.468208
0.573693 0.622614 0.449378
0.592950 0.624628 0.427497
0.616144 0.626307 0.401129
0.643275 0.627710 0.370336
0.673274 0.628748 0.333959
0.699001 0.626398 0.317601
0.726406 0.623774 0.276616
0.750393 0.616541 0.221927
0.771756 0.605188 0.136538
0.791775 0.590509 0.000000
0.810758 0.573571 0.000000
0.824063 0.561547 0.000000
0.836759 0.552697 0.000000
0.850187 0.546593 0.000000
0.864775 0.543542 0.000000
0.878416 0.545037 0.000000
0.423926 0.647395 0.488380
0.426276 0.647822 0.489754
0.430365 0.648005 0.491585
0.435950 0.648005 0.493538
0.443610 0.647608 0.495827
0.452461 0.646723 0.498054
0.463539 0.645472 0.500694
0.475929 0.643824 0.503838
0.489876 0.641993 0.507774
0.504540 0.639948 0.512413
0.520043 0.637598 0.517815
0.535302 0.635065 0.523980
0.550134 0.632197 0.530816
0.562493 0.629786 0.535851
0.566857 0.632105 0.525902
0.573754 0.634394 0.514183
0.583612 0.636591 0.500175
0.596948 0.638636 0.484169
0.613672 0.640528 0.465309
0.633967 0.642267 0.443641
0.657679 0.643641 0.417670
0.684291 0.644739 0.386694
0.706050 0.641932 0.372595
0.729183 0.638636 0.341650
0.750637 0.631708 0.297948
0.770901 0.621698 0.238560
0.791287 0.609033 0.140932
0.812528 0.594232 0.000000
0.827176 0.585565 0.000000
0.841184 0.580743 0.000000
0.856352 0.578729 0.000000
0.872374 0.579553 0.118868
0.478889 0.661067 0.528283
0.480049 0.661128 0.528801
0.481758 0.661097 0.529534
0.485115 0.660792 0.530449
0.489723 0.660273 0.531548
0.495583 0.659510 0.533013
0.503136 0.658473 0.534966
0.512047 0.657252 0.537316
0.522332 0.655818 0.540429
0.534020 0.654231 0.544366
0.546014 0.652461 0.548760
0.558160 0.650507 0.553735
0.570062 0.648402 0.559075
0.581445 0.646052 0.564874
0.588190 0.645655 0.564233
0.592004 0.647486 0.555413
0.597772 0.649256 0.545159
0.606012 0.650935 0.533013
0.616907 0.652522 0.518761
0.630823 0.653925 0.502312
0.647822 0.655116 0.482795
0.667994 0.656062 0.459327
0.691066 0.656580 0.431586
0.709773 0.653346 0.417090
0.729519 0.649531 0.390967
0.749294 0.643366 0.353185
0.769345 0.634852 0.302037
0.790646 0.624475 0.227787
0.813413 0.612970 0.089631
0.830686 0.607080 0.065614
0.845884 0.605615 0.140261
0.862119 0.606592 0.184360
0.515618 0.669825 0.556756
0.516228 0.669917 0.557122
0.517693 0.669856 0.557671
0.520134 0.669612 0.558434
0.523400 0.669245 0.559411
0.527947 0.668666 0.560632
0.533593 0.667872 0.562127
0.540337 0.666957 0.564141
0.548272 0.665888 0.566735
0.557183 0.664637 0.569818
0.566552 0.663264 0.573388
0.576318 0.661830 0.577417
0.586084 0.660182 0.581811
0.595575 0.658442 0.586481
0.604608 0.656519 0.591516
0.607782 0.657527 0.586999
0.611200 0.659083 0.579553
0.616236 0.660578 0.570764
0.623285 0.662013 0.560540
0.632532 0.663355 0.548516
0.644190 0.664546 0.534569
0.658564 0.665522 0.517723
0.675715 0.666224 0.497810
0.695674 0.666621 0.473579
0.711727 0.662440 0.454688
0.728969 0.658747 0.433326
0.747860 0.653803 0.399939
0.768032 0.647272 0.355169
0.790738 0.639490 0.290776
0.814359 0.632288 0.221378
0.835355 0.628962 0.199405
0.851682 0.630457 0.235019
0.550256 0.677821 0.584955
0.550988 0.677943 0.585504
0.551995 0.677882 0.585840
0.553338 0.677638 0.586175
0.555444 0.677272 0.586603
0.558190 0.676722 0.587152
0.561761 0.676051 0.587945
0.566339 0.675227 0.589075
0.571771 0.674281 0.590570
0.578058 0.673213 0.592615
0.584955 0.672023 0.594934
0.592370 0.670771 0.597803
0.599939 0.669429 0.601038
0.607538 0.667933 0.604517
0.614801 0.666346 0.608148
0.620630 0.665248 0.610346
0.622400 0.666407 0.604517
0.625391 0.667628 0.597864
0.629816 0.668879 0.590356
0.635981 0.670100 0.581659
0.643915 0.671260 0.571618
0.653864 0.672267 0.559564
0.666133 0.673030 0.544854
0.680812 0.673518 0.527062
0.698329 0.673671 0.504753
0.712856 0.670832 0.491157
0.728237 0.667689 0.473732
0.746792 0.664240 0.443641
0.767880 0.659937 0.403021
0.792477 0.655055 0.345312
0.816526 0.652552 0.307805
0.841367 0.651759 0.280095
0.573175 0.683192 0.604456
0.573816 0.683253 0.604822
0.574701 0.683253 0.605310
0.575952 0.683101 0.605676
0.577600 0.682856 0.606195
0.580011 0.682521 0.606897
0.583124 0.682063 0.607843
0.586877 0.681483 0.609094
0.591394 0.680842 0.610559
0.596460 0.680140 0.612421
0.602075 0.679286 0.614618
0.607935 0.678370 0.616999
0.614008 0.677363 0.619562
0.620111 0.676265 0.622431
0.626001 0.675044 0.625330
0.631769 0.673762 0.628443
0.634791 0.673701 0.627497
0.636378 0.674678 0.622675
0.638972 0.675715 0.617182
0.642786 0.676783 0.610895
0.647944 0.677821 0.603723
0.654536 0.678798 0.595239
0.662837 0.679652 0.585199
0.673091 0.680323 0.572778
0.685603 0.680812 0.557671
0.700618 0.681117 0.538964
0.713832 0.679133 0.526604
0.728145 0.677150 0.512688
0.747066 0.676143 0.487587
0.769894 0.674922 0.451942
0.796323 0.674159 0.407416
0.821042 0.676173 0.390051
0.594842 0.688533 0.623377
0.595178 0.688563 0.623590
0.595697 0.688533 0.623835
0.596490 0.688411 0.624079
0.597772 0.688228 0.624445
0.599542 0.687922 0.624964
0.601801 0.687556 0.625666
0.604730 0.687098 0.626612
0.608057 0.686580 0.627741
0.611963 0.685969 0.629175
0.616236 0.685359 0.630823
0.620905 0.684627 0.632746
0.625696 0.683833 0.634821
0.630640 0.682948 0.637049
0.635462 0.682002 0.639429
0.640223 0.680964 0.641901
0.644739 0.679927 0.644556
0.645960 0.680598 0.641535
0.647547 0.681483 0.637568
0.649928 0.682460 0.632990
0.653285 0.683467 0.627863
0.657649 0.684443 0.621790
0.663325 0.685328 0.614557
0.670375 0.686183 0.605890
0.679194 0.686854 0.595300
0.689967 0.687434 0.582300
0.703120 0.687831 0.566369
0.715602 0.686854 0.554894
0.729610 0.686336 0.543481
0.749813 0.688014 0.521874
0.774777 0.690120 0.490608
0.800534 0.693843 0.469368
0.611475 0.693721 0.638697
0.611688 0.693751 0.638849
0.612085 0.693751 0.639033
0.612818 0.693690 0.639307
0.613947 0.693538 0.639704
0.615473 0.693385 0.640314
0.617670 0.693202 0.641230
0.620264 0.693019 0.642359
0.623407 0.692775 0.643824
0.626886 0.692500 0.645441
0.630762 0.692195 0.647272
0.634760 0.691829 0.649195
0.638849 0.691371 0.651240
0.642969 0.690852 0.653285
0.646998 0.690181 0.655299
0.650843 0.689448 0.657343
0.654536 0.688655 0.659388
0.657343 0.688228 0.660334
0.658381 0.689113 0.657649
0.659907 0.690059 0.654566
0.662135 0.691066 0.651057
0.665095 0.692103 0.646998
0.668910 0.693111 0.642176
0.673762 0.694118 0.636408
0.679835 0.695094 0.629419
0.687434 0.696010 0.620935
0.696712 0.696895 0.610590
0.708186 0.697688 0.597803
0.720546 0.698268 0.587762
0.735134 0.700008 0.578943
0.758022 0.705592 0.561181
0.784970 0.711879 0.538720
0.627710 0.701564 0.654871
0.627802 0.701564 0.654902
0.628077 0.701503 0.654963
0.628473 0.701411 0.655085
0.629267 0.701259 0.655299
0.630365 0.701045 0.655634
0.631739 0.700832 0.656123
0.633570 0.700557 0.656733
0.635737 0.700252 0.657527
0.638239 0.699916 0.658473
0.640986 0.699550 0.659571
0.644007 0.699123 0.660822
0.647181 0.698665 0.662165
0.650477 0.698116 0.663600
