20 Preset/Classic brown/【3】LUT video cho PR-AE-FCPX/Tone (6).cube
# Created by Adobe Lightroom plugin Export LUT (1.24.0)
# www.johnrellis.com/lightroom/exportlut.htm
# Preset: 人文电影-素材江湖07
# Color profile: E:\lut插件\exportlut.1.24\exportlut.lrplugin\color profiles\Rec709gamma2.4.icc
LUT_3D_SIZE 8
DOMAIN_MIN 0.000000 0.000000 0.000000
DOMAIN_MAX 0.903226 0.903226 0.903226
0.059541 0.087678 0.081971
0.059541 0.087678 0.081971
0.131899 0.082124 0.080446
0.401282 0.000000 0.057008
0.691371 0.000000 0.000000
0.829892 0.000000 0.000000
0.887694 0.000000 0.000000
0.915618 0.000000 0.000000
0.059541 0.087678 0.081971
0.059541 0.087678 0.081971
0.133913 0.096010 0.077363
0.391455 0.000000 0.043671
0.679927 0.000000 0.000000
0.823117 0.000000 0.000000
0.882963 0.000000 0.000000
0.912108 0.000000 0.000000
0.000000 0.137148 0.061799
0.017517 0.129671 0.068788
0.122713 0.139315 0.055604
0.426917 0.209110 0.000000
0.691188 0.138186 0.000000
0.823697 0.000000 0.000000
0.880613 0.000000 0.000000
0.908721 0.000000 0.000000
0.000000 0.344152 0.148409
0.000000 0.336034 0.156985
0.184512 0.314000 0.185977
0.350408 0.364172 0.002716
0.683284 0.428962 0.000000
0.807919 0.380377 0.000000
0.861021 0.297581 0.000000
0.893278 0.252873 0.000000
0.000000 0.557244 0.319493
0.155520 0.553094 0.324651
0.327733 0.538720 0.350072
0.432044 0.536248 0.346960
0.567590 0.556023 0.221561
0.738216 0.559899 0.000000
0.821225 0.497383 0.000000
0.865202 0.446601 0.000000
0.423926 0.647395 0.488380
0.443610 0.647608 0.495827
0.489876 0.641993 0.507774
0.550134 0.632197 0.530816
0.583612 0.636591 0.500175
0.657679 0.643641 0.417670
0.750637 0.631708 0.297948
0.827176 0.585565 0.000000
0.573175 0.683192 0.604456
0.577600 0.682856 0.606195
0.591394 0.680842 0.610559
0.614008 0.677363 0.619562
0.634791 0.673701 0.627497
0.647944 0.677821 0.603723
0.685603 0.680812 0.557671
0.747066 0.676143 0.487587
0.636408 0.710475 0.665339
0.637812 0.710231 0.665736
0.643488 0.709499 0.667597
0.653620 0.708248 0.671351
0.663996 0.703304 0.674067
0.673365 0.704616 0.673884
0.686366 0.710689 0.662745
0.714412 0.717250 0.639673
0.059541 0.087678 0.081971
0.059541 0.087678 0.081971
0.119234 0.081666 0.081147
0.371649 0.000000 0.050965
0.669917 0.000000 0.000000
0.819425 0.000000 0.000000
0.880735 0.000000 0.000000
0.910643 0.000000 0.000000
0.059541 0.087678 0.081971
0.059541 0.087678 0.081971
0.124453 0.090822 0.079377
0.373602 0.000000 0.040131
0.669856 0.000000 0.000000
0.817472 0.000000 0.000000
0.878111 0.000000 0.000000
0.908171 0.000000 0.000000
0.000000 0.144045 0.089143
0.002838 0.140993 0.091554
0.125612 0.142336 0.072511
0.400000 0.183932 0.000000
0.678401 0.156863 0.000000
0.814969 0.000000 0.000000
0.873899 0.000000 0.000000
0.904234 0.000000 0.000000
0.000000 0.342535 0.172000
0.000000 0.335760 0.172030
0.192782 0.310979 0.205447
0.333135 0.347082 0.109773
0.659632 0.405524 0.000000
0.796841 0.368994 0.000000
0.855589 0.292363 0.000000
0.889403 0.240177 0.000000
0.000000 0.555718 0.328618
0.139986 0.551141 0.332677
0.320897 0.535393 0.354467
0.426642 0.526696 0.356023
0.554955 0.545006 0.240665
0.731167 0.554040 0.000000
0.817990 0.495399 0.000000
0.863188 0.441138 0.000000
0.414466 0.645197 0.487404
0.429480 0.643854 0.490547
0.479347 0.638361 0.503014
0.543877 0.628870 0.526848
0.580377 0.632929 0.502586
0.654353 0.641260 0.427344
0.747524 0.630915 0.317784
0.826078 0.582544 0.000000
0.567895 0.682063 0.601495
0.570733 0.681392 0.601923
0.585351 0.679286 0.606317
0.609796 0.675807 0.616083
0.633387 0.672175 0.626764
0.646448 0.676417 0.603388
0.683955 0.679225 0.557061
0.744900 0.673884 0.487800
0.634516 0.708888 0.663874
0.636225 0.708949 0.664637
0.641962 0.708125 0.666468
0.652277 0.706935 0.670344
0.664851 0.704768 0.675593
0.673823 0.705043 0.675135
0.686091 0.710292 0.663569
0.713710 0.716762 0.641016
0.045014 0.086519 0.118471
0.069154 0.084871 0.118135
0.109010 0.079347 0.109102
0.331792 0.000000 0.117769
0.652674 0.000000 0.076753
0.817411 0.000000 0.000000
0.880613 0.000000 0.000000
0.910460 0.000000 0.000000
0.018830 0.091218 0.124392
0.040284 0.086183 0.126528
0.125124 0.071687 0.121157
0.338598 0.000000 0.123903
0.647547 0.000000 0.088594
0.814176 0.000000 0.000000
0.877897 0.000000 0.000000
0.908202 0.000000 0.000000
0.000000 0.152956 0.166354
0.000000 0.156741 0.167391
0.160769 0.183749 0.183169
0.387915 0.164004 0.150179
0.659022 0.058717 0.101167
0.810147 0.000000 0.000000
0.871946 0.000000 0.000000
0.902953 0.000000 0.000000
0.000000 0.373877 0.250858
0.000000 0.375036 0.252934
0.198856 0.372442 0.274418
0.365301 0.375097 0.248203
0.654749 0.409979 0.127657
0.786893 0.379675 0.000000
0.850004 0.327703 0.000000
0.888792 0.265812 0.000000
0.000000 0.566094 0.381292
0.090761 0.564508 0.387030
0.332799 0.556634 0.406439
0.465309 0.537499 0.436561
0.563256 0.554864 0.357702
0.723903 0.563287 0.244694
0.807187 0.513848 0.000000
0.861936 0.450080 0.000000
0.421546 0.647456 0.514061
0.441871 0.646571 0.519493
0.486519 0.642267 0.527001
0.549950 0.633234 0.546532
0.587976 0.632715 0.540154
0.649866 0.641047 0.484565
0.736507 0.635340 0.412299
0.813382 0.596704 0.242344
0.576104 0.682765 0.614588
0.577295 0.682399 0.613855
0.588861 0.680507 0.615778
0.612177 0.677058 0.623865
0.636835 0.672724 0.635828
0.648829 0.676417 0.619318
0.681605 0.679744 0.584680
0.738216 0.678126 0.535027
0.633478 0.709895 0.666407
0.634302 0.709560 0.666224
0.640284 0.708736 0.667964
0.651301 0.707973 0.672053
0.664393 0.705806 0.677119
0.674983 0.705562 0.678981
0.686793 0.711055 0.668696
0.713619 0.717586 0.649317
0.000000 0.079530 0.275517
0.000000 0.072847 0.280705
0.143862 0.018952 0.292149
0.317815 0.000000 0.274235
0.580133 0.000000 0.284123
0.791318 0.000000 0.251408
0.859495 0.000000 0.238102
0.898741 0.000000 0.152743
0.000000 0.087556 0.283268
0.000000 0.089174 0.286564
0.150546 0.087739 0.298985
0.330083 0.013184 0.287419
0.586755 0.000000 0.296330
0.789609 0.000000 0.263554
0.855772 0.000000 0.247684
0.896086 0.000000 0.161532
0.000000 0.168887 0.293004
0.000000 0.172488 0.293828
0.137118 0.193637 0.323430
0.361120 0.212772 0.329534
0.611749 0.211917 0.340032
0.775143 0.240604 0.330327
0.839933 0.278996 0.296727
0.885496 0.213352 0.201633
0.000000 0.354986 0.381262
0.000000 0.358984 0.382055
0.000000 0.381384 0.391455
0.433051 0.443610 0.434546
0.626184 0.428260 0.394385
0.746181 0.434150 0.370581
0.812131 0.426459 0.334508
0.862791 0.378973 0.248539
0.000000 0.586145 0.478035
0.000000 0.584344 0.476905
0.228428 0.579644 0.479622
0.491554 0.574792 0.509392
0.575708 0.573846 0.492256
0.705898 0.578576 0.442084
0.775906 0.551812 0.395697
0.828824 0.516381 0.330297
0.372076 0.655360 0.546075
0.402197 0.655268 0.550866
0.477546 0.651118 0.561700
0.561303 0.645624 0.582452
0.607538 0.638514 0.596002
0.647028 0.644953 0.561120
0.719539 0.644221 0.523369
0.786709 0.620508 0.448768
0.554589 0.685481 0.617731
0.561913 0.684993 0.619959
0.587671 0.683070 0.628443
0.615869 0.680507 0.637751
0.640772 0.676631 0.647517
0.653712 0.677394 0.642847
0.678676 0.680537 0.618982
0.729671 0.683497 0.588708
0.627161 0.712581 0.669795
0.629389 0.712398 0.670527
0.638087 0.711940 0.673457
0.648066 0.710994 0.675380
0.662867 0.708705 0.680079
0.676753 0.706386 0.685512
0.687617 0.712093 0.676539
0.713924 0.719265 0.661372
0.000000 0.081880 0.458625
0.000000 0.082277 0.463844
0.000000 0.070771 0.478737
0.402899 0.000000 0.505913
0.583825 0.000000 0.483253
0.726497 0.170138 0.468696
0.817533 0.235477 0.445563
0.852934 0.306310 0.421302
0.000000 0.113069 0.461250
0.000000 0.115541 0.466529
0.000000 0.119234 0.481880
0.407507 0.106905 0.507408
0.586328 0.025696 0.489326
0.721767 0.230014 0.476631
0.812161 0.277073 0.454658
0.847349 0.336034 0.432074
0.000000 0.201511 0.459113
0.000000 0.206363 0.465919
0.068086 0.224155 0.484840
0.411414 0.260563 0.512871
0.584863 0.283818 0.506462
0.702022 0.362005 0.499245
0.790799 0.386938 0.483772
0.823453 0.430121 0.473610
0.000000 0.334600 0.482155
0.000000 0.338750 0.482521
0.000000 0.358190 0.486732
0.401404 0.421057 0.528405
0.583032 0.470466 0.544213
0.686732 0.495888 0.541009
0.756863 0.511009 0.532647
0.796506 0.518273 0.515282
0.000000 0.531395 0.546410
0.000000 0.533837 0.547448
0.017273 0.543328 0.551598
0.418250 0.563226 0.564294
0.594324 0.599573 0.594415
0.673976 0.590906 0.574182
0.731350 0.588586 0.561120
0.778653 0.577142 0.535119
0.000000 0.659663 0.596704
0.154910 0.659480 0.597253
0.342657 0.655024 0.596002
0.499611 0.648890 0.599512
0.607568 0.646021 0.619379
0.644495 0.647883 0.614832
0.705104 0.650599 0.597681
0.758175 0.639460 0.570428
0.493690 0.689723 0.625574
0.502373 0.688960 0.626123
0.536919 0.686427 0.629786
0.591608 0.682887 0.640681
0.636988 0.679988 0.655177
0.657527 0.677333 0.661677
0.675563 0.680476 0.645533
0.723629 0.686610 0.626612
0.596094 0.713863 0.665888
0.599908 0.713497 0.666743
0.614221 0.712367 0.670222
0.636072 0.712245 0.676997
0.655604 0.711482 0.681941
0.674647 0.708644 0.688441
0.686885 0.711635 0.684871
0.711788 0.718441 0.671901
0.000000 0.128328 0.596735
0.000000 0.130526 0.599542
0.000000 0.137087 0.607324
0.391302 0.149691 0.622889
0.627070 0.229404 0.641016
0.721279 0.256504 0.619409
0.762722 0.397223 0.585504
0.790005 0.474708 0.577722
0.000000 0.154086 0.591943
0.000000 0.156680 0.594018
0.000000 0.166049 0.602777
0.392187 0.186648 0.618616
0.620417 0.261936 0.636774
0.714382 0.288060 0.616876
0.756985 0.413519 0.586206
0.786526 0.482856 0.579370
0.000000 0.242924 0.591363
0.000000 0.247166 0.593469
0.119387 0.265141 0.602564
0.406806 0.301244 0.616083
0.608148 0.378241 0.633448
0.695857 0.406134 0.620203
0.735592 0.488563 0.599847
0.770352 0.528618 0.595727
0.000000 0.343297 0.571862
0.000000 0.349737 0.575280
0.078279 0.380682 0.590936
0.414008 0.436713 0.614527
0.591730 0.504356 0.633539
0.670344 0.534417 0.631128
0.707424 0.574243 0.623896
0.748806 0.586023 0.620813
0.000000 0.488838 0.598566
0.000000 0.491005 0.598505
0.000000 0.500664 0.598962
0.366461 0.521294 0.602014
0.567163 0.576196 0.629084
0.651637 0.609430 0.641321
0.694453 0.619867 0.639643
0.735805 0.623072 0.636011
0.086641 0.617792 0.630671
0.177554 0.618982 0.631464
0.316381 0.621637 0.632441
0.453895 0.627649 0.635462
0.569909 0.639368 0.643244
0.652399 0.660395 0.661860
0.689937 0.657832 0.654383
0.731868 0.657069 0.647425
0.400153 0.692592 0.659144
0.415381 0.692287 0.659480
0.462959 0.690883 0.660029
0.533410 0.688594 0.661677
0.607843 0.684321 0.664149
0.658503 0.682979 0.674617
0.675502 0.683375 0.671321
0.725063 0.692653 0.661341
0.544091 0.718563 0.675288
0.548882 0.718044 0.675380
0.568719 0.716640 0.676631
0.600549 0.715053 0.679896
0.634882 0.713832 0.684718
0.665553 0.714076 0.691432
0.687587 0.712764 0.697261
0.711452 0.719692 0.684901
0.000000 0.199161 0.675929
0.000000 0.203128 0.677150
0.164126 0.217075 0.679927
0.404211 0.251316 0.684962
0.583246 0.324804 0.689693
0.698024 0.440558 0.692134
0.749325 0.442969 0.676051
0.755459 0.524407 0.644770
0.000000 0.217807 0.672358
0.000000 0.222568 0.673732
0.176852 0.236332 0.676753
0.403815 0.269932 0.681697
0.579706 0.340246 0.686763
0.693690 0.448737 0.689601
0.745022 0.449805 0.673732
0.753140 0.525811 0.643244
0.000000 0.293065 0.668177
0.000000 0.297002 0.669001
0.225589 0.313420 0.671748
0.418891 0.350500 0.676661
0.576623 0.415503 0.681605
0.680507 0.505455 0.685664
0.727596 0.511864 0.673610
0.738277 0.567102 0.652064
0.000000 0.377752 0.657282
0.000000 0.382940 0.658106
0.239445 0.409918 0.662379
0.425391 0.448371 0.668544
0.569665 0.504417 0.674922
0.664210 0.571008 0.681575
0.704616 0.581567 0.674830
0.720394 0.611566 0.663355
0.000000 0.458839 0.644556
0.000000 0.459541 0.643580
0.000000 0.464790 0.641199
0.349645 0.500572 0.651820
0.549371 0.561486 0.665858
0.647822 0.611170 0.676783
0.686915 0.627344 0.676326
0.707668 0.645228 0.674128
0.000000 0.576745 0.660639
0.000000 0.577600 0.660487
0.216770 0.580621 0.659632
0.372290 0.586816 0.658289
0.502281 0.598932 0.657191
0.631647 0.641138 0.673884
0.678187 0.663661 0.683375
0.708278 0.667567 0.684443
0.341039 0.660426 0.676051
0.357061 0.660731 0.676173
0.408881 0.661555 0.675959
0.486244 0.663630 0.675990
0.565454 0.667628 0.676997
0.631983 0.674983 0.681331
0.678920 0.689387 0.694575
0.722530 0.689326 0.689326
0.474861 0.715877 0.696468
0.481788 0.715694 0.696590
0.509392 0.715480 0.697414
0.550347 0.715206 0.698756
0.593774 0.716823 0.701686
0.637232 0.717159 0.701717
0.681727 0.720943 0.707912
0.713497 0.723995 0.704005
0.240696 0.324224 0.718471
0.267308 0.328710 0.718563
0.348302 0.342962 0.718318
0.463478 0.377539 0.718105
0.574884 0.433967 0.717281
0.660822 0.506401 0.716274
0.715908 0.568017 0.716365
0.746426 0.562615 0.705043
0.244755 0.335271 0.716732
0.271183 0.339818 0.716854
0.351476 0.354925 0.716762
0.463905 0.387976 0.716548
0.573754 0.442542 0.715846
0.659083 0.512596 0.714992
0.713924 0.572045 0.715206
0.744259 0.565606 0.703975
0.271489 0.384192 0.712337
0.292973 0.387762 0.712367
0.365850 0.401862 0.712215
0.473030 0.435676 0.712428
0.574212 0.483497 0.711849
0.654536 0.542351 0.711543
0.707637 0.595056 0.713375
0.735134 0.588312 0.703243
0.263584 0.441138 0.705501
0.294896 0.448035 0.705440
0.370642 0.463020 0.705470
0.473426 0.491890 0.705715
0.571588 0.533471 0.705959
0.648219 0.581262 0.707240
0.699733 0.624994 0.712062
0.722927 0.619928 0.703487
0.000000 0.467384 0.697292
0.000000 0.470863 0.697566
0.220798 0.484321 0.698024
0.427375 0.524895 0.698177
0.554955 0.568658 0.699184
0.637018 0.609155 0.702144
0.689967 0.644984 0.709499
0.712825 0.646876 0.704921
0.000000 0.546960 0.695277
0.000000 0.546746 0.694789
0.000000 0.546838 0.692988
0.258488 0.548608 0.689845
0.462959 0.572351 0.690272
0.617670 0.629206 0.696620
0.680262 0.662623 0.708492
0.709407 0.670100 0.711055
0.259098 0.631373 0.700984
0.274052 0.631495 0.700679
0.327672 0.632197 0.699580
0.408301 0.634333 0.697658
0.494881 0.638239 0.694667
0.574273 0.644587 0.691066
0.662287 0.673640 0.703456
0.711879 0.690700 0.721309
0.436316 0.694148 0.713069
0.442542 0.694118 0.712886
0.468818 0.694301 0.712367
0.513176 0.695064 0.711757
0.564538 0.696345 0.711055
0.612848 0.698756 0.711116
0.652094 0.705074 0.715877
0.720180 0.735988 0.746731
