20 Preset/Classic brown/【3】LUT video cho PR-AE-FCPX/Tone (12).cube
# Created by Adobe Lightroom plugin Export LUT (1.24.0)
# www.johnrellis.com/lightroom/exportlut.htm
# Preset: 人文电影-素材江湖13
# Color profile: E:\lut插件\exportlut.1.24\exportlut.lrplugin\color profiles\Rec709gamma2.4.icc
LUT_3D_SIZE 32
DOMAIN_MIN 0.0 0.0 0.0
DOMAIN_MAX 1.0 1.0 1.0
0.037385 0.067109 0.042054
0.037385 0.067109 0.042054
0.041352 0.066651 0.042023
0.061219 0.064424 0.041962
0.088167 0.063996 0.042481
0.101686 0.065095 0.047242
0.116670 0.065827 0.051759
0.133944 0.065278 0.057191
0.154208 0.062379 0.063478
0.177279 0.054994 0.068452
0.203372 0.041566 0.074342
0.232639 0.022522 0.079042
0.265110 0.000000 0.082643
0.300877 0.000000 0.087129
0.339452 0.000000 0.090181
0.380743 0.000000 0.093385
0.424384 0.000000 0.096986
0.469429 0.000000 0.101045
0.515251 0.000000 0.105837
0.561242 0.000000 0.111177
0.605951 0.000000 0.117494
0.658869 0.000000 0.126192
0.705074 0.000000 0.135073
0.744594 0.000000 0.145296
0.778561 0.000000 0.156283
0.808591 0.000000 0.168032
0.835691 0.000000 0.180758
0.860899 0.000000 0.194888
0.884703 0.000000 0.210178
0.907439 0.000000 0.227573
0.928985 0.000000 0.246342
0.949371 0.000000 0.267765
0.037385 0.067109 0.042054
0.037385 0.067109 0.042054
0.042634 0.067628 0.041871
0.061799 0.066621 0.041657
0.088258 0.066194 0.043305
0.101778 0.067262 0.048066
0.116213 0.068208 0.052613
0.133577 0.067689 0.058015
0.153231 0.065217 0.063172
0.175998 0.057069 0.068330
0.201755 0.045319 0.074067
0.230747 0.025727 0.079011
0.262547 0.000122 0.082612
0.298161 0.000000 0.087129
0.336278 0.000000 0.089815
0.377203 0.000000 0.093019
0.420752 0.000000 0.097108
0.465553 0.000000 0.101167
0.511528 0.000000 0.105623
0.557092 0.000000 0.111025
0.601770 0.000000 0.116854
0.653315 0.000000 0.125246
0.698695 0.000000 0.133883
0.738003 0.000000 0.143679
0.772152 0.000000 0.153964
0.802426 0.000000 0.165316
0.829892 0.000000 0.178073
0.855619 0.000000 0.191653
0.879881 0.000000 0.206699
0.903075 0.000000 0.223941
0.925109 0.000000 0.242893
0.946014 0.000000 0.264042
0.039612 0.071229 0.044831
0.040589 0.072206 0.045808
0.043732 0.074189 0.043214
0.066011 0.077302 0.042359
0.088624 0.078218 0.046174
0.101534 0.079042 0.049775
0.117067 0.079347 0.054292
0.134432 0.078279 0.059876
0.154177 0.073487 0.065339
0.177127 0.065126 0.069337
0.202426 0.053590 0.075105
0.231327 0.033997 0.079652
0.263188 0.008179 0.083253
0.298161 0.000000 0.087098
0.336095 0.000000 0.090181
0.376898 0.000000 0.093294
0.420142 0.000000 0.096925
0.464881 0.000000 0.101442
0.510430 0.000000 0.105928
0.556023 0.000000 0.111238
0.601343 0.000000 0.117250
0.652369 0.000000 0.125307
0.696620 0.000000 0.134096
0.735653 0.000000 0.143221
0.769589 0.000000 0.153506
0.799680 0.000000 0.164797
0.827268 0.000000 0.176944
0.853025 0.000000 0.190707
0.877531 0.000000 0.205875
0.900938 0.000000 0.222599
0.923064 0.000000 0.241611
0.944030 0.000000 0.262394
0.050507 0.085969 0.062287
0.050507 0.085969 0.062287
0.054170 0.085695 0.063416
0.061921 0.089662 0.056489
0.089021 0.091585 0.051728
0.102968 0.091096 0.055634
0.119081 0.090303 0.060426
0.137240 0.089021 0.063874
0.157259 0.086488 0.068177
0.180240 0.080995 0.072175
0.205844 0.069337 0.076905
0.234440 0.051698 0.080568
0.266117 0.025452 0.084169
0.300572 0.000000 0.087892
0.338109 0.000000 0.090608
0.378485 0.000000 0.094148
0.421149 0.000000 0.097688
0.465187 0.000000 0.101747
0.509850 0.000000 0.106508
0.554833 0.000000 0.111757
0.601099 0.000000 0.117922
0.649531 0.000000 0.125307
0.692805 0.000000 0.133608
0.731655 0.000000 0.143069
0.766171 0.000000 0.153292
0.797177 0.000000 0.164645
0.825650 0.000000 0.177340
0.851926 0.000000 0.191073
0.876799 0.000000 0.206516
0.900206 0.000000 0.223362
0.922179 0.000000 0.241978
0.942748 0.000000 0.262364
0.065278 0.096040 0.082795
0.066987 0.095979 0.083497
0.069062 0.095491 0.084993
0.068391 0.097475 0.082399
0.082124 0.101015 0.075319
0.102571 0.104250 0.066163
0.121675 0.103243 0.065248
0.140841 0.101167 0.068971
0.161532 0.098451 0.072419
0.184360 0.095277 0.076387
0.209995 0.090150 0.079286
0.238468 0.080293 0.082460
0.269963 0.055879 0.085939
0.304662 0.022217 0.089265
0.342016 0.000000 0.091890
0.382696 0.000000 0.095125
0.425391 0.000000 0.098970
0.469276 0.000000 0.103182
0.514031 0.000000 0.107698
0.558465 0.000000 0.113161
0.606012 0.000000 0.119661
0.652338 0.000000 0.127413
0.694423 0.000000 0.135500
0.732601 0.000000 0.144472
0.766751 0.000000 0.154879
0.797574 0.000000 0.166140
0.825620 0.000000 0.178988
0.851743 0.000000 0.192782
0.876280 0.000000 0.207675
0.899443 0.000000 0.224247
0.921111 0.000000 0.243046
0.941375 0.000000 0.263401
0.079500 0.106630 0.096681
0.079316 0.106630 0.097078
0.080812 0.106203 0.097505
0.083772 0.105989 0.099062
0.083864 0.110048 0.094911
0.096712 0.114809 0.088472
0.119936 0.119631 0.078584
0.144900 0.118959 0.074769
0.168521 0.116152 0.074708
0.192050 0.112306 0.078706
0.218326 0.108064 0.081514
0.247349 0.101778 0.084657
0.279088 0.092622 0.087953
0.313909 0.072572 0.090333
0.351995 0.026154 0.093599
0.392248 0.000000 0.096956
0.434974 0.000000 0.100465
0.478859 0.000000 0.105074
0.523125 0.000000 0.109895
0.567956 0.000000 0.115541
0.616327 0.000000 0.122316
0.660914 0.000000 0.129915
0.737209 0.000000 0.147799
0.771908 0.000000 0.158633
0.802152 0.000000 0.170443
0.828946 0.000000 0.183474
0.853666 0.000000 0.196536
0.876524 0.000000 0.211490
0.898039 0.000000 0.227420
0.918212 0.000000 0.244572
0.937133 0.000000 0.263310
0.954833 0.000000 0.283696
0.090608 0.121584 0.113832
0.090486 0.121584 0.114137
0.092378 0.121431 0.115023
0.093843 0.120699 0.116640
0.094026 0.122377 0.115480
0.098268 0.127840 0.108919
0.114229 0.133944 0.100191
0.144045 0.140627 0.091127
0.177554 0.141390 0.082094
0.206851 0.138064 0.082155
0.236728 0.133272 0.083497
0.267399 0.127565 0.087098
0.300633 0.119875 0.090059
0.336736 0.108797 0.093111
0.375250 0.092317 0.096284
0.415778 0.041932 0.100069
0.457893 0.000000 0.104280
0.500755 0.000000 0.109041
0.544244 0.000000 0.114260
0.594598 0.000000 0.121004
0.643793 0.000000 0.128908
0.689357 0.000000 0.137911
0.730251 0.000000 0.147951
0.766629 0.000000 0.159274
0.798520 0.000000 0.171542
0.826108 0.000000 0.184482
0.850767 0.000000 0.198184
0.873472 0.000000 0.212589
0.894743 0.000000 0.228397
0.914672 0.000000 0.244938
0.933410 0.000000 0.263279
0.950988 0.000000 0.283482
0.099641 0.137148 0.132357
0.100282 0.137118 0.132357
0.101472 0.136751 0.133120
0.103273 0.136110 0.134646
0.105928 0.135103 0.137392
0.105562 0.140169 0.132082
0.113619 0.146609 0.123598
0.133303 0.154025 0.113680
0.167544 0.162356 0.103151
0.205997 0.164981 0.092164
0.242222 0.162753 0.088258
0.279271 0.158083 0.088197
0.313878 0.151339 0.090394
0.350042 0.142824 0.093812
0.388434 0.131563 0.097627
0.428473 0.115908 0.101534
0.469734 0.092683 0.106172
0.511925 0.021515 0.110933
0.559442 0.000000 0.117220
0.606836 0.000000 0.124269
0.652186 0.000000 0.132387
0.694728 0.000000 0.141329
0.733150 0.000000 0.150912
0.767727 0.000000 0.162051
0.798367 0.000000 0.174563
0.825193 0.000000 0.187350
0.849302 0.000000 0.201053
0.871672 0.000000 0.215152
0.892546 0.000000 0.231174
0.912200 0.000000 0.247440
0.930632 0.000000 0.266331
0.948058 0.101167 0.286015
0.111635 0.155123 0.153964
0.111635 0.155123 0.153964
0.113436 0.154574 0.154604
0.115297 0.153994 0.156252
0.117891 0.153323 0.158663
0.118227 0.154696 0.158267
0.120668 0.161288 0.150698
0.131991 0.168978 0.141024
0.155764 0.177493 0.129488
0.194400 0.187594 0.117678
0.238254 0.191989 0.104738
0.281834 0.192050 0.095583
0.323674 0.187961 0.092927
0.367315 0.180911 0.093751
0.405859 0.172152 0.098268
0.445319 0.161105 0.103182
0.486030 0.147463 0.108217
0.532341 0.130922 0.113863
0.577691 0.108705 0.120699
0.621485 0.063996 0.128206
0.663630 0.000000 0.135897
0.702846 0.000000 0.145296
0.738643 0.000000 0.155123
0.771145 0.000000 0.166598
0.800168 0.000000 0.178836
0.825864 0.000000 0.191928
0.849302 0.000000 0.205325
0.870970 0.000000 0.219883
0.891417 0.023926 0.235569
0.910491 0.109712 0.252354
0.928496 0.150454 0.270848
0.945556 0.187869 0.290776
0.125216 0.175906 0.178286
0.125612 0.175875 0.178470
0.126741 0.175448 0.178836
0.129213 0.174899 0.180331
0.131930 0.173770 0.182193
0.134920 0.172580 0.185306
0.134127 0.177676 0.179904
0.138857 0.185641 0.171511
0.153872 0.194247 0.160983
0.181430 0.203677 0.147524
0.223667 0.215183 0.134798
0.272313 0.221592 0.120363
0.324407 0.224216 0.107576
0.370184 0.221256 0.099702
0.419257 0.215946 0.099397
0.466621 0.209262 0.103334
0.510918 0.200900 0.109987
0.554528 0.190555 0.116732
0.597009 0.179995 0.124178
0.638117 0.168795 0.131807
0.676631 0.157809 0.140108
0.711635 0.148013 0.149050
0.743709 0.141360 0.159060
0.773098 0.136660 0.170474
0.799802 0.137118 0.182650
0.824247 0.140841 0.195315
0.846983 0.150118 0.208743
0.868315 0.162448 0.223728
0.888457 0.179416 0.239689
0.907500 0.199557 0.256718
0.925444 0.222110 0.275669
0.942382 0.247532 0.295964
0.141299 0.198245 0.203464
0.141787 0.198062 0.203616
0.142885 0.197818 0.204166
0.145144 0.197482 0.205539
0.148135 0.196750 0.207584
0.151797 0.195529 0.210452
0.152895 0.196384 0.211490
0.153140 0.204349 0.203708
0.161410 0.213260 0.194430
0.180270 0.223209 0.182284
0.210941 0.233707 0.167910
0.256718 0.246769 0.154055
0.312383 0.256504 0.138979
0.372137 0.262425 0.124178
0.426307 0.262913 0.113619
0.479225 0.261265 0.108949
0.533532 0.257481 0.109407
0.575097 0.250675 0.117189
0.614527 0.243839 0.125765
0.652277 0.237095 0.134463
0.687465 0.231479 0.143313
0.719356 0.226993 0.153170
0.749111 0.224277 0.164096
0.776730 0.223301 0.175174
0.801938 0.224643 0.187869
0.825254 0.227420 0.201144
0.847105 0.233097 0.215122
0.867643 0.241062 0.230259
0.887175 0.251957 0.246464
0.905638 0.266056 0.264042
0.923033 0.282811 0.283177
0.939544 0.302495 0.303532
0.160739 0.224002 0.231388
0.161135 0.223850 0.231540
0.162142 0.223758 0.232212
0.164523 0.223301 0.233371
0.167575 0.222660 0.235203
0.171389 0.221897 0.238010
0.175387 0.220981 0.241764
0.174685 0.225895 0.238346
0.177554 0.235691 0.229953
0.189609 0.246860 0.220035
0.213260 0.258976 0.207767
0.249149 0.271977 0.192874
0.320439 0.304479 0.187289
0.385840 0.318730 0.169955
0.452216 0.328191 0.152193
0.513390 0.332860 0.136904
0.566735 0.333898 0.125338
0.618067 0.333684 0.127382
0.661433 0.331975 0.132876
0.693538 0.327031 0.144961
0.722866 0.322484 0.156497
0.749569 0.318944 0.167849
0.774411 0.316442 0.180423
0.797665 0.315251 0.192874
0.819333 0.315587 0.206455
0.839628 0.317021 0.220188
0.858640 0.320134 0.234348
0.876677 0.324956 0.249454
0.893797 0.331609 0.265324
0.910124 0.340856 0.282811
0.925811 0.352575 0.301457
0.940917 0.367590 0.321904
0.190585 0.261601 0.269078
0.190555 0.261601 0.269169
0.191897 0.261295 0.269566
0.194034 0.260624 0.270542
0.197421 0.259739 0.272251
0.201663 0.258946 0.274815
0.206210 0.258152 0.278416
0.209903 0.258183 0.282017
0.208682 0.268345 0.274418
0.214939 0.280400 0.265415
0.231205 0.294102 0.254582
0.260472 0.309300 0.241917
0.303441 0.325383 0.225834
0.361395 0.343847 0.210178
0.429297 0.361334 0.193484
0.496284 0.372961 0.174563
0.558770 0.381048 0.155764
0.607874 0.383368 0.145327
0.653864 0.385260 0.142336
0.694820 0.385962 0.146700
0.724178 0.381903 0.158114
0.749264 0.377447 0.171450
0.772976 0.374151 0.184329
0.795224 0.372442 0.198428
0.816251 0.371649 0.212314
0.836179 0.372137 0.226596
0.854887 0.374334 0.241642
0.872709 0.377813 0.257084
0.889647 0.382971 0.273503
0.905852 0.390631 0.291752
0.921355 0.400458 0.310857
0.936278 0.412757 0.331731
0.220310 0.297551 0.301884
0.220279 0.297246 0.301701
0.221164 0.296605 0.301915
0.223117 0.295567 0.302434
0.226169 0.294469 0.303532
0.230137 0.292973 0.305547
0.234745 0.291691 0.308415
0.239506 0.290562 0.312505
0.239811 0.295445 0.310826
0.240848 0.307256 0.302708
0.250217 0.320775 0.293339
0.270420 0.335821 0.281865
0.302831 0.351812 0.268040
0.347509 0.367987 0.250858
0.403876 0.385443 0.234104
0.471412 0.404150 0.217075
0.535698 0.416815 0.197635
0.594751 0.426429 0.179171
0.641688 0.431006 0.166903
0.681910 0.433295 0.159976
0.718044 0.434516 0.167086
0.749538 0.434058 0.176944
0.772091 0.430213 0.191287
0.793698 0.427619 0.205814
0.814145 0.426184 0.220737
0.833402 0.425696 0.236027
0.851774 0.426703 0.251194
0.869169 0.428687 0.267460
0.885710 0.432624 0.284428
0.901671 0.438453 0.302861
0.916930 0.446387 0.322637
0.931670 0.456397 0.344366
0.252293 0.333745 0.332403
0.252110 0.333562 0.332433
0.253086 0.332860 0.332372
0.254551 0.331792 0.332830
0.257267 0.330236 0.333562
0.260716 0.328405 0.334997
0.265537 0.326970 0.337469
0.270634 0.325628 0.340978
0.276036 0.324498 0.345556
0.273838 0.335485 0.338903
0.277409 0.348577 0.330419
0.289708 0.363500 0.320378
0.312840 0.379095 0.308507
0.346899 0.394934 0.293858
0.391394 0.410346 0.275669
0.445167 0.426215 0.257877
0.510338 0.445533 0.241215
0.570825 0.459083 0.221744
0.624842 0.469612 0.205142
0.669337 0.475288 0.190921
0.705226 0.477546 0.183658
0.738125 0.479469 0.191440
0.768551 0.481025 0.202243
0.792020 0.479500 0.216403
0.811795 0.476844 0.232029
0.830625 0.475776 0.247379
0.848600 0.475685 0.263676
0.865721 0.477058 0.280583
0.882170 0.479896 0.298589
0.897978 0.484749 0.318334
0.913298 0.491585 0.339147
0.928008 0.500328 0.362097
0.285008 0.369146 0.360815
0.285344 0.369360 0.360967
0.286412 0.368811 0.361273
0.288273 0.368261 0.361975
0.291112 0.367132 0.362829
0.295048 0.366155 0.364660
0.300298 0.365332 0.367285
0.306126 0.364477 0.370855
0.312444 0.363989 0.375555
0.314641 0.368048 0.376318
0.313817 0.380438 0.368566
0.319066 0.393866 0.358862
0.332982 0.407843 0.347662
0.356451 0.421973 0.334051
0.389715 0.436225 0.318120
0.432105 0.449683 0.298833
0.482704 0.464118 0.280705
0.543938 0.483253 0.264866
0.599939 0.497353 0.247257
0.649073 0.507500 0.231937
0.692103 0.514702 0.217380
0.725307 0.517510 0.213413
0.755886 0.520256 0.219547
0.784604 0.522789 0.232517
0.810300 0.524743 0.247013
0.828702 0.522972 0.263310
0.846189 0.522148 0.280400
0.862913 0.522606 0.298100
0.878965 0.524254 0.316411
0.894347 0.527581 0.336400
0.909178 0.532464 0.357488
0.923430 0.539361 0.380468
0.318822 0.404578 0.388251
0.318914 0.404578 0.388373
0.319799 0.404242 0.388678
0.321843 0.403784 0.389380
0.324590 0.403113 0.390478
0.328527 0.402258 0.392157
0.333562 0.401556 0.394751
0.339544 0.400793 0.398016
0.345861 0.400397 0.402319
0.352056 0.400031 0.407263
0.350469 0.409155 0.402655
0.351385 0.421790 0.394232
0.358740 0.435157 0.384039
0.373938 0.448676 0.372015
0.398230 0.462196 0.358068
0.431159 0.475380 0.341711
0.471778 0.487922 0.322240
0.519158 0.501488 0.304326
0.575677 0.520256 0.289952
0.626337 0.533379 0.274357
0.671595 0.543236 0.260899
0.711788 0.550591 0.249149
0.743954 0.554620 0.244724
0.772763 0.557763 0.251560
0.799588 0.560906 0.266423
0.824521 0.564111 0.282658
0.843778 0.564477 0.300175
0.860044 0.564202 0.318395
0.875761 0.565148 0.337407
0.890837 0.567437 0.357610
0.905272 0.571405 0.379675
0.919310 0.576959 0.402991
0.355169 0.441932 0.417151
0.355535 0.442145 0.417365
0.373236 0.458869 0.430884
0.374945 0.458625 0.431586
0.377752 0.457862 0.432715
0.381201 0.457038 0.434180
0.385809 0.456031 0.436347
0.391180 0.455268 0.439277
0.397284 0.454627 0.443153
0.403510 0.454047 0.447791
0.407263 0.456062 0.450477
0.404730 0.467720 0.442451
0.406622 0.479500 0.432685
0.414801 0.491524 0.421271
0.430274 0.503258 0.407660
0.453681 0.514794 0.392279
0.484199 0.525597 0.374823
0.521324 0.536126 0.354681
0.563317 0.547265 0.336217
0.611872 0.562463 0.323064
0.656794 0.573846 0.310277
0.697383 0.582452 0.298405
0.733700 0.589136 0.289738
0.765011 0.593408 0.284123
0.791226 0.595941 0.290929
0.815274 0.598657 0.306950
0.837888 0.601190 0.324193
0.857969 0.603265 0.342718
0.872862 0.603143 0.361486
0.887327 0.604364 0.381811
0.901366 0.607263 0.404059
0.915007 0.611780 0.427832
0.396307 0.483436 0.449714
0.398138 0.484962 0.450996
0.400427 0.486458 0.452613
0.403510 0.487648 0.454414
0.407294 0.488197 0.456397
0.411048 0.488014 0.458289
0.415290 0.487312 0.460334
0.420264 0.486458 0.462959
0.425940 0.485817 0.466407
0.431861 0.485328 0.470680
0.437751 0.484840 0.475593
0.437324 0.491493 0.473121
0.436042 0.502525 0.464424
0.439643 0.513695 0.454200
0.449012 0.524895 0.442542
0.465217 0.535912 0.429145
0.488289 0.546593 0.413947
0.517815 0.557000 0.397131
0.552667 0.567041 0.378058
0.591028 0.577203 0.361181
0.634852 0.590845 0.349889
0.676539 0.602350 0.340185
0.714534 0.610895 0.330114
0.748745 0.617792 0.323949
0.779873 0.622736 0.317113
0.804318 0.625544 0.326116
0.826688 0.628443 0.344244
0.847868 0.631617 0.363470
0.867918 0.635248 0.384894
0.883207 0.636896 0.406195
0.896941 0.639063 0.428443
0.910216 0.642817 0.452613
0.428962 0.515801 0.476051
0.430732 0.517266 0.477546
0.433173 0.518853 0.479194
0.436194 0.520134 0.481086
0.439612 0.520806 0.483131
0.443061 0.520897 0.484962
0.447059 0.520348 0.486946
0.451575 0.519738 0.489418
0.456733 0.519097 0.492561
0.462043 0.518456 0.496376
0.467781 0.518181 0.500969
0.472877 0.518151 0.505821
0.469551 0.528252 0.498054
0.470039 0.538567 0.489082
0.474891 0.549035 0.478889
0.485237 0.559319 0.467109
0.501457 0.569268 0.453773
0.523522 0.578882 0.438941
0.550744 0.588159 0.422644
0.582605 0.597284 0.404791
0.617151 0.606073 0.388800
0.656306 0.618006 0.379217
0.694820 0.629145 0.371893
0.730556 0.637751 0.364050
0.762722 0.644617 0.359472
0.792569 0.649683 0.354162
0.816342 0.653040 0.363928
0.837461 0.656306 0.383948
0.857359 0.660212 0.406287
0.876280 0.664759 0.430426
0.892607 0.668849 0.455573
0.905486 0.671931 0.479896
0.462318 0.548363 0.504479
0.463783 0.549737 0.505821
0.466041 0.551019 0.507378
0.468605 0.552209 0.509178
0.471504 0.552880 0.511040
0.474556 0.552789 0.512749
0.478187 0.552544 0.514702
0.482277 0.551995 0.517082
0.486946 0.551568 0.520104
0.491890 0.551080 0.523583
0.497230 0.550866 0.527916
0.502403 0.550622 0.532952
0.503410 0.554528 0.532891
0.501549 0.563745 0.524834
0.503227 0.573236 0.515892
0.509178 0.582727 0.505608
0.520073 0.592248 0.494453
0.536309 0.601648 0.482124
0.557580 0.611048 0.468727
0.583551 0.620203 0.454078
0.613336 0.629236 0.438209
0.645197 0.637720 0.424292
0.680201 0.648310 0.416754
0.716274 0.659724 0.412848
0.749630 0.668635 0.408209
0.779934 0.675532 0.405615
0.807980 0.680751 0.403632
0.831632 0.684962 0.415686
0.851164 0.689235 0.439857
0.869718 0.694087 0.465644
0.887053 0.699702 0.493629
0.903349 0.705928 0.522911
0.503502 0.587579 0.542962
0.504204 0.588067 0.543542
0.505058 0.588281 0.544152
0.506371 0.588403 0.545037
0.508110 0.588281 0.545983
0.510369 0.587884 0.547173
0.513054 0.587427 0.548669
0.516350 0.586847 0.550683
0.520287 0.586511 0.553368
0.524681 0.586267 0.556725
0.529381 0.586145 0.560693
0.534081 0.586114 0.565240
0.538354 0.586053 0.570245
0.536889 0.592767 0.565454
0.536217 0.600916 0.557702
0.538781 0.609186 0.548821
0.544945 0.617456 0.539117
0.555413 0.625727 0.528161
0.570214 0.633845 0.515892
0.589563 0.641840 0.502617
0.612696 0.649622 0.488197
0.639368 0.657191 0.472511
0.667659 0.664210 0.458717
0.698665 0.672908 0.450843
0.731899 0.683619 0.448341
0.763027 0.692195 0.445930
0.791775 0.698970 0.444831
0.818509 0.704463 0.445594
0.842008 0.709590 0.460792
0.860410 0.714595 0.487373
0.877684 0.720211 0.515709
0.894011 0.726253 0.544701
0.532921 0.615747 0.573388
0.533410 0.616114 0.573907
0.534295 0.616449 0.574609
0.535363 0.616541 0.575372
0.536858 0.616541 0.576226
0.538689 0.616297 0.577386
0.541070 0.615961 0.578790
0.543969 0.615564 0.580682
0.547356 0.615351 0.583093
0.551141 0.615198 0.586084
0.555322 0.615198 0.589715
0.559503 0.615259 0.593866
0.563531 0.615320 0.598413
0.565789 0.617121 0.600824
0.564263 0.624475 0.594537
0.564874 0.631891 0.587366
0.568353 0.639521 0.579400
0.574975 0.647089 0.570459
0.585321 0.654566 0.560571
0.599451 0.662104 0.549737
0.617304 0.669490 0.537682
0.638575 0.676722 0.524315
0.662959 0.683772 0.509453
0.688960 0.690303 0.496681
0.714412 0.694667 0.483864
0.745235 0.704829 0.483131
0.774563 0.713436 0.483192
0.802121 0.720302 0.483589
0.827604 0.726314 0.488594
0.851133 0.732265 0.505730
0.868620 0.738003 0.534569
0.885100 0.744167 0.563684
0.564019 0.646235 0.608667
0.564721 0.646876 0.609430
0.565393 0.647089 0.610010
0.565972 0.646967 0.610376
0.566827 0.646448 0.610681
0.567895 0.645808 0.611078
0.569177 0.645014 0.611627
0.571069 0.644160 0.612604
0.573388 0.643336 0.614038
0.576165 0.642756 0.616083
0.579095 0.642206 0.618585
0.582483 0.641810 0.621759
0.585840 0.641505 0.625391
0.588861 0.641260 0.629389
0.588342 0.644831 0.627131
0.587152 0.650935 0.620417
0.588159 0.657343 0.613214
0.591974 0.664057 0.605524
0.598840 0.671015 0.597253
0.609186 0.678187 0.588464
0.622858 0.685389 0.578637
0.639673 0.692439 0.567742
0.659327 0.699092 0.555657
0.681605 0.705348 0.541588
0.705226 0.710933 0.528893
0.730220 0.716945 0.520775
0.758511 0.726314 0.521202
0.785977 0.734554 0.522759
0.812314 0.741329 0.524407
0.836454 0.747799 0.534813
0.858946 0.754269 0.553765
0.876616 0.760525 0.580865
0.586175 0.668849 0.635889
0.586786 0.669368 0.636591
0.587457 0.669673 0.637232
0.588128 0.669764 0.637751
0.589075 0.669581 0.638331
0.590326 0.669337 0.639094
0.591943 0.669123 0.640131
0.593988 0.668879 0.641596
0.596460 0.668757 0.643488
0.599237 0.668666 0.645838
0.602258 0.668605 0.648524
0.605432 0.668605 0.651667
0.608576 0.668544 0.655055
0.611597 0.668452 0.658747
0.614099 0.668360 0.662531
0.612268 0.673793 0.656886
0.611994 0.679438 0.650752
0.613764 0.685389 0.644160
0.618067 0.691707 0.637201
0.625208 0.698268 0.629877
0.635157 0.704921 0.621973
0.648005 0.711543 0.613245
0.663508 0.717983 0.603418
0.681666 0.724086 0.592309
0.702144 0.729854 0.579675
0.723934 0.735042 0.568475
0.746487 0.740230 0.561273
0.772671 0.749050 0.563256
0.798764 0.757443 0.567285
0.824002 0.764523 0.571160
0.846860 0.771695 0.587152
0.868193 0.778683 0.607416
0.609796 0.693782 0.666743
0.610163 0.694026 0.667079
0.610468 0.694148 0.667414
0.611078 0.694148 0.667842
0.611841 0.693996 0.668299
0.612848 0.693721 0.668879
0.614191 0.693507 0.669764
0.615900 0.693263 0.670985
0.617975 0.693050 0.672572
0.620386 0.692988 0.674617
0.623041 0.692927 0.677028
0.625940 0.692988 0.679835
0.628870 0.693019 0.682979
0.631708 0.693019 0.686366
0.634302 0.692897 0.689967
0.634913 0.694789 0.690181
0.633814 0.699886 0.685054
0.634302 0.705257 0.679408
0.636744 0.710994 0.673457
0.641505 0.717037 0.667323
0.648646 0.723232 0.660761
0.658228 0.729366 0.653559
0.670161 0.735317 0.645441
0.684474 0.741054 0.636316
0.701076 0.746517 0.626154
0.719966 0.751675 0.614527
0.740017 0.756313 0.604334
0.760525 0.760555 0.597223
0.785000 0.768826 0.600000
0.810086 0.777462 0.606195
0.834226 0.785183 0.614527
0.855985 0.793027 0.633570
0.630915 0.716518 0.695552
0.631159 0.716732 0.695888
0.631556 0.716884 0.696254
0.632136 0.716976 0.696742
0.632990 0.717067 0.697414
0.634150 0.717281 0.698451
0.636042 0.717739 0.700130
0.638300 0.718349 0.702296
0.641047 0.719203 0.704982
0.644068 0.720150 0.708034
0.647456 0.721248 0.711604
0.650874 0.722255 0.715328
0.654322 0.723262 0.719203
0.657588 0.724056 0.723171
0.660517 0.724636 0.726986
0.663081 0.724971 0.730800
0.662593 0.728603 0.728542
0.662257 0.733455 0.724147
0.663447 0.738613 0.719539
0.666346 0.743984 0.714656
0.671107 0.749508 0.709499
0.677790 0.755062 0.703792
0.686519 0.760433 0.697230
0.697322 0.765682 0.689937
0.710262 0.770718 0.681727
0.725429 0.775570 0.672419
0.742733 0.780209 0.662226
0.761227 0.784298 0.653193
0.779904 0.787716 0.646662
0.802396 0.795041 0.650385
0.826139 0.803586 0.658503
0.848173 0.811795 0.672724
0.657710 0.745388 0.732967
0.657771 0.745388 0.733028
0.657923 0.745327 0.733089
0.658259 0.745235 0.733242
0.658747 0.745113 0.733608
0.659541 0.745022 0.734127
0.660700 0.744961 0.734951
0.662196 0.744991 0.736172
0.663966 0.745174 0.737758
0.666102 0.745388 0.739590
0.668452 0.745724 0.741817
0.671015 0.746090 0.744350
0.673671 0.746487 0.747127
0.676265 0.746822 0.750088
