20 Preset/Classic brown/【3】LUT video cho PR-AE-FCPX/Tone (14).cube
# Created by Adobe Lightroom plugin Export LUT (1.24.0)
# www.johnrellis.com/lightroom/exportlut.htm
# Preset: 人文电影-素材江湖15
# Color profile: E:\lut插件\exportlut.1.24\exportlut.lrplugin\color profiles\Rec709gamma2.4.icc
LUT_3D_SIZE 8
DOMAIN_MIN 0.000000 0.000000 0.000000
DOMAIN_MAX 0.903226 0.903226 0.903226
0.048554 0.079622 0.072724
0.112520 0.066865 0.072236
0.435737 0.000000 0.054627
0.815671 0.000000 0.000000
0.992828 0.000000 0.000000
1.000000 0.000000 0.000000
1.000000 0.000000 0.000000
1.000000 0.000000 0.000000
0.009003 0.117494 0.058869
0.138003 0.106600 0.058961
0.457465 0.000000 0.041199
0.813138 0.000000 0.000000
0.981170 0.000000 0.000000
1.000000 0.000000 0.000000
1.000000 0.000000 0.000000
1.000000 0.000000 0.000000
0.116426 0.308476 0.000000
0.240055 0.301488 0.000000
0.593164 0.275181 0.000000
0.863279 0.000000 0.000000
0.988312 0.000000 0.000000
1.000000 0.000000 0.000000
1.000000 0.000000 0.000000
1.000000 0.000000 0.000000
0.438331 0.609644 0.000000
0.499702 0.599603 0.000000
0.678523 0.574365 0.000000
0.862394 0.528252 0.000000
0.980774 0.404089 0.000000
1.000000 0.196292 0.000000
1.000000 0.000000 0.000000
1.000000 0.000000 0.000000
0.605493 0.758907 0.000000
0.632837 0.755642 0.000000
0.728298 0.744961 0.000000
0.841215 0.706325 0.000000
0.944335 0.635615 0.000000
1.000000 0.532830 0.000000
1.000000 0.400031 0.000000
1.000000 0.184878 0.000000
0.686152 0.840421 0.000000
0.703548 0.841428 0.000000
0.760678 0.835874 0.000000
0.851347 0.822202 0.000000
0.930022 0.771206 0.000000
1.000000 0.699153 0.000000
1.000000 0.605921 0.000000
1.000000 0.491341 0.000000
0.736263 0.897795 0.000000
0.746151 0.897337 0.000000
0.784024 0.893797 0.000000
0.854459 0.886870 0.000000
0.930205 0.860014 0.000000
0.985016 0.802579 0.000000
1.000000 0.729702 0.000000
1.000000 0.642329 0.000000
0.753323 0.928954 0.197848
0.759670 0.928527 0.169924
0.786923 0.926635 0.000000
0.840452 0.922637 0.000000
0.917144 0.913787 0.000000
0.976043 0.876799 0.000000
1.000000 0.815244 0.000000
1.000000 0.744869 0.000000
0.034760 0.079530 0.099031
0.112642 0.066407 0.082918
0.403388 0.000000 0.057710
0.787198 0.000000 0.000000
0.972137 0.000000 0.000000
1.000000 0.000000 0.000000
1.000000 0.000000 0.000000
1.000000 0.000000 0.000000
0.023072 0.115663 0.097108
0.139986 0.106996 0.084932
0.439063 0.000000 0.034272
0.799283 0.000000 0.000000
0.970825 0.000000 0.000000
1.000000 0.000000 0.000000
1.000000 0.000000 0.000000
1.000000 0.000000 0.000000
0.183474 0.292180 0.000000
0.268406 0.285008 0.000000
0.577111 0.263218 0.000000
0.842741 0.000000 0.000000
0.974060 0.000000 0.000000
1.000000 0.000000 0.000000
1.000000 0.000000 0.000000
1.000000 0.000000 0.000000
0.430854 0.575647 0.000000
0.490303 0.568048 0.000000
0.667170 0.548455 0.000000
0.846006 0.505119 0.000000
0.963470 0.386114 0.000000
1.000000 0.187808 0.000000
1.000000 0.000000 0.000000
1.000000 0.000000 0.000000
0.609857 0.752285 0.000000
0.635798 0.748409 0.000000
0.727413 0.736477 0.000000
0.836423 0.695827 0.000000
0.937102 0.625971 0.000000
1.000000 0.527214 0.000000
1.000000 0.398169 0.000000
1.000000 0.185824 0.000000
0.685481 0.835203 0.000000
0.700435 0.833982 0.000000
0.757107 0.828763 0.000000
0.846921 0.815427 0.000000
0.926482 0.766537 0.000000
0.999695 0.696712 0.000000
1.000000 0.604547 0.000000
1.000000 0.490394 0.000000
0.733974 0.894774 0.000000
0.742672 0.893645 0.000000
0.780484 0.890013 0.000000
0.850919 0.883482 0.000000
0.927550 0.857481 0.000000
0.983154 0.800687 0.000000
1.000000 0.728023 0.000000
1.000000 0.641169 0.000000
0.750607 0.927916 0.213443
0.757412 0.927611 0.195773
0.784543 0.925719 0.000000
0.838102 0.921782 0.000000
0.917479 0.914519 0.000000
0.976013 0.877256 0.000000
1.000000 0.815305 0.000000
1.000000 0.744839 0.000000
0.000000 0.079042 0.168185
0.088960 0.064973 0.158602
0.396338 0.000000 0.136477
0.801755 0.000000 0.000000
0.976745 0.000000 0.000000
1.000000 0.000000 0.000000
1.000000 0.000000 0.000000
1.000000 0.000000 0.000000
0.090089 0.115938 0.162905
0.154421 0.109133 0.154513
0.453285 0.000000 0.120150
0.809232 0.000000 0.000000
0.972290 0.000000 0.000000
1.000000 0.000000 0.000000
1.000000 0.000000 0.000000
1.000000 0.000000 0.000000
0.230198 0.290623 0.134981
0.324010 0.283787 0.120150
0.602533 0.238804 0.000000
0.844846 0.080232 0.000000
0.976013 0.000000 0.000000
1.000000 0.000000 0.000000
1.000000 0.000000 0.000000
1.000000 0.000000 0.000000
0.492470 0.574731 0.000000
0.549371 0.569421 0.000000
0.700465 0.546899 0.000000
0.856168 0.501244 0.000000
0.965332 0.405127 0.000000
1.000000 0.242679 0.000000
1.000000 0.000000 0.000000
1.000000 0.000000 0.000000
0.639704 0.747707 0.000000
0.663172 0.745022 0.000000
0.747127 0.735286 0.000000
0.846281 0.691341 0.000000
0.941711 0.627955 0.000000
1.000000 0.533776 0.000000
1.000000 0.409125 0.000000
1.000000 0.204593 0.000000
0.701442 0.832517 0.000000
0.715358 0.831601 0.000000
0.767941 0.826566 0.000000
0.850980 0.810452 0.000000
0.928252 0.762051 0.000000
0.999603 0.695125 0.000000
1.000000 0.605219 0.000000
1.000000 0.491524 0.000000
0.739651 0.894499 0.000000
0.748165 0.893462 0.000000
0.784329 0.889769 0.000000
0.852873 0.883085 0.000000
0.927611 0.856260 0.000000
0.983734 0.800229 0.000000
1.000000 0.728023 0.000000
1.000000 0.641108 0.000000
0.747341 0.927459 0.351171
0.753323 0.926970 0.337652
0.779812 0.925139 0.279637
0.832975 0.921599 0.000000
0.912810 0.914641 0.000000
0.975036 0.878477 0.000000
1.000000 0.815732 0.000000
1.000000 0.744717 0.000000
0.000000 0.074556 0.314611
0.000000 0.053437 0.306004
0.374762 0.000000 0.276677
0.793423 0.000000 0.222110
0.974365 0.000000 0.033112
1.000000 0.000000 0.000000
1.000000 0.000000 0.000000
1.000000 0.000000 0.000000
0.045167 0.115450 0.313176
0.182498 0.102571 0.303410
0.461097 0.000000 0.278172
0.818509 0.000000 0.204135
0.977813 0.000000 0.017304
1.000000 0.000000 0.000000
1.000000 0.000000 0.000000
1.000000 0.000000 0.000000
0.310491 0.278721 0.304845
0.393011 0.269047 0.294072
0.627436 0.199863 0.249699
0.850340 0.000000 0.161410
0.978851 0.000000 0.000000
1.000000 0.000000 0.000000
1.000000 0.000000 0.000000
1.000000 0.000000 0.000000
0.527123 0.572503 0.261570
0.575616 0.565484 0.246433
0.717037 0.538109 0.183993
0.861692 0.484047 0.000000
0.965026 0.395117 0.000000
1.000000 0.283391 0.000000
1.000000 0.000000 0.000000
1.000000 0.000000 0.000000
0.663355 0.747860 0.200748
0.685603 0.744686 0.180392
0.763760 0.731411 0.000000
0.854307 0.687831 0.000000
0.946899 0.624964 0.000000
1.000000 0.540520 0.000000
1.000000 0.421332 0.000000
1.000000 0.213230 0.000000
0.721828 0.832883 0.243381
0.735500 0.833646 0.238407
0.782315 0.828550 0.161501
0.856748 0.810239 0.000000
0.932006 0.763546 0.000000
1.000000 0.694759 0.000000
1.000000 0.606165 0.000000
1.000000 0.489448 0.000000
0.739193 0.893614 0.359960
0.747677 0.893126 0.351751
0.782834 0.890379 0.308080
0.849760 0.884611 0.176730
0.924285 0.858488 0.000000
0.983490 0.801999 0.000000
1.000000 0.727626 0.000000
1.000000 0.639002 0.000000
0.739040 0.927367 0.509789
0.744594 0.927001 0.503227
0.768673 0.925353 0.473793
0.818051 0.921904 0.401953
0.897002 0.915496 0.194644
0.968994 0.882902 0.000000
1.000000 0.817044 0.000000
1.000000 0.744503 0.000000
0.000000 0.064576 0.511955
0.000000 0.011322 0.506859
0.420569 0.000000 0.476295
0.776822 0.000000 0.434455
0.964965 0.000000 0.310399
1.000000 0.000000 0.148379
1.000000 0.000000 0.000000
1.000000 0.000000 0.000000
0.000000 0.105837 0.511711
0.191440 0.066712 0.507256
0.494789 0.000000 0.480568
0.801205 0.000000 0.426764
0.968933 0.000000 0.301701
1.000000 0.000000 0.150454
1.000000 0.000000 0.000000
1.000000 0.000000 0.000000
0.399329 0.283604 0.508354
0.461891 0.272160 0.502464
0.650690 0.204074 0.472877
0.843900 0.000000 0.404395
0.967742 0.000000 0.300816
1.000000 0.000000 0.137850
1.000000 0.000000 0.000000
1.000000 0.000000 0.000000
0.569116 0.552392 0.485267
0.607202 0.547753 0.478004
0.724697 0.530724 0.448615
0.850889 0.494118 0.388891
0.953338 0.420539 0.284947
1.000000 0.294224 0.044007
1.000000 0.000000 0.000000
1.000000 0.000000 0.000000
0.665614 0.738155 0.468635
0.686213 0.736263 0.462531
0.754330 0.722164 0.435737
0.840665 0.685054 0.380407
0.931060 0.631464 0.273014
1.000000 0.548486 0.000000
1.000000 0.415747 0.000000
1.000000 0.152163 0.000000
0.713527 0.824369 0.472663
0.724819 0.823423 0.467628
0.768734 0.818173 0.441047
0.836515 0.799924 0.388952
0.912657 0.762783 0.291905
0.989807 0.702327 0.000000
1.000000 0.604822 0.000000
1.000000 0.472755 0.000000
0.728298 0.890959 0.544701
0.734371 0.890227 0.538811
0.761379 0.887755 0.515618
0.821866 0.883207 0.469276
0.900999 0.862333 0.375463
0.967956 0.810452 0.096773
1.000000 0.731502 0.000000
1.000000 0.631861 0.000000
0.716121 0.926268 0.629267
0.721065 0.925902 0.625269
0.742367 0.924468 0.608209
0.788174 0.921813 0.575525
0.861662 0.916289 0.495644
0.946136 0.892027 0.297704
1.000000 0.826352 0.000000
1.000000 0.744228 0.000000
0.000000 0.000000 0.680385
0.000000 0.000000 0.679133
0.484993 0.000000 0.665278
0.781247 0.000000 0.634607
0.949676 0.000000 0.538048
1.000000 0.000000 0.394720
1.000000 0.000000 0.243229
1.000000 0.000000 0.001129
0.007691 0.072450 0.673365
0.246372 0.000000 0.669917
0.526726 0.000000 0.654688
0.789517 0.000000 0.621515
0.948821 0.000000 0.527153
1.000000 0.000000 0.391943
1.000000 0.000000 0.249363
1.000000 0.000000 0.000000
0.456062 0.293736 0.672999
0.506371 0.281987 0.669276
0.663691 0.228946 0.654780
0.833494 0.000000 0.609827
0.951659 0.000000 0.523033
1.000000 0.000000 0.418738
1.000000 0.000000 0.296666
1.000000 0.000000 0.000000
0.611902 0.565972 0.656733
0.639368 0.562219 0.652461
0.731228 0.552270 0.635248
0.830838 0.538903 0.604059
0.918791 0.520195 0.561059
1.000000 0.446357 0.470314
1.000000 0.276982 0.310979
1.000000 0.000000 0.000000
0.672755 0.735378 0.637354
0.688472 0.733944 0.634180
0.740536 0.722652 0.622156
0.814908 0.702388 0.597833
0.899138 0.667689 0.552270
0.982544 0.607660 0.468269
1.000000 0.493141 0.304723
1.000000 0.118471 0.000000
0.712001 0.825711 0.641016
0.721798 0.825772 0.640192
0.757809 0.822324 0.629114
0.815305 0.808774 0.607599
0.882841 0.780789 0.567559
0.956847 0.733913 0.493385
1.000000 0.643214 0.309941
1.000000 0.444160 0.000000
0.730739 0.889311 0.681697
0.736446 0.889220 0.680842
0.758450 0.887510 0.672694
0.803220 0.883879 0.653681
0.866850 0.870787 0.614832
0.931365 0.830838 0.537499
1.000000 0.762356 0.361456
1.000000 0.630335 0.000000
0.725124 0.923644 0.731899
0.727413 0.923400 0.729610
0.739010 0.922637 0.721798
0.765133 0.921233 0.706172
0.816312 0.917723 0.671412
0.905425 0.905180 0.598077
0.970947 0.849638 0.418372
1.000000 0.754574 0.000000
0.000000 0.000000 0.786038
0.215885 0.000000 0.786374
0.505547 0.000000 0.779782
0.763394 0.000000 0.767666
0.935424 0.000000 0.714534
1.000000 0.000000 0.605890
1.000000 0.000000 0.466865
1.000000 0.000000 0.313939
0.181216 0.019928 0.777493
0.297490 0.000000 0.778286
0.532097 0.000000 0.771969
0.767391 0.000000 0.758114
0.930419 0.000000 0.702266
1.000000 0.000000 0.595727
1.000000 0.000000 0.461433
1.000000 0.000000 0.315312
0.454414 0.298039 0.777401
0.497810 0.288579 0.776089
0.634424 0.242100 0.768887
0.807523 0.096437 0.755245
0.932464 0.000000 0.691829
1.000000 0.000000 0.602106
1.000000 0.000000 0.497383
1.000000 0.000000 0.383429
0.593927 0.572534 0.767514
0.614466 0.567376 0.765408
0.692531 0.550866 0.758419
0.810391 0.528222 0.742214
0.904295 0.500481 0.691920
0.985290 0.475044 0.636866
1.000000 0.453529 0.578332
1.000000 0.373053 0.491310
0.649622 0.736110 0.749996
0.660334 0.733516 0.747311
0.704067 0.725307 0.741146
0.773770 0.713405 0.728450
0.855985 0.699153 0.708217
0.931151 0.679835 0.679927
1.000000 0.627070 0.620142
1.000000 0.503380 0.498024
0.691096 0.832242 0.751705
0.698390 0.831785 0.751034
0.727230 0.828702 0.747189
0.779232 0.820462 0.739254
0.842100 0.803311 0.725307
0.909026 0.776211 0.699763
0.975067 0.727291 0.641810
1.000000 0.612146 0.502037
0.724941 0.887938 0.763546
0.729732 0.887846 0.763302
0.748165 0.886259 0.759548
0.786069 0.883024 0.751736
0.840146 0.872923 0.737392
0.891508 0.848325 0.714199
0.947906 0.807431 0.662928
1.000000 0.704463 0.486275
0.743648 0.919677 0.801175
0.745907 0.919615 0.800809
0.756771 0.919432 0.800290
0.775418 0.918425 0.794583
0.807156 0.916228 0.781216
0.862272 0.911986 0.753964
0.917449 0.878904 0.700984
0.976287 0.811551 0.554162
0.122805 0.000000 0.858762
0.257969 0.000000 0.858762
0.486091 0.000000 0.853819
0.715236 0.000000 0.847715
0.906554 0.000000 0.836484
1.000000 0.000000 0.766354
1.000000 0.000000 0.653956
1.000000 0.000000 0.516930
0.214450 0.042206 0.854002
0.303349 0.000000 0.854154
0.505608 0.000000 0.850248
0.720058 0.000000 0.843565
0.906157 0.000000 0.832395
1.000000 0.000000 0.762295
1.000000 0.000000 0.652430
1.000000 0.000000 0.519921
0.396948 0.288823 0.849454
0.439673 0.280674 0.848905
0.572778 0.235172 0.844785
0.746975 0.119997 0.841276
0.911986 0.000000 0.829679
1.000000 0.000000 0.759182
1.000000 0.000000 0.662989
1.000000 0.000000 0.548180
0.504845 0.534630 0.839506
0.530510 0.532769 0.839322
0.616480 0.517876 0.836271
0.745174 0.493477 0.831632
0.890318 0.450904 0.823148
0.982940 0.413581 0.763943
1.000000 0.389319 0.697505
1.000000 0.292454 0.611719
0.560388 0.714290 0.831968
0.577264 0.715877 0.831785
0.626795 0.711666 0.828946
0.716152 0.698787 0.825650
0.836332 0.683772 0.818051
0.923888 0.670741 0.782803
0.983734 0.644129 0.737850
1.000000 0.609796 0.688960
0.623926 0.835203 0.836484
0.631495 0.833982 0.835721
0.663111 0.829679 0.833066
0.718868 0.822599 0.828946
0.792844 0.805478 0.822965
0.874327 0.791409 0.802853
0.927428 0.781094 0.783230
0.965087 0.759976 0.756527
0.679866 0.895659 0.833555
0.685023 0.895018 0.833402
0.706294 0.892363 0.832914
0.744350 0.887755 0.832792
0.790524 0.881102 0.829068
0.844236 0.866911 0.821164
0.895567 0.845426 0.805692
0.940551 0.813260 0.773251
0.742702 0.918425 0.844907
0.745388 0.918120 0.845121
0.757778 0.916991 0.846952
0.777493 0.915526 0.849088
0.799344 0.913848 0.846372
0.834653 0.910704 0.840696
0.873075 0.897795 0.831327
0.898741 0.874205 0.810819
