20 Preset/Classic brown/【3】LUT video cho PR-AE-FCPX/Tone (14).cube
# Created by Adobe Lightroom plugin Export LUT (1.24.0)
# www.johnrellis.com/lightroom/exportlut.htm
# Preset: 人文电影-素材江湖15
# Color profile: E:\lut插件\exportlut.1.24\exportlut.lrplugin\color profiles\Rec709gamma2.4.icc
LUT_3D_SIZE 5
DOMAIN_MIN 0.000000 0.000000 0.000000
DOMAIN_MAX 0.903226 0.903226 0.903226
0.048554 0.079622 0.072724
0.324041 0.000000 0.063935
0.927886 0.000000 0.000000
1.000000 0.000000 0.000000
1.000000 0.000000 0.000000
0.044068 0.242893 0.000000
0.460121 0.215579 0.000000
0.938231 0.000000 0.000000
1.000000 0.000000 0.000000
1.000000 0.000000 0.000000
0.540795 0.697200 0.000000
0.667231 0.675593 0.000000
0.908476 0.589868 0.000000
1.000000 0.368597 0.000000
1.000000 0.000000 0.000000
0.705013 0.860197 0.000000
0.752834 0.856016 0.000000
0.894621 0.824552 0.000000
1.000000 0.709010 0.000000
1.000000 0.535790 0.000000
0.753323 0.928954 0.197848
0.777737 0.927276 0.000000
0.874357 0.917906 0.000000
0.986053 0.862852 0.000000
1.000000 0.744869 0.000000
0.000000 0.079255 0.144198
0.290410 0.000000 0.117830
0.905028 0.000000 0.000000
1.000000 0.000000 0.000000
1.000000 0.000000 0.000000
0.163546 0.225956 0.124575
0.469123 0.192782 0.043641
0.917449 0.000000 0.000000
1.000000 0.000000 0.000000
1.000000 0.000000 0.000000
0.569390 0.674128 0.000000
0.684047 0.658320 0.000000
0.899535 0.572686 0.000000
1.000000 0.375555 0.000000
1.000000 0.000000 0.000000
0.716548 0.856901 0.000000
0.761868 0.853330 0.000000
0.896696 0.820584 0.000000
1.000000 0.707454 0.000000
1.000000 0.535882 0.000000
0.750393 0.928313 0.331212
0.774105 0.926665 0.276188
0.872374 0.919066 0.000000
0.986297 0.864134 0.000000
1.000000 0.744778 0.000000
0.000000 0.078645 0.413611
0.305852 0.000000 0.379248
0.901427 0.000000 0.268956
1.000000 0.000000 0.000000
1.000000 0.000000 0.000000
0.299687 0.222202 0.410040
0.535790 0.140536 0.380011
0.921630 0.000000 0.234806
1.000000 0.000000 0.000000
1.000000 0.000000 0.000000
0.611383 0.666835 0.364263
0.712276 0.650965 0.326055
0.902434 0.564508 0.146822
1.000000 0.400916 0.000000
1.000000 0.000000 0.000000
0.727871 0.849973 0.399939
0.765377 0.845243 0.365759
0.886442 0.813840 0.201297
1.000000 0.706996 0.000000
1.000000 0.527489 0.000000
0.727596 0.926482 0.566827
0.748531 0.925231 0.548913
0.838560 0.918975 0.443641
0.974090 0.872313 0.000000
1.000000 0.744411 0.000000
0.000000 0.000000 0.706874
0.401343 0.000000 0.697230
0.871519 0.000000 0.635431
1.000000 0.000000 0.411719
1.000000 0.000000 0.147677
0.384649 0.220279 0.699855
0.572351 0.144991 0.689082
0.891417 0.000000 0.617121
1.000000 0.000000 0.427527
1.000000 0.000000 0.155856
0.634638 0.649348 0.667445
0.702754 0.638758 0.653132
0.849516 0.611780 0.608118
1.000000 0.510948 0.481544
1.000000 0.000000 0.111299
0.719478 0.846220 0.681056
0.746029 0.842985 0.672694
0.838315 0.822690 0.640223
0.957275 0.753841 0.539513
1.000000 0.506950 0.000000
0.730037 0.922789 0.752285
0.739773 0.922271 0.747158
0.785855 0.919677 0.721798
0.908995 0.898528 0.629023
1.000000 0.765133 0.000000
0.122805 0.000000 0.858762
0.426123 0.000000 0.855192
0.815305 0.000000 0.843015
1.000000 0.000000 0.740902
1.000000 0.000000 0.516930
0.359686 0.232364 0.852049
0.515404 0.179507 0.849088
0.827573 0.000000 0.837003
1.000000 0.000000 0.737209
1.000000 0.000000 0.538903
0.532860 0.636347 0.834867
0.597528 0.625360 0.831693
0.795499 0.591028 0.821805
0.972381 0.556420 0.757168
1.000000 0.481331 0.648096
0.637171 0.856840 0.837919
0.664149 0.853300 0.835843
0.756802 0.839933 0.828458
0.878111 0.812222 0.805325
0.960082 0.771969 0.759030
0.742702 0.918425 0.844907
0.753628 0.917327 0.846281
0.787228 0.914855 0.848081
0.846799 0.909575 0.838651
0.898741 0.874205 0.810819
