20 Preset/Classic brown/【3】LUT video cho PR-AE-FCPX/Tone (10).cube
# Created by Adobe Lightroom plugin Export LUT (1.24.0)
# www.johnrellis.com/lightroom/exportlut.htm
# Preset: 人文电影-素材江湖11
# Color profile: E:\lut插件\exportlut.1.24\exportlut.lrplugin\color profiles\Rec709gamma2.4.icc
LUT_3D_SIZE 32
DOMAIN_MIN 0.0 0.0 0.0
DOMAIN_MAX 1.0 1.0 1.0
0.000000 0.000000 0.000000
0.000000 0.000000 0.000000
0.001984 0.000000 0.000000
0.016175 0.000397 0.000763
0.041810 0.003052 0.002167
0.077241 0.007965 0.003052
0.097414 0.015381 0.004608
0.115389 0.022004 0.005921
0.137453 0.024781 0.007080
0.164889 0.023529 0.007721
0.196628 0.015198 0.007904
0.232975 0.000000 0.007324
0.272831 0.000000 0.006928
0.316045 0.000000 0.004974
0.361944 0.000000 0.002502
0.410010 0.000000 0.000000
0.459419 0.000000 0.000000
0.508629 0.000000 0.000000
0.556329 0.000000 0.000000
0.602472 0.000000 0.000000
0.650538 0.000000 0.000000
0.695399 0.000000 0.000000
0.733791 0.000000 0.000000
0.767025 0.000000 0.000000
0.795987 0.000000 0.000000
0.821714 0.000000 0.000000
0.844724 0.000000 0.000000
0.865629 0.000000 0.000000
0.884764 0.000000 0.000000
0.902495 0.127169 0.000000
0.918822 0.182773 0.003845
0.933745 0.227970 0.065309
0.000000 0.000000 0.000000
0.000000 0.000000 0.000000
0.000977 0.000977 0.000977
0.016175 0.000397 0.000763
0.043091 0.004028 0.001984
0.075837 0.010376 0.002747
0.096925 0.017792 0.004303
0.115206 0.023194 0.005768
0.136873 0.026215 0.006928
0.163485 0.025635 0.007599
0.195285 0.017517 0.007782
0.230961 0.000000 0.007416
0.270359 0.000000 0.006897
0.313542 0.000000 0.005127
0.359228 0.000000 0.002716
0.407141 0.000000 0.000000
0.456611 0.000000 0.000000
0.505425 0.000000 0.000000
0.553521 0.000000 0.000000
0.599512 0.000000 0.000000
0.646876 0.000000 0.000000
0.691127 0.000000 0.000000
0.729183 0.000000 0.000000
0.762387 0.000000 0.000000
0.791562 0.000000 0.000000
0.817472 0.000000 0.000000
0.840940 0.000000 0.000000
0.862303 0.000000 0.000000
0.881865 0.000000 0.000000
0.899962 0.117281 0.000000
0.916655 0.176028 0.000000
0.931884 0.222507 0.056886
0.000000 0.004578 0.000519
0.000000 0.005798 0.000366
0.003082 0.006317 0.001343
0.019409 0.010101 0.000519
0.045045 0.012757 0.001892
0.077485 0.019104 0.003784
0.097841 0.025299 0.004334
0.115908 0.030701 0.005798
0.137423 0.033753 0.006989
0.164675 0.031495 0.007782
0.195987 0.023621 0.006836
0.231724 0.005737 0.007599
0.270970 0.000000 0.005951
0.313481 0.000000 0.005219
0.358984 0.000000 0.001648
0.406867 0.000000 0.000000
0.455909 0.000000 0.000000
0.504723 0.000000 0.000000
0.552605 0.000000 0.000000
0.598505 0.000000 0.000000
0.645991 0.000000 0.000000
0.689509 0.000000 0.000000
0.727321 0.000000 0.000000
0.760433 0.000000 0.000000
0.789517 0.000000 0.000000
0.815427 0.000000 0.000000
0.839078 0.000000 0.000000
0.860563 0.000000 0.000000
0.880247 0.000000 0.000000
0.898528 0.120577 0.000000
0.915373 0.176822 0.000000
0.930755 0.222538 0.049378
0.000000 0.025849 0.003296
0.000000 0.025635 0.003296
0.005951 0.027161 0.004089
0.018433 0.030152 0.005707
0.042542 0.036439 0.004364
0.079103 0.038972 0.004425
0.099947 0.041352 0.005432
0.118349 0.045319 0.005890
0.140780 0.046479 0.006073
0.167910 0.043763 0.006836
0.199588 0.033783 0.007172
0.235233 0.017426 0.006439
0.273747 0.000000 0.005798
0.316045 0.000000 0.003571
0.360906 0.000000 0.000885
0.408118 0.000000 0.000000
0.456458 0.000000 0.000000
0.504479 0.000000 0.000000
0.551781 0.000000 0.000000
0.597314 0.000000 0.000000
0.644099 0.000000 0.000000
0.686397 0.000000 0.000000
0.723720 0.000000 0.000000
0.757046 0.000000 0.000000
0.786679 0.000000 0.000000
0.813321 0.000000 0.000000
0.837491 0.000000 0.000000
0.859373 0.000000 0.000000
0.879423 0.011933 0.000000
0.897734 0.135073 0.000000
0.914580 0.185031 0.000000
0.929808 0.227756 0.044984
0.003388 0.055177 0.010498
0.005371 0.054963 0.010468
0.011902 0.056458 0.010132
0.025055 0.058289 0.011902
0.042359 0.063050 0.012055
0.076661 0.070375 0.011505
0.101808 0.071870 0.009064
0.121798 0.069398 0.009125
0.145388 0.067262 0.008453
0.173220 0.062226 0.008179
0.204410 0.052796 0.008331
0.239536 0.038178 0.007294
0.278202 0.014496 0.006256
0.320073 0.000000 0.003571
0.364660 0.000000 0.001526
0.411749 0.000000 0.000000
0.459846 0.000000 0.000000
0.507774 0.000000 0.000000
0.554437 0.000000 0.000000
0.600183 0.000000 0.000000
0.645899 0.000000 0.000000
0.686946 0.000000 0.000000
0.723659 0.000000 0.000000
0.756680 0.000000 0.000000
0.786252 0.000000 0.000000
0.812833 0.000000 0.000000
0.836820 0.000000 0.000000
0.858610 0.000000 0.000000
0.878447 0.097078 0.000000
0.896605 0.156435 0.000000
0.913420 0.199283 0.000732
0.928710 0.237369 0.040192
0.004608 0.088380 0.016327
0.006287 0.088289 0.017456
0.014801 0.088777 0.017090
0.031952 0.089265 0.018830
0.053620 0.090425 0.020264
0.079744 0.093050 0.019898
0.098756 0.096834 0.018708
0.125795 0.097719 0.013062
0.151766 0.094362 0.013062
0.181491 0.089113 0.012512
0.213474 0.083284 0.011261
0.248814 0.072724 0.010803
0.287236 0.051392 0.007965
0.328710 0.021515 0.005707
0.373541 0.000000 0.002625
0.419898 0.000000 0.000000
0.467536 0.000000 0.000000
0.514855 0.000000 0.000000
0.560876 0.000000 0.000000
0.607141 0.000000 0.000000
0.651362 0.000000 0.000000
0.691310 0.000000 0.000000
0.752010 0.000000 0.000000
0.782193 0.000000 0.000000
0.808682 0.000000 0.000000
0.832395 0.000000 0.000000
0.853574 0.071168 0.000000
0.872801 0.138430 0.000000
0.890379 0.180575 0.002289
0.906584 0.215549 0.025879
0.921569 0.247410 0.057893
0.935515 0.276829 0.090272
0.003143 0.110994 0.026123
0.003143 0.110994 0.026123
0.012634 0.111635 0.026764
0.030335 0.112642 0.028199
0.056825 0.114534 0.030121
0.086641 0.116762 0.031678
0.103670 0.119966 0.031312
0.124727 0.123903 0.027619
0.158877 0.125795 0.018708
0.193942 0.121767 0.016327
0.229313 0.114504 0.014130
0.267857 0.104402 0.012940
0.307134 0.097108 0.010224
0.349187 0.085420 0.007752
0.393561 0.049805 0.004456
0.439307 0.000824 0.000031
0.485542 0.000000 0.000000
0.531334 0.000000 0.000000
0.576959 0.000000 0.000000
0.624903 0.000000 0.000000
0.669184 0.000000 0.000000
0.709377 0.000000 0.000000
0.745235 0.000000 0.000000
0.776883 0.000000 0.000000
0.804715 0.000000 0.000000
0.829099 0.085328 0.000000
0.850492 0.136507 0.000000
0.869688 0.173312 0.002167
0.887236 0.206485 0.020813
0.903441 0.235935 0.046326
0.918425 0.264164 0.080079
0.932372 0.291417 0.099275
0.000000 0.138735 0.036713
0.000000 0.138643 0.036683
0.000000 0.139376 0.037171
0.012390 0.140536 0.038300
0.041718 0.142763 0.040742
0.087984 0.145510 0.046815
0.109346 0.148379 0.046906
0.130861 0.151186 0.044312
0.155306 0.154726 0.039216
0.192844 0.157870 0.027375
0.235508 0.154940 0.018860
0.275273 0.146853 0.016052
0.317479 0.135500 0.013336
0.361425 0.122469 0.011078
0.404944 0.113222 0.007935
0.449622 0.100160 0.004791
0.494545 0.079255 0.001434
0.538994 0.029084 0.000000
0.586297 0.000000 0.000000
0.630976 0.000000 0.000000
0.672572 0.000000 0.000000
0.710780 0.000000 0.000000
0.745113 0.000000 0.000000
0.775784 0.074891 0.000000
0.802945 0.120546 0.000000
0.826902 0.153292 0.000000
0.848081 0.182437 0.009674
0.867155 0.209812 0.025086
0.884581 0.236210 0.049744
0.900694 0.261540 0.078187
0.915618 0.286564 0.096132
0.929595 0.310735 0.110933
0.000000 0.173007 0.054994
0.000000 0.173312 0.055818
0.000000 0.173953 0.054994
0.000000 0.174899 0.058228
0.010773 0.177218 0.059846
0.079194 0.179934 0.068360
0.115572 0.183505 0.079225
0.139498 0.186069 0.078523
0.164157 0.188571 0.073610
0.190982 0.190311 0.067109
0.231388 0.195834 0.048829
0.280827 0.194766 0.032166
0.325414 0.186374 0.023713
0.370947 0.175174 0.018830
0.417914 0.159976 0.014984
0.463020 0.147433 0.012116
0.506584 0.139406 0.010864
0.552819 0.131563 0.007752
0.597101 0.124636 0.004944
0.639002 0.120180 0.003662
0.678218 0.121309 0.000793
0.714199 0.128603 0.000305
0.746822 0.142947 0.001434
0.776150 0.161776 0.006989
0.802335 0.182773 0.014252
0.825589 0.204196 0.027771
0.846372 0.225498 0.043091
0.865110 0.247288 0.063661
0.882322 0.269139 0.086458
0.898222 0.290623 0.099031
0.912963 0.312322 0.112428
0.926848 0.333837 0.126162
0.000000 0.212802 0.085023
0.000000 0.213016 0.085512
0.000000 0.213474 0.085725
0.000000 0.214694 0.087892
0.000000 0.216190 0.089754
0.053315 0.218875 0.092134
0.115145 0.222477 0.097993
0.151797 0.227329 0.104707
0.176852 0.228824 0.102083
0.203647 0.230503 0.099397
0.231968 0.231327 0.095766
0.273167 0.236790 0.084047
0.325719 0.237613 0.060609
0.376715 0.230869 0.045441
0.424353 0.220676 0.035462
0.472877 0.207584 0.029877
0.522423 0.193210 0.024567
0.567132 0.186557 0.023072
0.609064 0.184817 0.023133
0.648585 0.184695 0.022827
0.684993 0.187808 0.023804
0.718196 0.194095 0.026581
0.748257 0.203738 0.028656
0.775570 0.215946 0.037140
0.800320 0.230594 0.049378
0.822782 0.246586 0.061616
0.843107 0.263767 0.080903
0.861753 0.281773 0.093050
0.878874 0.300664 0.104372
0.894835 0.319707 0.115877
0.909667 0.339086 0.129213
0.923552 0.358434 0.143191
0.000000 0.256077 0.105135
0.000000 0.256321 0.105318
0.000000 0.256626 0.105745
0.000000 0.257877 0.106966
0.000000 0.259586 0.109743
0.009583 0.262577 0.111696
0.110231 0.266514 0.116823
0.156558 0.271427 0.124208
0.193851 0.276493 0.129976
0.221042 0.277287 0.126802
0.249271 0.278050 0.123018
0.279088 0.278202 0.118685
0.318181 0.282444 0.107790
0.374426 0.285039 0.094759
0.431861 0.282689 0.080781
0.481086 0.274235 0.070253
0.529595 0.263432 0.060273
0.575799 0.251621 0.053101
0.619654 0.238834 0.047730
0.656641 0.239414 0.050141
0.690822 0.242374 0.054841
0.721767 0.248051 0.059815
0.750210 0.255619 0.066865
0.776181 0.265660 0.079744
0.799954 0.277287 0.088930
0.821561 0.290318 0.096254
0.841337 0.304448 0.104952
0.859525 0.319310 0.114260
0.876341 0.335241 0.124849
0.892027 0.351751 0.136538
0.906615 0.368750 0.149203
0.920317 0.385962 0.162295
0.000000 0.305455 0.127901
0.000000 0.305638 0.127779
0.000000 0.306218 0.129000
0.000000 0.307439 0.130007
0.000000 0.309331 0.132082
0.000000 0.311955 0.135958
0.100618 0.316045 0.139193
0.158206 0.321355 0.146700
0.205936 0.327703 0.155764
0.243473 0.331853 0.160006
0.271946 0.331609 0.155673
0.302159 0.331548 0.150637
0.349065 0.345647 0.153384
0.387060 0.349371 0.143130
0.447028 0.354894 0.129976
0.505791 0.354650 0.117372
0.555322 0.347601 0.109957
0.600305 0.338506 0.105043
0.642084 0.329137 0.101595
0.680354 0.320165 0.099336
0.714473 0.312566 0.099245
0.741390 0.316594 0.103822
0.766201 0.322637 0.109987
0.788998 0.329992 0.115755
0.809903 0.338903 0.123201
0.829191 0.348241 0.130648
0.846799 0.358892 0.138857
0.863218 0.369970 0.147646
0.878508 0.381903 0.157290
0.892882 0.394598 0.168185
0.906493 0.408026 0.179873
0.919432 0.422217 0.193332
0.000000 0.366461 0.158389
0.000000 0.366461 0.158358
0.000000 0.366827 0.158877
0.000000 0.367468 0.160098
0.000000 0.368719 0.161837
0.000000 0.370611 0.165469
0.089113 0.373938 0.168307
0.163912 0.378637 0.175631
0.220279 0.385321 0.185519
0.272465 0.394415 0.198611
0.309331 0.398779 0.200626
0.340917 0.399756 0.196780
0.373083 0.400000 0.191897
0.404669 0.398993 0.185885
0.439124 0.400549 0.174990
0.492958 0.405341 0.161868
0.547814 0.405951 0.149630
0.595911 0.401343 0.139712
0.636042 0.393408 0.134524
0.672999 0.385229 0.130587
0.706416 0.377111 0.128328
0.736904 0.369329 0.128450
0.763790 0.365698 0.130587
0.785885 0.371344 0.137606
0.806302 0.378119 0.144503
0.825223 0.385992 0.152804
0.842710 0.394659 0.161105
0.859007 0.403967 0.169680
0.874205 0.414191 0.179690
0.888579 0.425269 0.190677
0.902159 0.436957 0.202579
0.915068 0.449195 0.215640
0.000000 0.421637 0.189944
0.000000 0.421393 0.190158
0.000000 0.421515 0.190585
0.000000 0.422370 0.191684
0.000000 0.423560 0.194095
0.000000 0.425635 0.197482
0.107515 0.428473 0.203037
0.175265 0.433356 0.208164
0.236118 0.439521 0.218418
0.290623 0.447211 0.231327
0.342321 0.456519 0.246769
0.372869 0.457252 0.244053
0.402045 0.456367 0.238407
0.430945 0.454383 0.231479
0.458595 0.450721 0.223606
0.488808 0.449409 0.209873
0.533379 0.452033 0.197055
0.582940 0.453101 0.184939
0.629175 0.451209 0.173434
0.665064 0.443885 0.168246
0.697566 0.436652 0.164797
0.727565 0.429664 0.163027
0.755398 0.423316 0.163119
0.781186 0.418158 0.164523
0.803403 0.417823 0.169131
0.821836 0.423926 0.177310
0.839017 0.430915 0.185611
0.855009 0.438392 0.194522
0.870024 0.446845 0.204562
0.884245 0.456184 0.216007
0.897704 0.466163 0.227909
0.910643 0.476783 0.240848
0.000000 0.478126 0.228977
0.000000 0.478065 0.229221
0.000000 0.477852 0.229557
0.000000 0.478157 0.230503
0.000000 0.478737 0.232578
0.000000 0.479744 0.235416
0.136690 0.481483 0.240574
0.196994 0.484993 0.244694
0.256931 0.490059 0.254704
0.310857 0.496407 0.267124
0.362737 0.504112 0.282322
0.408667 0.511711 0.296849
0.434119 0.510002 0.290990
0.459480 0.507347 0.283482
0.484230 0.503349 0.274876
0.507439 0.497597 0.264012
0.531945 0.493141 0.249363
0.568780 0.494484 0.235508
0.613672 0.496223 0.223606
0.654414 0.494728 0.212680
0.688319 0.489570 0.206394
0.717708 0.483467 0.203525
0.745235 0.477577 0.201755
0.770748 0.472450 0.202121
0.794522 0.467964 0.203494
0.816556 0.464637 0.206485
0.835203 0.466255 0.212863
0.850980 0.472389 0.222263
0.865995 0.479438 0.232517
0.880095 0.487587 0.244450
0.893645 0.496284 0.257053
0.906493 0.505852 0.271214
0.000000 0.527428 0.270359
0.000000 0.527581 0.270268
0.000000 0.527581 0.271183
0.000000 0.527947 0.272404
0.000000 0.528527 0.274174
0.107698 0.529625 0.277714
0.182040 0.531365 0.282902
0.237919 0.534020 0.288731
0.287572 0.538537 0.296849
0.339544 0.543664 0.308995
0.388006 0.549493 0.323430
0.434913 0.556115 0.339696
0.469581 0.559228 0.347539
0.490059 0.555413 0.339025
0.510460 0.550622 0.328954
0.530175 0.544793 0.317510
0.549371 0.537957 0.304631
0.568811 0.531182 0.289097
0.598688 0.531334 0.274296
0.638422 0.533196 0.263401
0.674983 0.532616 0.254490
0.707973 0.529778 0.247135
0.735073 0.524834 0.245151
0.760494 0.520256 0.244175
0.784176 0.516228 0.245121
0.806271 0.512932 0.246860
0.826810 0.510277 0.250065
0.845975 0.508354 0.254917
0.861997 0.511192 0.263249
0.875914 0.517632 0.274723
0.889128 0.524712 0.286961
0.901762 0.532677 0.300542
0.000000 0.570245 0.312932
0.000000 0.570214 0.313085
0.000000 0.570306 0.313695
0.016144 0.570611 0.314916
0.127657 0.571069 0.317082
0.183597 0.571893 0.320378
0.232242 0.573022 0.325292
0.281102 0.574762 0.332067
0.320409 0.578149 0.337743
0.367163 0.581750 0.348974
0.412634 0.586114 0.362463
0.455634 0.590997 0.377539
0.495796 0.596460 0.394507
0.519860 0.595972 0.395087
0.536370 0.591699 0.385168
0.552972 0.586511 0.373846
0.569299 0.580407 0.360967
0.585504 0.573571 0.347326
0.601221 0.565759 0.331365
0.624750 0.564385 0.314733
0.660273 0.566674 0.305516
0.693507 0.566735 0.297917
0.724453 0.565393 0.291356
0.750301 0.561822 0.288914
0.773831 0.558251 0.288853
0.795834 0.555108 0.290440
0.816373 0.552514 0.293034
0.835508 0.550500 0.296818
0.853483 0.549248 0.302068
0.870359 0.548943 0.308873
0.884550 0.552789 0.319249
0.896971 0.559625 0.332860
0.162783 0.607446 0.358404
0.166567 0.607568 0.358679
0.211337 0.618402 0.374487
0.227634 0.618494 0.375708
0.251194 0.618769 0.378027
0.279759 0.619104 0.381048
0.313207 0.619532 0.385534
0.348730 0.620203 0.391699
0.380224 0.622034 0.396521
0.418982 0.624567 0.407111
0.457221 0.627436 0.419287
0.493568 0.630854 0.433112
0.527245 0.634455 0.447669
0.558404 0.638361 0.463478
0.571801 0.634791 0.455573
0.583703 0.629847 0.444099
0.595972 0.623804 0.430304
0.608576 0.617243 0.415290
0.621424 0.610040 0.399603
0.633906 0.601709 0.382300
0.651728 0.598596 0.363165
0.683162 0.600763 0.355108
0.712825 0.601129 0.348577
0.740536 0.600153 0.342901
0.765408 0.597528 0.339055
0.786526 0.594232 0.338720
0.806455 0.591119 0.339300
0.825284 0.588586 0.341466
0.843046 0.586908 0.345647
0.859892 0.585992 0.351202
0.875792 0.586145 0.358465
0.890898 0.587060 0.367254
0.269749 0.640833 0.407233
0.272984 0.641718 0.408942
0.281468 0.642664 0.410864
0.294896 0.643549 0.413458
0.313268 0.644221 0.416571
0.334447 0.644617 0.420020
0.360540 0.645014 0.424262
0.389776 0.645258 0.429816
0.420844 0.645930 0.437324
0.447852 0.648096 0.443153
0.480171 0.650294 0.454139
0.511620 0.653010 0.466438
0.541650 0.655848 0.479469
0.569451 0.659144 0.493385
0.592798 0.661585 0.504326
0.602136 0.657343 0.493904
0.612024 0.652583 0.482216
0.622553 0.647272 0.469306
0.633539 0.641382 0.454932
0.644923 0.635096 0.439796
0.656580 0.627924 0.423194
0.673091 0.625483 0.404547
0.699001 0.626581 0.396857
0.726284 0.627588 0.391577
0.751827 0.627283 0.386633
0.775814 0.626032 0.382361
0.795590 0.623316 0.382544
0.814298 0.620905 0.384070
0.832029 0.619196 0.387182
0.848844 0.618280 0.391974
0.864836 0.618189 0.398779
0.880034 0.618860 0.407019
0.338872 0.664912 0.447211
0.342321 0.665705 0.448890
0.348943 0.666499 0.450935
0.358892 0.667323 0.453529
0.372229 0.667872 0.456611
0.389227 0.668177 0.459815
0.410163 0.668391 0.463935
0.432929 0.668574 0.469245
0.458564 0.668971 0.476051
0.479988 0.670436 0.481117
0.506859 0.672267 0.490547
0.533318 0.674342 0.501091
0.559014 0.676844 0.512505
0.583307 0.679591 0.524498
0.606195 0.682673 0.537163
0.621851 0.683070 0.541009
0.629541 0.679011 0.530877
0.637934 0.674586 0.520073
0.646845 0.669642 0.507744
0.656367 0.664210 0.494362
0.666285 0.658503 0.480110
0.676722 0.652247 0.464332
0.692378 0.650507 0.446326
0.713283 0.650324 0.437903
0.738094 0.651820 0.433570
0.761776 0.652003 0.429694
0.783993 0.651362 0.426459
0.803708 0.649775 0.425849
0.821256 0.648310 0.428595
0.837980 0.647456 0.433051
0.853971 0.647364 0.439033
0.869200 0.647883 0.446479
0.400000 0.686824 0.486976
0.402747 0.687373 0.488319
0.407843 0.688045 0.490181
0.415595 0.688685 0.492622
0.426062 0.689143 0.495369
0.439094 0.689357 0.498512
0.454902 0.689540 0.502403
0.473426 0.689662 0.507103
0.493660 0.689998 0.513176
0.512352 0.690852 0.518242
0.532738 0.692531 0.525383
0.554894 0.694362 0.534478
0.576776 0.696468 0.544213
0.597833 0.698817 0.554681
0.618219 0.701534 0.565789
0.637385 0.704524 0.577417
0.647425 0.703304 0.575433
0.654292 0.699794 0.566552
0.661860 0.696071 0.557092
0.669947 0.691951 0.546441
0.678645 0.687617 0.535271
0.687739 0.682734 0.522698
0.697108 0.677363 0.508385
0.711055 0.675654 0.492897
0.728389 0.675563 0.484260
0.751156 0.677546 0.481270
0.772824 0.678492 0.479072
0.793423 0.678737 0.477516
0.812802 0.678584 0.477424
0.829252 0.678035 0.481636
0.844968 0.678065 0.487098
0.860044 0.678614 0.494057
0.463386 0.710384 0.532799
0.464454 0.710628 0.533471
0.466835 0.710842 0.534295
0.471748 0.710933 0.535668
0.478889 0.710994 0.537438
0.488045 0.710964 0.539727
0.499855 0.711025 0.542748
0.513848 0.711086 0.546685
0.529717 0.711330 0.551781
0.547204 0.711788 0.558038
0.561273 0.713436 0.562310
0.579553 0.715084 0.570001
0.597681 0.716915 0.578454
0.615747 0.718959 0.587518
0.633173 0.721248 0.596979
0.650080 0.723781 0.606928
0.666072 0.726589 0.617365
0.671412 0.723598 0.609888
0.677180 0.720211 0.601434
0.683497 0.716548 0.592309
0.690242 0.712551 0.582116
0.697597 0.708156 0.570886
0.705287 0.703395 0.558679
0.713344 0.697963 0.544579
0.725124 0.695735 0.530266
0.739803 0.695155 0.520012
0.760739 0.697658 0.518456
0.780880 0.699275 0.517601
0.800259 0.700313 0.517601
0.818906 0.701045 0.518364
0.835172 0.701411 0.522362
0.850156 0.701991 0.528985
0.506249 0.728542 0.568017
0.506828 0.728725 0.568444
0.509056 0.728878 0.569207
0.512840 0.729000 0.570336
0.518456 0.729091 0.571984
0.525566 0.729091 0.574029
0.534936 0.729152 0.576715
0.546075 0.729274 0.580133
0.558892 0.729519 0.584558
0.573297 0.729915 0.589990
0.584863 0.731258 0.593530
0.600000 0.732662 0.600183
0.615534 0.734249 0.607477
0.630976 0.736110 0.615412
0.646479 0.738125 0.623865
0.661250 0.740414 0.632654
0.675715 0.742885 0.641962
0.686885 0.744045 0.646784
0.691432 0.741238 0.639704
0.696437 0.738155 0.631952
0.701961 0.734768 0.623377
0.707912 0.731136 0.614099
0.714321 0.727138 0.603815
0.721218 0.722744 0.592370
0.727016 0.716030 0.576196
0.737331 0.713527 0.562921
0.749935 0.712825 0.552148
0.769467 0.715816 0.551598
0.788357 0.718074 0.552087
0.806729 0.719844 0.553399
0.824399 0.721370 0.555749
0.841062 0.722683 0.559686
0.547021 0.747036 0.604089
0.548058 0.747311 0.604761
0.549584 0.747433 0.605493
0.552331 0.747433 0.606165
0.555993 0.747311 0.607111
0.561273 0.747097 0.608453
0.568170 0.746944 0.610224
0.576379 0.746761 0.612665
0.586419 0.746731 0.615930
0.597772 0.746822 0.620142
0.606653 0.747616 0.622522
0.619196 0.748684 0.627924
0.631983 0.749874 0.633875
0.645106 0.751278 0.640345
0.658198 0.752804 0.647181
0.671046 0.754574 0.654536
0.683772 0.756588 0.662257
0.696193 0.758846 0.670558
0.703212 0.758358 0.670222
0.707301 0.755795 0.663813
0.711879 0.753017 0.656733
0.716823 0.749966 0.648920
0.722103 0.746487 0.640131
0.727749 0.742641 0.630213
0.733730 0.738338 0.619013
0.740139 0.733639 0.606744
0.749172 0.730892 0.594476
0.759976 0.729946 0.582879
0.778103 0.733272 0.583307
0.795926 0.736049 0.584802
0.813321 0.738460 0.587427
0.830259 0.740719 0.591089
0.576349 0.761410 0.631556
0.577081 0.761624 0.632197
0.578546 0.761807 0.632837
0.580774 0.761868 0.633631
0.584283 0.761898 0.634699
0.588800 0.761898 0.636255
0.594751 0.761929 0.638270
0.602136 0.762020 0.640925
0.610803 0.762203 0.644251
0.620417 0.762509 0.648249
0.629053 0.763241 0.651331
0.638788 0.764340 0.655512
0.649683 0.765408 0.660761
0.660883 0.766720 0.666377
0.672114 0.768063 0.672297
0.683345 0.769558 0.678584
0.694545 0.771267 0.685267
0.705562 0.773220 0.692317
0.716335 0.775418 0.699825
0.720027 0.773526 0.695186
0.723598 0.771115 0.689296
0.727565 0.768582 0.682795
0.731899 0.765743 0.675532
0.736568 0.762600 0.667384
0.741604 0.759121 0.658350
0.747127 0.755276 0.648219
0.753048 0.751186 0.637201
0.761105 0.748592 0.626551
0.772152 0.748989 0.616815
0.787716 0.751766 0.616938
0.804532 0.755154 0.619867
0.820981 0.758083 0.623316
0.605402 0.776150 0.659968
0.605768 0.776242 0.660243
0.606683 0.776303 0.660639
0.608484 0.776364 0.661280
0.611383 0.776364 0.662257
0.615076 0.776303 0.663539
0.619898 0.776364 0.665309
0.625910 0.776394 0.667536
0.633112 0.776516 0.670375
0.641199 0.776791 0.673884
0.649042 0.777279 0.677089
0.656550 0.778317 0.680110
0.665766 0.779324 0.684627
0.675380 0.780453 0.689509
0.685084 0.781643 0.694636
0.694972 0.782925 0.700008
0.704738 0.784421 0.705776
0.714565 0.786099 0.711879
0.724361 0.788022 0.718379
0.732052 0.788998 0.722011
0.734829 0.787045 0.717067
0.737972 0.784848 0.711604
0.741451 0.782437 0.705531
0.745205 0.779843 0.698787
0.749355 0.776944 0.691279
0.753872 0.773770 0.682918
0.758877 0.770382 0.673823
0.764370 0.766720 0.663722
0.771664 0.764309 0.654353
0.783047 0.766018 0.646479
0.796414 0.768307 0.646235
0.812406 0.772000 0.649897
0.630243 0.789303 0.684993
0.630671 0.789395 0.685298
0.631464 0.789456 0.685695
0.633082 0.789517 0.686366
0.635554 0.789609 0.687343
0.638880 0.789792 0.688808
0.643549 0.790066 0.691005
0.649165 0.790433 0.693660
0.655879 0.790951 0.696956
0.663355 0.791531 0.700862
0.670832 0.792447 0.704585
0.677302 0.793729 0.707698
0.685542 0.794919 0.712184
0.694087 0.796139 0.716884
0.702602 0.797391 0.721614
0.711116 0.798672 0.726375
0.719661 0.800015 0.731350
0.728237 0.801450 0.736568
0.736812 0.803098 0.742061
0.745296 0.804929 0.747829
0.749752 0.804593 0.747433
0.752132 0.802823 0.743008
0.754726 0.800870 0.738094
0.757687 0.798734 0.732631
0.760891 0.796384 0.726589
0.764462 0.793851 0.719875
0.768521 0.791135 0.712551
0.773007 0.788296 0.704616
0.778073 0.785245 0.695857
0.784482 0.782986 0.687678
0.795712 0.785428 0.681483
0.807401 0.787533 0.680995
0.658320 0.804196 0.713893
0.658534 0.804227 0.713985
0.659083 0.804227 0.714199
0.660212 0.804196 0.714595
0.662104 0.804196 0.715358
0.664759 0.804257 0.716426
0.668177 0.804288 0.717891
0.672511 0.804440 0.719814
0.677668 0.804685 0.722194
0.683589 0.804929 0.725063
0.689387 0.805447 0.727810
0.694392 0.806363 0.729885
0.701106 0.807218 0.733364
0.708095 0.808133 0.736995
