20 Preset/Classic brown/【3】LUT video cho PR-AE-FCPX/Tone (3).cube
# Created by Adobe Lightroom plugin Export LUT (1.24.0)
# www.johnrellis.com/lightroom/exportlut.htm
# Preset: 人文电影-素材江湖04
# Color profile: E:\lut插件\exportlut.1.24\exportlut.lrplugin\color profiles\Rec709gamma2.4.icc
LUT_3D_SIZE 8
DOMAIN_MIN 0.000000 0.000000 0.000000
DOMAIN_MAX 0.903226 0.903226 0.903226
0.067323 0.091463 0.087984
0.089479 0.092226 0.089784
0.154208 0.092592 0.097200
0.269291 0.055055 0.105043
0.474311 0.000000 0.115785
0.756008 0.000000 0.131441
0.907439 0.000000 0.162387
0.984161 0.105684 0.222019
0.073640 0.103548 0.094484
0.091341 0.105898 0.095491
0.155947 0.107790 0.099184
0.265080 0.097322 0.106416
0.460060 0.000000 0.115938
0.724788 0.000000 0.128145
0.884459 0.000000 0.153902
0.972595 0.135500 0.211734
0.105409 0.161318 0.132601
0.119265 0.158389 0.136782
0.163333 0.172183 0.124331
0.320195 0.187533 0.108034
0.545098 0.175662 0.114412
0.766171 0.172549 0.122988
0.903624 0.256107 0.163149
0.974395 0.343511 0.241215
0.170809 0.301884 0.217685
0.190188 0.296666 0.221195
0.232853 0.303319 0.218509
0.368841 0.353887 0.188968
0.654963 0.441718 0.078309
0.806180 0.459449 0.077089
0.896971 0.476997 0.182406
0.957183 0.502953 0.286351
0.293584 0.502495 0.341894
0.313542 0.499092 0.346349
0.378027 0.492744 0.369451
0.450690 0.527855 0.343023
0.594018 0.565057 0.292699
0.771878 0.618219 0.219699
0.873075 0.622919 0.247593
0.932403 0.629847 0.367620
0.492927 0.672938 0.527428
0.511620 0.678614 0.541039
0.546624 0.675319 0.557458
0.583764 0.680323 0.562646
0.636927 0.696681 0.534905
0.726986 0.716548 0.502068
0.831876 0.739254 0.487495
0.902251 0.741451 0.528527
0.635523 0.778775 0.697627
0.640772 0.779355 0.701137
0.655116 0.777432 0.707729
0.678981 0.775235 0.722255
0.694667 0.781704 0.711788
0.729732 0.792660 0.697871
0.787381 0.804196 0.682216
0.855253 0.814481 0.682826
0.727321 0.850004 0.806638
0.729213 0.849851 0.807370
0.737301 0.849607 0.811093
0.752224 0.849699 0.818906
0.758297 0.844388 0.815854
0.773739 0.852262 0.813016
0.800778 0.860685 0.808560
0.839078 0.866484 0.799710
0.064973 0.092653 0.093751
0.085237 0.093721 0.092988
0.146883 0.094606 0.096407
0.250645 0.094209 0.105074
0.442878 0.000000 0.114992
0.702358 0.000000 0.126741
0.869841 0.000000 0.149722
0.964538 0.000000 0.201419
0.063020 0.105440 0.100740
0.093172 0.106935 0.100587
0.152407 0.113191 0.099947
0.258366 0.111696 0.106661
0.448920 0.000000 0.115816
0.698939 0.000000 0.125978
0.860197 0.000000 0.146731
0.956573 0.095125 0.196170
0.108217 0.161593 0.137575
0.121767 0.159579 0.141421
0.162325 0.171420 0.132326
0.306889 0.188327 0.108949
0.508537 0.179995 0.113863
0.728786 0.166781 0.119448
0.872251 0.221866 0.146365
0.958343 0.311009 0.214267
0.161868 0.279576 0.209232
0.180209 0.276280 0.212985
0.220157 0.283268 0.214572
0.328252 0.317845 0.187259
0.589715 0.386847 0.092927
0.762875 0.411353 0.043214
0.871305 0.438880 0.145815
0.944091 0.474128 0.246769
0.284794 0.491188 0.337682
0.303075 0.486061 0.340490
0.364233 0.475715 0.360113
0.426795 0.502464 0.331640
0.565179 0.536248 0.280583
0.753384 0.596155 0.190677
0.862455 0.607904 0.216556
0.926665 0.616480 0.337011
0.476387 0.661128 0.512963
0.487495 0.660670 0.517571
0.525811 0.658045 0.535180
0.568261 0.664820 0.545098
0.625269 0.684352 0.520500
0.720241 0.708400 0.493233
0.828244 0.732357 0.469581
0.900145 0.734493 0.509514
0.624292 0.771084 0.685145
0.626734 0.769589 0.685023
0.641962 0.767330 0.691707
0.668666 0.765957 0.708675
0.688045 0.774807 0.702663
0.724056 0.786221 0.688380
0.781918 0.796902 0.669215
0.852110 0.807218 0.665248
0.720211 0.845853 0.800198
0.723293 0.846464 0.802121
0.731533 0.846036 0.805753
0.747066 0.846220 0.814023
0.762448 0.847471 0.820829
0.774960 0.853178 0.815183
0.799924 0.859953 0.808133
0.838193 0.865660 0.798856
0.064393 0.096468 0.118044
0.089174 0.097475 0.118349
0.131319 0.105928 0.121004
0.256840 0.096101 0.124239
0.461097 0.000000 0.120912
0.725460 0.000000 0.126986
0.881743 0.000000 0.152834
0.969177 0.196139 0.212100
0.081178 0.112612 0.126741
0.097169 0.114504 0.128206
0.142275 0.122164 0.131838
0.262852 0.119692 0.132082
0.466743 0.079774 0.125765
0.717861 0.000000 0.125368
0.872770 0.007263 0.148867
0.962829 0.220645 0.208011
0.078279 0.174929 0.162814
0.112734 0.175540 0.162417
0.175906 0.182864 0.162112
0.313054 0.194217 0.152377
0.531151 0.202060 0.140597
0.746761 0.228367 0.114839
0.878019 0.281773 0.148104
0.958434 0.347601 0.221958
0.158358 0.306157 0.236820
0.184695 0.305669 0.241062
0.245518 0.303502 0.253819
0.353124 0.338781 0.230198
0.606775 0.400122 0.170016
0.773434 0.437232 0.106355
0.877531 0.468116 0.157076
0.946471 0.495491 0.263188
0.287724 0.505638 0.361395
0.310521 0.503380 0.365942
0.380865 0.496773 0.387610
0.448859 0.519646 0.376684
0.582727 0.554864 0.335637
0.759152 0.605737 0.266392
0.863737 0.616022 0.230411
0.927550 0.623346 0.347967
0.479652 0.666041 0.528893
0.491829 0.666102 0.533837
0.529961 0.663050 0.549584
0.573693 0.664973 0.564569
0.624811 0.683436 0.541650
0.716609 0.707546 0.519158
0.824887 0.733028 0.497627
0.900572 0.736294 0.514336
0.627832 0.775692 0.695766
0.630701 0.774441 0.696010
0.644862 0.771450 0.700893
0.670466 0.768978 0.715114
0.690089 0.775540 0.712581
0.724910 0.787716 0.700923
0.782376 0.800320 0.687861
0.854429 0.811429 0.676722
0.719112 0.847196 0.802213
0.720546 0.846647 0.802426
0.729000 0.846128 0.805875
0.746456 0.847257 0.815427
0.763729 0.847593 0.824186
0.776608 0.854215 0.820005
0.801175 0.861357 0.813809
0.838773 0.867063 0.804868
0.063569 0.104616 0.158236
0.089326 0.106661 0.160861
0.144930 0.115206 0.168673
0.221073 0.129397 0.176822
0.441810 0.002808 0.189487
0.708339 0.000000 0.184390
0.871031 0.000000 0.164645
0.961456 0.222965 0.206577
0.083131 0.122194 0.170687
0.099733 0.124239 0.172824
0.156130 0.132906 0.180331
0.235416 0.146456 0.189120
0.465919 0.051545 0.197024
0.715084 0.000000 0.190280
0.870207 0.124483 0.169528
0.959533 0.257969 0.208591
0.094881 0.173556 0.200534
0.112642 0.176852 0.202640
0.184146 0.192569 0.217105
0.299504 0.201938 0.226383
0.527916 0.197208 0.227665
0.747494 0.228977 0.218021
0.883787 0.325200 0.204257
0.960388 0.383154 0.233829
0.000000 0.330449 0.294163
0.028382 0.331701 0.293187
0.249943 0.338079 0.300114
0.383948 0.361059 0.294926
0.601038 0.388220 0.266331
0.759792 0.429664 0.256260
0.870024 0.475471 0.246677
0.945861 0.505455 0.268315
0.252293 0.539055 0.411536
0.289403 0.538201 0.414893
0.393957 0.534508 0.433600
0.481178 0.543847 0.452094
0.602411 0.578515 0.422614
0.761715 0.616815 0.381659
0.859953 0.625147 0.359594
0.929503 0.630335 0.363439
0.491493 0.687251 0.570520
0.510277 0.691188 0.580926
0.548425 0.686671 0.592157
0.601068 0.683253 0.619379
0.639643 0.698909 0.601007
0.718135 0.716823 0.578546
0.821530 0.739712 0.561517
0.898650 0.740444 0.547906
0.625666 0.781796 0.708400
0.630945 0.781918 0.710811
0.649165 0.781033 0.718471
0.677577 0.779904 0.733089
0.700099 0.783139 0.739071
0.729122 0.793576 0.727199
0.782132 0.804349 0.713954
0.853574 0.816068 0.704891
0.718990 0.852476 0.809354
0.721096 0.852262 0.809995
0.730037 0.851621 0.813169
0.746426 0.851072 0.820066
0.766018 0.850278 0.829801
0.778958 0.855619 0.827939
0.802457 0.863035 0.822507
0.839750 0.869413 0.815335
0.036774 0.118166 0.220432
0.079683 0.120302 0.224430
0.149294 0.127810 0.237095
0.252537 0.139162 0.257145
0.394171 0.152163 0.276555
0.670497 0.000000 0.303746
0.861509 0.000000 0.283970
0.956146 0.235660 0.295628
0.058137 0.134066 0.233127
0.093294 0.136385 0.237339
0.160952 0.144259 0.250065
0.266911 0.156619 0.269963
0.409979 0.171939 0.288243
0.681636 0.000000 0.311192
0.861875 0.000000 0.297551
0.954314 0.270726 0.302159
0.085878 0.187472 0.266270
0.108949 0.190463 0.272740
0.188388 0.202884 0.289525
0.312444 0.225406 0.313146
0.460883 0.243839 0.327184
0.704860 0.195834 0.328008
0.856016 0.278782 0.332128
0.944182 0.366979 0.322667
0.028779 0.296300 0.335851
0.105379 0.300481 0.338720
0.215702 0.321599 0.354528
0.393378 0.376349 0.398260
0.579339 0.382635 0.399054
0.739193 0.419165 0.394263
0.851469 0.468421 0.392462
0.932403 0.501610 0.380713
0.000000 0.540154 0.478035
0.000000 0.545068 0.481117
0.295445 0.550713 0.483101
0.493935 0.556512 0.512657
0.604364 0.581628 0.494820
0.746029 0.598871 0.468086
0.838224 0.613855 0.472175
0.913237 0.623682 0.469184
0.411414 0.679622 0.578027
0.431006 0.680079 0.580896
0.496071 0.678798 0.590631
0.574884 0.676081 0.613397
0.626490 0.685695 0.624384
0.709865 0.713313 0.617884
0.813779 0.736843 0.611872
0.889830 0.736904 0.601007
0.599603 0.782925 0.713375
0.604517 0.782162 0.714015
0.628046 0.781247 0.720821
0.662348 0.781064 0.733181
0.701015 0.780606 0.754757
0.725246 0.791470 0.744320
0.776761 0.802182 0.731838
0.850919 0.813931 0.721431
0.694514 0.850767 0.803708
0.698054 0.850584 0.804776
0.710750 0.850309 0.808713
0.733242 0.851652 0.817777
0.758785 0.851041 0.828580
0.777615 0.853788 0.834257
0.799252 0.861448 0.828489
0.836606 0.867765 0.820798
0.000000 0.136538 0.317052
0.000000 0.138186 0.322118
0.146242 0.144656 0.338476
0.296605 0.155917 0.383185
0.457404 0.158755 0.411414
0.631128 0.191867 0.432258
0.824155 0.213107 0.467109
0.937224 0.288029 0.463478
0.000000 0.149050 0.320684
0.016449 0.150607 0.324468
0.154421 0.157870 0.342351
0.296635 0.170687 0.380468
0.452338 0.178164 0.407660
0.625422 0.213565 0.430823
0.819394 0.231815 0.464607
0.933288 0.300603 0.461646
0.000000 0.202090 0.365118
0.035309 0.204501 0.368963
0.182437 0.216373 0.388037
0.338689 0.239200 0.422004
0.495216 0.265354 0.448096
0.654383 0.318456 0.471809
0.826047 0.343755 0.493660
0.925750 0.402045 0.491981
0.000000 0.299413 0.407446
0.000000 0.301823 0.409064
0.202060 0.326787 0.440497
0.404852 0.384619 0.502647
0.567773 0.444007 0.534783
0.703548 0.483955 0.553948
0.829007 0.506706 0.556451
0.902068 0.560235 0.573816
0.000000 0.485328 0.518364
0.000000 0.489143 0.521050
0.253086 0.506432 0.533684
0.434974 0.543450 0.562158
0.599908 0.600366 0.606775
0.721340 0.608515 0.605921
0.812009 0.626795 0.607263
0.887694 0.641474 0.607294
0.291508 0.692012 0.647181
0.323796 0.695583 0.651331
0.409796 0.700130 0.656153
0.538201 0.702541 0.661982
0.644587 0.705409 0.688502
0.714046 0.725887 0.682856
0.807523 0.735714 0.677089
0.874998 0.737545 0.677363
0.551110 0.789883 0.734676
0.561089 0.790738 0.736843
0.591882 0.790860 0.740963
0.643214 0.791958 0.751553
0.696620 0.793362 0.769192
0.729030 0.797452 0.777249
0.777523 0.808621 0.766415
0.852354 0.819150 0.759579
0.662715 0.854032 0.807523
0.665431 0.853544 0.807523
0.679713 0.853147 0.809964
0.708705 0.853941 0.817838
0.743435 0.854520 0.828458
0.777371 0.853910 0.842802
0.797665 0.861540 0.840330
0.834806 0.868284 0.832914
0.000000 0.154330 0.443275
0.000000 0.156100 0.450538
0.104219 0.160708 0.470100
0.307195 0.166415 0.512902
0.540459 0.178103 0.573877
0.659388 0.208865 0.571984
0.781125 0.318456 0.586511
0.878904 0.406439 0.600946
0.000000 0.164126 0.440681
0.000000 0.166232 0.448188
0.113130 0.171786 0.467475
0.305058 0.179690 0.506706
0.531975 0.197513 0.565942
0.647242 0.224582 0.561669
0.770382 0.320745 0.576287
0.873198 0.396582 0.590204
0.000000 0.209903 0.472633
0.000000 0.212131 0.477302
0.135500 0.221378 0.495430
0.333654 0.240574 0.534264
0.554070 0.286717 0.589227
0.663142 0.324865 0.587304
0.774319 0.420935 0.606226
0.869993 0.483253 0.621546
0.000000 0.297368 0.502831
0.000000 0.299992 0.508232
0.121004 0.315984 0.537224
0.361852 0.355200 0.577935
0.579980 0.432807 0.631159
0.681147 0.487221 0.637354
0.770169 0.556970 0.655512
0.860929 0.581659 0.662806
0.000000 0.437507 0.560845
0.000000 0.437232 0.559838
0.000000 0.442908 0.563317
0.316869 0.470283 0.588800
0.568200 0.558831 0.657893
0.681880 0.615839 0.681514
0.768704 0.645624 0.695491
0.852140 0.666224 0.705776
0.089418 0.636835 0.667323
0.163210 0.638605 0.668818
0.295415 0.644526 0.674098
0.435370 0.656977 0.685451
0.574548 0.680018 0.705257
0.700740 0.730587 0.748562
0.779965 0.739437 0.753353
0.846311 0.749050 0.756588
0.454444 0.785061 0.765713
0.466377 0.785977 0.766964
0.506004 0.788052 0.769741
0.571283 0.793179 0.776394
0.653223 0.797726 0.783627
0.730556 0.802792 0.801144
0.778134 0.813169 0.799161
0.847745 0.815763 0.794278
0.610529 0.856931 0.821805
0.615595 0.856992 0.822293
0.637446 0.857939 0.825162
0.672450 0.858335 0.829007
0.717891 0.858946 0.835721
0.767941 0.861204 0.848844
0.799100 0.863249 0.857847
0.834195 0.870848 0.851164
0.000000 0.175662 0.609644
0.000000 0.176730 0.614618
0.000000 0.178256 0.626703
0.336126 0.179904 0.656550
0.563256 0.198703 0.697505
0.737392 0.306615 0.737484
0.797269 0.359747 0.715419
0.854795 0.487709 0.709224
0.000000 0.184207 0.605402
0.000000 0.185550 0.610437
0.000000 0.188418 0.624414
0.333104 0.192905 0.653285
0.558953 0.215915 0.694331
0.733455 0.322271 0.735134
0.792264 0.368994 0.711940
0.850950 0.490059 0.706264
0.000000 0.222141 0.613336
0.000000 0.224063 0.617060
0.000000 0.230594 0.630121
0.340826 0.248631 0.663447
0.561913 0.291234 0.701381
0.728908 0.404913 0.741024
0.785061 0.442237 0.719448
0.842130 0.540002 0.716640
0.000000 0.291142 0.619898
0.000000 0.293919 0.625940
0.000000 0.303990 0.643244
0.320592 0.335729 0.673121
0.553979 0.400458 0.712184
0.716487 0.520592 0.753079
0.774716 0.552667 0.739773
0.829221 0.620386 0.741329
0.000000 0.383337 0.610101
0.000000 0.383886 0.611780
0.000000 0.390967 0.628504
0.181003 0.426123 0.671443
0.509056 0.501579 0.716579
0.691279 0.606928 0.760616
0.762631 0.650935 0.764920
0.817563 0.697597 0.772671
0.000000 0.577569 0.701564
0.000000 0.575982 0.700404
0.000000 0.572076 0.697841
0.000000 0.568902 0.696773
0.379431 0.575280 0.703426
0.662409 0.684657 0.774502
0.765774 0.748440 0.807706
0.817685 0.766934 0.810117
0.276524 0.747311 0.787655
0.292912 0.747250 0.787594
0.352575 0.747311 0.787564
0.445716 0.749050 0.788846
0.549981 0.753780 0.792081
0.652430 0.765469 0.800076
0.770474 0.813382 0.838041
0.826444 0.818326 0.839139
0.536339 0.852842 0.845243
0.541039 0.852750 0.845182
0.562737 0.853086 0.845823
0.604211 0.854795 0.848173
0.658656 0.857664 0.852110
0.720943 0.862791 0.858885
0.791257 0.866789 0.868223
0.833463 0.873808 0.873320
