20 Preset/Classic brown/【3】LUT video cho PR-AE-FCPX/Tone (15).cube
# Created by Adobe Lightroom plugin Export LUT (1.24.0)
# www.johnrellis.com/lightroom/exportlut.htm
# Preset: 人文电影-素材江湖01
# Color profile: E:\lut插件\exportlut.1.24\exportlut.lrplugin\color profiles\Rec709gamma2.4.icc
LUT_3D_SIZE 5
DOMAIN_MIN 0.000000 0.000000 0.000000
DOMAIN_MAX 0.903226 0.903226 0.903226
0.050843 0.079469 0.071595
0.141939 0.084047 0.088808
0.369146 0.000000 0.109377
0.672175 0.000000 0.144411
0.840513 0.000000 0.222995
0.082734 0.152926 0.118929
0.143801 0.161227 0.119936
0.399847 0.147433 0.115328
0.680659 0.027314 0.153964
0.840238 0.210910 0.239628
0.219272 0.394903 0.281590
0.282383 0.381567 0.294560
0.432898 0.423713 0.264439
0.697139 0.442573 0.196933
0.820920 0.459052 0.294804
0.454505 0.612818 0.485420
0.481575 0.610346 0.494179
0.543206 0.609461 0.512322
0.631739 0.635767 0.472572
0.782193 0.674281 0.451514
0.605493 0.772000 0.660029
0.615351 0.771603 0.663813
0.644160 0.763577 0.672663
0.679622 0.777554 0.679347
0.745510 0.801938 0.661677
0.033570 0.088014 0.117281
0.121279 0.095918 0.113191
0.361273 0.041016 0.112703
0.649958 0.000000 0.143832
0.826841 0.010498 0.216617
0.018402 0.165408 0.155978
0.151431 0.169711 0.155215
0.394202 0.172824 0.134707
0.662104 0.140139 0.151064
0.826139 0.216861 0.229587
0.209720 0.396124 0.295171
0.282506 0.386969 0.308232
0.419226 0.411688 0.287755
0.682002 0.433783 0.199557
0.817227 0.459541 0.291142
0.453071 0.614893 0.492927
0.481575 0.612970 0.501732
0.547204 0.609766 0.524224
0.630030 0.635248 0.486580
0.781796 0.673060 0.449744
0.601617 0.772885 0.660945
0.611780 0.772213 0.664454
0.647639 0.771542 0.680903
0.682887 0.781888 0.687770
0.748409 0.806363 0.670497
0.000000 0.109621 0.224704
0.128542 0.117708 0.234073
0.318181 0.144411 0.246494
0.640436 0.000000 0.248569
0.824979 0.169162 0.244175
0.013977 0.182467 0.266728
0.157565 0.190341 0.276158
0.358190 0.224399 0.288029
0.651301 0.211521 0.286076
0.823026 0.268070 0.268315
0.000000 0.420233 0.389563
0.192081 0.427619 0.391974
0.441779 0.435828 0.395819
0.666102 0.450080 0.362127
0.809476 0.469368 0.346166
0.421729 0.623499 0.519860
0.458381 0.620905 0.524224
0.552911 0.616388 0.552544
0.627497 0.638331 0.536645
0.775814 0.670863 0.498512
0.576410 0.773617 0.662409
0.591608 0.774624 0.667597
0.634241 0.774502 0.681514
0.681239 0.779446 0.699702
0.744717 0.803830 0.680751
0.000000 0.150637 0.388617
0.088563 0.158389 0.398810
0.374548 0.188632 0.436255
0.580957 0.250248 0.436927
0.783230 0.308568 0.454322
0.000000 0.209689 0.413703
0.141299 0.218357 0.421424
0.396765 0.256321 0.453651
0.587243 0.314305 0.455390
0.779416 0.355291 0.467231
0.098329 0.376043 0.465858
0.201755 0.383917 0.468635
0.432502 0.430671 0.503075
0.604761 0.480110 0.517845
0.774136 0.494881 0.518517
0.306920 0.626368 0.587762
0.352361 0.627893 0.588495
0.489784 0.638178 0.595605
0.626337 0.646479 0.604761
0.771664 0.661707 0.583917
0.497536 0.781094 0.682368
0.514031 0.781521 0.683101
0.578119 0.784848 0.690242
0.676692 0.787289 0.719936
0.743984 0.807492 0.710506
0.000000 0.209354 0.570520
0.074281 0.215671 0.576379
0.396307 0.245487 0.602197
0.658473 0.340398 0.639612
0.747005 0.422156 0.612238
0.000000 0.247715 0.573968
0.124575 0.255070 0.579980
0.403601 0.288640 0.604547
0.655665 0.385260 0.641840
0.741726 0.453864 0.617182
0.000000 0.354406 0.576837
0.000000 0.363928 0.585046
0.395087 0.406653 0.613855
0.636194 0.499367 0.650141
0.729122 0.556939 0.644038
0.000000 0.554467 0.635309
0.135256 0.553674 0.634424
0.342351 0.554009 0.633417
0.596338 0.614466 0.667659
0.730434 0.678401 0.696803
0.397894 0.764370 0.727413
0.415259 0.766049 0.728664
0.477913 0.776822 0.737179
0.590112 0.793973 0.750271
0.740993 0.814389 0.770474
