20 Preset/Classic brown/【3】LUT video cho PR-AE-FCPX/Tone (15).cube
# Created by Adobe Lightroom plugin Export LUT (1.24.0)
# www.johnrellis.com/lightroom/exportlut.htm
# Preset: 人文电影-素材江湖01
# Color profile: E:\lut插件\exportlut.1.24\exportlut.lrplugin\color profiles\Rec709gamma2.4.icc
LUT_3D_SIZE 32
DOMAIN_MIN 0.0 0.0 0.0
DOMAIN_MAX 1.0 1.0 1.0
0.050843 0.079469 0.071595
0.050843 0.079469 0.071595
0.050843 0.079469 0.071595
0.050843 0.079469 0.071595
0.073640 0.079896 0.074434
0.104738 0.081209 0.079042
0.122805 0.082643 0.084352
0.141939 0.084047 0.088808
0.164157 0.083558 0.092164
0.189731 0.080201 0.095644
0.218936 0.069429 0.098451
0.252049 0.046906 0.100954
0.288579 0.013825 0.103914
0.327367 0.000000 0.106111
0.369146 0.000000 0.109377
0.412421 0.000000 0.112551
0.456214 0.000000 0.116274
0.499641 0.000000 0.120241
0.541802 0.000000 0.124453
0.586450 0.000000 0.130190
0.632532 0.000000 0.136995
0.672175 0.000000 0.144411
0.705776 0.000000 0.152834
0.735683 0.000000 0.161959
0.762173 0.000000 0.171542
0.785183 0.000000 0.182345
0.805570 0.000000 0.194125
0.823728 0.000000 0.207980
0.840513 0.000000 0.222995
0.857450 0.051301 0.239719
0.874418 0.151034 0.258946
0.891508 0.204379 0.280003
0.050843 0.079469 0.071595
0.050843 0.079469 0.071595
0.050843 0.079469 0.071595
0.050843 0.079469 0.071595
0.075624 0.079774 0.074434
0.104738 0.081209 0.079042
0.122377 0.082795 0.083650
0.141146 0.084352 0.088808
0.162844 0.084138 0.092164
0.187869 0.081178 0.095644
0.216648 0.070680 0.098146
0.249241 0.049287 0.101045
0.285252 0.017762 0.103304
0.323980 0.000000 0.106264
0.365606 0.000000 0.109163
0.408759 0.000000 0.112306
0.452491 0.000000 0.116121
0.495735 0.000000 0.119570
0.538170 0.000000 0.124392
0.582635 0.000000 0.129397
0.627375 0.000000 0.136019
0.666346 0.000000 0.143282
0.699702 0.000000 0.151339
0.729671 0.000000 0.159609
0.756466 0.000000 0.169192
0.780056 0.000000 0.179660
0.801053 0.000000 0.191318
0.819821 0.000000 0.204715
0.836973 0.000000 0.219669
0.854124 0.001770 0.236057
0.871305 0.139376 0.254887
0.888609 0.195590 0.276097
0.050843 0.079469 0.071595
0.050843 0.079469 0.071595
0.050843 0.079469 0.071595
0.050843 0.079469 0.071595
0.079835 0.080110 0.074250
0.105837 0.080934 0.079713
0.122805 0.082643 0.084352
0.141146 0.084352 0.088808
0.162509 0.084260 0.092164
0.187198 0.080842 0.095308
0.215824 0.070375 0.098207
0.248020 0.050843 0.100710
0.283665 0.019013 0.103395
0.322789 0.000000 0.106325
0.364263 0.000000 0.109071
0.407324 0.000000 0.112551
0.450996 0.000000 0.115999
0.494301 0.000000 0.119722
0.536492 0.000000 0.124269
0.581292 0.000000 0.129763
0.625238 0.000000 0.136172
0.663813 0.000000 0.143221
0.697078 0.000000 0.150942
0.726925 0.000000 0.159152
0.753719 0.000000 0.168582
0.777401 0.000000 0.178714
0.798672 0.000000 0.190494
0.817685 0.000000 0.203616
0.835080 0.000000 0.218326
0.852201 0.007691 0.234867
0.869505 0.139620 0.253574
0.886778 0.195071 0.274723
0.050843 0.079469 0.071595
0.050538 0.079469 0.072724
0.050538 0.079469 0.072724
0.049836 0.080232 0.072572
0.087587 0.081971 0.075868
0.107973 0.082490 0.080842
0.124086 0.084352 0.085481
0.142184 0.086030 0.089479
0.163363 0.085939 0.092836
0.188144 0.084504 0.095766
0.216648 0.078309 0.098939
0.248936 0.063050 0.101564
0.284916 0.038300 0.104250
0.323888 0.004364 0.106691
0.364752 0.000000 0.110079
0.407111 0.000000 0.113130
0.450080 0.000000 0.116518
0.492561 0.000000 0.120211
0.534295 0.000000 0.124422
0.579034 0.000000 0.129885
0.620996 0.000000 0.136263
0.658442 0.000000 0.142611
0.691707 0.000000 0.150149
0.722011 0.000000 0.158267
0.749691 0.000000 0.168032
0.774472 0.000000 0.178439
0.796567 0.000000 0.190066
0.816281 0.000000 0.203403
0.833890 0.000000 0.218631
0.851133 0.065126 0.235355
0.868406 0.149447 0.253483
0.885374 0.200595 0.274205
0.052125 0.100252 0.086824
0.051087 0.100618 0.087434
0.052125 0.100252 0.086824
0.064118 0.100130 0.088869
0.085115 0.102052 0.089631
0.107301 0.102693 0.088655
0.124697 0.101350 0.090913
0.143618 0.100984 0.093294
0.165499 0.100038 0.096132
0.190402 0.098421 0.098299
0.218936 0.095277 0.100526
0.251225 0.089479 0.102754
0.286992 0.075319 0.105257
0.325383 0.044007 0.108309
0.366186 0.002930 0.110780
0.408484 0.000000 0.114076
0.451575 0.000000 0.117281
0.494057 0.000000 0.121187
0.536187 0.000000 0.125429
0.580529 0.000000 0.130922
0.621149 0.000000 0.136995
0.657710 0.000000 0.143740
0.690547 0.000000 0.151186
0.720760 0.000000 0.159152
0.748562 0.000000 0.168276
0.773434 0.000000 0.178988
0.795468 0.000000 0.191196
0.815091 0.000000 0.204623
0.832731 0.000000 0.219059
0.849821 0.108217 0.235752
0.866880 0.165530 0.254429
0.883726 0.211551 0.274907
0.061341 0.115694 0.097627
0.061341 0.115694 0.097627
0.064057 0.115328 0.097688
0.080415 0.114717 0.100282
0.090364 0.114687 0.102327
0.101320 0.118227 0.100832
0.125917 0.121706 0.097414
0.147829 0.119844 0.097444
0.170535 0.118257 0.099153
0.196231 0.116304 0.100862
0.225467 0.113375 0.102632
0.257939 0.108766 0.104768
0.293919 0.102235 0.107027
0.332067 0.092256 0.109529
0.372717 0.066957 0.112428
0.414649 0.016266 0.115480
0.457313 0.000000 0.118502
0.499306 0.000000 0.122408
0.543694 0.000000 0.127230
0.586297 0.000000 0.132815
0.625635 0.000000 0.138796
0.661158 0.000000 0.145571
0.725093 0.000000 0.162936
0.752560 0.000000 0.172335
0.776211 0.000000 0.183047
0.796963 0.000000 0.194797
0.815213 0.000000 0.207706
0.831540 0.104463 0.222171
0.847501 0.152773 0.237675
0.863371 0.192325 0.254948
0.879118 0.229099 0.274052
0.894530 0.263981 0.294865
0.069764 0.133944 0.107790
0.072450 0.133639 0.107851
0.080659 0.133120 0.108888
0.090455 0.132387 0.111147
0.099031 0.131197 0.114321
0.106233 0.134585 0.113039
0.121645 0.139162 0.110933
0.150942 0.145083 0.106691
0.182071 0.144564 0.102907
0.210971 0.141695 0.103548
0.242008 0.138918 0.105104
0.276219 0.135592 0.107149
0.312932 0.130037 0.109529
0.351598 0.122591 0.111696
0.392004 0.111574 0.114687
0.433051 0.096651 0.117403
0.474495 0.060212 0.121370
0.518669 0.000000 0.125795
0.563806 0.000000 0.131014
0.606104 0.000000 0.137209
0.645563 0.000000 0.144350
0.681758 0.000000 0.151888
0.714626 0.000000 0.161227
0.744686 0.000000 0.171389
0.770504 0.000000 0.182864
0.792447 0.019654 0.195163
0.811215 0.106111 0.208042
0.827604 0.145968 0.222538
0.843565 0.179782 0.237888
0.859342 0.211856 0.254765
0.874998 0.243595 0.273564
0.890440 0.275944 0.293980
0.082734 0.152926 0.118929
0.083772 0.152895 0.119234
0.090059 0.152193 0.120150
0.097871 0.150698 0.121767
0.107424 0.148959 0.124666
0.113680 0.151186 0.124727
0.124788 0.155764 0.122560
0.143801 0.161227 0.119936
0.176852 0.168948 0.115480
0.217044 0.171328 0.108156
0.250614 0.168368 0.106966
0.285466 0.164828 0.107759
0.321843 0.160311 0.110414
0.360327 0.154849 0.112459
0.399847 0.147433 0.115328
0.439857 0.137819 0.118593
0.483314 0.126345 0.122774
0.527001 0.113130 0.127321
0.568933 0.097322 0.132753
0.608606 0.072908 0.138918
0.645991 0.039796 0.145907
0.680659 0.027314 0.153964
0.712581 0.040284 0.162844
0.741787 0.081361 0.173007
0.767330 0.109407 0.184604
0.789090 0.134493 0.196750
0.807828 0.159976 0.210086
0.824369 0.184543 0.224033
0.840238 0.210910 0.239628
0.855985 0.237430 0.256382
0.871611 0.264958 0.275151
0.887022 0.294041 0.295750
0.091615 0.176577 0.133333
0.092622 0.176364 0.133364
0.096986 0.175814 0.134157
0.105531 0.174655 0.135988
0.115633 0.172824 0.138552
0.125429 0.171572 0.140902
0.133303 0.175967 0.137179
0.148074 0.181003 0.133700
0.170809 0.187350 0.130495
0.207919 0.196384 0.125795
0.252934 0.201450 0.116335
0.294102 0.199863 0.112245
0.333227 0.195132 0.110109
0.371588 0.190005 0.112642
0.411322 0.184360 0.115602
0.454322 0.178592 0.119783
0.496345 0.171695 0.123934
0.536889 0.163882 0.128878
0.575982 0.156374 0.134524
0.613519 0.149447 0.140993
0.648981 0.145418 0.148226
0.681910 0.145113 0.156283
0.712642 0.149538 0.165469
0.740749 0.159304 0.175875
0.765591 0.172641 0.187320
0.786923 0.187778 0.199405
0.805356 0.204959 0.212894
0.821683 0.223728 0.227604
0.837552 0.244175 0.243076
0.853117 0.266697 0.260166
0.868681 0.290593 0.278843
0.884001 0.316503 0.299107
0.100923 0.204105 0.150179
0.101778 0.203922 0.150179
0.106447 0.203311 0.150912
0.114687 0.202182 0.152651
0.126589 0.200107 0.155123
0.138705 0.197574 0.158755
0.146853 0.199252 0.157717
0.157443 0.204440 0.152926
0.175662 0.210147 0.147555
0.202213 0.216709 0.141970
0.241947 0.226658 0.137667
0.289952 0.233158 0.126802
0.340032 0.234592 0.117922
0.383459 0.230838 0.115755
0.427314 0.225437 0.114809
0.468086 0.220676 0.119478
0.508354 0.215549 0.124514
0.547204 0.210666 0.130037
0.584741 0.206241 0.136477
0.620386 0.202548 0.143038
0.653498 0.201144 0.151003
0.683925 0.201205 0.159152
0.712306 0.204532 0.168368
0.738705 0.210697 0.178317
0.762142 0.219608 0.189548
0.782773 0.230076 0.201785
0.801053 0.243046 0.215274
0.817380 0.258366 0.230106
0.833341 0.275547 0.245945
0.849149 0.295171 0.263371
0.864897 0.316625 0.282109
0.880369 0.340246 0.303349
0.112459 0.233829 0.168826
0.113741 0.233860 0.169162
0.117952 0.233249 0.169772
0.126955 0.232242 0.171450
0.139101 0.230533 0.174197
0.152499 0.228397 0.177584
0.165530 0.226352 0.181827
0.173495 0.231266 0.177005
0.187442 0.237156 0.171786
0.209964 0.244724 0.165652
0.240879 0.252537 0.158633
0.283940 0.263340 0.153536
0.336614 0.271946 0.141543
0.391455 0.275273 0.128817
0.436866 0.271824 0.123934
0.479622 0.266392 0.121187
0.519493 0.261112 0.123812
0.556695 0.257084 0.130098
0.592096 0.253635 0.137484
0.625605 0.251102 0.145022
0.656855 0.249454 0.153414
0.685725 0.250156 0.161624
0.712917 0.253239 0.171389
0.738186 0.258244 0.182284
0.760739 0.264897 0.193912
0.780697 0.273472 0.206455
0.798459 0.283726 0.220127
0.814694 0.295811 0.235080
0.830442 0.310460 0.251591
0.846250 0.327153 0.269108
0.861753 0.346532 0.288701
0.877134 0.367773 0.309636
0.129000 0.268925 0.191714
0.130220 0.268894 0.191989
0.135317 0.268284 0.192813
0.144259 0.267674 0.194430
0.156680 0.266514 0.197238
0.171054 0.264775 0.201022
0.186923 0.262882 0.206180
0.197910 0.264683 0.207126
0.209415 0.270970 0.202396
0.227176 0.278080 0.196139
0.252567 0.285863 0.189120
0.286137 0.293736 0.180392
0.354284 0.322728 0.182925
0.410651 0.332891 0.167239
0.466377 0.337285 0.152316
0.515343 0.335698 0.142519
0.555322 0.330297 0.139223
0.593439 0.324315 0.137209
0.626001 0.320623 0.144808
0.655787 0.318242 0.154910
0.683192 0.317174 0.164858
0.708492 0.317632 0.174685
0.731960 0.319371 0.185855
0.753140 0.322759 0.197848
0.772152 0.327398 0.210422
0.789242 0.333043 0.223606
0.804593 0.340368 0.237736
0.819425 0.349310 0.252903
0.834287 0.360388 0.268589
0.848997 0.374029 0.286198
0.863645 0.389899 0.305455
0.878202 0.407996 0.326360
0.159823 0.319341 0.226322
0.161105 0.319280 0.226444
0.165438 0.318517 0.227024
0.174044 0.317082 0.228153
0.185306 0.315221 0.230381
0.200076 0.312840 0.233707
0.216312 0.310124 0.238193
0.232792 0.306981 0.243992
0.241947 0.312596 0.239841
0.256748 0.319890 0.234318
0.278569 0.328435 0.228397
0.308629 0.337713 0.220951
0.346899 0.347356 0.212131
0.393530 0.358068 0.204715
0.448646 0.369299 0.187778
0.502403 0.375036 0.173373
0.552239 0.376104 0.158419
0.588861 0.371313 0.155673
0.623194 0.366247 0.153902
0.654322 0.361578 0.155764
0.680415 0.359411 0.166201
0.704952 0.358770 0.177096
0.727596 0.359625 0.188968
0.748318 0.361639 0.201205
0.767086 0.364782 0.214572
0.783993 0.369146 0.228641
0.799466 0.374914 0.243351
0.814511 0.382544 0.258488
0.829526 0.392309 0.275364
0.844388 0.404486 0.293339
0.859159 0.418769 0.312688
0.873716 0.435340 0.334051
0.188632 0.357794 0.253941
0.188937 0.357458 0.253819
0.193027 0.356390 0.254185
0.200504 0.354833 0.255131
0.210452 0.352911 0.256687
0.224155 0.350134 0.259312
0.239841 0.347204 0.263279
0.256626 0.344335 0.268620
0.270085 0.344549 0.271061
0.281315 0.351202 0.266209
0.298253 0.359106 0.260990
0.322332 0.367987 0.254398
0.353399 0.377234 0.247044
0.390692 0.386389 0.237705
0.434943 0.395758 0.229709
0.485878 0.405982 0.212314
0.535210 0.411749 0.196780
0.581292 0.413855 0.181918
0.617639 0.410925 0.175601
0.648493 0.406683 0.173495
0.677424 0.402594 0.173007
0.702571 0.400397 0.180758
0.724361 0.400244 0.193668
0.744625 0.401160 0.206668
0.762966 0.403143 0.220737
0.779568 0.406104 0.235477
0.794949 0.410590 0.250919
0.810056 0.416785 0.266667
0.825040 0.425299 0.283696
0.839963 0.436072 0.302251
0.854673 0.448951 0.322362
0.869322 0.463966 0.343816
0.219272 0.394903 0.281590
0.220462 0.394720 0.281712
0.223667 0.393652 0.281895
0.229648 0.392035 0.282506
0.239139 0.389807 0.283970
0.251316 0.387182 0.286107
0.265934 0.384436 0.289677
0.282383 0.381567 0.294560
0.299260 0.378943 0.300908
0.309911 0.383093 0.298894
0.323186 0.390387 0.294194
0.342046 0.398596 0.288823
0.366796 0.407324 0.282170
0.397162 0.415808 0.274327
0.432898 0.423713 0.264439
0.473457 0.431830 0.255863
0.519799 0.441138 0.239597
0.564691 0.446876 0.222110
0.606744 0.449805 0.207797
0.642359 0.448951 0.197971
0.670497 0.445716 0.196719
0.697139 0.442573 0.196933
0.721492 0.439979 0.199588
0.740871 0.439673 0.214115
0.758663 0.440375 0.228550
0.774899 0.442329 0.243748
0.790433 0.445777 0.259861
0.805753 0.451331 0.276921
0.820920 0.459052 0.294804
0.836149 0.469062 0.313878
0.851072 0.481300 0.335119
0.865873 0.495552 0.357885
0.252049 0.429358 0.309117
0.252781 0.429389 0.309392
0.255650 0.428687 0.309819
0.261234 0.427771 0.310735
0.270085 0.426276 0.312291
0.281895 0.424475 0.314977
0.295842 0.422614 0.318730
0.311650 0.420569 0.323522
0.328740 0.418372 0.329747
0.343908 0.417853 0.334966
0.353582 0.423987 0.330022
0.367407 0.430610 0.324620
0.386023 0.437751 0.318395
0.409308 0.444556 0.310582
0.437171 0.451270 0.301610
0.469703 0.457465 0.290715
0.506584 0.464363 0.281529
0.548425 0.472877 0.266789
0.589349 0.478950 0.248020
0.627649 0.482643 0.235538
0.663264 0.484565 0.223209
0.689174 0.482368 0.223270
0.713344 0.480293 0.225101
0.735714 0.478218 0.228733
0.754788 0.477363 0.238499
0.770871 0.478431 0.254826
0.786526 0.481300 0.271733
0.801877 0.486152 0.289372
0.817105 0.492714 0.307774
0.832151 0.501457 0.327153
0.846921 0.512078 0.348211
0.861570 0.524590 0.370977
0.284764 0.461952 0.336675
0.284886 0.461952 0.336736
0.287907 0.461372 0.337224
0.292760 0.460670 0.338140
0.300572 0.459510 0.339727
0.311162 0.458106 0.342290
0.324132 0.456397 0.345617
0.338872 0.454719 0.350256
0.354498 0.452949 0.355901
0.370916 0.450843 0.362493
0.382055 0.453346 0.363012
0.392462 0.459297 0.358312
0.406714 0.465736 0.352544
0.424964 0.471992 0.345861
0.447211 0.478187 0.337926
0.473426 0.484108 0.328374
0.503349 0.489570 0.317906
0.537133 0.495857 0.308629
0.574823 0.504021 0.296269
0.611872 0.510369 0.278416
0.647242 0.515099 0.265446
0.679957 0.517693 0.255314
0.705318 0.517052 0.253239
0.727169 0.515373 0.256718
0.747372 0.513848 0.261479
0.766506 0.513146 0.268223
0.782376 0.515465 0.285405
0.797910 0.519585 0.303197
0.813230 0.525536 0.322026
0.828214 0.533379 0.342412
0.843015 0.543114 0.363714
0.857572 0.554559 0.386572
0.319341 0.494789 0.365820
0.320500 0.494789 0.366217
0.338720 0.509087 0.380407
0.343114 0.508507 0.381353
0.349706 0.507530 0.382849
0.358709 0.506249 0.384985
0.370031 0.504417 0.387915
0.382940 0.502556 0.391730
0.397009 0.500816 0.396643
0.412299 0.498787 0.402655
0.427070 0.496895 0.409430
0.434577 0.501915 0.405127
0.444587 0.506828 0.399573
0.457740 0.511833 0.392889
0.474128 0.516564 0.385229
0.494118 0.521111 0.376257
0.517082 0.525383 0.366033
0.543206 0.529564 0.354833
0.572320 0.534386 0.345098
0.604517 0.541070 0.333898
0.637720 0.547265 0.317205
0.668757 0.551415 0.304295
0.697169 0.553674 0.295903
0.721370 0.553338 0.291936
0.740414 0.551385 0.295995
0.759091 0.550469 0.301427
0.777584 0.550652 0.307713
0.794430 0.552819 0.319707
0.809415 0.557671 0.338598
0.824247 0.564446 0.358648
0.838895 0.573083 0.380072
0.853422 0.583490 0.402930
0.358221 0.529442 0.398749
0.360082 0.530724 0.400122
0.363561 0.531792 0.401892
0.368536 0.532525 0.403906
0.375525 0.532616 0.406226
0.383948 0.531853 0.408606
0.393927 0.530510 0.411353
0.405371 0.528862 0.414740
0.418158 0.527153 0.419043
0.431861 0.525475 0.424353
0.445899 0.523613 0.430579
0.456458 0.524346 0.432868
0.463996 0.528801 0.428168
0.474067 0.533349 0.422583
0.486976 0.537926 0.416052
0.502678 0.542351 0.408515
0.521355 0.546746 0.400031
0.542962 0.551080 0.390661
0.567315 0.555566 0.380713
0.594171 0.560632 0.371923
0.623346 0.567254 0.362921
0.653773 0.573846 0.348882
0.681910 0.578058 0.337530
0.707637 0.580499 0.331243
0.731350 0.581262 0.325963
0.749905 0.580896 0.330877
0.768276 0.581506 0.336980
0.786496 0.583276 0.344488
0.804685 0.586542 0.353918
0.819516 0.592554 0.374029
0.834165 0.600519 0.395727
0.848692 0.610132 0.418494
0.387823 0.555566 0.424598
0.389685 0.556786 0.426001
0.393011 0.557824 0.427710
0.397711 0.558648 0.429816
0.403937 0.558892 0.432013
0.411109 0.558373 0.434211
0.419837 0.557336 0.436744
0.430182 0.555932 0.439826
0.441382 0.554528 0.443671
0.453651 0.552880 0.448310
0.466499 0.551202 0.453773
0.479316 0.549462 0.460060
0.486244 0.552392 0.457954
0.493904 0.556542 0.453162
0.503685 0.560906 0.447700
0.515892 0.565087 0.441291
0.530724 0.569268 0.434058
0.548058 0.573480 0.426154
0.568200 0.577813 0.417487
0.590478 0.582300 0.408362
0.614618 0.587030 0.400580
0.640101 0.592493 0.393622
0.667628 0.598840 0.381842
0.693019 0.603082 0.372107
0.716640 0.605921 0.367742
0.740017 0.608331 0.363287
0.759396 0.609827 0.366644
0.777554 0.612024 0.373907
0.795560 0.615564 0.383307
0.813504 0.620386 0.394537
0.829587 0.627161 0.412329
0.844053 0.636164 0.435157
0.417823 0.581628 0.451362
0.419379 0.582574 0.452522
0.422278 0.583520 0.454078
0.426093 0.584344 0.455970
0.431312 0.584466 0.457923
0.437629 0.584009 0.459907
0.445258 0.583185 0.462074
0.454047 0.582086 0.464973
0.464302 0.580865 0.468513
0.475135 0.579370 0.472480
0.486763 0.578088 0.477516
0.498482 0.576532 0.482979
0.508659 0.576074 0.487221
0.514183 0.579828 0.483162
0.521721 0.583825 0.478523
0.531182 0.587915 0.473426
0.543145 0.592218 0.467781
0.557244 0.596612 0.461738
0.573877 0.601190 0.455238
0.592676 0.605951 0.448310
0.613306 0.610864 0.440986
0.635309 0.615717 0.435248
0.657313 0.620447 0.430884
0.682002 0.626795 0.421973
0.705684 0.631891 0.414496
0.728878 0.636896 0.412116
0.751827 0.641505 0.410101
0.772427 0.645502 0.413123
0.790311 0.649744 0.422583
0.808103 0.655146 0.433967
0.825803 0.661646 0.447089
0.843046 0.669368 0.463325
0.454505 0.612818 0.485420
0.455360 0.613184 0.486000
0.456794 0.613428 0.486671
0.459327 0.613306 0.487556
0.463172 0.612940 0.488655
0.467994 0.612207 0.490028
0.474098 0.611322 0.491798
0.481575 0.610346 0.494179
0.490181 0.609277 0.497169
0.499855 0.608179 0.500938
0.510185 0.607080 0.505364
0.520653 0.605951 0.510338
0.531090 0.604669 0.515892
0.537804 0.606073 0.516167
0.543206 0.609461 0.512322
0.550134 0.612909 0.507897
0.558923 0.616449 0.503044
0.569757 0.620142 0.497902
0.582330 0.623896 0.492103
0.597009 0.627832 0.486061
0.613489 0.631739 0.479561
0.631739 0.635767 0.472572
0.650843 0.639521 0.466651
0.669642 0.642634 0.462898
0.692500 0.649195 0.455177
0.715419 0.655543 0.449470
0.738033 0.662043 0.448859
0.760616 0.668330 0.448737
0.782193 0.674281 0.451514
0.799863 0.679896 0.462440
0.817533 0.686519 0.474983
0.835080 0.694118 0.489601
0.481666 0.635218 0.511864
0.482155 0.635554 0.512383
0.483619 0.635706 0.513024
0.485817 0.635645 0.513817
0.488991 0.635370 0.514855
0.492988 0.634821 0.516075
0.498360 0.634150 0.517723
0.504662 0.633356 0.519768
0.512016 0.632593 0.522576
0.520562 0.631678 0.525963
0.529442 0.630854 0.529839
0.538872 0.629938 0.534447
0.548394 0.628901 0.539452
0.557702 0.627893 0.544884
0.561822 0.630793 0.542046
0.567041 0.633997 0.538689
0.573724 0.637324 0.534630
0.581964 0.640681 0.530449
0.591669 0.644221 0.525994
0.603235 0.647822 0.521172
0.616510 0.651453 0.515801
0.631250 0.655146 0.510246
0.647486 0.658839 0.504204
0.664759 0.662501 0.499031
0.680293 0.662806 0.492073
0.702327 0.670375 0.485451
0.724788 0.678248 0.482216
0.747066 0.686152 0.483223
0.769162 0.693812 0.485267
0.791409 0.701381 0.488411
0.809354 0.708339 0.500359
0.827024 0.716060 0.514275
0.511772 0.658991 0.542321
0.512566 0.659449 0.543053
0.513695 0.659602 0.543572
0.515282 0.659297 0.544030
0.517327 0.658747 0.544457
0.520195 0.657984 0.545037
0.524041 0.656977 0.545922
0.528771 0.655909 0.547143
0.534539 0.654749 0.548943
0.541161 0.653712 0.551446
0.548302 0.652522 0.554253
0.556176 0.651423 0.557824
0.564172 0.650294 0.561761
0.572290 0.649073 0.566186
0.578332 0.649042 0.568109
0.581689 0.651453 0.564813
0.586297 0.654078 0.561181
0.592309 0.656977 0.557549
0.599786 0.660090 0.553765
0.608972 0.663600 0.549950
0.619684 0.667262 0.545830
0.631891 0.671046 0.541283
0.645441 0.674739 0.536278
0.660273 0.678370 0.530449
0.676295 0.681880 0.524834
0.692256 0.685115 0.521965
0.713344 0.693111 0.516381
0.735103 0.701991 0.515709
0.756802 0.710811 0.518029
0.778500 0.719356 0.521416
0.800351 0.727901 0.526238
0.819486 0.736080 0.537560
0.533501 0.676692 0.565454
0.534295 0.677058 0.566033
0.535271 0.677333 0.566613
0.536706 0.677241 0.567163
0.538659 0.676997 0.567864
0.541405 0.676539 0.568688
0.544976 0.676051 0.569879
0.549462 0.675532 0.571496
0.554711 0.674952 0.573510
0.560662 0.674372 0.575982
0.567163 0.673701 0.578820
0.573968 0.673030 0.582055
0.581018 0.672236 0.585626
0.588128 0.671382 0.589471
0.595056 0.670344 0.593500
0.598749 0.671626 0.592798
0.602045 0.674037 0.589776
0.606531 0.676722 0.586786
0.612329 0.679805 0.583703
0.619501 0.683223 0.580591
0.628077 0.686915 0.577295
0.638056 0.690761 0.573846
0.649348 0.694636 0.569879
0.661952 0.698512 0.565545
0.675776 0.702358 0.560540
0.690852 0.706325 0.555749
0.706264 0.710353 0.553643
0.726314 0.718654 0.549798
0.747494 0.728664 0.551812
0.768826 0.738369 0.555596
0.790463 0.747860 0.560601
0.812589 0.757382 0.566979
0.554925 0.697932 0.590051
0.555383 0.698116 0.590387
0.556023 0.698146 0.590692
0.557153 0.698054 0.591058
0.558740 0.697810 0.591547
0.561089 0.697414 0.592309
0.564080 0.696956 0.593194
0.567742 0.696437 0.594507
0.572198 0.695918 0.596185
0.577234 0.695430 0.598260
0.582818 0.694881 0.600610
0.588861 0.694301 0.603418
0.595148 0.693721 0.606500
0.601495 0.693111 0.609857
0.607843 0.692317 0.613367
0.613794 0.691615 0.616693
0.616327 0.693935 0.614282
0.619867 0.696529 0.611780
0.624537 0.699550 0.609247
0.630426 0.702907 0.606714
0.637476 0.706600 0.604242
0.645808 0.710414 0.601373
0.655329 0.714229 0.598291
0.666011 0.718074 0.594659
0.677882 0.721798 0.590661
0.690852 0.725429 0.586114
0.705043 0.729305 0.581811
0.719722 0.733333 0.579858
0.738582 0.741390 0.577874
0.759579 0.752316 0.581933
0.780972 0.762814 0.587060
0.803037 0.773251 0.593378
0.571679 0.719142 0.611383
0.571923 0.719356 0.611658
0.572473 0.719448 0.611902
0.573632 0.719478 0.612421
0.575189 0.719478 0.613031
0.577478 0.719478 0.613977
0.580560 0.719753 0.615412
0.584405 0.720089 0.617304
0.588983 0.720546 0.619593
0.594079 0.721157 0.622309
0.599695 0.721798 0.625269
0.605707 0.722347 0.628504
0.611994 0.722774 0.631983
0.618341 0.722988 0.635554
0.624689 0.722957 0.639216
0.630884 0.722591 0.642878
0.635462 0.723354 0.644373
0.638514 0.725978 0.642359
0.642390 0.728939 0.640345
0.647425 0.732174 0.638331
0.653437 0.735622 0.636194
0.660548 0.739254 0.633936
0.668666 0.742824 0.631281
0.677852 0.746456 0.628443
0.688167 0.749935 0.625208
0.699519 0.753475 0.621698
0.712062 0.756985 0.617823
0.725643 0.760647 0.614252
0.739773 0.764584 0.612787
0.757412 0.772061 0.612970
0.778744 0.783261 0.617914
0.800778 0.794339 0.624384
0.590448 0.748409 0.638025
0.590600 0.748379 0.638056
0.591058 0.748318 0.638148
0.591821 0.748135 0.638361
0.593072 0.747951 0.638758
0.594995 0.747707 0.639368
0.597498 0.747494 0.640253
0.600641 0.747311 0.641413
0.604425 0.747189 0.642969
0.608728 0.747097 0.644831
0.613550 0.747036 0.647028
0.618891 0.747036 0.649561
0.624628 0.746944 0.652399
0.630488 0.746822 0.655482
