20 Preset/Classic brown/【3】LUT video cho PR-AE-FCPX/Tone (5).cube
# Created by Adobe Lightroom plugin Export LUT (1.24.0)
# www.johnrellis.com/lightroom/exportlut.htm
# Preset: 人文电影-素材江湖06
# Color profile: E:\lut插件\exportlut.1.24\exportlut.lrplugin\color profiles\Rec709gamma2.4.icc
LUT_3D_SIZE 5
DOMAIN_MIN 0.000000 0.000000 0.000000
DOMAIN_MAX 0.903226 0.903226 0.903226
0.000000 0.000000 0.000000
0.128023 0.022705 0.013855
0.402167 0.000000 0.005035
0.746548 0.000000 0.000000
0.902098 0.000000 0.000000
0.019379 0.130526 0.045655
0.131380 0.137179 0.037079
0.430457 0.010712 0.000000
0.751736 0.000000 0.000000
0.901793 0.000000 0.000000
0.150484 0.439948 0.177249
0.286107 0.446601 0.194491
0.451484 0.415595 0.125826
0.750423 0.406134 0.000000
0.884245 0.381659 0.000000
0.526055 0.692348 0.482734
0.561425 0.694087 0.499641
0.624384 0.687831 0.490303
0.691768 0.650629 0.352850
0.820645 0.628412 0.304540
0.703151 0.737057 0.699733
0.706661 0.736629 0.701930
0.715511 0.735531 0.707271
0.718288 0.735500 0.695796
0.737606 0.732631 0.651911
0.000000 0.026093 0.090303
0.126040 0.046571 0.090578
0.389014 0.000000 0.081849
0.720027 0.000000 0.013214
0.892515 0.000000 0.000000
0.024475 0.140291 0.112337
0.158968 0.152560 0.112337
0.421881 0.122927 0.097597
0.728969 0.000000 0.020172
0.890745 0.101991 0.000000
0.182589 0.427680 0.220615
0.299992 0.437263 0.237919
0.449928 0.410437 0.183688
0.740200 0.399390 0.082033
0.877226 0.399420 0.061585
0.530266 0.688685 0.501671
0.565026 0.690974 0.517937
0.629694 0.687861 0.520531
0.690791 0.651087 0.388006
0.816831 0.629999 0.347845
0.703182 0.736873 0.700740
0.706569 0.736629 0.702754
0.717006 0.735286 0.709865
0.719539 0.735286 0.700893
0.736507 0.732937 0.661860
0.000000 0.088258 0.280735
0.092012 0.098054 0.273686
0.434272 0.108309 0.268498
0.695979 0.182528 0.267979
0.874083 0.221530 0.240543
0.000000 0.198093 0.306493
0.163088 0.191836 0.298619
0.464607 0.219455 0.291844
0.714504 0.230320 0.270207
0.871092 0.293065 0.257481
0.109285 0.438361 0.366094
0.270848 0.443641 0.365393
0.524865 0.456306 0.359747
0.735653 0.438636 0.324010
0.855680 0.456031 0.315312
0.512627 0.679286 0.545953
0.552178 0.678950 0.556207
0.646448 0.690913 0.601831
0.688441 0.656580 0.496620
0.803891 0.635309 0.469429
0.697871 0.736385 0.700893
0.702907 0.736172 0.703578
0.715724 0.735378 0.710994
0.721370 0.734798 0.709834
0.734066 0.732662 0.676967
0.000000 0.170657 0.590478
0.000000 0.180789 0.584649
0.469001 0.196963 0.554589
0.741817 0.288975 0.539940
0.825254 0.450477 0.522301
0.000000 0.277134 0.596735
0.000000 0.269932 0.590631
0.495766 0.286442 0.561425
0.735683 0.363745 0.545190
0.814572 0.483833 0.530694
0.179171 0.521019 0.617639
0.308141 0.520012 0.613336
0.543145 0.503838 0.591394
0.708949 0.536553 0.567590
0.794186 0.566918 0.559289
0.464027 0.681544 0.642847
0.499428 0.679194 0.639887
0.602380 0.677272 0.636133
0.698238 0.676387 0.629419
0.778103 0.656001 0.607813
0.664454 0.738430 0.697261
0.674617 0.737728 0.699886
0.704402 0.735866 0.709621
0.724666 0.734127 0.719722
0.730617 0.732967 0.700771
0.000000 0.326146 0.745907
0.166293 0.334325 0.744045
0.505211 0.368902 0.736629
0.710048 0.432166 0.719234
0.798886 0.558770 0.687953
0.116182 0.395270 0.742000
0.265782 0.397833 0.740566
0.519097 0.424506 0.733242
0.704402 0.472084 0.716121
0.791135 0.579553 0.688319
0.411719 0.574426 0.732265
0.464210 0.579492 0.730098
0.562524 0.575891 0.725734
0.689326 0.589380 0.713039
0.764675 0.649256 0.696223
0.556023 0.687648 0.725063
0.571557 0.688685 0.724483
0.630518 0.695583 0.722408
0.694697 0.700801 0.718013
0.735836 0.713802 0.711788
0.662470 0.736660 0.722530
0.668482 0.736507 0.722377
0.691463 0.735958 0.722072
0.714992 0.734798 0.721279
0.727047 0.733486 0.720882
