20 Preset/Classic brown/【3】LUT video cho PR-AE-FCPX/Tone (8).cube
# Created by Adobe Lightroom plugin Export LUT (1.24.0)
# www.johnrellis.com/lightroom/exportlut.htm
# Preset: 人文电影-素材江湖09
# Color profile: E:\lut插件\exportlut.1.24\exportlut.lrplugin\color profiles\Rec709gamma2.4.icc
LUT_3D_SIZE 32
DOMAIN_MIN 0.0 0.0 0.0
DOMAIN_MAX 1.0 1.0 1.0
0.060731 0.078645 0.044495
0.063996 0.079103 0.044343
0.070924 0.079286 0.045289
0.081575 0.081178 0.045747
0.095735 0.082399 0.047120
0.106203 0.084260 0.049470
0.116304 0.086580 0.051667
0.126986 0.088594 0.053651
0.138216 0.089754 0.055634
0.150912 0.091157 0.058350
0.164767 0.092348 0.060883
0.179904 0.093141 0.063142
0.197055 0.092775 0.064179
0.215427 0.092500 0.065766
0.234928 0.091341 0.067079
0.255619 0.089479 0.067933
0.277195 0.086183 0.069459
0.299535 0.081758 0.070192
0.322789 0.071443 0.070741
0.350927 0.054047 0.072938
0.381659 0.031342 0.072633
0.411688 0.004791 0.074067
0.440711 0.000000 0.074037
0.469978 0.000000 0.074250
0.499458 0.000000 0.074495
0.529473 0.000000 0.074891
0.560449 0.000000 0.075898
0.592676 0.000000 0.076112
0.626307 0.000000 0.076967
0.661646 0.000000 0.078187
0.698421 0.000000 0.079927
0.736599 0.000000 0.082734
0.062959 0.079835 0.045319
0.062959 0.079835 0.045319
0.071473 0.080659 0.044984
0.082368 0.081788 0.045594
0.096162 0.083040 0.046967
0.106600 0.084871 0.049317
0.116121 0.087343 0.051514
0.126345 0.089143 0.053529
0.137636 0.090303 0.055482
0.149813 0.091432 0.058381
0.163455 0.092683 0.060914
0.178775 0.093477 0.063172
0.195804 0.093202 0.064240
0.213870 0.093080 0.065827
0.233158 0.092073 0.067170
0.253880 0.090333 0.068025
0.275303 0.087861 0.069551
0.297490 0.083101 0.070466
0.320836 0.073823 0.071015
0.348211 0.057221 0.072297
0.377691 0.035706 0.072450
0.406836 0.010101 0.073182
0.435187 0.000000 0.073396
0.463783 0.000000 0.074037
0.492653 0.000000 0.074708
0.522271 0.000000 0.075410
0.553063 0.000000 0.075685
0.585229 0.000000 0.076295
0.619043 0.000000 0.076539
0.654566 0.000000 0.078157
0.691646 0.000000 0.079500
0.730007 0.000000 0.082033
0.065766 0.083772 0.047791
0.065766 0.083772 0.047791
0.070283 0.084871 0.047486
0.085084 0.086336 0.046784
0.096986 0.087709 0.048157
0.106416 0.088594 0.049531
0.116670 0.089540 0.051881
0.126528 0.090761 0.054047
0.137819 0.091920 0.056001
0.150027 0.093050 0.057771
0.163912 0.094179 0.061402
0.178744 0.094667 0.062715
0.195407 0.094881 0.064759
0.213413 0.094453 0.065400
0.232547 0.093599 0.066743
0.252964 0.092012 0.067597
0.274357 0.089631 0.069154
0.296635 0.086030 0.070069
0.319799 0.078676 0.070619
0.347204 0.062623 0.071931
0.376165 0.042451 0.072114
0.404761 0.017426 0.073060
0.432746 0.000000 0.073487
0.460975 0.000000 0.074342
0.489723 0.000000 0.073945
0.518914 0.000000 0.075013
0.549554 0.000000 0.075349
0.581720 0.000000 0.074861
0.615625 0.000000 0.076600
0.651087 0.000000 0.077272
0.688075 0.000000 0.079164
0.726406 0.000000 0.081819
0.069917 0.091035 0.052430
0.071595 0.090944 0.053559
0.078553 0.091066 0.053376
0.083955 0.093629 0.053407
0.096834 0.095125 0.051087
0.106935 0.094667 0.052918
0.117342 0.094362 0.053437
0.127535 0.094667 0.054749
0.138857 0.095338 0.056855
0.150942 0.096345 0.058625
0.164553 0.097108 0.061311
0.179599 0.097505 0.062623
0.195926 0.097810 0.064668
0.213870 0.097353 0.065278
0.232822 0.096193 0.066773
0.252964 0.095216 0.067506
0.273930 0.092775 0.069245
0.295720 0.089784 0.070344
0.318578 0.084901 0.070771
0.345434 0.073945 0.070985
0.373053 0.053742 0.071748
0.400702 0.030640 0.072969
0.428138 0.003906 0.072511
0.456214 0.000000 0.073274
0.485481 0.000000 0.074128
0.515618 0.000000 0.073671
0.547173 0.000000 0.074891
0.580041 0.000000 0.075319
0.614343 0.000000 0.075563
0.650019 0.000000 0.077211
0.686793 0.000000 0.078462
0.724483 0.000000 0.080903
0.080568 0.099489 0.061341
0.081636 0.099397 0.062470
0.085145 0.099184 0.063569
0.088777 0.100374 0.064088
0.094270 0.102358 0.062959
0.105379 0.104341 0.059174
0.117098 0.102876 0.058991
0.128054 0.101625 0.059785
0.139467 0.101167 0.060090
0.151675 0.101717 0.060853
0.165225 0.101717 0.061585
0.180484 0.102022 0.062867
0.196811 0.101930 0.063935
0.214420 0.101595 0.064576
0.233463 0.100801 0.065919
0.253422 0.099580 0.066804
0.274540 0.097932 0.068208
0.296422 0.095125 0.069276
0.319707 0.091188 0.069703
0.346288 0.084199 0.071046
0.373144 0.069215 0.070741
0.400214 0.047486 0.071992
0.427375 0.021637 0.071595
0.455573 0.000000 0.072328
0.484840 0.000000 0.072084
0.515099 0.000000 0.072450
0.546624 0.000000 0.072541
0.579461 0.000000 0.074128
0.613519 0.000000 0.074403
0.648890 0.000000 0.075959
0.685451 0.000000 0.077790
0.722713 0.000000 0.079500
0.087922 0.106966 0.071382
0.088563 0.106905 0.072511
0.089662 0.107118 0.073487
0.092409 0.106844 0.075715
0.095583 0.108888 0.074617
0.102113 0.111116 0.072023
0.114565 0.113863 0.068727
0.128206 0.112825 0.065919
0.140627 0.110994 0.065675
0.154055 0.109041 0.065217
0.167788 0.108644 0.066072
0.182986 0.108217 0.066560
0.199222 0.108400 0.066316
0.217014 0.107942 0.066926
0.236179 0.107088 0.067109
0.256199 0.105806 0.067994
0.277226 0.104280 0.068269
0.299413 0.101381 0.068177
0.323735 0.098177 0.069154
0.349828 0.093111 0.069398
0.376501 0.085481 0.068910
0.403265 0.068147 0.070192
0.460975 0.017731 0.069490
0.490913 0.000000 0.069642
0.520775 0.000000 0.069825
0.551354 0.000000 0.070985
0.582605 0.000000 0.071595
0.614801 0.000000 0.071321
0.647791 0.000000 0.072786
0.681941 0.000000 0.074708
0.716640 0.000000 0.077089
0.751705 0.000000 0.080385
0.091096 0.116579 0.081453
0.091859 0.116518 0.081453
0.093233 0.116396 0.082155
0.096223 0.116426 0.083436
0.099977 0.116976 0.084535
0.104280 0.119173 0.083650
0.112642 0.122042 0.081636
0.127291 0.125917 0.078157
0.143709 0.125216 0.072572
0.158419 0.122774 0.072389
0.173892 0.120363 0.071809
0.190616 0.117800 0.071992
0.207553 0.117311 0.071870
0.225681 0.116548 0.072419
0.244816 0.115816 0.071290
0.264775 0.114351 0.072114
0.285832 0.112612 0.071199
0.308385 0.110079 0.071870
0.335149 0.106691 0.072023
0.362646 0.101991 0.071443
0.391302 0.095430 0.071077
0.420905 0.085481 0.069734
0.451514 0.060700 0.068360
0.483101 0.026856 0.067964
0.515038 0.000000 0.068513
0.546715 0.000000 0.067964
0.578332 0.000000 0.068421
0.610346 0.000000 0.069215
0.643214 0.000000 0.069764
0.676814 0.000000 0.070863
0.711238 0.000000 0.073671
0.746212 0.000000 0.077455
0.094759 0.125948 0.088777
0.094759 0.125948 0.088777
0.096712 0.125795 0.089204
0.099855 0.125521 0.090028
0.103792 0.125429 0.091218
0.107454 0.127230 0.090761
0.113588 0.129763 0.089601
0.122835 0.133120 0.088167
0.139528 0.137819 0.084169
0.157412 0.137942 0.080140
0.174807 0.135866 0.078279
0.191928 0.133150 0.077668
0.210025 0.129946 0.077882
0.229313 0.126375 0.076539
0.248264 0.125368 0.076661
0.267887 0.124086 0.077485
0.288640 0.122499 0.076570
0.313054 0.120790 0.076356
0.338506 0.117922 0.076692
0.364843 0.114015 0.076356
0.392309 0.108492 0.075227
0.421057 0.101625 0.073945
0.450782 0.092531 0.072694
0.481788 0.075624 0.071077
0.513390 0.039826 0.068269
0.544854 0.000855 0.065522
0.576257 0.000000 0.064607
0.608118 0.000000 0.065431
0.640925 0.000000 0.065858
0.674372 0.000000 0.066712
0.708644 0.000000 0.069276
0.743557 0.000000 0.072969
0.099123 0.136477 0.094240
0.099763 0.136446 0.094240
0.100923 0.136355 0.094636
0.103914 0.136110 0.095399
0.108186 0.135988 0.096498
0.112612 0.136080 0.097536
0.116640 0.138796 0.096437
0.123690 0.142031 0.095125
0.135470 0.145296 0.093172
0.153719 0.151553 0.090394
0.173648 0.151766 0.086275
0.193606 0.150668 0.083619
0.212192 0.147463 0.082521
0.231785 0.143923 0.081849
0.251896 0.139803 0.081727
0.272648 0.135714 0.081117
0.295689 0.134585 0.080659
0.319188 0.132662 0.080720
0.343572 0.130343 0.080964
0.369268 0.126802 0.080140
0.395880 0.122591 0.080079
0.423713 0.117311 0.078614
0.452857 0.110597 0.077546
0.483223 0.101808 0.075959
0.514305 0.090303 0.073060
0.545342 0.064881 0.070039
0.576654 0.027131 0.065583
0.608515 0.000000 0.060578
0.641047 0.000000 0.060609
0.674250 0.000000 0.062165
0.708278 0.000000 0.064332
0.742794 0.000000 0.067475
0.103792 0.148501 0.100526
0.103792 0.148501 0.100526
0.105501 0.148379 0.100862
0.108370 0.148165 0.101228
0.112825 0.147585 0.102327
0.117647 0.147402 0.103700
0.121584 0.148745 0.104036
0.127413 0.151766 0.102449
0.136141 0.155215 0.100649
0.148592 0.159274 0.098878
0.168887 0.166140 0.095338
0.190402 0.167269 0.091524
0.213138 0.166445 0.088319
0.233524 0.163119 0.087312
0.254978 0.159579 0.087037
0.278019 0.155703 0.086244
0.302068 0.150912 0.085237
0.326329 0.146487 0.084871
0.350378 0.144350 0.085115
0.375372 0.141512 0.084199
0.401312 0.137789 0.083528
0.427741 0.133577 0.082918
0.455268 0.128389 0.082338
0.484047 0.121675 0.080323
0.513512 0.113802 0.078828
0.543664 0.104616 0.075227
0.574426 0.092988 0.072023
0.606195 0.072297 0.066438
0.639063 0.037903 0.060456
0.672755 0.009583 0.056672
0.707088 0.000000 0.056886
0.741909 0.000000 0.060731
0.107729 0.161532 0.106783
0.108339 0.161501 0.106783
0.109957 0.161379 0.107088
0.113130 0.161166 0.107759
0.117159 0.160861 0.108766
0.122316 0.160464 0.110323
0.128328 0.160128 0.112184
0.132448 0.162966 0.110780
0.139590 0.166567 0.109438
0.149935 0.170413 0.107149
0.164126 0.174807 0.104829
0.186130 0.182834 0.100832
0.209720 0.184909 0.096315
0.235355 0.184909 0.092683
0.259709 0.182315 0.091279
0.282414 0.178622 0.090547
0.306188 0.173983 0.090150
0.330663 0.168795 0.089540
0.356207 0.162081 0.088869
0.381384 0.157290 0.088502
0.406561 0.153994 0.088167
0.432288 0.150546 0.087770
0.459419 0.146395 0.086397
0.487678 0.141176 0.085023
0.516716 0.135714 0.083253
0.546502 0.129061 0.080659
0.576989 0.122103 0.078157
0.608515 0.113680 0.072358
0.641016 0.105653 0.066743
0.674556 0.098146 0.058961
0.708858 0.094667 0.050019
0.743435 0.097749 0.051820
0.113527 0.176455 0.114199
0.113436 0.176455 0.114504
0.115206 0.176181 0.114534
0.118013 0.176150 0.115084
0.122225 0.175845 0.116274
0.128084 0.175418 0.117464
0.134554 0.175082 0.119417
0.140169 0.175937 0.120241
0.145571 0.179416 0.118685
0.154086 0.183322 0.116609
0.166201 0.188235 0.114626
0.182864 0.193698 0.112184
0.216617 0.211063 0.110323
0.244785 0.215061 0.104646
0.274357 0.215030 0.099336
0.302922 0.212711 0.096559
0.328191 0.207553 0.095674
0.354070 0.201877 0.094942
0.380438 0.195285 0.094057
0.407355 0.187869 0.093294
0.434668 0.179477 0.092226
0.461128 0.173953 0.091432
0.487678 0.170321 0.091188
0.515160 0.166110 0.089662
0.543145 0.161776 0.088808
0.571679 0.156954 0.087098
0.600732 0.152346 0.083497
0.630365 0.147799 0.080018
0.660853 0.144015 0.073793
0.692317 0.141878 0.066041
0.724636 0.142550 0.056031
0.757504 0.147555 0.046143
0.119753 0.196078 0.124086
0.120241 0.196048 0.124086
0.121187 0.195987 0.124361
0.124788 0.195499 0.124971
0.129366 0.195041 0.125765
0.134951 0.194522 0.126833
0.142061 0.193851 0.128695
0.149874 0.193637 0.131106
0.155612 0.197055 0.130648
0.163394 0.201846 0.129274
0.174533 0.207340 0.127504
0.189822 0.213687 0.125277
0.209598 0.220279 0.122560
0.237125 0.230716 0.117861
0.267094 0.236057 0.111055
0.297642 0.236088 0.105135
0.328191 0.233982 0.100740
0.354345 0.228824 0.099123
0.380133 0.222629 0.098238
0.406348 0.215824 0.097505
0.432868 0.208347 0.096529
0.460365 0.200168 0.095125
0.488624 0.191196 0.094057
0.515984 0.186893 0.093690
0.543755 0.183474 0.091951
0.572137 0.180331 0.090700
0.601099 0.177096 0.088808
0.630884 0.174319 0.085328
0.661463 0.172580 0.080659
0.693019 0.172549 0.074037
0.725429 0.174807 0.064607
0.758053 0.180209 0.054505
0.126314 0.215854 0.133730
0.126314 0.215854 0.133730
0.127962 0.215518 0.134035
0.131289 0.215091 0.134585
0.136019 0.214664 0.135348
0.142123 0.214023 0.136568
0.149142 0.213413 0.138247
0.157504 0.212772 0.140505
0.165652 0.213107 0.142519
0.171786 0.217777 0.140749
0.180728 0.222965 0.139193
0.193851 0.228885 0.136965
0.210483 0.235355 0.134279
0.231174 0.241947 0.130922
0.258946 0.251896 0.125704
0.289952 0.257877 0.118196
0.320714 0.257908 0.111238
0.351934 0.255558 0.105409
0.380346 0.250828 0.103029
0.406195 0.244541 0.101930
0.432532 0.237705 0.100954
0.459846 0.230594 0.099855
0.488014 0.223117 0.098207
0.517205 0.215030 0.097078
0.547265 0.206302 0.095399
0.575525 0.203830 0.094148
0.604211 0.201816 0.092012
0.633722 0.200381 0.089662
0.664179 0.200046 0.086824
0.695460 0.201328 0.081605
0.727657 0.204807 0.074708
0.759976 0.211215 0.064607
0.133822 0.236912 0.144411
0.134035 0.237034 0.144625
0.135531 0.236515 0.144717
0.138949 0.235874 0.145052
0.143343 0.235203 0.145815
0.149508 0.234257 0.146792
0.156985 0.233433 0.148348
0.165530 0.232486 0.150301
0.174380 0.231907 0.152895
0.181338 0.234287 0.153170
0.189242 0.239231 0.151522
0.199863 0.245060 0.149477
0.214115 0.251133 0.146914
0.231876 0.257603 0.143709
0.253391 0.263951 0.139895
0.281559 0.273167 0.133852
0.313024 0.280125 0.125856
0.344305 0.280400 0.117708
0.376135 0.278111 0.110780
0.406531 0.274052 0.106630
0.432685 0.268009 0.105531
0.459937 0.261753 0.103944
0.488075 0.255222 0.102510
0.517082 0.248447 0.101564
0.546990 0.241306 0.099702
0.577600 0.233616 0.097963
0.608606 0.226902 0.096101
0.638239 0.226780 0.094087
0.668849 0.227756 0.091798
0.700526 0.230503 0.088441
0.732967 0.235630 0.083803
0.765560 0.243137 0.078676
0.141512 0.257755 0.155306
0.141909 0.257725 0.155306
0.143557 0.257542 0.155520
0.146609 0.257084 0.155795
0.151247 0.256535 0.156649
0.157656 0.255863 0.157870
0.165560 0.255070 0.159487
0.174197 0.254582 0.161501
0.183963 0.254063 0.164218
0.194003 0.253483 0.167208
0.200137 0.257939 0.165591
0.208988 0.262974 0.163302
0.220554 0.268467 0.160555
0.235447 0.274083 0.157321
0.253635 0.279789 0.153506
0.274907 0.285435 0.148684
0.302983 0.293980 0.142031
0.335363 0.301762 0.133333
0.366949 0.302434 0.124880
0.399298 0.300755 0.116884
0.431556 0.297917 0.111177
0.460151 0.292912 0.109316
0.488655 0.287449 0.107881
0.517845 0.282017 0.106142
0.548028 0.276310 0.104524
0.578943 0.270420 0.102571
0.610681 0.264683 0.100801
0.643000 0.259007 0.098512
0.675196 0.256016 0.096315
0.706203 0.259709 0.093751
0.737728 0.265263 0.091035
0.769314 0.273014 0.088258
0.149630 0.278813 0.166171
0.149996 0.278813 0.166171
0.151522 0.278660 0.166354
0.154788 0.278141 0.166812
0.159304 0.277714 0.167575
0.166049 0.276982 0.168704
0.173465 0.276463 0.170291
0.182437 0.275700 0.172213
0.192325 0.274998 0.174716
0.202609 0.274327 0.177493
0.211398 0.275486 0.179141
0.218418 0.280369 0.176883
0.228092 0.285588 0.174258
0.240909 0.291051 0.171145
0.256474 0.296574 0.167422
0.275425 0.302068 0.162966
0.297368 0.307469 0.157717
0.325292 0.315557 0.151156
0.358770 0.324712 0.141848
0.390814 0.325872 0.132876
0.424140 0.325200 0.123964
0.457862 0.323308 0.117006
0.489357 0.319921 0.113588
0.518822 0.315435 0.111818
0.549096 0.310979 0.110048
0.580102 0.306706 0.108156
0.612116 0.302495 0.106050
0.644587 0.298528 0.104158
0.677668 0.295384 0.101900
0.711299 0.293065 0.099794
0.743679 0.295689 0.097932
0.774716 0.303929 0.096345
0.158511 0.301793 0.178134
0.159365 0.301823 0.178256
0.165560 0.312383 0.184298
0.168765 0.311925 0.184665
0.173739 0.311467 0.185489
0.180362 0.310582 0.186404
0.188296 0.309667 0.187869
0.197757 0.308782 0.189731
0.208042 0.307897 0.192142
0.219211 0.306920 0.194919
0.230411 0.305821 0.198215
0.237888 0.309056 0.197360
0.246128 0.313817 0.194491
0.256870 0.318669 0.190799
0.270390 0.323583 0.186862
0.286809 0.328313 0.182193
0.306462 0.332982 0.177035
0.328618 0.337652 0.171023
0.356542 0.344823 0.163516
0.390356 0.354498 0.153079
0.423011 0.356023 0.143404
0.457252 0.356085 0.133944
0.491707 0.354986 0.125338
0.525689 0.352850 0.119509
0.555108 0.348547 0.117708
0.585199 0.344610 0.115633
0.615930 0.340856 0.113466
0.647425 0.337774 0.111025
0.679835 0.335698 0.109102
0.712886 0.334844 0.106874
0.746059 0.334997 0.105684
0.779049 0.336675 0.105562
0.170077 0.328801 0.192569
0.170932 0.329900 0.193271
0.173342 0.330755 0.194003
0.176608 0.331456 0.195041
0.181674 0.331609 0.196078
0.188418 0.331273 0.197330
0.196414 0.330419 0.198703
0.205417 0.329412 0.200351
0.215824 0.328405 0.202457
0.226566 0.327245 0.204990
0.238224 0.326146 0.208194
0.248966 0.325719 0.210941
0.255528 0.330236 0.208042
0.264561 0.334874 0.204837
0.276280 0.339696 0.200961
0.290867 0.344488 0.196719
0.308049 0.349401 0.191989
0.328191 0.354223 0.186618
0.351476 0.359228 0.180819
0.379553 0.366461 0.173312
0.414496 0.377722 0.162844
0.448432 0.380743 0.153140
0.483467 0.381994 0.143160
0.519005 0.381994 0.133333
0.553948 0.381140 0.126345
0.585199 0.378454 0.123537
0.615656 0.375769 0.121218
0.646967 0.373754 0.119478
0.679133 0.372778 0.117220
0.711940 0.372961 0.115846
0.744961 0.374304 0.114870
0.777829 0.377020 0.115724
0.179995 0.351385 0.204776
0.181125 0.352514 0.205509
0.183261 0.353491 0.206394
0.186526 0.354314 0.207309
0.191775 0.354681 0.208560
0.198306 0.354345 0.209720
0.206241 0.353521 0.210971
0.215457 0.352422 0.212650
0.225467 0.351446 0.214755
0.236545 0.350195 0.217105
0.248081 0.349065 0.219974
0.259861 0.347631 0.223209
0.268589 0.349187 0.223423
0.276341 0.353796 0.220493
0.286412 0.358465 0.216861
0.298985 0.363165 0.212894
0.314366 0.368078 0.208469
0.332311 0.372900 0.203372
0.353155 0.377935 0.197940
0.376776 0.383124 0.191867
0.404852 0.390051 0.184726
0.440436 0.402533 0.174197
0.475380 0.406561 0.164126
0.511070 0.408972 0.154147
0.546990 0.410101 0.143709
0.582483 0.410498 0.135836
0.615869 0.409766 0.130709
0.646906 0.408606 0.129305
0.678798 0.408576 0.127565
0.711269 0.409644 0.126589
0.743893 0.411872 0.126925
0.776516 0.415442 0.128237
0.191531 0.375860 0.218387
0.192691 0.376837 0.218967
0.195224 0.377600 0.219913
0.198459 0.378485 0.220951
0.203403 0.378729 0.221988
0.209781 0.378454 0.223178
0.217624 0.377661 0.224460
0.226566 0.376806 0.226047
0.236851 0.375616 0.227939
0.247745 0.374456 0.230198
0.259434 0.373175 0.233005
0.271489 0.371923 0.236179
0.283391 0.370459 0.239658
0.290410 0.374243 0.237217
0.299229 0.378790 0.234134
0.310246 0.383612 0.230228
0.324224 0.388708 0.226261
0.340856 0.394079 0.221836
0.360418 0.399725 0.217166
0.382757 0.405646 0.211856
0.408118 0.411810 0.206424
0.437354 0.419471 0.199557
0.474739 0.433326 0.188998
0.510613 0.438972 0.179599
0.547356 0.443214 0.169924
0.584558 0.445930 0.159609
0.621088 0.448096 0.151003
0.656825 0.450233 0.144656
0.688624 0.451423 0.144686
0.720607 0.453346 0.145388
0.752743 0.456458 0.147250
0.784848 0.460639 0.150942
0.210300 0.408637 0.237949
0.210880 0.409033 0.238254
0.212863 0.409277 0.238712
0.216037 0.409125 0.239231
0.220340 0.408820 0.239902
0.226352 0.407996 0.240787
0.233890 0.407080 0.241886
0.242618 0.405982 0.243290
0.252689 0.404883 0.245090
0.263706 0.403815 0.247562
0.275517 0.402594 0.250187
0.287846 0.401343 0.253361
0.300084 0.399756 0.256779
0.310643 0.399786 0.258549
0.318212 0.404211 0.255253
0.327825 0.408759 0.251591
0.339940 0.413519 0.247684
0.354589 0.418494 0.243290
0.371801 0.423743 0.238560
0.392065 0.429084 0.233341
0.414527 0.434607 0.227970
0.439826 0.440253 0.221958
0.468116 0.446937 0.215152
0.504784 0.460029 0.204349
0.540337 0.466743 0.194797
0.577234 0.471748 0.185397
0.614405 0.475929 0.175814
0.651545 0.479866 0.166995
0.687770 0.483772 0.161593
0.720546 0.486610 0.161929
0.752255 0.490028 0.165255
0.784024 0.494331 0.170626
0.227573 0.435737 0.255070
0.227909 0.436164 0.255436
0.229862 0.436316 0.255863
0.232639 0.436225 0.256321
0.237095 0.435889 0.257023
0.242863 0.435279 0.257877
0.250034 0.434424 0.258976
0.258701 0.433387 0.260258
0.268559 0.432319 0.262089
0.279606 0.431312 0.264408
0.291264 0.430091 0.267033
0.303593 0.428779 0.270146
0.316075 0.427314 0.273411
0.328588 0.425818 0.277134
0.337224 0.428260 0.276402
0.345983 0.432746 0.273136
0.356847 0.437568 0.269383
0.370092 0.442542 0.265599
0.385779 0.447791 0.261112
0.404181 0.453193 0.256443
0.425116 0.458717 0.251530
0.448280 0.464332 0.246067
0.473732 0.470039 0.240269
0.501671 0.476387 0.233616
0.533532 0.485359 0.220462
0.569146 0.493141 0.211429
0.606195 0.499397 0.202640
0.643732 0.504967 0.194400
0.680720 0.510155 0.186282
0.716823 0.515068 0.183352
0.750942 0.519799 0.184482
0.782803 0.524651 0.191623
0.251286 0.468330 0.277379
0.252293 0.469062 0.278019
0.253971 0.469276 0.278477
0.256565 0.468910 0.278782
0.260258 0.468025 0.279057
0.265232 0.466865 0.279393
0.271244 0.465431 0.279942
0.279332 0.463661 0.280705
0.288182 0.462104 0.281987
0.298283 0.460334 0.283635
0.309239 0.458503 0.285588
0.321019 0.456825 0.288304
0.333104 0.454994 0.291142
0.345220 0.452979 0.294316
0.356817 0.450996 0.297490
0.363714 0.454749 0.293980
0.372686 0.458961 0.290043
0.384283 0.463447 0.286168
0.398199 0.468482 0.282078
0.415045 0.473884 0.277897
0.434302 0.479530 0.273442
0.455726 0.485206 0.268772
0.479164 0.490669 0.263401
0.503990 0.495857 0.257420
0.530571 0.501152 0.250675
0.565698 0.512779 0.240238
0.600610 0.521263 0.231815
0.637415 0.528191 0.224155
0.674220 0.534356 0.217533
0.710628 0.540215 0.212131
0.746487 0.546258 0.211185
0.781399 0.552514 0.213260
0.272679 0.494759 0.296696
0.273503 0.495491 0.297368
0.275059 0.495766 0.297826
0.277745 0.495613 0.298222
0.281254 0.495247 0.298833
0.286290 0.494453 0.299504
0.292882 0.493629 0.300328
0.300786 0.492683 0.301701
0.310002 0.491554 0.303227
0.320317 0.490455 0.305150
0.331518 0.489204 0.307561
0.343145 0.487861 0.310307
0.355291 0.486213 0.313237
0.367346 0.484352 0.316442
0.379553 0.482155 0.319738
0.389136 0.482460 0.320439
0.396857 0.486336 0.316686
0.407019 0.490547 0.312902
0.419593 0.495247 0.309117
0.434760 0.500328 0.305303
0.452186 0.505669 0.301213
0.471992 0.511131 0.296818
0.493782 0.516564 0.292332
0.517082 0.521843 0.286961
0.541985 0.526879 0.281468
0.567864 0.531731 0.275273
0.602411 0.543114 0.265782
0.637018 0.552361 0.258549
0.673426 0.560052 0.253727
0.709773 0.567132 0.250370
0.745480 0.573968 0.248814
0.780758 0.581170 0.250553
0.301122 0.525689 0.321660
0.301884 0.525933 0.321874
0.303075 0.525994 0.322179
0.305119 0.525811 0.322545
0.308629 0.525261 0.322942
0.313420 0.524498 0.323461
0.319280 0.523705 0.324285
0.326635 0.522606 0.325353
0.335149 0.521569 0.326787
0.344884 0.520439 0.328710
0.355627 0.519066 0.330846
0.367010 0.517784 0.333471
0.378668 0.516411 0.336400
0.390845 0.514611 0.339513
0.402930 0.512596 0.342870
0.414832 0.510521 0.346380
0.422827 0.512932 0.344396
0.431586 0.516808 0.340795
0.442939 0.521263 0.337316
0.456489 0.526055 0.333654
0.472480 0.531121 0.330053
0.490455 0.536278 0.326238
0.510399 0.541344 0.322087
0.531975 0.546349 0.317510
0.554833 0.551141 0.312383
0.578820 0.555871 0.306981
0.603845 0.560388 0.301030
0.636591 0.570642 0.292668
0.669886 0.579950 0.287114
0.705653 0.588281 0.285283
0.741054 0.596307 0.285496
0.776791 0.604852 0.288060
0.332525 0.554528 0.347478
0.332921 0.554833 0.347906
0.333959 0.554955 0.348119
0.335973 0.554925 0.348547
0.339635 0.554711 0.349310
0.344457 0.554528 0.350286
0.351232 0.554559 0.351904
0.359350 0.554650 0.354070
0.368963 0.554955 0.356847
0.379980 0.555108 0.359991
0.391791 0.555322 0.363592
0.404273 0.555322 0.367346
0.417365 0.555016 0.371496
0.430182 0.554406 0.375586
0.442908 0.553338 0.379614
0.455085 0.551751 0.383520
0.466316 0.550805 0.386511
0.474281 0.554589 0.383398
0.484474 0.558709 0.380255
0.496895 0.563165 0.377325
0.511284 0.567864 0.374304
0.527550 0.572534 0.370977
0.545342 0.577142 0.367437
0.564569 0.581628 0.363622
0.585107 0.585931 0.359197
0.606836 0.590082 0.354406
0.629450 0.594202 0.349371
0.652918 0.598138 0.344030
0.683253 0.607111 0.337285
0.714290 0.616083 0.333471
0.748867 0.625238 0.336095
0.784634 0.635492 0.341344
0.382544 0.591821 0.387366
0.382757 0.591821 0.387366
0.382971 0.591669 0.387121
0.384192 0.591424 0.387091
0.386969 0.590967 0.387427
0.390906 0.590509 0.388128
0.395941 0.589929 0.388952
0.402472 0.589288 0.390234
0.410315 0.588739 0.392004
0.419104 0.588098 0.394049
0.429175 0.587366 0.396643
0.439826 0.586572 0.399420
0.451209 0.585687 0.402686
0.462806 0.584649 0.406104
