20 Preset/Classic brown/【3】LUT video cho PR-AE-FCPX/Tone (4).cube
# Created by Adobe Lightroom plugin Export LUT (1.24.0)
# www.johnrellis.com/lightroom/exportlut.htm
# Preset: 人文电影-素材江湖05
# Color profile: E:\lut插件\exportlut.1.24\exportlut.lrplugin\color profiles\Rec709gamma2.4.icc
LUT_3D_SIZE 32
DOMAIN_MIN 0.0 0.0 0.0
DOMAIN_MAX 1.0 1.0 1.0
0.050843 0.079469 0.071595
0.050843 0.079469 0.071595
0.050843 0.079469 0.071595
0.050843 0.079469 0.071595
0.050843 0.079469 0.071595
0.058717 0.081636 0.075471
0.088197 0.085908 0.081788
0.100191 0.089357 0.087098
0.112978 0.091218 0.090211
0.128145 0.091493 0.092683
0.145663 0.090883 0.093843
0.166384 0.087953 0.094972
0.189364 0.081086 0.095583
0.215061 0.065736 0.096529
0.243198 0.043610 0.097261
0.273472 0.015167 0.099336
0.305791 0.000000 0.101320
0.340276 0.000000 0.103517
0.377600 0.000000 0.105653
0.431922 0.000000 0.109010
0.487037 0.000000 0.112398
0.538476 0.000000 0.115999
0.585534 0.000000 0.119936
0.629694 0.000000 0.124361
0.670893 0.000000 0.128847
0.709255 0.000000 0.133974
0.745266 0.000000 0.140108
0.778500 0.000000 0.147799
0.809995 0.000000 0.156741
0.839963 0.000000 0.167544
0.869352 0.000000 0.180758
0.898863 0.000000 0.196475
0.050843 0.079469 0.071595
0.050843 0.079469 0.071595
0.050843 0.079469 0.071595
0.050843 0.079469 0.071595
0.050843 0.079469 0.071595
0.059022 0.081636 0.074342
0.087800 0.085298 0.081178
0.099153 0.089052 0.087221
0.111513 0.091005 0.090272
0.126375 0.091829 0.092287
0.143465 0.090944 0.093904
0.163790 0.088624 0.094972
0.186221 0.082002 0.095674
0.211582 0.068086 0.096223
0.239200 0.046113 0.097047
0.268894 0.020447 0.099092
0.300969 0.000000 0.100771
0.335332 0.000000 0.102998
0.372137 0.000000 0.105226
0.424384 0.000000 0.108431
0.477058 0.000000 0.111696
0.526452 0.000000 0.115297
0.572076 0.000000 0.118898
0.615564 0.000000 0.122805
0.656672 0.000000 0.127016
0.695460 0.000000 0.131991
0.732540 0.000000 0.137850
0.767300 0.000000 0.144991
0.800076 0.000000 0.153445
0.831235 0.000000 0.163973
0.861357 0.000000 0.176791
0.891508 0.000000 0.192294
0.050843 0.079469 0.071595
0.050843 0.079469 0.071595
0.050843 0.079469 0.071595
0.050843 0.079469 0.071595
0.050843 0.079469 0.071595
0.058717 0.081636 0.075471
0.087800 0.085298 0.081178
0.099245 0.089052 0.086519
0.110933 0.091096 0.090272
0.125612 0.091554 0.092348
0.142672 0.091096 0.093904
0.162325 0.088594 0.094667
0.184421 0.082246 0.095735
0.209140 0.069368 0.096315
0.236393 0.048249 0.097139
0.265873 0.023468 0.098817
0.297612 0.000000 0.100587
0.331762 0.000000 0.102785
0.368353 0.000000 0.105043
0.420142 0.000000 0.108309
0.471443 0.000000 0.111391
0.520043 0.000000 0.114717
0.565148 0.000000 0.118379
0.608362 0.000000 0.122133
0.649378 0.000000 0.126162
0.688136 0.000000 0.131014
0.725704 0.000000 0.136568
0.761074 0.000000 0.143801
0.794583 0.000000 0.152041
0.826444 0.000000 0.162356
0.856870 0.000000 0.174777
0.887175 0.000000 0.189914
0.050843 0.079469 0.071595
0.050843 0.079469 0.071595
0.050843 0.079469 0.071595
0.050843 0.079469 0.071595
0.050843 0.079469 0.071595
0.061677 0.082094 0.076448
0.088930 0.085786 0.081788
0.099153 0.089052 0.087221
0.111513 0.091005 0.090272
0.125612 0.091554 0.092348
0.142031 0.090822 0.093965
0.161349 0.088838 0.094667
0.183078 0.082948 0.095369
0.207309 0.071138 0.096345
0.234043 0.050935 0.097169
0.262699 0.025544 0.098573
0.293553 0.000000 0.100343
0.326726 0.000000 0.102602
0.364111 0.000000 0.104891
0.412634 0.000000 0.107668
0.460517 0.000000 0.110719
0.507164 0.000000 0.113802
0.551751 0.000000 0.117037
0.595697 0.000000 0.120851
0.638483 0.000000 0.124941
0.679774 0.000000 0.129946
0.719692 0.000000 0.135897
0.757198 0.000000 0.142580
0.791867 0.000000 0.151217
0.824216 0.000000 0.161563
0.854520 0.000000 0.173922
0.884154 0.000000 0.188296
0.050843 0.079469 0.071595
0.050843 0.079469 0.071595
0.050843 0.079469 0.071595
0.050843 0.079469 0.071595
0.050843 0.079469 0.071595
0.066621 0.082429 0.077424
0.089296 0.086397 0.082399
0.099763 0.088991 0.087221
0.110933 0.091096 0.090272
0.124666 0.091737 0.092348
0.140902 0.091066 0.093568
0.159670 0.089265 0.094667
0.180941 0.083314 0.095430
0.204593 0.072633 0.096040
0.230747 0.053529 0.096864
0.259556 0.028595 0.098299
0.290410 0.000000 0.100435
0.323857 0.000000 0.102419
0.363806 0.000000 0.104891
0.410101 0.000000 0.107698
0.456580 0.000000 0.110597
0.502251 0.000000 0.113344
0.546624 0.000000 0.116548
0.590692 0.000000 0.120424
0.634028 0.000000 0.124453
0.676051 0.000000 0.129397
0.716518 0.000000 0.134859
0.754177 0.000000 0.142061
0.788937 0.000000 0.150515
0.821347 0.000000 0.160586
0.851591 0.000000 0.172549
0.881102 0.000000 0.186831
0.050080 0.081575 0.073396
0.051789 0.081453 0.074525
0.050080 0.081575 0.073396
0.051789 0.081453 0.074525
0.051789 0.081453 0.074525
0.071443 0.084871 0.077913
0.091341 0.087984 0.082795
0.101137 0.089631 0.087709
0.111879 0.091371 0.090211
0.125612 0.091554 0.092348
0.141695 0.090913 0.093568
0.160006 0.089174 0.094667
0.181125 0.083925 0.095399
0.204593 0.072633 0.096040
0.230869 0.054536 0.096834
0.259617 0.030762 0.098177
0.290837 0.001770 0.100282
0.324407 0.000000 0.102419
0.367895 0.000000 0.105226
0.413519 0.000000 0.107851
0.459174 0.000000 0.110658
0.504479 0.000000 0.113619
0.619745 0.000000 0.122957
0.663325 0.000000 0.127626
0.703365 0.000000 0.133059
0.740139 0.000000 0.139193
0.773190 0.000000 0.146151
0.803616 0.000000 0.154665
0.831998 0.000000 0.164584
0.859037 0.000000 0.176059
0.885527 0.000000 0.189517
0.911406 0.000000 0.204990
0.061280 0.091371 0.085359
0.061280 0.091371 0.085359
0.061280 0.091371 0.085359
0.062013 0.090913 0.085451
0.062867 0.091737 0.084565
0.073274 0.092592 0.082826
0.092195 0.095583 0.085939
0.103548 0.097292 0.089570
0.116274 0.097414 0.091341
0.130953 0.096956 0.093080
0.148135 0.095979 0.094240
0.168063 0.093751 0.094942
0.190249 0.089784 0.095552
0.215061 0.081544 0.096468
0.241917 0.065248 0.097505
0.271122 0.041962 0.099062
0.302831 0.011810 0.100984
0.342931 0.000000 0.103334
0.389960 0.000000 0.106233
0.438911 0.000000 0.109010
0.489509 0.000000 0.112306
0.540703 0.000000 0.115816
0.591760 0.000000 0.119997
0.641230 0.000000 0.125032
0.686976 0.000000 0.130404
0.727596 0.000000 0.136446
0.762783 0.000000 0.143709
0.794186 0.000000 0.152041
0.823392 0.000000 0.161288
0.850492 0.000000 0.172580
0.877104 0.000000 0.185458
0.903258 0.000000 0.200320
0.071534 0.097902 0.092103
0.071534 0.097902 0.092103
0.071534 0.097902 0.092103
0.071534 0.097902 0.092103
0.073091 0.098238 0.091615
0.077241 0.099245 0.091005
0.088014 0.100435 0.089845
0.101839 0.103639 0.090303
0.116396 0.104616 0.091890
0.131106 0.104189 0.093202
0.148287 0.103304 0.094362
0.167758 0.101686 0.095003
0.189731 0.098299 0.095644
0.214054 0.094057 0.096040
0.240696 0.087068 0.097108
0.269322 0.071290 0.099001
0.303868 0.041444 0.100679
0.345434 0.000000 0.103120
0.389166 0.000000 0.105806
0.435431 0.000000 0.108644
0.483558 0.000000 0.111391
0.532891 0.000000 0.115023
0.582666 0.000000 0.119051
0.631586 0.000000 0.123354
0.677516 0.000000 0.128786
0.718593 0.000000 0.134890
0.754726 0.000000 0.141726
0.787015 0.000000 0.149752
0.816800 0.000000 0.158968
0.844388 0.000000 0.169894
0.871244 0.000000 0.182589
0.897612 0.000000 0.197482
0.078279 0.104036 0.096712
0.078279 0.104036 0.096712
0.079530 0.103944 0.096712
0.079072 0.104311 0.096651
0.081117 0.104555 0.096590
0.083070 0.105135 0.095705
0.088624 0.106172 0.094697
0.096468 0.108461 0.093812
0.113954 0.112062 0.092775
0.131960 0.112856 0.092927
0.149203 0.112337 0.094057
0.168765 0.111177 0.094636
0.190890 0.108797 0.095155
0.215152 0.105379 0.095918
0.241855 0.100374 0.096864
0.273716 0.093477 0.098817
0.310735 0.079530 0.100893
0.349737 0.039826 0.102998
0.391669 0.000000 0.105348
0.435859 0.000000 0.108186
0.482246 0.000000 0.110933
0.530053 0.000000 0.114229
0.578607 0.000000 0.117922
0.626673 0.000000 0.122499
0.672236 0.000000 0.127687
0.713252 0.000000 0.133516
0.749844 0.000000 0.140322
0.782498 0.000000 0.148104
0.812589 0.000000 0.157351
0.840360 0.000000 0.168154
0.867185 0.000000 0.180941
0.893614 0.000000 0.195254
0.083528 0.110506 0.101259
0.083528 0.110506 0.101259
0.084749 0.110445 0.101259
0.085542 0.110719 0.101228
0.086549 0.111025 0.100801
0.087861 0.111910 0.100282
0.090730 0.112947 0.099367
0.096193 0.114015 0.097932
0.107271 0.116884 0.096803
0.127596 0.120974 0.095155
0.148867 0.122286 0.094240
0.169039 0.121492 0.094362
0.191257 0.119905 0.094392
0.216098 0.117678 0.094972
0.246799 0.114748 0.096559
0.280461 0.109957 0.098146
0.316564 0.101991 0.100526
0.355352 0.088563 0.102480
0.396612 0.044831 0.105013
0.439979 0.000000 0.107362
0.484535 0.000000 0.110109
0.529229 0.000000 0.113283
0.574640 0.000000 0.116548
0.619532 0.000000 0.120912
0.662623 0.000000 0.125612
0.702937 0.000000 0.130953
0.740047 0.000000 0.137667
0.773770 0.000000 0.145480
0.805051 0.000000 0.154757
0.833982 0.000000 0.165530
0.861662 0.000000 0.178378
0.888762 0.000000 0.192935
0.088991 0.117403 0.105745
0.088991 0.117403 0.105745
0.089448 0.117647 0.105715
0.089296 0.117952 0.105318
0.090517 0.118166 0.105287
0.092042 0.118898 0.104799
0.094820 0.119844 0.103914
0.099123 0.121248 0.102541
0.106325 0.122805 0.101015
0.120974 0.126772 0.099611
0.143984 0.131777 0.096773
0.170779 0.134371 0.094392
0.196750 0.133944 0.093202
0.223972 0.132998 0.094179
0.254276 0.131075 0.095583
0.287175 0.127749 0.097414
0.322423 0.121920 0.099367
0.360449 0.112673 0.101534
0.400549 0.098299 0.103700
0.442390 0.062470 0.106294
0.485359 0.000000 0.108736
0.528862 0.000000 0.111849
0.573388 0.000000 0.115389
0.617517 0.000000 0.119356
0.660090 0.000000 0.123964
0.700130 0.000000 0.129458
0.737209 0.000000 0.136049
0.770962 0.000000 0.143984
0.802243 0.000000 0.153384
0.831296 0.000000 0.164218
0.858946 0.000000 0.177127
0.886046 0.000000 0.191928
0.093477 0.125765 0.111879
0.093935 0.125978 0.111849
0.093935 0.125978 0.111849
0.094484 0.126223 0.111482
0.095460 0.126680 0.111055
0.096895 0.127382 0.110628
0.098787 0.128573 0.109102
0.102693 0.130068 0.107454
0.109407 0.131807 0.105989
0.119875 0.134310 0.103944
0.139467 0.140505 0.102113
0.168643 0.147463 0.098054
0.223331 0.162661 0.094636
0.259098 0.163058 0.093111
0.295445 0.161257 0.093660
0.332677 0.157992 0.095827
0.372168 0.152224 0.097658
0.413214 0.143801 0.100160
0.455116 0.132143 0.102846
0.497841 0.115816 0.105623
0.540429 0.091981 0.109224
0.582300 0.023438 0.112734
0.623560 0.000000 0.116701
0.663539 0.000000 0.121401
0.701106 0.000000 0.126894
0.735470 0.000000 0.133333
0.766323 0.000000 0.140841
0.794766 0.000000 0.149538
0.821256 0.000000 0.159487
0.846647 0.000000 0.171054
0.871763 0.000000 0.184054
0.896788 0.021637 0.199619
0.101442 0.139193 0.122011
0.101228 0.139437 0.121981
0.101961 0.139376 0.121706
0.102449 0.139590 0.121401
0.103059 0.140230 0.121279
0.104829 0.141024 0.120546
0.107240 0.142428 0.119112
0.110872 0.144411 0.116945
0.117311 0.146975 0.114534
0.127840 0.149905 0.111543
0.142702 0.153628 0.108461
0.170352 0.162905 0.105684
0.209049 0.173159 0.100069
0.253758 0.180514 0.094850
0.293248 0.181704 0.092592
0.333562 0.179690 0.091402
0.372076 0.175692 0.094057
0.411261 0.169589 0.096712
0.451667 0.161563 0.099214
0.492103 0.151064 0.102266
0.532799 0.137545 0.105470
0.573785 0.120760 0.108858
0.614435 0.099397 0.113008
0.654261 0.055116 0.117708
0.691890 0.000000 0.123354
0.727199 0.000000 0.129427
0.758999 0.000000 0.136904
0.788296 0.000000 0.145785
0.815702 0.000000 0.156313
0.841672 0.012421 0.168124
0.867185 0.099580 0.181765
0.892515 0.143526 0.197635
0.109438 0.153536 0.132418
0.109712 0.153323 0.132204
0.109804 0.153323 0.131930
0.110445 0.153262 0.131685
0.111055 0.153445 0.130892
0.112947 0.153933 0.130007
0.114870 0.155032 0.128511
0.117952 0.156619 0.126314
0.123507 0.158938 0.123629
0.131991 0.161898 0.120638
0.144778 0.165591 0.116945
0.163882 0.170626 0.113130
0.197055 0.182193 0.108156
0.240269 0.193454 0.101991
0.288762 0.201236 0.094697
0.329961 0.201846 0.092164
0.372045 0.199222 0.089906
0.411383 0.194827 0.091249
0.450538 0.188876 0.094331
0.489967 0.181399 0.097169
0.529656 0.172549 0.100801
0.570092 0.162478 0.104524
0.610254 0.151247 0.108675
0.649958 0.139467 0.113375
0.687648 0.128908 0.119142
0.722927 0.120851 0.125612
0.754971 0.116793 0.133333
0.784421 0.119600 0.142641
0.812009 0.129488 0.153140
0.838163 0.146731 0.165499
0.863828 0.169741 0.179843
0.889342 0.197269 0.196017
0.119051 0.168307 0.143832
0.119295 0.168124 0.143618
0.118959 0.168154 0.143191
0.119783 0.167941 0.142763
0.120089 0.167941 0.141878
0.121736 0.168002 0.140902
0.123812 0.168612 0.139651
0.126101 0.170230 0.137209
0.130709 0.172519 0.134279
0.138094 0.175387 0.131350
0.149630 0.179080 0.127474
0.165255 0.183597 0.123079
0.188968 0.190311 0.118929
0.226566 0.203220 0.112673
0.273320 0.215030 0.103731
0.325444 0.222965 0.093782
0.368261 0.223331 0.090303
0.410864 0.220706 0.086885
0.452003 0.216159 0.087007
0.490517 0.210819 0.090669
0.529503 0.204532 0.094514
0.569268 0.197910 0.098268
0.608728 0.191012 0.103182
0.647669 0.184726 0.107851
0.684932 0.179690 0.113680
0.719966 0.177066 0.120699
0.752224 0.177310 0.129305
0.782162 0.181674 0.139071
0.810330 0.190494 0.150698
0.837156 0.204654 0.164218
0.863615 0.224002 0.179751
0.889738 0.248447 0.197665
0.129274 0.183963 0.155642
0.129549 0.184115 0.155612
0.129610 0.184115 0.155428
0.130190 0.184085 0.155001
0.130983 0.184360 0.154360
0.132326 0.184909 0.153628
0.134890 0.185824 0.152834
0.137575 0.187655 0.151034
0.141726 0.190097 0.148196
0.148318 0.193179 0.145083
0.158480 0.196597 0.141238
0.171908 0.200412 0.136568
0.189883 0.204501 0.130861
0.216068 0.211673 0.126162
0.256962 0.224765 0.117342
0.305394 0.235966 0.105562
0.358984 0.243839 0.093324
0.404089 0.244755 0.088380
0.446998 0.242741 0.081941
0.490211 0.239139 0.078187
0.529595 0.235233 0.084169
0.569329 0.231052 0.089967
0.609094 0.227268 0.095033
0.648005 0.224277 0.100893
0.685328 0.222812 0.107362
0.720394 0.223117 0.115358
0.752499 0.225834 0.124544
0.782315 0.231296 0.135592
0.810117 0.239750 0.147982
0.836454 0.252049 0.162387
0.862333 0.268376 0.178714
0.887785 0.288945 0.197574
0.140719 0.200534 0.168521
0.140719 0.200534 0.168521
0.141054 0.200656 0.168338
0.141421 0.200778 0.167941
0.142367 0.201144 0.167330
0.143801 0.201755 0.166659
0.146212 0.202823 0.165896
0.149294 0.204379 0.164462
0.152773 0.206851 0.161898
0.158480 0.209628 0.158785
0.167117 0.213016 0.154757
0.178561 0.216922 0.150179
0.194400 0.220829 0.144747
0.214389 0.224765 0.138094
0.243992 0.233066 0.133120
0.288457 0.246921 0.122194
0.339757 0.258610 0.107576
0.395117 0.266972 0.092470
0.442847 0.269291 0.082795
0.485969 0.268132 0.073396
0.530785 0.266087 0.062013
0.571435 0.263951 0.070649
0.610742 0.262242 0.081514
0.649226 0.261448 0.090974
0.686305 0.261936 0.098299
0.720851 0.264378 0.107637
0.752804 0.268498 0.118318
0.782406 0.274754 0.130892
0.809934 0.283543 0.144961
0.836240 0.295476 0.160983
0.862058 0.310857 0.178683
0.887358 0.329839 0.198886
0.154635 0.220096 0.183749
0.154604 0.220462 0.183688
0.165408 0.234897 0.194858
0.166232 0.235080 0.194522
0.167086 0.235569 0.193973
0.168795 0.236118 0.193271
0.171054 0.237095 0.192172
0.174655 0.238376 0.190982
0.177920 0.240665 0.188083
0.183078 0.243565 0.184512
0.190829 0.246983 0.180148
0.201785 0.250584 0.174990
0.216007 0.254185 0.168795
0.234226 0.257694 0.161135
0.256657 0.260868 0.152377
0.291264 0.270024 0.146365
0.340856 0.284581 0.131838
0.394720 0.296178 0.113100
0.451179 0.304723 0.089967
0.500114 0.307622 0.067720
0.542748 0.307073 0.054444
0.586358 0.306523 0.042023
0.626612 0.306004 0.043580
0.662348 0.306157 0.065126
0.696254 0.307042 0.084993
0.727504 0.308995 0.099062
0.756710 0.312200 0.111910
0.784268 0.317357 0.126619
0.810391 0.325170 0.142184
0.836057 0.336004 0.159915
0.861448 0.350408 0.179141
0.886412 0.367864 0.200748
0.173129 0.245701 0.203494
0.174380 0.247135 0.204562
0.175875 0.248844 0.205600
0.177432 0.250553 0.206332
0.179232 0.252140 0.206699
0.181186 0.253208 0.206332
0.183505 0.254246 0.205570
0.186862 0.255314 0.204501
0.190249 0.257359 0.202304
0.194247 0.260044 0.198795
0.200839 0.263127 0.194583
0.210025 0.266545 0.189700
0.222202 0.270115 0.183658
0.238163 0.273686 0.176730
0.257816 0.277043 0.168521
0.282139 0.280400 0.158663
0.320989 0.291722 0.152132
0.372534 0.307012 0.136782
0.428168 0.319707 0.116518
0.485451 0.329839 0.089387
0.536248 0.334997 0.055512
0.579828 0.336950 0.040253
0.622553 0.338628 0.027619
0.662562 0.340368 0.022950
0.695735 0.342138 0.049775
0.726375 0.344488 0.083619
0.754910 0.347967 0.102327
0.782010 0.352911 0.119387
0.807828 0.360418 0.137484
0.833371 0.370794 0.156954
0.858701 0.384497 0.177707
0.883635 0.401129 0.201053
0.187808 0.265507 0.218631
0.189273 0.267155 0.219791
0.190890 0.269017 0.221012
0.192752 0.270970 0.221988
0.194736 0.272618 0.222477
0.196689 0.273808 0.222232
0.198978 0.274998 0.221500
0.201968 0.276219 0.220493
0.205997 0.277989 0.219242
0.209537 0.280308 0.215763
0.214786 0.283330 0.211612
0.222782 0.286687 0.206943
0.233371 0.290257 0.201022
0.247257 0.293919 0.194430
0.265263 0.297520 0.186557
0.286961 0.301061 0.177340
0.314488 0.305699 0.167758
0.356573 0.318242 0.159640
0.409888 0.334142 0.142916
0.466285 0.347539 0.120912
0.523064 0.358526 0.090303
0.574304 0.365728 0.044495
0.617029 0.369482 0.029847
0.657740 0.373297 0.017884
0.695338 0.376684 0.010224
0.725765 0.379339 0.045930
0.753689 0.382818 0.089967
0.780270 0.387640 0.111452
0.805722 0.394751 0.132601
0.830991 0.404730 0.154360
0.856229 0.417578 0.177279
0.880980 0.433143 0.202274
0.205173 0.288426 0.235843
0.206577 0.290135 0.237186
0.208072 0.291966 0.238254
0.210056 0.293736 0.239200
0.211826 0.295445 0.239628
0.213718 0.296757 0.239475
0.216098 0.297887 0.238895
0.219150 0.299168 0.238041
0.223270 0.301030 0.236973
0.226932 0.303288 0.234257
0.231479 0.306249 0.230289
0.238468 0.309545 0.225528
0.247807 0.312993 0.220005
0.260380 0.316747 0.213596
0.276280 0.320592 0.206210
0.296239 0.324529 0.197543
0.320745 0.328740 0.187747
0.353185 0.335882 0.178500
0.399756 0.350866 0.169558
0.456489 0.369116 0.151858
0.514946 0.385107 0.128725
0.572564 0.398779 0.095613
0.623621 0.408911 0.036652
0.664698 0.415930 0.027375
0.702022 0.421973 0.025605
0.735775 0.426886 0.032380
0.764492 0.431342 0.080568
0.790005 0.436805 0.112459
0.815122 0.444404 0.138705
0.840116 0.454475 0.164065
0.864714 0.467018 0.191165
0.888914 0.481544 0.220279
0.234775 0.325597 0.264073
0.235233 0.326452 0.264500
0.236057 0.327153 0.264897
0.236912 0.327947 0.264958
0.238224 0.328527 0.264622
0.239414 0.329168 0.263920
0.241581 0.329931 0.263066
0.244419 0.331090 0.262028
0.248295 0.332891 0.261051
0.253361 0.335241 0.259556
0.257633 0.338262 0.255619
0.263798 0.341650 0.251011
0.272190 0.345098 0.245548
0.283665 0.348821 0.239200
0.298100 0.352697 0.231693
0.316381 0.356634 0.223148
0.338476 0.360632 0.213382
0.364843 0.364813 0.202365
0.400397 0.373358 0.192996
0.449165 0.389197 0.182071
0.505119 0.406989 0.163272
0.560693 0.422492 0.138827
0.613703 0.435492 0.104402
0.659998 0.445228 0.046723
0.696162 0.451545 0.049073
0.729671 0.457557 0.061280
0.760678 0.463142 0.083345
0.788571 0.468788 0.106142
0.813626 0.476173 0.136629
0.838407 0.485542 0.165499
0.862760 0.496986 0.194736
0.886748 0.510185 0.225925
0.258701 0.354742 0.286046
0.259312 0.355413 0.286595
0.260319 0.356207 0.287022
0.261112 0.357000 0.287022
0.262333 0.357733 0.286870
0.263859 0.358434 0.286290
0.265904 0.359258 0.285527
0.268803 0.360540 0.284550
0.272770 0.362310 0.283696
0.278141 0.364691 0.282811
0.282689 0.367681 0.279606
0.288243 0.371069 0.275273
0.295842 0.374640 0.269841
0.306157 0.378576 0.263981
0.319463 0.382574 0.256840
0.336095 0.386938 0.248753
0.356420 0.391424 0.239658
0.380896 0.395972 0.229221
0.409400 0.400793 0.217166
0.448310 0.411322 0.208560
0.498665 0.428443 0.196689
0.553582 0.446723 0.177249
0.606073 0.462470 0.152590
0.654383 0.475563 0.120058
0.688899 0.477058 0.081209
0.721645 0.483040 0.089570
0.752865 0.489479 0.101076
0.782040 0.495827 0.115724
0.810147 0.503166 0.134066
0.834897 0.512108 0.166171
0.859495 0.523003 0.197848
0.883848 0.535973 0.231357
0.293980 0.394507 0.317693
0.295232 0.395819 0.318669
0.296178 0.396551 0.319036
0.296727 0.396796 0.318669
0.297032 0.396612 0.317693
0.297459 0.396307 0.316350
0.298344 0.396002 0.314611
0.299931 0.395972 0.312810
0.302770 0.396551 0.310918
0.306828 0.397772 0.309239
0.311406 0.399420 0.306554
0.315312 0.401740 0.301335
0.321111 0.404395 0.295476
0.329320 0.407233 0.288914
0.339879 0.410163 0.281285
0.353521 0.413397 0.272923
0.370886 0.416968 0.263432
0.392248 0.421118 0.253208
0.417945 0.425879 0.242161
0.448188 0.431312 0.229770
0.489448 0.443793 0.222324
0.540093 0.461860 0.209720
0.592004 0.479591 0.190127
0.639582 0.493996 0.165713
0.681727 0.504326 0.135286
0.718318 0.511162 0.111116
0.747433 0.515953 0.120577
0.776028 0.521996 0.134890
0.804135 0.529107 0.150637
0.831724 0.537530 0.169345
0.856413 0.547723 0.201877
0.880827 0.560327 0.237613
0.321141 0.424048 0.341619
0.322484 0.425330 0.342687
0.323491 0.426337 0.343267
0.324285 0.426856 0.343267
0.325139 0.427314 0.342840
0.326513 0.427802 0.342138
0.328313 0.428595 0.341375
0.331060 0.429725 0.340429
0.334539 0.431464 0.339635
0.339422 0.433539 0.338811
0.345495 0.436011 0.337835
0.350103 0.438788 0.333928
0.355413 0.441718 0.328557
0.362707 0.444678 0.321965
0.372015 0.447639 0.314611
0.384100 0.450629 0.306218
0.399420 0.454017 0.297032
0.418341 0.457893 0.286992
0.441566 0.462501 0.276280
0.468666 0.467811 0.264317
0.499702 0.473426 0.250980
0.541375 0.486885 0.245212
0.589899 0.504906 0.232090
0.636866 0.521294 0.213474
0.678645 0.533318 0.191501
0.715938 0.541955 0.167056
0.748775 0.547784 0.152468
0.775906 0.552941 0.163302
0.803769 0.560632 0.179904
0.831296 0.569543 0.199771
0.858396 0.579858 0.222965
0.883391 0.591730 0.256809
0.358770 0.462837 0.374731
0.359350 0.463539 0.375341
0.360021 0.463996 0.375463
0.360815 0.464363 0.375402
0.361395 0.464668 0.374853
0.362432 0.465003 0.374090
0.364019 0.465614 0.373114
0.366308 0.466560 0.372198
0.369574 0.467872 0.371313
0.374090 0.469795 0.370459
0.379706 0.472023 0.369451
0.385595 0.474769 0.367285
0.390326 0.477668 0.362158
0.396490 0.480598 0.356085
0.404730 0.483375 0.348974
0.415106 0.486275 0.340795
0.428504 0.489418 0.331884
0.445167 0.493172 0.322148
0.465766 0.497505 0.311894
0.490120 0.502678 0.300755
0.517937 0.508202 0.288609
0.549035 0.514397 0.275242
0.588373 0.527214 0.270787
0.632807 0.543725 0.257237
0.673548 0.556817 0.240330
0.710292 0.566430 0.220432
0.743191 0.573327 0.203037
0.773617 0.578668 0.192081
0.799771 0.584558 0.203647
0.827329 0.594018 0.224216
0.854307 0.604608 0.248417
0.881071 0.616602 0.276310
0.395850 0.499428 0.407660
0.396582 0.500008 0.408240
0.397345 0.500603 0.408637
0.398230 0.501183 0.408667
0.399573 0.502037 0.408759
0.401709 0.503380 0.409094
0.405066 0.505760 0.409979
0.409766 0.508782 0.411200
0.415564 0.512535 0.412787
0.422766 0.517021 0.414710
0.431189 0.521965 0.416632
0.440558 0.527001 0.418433
0.448035 0.531914 0.416510
0.455604 0.536492 0.412665
0.464302 0.540642 0.407568
0.474128 0.544091 0.400488
0.486213 0.547448 0.392462
0.500877 0.551080 0.383520
0.518791 0.555261 0.374029
0.539696 0.559899 0.363806
0.563256 0.564874 0.352880
0.589227 0.569848 0.340185
0.617975 0.575830 0.328344
0.650690 0.585382 0.325322
0.687922 0.598260 0.313237
0.722255 0.608179 0.298680
0.754604 0.616175 0.281743
0.784604 0.622736 0.271092
0.812619 0.628016 0.263981
0.836820 0.633845 0.276493
0.863035 0.644343 0.301793
0.889067 0.656184 0.331792
0.457801 0.555016 0.463325
0.457893 0.555077 0.463416
0.458015 0.555077 0.463203
0.458320 0.555138 0.462837
0.458930 0.555352 0.462379
0.459937 0.555749 0.461860
0.461677 0.556573 0.461433
0.464240 0.557855 0.461158
0.467842 0.559655 0.461158
0.472450 0.561822 0.461250
0.477974 0.564416 0.461341
0.484688 0.567376 0.461585
0.491218 0.570520 0.460395
0.496468 0.573541 0.455909
