20 Preset/Classic brown/【3】LUT video cho PR-AE-FCPX/Tone (12).cube
# Created by Adobe Lightroom plugin Export LUT (1.24.0)
# www.johnrellis.com/lightroom/exportlut.htm
# Preset: 人文电影-素材江湖13
# Color profile: E:\lut插件\exportlut.1.24\exportlut.lrplugin\color profiles\Rec709gamma2.4.icc
LUT_3D_SIZE 5
DOMAIN_MIN 0.000000 0.000000 0.000000
DOMAIN_MAX 0.903226 0.903226 0.903226
0.037385 0.067109 0.042054
0.133944 0.065278 0.057191
0.339452 0.000000 0.090181
0.658869 0.000000 0.126192
0.884703 0.000000 0.210178
0.099641 0.137148 0.132357
0.133303 0.154025 0.113680
0.388434 0.131563 0.097627
0.694728 0.000000 0.141329
0.892546 0.000000 0.231174
0.252293 0.333745 0.332403
0.270634 0.325628 0.340978
0.391394 0.410346 0.275669
0.738125 0.479469 0.191440
0.882170 0.479896 0.298589
0.503502 0.587579 0.542962
0.516350 0.586847 0.550683
0.536217 0.600916 0.557702
0.639368 0.657191 0.472511
0.842008 0.709590 0.460792
0.678035 0.767575 0.761288
0.682490 0.767819 0.764736
0.691279 0.762814 0.770718
0.704402 0.786587 0.766567
0.776028 0.818692 0.725612
0.060792 0.089021 0.106294
0.083986 0.107576 0.101350
0.330510 0.002930 0.121218
0.651240 0.000000 0.129274
0.869963 0.000000 0.205966
0.069245 0.150668 0.160159
0.141054 0.165469 0.168368
0.370886 0.153841 0.157412
0.681636 0.000000 0.139773
0.876249 0.000000 0.222324
0.246311 0.345922 0.338567
0.276310 0.341985 0.348547
0.380163 0.400397 0.301640
0.720943 0.465675 0.245975
0.878325 0.482704 0.295781
0.503746 0.594629 0.547509
0.518517 0.594568 0.555688
0.543999 0.603113 0.571008
0.638056 0.657527 0.490608
0.839261 0.709865 0.478645
0.676661 0.769223 0.761624
0.681178 0.769223 0.764736
0.697322 0.771176 0.779294
0.708888 0.790646 0.776089
0.778714 0.822568 0.737179
0.061646 0.116670 0.226688
0.125765 0.136782 0.219486
0.159823 0.201724 0.221530
0.528618 0.176394 0.315831
0.860624 0.000000 0.288365
0.017639 0.163638 0.293065
0.153384 0.187076 0.284794
0.206149 0.252842 0.278264
0.591424 0.209171 0.339117
0.864744 0.133608 0.315068
0.135317 0.368566 0.389319
0.214847 0.382452 0.395941
0.420813 0.435828 0.416571
0.683314 0.454810 0.412299
0.859220 0.482979 0.401038
0.473762 0.608545 0.555291
0.496864 0.610437 0.562158
0.562829 0.619837 0.598779
0.637903 0.664149 0.556939
0.828611 0.713771 0.573480
0.660883 0.770565 0.755673
0.670069 0.773220 0.762325
0.693263 0.776364 0.778408
0.710719 0.788449 0.789548
0.774868 0.821134 0.750790
0.109468 0.163790 0.379767
0.167361 0.179995 0.376226
0.270237 0.259556 0.354223
0.301091 0.348882 0.366613
0.635340 0.425788 0.495491
0.138766 0.205936 0.419837
0.196933 0.220371 0.414893
0.307622 0.295781 0.389654
0.337438 0.384497 0.396002
0.663630 0.444099 0.511803
0.000000 0.319402 0.508110
0.118013 0.326085 0.513359
0.413947 0.425696 0.507561
0.469184 0.514031 0.502739
0.751553 0.528344 0.573968
0.365087 0.608057 0.602594
0.397070 0.612604 0.605463
0.506981 0.636286 0.624079
0.645960 0.680049 0.657313
0.809476 0.695949 0.667567
0.611261 0.774136 0.756313
0.621118 0.775692 0.759121
0.660853 0.783902 0.774350
0.720699 0.796628 0.809812
0.774258 0.825467 0.786282
0.273411 0.245457 0.583825
0.313268 0.260075 0.580011
0.425666 0.330877 0.563043
0.481697 0.485939 0.514275
0.504936 0.550378 0.535851
0.283360 0.272892 0.601892
0.324224 0.287053 0.598322
0.439551 0.354864 0.581231
0.502007 0.502800 0.533989
0.521172 0.567224 0.552148
0.166384 0.329137 0.660304
0.275029 0.356909 0.658747
0.462074 0.436042 0.645991
0.564172 0.561395 0.606989
0.577142 0.627070 0.615076
0.000000 0.554253 0.727077
0.157473 0.552697 0.727169
0.334691 0.547539 0.730251
0.612024 0.643580 0.723018
0.658534 0.719112 0.724422
0.522271 0.771420 0.801053
0.532891 0.772824 0.801907
0.578241 0.780606 0.807340
0.660670 0.798917 0.820737
0.782437 0.839414 0.853574
