20 Preset/Classic brown/【3】LUT video cho PR-AE-FCPX/Tone (7).cube
# Created by Adobe Lightroom plugin Export LUT (1.24.0)
# www.johnrellis.com/lightroom/exportlut.htm
# Preset: 人文电影-素材江湖08
# Color profile: E:\lut插件\exportlut.1.24\exportlut.lrplugin\color profiles\Rec709gamma2.4.icc
LUT_3D_SIZE 8
DOMAIN_MIN 0.000000 0.000000 0.000000
DOMAIN_MAX 0.903226 0.903226 0.903226
0.050843 0.079469 0.071595
0.088991 0.080354 0.076143
0.257176 0.031739 0.097932
0.503532 0.000000 0.114137
0.710170 0.000000 0.141329
0.822751 0.000000 0.184054
0.901579 0.000000 0.248234
0.945830 0.205478 0.309606
0.056458 0.088746 0.081086
0.100801 0.090608 0.081880
0.246464 0.040772 0.097169
0.475807 0.000000 0.111849
0.688197 0.000000 0.137209
0.809842 0.000000 0.180026
0.888060 0.000000 0.239353
0.936858 0.208927 0.300969
0.129915 0.191592 0.168765
0.141726 0.196201 0.166415
0.305303 0.228702 0.122896
0.536034 0.190097 0.119631
0.708644 0.144320 0.151492
0.818967 0.197879 0.205356
0.889891 0.290471 0.271855
0.933837 0.354833 0.332280
0.270542 0.389197 0.330999
0.277440 0.395727 0.331090
0.324773 0.414954 0.316716
0.563348 0.486427 0.264683
0.725032 0.489540 0.249088
0.812100 0.480812 0.259037
0.870085 0.482246 0.317205
0.914092 0.489693 0.369299
0.422187 0.583673 0.496407
0.429725 0.589166 0.499855
0.451270 0.600580 0.500969
0.516655 0.626001 0.483223
0.665187 0.648554 0.437659
0.765286 0.629755 0.402564
0.834745 0.612604 0.387030
0.887785 0.601648 0.418128
0.524346 0.691005 0.610925
0.532280 0.698817 0.618769
0.539971 0.704128 0.619379
0.561700 0.713924 0.618128
0.615381 0.726345 0.596612
0.721920 0.738308 0.565820
0.801511 0.724117 0.536980
0.864622 0.702632 0.504936
0.592859 0.767178 0.695857
0.593896 0.768917 0.696529
0.598444 0.771115 0.696590
0.611749 0.776547 0.698543
0.632258 0.783505 0.686458
0.687495 0.792050 0.669245
0.773068 0.793973 0.638483
0.838651 0.775235 0.602472
0.654688 0.828763 0.766201
0.655390 0.829099 0.766232
0.659541 0.831144 0.767300
0.669673 0.835691 0.770138
0.673335 0.833524 0.756374
0.704585 0.842313 0.747402
0.761501 0.847593 0.731106
0.827512 0.837034 0.690974
0.050080 0.091493 0.107424
0.055207 0.090181 0.104189
0.210391 0.060975 0.101137
0.442878 0.000000 0.111543
0.671382 0.000000 0.136538
0.800412 0.000000 0.177951
0.878752 0.000000 0.233768
0.929473 0.199435 0.292485
0.061189 0.112428 0.116518
0.082856 0.115236 0.118654
0.222232 0.108217 0.124697
0.450874 0.000000 0.121981
0.670741 0.000000 0.137881
0.798550 0.000000 0.180667
0.871977 0.000000 0.231937
0.923064 0.213596 0.288273
0.145876 0.197757 0.190921
0.161898 0.210452 0.202060
0.269902 0.250187 0.198550
0.502525 0.227176 0.178653
0.685023 0.204349 0.164034
0.799527 0.232090 0.196811
0.868833 0.283330 0.252445
0.919432 0.341131 0.312902
0.268467 0.371984 0.332006
0.279728 0.382666 0.338872
0.324590 0.416144 0.351385
0.521355 0.471443 0.303960
0.688838 0.464393 0.276707
0.783108 0.458808 0.271611
0.851225 0.459174 0.287327
0.901305 0.471534 0.345312
0.418738 0.574151 0.496132
0.424353 0.578241 0.498573
0.446571 0.594903 0.505669
0.498665 0.614496 0.490120
0.643336 0.634730 0.442664
0.747433 0.619348 0.412055
0.820035 0.607294 0.400061
0.880217 0.594079 0.402930
0.516686 0.680751 0.603632
0.520562 0.683864 0.606378
0.531273 0.693263 0.611872
0.553918 0.704524 0.615473
0.603906 0.718990 0.596582
0.711971 0.734951 0.571557
0.792325 0.722286 0.544945
0.855833 0.702083 0.514153
0.585107 0.758450 0.687709
0.586236 0.758907 0.687831
0.589929 0.761868 0.687861
0.603510 0.768368 0.691035
0.625727 0.777890 0.683894
0.679774 0.787106 0.666896
0.764675 0.788968 0.635920
0.831083 0.770748 0.600122
0.649104 0.823728 0.761166
0.651026 0.825040 0.762478
0.654749 0.826963 0.763333
0.664790 0.831724 0.766415
0.678584 0.837766 0.764797
0.705104 0.843931 0.752712
0.758785 0.847471 0.734005
0.824826 0.837522 0.695155
0.000000 0.162722 0.224704
0.000000 0.163302 0.223331
0.147829 0.184909 0.268803
0.378149 0.204501 0.291844
0.636378 0.169497 0.304356
0.782834 0.244175 0.322332
0.859739 0.324193 0.324895
0.920867 0.345525 0.315892
0.000000 0.186191 0.234623
0.000000 0.187991 0.235416
0.158755 0.218936 0.283421
0.378820 0.239048 0.308812
0.629664 0.215763 0.317296
0.773404 0.282444 0.334600
0.852873 0.333715 0.324651
0.915526 0.353094 0.312657
0.030152 0.267155 0.285771
0.103334 0.276585 0.294316
0.212467 0.314702 0.329259
0.411566 0.363226 0.379278
0.647669 0.359045 0.379400
0.763699 0.402533 0.381292
0.841245 0.426642 0.366339
0.907408 0.426490 0.331334
0.253483 0.413092 0.384405
0.273655 0.424659 0.393927
0.346227 0.463752 0.425574
0.463111 0.538567 0.476478
0.639490 0.542901 0.465278
0.740597 0.546593 0.456428
0.817746 0.548913 0.440955
0.886107 0.536034 0.402502
0.437476 0.577600 0.519280
0.445563 0.582544 0.524041
0.470436 0.605646 0.544427
0.512657 0.644739 0.575372
0.609033 0.666896 0.554162
0.712520 0.657740 0.533928
0.787655 0.650752 0.521355
0.857267 0.637293 0.492103
0.522087 0.678614 0.613825
0.525719 0.681941 0.617090
0.538079 0.693172 0.627436
0.560327 0.713313 0.643427
0.592493 0.727077 0.637720
0.690059 0.744503 0.620478
0.770718 0.737514 0.604181
0.835660 0.724849 0.584436
0.588159 0.758389 0.695705
0.589410 0.759091 0.696254
0.596674 0.764279 0.701045
0.609461 0.774258 0.708186
0.627588 0.782895 0.708309
0.671687 0.793606 0.694392
0.754147 0.799435 0.673793
0.820798 0.785489 0.646693
0.651606 0.823331 0.766384
0.652705 0.823880 0.766903
0.659236 0.828122 0.770962
0.668330 0.834195 0.775051
0.682551 0.839994 0.777523
0.704341 0.847196 0.768368
0.753719 0.851957 0.753292
0.818265 0.844450 0.720424
0.000000 0.251438 0.348882
0.000000 0.254704 0.350988
0.000000 0.272831 0.366979
0.287449 0.344335 0.459449
0.551629 0.408179 0.521141
0.681758 0.463020 0.522118
0.785977 0.478981 0.512535
0.856992 0.507622 0.504051
0.000000 0.277806 0.362829
0.000000 0.278508 0.362280
0.000000 0.300633 0.384039
0.299840 0.374975 0.473091
0.556817 0.439063 0.535973
0.677516 0.483436 0.530602
0.781003 0.495308 0.520134
0.852140 0.522362 0.512627
0.000000 0.344671 0.396979
0.000000 0.351965 0.402930
0.115633 0.378485 0.425544
0.315343 0.437476 0.483436
0.556786 0.523003 0.567590
0.665461 0.561303 0.569543
0.768704 0.575738 0.568536
0.838621 0.590478 0.558892
0.161898 0.473671 0.472724
0.187503 0.477974 0.475990
0.270512 0.500969 0.493996
0.388647 0.547570 0.532799
0.552789 0.620783 0.605921
0.653254 0.629816 0.605463
0.750973 0.633082 0.598199
0.825315 0.636255 0.582574
0.375525 0.599023 0.553368
0.385016 0.601678 0.555749
0.426001 0.617304 0.569940
0.492622 0.649836 0.600397
0.563928 0.693812 0.644312
0.660639 0.702235 0.650477
0.741909 0.702480 0.641382
0.813993 0.696315 0.622217
0.512230 0.685573 0.628656
0.519982 0.691371 0.634852
0.536828 0.699275 0.643641
0.570275 0.718227 0.665248
0.603723 0.747616 0.695705
0.660121 0.765255 0.692378
0.739132 0.763668 0.683803
0.806455 0.756619 0.669093
0.591150 0.755032 0.701686
0.593469 0.757015 0.703853
0.601770 0.764126 0.711391
0.618402 0.778012 0.726009
0.640620 0.796506 0.743191
0.664729 0.806394 0.739712
0.735866 0.814267 0.725460
0.801419 0.805631 0.707790
0.652277 0.822446 0.771756
0.653864 0.823423 0.772793
0.660792 0.827878 0.777615
0.675196 0.837064 0.787411
0.688991 0.845426 0.793606
0.705776 0.852293 0.791958
0.745876 0.858793 0.781430
0.807767 0.856107 0.759548
0.000000 0.357977 0.467689
0.000000 0.361944 0.470405
0.000000 0.372778 0.476478
0.057465 0.410193 0.507744
0.425422 0.513024 0.599939
0.617700 0.592889 0.659022
0.683711 0.621759 0.646387
0.774502 0.631861 0.645991
0.000000 0.380438 0.478920
0.000000 0.384558 0.481941
0.000000 0.397711 0.491371
0.123079 0.428260 0.516106
0.428107 0.525292 0.601923
0.616236 0.603784 0.661952
0.682063 0.629480 0.650080
0.773159 0.637537 0.648890
0.000000 0.437232 0.503807
0.000000 0.440955 0.506645
0.000000 0.452888 0.515404
0.210025 0.478859 0.535790
0.433204 0.558099 0.603510
0.607538 0.630762 0.665766
0.674983 0.652003 0.659510
0.767880 0.653376 0.655421
0.000000 0.513634 0.538018
0.000000 0.516808 0.540124
0.195010 0.532036 0.551110
0.318975 0.559442 0.571801
0.445624 0.601312 0.605890
0.602502 0.678218 0.682551
0.672847 0.695399 0.684565
0.767483 0.688594 0.675257
0.305608 0.603662 0.585107
0.317601 0.606561 0.587427
0.360754 0.616907 0.595727
0.428656 0.637232 0.612268
0.501610 0.666072 0.637690
0.599969 0.718654 0.696529
0.679957 0.734493 0.708461
0.769619 0.728115 0.697078
0.449042 0.671717 0.627955
0.454231 0.673579 0.629725
0.472358 0.679255 0.635035
0.506645 0.693751 0.649073
0.555047 0.719997 0.675654
0.617853 0.761257 0.719783
0.698543 0.780789 0.740139
0.770932 0.781521 0.733272
0.552850 0.745541 0.694697
0.554894 0.745998 0.695155
0.566033 0.750240 0.699794
0.593072 0.763424 0.714839
0.630762 0.784268 0.739345
0.662806 0.809689 0.766323
0.709743 0.822324 0.763699
0.775601 0.819211 0.754147
0.637018 0.806668 0.760006
0.638453 0.807675 0.761074
0.645136 0.812375 0.766201
0.662593 0.825223 0.780453
0.684352 0.839963 0.796292
0.707179 0.854215 0.809232
0.733059 0.862058 0.804776
0.791684 0.863981 0.791073
0.000000 0.478737 0.576898
0.000000 0.481178 0.578271
0.000000 0.482765 0.576196
0.000000 0.503685 0.588373
0.292302 0.537438 0.609735
0.516167 0.632410 0.678767
0.653742 0.693660 0.737942
0.713405 0.713161 0.735622
0.000000 0.475654 0.568475
0.000000 0.475715 0.567987
0.000000 0.480201 0.568994
0.000000 0.500145 0.581384
0.284306 0.532372 0.602502
0.511772 0.629908 0.674098
0.649592 0.691829 0.734218
0.710689 0.712001 0.733150
0.000000 0.518547 0.585290
0.000000 0.519585 0.585687
0.000000 0.526848 0.589868
0.144717 0.538262 0.596094
0.329015 0.565728 0.614008
0.518791 0.650111 0.679042
0.647486 0.708492 0.738521
0.710170 0.727474 0.740597
0.000000 0.573846 0.607050
0.000000 0.574731 0.607324
0.183200 0.582788 0.612177
0.302342 0.601343 0.624811
0.410559 0.626886 0.641962
0.534936 0.684443 0.692103
0.650904 0.740047 0.751431
0.714137 0.756466 0.756924
0.280308 0.624872 0.626459
0.290501 0.626276 0.627405
0.329656 0.633021 0.632044
0.392767 0.647456 0.642542
0.461494 0.667811 0.658686
0.532250 0.695949 0.684840
0.650629 0.760067 0.755306
0.715999 0.775265 0.762722
0.416052 0.681727 0.657313
0.422736 0.684535 0.659907
0.440925 0.689296 0.663966
0.472969 0.699184 0.672877
0.515892 0.715358 0.688136
0.574975 0.744106 0.716732
0.666407 0.795163 0.773800
0.736263 0.805478 0.781582
0.511559 0.744747 0.706722
0.515404 0.746609 0.708583
0.526848 0.750576 0.712428
0.549950 0.759182 0.720790
0.585748 0.774472 0.735927
0.632959 0.798093 0.760311
0.686580 0.828611 0.793271
0.755459 0.839231 0.802579
0.596612 0.802213 0.757809
0.598108 0.802426 0.757992
0.607080 0.805661 0.761410
0.628748 0.813718 0.770413
0.661860 0.826932 0.785977
0.700496 0.847044 0.809720
0.732021 0.867247 0.829984
0.776394 0.873869 0.823850
0.000000 0.554192 0.636408
0.000000 0.555596 0.637140
0.000000 0.556695 0.636530
0.000000 0.570245 0.642420
0.271611 0.592309 0.653742
0.439673 0.638697 0.682399
0.575525 0.705074 0.738766
0.678584 0.750515 0.782956
0.000000 0.555230 0.634241
0.000000 0.556817 0.635096
0.000000 0.558434 0.634699
0.000000 0.570581 0.640192
0.272435 0.591608 0.651148
0.434058 0.634485 0.677638
0.571283 0.701198 0.734340
0.674769 0.746578 0.778897
0.000000 0.578027 0.641779
0.000000 0.578332 0.641657
0.000000 0.581476 0.642206
0.148653 0.592889 0.648066
0.314214 0.611322 0.658015
0.442298 0.645563 0.679408
0.577661 0.714351 0.739651
0.678767 0.760250 0.785214
0.000000 0.614069 0.654841
0.000000 0.614191 0.654658
0.165682 0.618158 0.656580
0.276402 0.629084 0.662928
0.376410 0.646357 0.673121
0.469245 0.673030 0.691493
0.588800 0.735225 0.748562
0.684413 0.778286 0.792996
0.263890 0.652186 0.669154
0.270665 0.652247 0.668940
0.302281 0.655451 0.670832
0.355596 0.663722 0.676539
0.424994 0.678737 0.687190
0.497353 0.701259 0.705348
0.594110 0.749691 0.751064
0.694240 0.798489 0.802426
0.384619 0.697078 0.691524
0.389136 0.698024 0.692317
0.406256 0.701564 0.695216
0.436835 0.708675 0.701289
0.479103 0.720211 0.711604
0.537591 0.741024 0.730587
0.604059 0.769894 0.757961
0.712856 0.824704 0.817014
0.472816 0.745083 0.723537
0.475929 0.746181 0.724605
0.487190 0.749325 0.727474
0.509880 0.756252 0.733852
0.544335 0.767788 0.744472
0.589593 0.785611 0.761166
0.643580 0.810086 0.785214
0.738247 0.853880 0.834165
0.550134 0.797391 0.764828
0.552453 0.798245 0.765621
0.563317 0.802335 0.769589
0.582879 0.809140 0.776059
0.613153 0.820005 0.786374
0.654383 0.835874 0.801846
0.709895 0.859098 0.826474
0.762509 0.883574 0.853605
0.005768 0.633234 0.700221
0.017182 0.633753 0.700496
0.004425 0.633082 0.699489
0.157870 0.639460 0.701411
0.322118 0.658991 0.710903
0.434302 0.685328 0.725643
0.549523 0.733364 0.761715
0.643275 0.779355 0.800961
0.020081 0.633722 0.699092
0.033845 0.634272 0.699458
0.032349 0.634150 0.698909
0.169558 0.640620 0.700862
0.324773 0.659724 0.710292
0.434943 0.685664 0.725032
0.547784 0.732265 0.760189
0.642420 0.778988 0.800137
0.135988 0.643732 0.701869
0.136843 0.643854 0.701869
0.134859 0.643305 0.701076
0.226535 0.652979 0.705470
0.347814 0.670283 0.714351
0.446052 0.694118 0.728603
0.549859 0.736507 0.761044
0.646204 0.784909 0.802670
0.208560 0.661311 0.707881
0.209262 0.661555 0.708064
0.210025 0.661769 0.707607
0.286015 0.671534 0.712398
0.380529 0.688136 0.722103
0.466529 0.710994 0.737423
0.555840 0.746334 0.764675
0.653834 0.795865 0.807797
0.278447 0.685634 0.717433
0.278325 0.685725 0.717556
0.277226 0.685054 0.716915
0.330602 0.692958 0.721523
0.408576 0.708186 0.731533
0.487282 0.730434 0.747829
0.563348 0.758816 0.769589
0.663478 0.808865 0.813840
0.352514 0.719173 0.733364
0.352605 0.719142 0.733181
0.364752 0.720729 0.734249
0.394263 0.725124 0.737819
0.437263 0.733089 0.744747
0.510063 0.753933 0.761044
0.586236 0.782681 0.783810
0.680842 0.828214 0.824613
0.427070 0.755367 0.753079
0.429633 0.755795 0.753414
0.440772 0.757870 0.755123
0.463722 0.762753 0.759335
0.499245 0.771328 0.766690
0.548425 0.785794 0.779110
0.611872 0.808804 0.799039
0.696620 0.845365 0.832975
0.502983 0.794369 0.777340
0.505089 0.794858 0.777737
0.514977 0.797482 0.780026
0.535607 0.803677 0.785458
0.567803 0.813901 0.794522
0.612390 0.829465 0.808469
0.669429 0.850828 0.828367
0.737636 0.876982 0.854307
