20 Preset/Classic brown/【3】LUT video cho PR-AE-FCPX/Tone (14).cube
# Created by Adobe Lightroom plugin Export LUT (1.24.0)
# www.johnrellis.com/lightroom/exportlut.htm
# Preset: 人文电影-素材江湖15
# Color profile: E:\lut插件\exportlut.1.24\exportlut.lrplugin\color profiles\Rec709gamma2.4.icc
LUT_3D_SIZE 32
DOMAIN_MIN 0.0 0.0 0.0
DOMAIN_MAX 1.0 1.0 1.0
0.048554 0.079622 0.072724
0.048554 0.079622 0.072724
0.048554 0.079622 0.072724
0.050538 0.079469 0.072724
0.112520 0.066865 0.072236
0.159579 0.041840 0.071290
0.229801 0.000000 0.069001
0.324041 0.000000 0.063935
0.435737 0.000000 0.054627
0.551293 0.000000 0.040742
0.656977 0.000000 0.023896
0.745174 0.000000 0.006592
0.815671 0.000000 0.000000
0.873594 0.000000 0.000000
0.927886 0.000000 0.000000
0.964752 0.000000 0.000000
0.992828 0.000000 0.000000
1.000000 0.000000 0.000000
1.000000 0.000000 0.000000
1.000000 0.000000 0.000000
1.000000 0.000000 0.000000
1.000000 0.000000 0.000000
1.000000 0.000000 0.000000
1.000000 0.000000 0.000000
1.000000 0.000000 0.000000
1.000000 0.000000 0.000000
1.000000 0.000000 0.000000
1.000000 0.000000 0.000000
1.000000 0.000000 0.000000
1.000000 0.000000 0.000000
1.000000 0.000000 0.000000
1.000000 0.000000 0.000000
0.048554 0.079622 0.072724
0.048554 0.079622 0.072724
0.048554 0.079622 0.072724
0.052522 0.079347 0.072724
0.113619 0.066438 0.072206
0.159915 0.041627 0.071290
0.228397 0.000000 0.069062
0.321019 0.000000 0.064149
0.430671 0.000000 0.055116
0.544945 0.000000 0.041627
0.650629 0.000000 0.025025
0.739437 0.000000 0.007813
0.810697 0.000000 0.000000
0.869810 0.000000 0.000000
0.923339 0.000000 0.000000
0.960479 0.000000 0.000000
0.988739 0.000000 0.000000
1.000000 0.000000 0.000000
1.000000 0.000000 0.000000
1.000000 0.000000 0.000000
1.000000 0.000000 0.000000
1.000000 0.000000 0.000000
1.000000 0.000000 0.000000
1.000000 0.000000 0.000000
1.000000 0.000000 0.000000
1.000000 0.000000 0.000000
1.000000 0.000000 0.000000
1.000000 0.000000 0.000000
1.000000 0.000000 0.000000
1.000000 0.000000 0.000000
1.000000 0.000000 0.000000
1.000000 0.000000 0.000000
0.048554 0.079622 0.072724
0.048554 0.079622 0.072724
0.048554 0.079622 0.072724
0.072389 0.077821 0.072633
0.118868 0.064210 0.072114
0.165805 0.037598 0.071138
0.234195 0.000000 0.068818
0.325292 0.000000 0.063844
0.433082 0.000000 0.054871
0.545769 0.000000 0.041505
0.650263 0.000000 0.025086
0.738308 0.000000 0.008026
0.809201 0.000000 0.000000
0.869627 0.000000 0.000000
0.921355 0.000000 0.000000
0.958068 0.000000 0.000000
0.986175 0.000000 0.000000
1.000000 0.000000 0.000000
1.000000 0.000000 0.000000
1.000000 0.000000 0.000000
1.000000 0.000000 0.000000
1.000000 0.000000 0.000000
1.000000 0.000000 0.000000
1.000000 0.000000 0.000000
1.000000 0.000000 0.000000
1.000000 0.000000 0.000000
1.000000 0.000000 0.000000
1.000000 0.000000 0.000000
1.000000 0.000000 0.000000
1.000000 0.000000 0.000000
1.000000 0.000000 0.000000
1.000000 0.000000 0.000000
0.032197 0.093263 0.069306
0.032197 0.093263 0.069306
0.036896 0.092622 0.069429
0.093812 0.089998 0.068971
0.129213 0.079042 0.069215
0.178042 0.046571 0.068360
0.247715 0.000000 0.066224
0.338537 0.000000 0.061402
0.444526 0.000000 0.052644
0.554101 0.000000 0.039582
0.655482 0.000000 0.023682
0.741207 0.000000 0.006958
0.810422 0.000000 0.000000
0.872068 0.000000 0.000000
0.920623 0.000000 0.000000
0.955901 0.000000 0.000000
0.983215 0.000000 0.000000
1.000000 0.000000 0.000000
1.000000 0.000000 0.000000
1.000000 0.000000 0.000000
1.000000 0.000000 0.000000
1.000000 0.000000 0.000000
1.000000 0.000000 0.000000
1.000000 0.000000 0.000000
1.000000 0.000000 0.000000
1.000000 0.000000 0.000000
1.000000 0.000000 0.000000
1.000000 0.000000 0.000000
1.000000 0.000000 0.000000
1.000000 0.000000 0.000000
1.000000 0.000000 0.000000
1.000000 0.000000 0.000000
0.009003 0.117494 0.058869
0.014954 0.117342 0.058839
0.049439 0.115999 0.058839
0.099031 0.113741 0.058534
0.138003 0.106600 0.058961
0.192905 0.093385 0.057832
0.264408 0.027680 0.055207
0.354131 0.000000 0.049897
0.457465 0.000000 0.041199
0.562860 0.000000 0.028534
0.660365 0.000000 0.013519
0.743465 0.000000 0.000000
0.813138 0.000000 0.000000
0.872984 0.000000 0.000000
0.918944 0.000000 0.000000
0.953826 0.000000 0.000000
0.981170 0.000000 0.000000
1.000000 0.000000 0.000000
1.000000 0.000000 0.000000
1.000000 0.000000 0.000000
1.000000 0.000000 0.000000
1.000000 0.000000 0.000000
1.000000 0.000000 0.000000
1.000000 0.000000 0.000000
1.000000 0.000000 0.000000
1.000000 0.000000 0.000000
1.000000 0.000000 0.000000
1.000000 0.000000 0.000000
1.000000 0.000000 0.000000
1.000000 0.000000 0.000000
1.000000 0.000000 0.000000
1.000000 0.000000 0.000000
0.009583 0.145235 0.041901
0.017548 0.145052 0.041871
0.052735 0.143832 0.042023
0.103731 0.141451 0.041962
0.147280 0.137423 0.041047
0.209323 0.131411 0.036500
0.291539 0.110201 0.030243
0.382147 0.000000 0.024445
0.481788 0.000000 0.015595
0.582300 0.000000 0.003540
0.674708 0.000000 0.000000
0.754940 0.000000 0.000000
0.823453 0.000000 0.000000
0.878416 0.000000 0.000000
0.921874 0.000000 0.000000
0.955230 0.000000 0.000000
0.982086 0.000000 0.000000
1.000000 0.000000 0.000000
1.000000 0.000000 0.000000
1.000000 0.000000 0.000000
1.000000 0.000000 0.000000
1.000000 0.000000 0.000000
1.000000 0.000000 0.000000
1.000000 0.000000 0.000000
1.000000 0.000000 0.000000
1.000000 0.000000 0.000000
1.000000 0.000000 0.000000
1.000000 0.000000 0.000000
1.000000 0.000000 0.000000
1.000000 0.000000 0.000000
1.000000 0.000000 0.000000
1.000000 0.000000 0.000000
0.008240 0.190707 0.008362
0.018891 0.190402 0.008453
0.075563 0.189120 0.005280
0.121584 0.186099 0.003540
0.167697 0.181308 0.003601
0.234745 0.180179 0.000000
0.328252 0.171817 0.000000
0.435798 0.136049 0.000000
0.533257 0.000000 0.000000
0.628260 0.000000 0.000000
0.720119 0.000000 0.000000
0.795468 0.000000 0.000000
0.855436 0.000000 0.000000
0.903380 0.000000 0.000000
0.940063 0.000000 0.000000
0.968750 0.000000 0.000000
0.993561 0.000000 0.000000
1.000000 0.000000 0.000000
1.000000 0.000000 0.000000
1.000000 0.000000 0.000000
1.000000 0.000000 0.000000
1.000000 0.000000 0.000000
1.000000 0.000000 0.000000
1.000000 0.000000 0.000000
1.000000 0.000000 0.000000
1.000000 0.000000 0.000000
1.000000 0.000000 0.000000
1.000000 0.000000 0.000000
1.000000 0.000000 0.000000
1.000000 0.000000 0.000000
1.000000 0.000000 0.000000
1.000000 0.000000 0.000000
0.044068 0.242893 0.000000
0.061677 0.242496 0.000000
0.104402 0.241428 0.000000
0.146029 0.238285 0.000000
0.195346 0.233219 0.000000
0.257542 0.230045 0.000000
0.346593 0.228031 0.000000
0.460121 0.215579 0.000000
0.574121 0.179080 0.000000
0.663294 0.083375 0.000000
0.740963 0.000000 0.000000
0.805783 0.000000 0.000000
0.859586 0.000000 0.000000
0.903593 0.000000 0.000000
0.938231 0.000000 0.000000
0.965881 0.000000 0.000000
0.990417 0.000000 0.000000
1.000000 0.000000 0.000000
1.000000 0.000000 0.000000
1.000000 0.000000 0.000000
1.000000 0.000000 0.000000
1.000000 0.000000 0.000000
1.000000 0.000000 0.000000
1.000000 0.000000 0.000000
1.000000 0.000000 0.000000
1.000000 0.000000 0.000000
1.000000 0.000000 0.000000
1.000000 0.000000 0.000000
1.000000 0.000000 0.000000
1.000000 0.000000 0.000000
1.000000 0.000000 0.000000
1.000000 0.000000 0.000000
0.116426 0.308476 0.000000
0.122988 0.308263 0.000000
0.147463 0.307408 0.000000
0.187747 0.305394 0.000000
0.240055 0.301488 0.000000
0.301457 0.295659 0.000000
0.388586 0.296757 0.000000
0.489479 0.291112 0.000000
0.593164 0.275181 0.000000
0.686549 0.245548 0.000000
0.754971 0.194156 0.000000
0.813596 0.106722 0.000000
0.863279 0.000000 0.000000
0.904082 0.000000 0.000000
0.937011 0.000000 0.000000
0.963897 0.000000 0.000000
0.988312 0.000000 0.000000
1.000000 0.000000 0.000000
1.000000 0.000000 0.000000
1.000000 0.000000 0.000000
1.000000 0.000000 0.000000
1.000000 0.000000 0.000000
1.000000 0.000000 0.000000
1.000000 0.000000 0.000000
1.000000 0.000000 0.000000
1.000000 0.000000 0.000000
1.000000 0.000000 0.000000
1.000000 0.000000 0.000000
1.000000 0.000000 0.000000
1.000000 0.000000 0.000000
1.000000 0.000000 0.000000
1.000000 0.000000 0.000000
0.185061 0.389593 0.000000
0.191104 0.388952 0.000000
0.211002 0.387304 0.000000
0.248875 0.384375 0.000000
0.298283 0.378637 0.000000
0.356207 0.370947 0.000000
0.430274 0.366278 0.000000
0.517632 0.362768 0.000000
0.605829 0.353429 0.000000
0.688136 0.337835 0.000000
0.759823 0.315007 0.000000
0.813779 0.277623 0.000000
0.860624 0.231113 0.000000
0.899931 0.160739 0.000000
0.932586 0.000000 0.000000
0.959960 0.000000 0.000000
0.985199 0.000000 0.000000
1.000000 0.000000 0.000000
1.000000 0.000000 0.000000
1.000000 0.000000 0.000000
1.000000 0.000000 0.000000
1.000000 0.000000 0.000000
1.000000 0.000000 0.000000
1.000000 0.000000 0.000000
1.000000 0.000000 0.000000
1.000000 0.000000 0.000000
1.000000 0.000000 0.000000
1.000000 0.000000 0.000000
1.000000 0.000000 0.000000
1.000000 0.000000 0.000000
1.000000 0.000000 0.000000
1.000000 0.000000 0.000000
0.258915 0.459052 0.000000
0.263340 0.458686 0.000000
0.279820 0.457496 0.000000
0.312474 0.454566 0.000000
0.357458 0.449836 0.000000
0.410895 0.443305 0.000000
0.472755 0.435340 0.000000
0.548669 0.432685 0.000000
0.623743 0.426886 0.000000
0.694789 0.416907 0.000000
0.758358 0.402564 0.000000
0.814908 0.382818 0.000000
0.858976 0.350683 0.000000
0.896056 0.311315 0.000000
0.927764 0.261753 0.000000
0.955200 0.197696 0.000000
0.980804 0.071534 0.000000
1.000000 0.000000 0.000000
1.000000 0.000000 0.000000
1.000000 0.000000 0.000000
1.000000 0.000000 0.000000
1.000000 0.000000 0.000000
1.000000 0.000000 0.000000
1.000000 0.000000 0.000000
1.000000 0.000000 0.000000
1.000000 0.000000 0.000000
1.000000 0.000000 0.000000
1.000000 0.000000 0.000000
1.000000 0.000000 0.000000
1.000000 0.000000 0.000000
1.000000 0.000000 0.000000
1.000000 0.000000 0.000000
0.336736 0.527977 0.000000
0.340185 0.527672 0.000000
0.354955 0.526452 0.000000
0.381231 0.524041 0.000000
0.419776 0.520226 0.000000
0.467201 0.514763 0.000000
0.521172 0.507683 0.000000
0.582940 0.503044 0.000000
0.646296 0.498085 0.000000
0.706172 0.490761 0.000000
0.761959 0.479713 0.000000
0.812741 0.464515 0.000000
0.877653 0.470558 0.000000
0.910033 0.436103 0.000000
0.939055 0.397620 0.000000
0.966033 0.356054 0.000000
0.991028 0.309361 0.000000
1.000000 0.254307 0.000000
1.000000 0.180941 0.000000
1.000000 0.000000 0.000000
1.000000 0.000000 0.000000
1.000000 0.000000 0.000000
1.000000 0.000000 0.000000
1.000000 0.000000 0.000000
1.000000 0.000000 0.000000
1.000000 0.000000 0.000000
1.000000 0.000000 0.000000
1.000000 0.000000 0.000000
1.000000 0.000000 0.000000
1.000000 0.000000 0.000000
1.000000 0.000000 0.000000
1.000000 0.000000 0.000000
0.438331 0.609644 0.000000
0.440650 0.609125 0.000000
0.450477 0.607416 0.000000
0.470710 0.604242 0.000000
0.499702 0.599603 0.000000
0.536797 0.593622 0.000000
0.579828 0.586603 0.000000
0.627741 0.579950 0.000000
0.678523 0.574365 0.000000
0.728969 0.567620 0.000000
0.777371 0.559167 0.000000
0.822354 0.546654 0.000000
0.862394 0.528252 0.000000
0.897520 0.504112 0.000000
0.927825 0.474189 0.000000
0.955383 0.440650 0.000000
0.980774 0.404089 0.000000
1.000000 0.363867 0.000000
1.000000 0.318517 0.000000
1.000000 0.265171 0.000000
1.000000 0.196292 0.000000
1.000000 0.016144 0.000000
1.000000 0.000000 0.000000
1.000000 0.000000 0.000000
1.000000 0.000000 0.000000
1.000000 0.000000 0.000000
1.000000 0.000000 0.000000
1.000000 0.000000 0.000000
1.000000 0.000000 0.000000
1.000000 0.000000 0.000000
1.000000 0.000000 0.000000
1.000000 0.000000 0.000000
0.494728 0.655787 0.000000
0.495949 0.655299 0.000000
0.503777 0.653407 0.000000
0.519188 0.650690 0.000000
0.541711 0.646845 0.000000
0.572229 0.641688 0.000000
0.607782 0.635981 0.000000
0.647608 0.629877 0.000000
0.691035 0.624598 0.000000
0.734585 0.618128 0.000000
0.777157 0.610193 0.000000
0.817227 0.598566 0.000000
0.853758 0.582055 0.000000
0.886809 0.561059 0.000000
0.917937 0.537499 0.000000
0.945769 0.509606 0.000000
0.971008 0.478553 0.000000
0.994293 0.444831 0.000000
1.000000 0.408301 0.000000
1.000000 0.368017 0.000000
1.000000 0.323095 0.000000
1.000000 0.271031 0.000000
1.000000 0.204654 0.000000
1.000000 0.075288 0.000000
1.000000 0.000000 0.000000
1.000000 0.000000 0.000000
1.000000 0.000000 0.000000
1.000000 0.000000 0.000000
1.000000 0.000000 0.000000
1.000000 0.000000 0.000000
1.000000 0.000000 0.000000
1.000000 0.000000 0.000000
0.540795 0.697200 0.000000
0.542290 0.696864 0.000000
0.548333 0.695430 0.000000
0.560143 0.693080 0.000000
0.578759 0.689601 0.000000
0.603235 0.685298 0.000000
0.633234 0.680598 0.000000
0.667231 0.675593 0.000000
0.705135 0.671138 0.000000
0.742550 0.664576 0.000000
0.779416 0.655970 0.000000
0.814755 0.644404 0.000000
0.847715 0.628962 0.000000
0.878599 0.610437 0.000000
0.908476 0.589868 0.000000
0.936706 0.567041 0.000000
0.962280 0.540490 0.000000
0.985290 0.510979 0.000000
1.000000 0.479408 0.000000
1.000000 0.445228 0.000000
1.000000 0.408606 0.000000
1.000000 0.368597 0.000000
1.000000 0.324163 0.000000
1.000000 0.272129 0.000000
1.000000 0.205417 0.000000
1.000000 0.074952 0.000000
1.000000 0.000000 0.000000
1.000000 0.000000 0.000000
1.000000 0.000000 0.000000
1.000000 0.000000 0.000000
1.000000 0.000000 0.000000
1.000000 0.000000 0.000000
0.577264 0.731258 0.000000
0.578515 0.731197 0.000000
0.583764 0.730404 0.000000
0.594141 0.729000 0.000000
0.609796 0.726772 0.000000
0.630945 0.724025 0.000000
0.656886 0.720882 0.000000
0.686732 0.717464 0.000000
0.719600 0.713649 0.000000
0.753323 0.708522 0.000000
0.784573 0.698421 0.000000
0.814969 0.685847 0.000000
0.844053 0.670588 0.000000
0.872465 0.653651 0.000000
0.900298 0.634882 0.000000
0.927153 0.614221 0.000000
0.952850 0.591577 0.000000
0.976257 0.566064 0.000000
0.997406 0.537774 0.000000
1.000000 0.507744 0.000000
1.000000 0.476081 0.000000
1.000000 0.442084 0.000000
1.000000 0.405707 0.000000
1.000000 0.365698 0.000000
1.000000 0.320806 0.000000
1.000000 0.267765 0.000000
1.000000 0.199649 0.000000
1.000000 0.027619 0.000000
1.000000 0.000000 0.000000
1.000000 0.000000 0.000000
1.000000 0.000000 0.000000
1.000000 0.000000 0.000000
0.605493 0.758907 0.000000
0.606409 0.758785 0.000000
0.610956 0.758236 0.000000
0.619409 0.757198 0.000000
0.632837 0.755642 0.000000
0.650874 0.753536 0.000000
0.673213 0.751034 0.000000
0.699367 0.748165 0.000000
0.728298 0.744961 0.000000
0.759304 0.741726 0.000000
0.787594 0.732357 0.000000
0.814328 0.720027 0.000000
0.841215 0.706325 0.000000
0.867979 0.691188 0.000000
0.894163 0.674617 0.000000
0.919799 0.656001 0.000000
0.944335 0.635615 0.000000
0.967773 0.613275 0.000000
0.989319 0.588525 0.000000
1.000000 0.561334 0.000000
1.000000 0.532830 0.000000
1.000000 0.502831 0.000000
1.000000 0.471107 0.000000
1.000000 0.436957 0.000000
1.000000 0.400031 0.000000
1.000000 0.359503 0.000000
1.000000 0.313695 0.000000
1.000000 0.258640 0.000000
1.000000 0.184878 0.000000
1.000000 0.000000 0.000000
1.000000 0.000000 0.000000
1.000000 0.000000 0.000000
0.629847 0.782650 0.000000
0.631006 0.782681 0.000000
0.645319 0.792142 0.000000
0.652583 0.791348 0.000000
0.663783 0.790066 0.000000
0.678584 0.788327 0.000000
0.697597 0.786099 0.000000
0.719814 0.783536 0.000000
0.744930 0.780697 0.000000
0.772580 0.777584 0.000000
0.800351 0.772152 0.000000
0.824308 0.760494 0.000000
0.848569 0.747738 0.000000
0.872953 0.733577 0.000000
0.897002 0.717769 0.000000
0.920409 0.700221 0.000000
0.943023 0.680568 0.000000
0.964630 0.659297 0.000000
0.985168 0.636378 0.000000
1.000000 0.611658 0.000000
1.000000 0.585107 0.000000
1.000000 0.557427 0.000000
1.000000 0.528405 0.000000
1.000000 0.497719 0.000000
1.000000 0.464881 0.000000
1.000000 0.429877 0.000000
1.000000 0.391577 0.000000
1.000000 0.349157 0.000000
1.000000 0.301061 0.000000
1.000000 0.242283 0.000000
1.000000 0.157687 0.000000
1.000000 0.000000 0.000000
0.653742 0.805966 0.000000
0.655390 0.806729 0.000000
0.659541 0.807248 0.000000
0.666438 0.807431 0.000000
0.676783 0.807004 0.000000
0.689967 0.805783 0.000000
0.706569 0.804013 0.000000
0.726101 0.801755 0.000000
0.748470 0.799283 0.000000
0.773373 0.796445 0.000000
0.800351 0.793423 0.000000
0.824369 0.785092 0.000000
0.846952 0.773434 0.000000
0.869596 0.760800 0.000000
0.892363 0.746487 0.000000
0.914672 0.730709 0.000000
0.936187 0.713191 0.000000
0.957092 0.693935 0.000000
0.977142 0.673213 0.000000
0.996155 0.651026 0.000000
1.000000 0.627344 0.000000
1.000000 0.602106 0.000000
1.000000 0.575525 0.000000
1.000000 0.547570 0.000000
1.000000 0.517937 0.000000
1.000000 0.486397 0.000000
1.000000 0.452888 0.000000
1.000000 0.416815 0.000000
1.000000 0.377539 0.000000
1.000000 0.333654 0.000000
1.000000 0.282231 0.000000
1.000000 0.212619 0.000000
0.670314 0.823362 0.000000
0.671992 0.824063 0.000000
0.675532 0.824643 0.000000
0.681605 0.824918 0.000000
0.690639 0.824613 0.000000
0.702205 0.823667 0.000000
0.716823 0.822171 0.000000
0.734249 0.820279 0.000000
0.754330 0.818082 0.000000
0.776852 0.815579 0.000000
0.801419 0.812863 0.000000
0.827329 0.809171 0.000000
0.848203 0.798520 0.000000
0.869444 0.786801 0.000000
0.890593 0.773922 0.000000
0.911681 0.759335 0.000000
0.932067 0.743374 0.000000
0.951904 0.725795 0.000000
0.971038 0.706752 0.000000
0.989410 0.686366 0.000000
1.000000 0.664668 0.000000
1.000000 0.641596 0.000000
1.000000 0.616999 0.000000
1.000000 0.591028 0.000000
1.000000 0.563775 0.000000
1.000000 0.534966 0.000000
1.000000 0.504814 0.000000
1.000000 0.472633 0.000000
1.000000 0.438453 0.000000
1.000000 0.401312 0.000000
1.000000 0.360082 0.000000
1.000000 0.309239 0.000000
0.686152 0.840421 0.000000
0.687343 0.841032 0.000000
0.690608 0.841489 0.000000
0.695918 0.841642 0.000000
0.703548 0.841428 0.000000
0.713924 0.840574 0.000000
0.726772 0.839384 0.000000
0.742367 0.837736 0.000000
0.760678 0.835874 0.000000
0.781125 0.833707 0.000000
0.803769 0.831327 0.000000
0.828458 0.828580 0.000000
0.851347 0.822202 0.000000
0.871061 0.811215 0.000000
0.890806 0.799222 0.000000
0.910491 0.785946 0.000000
0.930022 0.771206 0.000000
0.948913 0.755337 0.000000
0.967376 0.738033 0.000000
0.985046 0.719326 0.000000
1.000000 0.699153 0.000000
1.000000 0.677668 0.000000
1.000000 0.654932 0.000000
1.000000 0.631037 0.000000
1.000000 0.605921 0.000000
1.000000 0.579370 0.000000
1.000000 0.551537 0.000000
1.000000 0.522240 0.000000
1.000000 0.491341 0.000000
1.000000 0.458137 0.000000
1.000000 0.420508 0.000000
1.000000 0.377844 0.000000
0.705013 0.860197 0.000000
0.705806 0.860380 0.000000
0.708034 0.860349 0.000000
0.712184 0.860105 0.000000
0.718776 0.859525 0.000000
0.727626 0.858579 0.000000
0.738888 0.857420 0.000000
0.752834 0.856016 0.000000
0.769192 0.854398 0.000000
0.788205 0.852537 0.000000
0.809262 0.850462 0.000000
0.832364 0.848112 0.000000
0.857206 0.845518 0.000000
0.876402 0.836057 0.000000
0.894621 0.824552 0.000000
0.912657 0.811856 0.000000
0.930358 0.797910 0.000000
0.947875 0.782528 0.000000
0.964691 0.766079 0.000000
0.981079 0.748226 0.000000
0.996735 0.729274 0.000000
1.000000 0.709010 0.000000
1.000000 0.687587 0.000000
1.000000 0.664942 0.000000
1.000000 0.641535 0.000000
1.000000 0.617060 0.000000
1.000000 0.591272 0.000000
1.000000 0.564263 0.000000
1.000000 0.535790 0.000000
1.000000 0.505455 0.000000
1.000000 0.470863 0.000000
1.000000 0.433326 0.000000
0.717586 0.874449 0.000000
0.718196 0.874571 0.000000
0.720150 0.874571 0.000000
0.724056 0.874327 0.000000
0.729824 0.873869 0.000000
0.737697 0.873136 0.000000
0.748013 0.872129 0.000000
0.760586 0.870878 0.000000
0.775418 0.869444 0.000000
0.792874 0.867765 0.000000
0.812222 0.865843 0.000000
0.833677 0.863645 0.000000
0.857023 0.861143 0.000000
0.880186 0.856870 0.000000
0.896910 0.845823 0.000000
0.913573 0.833799 0.000000
0.930144 0.820676 0.000000
0.946441 0.806363 0.000000
0.962310 0.790921 0.000000
0.977722 0.774258 0.000000
0.992584 0.756435 0.000000
1.000000 0.737423 0.000000
1.000000 0.717403 0.000000
1.000000 0.696284 0.000000
1.000000 0.673213 0.000000
1.000000 0.650324 0.000000
1.000000 0.626429 0.000000
1.000000 0.601343 0.000000
1.000000 0.574975 0.000000
1.000000 0.546624 0.000000
1.000000 0.514488 0.000000
1.000000 0.480751 0.000000
0.729671 0.888182 0.000000
0.730404 0.888396 0.000000
0.732113 0.888365 0.000000
0.735378 0.888029 0.000000
0.740261 0.887449 0.000000
0.747158 0.886564 0.000000
0.756008 0.885466 0.000000
0.767117 0.884123 0.000000
0.780575 0.882567 0.000000
0.796201 0.880858 0.000000
0.813809 0.878904 0.000000
0.833768 0.876738 0.000000
0.855406 0.874327 0.000000
0.878782 0.871580 0.000000
0.898375 0.864530 0.000000
0.913634 0.852903 0.000000
0.928862 0.840330 0.000000
0.943969 0.826871 0.000000
0.959106 0.812100 0.000000
0.973632 0.796628 0.000000
0.987823 0.779965 0.000000
1.000000 0.762234 0.000000
1.000000 0.743404 0.000000
1.000000 0.723568 0.000000
1.000000 0.702602 0.000000
1.000000 0.680690 0.000000
1.000000 0.658198 0.000000
1.000000 0.634760 0.000000
1.000000 0.609979 0.000000
1.000000 0.582971 0.000000
1.000000 0.553521 0.000000
1.000000 0.523247 0.000000
0.736263 0.897795 0.000000
0.736904 0.897948 0.000000
0.738552 0.897978 0.000000
0.741543 0.897734 0.000000
0.746151 0.897337 0.000000
0.752499 0.896727 0.000000
0.760891 0.895933 0.000000
0.771511 0.894926 0.000000
0.784024 0.893797 0.000000
0.798672 0.892424 0.000000
0.815396 0.890837 0.000000
0.834043 0.889006 0.000000
0.854459 0.886870 0.000000
0.876616 0.884428 0.000000
0.900175 0.881682 0.000000
0.916136 0.872068 0.000000
0.930205 0.860014 0.000000
0.944152 0.847135 0.000000
0.958068 0.833249 0.000000
0.971740 0.818387 0.000000
0.985016 0.802579 0.000000
0.997864 0.785824 0.000000
1.000000 0.768063 0.000000
1.000000 0.749386 0.000000
1.000000 0.729702 0.000000
1.000000 0.709071 0.000000
1.000000 0.687556 0.000000
1.000000 0.665431 0.000000
1.000000 0.642329 0.000000
1.000000 0.616205 0.000000
1.000000 0.589410 0.000000
1.000000 0.562188 0.000000
0.742794 0.907347 0.000000
0.743282 0.907408 0.000000
0.744594 0.907347 0.000000
0.747280 0.907134 0.000000
0.751461 0.906737 0.000000
0.757351 0.906188 0.000000
0.764950 0.905486 0.000000
0.774624 0.904570 0.000000
0.786160 0.903532 0.000000
0.799680 0.902312 0.000000
0.815274 0.900877 0.000000
0.832639 0.899229 0.000000
0.851804 0.897337 0.000000
0.872709 0.895171 0.000000
0.895109 0.892668 0.000000
0.917998 0.889250 0.000000
0.931029 0.877775 0.000000
0.944030 0.865446 0.000000
0.956909 0.852262 0.000000
0.969879 0.837949 0.000000
0.982238 0.823026 0.000000
0.994324 0.807156 0.000000
1.000000 0.790372 0.000000
1.000000 0.772641 0.000000
1.000000 0.754116 0.000000
1.000000 0.734707 0.000000
1.000000 0.714473 0.000000
1.000000 0.693294 0.000000
1.000000 0.670771 0.000000
1.000000 0.646815 0.000000
1.000000 0.622461 0.000000
1.000000 0.598077 0.000000
0.746822 0.915160 0.000000
0.747219 0.915190 0.000000
0.748440 0.915129 0.000000
0.750942 0.914977 0.000000
0.754879 0.914702 0.000000
0.760342 0.914336 0.000000
0.767758 0.913909 0.000000
0.777005 0.913359 0.000000
0.788113 0.912688 0.000000
0.801144 0.911894 0.000000
0.816007 0.910918 0.000000
0.832609 0.909728 0.000000
0.851011 0.908293 0.000000
0.870970 0.906554 0.000000
0.892485 0.904479 0.000000
0.915373 0.902037 0.000000
0.935332 0.896574 0.000000
0.947295 0.884642 0.000000
0.959075 0.871946 0.000000
0.970825 0.858335 0.000000
0.982330 0.843870 0.000000
0.993439 0.828580 0.000000
1.000000 0.812467 0.000000
1.000000 0.795590 0.000000
1.000000 0.777951 0.000000
1.000000 0.759457 0.000000
1.000000 0.739803 0.000000
1.000000 0.718685 0.000000
1.000000 0.696986 0.000000
1.000000 0.674983 0.000000
1.000000 0.652979 0.000000
1.000000 0.631373 0.000000
0.752163 0.923430 0.000000
0.752468 0.923400 0.000000
0.753567 0.923308 0.000000
0.755642 0.923125 0.000000
0.759182 0.922850 0.000000
0.764096 0.922454 0.000000
0.770596 0.921965 0.000000
0.778805 0.921324 0.000000
0.788754 0.920592 0.000000
0.800473 0.919677 0.000000
0.813993 0.918669 0.000000
0.829191 0.917418 0.000000
0.846250 0.915984 0.000000
0.864775 0.914336 0.000000
