20 Preset/Classic brown/【3】LUT video cho PR-AE-FCPX/Tone (9).cube
# Created by Adobe Lightroom plugin Export LUT (1.24.0)
# www.johnrellis.com/lightroom/exportlut.htm
# Preset: 人文电影-素材江湖10
# Color profile: E:\lut插件\exportlut.1.24\exportlut.lrplugin\color profiles\Rec709gamma2.4.icc
LUT_3D_SIZE 5
DOMAIN_MIN 0.000000 0.000000 0.000000
DOMAIN_MAX 0.903226 0.903226 0.903226
0.065095 0.078492 0.035431
0.206180 0.084291 0.043854
0.527367 0.000000 0.015351
0.844938 0.000000 0.000000
1.000000 0.161257 0.000000
0.077882 0.211429 0.106477
0.203281 0.229313 0.096101
0.567163 0.174228 0.000000
0.850919 0.174472 0.000000
1.000000 0.290562 0.000000
0.000000 0.539178 0.270939
0.257481 0.525658 0.271946
0.538140 0.566949 0.251041
0.841398 0.560357 0.100099
0.987274 0.516869 0.164736
0.506828 0.734127 0.548394
0.527001 0.731289 0.542138
0.638605 0.714504 0.572656
0.754818 0.734829 0.528679
0.932097 0.742031 0.447761
0.740627 0.836271 0.750515
0.745663 0.835538 0.749203
0.768948 0.827451 0.747738
0.816129 0.827817 0.762814
0.873350 0.845060 0.748226
0.047425 0.093477 0.144533
0.214298 0.100893 0.157443
0.526787 0.058381 0.144106
0.827085 0.000000 0.125154
0.990570 0.215915 0.079408
0.000000 0.242008 0.203799
0.238926 0.254246 0.197513
0.563043 0.237461 0.174228
0.833646 0.239048 0.142763
0.988739 0.312535 0.114900
0.000000 0.555779 0.326482
0.289403 0.550072 0.339361
0.539239 0.562707 0.320226
0.829252 0.552178 0.240238
0.978271 0.528344 0.260502
0.504692 0.738827 0.568597
0.557610 0.735805 0.580011
0.649287 0.720729 0.593469
0.757229 0.735897 0.559014
0.929656 0.742092 0.486976
0.738277 0.837858 0.754543
0.751797 0.836667 0.758541
0.778225 0.833188 0.761105
0.822507 0.830777 0.774563
0.876310 0.847959 0.760769
0.000000 0.115175 0.414496
0.000000 0.121889 0.428473
0.584009 0.021576 0.458625
0.819211 0.300664 0.415503
0.967620 0.364782 0.376745
0.000000 0.248417 0.476631
0.000000 0.234562 0.480598
0.607782 0.272068 0.491798
0.803525 0.407324 0.444831
0.963592 0.428443 0.403998
0.000000 0.600122 0.572015
0.000000 0.603723 0.570581
0.605341 0.607385 0.557610
0.809445 0.588220 0.523827
0.948730 0.578637 0.490364
0.464057 0.759274 0.646571
0.518914 0.754543 0.645991
0.679927 0.743526 0.666346
0.771328 0.744167 0.655390
0.920928 0.742580 0.609308
0.704585 0.844083 0.761868
0.724636 0.843046 0.766659
0.787839 0.839292 0.785519
0.830045 0.832273 0.794675
0.877165 0.847684 0.781704
0.000000 0.162722 0.697810
0.000000 0.168826 0.701411
0.483558 0.173037 0.709895
0.842710 0.300847 0.714229
0.939940 0.529015 0.664332
0.000000 0.265019 0.713741
0.000000 0.260258 0.715084
0.495216 0.291112 0.717403
0.832853 0.402136 0.716396
0.928588 0.565209 0.671748
0.000000 0.562219 0.735775
0.000000 0.564111 0.734676
0.520836 0.572778 0.733608
0.803006 0.613275 0.728359
0.900145 0.663874 0.704433
0.419348 0.762722 0.773495
0.473030 0.762387 0.772396
0.631098 0.764218 0.771237
0.800656 0.765682 0.766415
0.906188 0.750057 0.742672
0.652705 0.861845 0.810086
0.672602 0.860624 0.810269
0.743038 0.856352 0.812833
0.841978 0.849393 0.829313
0.884459 0.852903 0.824155
0.000000 0.249699 0.851225
0.000000 0.256413 0.851072
0.448219 0.291539 0.851164
0.758602 0.401068 0.847837
0.942077 0.551476 0.842374
0.000000 0.316320 0.851804
0.000000 0.324468 0.851591
0.456977 0.362097 0.850614
0.754299 0.458228 0.846311
0.935607 0.580499 0.841611
0.000000 0.544732 0.852140
0.082185 0.549401 0.851286
0.487770 0.558495 0.850248
0.748013 0.605585 0.845762
0.918700 0.671290 0.844877
0.365881 0.730037 0.859098
0.414618 0.729671 0.858366
0.569055 0.731533 0.856992
0.762112 0.745144 0.855985
0.904692 0.779934 0.859251
0.641047 0.853330 0.877623
0.658076 0.853605 0.877562
0.723629 0.856107 0.878355
0.814847 0.861021 0.879362
0.901396 0.867826 0.880980
