20 Preset/Classic brown/【3】LUT video cho PR-AE-FCPX/Tone (3).cube
# Created by Adobe Lightroom plugin Export LUT (1.24.0)
# www.johnrellis.com/lightroom/exportlut.htm
# Preset: 人文电影-素材江湖04
# Color profile: E:\lut插件\exportlut.1.24\exportlut.lrplugin\color profiles\Rec709gamma2.4.icc
LUT_3D_SIZE 5
DOMAIN_MIN 0.000000 0.000000 0.000000
DOMAIN_MAX 0.903226 0.903226 0.903226
0.067323 0.091463 0.087984
0.134829 0.093507 0.095033
0.359960 0.000000 0.110353
0.807218 0.000000 0.137362
0.984161 0.105684 0.222019
0.096773 0.143557 0.120790
0.140536 0.151858 0.116365
0.397803 0.149020 0.113130
0.809873 0.085054 0.132601
0.979339 0.309056 0.239292
0.221317 0.400916 0.274418
0.282567 0.382269 0.287388
0.493324 0.467079 0.231846
0.821012 0.549615 0.118410
0.944213 0.567437 0.317418
0.545251 0.711574 0.586175
0.572839 0.709468 0.599329
0.630030 0.717281 0.604913
0.745785 0.742733 0.554284
0.891600 0.763119 0.568475
0.727321 0.850004 0.806638
0.734585 0.849638 0.809781
0.751644 0.842588 0.814145
0.779446 0.854459 0.812284
0.839078 0.866484 0.799710
0.063111 0.095308 0.110231
0.116518 0.100771 0.111482
0.340917 0.085939 0.112795
0.757900 0.000000 0.130220
0.963928 0.148836 0.204318
0.078157 0.152651 0.142977
0.147707 0.157992 0.142336
0.387549 0.169314 0.128969
0.772885 0.161318 0.124178
0.959991 0.300206 0.214878
0.210208 0.389197 0.280369
0.280552 0.378759 0.296849
0.457588 0.433326 0.253971
0.797940 0.528710 0.095399
0.939696 0.565423 0.306249
0.543389 0.711482 0.592859
0.572686 0.710262 0.606683
0.631586 0.716304 0.618616
0.741756 0.740749 0.570947
0.891142 0.761318 0.563561
0.725246 0.850309 0.807126
0.732387 0.849668 0.809903
0.758572 0.848905 0.822873
0.783688 0.857755 0.820310
0.841245 0.869566 0.808438
0.055116 0.110689 0.186374
0.128664 0.118227 0.196109
0.293492 0.141360 0.219455
0.748623 0.000000 0.226261
0.961364 0.230686 0.211582
0.092531 0.163851 0.220127
0.156313 0.172793 0.232517
0.352056 0.202426 0.260716
0.762539 0.160708 0.260624
0.956970 0.344182 0.237583
0.000000 0.430488 0.378485
0.207797 0.438178 0.379339
0.507103 0.475380 0.386236
0.781918 0.525536 0.356420
0.932586 0.567285 0.354864
0.522911 0.718318 0.621546
0.551598 0.714290 0.624567
0.637049 0.713069 0.662470
0.733181 0.741360 0.634852
0.882475 0.758663 0.606348
0.706355 0.850309 0.804288
0.716701 0.850278 0.808164
0.750179 0.849577 0.822049
0.780819 0.855222 0.827573
0.836851 0.867094 0.815061
0.000000 0.139590 0.337713
0.107637 0.145724 0.355932
0.394079 0.161685 0.432471
0.668391 0.208621 0.464118
0.921996 0.306554 0.497292
0.000000 0.184756 0.369055
0.133303 0.193027 0.385290
0.424964 0.231724 0.459541
0.677913 0.300237 0.487404
0.913848 0.381201 0.512566
0.000000 0.358190 0.453315
0.135714 0.369116 0.460700
0.490578 0.466529 0.550347
0.715358 0.529229 0.577630
0.882841 0.595605 0.606378
0.354528 0.722835 0.686091
0.415106 0.725093 0.688563
0.602289 0.731533 0.702296
0.731044 0.750484 0.716915
0.865782 0.756405 0.707729
0.653193 0.855039 0.810391
0.667781 0.855039 0.812772
0.722438 0.856565 0.826230
0.784878 0.856718 0.849119
0.834470 0.868681 0.836820
0.000000 0.175662 0.609644
0.000000 0.177707 0.622126
0.451820 0.183017 0.676295
0.757839 0.316472 0.737118
0.854795 0.487709 0.709224
0.000000 0.210513 0.612421
0.000000 0.216007 0.625574
0.452399 0.243137 0.678401
0.750668 0.388861 0.739376
0.845640 0.529442 0.715724
0.000000 0.332555 0.614099
0.000000 0.342168 0.631373
0.416327 0.408576 0.691646
0.728786 0.581353 0.760037
0.822385 0.657588 0.754665
0.000000 0.630579 0.729091
0.000000 0.628473 0.727657
0.326452 0.627405 0.727535
0.695735 0.725521 0.792844
0.818875 0.779416 0.816892
0.536339 0.852842 0.845243
0.555444 0.852903 0.845518
0.630396 0.856107 0.849973
0.738430 0.863737 0.860533
0.833463 0.873808 0.873320
