20 Preset/Classic brown/【3】LUT video cho PR-AE-FCPX/Tone (8).cube
# Created by Adobe Lightroom plugin Export LUT (1.24.0)
# www.johnrellis.com/lightroom/exportlut.htm
# Preset: 人文电影-素材江湖09
# Color profile: E:\lut插件\exportlut.1.24\exportlut.lrplugin\color profiles\Rec709gamma2.4.icc
LUT_3D_SIZE 5
DOMAIN_MIN 0.000000 0.000000 0.000000
DOMAIN_MAX 0.903226 0.903226 0.903226
0.060731 0.078645 0.044495
0.126986 0.088594 0.053651
0.234928 0.091341 0.067079
0.411688 0.004791 0.074067
0.626307 0.000000 0.076967
0.094759 0.125948 0.088777
0.122835 0.133120 0.088167
0.248264 0.125368 0.076661
0.421057 0.101625 0.073945
0.640925 0.000000 0.065858
0.133822 0.236912 0.144411
0.165530 0.232486 0.150301
0.253391 0.263951 0.139895
0.459937 0.261753 0.103944
0.668849 0.227756 0.091798
0.210300 0.408637 0.237949
0.242618 0.405982 0.243290
0.318212 0.404211 0.255253
0.439826 0.440253 0.221958
0.687770 0.483772 0.161593
0.427070 0.620111 0.422461
0.445289 0.618555 0.425879
0.496620 0.604395 0.431922
0.575860 0.618067 0.440131
0.701045 0.646235 0.418830
0.069581 0.088594 0.096529
0.123384 0.099153 0.098848
0.231174 0.110750 0.100526
0.395819 0.091676 0.102602
0.604456 0.000000 0.095583
0.094209 0.135012 0.111879
0.133547 0.139986 0.112398
0.245365 0.140261 0.109926
0.407172 0.126497 0.108186
0.615229 0.000000 0.100984
0.141970 0.243290 0.161166
0.172457 0.241672 0.163790
0.253574 0.260472 0.157992
0.447395 0.255070 0.132143
0.661128 0.235599 0.123171
0.230838 0.415534 0.257145
0.249332 0.414221 0.256077
0.330541 0.407782 0.271977
0.444404 0.442329 0.239445
0.688899 0.482338 0.187411
0.436683 0.622522 0.435218
0.445136 0.621332 0.432685
0.512535 0.615686 0.450385
0.586755 0.623774 0.457465
0.709224 0.652003 0.436744
0.043061 0.104707 0.173892
0.111238 0.110933 0.177615
0.248447 0.127352 0.186587
0.399420 0.154147 0.186069
0.607111 0.086275 0.177066
0.085451 0.146548 0.193057
0.126070 0.146853 0.194308
0.262943 0.164797 0.198764
0.401831 0.189761 0.196475
0.618738 0.140505 0.185306
0.089723 0.270451 0.235477
0.152468 0.274083 0.235172
0.291691 0.286259 0.233982
0.455909 0.275212 0.220676
0.656458 0.265263 0.208438
0.200137 0.440284 0.303960
0.244450 0.437324 0.304387
0.358465 0.434272 0.317815
0.467567 0.455909 0.304143
0.694911 0.474006 0.266545
0.404852 0.630518 0.457618
0.436683 0.630243 0.463508
0.509453 0.627222 0.472175
0.594690 0.623285 0.490150
0.708888 0.650721 0.464607
0.000000 0.127047 0.309361
0.000000 0.131441 0.312383
0.233433 0.145754 0.320653
0.448646 0.162142 0.328862
0.639307 0.206638 0.327947
0.000000 0.159976 0.323552
0.020294 0.163119 0.324681
0.246281 0.177859 0.328954
0.453346 0.198947 0.333745
0.636286 0.238926 0.331945
0.000000 0.277653 0.357641
0.103883 0.279973 0.357000
0.274662 0.286656 0.359472
0.473213 0.313207 0.357397
0.641840 0.338933 0.354498
0.000000 0.467079 0.421729
0.151797 0.467689 0.420417
0.323644 0.475593 0.420447
0.514153 0.485756 0.417029
0.710719 0.463539 0.385718
0.297002 0.658747 0.529931
0.335760 0.658015 0.529717
0.461250 0.655421 0.532128
0.617182 0.646021 0.549523
0.723445 0.659724 0.533013
0.000000 0.162509 0.526146
0.000000 0.165591 0.526299
0.194675 0.176364 0.530297
0.476448 0.188785 0.534600
0.708125 0.235019 0.538781
0.000000 0.188022 0.529595
0.000000 0.191226 0.530053
0.204593 0.202823 0.532799
0.478676 0.218875 0.536004
0.707515 0.265232 0.540063
0.000000 0.298772 0.551202
0.000000 0.299138 0.550286
0.202090 0.294835 0.551293
0.486580 0.317601 0.551110
0.716457 0.367803 0.557122
0.000000 0.487465 0.592584
0.000000 0.485512 0.591150
0.157412 0.480751 0.589868
0.480232 0.476539 0.592828
0.736294 0.527001 0.599542
0.160464 0.673091 0.658076
0.224796 0.673182 0.657954
0.386694 0.676265 0.660731
0.572290 0.680995 0.663935
0.763668 0.687739 0.665064
