20 Preset/Ocident style/【2】XMP cho Photoshop - Lightroom CC/Ocident style 2/Spectrum 8.xmp
<x:xmpmeta xmlns:x="adobe:ns:meta/" x:xmptk="Adobe XMP Core 5.6-c140 79.160451, 2017/05/06-01:08:21        ">
 <rdf:RDF xmlns:rdf="http://www.w3.org/1999/02/22-rdf-syntax-ns#">
  <rdf:Description rdf:about=""
    xmlns:crs="http://ns.adobe.com/camera-raw-settings/1.0/"
   crs:PresetType="Normal"
   crs:Cluster=""
   crs:UUID="23F9E5125EAA1D3465C082F12CDD4ACA"
   crs:SupportsAmount="False"
   crs:SupportsColor="True"
   crs:SupportsMonochrome="True"
   crs:SupportsHighDynamicRange="True"
   crs:SupportsNormalDynamicRange="True"
   crs:SupportsSceneReferred="True"
   crs:SupportsOutputReferred="True"
   crs:CameraModelRestriction=""
   crs:Copyright=""
   crs:ContactInfo=""
   crs:Version="12.0"
   crs:ProcessVersion="6.7"
   crs:WhiteBalance="As Shot"
   crs:Saturation="-13"
   crs:Sharpness="0"
   crs:LuminanceSmoothing="0"
   crs:ColorNoiseReduction="0"
   crs:VignetteAmount="0"
   crs:ShadowTint="-1"
   crs:RedHue="+27"
   crs:RedSaturation="+45"
   crs:GreenHue="+36"
   crs:GreenSaturation="-15"
   crs:BlueHue="-5"
   crs:BlueSaturation="-10"
   crs:Vibrance="0"
   crs:HueAdjustmentRed="+10"
   crs:HueAdjustmentOrange="-5"
   crs:HueAdjustmentYellow="0"
   crs:HueAdjustmentGreen="+10"
   crs:HueAdjustmentAqua="+10"
   crs:HueAdjustmentBlue="-5"
   crs:HueAdjustmentPurple="0"
   crs:HueAdjustmentMagenta="+20"
   crs:SaturationAdjustmentRed="-35"
   crs:SaturationAdjustmentOrange="-21"
   crs:SaturationAdjustmentYellow="-15"
   crs:SaturationAdjustmentGreen="-35"
   crs:SaturationAdjustmentAqua="-50"
   crs:SaturationAdjustmentBlue="-30"
   crs:SaturationAdjustmentPurple="-40"
   crs:SaturationAdjustmentMagenta="-35"
   crs:LuminanceAdjustmentRed="+5"
   crs:LuminanceAdjustmentOrange="+55"
   crs:LuminanceAdjustmentYellow="+10"
   crs:LuminanceAdjustmentGreen="0"
   crs:LuminanceAdjustmentAqua="+23"
   crs:LuminanceAdjustmentBlue="+28"
   crs:LuminanceAdjustmentPurple="+15"
   crs:LuminanceAdjustmentMagenta="+5"
   crs:SplitToningShadowHue="0"
   crs:SplitToningShadowSaturation="0"
   crs:SplitToningHighlightHue="0"
   crs:SplitToningHighlightSaturation="0"
   crs:SplitToningBalance="-80"
   crs:ParametricShadows="0"
   crs:ParametricDarks="0"
   crs:ParametricLights="0"
   crs:ParametricHighlights="0"
   crs:ParametricShadowSplit="14"
   crs:ParametricMidtoneSplit="43"
   crs:ParametricHighlightSplit="75"
   crs:SharpenRadius="+1.0"
   crs:SharpenDetail="25"
   crs:SharpenEdgeMasking="0"
   crs:PostCropVignetteAmount="0"
   crs:GrainAmount="14"
   crs:GrainSize="24"
   crs:GrainFrequency="84"
   crs:LensProfileEnable="0"
   crs:LensManualDistortionAmount="0"
   crs:PerspectiveVertical="0"
   crs:PerspectiveHorizontal="0"
   crs:PerspectiveRotate="0.0"
   crs:PerspectiveScale="100"
   crs:PerspectiveAspect="0"
   crs:PerspectiveUpright="0"
   crs:PerspectiveX="0.00"
   crs:PerspectiveY="0.00"
   crs:AutoLateralCA="0"
   crs:Exposure2012="+0.75"
   crs:Contrast2012="0"
   crs:Highlights2012="-50"
   crs:Shadows2012="+30"
   crs:Whites2012="-40"
   crs:Blacks2012="+25"
   crs:Clarity2012="0"
   crs:DefringePurpleAmount="0"
   crs:DefringePurpleHueLo="30"
   crs:DefringePurpleHueHi="70"
   crs:DefringeGreenAmount="0"
   crs:DefringeGreenHueLo="40"
   crs:DefringeGreenHueHi="60"
   crs:Dehaze="0"
   crs:ConvertToGrayscale="False"
   crs:OverrideLookVignette="False"
   crs:ToneCurveName2012="Custom"
   crs:CameraProfile="Kodak Gold 200 - SO"
   crs:LensProfileSetup="LensDefaults"
   crs:HasSettings="True">
   <crs:Name>
    <rdf:Alt>
     <rdf:li xml:lang="x-default">Spectrum 8</rdf:li>
    </rdf:Alt>
   </crs:Name>
   <crs:ShortName>
    <rdf:Alt>
     <rdf:li xml:lang="x-default"/>
    </rdf:Alt>
   </crs:ShortName>
   <crs:SortName>
    <rdf:Alt>
     <rdf:li xml:lang="x-default"/>
    </rdf:Alt>
   </crs:SortName>
   <crs:Group>
    <rdf:Alt>
     <rdf:li xml:lang="x-default">Ocident style 2</rdf:li>
    </rdf:Alt>
   </crs:Group>
   <crs:Description>
    <rdf:Alt>
     <rdf:li xml:lang="x-default"/>
    </rdf:Alt>
   </crs:Description>
   <crs:ToneCurvePV2012>
    <rdf:Seq>
     <rdf:li>0, 6</rdf:li>
     <rdf:li>46, 49</rdf:li>
     <rdf:li>128, 127</rdf:li>
     <rdf:li>220, 220</rdf:li>
     <rdf:li>244, 253</rdf:li>
    </rdf:Seq>
   </crs:ToneCurvePV2012>
   <crs:ToneCurvePV2012Red>
    <rdf:Seq>
     <rdf:li>0, 0</rdf:li>
     <rdf:li>21, 4</rdf:li>
     <rdf:li>56, 20</rdf:li>
     <rdf:li>119, 122</rdf:li>
     <rdf:li>178, 205</rdf:li>
     <rdf:li>255, 255</rdf:li>
    </rdf:Seq>
   </crs:ToneCurvePV2012Red>
   <crs:ToneCurvePV2012Green>
    <rdf:Seq>
     <rdf:li>0, 0</rdf:li>
     <rdf:li>53, 21</rdf:li>
     <rdf:li>123, 129</rdf:li>
     <rdf:li>179, 205</rdf:li>
     <rdf:li>255, 255</rdf:li>
    </rdf:Seq>
   </crs:ToneCurvePV2012Green>
   <crs:ToneCurvePV2012Blue>
    <rdf:Seq>
     <rdf:li>0, 0</rdf:li>
     <rdf:li>48, 20</rdf:li>
     <rdf:li>121, 122</rdf:li>
     <rdf:li>175, 200</rdf:li>
     <rdf:li>255, 255</rdf:li>
    </rdf:Seq>
   </crs:ToneCurvePV2012Blue>
   <crs:GradientBasedCorrections>
    <rdf:Seq>
     <rdf:li>
      <rdf:Description
       crs:What="Correction"
       crs:CorrectionAmount="1.000000"
       crs:CorrectionActive="true"
       crs:LocalExposure="0.000000"
       crs:LocalSaturation="0.000000"
       crs:LocalContrast="0.000000"
       crs:LocalClarity="0.000000"
       crs:LocalSharpness="0.000000"
       crs:LocalBrightness="0.000000"
       crs:LocalToningHue="0.000000"
       crs:LocalToningSaturation="0.000000"
       crs:LocalExposure2012="0.000000"
       crs:LocalContrast2012="0.000000"
       crs:LocalHighlights2012="0.000000"
       crs:LocalShadows2012="0.000000"
       crs:LocalWhites2012="0.000000"
       crs:LocalBlacks2012="0.000000"
       crs:LocalClarity2012="0.000000"
       crs:LocalDehaze="0.000000"
       crs:LocalLuminanceNoise="0.000000"
       crs:LocalMoire="0.000000"
       crs:LocalDefringe="0.000000"
       crs:LocalTemperature="-0.340511"
       crs:LocalTint="-0.256574">
      <crs:CorrectionMasks>
       <rdf:Seq>
        <rdf:li
         crs:What="Mask/Gradient"
         crs:MaskValue="1.000000"
         crs:ZeroX="0.540488"
         crs:ZeroY="0.294108"
         crs:FullX="0.540647"
         crs:FullY="0.001191"/>
       </rdf:Seq>
      </crs:CorrectionMasks>
      <crs:CorrectionRangeMask
       crs:Version="+2"
       crs:Type="0"
       crs:ColorAmount="0.500000"
       crs:LumMin="0.000000"
       crs:LumMax="1.000000"
       crs:LumFeather="0.500000"
       crs:DepthMin="0.000000"
       crs:DepthMax="1.000000"
       crs:DepthFeather="0.500000"/>
      </rdf:Description>
     </rdf:li>
    </rdf:Seq>
   </crs:GradientBasedCorrections>
   <crs:Look
    crs:Name=""/>
  </rdf:Description>
 </rdf:RDF>
</x:xmpmeta>
