20 Preset/Natural Girl/【3】LUT video cho PR-AE-FCPX/Lut Tone  (1).cube
# Created by Adobe Lightroom plugin Export LUT (1.24.0)
# www.johnrellis.com/lightroom/exportlut.htm
# Preset: 自然胶片-素材江湖（原版）10
# Color profile: C:\Program Files (x86)\Common Files\Adobe\Color\Profiles\Recommended\VideoHD.icc
LUT_3D_SIZE 8
DOMAIN_MIN 0.000000 0.000000 0.000000
DOMAIN_MAX 0.903226 0.903226 0.903226
0.062928 0.053803 0.053529
0.132113 0.079591 0.069978
0.240299 0.102327 0.095308
0.382940 0.110536 0.103334
0.524010 0.132906 0.112032
0.640528 0.181888 0.133455
0.729885 0.241733 0.165225
0.801572 0.305364 0.205264
0.111910 0.125948 0.102693
0.147127 0.134676 0.100404
0.255863 0.138674 0.102296
0.391913 0.147433 0.106569
0.527550 0.167330 0.116854
0.640375 0.207095 0.138399
0.726986 0.257847 0.168460
0.799130 0.316136 0.208469
0.166354 0.242863 0.152621
0.192599 0.243198 0.155123
0.292088 0.273411 0.132937
0.432013 0.266697 0.113069
0.554467 0.271061 0.127352
0.654414 0.293187 0.157198
0.735164 0.326787 0.191318
0.801724 0.368963 0.231052
0.253361 0.383825 0.231479
0.270970 0.383154 0.233066
0.328649 0.396796 0.227573
0.451484 0.428290 0.198093
0.576928 0.420661 0.175235
0.675654 0.408576 0.174136
0.743709 0.421241 0.220890
0.801755 0.444251 0.264530
0.349218 0.498299 0.318853
0.358984 0.497475 0.319799
0.395575 0.495155 0.323583
0.462318 0.520623 0.308507
0.567803 0.541039 0.286534
0.662440 0.532708 0.267247
0.740505 0.523278 0.270085
0.802518 0.525536 0.299748
0.435706 0.582452 0.401892
0.442206 0.582910 0.403326
0.463935 0.580896 0.405158
0.501976 0.586572 0.403449
0.566918 0.608881 0.390143
0.650904 0.622919 0.378393
0.725216 0.618067 0.369879
0.790982 0.615015 0.380499
0.514549 0.652369 0.485389
0.517906 0.652216 0.485817
0.530694 0.650599 0.486366
0.554376 0.647791 0.488136
0.590753 0.660151 0.482612
0.647150 0.676722 0.474098
0.713313 0.686824 0.471565
0.779629 0.690455 0.471839
0.589532 0.715511 0.573236
0.591394 0.715297 0.573419
0.599451 0.714443 0.573907
0.614862 0.712825 0.575128
0.635645 0.714260 0.572168
0.672633 0.730037 0.568048
0.726253 0.747555 0.563165
0.786374 0.759182 0.564813
0.088991 0.080995 0.107485
0.133944 0.071321 0.116823
0.225650 0.107088 0.123476
0.371862 0.133394 0.140597
0.513329 0.158755 0.150851
0.629999 0.200870 0.167758
0.719051 0.252659 0.191440
0.793423 0.310735 0.224277
0.109895 0.126040 0.124880
0.141176 0.133394 0.130861
0.246738 0.146944 0.137392
0.383276 0.162692 0.144533
0.519707 0.185885 0.154177
0.632441 0.222538 0.171176
0.718776 0.268040 0.195071
0.792203 0.321630 0.227237
0.171176 0.246983 0.176699
0.196414 0.247623 0.179324
0.286931 0.270787 0.166293
0.426062 0.265141 0.145418
0.545800 0.275090 0.162051
0.645197 0.297734 0.185031
0.725521 0.329442 0.211917
0.794644 0.370214 0.246128
0.256138 0.383886 0.247257
0.272618 0.383429 0.248905
0.328435 0.392004 0.247684
0.443366 0.422187 0.219486
0.567041 0.413977 0.194766
0.665431 0.404425 0.194888
0.735042 0.418463 0.235660
0.795682 0.442664 0.274784
0.350713 0.498756 0.329046
0.359838 0.497780 0.329564
0.395666 0.495033 0.332708
0.459205 0.516716 0.320165
0.562554 0.537163 0.297887
0.657465 0.529259 0.277836
0.736873 0.520714 0.278874
0.798611 0.524132 0.308263
0.435584 0.581842 0.407416
0.440955 0.581415 0.407904
0.462745 0.579522 0.409674
0.500359 0.583642 0.409277
0.564294 0.606470 0.396857
0.648493 0.621393 0.385351
0.723079 0.616876 0.376104
0.788907 0.613611 0.385077
0.513237 0.651514 0.487800
0.516197 0.650935 0.487648
0.528893 0.649348 0.488075
0.552850 0.646723 0.489906
0.589319 0.658503 0.485695
0.645289 0.675227 0.477455
0.711177 0.685237 0.474128
0.777432 0.688716 0.473610
0.588159 0.714687 0.574029
0.590356 0.714626 0.574334
0.598291 0.713710 0.574762
0.613672 0.712184 0.576013
0.636378 0.714626 0.575982
0.672480 0.729915 0.571221
0.725490 0.747189 0.565301
0.785641 0.758785 0.566918
0.112245 0.106813 0.166567
0.134005 0.104585 0.175326
0.238956 0.094423 0.201785
0.342290 0.139467 0.205997
0.487831 0.179294 0.224704
0.607141 0.253635 0.258762
0.704372 0.294255 0.272221
0.781918 0.341161 0.291936
0.141512 0.147982 0.182528
0.158724 0.150637 0.191867
0.251041 0.141665 0.215457
0.355261 0.175418 0.218845
0.490272 0.225650 0.243412
0.613428 0.267430 0.260746
0.704524 0.305333 0.273777
0.781247 0.350042 0.293828
0.173159 0.247501 0.236667
0.196597 0.252445 0.240574
0.275883 0.271061 0.255222
0.404456 0.281224 0.253391
0.526635 0.299901 0.259770
0.628809 0.324346 0.271061
0.711666 0.354009 0.285740
0.783383 0.390021 0.306798
0.249119 0.396307 0.298589
0.270481 0.397589 0.301640
0.336950 0.397681 0.310674
0.436408 0.422583 0.294774
0.561700 0.413581 0.267124
0.652430 0.414099 0.278508
0.724086 0.431281 0.302861
0.786618 0.454841 0.329259
0.358251 0.507195 0.370550
0.367895 0.506401 0.370916
0.402899 0.504021 0.373144
0.459937 0.513909 0.370703
0.557763 0.537438 0.351049
0.652155 0.529839 0.328832
0.732570 0.522087 0.324498
0.790921 0.529412 0.354345
0.441901 0.586511 0.436103
0.447272 0.586206 0.436439
0.467964 0.584283 0.437690
0.503807 0.580560 0.439918
0.561181 0.603632 0.429969
0.643488 0.620203 0.418311
0.718593 0.616663 0.407294
0.785763 0.614374 0.412573
0.516930 0.654475 0.506767
0.519738 0.653956 0.506737
0.532006 0.652216 0.506737
0.554925 0.649348 0.507561
0.588922 0.656550 0.505394
0.642786 0.673945 0.498573
0.708614 0.685298 0.494759
0.775845 0.689815 0.493507
0.588434 0.716396 0.584314
0.590265 0.716060 0.584192
0.598108 0.715114 0.584497
0.613733 0.713710 0.585626
0.635615 0.712642 0.586206
0.670802 0.728634 0.582269
0.723781 0.746944 0.576562
0.784237 0.758907 0.577478
0.128542 0.131563 0.259983
0.150271 0.131502 0.267399
0.238071 0.123354 0.293004
0.382055 0.095918 0.319219
0.456245 0.182193 0.301762
0.575769 0.234195 0.317052
0.673030 0.296696 0.337621
0.747341 0.383185 0.381567
0.165103 0.177554 0.276799
0.181399 0.177554 0.282567
0.252689 0.168978 0.304051
0.389197 0.149020 0.327794
0.460853 0.213657 0.311284
0.579492 0.258061 0.324773
0.671992 0.321416 0.348943
0.749966 0.389929 0.383093
0.234073 0.274449 0.308324
0.251164 0.281071 0.311406
0.295903 0.291905 0.331609
0.404211 0.276280 0.354009
0.484077 0.308415 0.345647
0.593866 0.339239 0.356054
0.677760 0.394965 0.384955
0.762081 0.419318 0.390845
0.263157 0.392981 0.371893
0.279179 0.395087 0.373693
0.335943 0.405066 0.381994
0.422736 0.422950 0.397436
0.530968 0.425788 0.389197
0.619471 0.436561 0.391028
0.698268 0.452094 0.396368
0.767361 0.471962 0.405982
0.343114 0.518029 0.425116
0.355505 0.517998 0.426062
0.400824 0.519036 0.431586
0.466499 0.517876 0.440528
0.547875 0.537774 0.429236
0.643000 0.530083 0.404273
0.719448 0.527031 0.404211
0.775998 0.538170 0.424903
0.443000 0.597131 0.479316
0.450111 0.597833 0.481300
0.477272 0.595972 0.486519
0.511894 0.592187 0.487373
0.558953 0.600977 0.484382
0.635950 0.619989 0.473152
0.711635 0.617029 0.458747
0.781094 0.614618 0.456764
0.521294 0.660182 0.539422
0.524315 0.659907 0.539483
0.536645 0.658534 0.539666
0.559197 0.655787 0.539971
0.589807 0.653712 0.539757
0.638544 0.672053 0.534386
0.703517 0.685084 0.529320
0.772580 0.690578 0.525353
0.587976 0.721065 0.603601
0.589899 0.720790 0.603601
0.597833 0.719722 0.603540
0.613062 0.717739 0.603540
0.634852 0.714687 0.603632
0.666987 0.725765 0.601160
0.719753 0.746029 0.595605
0.781735 0.759152 0.595911
0.160647 0.172732 0.371801
0.180575 0.172976 0.376318
0.252079 0.170077 0.391760
0.375402 0.143862 0.417212
0.512932 0.120302 0.431891
0.557549 0.229129 0.394842
0.639521 0.289494 0.402014
0.731472 0.344793 0.419135
0.198795 0.216037 0.381933
0.213260 0.215335 0.385809
0.270481 0.210147 0.399390
0.381903 0.186801 0.422309
0.515221 0.169039 0.436225
0.558923 0.253330 0.400397
0.641474 0.306340 0.407477
0.731899 0.357641 0.423743
0.274540 0.315770 0.402136
0.281743 0.316136 0.405982
0.323095 0.321202 0.418799
0.400305 0.303655 0.438209
0.519341 0.286961 0.451118
0.561669 0.331273 0.420722
0.647761 0.366339 0.428443
0.732845 0.404028 0.441138
0.335912 0.409949 0.438636
0.346715 0.413001 0.440162
0.387335 0.425666 0.446021
0.437171 0.438483 0.463325
0.523461 0.420966 0.477729
0.574701 0.436988 0.461158
0.660670 0.455329 0.466499
0.728359 0.494606 0.488441
0.365301 0.509819 0.488777
0.374731 0.510887 0.489876
0.409522 0.515404 0.494087
0.465431 0.524285 0.502464
0.532158 0.535729 0.513573
0.612757 0.534722 0.503410
0.685603 0.538537 0.500084
0.751125 0.546136 0.500145
0.425849 0.602197 0.528466
0.432898 0.602197 0.528985
0.459205 0.601556 0.530236
0.502556 0.600732 0.533135
0.556603 0.599634 0.540032
0.623590 0.617578 0.534173
0.702754 0.613825 0.515465
0.771969 0.611261 0.511101
0.507652 0.666285 0.570916
0.511070 0.666072 0.571069
0.525872 0.665400 0.572198
0.559014 0.663996 0.579522
0.590265 0.659541 0.578576
0.630610 0.666987 0.575769
0.695186 0.683406 0.570367
0.767514 0.688777 0.562005
0.573480 0.727169 0.622736
0.577935 0.726833 0.624384
0.589899 0.725551 0.626612
0.606989 0.723690 0.626734
0.630396 0.720180 0.625940
0.659693 0.719448 0.624506
0.710536 0.741878 0.620020
0.776516 0.757717 0.618250
0.217502 0.230594 0.480537
0.232090 0.230716 0.482918
0.286107 0.228428 0.491524
0.378058 0.215976 0.506584
0.505425 0.173434 0.525505
0.617029 0.173953 0.528771
0.640864 0.278843 0.481605
0.697108 0.336492 0.480323
0.247440 0.264988 0.483955
0.258183 0.264439 0.485939
0.303014 0.260197 0.493782
0.385382 0.247013 0.508232
0.506218 0.209476 0.526299
0.615717 0.207065 0.529625
0.639643 0.296025 0.483986
0.697200 0.347570 0.482979
0.312169 0.353582 0.497627
0.323369 0.356512 0.499672
0.355962 0.356573 0.506798
0.412634 0.343114 0.518090
0.511467 0.315312 0.534020
0.614374 0.306004 0.538231
0.639582 0.358679 0.497810
0.701289 0.392432 0.497536
0.399512 0.454749 0.512291
0.405371 0.456489 0.513542
0.421912 0.459205 0.522026
0.458747 0.461433 0.535943
0.520836 0.441413 0.549737
0.611414 0.425208 0.555261
0.640131 0.446601 0.523278
0.709316 0.462989 0.523888
0.430121 0.521721 0.547173
0.436561 0.523003 0.547814
0.461402 0.528618 0.550561
0.502770 0.539574 0.556085
0.542168 0.547601 0.568017
0.606256 0.528649 0.575647
0.644831 0.530266 0.554620
0.719112 0.538811 0.554955
0.452674 0.596307 0.583734
0.458198 0.597131 0.584649
0.477729 0.599054 0.586572
0.511650 0.602930 0.590631
0.556207 0.609094 0.597040
0.611170 0.617517 0.605890
0.678767 0.614893 0.595422
0.741756 0.615198 0.589288
0.493538 0.673426 0.620111
0.497841 0.673518 0.620417
0.514366 0.673152 0.620844
0.544579 0.672511 0.621912
0.584771 0.671687 0.624140
0.628534 0.667659 0.626337
0.685664 0.683101 0.622095
0.763668 0.686519 0.608789
0.556542 0.733516 0.654994
0.558709 0.733333 0.654810
0.568322 0.732998 0.654566
0.586816 0.732723 0.654322
0.618830 0.731441 0.657160
0.653193 0.725154 0.654902
0.697566 0.735622 0.651698
0.769955 0.756619 0.648890
0.289281 0.299351 0.584009
0.300938 0.300633 0.587060
0.338720 0.296849 0.591241
0.407507 0.287419 0.600427
0.501122 0.261234 0.610346
0.617700 0.202976 0.621210
0.702937 0.220005 0.615137
0.710018 0.317571 0.558984
0.302770 0.318517 0.577752
0.312963 0.319768 0.581201
0.346197 0.315404 0.585657
0.407538 0.303777 0.593103
0.495735 0.277470 0.602319
0.608362 0.222751 0.612177
0.692226 0.231693 0.605371
0.699733 0.318273 0.549828
0.364202 0.400397 0.588861
0.371038 0.400702 0.589746
0.390814 0.393896 0.591791
0.434577 0.380743 0.597711
0.505364 0.356268 0.605158
0.606897 0.314519 0.615625
0.692134 0.314946 0.613703
0.704555 0.374517 0.565332
0.425330 0.484596 0.599084
0.427985 0.483803 0.599451
0.442115 0.482368 0.602228
0.479316 0.483742 0.609277
0.524987 0.463752 0.616358
0.606592 0.432776 0.627039
0.688716 0.421057 0.626978
0.704067 0.448463 0.583032
0.476448 0.549554 0.608057
0.479103 0.549096 0.606622
0.495277 0.552148 0.605951
0.517876 0.556054 0.611109
0.545983 0.552697 0.621363
0.596063 0.528252 0.629908
0.673579 0.507897 0.631586
0.699489 0.519799 0.599847
0.494789 0.600977 0.631342
0.498787 0.601709 0.631891
0.513725 0.603967 0.633082
0.541436 0.608698 0.635706
0.579004 0.616358 0.639185
0.614771 0.623011 0.649561
0.669459 0.603357 0.654078
0.699245 0.596155 0.627436
0.514702 0.662440 0.660731
0.518914 0.663264 0.661738
0.531121 0.663966 0.662470
0.554650 0.665858 0.664576
0.586114 0.668269 0.667109
0.624506 0.672541 0.671717
0.670741 0.679408 0.678950
0.740658 0.676661 0.667872
0.534539 0.738369 0.699855
0.536828 0.738827 0.700221
0.548608 0.740688 0.702174
0.569085 0.741085 0.702144
0.597681 0.740688 0.700526
0.635889 0.739864 0.697902
0.685603 0.733303 0.695094
0.758938 0.754360 0.692012
0.357763 0.364385 0.667567
0.364813 0.364111 0.668849
0.387915 0.356847 0.668940
0.435920 0.346014 0.673457
0.505089 0.323674 0.678981
0.593347 0.281834 0.684993
0.699916 0.199496 0.692500
0.768856 0.229160 0.682582
0.363745 0.376257 0.662837
0.370550 0.376135 0.664302
0.392828 0.370001 0.665644
0.437476 0.358190 0.669703
0.503929 0.336065 0.675349
0.590234 0.295109 0.681544
0.694911 0.217288 0.688289
0.763546 0.238437 0.677790
0.400122 0.431952 0.661494
0.404395 0.431037 0.662196
0.419898 0.424170 0.663142
0.458442 0.416388 0.669978
0.512566 0.393896 0.674403
0.588464 0.356023 0.679347
0.688075 0.294285 0.686488
0.757656 0.298222 0.677333
0.430060 0.490730 0.661524
0.436500 0.492622 0.662593
0.459144 0.497536 0.664271
0.487861 0.493568 0.669001
0.526726 0.475532 0.674495
0.588556 0.444800 0.680537
0.678431 0.395941 0.687892
0.750027 0.384710 0.681025
0.489326 0.561852 0.659968
0.491341 0.562066 0.661219
0.494423 0.557977 0.662684
0.510307 0.555138 0.668269
0.545403 0.553216 0.673579
0.585962 0.527947 0.679225
0.661585 0.489448 0.687068
0.737819 0.470130 0.684352
0.516075 0.608942 0.673457
0.517754 0.608392 0.672602
0.526726 0.608087 0.670771
0.547997 0.611109 0.670283
0.574456 0.615106 0.673610
0.604242 0.613519 0.686976
0.655268 0.590356 0.698756
0.730373 0.567620 0.699977
0.537133 0.661219 0.699214
0.539239 0.661128 0.699031
0.548180 0.661097 0.698543
0.567254 0.662898 0.699458
0.595270 0.666316 0.701472
0.631250 0.672969 0.706142
0.666865 0.677638 0.718837
0.726162 0.652583 0.720150
0.550622 0.724269 0.733486
0.552178 0.724117 0.733303
0.559808 0.724544 0.733730
0.575586 0.726406 0.735836
0.598505 0.728817 0.738399
0.630213 0.731899 0.741634
0.674159 0.736690 0.746670
0.732082 0.742916 0.752834
