20 Preset/Natural Girl/【3】LUT video cho PR-AE-FCPX/Lut Tone  (6).cube
# Created by Adobe Lightroom plugin Export LUT (1.24.0)
# www.johnrellis.com/lightroom/exportlut.htm
# Preset: 自然胶片-素材江湖（原版）15
# Color profile: C:\Program Files (x86)\Common Files\Adobe\Color\Profiles\Recommended\VideoHD.icc
LUT_3D_SIZE 8
DOMAIN_MIN 0.000000 0.000000 0.000000
DOMAIN_MAX 0.903226 0.903226 0.903226
0.089387 0.097871 0.089967
0.153445 0.123751 0.104067
0.274083 0.170565 0.125307
0.453223 0.218662 0.134737
0.631983 0.279026 0.157931
0.757107 0.351812 0.215946
0.833738 0.423194 0.290379
0.880644 0.494575 0.377966
0.127199 0.165743 0.131136
0.161044 0.177981 0.123598
0.301701 0.220584 0.119265
0.475776 0.259525 0.130434
0.645075 0.312932 0.160372
0.762631 0.376196 0.223087
0.835447 0.440040 0.298222
0.880797 0.505760 0.383948
0.180179 0.281437 0.193301
0.201358 0.281559 0.195773
0.308080 0.322332 0.164462
0.508232 0.385992 0.129397
0.663447 0.420783 0.164828
0.764797 0.451789 0.235721
0.831205 0.489937 0.309911
0.876158 0.538872 0.393835
0.285466 0.422644 0.294285
0.299748 0.422431 0.295933
0.350317 0.437079 0.287816
0.486763 0.477424 0.247013
0.650874 0.526421 0.234623
0.762631 0.563806 0.254948
0.824338 0.571954 0.333410
0.869657 0.598199 0.415351
0.403998 0.543847 0.406928
0.411444 0.543206 0.407446
0.439002 0.539574 0.408576
0.498177 0.566583 0.390143
0.616144 0.599542 0.357488
0.732326 0.629603 0.359564
0.806760 0.653620 0.390967
0.860716 0.672236 0.445624
0.498726 0.631617 0.507591
0.501640 0.630365 0.506798
0.516686 0.627893 0.506889
0.545281 0.635248 0.502159
0.602686 0.658747 0.487709
0.694514 0.682368 0.464485
0.776028 0.699214 0.475471
0.836515 0.723476 0.514794
0.577173 0.701900 0.599939
0.579034 0.701442 0.599725
0.587579 0.700008 0.599573
0.603235 0.697078 0.599054
0.631800 0.711513 0.593439
0.679042 0.727291 0.584161
0.747402 0.743435 0.570001
0.814298 0.760403 0.584527
0.650599 0.759548 0.688411
0.651759 0.759457 0.688502
0.656489 0.758785 0.688563
0.665126 0.757198 0.688136
0.680659 0.762325 0.688289
0.705592 0.774624 0.684016
0.744625 0.788266 0.677546
0.799374 0.802426 0.668482
0.107210 0.121401 0.147707
0.163272 0.119417 0.150759
0.267765 0.164431 0.161349
0.443275 0.232242 0.197269
0.623957 0.297398 0.227390
0.750454 0.371435 0.277226
0.827787 0.441077 0.338384
0.875059 0.509300 0.413275
0.121431 0.174014 0.157015
0.159213 0.182528 0.163455
0.284367 0.217014 0.178317
0.460945 0.264836 0.197604
0.632929 0.324590 0.229801
0.753323 0.390753 0.280308
0.828458 0.454597 0.342809
0.875029 0.518730 0.417456
0.193668 0.297124 0.223972
0.214908 0.297002 0.225986
0.310369 0.326818 0.206882
0.505364 0.389105 0.192905
0.656062 0.422705 0.233463
0.758907 0.459174 0.288151
0.826596 0.500999 0.351934
0.871702 0.549462 0.425177
0.300420 0.434974 0.319738
0.313787 0.434119 0.320745
0.360754 0.442512 0.316381
0.490852 0.483192 0.281895
0.652644 0.532738 0.277073
0.761227 0.567193 0.301854
0.821347 0.578180 0.370642
0.866361 0.605219 0.443427
0.411902 0.549310 0.422217
0.419104 0.548699 0.422492
0.446387 0.545403 0.423774
0.502312 0.569390 0.408881
0.617487 0.602411 0.379492
0.731502 0.632654 0.384100
0.805020 0.657069 0.414679
0.857969 0.675044 0.467903
0.503899 0.635187 0.517723
0.507500 0.634546 0.517693
0.522118 0.631983 0.517540
0.549340 0.636988 0.513451
0.604517 0.660212 0.499733
0.694148 0.683406 0.477821
0.774807 0.700679 0.489082
0.835264 0.725399 0.527611
0.580529 0.703975 0.606378
0.582727 0.703761 0.606561
0.590967 0.702358 0.606348
0.606195 0.699306 0.605524
0.633295 0.712215 0.600061
0.679652 0.727993 0.591211
0.747280 0.744411 0.578271
0.813962 0.761898 0.593103
0.652308 0.760830 0.691676
0.653254 0.760555 0.691554
0.657954 0.759945 0.691615
0.666468 0.758297 0.691127
0.680354 0.761593 0.689693
0.705409 0.774319 0.685969
0.744503 0.788327 0.680201
0.799100 0.802640 0.671412
0.119417 0.151217 0.270054
0.171420 0.147951 0.268894
0.291508 0.142977 0.264469
0.414496 0.190341 0.263340
0.591302 0.280919 0.311681
0.710872 0.406317 0.398199
0.796658 0.474464 0.442908
0.850004 0.538506 0.496132
0.125978 0.210208 0.284031
0.177646 0.211093 0.282689
0.298619 0.196323 0.277256
0.427314 0.237949 0.280095
0.592432 0.333654 0.342351
0.714687 0.421759 0.402625
0.798337 0.484810 0.445716
0.850248 0.545983 0.499092
0.179049 0.321508 0.302068
0.213016 0.325109 0.305058
0.310948 0.340490 0.318700
0.466377 0.374670 0.337621
0.616297 0.421729 0.368597
0.726040 0.471443 0.406409
0.800351 0.520684 0.450690
0.849729 0.570886 0.503807
0.311345 0.454475 0.377234
0.330663 0.456825 0.381720
0.385534 0.457740 0.390448
0.486946 0.487221 0.371984
0.639643 0.536461 0.378851
0.737728 0.562036 0.412970
0.800839 0.584833 0.460395
0.847868 0.616724 0.514092
0.434546 0.566003 0.471504
0.440925 0.565179 0.471565
0.465644 0.561547 0.471443
0.509178 0.570916 0.464759
0.611536 0.603326 0.443427
0.721096 0.635767 0.453407
0.793881 0.663020 0.481910
0.844297 0.678645 0.529686
0.518456 0.644495 0.550164
0.521691 0.643824 0.550011
0.534997 0.641352 0.549523
0.558618 0.637842 0.547814
0.606165 0.661189 0.537377
0.689876 0.684321 0.519982
0.767971 0.703426 0.532860
0.828611 0.729244 0.566308
0.587915 0.708003 0.624842
0.589929 0.707759 0.624872
0.597742 0.706447 0.624567
0.612024 0.703609 0.623529
0.635950 0.711757 0.619806
0.678920 0.727749 0.612421
0.743832 0.744289 0.600977
0.809781 0.763119 0.616266
0.654963 0.763058 0.700191
0.656092 0.762966 0.700252
0.660639 0.762387 0.700252
0.668666 0.760494 0.699336
0.681514 0.760708 0.698116
0.705165 0.773587 0.694667
0.743191 0.787900 0.689387
0.797360 0.802518 0.681575
0.031830 0.186526 0.470558
0.169131 0.185122 0.465339
0.329992 0.173617 0.448127
0.468177 0.152407 0.418585
0.556664 0.221408 0.386389
0.688808 0.327642 0.421485
0.777188 0.450843 0.490547
0.812924 0.578180 0.591791
0.137423 0.259922 0.473701
0.198093 0.256291 0.469581
0.334874 0.237034 0.453864
0.470344 0.205997 0.424598
0.558465 0.257084 0.394354
0.689326 0.356939 0.433448
0.772702 0.475410 0.506584
0.813291 0.583032 0.593194
0.236973 0.400366 0.495247
0.273381 0.404242 0.496437
0.361425 0.389776 0.480629
0.478950 0.344305 0.451026
0.573022 0.374182 0.433631
0.688533 0.454780 0.482124
0.756558 0.549859 0.557458
0.814755 0.599603 0.595178
0.312779 0.491035 0.485328
0.332738 0.491981 0.485969
0.399207 0.496040 0.489357
0.488533 0.504692 0.497139
0.602808 0.530327 0.512505
0.695949 0.563043 0.536736
0.766690 0.597864 0.566430
0.818814 0.634028 0.601404
0.432441 0.579706 0.524193
0.443244 0.580743 0.526543
0.482368 0.584924 0.536248
0.530999 0.584863 0.544457
0.604028 0.607874 0.532921
0.705623 0.642481 0.546471
0.772061 0.663813 0.573968
0.822171 0.683192 0.608576
0.532708 0.658747 0.594903
0.536828 0.658595 0.595636
0.554314 0.658167 0.599603
0.575494 0.653193 0.597253
0.608911 0.661738 0.591669
0.682429 0.685634 0.580987
0.757168 0.708095 0.595727
0.818814 0.735683 0.622797
0.601465 0.716304 0.656886
0.603052 0.715877 0.656611
0.609583 0.714351 0.655604
0.621973 0.711360 0.653742
0.640497 0.710018 0.650690
0.677424 0.727047 0.645899
0.738369 0.744533 0.637964
0.803830 0.766201 0.653925
0.658350 0.767391 0.714565
0.659510 0.767269 0.714626
0.663874 0.766598 0.714412
0.671839 0.764797 0.713466
0.683742 0.762020 0.712001
0.704463 0.772152 0.709529
0.740871 0.787228 0.705135
0.794461 0.802457 0.698451
0.145602 0.262791 0.651637
0.214633 0.261723 0.647272
0.360388 0.254673 0.632715
0.505791 0.219547 0.601038
0.618860 0.187045 0.559319
0.665797 0.272923 0.501671
0.748318 0.360754 0.508904
0.818112 0.493874 0.570184
0.228672 0.331426 0.650019
0.265843 0.327581 0.646265
0.376379 0.312596 0.632654
0.507530 0.272251 0.603235
0.618097 0.233738 0.562158
0.664973 0.300359 0.506371
0.747951 0.382910 0.516594
0.815518 0.508415 0.577844
0.332189 0.463355 0.658808
0.349218 0.459602 0.655573
0.427375 0.454841 0.640986
0.515648 0.410407 0.614313
0.613642 0.358465 0.573266
0.662226 0.390631 0.527092
0.746242 0.463203 0.549432
0.805783 0.562036 0.608698
0.424781 0.571374 0.656794
0.439033 0.572930 0.656703
0.489540 0.578424 0.656062
0.537652 0.557061 0.634089
0.604334 0.499916 0.594049
0.658656 0.510185 0.567163
0.739986 0.574395 0.608270
0.786038 0.646815 0.667445
0.461616 0.621668 0.631342
0.470069 0.621637 0.631220
0.502129 0.621790 0.630762
0.550469 0.621942 0.629755
0.603204 0.622797 0.629267
0.678187 0.640711 0.640223
0.740841 0.663691 0.658350
0.795529 0.689204 0.680049
0.529412 0.670588 0.639887
0.534600 0.670893 0.640711
0.554864 0.672145 0.644129
0.587945 0.673823 0.649958
0.625116 0.674464 0.656580
0.676600 0.690852 0.649042
0.747402 0.716243 0.663416
0.806912 0.739010 0.683680
0.603601 0.724819 0.685512
0.606348 0.724971 0.686152
0.616907 0.725368 0.688624
0.637018 0.725368 0.693904
0.652277 0.720394 0.689876
0.677546 0.727230 0.685939
0.733028 0.746426 0.681361
0.799710 0.771695 0.696712
0.659358 0.776455 0.733669
0.661280 0.776547 0.734371
0.668055 0.775906 0.735714
0.675746 0.773465 0.733883
0.687556 0.770108 0.731685
0.703914 0.770047 0.728908
0.737758 0.786893 0.725856
0.791867 0.803525 0.720882
0.307713 0.365850 0.759304
0.332189 0.365148 0.757382
0.414679 0.360204 0.750301
0.523003 0.339147 0.734249
0.633509 0.284459 0.703182
0.718685 0.252415 0.662654
0.742855 0.330663 0.598688
0.798734 0.381811 0.582757
0.359594 0.419593 0.758877
0.377111 0.417914 0.757382
0.439277 0.408209 0.750759
0.531579 0.381567 0.735439
0.633875 0.323278 0.704738
0.717281 0.286076 0.664393
0.741817 0.351934 0.602319
0.797299 0.396338 0.586419
0.446204 0.530053 0.756222
0.462013 0.532830 0.754299
0.498817 0.524926 0.747799
0.553429 0.494148 0.734493
0.630426 0.434638 0.706355
0.707637 0.385290 0.667628
0.735134 0.420874 0.613214
0.792905 0.458900 0.604822
0.534844 0.637903 0.759518
0.540063 0.636835 0.758114
0.557275 0.629511 0.751278
0.587030 0.611566 0.735866
0.627619 0.561151 0.711238
0.691218 0.503899 0.674556
0.723873 0.513359 0.632685
0.784085 0.554650 0.640833
0.563226 0.682277 0.745602
0.568963 0.682948 0.745480
0.590539 0.685481 0.744991
0.623713 0.689052 0.744015
0.642969 0.668666 0.727169
0.678309 0.611872 0.690913
0.715816 0.604517 0.661433
0.775326 0.658473 0.695460
0.571954 0.707332 0.725246
0.575433 0.707057 0.724849
0.589807 0.706722 0.724178
0.613672 0.705959 0.722805
0.642969 0.704250 0.720119
0.673945 0.700099 0.714565
0.728420 0.713191 0.722621
0.785519 0.731014 0.735134
0.599359 0.732387 0.718837
0.601892 0.732387 0.718990
0.612909 0.732815 0.720272
0.632776 0.733791 0.722866
0.659297 0.735470 0.726986
0.685054 0.733516 0.728298
0.727993 0.749233 0.725154
0.797421 0.777493 0.739132
0.653620 0.782650 0.754147
0.655146 0.782773 0.754391
0.661280 0.783047 0.755062
0.672786 0.783261 0.756008
0.691951 0.783597 0.759030
0.708309 0.777890 0.755215
0.733608 0.785550 0.751705
0.788418 0.804807 0.748775
0.452827 0.482582 0.827726
0.465675 0.484627 0.827848
0.502800 0.479377 0.823453
0.564904 0.466194 0.815274
0.639216 0.430152 0.799771
0.723110 0.355871 0.773404
0.794247 0.321416 0.744045
0.803433 0.384222 0.679927
0.469276 0.506920 0.821347
0.480812 0.508690 0.821836
0.512230 0.501732 0.817838
0.565362 0.483375 0.809171
0.633967 0.443702 0.793271
0.714687 0.366888 0.766079
0.784512 0.327306 0.735225
0.794186 0.382727 0.670649
0.547753 0.604852 0.820127
0.551476 0.602747 0.819242
0.565148 0.591333 0.814633
0.594965 0.569024 0.806088
0.641108 0.526268 0.790372
0.708003 0.452888 0.765347
0.777279 0.407630 0.738491
0.791836 0.445167 0.682948
0.597986 0.679164 0.823209
0.600671 0.677913 0.821988
0.614069 0.674708 0.816190
0.637781 0.666163 0.807065
0.659022 0.630335 0.792569
0.702266 0.568597 0.769802
0.763119 0.513237 0.743496
0.781613 0.523888 0.695583
0.632929 0.730007 0.818296
0.634760 0.729244 0.817227
0.646571 0.730220 0.816129
0.659510 0.723415 0.810971
0.674342 0.703975 0.794705
0.693202 0.656519 0.770779
0.739956 0.595666 0.741146
0.767453 0.596338 0.706600
0.636347 0.749752 0.802701
0.638880 0.750149 0.802884
0.648920 0.751156 0.803220
0.667140 0.753140 0.804044
0.692134 0.755459 0.805081
0.706722 0.737118 0.790494
0.726650 0.684871 0.753750
0.756039 0.669001 0.725124
0.636866 0.766323 0.787320
0.639399 0.766934 0.787900
0.646265 0.766567 0.787411
0.659785 0.766262 0.786801
0.677882 0.764462 0.784482
0.700069 0.761166 0.780484
0.724575 0.754635 0.772854
0.782650 0.770321 0.783230
0.647425 0.790249 0.783597
0.648829 0.790249 0.783627
0.655451 0.790890 0.784329
0.667445 0.791135 0.784634
0.686061 0.791836 0.785519
0.710506 0.792752 0.786923
0.736110 0.789059 0.785550
0.783352 0.806027 0.783200
0.535943 0.559655 0.869017
0.542321 0.559869 0.868864
0.560510 0.552941 0.865568
0.598322 0.542504 0.861082
0.648768 0.518425 0.852934
0.709957 0.470497 0.839353
0.783627 0.382544 0.817807
0.843900 0.350134 0.794369
0.544762 0.574487 0.865415
0.550591 0.574701 0.865324
0.567895 0.568444 0.862760
0.601343 0.555718 0.858091
0.648341 0.530358 0.850004
0.707088 0.481544 0.836393
0.778714 0.391791 0.814206
0.838651 0.355016 0.790005
0.587854 0.635798 0.860868
0.590784 0.634577 0.860472
0.600732 0.626703 0.857877
0.626581 0.616419 0.855009
0.659388 0.588220 0.846738
0.705592 0.537926 0.832914
0.770169 0.451972 0.811429
0.829679 0.405524 0.787533
0.613794 0.686915 0.859983
0.619532 0.688838 0.859556
0.638636 0.693080 0.856077
0.656336 0.685237 0.851835
0.676936 0.662318 0.844388
0.708034 0.619196 0.831662
0.759091 0.542168 0.810910
0.816373 0.485481 0.787106
0.644373 0.739834 0.861173
0.646723 0.739742 0.861143
0.651820 0.735531 0.859037
0.666499 0.730007 0.854734
0.690852 0.721492 0.845060
0.709987 0.688563 0.831449
0.745052 0.626215 0.810239
0.798459 0.564385 0.785702
0.660670 0.772366 0.854643
0.661860 0.771969 0.854246
0.669093 0.771725 0.853605
0.685939 0.773800 0.854246
0.704372 0.770871 0.853239
0.722621 0.754208 0.841764
0.743923 0.712154 0.822080
0.783719 0.655207 0.793301
0.669001 0.796567 0.846769
0.670405 0.796506 0.846708
0.676753 0.796536 0.846464
0.691005 0.797940 0.847318
0.712490 0.800534 0.849058
0.741756 0.805386 0.852659
0.757992 0.789639 0.842557
0.774319 0.728756 0.804196
0.676173 0.818479 0.839506
0.677150 0.818326 0.839322
0.682399 0.818296 0.839231
0.693782 0.818906 0.839719
0.709804 0.819211 0.839719
0.729824 0.818601 0.838773
0.752743 0.816098 0.835782
0.773922 0.804929 0.824033
