20 Preset/Natural Girl/【3】LUT video cho PR-AE-FCPX/Lut Tone  (1).cube
# Created by Adobe Lightroom plugin Export LUT (1.24.0)
# www.johnrellis.com/lightroom/exportlut.htm
# Preset: 自然胶片-素材江湖（原版）10
# Color profile: C:\Program Files (x86)\Common Files\Adobe\Color\Profiles\Recommended\VideoHD.icc
LUT_3D_SIZE 32
DOMAIN_MIN 0.0 0.0 0.0
DOMAIN_MAX 1.0 1.0 1.0
0.062928 0.053803 0.053529
0.071138 0.055085 0.054322
0.089509 0.058717 0.056672
0.108949 0.068696 0.062074
0.132113 0.079591 0.069978
0.155306 0.087922 0.080385
0.180789 0.094331 0.088197
0.208957 0.098787 0.092683
0.240299 0.102327 0.095308
0.273625 0.104860 0.097810
0.309117 0.106874 0.100008
0.345953 0.108583 0.101472
0.382940 0.110536 0.103334
0.419776 0.114137 0.104707
0.455848 0.118563 0.106355
0.490517 0.124880 0.108644
0.524010 0.132906 0.112032
0.555596 0.143496 0.116701
0.585473 0.154788 0.121523
0.613519 0.167758 0.127077
0.640528 0.181888 0.133455
0.665705 0.196536 0.140658
0.688350 0.211429 0.148135
0.709621 0.226413 0.156588
0.729885 0.241733 0.165225
0.749111 0.257450 0.174258
0.767697 0.273350 0.183932
0.785092 0.289281 0.194491
0.801572 0.305364 0.205264
0.817044 0.321752 0.217288
0.831876 0.338323 0.230014
0.846616 0.355657 0.244053
0.066682 0.061097 0.056977
0.071931 0.061616 0.056794
0.090272 0.066224 0.059022
0.109834 0.075013 0.063416
0.132967 0.082826 0.071473
0.155795 0.090303 0.081941
0.181155 0.095766 0.088808
0.209018 0.100221 0.093294
0.240330 0.103700 0.095888
0.273442 0.105959 0.098024
0.308690 0.108095 0.099855
0.345312 0.110201 0.101656
0.382422 0.112764 0.103059
0.419135 0.115450 0.104921
0.455055 0.119997 0.106600
0.489906 0.126375 0.108827
0.523186 0.134493 0.112551
0.554833 0.144472 0.116335
0.584802 0.155856 0.121157
0.612726 0.168154 0.127138
0.639704 0.182132 0.133303
0.664393 0.196506 0.140688
0.686946 0.211215 0.148196
0.708156 0.226200 0.156069
0.728420 0.241337 0.164431
0.747646 0.256748 0.173617
0.766293 0.272343 0.182803
0.783841 0.288365 0.193271
0.800381 0.304295 0.204318
0.815976 0.320867 0.216251
0.830838 0.337469 0.229313
0.845762 0.354620 0.242802
0.081697 0.084291 0.068788
0.084169 0.085389 0.070741
0.095583 0.088716 0.067140
0.114199 0.091096 0.072999
0.135317 0.094331 0.080873
0.158236 0.098787 0.087556
0.183566 0.103182 0.091768
0.211643 0.106661 0.094942
0.242557 0.109560 0.097536
0.275364 0.112245 0.099550
0.310613 0.114107 0.100557
0.346960 0.116091 0.102358
0.383459 0.118685 0.104128
0.419989 0.122347 0.105409
0.455848 0.126253 0.107118
0.490425 0.132387 0.109651
0.523583 0.140291 0.113008
0.555077 0.149844 0.117098
0.584863 0.160800 0.121859
0.612757 0.172946 0.127749
0.639582 0.186374 0.133883
0.664210 0.200259 0.140810
0.686488 0.214511 0.148806
0.707637 0.228916 0.156527
0.727687 0.243931 0.164858
0.747005 0.258701 0.174105
0.765621 0.274357 0.183536
0.783169 0.289982 0.194003
0.799710 0.306035 0.204807
0.815427 0.322210 0.216770
0.830320 0.338537 0.229343
0.845182 0.355535 0.243076
0.096895 0.105379 0.089479
0.098604 0.105531 0.089815
0.105715 0.107118 0.089815
0.119753 0.109743 0.088563
0.139590 0.111940 0.091341
0.163699 0.113954 0.093782
0.189151 0.116793 0.096010
0.217197 0.118959 0.097963
0.248142 0.121187 0.099702
0.280369 0.123415 0.101259
0.315099 0.125734 0.102480
0.350652 0.127810 0.103853
0.387030 0.130159 0.105165
0.422797 0.133822 0.106386
0.457954 0.138247 0.108309
0.492195 0.143954 0.111086
0.524895 0.151247 0.114351
0.555810 0.160586 0.118624
0.585443 0.170474 0.123598
0.612909 0.181979 0.129427
0.639277 0.194125 0.135409
0.663478 0.207401 0.142275
0.685664 0.220737 0.149813
0.706722 0.234684 0.157870
0.726955 0.248753 0.166018
0.746365 0.263676 0.175235
0.765103 0.278874 0.185336
0.782834 0.294194 0.195224
0.799435 0.309758 0.206241
0.815091 0.325780 0.218204
0.829953 0.341772 0.230716
0.844663 0.358404 0.244266
0.111910 0.125948 0.102693
0.113558 0.126284 0.103304
0.118868 0.126802 0.104158
0.128756 0.130922 0.101686
0.147127 0.134676 0.100404
0.170748 0.135897 0.100740
0.196933 0.136629 0.100862
0.225925 0.137209 0.100954
0.255863 0.138674 0.102296
0.287938 0.140475 0.103426
0.321508 0.142641 0.104555
0.356573 0.144686 0.105409
0.391913 0.147433 0.106569
0.427192 0.150912 0.108370
0.461799 0.155093 0.110475
0.495247 0.160952 0.113039
0.527550 0.167330 0.116854
0.558190 0.175845 0.121187
0.587304 0.185183 0.126253
0.614710 0.195743 0.132082
0.640375 0.207095 0.138399
0.664210 0.218875 0.144778
0.685939 0.231052 0.152468
0.706905 0.244236 0.160555
0.726986 0.257847 0.168460
0.746395 0.271916 0.177859
0.765042 0.286290 0.187076
0.782589 0.301183 0.197574
0.799130 0.316136 0.208469
0.814725 0.331487 0.220188
0.829465 0.346960 0.232609
0.844144 0.363134 0.246067
0.124147 0.149966 0.113710
0.125429 0.150057 0.113649
0.130709 0.150210 0.114412
0.138888 0.152682 0.114015
0.154696 0.159579 0.109865
0.178592 0.163516 0.108095
0.206455 0.164553 0.106600
0.235447 0.163821 0.105898
0.266850 0.163272 0.104341
0.299077 0.163516 0.104829
0.331640 0.165133 0.105592
0.365759 0.167208 0.106966
0.399908 0.169833 0.108400
0.434241 0.172885 0.110719
0.467781 0.177340 0.112886
0.500633 0.182254 0.115663
0.532158 0.188540 0.119753
0.562249 0.195926 0.123964
0.590570 0.204227 0.129671
0.617578 0.213626 0.135286
0.642756 0.224002 0.142092
0.665949 0.234745 0.148928
0.695186 0.251530 0.159762
0.715694 0.263706 0.167788
0.735256 0.276616 0.176150
0.753994 0.289738 0.185763
0.771817 0.303197 0.195224
0.788449 0.317052 0.205753
0.804135 0.331151 0.216983
0.819028 0.345586 0.228641
0.833219 0.360266 0.241154
0.847745 0.375708 0.254368
0.136812 0.178958 0.125124
0.138003 0.178836 0.125368
0.142580 0.179110 0.125734
0.151919 0.179416 0.126772
0.164004 0.185611 0.123659
0.186984 0.194553 0.117800
0.215122 0.198428 0.115511
0.247501 0.199557 0.112245
0.278935 0.198123 0.110018
0.312139 0.196353 0.107607
0.346990 0.194675 0.104829
0.380102 0.195895 0.107607
0.413153 0.197848 0.109316
0.446357 0.200504 0.111818
0.478676 0.204135 0.114870
0.509941 0.208560 0.118746
0.540429 0.214054 0.123507
0.569390 0.220615 0.128573
0.597284 0.228367 0.134066
0.623987 0.236942 0.140902
0.648890 0.246372 0.147646
0.671992 0.256199 0.155001
0.693782 0.266941 0.162692
0.714534 0.278447 0.171481
0.734401 0.290349 0.179934
0.753262 0.302770 0.189395
0.770901 0.315404 0.199344
0.787442 0.328283 0.209659
0.803037 0.341405 0.220615
0.817777 0.354894 0.232242
0.831937 0.368780 0.244450
0.846433 0.383398 0.257267
0.150332 0.209720 0.137697
0.151125 0.209903 0.137881
0.156222 0.209659 0.138277
0.165011 0.209995 0.139406
0.176791 0.212741 0.138888
0.194247 0.221286 0.133242
0.221103 0.230594 0.126955
0.252750 0.234958 0.123201
0.287663 0.236423 0.118349
0.320623 0.234012 0.114961
0.355047 0.231876 0.111727
0.390326 0.229465 0.108217
0.424598 0.228397 0.107332
0.455970 0.230320 0.111086
0.487129 0.232944 0.115267
0.517296 0.236423 0.120699
0.546471 0.241276 0.126162
0.574945 0.246860 0.131868
0.601892 0.253239 0.138033
0.627283 0.260624 0.145266
0.651148 0.268437 0.152193
0.673426 0.277043 0.159823
0.694575 0.286412 0.167727
0.714961 0.296635 0.176486
0.734463 0.307439 0.185458
0.753048 0.318700 0.194491
0.770443 0.330144 0.204501
0.786831 0.341894 0.214725
0.802243 0.354070 0.225315
0.816892 0.366613 0.236606
0.830900 0.379675 0.249027
0.845426 0.393378 0.261662
0.166354 0.242863 0.152621
0.167269 0.243107 0.152529
0.171756 0.243107 0.153048
0.180240 0.243229 0.153811
0.192599 0.243198 0.155123
0.206699 0.249943 0.151308
0.228061 0.259464 0.145510
0.258244 0.268559 0.138369
0.292088 0.273411 0.132937
0.329015 0.274693 0.125612
0.362860 0.272038 0.121157
0.397375 0.269535 0.116793
0.432013 0.266697 0.113069
0.466316 0.264073 0.109224
0.497261 0.264500 0.112612
0.526238 0.267155 0.120394
0.554467 0.271061 0.127352
0.581628 0.275517 0.135164
0.607294 0.280522 0.141909
0.631495 0.286564 0.149752
0.654414 0.293187 0.157198
0.675715 0.300542 0.165255
0.696315 0.308446 0.173373
0.716121 0.317327 0.182071
0.735164 0.326787 0.191318
0.753384 0.336858 0.200809
0.770504 0.347082 0.210178
0.786526 0.357855 0.220493
0.801724 0.368963 0.231052
0.816129 0.380529 0.242710
0.830045 0.392737 0.254978
0.844633 0.405524 0.267308
0.185000 0.277928 0.169375
0.186343 0.277684 0.169253
0.189731 0.277897 0.169802
0.197574 0.277775 0.170535
0.209018 0.277714 0.171664
0.222477 0.280125 0.171695
0.239841 0.288670 0.166110
0.265080 0.298985 0.158968
0.296696 0.307103 0.151369
0.331853 0.312016 0.144533
0.369543 0.313573 0.134981
0.403296 0.310674 0.129610
0.437324 0.307530 0.124910
0.470893 0.304570 0.120882
0.504204 0.302037 0.117800
0.536370 0.300114 0.116976
0.563256 0.302739 0.126741
0.589014 0.306096 0.136629
0.613458 0.309911 0.145174
0.636561 0.314427 0.153964
0.658198 0.319707 0.162631
0.678645 0.325475 0.170657
0.698177 0.332097 0.179721
0.717250 0.339574 0.188418
0.735622 0.347631 0.197513
0.753353 0.356298 0.206699
0.769986 0.365545 0.216587
0.785855 0.374945 0.226810
0.800809 0.385016 0.237675
0.815061 0.395697 0.249180
0.829068 0.406806 0.261326
0.843717 0.418982 0.273899
0.205631 0.312474 0.187778
0.206332 0.312444 0.187778
0.209537 0.312596 0.188113
0.216739 0.312566 0.188876
0.226871 0.312505 0.189853
0.240940 0.312535 0.191867
0.255650 0.318853 0.188357
0.275669 0.327916 0.181888
0.303441 0.338476 0.174075
0.335912 0.345678 0.167178
0.371801 0.350561 0.159091
0.408942 0.352453 0.147250
0.442878 0.349371 0.141268
0.475807 0.346197 0.136843
0.508110 0.343206 0.133791
0.539361 0.340612 0.131960
0.569238 0.338231 0.131075
0.596643 0.337560 0.135103
0.619745 0.340276 0.146792
0.641535 0.343297 0.156985
0.662165 0.347143 0.166934
0.681727 0.351690 0.175875
0.700679 0.357122 0.185275
0.719051 0.363165 0.194827
0.737026 0.370123 0.203922
0.754177 0.377661 0.213840
0.770352 0.385718 0.224063
0.785763 0.394171 0.234531
0.800504 0.403113 0.244968
0.814481 0.412634 0.256779
0.828367 0.422950 0.268986
0.843015 0.434089 0.281437
0.227817 0.347417 0.208072
0.228702 0.347417 0.208316
0.231662 0.347417 0.208530
0.238041 0.347112 0.209232
0.247471 0.347112 0.210056
0.259831 0.347021 0.211734
0.274144 0.349096 0.211673
0.290654 0.357366 0.206760
0.313298 0.366949 0.199771
0.343023 0.377539 0.191714
0.375372 0.383825 0.184817
0.410895 0.388891 0.175937
0.453285 0.395697 0.166659
0.486641 0.393164 0.160342
0.518029 0.389746 0.156802
0.548516 0.386358 0.154513
0.577447 0.383215 0.152987
0.605249 0.380407 0.151980
0.631281 0.377996 0.152407
0.653162 0.378424 0.161318
0.672480 0.380774 0.173190
0.690700 0.383825 0.184390
0.708553 0.387701 0.194522
0.726070 0.392554 0.204685
0.742885 0.398108 0.215213
0.758877 0.404150 0.225254
0.774105 0.410559 0.235142
0.788540 0.417548 0.245609
0.802426 0.425238 0.256626
0.815885 0.433295 0.267979
0.829679 0.442359 0.279667
0.844205 0.452583 0.291844
0.253361 0.383825 0.231479
0.254093 0.383734 0.231601
0.257084 0.383551 0.231571
0.262394 0.383459 0.232273
0.270970 0.383154 0.233066
0.281590 0.382879 0.234348
0.295689 0.382391 0.235782
0.310155 0.388190 0.233249
0.328649 0.396796 0.227573
0.353155 0.406378 0.221256
0.384100 0.417212 0.213016
0.416266 0.422827 0.206699
0.451484 0.428290 0.198093
0.486458 0.429694 0.187472
0.519005 0.427863 0.180850
0.548516 0.424292 0.177707
0.576928 0.420661 0.175235
0.603815 0.416968 0.173556
0.629114 0.413855 0.172763
0.653040 0.410956 0.173373
0.675654 0.408576 0.174136
0.693233 0.410529 0.187045
0.710445 0.413275 0.198917
0.727382 0.417060 0.209995
0.743709 0.421241 0.220890
0.759213 0.426246 0.231754
0.774014 0.431769 0.242527
0.788144 0.437720 0.253544
0.801755 0.444251 0.264530
0.815091 0.451667 0.276127
0.828977 0.459876 0.288029
0.843565 0.469306 0.300511
0.278569 0.416144 0.253849
0.278996 0.416114 0.253941
0.281559 0.415961 0.254154
0.285771 0.415625 0.254429
0.293095 0.415106 0.255192
0.302617 0.414588 0.255894
0.315038 0.414038 0.257420
0.328466 0.415259 0.257725
0.343938 0.422858 0.253117
0.364019 0.431464 0.247349
0.389624 0.441047 0.241062
0.420203 0.450904 0.233707
0.451148 0.455909 0.227726
0.485084 0.460883 0.220096
0.517906 0.461799 0.210208
0.548882 0.460090 0.202762
0.576013 0.456153 0.199863
0.601953 0.452338 0.197208
0.626703 0.448585 0.195895
0.650080 0.445075 0.195163
0.672206 0.441993 0.194980
0.693629 0.439704 0.196292
0.713130 0.439460 0.201755
0.729427 0.442084 0.214939
0.745083 0.445228 0.227085
0.760067 0.449134 0.238621
0.774380 0.453529 0.249973
0.788083 0.458534 0.261662
0.801358 0.464088 0.272892
0.814694 0.470558 0.284764
0.828519 0.478157 0.297307
0.843198 0.486824 0.309758
0.303014 0.446021 0.276219
0.303471 0.446082 0.276188
0.305119 0.445838 0.276219
0.309422 0.445319 0.276249
0.315465 0.444800 0.276799
0.323796 0.444190 0.277806
0.334539 0.443580 0.278843
0.347204 0.442756 0.279881
0.360510 0.447578 0.277379
0.377234 0.455238 0.273198
0.398383 0.463752 0.267979
0.424567 0.473091 0.261265
0.453925 0.481544 0.255283
0.483619 0.486152 0.249638
0.515801 0.490700 0.242557
0.546044 0.491066 0.233616
0.575433 0.489509 0.225406
0.600366 0.485573 0.222507
0.624262 0.481453 0.219944
0.647028 0.477607 0.218540
0.668879 0.474037 0.217990
0.690059 0.471382 0.218509
0.710658 0.469459 0.219821
0.730465 0.468147 0.222080
0.746731 0.469306 0.231815
0.761074 0.472175 0.245151
0.774960 0.475532 0.257389
0.788235 0.479652 0.269841
0.801328 0.484443 0.281895
0.814755 0.490242 0.294255
0.828763 0.497322 0.307012
0.843442 0.505394 0.320287
0.326635 0.473243 0.297642
0.326848 0.473213 0.297795
0.328771 0.473152 0.298009
0.332097 0.472847 0.298344
0.337713 0.472419 0.298497
0.344945 0.471931 0.299321
0.354528 0.471412 0.300237
0.365850 0.470802 0.301610
0.378790 0.471717 0.301915
0.392584 0.478340 0.298558
0.410193 0.485786 0.294163
0.431800 0.493904 0.288792
0.457343 0.502464 0.282597
0.485359 0.509209 0.276493
0.513115 0.513146 0.271519
0.543084 0.517082 0.264408
0.571099 0.517113 0.256229
0.598657 0.515831 0.248722
0.621790 0.511894 0.245701
0.643854 0.507927 0.243351
0.665400 0.504295 0.242313
0.686427 0.501366 0.241794
0.706844 0.499214 0.242466
0.726406 0.497261 0.244236
0.744961 0.496071 0.246860
0.762631 0.495247 0.250675
0.775906 0.497749 0.264714
0.788846 0.500877 0.277653
0.801724 0.504967 0.290990
0.815122 0.510155 0.303929
0.829099 0.516472 0.316869
0.843748 0.523796 0.330114
0.349218 0.498299 0.318853
0.349859 0.498177 0.318944
0.351171 0.498085 0.319005
0.353979 0.497841 0.319097
0.358984 0.497475 0.319799
0.365484 0.497047 0.320256
0.373816 0.496529 0.321141
0.383825 0.495857 0.322118
0.395575 0.495155 0.323583
0.407782 0.499031 0.321843
0.422553 0.505638 0.317876
0.440833 0.512932 0.313603
0.462318 0.520623 0.308507
0.487190 0.528466 0.302708
0.513390 0.533806 0.297673
0.539727 0.537469 0.293126
0.567803 0.541039 0.286534
0.593713 0.540948 0.279515
0.619928 0.539940 0.271702
0.641321 0.536095 0.268956
0.662440 0.532708 0.267247
0.683162 0.529625 0.266300
0.703120 0.527153 0.266453
0.722286 0.524956 0.267887
0.740505 0.523278 0.270085
0.758053 0.521996 0.273198
0.774716 0.521233 0.277470
0.789609 0.522057 0.285588
0.802518 0.525536 0.299748
0.815885 0.530175 0.313176
0.829953 0.535882 0.326574
0.844602 0.542687 0.340276
0.371923 0.521599 0.340124
0.372229 0.521508 0.340002
0.377142 0.525078 0.343633
0.379706 0.524804 0.343847
0.383886 0.524346 0.344060
0.389502 0.523949 0.344671
0.396643 0.523400 0.345220
0.405463 0.522698 0.346105
0.415656 0.521843 0.347204
0.427131 0.522118 0.347509
0.439399 0.527886 0.344610
0.454658 0.534173 0.341009
0.472847 0.540795 0.336736
0.493812 0.547723 0.331731
0.517876 0.554772 0.326177
0.541741 0.558892 0.321782
0.566339 0.561944 0.317235
0.592401 0.565118 0.311101
0.616083 0.564691 0.304723
0.640986 0.564080 0.297337
0.661402 0.560571 0.294713
0.681361 0.557458 0.293126
0.700679 0.554559 0.292851
0.719203 0.552056 0.293400
0.736934 0.549737 0.294957
0.753933 0.547967 0.297337
0.770321 0.546593 0.300542
0.786404 0.546105 0.304936
0.802701 0.546838 0.310338
0.817136 0.550195 0.321904
0.831022 0.555383 0.336339
0.845640 0.561700 0.350744
0.394659 0.543969 0.361791
0.395239 0.544274 0.362066
0.396704 0.544488 0.362585
0.399420 0.544610 0.363043
0.403143 0.544457 0.363592
0.408087 0.544091 0.363928
0.414527 0.543603 0.364446
0.422095 0.542840 0.365240
0.431098 0.542077 0.365911
0.441505 0.541131 0.366949
0.452491 0.544335 0.365667
0.465370 0.549889 0.362982
0.480720 0.555932 0.359136
0.498573 0.562219 0.355077
0.519066 0.568688 0.350561
0.542138 0.575311 0.345312
0.564416 0.578698 0.342077
0.587732 0.581720 0.337987
0.612665 0.584863 0.332708
0.634882 0.584558 0.327153
0.658808 0.584527 0.320317
0.678187 0.581537 0.318456
0.696956 0.578729 0.317754
0.715023 0.576074 0.317815
0.732448 0.573663 0.318944
0.749264 0.571588 0.320745
0.765377 0.570062 0.323613
0.781582 0.569421 0.327550
0.798093 0.569940 0.332219
0.815061 0.571557 0.337957
0.832212 0.574517 0.345312
0.846860 0.580346 0.360327
0.415320 0.563531 0.381750
0.415930 0.563836 0.382177
0.417151 0.564050 0.382391
0.419440 0.564141 0.382879
0.422889 0.564050 0.383429
0.427375 0.563714 0.383856
0.432807 0.563226 0.384344
0.439490 0.562676 0.384955
0.447517 0.561883 0.385657
0.456611 0.560967 0.386267
0.466529 0.560906 0.386969
0.477546 0.565881 0.384375
0.490669 0.571283 0.381598
0.505974 0.577050 0.378241
0.523674 0.582971 0.374548
0.543450 0.589166 0.370214
0.565454 0.595178 0.365423
0.586419 0.598047 0.362768
0.608606 0.601038 0.359350
0.631952 0.604059 0.354925
0.652857 0.603845 0.350103
0.675319 0.603632 0.343664
0.693568 0.601007 0.342657
0.711177 0.598383 0.342809
0.728115 0.596063 0.343359
0.744594 0.593927 0.344884
0.760769 0.592340 0.347204
0.777066 0.591699 0.350652
0.793729 0.592096 0.354864
0.810758 0.593591 0.360296
0.828305 0.596307 0.366674
0.846342 0.600183 0.374395
0.435706 0.582452 0.401892
0.436133 0.582696 0.402045
0.437415 0.582879 0.402502
0.439338 0.582971 0.402899
0.442206 0.582910 0.403326
0.446174 0.582635 0.403784
0.451026 0.582147 0.404150
0.456916 0.581567 0.404608
0.463935 0.580896 0.405158
0.471992 0.580041 0.405890
0.481056 0.579187 0.406806
0.490791 0.581689 0.405829
0.501976 0.586572 0.403449
0.515099 0.591760 0.400488
0.530449 0.597253 0.397498
0.547570 0.602930 0.394110
0.566918 0.608881 0.390143
0.587579 0.614160 0.386267
0.607721 0.616968 0.384192
0.628656 0.619928 0.381872
0.650904 0.622919 0.378393
0.670466 0.622736 0.374731
0.691066 0.622370 0.369726
0.708644 0.620325 0.368994
0.725216 0.618067 0.369879
0.741390 0.616144 0.371313
0.757656 0.614862 0.373388
0.774166 0.614405 0.376226
0.790982 0.615015 0.380499
0.808286 0.616571 0.385382
0.825956 0.619287 0.391760
0.844266 0.623224 0.399268
0.457588 0.602350 0.424140
0.457923 0.602441 0.424262
0.458717 0.602411 0.424262
0.460273 0.602289 0.424506
0.462654 0.602106 0.424781
0.465827 0.601740 0.424842
0.470100 0.601251 0.425147
0.475227 0.600671 0.425544
0.481392 0.600031 0.425879
0.488533 0.599268 0.426459
0.496590 0.598444 0.427314
0.505303 0.598077 0.427710
0.515038 0.602472 0.425727
0.526421 0.607263 0.423499
0.539483 0.612238 0.420966
0.554437 0.617395 0.417914
0.571038 0.622675 0.414771
0.589593 0.628016 0.411078
0.608606 0.632288 0.408240
0.627558 0.634791 0.406806
0.647303 0.637446 0.404517
0.667903 0.640070 0.401526
0.685939 0.639704 0.398749
0.704799 0.639033 0.394171
0.721523 0.637263 0.393835
0.737514 0.635584 0.395056
0.753811 0.634638 0.396796
0.770321 0.634455 0.399725
0.787350 0.635218 0.403265
0.804654 0.636896 0.408118
0.822568 0.639643 0.414313
0.841062 0.643641 0.421790
0.476875 0.619867 0.444038
0.477028 0.619989 0.444343
0.477882 0.619898 0.444312
0.479164 0.619867 0.444526
0.481270 0.619684 0.444800
0.484077 0.619348 0.444953
0.487831 0.618891 0.445136
0.492378 0.618372 0.445380
0.497871 0.617762 0.445777
0.504204 0.617060 0.446235
0.511345 0.616358 0.446845
0.519188 0.615473 0.447517
0.527855 0.617487 0.446876
0.537743 0.621729 0.445045
0.549096 0.626215 0.443030
0.561975 0.630854 0.440589
0.576532 0.635645 0.437964
0.592554 0.640497 0.435218
0.610101 0.645411 0.432105
0.627893 0.648951 0.430213
0.645747 0.651331 0.429023
0.664302 0.653773 0.427558
0.683680 0.656214 0.425147
0.700435 0.655818 0.423163
0.717372 0.654444 0.418189
0.734005 0.653468 0.417792
0.750210 0.652918 0.419562
0.766751 0.653101 0.422309
0.783810 0.654078 0.425757
0.801297 0.656001 0.430488
0.819394 0.659052 0.436561
0.838254 0.663264 0.443946
0.496681 0.637293 0.465705
0.496986 0.637385 0.465766
0.497597 0.637354 0.465919
0.498756 0.637201 0.465919
0.500450 0.636927 0.465888
0.502800 0.636530 0.465919
0.505913 0.636011 0.466011
0.509697 0.635492 0.466102
0.514427 0.634791 0.466255
0.519921 0.634058 0.466499
0.526146 0.633234 0.466835
0.533104 0.632380 0.467201
0.540795 0.631678 0.467659
0.549126 0.635370 0.465888
0.558923 0.639246 0.464179
0.569879 0.643305 0.462074
0.582483 0.647578 0.459815
0.596521 0.651942 0.457435
0.611872 0.656458 0.454841
0.628656 0.661006 0.452125
0.645289 0.663905 0.451026
0.662135 0.666163 0.450477
0.679591 0.668482 0.449531
0.697841 0.670802 0.447456
0.713863 0.670680 0.445747
0.730800 0.670375 0.442603
0.747494 0.670436 0.442542
0.764004 0.670924 0.444862
0.781033 0.672206 0.448188
0.798611 0.674434 0.452827
0.816770 0.677729 0.458625
0.834928 0.681392 0.464698
0.514549 0.652369 0.485389
0.514733 0.652461 0.485512
0.515343 0.652491 0.485756
0.516320 0.652399 0.485756
0.517906 0.652216 0.485817
0.520012 0.651942 0.485847
0.522759 0.651606 0.486000
0.526390 0.651118 0.486152
0.530694 0.650599 0.486366
0.535637 0.650080 0.486671
0.541253 0.649409 0.487190
0.547448 0.648676 0.487617
0.554376 0.647791 0.488136
0.561822 0.649226 0.487587
0.570275 0.652674 0.486152
0.579889 0.656336 0.484474
0.590753 0.660151 0.482612
0.602869 0.664118 0.480568
0.616327 0.668177 0.478614
0.631098 0.672358 0.476387
0.647150 0.676722 0.474098
0.662776 0.679286 0.473671
0.678859 0.681697 0.473548
0.695735 0.684230 0.472786
0.713313 0.686824 0.471565
0.729091 0.687343 0.470161
0.745510 0.687617 0.468147
0.762539 0.688716 0.468421
0.779629 0.690455 0.471839
0.797086 0.692927 0.476143
0.814694 0.695857 0.480812
0.832853 0.699733 0.486488
0.532799 0.667414 0.506249
0.533013 0.667414 0.506279
0.533440 0.667445 0.506462
0.534386 0.667323 0.506493
0.535576 0.667140 0.506432
0.537469 0.666926 0.506584
0.540002 0.666560 0.506676
0.543053 0.666163 0.506737
0.546777 0.665675 0.506981
0.551171 0.665187 0.507134
0.556237 0.664576 0.507530
0.561761 0.663905 0.507866
0.567926 0.663142 0.508263
0.574548 0.662440 0.508751
0.581903 0.665583 0.507469
0.590326 0.668849 0.506126
0.599756 0.672328 0.504753
0.610468 0.675959 0.503105
0.622309 0.679866 0.501488
0.635523 0.683986 0.499733
0.649958 0.688380 0.497810
0.665705 0.692897 0.495644
0.680659 0.695399 0.495979
0.696284 0.698024 0.496162
0.712642 0.700801 0.495857
0.729671 0.703639 0.495094
0.745266 0.704677 0.494484
0.761288 0.705409 0.493172
0.778103 0.706874 0.493172
0.795071 0.709255 0.496651
0.812619 0.712490 0.501244
0.830838 0.716732 0.506950
0.550652 0.681666 0.527001
0.550774 0.681727 0.527184
0.551171 0.681697 0.527184
0.551965 0.681636 0.527184
0.553246 0.681514 0.527428
0.554955 0.681361 0.527489
0.557366 0.681209 0.527794
0.560327 0.681056 0.528222
0.563836 0.680842 0.528679
0.567926 0.680568 0.529198
0.572656 0.680232 0.529900
0.577935 0.679835 0.530510
0.583673 0.679347 0.531243
0.589776 0.678798 0.531914
0.596338 0.680049 0.531853
0.603784 0.683284 0.530877
0.612207 0.686702 0.529686
0.621729 0.690394 0.528557
0.632410 0.694362 0.527306
0.644312 0.698573 0.525780
0.657527 0.703059 0.524224
0.671839 0.707759 0.522606
0.686976 0.712093 0.521477
0.701656 0.714900 0.522087
0.716670 0.717494 0.522271
0.732357 0.720150 0.521935
0.748653 0.722866 0.521233
0.763607 0.723964 0.520531
0.778866 0.724697 0.519249
0.795560 0.726741 0.519585
0.813077 0.730312 0.523949
0.831296 0.735042 0.529808
0.570672 0.698299 0.550683
0.570733 0.698299 0.550683
0.571038 0.698268 0.550744
0.571649 0.698177 0.550805
0.572778 0.698024 0.550774
0.574121 0.697841 0.550805
0.576135 0.697627 0.550927
0.578698 0.697353 0.551141
0.581628 0.697047 0.551293
0.585199 0.696681 0.551598
0.589227 0.696315 0.551995
0.593713 0.695888 0.552422
0.598779 0.695399 0.552911
0.604211 0.694820 0.553429
