20 Preset/Natural Girl/【3】LUT video cho PR-AE-FCPX/Lut Tone  (7).cube
# Created by Adobe Lightroom plugin Export LUT (1.24.0)
# www.johnrellis.com/lightroom/exportlut.htm
# Preset: 自然胶片-素材江湖（原版）16
# Color profile: C:\Program Files (x86)\Common Files\Adobe\Color\Profiles\Recommended\VideoHD.icc
LUT_3D_SIZE 32
DOMAIN_MIN 0.0 0.0 0.0
DOMAIN_MAX 1.0 1.0 1.0
0.104036 0.094453 0.052125
0.104036 0.094453 0.052125
0.104036 0.094453 0.052125
0.128023 0.097810 0.056916
0.160647 0.104616 0.066590
0.185550 0.118715 0.079469
0.211856 0.130922 0.087495
0.242527 0.141115 0.091127
0.277867 0.149874 0.092134
0.317876 0.158846 0.092653
0.362066 0.167758 0.093690
0.409155 0.177279 0.094484
0.457160 0.186587 0.095796
0.504845 0.197635 0.096620
0.550408 0.209232 0.100679
0.593347 0.222873 0.105684
0.633082 0.238621 0.114321
0.669398 0.256168 0.126986
0.702388 0.274846 0.140993
0.731807 0.295293 0.158175
0.761563 0.318822 0.179477
0.789792 0.345129 0.205112
0.812375 0.369848 0.230289
0.830961 0.393042 0.255009
0.845914 0.414984 0.279728
0.858122 0.436194 0.304692
0.868132 0.457160 0.330297
0.876951 0.477913 0.356085
0.885405 0.498970 0.382635
0.893462 0.520653 0.410559
0.901244 0.542809 0.439216
0.908659 0.565484 0.469184
0.104036 0.094453 0.052125
0.104036 0.094453 0.052125
0.104646 0.094362 0.052125
0.129976 0.098238 0.056580
0.161807 0.106752 0.065492
0.185519 0.121004 0.080140
0.211490 0.131991 0.087831
0.241398 0.141634 0.090242
0.275975 0.150362 0.092195
0.315190 0.159457 0.092775
0.358679 0.168490 0.093904
0.405127 0.177584 0.094606
0.452705 0.187259 0.095552
0.499886 0.197604 0.097230
0.545495 0.209415 0.100191
0.588708 0.222782 0.105043
0.629023 0.238163 0.113527
0.665644 0.255344 0.125368
0.698848 0.273960 0.139651
0.728481 0.293767 0.156283
0.758053 0.316777 0.176669
0.785702 0.341741 0.201297
0.807950 0.365667 0.225772
0.826810 0.388098 0.249210
0.842161 0.409766 0.273503
0.854826 0.430549 0.297581
0.865537 0.451209 0.322545
0.874693 0.471992 0.348150
0.883299 0.493416 0.375433
0.891630 0.515099 0.403143
0.899626 0.537560 0.432288
0.907225 0.560510 0.462379
0.104067 0.100099 0.054353
0.104250 0.100801 0.054047
0.109224 0.103792 0.052461
0.139590 0.110170 0.054994
0.165621 0.119265 0.065644
0.189029 0.129671 0.078828
0.214633 0.139223 0.086000
0.244114 0.147768 0.089693
0.278111 0.156649 0.090639
0.316289 0.164706 0.093141
0.359380 0.173648 0.093812
0.404913 0.182498 0.094575
0.451942 0.192020 0.095949
0.498451 0.202457 0.097597
0.543725 0.213870 0.100649
0.586633 0.226596 0.106020
0.626673 0.241520 0.114870
0.663325 0.258549 0.126497
0.696620 0.276646 0.140505
0.726528 0.295995 0.156893
0.756497 0.318975 0.177371
0.783597 0.343145 0.201144
0.805814 0.366033 0.224247
0.824613 0.388037 0.247562
0.839902 0.409186 0.271672
0.852964 0.429358 0.294957
0.863859 0.449928 0.319768
0.873228 0.470436 0.345281
0.881987 0.491554 0.371984
0.890379 0.513451 0.400214
0.898589 0.535607 0.428931
0.906218 0.558556 0.459266
0.109499 0.130556 0.065614
0.111818 0.130861 0.066407
0.118990 0.133883 0.065126
0.137819 0.138643 0.059388
0.168795 0.144778 0.067659
0.195834 0.147219 0.079469
0.221836 0.154055 0.086366
0.250706 0.161074 0.089601
0.284276 0.168490 0.091890
0.322087 0.176303 0.092897
0.364080 0.184665 0.093935
0.408423 0.192966 0.095125
0.454261 0.202487 0.095949
0.499794 0.212467 0.098024
0.543877 0.223209 0.101961
0.585748 0.235996 0.108156
0.624933 0.249821 0.115908
0.660914 0.265904 0.127138
0.693782 0.283055 0.141268
0.723384 0.301305 0.157382
0.753201 0.323125 0.177554
0.779202 0.345678 0.200015
0.801205 0.367315 0.222873
0.820432 0.388678 0.246098
0.836728 0.409430 0.269261
0.850401 0.430274 0.293828
0.862028 0.451026 0.319097
0.871702 0.472084 0.345769
0.880919 0.492958 0.372229
0.889494 0.514641 0.400153
0.897551 0.536645 0.428992
0.905211 0.558648 0.458289
0.132296 0.156893 0.091524
0.133974 0.156741 0.091951
0.138766 0.157443 0.092836
0.144808 0.161868 0.090028
0.163058 0.167147 0.085969
0.197086 0.176089 0.084443
0.227176 0.177432 0.088594
0.259556 0.180392 0.090089
0.292393 0.186496 0.092439
0.329534 0.193332 0.092958
0.369543 0.200809 0.094453
0.412787 0.208988 0.095369
0.457130 0.217563 0.097139
0.501701 0.227176 0.099794
0.544884 0.238041 0.103700
0.586206 0.249912 0.110414
0.625025 0.263066 0.119631
0.660853 0.278477 0.131319
0.693477 0.294804 0.145327
0.723140 0.312322 0.161929
0.752834 0.333562 0.182589
0.777829 0.354131 0.204196
0.799435 0.374578 0.225620
0.818570 0.394995 0.248814
0.834958 0.415167 0.272129
0.848814 0.435370 0.296178
0.860472 0.455543 0.321691
0.870420 0.475685 0.347173
0.879423 0.496345 0.374151
0.888060 0.517205 0.401373
0.896147 0.538506 0.429572
0.903807 0.560082 0.458289
0.143221 0.182498 0.101381
0.143679 0.182773 0.101625
0.148440 0.182834 0.102541
0.153628 0.185367 0.101564
0.165072 0.191501 0.097627
0.187686 0.197269 0.092470
0.228885 0.210086 0.087800
0.263584 0.211490 0.089601
0.304112 0.213046 0.092164
0.343175 0.218112 0.093385
0.382025 0.224399 0.094392
0.423896 0.231662 0.096315
0.466651 0.239933 0.099245
0.509422 0.249088 0.102632
0.551476 0.259037 0.107637
0.591485 0.270329 0.115694
0.629328 0.283024 0.125490
0.664179 0.297002 0.138491
0.696101 0.312230 0.152590
0.726864 0.330175 0.170474
0.754849 0.349767 0.191318
0.779080 0.369085 0.212467
0.822477 0.415351 0.264469
0.838346 0.435309 0.288975
0.851133 0.454597 0.314305
0.861601 0.473518 0.338811
0.870481 0.491920 0.363836
0.878813 0.510460 0.388800
0.886748 0.529198 0.413886
0.894224 0.548180 0.439612
0.901274 0.567407 0.465858
0.908019 0.586481 0.492012
0.151919 0.216953 0.112398
0.152804 0.217014 0.112673
0.157504 0.217044 0.113771
0.165103 0.217563 0.115175
0.173037 0.223301 0.110719
0.190585 0.230747 0.103792
0.219638 0.237003 0.097261
0.270695 0.253391 0.087984
0.314885 0.257023 0.089082
0.361669 0.259281 0.091707
0.410925 0.261204 0.096162
0.452522 0.267613 0.098756
0.493172 0.274418 0.103822
0.533806 0.282536 0.109316
0.572961 0.291447 0.116457
0.609918 0.301274 0.126284
0.644862 0.312657 0.137728
0.677241 0.325475 0.151186
0.708583 0.340856 0.167788
0.740169 0.359838 0.189548
0.767971 0.379583 0.212161
0.792294 0.399634 0.236515
0.813626 0.420233 0.261753
0.831510 0.440467 0.287877
0.845945 0.460273 0.313939
0.857359 0.478950 0.339513
0.866697 0.496651 0.364202
0.875212 0.514275 0.388861
0.883268 0.532158 0.413519
0.890867 0.550134 0.438514
0.898192 0.568444 0.463813
0.905180 0.586877 0.489479
0.159213 0.249332 0.123323
0.160433 0.249546 0.123751
0.164614 0.249485 0.124758
0.172671 0.249668 0.125795
0.181491 0.252384 0.124544
0.194186 0.259373 0.117983
0.217075 0.267613 0.109957
0.250980 0.273381 0.101991
0.305303 0.289921 0.089845
0.358038 0.298009 0.088838
0.407385 0.300542 0.095308
0.458015 0.302892 0.102480
0.504295 0.306920 0.108949
0.542565 0.313420 0.116060
0.579370 0.320714 0.125093
0.614496 0.329259 0.135286
0.647791 0.339239 0.147524
0.679652 0.351049 0.162051
0.712032 0.366308 0.180392
0.740810 0.382238 0.200656
0.766445 0.399115 0.222141
0.789578 0.416510 0.245151
0.810208 0.434699 0.268986
0.827543 0.453101 0.294499
0.841978 0.471168 0.319554
0.853544 0.488228 0.344030
0.863066 0.504723 0.367987
0.871794 0.521233 0.391821
0.880064 0.538048 0.415930
0.887816 0.555261 0.440620
0.895354 0.572656 0.465278
0.902495 0.590448 0.490425
0.168795 0.284977 0.137789
0.169833 0.285100 0.137728
0.174105 0.284947 0.138613
0.181857 0.285069 0.139528
0.193729 0.285069 0.141695
0.203037 0.290898 0.136172
0.220676 0.298192 0.128725
0.248966 0.306706 0.118105
0.285985 0.312016 0.108736
0.342046 0.327855 0.093294
0.402197 0.340520 0.091493
0.452247 0.343542 0.101442
0.502220 0.346166 0.113161
0.551232 0.348913 0.126253
0.589044 0.354742 0.136049
0.622034 0.361273 0.147341
0.655085 0.370977 0.161135
0.687221 0.382666 0.178378
0.716243 0.395026 0.196170
0.742580 0.408118 0.214847
0.766445 0.422400 0.236027
0.788296 0.437476 0.257389
0.807828 0.453315 0.280797
0.824674 0.469490 0.304265
0.838743 0.485603 0.328496
0.850156 0.501061 0.352087
0.859678 0.516197 0.375463
0.868437 0.531670 0.398962
0.876890 0.547204 0.422065
0.884855 0.563226 0.445747
0.892424 0.579767 0.469947
0.899779 0.596521 0.494301
0.182071 0.322667 0.155245
0.183261 0.322393 0.155123
0.187381 0.322240 0.155856
0.195010 0.322026 0.156741
0.206668 0.321813 0.159030
0.217899 0.324041 0.157473
0.230594 0.330236 0.150210
0.252750 0.337804 0.141482
0.284031 0.345739 0.128939
0.322606 0.349889 0.118959
0.376989 0.364355 0.100771
0.443000 0.380804 0.098024
0.491829 0.384344 0.112825
0.539910 0.387915 0.128420
0.587335 0.391730 0.145174
0.632258 0.398383 0.164858
0.664942 0.406958 0.179690
0.694270 0.416266 0.196384
0.721004 0.426184 0.214267
0.745296 0.437140 0.233036
0.767391 0.448646 0.251926
0.787259 0.460670 0.272374
0.805173 0.473335 0.293004
0.820676 0.486610 0.314855
0.834104 0.499886 0.336797
0.845365 0.513359 0.358892
0.855039 0.526909 0.381079
0.864195 0.540917 0.403540
0.872862 0.555718 0.426459
0.881071 0.571130 0.450324
0.888975 0.587091 0.474495
0.896635 0.603296 0.498756
0.199924 0.358679 0.175143
0.201266 0.358373 0.175204
0.205112 0.358526 0.176059
0.212528 0.358312 0.176974
0.223148 0.358221 0.179019
0.236851 0.358221 0.181247
0.247135 0.363531 0.175387
0.264103 0.370031 0.167727
0.288457 0.377478 0.157321
0.322362 0.385443 0.144533
0.360906 0.388556 0.132876
0.412116 0.400855 0.112062
0.484169 0.422553 0.111391
0.533318 0.427955 0.130739
0.580743 0.433356 0.152071
0.625666 0.438727 0.173892
0.667231 0.444129 0.198062
0.699580 0.450355 0.216678
0.724239 0.457984 0.233097
0.746670 0.466133 0.251286
0.767300 0.475074 0.268772
0.786130 0.484871 0.287785
0.802976 0.495460 0.307958
0.817868 0.506615 0.328405
0.830777 0.518090 0.349584
0.841764 0.529961 0.371008
0.851499 0.542016 0.392126
0.860594 0.554833 0.414160
0.869413 0.568261 0.436225
0.877775 0.582605 0.459419
0.885893 0.597345 0.482429
0.893645 0.612573 0.506035
0.224002 0.396551 0.199863
0.224613 0.396399 0.199771
0.228092 0.396429 0.200381
0.234745 0.396277 0.201541
0.244755 0.396338 0.203311
0.257786 0.396063 0.205509
0.269627 0.398413 0.204654
0.281926 0.404303 0.196872
0.301122 0.410681 0.188418
0.328374 0.418738 0.178012
0.364508 0.427436 0.165560
0.403540 0.431159 0.154238
0.472663 0.461402 0.142275
0.549584 0.488014 0.148470
0.596521 0.493538 0.175753
0.639796 0.498207 0.202731
0.678584 0.502739 0.229374
0.713924 0.507347 0.255375
0.745235 0.512535 0.282567
0.766415 0.518059 0.298466
0.783658 0.524285 0.316228
0.798947 0.531029 0.334356
0.812497 0.538323 0.352575
0.824460 0.546502 0.371557
0.834867 0.555108 0.390509
0.844327 0.563989 0.409094
0.853208 0.573388 0.427649
0.861601 0.583551 0.446632
0.869657 0.594507 0.466072
0.877562 0.606134 0.486030
0.885222 0.618494 0.506462
0.892760 0.631678 0.527642
0.258976 0.442969 0.234531
0.259434 0.442847 0.234562
0.262852 0.442573 0.235019
0.268559 0.442603 0.236088
0.277501 0.442145 0.237583
0.289433 0.442084 0.239902
0.304021 0.442145 0.243046
0.313939 0.447486 0.237491
0.329229 0.454322 0.230442
0.351202 0.461921 0.221592
0.380865 0.470649 0.212070
0.417609 0.479835 0.199771
0.456886 0.483711 0.189273
0.503532 0.493843 0.168948
0.574884 0.518853 0.177462
0.621973 0.527520 0.202457
0.660792 0.531395 0.229953
0.695979 0.534936 0.256382
0.727474 0.538811 0.282628
0.755764 0.542992 0.309483
0.778866 0.547509 0.332280
0.794125 0.552361 0.348241
0.807279 0.557885 0.365393
0.819181 0.564294 0.383185
0.829618 0.571313 0.401068
0.839078 0.579126 0.419623
0.848234 0.587488 0.437568
0.856901 0.596674 0.456245
0.865324 0.606653 0.475044
0.873472 0.617609 0.494759
0.881498 0.629053 0.514427
0.889158 0.641444 0.535271
0.294438 0.483742 0.269932
0.294591 0.483436 0.269749
0.296849 0.482918 0.269688
0.301427 0.481971 0.270054
0.308110 0.481086 0.270451
0.317815 0.480079 0.271977
0.330053 0.479255 0.273899
0.341100 0.480934 0.272679
0.352117 0.486152 0.265782
0.368353 0.492409 0.258457
0.391089 0.499763 0.250126
0.419928 0.507622 0.240177
0.454871 0.515587 0.228489
0.490913 0.517662 0.218479
0.532403 0.524926 0.198215
0.595789 0.546197 0.204623
0.642725 0.557031 0.228702
0.677913 0.559991 0.256413
0.709865 0.563104 0.283146
0.738643 0.566461 0.309331
0.764340 0.570306 0.336126
0.786770 0.574670 0.362890
0.802731 0.579217 0.381964
0.814542 0.584161 0.398718
0.824887 0.589746 0.415930
0.834562 0.596307 0.433417
0.843870 0.603540 0.450538
0.852659 0.611658 0.468452
0.861295 0.620569 0.486305
0.869566 0.630457 0.505394
0.877775 0.641016 0.524529
0.885771 0.652491 0.544427
0.327153 0.518456 0.303197
0.327520 0.518364 0.303136
0.329076 0.517906 0.303227
0.332677 0.516686 0.302953
0.337835 0.515312 0.302831
0.345678 0.513909 0.303593
0.356207 0.512657 0.305028
0.368475 0.511955 0.307317
0.376349 0.515862 0.301427
0.388556 0.521080 0.294804
0.405554 0.527214 0.287449
0.428199 0.533898 0.279179
0.455818 0.540673 0.269291
0.487922 0.546960 0.257145
0.520134 0.547356 0.246311
0.557153 0.552026 0.226810
0.613184 0.570184 0.231205
0.660212 0.583093 0.254093
0.692531 0.585687 0.281590
0.721950 0.588525 0.308568
0.748531 0.591669 0.335363
0.771878 0.595361 0.362402
0.792111 0.599481 0.389563
0.809354 0.604364 0.416388
0.820401 0.608637 0.431769
0.830198 0.614008 0.448249
0.839567 0.620325 0.465217
0.848661 0.627619 0.482338
0.857572 0.635859 0.500145
0.866178 0.645136 0.518791
0.874662 0.655390 0.538079
0.882872 0.666346 0.558129
0.357458 0.547997 0.334447
0.357885 0.547967 0.334447
0.359319 0.547814 0.334661
0.362402 0.547173 0.334783
0.367407 0.546441 0.335424
0.374426 0.545556 0.336248
0.383581 0.544915 0.337957
0.394476 0.544518 0.340276
0.404761 0.546014 0.339757
0.413275 0.550378 0.333440
0.425605 0.555047 0.326574
0.441871 0.560021 0.318486
0.462593 0.564935 0.308568
0.487282 0.569390 0.297032
0.515587 0.573358 0.283940
0.544030 0.571771 0.272313
0.576928 0.574609 0.252598
0.626703 0.589990 0.254765
0.674220 0.605249 0.276921
0.704494 0.607874 0.305180
0.732265 0.611017 0.333104
0.756954 0.614435 0.360510
0.778317 0.618219 0.388495
0.796750 0.622400 0.416327
0.812497 0.627375 0.443977
0.825895 0.632959 0.466560
0.835874 0.638392 0.482246
0.845060 0.644770 0.498970
0.854124 0.652033 0.515648
0.862760 0.660243 0.533379
0.871336 0.669184 0.551202
0.879637 0.678920 0.569787
0.385534 0.574121 0.364355
0.385779 0.573999 0.364263
0.387213 0.573846 0.364630
0.389593 0.573388 0.364599
0.393896 0.572900 0.365209
0.399847 0.572259 0.366217
0.407630 0.571588 0.367407
0.417151 0.571038 0.369482
0.428260 0.570581 0.372381
0.434974 0.573816 0.367407
0.443732 0.577722 0.360601
0.456031 0.581872 0.353246
0.471687 0.585931 0.344854
0.490944 0.589746 0.334661
0.513542 0.593317 0.323033
0.539300 0.596033 0.309392
0.565026 0.593896 0.297185
0.595056 0.595697 0.279179
0.639551 0.608759 0.278538
0.687526 0.626246 0.300511
0.716121 0.629297 0.329473
0.741970 0.632410 0.358190
0.764553 0.635737 0.386847
0.784176 0.639368 0.415198
0.800839 0.643488 0.443488
0.816098 0.648859 0.470619
0.830228 0.655634 0.497566
0.841398 0.661799 0.515648
0.850767 0.668238 0.531731
0.859709 0.675563 0.548363
0.868315 0.683742 0.565698
0.876799 0.692561 0.583276
0.414191 0.599115 0.395514
0.414435 0.599237 0.395697
0.431800 0.612207 0.413703
0.433753 0.611841 0.413642
0.437263 0.611292 0.414099
0.441871 0.610529 0.414649
0.447639 0.609735 0.415442
0.455238 0.608911 0.416846
0.464271 0.608209 0.418830
0.471839 0.608972 0.417792
0.477668 0.611872 0.411475
0.486213 0.614893 0.404669
0.496773 0.617762 0.396002
0.510430 0.620233 0.385962
0.526879 0.622492 0.374395
0.546441 0.624231 0.361517
0.568963 0.625055 0.346929
0.591608 0.621881 0.333165
0.617792 0.622034 0.315190
0.656641 0.632288 0.310582
0.702693 0.649683 0.333257
0.730526 0.653834 0.361883
0.753597 0.656214 0.390997
0.773526 0.658839 0.419684
0.790585 0.661616 0.447120
0.806119 0.665553 0.473915
0.820645 0.670771 0.499733
0.834226 0.677180 0.525200
0.847013 0.684627 0.549584
0.856596 0.690852 0.564111
0.865385 0.698054 0.580011
0.873930 0.706020 0.596674
0.445350 0.625238 0.430732
0.447059 0.626337 0.432319
0.449409 0.627375 0.434150
0.452399 0.628138 0.435767
0.456214 0.628473 0.437201
0.460517 0.628229 0.438148
0.465827 0.627558 0.438941
0.472084 0.626703 0.440101
0.479591 0.625940 0.441535
0.488167 0.625086 0.443397
0.492958 0.627344 0.438514
0.498726 0.629877 0.431983
0.506737 0.632319 0.424353
0.516899 0.634638 0.415259
0.529992 0.636713 0.405432
0.545617 0.638514 0.394018
0.563836 0.640070 0.380865
0.584741 0.640711 0.367315
0.606348 0.637995 0.354803
0.631220 0.638148 0.338109
0.666041 0.646937 0.330968
0.710292 0.664057 0.355352
0.738918 0.670527 0.383642
0.760220 0.672786 0.413489
0.778470 0.675105 0.441749
0.794797 0.678218 0.469642
0.809995 0.682643 0.496010
0.824186 0.688350 0.522210
0.837705 0.695216 0.547448
0.850492 0.703151 0.572564
0.861631 0.711055 0.593378
0.870909 0.718196 0.608331
0.466590 0.643244 0.455726
0.468208 0.644221 0.457343
0.470466 0.645289 0.459022
0.473213 0.646174 0.460945
0.476509 0.646540 0.462379
0.480385 0.646326 0.463111
0.484779 0.645869 0.464149
0.489845 0.645014 0.464668
0.496284 0.644251 0.465858
0.503502 0.643427 0.467292
0.509514 0.643824 0.466163
0.513939 0.645930 0.460121
0.519829 0.648066 0.453498
0.527611 0.650141 0.445686
0.537469 0.652125 0.436652
0.549737 0.653864 0.426642
0.564385 0.655360 0.415106
0.581689 0.656672 0.402380
0.601190 0.656977 0.389532
0.621485 0.654444 0.377325
0.644648 0.654353 0.361212
0.675196 0.661372 0.351324
0.717464 0.677607 0.377203
0.746670 0.686000 0.405524
0.766232 0.687984 0.435309
0.783352 0.690425 0.464118
0.799252 0.694087 0.491585
0.814298 0.699062 0.517967
0.828367 0.705318 0.544030
0.841855 0.712642 0.569757
0.854490 0.721004 0.595026
0.866575 0.729885 0.619196
0.487373 0.660975 0.481056
0.488685 0.661891 0.482521
0.490669 0.662745 0.484108
0.493141 0.663478 0.485817
0.495827 0.663722 0.486793
0.499092 0.663569 0.487556
0.502831 0.663111 0.488350
0.507256 0.662470 0.488960
0.512688 0.661769 0.489784
0.519005 0.660975 0.491066
0.526055 0.660121 0.492439
0.529595 0.661830 0.487922
0.533806 0.663630 0.481575
0.539635 0.665492 0.474708
0.547204 0.667292 0.466835
0.556817 0.669001 0.457832
0.568872 0.670649 0.448493
0.583124 0.672328 0.437629
0.599878 0.673915 0.426398
0.618769 0.674525 0.415167
0.638178 0.672847 0.404639
0.660060 0.673060 0.390356
0.687098 0.678462 0.377996
0.726986 0.693904 0.406134
0.756374 0.703914 0.435676
0.774502 0.706172 0.466133
0.791257 0.709651 0.495247
0.806912 0.714412 0.523064
0.821653 0.720363 0.550500
0.835660 0.727443 0.576898
0.848936 0.735256 0.602350
0.861479 0.743709 0.626703
0.514824 0.683223 0.514946
0.515343 0.683558 0.515526
0.516289 0.683772 0.516228
0.517479 0.683742 0.516472
0.519249 0.683528 0.516716
0.521355 0.683040 0.516777
0.524346 0.682429 0.517113
0.527977 0.681727 0.517418
0.532555 0.681025 0.517998
0.537957 0.680415 0.519188
0.544030 0.679683 0.520317
0.548913 0.679927 0.519249
0.551965 0.681392 0.513756
0.556207 0.682887 0.507469
0.561822 0.684352 0.500420
0.569055 0.685786 0.492561
0.578027 0.687098 0.483406
0.589166 0.688319 0.474037
0.602289 0.689479 0.463447
0.617670 0.690547 0.451881
0.634760 0.690486 0.440497
0.652552 0.688563 0.429816
0.672419 0.688045 0.415137
0.695521 0.691310 0.398413
0.732998 0.705501 0.426886
0.762661 0.716762 0.455940
0.780392 0.719722 0.486793
0.796872 0.723964 0.516014
0.812436 0.729488 0.544396
0.827115 0.735988 0.571801
0.841032 0.743374 0.598230
0.854215 0.751400 0.623255
0.533989 0.698116 0.538903
0.534356 0.698329 0.539300
0.535210 0.698512 0.539849
0.536431 0.698482 0.540307
0.537774 0.698329 0.540520
0.539727 0.697993 0.540734
0.542138 0.697475 0.540856
0.545220 0.696895 0.541039
0.549126 0.696315 0.541619
0.553735 0.695735 0.542535
0.558984 0.695094 0.543542
0.564813 0.694423 0.544854
0.567346 0.695552 0.540520
0.570459 0.696895 0.534905
0.574792 0.698238 0.528954
0.580194 0.699519 0.521874
0.587366 0.700801 0.514397
0.596063 0.702022 0.505913
0.606653 0.703182 0.496590
0.619043 0.704219 0.486793
0.633387 0.705226 0.475563
0.649287 0.704952 0.464820
0.665888 0.703151 0.454566
0.684291 0.702510 0.440925
0.703029 0.702541 0.417548
0.737819 0.715358 0.445075
0.768276 0.728206 0.474281
0.786038 0.732204 0.505089
0.802487 0.737148 0.534844
0.817990 0.743313 0.563653
0.832761 0.750423 0.591424
0.846708 0.758297 0.617884
0.556695 0.714290 0.567132
0.557519 0.714626 0.567895
0.558190 0.714778 0.568322
0.558770 0.714565 0.568231
0.559625 0.714137 0.568017
0.560662 0.713527 0.567498
0.562097 0.712734 0.566857
0.564172 0.711879 0.566461
0.566796 0.710994 0.566125
0.570214 0.710079 0.566155
0.574060 0.709102 0.566217
0.578576 0.708217 0.566613
0.582116 0.708003 0.564996
0.583856 0.708858 0.559533
0.586481 0.709682 0.553246
0.590204 0.710506 0.546502
0.595209 0.711391 0.539086
0.601801 0.712367 0.531304
0.610224 0.713436 0.523064
0.620233 0.714565 0.514336
0.632136 0.715663 0.504631
0.645747 0.716518 0.494179
0.660517 0.716091 0.483986
0.675929 0.714199 0.473365
0.692805 0.713161 0.459846
0.711788 0.714748 0.441199
0.743282 0.725826 0.464393
0.773098 0.738705 0.493477
0.792508 0.745022 0.523827
0.808896 0.750546 0.553918
0.824338 0.757229 0.582788
0.838926 0.764645 0.610559
0.572808 0.725185 0.586908
0.573449 0.725521 0.587671
0.574151 0.725673 0.588128
0.574792 0.725612 0.588281
0.575738 0.725399 0.588281
0.576989 0.725063 0.588342
0.578637 0.724666 0.588281
0.580804 0.724239 0.588495
0.583459 0.723751 0.588739
0.586664 0.723262 0.589197
0.590326 0.722621 0.589593
0.594476 0.721981 0.590417
0.598932 0.721218 0.590997
0.600336 0.721828 0.586572
0.602014 0.722560 0.581140
0.604456 0.723293 0.574945
0.607996 0.723964 0.568322
0.612757 0.724788 0.561059
0.619074 0.725704 0.553674
0.626856 0.726711 0.545678
0.636316 0.727687 0.537163
0.647272 0.728603 0.527855
0.659785 0.729397 0.517510
0.673396 0.728817 0.507622
0.687739 0.727108 0.497719
0.703548 0.726070 0.485084
0.721523 0.727810 0.467445
0.750729 0.738155 0.487251
0.780117 0.751583 0.517357
0.801083 0.760189 0.548089
0.817227 0.766323 0.577905
0.832547 0.773312 0.606744
0.591913 0.737392 0.610254
0.592218 0.737545 0.610620
0.592584 0.737575 0.610773
0.593103 0.737484 0.610834
0.593744 0.737270 0.610681
0.594690 0.736934 0.610559
0.596002 0.736507 0.610437
0.597772 0.736110 0.610529
0.599908 0.735622 0.610712
0.602625 0.735103 0.610895
0.605585 0.734554 0.611231
0.609186 0.733944 0.611780
0.613031 0.733303 0.612390
0.615656 0.733150 0.610895
0.616602 0.733822 0.605982
0.618036 0.734493 0.600336
0.620356 0.735164 0.594202
0.623804 0.735958 0.587732
0.628565 0.736873 0.581140
0.634546 0.737881 0.573968
0.641962 0.738918 0.566186
0.650782 0.739925 0.557977
0.660914 0.740749 0.548638
0.672480 0.741482 0.538201
0.685176 0.740688 0.528435
0.698482 0.739040 0.518822
0.713283 0.737972 0.506615
0.730434 0.739742 0.490089
0.757595 0.749294 0.506004
0.786465 0.762936 0.536614
0.808896 0.773434 0.567407
0.825132 0.780240 0.597925
0.607996 0.748928 0.630671
0.608331 0.749020 0.630915
0.608667 0.749111 0.631159
0.609247 0.749050 0.631312
0.610010 0.749020 0.631464
0.611231 0.748959 0.631861
0.613001 0.749020 0.632624
0.615290 0.749111 0.633539
0.618067 0.749294 0.634821
0.621271 0.749508 0.636316
0.624903 0.749691 0.637873
0.628656 0.749783 0.639429
0.632746 0.749752 0.640894
0.636744 0.749508 0.642084
0.637995 0.750393 0.639002
0.639155 0.751217 0.634607
0.640864 0.751980 0.629694
0.643244 0.752804 0.624170
0.646601 0.753750 0.618463
0.650996 0.754788 0.612207
0.656428 0.755886 0.605341
0.663203 0.756924 0.598077
0.671168 0.757839 0.589715
0.680354 0.758633 0.580621
0.690944 0.759274 0.570459
0.702327 0.758389 0.560906
0.714626 0.756710 0.551385
0.728115 0.755612 0.539818
0.744472 0.757534 0.524224
0.769253 0.766171 0.536461
0.797696 0.780179 0.568139
0.821469 0.792569 0.599237
0.629114 0.765347 0.657832
0.629145 0.765347 0.657832
0.629267 0.765286 0.657771
0.629572 0.765164 0.657740
0.629999 0.764950 0.657618
0.630793 0.764706 0.657618
0.631830 0.764492 0.657679
0.633326 0.764248 0.657832
0.635126 0.763973 0.658137
0.637293 0.763760 0.658625
0.639734 0.763516 0.659174
0.642573 0.763241 0.659876
0.645655 0.762875 0.660517
0.648859 0.762448 0.661128
