20 Preset/Natural Girl/【3】LUT video cho PR-AE-FCPX/Lut Tone  (4).cube
# Created by Adobe Lightroom plugin Export LUT (1.24.0)
# www.johnrellis.com/lightroom/exportlut.htm
# Preset: 自然胶片-素材江湖（原版）13
# Color profile: C:\Program Files (x86)\Common Files\Adobe\Color\Profiles\Recommended\VideoHD.icc
LUT_3D_SIZE 5
DOMAIN_MIN 0.000000 0.000000 0.000000
DOMAIN_MAX 0.903226 0.903226 0.903226
0.108553 0.102541 0.106020
0.292973 0.126864 0.122499
0.572076 0.160006 0.131258
0.754116 0.247105 0.159182
0.844999 0.338231 0.218906
0.206546 0.274388 0.170169
0.330327 0.297704 0.143313
0.589502 0.300572 0.147982
0.753567 0.334356 0.183322
0.842252 0.389319 0.242283
0.380224 0.521172 0.305547
0.434516 0.512016 0.306249
0.597131 0.557153 0.248203
0.737697 0.533959 0.287480
0.824338 0.525200 0.322057
0.515465 0.650050 0.450233
0.535607 0.647395 0.450355
0.599451 0.654200 0.437079
0.702296 0.669062 0.401373
0.795773 0.658076 0.435889
0.613642 0.732998 0.578851
0.621912 0.731868 0.578759
0.649622 0.723751 0.572412
0.705165 0.744198 0.554070
0.785183 0.758114 0.536065
0.157809 0.152407 0.219638
0.290257 0.108858 0.255039
0.534630 0.165286 0.240299
0.719692 0.294804 0.279332
0.821103 0.368048 0.302403
0.194003 0.276432 0.273960
0.295048 0.292943 0.286503
0.550134 0.318425 0.285832
0.722316 0.360021 0.294041
0.818601 0.408545 0.316960
0.360418 0.525200 0.369696
0.418738 0.518456 0.369787
0.573388 0.545312 0.333837
0.718379 0.535363 0.360601
0.809445 0.534325 0.381018
0.512657 0.652216 0.482368
0.532341 0.649866 0.482429
0.595361 0.651545 0.474434
0.694575 0.668025 0.443122
0.788571 0.660304 0.470649
0.610925 0.733883 0.589990
0.618921 0.732662 0.589685
0.650599 0.728237 0.589136
0.704219 0.745174 0.572686
0.784176 0.760311 0.555962
0.255070 0.263066 0.461707
0.318151 0.239536 0.475929
0.559533 0.053162 0.489784
0.667903 0.270939 0.424598
0.791440 0.372900 0.427253
0.365179 0.405951 0.479225
0.383886 0.391119 0.489754
0.556085 0.280308 0.499763
0.669032 0.356603 0.446296
0.777890 0.445319 0.462928
0.373877 0.537774 0.527642
0.417609 0.539635 0.528649
0.528618 0.546624 0.532982
0.666987 0.550500 0.521813
0.767117 0.558129 0.514031
0.473182 0.663294 0.555474
0.495125 0.660945 0.556420
0.580011 0.651881 0.569787
0.670222 0.666865 0.555047
0.766354 0.667353 0.565606
0.593835 0.738216 0.625544
0.602686 0.737270 0.625360
0.635889 0.732448 0.623377
0.689876 0.738491 0.614832
0.772061 0.757809 0.599969
0.426856 0.443091 0.648859
0.444678 0.427955 0.651820
0.536919 0.341436 0.656947
0.714076 0.179263 0.643214
0.752041 0.351690 0.557305
0.487037 0.526024 0.649104
0.491188 0.511406 0.650904
0.544182 0.436408 0.654871
0.702449 0.302342 0.641871
0.742824 0.397772 0.562615
0.567803 0.622370 0.651698
0.579950 0.626459 0.651148
0.580255 0.606104 0.653376
0.661860 0.511528 0.640223
0.724544 0.523857 0.589990
0.536278 0.667292 0.668696
0.546990 0.666896 0.667964
0.585657 0.667140 0.667353
0.637079 0.665217 0.663630
0.733272 0.660700 0.648035
0.533959 0.751034 0.675593
0.544152 0.750576 0.674800
0.582666 0.749020 0.671351
0.664942 0.738125 0.674830
0.755856 0.757137 0.664424
0.561151 0.590204 0.749569
0.563195 0.580957 0.749966
0.584100 0.538811 0.753109
0.665980 0.406653 0.754452
0.805173 0.219181 0.738216
0.580224 0.618708 0.746059
0.581170 0.611200 0.746670
0.593439 0.573968 0.749264
0.660426 0.459266 0.749996
0.796078 0.292760 0.734829
0.618128 0.674311 0.745083
0.618036 0.671046 0.745724
0.625696 0.657557 0.747066
0.651820 0.588312 0.743557
0.768612 0.458076 0.730526
0.637018 0.713893 0.754421
0.642054 0.714534 0.753964
0.665461 0.720943 0.755306
0.670893 0.703822 0.756405
0.736904 0.617609 0.736995
0.588678 0.755825 0.769039
0.594049 0.755795 0.768887
0.618463 0.757412 0.770382
0.661891 0.758541 0.770871
0.719539 0.751949 0.762020
