20 Preset/Natural Girl/【3】LUT video cho PR-AE-FCPX/Lut Tone  (7).cube
# Created by Adobe Lightroom plugin Export LUT (1.24.0)
# www.johnrellis.com/lightroom/exportlut.htm
# Preset: 自然胶片-素材江湖（原版）16
# Color profile: C:\Program Files (x86)\Common Files\Adobe\Color\Profiles\Recommended\VideoHD.icc
LUT_3D_SIZE 8
DOMAIN_MIN 0.000000 0.000000 0.000000
DOMAIN_MAX 0.903226 0.903226 0.903226
0.104036 0.094453 0.052125
0.160647 0.104616 0.066590
0.277867 0.149874 0.092134
0.457160 0.186587 0.095796
0.633082 0.238621 0.114321
0.761563 0.318822 0.179477
0.845914 0.414984 0.279728
0.885405 0.498970 0.382635
0.132296 0.156893 0.091524
0.163058 0.167147 0.085969
0.292393 0.186496 0.092439
0.457130 0.217563 0.097139
0.625025 0.263066 0.119631
0.752834 0.333562 0.182589
0.834958 0.415167 0.272129
0.879423 0.496345 0.374151
0.168795 0.284977 0.137789
0.193729 0.285069 0.141695
0.285985 0.312016 0.108736
0.502220 0.346166 0.113161
0.655085 0.370977 0.161135
0.766445 0.422400 0.236027
0.838743 0.485603 0.328496
0.876890 0.547204 0.422065
0.258976 0.442969 0.234531
0.277501 0.442145 0.237583
0.329229 0.454322 0.230442
0.456886 0.483711 0.189273
0.660792 0.531395 0.229953
0.778866 0.547509 0.332280
0.829618 0.571313 0.401068
0.865324 0.606653 0.475044
0.385534 0.574121 0.364355
0.393896 0.572900 0.365209
0.428260 0.570581 0.372381
0.471687 0.585931 0.344854
0.565026 0.593896 0.297185
0.716121 0.629297 0.329473
0.800839 0.643488 0.443488
0.850767 0.668238 0.531731
0.487373 0.660975 0.481056
0.495827 0.663722 0.486793
0.512688 0.661769 0.489784
0.533806 0.663630 0.481575
0.568872 0.670649 0.448493
0.638178 0.672847 0.404639
0.756374 0.703914 0.435676
0.821653 0.720363 0.550500
0.572808 0.725185 0.586908
0.575738 0.725399 0.588281
0.583459 0.723751 0.588739
0.598932 0.721218 0.590997
0.607996 0.723964 0.568322
0.636316 0.727687 0.537163
0.687739 0.727108 0.497719
0.780117 0.751583 0.517357
0.642573 0.778439 0.676326
0.643641 0.778225 0.676387
0.648493 0.777707 0.677302
0.658045 0.776974 0.679622
0.660334 0.772274 0.666102
0.671748 0.777005 0.649653
0.696162 0.781735 0.624506
0.736202 0.781216 0.589380
0.110628 0.100801 0.107881
0.165957 0.099031 0.107912
0.258274 0.145418 0.114046
0.423133 0.197971 0.138277
0.602564 0.250919 0.162570
0.736690 0.325444 0.213993
0.822995 0.407324 0.288884
0.871733 0.487770 0.378546
0.133944 0.158297 0.113893
0.172122 0.163607 0.116487
0.275364 0.189670 0.127321
0.437201 0.225956 0.141665
0.606958 0.274937 0.167666
0.735775 0.342809 0.219883
0.818173 0.414527 0.289097
0.867704 0.489265 0.375097
0.202640 0.283970 0.165835
0.212924 0.285527 0.163058
0.291203 0.306615 0.145663
0.492073 0.338262 0.162173
0.635157 0.368414 0.197757
0.745235 0.416266 0.254704
0.819669 0.471534 0.326452
0.865110 0.533715 0.412970
0.273228 0.434516 0.247318
0.286595 0.433967 0.247898
0.335760 0.442115 0.247227
0.443702 0.464851 0.206607
0.636500 0.506279 0.237644
0.755337 0.524956 0.322240
0.814755 0.552148 0.384985
0.855344 0.591180 0.459602
0.390295 0.569940 0.370581
0.397253 0.568017 0.370184
0.428870 0.564263 0.374975
0.468452 0.575372 0.349340
0.556756 0.582116 0.301305
0.706783 0.617762 0.332830
0.794827 0.635126 0.441199
0.844724 0.660060 0.524590
0.485420 0.655512 0.479286
0.489815 0.655177 0.480232
0.507134 0.653681 0.483772
0.530694 0.655818 0.479713
0.565759 0.664424 0.449073
0.635889 0.668696 0.409125
0.753414 0.699977 0.438911
0.818540 0.716243 0.549584
0.568017 0.721157 0.582147
0.568902 0.720211 0.580926
0.576806 0.718441 0.581323
0.593439 0.716365 0.584527
0.605341 0.720211 0.566186
0.633631 0.724117 0.535485
0.684443 0.722896 0.494606
0.776944 0.747005 0.512779
0.639155 0.775113 0.672450
0.640986 0.775448 0.673457
0.645716 0.774838 0.674189
0.655482 0.774136 0.676600
0.664393 0.774655 0.672511
0.673548 0.777646 0.653620
0.696010 0.780941 0.626123
0.735683 0.780301 0.590600
0.120272 0.114321 0.188571
0.174441 0.112337 0.187167
0.274693 0.138399 0.186313
0.399237 0.182650 0.199863
0.585443 0.245670 0.236210
0.717586 0.371496 0.321294
0.805081 0.452827 0.387060
0.855283 0.525750 0.457679
0.144656 0.167147 0.202518
0.188327 0.172183 0.200900
0.287572 0.182681 0.199191
0.412451 0.219394 0.211673
0.584741 0.291966 0.257786
0.715297 0.384039 0.324651
0.801328 0.456367 0.384161
0.852476 0.526726 0.454505
0.191867 0.297765 0.234806
0.225315 0.300664 0.236820
0.330144 0.313756 0.247074
0.471107 0.343938 0.268070
0.616663 0.389868 0.303929
0.727687 0.444800 0.353307
0.802609 0.500694 0.409735
0.849210 0.557946 0.476173
0.327184 0.449592 0.319280
0.349859 0.451881 0.325139
0.392889 0.455665 0.327245
0.474250 0.474830 0.303441
0.646052 0.512779 0.349401
0.741329 0.538903 0.404364
0.801541 0.571313 0.456214
0.843076 0.609461 0.515038
0.445686 0.576165 0.430365
0.447974 0.575708 0.427924
0.462928 0.574701 0.422950
0.501396 0.580377 0.416358
0.575036 0.589960 0.375067
0.709957 0.621881 0.410193
0.790158 0.642939 0.502586
0.835172 0.667689 0.561547
0.513939 0.658564 0.514611
0.515770 0.658808 0.513725
0.526604 0.657465 0.512779
0.552361 0.654932 0.516350
0.578424 0.663539 0.488014
0.641535 0.668666 0.450690
0.752010 0.699062 0.483833
0.816007 0.719600 0.583856
0.583978 0.723873 0.603326
0.583673 0.723201 0.601404
0.589502 0.721065 0.600031
0.603815 0.718410 0.601373
0.616175 0.719966 0.588800
0.640833 0.724453 0.560815
0.689174 0.724758 0.523705
0.780575 0.751308 0.545373
0.643183 0.776394 0.679927
0.643915 0.775906 0.679561
0.648402 0.775174 0.680018
0.658717 0.775143 0.683162
0.669551 0.774319 0.682216
0.678157 0.778103 0.665339
0.699580 0.781765 0.639826
0.738003 0.781277 0.605310
0.132876 0.114565 0.332433
0.185794 0.120180 0.333257
0.311467 0.132815 0.326085
0.439307 0.157382 0.318090
0.533989 0.225406 0.310185
0.681056 0.313634 0.355505
0.781308 0.422980 0.421210
0.825284 0.548791 0.525689
0.144656 0.177920 0.350805
0.196292 0.179782 0.348760
0.321996 0.185458 0.341100
0.450385 0.201602 0.330602
0.541283 0.257542 0.321569
0.684596 0.340795 0.367864
0.778073 0.446448 0.436713
0.824277 0.554650 0.528985
0.169314 0.317082 0.387945
0.213870 0.319768 0.389044
0.344915 0.322545 0.378820
0.472694 0.323827 0.363500
0.573327 0.365270 0.370672
0.699947 0.439429 0.424201
0.774197 0.536522 0.507469
0.824460 0.588128 0.554467
0.301183 0.470222 0.421973
0.325353 0.470802 0.422461
0.406592 0.475654 0.426642
0.517266 0.488594 0.439399
0.620630 0.513817 0.460365
0.706630 0.547143 0.491524
0.774105 0.585321 0.530541
0.821286 0.624689 0.574731
0.454231 0.590478 0.490608
0.465339 0.589899 0.491798
0.508202 0.590570 0.501305
0.552117 0.593561 0.508141
0.601953 0.602014 0.482551
0.713832 0.631037 0.523827
0.776425 0.653498 0.574945
0.819638 0.677241 0.611688
0.556115 0.670253 0.575921
0.564141 0.672663 0.581018
0.575555 0.671321 0.579889
0.586114 0.669612 0.572534
0.608484 0.671382 0.560998
0.656245 0.675044 0.525231
0.751614 0.701472 0.560021
0.813138 0.726955 0.638666
0.614771 0.727230 0.642145
0.615564 0.727291 0.641657
0.617823 0.726772 0.638453
0.625360 0.725399 0.635218
0.640742 0.723171 0.633387
0.655879 0.727199 0.606744
0.696468 0.727199 0.569909
0.782620 0.754147 0.594995
0.657557 0.780850 0.701015
0.657771 0.780667 0.700465
0.658991 0.780087 0.698085
0.665156 0.778988 0.696864
0.677302 0.776608 0.697719
0.685878 0.778775 0.685237
0.704952 0.782620 0.662043
0.742153 0.783078 0.630488
0.026612 0.123049 0.508232
0.159365 0.125826 0.508293
0.317388 0.135164 0.498970
0.473152 0.153109 0.480995
0.589319 0.196780 0.460456
0.648890 0.287327 0.431281
0.737118 0.371069 0.455848
0.817624 0.482826 0.519402
0.096986 0.185061 0.518669
0.176333 0.187289 0.518975
0.328588 0.193881 0.509270
0.478889 0.205417 0.488228
0.592584 0.235966 0.466957
0.650904 0.312718 0.438819
0.738308 0.390723 0.464393
0.816037 0.496132 0.527092
0.151614 0.325231 0.547539
0.204807 0.324224 0.544793
0.362402 0.340642 0.530968
0.494942 0.340063 0.510765
0.599695 0.348791 0.488411
0.651301 0.391272 0.461921
0.739864 0.457496 0.495705
0.809018 0.540826 0.552972
0.313329 0.486854 0.568170
0.337530 0.488655 0.568109
0.419196 0.496590 0.569451
0.524651 0.498451 0.555413
0.611444 0.488960 0.531426
0.663386 0.508049 0.519158
0.746883 0.561303 0.560357
0.795560 0.626032 0.617243
0.435035 0.600519 0.578485
0.447303 0.601099 0.579156
0.491005 0.602258 0.579461
0.556298 0.605249 0.581353
0.624933 0.609949 0.584894
0.691249 0.626184 0.598199
0.749294 0.649409 0.620752
0.797696 0.676020 0.648432
0.530175 0.669642 0.600671
0.536553 0.669734 0.601740
0.558434 0.668544 0.604059
0.597223 0.668482 0.611444
0.631037 0.669673 0.615442
0.667689 0.676722 0.596643
0.749844 0.703426 0.637354
0.806424 0.727749 0.680598
0.615564 0.730007 0.665431
0.617731 0.729397 0.665278
0.628199 0.728206 0.666621
0.649348 0.728145 0.672511
0.656397 0.726345 0.664851
0.670192 0.726467 0.652308
0.702754 0.727047 0.618311
0.782467 0.753079 0.646387
0.665309 0.780941 0.719265
0.667048 0.780728 0.719570
0.670130 0.779995 0.718166
0.674006 0.780636 0.715358
0.680476 0.778927 0.710658
0.693751 0.777157 0.707515
0.708522 0.780789 0.685756
0.743374 0.780758 0.654170
0.000000 0.143587 0.662043
0.113222 0.146487 0.661128
0.308019 0.159457 0.652216
0.472877 0.185641 0.636316
0.609155 0.220218 0.610346
0.700038 0.274144 0.587518
0.730190 0.359625 0.542351
0.784878 0.419837 0.544274
0.000000 0.200900 0.658045
0.157504 0.203769 0.656336
0.320012 0.213626 0.648463
0.475074 0.231907 0.633051
0.607019 0.256168 0.608331
0.695186 0.297063 0.584771
0.726162 0.372778 0.542046
0.781399 0.427375 0.544152
0.212253 0.345708 0.672755
0.266392 0.354009 0.669734
0.380346 0.364446 0.661097
0.500938 0.368170 0.645136
0.613306 0.373022 0.621271
0.693416 0.388708 0.597009
0.724727 0.436927 0.560327
0.781643 0.480507 0.566949
0.364904 0.514458 0.694942
0.383215 0.514427 0.692439
0.449042 0.516350 0.684718
0.546471 0.527703 0.671748
0.628016 0.518456 0.651179
0.693294 0.511223 0.625177
0.725002 0.530419 0.597070
0.782559 0.567529 0.612482
0.466377 0.617609 0.686763
0.476356 0.618280 0.686366
0.514153 0.621881 0.685847
0.572412 0.628809 0.686061
0.632349 0.623743 0.672023
0.685664 0.605432 0.646082
0.719997 0.607263 0.627405
0.779110 0.650294 0.660395
0.534081 0.687007 0.682155
0.541344 0.688045 0.683253
0.562310 0.687984 0.682643
0.598077 0.688136 0.682033
0.642145 0.688411 0.680934
0.690547 0.691554 0.682887
0.739376 0.705653 0.695277
0.790372 0.722469 0.710292
0.604120 0.737911 0.696315
0.608026 0.738338 0.697353
0.620264 0.737942 0.698634
0.642390 0.737423 0.701289
0.671962 0.736934 0.705745
0.694514 0.735073 0.704646
0.716396 0.734218 0.681819
0.791745 0.761593 0.712093
0.653468 0.786313 0.735866
0.654688 0.785885 0.735531
0.661067 0.785306 0.735683
0.674739 0.785245 0.737575
0.696162 0.784421 0.741115
0.702937 0.781521 0.731899
0.716670 0.781491 0.719265
0.748287 0.781247 0.689204
0.000000 0.168734 0.757382
0.110780 0.173556 0.757443
0.298833 0.190127 0.752804
0.459724 0.222873 0.744106
0.596185 0.261387 0.727626
0.703487 0.294163 0.702174
0.771481 0.339605 0.678248
0.784146 0.412024 0.625696
0.049866 0.218723 0.752651
0.168032 0.222782 0.753109
0.315709 0.236240 0.748592
0.463233 0.259556 0.738918
0.593225 0.287663 0.722194
0.697292 0.310399 0.695705
0.763973 0.347326 0.670680
0.777371 0.412848 0.618555
0.287419 0.372381 0.756313
0.312413 0.373754 0.755123
0.390600 0.378393 0.749844
0.497414 0.386969 0.740200
0.602899 0.395117 0.723964
0.695308 0.399481 0.700069
0.760281 0.418769 0.678614
0.776913 0.466987 0.634424
0.385199 0.507408 0.765194
0.399634 0.507836 0.763210
0.462409 0.518425 0.756039
0.548760 0.534447 0.745510
0.620722 0.528435 0.731655
0.694087 0.517906 0.711788
0.752438 0.515801 0.691371
0.771206 0.538079 0.653742
0.490089 0.627588 0.763943
0.496559 0.627527 0.762692
0.527489 0.631434 0.760922
0.574121 0.631281 0.754574
0.634485 0.630701 0.738827
0.687495 0.612421 0.719966
0.738094 0.596368 0.698512
0.762997 0.606104 0.672969
0.555840 0.698543 0.755856
0.560845 0.699092 0.755978
0.580011 0.700862 0.755825
0.612848 0.703944 0.755795
0.653498 0.707546 0.755795
0.695186 0.701076 0.743984
0.731472 0.680934 0.719753
0.756710 0.673732 0.699062
0.603510 0.748806 0.753445
0.606897 0.749264 0.753902
0.617945 0.749142 0.753536
0.638544 0.749203 0.753109
0.665339 0.748562 0.751675
0.697322 0.747646 0.749599
0.735134 0.746609 0.747036
0.786007 0.759854 0.757931
0.637568 0.792142 0.762417
0.639307 0.792203 0.762417
0.647272 0.792844 0.763210
0.661707 0.792844 0.763821
0.683406 0.792416 0.765072
0.711971 0.791745 0.767086
0.735500 0.788571 0.763546
0.758511 0.785946 0.736599
0.000000 0.182376 0.827298
0.122713 0.186893 0.826993
0.289830 0.204257 0.822507
0.440955 0.239292 0.815915
0.573877 0.284489 0.804685
0.682673 0.326482 0.787839
0.769589 0.353948 0.765469
0.824338 0.392798 0.746059
0.105745 0.225956 0.824186
0.175906 0.230625 0.823941
0.308934 0.245151 0.820218
0.448463 0.273503 0.813321
0.575311 0.310552 0.802152
0.681086 0.344671 0.785428
0.766110 0.364996 0.762661
0.820615 0.398199 0.742855
0.286900 0.362707 0.821775
0.309422 0.364935 0.821134
0.382757 0.372229 0.817227
0.488258 0.391089 0.812284
0.590051 0.408087 0.800839
0.681331 0.420966 0.783963
0.760220 0.424872 0.761990
0.813443 0.442329 0.742397
0.355596 0.478584 0.823423
0.382391 0.486519 0.822385
0.465156 0.513756 0.816587
0.539086 0.526207 0.810117
0.611780 0.528374 0.800473
0.684047 0.525139 0.785519
0.751919 0.513481 0.764706
0.802762 0.512352 0.745113
0.446265 0.603815 0.826444
0.456245 0.604822 0.826047
0.487282 0.604242 0.822599
0.551873 0.612848 0.815396
0.629908 0.628656 0.802579
0.684352 0.616114 0.788327
0.740993 0.596307 0.768215
0.789181 0.583612 0.748287
0.537987 0.699214 0.820798
0.541588 0.698909 0.820249
0.558923 0.699397 0.818997
0.592859 0.702541 0.818326
0.634852 0.701472 0.815152
0.691402 0.699855 0.801450
0.738247 0.682887 0.783383
0.778744 0.663233 0.760647
0.597040 0.761044 0.816556
0.599451 0.760983 0.816373
0.609857 0.760830 0.815854
0.630518 0.761501 0.815885
0.659663 0.762509 0.816373
0.697871 0.764523 0.817960
0.739956 0.755245 0.807065
0.775265 0.728359 0.777829
0.633265 0.805631 0.815915
0.634791 0.805478 0.815732
0.641962 0.805386 0.815488
0.656886 0.805753 0.815640
0.678553 0.805875 0.815335
0.706813 0.805447 0.814328
0.741299 0.804257 0.812192
0.781552 0.800137 0.806455
