20 Preset/Natural Girl/【3】LUT video cho PR-AE-FCPX/Lut Tone  (8).cube
# Created by Adobe Lightroom plugin Export LUT (1.24.0)
# www.johnrellis.com/lightroom/exportlut.htm
# Preset: 自然胶片-素材江湖（原版）01
# Color profile: C:\Program Files (x86)\Common Files\Adobe\Color\Profiles\Recommended\VideoHD.icc
LUT_3D_SIZE 5
DOMAIN_MIN 0.000000 0.000000 0.000000
DOMAIN_MAX 0.903226 0.903226 0.903226
0.049683 0.044251 0.049439
0.376532 0.000000 0.059266
0.693812 0.000000 0.056764
0.841154 0.220645 0.140993
0.932189 0.337499 0.223575
0.000000 0.393652 0.016785
0.357366 0.412696 0.000000
0.704616 0.354345 0.099947
0.833951 0.362676 0.184726
0.928954 0.413855 0.257420
0.000000 0.646235 0.270298
0.133577 0.641596 0.264500
0.598169 0.655818 0.261997
0.800656 0.614343 0.320806
0.913390 0.594110 0.371069
0.269322 0.746670 0.428626
0.311833 0.745083 0.426703
0.473518 0.749569 0.417670
0.705501 0.759426 0.433661
0.884062 0.760678 0.473182
0.393988 0.860838 0.553246
0.412421 0.860472 0.552483
0.475959 0.855528 0.544579
0.641810 0.872496 0.537865
0.839872 0.885679 0.565087
0.096254 0.018402 0.301274
0.345495 0.062470 0.272099
0.664637 0.201480 0.271794
0.809567 0.319951 0.297551
0.906889 0.387121 0.324346
0.169253 0.393408 0.328344
0.386450 0.407660 0.322515
0.673030 0.400458 0.317205
0.805142 0.412055 0.323339
0.904540 0.444404 0.345647
0.204135 0.640436 0.383673
0.298589 0.636866 0.379156
0.597406 0.648066 0.373816
0.784176 0.616632 0.407080
0.898741 0.603876 0.433326
0.342107 0.744228 0.478431
0.371130 0.742947 0.476600
0.493721 0.745907 0.469368
0.705379 0.757504 0.481300
0.878843 0.760983 0.512627
0.414008 0.859953 0.574731
0.430701 0.859434 0.573724
0.493812 0.858457 0.570855
0.646662 0.873716 0.563745
0.842374 0.887846 0.587396
0.201419 0.000000 0.589014
0.414954 0.000000 0.584955
0.626612 0.276829 0.521111
0.769223 0.351141 0.480018
0.866484 0.435279 0.479957
0.248112 0.372229 0.597833
0.433783 0.397223 0.590021
0.615900 0.436103 0.541009
0.762387 0.440955 0.499580
0.856565 0.499641 0.510277
0.435218 0.642969 0.589227
0.486793 0.641779 0.592401
0.610285 0.645777 0.584649
0.748501 0.633967 0.582727
0.860777 0.620508 0.562493
0.493690 0.740688 0.611933
0.493690 0.739437 0.601373
0.544060 0.734524 0.592096
0.706538 0.753689 0.600061
0.866239 0.760098 0.613794
0.454444 0.858000 0.635767
0.468727 0.857847 0.635157
0.522850 0.856901 0.631647
0.645502 0.867247 0.627070
0.840574 0.885313 0.640955
0.350378 0.155825 0.738888
0.449866 0.185519 0.735866
0.659663 0.297856 0.717464
0.737972 0.420539 0.653956
0.810513 0.478279 0.621851
0.411383 0.392920 0.734157
0.479652 0.400824 0.730526
0.648157 0.436042 0.714137
0.723323 0.490303 0.656977
0.807797 0.510918 0.628656
0.443702 0.622827 0.725338
0.485969 0.624353 0.722866
0.616785 0.631983 0.712886
0.690852 0.622919 0.672633
0.815091 0.604211 0.655573
0.554009 0.748653 0.719265
0.568139 0.747738 0.719265
0.620996 0.745937 0.721126
0.711116 0.751369 0.714015
0.856260 0.744930 0.713405
0.561059 0.860044 0.756283
0.572473 0.860044 0.756649
0.594903 0.861265 0.745846
0.640253 0.860655 0.717433
0.843656 0.885863 0.732235
0.453559 0.207706 0.851926
0.505058 0.223392 0.848997
0.651942 0.285954 0.839902
0.791928 0.410376 0.811734
0.825040 0.486519 0.753140
0.474006 0.366491 0.844419
0.516503 0.372808 0.842069
0.645014 0.400214 0.832975
0.778561 0.465492 0.806638
0.814237 0.517021 0.750362
0.445991 0.570459 0.839750
0.503838 0.585321 0.835142
0.618585 0.590173 0.825345
0.745998 0.592828 0.804013
0.798978 0.607568 0.760830
0.466712 0.743465 0.839689
0.486122 0.741054 0.838743
0.560815 0.734066 0.839353
0.712001 0.726925 0.835508
0.803769 0.714687 0.794919
0.561822 0.868254 0.840482
0.575280 0.867552 0.840513
0.631861 0.868559 0.844877
0.717372 0.868803 0.851957
0.843992 0.877440 0.858640
