20 Preset/Natural Girl/【3】LUT video cho PR-AE-FCPX/Lut Tone  (9).cube
# Created by Adobe Lightroom plugin Export LUT (1.24.0)
# www.johnrellis.com/lightroom/exportlut.htm
# Preset: 自然胶片-素材江湖（原版）02
# Color profile: C:\Program Files (x86)\Common Files\Adobe\Color\Profiles\Recommended\VideoHD.icc
LUT_3D_SIZE 5
DOMAIN_MIN 0.000000 0.000000 0.000000
DOMAIN_MAX 0.903226 0.903226 0.903226
0.000000 0.000000 0.000000
0.310613 0.018402 0.060243
0.600244 0.000000 0.088472
0.767514 0.183993 0.141726
0.856046 0.295598 0.214694
0.115663 0.291478 0.060761
0.326818 0.318212 0.000000
0.591485 0.294163 0.118776
0.757259 0.316228 0.174777
0.850462 0.367498 0.242741
0.276829 0.534966 0.182071
0.356573 0.523278 0.182559
0.573083 0.566308 0.000000
0.748348 0.532494 0.148501
0.820371 0.529564 0.331640
0.410529 0.652674 0.306981
0.440986 0.649470 0.307347
0.531579 0.652216 0.275853
0.680293 0.670680 0.107912
0.825284 0.658412 0.151980
0.506584 0.744137 0.414099
0.521050 0.742458 0.414008
0.568139 0.730129 0.403754
0.648890 0.747677 0.330877
0.781460 0.766629 0.108309
0.006744 0.116487 0.236149
0.316045 0.000000 0.249638
0.577417 0.076875 0.223941
0.734005 0.249821 0.260685
0.832273 0.321111 0.285405
0.124819 0.300755 0.262119
0.325963 0.307866 0.261448
0.571130 0.319310 0.271031
0.728450 0.342016 0.280247
0.826841 0.378332 0.303136
0.306920 0.530694 0.293706
0.373785 0.522576 0.292241
0.559106 0.549584 0.221408
0.723293 0.530632 0.297429
0.808408 0.533257 0.378668
0.425635 0.652094 0.362737
0.453193 0.649378 0.362676
0.538262 0.648463 0.344518
0.677699 0.667933 0.251957
0.818509 0.658473 0.269200
0.508354 0.743862 0.438453
0.522148 0.741970 0.437598
0.575036 0.735531 0.436286
0.652552 0.749111 0.375952
0.783505 0.769192 0.226047
0.000000 0.235508 0.481636
0.270054 0.203799 0.490150
0.586572 0.110262 0.475257
0.702174 0.241428 0.415686
0.813748 0.308385 0.399390
0.316350 0.417731 0.477241
0.339757 0.372473 0.487648
0.566674 0.313848 0.474128
0.698634 0.338170 0.431312
0.801114 0.394202 0.431830
0.321843 0.547784 0.494270
0.388861 0.547326 0.497169
0.554498 0.546075 0.492073
0.681636 0.545373 0.499611
0.783230 0.536858 0.485023
0.463020 0.656764 0.503624
0.481117 0.652430 0.499428
0.552514 0.641840 0.492897
0.668635 0.662043 0.459693
0.794491 0.658473 0.473610
0.504295 0.743404 0.512047
0.518303 0.742123 0.511437
0.569512 0.735714 0.507347
0.646693 0.738888 0.479438
0.773770 0.762509 0.392706
0.234623 0.379919 0.639429
0.302037 0.357855 0.642206
0.546563 0.290654 0.646448
0.722560 0.249668 0.614679
0.775570 0.328161 0.545830
0.366491 0.478981 0.632074
0.375463 0.449226 0.635126
0.542016 0.385168 0.639826
0.705531 0.341375 0.608820
0.766018 0.372564 0.548211
0.480659 0.596063 0.616510
0.504143 0.595117 0.615595
0.544457 0.562371 0.626154
0.659205 0.513542 0.600214
0.756130 0.495491 0.567559
0.461402 0.662867 0.627893
0.480995 0.661830 0.628717
0.555322 0.658625 0.631556
0.655299 0.655207 0.627039
0.756008 0.650324 0.626520
0.484718 0.752560 0.616114
0.499062 0.751614 0.616144
0.560296 0.747646 0.622034
0.637659 0.732143 0.604517
0.760952 0.756649 0.562371
0.384802 0.497475 0.741268
0.394873 0.478279 0.741970
0.510735 0.441321 0.743954
0.702724 0.330663 0.745266
0.812100 0.296757 0.711971
0.430243 0.539605 0.733242
0.432685 0.522057 0.734585
0.512810 0.478950 0.737270
0.690639 0.383093 0.738705
0.801968 0.342443 0.707240
0.533135 0.641657 0.721248
0.539300 0.634974 0.721492
0.536461 0.586053 0.725368
0.654292 0.515679 0.726772
0.774777 0.467170 0.701900
0.545342 0.694728 0.720882
0.555230 0.693263 0.719966
0.595972 0.691371 0.720638
0.633173 0.658320 0.731685
0.742092 0.609461 0.708827
0.478523 0.750484 0.725338
0.490150 0.749935 0.725795
0.535576 0.750546 0.730495
0.607843 0.750607 0.736843
0.733974 0.741421 0.727291
