20 Preset/Natural Girl/【3】LUT video cho PR-AE-FCPX/Lut Tone  (16).cube
# Created by Adobe Lightroom plugin Export LUT (1.24.0)
# www.johnrellis.com/lightroom/exportlut.htm
# Preset: 自然胶片-素材江湖（原版）09
# Color profile: C:\Program Files (x86)\Common Files\Adobe\Color\Profiles\Recommended\VideoHD.icc
LUT_3D_SIZE 8
DOMAIN_MIN 0.000000 0.000000 0.000000
DOMAIN_MAX 0.903226 0.903226 0.903226
0.011444 0.009552 0.010895
0.136538 0.078187 0.067628
0.304723 0.118074 0.105409
0.485084 0.170474 0.132143
0.623377 0.250889 0.179324
0.726375 0.346532 0.249516
0.790280 0.426307 0.318669
0.832364 0.489235 0.382483
0.102754 0.147341 0.107942
0.157198 0.161959 0.108949
0.328466 0.179141 0.119051
0.488319 0.218662 0.145052
0.618952 0.282628 0.192020
0.716548 0.360967 0.254887
0.780301 0.429175 0.316503
0.825254 0.490028 0.379919
0.153872 0.353338 0.194949
0.203525 0.353002 0.201968
0.347356 0.385870 0.199893
0.528283 0.400641 0.216312
0.650111 0.419471 0.269047
0.729610 0.457588 0.317082
0.786191 0.501244 0.373266
0.829709 0.542199 0.425422
0.302464 0.529198 0.330236
0.321141 0.526787 0.331792
0.389105 0.529534 0.341131
0.520714 0.567529 0.353094
0.660731 0.587671 0.370764
0.733822 0.581384 0.411414
0.784176 0.588251 0.451118
0.827817 0.607233 0.484016
0.413825 0.627008 0.432563
0.421973 0.625788 0.433295
0.455482 0.623255 0.439307
0.517601 0.634638 0.448829
0.608362 0.654780 0.457649
0.707668 0.667475 0.467842
0.764706 0.663600 0.503288
0.822354 0.675074 0.544732
0.498665 0.689509 0.517845
0.506706 0.691371 0.522454
0.523186 0.689570 0.525078
0.552636 0.686580 0.530541
0.601770 0.697627 0.537896
0.668574 0.712947 0.549218
0.750790 0.732937 0.565118
0.814084 0.741909 0.594385
0.570336 0.742550 0.596277
0.573236 0.742824 0.597375
0.581994 0.741115 0.598108
0.599054 0.738613 0.600641
0.624964 0.740017 0.604089
0.668055 0.753170 0.611322
0.725277 0.769528 0.620996
0.797879 0.789944 0.633448
0.622614 0.806546 0.660761
0.624170 0.806302 0.660914
0.631220 0.805722 0.661982
0.645167 0.805142 0.664698
0.658503 0.796353 0.660792
0.690578 0.805905 0.666896
0.736477 0.820554 0.675074
0.793118 0.835019 0.683467
0.084749 0.047974 0.115206
0.139406 0.074464 0.122042
0.289097 0.118349 0.139925
0.462135 0.202548 0.182559
0.602258 0.276036 0.222995
0.702510 0.352819 0.273198
0.769711 0.420081 0.324895
0.816831 0.479530 0.380072
0.100191 0.152041 0.142428
0.160830 0.161654 0.151400
0.316960 0.196506 0.169100
0.475868 0.245548 0.196689
0.606378 0.306554 0.235142
0.701717 0.371954 0.282048
0.765713 0.429328 0.328527
0.812619 0.483650 0.380774
0.187228 0.352483 0.229191
0.225437 0.353033 0.234806
0.345525 0.379797 0.238834
0.515221 0.399573 0.254246
0.631403 0.418433 0.291722
0.711299 0.452705 0.328496
0.769131 0.489723 0.370428
0.815183 0.530175 0.418463
0.301793 0.514885 0.334874
0.319799 0.513573 0.337102
0.384100 0.515282 0.348028
0.501213 0.546960 0.352911
0.636347 0.565087 0.364324
0.715145 0.563348 0.401740
0.768246 0.571923 0.437598
0.813565 0.593194 0.472358
0.414984 0.623133 0.437293
0.422217 0.621393 0.437293
0.453223 0.617578 0.441016
0.510399 0.625299 0.447791
0.598322 0.644556 0.453620
0.698909 0.658747 0.463630
0.756222 0.655421 0.498909
0.813931 0.667048 0.539208
0.495125 0.685298 0.516258
0.499489 0.685084 0.517174
0.516716 0.683558 0.520226
0.547387 0.681178 0.526848
0.596979 0.692561 0.535241
0.664576 0.708919 0.548302
0.746212 0.728573 0.563836
0.808713 0.736934 0.591821
0.565698 0.737728 0.592279
0.567010 0.736751 0.591608
0.575647 0.734951 0.592157
0.593530 0.733059 0.595636
0.620905 0.735378 0.600946
0.663813 0.748562 0.608331
0.719753 0.763943 0.616876
0.791592 0.783780 0.628595
0.618830 0.802121 0.657404
0.621088 0.802670 0.658350
0.627955 0.801938 0.659297
0.641962 0.801419 0.662043
0.661555 0.799710 0.665370
0.691371 0.806668 0.669184
0.735500 0.819486 0.675288
0.791989 0.833890 0.683497
0.123659 0.094667 0.221195
0.170962 0.093507 0.231327
0.304509 0.111147 0.250431
0.461128 0.188205 0.268254
0.592523 0.303868 0.306065
0.689296 0.398779 0.357214
0.757687 0.457649 0.394720
0.807218 0.506249 0.433265
0.151858 0.178866 0.252842
0.198154 0.185977 0.260594
0.317784 0.203525 0.270512
0.471290 0.249516 0.282261
0.590875 0.348089 0.325170
0.687251 0.414038 0.363256
0.754452 0.464332 0.395972
0.804166 0.510124 0.433753
0.202396 0.370855 0.316594
0.250126 0.373968 0.321263
0.360815 0.385199 0.336004
0.508934 0.414710 0.353521
0.618402 0.448157 0.375769
0.698817 0.481178 0.399817
0.757198 0.513024 0.427283
0.804654 0.546410 0.460151
0.348333 0.531182 0.401648
0.361730 0.531792 0.402472
0.417182 0.529900 0.410895
0.511223 0.552728 0.419226
0.633661 0.572625 0.433173
0.709621 0.576562 0.461402
0.759518 0.586999 0.483864
0.806668 0.605554 0.508171
0.438849 0.628138 0.474830
0.446052 0.627283 0.475410
0.474556 0.624811 0.479225
0.524010 0.627741 0.487404
0.603571 0.648127 0.494881
0.695521 0.661219 0.504662
0.751614 0.660090 0.532555
0.810178 0.672511 0.566400
0.509270 0.686946 0.539300
0.513542 0.686885 0.540246
0.528954 0.685237 0.542321
0.556146 0.682338 0.546777
0.599756 0.690486 0.554192
0.663478 0.707027 0.566888
0.743099 0.727657 0.582818
0.806546 0.737850 0.608545
0.574212 0.740536 0.607202
0.575677 0.739681 0.606744
0.583276 0.737362 0.606439
0.599359 0.734768 0.608118
0.623713 0.734218 0.612085
0.665248 0.748226 0.619806
0.721431 0.765438 0.629450
0.794675 0.787045 0.641718
0.619562 0.803433 0.663630
0.620844 0.802823 0.663355
0.627710 0.801938 0.664088
0.642542 0.802335 0.667659
0.662104 0.800504 0.670680
0.691859 0.806668 0.675380
0.736294 0.820249 0.682185
0.793210 0.835050 0.690669
0.174990 0.121035 0.362127
0.217868 0.124300 0.369726
0.350530 0.133669 0.387549
0.475624 0.195010 0.391608
0.573175 0.282963 0.395056
0.680049 0.350561 0.400549
0.739040 0.447669 0.437751
0.783841 0.515648 0.477943
0.222080 0.216770 0.388312
0.255100 0.219638 0.392065
0.367132 0.225956 0.404181
0.480964 0.262303 0.403479
0.581537 0.323796 0.407324
0.681239 0.378058 0.409064
0.734279 0.471656 0.450416
0.783383 0.523796 0.482918
0.288182 0.383246 0.424689
0.314061 0.389502 0.427405
0.390997 0.404486 0.436652
0.490547 0.413153 0.439002
0.600427 0.439673 0.442786
0.674159 0.499641 0.470527
0.738277 0.536095 0.493202
0.787900 0.563409 0.512413
0.348577 0.545617 0.477882
0.368688 0.545403 0.478737
0.438483 0.547082 0.485237
0.518303 0.552850 0.496223
0.619776 0.572076 0.507927
0.688014 0.582971 0.520043
0.739437 0.595850 0.531823
0.790036 0.612573 0.546868
0.469734 0.640070 0.534112
0.478248 0.639338 0.535180
0.504051 0.638178 0.537102
0.546746 0.635737 0.544091
0.609400 0.651179 0.552148
0.689540 0.664210 0.562676
0.744839 0.667201 0.582574
0.800717 0.677577 0.600458
0.538415 0.694514 0.583215
0.544518 0.695888 0.586450
0.556298 0.693721 0.586633
0.579278 0.691066 0.589410
0.612390 0.692958 0.594263
0.666499 0.708492 0.603052
0.741817 0.729152 0.615564
0.804257 0.738888 0.635187
0.584649 0.744808 0.629969
0.586938 0.744778 0.630426
0.595453 0.743801 0.631464
0.611292 0.741817 0.633265
0.632898 0.738430 0.635401
0.669276 0.749752 0.640955
0.722835 0.766598 0.648493
0.798184 0.789853 0.659327
0.622004 0.809018 0.678096
0.623621 0.808713 0.678126
0.630579 0.807706 0.678614
0.644373 0.806302 0.680201
0.664057 0.803891 0.682277
0.691554 0.805936 0.686213
0.736477 0.820523 0.693690
0.795346 0.837003 0.703670
0.260594 0.179843 0.494301
0.290074 0.185428 0.497902
0.385077 0.201846 0.504753
0.519158 0.217502 0.515404
0.601068 0.290623 0.506371
0.657954 0.362005 0.492439
0.727932 0.416785 0.493263
0.787350 0.467201 0.499184
0.298466 0.261662 0.506981
0.322606 0.265049 0.510185
0.402655 0.272557 0.515007
0.522240 0.277714 0.521630
0.600183 0.330510 0.511437
0.657069 0.387182 0.498939
0.727687 0.434455 0.498573
0.786007 0.479347 0.503655
0.359075 0.419562 0.531395
0.372747 0.420569 0.533135
0.435523 0.429725 0.536126
0.525048 0.424475 0.540337
0.590478 0.441169 0.525689
0.651575 0.463661 0.518029
0.724636 0.492592 0.516197
0.771786 0.536309 0.532250
0.413428 0.542443 0.557366
0.426062 0.544152 0.558190
0.472450 0.552422 0.562585
0.538079 0.566186 0.570123
0.596796 0.563073 0.565362
0.663294 0.573449 0.562066
0.713283 0.596063 0.572229
0.765164 0.609369 0.578790
0.460914 0.643671 0.585412
0.470527 0.643854 0.586297
0.505791 0.643824 0.589105
0.560113 0.644160 0.595880
0.607904 0.644892 0.600671
0.675074 0.657160 0.608942
0.727291 0.661524 0.617365
0.779782 0.667994 0.619959
0.541680 0.693202 0.613275
0.546471 0.693111 0.614252
0.563134 0.691585 0.616693
0.586511 0.689998 0.618738
0.614954 0.687160 0.621790
0.662959 0.702907 0.633021
0.735653 0.723842 0.645228
0.798306 0.732204 0.658991
0.594934 0.747921 0.658320
0.596674 0.747250 0.657954
0.598810 0.745876 0.653864
0.613611 0.744320 0.654231
0.636408 0.741390 0.656184
0.666712 0.744594 0.659327
0.719112 0.762448 0.666194
0.796201 0.785489 0.675990
0.613306 0.808957 0.689326
0.615015 0.808560 0.689235
0.622461 0.807248 0.689296
0.639185 0.807492 0.692653
0.660731 0.805112 0.694636
0.687007 0.801968 0.697292
0.731075 0.815885 0.704555
0.791714 0.833249 0.714382
0.357610 0.261692 0.606043
0.375708 0.266026 0.607233
0.438087 0.276890 0.607752
0.535180 0.294926 0.612451
0.643030 0.306767 0.615503
0.685542 0.374334 0.595056
0.720333 0.430426 0.572839
0.767117 0.472694 0.571466
0.375616 0.314794 0.604944
0.390112 0.316655 0.605127
0.444770 0.323003 0.606226
0.533043 0.332128 0.609491
0.636042 0.337011 0.611872
0.679042 0.393561 0.592615
0.715785 0.442237 0.572686
0.764462 0.480079 0.571374
0.433631 0.459083 0.622644
0.443000 0.458717 0.622553
0.480415 0.458259 0.623072
0.542870 0.452888 0.620905
0.628901 0.446845 0.621302
0.670375 0.474434 0.602625
0.709926 0.499092 0.587213
0.761563 0.522332 0.584039
0.485389 0.573968 0.639887
0.493050 0.575341 0.639612
0.520928 0.580072 0.640833
0.566308 0.584009 0.643702
0.624720 0.574273 0.643305
0.664057 0.577356 0.626947
0.705104 0.579736 0.616052
0.761227 0.587915 0.610681
0.509148 0.641840 0.648188
0.515129 0.642390 0.648341
0.539361 0.644862 0.649805
0.579461 0.649989 0.653162
0.623957 0.655848 0.656764
0.659419 0.650050 0.649653
0.705928 0.651423 0.644709
0.754940 0.659693 0.646326
0.544152 0.702358 0.659571
0.549950 0.703090 0.660945
0.566888 0.702510 0.662074
0.595636 0.701778 0.664485
0.631006 0.701015 0.668391
0.665827 0.702846 0.672267
0.731594 0.717952 0.681575
0.790768 0.721523 0.685206
0.591730 0.755062 0.688472
0.594476 0.755581 0.689204
0.603571 0.755337 0.689845
0.621485 0.754910 0.691463
0.644770 0.753964 0.691829
0.671382 0.748165 0.690059
0.720272 0.763088 0.696651
0.801053 0.785428 0.708095
0.617823 0.813596 0.720546
0.619165 0.813077 0.720089
0.626337 0.812406 0.720027
0.641993 0.812528 0.721645
0.655970 0.810605 0.716304
0.685939 0.806485 0.717861
0.725917 0.811429 0.723293
0.790280 0.831449 0.734463
0.435279 0.334417 0.686336
0.447242 0.337835 0.687404
0.487739 0.344640 0.686824
0.555169 0.356085 0.686854
0.635187 0.364202 0.685512
0.718685 0.369055 0.682277
0.742763 0.429145 0.658991
0.761532 0.473610 0.629480
0.442176 0.366827 0.682399
0.453285 0.370062 0.683711
0.490578 0.374395 0.683467
0.552758 0.379797 0.682734
0.629816 0.383551 0.681117
0.711940 0.383032 0.677455
0.735744 0.435706 0.653651
0.755795 0.474861 0.624720
0.479988 0.477577 0.688228
0.486671 0.477577 0.688167
0.513176 0.476448 0.687129
0.561517 0.474495 0.686061
0.626246 0.469215 0.683619
0.703243 0.459297 0.680690
0.728145 0.494484 0.660212
0.752499 0.519738 0.637140
0.518273 0.581598 0.697871
0.521782 0.580682 0.697139
0.547631 0.586358 0.695125
0.580468 0.583948 0.694270
0.626154 0.574578 0.691981
0.689052 0.561120 0.689570
0.715724 0.574121 0.671626
0.745510 0.578637 0.654047
0.554070 0.651820 0.702541
0.557031 0.651484 0.701747
0.572686 0.653285 0.701350
0.601312 0.658534 0.702907
0.631830 0.655482 0.701106
0.673274 0.641749 0.697230
0.701991 0.639551 0.681971
0.739956 0.634272 0.673060
0.569146 0.702876 0.710475
0.572412 0.703151 0.710780
0.584741 0.703883 0.711727
0.606928 0.705257 0.713680
0.636835 0.706874 0.716396
0.677211 0.711482 0.721553
0.710689 0.701595 0.710689
0.764096 0.693446 0.699184
0.581353 0.760372 0.726680
0.583795 0.760891 0.727260
0.592584 0.761227 0.727779
0.610986 0.761807 0.729122
0.640101 0.761135 0.730434
0.679072 0.760433 0.733516
0.719203 0.759335 0.734951
0.796323 0.773709 0.745205
0.608881 0.817533 0.751797
0.610864 0.817716 0.752071
0.620142 0.818875 0.753964
0.636591 0.819181 0.755398
0.661219 0.818814 0.757015
0.695186 0.818021 0.760006
0.725948 0.811917 0.754910
0.790494 0.830564 0.766445
0.501579 0.402899 0.752773
0.508934 0.404547 0.753201
0.534417 0.406226 0.751400
0.581628 0.411688 0.750729
0.642603 0.415564 0.748745
0.711513 0.414099 0.745174
0.777188 0.419226 0.740017
0.794308 0.467201 0.715877
0.504234 0.423468 0.749813
0.511315 0.425055 0.750301
0.536095 0.426307 0.749355
0.580835 0.429145 0.748318
0.640070 0.430671 0.746487
0.707881 0.427100 0.742947
0.773007 0.428260 0.737301
0.790127 0.471992 0.712947
0.522545 0.498695 0.749691
0.527733 0.498909 0.749691
0.547417 0.497322 0.748470
0.587274 0.498848 0.749386
0.638605 0.493599 0.746700
0.700343 0.483406 0.742458
0.764950 0.475776 0.737392
0.782895 0.507073 0.714168
0.550530 0.589075 0.752590
0.554467 0.589044 0.752895
0.568597 0.586694 0.752041
0.597253 0.583246 0.751583
0.638636 0.575860 0.749783
0.691859 0.562921 0.746304
0.754818 0.546227 0.741726
0.773404 0.563867 0.720272
0.570123 0.657496 0.760189
0.572595 0.657252 0.760647
0.580041 0.653101 0.759640
0.605524 0.653315 0.758846
0.640314 0.649073 0.755917
0.682612 0.635767 0.752071
0.740444 0.616938 0.747677
0.763912 0.623621 0.729580
0.585229 0.710903 0.768612
0.587030 0.710384 0.768093
0.595666 0.709346 0.767330
0.613764 0.709071 0.768093
0.642878 0.710292 0.771084
0.680934 0.704585 0.771145
0.734035 0.689601 0.768582
0.764950 0.684749 0.749569
0.593469 0.769436 0.786618
0.595331 0.769284 0.786557
0.603571 0.768704 0.786526
0.620600 0.768246 0.787320
0.647364 0.767544 0.788663
0.684810 0.767117 0.791165
0.732967 0.767941 0.793912
0.769711 0.748043 0.773678
0.597192 0.824308 0.795895
0.598840 0.824155 0.795804
0.606470 0.824247 0.796109
0.622858 0.825223 0.797726
0.647974 0.826230 0.799649
0.684291 0.826474 0.801907
0.734829 0.825376 0.806149
0.788327 0.825132 0.811765
