20 Preset/Natural Girl/【3】LUT video cho PR-AE-FCPX/Lut Tone  (14).cube
# Created by Adobe Lightroom plugin Export LUT (1.24.0)
# www.johnrellis.com/lightroom/exportlut.htm
# Preset: 自然胶片-素材江湖（原版）07
# Color profile: C:\Program Files (x86)\Common Files\Adobe\Color\Profiles\Recommended\VideoHD.icc
LUT_3D_SIZE 5
DOMAIN_MIN 0.000000 0.000000 0.000000
DOMAIN_MAX 0.903226 0.903226 0.903226
0.115938 0.109773 0.114900
0.184054 0.123476 0.126101
0.342870 0.140780 0.139223
0.535088 0.183719 0.167910
0.687953 0.256352 0.211154
0.175906 0.181247 0.147616
0.219028 0.197757 0.141939
0.361822 0.211429 0.156191
0.543267 0.246555 0.184085
0.694759 0.305730 0.228214
0.322240 0.358038 0.237675
0.349950 0.354589 0.236088
0.450233 0.415595 0.221683
0.582086 0.424323 0.247257
0.695491 0.440009 0.285100
0.465461 0.521355 0.353002
0.483253 0.519127 0.354345
0.534569 0.538659 0.350195
0.607904 0.574884 0.344823
0.723140 0.600458 0.381018
0.605035 0.672358 0.497566
0.614771 0.671199 0.498116
0.639429 0.660456 0.488228
0.703883 0.704372 0.490272
0.781796 0.747127 0.503410
0.120333 0.114443 0.154025
0.175418 0.121279 0.161013
0.323156 0.142397 0.177493
0.500175 0.191745 0.207492
0.657740 0.249119 0.236240
0.146395 0.182986 0.184665
0.202792 0.192081 0.190402
0.345068 0.211582 0.201450
0.512749 0.243229 0.220127
0.662898 0.291447 0.248234
0.293980 0.353735 0.262119
0.329442 0.349462 0.263340
0.418677 0.390417 0.250431
0.553582 0.406836 0.274052
0.683009 0.432532 0.305791
0.454200 0.522911 0.371954
0.473243 0.521263 0.373510
0.527520 0.534569 0.371893
0.600214 0.570825 0.365728
0.716304 0.596551 0.397925
0.597101 0.673213 0.504906
0.606775 0.671473 0.504845
0.645838 0.669062 0.507561
0.707393 0.709987 0.506645
0.788540 0.755123 0.521050
0.113069 0.123598 0.265263
0.176852 0.126131 0.272007
0.326085 0.138003 0.281987
0.465888 0.183841 0.284764
0.639643 0.222568 0.305516
0.135042 0.188571 0.297795
0.201602 0.194980 0.299779
0.340246 0.204593 0.300237
0.482856 0.233707 0.302770
0.643915 0.282292 0.328923
0.212711 0.367376 0.356023
0.259342 0.371038 0.358404
0.394049 0.387854 0.367712
0.529442 0.396185 0.367437
0.660700 0.415900 0.374090
0.391119 0.535729 0.426062
0.423713 0.531060 0.434730
0.499031 0.523430 0.438178
0.579339 0.563745 0.437354
0.695064 0.583520 0.452033
0.554650 0.675349 0.529503
0.567620 0.674800 0.530388
0.614862 0.670497 0.532097
0.683833 0.694911 0.532677
0.770993 0.743832 0.543236
0.000000 0.135653 0.428138
0.154696 0.136873 0.430915
0.339025 0.136355 0.434516
0.497261 0.159182 0.428290
0.591730 0.225315 0.400214
0.100313 0.199893 0.445441
0.183688 0.200931 0.445624
0.350927 0.201755 0.445930
0.497963 0.216983 0.433204
0.592615 0.258701 0.406439
0.184634 0.362036 0.480140
0.234195 0.365148 0.480110
0.374548 0.371557 0.479988
0.502434 0.367590 0.459052
0.618067 0.373999 0.445777
0.323278 0.538689 0.526726
0.346868 0.538109 0.525811
0.429267 0.542199 0.529320
0.544610 0.552544 0.535058
0.668513 0.547082 0.519127
0.430396 0.695827 0.578851
0.443854 0.695949 0.577173
0.514763 0.696559 0.582269
0.643122 0.683436 0.594537
0.754055 0.739864 0.603845
0.000000 0.143191 0.607904
0.000000 0.142184 0.606409
0.326360 0.135683 0.604425
0.525750 0.109071 0.597070
0.655695 0.155520 0.575006
0.000000 0.196414 0.608576
0.096101 0.196323 0.607660
0.330816 0.194034 0.604852
0.523125 0.179873 0.596490
0.651789 0.204471 0.574182
0.000000 0.325628 0.626123
0.000000 0.324163 0.624170
0.336492 0.345342 0.618067
0.516869 0.330510 0.606195
0.648066 0.332921 0.584802
0.171695 0.528191 0.653101
0.217227 0.526574 0.651545
0.339879 0.525292 0.651514
0.506096 0.518242 0.648280
0.653742 0.506126 0.626246
0.329351 0.697993 0.704097
0.347082 0.698024 0.704036
0.416724 0.702480 0.708797
0.532952 0.709407 0.715877
0.704433 0.725032 0.728939
