20 Preset/Natural Girl/【3】LUT video cho PR-AE-FCPX/Lut Tone  (2).cube
# Created by Adobe Lightroom plugin Export LUT (1.24.0)
# www.johnrellis.com/lightroom/exportlut.htm
# Preset: 自然胶片-素材江湖（原版）11
# Color profile: C:\Program Files (x86)\Common Files\Adobe\Color\Profiles\Recommended\VideoHD.icc
LUT_3D_SIZE 8
DOMAIN_MIN 0.000000 0.000000 0.000000
DOMAIN_MAX 0.903226 0.903226 0.903226
0.115938 0.109773 0.114900
0.192294 0.125612 0.126070
0.415839 0.152285 0.137758
0.635035 0.201938 0.147555
0.782986 0.287449 0.177127
0.892424 0.396002 0.251316
0.953979 0.471962 0.323919
1.000000 0.529931 0.388830
0.167300 0.186770 0.148928
0.218265 0.204471 0.146487
0.425299 0.227756 0.146700
0.620539 0.260929 0.156497
0.765560 0.322698 0.186435
0.868620 0.403571 0.248569
0.933013 0.468269 0.312779
0.986816 0.526421 0.378973
0.303441 0.396704 0.229648
0.342565 0.398688 0.230930
0.461585 0.446571 0.220310
0.659663 0.470192 0.231449
0.788632 0.488930 0.274784
0.870573 0.515679 0.325444
0.938262 0.556878 0.389624
0.988586 0.590997 0.442115
0.477394 0.597040 0.379736
0.496010 0.591180 0.377905
0.554620 0.608759 0.381262
0.667903 0.657557 0.408118
0.790707 0.668086 0.440253
0.870512 0.657527 0.467323
0.924712 0.656306 0.488930
0.971984 0.663569 0.514458
0.569177 0.687678 0.495888
0.578271 0.685237 0.494820
0.610986 0.687495 0.498116
0.665644 0.709316 0.513909
0.739071 0.734554 0.530053
0.825711 0.740841 0.544976
0.893553 0.735073 0.567773
0.949798 0.735103 0.590112
0.634730 0.749752 0.592706
0.644495 0.752987 0.599481
0.664668 0.748684 0.598566
0.693965 0.759701 0.605371
0.737545 0.775174 0.614679
0.796170 0.795682 0.629023
0.869627 0.807340 0.644251
0.927764 0.803494 0.660639
0.689052 0.804166 0.669856
0.693172 0.804318 0.670954
0.705074 0.800717 0.669123
0.725643 0.802152 0.670283
0.753017 0.811307 0.673823
0.793027 0.825589 0.682734
0.843290 0.842954 0.695155
0.904723 0.853544 0.706355
0.742489 0.858122 0.740475
0.744564 0.857633 0.740322
0.754147 0.856321 0.740627
0.773159 0.854520 0.742458
0.783505 0.852934 0.732448
0.815518 0.866392 0.743954
0.856748 0.883146 0.759335
0.902586 0.899565 0.773892
0.125246 0.118837 0.154757
0.178897 0.120943 0.159426
0.370275 0.148959 0.176791
0.582696 0.216831 0.202029
0.746242 0.295354 0.227481
0.851957 0.381353 0.273167
0.918730 0.449592 0.323949
0.974517 0.508782 0.379248
0.140200 0.186221 0.181949
0.209934 0.198734 0.187320
0.396216 0.228580 0.198398
0.592737 0.272770 0.213474
0.745663 0.334447 0.237980
0.845182 0.402686 0.279911
0.909148 0.457710 0.324407
0.965209 0.510796 0.375738
0.293858 0.388983 0.264530
0.336217 0.386664 0.267857
0.446357 0.432776 0.263371
0.637903 0.458595 0.275517
0.759121 0.472908 0.297856
0.842832 0.498268 0.333227
0.907958 0.530877 0.376410
0.965576 0.568963 0.425879
0.445777 0.568078 0.374731
0.465949 0.564202 0.374762
0.528374 0.581170 0.379797
0.632471 0.622492 0.390234
0.754574 0.630701 0.410834
0.838315 0.624140 0.437018
0.897520 0.626764 0.458991
0.951843 0.640711 0.490059
0.559747 0.680934 0.498543
0.567742 0.677546 0.495979
0.599756 0.675868 0.495094
0.650294 0.694118 0.504051
0.721340 0.716823 0.514549
0.809873 0.724514 0.530999
0.880491 0.721431 0.555444
0.938537 0.723140 0.578088
0.624720 0.741909 0.586969
0.630304 0.741176 0.587243
0.651484 0.737453 0.587274
0.682826 0.748806 0.595850
0.728084 0.765957 0.607416
0.788998 0.789029 0.625483
0.862760 0.800900 0.640314
0.921324 0.796933 0.654932
0.679866 0.796902 0.662348
0.681849 0.795102 0.660426
0.693812 0.791318 0.658198
0.715938 0.792874 0.660334
0.745724 0.804410 0.667506
0.785946 0.818936 0.676509
0.835142 0.835203 0.686458
0.896696 0.845243 0.695521
0.733944 0.851957 0.732509
0.737362 0.852506 0.734066
0.746670 0.850919 0.733913
0.765927 0.849058 0.735683
0.788083 0.857237 0.741787
0.816617 0.867582 0.748287
0.854734 0.881559 0.758968
0.900450 0.897765 0.772763
0.134157 0.137911 0.263157
0.191257 0.131258 0.276646
0.344701 0.134920 0.278813
0.561395 0.184665 0.296574
0.730007 0.315496 0.338537
0.836698 0.420081 0.386694
0.905425 0.488075 0.426673
0.964324 0.539513 0.464515
0.182712 0.217411 0.293462
0.227756 0.218235 0.304265
0.370397 0.220523 0.304997
0.572442 0.253269 0.310796
0.728450 0.357122 0.351415
0.828153 0.437171 0.389990
0.897398 0.492988 0.423255
0.957336 0.541466 0.460670
0.224704 0.408331 0.371008
0.284886 0.412665 0.372045
0.440040 0.433783 0.381628
0.615930 0.460304 0.395270
0.744137 0.493385 0.413977
0.828580 0.523003 0.435309
0.894102 0.553643 0.461707
0.952575 0.585687 0.492256
0.435767 0.591333 0.464912
0.462257 0.590295 0.467903
0.534234 0.588434 0.471168
0.631891 0.630488 0.485359
0.747402 0.638392 0.504143
0.826230 0.637201 0.517876
0.887633 0.642847 0.531060
0.943359 0.654749 0.548669
0.554528 0.686336 0.550652
0.563806 0.684443 0.549798
0.600061 0.678248 0.548730
0.650111 0.696620 0.560449
0.720577 0.722560 0.574578
0.803861 0.727993 0.585046
0.873381 0.726009 0.601190
0.930694 0.727565 0.613733
0.621454 0.744198 0.616632
0.627161 0.743832 0.617304
0.647303 0.739834 0.616297
0.678553 0.744869 0.620111
0.721798 0.761898 0.630426
0.782315 0.785855 0.647761
0.856138 0.798245 0.662135
0.917235 0.797391 0.676814
0.678920 0.800931 0.682582
0.681117 0.799344 0.680903
0.692103 0.794797 0.677424
0.714199 0.791501 0.675868
0.742824 0.802640 0.681880
0.783627 0.818357 0.691920
0.834775 0.837064 0.705074
0.897673 0.848478 0.716243
0.730800 0.853635 0.742672
0.732326 0.852628 0.741665
0.741573 0.850828 0.741176
0.762570 0.850248 0.744717
0.785794 0.855802 0.749447
0.816068 0.868040 0.758389
0.855344 0.883177 0.770352
0.901640 0.900084 0.784512
0.125032 0.164920 0.423804
0.195590 0.163363 0.435828
0.383978 0.129641 0.457740
0.527276 0.177523 0.426734
0.678859 0.260441 0.429267
0.810086 0.352087 0.440345
0.868864 0.483772 0.500877
0.931426 0.541527 0.531212
0.206210 0.258366 0.458656
0.251591 0.255100 0.463935
0.407111 0.226871 0.478431
0.543633 0.251682 0.446693
0.691646 0.313481 0.447425
0.808011 0.391577 0.455909
0.866392 0.499641 0.508202
0.929290 0.551202 0.536187
0.312718 0.428748 0.501152
0.348241 0.436133 0.503868
0.437903 0.436591 0.513817
0.562829 0.429633 0.496315
0.711788 0.464851 0.502495
0.797116 0.533196 0.536370
0.869780 0.576532 0.561639
0.931182 0.603754 0.575525
0.367193 0.608637 0.577417
0.393805 0.608392 0.576593
0.494881 0.607416 0.574762
0.613062 0.623896 0.587274
0.716182 0.628534 0.591821
0.792081 0.634607 0.592950
0.859403 0.645686 0.599451
0.921874 0.659022 0.608270
0.531426 0.705043 0.622644
0.549493 0.702602 0.628107
0.592828 0.695735 0.630762
0.647333 0.698085 0.635492
0.714961 0.727108 0.649622
0.793668 0.731075 0.656031
0.861418 0.730739 0.661830
0.917388 0.730251 0.661097
0.622370 0.757870 0.674372
0.630884 0.760189 0.678553
0.648890 0.755001 0.675135
0.682002 0.749172 0.672786
0.722011 0.766171 0.681514
0.778622 0.788205 0.692683
0.849302 0.797543 0.701869
0.911559 0.797848 0.711849
0.672847 0.806851 0.713558
0.676478 0.806516 0.713802
0.689693 0.803891 0.712856
0.713893 0.798734 0.710872
0.743221 0.805112 0.714199
0.782193 0.820249 0.722377
0.832578 0.838621 0.733242
0.895506 0.849363 0.743282
0.728267 0.861234 0.766873
0.730343 0.860685 0.766506
0.739620 0.858732 0.765621
0.758358 0.855833 0.765255
0.783474 0.855253 0.766232
0.813718 0.867857 0.774716
0.854429 0.884489 0.787747
0.903807 0.904143 0.804685
0.162203 0.221317 0.596612
0.226566 0.221439 0.602625
0.385931 0.207248 0.610163
0.586419 0.120119 0.618738
0.670344 0.245151 0.562951
0.750820 0.335119 0.538689
0.845731 0.419440 0.544579
0.916045 0.496559 0.566583
0.244114 0.304906 0.613764
0.285771 0.303593 0.618982
0.411505 0.285435 0.623682
0.591669 0.221256 0.625910
0.673793 0.298650 0.572534
0.752834 0.368536 0.547784
0.844114 0.442573 0.552819
0.911589 0.516808 0.578149
0.372015 0.480323 0.638849
0.387335 0.478065 0.640620
0.462043 0.471321 0.642878
0.594415 0.424994 0.645380
0.669032 0.440742 0.594965
0.749996 0.468971 0.573846
0.834989 0.515221 0.579767
0.892607 0.580713 0.615564
0.452033 0.604883 0.669123
0.469184 0.606683 0.669337
0.530755 0.616632 0.672602
0.597345 0.614466 0.674189
0.666865 0.598688 0.647028
0.753719 0.612634 0.644648
0.822599 0.634302 0.652369
0.890745 0.647120 0.653864
0.492592 0.703334 0.694392
0.504509 0.703914 0.695125
0.549676 0.703365 0.694667
0.619501 0.700893 0.693812
0.691310 0.712001 0.699977
0.765621 0.712703 0.699794
0.829679 0.711452 0.693507
0.893034 0.713252 0.689601
0.571954 0.756710 0.698116
0.578454 0.756435 0.698573
0.607111 0.752346 0.701808
0.653315 0.744320 0.705104
0.698024 0.747463 0.707088
0.761929 0.778317 0.725856
0.834592 0.786831 0.735073
0.899840 0.787961 0.740291
0.654688 0.811917 0.748440
0.656672 0.810422 0.746731
0.667689 0.806302 0.742397
0.693874 0.801663 0.739986
0.729549 0.795438 0.737270
0.769070 0.812253 0.745846
0.821714 0.832578 0.756191
0.885649 0.840574 0.761990
0.702083 0.860716 0.780484
0.704311 0.859983 0.779873
0.714443 0.857572 0.778347
0.738735 0.856962 0.781369
0.768215 0.852232 0.780362
0.801694 0.860288 0.786282
0.843839 0.877958 0.798642
0.895201 0.898405 0.813901
0.269841 0.306859 0.734981
0.306676 0.306767 0.736599
0.415808 0.296178 0.735531
0.564477 0.262791 0.734981
0.731991 0.166720 0.735012
0.762356 0.327184 0.666377
0.808591 0.405341 0.629816
0.883421 0.478340 0.635950
0.312383 0.361944 0.728603
0.337865 0.359442 0.728664
0.427771 0.346777 0.728786
0.562158 0.313359 0.728969
0.722316 0.232670 0.727199
0.753689 0.352880 0.661463
0.801022 0.418677 0.627070
0.878599 0.485267 0.634150
0.420233 0.516228 0.742672
0.440742 0.520104 0.742763
0.494636 0.514244 0.744015
0.578820 0.477729 0.739284
0.712551 0.413642 0.734127
0.744656 0.465003 0.675776
0.792477 0.495094 0.646571
0.874083 0.540063 0.654566
0.536309 0.650752 0.760769
0.545861 0.652064 0.759823
0.574670 0.654047 0.760281
0.618097 0.644282 0.762173
0.700313 0.600702 0.755428
0.735256 0.601221 0.710353
0.796719 0.606714 0.694453
0.873564 0.621820 0.694209
0.551995 0.704921 0.763485
0.559503 0.705348 0.763424
0.588800 0.707790 0.764004
0.636316 0.713222 0.766140
0.680476 0.704768 0.762051
0.729274 0.688228 0.736751
0.799130 0.690669 0.731502
0.864134 0.699611 0.732570
0.560571 0.766445 0.770321
0.568322 0.768032 0.772213
0.589654 0.767575 0.771603
0.630732 0.765591 0.769345
0.687343 0.760891 0.768399
0.750484 0.774411 0.775631
0.820737 0.775723 0.777188
0.880705 0.771267 0.768521
0.618036 0.821744 0.782315
0.623072 0.822263 0.783200
0.638666 0.820981 0.782895
0.667353 0.818418 0.782345
0.717556 0.810666 0.787747
0.759213 0.809079 0.784451
0.816403 0.833280 0.795651
0.883330 0.838987 0.800717
0.661219 0.869688 0.799832
0.662776 0.868833 0.798856
0.679042 0.866850 0.801724
0.716823 0.864469 0.812924
0.745296 0.859129 0.807736
0.786313 0.851926 0.805112
0.832822 0.872679 0.818936
0.889464 0.896300 0.834928
0.354620 0.378241 0.815122
0.377142 0.378790 0.816678
0.447700 0.371069 0.816068
0.557122 0.350530 0.815640
0.684291 0.298070 0.811551
0.809934 0.222599 0.799863
0.817716 0.368261 0.729915
0.851621 0.438087 0.691188
0.375677 0.414832 0.808072
0.395087 0.415839 0.810208
0.456641 0.406195 0.809873
0.554620 0.381323 0.808164
0.676234 0.329412 0.803861
0.799588 0.256443 0.791409
0.807828 0.377539 0.721309
0.842405 0.437659 0.682368
0.464393 0.545800 0.813169
0.474922 0.545220 0.812985
0.508080 0.532799 0.811398
0.574578 0.507591 0.809293
0.672236 0.459510 0.803952
0.788540 0.395697 0.792935
0.800931 0.465126 0.731899
0.838041 0.501061 0.699672
0.544854 0.657343 0.820829
0.548058 0.655024 0.819669
0.566552 0.649470 0.818265
0.612634 0.642267 0.816098
0.673152 0.606287 0.810300
0.771481 0.551568 0.800656
0.788357 0.575250 0.750057
0.825986 0.579644 0.720882
0.583154 0.718929 0.821561
0.587488 0.718379 0.820371
0.609247 0.720333 0.819364
0.645991 0.725002 0.820188
0.675898 0.705562 0.814908
0.746181 0.659113 0.803708
0.771450 0.656001 0.762600
0.829252 0.656703 0.750210
0.590326 0.766293 0.824826
0.595087 0.766690 0.825071
0.613886 0.767453 0.825559
0.647608 0.769100 0.826566
0.692988 0.771359 0.827390
0.735286 0.762264 0.823697
0.776822 0.741787 0.797604
0.846891 0.737881 0.789364
0.596002 0.822141 0.831968
0.600610 0.822599 0.832547
0.615778 0.822293 0.832486
0.644404 0.822080 0.832639
0.684779 0.820584 0.831296
0.738827 0.816312 0.828519
0.802152 0.825589 0.834104
0.869596 0.823117 0.831907
0.636957 0.873381 0.839902
0.640406 0.873442 0.840055
0.655787 0.874357 0.841733
0.680964 0.873869 0.842344
0.715877 0.872282 0.842618
0.771145 0.868223 0.850126
0.819303 0.866423 0.847684
0.884947 0.896574 0.866117
0.421057 0.437385 0.879088
0.434546 0.436469 0.879637
0.480140 0.426337 0.877836
0.561334 0.408179 0.877501
0.663661 0.369299 0.875395
0.779202 0.289433 0.870054
0.880278 0.234623 0.857053
0.875853 0.381048 0.789792
0.431922 0.462837 0.874571
0.444312 0.462318 0.875273
0.486732 0.452857 0.874479
0.561883 0.432807 0.873747
0.660121 0.393805 0.871733
0.773770 0.317449 0.866575
0.874022 0.260563 0.852964
0.869718 0.389532 0.785183
0.484321 0.556756 0.870970
0.491920 0.554986 0.871122
0.520012 0.544671 0.870054
0.579858 0.529412 0.871733
0.659724 0.491249 0.868894
0.762020 0.423590 0.862943
0.862028 0.366461 0.850370
0.860563 0.447852 0.786313
0.518273 0.636866 0.869810
0.527459 0.638697 0.870176
0.564233 0.645441 0.869169
0.606348 0.636408 0.868711
0.662867 0.607385 0.866545
0.746242 0.555413 0.861509
0.843748 0.496193 0.850492
0.847868 0.535729 0.793637
0.581903 0.721523 0.868254
0.588037 0.722957 0.868833
0.596796 0.718013 0.868650
0.620905 0.710475 0.869505
0.667872 0.699306 0.866270
0.727138 0.659541 0.860258
0.819974 0.603113 0.850278
0.833646 0.619654 0.803586
0.593378 0.767636 0.870878
0.596460 0.767086 0.870298
0.611536 0.766537 0.869200
0.643030 0.768429 0.869322
0.689906 0.774563 0.871366
0.726955 0.757168 0.869718
0.801358 0.711757 0.862547
0.828611 0.707851 0.826169
0.609339 0.822812 0.879850
0.612665 0.822751 0.879850
0.627039 0.822629 0.879881
0.656214 0.823545 0.880888
0.697627 0.825040 0.882292
0.746731 0.826291 0.882994
0.787503 0.813748 0.877775
0.822568 0.782895 0.846830
0.616938 0.875700 0.884428
0.619471 0.875456 0.884245
0.631769 0.875273 0.884367
0.657435 0.875914 0.885557
0.693751 0.876463 0.886931
0.739193 0.877043 0.888334
0.798795 0.876555 0.889738
0.869230 0.887999 0.899962
