20 Preset/Natural Girl/【3】LUT video cho PR-AE-FCPX/Lut Tone  (8).cube
# Created by Adobe Lightroom plugin Export LUT (1.24.0)
# www.johnrellis.com/lightroom/exportlut.htm
# Preset: 自然胶片-素材江湖（原版）01
# Color profile: C:\Program Files (x86)\Common Files\Adobe\Color\Profiles\Recommended\VideoHD.icc
LUT_3D_SIZE 32
DOMAIN_MIN 0.0 0.0 0.0
DOMAIN_MAX 1.0 1.0 1.0
0.049683 0.044251 0.049439
0.049683 0.044251 0.049439
0.094453 0.040711 0.048707
0.135866 0.039948 0.051453
0.181125 0.049165 0.056336
0.242802 0.038453 0.059663
0.310948 0.013367 0.059693
0.376532 0.000000 0.059266
0.436561 0.000000 0.061646
0.490547 0.000000 0.061952
0.539940 0.000000 0.061494
0.584924 0.000000 0.057130
0.625299 0.000000 0.055512
0.661677 0.000000 0.053834
0.693812 0.000000 0.056764
0.722225 0.000000 0.065553
0.747494 0.078492 0.079805
0.770230 0.119295 0.092226
0.791714 0.148196 0.102174
0.810941 0.175814 0.114778
0.827085 0.199313 0.128267
0.841154 0.220645 0.140993
0.854154 0.239658 0.154208
0.866972 0.257511 0.165988
0.879698 0.274296 0.177523
0.892332 0.290623 0.189242
0.905211 0.306554 0.200992
0.918486 0.322148 0.212222
0.932189 0.337499 0.223575
0.946471 0.353124 0.235233
0.961395 0.368658 0.247074
0.977081 0.384558 0.259403
0.049683 0.044251 0.049439
0.049683 0.044251 0.049439
0.097810 0.045136 0.050172
0.136568 0.055238 0.051575
0.181949 0.060853 0.055756
0.243900 0.052827 0.058595
0.310826 0.028107 0.059968
0.375433 0.000000 0.059632
0.435431 0.000000 0.061738
0.488991 0.000000 0.062257
0.538323 0.000000 0.061707
0.583062 0.000000 0.057710
0.623590 0.000000 0.054139
0.659907 0.000000 0.055207
0.692073 0.000000 0.057679
0.720729 0.008057 0.065614
0.746120 0.089937 0.079652
0.769039 0.122560 0.091218
0.790433 0.150912 0.101625
0.809384 0.176669 0.114137
0.825406 0.199741 0.127291
0.839322 0.219821 0.140017
0.852232 0.238712 0.152834
0.864897 0.256291 0.164889
0.877531 0.273045 0.176425
0.890227 0.288823 0.187625
0.903136 0.304509 0.198886
0.916381 0.320287 0.210513
0.930205 0.335515 0.221683
0.944549 0.351019 0.233188
0.959533 0.366735 0.245060
0.975250 0.382574 0.257145
0.021088 0.097139 0.051118
0.036103 0.098116 0.050446
0.099001 0.098543 0.048554
0.139620 0.097719 0.051423
0.188540 0.097597 0.055756
0.250492 0.097017 0.058412
0.316716 0.090639 0.059632
0.379889 0.073060 0.063233
0.438331 0.044556 0.063508
0.491127 0.013642 0.060975
0.539635 0.000000 0.057404
0.584100 0.000000 0.052735
0.623957 0.000000 0.051362
0.659846 0.000000 0.052674
0.691890 0.028595 0.056641
0.720272 0.087709 0.065736
0.745602 0.115816 0.080751
0.768368 0.141024 0.092714
0.789761 0.164553 0.102724
0.808469 0.187137 0.115328
0.824369 0.207706 0.128084
0.838224 0.227024 0.140475
0.851041 0.244602 0.153811
0.863767 0.261021 0.165011
0.876280 0.277043 0.176974
0.888945 0.292119 0.188235
0.901854 0.307622 0.199435
0.915160 0.322576 0.210666
0.929015 0.337621 0.221592
0.943328 0.352941 0.233341
0.958312 0.368200 0.245182
0.974060 0.383795 0.257115
0.012421 0.135409 0.063203
0.020203 0.135958 0.062715
0.078828 0.138796 0.058564
0.136385 0.141085 0.056764
0.197848 0.144625 0.059205
0.263127 0.143771 0.063050
0.328588 0.140810 0.064149
0.389197 0.136019 0.062593
0.445777 0.128664 0.059113
0.496773 0.120150 0.056458
0.544305 0.112673 0.049836
0.587091 0.108186 0.047944
0.626307 0.107271 0.047395
0.661250 0.113649 0.051118
0.692500 0.122835 0.056397
0.720363 0.137514 0.069337
0.745327 0.153017 0.083223
0.767605 0.170657 0.095277
0.788663 0.189212 0.106172
0.806638 0.206973 0.117433
0.822232 0.223575 0.130159
0.835813 0.240085 0.143343
0.848753 0.255711 0.155337
0.861540 0.270665 0.166903
0.874357 0.285466 0.178775
0.887327 0.300084 0.189975
0.900572 0.314794 0.201328
0.914092 0.329442 0.212863
0.928069 0.343969 0.223880
0.942535 0.358526 0.235142
0.957427 0.373297 0.246983
0.972992 0.388067 0.258366
0.000000 0.194186 0.080690
0.000000 0.194583 0.080293
0.000000 0.196414 0.080568
0.107881 0.204288 0.062196
0.189609 0.207889 0.055177
0.269993 0.210697 0.045502
0.336431 0.206271 0.045472
0.400336 0.196506 0.047303
0.454871 0.189303 0.043488
0.504173 0.183139 0.041291
0.549584 0.177005 0.037415
0.591180 0.173556 0.037018
0.628962 0.172305 0.039155
0.663203 0.174350 0.045624
0.693690 0.179385 0.057343
0.720912 0.188083 0.075654
0.745602 0.197391 0.088930
0.768063 0.209110 0.099458
0.788327 0.222385 0.110689
0.805692 0.235447 0.123384
0.820981 0.248478 0.135317
0.834440 0.261418 0.147707
0.847288 0.274510 0.160311
0.860197 0.287419 0.171572
0.873106 0.300359 0.183078
0.886168 0.313909 0.194095
0.899382 0.327062 0.205722
0.913024 0.340368 0.216464
0.927001 0.353796 0.227481
0.941344 0.367559 0.238804
0.956268 0.381231 0.249943
0.971740 0.395300 0.261051
0.000000 0.263218 0.064088
0.000000 0.263493 0.062287
0.000000 0.264317 0.063142
0.000000 0.268986 0.049195
0.146334 0.277562 0.018799
0.248325 0.281163 0.004547
0.339696 0.282628 0.000000
0.402991 0.272221 0.000000
0.461280 0.260563 0.000977
0.514519 0.248997 0.012146
0.557977 0.241947 0.015564
0.597925 0.237156 0.020539
0.634272 0.234379 0.031708
0.666987 0.234165 0.046937
0.696529 0.236027 0.062531
0.723049 0.239872 0.083589
0.746853 0.245396 0.095918
0.769284 0.253361 0.107881
0.788693 0.261814 0.119356
0.805447 0.270817 0.132143
0.820249 0.280430 0.144717
0.833677 0.290105 0.156344
0.856321 0.313207 0.178622
0.869169 0.323735 0.189853
0.881926 0.334478 0.201114
0.894743 0.345617 0.212039
0.907713 0.356878 0.222629
0.921019 0.368170 0.232914
0.934600 0.379980 0.243748
0.948699 0.391974 0.254307
0.963317 0.404059 0.264897
0.978454 0.416419 0.275425
0.000000 0.335668 0.027161
0.000000 0.335821 0.027619
0.000000 0.336065 0.027924
0.000000 0.337285 0.025666
0.000000 0.345312 0.000000
0.198764 0.351446 0.000000
0.307805 0.354559 0.000000
0.406500 0.356847 0.000000
0.465736 0.342657 0.000000
0.519158 0.329290 0.000000
0.568383 0.316594 0.000000
0.610956 0.306981 0.011353
0.645258 0.301640 0.034577
0.675990 0.298466 0.059022
0.703700 0.297002 0.082887
0.728634 0.297185 0.096529
0.752834 0.300084 0.109316
0.773953 0.304356 0.122072
0.792233 0.309270 0.135805
0.808469 0.314794 0.147616
0.823087 0.321233 0.160403
0.837125 0.328954 0.172824
0.850919 0.337469 0.185183
0.864622 0.346624 0.196902
0.878172 0.356054 0.208042
0.891386 0.365881 0.219303
0.904662 0.375158 0.229343
0.917967 0.384955 0.239780
0.931670 0.395239 0.249516
0.945708 0.405615 0.259403
0.960296 0.416449 0.269444
0.975433 0.427680 0.279911
0.000000 0.393652 0.016785
0.000000 0.393683 0.020783
0.000000 0.393591 0.016327
0.000000 0.394049 0.015412
0.000000 0.397681 0.000000
0.106569 0.405890 0.000000
0.252415 0.409857 0.000000
0.357366 0.412696 0.000000
0.455726 0.418250 0.000000
0.512169 0.402167 0.000000
0.561242 0.388922 0.000000
0.605402 0.376898 0.000000
0.644984 0.366644 0.035096
0.677852 0.359136 0.082582
0.704616 0.354345 0.099947
0.730098 0.352453 0.112734
0.752682 0.351812 0.125368
0.772427 0.351873 0.137911
0.789944 0.352575 0.149477
0.805570 0.354833 0.161807
0.819883 0.358160 0.173342
0.833951 0.362676 0.184726
0.847715 0.368444 0.196628
0.861418 0.374914 0.207858
0.875059 0.382208 0.218448
0.888396 0.389715 0.228611
0.901701 0.397436 0.238560
0.915190 0.405371 0.247807
0.928954 0.413855 0.257420
0.943023 0.423041 0.267063
0.957733 0.432258 0.276432
0.972900 0.442359 0.286442
0.000000 0.444617 0.053803
0.000000 0.444770 0.051820
0.000000 0.444526 0.053468
0.000000 0.444709 0.052216
0.000000 0.444831 0.051423
0.000000 0.451209 0.004852
0.190433 0.457923 0.000000
0.307103 0.460761 0.000000
0.403082 0.463508 0.000000
0.493172 0.466438 0.000000
0.552728 0.456031 0.000000
0.596735 0.443336 0.000000
0.636194 0.431647 0.026001
0.672511 0.422156 0.093874
0.704952 0.414160 0.118959
0.730739 0.408026 0.135531
0.751919 0.403418 0.146609
0.770504 0.400122 0.158785
0.787320 0.397833 0.169131
0.802487 0.396826 0.179965
0.816831 0.397253 0.190524
0.830808 0.399268 0.201694
0.844663 0.402441 0.211887
0.858427 0.406653 0.222416
0.872160 0.411627 0.231907
0.885649 0.416876 0.241398
0.899046 0.422736 0.250462
0.912596 0.429053 0.259312
0.926513 0.435828 0.267857
0.940673 0.443214 0.276799
0.955322 0.451331 0.285954
0.970611 0.459846 0.295048
0.000000 0.489815 0.104860
0.000000 0.489693 0.104860
0.000000 0.489479 0.104738
0.000000 0.489235 0.104128
0.000000 0.488899 0.104524
0.000000 0.491554 0.095888
0.114107 0.497383 0.057221
0.257603 0.502342 0.006714
0.357092 0.504631 0.000000
0.444404 0.507042 0.000000
0.526604 0.509239 0.000000
0.587488 0.503563 0.000000
0.627375 0.491707 0.035889
0.662989 0.480781 0.102907
0.695125 0.471015 0.129824
0.723812 0.461921 0.151827
0.748806 0.454047 0.171389
0.767910 0.447883 0.182742
0.784237 0.443214 0.192782
0.799191 0.439765 0.202579
0.813596 0.437659 0.211521
0.827604 0.436835 0.220218
0.841215 0.437446 0.229374
0.854826 0.439002 0.238285
0.868376 0.441444 0.246433
0.881804 0.444831 0.255009
0.895323 0.448707 0.263188
0.909087 0.453346 0.271031
0.923125 0.458747 0.279362
0.937499 0.464759 0.287999
0.952422 0.471565 0.296483
0.967895 0.479072 0.305486
0.000000 0.528130 0.138582
0.000000 0.528069 0.138369
0.000000 0.528008 0.139071
0.000000 0.527764 0.138735
0.000000 0.527398 0.139315
0.000000 0.527520 0.137881
0.000000 0.532250 0.125887
0.212131 0.538170 0.109071
0.317327 0.541863 0.100710
0.404913 0.544396 0.095003
0.484749 0.546685 0.087831
0.558831 0.548943 0.069123
0.617762 0.545098 0.064759
0.652949 0.533165 0.116548
0.684901 0.522148 0.142580
0.713283 0.511925 0.165133
0.738430 0.502464 0.184329
0.760555 0.493874 0.202121
0.780209 0.486580 0.218906
0.795315 0.481056 0.226841
0.809873 0.476967 0.234226
0.823880 0.474372 0.242039
0.837736 0.473030 0.249821
0.851560 0.472602 0.257145
0.865293 0.473213 0.264317
0.878782 0.474830 0.272007
0.892485 0.477089 0.279332
0.906432 0.480079 0.286168
0.920500 0.484047 0.293736
0.935058 0.488716 0.301274
0.950011 0.494179 0.309392
0.965667 0.500359 0.317388
0.000000 0.563684 0.173556
0.000000 0.563714 0.173495
0.000000 0.563561 0.173587
0.000000 0.563439 0.174319
0.000000 0.563165 0.173068
0.000000 0.562585 0.173770
0.000000 0.565179 0.168460
0.176242 0.569696 0.159518
0.282719 0.574762 0.146609
0.370611 0.576837 0.145022
0.448188 0.578668 0.145144
0.519432 0.580438 0.143404
0.596460 0.592554 0.156374
0.653468 0.590814 0.152438
0.684382 0.578393 0.176333
0.711482 0.566613 0.196841
0.735439 0.555566 0.214908
0.756893 0.545342 0.231205
0.776669 0.536797 0.246433
0.795590 0.529717 0.259525
0.812894 0.524224 0.271916
0.826932 0.519738 0.277012
0.840696 0.516228 0.282139
0.854276 0.514061 0.288243
0.867826 0.512779 0.293553
0.881254 0.512322 0.299168
0.894743 0.512474 0.304326
0.908263 0.513603 0.310094
0.922026 0.515618 0.316320
0.936278 0.518517 0.322515
0.951080 0.522240 0.329168
0.966552 0.526879 0.335973
0.000000 0.600061 0.212772
0.000000 0.600000 0.212802
0.000000 0.599542 0.212894
0.000000 0.599084 0.212131
0.000000 0.598169 0.212070
0.000000 0.597162 0.211398
0.000000 0.596796 0.210208
0.157534 0.600183 0.203922
0.262791 0.604181 0.195651
0.345769 0.607996 0.189090
0.421241 0.610071 0.190463
0.490394 0.612360 0.192508
0.554864 0.614649 0.193545
0.615473 0.616663 0.195071
0.670222 0.617121 0.194156
0.699123 0.604639 0.211490
0.723232 0.593133 0.228611
0.744869 0.582147 0.244175
0.765042 0.572778 0.258701
0.784176 0.564843 0.272129
0.802579 0.558221 0.284276
0.820127 0.553033 0.296361
0.835996 0.548791 0.304875
0.849851 0.545251 0.309056
0.863584 0.542718 0.313390
0.877165 0.541100 0.318212
0.890837 0.540307 0.322698
0.904601 0.540368 0.327642
0.918730 0.541253 0.332525
0.933196 0.543145 0.338293
0.948180 0.545830 0.344121
0.963775 0.549523 0.350652
0.000000 0.624811 0.242588
0.000000 0.624628 0.242557
0.000000 0.624292 0.242405
0.000000 0.623621 0.241489
0.000000 0.622705 0.240970
0.000000 0.621637 0.240299
0.000000 0.620386 0.239567
0.137606 0.621912 0.235416
0.243015 0.625177 0.229923
0.320806 0.629023 0.223331
0.392096 0.631952 0.220615
0.458503 0.633692 0.223636
0.520470 0.635431 0.226963
0.578149 0.637079 0.229496
0.632776 0.638300 0.231815
0.684810 0.639979 0.230350
0.711604 0.627283 0.243626
0.733333 0.616083 0.258457
0.753964 0.606226 0.272190
0.773404 0.597711 0.285130
0.792020 0.590478 0.296910
0.810147 0.584466 0.308263
0.827756 0.579736 0.319127
0.844999 0.575982 0.329808
0.859983 0.572808 0.335729
0.873808 0.570306 0.339025
0.887633 0.568444 0.342870
0.901549 0.567529 0.346685
0.915740 0.567468 0.351080
0.930419 0.568414 0.355962
0.945525 0.570275 0.361089
0.961273 0.573175 0.367041
0.000000 0.646235 0.270298
0.000000 0.646235 0.270024
0.000000 0.645869 0.269657
0.000000 0.645258 0.268681
0.000000 0.644343 0.268040
0.000000 0.643275 0.267033
0.000000 0.642115 0.266178
0.133577 0.641596 0.264500
0.231601 0.644129 0.260807
0.304295 0.647181 0.256382
0.369146 0.650538 0.250797
0.432410 0.652338 0.251957
0.490791 0.653681 0.255650
0.546044 0.654871 0.259159
0.598169 0.655818 0.261997
0.647486 0.656397 0.264591
0.697108 0.659327 0.263767
0.722713 0.647303 0.273320
0.743496 0.637263 0.286778
0.763333 0.628412 0.298619
0.782254 0.620752 0.310063
0.800656 0.614343 0.320806
0.818540 0.609033 0.331395
0.836118 0.604761 0.341588
0.853361 0.601343 0.351141
0.870390 0.598810 0.360754
0.884733 0.596368 0.364172
0.898863 0.594781 0.367590
0.913390 0.594110 0.371069
0.928283 0.594385 0.375372
0.943725 0.595727 0.380224
0.959808 0.598047 0.385840
0.000000 0.664210 0.295476
0.000000 0.664179 0.295323
0.000000 0.663966 0.294926
0.000000 0.663600 0.294987
0.000000 0.662989 0.294224
0.000000 0.662257 0.293278
0.031342 0.661433 0.292973
0.156863 0.660517 0.292485
0.230686 0.661738 0.290562
0.295750 0.664118 0.286900
0.354864 0.666621 0.283299
0.410742 0.669276 0.279301
0.466316 0.669917 0.282261
0.518273 0.670497 0.285557
0.567407 0.670924 0.288090
0.614343 0.671229 0.291051
0.659602 0.671534 0.294133
0.704891 0.673610 0.294377
0.733364 0.665583 0.300420
0.753445 0.656641 0.312016
0.772671 0.648981 0.323278
0.791501 0.642329 0.333776
0.809751 0.636805 0.344121
0.827756 0.632197 0.353460
0.845396 0.628473 0.363317
0.862791 0.625635 0.372564
0.880034 0.623529 0.381842
0.896880 0.621973 0.389685
0.911467 0.620691 0.392645
0.926421 0.620294 0.396002
0.941894 0.620752 0.399847
0.957946 0.622309 0.404791
0.000000 0.679530 0.319554
0.000000 0.679469 0.319219
0.000000 0.679347 0.319341
0.000000 0.679011 0.318669
0.000000 0.678553 0.318456
0.014801 0.678004 0.317998
0.133425 0.677272 0.317266
0.185458 0.676417 0.316625
0.233310 0.676020 0.315587
0.290837 0.677882 0.313298
0.344182 0.679988 0.310338
0.394934 0.682124 0.307134
0.444953 0.683833 0.305669
0.494301 0.684260 0.308721
0.541283 0.684688 0.311894
0.586206 0.685145 0.315007
0.629419 0.685634 0.317937
0.671412 0.686213 0.321019
0.713008 0.687587 0.322972
0.744411 0.683192 0.326116
0.763943 0.675471 0.336553
0.782986 0.668727 0.346685
0.801541 0.663050 0.356451
0.819730 0.658289 0.366308
0.837644 0.654383 0.375494
0.855344 0.651240 0.384558
0.873014 0.648859 0.393378
0.890623 0.647211 0.402228
0.908232 0.646418 0.411322
0.924926 0.645991 0.417578
0.940551 0.645991 0.421057
0.956847 0.646967 0.425116
0.000000 0.693385 0.343481
0.000000 0.693416 0.343450
0.094026 0.697383 0.351415
0.114229 0.697139 0.350805
0.140963 0.696712 0.350500
0.169436 0.696162 0.349798
0.199100 0.695430 0.349340
0.229709 0.694575 0.348363
0.260197 0.693629 0.347295
0.302220 0.694423 0.345892
0.347356 0.696193 0.343603
0.391943 0.698085 0.341344
0.435767 0.700099 0.337652
0.480354 0.701228 0.337591
0.524224 0.701595 0.340642
0.566461 0.701930 0.343481
0.607538 0.702235 0.346044
0.647242 0.702663 0.348302
0.686030 0.703151 0.351019
0.723812 0.703761 0.353399
0.757137 0.702632 0.354986
0.776883 0.695766 0.363775
0.795499 0.689876 0.372686
0.813687 0.684810 0.381781
0.831632 0.680354 0.390173
0.849271 0.676783 0.398444
0.866911 0.673915 0.406409
0.884581 0.671809 0.414557
0.902373 0.670527 0.423133
0.920439 0.670161 0.431800
0.938872 0.670588 0.440681
0.955962 0.671290 0.445960
0.149477 0.707393 0.367987
0.152926 0.707729 0.368811
0.161440 0.708003 0.369543
0.173037 0.708125 0.369848
0.188083 0.708064 0.369818
0.207156 0.707668 0.369635
0.228305 0.707027 0.369177
0.251011 0.706264 0.368170
0.275364 0.705409 0.367224
0.303929 0.704952 0.366308
0.343938 0.706569 0.364508
0.383673 0.708400 0.362310
0.423590 0.710353 0.359716
0.463569 0.712428 0.356390
0.504936 0.713252 0.357855
0.545525 0.713710 0.360967
0.584894 0.714260 0.363836
0.623133 0.714900 0.366735
0.660700 0.715663 0.370062
0.697383 0.716579 0.373022
0.733333 0.717525 0.375952
0.767575 0.718807 0.377813
0.788022 0.712947 0.385321
0.806424 0.707820 0.393683
0.824491 0.703426 0.401678
0.842405 0.699733 0.410010
0.860227 0.696712 0.417792
0.878080 0.694514 0.425788
0.896147 0.693141 0.433997
0.914580 0.692592 0.442542
0.933379 0.692988 0.451392
0.952697 0.694148 0.461036
0.198093 0.719326 0.387488
0.200748 0.719661 0.388128
0.205631 0.719997 0.388708
0.213687 0.720150 0.389319
0.224277 0.720119 0.389227
0.238163 0.719814 0.389136
0.253941 0.719265 0.388586
0.271824 0.718593 0.387793
0.292119 0.717769 0.387030
0.313542 0.716884 0.386053
0.344518 0.717647 0.384436
0.380133 0.719417 0.382757
0.415930 0.721309 0.380560
0.452644 0.723384 0.377966
0.489754 0.725399 0.375494
0.528466 0.726040 0.378210
0.566247 0.726680 0.381262
0.603052 0.727413 0.384222
0.639246 0.728237 0.387549
0.674739 0.729244 0.390845
0.709529 0.730404 0.394018
0.743771 0.731716 0.397742
0.778561 0.734859 0.399329
0.799802 0.729824 0.405890
0.817990 0.725490 0.413794
0.836057 0.721828 0.421607
0.854063 0.718776 0.429358
0.872129 0.716548 0.437110
0.890471 0.715175 0.445319
0.909239 0.714595 0.453559
0.928466 0.714931 0.462470
0.948211 0.716213 0.471992
0.233921 0.731716 0.406317
0.236027 0.732021 0.407080
0.239780 0.732265 0.407568
0.245396 0.732448 0.407874
0.253666 0.732418 0.407904
0.264103 0.732113 0.407752
0.276616 0.731685 0.407111
0.291386 0.731075 0.406622
0.307774 0.730373 0.405646
0.326268 0.729549 0.405005
0.347570 0.729061 0.403754
0.379217 0.730739 0.402319
0.411719 0.732601 0.400549
0.445075 0.734585 0.398505
0.479316 0.736751 0.395789
0.514580 0.738552 0.394812
0.550927 0.739406 0.398138
0.586572 0.740383 0.401617
0.621607 0.741512 0.405219
0.656214 0.742855 0.409064
0.690211 0.744381 0.413245
0.723751 0.746059 0.417212
0.756710 0.747890 0.421332
0.792203 0.752773 0.423560
0.814298 0.748898 0.429725
0.832670 0.745571 0.437812
0.851011 0.742824 0.445350
0.869505 0.740841 0.453162
0.888243 0.739681 0.461311
0.907469 0.739315 0.470008
0.927153 0.739895 0.479072
0.946807 0.740627 0.487434
0.269322 0.746670 0.428626
0.270085 0.746822 0.428840
0.272221 0.746853 0.428809
0.276249 0.746761 0.428870
0.281987 0.746548 0.428504
0.289677 0.746181 0.427893
0.299931 0.745663 0.427436
0.311833 0.745083 0.426703
0.325902 0.744442 0.426062
0.341405 0.743740 0.425299
0.358282 0.742947 0.424445
0.382605 0.743709 0.423255
0.411902 0.745541 0.421637
0.442481 0.747463 0.419745
0.473518 0.749569 0.417670
0.505638 0.751827 0.415167
0.539422 0.753292 0.415778
0.573449 0.754238 0.419135
0.607111 0.755306 0.422492
0.640406 0.756497 0.426123
0.673121 0.757900 0.429786
0.705501 0.759426 0.433661
0.737484 0.761044 0.437751
0.768978 0.762844 0.441474
0.804715 0.768887 0.443946
0.827543 0.765896 0.449409
0.846159 0.763394 0.457008
0.864927 0.761624 0.465187
0.884062 0.760678 0.473182
0.903655 0.760525 0.481819
0.923064 0.760586 0.489937
0.942779 0.761074 0.497993
0.292821 0.759884 0.446204
0.293309 0.760006 0.446296
0.295140 0.760037 0.446509
0.298528 0.759976 0.446479
0.303441 0.759792 0.446296
0.309819 0.759487 0.445899
0.318212 0.759060 0.445228
0.328527 0.758541 0.444556
0.340520 0.757961 0.443854
0.354101 0.757351 0.443275
0.368902 0.756680 0.442390
0.385901 0.756161 0.441352
0.412482 0.757931 0.440253
0.440223 0.759884 0.438636
0.469062 0.761959 0.436988
0.498909 0.764157 0.435157
0.529625 0.766598 0.432837
0.562158 0.767910 0.434974
0.594812 0.769070 0.438422
0.626947 0.770352 0.442084
0.658839 0.771786 0.445960
0.690333 0.773373 0.449866
0.721523 0.775113 0.454078
0.752346 0.776974 0.458320
0.781552 0.777584 0.460121
0.816495 0.783810 0.462989
0.841459 0.782895 0.468025
0.860594 0.781399 0.476173
0.880003 0.780636 0.484352
0.899260 0.780056 0.491981
0.918975 0.780117 0.499611
0.938933 0.780758 0.507713
0.316136 0.775051 0.465583
0.316838 0.775235 0.465827
0.318303 0.775296 0.466041
0.320806 0.775143 0.465675
0.324773 0.774807 0.465370
0.329839 0.774380 0.464607
0.336675 0.773800 0.463844
0.345190 0.773159 0.463050
0.355169 0.772457 0.462043
0.366735 0.771725 0.461128
0.379461 0.770932 0.459815
0.393561 0.770108 0.458778
0.413611 0.770596 0.457527
0.438911 0.772274 0.456062
0.465400 0.774166 0.454170
0.492927 0.776181 0.452338
0.521538 0.778378 0.450111
0.551293 0.780758 0.448188
0.582788 0.781918 0.451575
0.614221 0.783261 0.455299
0.645319 0.784848 0.459083
0.676173 0.786496 0.463203
0.706630 0.788235 0.467475
0.736751 0.790036 0.471443
0.766506 0.791897 0.475471
0.796017 0.793851 0.479866
0.829587 0.799680 0.483253
0.856352 0.800839 0.487587
0.876158 0.799649 0.494545
0.895537 0.799100 0.501854
0.915343 0.799222 0.509392
0.935485 0.800076 0.517388
0.332219 0.788754 0.481178
0.333043 0.788968 0.481453
0.334539 0.789029 0.481788
0.336797 0.788998 0.481636
0.340307 0.788785 0.481270
0.345190 0.788510 0.481025
0.351568 0.788174 0.480629
0.359136 0.787778 0.479896
0.368444 0.787350 0.479438
0.379034 0.786862 0.478645
0.390845 0.786313 0.477882
0.403998 0.785672 0.477272
0.417792 0.784939 0.476173
0.441138 0.786648 0.474891
0.465614 0.788479 0.473426
0.491218 0.790433 0.471595
0.517967 0.792599 0.469764
0.545708 0.795010 0.467750
0.574975 0.797208 0.467231
0.605432 0.798611 0.470985
0.635920 0.800198 0.475074
0.666041 0.801999 0.478981
0.696010 0.803861 0.483375
0.725673 0.805844 0.487739
0.755001 0.807828 0.492042
0.783841 0.809659 0.496071
0.812406 0.811643 0.499886
0.844388 0.816617 0.503593
0.873075 0.819883 0.507622
0.894102 0.819608 0.514336
0.914061 0.819944 0.521752
0.934386 0.820981 0.529534
0.349401 0.804593 0.498695
0.349706 0.804715 0.498726
0.350835 0.804715 0.498787
0.353002 0.804654 0.498817
0.355962 0.804471 0.498482
0.360327 0.804227 0.498177
0.365911 0.803891 0.497627
0.372839 0.803555 0.497200
0.381323 0.803128 0.496651
0.390845 0.802731 0.496010
0.401770 0.802243 0.495430
0.413733 0.801724 0.494728
0.426551 0.801205 0.493935
0.443610 0.801572 0.492836
0.466651 0.803403 0.491493
0.490578 0.805356 0.490120
0.515862 0.807523 0.488624
0.542077 0.809934 0.486854
0.569421 0.812619 0.485145
0.598474 0.814755 0.486305
0.628138 0.816281 0.490181
0.657465 0.817838 0.493874
0.686458 0.819455 0.497749
0.715358 0.821164 0.501518
0.744015 0.822873 0.505516
0.772366 0.824735 0.509239
0.800626 0.826658 0.513237
0.828702 0.828611 0.517266
0.859525 0.833188 0.521447
0.890074 0.838560 0.525566
0.912322 0.839170 0.532372
0.932891 0.840513 0.540063
0.364324 0.821195 0.515709
0.364569 0.821286 0.515679
0.365637 0.821317 0.515770
0.367620 0.821317 0.515770
0.370642 0.821256 0.515740
0.374823 0.821225 0.515709
0.380224 0.821286 0.515740
0.387243 0.821378 0.515770
0.395605 0.821500 0.516014
0.405188 0.821622 0.516197
0.415961 0.821775 0.516350
0.427680 0.821866 0.516533
0.440314 0.821866 0.516533
0.453468 0.821653 0.516167
0.473823 0.823301 0.515312
0.496468 0.825254 0.514000
0.519951 0.827359 0.512627
0.544640 0.829587 0.511040
0.570397 0.832090 0.509422
0.597192 0.834806 0.507622
0.625666 0.836545 0.509972
0.654444 0.838132 0.513634
0.683009 0.839750 0.517144
0.711391 0.841428 0.521019
0.739528 0.843137 0.524895
0.767666 0.844968 0.528588
0.795651 0.846860 0.532555
0.823514 0.848875 0.536675
0.851255 0.851011 0.540856
0.880888 0.855161 0.545586
0.913176 0.862303 0.549737
0.936431 0.863798 0.556481
0.382422 0.842069 0.536767
0.382757 0.842069 0.536858
0.383642 0.841978 0.536828
0.385016 0.841917 0.536614
0.387610 0.841764 0.536431
0.391272 0.841581 0.536217
0.395972 0.841428 0.535821
0.401953 0.841245 0.535576
0.409033 0.841062 0.535241
0.417395 0.840879 0.534966
0.426825 0.840696 0.534661
0.437232 0.840482 0.534264
0.448707 0.840238 0.533867
0.460883 0.839933 0.533257
