20 Preset/Natural Girl/【3】LUT video cho PR-AE-FCPX/Lut Tone  (9).cube
# Created by Adobe Lightroom plugin Export LUT (1.24.0)
# www.johnrellis.com/lightroom/exportlut.htm
# Preset: 自然胶片-素材江湖（原版）02
# Color profile: C:\Program Files (x86)\Common Files\Adobe\Color\Profiles\Recommended\VideoHD.icc
LUT_3D_SIZE 8
DOMAIN_MIN 0.000000 0.000000 0.000000
DOMAIN_MAX 0.903226 0.903226 0.903226
0.000000 0.000000 0.000000
0.164187 0.036042 0.019654
0.360204 0.000000 0.066255
0.532616 0.000000 0.080537
0.655756 0.024201 0.097475
0.747829 0.161501 0.131106
0.811673 0.237095 0.172885
0.856046 0.295598 0.214694
0.097749 0.149691 0.063752
0.177249 0.162844 0.003204
0.351293 0.157290 0.080537
0.520195 0.147524 0.085664
0.644495 0.161440 0.103578
0.735592 0.205478 0.134981
0.799466 0.255711 0.172152
0.847471 0.305516 0.212924
0.131746 0.333135 0.067842
0.204227 0.328771 0.079225
0.368231 0.361517 0.000000
0.544640 0.343725 0.000000
0.646540 0.339269 0.147494
0.734310 0.344854 0.177432
0.799283 0.364172 0.214755
0.846159 0.386603 0.249973
0.229038 0.483162 0.142031
0.265202 0.479438 0.143282
0.362951 0.486305 0.104738
0.524895 0.519615 0.000000
0.670985 0.508782 0.000000
0.734829 0.489448 0.215671
0.783078 0.485786 0.282322
0.831449 0.483558 0.302281
0.317144 0.573022 0.217380
0.334417 0.570916 0.217502
0.397681 0.564416 0.220066
0.483925 0.583307 0.154116
0.608576 0.600824 0.000000
0.718837 0.590478 0.000000
0.779416 0.565393 0.196048
0.813443 0.572961 0.355169
0.389807 0.635920 0.285710
0.402991 0.637507 0.289677
0.439765 0.633326 0.289952
0.495644 0.633967 0.275242
0.569360 0.647974 0.207797
0.668177 0.658717 0.063661
0.763088 0.656489 0.000000
0.831205 0.639246 0.170443
0.450446 0.686915 0.350988
0.456977 0.686793 0.351843
0.479286 0.683772 0.350713
0.519890 0.678492 0.350042
0.565148 0.684840 0.315648
0.631800 0.697322 0.244205
0.718074 0.707698 0.145998
0.807248 0.712917 0.000000
0.506584 0.744137 0.414099
0.510307 0.743648 0.413977
0.526360 0.741970 0.414069
0.556756 0.739040 0.414954
0.587640 0.731685 0.394965
0.634089 0.744076 0.347906
0.700801 0.758480 0.251408
0.781460 0.766629 0.108309
0.051820 0.077638 0.133455
0.172396 0.022736 0.139986
0.346624 0.000000 0.130159
0.510063 0.089998 0.150301
0.636042 0.133852 0.159945
0.726436 0.189975 0.177218
0.790951 0.243381 0.200351
0.840360 0.293065 0.229282
0.089479 0.152255 0.142519
0.176364 0.158267 0.145174
0.347051 0.168338 0.151461
0.509209 0.176120 0.155917
0.633295 0.194400 0.165377
0.722255 0.228061 0.182101
0.785000 0.265232 0.202426
0.834836 0.305699 0.229313
0.160037 0.332250 0.159335
0.218296 0.329198 0.161135
0.365240 0.354070 0.104555
0.528374 0.342840 0.142733
0.630793 0.341222 0.196048
0.717037 0.344884 0.211002
0.781155 0.357641 0.231510
0.831846 0.378668 0.258091
0.236912 0.471626 0.188754
0.269505 0.468757 0.189364
0.361761 0.472602 0.173373
0.507347 0.500481 0.000000
0.647181 0.488960 0.007019
0.711849 0.475105 0.241123
0.767025 0.472206 0.284459
0.818082 0.471931 0.302342
0.322179 0.569329 0.244175
0.337987 0.566766 0.243351
0.397040 0.559197 0.243565
0.478523 0.573785 0.193942
0.598260 0.590051 0.000000
0.708522 0.581537 0.000000
0.769650 0.559808 0.226474
0.803983 0.567620 0.363592
0.388525 0.631220 0.297612
0.398230 0.630396 0.298070
0.434882 0.626581 0.298558
0.491646 0.626856 0.288151
0.565301 0.642329 0.230411
0.664363 0.654932 0.141695
0.758267 0.652491 0.093355
0.825284 0.635309 0.200504
0.446540 0.682734 0.354467
0.451209 0.681544 0.353246
0.473365 0.678492 0.351843
0.514672 0.673732 0.351812
0.561975 0.680507 0.323308
0.628046 0.692988 0.257816
0.712795 0.702541 0.170718
0.801083 0.707149 0.093507
0.501610 0.739986 0.414008
0.506279 0.740230 0.415076
0.522210 0.738399 0.414710
0.552728 0.735592 0.415564
0.591485 0.733974 0.407996
0.635248 0.744472 0.359808
0.699794 0.757259 0.266636
0.780179 0.765438 0.145907
0.000000 0.130861 0.277379
0.146120 0.109285 0.286900
0.365789 0.000000 0.287999
0.503471 0.069123 0.265232
0.633509 0.131075 0.255924
0.716762 0.251286 0.287388
0.780819 0.299260 0.299199
0.831724 0.336156 0.311742
0.163058 0.229068 0.277226
0.182895 0.200626 0.287846
0.357733 0.164584 0.286107
0.506035 0.175387 0.271885
0.625025 0.230472 0.279484
0.711086 0.280308 0.291356
0.775570 0.314153 0.299229
0.827298 0.346166 0.311223
0.149325 0.347234 0.301823
0.217319 0.349035 0.303899
0.370275 0.353246 0.300725
0.508202 0.359472 0.312200
0.624598 0.367102 0.313054
0.707607 0.375708 0.315038
0.770687 0.387854 0.320287
0.821836 0.403449 0.330144
0.276371 0.487556 0.316228
0.306554 0.486091 0.317754
0.392096 0.477607 0.317906
0.514000 0.503044 0.278935
0.641444 0.498482 0.292302
0.697963 0.496132 0.361303
0.759487 0.489662 0.362097
0.811124 0.488533 0.366979
0.353277 0.574060 0.337102
0.367163 0.572381 0.336614
0.418372 0.566369 0.335729
0.493355 0.573053 0.318578
0.602045 0.592309 0.268528
0.703792 0.584649 0.265385
0.757473 0.569726 0.346227
0.796384 0.576013 0.418372
0.408759 0.632868 0.362585
0.417395 0.632258 0.362860
0.449653 0.628412 0.362097
0.502739 0.622614 0.359014
0.568627 0.638483 0.322240
0.661982 0.652399 0.275700
0.752377 0.651087 0.258427
0.817777 0.639277 0.314855
0.459419 0.684565 0.400793
0.463722 0.683528 0.399603
0.483406 0.680049 0.396918
0.520867 0.674830 0.394568
0.566766 0.678096 0.376349
0.629847 0.691432 0.330236
0.713069 0.703212 0.276402
0.801205 0.709743 0.238499
0.504662 0.740749 0.441688
0.507897 0.739925 0.440864
0.523217 0.738003 0.440162
0.553918 0.736049 0.441627
0.593530 0.731502 0.438849
0.636713 0.743313 0.399542
0.700343 0.756985 0.325963
0.779995 0.765896 0.244266
0.000000 0.194308 0.419989
0.053895 0.179416 0.426123
0.352575 0.126680 0.437446
0.526177 0.014649 0.420752
0.602197 0.172824 0.380835
0.699275 0.217197 0.366155
0.768093 0.263462 0.357855
0.811765 0.350042 0.386725
0.171023 0.283726 0.423377
0.187716 0.260044 0.428046
0.360204 0.213931 0.439155
0.522637 0.180056 0.422004
0.604273 0.226566 0.388739
0.698543 0.254398 0.372045
0.763119 0.302251 0.370428
0.809812 0.364508 0.390326
0.295720 0.405158 0.416297
0.323888 0.406744 0.417823
0.375799 0.381140 0.433814
0.503197 0.350378 0.424811
0.610864 0.354498 0.410376
0.694331 0.377752 0.406348
0.755886 0.410101 0.413886
0.807492 0.424659 0.412879
0.269261 0.499275 0.443549
0.296727 0.499306 0.445045
0.395270 0.496895 0.445167
0.510460 0.499184 0.441108
0.603967 0.502617 0.454871
0.679225 0.499672 0.447089
0.742061 0.498116 0.441566
0.796506 0.497841 0.437690
0.366064 0.588159 0.439551
0.381659 0.586725 0.440436
0.445136 0.580591 0.449531
0.513237 0.571527 0.447608
0.602014 0.593378 0.423346
0.691859 0.589715 0.428077
0.735348 0.585626 0.476173
0.786465 0.582238 0.481056
0.442451 0.641657 0.457984
0.451942 0.642664 0.460365
0.477089 0.638453 0.457404
0.522301 0.631617 0.453895
0.579065 0.638331 0.437995
0.660395 0.652399 0.409247
0.743465 0.651362 0.400977
0.801633 0.645808 0.447028
0.476143 0.687556 0.468910
0.481147 0.687160 0.468910
0.499641 0.684871 0.467567
0.533440 0.680354 0.464912
0.577478 0.676783 0.456947
0.633387 0.690517 0.426673
0.711269 0.703090 0.389990
0.797787 0.710536 0.361303
0.510521 0.745327 0.491249
0.513939 0.744808 0.490730
0.528435 0.742733 0.489387
0.556085 0.739223 0.487404
0.594446 0.733425 0.483864
0.637507 0.740383 0.459724
0.699245 0.755398 0.406775
0.778988 0.766567 0.349554
0.000000 0.278538 0.534600
0.111757 0.264378 0.537804
0.315343 0.243198 0.542107
0.528466 0.157870 0.549828
0.636255 0.160708 0.523430
0.678767 0.239353 0.472480
0.741543 0.280797 0.453559
0.803983 0.314244 0.442939
0.209140 0.340551 0.534600
0.221347 0.325872 0.538201
0.334752 0.294194 0.543114
0.526879 0.226230 0.549248
0.631739 0.221530 0.523125
0.675959 0.272404 0.475776
0.740566 0.303166 0.457130
0.802365 0.330632 0.445930
0.362036 0.466224 0.527611
0.373510 0.461982 0.530205
0.385199 0.420447 0.538231
0.512902 0.372015 0.545678
0.608362 0.354955 0.517937
0.660456 0.363775 0.483833
0.734524 0.374060 0.468208
0.794858 0.383978 0.454871
0.390204 0.525994 0.529808
0.404395 0.525902 0.530175
0.456184 0.526909 0.532860
0.510277 0.513451 0.542565
0.589960 0.486732 0.528862
0.662318 0.478462 0.509941
0.726223 0.480873 0.499428
0.778897 0.487373 0.494545
0.372534 0.588464 0.539605
0.385748 0.588830 0.540948
0.435615 0.588312 0.543481
0.513695 0.584131 0.542443
0.590356 0.584619 0.536461
0.658289 0.585901 0.547662
0.714809 0.578607 0.538842
0.771664 0.570336 0.526390
0.429328 0.642725 0.523766
0.438148 0.642267 0.524468
0.469368 0.639033 0.525536
0.523980 0.632471 0.530846
0.576471 0.624170 0.525078
0.650690 0.645624 0.512749
0.727321 0.646632 0.516930
0.775967 0.647639 0.553582
0.490913 0.690639 0.542931
0.494179 0.689662 0.541955
0.506493 0.686793 0.537133
0.535851 0.682826 0.532616
0.578729 0.675898 0.527153
0.629480 0.682948 0.511559
0.703365 0.697963 0.486610
0.786618 0.703853 0.469612
0.500328 0.745388 0.540368
0.503716 0.744747 0.539757
0.518151 0.742458 0.537713
0.548150 0.740444 0.537346
0.587121 0.734646 0.532830
0.632624 0.731716 0.522362
0.691463 0.748470 0.485481
0.771298 0.761593 0.441932
0.215488 0.365881 0.625605
0.227054 0.355016 0.627222
0.327794 0.336614 0.627955
0.478126 0.300755 0.631678
0.654597 0.205295 0.635401
0.710445 0.240818 0.601617
0.736477 0.297337 0.549279
0.781308 0.330968 0.529686
0.270115 0.399237 0.619196
0.276280 0.388891 0.620142
0.341009 0.363378 0.622339
0.476539 0.328405 0.625635
0.646326 0.245792 0.629328
0.702785 0.269474 0.596704
0.731075 0.314244 0.547478
0.778256 0.341070 0.528618
0.395789 0.502220 0.617151
0.397101 0.495308 0.617792
0.405158 0.462806 0.621668
0.485389 0.424109 0.622766
0.630365 0.368109 0.626032
0.686641 0.369451 0.594690
0.721340 0.384192 0.554314
0.774166 0.392493 0.536370
0.475990 0.581231 0.609613
0.480049 0.579248 0.609979
0.498939 0.572137 0.614252
0.516289 0.540642 0.623529
0.607660 0.500725 0.627741
0.663783 0.487251 0.598016
0.707942 0.476356 0.569909
0.769314 0.469856 0.552941
0.462043 0.606989 0.611139
0.469673 0.606714 0.611261
0.499245 0.606012 0.612268
0.547295 0.605707 0.614893
0.590906 0.596185 0.619898
0.645045 0.570275 0.603723
0.702876 0.555261 0.584497
0.762356 0.541772 0.566400
0.444862 0.648829 0.610590
0.453254 0.649622 0.612238
0.478767 0.649226 0.614282
0.524834 0.647211 0.615412
0.583520 0.642176 0.614221
0.644770 0.643732 0.611414
0.702022 0.646265 0.624445
0.759762 0.637568 0.610498
0.479530 0.697780 0.604028
0.485389 0.697871 0.604974
0.505364 0.696407 0.605707
0.540734 0.693538 0.607477
0.589441 0.687831 0.611872
0.631067 0.676967 0.599664
0.697932 0.696803 0.585657
0.778286 0.702968 0.583734
0.486610 0.751400 0.599451
0.489906 0.750729 0.598871
0.505089 0.749203 0.598535
0.546624 0.746242 0.607507
0.577691 0.740597 0.596368
0.625666 0.731289 0.587884
0.682185 0.740291 0.568841
0.763241 0.757687 0.538109
0.311101 0.436225 0.687984
0.317296 0.430182 0.689631
0.363592 0.412726 0.690181
0.462257 0.388586 0.691585
0.588128 0.338079 0.692653
0.733913 0.234073 0.692836
0.763485 0.283360 0.660029
0.777859 0.328862 0.605829
0.331548 0.452308 0.680964
0.337316 0.447272 0.682979
0.368994 0.425391 0.684321
0.459876 0.400366 0.685115
0.581537 0.351446 0.686000
0.725917 0.252720 0.685664
0.754452 0.292149 0.651728
0.770047 0.329808 0.598138
0.418647 0.526268 0.678309
0.419715 0.521111 0.678767
0.423285 0.495674 0.680140
0.475776 0.465339 0.681666
0.576989 0.424292 0.681910
0.712551 0.351232 0.682795
0.744533 0.369665 0.652491
0.766232 0.388922 0.606897
0.505028 0.604608 0.674311
0.507500 0.602106 0.674098
0.511040 0.589105 0.674708
0.513451 0.554986 0.678462
0.573358 0.519646 0.679835
0.688502 0.469886 0.681819
0.726314 0.467079 0.653681
0.755032 0.462135 0.615351
0.527489 0.639643 0.665370
0.530449 0.638575 0.664271
0.547417 0.637659 0.663386
0.567651 0.631525 0.666896
0.578759 0.600641 0.672175
0.652094 0.560723 0.673915
0.698512 0.545037 0.647486
0.740139 0.529351 0.622339
0.503563 0.660792 0.667781
0.508568 0.660731 0.668086
0.527459 0.659968 0.668757
0.560998 0.658686 0.670192
0.603449 0.657130 0.672114
0.640375 0.648829 0.677607
0.685634 0.624231 0.661616
0.739986 0.604242 0.641871
0.485451 0.696895 0.668330
0.490517 0.697322 0.669306
0.507439 0.697017 0.670802
0.538476 0.696925 0.674189
0.578820 0.696040 0.677363
0.629877 0.691341 0.674708
0.688014 0.691310 0.669429
0.753445 0.692775 0.677180
0.474617 0.754238 0.666957
0.478828 0.754208 0.667170
0.496407 0.754788 0.668696
0.525689 0.753506 0.668452
0.564202 0.750515 0.665705
0.616815 0.745113 0.664454
0.670802 0.729824 0.648310
0.753323 0.753231 0.632380
0.384802 0.497475 0.741268
0.387304 0.492897 0.742336
0.405707 0.474983 0.741878
0.469032 0.456336 0.743221
0.558221 0.420325 0.744289
0.670832 0.354437 0.744869
0.788205 0.258030 0.743374
0.812100 0.296757 0.711971
0.394812 0.506737 0.736263
0.397223 0.502617 0.737453
0.409125 0.483009 0.738308
0.468696 0.464088 0.739193
0.555169 0.429023 0.740383
0.666194 0.365637 0.741054
0.782986 0.271489 0.739071
0.806851 0.303960 0.707362
0.443366 0.552422 0.730770
0.444068 0.548455 0.731319
0.445350 0.528649 0.732082
0.481788 0.506157 0.736233
0.554986 0.474128 0.736477
0.656306 0.418280 0.736263
0.773465 0.337194 0.735470
0.797604 0.354742 0.704524
0.508141 0.614343 0.724392
0.508629 0.611994 0.725154
0.507774 0.598688 0.726070
0.509911 0.569390 0.729732
0.555261 0.538170 0.731807
0.641993 0.495552 0.732753
0.759548 0.426825 0.733791
0.784146 0.430732 0.703761
0.546654 0.661921 0.716060
0.548730 0.661402 0.717098
0.553735 0.655879 0.718227
0.567559 0.644648 0.721859
0.565270 0.606378 0.725154
0.621241 0.568444 0.726802
0.731807 0.514092 0.729335
0.765866 0.507195 0.702419
0.548089 0.686183 0.715419
0.550317 0.685389 0.714717
0.560906 0.683680 0.713466
0.583124 0.682856 0.713619
0.605280 0.677821 0.718410
0.619409 0.647120 0.728725
0.700343 0.610193 0.734554
0.748928 0.592706 0.709926
0.522026 0.718227 0.729824
0.525048 0.717922 0.729793
0.537743 0.716945 0.729946
0.562249 0.716060 0.731472
0.595605 0.714168 0.733242
0.638331 0.711330 0.735073
0.675898 0.693141 0.738888
0.732357 0.656703 0.713436
0.478523 0.750484 0.725338
0.481483 0.750210 0.725277
0.494545 0.749905 0.726131
0.519524 0.750332 0.728817
0.553307 0.750576 0.732113
0.595270 0.750576 0.735744
0.656672 0.745998 0.733822
0.733974 0.741421 0.727291
