20 Preset/Natural Girl/【3】LUT video cho PR-AE-FCPX/Lut Tone  (10).cube
# Created by Adobe Lightroom plugin Export LUT (1.24.0)
# www.johnrellis.com/lightroom/exportlut.htm
# Preset: 自然胶片-素材江湖（原版）03
# Color profile: C:\Program Files (x86)\Common Files\Adobe\Color\Profiles\Recommended\VideoHD.icc
LUT_3D_SIZE 8
DOMAIN_MIN 0.000000 0.000000 0.000000
DOMAIN_MAX 0.903226 0.903226 0.903226
0.060334 0.054017 0.055787
0.128634 0.083314 0.079072
0.249180 0.109621 0.105074
0.402838 0.137545 0.126253
0.550988 0.191440 0.160372
0.687465 0.275303 0.214084
0.788266 0.361364 0.277134
0.860502 0.438972 0.345129
0.116335 0.129091 0.106203
0.150454 0.141360 0.105989
0.267033 0.150698 0.118471
0.405982 0.175357 0.136995
0.546929 0.221256 0.170596
0.675410 0.290471 0.219272
0.773556 0.364660 0.275578
0.850156 0.439551 0.342199
0.201022 0.273594 0.173617
0.229892 0.275029 0.177371
0.320836 0.313481 0.164675
0.465095 0.321843 0.193027
0.589319 0.345800 0.232700
0.699947 0.390326 0.275029
0.790738 0.446632 0.331334
0.860868 0.501701 0.392340
0.323491 0.442939 0.284215
0.340520 0.441260 0.285496
0.396612 0.459297 0.286259
0.512078 0.510521 0.286351
0.644282 0.528527 0.322667
0.731014 0.530724 0.379858
0.797269 0.548791 0.415717
0.861509 0.579187 0.461524
0.432593 0.571374 0.394202
0.442054 0.570184 0.394690
0.479438 0.570611 0.399756
0.541405 0.601099 0.401587
0.631525 0.633112 0.403601
0.723659 0.640162 0.429267
0.794339 0.642420 0.488197
0.859678 0.662318 0.546654
0.523857 0.666438 0.501274
0.533410 0.669581 0.506981
0.555566 0.667750 0.509819
0.591760 0.676967 0.513756
0.644770 0.697993 0.517754
0.715785 0.722011 0.528435
0.796353 0.738735 0.560113
0.865660 0.749447 0.617029
0.607294 0.745815 0.613001
0.611444 0.746334 0.614679
0.624048 0.744411 0.615137
0.648066 0.743374 0.617884
0.681025 0.758236 0.620813
0.731258 0.779599 0.628656
0.793210 0.801877 0.643000
0.865660 0.821622 0.669978
0.690578 0.832425 0.718135
0.692775 0.832212 0.718257
0.702754 0.831815 0.719692
0.722255 0.831724 0.723415
0.739467 0.830167 0.716609
0.778073 0.848569 0.726284
0.829160 0.870176 0.739010
0.884154 0.888365 0.755245
0.062074 0.052827 0.108919
0.127352 0.075166 0.112245
0.232731 0.111482 0.127230
0.380682 0.158541 0.159121
0.529137 0.210208 0.191623
0.658869 0.277806 0.233768
0.759854 0.350530 0.282200
0.838865 0.424292 0.340887
0.099794 0.130648 0.128389
0.144228 0.137270 0.133242
0.254551 0.159152 0.148684
0.393744 0.191897 0.170901
0.534813 0.237919 0.201816
0.658839 0.297856 0.241855
0.754788 0.361120 0.285832
0.832853 0.429267 0.341772
0.198581 0.271824 0.195804
0.226719 0.273106 0.199771
0.311742 0.305119 0.194156
0.448646 0.317479 0.222141
0.568505 0.342077 0.250370
0.676692 0.381659 0.284672
0.765835 0.429603 0.327276
0.840665 0.484932 0.383276
0.310735 0.428687 0.288426
0.327642 0.428107 0.290166
0.383642 0.442420 0.293492
0.485847 0.484596 0.287755
0.611627 0.498787 0.316716
0.702296 0.505760 0.366003
0.774105 0.526543 0.398779
0.842344 0.560296 0.445594
0.426154 0.566522 0.398291
0.434882 0.564508 0.398016
0.471565 0.561181 0.401709
0.528771 0.587732 0.400488
0.615991 0.618036 0.398535
0.710445 0.626947 0.423285
0.782193 0.630732 0.481727
0.848539 0.651240 0.536828
0.516075 0.660304 0.498695
0.521965 0.660090 0.499641
0.545037 0.658747 0.503044
0.582788 0.667811 0.508598
0.636866 0.690333 0.513817
0.709560 0.716121 0.526909
0.789914 0.732540 0.557336
0.858885 0.742885 0.612451
0.599420 0.739498 0.607233
0.601709 0.738155 0.606012
0.614313 0.736141 0.606287
0.639643 0.734859 0.610224
0.674495 0.751858 0.616022
0.724758 0.773373 0.623774
0.785550 0.794553 0.635920
0.857572 0.813657 0.661524
0.683497 0.826902 0.712398
0.686763 0.827634 0.713832
0.696529 0.827024 0.714900
0.716274 0.827024 0.718715
0.743191 0.833860 0.723659
0.778805 0.849516 0.729702
0.827451 0.868864 0.739071
0.882475 0.886961 0.754910
0.041749 0.053346 0.180179
0.118257 0.067781 0.185519
0.236179 0.099641 0.198672
0.368780 0.153353 0.218235
0.520378 0.227298 0.256107
0.651453 0.313542 0.306889
0.753933 0.383124 0.349676
0.834043 0.448920 0.397314
0.076570 0.128511 0.207584
0.136446 0.133730 0.210849
0.252323 0.154574 0.217166
0.381720 0.195346 0.233219
0.521874 0.265171 0.272374
0.649500 0.330663 0.313176
0.749447 0.391089 0.351171
0.829465 0.453895 0.397864
0.151614 0.282506 0.263645
0.194339 0.286107 0.266026
0.301976 0.301091 0.274815
0.428901 0.325658 0.295232
0.558831 0.363195 0.321172
0.668635 0.404395 0.350256
0.757595 0.449470 0.384436
0.832639 0.498695 0.428351
0.286503 0.445808 0.337224
0.321172 0.447059 0.349096
0.388495 0.447730 0.357519
0.484230 0.487190 0.356237
0.606561 0.503593 0.388098
0.694514 0.517388 0.420294
0.768124 0.540429 0.448585
0.837491 0.572015 0.486519
0.421790 0.573846 0.438117
0.431891 0.573022 0.438788
0.470680 0.571313 0.443091
0.529564 0.588983 0.447608
0.615442 0.621546 0.448676
0.705928 0.628809 0.472358
0.775204 0.634791 0.522881
0.842618 0.655909 0.564294
0.513970 0.663996 0.525811
0.520165 0.664088 0.527062
0.542962 0.662409 0.529442
0.580652 0.664240 0.534081
0.631830 0.686641 0.538842
0.703212 0.712917 0.551659
0.783993 0.730068 0.581384
0.855528 0.743557 0.634028
0.600061 0.744106 0.626795
0.602502 0.743008 0.625940
0.614343 0.740200 0.624903
0.638514 0.737392 0.626642
0.672358 0.750088 0.631312
0.722499 0.772702 0.639948
0.785397 0.796353 0.653956
0.859525 0.816831 0.680079
0.680415 0.828916 0.720974
0.682246 0.828214 0.720485
0.692012 0.827420 0.721279
0.713405 0.828550 0.726406
0.740719 0.832090 0.730770
0.777676 0.849424 0.738491
0.827237 0.869780 0.748684
0.883085 0.888457 0.764340
0.000000 0.063722 0.288090
0.071351 0.073610 0.294224
0.239414 0.077455 0.309758
0.382910 0.123232 0.319951
0.482490 0.212528 0.323827
0.625910 0.275120 0.351751
0.729702 0.367681 0.396124
0.809537 0.451484 0.448188
0.000000 0.125612 0.317662
0.096345 0.128756 0.320775
0.257328 0.136721 0.330205
0.394690 0.176822 0.334020
0.495033 0.245670 0.338231
0.631159 0.301091 0.362036
0.728084 0.392737 0.409613
0.809323 0.462074 0.454047
0.000000 0.265721 0.368170
0.111421 0.268925 0.370764
0.279362 0.281682 0.375586
0.411902 0.312779 0.369574
0.532464 0.352239 0.386358
0.647150 0.412055 0.420386
0.741787 0.468696 0.458167
0.818204 0.512963 0.489845
0.225376 0.457740 0.431342
0.256016 0.458473 0.431708
0.351446 0.463478 0.436103
0.466163 0.478950 0.446265
0.574456 0.496407 0.464942
0.666926 0.518761 0.481300
0.746639 0.545037 0.503868
0.820859 0.576196 0.532708
0.390082 0.590173 0.496040
0.402045 0.589654 0.496437
0.457069 0.589868 0.507622
0.529076 0.588952 0.519158
0.608515 0.622766 0.523217
0.695216 0.630701 0.547997
0.762295 0.640986 0.581140
0.831418 0.659998 0.603815
0.515373 0.678004 0.581689
0.524590 0.680323 0.586175
0.545861 0.677638 0.586236
0.584558 0.674708 0.589349
0.631830 0.689174 0.594476
0.698054 0.713954 0.602167
0.777493 0.729610 0.626398
0.849577 0.744106 0.669886
0.596185 0.751095 0.657282
0.599908 0.751156 0.657954
0.613947 0.750088 0.658991
0.639521 0.748104 0.661128
0.673304 0.751797 0.664118
0.720760 0.774075 0.670741
0.783108 0.797513 0.681361
0.859007 0.817533 0.705470
0.676570 0.836759 0.741512
0.678920 0.836423 0.741482
0.689082 0.835386 0.741848
0.709194 0.834226 0.743801
0.737484 0.832212 0.746273
0.774197 0.848203 0.753292
0.825040 0.869993 0.764065
0.884001 0.890929 0.780850
0.000000 0.072602 0.418952
0.000000 0.071748 0.423224
0.208072 0.059602 0.432197
0.395056 0.048341 0.445899
0.520958 0.166018 0.445075
0.592706 0.268864 0.430396
0.699733 0.335973 0.452094
0.798489 0.404211 0.479957
0.000000 0.122072 0.439796
0.000000 0.122927 0.443305
0.223026 0.126558 0.449470
0.405005 0.138705 0.456916
0.526116 0.209415 0.453376
0.595819 0.294377 0.439094
0.702541 0.354681 0.459754
0.798703 0.418372 0.486061
0.000000 0.247715 0.485359
0.000000 0.246677 0.486519
0.248783 0.266300 0.486854
0.426734 0.285344 0.489754
0.534081 0.328740 0.477424
0.599145 0.375402 0.466072
0.709010 0.419654 0.485847
0.795346 0.471473 0.510704
0.037873 0.434485 0.530114
0.144930 0.436072 0.530877
0.280247 0.444099 0.535760
0.439216 0.456855 0.539849
0.548058 0.478828 0.526513
0.633875 0.498482 0.529717
0.719051 0.532616 0.549248
0.793515 0.568078 0.574334
0.324773 0.591547 0.576532
0.342748 0.592401 0.577386
0.405554 0.594354 0.579583
0.496010 0.598199 0.584741
0.582879 0.607843 0.590356
0.661860 0.616541 0.604334
0.732845 0.628626 0.614191
0.808164 0.646113 0.628809
0.468299 0.675959 0.613611
0.476051 0.676112 0.614466
0.503258 0.674617 0.615106
0.554742 0.673640 0.623499
0.612909 0.671656 0.631800
0.680659 0.703792 0.645167
0.761624 0.719783 0.670375
0.834989 0.734249 0.700191
0.563378 0.756863 0.679530
0.566339 0.756100 0.678798
0.588403 0.754116 0.684565
0.622156 0.752529 0.689967
0.661219 0.749477 0.692195
0.707576 0.765774 0.697200
0.772274 0.791409 0.706600
0.850828 0.808988 0.727199
0.650690 0.837552 0.755673
0.653315 0.837095 0.755489
0.664790 0.835691 0.755367
0.690547 0.836484 0.759731
0.722774 0.834470 0.762081
0.761776 0.840116 0.766873
0.814206 0.863798 0.777249
0.876707 0.886290 0.792325
0.000000 0.057649 0.559625
0.000000 0.052949 0.561944
0.146914 0.032044 0.564599
0.369238 0.003693 0.570214
0.547601 0.091646 0.577173
0.640467 0.224857 0.565545
0.688319 0.326421 0.536339
0.766842 0.393347 0.550774
0.000000 0.115114 0.563806
0.000000 0.115419 0.564477
0.163363 0.116030 0.566979
0.372930 0.121523 0.571435
0.545861 0.154940 0.576562
0.636042 0.251926 0.563897
0.684474 0.341131 0.536645
0.764614 0.402472 0.551263
0.000000 0.229953 0.600183
0.000000 0.237827 0.599786
0.204868 0.254429 0.600732
0.397375 0.268223 0.598901
0.558221 0.295171 0.599176
0.639765 0.353277 0.582696
0.687984 0.409583 0.559289
0.769039 0.454475 0.572045
0.000000 0.420691 0.643366
0.000000 0.421485 0.643153
0.212955 0.423804 0.643977
0.419684 0.444221 0.645045
0.572534 0.461738 0.642542
0.645747 0.491554 0.620996
0.693935 0.512932 0.602930
0.779263 0.539849 0.614343
0.227848 0.577142 0.664485
0.253086 0.577691 0.664759
0.333196 0.580804 0.666346
0.439551 0.586664 0.670222
0.560845 0.592706 0.670100
0.640711 0.602319 0.652918
0.706233 0.608911 0.649958
0.786954 0.624231 0.658686
0.421546 0.687617 0.690913
0.433600 0.688991 0.692683
0.470375 0.688869 0.692866
0.528801 0.689235 0.694270
0.597284 0.690120 0.697169
0.666682 0.699733 0.704341
0.741146 0.708858 0.717037
0.816587 0.718044 0.722347
0.545525 0.765591 0.732631
0.550347 0.766384 0.733761
0.566247 0.766506 0.733944
0.596368 0.766690 0.734463
0.639582 0.767086 0.736202
0.697658 0.760830 0.740566
0.765408 0.791043 0.750271
0.848447 0.806516 0.771633
0.613794 0.845396 0.780636
0.615717 0.844816 0.779873
0.626673 0.844297 0.779171
0.650263 0.845090 0.780117
0.699825 0.842527 0.789639
0.746029 0.838621 0.791073
0.801328 0.857359 0.800168
0.870665 0.883879 0.814817
0.000000 0.000580 0.684718
0.000000 0.000000 0.687434
0.000000 0.000000 0.688106
0.336187 0.000000 0.690303
0.521477 0.000000 0.689631
0.670069 0.123354 0.686580
0.733150 0.265782 0.665827
0.759060 0.365057 0.621485
0.000000 0.092226 0.680354
0.000000 0.091066 0.683680
0.000000 0.081575 0.684352
0.334905 0.062348 0.683955
0.515526 0.095491 0.682216
0.660395 0.163302 0.677394
0.721798 0.276585 0.655116
0.748379 0.365240 0.611200
0.000000 0.216434 0.704250
0.000000 0.221164 0.704036
0.057282 0.225376 0.701656
0.354681 0.235264 0.699245
0.524346 0.253758 0.694514
0.662501 0.289189 0.689296
0.724727 0.361639 0.670436
0.754910 0.426490 0.633326
0.000000 0.373083 0.732784
0.000000 0.371527 0.731319
0.000000 0.370123 0.728389
0.370123 0.401892 0.724727
0.532097 0.415015 0.719142
0.663874 0.437659 0.713924
0.723476 0.479164 0.693568
0.755764 0.509422 0.660761
0.000000 0.543450 0.744106
0.000000 0.541924 0.742397
0.176516 0.540887 0.741115
0.342229 0.539544 0.741939
0.516625 0.551263 0.735897
0.646876 0.559991 0.728603
0.707301 0.580529 0.707210
0.752773 0.592157 0.690608
0.309728 0.671748 0.759091
0.323125 0.672206 0.759579
0.371557 0.673213 0.760403
0.447028 0.675044 0.762234
0.534203 0.676478 0.764492
0.640772 0.679622 0.765743
0.714229 0.684932 0.748714
0.779904 0.682734 0.741146
0.480934 0.769162 0.786740
0.487495 0.770077 0.787808
0.509422 0.770291 0.788205
0.549218 0.771756 0.789975
0.604334 0.772274 0.790951
0.672755 0.773861 0.793851
0.747402 0.782406 0.799680
0.826383 0.787961 0.807187
0.587243 0.849668 0.826230
0.590723 0.850004 0.826505
0.606500 0.852262 0.828794
0.632349 0.853452 0.829587
0.669551 0.853971 0.829648
0.718929 0.854582 0.830442
0.784939 0.848661 0.834012
0.863310 0.881712 0.848600
0.000000 0.000000 0.787808
0.000000 0.000000 0.788815
0.000000 0.000000 0.785946
0.281987 0.000000 0.785946
0.485328 0.000000 0.784146
0.642084 0.000000 0.779751
0.768124 0.114199 0.774502
0.813169 0.282475 0.751064
0.000000 0.000000 0.784054
0.000000 0.000000 0.785153
0.000000 0.000000 0.783841
0.280522 0.000000 0.782986
0.482521 0.000000 0.781155
0.638117 0.000000 0.776577
0.762264 0.152132 0.769924
0.806882 0.291356 0.745602
0.000000 0.166598 0.790677
0.000000 0.166964 0.790829
0.000000 0.167025 0.788754
0.291447 0.173251 0.791012
0.486458 0.184024 0.786618
0.635645 0.213291 0.779507
0.757382 0.263981 0.772519
0.802182 0.350896 0.748074
0.000000 0.276524 0.804593
0.000000 0.283574 0.804929
0.000000 0.310399 0.802426
0.283055 0.331182 0.800748
0.481849 0.343725 0.797024
0.630457 0.362585 0.790494
0.750820 0.391333 0.782986
0.797665 0.443458 0.758907
0.000000 0.469154 0.817990
0.000000 0.468116 0.818631
0.000000 0.457343 0.816464
0.000000 0.450568 0.814755
0.448310 0.482673 0.807523
0.608179 0.491585 0.800198
0.734066 0.507256 0.792691
0.788815 0.540551 0.771603
0.000000 0.628412 0.827573
0.000000 0.626642 0.826535
0.000000 0.621942 0.824460
0.192935 0.616144 0.823972
0.376928 0.607935 0.825742
0.582910 0.623133 0.823270
0.724758 0.634577 0.820706
0.791562 0.652277 0.803189
0.310735 0.758389 0.849332
0.320043 0.758053 0.849119
0.356725 0.756863 0.848661
0.420813 0.756344 0.849546
0.500175 0.755520 0.851621
0.591211 0.754421 0.856077
0.712520 0.752377 0.856321
0.795712 0.751949 0.833829
0.500206 0.855344 0.874296
0.504082 0.855070 0.874022
0.521782 0.855131 0.874266
0.557885 0.856657 0.875853
0.609339 0.858213 0.877623
0.675319 0.859648 0.879545
0.756893 0.861387 0.882506
0.840635 0.868498 0.888670
