20 Preset/Natural Girl/【3】LUT video cho PR-AE-FCPX/Lut Tone  (6).cube
# Created by Adobe Lightroom plugin Export LUT (1.24.0)
# www.johnrellis.com/lightroom/exportlut.htm
# Preset: 自然胶片-素材江湖（原版）15
# Color profile: C:\Program Files (x86)\Common Files\Adobe\Color\Profiles\Recommended\VideoHD.icc
LUT_3D_SIZE 5
DOMAIN_MIN 0.000000 0.000000 0.000000
DOMAIN_MAX 0.903226 0.903226 0.903226
0.089387 0.097871 0.089967
0.237522 0.159731 0.122621
0.547021 0.246555 0.142061
0.779538 0.369787 0.233249
0.880644 0.494575 0.377966
0.163363 0.247654 0.173831
0.263005 0.281529 0.151217
0.585809 0.369909 0.135348
0.783322 0.438239 0.248478
0.877226 0.526848 0.388647
0.346777 0.487709 0.351629
0.383459 0.485481 0.354955
0.559869 0.544274 0.301122
0.769680 0.606653 0.315129
0.865568 0.634455 0.430396
0.518578 0.649989 0.530327
0.530510 0.648005 0.530297
0.579492 0.661402 0.521935
0.709377 0.699092 0.491310
0.830167 0.733333 0.533410
0.650599 0.759548 0.688411
0.654871 0.758999 0.688533
0.672480 0.757259 0.689662
0.713924 0.777920 0.682521
0.799374 0.802426 0.668482
0.121187 0.144808 0.231693
0.253086 0.138399 0.230320
0.516167 0.243931 0.267674
0.747951 0.415442 0.379644
0.858030 0.530968 0.473854
0.159304 0.279759 0.259190
0.265202 0.297307 0.273991
0.546227 0.368933 0.315038
0.755520 0.462654 0.384344
0.857023 0.555688 0.479377
0.376623 0.511101 0.412451
0.409430 0.507897 0.413581
0.559472 0.550622 0.384253
0.759945 0.615259 0.407446
0.851194 0.643214 0.500114
0.530724 0.657771 0.558007
0.541650 0.655604 0.557397
0.584588 0.661952 0.551690
0.705653 0.699825 0.527214
0.824826 0.736660 0.567559
0.653285 0.761685 0.696468
0.657496 0.761166 0.696590
0.673274 0.758206 0.695705
0.713008 0.776944 0.690089
0.797421 0.801999 0.677272
0.041596 0.218296 0.569329
0.303044 0.213230 0.553277
0.550134 0.163638 0.493263
0.693446 0.312718 0.455482
0.820798 0.532616 0.572564
0.246738 0.395514 0.581689
0.355505 0.388983 0.565698
0.552422 0.312932 0.510002
0.696101 0.408148 0.490974
0.805173 0.588067 0.612146
0.391363 0.563592 0.566522
0.437690 0.564935 0.567102
0.554070 0.570581 0.570855
0.703761 0.611383 0.598260
0.805478 0.663172 0.643854
0.550500 0.679805 0.628779
0.567041 0.681147 0.633570
0.608423 0.676844 0.636866
0.694453 0.703120 0.625086
0.810727 0.747799 0.659419
0.660883 0.771878 0.724941
0.664729 0.771115 0.724544
0.679500 0.767361 0.722347
0.711513 0.775448 0.718288
0.793454 0.803189 0.709529
0.350561 0.397833 0.779965
0.416327 0.393866 0.774105
0.583246 0.353491 0.748684
0.741024 0.271061 0.686580
0.801114 0.384588 0.607630
0.464759 0.530358 0.775021
0.492897 0.519982 0.770443
0.593805 0.464240 0.747463
0.732570 0.367132 0.689204
0.793698 0.431861 0.616052
0.573205 0.676387 0.772000
0.592737 0.678737 0.769894
0.625666 0.651728 0.747097
0.696712 0.550683 0.690852
0.775113 0.577417 0.659205
0.594018 0.723201 0.742123
0.605097 0.723171 0.741878
0.640467 0.721523 0.739223
0.687800 0.715206 0.730953
0.785031 0.741421 0.748074
0.652308 0.784421 0.760769
0.657832 0.784634 0.761257
0.679652 0.785183 0.762905
0.714290 0.780148 0.761868
0.787411 0.805264 0.756924
0.535943 0.559655 0.869017
0.554070 0.554894 0.866545
0.622339 0.533043 0.857664
0.727352 0.453712 0.834989
0.843900 0.350134 0.794369
0.576989 0.619684 0.862577
0.588556 0.613947 0.860655
0.635737 0.586786 0.852201
0.721828 0.505364 0.830076
0.833860 0.394446 0.790066
0.625879 0.711696 0.860899
0.634913 0.709682 0.858122
0.673396 0.703243 0.847013
0.713893 0.636774 0.824002
0.807187 0.522698 0.785367
0.666529 0.781308 0.854612
0.672724 0.781155 0.854154
0.702174 0.784573 0.855467
0.730983 0.762661 0.841459
0.779843 0.673945 0.794675
0.676173 0.818479 0.839506
0.680537 0.818204 0.839200
0.701320 0.819181 0.839841
0.735409 0.818296 0.838376
0.773922 0.804929 0.824033
