20 Preset/Natural Girl/【3】LUT video cho PR-AE-FCPX/Lut Tone  (16).cube
# Created by Adobe Lightroom plugin Export LUT (1.24.0)
# www.johnrellis.com/lightroom/exportlut.htm
# Preset: 自然胶片-素材江湖（原版）09
# Color profile: C:\Program Files (x86)\Common Files\Adobe\Color\Profiles\Recommended\VideoHD.icc
LUT_3D_SIZE 5
DOMAIN_MIN 0.000000 0.000000 0.000000
DOMAIN_MAX 0.903226 0.903226 0.903226
0.011444 0.009552 0.010895
0.257420 0.109651 0.100221
0.560876 0.208316 0.153292
0.746914 0.369757 0.268254
0.832364 0.489235 0.382483
0.128267 0.304936 0.167086
0.303166 0.336095 0.169558
0.589837 0.359655 0.220493
0.746822 0.446265 0.315587
0.831876 0.531273 0.416999
0.364324 0.585412 0.385992
0.405035 0.578241 0.389227
0.571893 0.618799 0.410651
0.733822 0.624872 0.448219
0.825589 0.640192 0.515129
0.522789 0.704860 0.543053
0.535851 0.703487 0.545434
0.584070 0.703182 0.553857
0.682795 0.727016 0.569421
0.811978 0.756008 0.603967
0.622614 0.806546 0.660761
0.628779 0.805875 0.661555
0.647913 0.797086 0.658778
0.700923 0.809506 0.668910
0.793118 0.835019 0.683467
0.114199 0.089631 0.187472
0.256260 0.098451 0.212497
0.530694 0.255894 0.263767
0.709560 0.401343 0.342779
0.808133 0.495308 0.414130
0.166537 0.317662 0.272374
0.312657 0.332738 0.290379
0.560082 0.389868 0.323552
0.715755 0.460822 0.374121
0.807828 0.529900 0.438972
0.383917 0.580499 0.421515
0.421668 0.576593 0.425452
0.557946 0.602564 0.438758
0.717739 0.617121 0.472877
0.813321 0.640253 0.533074
0.532189 0.704646 0.559533
0.544793 0.703670 0.561975
0.588373 0.701076 0.569299
0.681056 0.724697 0.583276
0.808133 0.754208 0.615045
0.622522 0.806729 0.665431
0.628626 0.805753 0.665919
0.653468 0.803464 0.669551
0.703853 0.812253 0.677516
0.796658 0.838437 0.692866
0.215488 0.146120 0.431617
0.331121 0.162997 0.444465
0.543297 0.242679 0.451637
0.685359 0.370703 0.448524
0.783810 0.496315 0.488350
0.308385 0.364721 0.473152
0.381994 0.373297 0.477790
0.543603 0.391943 0.476173
0.687282 0.449409 0.472633
0.772976 0.551293 0.522087
0.407507 0.599329 0.534966
0.455299 0.599481 0.538323
0.567773 0.604273 0.552544
0.695033 0.625025 0.572076
0.783566 0.642084 0.586023
0.566613 0.708461 0.617762
0.569238 0.706142 0.612726
0.605310 0.702113 0.616876
0.678859 0.720485 0.628840
0.798795 0.747585 0.649439
0.616907 0.807004 0.681147
0.623896 0.806607 0.682124
0.650568 0.804196 0.685206
0.697383 0.805295 0.691066
0.791653 0.833310 0.706020
0.373693 0.275700 0.623438
0.429267 0.287266 0.625544
0.585382 0.312566 0.629847
0.698878 0.385931 0.609339
0.759335 0.468177 0.583734
0.426947 0.422980 0.632807
0.463355 0.423804 0.633082
0.583520 0.423255 0.633845
0.686976 0.454994 0.612818
0.754238 0.503502 0.590814
0.500481 0.603998 0.651057
0.523064 0.607507 0.651057
0.592065 0.616449 0.653346
0.664790 0.603937 0.636622
0.751644 0.608698 0.626642
0.560143 0.717769 0.678370
0.572259 0.716670 0.678248
0.617060 0.715877 0.681819
0.678187 0.716152 0.686824
0.791684 0.732540 0.698665
0.616266 0.814908 0.727962
0.623316 0.814755 0.728389
0.653010 0.815030 0.731441
0.695827 0.808988 0.727443
0.790127 0.831113 0.741085
0.501579 0.402899 0.752773
0.525719 0.405432 0.751827
0.610895 0.414252 0.750118
0.729854 0.412726 0.744320
0.794308 0.467201 0.715877
0.517815 0.478004 0.750210
0.537743 0.477943 0.749722
0.610498 0.476814 0.747768
0.720485 0.464332 0.742061
0.786282 0.498177 0.715206
0.550713 0.617762 0.756802
0.569909 0.621973 0.754971
0.618585 0.617456 0.751583
0.698634 0.593561 0.744808
0.767575 0.592767 0.723415
0.588891 0.726284 0.774380
0.596429 0.725399 0.773892
0.629999 0.724819 0.775570
0.693629 0.720577 0.777218
0.765042 0.698695 0.753964
0.597192 0.824308 0.795895
0.603876 0.824125 0.795987
0.634302 0.825803 0.798734
0.695796 0.826230 0.802640
0.788327 0.825132 0.811765
