20 Preset/Natural Girl/【3】LUT video cho PR-AE-FCPX/Lut Tone  (14).cube
# Created by Adobe Lightroom plugin Export LUT (1.24.0)
# www.johnrellis.com/lightroom/exportlut.htm
# Preset: 自然胶片-素材江湖（原版）07
# Color profile: C:\Program Files (x86)\Common Files\Adobe\Color\Profiles\Recommended\VideoHD.icc
LUT_3D_SIZE 8
DOMAIN_MIN 0.000000 0.000000 0.000000
DOMAIN_MAX 0.903226 0.903226 0.903226
0.115938 0.109773 0.114900
0.141176 0.115450 0.119509
0.202945 0.125673 0.127779
0.293126 0.134951 0.134585
0.392798 0.148379 0.144839
0.504753 0.174166 0.162081
0.608057 0.212436 0.184787
0.687953 0.256352 0.211154
0.137057 0.133486 0.128908
0.149874 0.138125 0.127901
0.207767 0.144930 0.132021
0.290898 0.152682 0.137636
0.386450 0.165621 0.147738
0.491707 0.187991 0.163516
0.589410 0.218631 0.183291
0.673884 0.259098 0.208530
0.191745 0.200626 0.156313
0.206424 0.201602 0.156924
0.244938 0.221012 0.148409
0.328496 0.231968 0.156374
0.418280 0.241459 0.169284
0.519127 0.259586 0.184634
0.615076 0.286992 0.206729
0.692287 0.318822 0.232029
0.276371 0.302983 0.207797
0.287358 0.301457 0.208499
0.323033 0.318029 0.203983
0.388525 0.355840 0.195315
0.487617 0.374823 0.208103
0.558740 0.377630 0.229709
0.628504 0.381933 0.245243
0.697505 0.398291 0.265568
0.362005 0.405066 0.265415
0.369329 0.403418 0.265690
0.397772 0.405798 0.266331
0.445502 0.438544 0.257847
0.499397 0.463966 0.248386
0.570642 0.469886 0.258976
0.632959 0.472755 0.283177
0.697810 0.487343 0.312108
0.441047 0.495155 0.328893
0.450660 0.499062 0.333471
0.471992 0.496101 0.334813
0.501976 0.509880 0.331762
0.544121 0.534813 0.324102
0.587488 0.553735 0.323857
0.653651 0.568383 0.339666
0.720607 0.580865 0.367041
0.518029 0.576745 0.409277
0.522454 0.577264 0.410529
0.535546 0.574304 0.410193
0.558618 0.575616 0.410163
0.586877 0.593317 0.404974
0.630274 0.619806 0.400977
0.669612 0.638239 0.408026
0.734646 0.659480 0.422461
0.605035 0.672358 0.497566
0.607507 0.671870 0.497566
0.618616 0.670985 0.498512
0.640528 0.670253 0.501396
0.653590 0.670405 0.488289
0.691951 0.696498 0.489631
0.742947 0.728817 0.491341
0.781796 0.747127 0.503410
0.117067 0.111208 0.131777
0.139498 0.114931 0.132937
0.192508 0.123812 0.137789
0.276890 0.139315 0.149325
0.375128 0.154208 0.159854
0.477943 0.176089 0.173617
0.574853 0.205142 0.190249
0.660151 0.243229 0.211612
0.127993 0.133913 0.138827
0.145083 0.136934 0.140871
0.201083 0.145052 0.146151
0.283177 0.156069 0.153262
0.377996 0.170657 0.163241
0.477485 0.190616 0.176425
0.568414 0.215549 0.191135
0.652277 0.249454 0.210941
0.182559 0.199802 0.167758
0.198398 0.199741 0.169375
0.236545 0.215915 0.163485
0.315038 0.227787 0.172641
0.402075 0.236332 0.181186
0.495460 0.251133 0.192782
0.584222 0.271580 0.207767
0.666041 0.301579 0.229191
0.261021 0.292485 0.211337
0.272007 0.291478 0.212039
0.307836 0.303746 0.210452
0.361547 0.331914 0.199557
0.450324 0.345769 0.208865
0.524132 0.351415 0.225681
0.598962 0.358556 0.237888
0.671809 0.376837 0.257298
0.352300 0.399939 0.269261
0.358984 0.397620 0.268772
0.387030 0.395087 0.269047
0.429328 0.423163 0.259159
0.480079 0.446052 0.247379
0.553765 0.454292 0.257206
0.617365 0.458930 0.280644
0.682918 0.473060 0.306584
0.430060 0.487526 0.327184
0.435859 0.487129 0.327581
0.457771 0.484718 0.329534
0.489937 0.498268 0.328252
0.533745 0.525048 0.321965
0.579370 0.546288 0.323613
0.645014 0.560296 0.338445
0.710780 0.571618 0.363470
0.507500 0.568475 0.403296
0.509575 0.566705 0.401892
0.522728 0.563561 0.401373
0.547539 0.564569 0.402686
0.578088 0.584833 0.400458
0.621241 0.611231 0.396612
0.658869 0.627802 0.400916
0.722164 0.647211 0.413489
0.594965 0.663905 0.491096
0.598840 0.664973 0.492622
0.609674 0.663752 0.493233
0.631769 0.663111 0.496223
0.658595 0.676020 0.496712
0.692927 0.697963 0.494057
0.740230 0.726619 0.491920
0.778805 0.744594 0.503258
0.121157 0.116152 0.165896
0.138338 0.117617 0.168246
0.193332 0.123568 0.175204
0.269444 0.139132 0.183444
0.374334 0.151308 0.195224
0.480537 0.187808 0.217533
0.578698 0.219455 0.233494
0.663844 0.255924 0.250706
0.129610 0.136995 0.177462
0.146975 0.139376 0.179294
0.200229 0.143984 0.183017
0.276432 0.156832 0.190249
0.375097 0.174960 0.204105
0.478035 0.201938 0.219883
0.572717 0.228397 0.232975
0.657832 0.262211 0.249638
0.154360 0.205112 0.205051
0.170565 0.207462 0.206912
0.227420 0.216129 0.211765
0.307408 0.226688 0.217655
0.403235 0.242313 0.226596
0.497536 0.259495 0.236088
0.584558 0.280125 0.247501
0.664057 0.307500 0.263645
0.228916 0.308171 0.243046
0.251865 0.309117 0.251072
0.302495 0.307561 0.255253
0.359350 0.336706 0.246769
0.448707 0.350896 0.258885
0.525750 0.356634 0.268040
0.601190 0.366064 0.277470
0.673518 0.383642 0.291875
0.335973 0.408911 0.299779
0.344640 0.407691 0.299901
0.377935 0.404517 0.301854
0.425635 0.424750 0.298894
0.479988 0.451331 0.289525
0.551659 0.457191 0.298131
0.611963 0.462104 0.317693
0.681270 0.474861 0.334356
0.418982 0.492775 0.351232
0.425299 0.492744 0.351965
0.447669 0.490059 0.353033
0.482734 0.493996 0.353216
0.525261 0.520500 0.348058
0.571801 0.542962 0.349462
0.638605 0.557610 0.364508
0.707424 0.572320 0.388312
0.502586 0.574762 0.423865
0.505089 0.573236 0.422797
0.517571 0.569146 0.420874
0.543145 0.564477 0.420935
0.573114 0.582574 0.418830
0.617182 0.610285 0.416815
0.658656 0.630732 0.423194
0.725521 0.652430 0.436896
0.588098 0.666957 0.501152
0.589990 0.665797 0.500481
0.600977 0.664332 0.500816
0.625422 0.665370 0.505241
0.653864 0.673426 0.506218
0.690578 0.697902 0.505882
0.740139 0.728542 0.504875
0.779965 0.747372 0.516320
0.118776 0.120851 0.225925
0.135897 0.121889 0.229465
0.198611 0.124086 0.236912
0.278325 0.132876 0.242893
0.345800 0.159701 0.241672
0.456519 0.175387 0.256504
0.558984 0.194553 0.267765
0.644617 0.245792 0.291478
0.127779 0.142031 0.241123
0.146120 0.142855 0.242741
0.207828 0.144869 0.247623
0.285832 0.153567 0.250980
0.353979 0.176181 0.249119
0.462104 0.190707 0.261875
0.560571 0.211704 0.273350
0.644953 0.257115 0.294224
0.150332 0.207553 0.265934
0.166384 0.210178 0.267582
0.225498 0.215610 0.271550
0.297246 0.221225 0.269017
0.385992 0.236393 0.277226
0.489723 0.250950 0.286809
0.581659 0.285039 0.305028
0.659449 0.310155 0.314366
0.191684 0.313909 0.305852
0.206332 0.314794 0.306249
0.258671 0.320958 0.310857
0.341650 0.332952 0.316930
0.425971 0.340185 0.319036
0.509514 0.349096 0.321599
0.588281 0.361913 0.326909
0.663783 0.379522 0.335576
0.271031 0.429206 0.338628
0.281651 0.428321 0.338170
0.343481 0.427008 0.352819
0.415412 0.424109 0.361059
0.474342 0.456703 0.354070
0.544366 0.460883 0.363256
0.605341 0.464363 0.371435
0.676570 0.474037 0.377478
0.402441 0.511803 0.402441
0.412543 0.514641 0.406439
0.435737 0.510552 0.405280
0.477394 0.505455 0.406043
0.520500 0.524193 0.404059
0.566155 0.546014 0.401709
0.631861 0.558129 0.413123
0.700038 0.572656 0.430732
0.487770 0.584436 0.456825
0.492012 0.584344 0.457221
0.507744 0.582452 0.457435
0.535943 0.578851 0.458076
0.569940 0.585077 0.457252
0.612634 0.612238 0.455085
0.655329 0.633112 0.457862
0.724727 0.654200 0.468940
0.576562 0.678828 0.525292
0.579278 0.678248 0.525170
0.591363 0.676356 0.524895
0.614923 0.673915 0.525780
0.647150 0.670893 0.526543
0.684108 0.696010 0.526360
0.736049 0.728786 0.527001
0.781674 0.752132 0.539910
0.102388 0.126589 0.308080
0.124910 0.127504 0.310887
0.194125 0.129549 0.315282
0.290898 0.129397 0.322454
0.374395 0.144137 0.322362
0.434485 0.180667 0.310521
0.528832 0.200778 0.320470
0.628748 0.223453 0.332738
0.114076 0.146822 0.319951
0.136110 0.147829 0.322332
0.203189 0.149752 0.325261
0.297032 0.150088 0.328893
0.379522 0.163943 0.328099
0.438514 0.195621 0.315679
0.532708 0.213687 0.324804
0.630274 0.235050 0.335882
0.134249 0.210788 0.344945
0.151247 0.210513 0.345922
0.224308 0.218936 0.346349
0.312871 0.219547 0.348577
0.389319 0.229007 0.342992
0.445319 0.246159 0.330144
0.542901 0.259251 0.338933
0.632502 0.275059 0.345739
0.183444 0.311131 0.374243
0.198459 0.312627 0.374884
0.252171 0.320287 0.379309
0.334997 0.327611 0.383368
0.406226 0.330602 0.373602
0.481880 0.334051 0.370611
0.568261 0.340887 0.371984
0.643488 0.360327 0.380041
0.239017 0.421912 0.408209
0.251102 0.423133 0.409247
0.294835 0.426642 0.411688
0.363348 0.433814 0.417121
0.444343 0.441474 0.419440
0.513359 0.441566 0.416083
0.583154 0.443824 0.412940
0.657588 0.450996 0.412207
0.321294 0.510155 0.426825
0.329503 0.510277 0.427070
0.357977 0.508446 0.425818
0.422431 0.506279 0.437568
0.489021 0.502739 0.443641
0.545312 0.536370 0.447883
0.613031 0.547265 0.458747
0.681300 0.557366 0.465705
0.430579 0.592615 0.476814
0.436896 0.591272 0.477882
0.464088 0.588128 0.485176
0.503105 0.585260 0.489876
0.547753 0.579614 0.489815
0.592737 0.601068 0.488746
0.640345 0.625513 0.489448
0.711086 0.642145 0.495460
0.531762 0.679957 0.542748
0.535180 0.679164 0.542290
0.549859 0.676661 0.541436
0.581689 0.677394 0.545373
0.620874 0.673091 0.545892
0.664271 0.683314 0.546715
0.718227 0.718074 0.547936
0.768338 0.743832 0.557794
0.000000 0.134524 0.410437
0.089723 0.135012 0.411933
0.185428 0.136507 0.412238
0.288914 0.137057 0.414466
0.401160 0.132784 0.418433
0.479011 0.158816 0.412390
0.524987 0.204440 0.386816
0.604303 0.229343 0.391577
0.061006 0.152987 0.410101
0.109438 0.153414 0.410254
0.192233 0.155001 0.411048
0.290257 0.155947 0.412848
0.399054 0.152926 0.416297
0.474586 0.175051 0.409613
0.521233 0.214633 0.385657
0.601587 0.236393 0.390600
0.107759 0.216373 0.433539
0.143008 0.220218 0.433204
0.218540 0.224063 0.433814
0.309270 0.224277 0.432563
0.412207 0.222904 0.432715
0.483192 0.238285 0.422675
0.530785 0.262913 0.400458
0.610681 0.277287 0.403632
0.167575 0.324773 0.465980
0.184756 0.324468 0.465370
0.243168 0.325109 0.466255
0.339330 0.336065 0.469398
0.436194 0.333288 0.468055
0.501152 0.338811 0.452552
0.548821 0.344396 0.431495
0.629236 0.350561 0.431983
0.232273 0.421210 0.480720
0.244053 0.422004 0.480964
0.288426 0.425910 0.482643
0.357458 0.434485 0.486763
0.437781 0.437873 0.486824
0.498848 0.433967 0.471290
0.561059 0.427588 0.460548
0.641444 0.426032 0.456794
0.301579 0.514885 0.501549
0.312322 0.516899 0.503532
0.343206 0.517906 0.504265
0.393500 0.520287 0.506126
0.455055 0.523888 0.509209
0.526513 0.532799 0.514183
0.592737 0.532464 0.509850
0.669245 0.532280 0.502129
0.387732 0.604486 0.535851
0.393439 0.605554 0.536889
0.412268 0.605371 0.535607
0.446174 0.605097 0.533074
0.503410 0.603601 0.537041
0.573358 0.594415 0.540124
0.631312 0.627680 0.541344
0.706905 0.639002 0.545037
0.439338 0.693568 0.559533
0.441932 0.692622 0.558160
0.455512 0.691707 0.554986
0.508873 0.690547 0.568627
0.574853 0.685664 0.581140
0.634730 0.677760 0.579553
0.696284 0.707240 0.582910
0.757168 0.740352 0.592309
0.000000 0.140230 0.509239
0.000000 0.140810 0.511009
0.161715 0.141512 0.510857
0.281163 0.140963 0.511650
0.394568 0.135805 0.510124
0.505272 0.123445 0.506828
0.568627 0.163455 0.492744
0.596551 0.219394 0.452979
0.000000 0.156893 0.505486
0.000000 0.157748 0.507683
0.169680 0.158297 0.507530
0.280888 0.157778 0.506615
0.390814 0.153597 0.504631
0.498177 0.142702 0.500175
0.559472 0.174868 0.484993
0.587335 0.223056 0.445838
0.015167 0.221683 0.521782
0.101442 0.221836 0.521569
0.195834 0.221805 0.519615
0.296178 0.221836 0.517601
0.399481 0.219059 0.513573
0.503838 0.212345 0.509148
0.566583 0.234592 0.496132
0.598627 0.268376 0.461433
0.072602 0.307897 0.542687
0.114504 0.306676 0.541375
0.210452 0.310918 0.539117
0.318456 0.321386 0.537133
0.414008 0.317632 0.532921
0.513573 0.312016 0.528893
0.573999 0.323522 0.513970
0.607477 0.336217 0.480934
0.193149 0.415869 0.553002
0.205509 0.415290 0.551659
0.253422 0.416999 0.550988
0.323156 0.416815 0.551202
0.418799 0.421180 0.547387
0.508324 0.411810 0.541650
0.566369 0.412940 0.524315
0.612360 0.412055 0.502556
0.275303 0.510460 0.566796
0.284123 0.511131 0.567285
0.316838 0.513024 0.568261
0.370459 0.516594 0.570428
0.436255 0.521263 0.573327
0.512963 0.521843 0.574029
0.571893 0.515343 0.556176
0.634791 0.499611 0.540032
0.349218 0.599207 0.592889
0.355291 0.600183 0.593805
0.376165 0.600855 0.594476
0.413184 0.602991 0.596460
0.463203 0.605280 0.598444
0.525719 0.609766 0.602441
0.604181 0.617182 0.605463
0.681117 0.610040 0.591760
0.391699 0.699825 0.639612
0.396155 0.700221 0.639612
0.415106 0.702754 0.640742
0.448280 0.704189 0.638758
0.495491 0.704799 0.633417
0.560906 0.704677 0.628565
0.662898 0.691829 0.636378
0.743191 0.739590 0.648676
0.000000 0.143191 0.607904
0.000000 0.143221 0.608606
0.115541 0.141848 0.605829
0.264714 0.138918 0.605188
0.385412 0.131044 0.602838
0.498238 0.114748 0.598169
0.604242 0.082368 0.592767
0.655695 0.155520 0.575006
0.000000 0.157931 0.604364
0.000000 0.157961 0.605188
0.123110 0.157290 0.603784
0.265537 0.154910 0.602502
0.384039 0.148623 0.600061
0.495521 0.135561 0.595361
0.599756 0.111757 0.588983
0.650385 0.166262 0.570397
0.000000 0.213352 0.609125
0.000000 0.213474 0.609125
0.146395 0.212863 0.607111
0.275975 0.213931 0.608728
0.388800 0.209903 0.604456
0.495918 0.201266 0.597833
0.598383 0.187106 0.591302
0.649012 0.217685 0.572412
0.000000 0.277623 0.619715
0.000000 0.281621 0.620081
0.155642 0.296330 0.618189
0.284550 0.300389 0.617090
0.393286 0.297581 0.613703
0.498146 0.290440 0.607874
0.598627 0.278843 0.600977
0.650263 0.293614 0.581537
0.000000 0.388251 0.631983
0.000000 0.387854 0.632654
0.041779 0.381628 0.630823
0.240909 0.378729 0.629877
0.387579 0.394507 0.624353
0.490578 0.385016 0.617609
0.590814 0.372473 0.610498
0.647456 0.378576 0.591882
0.118532 0.497719 0.644099
0.138033 0.496712 0.643122
0.198611 0.494545 0.641138
0.279179 0.493965 0.640925
0.365576 0.490120 0.642206
0.483314 0.493996 0.641321
0.587884 0.484688 0.637934
0.652491 0.482124 0.619043
0.256657 0.600763 0.668452
0.264073 0.600549 0.668299
0.293065 0.599817 0.667781
0.343328 0.600122 0.669123
0.407050 0.600671 0.671870
0.484108 0.602564 0.677821
0.582391 0.599359 0.680171
0.656886 0.583642 0.650965
0.329351 0.697993 0.704097
0.333959 0.697810 0.703792
0.353735 0.698299 0.704341
0.391638 0.700862 0.707088
0.445075 0.704036 0.710414
0.513176 0.708064 0.714504
0.598962 0.714748 0.721309
0.704433 0.725032 0.728939
