20 Preset/Natural Girl/【3】LUT video cho PR-AE-FCPX/Lut Tone  (6).cube
# Created by Adobe Lightroom plugin Export LUT (1.24.0)
# www.johnrellis.com/lightroom/exportlut.htm
# Preset: 自然胶片-素材江湖（原版）15
# Color profile: C:\Program Files (x86)\Common Files\Adobe\Color\Profiles\Recommended\VideoHD.icc
LUT_3D_SIZE 32
DOMAIN_MIN 0.0 0.0 0.0
DOMAIN_MAX 1.0 1.0 1.0
0.089387 0.097871 0.089967
0.092805 0.098665 0.090639
0.106050 0.102907 0.092622
0.130526 0.111910 0.096071
0.153445 0.123751 0.104067
0.177523 0.136690 0.111849
0.205478 0.148684 0.118532
0.237522 0.159731 0.122621
0.274083 0.170565 0.125307
0.314916 0.182223 0.127321
0.359106 0.193729 0.130434
0.405768 0.206149 0.132143
0.453223 0.218662 0.134737
0.500481 0.232120 0.137423
0.547021 0.246555 0.142061
0.590936 0.262150 0.148470
0.631983 0.279026 0.157931
0.668971 0.296849 0.170169
0.702266 0.315068 0.183597
0.731502 0.333684 0.199069
0.757107 0.351812 0.215946
0.779538 0.369787 0.233249
0.799619 0.387579 0.251774
0.817746 0.405341 0.270451
0.833738 0.423194 0.290379
0.847654 0.441077 0.311620
0.859770 0.458869 0.333227
0.870542 0.476692 0.355352
0.880644 0.494575 0.377966
0.890196 0.512505 0.400366
0.899199 0.530510 0.423438
0.907622 0.548547 0.446693
0.091341 0.101991 0.092226
0.093263 0.102571 0.091279
0.109194 0.107668 0.092592
0.132479 0.115297 0.096223
0.154421 0.126528 0.104250
0.179171 0.138979 0.112306
0.206760 0.150546 0.118135
0.239261 0.161471 0.122194
0.276371 0.172641 0.124971
0.317205 0.184176 0.127779
0.361578 0.196231 0.130129
0.408576 0.208255 0.131838
0.456031 0.220706 0.134615
0.503319 0.234226 0.137667
0.549340 0.248722 0.142000
0.593317 0.264256 0.148775
0.634119 0.281285 0.158297
0.670954 0.298863 0.170016
0.703975 0.316808 0.184268
0.732967 0.335271 0.199985
0.758328 0.353582 0.217075
0.780880 0.371344 0.234287
0.800748 0.389288 0.252842
0.818723 0.407080 0.271977
0.834501 0.424964 0.292393
0.848478 0.442573 0.312902
0.860380 0.460304 0.334661
0.871031 0.478187 0.356939
0.881163 0.495918 0.379095
0.890684 0.513695 0.401587
0.899535 0.531731 0.424750
0.908019 0.549706 0.447822
0.099031 0.118074 0.100008
0.100649 0.118196 0.100313
0.112856 0.122744 0.097353
0.135103 0.131044 0.097780
0.157870 0.139101 0.104524
0.182803 0.148959 0.112123
0.211643 0.159243 0.117647
0.243778 0.169284 0.122011
0.280797 0.180301 0.124636
0.321691 0.191135 0.127413
0.366094 0.202701 0.129458
0.412665 0.214908 0.130953
0.459907 0.227237 0.133333
0.507164 0.240513 0.136568
0.552697 0.254551 0.141848
0.596155 0.269932 0.148775
0.636378 0.286534 0.159304
0.672877 0.303929 0.170993
0.705562 0.321660 0.185489
0.734340 0.339727 0.201358
0.759487 0.357397 0.218173
0.781552 0.374914 0.235843
0.801511 0.392462 0.253696
0.819272 0.410101 0.273198
0.834897 0.427680 0.293370
0.848783 0.445045 0.314183
0.860502 0.462776 0.336278
0.871275 0.480262 0.357855
0.881224 0.497993 0.380621
0.890715 0.515679 0.403235
0.899687 0.533349 0.425849
0.908049 0.551232 0.449104
0.113588 0.141543 0.115816
0.115175 0.141848 0.116335
0.120119 0.144076 0.116121
0.134615 0.149050 0.111421
0.160159 0.158175 0.111299
0.189181 0.169619 0.112001
0.218906 0.177157 0.116518
0.251469 0.185641 0.120333
0.289006 0.195438 0.123171
0.329686 0.205631 0.125521
0.374029 0.216587 0.127352
0.419532 0.227726 0.129671
0.466224 0.239658 0.132631
0.512657 0.252659 0.136172
0.557855 0.266270 0.140810
0.600580 0.281102 0.149203
0.640284 0.296880 0.159915
0.676112 0.313848 0.173068
0.708217 0.330999 0.187137
0.736660 0.348363 0.203281
0.761410 0.365240 0.219974
0.783200 0.382238 0.237827
0.802701 0.399084 0.256596
0.820066 0.415900 0.275578
0.835447 0.432776 0.295567
0.848905 0.449866 0.316442
0.860502 0.466835 0.337926
0.871092 0.483864 0.359838
0.881102 0.501061 0.381994
0.890593 0.518425 0.404242
0.899535 0.535851 0.426886
0.908019 0.553613 0.450233
0.127199 0.165743 0.131136
0.128420 0.165805 0.131106
0.132876 0.166171 0.131960
0.140414 0.171054 0.129091
0.161044 0.177981 0.123598
0.192325 0.189090 0.120180
0.226474 0.202060 0.117525
0.263951 0.213046 0.116243
0.301701 0.220584 0.119265
0.342443 0.229282 0.122103
0.385534 0.238376 0.124331
0.430213 0.248692 0.127230
0.475776 0.259525 0.130434
0.521019 0.271397 0.134951
0.564752 0.284031 0.141268
0.606439 0.298222 0.149691
0.645075 0.312932 0.160372
0.679652 0.328313 0.174258
0.710872 0.344366 0.188937
0.738521 0.360479 0.206027
0.762631 0.376196 0.223087
0.784085 0.392248 0.240848
0.803220 0.407996 0.259159
0.820371 0.424018 0.278019
0.835447 0.440040 0.298222
0.848814 0.456336 0.318303
0.860166 0.472602 0.340307
0.870878 0.488991 0.361578
0.880797 0.505760 0.383948
0.890318 0.522728 0.406195
0.899321 0.539849 0.428717
0.907713 0.557305 0.452125
0.138460 0.191073 0.144594
0.139559 0.191165 0.144564
0.143526 0.191440 0.145296
0.149844 0.194186 0.143954
0.163943 0.201022 0.139437
0.190524 0.210056 0.132418
0.229038 0.223331 0.126436
0.268772 0.237400 0.121492
0.312963 0.252811 0.115267
0.356146 0.261479 0.115450
0.398566 0.268376 0.119203
0.442237 0.276829 0.122621
0.486213 0.286107 0.127077
0.529870 0.296452 0.132845
0.572107 0.307744 0.140047
0.612146 0.320256 0.150668
0.649226 0.333593 0.162387
0.682948 0.347265 0.176120
0.713039 0.361578 0.191501
0.739742 0.375921 0.208225
0.763394 0.390387 0.225132
0.784512 0.404974 0.243198
0.797665 0.414099 0.255833
0.815305 0.429114 0.274510
0.830961 0.444373 0.294743
0.844816 0.459754 0.314794
0.856809 0.475380 0.336461
0.867796 0.491157 0.357763
0.878111 0.507408 0.379980
0.887816 0.524041 0.402564
0.897032 0.540856 0.425452
0.905730 0.558038 0.448859
0.149630 0.216739 0.157717
0.150393 0.216922 0.157839
0.154025 0.216922 0.158175
0.161410 0.217227 0.159121
0.170504 0.223514 0.155215
0.190066 0.232303 0.149142
0.222568 0.243137 0.140749
0.268589 0.258396 0.132448
0.311559 0.273106 0.125887
0.359014 0.288975 0.118227
0.406897 0.303777 0.110414
0.449439 0.309422 0.116243
0.491981 0.316564 0.122927
0.534264 0.325109 0.129305
0.575219 0.334478 0.138582
0.614130 0.345159 0.149905
0.650477 0.356573 0.162966
0.683253 0.368750 0.177523
0.712581 0.380926 0.192935
0.738308 0.393225 0.209964
0.761379 0.405676 0.226993
0.781796 0.418372 0.244358
0.800076 0.431037 0.262333
0.816709 0.444038 0.280308
0.831510 0.457801 0.299992
0.844877 0.471748 0.319860
0.856687 0.486091 0.340368
0.867460 0.501061 0.362402
0.877714 0.516472 0.384253
0.887541 0.532219 0.406561
0.896696 0.548486 0.429511
0.905394 0.564996 0.452705
0.163363 0.247654 0.173831
0.164279 0.247593 0.173983
0.167483 0.247807 0.174563
0.174807 0.247898 0.175418
0.183658 0.251164 0.173983
0.198428 0.259403 0.168399
0.223789 0.269718 0.161318
0.263005 0.281529 0.151217
0.314977 0.298100 0.140963
0.360937 0.313176 0.134371
0.409552 0.329015 0.125978
0.459510 0.345403 0.116152
0.505730 0.356695 0.114565
0.546288 0.362554 0.124666
0.585809 0.369909 0.135348
0.622889 0.377722 0.149813
0.657313 0.387060 0.164706
0.688594 0.396826 0.180484
0.716243 0.406744 0.197147
0.741176 0.416999 0.213779
0.763333 0.427527 0.231266
0.783322 0.438239 0.248478
0.801114 0.449195 0.266667
0.817136 0.460731 0.285191
0.831632 0.472816 0.304814
0.844602 0.485481 0.324651
0.856016 0.498756 0.345922
0.866941 0.512444 0.366735
0.877226 0.526848 0.388647
0.886809 0.541894 0.411261
0.896056 0.557214 0.433753
0.904906 0.572869 0.456153
0.180179 0.281437 0.193301
0.181521 0.281468 0.193271
0.184756 0.281407 0.193790
0.191348 0.281590 0.194522
0.201358 0.281559 0.195773
0.213046 0.289250 0.191226
0.233524 0.298528 0.184695
0.264805 0.309880 0.175998
0.308080 0.322332 0.164462
0.363439 0.338415 0.152743
0.410559 0.353918 0.145571
0.459236 0.369757 0.137758
0.508232 0.385992 0.129397
0.555016 0.401892 0.122560
0.595575 0.409125 0.131350
0.630610 0.414496 0.148898
0.663447 0.420783 0.164828
0.692805 0.427802 0.182376
0.719356 0.435248 0.200259
0.743313 0.443366 0.217563
0.764797 0.451789 0.235721
0.784207 0.460548 0.253544
0.801297 0.469581 0.272221
0.816983 0.479438 0.291142
0.831205 0.489937 0.309911
0.843839 0.501122 0.329839
0.855100 0.512932 0.351080
0.865995 0.525536 0.371954
0.876158 0.538872 0.393835
0.885893 0.552758 0.415839
0.895262 0.567071 0.437659
0.903960 0.581933 0.460304
0.201938 0.317296 0.215640
0.202945 0.317388 0.215732
0.205753 0.317327 0.216068
0.212467 0.317479 0.216892
0.221805 0.317418 0.217990
0.233219 0.320897 0.216434
0.249363 0.329625 0.211124
0.274693 0.340063 0.203555
0.309636 0.351629 0.194186
0.355840 0.364019 0.181277
0.412909 0.379767 0.168399
0.460212 0.395209 0.162448
0.507561 0.410712 0.156710
0.554009 0.426337 0.151461
0.598566 0.441718 0.145602
0.637354 0.453925 0.147768
0.668269 0.457374 0.165286
0.696193 0.461280 0.185000
0.721584 0.466102 0.204318
0.744717 0.471901 0.222507
0.765774 0.478218 0.240482
0.784573 0.484779 0.259373
0.801419 0.492134 0.278050
0.816831 0.500359 0.296910
0.830625 0.509331 0.316228
0.842924 0.518914 0.336675
0.854215 0.529381 0.357549
0.864988 0.540642 0.378149
0.875212 0.552605 0.399664
0.885008 0.565209 0.420874
0.894194 0.578546 0.443000
0.902922 0.592309 0.465309
0.228397 0.354620 0.241489
0.229038 0.354467 0.241306
0.232151 0.354559 0.241764
0.237766 0.354314 0.242252
0.246433 0.354162 0.243168
0.257908 0.354101 0.244450
0.271000 0.361608 0.239811
0.290745 0.370825 0.233371
0.319005 0.381353 0.225193
0.356634 0.393011 0.214725
0.403754 0.405188 0.201602
0.460822 0.420020 0.187930
0.506126 0.434913 0.183474
0.550713 0.449592 0.180362
0.593408 0.463874 0.177401
0.633021 0.477607 0.175601
0.668818 0.490394 0.176486
0.699214 0.496895 0.187930
0.723812 0.499367 0.207553
0.746181 0.502464 0.227543
0.766537 0.506401 0.246159
0.784604 0.511009 0.264683
0.801022 0.516503 0.283848
0.815976 0.522637 0.303105
0.829435 0.529778 0.322728
0.841428 0.537774 0.343206
0.852781 0.546685 0.363317
0.863554 0.556603 0.384375
0.873869 0.567254 0.405097
0.883604 0.578729 0.426856
0.892821 0.590875 0.448493
0.901671 0.603601 0.470069
0.257603 0.390661 0.268528
0.258000 0.390753 0.268498
0.260533 0.390600 0.268589
0.265843 0.390387 0.269383
0.273442 0.390143 0.270024
0.283848 0.389654 0.271183
0.295842 0.392981 0.269902
0.311223 0.401160 0.264073
0.333684 0.410834 0.257176
0.363867 0.421271 0.248569
0.402289 0.432349 0.237461
0.448554 0.443915 0.224247
0.496529 0.451575 0.207370
0.539879 0.466163 0.205203
0.581323 0.480049 0.203769
0.620539 0.493233 0.202945
0.656611 0.505791 0.203830
0.689815 0.517632 0.205295
0.718807 0.528283 0.210819
0.742580 0.530602 0.227054
0.762692 0.532341 0.246830
0.780728 0.534874 0.266239
0.797269 0.538384 0.285466
0.812222 0.543084 0.305089
0.825834 0.548608 0.325231
0.838102 0.555138 0.345525
0.849699 0.562646 0.366125
0.860716 0.571283 0.387060
0.871244 0.580957 0.408331
0.881285 0.591333 0.429389
0.890654 0.602441 0.451179
0.899779 0.614130 0.472724
0.285466 0.422644 0.294285
0.285679 0.422736 0.294255
0.288243 0.422675 0.294804
0.292912 0.422644 0.295140
0.299748 0.422431 0.295933
0.308751 0.421973 0.296818
0.320165 0.421637 0.298161
0.332891 0.428656 0.293492
0.350317 0.437079 0.287816
0.374182 0.446418 0.280552
0.404700 0.456428 0.271153
0.442603 0.466865 0.260380
0.486763 0.477424 0.247013
0.537316 0.489082 0.234348
0.578393 0.502129 0.232639
0.615869 0.514672 0.233188
0.650874 0.526421 0.234623
0.683314 0.537407 0.236820
0.713069 0.547723 0.239933
0.739712 0.557336 0.245853
0.762631 0.563806 0.254948
0.780514 0.564294 0.273747
0.796506 0.565698 0.294011
0.811185 0.568292 0.313268
0.824338 0.571954 0.333410
0.836454 0.576776 0.353613
0.847990 0.582879 0.374456
0.859068 0.590082 0.394934
0.869657 0.598199 0.415351
0.879576 0.607263 0.436622
0.889189 0.617029 0.457313
0.898192 0.627771 0.479225
0.316411 0.456275 0.323003
0.316777 0.456306 0.323278
0.319188 0.456397 0.323705
0.323003 0.456153 0.323674
0.328801 0.456031 0.324376
0.337011 0.455726 0.325475
0.346868 0.455085 0.326329
0.358007 0.457740 0.324895
0.372137 0.465278 0.320073
0.391302 0.473762 0.313909
0.415991 0.482826 0.306340
0.446540 0.492378 0.297398
0.483467 0.502190 0.286198
0.525475 0.512413 0.273899
0.572320 0.522881 0.262242
0.611200 0.534752 0.261326
0.645014 0.545922 0.263310
0.676448 0.556329 0.266239
0.705653 0.566033 0.270298
0.732387 0.575128 0.274510
0.756344 0.583185 0.280461
0.777035 0.590509 0.288121
0.794980 0.593225 0.301854
0.809262 0.594018 0.321355
0.822171 0.595819 0.341833
0.834409 0.599115 0.361608
0.846098 0.603571 0.381964
0.857115 0.609339 0.402533
0.867735 0.616052 0.422919
0.877745 0.623865 0.443549
0.887388 0.632380 0.464118
0.896513 0.641901 0.485451
0.346777 0.487709 0.351629
0.347143 0.487678 0.351507
0.348913 0.487648 0.351751
0.352209 0.487587 0.352056
0.357458 0.487312 0.352636
0.364477 0.486976 0.353399
0.373297 0.486366 0.354101
0.383459 0.485481 0.354955
0.394781 0.491859 0.350866
0.409979 0.499458 0.345800
0.429969 0.507439 0.339544
0.454902 0.516136 0.332158
0.484932 0.525261 0.323400
0.520195 0.534661 0.313085
0.559869 0.544274 0.301122
0.602838 0.553735 0.291325
0.639124 0.564080 0.290501
0.669642 0.574060 0.293919
0.698085 0.583246 0.297917
0.724514 0.591821 0.302922
0.748165 0.599573 0.308568
0.769680 0.606653 0.315129
0.788968 0.613275 0.322911
0.805539 0.619593 0.333776
0.819669 0.620020 0.350774
0.832090 0.621790 0.370153
0.843778 0.624842 0.390478
0.854917 0.629145 0.410285
0.865568 0.634455 0.430396
0.875731 0.640742 0.450202
0.885405 0.648066 0.470527
0.894591 0.656306 0.491279
0.375952 0.517052 0.379767
0.376318 0.516930 0.379553
0.377722 0.516747 0.379553
0.380529 0.516594 0.379980
0.384955 0.516289 0.380194
0.390784 0.515679 0.380713
0.398138 0.515068 0.381079
0.407080 0.513939 0.381659
0.416907 0.516106 0.380407
0.429145 0.522759 0.376196
0.445136 0.530053 0.370764
0.465370 0.538048 0.364599
0.490059 0.546563 0.357671
0.519371 0.555291 0.349676
0.552758 0.564263 0.340002
0.589960 0.573449 0.329747
0.629725 0.581842 0.320348
0.663111 0.590753 0.319982
0.690944 0.599573 0.324224
0.716762 0.607660 0.328801
0.740230 0.615076 0.334844
0.761685 0.621820 0.341405
0.781064 0.628199 0.348882
0.798581 0.634058 0.356939
0.814237 0.640040 0.367498
0.828885 0.644648 0.380102
0.841184 0.646235 0.398505
0.852476 0.649104 0.417853
0.863188 0.653162 0.437995
0.873442 0.658350 0.457618
0.883330 0.664393 0.477516
0.892699 0.671504 0.497810
0.403998 0.543847 0.406928
0.404181 0.543908 0.406958
0.405585 0.543786 0.407233
0.407660 0.543572 0.407233
0.411444 0.543206 0.407446
0.416480 0.542687 0.407813
0.422614 0.541772 0.407843
0.430304 0.540795 0.408362
0.439002 0.539574 0.408576
0.448890 0.545129 0.405249
0.461921 0.551843 0.400946
0.478187 0.558953 0.396185
0.498177 0.566583 0.390143
0.522087 0.574517 0.383490
0.549920 0.582788 0.375830
0.581323 0.591150 0.367285
0.616144 0.599542 0.357488
0.652399 0.606867 0.349187
0.683833 0.614466 0.348608
0.709133 0.622309 0.353674
0.732326 0.629603 0.359564
0.753750 0.636164 0.366308
0.773037 0.642267 0.373724
0.790463 0.647944 0.382269
0.806760 0.653620 0.390967
0.822263 0.659724 0.401038
0.836545 0.666133 0.412482
0.849851 0.669429 0.426337
0.860716 0.672236 0.445624
0.871122 0.676143 0.464973
0.881071 0.681117 0.484840
0.890623 0.687037 0.504540
0.429725 0.568109 0.432990
0.429847 0.567956 0.433021
0.427832 0.565118 0.429999
0.429755 0.564965 0.430091
0.432746 0.564569 0.430182
0.436957 0.564050 0.430304
0.442451 0.563348 0.430579
0.449073 0.562493 0.430793
0.456825 0.561334 0.431189
0.465339 0.563043 0.429725
0.475807 0.568994 0.426062
0.489143 0.575402 0.422095
0.505516 0.582361 0.417273
0.525292 0.589685 0.411872
0.548425 0.597375 0.405859
0.575006 0.605219 0.399329
0.604639 0.613184 0.391333
0.637263 0.621118 0.382727
0.670924 0.627924 0.375402
0.700710 0.634668 0.375067
0.723873 0.642023 0.381109
0.745144 0.648646 0.388525
0.764492 0.654719 0.396246
0.782010 0.660273 0.404791
0.798520 0.665858 0.413611
0.814237 0.671870 0.423407
0.829496 0.678157 0.432990
0.843626 0.684779 0.444556
0.856901 0.691615 0.457038
0.868650 0.694270 0.473030
0.878813 0.698146 0.492195
0.888487 0.703090 0.511864
0.452735 0.589319 0.456977
0.452674 0.589166 0.456855
0.453223 0.588739 0.456489
0.454627 0.588342 0.456336
0.456977 0.587854 0.456214
0.460548 0.587304 0.456275
0.465309 0.586694 0.456550
0.470802 0.585809 0.456428
0.477485 0.584833 0.456733
0.485023 0.583642 0.457038
0.493599 0.588556 0.454139
0.504356 0.594385 0.450874
0.517906 0.600641 0.446906
0.534020 0.607263 0.442603
0.553216 0.614282 0.437629
0.575372 0.621515 0.432074
0.600427 0.628931 0.425940
0.628290 0.636225 0.418891
0.658595 0.643580 0.410925
0.689662 0.649561 0.403906
0.716945 0.654719 0.403418
0.737789 0.661311 0.410834
0.756985 0.667170 0.418372
0.774472 0.672602 0.427283
0.790890 0.678065 0.436042
0.806729 0.683925 0.445716
0.822049 0.690059 0.455543
0.836728 0.696468 0.465919
0.850828 0.703151 0.476265
0.863676 0.710140 0.488960
0.875975 0.715724 0.502342
0.886381 0.719539 0.520317
0.476295 0.611109 0.482643
0.476204 0.610834 0.482429
0.476570 0.610529 0.482033
0.477821 0.610132 0.481910
0.479866 0.609583 0.481636
0.482795 0.609155 0.481849
0.486702 0.608484 0.481727
0.491768 0.607752 0.481910
0.497383 0.606867 0.481910
0.503838 0.605707 0.481971
0.511223 0.607233 0.481086
0.520195 0.612451 0.478187
0.531090 0.618158 0.475166
0.544549 0.624231 0.471626
0.560449 0.630610 0.467323
0.579034 0.637263 0.462776
0.600244 0.644038 0.457679
0.623835 0.650904 0.452033
0.649897 0.657710 0.445350
0.678035 0.664210 0.438056
0.706111 0.669184 0.432410
0.730922 0.672847 0.431556
0.749874 0.678737 0.439429
0.767208 0.684047 0.448066
0.783474 0.689448 0.457465
0.799435 0.695216 0.466712
0.814786 0.701228 0.476539
0.829557 0.707546 0.486946
0.843809 0.714107 0.497261
0.857572 0.720851 0.507927
0.870512 0.727932 0.519860
0.882597 0.735317 0.533257
0.498726 0.631617 0.507591
0.498665 0.631434 0.507469
0.498878 0.631159 0.507103
0.499947 0.630793 0.506828
0.501640 0.630365 0.506798
0.504234 0.629908 0.506767
0.507530 0.629328 0.506615
0.511681 0.628748 0.506828
0.516686 0.627893 0.506889
0.522454 0.626917 0.506950
0.528710 0.625757 0.506859
0.536187 0.630091 0.504570
0.545281 0.635248 0.502159
0.556359 0.640711 0.499031
0.569635 0.646509 0.495827
0.585077 0.652552 0.492042
0.602686 0.658747 0.487709
0.622797 0.664881 0.482795
0.644831 0.670985 0.477485
0.668818 0.676783 0.471290
0.694514 0.682368 0.464485
0.719997 0.686305 0.459297
0.742702 0.688685 0.457618
0.759731 0.693904 0.466255
0.776028 0.699214 0.475471
0.791958 0.704829 0.484627
0.807187 0.710780 0.494606
0.822141 0.717006 0.504601
0.836515 0.723476 0.514794
0.850431 0.730159 0.525566
0.863920 0.737118 0.536767
0.876951 0.744411 0.548394
0.518578 0.649989 0.530327
0.518700 0.649958 0.530327
0.519005 0.649866 0.530175
0.519951 0.649653 0.530205
0.521660 0.649317 0.530083
0.523919 0.649012 0.530175
0.526787 0.648554 0.530205
0.530510 0.648005 0.530297
0.534813 0.647242 0.530358
0.539727 0.646326 0.530205
0.545251 0.645228 0.530144
0.551507 0.646509 0.529229
0.559136 0.651179 0.527092
0.568475 0.656092 0.524681
0.579492 0.661402 0.521935
0.592401 0.666896 0.518853
0.607416 0.672450 0.515312
0.624170 0.678004 0.511711
0.642878 0.683558 0.507408
0.663478 0.688899 0.502403
0.685695 0.694118 0.497139
0.709377 0.699092 0.491310
0.732662 0.702510 0.486488
0.753506 0.703853 0.484901
0.769558 0.709102 0.494118
0.785428 0.714778 0.503288
0.800809 0.720699 0.513085
0.815671 0.726894 0.523186
0.830167 0.733333 0.533410
0.844236 0.740047 0.544244
0.857877 0.747036 0.555596
0.871183 0.754391 0.567681
0.538933 0.668818 0.554284
0.539025 0.668757 0.554223
0.539361 0.668605 0.554162
0.540124 0.668421 0.554009
0.541558 0.668177 0.554009
0.543511 0.667811 0.553979
0.546014 0.667414 0.553979
0.549065 0.666896 0.553826
0.552880 0.666255 0.553918
0.557183 0.665431 0.553857
0.562066 0.664485 0.553735
0.567407 0.663386 0.553552
0.573816 0.667170 0.551873
0.581567 0.671565 0.549737
0.590784 0.676204 0.547601
0.601617 0.680995 0.545098
0.614099 0.685908 0.542382
0.628077 0.690852 0.539208
0.643915 0.695766 0.535668
0.661372 0.700618 0.531853
0.680385 0.705379 0.527398
0.700771 0.709957 0.522789
0.722560 0.714321 0.517662
0.743893 0.717220 0.513085
0.763882 0.718898 0.512505
0.779568 0.724208 0.521202
0.794888 0.730190 0.531182
0.809812 0.736416 0.541344
0.824399 0.742947 0.551781
0.838651 0.749691 0.562615
0.852415 0.756802 0.574243
0.865934 0.764218 0.586389
0.557671 0.685512 0.576501
0.557733 0.685389 0.576440
0.558038 0.685328 0.576379
0.558801 0.685176 0.576379
0.560052 0.685054 0.576379
0.561791 0.684840 0.576379
0.564141 0.684565 0.576623
0.566979 0.684199 0.576715
0.570367 0.683711 0.576837
0.574121 0.683070 0.576684
0.578424 0.682368 0.576806
0.583246 0.681483 0.576623
0.588617 0.682551 0.576013
0.595300 0.686427 0.574578
0.603052 0.690578 0.572839
0.612177 0.694850 0.570886
0.622675 0.699275 0.568841
0.634546 0.703731 0.566339
0.647822 0.708156 0.563684
0.662501 0.712490 0.560540
0.678553 0.716762 0.557153
0.696010 0.720882 0.553216
0.714870 0.724971 0.549065
0.735103 0.729122 0.544610
0.755276 0.732174 0.540887
0.774014 0.733761 0.539483
0.789456 0.738979 0.547601
0.804532 0.745357 0.557977
0.819242 0.752041 0.568811
0.833555 0.759030 0.580255
0.847654 0.766323 0.592157
0.860960 0.773220 0.603388
0.577173 0.701900 0.599939
0.577203 0.701839 0.599817
0.577417 0.701747 0.599695
0.578027 0.701625 0.599695
0.579034 0.701442 0.599725
0.580529 0.701198 0.599664
0.582391 0.700893 0.599664
0.584771 0.700526 0.599695
0.587579 0.700008 0.599573
0.590814 0.699428 0.599420
0.594476 0.698726 0.599207
0.598627 0.697902 0.599054
0.603235 0.697078 0.599054
0.608759 0.700191 0.597894
0.615351 0.703822 0.596643
0.623011 0.707607 0.595087
0.631800 0.711513 0.593439
0.641779 0.715480 0.591547
0.652949 0.719448 0.589349
0.665309 0.723354 0.586999
0.679042 0.727291 0.584161
0.694118 0.731289 0.581079
0.710536 0.735317 0.577844
0.728359 0.739376 0.573999
0.747402 0.743435 0.570001
0.766445 0.746609 0.566735
0.784237 0.748501 0.565637
0.799435 0.753567 0.573266
0.814298 0.760403 0.584527
0.828885 0.767636 0.596277
0.842588 0.774319 0.606897
0.855985 0.781064 0.617578
0.595758 0.716670 0.622309
0.595727 0.716609 0.622248
0.596033 0.716579 0.622309
0.596551 0.716457 0.622187
0.597406 0.716335 0.622187
0.598688 0.716182 0.622248
0.600336 0.715908 0.622217
0.602319 0.715572 0.622217
0.604730 0.715206 0.622156
0.607568 0.714687 0.622095
0.610742 0.714107 0.621820
0.614374 0.713436 0.621790
0.618402 0.712703 0.621637
0.622889 0.713558 0.621118
0.628382 0.716762 0.620233
0.634852 0.720089 0.619074
0.642206 0.723507 0.617853
0.650538 0.727108 0.616388
0.660090 0.730739 0.614832
0.670619 0.734493 0.612787
0.682429 0.738369 0.610681
0.695491 0.742275 0.608240
0.709743 0.746273 0.605646
0.725368 0.750301 0.602899
0.742184 0.754391 0.599817
0.760220 0.758511 0.596460
0.778408 0.761807 0.593652
0.795438 0.764034 0.593225
0.810239 0.768765 0.599939
0.824399 0.775387 0.610407
0.838224 0.782071 0.621027
0.851713 0.788876 0.631830
0.614618 0.730678 0.645228
0.614649 0.730678 0.645167
0.614832 0.730617 0.645014
0.615320 0.730556 0.645045
0.616022 0.730404 0.645045
0.617029 0.730159 0.644892
0.618219 0.729915 0.644709
0.619837 0.729519 0.644556
0.621637 0.729061 0.644221
0.623865 0.728542 0.643946
0.626459 0.727901 0.643580
0.629389 0.727230 0.643275
0.632685 0.726497 0.642939
0.636378 0.725795 0.642725
0.640925 0.728298 0.641932
0.646357 0.731319 0.640986
0.652583 0.734554 0.640040
0.659754 0.737972 0.638972
0.667933 0.741512 0.637751
0.677058 0.745205 0.636255
0.687251 0.748959 0.634668
0.698665 0.752834 0.632807
0.711177 0.756802 0.630945
0.724910 0.760861 0.628931
0.739895 0.764981 0.626764
0.755642 0.768826 0.623713
0.772457 0.772580 0.620325
0.789487 0.775662 0.617212
0.805539 0.777615 0.616205
0.819699 0.781643 0.621332
0.833677 0.788449 0.632136
0.847379 0.795407 0.643030
0.632074 0.744137 0.666163
0.632074 0.744137 0.666163
0.632288 0.744106 0.666163
0.632685 0.744045 0.666133
0.633356 0.743984 0.666163
0.634302 0.743832 0.666224
0.635492 0.743679 0.666285
0.636927 0.743435 0.666255
0.638666 0.743160 0.666194
0.640803 0.742824 0.666163
0.643122 0.742397 0.666041
0.645777 0.741909 0.665949
0.648768 0.741421 0.665888
0.652125 0.740841 0.665797
