20 Preset/Natural Girl/【3】LUT video cho PR-AE-FCPX/Lut Tone  (16).cube
# Created by Adobe Lightroom plugin Export LUT (1.24.0)
# www.johnrellis.com/lightroom/exportlut.htm
# Preset: 自然胶片-素材江湖（原版）09
# Color profile: C:\Program Files (x86)\Common Files\Adobe\Color\Profiles\Recommended\VideoHD.icc
LUT_3D_SIZE 32
DOMAIN_MIN 0.0 0.0 0.0
DOMAIN_MAX 1.0 1.0 1.0
0.011444 0.009552 0.010895
0.030121 0.014069 0.013306
0.084810 0.022827 0.022248
0.111421 0.049439 0.039704
0.136538 0.078187 0.067628
0.170413 0.092348 0.086793
0.212070 0.101350 0.094545
0.257420 0.109651 0.100221
0.304723 0.118074 0.105409
0.351965 0.127779 0.111025
0.398322 0.139803 0.117128
0.442939 0.154208 0.123995
0.485084 0.170474 0.132143
0.524620 0.188540 0.142275
0.560876 0.208316 0.153292
0.593652 0.229129 0.165560
0.623377 0.250889 0.179324
0.650294 0.272740 0.194705
0.674647 0.294285 0.210056
0.701717 0.320806 0.229496
0.726375 0.346532 0.249516
0.746914 0.369757 0.268254
0.763607 0.390326 0.285954
0.777951 0.409003 0.302495
0.790280 0.426307 0.318669
0.801205 0.442512 0.334630
0.811185 0.458076 0.350378
0.821408 0.473548 0.366308
0.832364 0.489235 0.382483
0.844144 0.505455 0.399573
0.856870 0.522271 0.417395
0.870542 0.539727 0.436255
0.018494 0.029694 0.020417
0.029694 0.029541 0.020233
0.087861 0.038849 0.028992
0.112093 0.059113 0.042847
0.137270 0.082795 0.072206
0.170932 0.095369 0.088106
0.211276 0.103731 0.095033
0.255741 0.111513 0.100404
0.302373 0.119905 0.105318
0.349004 0.129427 0.110750
0.394873 0.141695 0.117159
0.439124 0.155093 0.123751
0.481239 0.170962 0.131746
0.520775 0.188540 0.141817
0.556909 0.207889 0.152407
0.590173 0.228794 0.165316
0.620233 0.250034 0.178897
0.647395 0.271885 0.193729
0.671839 0.293217 0.208988
0.698634 0.318730 0.227451
0.722621 0.343694 0.246738
0.742855 0.365911 0.265019
0.759579 0.386267 0.282170
0.774105 0.404456 0.298100
0.786618 0.421668 0.314122
0.797848 0.437659 0.329442
0.808164 0.453254 0.345342
0.818357 0.468818 0.361242
0.829252 0.484718 0.377630
0.841032 0.501030 0.394812
0.853819 0.517967 0.412726
0.867521 0.535637 0.431678
0.052064 0.083345 0.052705
0.062654 0.084627 0.056733
0.090700 0.088563 0.056184
0.114137 0.091981 0.068147
0.142153 0.097597 0.084657
0.176791 0.106142 0.092439
0.216953 0.113741 0.097749
0.260502 0.121065 0.102815
0.305760 0.129763 0.108095
0.351202 0.139071 0.112947
0.396155 0.150546 0.118898
0.439765 0.163333 0.125368
0.481209 0.178470 0.133730
0.519951 0.195773 0.143130
0.556023 0.214267 0.154025
0.588861 0.234043 0.167056
0.618891 0.254643 0.180301
0.645930 0.275792 0.195071
0.670497 0.296574 0.209964
0.697230 0.321752 0.228885
0.720821 0.345556 0.247318
0.740810 0.367376 0.265141
0.757595 0.386877 0.281743
0.772030 0.404791 0.297795
0.784604 0.421454 0.313359
0.795926 0.437110 0.328283
0.806394 0.452735 0.343847
0.816556 0.468177 0.359869
0.827543 0.483833 0.376043
0.839261 0.500145 0.393347
0.852018 0.516899 0.411139
0.865721 0.534356 0.429938
0.091005 0.110780 0.091188
0.092500 0.111269 0.091890
0.100832 0.112978 0.093935
0.119600 0.118166 0.093324
0.152071 0.125277 0.094881
0.189578 0.129732 0.099336
0.230533 0.134890 0.104036
0.271977 0.141909 0.108095
0.315953 0.149691 0.112795
0.359503 0.158633 0.117464
0.402686 0.168856 0.123018
0.444221 0.180697 0.129671
0.484321 0.195193 0.137758
0.521874 0.210971 0.147677
0.556756 0.227970 0.158785
0.588891 0.246494 0.170809
0.617884 0.265202 0.184573
0.644434 0.284825 0.198489
0.668940 0.304784 0.213321
0.694820 0.328038 0.231296
0.717128 0.349554 0.248753
0.736660 0.369848 0.265324
0.753414 0.388525 0.281559
0.768338 0.406073 0.297459
0.781735 0.422675 0.312718
0.793729 0.438819 0.328557
0.804685 0.454627 0.344488
0.815305 0.470130 0.360723
0.826444 0.485908 0.377325
0.838346 0.502068 0.394507
0.850950 0.518456 0.411933
0.864347 0.535210 0.430091
0.102754 0.147341 0.107942
0.104494 0.147860 0.108156
0.113497 0.148653 0.109773
0.128603 0.152926 0.110445
0.157198 0.161959 0.108949
0.202121 0.170718 0.105226
0.242832 0.172976 0.109773
0.285832 0.174472 0.114778
0.328466 0.179141 0.119051
0.369696 0.186862 0.124056
0.410224 0.195621 0.129519
0.450080 0.206302 0.136294
0.488319 0.218662 0.145052
0.524926 0.232822 0.155062
0.558953 0.248569 0.166110
0.590143 0.265507 0.178927
0.618952 0.282628 0.192020
0.645075 0.300725 0.205966
0.670893 0.320317 0.220981
0.695125 0.341161 0.238285
0.716548 0.360967 0.254887
0.735378 0.379309 0.270420
0.752041 0.396643 0.285832
0.766873 0.413245 0.301396
0.780301 0.429175 0.316503
0.792386 0.444770 0.332158
0.803494 0.459876 0.347753
0.814084 0.474800 0.363775
0.825254 0.490028 0.379919
0.837095 0.505425 0.396551
0.849607 0.521202 0.413611
0.862913 0.537469 0.431342
0.107881 0.193515 0.122957
0.110719 0.193637 0.123445
0.120455 0.194095 0.125338
0.137026 0.195285 0.128145
0.161990 0.204288 0.126284
0.202121 0.215885 0.123049
0.253971 0.225895 0.117403
0.299321 0.225834 0.120577
0.342107 0.226047 0.126680
0.385290 0.227329 0.133974
0.424506 0.232731 0.140566
0.462226 0.241642 0.148104
0.498421 0.252293 0.157259
0.533043 0.264683 0.167483
0.565423 0.277928 0.178866
0.595697 0.292515 0.190738
0.623194 0.307866 0.203769
0.648646 0.323949 0.217594
0.675074 0.342901 0.233524
0.698146 0.361181 0.249393
0.718593 0.378698 0.265019
0.736873 0.395361 0.280034
0.773098 0.437507 0.319707
0.785641 0.452155 0.335027
0.796628 0.465797 0.350103
0.806638 0.479042 0.365026
0.816739 0.492073 0.379614
0.827329 0.505241 0.394018
0.838315 0.518700 0.409125
0.850004 0.532555 0.424414
0.862242 0.546715 0.440345
0.874998 0.561151 0.456428
0.113558 0.254917 0.144442
0.116579 0.255009 0.145266
0.128298 0.255100 0.146365
0.148806 0.255650 0.149264
0.174502 0.259556 0.151125
0.209201 0.270115 0.148653
0.257328 0.282872 0.144350
0.314733 0.293034 0.137850
0.364721 0.293706 0.138827
0.406744 0.292088 0.147524
0.448310 0.292271 0.158114
0.488685 0.294865 0.170138
0.522820 0.302098 0.179782
0.554528 0.311345 0.189914
0.583978 0.321782 0.200626
0.610895 0.333104 0.212741
0.636164 0.345068 0.224613
0.663691 0.362158 0.240604
0.688350 0.378973 0.256229
0.710506 0.395392 0.272038
0.730831 0.411902 0.288090
0.749111 0.427985 0.304540
0.765225 0.443915 0.321111
0.779568 0.459022 0.337438
0.791989 0.473213 0.353399
0.802670 0.486305 0.368811
0.813107 0.498573 0.383032
0.823697 0.510918 0.397162
0.834806 0.523491 0.411566
0.846281 0.536400 0.426337
0.858488 0.549859 0.441505
0.871244 0.563592 0.457069
0.128267 0.304936 0.167086
0.130739 0.305241 0.167849
0.141512 0.305272 0.169284
0.161349 0.305333 0.171389
0.186069 0.305608 0.175448
0.215610 0.312993 0.175387
0.253971 0.323583 0.172763
0.303166 0.336095 0.169558
0.359319 0.347112 0.165530
0.411414 0.349859 0.163302
0.451667 0.347875 0.173922
0.490425 0.347784 0.185336
0.527123 0.349615 0.197848
0.561883 0.352728 0.210178
0.589837 0.359655 0.220493
0.615259 0.368017 0.231052
0.642908 0.381018 0.245121
0.667536 0.393500 0.258824
0.689784 0.406073 0.272313
0.710231 0.419287 0.286534
0.729427 0.432776 0.300999
0.746822 0.446265 0.315587
0.762417 0.459815 0.331060
0.776425 0.472938 0.346258
0.788663 0.485542 0.361730
0.799435 0.497200 0.375952
0.810025 0.508385 0.389654
0.820706 0.519615 0.403265
0.831876 0.531273 0.416999
0.843442 0.543481 0.431159
0.855650 0.555962 0.445777
0.868498 0.569055 0.460700
0.153872 0.353338 0.194949
0.156008 0.353491 0.195285
0.164920 0.353216 0.196262
0.181399 0.353246 0.198825
0.203525 0.353002 0.201968
0.229770 0.354650 0.205020
0.259678 0.363317 0.203983
0.299382 0.374029 0.202152
0.347356 0.385870 0.199893
0.401526 0.397223 0.196841
0.455268 0.403357 0.192996
0.492714 0.401312 0.204288
0.528283 0.400641 0.216312
0.561608 0.401221 0.227970
0.594995 0.405493 0.242588
0.626154 0.411383 0.257694
0.650111 0.419471 0.269047
0.672084 0.428077 0.280400
0.692531 0.437201 0.291936
0.711727 0.447089 0.304204
0.729610 0.457588 0.317082
0.745907 0.468513 0.330663
0.760769 0.479622 0.344793
0.774166 0.490639 0.359228
0.786191 0.501244 0.373266
0.796933 0.511345 0.386633
0.807614 0.521355 0.399481
0.818448 0.531548 0.412238
0.829709 0.542199 0.425422
0.841367 0.553216 0.438758
0.853544 0.564874 0.452766
0.866361 0.577050 0.467048
0.186007 0.398474 0.225345
0.187594 0.398322 0.225254
0.194156 0.398138 0.226291
0.207034 0.397681 0.227604
0.224979 0.397253 0.230198
0.247684 0.396429 0.233951
0.273167 0.400793 0.234928
0.304448 0.409613 0.233982
0.342565 0.419348 0.233341
0.388037 0.430671 0.231968
0.439246 0.442023 0.230869
0.490272 0.449378 0.227848
0.529870 0.450752 0.237278
0.564202 0.451545 0.250431
0.596033 0.453162 0.263737
0.625147 0.455756 0.277348
0.652308 0.459266 0.291051
0.676844 0.463996 0.304875
0.696223 0.470466 0.315038
0.714168 0.477699 0.325872
0.730617 0.485084 0.337011
0.745327 0.492744 0.348394
0.758877 0.500572 0.360296
0.771298 0.508782 0.372259
0.782681 0.516960 0.384405
0.793240 0.525231 0.396368
0.803830 0.533898 0.408698
0.814908 0.542992 0.420783
0.826413 0.552758 0.433173
0.838315 0.563226 0.446387
0.850858 0.574304 0.460029
0.863890 0.585992 0.474250
0.217960 0.437812 0.254124
0.218936 0.437720 0.254032
0.224582 0.437690 0.255039
0.234653 0.437476 0.256413
0.249729 0.437110 0.258701
0.268772 0.436744 0.261936
0.290990 0.436530 0.266056
0.316228 0.443854 0.265904
0.348150 0.452979 0.265843
0.387091 0.464485 0.267033
0.431373 0.476448 0.267918
0.480354 0.488808 0.269230
0.527855 0.497139 0.267582
0.565972 0.498360 0.273991
0.595819 0.497505 0.285557
0.623590 0.497688 0.297673
0.649561 0.498665 0.310155
0.673671 0.500694 0.322576
0.696071 0.503716 0.335790
0.715694 0.507469 0.348119
0.730800 0.512261 0.357763
0.744686 0.517388 0.367590
0.757473 0.523491 0.378454
0.769406 0.529564 0.389136
0.780392 0.536065 0.400153
0.791104 0.542901 0.411017
0.801877 0.550347 0.422187
0.813016 0.558282 0.433570
0.824582 0.567041 0.445319
0.836667 0.576501 0.457740
0.849271 0.586572 0.470466
0.862394 0.597375 0.483986
0.252598 0.477516 0.285466
0.253361 0.477485 0.285283
0.257511 0.477607 0.286046
0.266209 0.477729 0.287785
0.278904 0.478035 0.290166
0.295537 0.477974 0.293156
0.315038 0.478431 0.297398
0.337438 0.481788 0.300481
0.364050 0.489906 0.301396
0.395392 0.499001 0.302647
0.431800 0.508812 0.303899
0.472419 0.519127 0.305364
0.538628 0.552331 0.329229
0.581323 0.559411 0.329381
0.618067 0.561975 0.332677
0.643702 0.559686 0.343236
0.667231 0.558099 0.354376
0.689113 0.557244 0.365118
0.708797 0.557000 0.376837
0.726558 0.557458 0.388251
0.742580 0.558495 0.400580
0.756069 0.560418 0.411048
0.766781 0.563073 0.418891
0.777157 0.566644 0.427680
0.787594 0.570886 0.436255
0.798062 0.575494 0.444648
0.808591 0.580560 0.453101
0.819211 0.586419 0.462165
0.830289 0.592920 0.471656
0.841794 0.600336 0.481971
0.853910 0.608484 0.492683
0.866667 0.617578 0.504479
0.302464 0.529198 0.330236
0.302800 0.529168 0.330236
0.305821 0.528496 0.330358
0.311894 0.527916 0.330968
0.321141 0.526787 0.331792
0.333501 0.525689 0.333471
0.348974 0.524804 0.336187
0.367285 0.523888 0.339635
0.389105 0.529534 0.341131
0.415351 0.537438 0.342962
0.446693 0.546624 0.345861
0.482094 0.556878 0.349187
0.520714 0.567529 0.353094
0.561028 0.577966 0.357183
0.600610 0.585687 0.359228
0.637324 0.590204 0.361120
0.660731 0.587671 0.370764
0.681636 0.585168 0.380529
0.700679 0.583276 0.390356
0.717983 0.581964 0.400946
0.733822 0.581384 0.411414
0.748287 0.581720 0.422614
0.761685 0.582849 0.434180
0.773587 0.585138 0.443458
0.784176 0.588251 0.451118
0.794766 0.591943 0.458808
0.805509 0.596368 0.466835
0.816495 0.601465 0.475227
0.827817 0.607233 0.484016
0.839628 0.614038 0.493935
0.851865 0.621515 0.504173
0.864744 0.629908 0.515251
0.334844 0.559503 0.359442
0.334874 0.559258 0.359197
0.337102 0.558556 0.359136
0.341466 0.557519 0.359075
0.348486 0.556207 0.359533
0.358068 0.554864 0.360479
0.370886 0.553399 0.361822
0.385595 0.552514 0.364569
0.403357 0.553277 0.367559
0.425208 0.559808 0.369146
0.451026 0.567620 0.371954
0.480659 0.576349 0.375219
0.513329 0.585595 0.379217
0.547662 0.594812 0.383215
0.583948 0.603601 0.386389
0.619287 0.610071 0.388159
0.652674 0.614160 0.389532
0.675166 0.611749 0.396429
0.693751 0.608667 0.405615
0.710597 0.606134 0.414862
0.726131 0.604364 0.424598
0.740597 0.603540 0.434760
0.754269 0.603632 0.445563
0.767788 0.604944 0.456428
0.781155 0.607263 0.467414
0.792844 0.610254 0.475685
0.803677 0.613794 0.482887
0.814786 0.618036 0.490455
0.826200 0.623041 0.498665
0.838102 0.629053 0.507713
0.850492 0.635859 0.517418
0.863493 0.643580 0.527916
0.364324 0.585412 0.385992
0.364660 0.585321 0.385962
0.366278 0.584771 0.385962
0.369329 0.583642 0.385504
0.374731 0.582300 0.385504
0.382452 0.580743 0.386084
0.392493 0.579431 0.387213
0.405035 0.578241 0.389227
0.419776 0.577295 0.391852
0.437507 0.580865 0.394446
0.458991 0.587457 0.396857
0.484108 0.595026 0.400153
0.511345 0.603021 0.403845
0.540978 0.611017 0.407538
0.571893 0.618799 0.410651
0.603754 0.625788 0.413336
0.635462 0.631159 0.414862
0.665919 0.634943 0.416144
0.687800 0.632929 0.421729
0.704280 0.629450 0.429816
0.719417 0.626764 0.438727
0.733822 0.624872 0.448219
0.747524 0.624109 0.457984
0.761257 0.624598 0.467933
0.774868 0.626001 0.478187
0.788479 0.628443 0.488869
0.802182 0.631678 0.499550
0.813809 0.635523 0.507378
0.825589 0.640192 0.515129
0.837888 0.645808 0.523919
0.850645 0.652399 0.533654
0.864042 0.659815 0.543999
0.390204 0.607446 0.410071
0.390723 0.607477 0.410315
0.392279 0.607141 0.410315
0.395117 0.606622 0.410559
0.400031 0.605768 0.410742
0.406622 0.604913 0.411505
0.415747 0.604150 0.413031
0.426795 0.603540 0.415198
0.439612 0.602930 0.417792
0.453925 0.602838 0.421271
0.471565 0.608057 0.423194
0.491646 0.613855 0.425513
0.514031 0.620020 0.427771
0.538262 0.626215 0.430182
0.564019 0.632258 0.432654
0.591180 0.638025 0.434943
0.619654 0.643549 0.437201
0.648249 0.648188 0.438636
0.676600 0.652094 0.440009
0.698054 0.650782 0.444251
0.713161 0.647608 0.452949
0.727535 0.645289 0.461769
0.741634 0.644129 0.471015
0.755581 0.644129 0.480903
0.769528 0.645075 0.490730
0.783536 0.647028 0.500847
0.797513 0.649897 0.511345
0.811704 0.653620 0.522087
0.825895 0.658167 0.533227
0.838132 0.662989 0.541039
0.850767 0.668635 0.549676
0.863890 0.675074 0.558953
0.413825 0.627008 0.432563
0.414191 0.626978 0.432563
0.415259 0.626673 0.432502
0.417884 0.626368 0.432929
0.421973 0.625788 0.433295
0.427710 0.625147 0.433997
0.435370 0.624475 0.435187
0.444648 0.623835 0.436927
0.455482 0.623255 0.439307
0.467628 0.622675 0.442023
0.481849 0.624414 0.444648
0.498726 0.629419 0.446632
0.517601 0.634638 0.448829
0.538201 0.639857 0.451179
0.560388 0.644984 0.453407
0.583703 0.649989 0.455695
0.608362 0.654780 0.457649
0.634089 0.659541 0.460151
0.660060 0.663752 0.462287
0.686488 0.667720 0.463844
0.707668 0.667475 0.467842
0.722164 0.664820 0.476204
0.736355 0.663355 0.484871
0.750515 0.662989 0.493996
0.764706 0.663600 0.503288
0.778958 0.665095 0.513024
0.793179 0.667597 0.523278
0.807706 0.670893 0.533684
0.822354 0.675074 0.544732
0.837247 0.680049 0.556146
0.851621 0.685603 0.567010
0.864744 0.691371 0.575616
0.437659 0.645899 0.455695
0.437995 0.645991 0.455848
0.453162 0.656245 0.470039
0.455268 0.655940 0.470100
0.458534 0.655421 0.470375
0.462928 0.654780 0.470924
0.468696 0.654047 0.471778
0.476173 0.653193 0.472694
0.484901 0.652430 0.474403
0.494881 0.651667 0.476478
0.505882 0.650874 0.478828
0.519341 0.653864 0.480690
0.534569 0.657618 0.482338
0.551202 0.661402 0.484016
0.569146 0.665064 0.485695
0.588312 0.668666 0.486946
0.608515 0.672114 0.488319
0.629755 0.675532 0.489693
0.652003 0.678950 0.491341
0.674861 0.682216 0.493080
0.698024 0.685115 0.494820
0.719417 0.686641 0.498268
0.734981 0.685451 0.504753
0.748898 0.684443 0.512566
0.762692 0.684169 0.520439
0.776608 0.684779 0.528527
0.790524 0.686213 0.537255
0.804715 0.688563 0.546502
0.819272 0.691890 0.556390
0.834134 0.696254 0.567193
0.849271 0.701381 0.578576
0.864836 0.707118 0.590204
0.463416 0.665034 0.481544
0.465064 0.665888 0.482887
0.466987 0.666651 0.484199
0.469917 0.667201 0.485512
0.473701 0.667414 0.486824
0.477699 0.667140 0.487556
0.482918 0.666499 0.488228
0.488991 0.665736 0.488960
0.496376 0.664942 0.490303
0.504967 0.664179 0.491951
0.514336 0.663386 0.493812
0.525078 0.663539 0.496040
0.538079 0.666743 0.497536
0.552514 0.670039 0.499153
0.568017 0.673396 0.500755
0.584771 0.676692 0.502464
0.602686 0.679957 0.503960
0.621454 0.683253 0.505821
0.641352 0.686641 0.507774
0.662135 0.690181 0.510185
0.683864 0.693874 0.512749
0.706142 0.697627 0.515557
0.727871 0.700710 0.519066
0.744656 0.700984 0.524926
0.758511 0.700526 0.532280
0.772396 0.700862 0.540002
0.786435 0.701991 0.548089
0.800656 0.703975 0.556878
0.815213 0.706905 0.566308
0.830198 0.710811 0.576623
0.845640 0.715541 0.587366
0.861357 0.720882 0.598596
0.480995 0.677516 0.499519
0.482460 0.678248 0.500786
0.484535 0.679011 0.502251
0.487068 0.679591 0.503655
0.490333 0.679835 0.504692
0.493996 0.679622 0.505577
0.498207 0.679103 0.506035
0.503502 0.678492 0.506920
0.509789 0.677729 0.507713
0.516838 0.676967 0.509087
0.525078 0.676143 0.510643
0.534051 0.675288 0.512444
0.544701 0.676753 0.514092
0.557061 0.679652 0.515709
0.570550 0.682643 0.517479
0.585138 0.685603 0.518914
0.600702 0.688563 0.520714
0.617243 0.691615 0.522423
0.634821 0.694881 0.524559
0.653590 0.698390 0.526818
0.673335 0.702174 0.529442
0.693812 0.706203 0.532494
0.715236 0.710506 0.535637
0.737087 0.714717 0.539330
0.754971 0.716396 0.544457
0.768917 0.716548 0.551659
0.782956 0.717372 0.559197
0.797147 0.719051 0.567559
0.811826 0.721706 0.576410
0.826902 0.725277 0.586145
0.842374 0.729580 0.596338
0.858335 0.734493 0.606744
0.498665 0.689509 0.517845
0.499947 0.690089 0.518944
0.501671 0.690761 0.520165
0.503960 0.691157 0.521294
0.506706 0.691371 0.522454
0.509758 0.691218 0.523125
0.513481 0.690761 0.523644
0.517845 0.690211 0.524224
0.523186 0.689570 0.525078
0.529503 0.688869 0.526177
0.536584 0.688106 0.527611
0.544335 0.687343 0.529046
0.552636 0.686580 0.530541
0.563378 0.689082 0.532280
0.575128 0.691737 0.533959
0.587915 0.694545 0.535760
0.601770 0.697627 0.537896
0.616876 0.700954 0.540032
0.632990 0.704646 0.542779
0.650294 0.708614 0.545861
0.668574 0.712947 0.549218
0.687709 0.717525 0.552819
0.707637 0.722225 0.556634
0.728695 0.727352 0.560784
0.750790 0.732937 0.565118
0.770413 0.736416 0.570397
0.784665 0.737545 0.577905
0.799222 0.739345 0.585809
0.814084 0.741909 0.594385
0.829435 0.745205 0.603235
0.845151 0.749203 0.612634
0.861173 0.753719 0.622278
0.522789 0.704860 0.543053
0.523308 0.705074 0.543572
0.524132 0.705226 0.543938
0.525383 0.705226 0.544396
0.527062 0.705013 0.544518
0.529259 0.704585 0.544671
0.532128 0.704067 0.545006
0.535851 0.703487 0.545434
0.540246 0.702876 0.545983
0.545617 0.702327 0.547021
0.551598 0.701686 0.548058
0.558373 0.700984 0.549554
0.565545 0.700130 0.550866
0.573938 0.700618 0.552422
0.584070 0.703182 0.553857
0.595117 0.705928 0.555535
0.607233 0.708797 0.557275
0.620294 0.711940 0.559167
0.634363 0.715358 0.561425
0.649561 0.718990 0.563745
0.665675 0.722896 0.566430
0.682795 0.727016 0.569421
0.700740 0.731289 0.572381
0.719387 0.735653 0.575525
0.739559 0.740810 0.579370
0.761440 0.746975 0.583612
0.781491 0.751308 0.588739
0.796963 0.753567 0.596033
0.811978 0.756008 0.603967
0.827329 0.759152 0.612360
0.843107 0.762814 0.621118
0.859007 0.766842 0.629999
0.538933 0.716487 0.560693
0.539330 0.716670 0.561028
0.540093 0.716823 0.561486
0.541161 0.716823 0.561730
0.542718 0.716640 0.562005
0.544610 0.716335 0.562280
0.547112 0.715846 0.562432
0.550286 0.715358 0.562829
0.554162 0.714809 0.563409
0.558953 0.714290 0.564233
0.564172 0.713710 0.565301
0.570092 0.713100 0.566461
0.576471 0.712367 0.567651
0.583337 0.711543 0.569055
0.592035 0.713527 0.570642
0.601862 0.716243 0.572351
0.612787 0.719234 0.574304
0.624445 0.722408 0.576257
0.637232 0.725795 0.578332
0.650843 0.729427 0.580743
0.665583 0.733333 0.583459
0.681117 0.737423 0.586175
0.697597 0.741695 0.588952
0.714809 0.746090 0.592035
0.730404 0.748043 0.591455
0.749996 0.753353 0.595331
0.771695 0.759915 0.599634
0.792172 0.765255 0.604944
0.809293 0.768673 0.611841
0.824796 0.771695 0.619928
0.840513 0.775204 0.628107
0.856535 0.779080 0.636622
0.557885 0.731228 0.581903
0.558618 0.731594 0.582544
0.559197 0.731716 0.582788
0.559899 0.731563 0.582788
0.560784 0.731106 0.582666
0.562066 0.730495 0.582330
0.563714 0.729702 0.581872
0.565972 0.728847 0.581628
0.568902 0.727962 0.581567
0.572503 0.727077 0.581781
0.576654 0.726192 0.582055
0.581445 0.725307 0.582574
0.586816 0.724392 0.583337
0.592554 0.723354 0.584070
0.598993 0.722927 0.584955
0.607385 0.725246 0.586023
0.616754 0.727840 0.587335
0.627131 0.730739 0.588922
0.638605 0.734035 0.590875
0.651118 0.737667 0.593164
0.664546 0.741604 0.595727
0.678889 0.745663 0.598444
0.693935 0.749752 0.600946
0.709682 0.753841 0.603449
0.726070 0.757870 0.605798
0.743099 0.761898 0.608118
0.762112 0.767178 0.611566
0.782895 0.773434 0.615808
0.804288 0.779751 0.620813
0.822538 0.784024 0.627008
0.838102 0.787228 0.634730
0.854124 0.791012 0.642817
0.570336 0.742550 0.596277
0.570886 0.742916 0.596826
0.571496 0.743099 0.597162
0.572259 0.743038 0.597253
0.573236 0.742824 0.597375
0.574701 0.742489 0.597406
0.576593 0.742061 0.597498
0.578973 0.741604 0.597742
0.581994 0.741115 0.598108
0.585595 0.740627 0.598657
0.589532 0.740017 0.599298
0.594141 0.739376 0.600031
0.599054 0.738613 0.600641
0.604364 0.737697 0.601434
0.609827 0.736660 0.602136
0.616724 0.737545 0.602960
0.624964 0.740017 0.604089
0.634180 0.742763 0.605341
0.644404 0.745876 0.607019
0.655756 0.749386 0.609125
0.668055 0.753170 0.611322
0.681147 0.757198 0.613703
0.695125 0.761257 0.616144
0.709865 0.765408 0.618647
0.725277 0.769528 0.620996
0.741360 0.773709 0.623316
0.758145 0.777859 0.625757
0.776974 0.783200 0.629023
0.797879 0.789944 0.633448
0.819577 0.796872 0.638453
0.839200 0.802090 0.644434
0.855100 0.805722 0.652064
0.584375 0.756710 0.612848
0.584649 0.756893 0.613062
0.585077 0.756954 0.613214
0.585687 0.756863 0.613367
0.586633 0.756588 0.613336
0.587823 0.756252 0.613397
0.589410 0.755825 0.613336
0.591485 0.755337 0.613397
0.594141 0.754788 0.613642
0.597375 0.754299 0.614130
0.601007 0.753719 0.614557
0.605158 0.753140 0.615229
0.609705 0.752468 0.615900
0.614557 0.751644 0.616510
0.619623 0.750668 0.617090
0.625025 0.749630 0.617792
0.632532 0.751919 0.618708
0.640864 0.754543 0.619837
0.650233 0.757565 0.621332
0.660548 0.760952 0.623133
0.671870 0.764584 0.625116
0.683986 0.768429 0.627344
0.696834 0.772366 0.629480
0.710475 0.776303 0.631556
0.724727 0.780179 0.633570
0.739620 0.784054 0.635584
0.755337 0.787991 0.637629
0.771725 0.791989 0.639673
0.790219 0.797299 0.642817
0.811460 0.804501 0.647517
0.833616 0.812100 0.652766
0.854429 0.818387 0.659236
0.596063 0.770474 0.627222
0.596368 0.770626 0.627436
0.596674 0.770718 0.627558
0.597406 0.770718 0.627832
0.598352 0.770687 0.628046
0.599786 0.770657 0.628321
0.601862 0.770809 0.628992
0.604517 0.770993 0.629847
0.607721 0.771298 0.630976
0.611444 0.771664 0.632197
0.615625 0.772061 0.633631
0.620172 0.772274 0.635035
0.625055 0.772396 0.636408
0.630152 0.772274 0.637629
0.635309 0.771878 0.638697
0.640681 0.771145 0.639582
0.646815 0.771511 0.640467
0.654566 0.774136 0.641474
0.663203 0.777035 0.642725
0.672724 0.780270 0.644282
0.683131 0.783719 0.645960
0.694362 0.787320 0.647730
0.706325 0.790982 0.649470
0.718929 0.794675 0.651209
0.732326 0.798337 0.652918
0.746456 0.802060 0.654627
0.761349 0.805783 0.656458
0.776944 0.809567 0.658412
0.793332 0.813474 0.660517
0.811551 0.818631 0.663874
0.833158 0.826291 0.669581
0.855497 0.834531 0.676173
0.612177 0.790890 0.647272
0.612238 0.790890 0.647272
0.612512 0.790768 0.647272
0.612940 0.790646 0.647242
0.613703 0.790372 0.647181
0.614832 0.790127 0.647211
0.616358 0.789883 0.647425
0.618280 0.789609 0.647639
0.620752 0.789395 0.648005
0.623682 0.789151 0.648463
0.627070 0.788907 0.649073
0.630854 0.788602 0.649744
0.634974 0.788296 0.650477
0.639490 0.787839 0.651240
