20 Preset/Natural Girl/【3】LUT video cho PR-AE-FCPX/Lut Tone  (2).cube
# Created by Adobe Lightroom plugin Export LUT (1.24.0)
# www.johnrellis.com/lightroom/exportlut.htm
# Preset: 自然胶片-素材江湖（原版）11
# Color profile: C:\Program Files (x86)\Common Files\Adobe\Color\Profiles\Recommended\VideoHD.icc
LUT_3D_SIZE 5
DOMAIN_MIN 0.000000 0.000000 0.000000
DOMAIN_MAX 0.903226 0.903226 0.903226
0.115938 0.109773 0.114900
0.356634 0.145632 0.136110
0.719478 0.242618 0.158358
0.911467 0.418799 0.271611
1.000000 0.529931 0.388830
0.266850 0.348180 0.204471
0.407935 0.392340 0.194400
0.727474 0.426581 0.221866
0.894835 0.501976 0.323980
0.994263 0.579614 0.433448
0.530999 0.651057 0.443824
0.568322 0.644678 0.436927
0.709682 0.702571 0.477577
0.863951 0.699397 0.512352
0.959503 0.697688 0.548577
0.654719 0.768948 0.621942
0.671199 0.765652 0.621485
0.721340 0.779110 0.630060
0.808713 0.808560 0.647944
0.921111 0.816648 0.672450
0.742489 0.858122 0.740475
0.750820 0.856687 0.740322
0.771328 0.847898 0.728695
0.825193 0.870481 0.747768
0.902586 0.899565 0.773892
0.134401 0.132540 0.225315
0.294560 0.128969 0.241855
0.656916 0.263005 0.291447
0.854856 0.423957 0.361028
0.963653 0.524559 0.432319
0.198184 0.350591 0.319127
0.384344 0.374975 0.328740
0.683742 0.429053 0.350927
0.850065 0.497688 0.396826
0.958434 0.566644 0.461738
0.504112 0.638849 0.483894
0.551995 0.629084 0.481056
0.678737 0.676173 0.501701
0.836301 0.681178 0.535668
0.943297 0.694575 0.575372
0.649226 0.768276 0.641596
0.666041 0.765591 0.641657
0.716670 0.775387 0.648249
0.802213 0.804868 0.664332
0.915312 0.813901 0.685725
0.738277 0.858244 0.747677
0.746273 0.856413 0.746853
0.778470 0.854826 0.748836
0.829313 0.875151 0.763790
0.907866 0.905821 0.791562
0.131594 0.189639 0.513970
0.331456 0.177951 0.530999
0.604120 0.207156 0.496559
0.806912 0.365118 0.492714
0.915190 0.543236 0.568292
0.317937 0.416785 0.564965
0.406165 0.408179 0.570581
0.621515 0.390478 0.538293
0.801938 0.468055 0.529229
0.912413 0.583398 0.591302
0.431708 0.660945 0.640864
0.497078 0.660212 0.639918
0.655787 0.672572 0.650416
0.791836 0.676722 0.650324
0.906279 0.688441 0.653162
0.628595 0.775082 0.707790
0.642115 0.768826 0.702327
0.698909 0.761501 0.699702
0.786282 0.798123 0.718990
0.899229 0.804074 0.727810
0.713649 0.858152 0.769100
0.723629 0.857145 0.769497
0.760281 0.851865 0.769070
0.814939 0.865904 0.779232
0.896300 0.898039 0.803464
0.282963 0.317388 0.748501
0.386236 0.312505 0.750881
0.632136 0.252415 0.751247
0.772763 0.333074 0.678004
0.867887 0.460700 0.642512
0.405493 0.484443 0.753140
0.455818 0.474159 0.753292
0.629938 0.414069 0.751034
0.758785 0.429786 0.681575
0.860685 0.505730 0.652399
0.540490 0.669429 0.764431
0.569879 0.673335 0.763302
0.637476 0.663783 0.760739
0.727016 0.622827 0.711482
0.856229 0.636988 0.704707
0.575311 0.783780 0.790158
0.591272 0.782101 0.788388
0.658259 0.779171 0.785397
0.762814 0.786893 0.790341
0.875029 0.780911 0.781155
0.656947 0.871000 0.809720
0.667506 0.870390 0.809842
0.729152 0.867399 0.824247
0.795834 0.856504 0.817227
0.888090 0.896086 0.841642
0.421057 0.437385 0.879088
0.464912 0.429603 0.878172
0.610559 0.392676 0.876860
0.810086 0.257298 0.868376
0.875853 0.381048 0.789792
0.470192 0.531456 0.872740
0.500420 0.523217 0.872404
0.613855 0.484718 0.871153
0.796078 0.369512 0.862943
0.865019 0.433661 0.787930
0.549248 0.681392 0.869078
0.564752 0.678035 0.868467
0.637018 0.668025 0.865568
0.756588 0.590417 0.855406
0.839689 0.576562 0.796811
0.600671 0.783322 0.874846
0.613916 0.782834 0.874113
0.669947 0.785550 0.874510
0.742794 0.772244 0.871855
0.825711 0.725582 0.829679
0.616938 0.875700 0.884428
0.627497 0.875273 0.884306
0.674525 0.876310 0.886351
0.752163 0.877317 0.888823
0.869230 0.887999 0.899962
