20 Preset/Natural Girl/【3】LUT video cho PR-AE-FCPX/Lut Tone  (7).cube
# Created by Adobe Lightroom plugin Export LUT (1.24.0)
# www.johnrellis.com/lightroom/exportlut.htm
# Preset: 自然胶片-素材江湖（原版）16
# Color profile: C:\Program Files (x86)\Common Files\Adobe\Color\Profiles\Recommended\VideoHD.icc
LUT_3D_SIZE 5
DOMAIN_MIN 0.000000 0.000000 0.000000
DOMAIN_MAX 0.903226 0.903226 0.903226
0.104036 0.094453 0.052125
0.242527 0.141115 0.091127
0.550408 0.209232 0.100679
0.789792 0.345129 0.205112
0.885405 0.498970 0.382635
0.159213 0.249332 0.123323
0.250980 0.273381 0.101991
0.579370 0.320714 0.125093
0.789578 0.416510 0.245151
0.880064 0.538048 0.415930
0.327153 0.518456 0.303197
0.368475 0.511955 0.307317
0.520134 0.547356 0.246311
0.771878 0.595361 0.362402
0.857572 0.635859 0.500145
0.514824 0.683223 0.514946
0.527977 0.681727 0.517418
0.561822 0.684352 0.500420
0.652552 0.688563 0.429816
0.812436 0.729488 0.544396
0.642573 0.778439 0.676326
0.646815 0.777829 0.676967
0.657893 0.770535 0.672145
0.676478 0.778317 0.644373
0.736202 0.781216 0.589380
0.118135 0.111574 0.161501
0.240482 0.131044 0.160891
0.502464 0.209567 0.194797
0.745754 0.377081 0.305699
0.859007 0.510246 0.429236
0.177066 0.256535 0.195621
0.282078 0.270451 0.205417
0.538018 0.331151 0.245060
0.751308 0.430213 0.328832
0.855375 0.540398 0.450141
0.382544 0.514305 0.358770
0.399786 0.512535 0.350744
0.520348 0.532738 0.308415
0.757412 0.586023 0.415167
0.843931 0.638758 0.530358
0.532097 0.683925 0.538262
0.542596 0.683070 0.539086
0.576043 0.683162 0.530205
0.656306 0.687648 0.463233
0.809506 0.729427 0.570642
0.645350 0.778836 0.681880
0.649256 0.778042 0.682155
0.665675 0.775753 0.684627
0.682734 0.780758 0.659113
0.740139 0.783993 0.606775
0.112947 0.118379 0.421393
0.280827 0.129335 0.415045
0.519432 0.172183 0.390814
0.681544 0.317082 0.394598
0.827909 0.507988 0.511589
0.125856 0.278386 0.462104
0.309606 0.290227 0.448798
0.535637 0.299626 0.417945
0.691676 0.400824 0.432227
0.815732 0.565728 0.555932
0.368536 0.541070 0.506310
0.428138 0.542718 0.507225
0.578729 0.555291 0.518883
0.714015 0.595636 0.554559
0.808133 0.652369 0.614923
0.569635 0.689479 0.608911
0.584802 0.687343 0.610437
0.617243 0.686152 0.609430
0.672480 0.690486 0.569299
0.803738 0.733150 0.652766
0.661433 0.779324 0.708400
0.662989 0.779294 0.706844
0.671168 0.777707 0.701717
0.690913 0.777707 0.689082
0.741207 0.780362 0.638666
0.000000 0.147982 0.684840
0.258183 0.160067 0.679957
0.539452 0.208957 0.653162
0.716945 0.287816 0.608453
0.783047 0.414496 0.560052
0.209720 0.317266 0.690303
0.329595 0.322698 0.684352
0.552117 0.339788 0.658564
0.710140 0.367926 0.612268
0.776608 0.453101 0.569268
0.414221 0.564416 0.704982
0.461036 0.569512 0.702663
0.585351 0.570855 0.680110
0.694545 0.545373 0.636347
0.770871 0.581842 0.624079
0.558160 0.705806 0.704097
0.573236 0.704891 0.702632
0.628870 0.705074 0.701442
0.702388 0.706386 0.700404
0.787961 0.730098 0.720363
0.650324 0.787869 0.741634
0.656489 0.787747 0.742123
0.682368 0.787716 0.745357
0.711086 0.784024 0.740261
0.750088 0.781888 0.699306
0.000000 0.182376 0.827298
0.250431 0.197879 0.823819
0.510338 0.261936 0.811093
0.706447 0.335332 0.782956
0.824338 0.392798 0.746059
0.248417 0.324743 0.823148
0.337163 0.334051 0.820035
0.531884 0.368048 0.807401
0.703395 0.402777 0.780026
0.816587 0.431617 0.743984
0.387823 0.535698 0.825620
0.442023 0.544732 0.821073
0.588373 0.580926 0.804715
0.697505 0.564538 0.779477
0.795712 0.546258 0.745602
0.560082 0.719814 0.821256
0.573602 0.719905 0.820310
0.626184 0.723568 0.819516
0.703548 0.713954 0.802274
0.776547 0.679774 0.763607
0.633265 0.805631 0.815915
0.639490 0.805386 0.815518
0.666896 0.805905 0.815610
0.714900 0.805295 0.813931
0.781552 0.800137 0.806455
