20 Preset/Natural Girl/【3】LUT video cho PR-AE-FCPX/Lut Tone  (12).cube
# Created by Adobe Lightroom plugin Export LUT (1.24.0)
# www.johnrellis.com/lightroom/exportlut.htm
# Preset: 自然胶片-素材江湖（原版）05
# Color profile: C:\Program Files (x86)\Common Files\Adobe\Color\Profiles\Recommended\VideoHD.icc
LUT_3D_SIZE 5
DOMAIN_MIN 0.000000 0.000000 0.000000
DOMAIN_MAX 0.903226 0.903226 0.903226
0.051881 0.044495 0.033570
0.247776 0.102174 0.086824
0.523217 0.147036 0.117861
0.698878 0.265782 0.196567
0.794644 0.378424 0.296300
0.000000 0.299779 0.090272
0.266819 0.322850 0.026123
0.520256 0.326482 0.188083
0.689235 0.371984 0.252201
0.785458 0.435889 0.335729
0.238376 0.548577 0.246555
0.317937 0.544884 0.251835
0.503136 0.563073 0.228489
0.698543 0.559594 0.264561
0.753994 0.574273 0.468147
0.419501 0.658747 0.405890
0.441688 0.657038 0.407324
0.516472 0.650324 0.412665
0.624933 0.665980 0.393988
0.773739 0.686946 0.396094
0.541314 0.755642 0.544244
0.551019 0.754849 0.544793
0.587732 0.751308 0.546532
0.649714 0.750332 0.549615
0.746395 0.782620 0.528588
0.119081 0.051331 0.228031
0.292729 0.079652 0.225925
0.528252 0.185641 0.226566
0.686183 0.322759 0.291417
0.783383 0.404517 0.351415
0.021027 0.317601 0.249668
0.284031 0.327276 0.257908
0.519982 0.362097 0.293187
0.677790 0.402502 0.329351
0.775479 0.452888 0.381811
0.290654 0.553918 0.335729
0.351507 0.550683 0.338048
0.507897 0.559289 0.330358
0.688441 0.563806 0.355871
0.748806 0.579034 0.493080
0.438972 0.659571 0.445563
0.458412 0.658015 0.446265
0.525505 0.651637 0.449104
0.626001 0.664515 0.436652
0.770626 0.686915 0.435737
0.543999 0.756435 0.558495
0.553429 0.755673 0.558923
0.590112 0.752743 0.560815
0.650843 0.749416 0.563531
0.746426 0.782467 0.544640
0.168521 0.049531 0.498756
0.323705 0.084016 0.496254
0.570886 0.196048 0.478187
0.661372 0.322667 0.428138
0.771756 0.397192 0.438117
0.124361 0.310704 0.512047
0.317632 0.330846 0.508141
0.557122 0.357183 0.489876
0.659266 0.404028 0.452949
0.762539 0.453895 0.465522
0.298589 0.567620 0.508659
0.372992 0.567071 0.510613
0.527886 0.565759 0.518791
0.646082 0.577203 0.544945
0.738155 0.581933 0.549889
0.467781 0.664485 0.539239
0.488624 0.663355 0.542962
0.552819 0.658106 0.551812
0.629786 0.660182 0.546654
0.760128 0.684840 0.551720
0.544884 0.761471 0.605127
0.554284 0.760678 0.605127
0.590692 0.757351 0.604883
0.651240 0.751308 0.604395
0.744350 0.779995 0.593103
0.272068 0.131807 0.670924
0.359106 0.151186 0.669093
0.561364 0.234501 0.655940
0.706142 0.333043 0.631922
0.746334 0.412909 0.570703
0.322271 0.330632 0.669734
0.386786 0.336980 0.667567
0.555779 0.364233 0.656245
0.693263 0.410895 0.633478
0.738033 0.452613 0.578271
0.344213 0.545953 0.664546
0.391852 0.548516 0.662715
0.521874 0.556634 0.658900
0.656855 0.559045 0.638361
0.722042 0.553796 0.606775
0.472999 0.673304 0.653132
0.493538 0.672541 0.653559
0.561212 0.670253 0.656184
0.642481 0.666896 0.658869
0.736934 0.676600 0.676722
0.519280 0.772152 0.675410
0.528405 0.772061 0.674922
0.563500 0.771664 0.670924
0.640742 0.765225 0.668574
0.739925 0.776547 0.661555
0.373877 0.170321 0.793057
0.420966 0.182650 0.790738
0.562371 0.245212 0.782010
0.706477 0.333318 0.762203
0.795468 0.403388 0.736812
0.400793 0.311650 0.787503
0.439582 0.316625 0.785672
0.561089 0.342687 0.777646
0.696620 0.391638 0.758297
0.786496 0.437324 0.733974
0.374884 0.496803 0.786099
0.430091 0.509087 0.782315
0.549310 0.524804 0.773434
0.669459 0.525322 0.756344
0.765469 0.533349 0.735103
0.403052 0.662440 0.784756
0.424659 0.660761 0.783597
0.502434 0.656733 0.783108
0.620325 0.645991 0.781460
0.756832 0.641749 0.759365
0.469490 0.783536 0.785580
0.480476 0.783078 0.785336
0.523980 0.783993 0.787350
0.607141 0.783841 0.789395
0.740444 0.779446 0.789975
