20 Preset/Natural Girl/【3】LUT video cho PR-AE-FCPX/Lut Tone  (12).cube
# Created by Adobe Lightroom plugin Export LUT (1.24.0)
# www.johnrellis.com/lightroom/exportlut.htm
# Preset: 自然胶片-素材江湖（原版）05
# Color profile: C:\Program Files (x86)\Common Files\Adobe\Color\Profiles\Recommended\VideoHD.icc
LUT_3D_SIZE 32
DOMAIN_MIN 0.0 0.0 0.0
DOMAIN_MAX 1.0 1.0 1.0
0.051881 0.044495 0.033570
0.064393 0.045350 0.033204
0.091524 0.049805 0.036347
0.116609 0.062898 0.040894
0.144289 0.079316 0.051972
0.175113 0.089296 0.064149
0.209537 0.096956 0.079194
0.247776 0.102174 0.086824
0.287907 0.105531 0.090364
0.328710 0.109499 0.093721
0.370672 0.112978 0.097505
0.411231 0.118471 0.101259
0.450660 0.126101 0.105898
0.488136 0.135134 0.111116
0.523217 0.147036 0.117861
0.555657 0.161471 0.125978
0.585779 0.177096 0.135561
0.612970 0.195132 0.146395
0.637964 0.212284 0.157839
0.660304 0.230716 0.170565
0.680659 0.248295 0.183291
0.698878 0.265782 0.196567
0.715328 0.282750 0.209964
0.730678 0.299321 0.223453
0.745205 0.315648 0.237797
0.759030 0.331762 0.251621
0.771786 0.347570 0.266148
0.783627 0.363012 0.281224
0.794644 0.378424 0.296300
0.805020 0.393683 0.312047
0.815274 0.409033 0.328344
0.826352 0.424811 0.345403
0.054688 0.057588 0.033997
0.064332 0.056458 0.035065
0.090272 0.062379 0.040345
0.115969 0.074250 0.043915
0.144167 0.084962 0.054139
0.174563 0.093965 0.069276
0.209384 0.100374 0.080476
0.247196 0.105165 0.087495
0.287938 0.108492 0.091127
0.328954 0.112490 0.094362
0.370153 0.116854 0.098054
0.411170 0.121889 0.101381
0.450416 0.128634 0.105806
0.487800 0.138186 0.111574
0.522911 0.149752 0.118257
0.555383 0.163638 0.126680
0.585412 0.180087 0.136233
0.612787 0.196811 0.146731
0.637568 0.214115 0.158663
0.659968 0.231876 0.170901
0.680293 0.249577 0.183841
0.698573 0.266575 0.196597
0.714809 0.283482 0.209995
0.730190 0.299962 0.223850
0.744747 0.316136 0.237552
0.758541 0.332128 0.251682
0.771359 0.347692 0.266239
0.783230 0.363134 0.281071
0.794278 0.378576 0.296452
0.804685 0.393774 0.312047
0.814878 0.409186 0.328344
0.825986 0.424811 0.345342
0.067048 0.093507 0.041505
0.076661 0.093904 0.044556
0.096162 0.096284 0.039460
0.122072 0.098543 0.041321
0.141939 0.101869 0.068635
0.173190 0.108522 0.079438
0.208804 0.113741 0.086671
0.247379 0.117647 0.090486
0.288029 0.121645 0.093690
0.328923 0.124819 0.096803
0.370459 0.129244 0.099855
0.411261 0.134188 0.103029
0.450416 0.141299 0.107820
0.487678 0.150271 0.113375
0.522789 0.161013 0.120394
0.555322 0.173831 0.128573
0.585107 0.189334 0.138155
0.612482 0.205173 0.149294
0.637293 0.221714 0.160952
0.659602 0.238529 0.173007
0.679896 0.255222 0.185672
0.697932 0.272007 0.198795
0.714351 0.288151 0.212314
0.729610 0.304295 0.225620
0.744167 0.319921 0.239445
0.757992 0.335210 0.253330
0.770809 0.350774 0.267918
0.782650 0.365972 0.282628
0.793790 0.380987 0.297642
0.804166 0.396063 0.313390
0.814450 0.411078 0.329564
0.825559 0.426551 0.346349
0.086854 0.121248 0.060975
0.090394 0.121584 0.061769
0.102541 0.121950 0.064240
0.122286 0.126833 0.054475
0.153475 0.130922 0.053651
0.183047 0.131533 0.077821
0.208560 0.135409 0.094026
0.247288 0.140078 0.096284
0.288243 0.144045 0.098207
0.329290 0.148043 0.100801
0.371038 0.152255 0.103883
0.411749 0.157198 0.107668
0.450874 0.164034 0.111910
0.487922 0.172305 0.118166
0.522759 0.181613 0.125093
0.555016 0.193973 0.134035
0.584741 0.206973 0.143709
0.611841 0.221347 0.154482
0.636622 0.236362 0.165988
0.658778 0.251926 0.178073
0.678889 0.267002 0.190280
0.696834 0.282444 0.203494
0.713191 0.297459 0.216312
0.728573 0.312291 0.229435
0.743160 0.327214 0.243198
0.756985 0.342168 0.256992
0.769863 0.356939 0.271489
0.781827 0.371527 0.285801
0.792935 0.385962 0.300725
0.803372 0.400671 0.316350
0.813626 0.415259 0.332372
0.824796 0.430396 0.348943
0.095033 0.157931 0.080873
0.098085 0.157961 0.081483
0.109895 0.158541 0.082124
0.128298 0.160037 0.082643
0.154604 0.169558 0.066865
0.190982 0.172488 0.058442
0.233646 0.174044 0.062165
0.260105 0.171145 0.091951
0.288182 0.174258 0.105989
0.329747 0.179294 0.108431
0.371435 0.183322 0.110933
0.412024 0.188540 0.114656
0.450996 0.194522 0.119570
0.487922 0.202243 0.125826
0.522637 0.210819 0.133425
0.554528 0.221256 0.142336
0.584161 0.232547 0.152010
0.611109 0.244968 0.162814
0.635645 0.257664 0.174228
0.657801 0.271092 0.186160
0.677729 0.284642 0.198276
0.695583 0.298253 0.210697
0.711849 0.311803 0.223178
0.727138 0.325231 0.236118
0.741787 0.338933 0.249577
0.755673 0.352819 0.263157
0.768521 0.366613 0.277012
0.780484 0.380316 0.291234
0.791623 0.394079 0.305791
0.802060 0.407874 0.321111
0.812436 0.421790 0.336675
0.823606 0.436469 0.353368
0.086183 0.202457 0.084382
0.089723 0.202762 0.084810
0.104494 0.202853 0.086336
0.126680 0.203738 0.088167
0.153933 0.208072 0.084199
0.189853 0.220188 0.056092
0.233616 0.223301 0.040162
0.278965 0.222812 0.038605
0.316991 0.218448 0.073121
0.343053 0.216648 0.103761
0.371527 0.220676 0.122835
0.412421 0.226047 0.126711
0.451240 0.231754 0.131991
0.487922 0.238651 0.138674
0.522210 0.246159 0.146090
0.554040 0.254765 0.155184
0.583337 0.263706 0.164736
0.610071 0.274266 0.175296
0.634394 0.285008 0.186221
0.656336 0.295903 0.197543
0.676112 0.307256 0.209354
0.693904 0.319005 0.220920
0.712123 0.332860 0.235080
0.727382 0.344945 0.247715
0.742000 0.356909 0.260410
0.755612 0.369512 0.273716
0.768246 0.381933 0.287083
0.780087 0.394324 0.300908
0.791073 0.406958 0.315343
0.801358 0.419837 0.330053
0.811856 0.432898 0.345434
0.823209 0.446540 0.361547
0.034028 0.251682 0.085664
0.044221 0.251774 0.086152
0.087434 0.251560 0.087892
0.117739 0.252293 0.088930
0.151553 0.252598 0.091005
0.185550 0.259648 0.078492
0.228458 0.272709 0.035584
0.277470 0.277531 0.010956
0.324651 0.276860 0.000000
0.370550 0.273503 0.022858
0.400031 0.267185 0.093599
0.425330 0.267582 0.126375
0.451698 0.273747 0.151064
0.488197 0.279545 0.157351
0.522148 0.285924 0.164492
0.553582 0.292576 0.172946
0.582696 0.299931 0.182040
0.609094 0.308110 0.191836
0.633173 0.316655 0.202548
0.654932 0.325658 0.213199
0.674678 0.335119 0.224277
0.692470 0.344762 0.235721
0.708888 0.354833 0.247562
0.724422 0.365118 0.259342
0.739223 0.375677 0.271641
0.752926 0.386786 0.284367
0.765713 0.397620 0.297246
0.777462 0.408850 0.310552
0.788510 0.420264 0.324315
0.798856 0.431952 0.338659
0.809506 0.444007 0.353491
0.820951 0.456825 0.369177
0.000000 0.299779 0.090272
0.000000 0.299901 0.090913
0.040223 0.299565 0.091218
0.104921 0.299931 0.092714
0.145235 0.299840 0.094850
0.185916 0.299626 0.097963
0.220768 0.310094 0.080964
0.266819 0.322850 0.026123
0.318090 0.329625 0.000000
0.365789 0.328405 0.000000
0.412329 0.325505 0.000000
0.450935 0.320531 0.066590
0.475257 0.316747 0.124208
0.497963 0.319371 0.158541
0.520256 0.326482 0.188083
0.551385 0.331853 0.195102
0.580194 0.337560 0.203433
0.606409 0.343725 0.212528
0.630396 0.350072 0.221683
0.651850 0.357244 0.232029
0.671473 0.364355 0.241917
0.689235 0.371984 0.252201
0.705653 0.379889 0.263096
0.721218 0.388281 0.274266
0.735988 0.397436 0.285771
0.749813 0.406561 0.297581
0.762509 0.416175 0.309972
0.774411 0.425757 0.322454
0.785458 0.435889 0.335729
0.795895 0.446509 0.349554
0.806790 0.457343 0.363653
0.818448 0.469062 0.378668
0.000000 0.346075 0.101411
0.000000 0.346105 0.101289
0.013306 0.345922 0.101839
0.098634 0.345830 0.103731
0.141695 0.345617 0.105287
0.183566 0.345312 0.108431
0.222660 0.346349 0.110445
0.259373 0.357275 0.091890
0.305516 0.369421 0.036805
0.356756 0.377111 0.000000
0.403113 0.375738 0.000000
0.450996 0.375341 0.000000
0.491737 0.370794 0.040589
0.519341 0.365240 0.120729
0.540276 0.364263 0.163851
0.559197 0.368139 0.199130
0.577295 0.375616 0.229557
0.603174 0.380224 0.237186
0.626825 0.384833 0.245029
0.648219 0.389868 0.253819
0.667628 0.395300 0.262730
0.685328 0.400916 0.271855
0.701808 0.407080 0.281773
0.717586 0.413611 0.291630
0.732418 0.421057 0.302342
0.746242 0.428595 0.313268
0.758999 0.436622 0.324895
0.770840 0.444984 0.336828
0.781918 0.453742 0.349371
0.792569 0.462806 0.362280
0.803616 0.472755 0.376196
0.815549 0.483314 0.390295
0.000000 0.389227 0.118898
0.000000 0.389105 0.118654
0.031800 0.389014 0.120150
0.103029 0.388769 0.121553
0.145327 0.388495 0.122805
0.185214 0.387823 0.125917
0.225467 0.387213 0.130037
0.261601 0.390509 0.126436
0.298680 0.400671 0.110414
0.343450 0.411688 0.082460
0.393500 0.420356 0.015137
0.438331 0.419776 0.000000
0.485817 0.420752 0.000000
0.524132 0.415717 0.044862
0.557366 0.411414 0.117617
0.576562 0.406897 0.168704
0.593530 0.407568 0.207736
0.608515 0.412116 0.242344
0.622766 0.419440 0.271824
0.643977 0.422889 0.278935
0.663325 0.426703 0.286442
0.680934 0.430671 0.294682
0.697505 0.435035 0.302861
0.713252 0.440192 0.311772
0.728176 0.445747 0.321324
0.741878 0.451911 0.331456
0.754696 0.458412 0.341955
0.766598 0.465339 0.353002
0.777829 0.472755 0.364904
0.788663 0.480659 0.377203
0.800046 0.489296 0.390021
0.812253 0.498909 0.403662
0.048859 0.428382 0.141604
0.059083 0.428321 0.141360
0.094301 0.428260 0.142092
0.125673 0.427955 0.143221
0.158816 0.427680 0.144961
0.194491 0.427070 0.147036
0.231601 0.426246 0.149935
0.268315 0.425360 0.154360
0.300999 0.430732 0.148013
0.337713 0.440131 0.133364
0.380560 0.450141 0.111269
0.428290 0.458747 0.079896
0.470771 0.458869 0.051850
0.516136 0.460426 0.000000
0.553216 0.456153 0.060334
0.585016 0.451301 0.128542
0.607202 0.446632 0.173739
0.622400 0.444251 0.217136
0.635706 0.445960 0.252995
0.647486 0.450690 0.285161
0.658595 0.457282 0.312688
0.676234 0.459907 0.319158
0.692836 0.463142 0.326421
0.708675 0.466865 0.334295
0.723507 0.471138 0.342718
0.737270 0.475868 0.351751
0.750118 0.481086 0.361395
0.762081 0.486732 0.371710
0.773342 0.492866 0.382513
0.784482 0.499550 0.394018
0.796170 0.507195 0.406134
0.808682 0.515618 0.418860
0.118746 0.464027 0.166354
0.123720 0.463996 0.167056
0.133761 0.463783 0.167025
0.154482 0.463630 0.168399
0.180758 0.463203 0.169375
0.210361 0.462501 0.171328
0.242405 0.461860 0.174197
0.276097 0.460761 0.177188
0.309819 0.459571 0.180880
0.339910 0.466743 0.171908
0.374823 0.475227 0.158114
0.415106 0.484138 0.140871
0.461677 0.494240 0.121218
0.502007 0.494697 0.112337
0.542626 0.495094 0.100099
0.580896 0.494148 0.092103
0.609369 0.488289 0.147860
0.634943 0.484047 0.183139
0.648646 0.479561 0.227604
0.660456 0.478859 0.264561
0.670680 0.481025 0.298070
0.679805 0.485786 0.328283
0.689296 0.492012 0.354070
0.704982 0.494728 0.360540
0.719570 0.497749 0.367926
0.733211 0.501152 0.375769
0.745968 0.504936 0.384100
0.757839 0.509331 0.393256
0.769009 0.514275 0.403265
0.780545 0.519860 0.413489
0.792569 0.526329 0.424537
0.805478 0.533776 0.436378
0.164553 0.496681 0.193698
0.165957 0.496620 0.193729
0.173434 0.496345 0.194339
0.188144 0.496040 0.195224
0.207492 0.495583 0.196231
0.231540 0.494820 0.197635
0.258549 0.493935 0.199741
0.288212 0.492744 0.202213
0.318456 0.491554 0.205814
0.348638 0.491463 0.207248
0.377142 0.499001 0.197604
0.410498 0.506920 0.186160
0.448310 0.514946 0.171908
0.489693 0.522728 0.153872
0.527489 0.523674 0.148074
0.564874 0.524224 0.140932
0.601770 0.524712 0.127535
0.628779 0.518853 0.165103
0.652094 0.513939 0.199802
0.668940 0.509483 0.236515
0.679683 0.506676 0.274937
0.689143 0.507195 0.308782
0.697963 0.510307 0.339422
0.705959 0.515557 0.368078
0.714290 0.521782 0.392432
0.727871 0.524285 0.399390
0.740566 0.527214 0.406897
0.752499 0.530602 0.414984
0.764004 0.534478 0.423713
0.775814 0.539330 0.433204
0.788296 0.544915 0.443183
0.801480 0.551659 0.454231
0.202914 0.524346 0.220401
0.204044 0.524315 0.220615
0.209995 0.524132 0.221103
0.220066 0.523674 0.220981
0.235172 0.523156 0.222141
0.253819 0.522545 0.223667
0.277043 0.521599 0.225315
0.301854 0.520409 0.226780
0.328435 0.519280 0.229709
0.356359 0.517754 0.232273
0.383368 0.519738 0.230991
0.410620 0.526513 0.222629
0.442176 0.533532 0.212924
0.477028 0.540703 0.200443
0.515251 0.547692 0.186435
0.550317 0.548943 0.181827
0.584466 0.549371 0.175753
0.619348 0.550713 0.167941
0.645716 0.545892 0.183352
0.666896 0.540368 0.218631
0.686275 0.536248 0.246494
0.696834 0.532464 0.284916
0.705898 0.531579 0.319738
0.714015 0.533379 0.351141
0.721218 0.537224 0.380743
0.727779 0.542931 0.408392
0.735195 0.548791 0.430640
0.747127 0.551446 0.437659
0.758907 0.554589 0.445502
0.771084 0.558740 0.453956
0.783902 0.563714 0.463203
0.797513 0.569665 0.473304
0.238376 0.548577 0.246555
0.239658 0.548547 0.246769
0.242741 0.548425 0.246555
0.251194 0.547997 0.247288
0.262516 0.547509 0.247471
0.278141 0.546838 0.249058
0.296635 0.545922 0.250004
0.317937 0.544884 0.251835
0.340795 0.543603 0.253696
0.365850 0.542168 0.255985
0.391485 0.540551 0.258793
0.415412 0.544335 0.255070
0.441505 0.550469 0.247562
0.470771 0.556756 0.238895
0.503136 0.563073 0.228489
0.537743 0.569177 0.216709
0.570275 0.570764 0.212558
0.601648 0.571252 0.208316
0.633814 0.572290 0.202640
0.660731 0.569970 0.201297
0.680446 0.563897 0.236912
0.698543 0.559594 0.264561
0.712215 0.556085 0.294987
0.720638 0.554101 0.330785
0.728145 0.554711 0.362768
0.734798 0.557549 0.393042
0.740719 0.562036 0.421271
0.746242 0.568261 0.448280
0.753994 0.574273 0.468147
0.766598 0.577874 0.475502
0.779812 0.582330 0.483925
0.793820 0.587793 0.493202
0.270695 0.569696 0.271672
0.271183 0.569757 0.271824
0.274693 0.569543 0.271672
0.280491 0.569268 0.272190
0.289677 0.568811 0.272557
0.302068 0.568231 0.273564
0.317571 0.567468 0.274662
0.335393 0.566491 0.276036
0.355383 0.565362 0.277531
0.377111 0.563989 0.279759
0.399695 0.562493 0.282048
0.423102 0.560754 0.284215
0.444800 0.565850 0.278935
0.469368 0.571405 0.271855
0.496407 0.576898 0.264378
0.525902 0.582452 0.255253
0.557641 0.588037 0.244266
0.587732 0.589868 0.241123
0.616541 0.590387 0.238529
0.645716 0.590906 0.234592
0.673182 0.590661 0.229679
0.692836 0.585351 0.254398
0.709651 0.580835 0.282902
0.725093 0.577508 0.307652
0.733639 0.574884 0.342504
0.740688 0.574640 0.375250
0.746975 0.576623 0.405707
0.753079 0.580621 0.434668
0.759304 0.586450 0.461860
0.765896 0.593835 0.487770
0.775967 0.600458 0.505089
0.790280 0.605463 0.513329
0.299901 0.588373 0.295598
0.300694 0.588342 0.295750
0.302831 0.588251 0.296056
0.307744 0.587915 0.296086
0.315190 0.587579 0.296452
0.325628 0.586969 0.297490
0.338079 0.586267 0.298100
0.353246 0.585351 0.299321
0.370336 0.584283 0.300603
0.388952 0.583062 0.302251
0.408881 0.581659 0.304021
0.429755 0.580102 0.306401
0.450599 0.579889 0.306950
0.470985 0.584771 0.301091
0.493904 0.589715 0.295201
0.519005 0.594720 0.288426
0.546197 0.599847 0.279698
0.575372 0.604852 0.270756
0.603418 0.606867 0.267979
0.630060 0.607385 0.266087
0.657191 0.608240 0.263981
0.684382 0.609155 0.260075
0.704036 0.604974 0.272770
0.719783 0.600214 0.301793
0.734310 0.596704 0.326207
0.745388 0.594263 0.354406
0.752682 0.593622 0.387457
0.759640 0.595392 0.418311
0.766476 0.599268 0.447730
0.773709 0.604944 0.475196
0.781308 0.612329 0.501732
0.789761 0.621088 0.527092
0.327306 0.605035 0.319249
0.327489 0.604944 0.318914
0.331273 0.605768 0.320745
0.334905 0.605524 0.320745
0.341100 0.605127 0.321050
0.349401 0.604608 0.321599
0.359960 0.603967 0.322301
0.372595 0.603082 0.323308
0.386999 0.602136 0.324468
0.403235 0.600946 0.325689
0.420478 0.599603 0.326879
0.438666 0.598169 0.328832
0.457862 0.596460 0.330541
0.476417 0.597833 0.328893
0.495613 0.602167 0.324041
0.516960 0.606744 0.318486
0.540154 0.611261 0.312261
0.565118 0.615778 0.304967
0.591699 0.620111 0.296941
0.617731 0.622248 0.293919
0.642878 0.622950 0.293370
0.668299 0.624079 0.292149
0.694972 0.626123 0.289616
0.714717 0.623133 0.292210
0.729366 0.618128 0.321050
0.743465 0.614832 0.345434
0.757412 0.613245 0.367407
0.765713 0.612696 0.399664
0.773373 0.614405 0.431037
0.781277 0.618311 0.460426
0.789548 0.624079 0.488533
0.798459 0.631525 0.515648
0.352819 0.620233 0.341924
0.353246 0.620325 0.342046
0.354833 0.620325 0.342199
0.358251 0.620111 0.342260
0.363226 0.619928 0.342992
0.370245 0.619440 0.343267
0.379248 0.618860 0.344091
0.389868 0.618097 0.344793
0.402167 0.617151 0.345403
0.416144 0.616114 0.346349
0.431220 0.614923 0.347662
0.447242 0.613611 0.349248
0.464363 0.612055 0.350561
0.481849 0.610407 0.352178
0.498634 0.613245 0.349554
0.516808 0.617304 0.345006
0.536828 0.621454 0.339971
0.558404 0.625483 0.334356
0.581506 0.629541 0.327947
0.605890 0.633417 0.320897
0.630335 0.635584 0.318486
0.653925 0.636683 0.318456
0.677943 0.637995 0.318059
0.702327 0.639521 0.317632
0.723415 0.638727 0.317174
0.738949 0.634974 0.338872
0.753292 0.632441 0.363531
0.767727 0.631525 0.385504
0.779690 0.631830 0.411414
0.788357 0.633783 0.443275
0.797391 0.637873 0.473457
0.807004 0.643915 0.502129
0.375738 0.633997 0.363134
0.376135 0.634058 0.363165
0.377539 0.634058 0.363500
0.380285 0.633936 0.363897
0.384741 0.633692 0.364324
0.390723 0.633326 0.364782
0.398047 0.632807 0.365118
0.407233 0.632074 0.365911
0.417639 0.631281 0.366400
0.429755 0.630335 0.367346
0.442878 0.629297 0.368139
0.457130 0.628077 0.369451
0.472145 0.626703 0.370733
0.488014 0.625238 0.372045
0.504051 0.623987 0.373083
0.519554 0.627649 0.369299
0.536614 0.631281 0.365484
0.555261 0.634943 0.360845
0.575219 0.638636 0.355962
0.596765 0.642267 0.350317
0.619348 0.645808 0.344152
0.641993 0.647974 0.341711
0.664332 0.649287 0.342596
0.687037 0.650782 0.343175
0.710109 0.652613 0.343786
0.732235 0.653773 0.343542
0.749325 0.651789 0.356786
0.764157 0.650080 0.381537
0.779324 0.650019 0.403418
0.795102 0.651606 0.423255
0.805112 0.653986 0.455543
0.815488 0.658503 0.486397
0.397894 0.646662 0.384497
0.398383 0.646693 0.384527
0.399481 0.646693 0.384894
0.401862 0.646571 0.385046
0.405402 0.646418 0.385412
0.410346 0.645991 0.385687
0.416632 0.645594 0.386053
0.424414 0.644953 0.386511
0.433448 0.644251 0.386908
0.443732 0.643427 0.387732
0.455177 0.642451 0.388495
0.467689 0.641352 0.389532
0.480964 0.640162 0.390570
0.494942 0.638880 0.391791
0.509636 0.637354 0.392920
0.524193 0.637568 0.392828
0.538872 0.640864 0.389502
0.555016 0.644221 0.385779
0.572503 0.647608 0.381659
0.591150 0.651026 0.377447
0.611231 0.654353 0.372473
0.632197 0.657618 0.366888
0.653468 0.659907 0.364782
0.674861 0.661646 0.366430
0.696742 0.663783 0.367773
0.719234 0.666255 0.369055
0.742336 0.669245 0.369574
0.761288 0.669368 0.375616
0.776883 0.668696 0.400305
0.792996 0.669734 0.422431
0.809964 0.672419 0.442634
0.824399 0.676112 0.468971
0.419501 0.658747 0.405890
0.419898 0.658747 0.406195
0.420813 0.658717 0.406287
0.422705 0.658564 0.406195
0.425635 0.658350 0.406561
0.429755 0.658045 0.406714
0.435004 0.657618 0.406867
0.441688 0.657038 0.407324
0.449409 0.656428 0.407843
0.458320 0.655695 0.408545
0.468238 0.654841 0.409155
0.479164 0.653895 0.410010
0.490913 0.652857 0.410864
0.503380 0.651606 0.411597
0.516472 0.650324 0.412665
0.529992 0.648951 0.413886
0.543236 0.650324 0.412573
0.557153 0.653376 0.409644
0.572320 0.656458 0.406134
0.588678 0.659510 0.402533
0.606134 0.662684 0.398444
0.624933 0.665980 0.393988
0.644953 0.669368 0.388525
0.665156 0.671992 0.386328
0.685908 0.674189 0.388556
0.707210 0.676967 0.390600
0.729397 0.680110 0.392554
0.753231 0.684749 0.393805
0.773739 0.686946 0.396094
0.790860 0.687678 0.418250
0.808194 0.689998 0.440620
0.826719 0.693935 0.461280
0.439521 0.669703 0.426337
0.439765 0.669734 0.426520
0.440589 0.669703 0.426703
0.442145 0.669581 0.426703
0.444587 0.669368 0.426856
0.448157 0.669093 0.427100
0.452674 0.668696 0.427192
0.458289 0.668238 0.427588
0.464973 0.667689 0.428046
0.472694 0.667018 0.428565
0.481239 0.666316 0.428962
0.490822 0.665461 0.429664
0.501152 0.664515 0.430365
0.512291 0.663447 0.431128
0.523980 0.662318 0.431983
0.536095 0.661067 0.433051
0.548852 0.659724 0.434180
0.561089 0.662257 0.431800
0.574243 0.665156 0.429084
0.588769 0.668177 0.426184
0.604364 0.671412 0.422614
0.621180 0.674800 0.418708
0.639094 0.678309 0.414496
0.658320 0.681971 0.409674
0.677577 0.684749 0.407019
0.697780 0.687465 0.409552
0.718898 0.690913 0.411994
0.740871 0.694942 0.414893
0.764187 0.700008 0.417578
0.787076 0.704860 0.420417
0.806790 0.708003 0.436988
0.825681 0.711666 0.459358
0.458778 0.680873 0.446967
0.458961 0.680903 0.446937
0.459602 0.680873 0.447089
0.460914 0.680720 0.446967
0.462989 0.680537 0.447089
0.466041 0.680262 0.447089
0.469825 0.679896 0.447333
0.474586 0.679469 0.447486
0.480415 0.678920 0.447974
0.487037 0.678340 0.448341
0.494575 0.677638 0.448798
0.502892 0.676844 0.449165
0.512078 0.675990 0.449866
0.521843 0.675013 0.450477
0.532311 0.673976 0.451209
0.543297 0.672816 0.451881
0.554833 0.671595 0.452735
0.566400 0.671351 0.452949
0.578119 0.674220 0.450599
0.590906 0.677363 0.447974
0.604944 0.680659 0.445045
0.620081 0.684077 0.441932
0.636286 0.687678 0.438239
0.653681 0.691463 0.433967
0.672206 0.695338 0.429511
0.691188 0.698604 0.427100
0.710964 0.701778 0.429755
0.732174 0.706142 0.433326
0.754391 0.711147 0.436896
0.777798 0.717067 0.440833
0.802701 0.724178 0.444190
0.824460 0.729213 0.454902
0.476234 0.692653 0.466102
0.476417 0.692653 0.466346
0.476905 0.692622 0.466224
0.478248 0.692531 0.466377
0.480079 0.692378 0.466377
0.482612 0.692164 0.466529
0.486091 0.691859 0.466865
0.490394 0.691463 0.466987
0.495430 0.691005 0.467109
0.501366 0.690486 0.467750
0.508019 0.689876 0.468055
0.515496 0.689174 0.468513
0.523674 0.688441 0.469154
0.532494 0.687587 0.469642
0.541924 0.686641 0.470405
0.551904 0.685634 0.470985
0.562371 0.684504 0.471778
0.573144 0.683345 0.472602
0.584100 0.684474 0.471870
0.595544 0.687648 0.469551
0.608209 0.690974 0.467048
0.621851 0.694545 0.464240
0.636622 0.698268 0.461158
0.652522 0.702144 0.457588
0.669520 0.706172 0.453956
0.687678 0.710384 0.449622
0.706355 0.714046 0.447395
0.726009 0.717830 0.450446
0.747707 0.723354 0.454902
0.770108 0.729244 0.458778
0.793637 0.735836 0.462715
0.819669 0.744442 0.466255
0.493172 0.705715 0.485603
0.493324 0.705715 0.485603
0.493904 0.705684 0.485725
0.494881 0.705592 0.485603
0.496559 0.705470 0.485817
0.498878 0.705257 0.486000
0.501854 0.704982 0.486091
0.505638 0.704646 0.486305
0.510155 0.704219 0.486488
0.515496 0.703731 0.486854
0.521477 0.703212 0.487221
0.528252 0.702571 0.487617
0.535637 0.701930 0.488106
0.543633 0.701167 0.488594
0.552331 0.700313 0.489357
0.561456 0.699397 0.489937
0.571008 0.698421 0.490547
0.581079 0.697444 0.491371
0.591577 0.696376 0.492226
0.602045 0.699031 0.490669
0.613489 0.702449 0.488502
0.625910 0.706111 0.486244
0.639429 0.709926 0.483650
0.654108 0.713985 0.480598
0.669886 0.718196 0.477363
0.686763 0.722621 0.473671
0.704738 0.727260 0.469551
0.723049 0.731106 0.466896
0.742123 0.735012 0.469917
0.763943 0.741085 0.474159
0.786954 0.748013 0.478462
0.811429 0.755917 0.483314
0.509453 0.720150 0.504723
0.509514 0.720180 0.504631
0.509941 0.720150 0.504723
0.511009 0.720058 0.504753
0.512383 0.719966 0.504814
0.514611 0.719814 0.504997
0.517418 0.719600 0.505272
0.520897 0.719387 0.505547
0.525017 0.719081 0.505913
0.529931 0.718746 0.506340
0.535576 0.718379 0.506920
0.541833 0.717922 0.507439
0.548760 0.717403 0.507988
0.556237 0.716762 0.508537
0.564263 0.716121 0.509331
0.572808 0.715358 0.509972
0.581750 0.714534 0.510826
0.591241 0.713710 0.511498
0.601038 0.712795 0.512383
0.611139 0.712734 0.512902
0.621637 0.716304 0.511070
0.633143 0.720089 0.509178
0.645563 0.723995 0.506645
0.658930 0.727993 0.503777
0.673274 0.732143 0.500633
0.688838 0.736477 0.496986
0.705379 0.740963 0.493111
0.723049 0.745693 0.488594
0.741268 0.749813 0.486000
0.760220 0.753994 0.489021
0.782864 0.761318 0.493782
0.807034 0.769772 0.498909
0.525933 0.737087 0.524773
0.526024 0.737087 0.524773
0.526452 0.737057 0.524804
0.527245 0.736995 0.524895
0.528679 0.736904 0.525017
0.530602 0.736721 0.525048
0.533104 0.736568 0.525322
0.536309 0.736324 0.525597
0.540124 0.736049 0.525841
0.544640 0.735714 0.526116
0.549828 0.735348 0.526665
0.555627 0.734951 0.527123
0.561975 0.734493 0.527672
0.568963 0.734005 0.528252
