20 Preset/Natural Girl/【3】LUT video cho PR-AE-FCPX/Lut Tone  (1).cube
# Created by Adobe Lightroom plugin Export LUT (1.24.0)
# www.johnrellis.com/lightroom/exportlut.htm
# Preset: 自然胶片-素材江湖（原版）10
# Color profile: C:\Program Files (x86)\Common Files\Adobe\Color\Profiles\Recommended\VideoHD.icc
LUT_3D_SIZE 5
DOMAIN_MIN 0.000000 0.000000 0.000000
DOMAIN_MAX 0.903226 0.903226 0.903226
0.062928 0.053803 0.053529
0.208957 0.098787 0.092683
0.455848 0.118563 0.106355
0.665705 0.196536 0.140658
0.801572 0.305364 0.205264
0.150332 0.209720 0.137697
0.252750 0.234958 0.123201
0.487129 0.232944 0.115267
0.673426 0.277043 0.159823
0.802243 0.354070 0.225315
0.303014 0.446021 0.276219
0.347204 0.442756 0.279881
0.515801 0.490700 0.242557
0.690059 0.471382 0.218509
0.801328 0.484443 0.281895
0.457588 0.602350 0.424140
0.475227 0.600671 0.425544
0.539483 0.612238 0.420966
0.667903 0.640070 0.401526
0.787350 0.635218 0.403265
0.589532 0.715511 0.573236
0.596796 0.714687 0.573663
0.622858 0.709773 0.573053
0.684596 0.734463 0.566827
0.786374 0.759182 0.564813
0.107790 0.101442 0.148867
0.207126 0.091829 0.176242
0.424109 0.154574 0.195865
0.641779 0.247440 0.235416
0.784878 0.331243 0.271061
0.155001 0.212528 0.204685
0.238254 0.232181 0.220279
0.463233 0.257298 0.225132
0.651942 0.303899 0.246159
0.786465 0.370703 0.284154
0.309117 0.452827 0.321813
0.352941 0.450446 0.324956
0.503899 0.484352 0.301091
0.680293 0.467842 0.270878
0.791897 0.490089 0.327703
0.462470 0.605432 0.447578
0.479408 0.603998 0.448829
0.539757 0.609613 0.447333
0.663508 0.638911 0.428962
0.783932 0.635065 0.425849
0.589593 0.716793 0.582300
0.596704 0.715877 0.582452
0.624567 0.712551 0.583825
0.683650 0.734188 0.578149
0.785794 0.759976 0.575494
0.141604 0.149722 0.316075
0.216922 0.148165 0.335302
0.450752 0.102419 0.377508
0.581964 0.249332 0.356939
0.743343 0.353094 0.391272
0.235966 0.270054 0.347204
0.278538 0.275120 0.363287
0.462501 0.246311 0.397742
0.593256 0.321508 0.381537
0.738308 0.416480 0.423560
0.314275 0.455543 0.433204
0.357671 0.461463 0.438483
0.482368 0.484382 0.459358
0.634119 0.489998 0.448951
0.758785 0.510674 0.454780
0.457832 0.617853 0.514763
0.477913 0.617151 0.516960
0.543999 0.612390 0.524285
0.649073 0.636439 0.513481
0.774685 0.632715 0.494972
0.584161 0.723110 0.613794
0.591882 0.722194 0.613886
0.620874 0.718379 0.613642
0.674006 0.727687 0.610590
0.778805 0.757931 0.605646
0.233646 0.245975 0.505577
0.280644 0.244846 0.512902
0.437476 0.219669 0.536950
0.639033 0.185885 0.550347
0.699367 0.332464 0.497627
0.311376 0.343999 0.517357
0.339452 0.341131 0.523217
0.453193 0.314977 0.542748
0.636011 0.282994 0.555779
0.695827 0.373266 0.506310
0.423499 0.491341 0.540856
0.445167 0.496712 0.541131
0.498939 0.503105 0.559503
0.617914 0.465766 0.570092
0.702083 0.490394 0.544549
0.471138 0.615991 0.606317
0.486519 0.617029 0.607385
0.542168 0.622919 0.613581
0.627680 0.634668 0.626062
0.739986 0.630945 0.609735
0.552331 0.735348 0.665797
0.561334 0.735225 0.665736
0.596002 0.734798 0.664851
0.660456 0.727382 0.664088
0.767941 0.756313 0.658228
0.357763 0.364385 0.667567
0.379706 0.358862 0.668574
0.468238 0.336980 0.676356
0.618555 0.266941 0.686976
0.768856 0.229160 0.682582
0.390448 0.416266 0.662806
0.407080 0.411261 0.664515
0.478004 0.388769 0.671962
0.613245 0.325902 0.682460
0.761349 0.284001 0.679652
0.454994 0.525048 0.661067
0.463691 0.522972 0.662348
0.515312 0.522057 0.668910
0.601038 0.473213 0.677760
0.743404 0.425452 0.681331
0.525872 0.624628 0.682429
0.533959 0.624323 0.681086
0.571649 0.629236 0.680507
0.619379 0.628992 0.692531
0.727840 0.589776 0.703578
0.550622 0.724269 0.733486
0.557122 0.724331 0.733486
0.586114 0.727657 0.737179
0.640070 0.732876 0.742733
0.732082 0.742916 0.752834
