20 Preset/Natural Girl/【3】LUT video cho PR-AE-FCPX/Lut Tone  (8).cube
# Created by Adobe Lightroom plugin Export LUT (1.24.0)
# www.johnrellis.com/lightroom/exportlut.htm
# Preset: 自然胶片-素材江湖（原版）01
# Color profile: C:\Program Files (x86)\Common Files\Adobe\Color\Profiles\Recommended\VideoHD.icc
LUT_3D_SIZE 8
DOMAIN_MIN 0.000000 0.000000 0.000000
DOMAIN_MAX 0.903226 0.903226 0.903226
0.049683 0.044251 0.049439
0.181125 0.049165 0.056336
0.436561 0.000000 0.061646
0.625299 0.000000 0.055512
0.747494 0.078492 0.079805
0.827085 0.199313 0.128267
0.879698 0.274296 0.177523
0.932189 0.337499 0.223575
0.000000 0.194186 0.080690
0.189609 0.207889 0.055177
0.454871 0.189303 0.043488
0.628962 0.172305 0.039155
0.745602 0.197391 0.088930
0.820981 0.248478 0.135317
0.873106 0.300359 0.183078
0.927001 0.353796 0.227481
0.000000 0.444617 0.053803
0.000000 0.444831 0.051423
0.403082 0.463508 0.000000
0.636194 0.431647 0.026001
0.751919 0.403418 0.146609
0.816831 0.397253 0.190524
0.872160 0.411627 0.231907
0.926513 0.435828 0.267857
0.000000 0.600061 0.212772
0.000000 0.598169 0.212070
0.262791 0.604181 0.195651
0.554864 0.614649 0.193545
0.723232 0.593133 0.228611
0.802579 0.558221 0.284276
0.863584 0.542718 0.313390
0.918730 0.541253 0.332525
0.000000 0.679530 0.319554
0.000000 0.678553 0.318456
0.233310 0.676020 0.315587
0.444953 0.683833 0.305669
0.629419 0.685634 0.317937
0.763943 0.675471 0.336553
0.837644 0.654383 0.375494
0.908232 0.646418 0.411322
0.233921 0.731716 0.406317
0.253666 0.732418 0.407904
0.307774 0.730373 0.405646
0.411719 0.732601 0.400549
0.550927 0.739406 0.398138
0.690211 0.744381 0.413245
0.814298 0.748898 0.429725
0.888243 0.739681 0.461311
0.332219 0.788754 0.481178
0.340307 0.788785 0.481270
0.368444 0.787350 0.479438
0.417792 0.784939 0.476173
0.517967 0.792599 0.469764
0.635920 0.800198 0.475074
0.755001 0.807828 0.492042
0.873075 0.819883 0.507622
0.393988 0.860838 0.553246
0.398718 0.860685 0.552911
0.419348 0.860410 0.552361
0.457282 0.860166 0.551446
0.516320 0.858976 0.542901
0.614496 0.869657 0.538170
0.727596 0.877897 0.549554
0.839872 0.885679 0.565087
0.083131 0.030518 0.158083
0.177157 0.062684 0.147250
0.425391 0.000000 0.145632
0.609735 0.116976 0.161563
0.733577 0.180026 0.171023
0.811917 0.243259 0.192569
0.864836 0.297398 0.221592
0.919310 0.349096 0.253544
0.061952 0.193088 0.170016
0.203250 0.205325 0.169497
0.443610 0.209751 0.166629
0.617517 0.218509 0.167605
0.734920 0.245548 0.178836
0.809781 0.283360 0.200137
0.861753 0.322301 0.227115
0.916014 0.365301 0.257542
0.000000 0.442359 0.196536
0.000000 0.442847 0.196292
0.410559 0.459327 0.173190
0.627131 0.436347 0.190738
0.738247 0.414130 0.218692
0.804623 0.408362 0.239536
0.858732 0.417395 0.263584
0.914824 0.438849 0.290166
0.000000 0.592004 0.262882
0.000000 0.590753 0.261753
0.288609 0.596033 0.252689
0.548669 0.605097 0.245609
0.711513 0.585321 0.265629
0.790280 0.553582 0.309422
0.851133 0.539055 0.330297
0.908171 0.538537 0.345922
0.000000 0.676997 0.345647
0.128328 0.675837 0.343908
0.260899 0.672328 0.340520
0.449073 0.679530 0.329778
0.625940 0.680873 0.338567
0.757504 0.671107 0.354894
0.831174 0.651545 0.390143
0.901976 0.644312 0.422705
0.257908 0.728817 0.419226
0.271672 0.728420 0.418891
0.320562 0.726558 0.416663
0.416388 0.728664 0.412604
0.551171 0.736141 0.410895
0.688319 0.742000 0.425666
0.810697 0.746609 0.440864
0.884306 0.737545 0.469978
0.339971 0.785702 0.487007
0.346258 0.785061 0.486183
0.373053 0.783536 0.484077
0.421180 0.781460 0.481331
0.518608 0.789578 0.476509
0.634516 0.797452 0.481422
0.751919 0.804593 0.496803
0.868925 0.816312 0.510887
0.395911 0.858000 0.555749
0.401434 0.858305 0.556115
0.421393 0.857908 0.555291
0.458564 0.857725 0.554376
0.520684 0.860410 0.551568
0.616236 0.869871 0.545586
0.727291 0.877195 0.554772
0.839231 0.884977 0.569604
0.100649 0.014832 0.352758
0.232273 0.000000 0.352697
0.402197 0.094942 0.316075
0.593896 0.147127 0.308782
0.713863 0.251804 0.311528
0.790463 0.326574 0.328313
0.845182 0.369604 0.340520
0.903197 0.403693 0.353552
0.024201 0.189242 0.366369
0.241764 0.203281 0.364263
0.417365 0.241001 0.337865
0.601526 0.244388 0.318822
0.711727 0.311437 0.326146
0.787289 0.356146 0.335607
0.842679 0.386145 0.343511
0.900755 0.415900 0.356115
0.217441 0.446601 0.377142
0.285344 0.448798 0.380987
0.434211 0.459632 0.370245
0.611505 0.453468 0.370642
0.715450 0.449409 0.364965
0.783658 0.450263 0.364721
0.839963 0.457923 0.369421
0.898711 0.472358 0.378515
0.253574 0.595209 0.404120
0.273411 0.595178 0.399451
0.365911 0.592676 0.394812
0.560327 0.605859 0.389044
0.701595 0.591577 0.398138
0.777249 0.571374 0.420447
0.836027 0.560266 0.419287
0.895354 0.558709 0.422004
0.289586 0.675319 0.435645
0.304417 0.674556 0.434394
0.359686 0.671839 0.430854
0.479500 0.676997 0.426215
0.631250 0.681117 0.431281
0.750057 0.673487 0.440620
0.822477 0.658717 0.462867
0.892638 0.653346 0.481910
0.344610 0.726986 0.477699
0.352880 0.726711 0.477333
0.384314 0.724910 0.474556
0.448005 0.724514 0.470314
0.562921 0.733211 0.469215
0.688808 0.740230 0.481086
0.804837 0.746059 0.493202
0.879393 0.740047 0.516075
0.386694 0.785397 0.526207
0.391608 0.784817 0.525231
0.412360 0.783108 0.522637
0.451331 0.780758 0.518883
0.531456 0.787015 0.515343
0.639734 0.796292 0.519646
0.753323 0.805020 0.534020
0.868681 0.817838 0.546715
0.417700 0.857725 0.579370
0.421759 0.857359 0.578820
0.439734 0.856931 0.577905
0.474495 0.857298 0.577417
0.527611 0.858518 0.574823
0.620325 0.868986 0.571130
0.729152 0.877501 0.578363
0.840299 0.885801 0.591211
0.155947 0.000000 0.522148
0.255039 0.000000 0.522545
0.466896 0.000000 0.513207
0.570397 0.221347 0.463874
0.673884 0.290288 0.446876
0.774777 0.311040 0.420447
0.819455 0.391302 0.432074
0.873533 0.442054 0.449928
0.205264 0.202274 0.529931
0.286412 0.206699 0.528557
0.474586 0.233036 0.519036
0.571221 0.301549 0.474220
0.678126 0.333227 0.455970
0.771054 0.348730 0.428687
0.812863 0.423438 0.446693
0.872709 0.455024 0.454566
0.216831 0.437415 0.534966
0.281773 0.440925 0.534752
0.456519 0.453193 0.529534
0.564385 0.464057 0.503990
0.686244 0.453010 0.479683
0.752377 0.478920 0.477668
0.811337 0.495399 0.477821
0.873594 0.506462 0.477211
0.376562 0.598657 0.535515
0.400000 0.598138 0.536431
0.476204 0.597589 0.541497
0.570550 0.604120 0.529076
0.681849 0.596735 0.530541
0.747127 0.585687 0.522728
0.808560 0.578851 0.513329
0.872343 0.576898 0.507225
0.451789 0.674556 0.561791
0.451667 0.674250 0.556756
0.461128 0.673182 0.541527
0.519341 0.672145 0.537041
0.637507 0.680812 0.540063
0.738094 0.676997 0.544793
0.809598 0.668879 0.555322
0.875944 0.662287 0.553246
0.442115 0.727718 0.561608
0.448402 0.728206 0.562432
0.466224 0.726284 0.558953
0.500725 0.723171 0.553216
0.583581 0.731960 0.552148
0.691981 0.739956 0.559533
0.797421 0.746548 0.567498
0.872648 0.743343 0.581872
0.446906 0.785153 0.584375
0.450843 0.785031 0.583978
0.466926 0.784085 0.582361
0.496956 0.782193 0.578668
0.552422 0.784573 0.575097
0.648219 0.795682 0.577752
0.754879 0.805081 0.588281
0.866880 0.818387 0.597528
0.446693 0.859678 0.618067
0.450477 0.859525 0.617762
0.466346 0.859007 0.616541
0.496498 0.858427 0.614740
0.539452 0.857481 0.611658
0.623438 0.867155 0.609308
0.730220 0.877623 0.613947
0.842405 0.887358 0.624811
0.247684 0.024079 0.643488
0.306798 0.034668 0.643061
0.465156 0.108858 0.637995
0.624567 0.227420 0.618830
0.668879 0.325841 0.568200
0.721126 0.381872 0.540917
0.796902 0.398596 0.520928
0.863951 0.422095 0.510094
0.292027 0.218235 0.645289
0.339605 0.223453 0.644800
0.476631 0.244938 0.639246
0.621515 0.303563 0.620264
0.665248 0.368231 0.571984
0.717647 0.407782 0.545830
0.795499 0.417792 0.525444
0.861357 0.438575 0.515099
0.304051 0.422339 0.647852
0.356542 0.433326 0.645930
0.479316 0.448341 0.639460
0.604059 0.463539 0.624140
0.650752 0.480903 0.585046
0.717037 0.481788 0.561944
0.789303 0.482368 0.541161
0.848112 0.501671 0.538994
0.375006 0.591516 0.640620
0.399115 0.592340 0.640162
0.476661 0.596033 0.639185
0.580041 0.600458 0.635279
0.646601 0.593408 0.614008
0.712062 0.587854 0.596887
0.775082 0.585199 0.585901
0.842191 0.583032 0.577508
0.487984 0.675319 0.632380
0.497871 0.675105 0.633143
0.533898 0.673884 0.635920
0.579980 0.672358 0.636378
0.640436 0.676997 0.629053
0.721736 0.675441 0.629816
0.787442 0.667109 0.623102
0.852781 0.658045 0.609857
0.526543 0.724788 0.645472
0.531884 0.724575 0.645991
0.546654 0.722957 0.643763
0.552026 0.720577 0.626642
0.596338 0.722255 0.622370
0.691981 0.736080 0.629114
0.788602 0.742672 0.634546
0.866026 0.740230 0.641657
0.519097 0.784237 0.656794
0.518456 0.783932 0.654383
0.516075 0.783413 0.644190
0.532647 0.782284 0.636347
0.569207 0.779355 0.631067
0.649989 0.791470 0.631861
0.753964 0.802396 0.639429
0.862699 0.814115 0.645228
0.475654 0.858091 0.664332
0.475776 0.858091 0.662348
0.481117 0.857939 0.656062
0.510643 0.858366 0.655177
0.551934 0.857389 0.651911
0.617884 0.861906 0.649104
0.725490 0.875059 0.652308
0.841367 0.885649 0.663111
0.333928 0.141634 0.723537
0.367864 0.150729 0.722927
0.475624 0.183932 0.718502
0.608270 0.247868 0.710170
0.709194 0.343145 0.689448
0.727810 0.406439 0.640894
0.761624 0.448493 0.612024
0.824308 0.468421 0.604822
0.362402 0.246525 0.720668
0.390417 0.251438 0.719661
0.484657 0.271580 0.715450
0.605676 0.308812 0.706935
0.702724 0.378210 0.686763
0.722530 0.428565 0.640497
0.757107 0.462470 0.613001
0.822629 0.477241 0.605798
0.410895 0.441810 0.718502
0.430945 0.443305 0.717464
0.501640 0.449866 0.713283
0.598688 0.461128 0.704158
0.685695 0.486732 0.686122
0.708186 0.506584 0.646967
0.744442 0.517388 0.623865
0.821408 0.517052 0.616632
0.416388 0.577478 0.718349
0.432441 0.578912 0.717678
0.496223 0.583368 0.714168
0.590356 0.595789 0.706783
0.666468 0.600031 0.692226
0.691371 0.598016 0.663294
0.746334 0.588281 0.647944
0.825071 0.577264 0.636194
0.483680 0.676539 0.707271
0.493874 0.676722 0.707057
0.531029 0.677455 0.706477
0.585351 0.678431 0.705867
0.647578 0.676722 0.703334
0.699367 0.664179 0.683742
0.756527 0.656092 0.671229
0.823911 0.648737 0.661799
0.547204 0.732326 0.701686
0.552178 0.732631 0.702449
0.569177 0.732021 0.702937
0.599329 0.730953 0.703731
0.632471 0.729030 0.699062
0.696437 0.736202 0.696651
0.784360 0.736995 0.700557
0.855406 0.727749 0.693111
0.555077 0.789303 0.717128
0.558740 0.789517 0.717617
0.572747 0.789090 0.718135
0.599115 0.788296 0.718959
0.604883 0.787228 0.699336
0.651240 0.787381 0.691890
0.757198 0.802914 0.699977
0.863432 0.811704 0.707179
0.557916 0.858793 0.744320
0.560662 0.858457 0.744076
0.573053 0.858091 0.743923
0.569604 0.859312 0.729946
0.570581 0.860319 0.707362
0.619684 0.858732 0.701411
0.719600 0.872892 0.703700
0.842893 0.885679 0.716609
0.403540 0.195499 0.791531
0.426703 0.203799 0.791958
0.499886 0.228367 0.787900
0.603143 0.273411 0.781308
0.701991 0.345251 0.766537
0.766354 0.415198 0.745266
0.771756 0.461433 0.696773
0.802274 0.493019 0.672053
0.414221 0.263981 0.784024
0.435065 0.270329 0.784939
0.502220 0.286717 0.781277
0.598047 0.316258 0.774044
0.693629 0.369390 0.759457
0.757168 0.426276 0.737758
0.763333 0.465064 0.689448
0.793729 0.491157 0.663844
0.453742 0.433845 0.783505
0.467689 0.435523 0.782681
0.518761 0.440192 0.778317
0.598230 0.451514 0.771145
0.682826 0.470741 0.757443
0.743984 0.499275 0.737148
0.754940 0.522026 0.696315
0.790066 0.536492 0.677058
0.452735 0.561151 0.786099
0.470558 0.565270 0.784237
0.529381 0.578332 0.778256
0.596155 0.580713 0.772274
0.670771 0.582361 0.761532
0.729335 0.590845 0.742916
0.744472 0.595605 0.709529
0.781796 0.592767 0.692622
0.472053 0.662257 0.778256
0.479133 0.661250 0.776791
0.510674 0.660700 0.774929
0.564233 0.659327 0.773587
0.646143 0.659327 0.763363
0.712642 0.655879 0.746059
0.733242 0.649775 0.717769
0.791196 0.641199 0.709834
0.510460 0.738430 0.769711
0.516106 0.738521 0.769894
0.537530 0.738094 0.770108
0.576043 0.737240 0.770657
0.629877 0.735073 0.771145
0.701656 0.732631 0.770932
0.753750 0.718044 0.749050
0.822751 0.703944 0.734524
0.565362 0.796078 0.769253
0.569360 0.796597 0.770108
0.583581 0.796292 0.770840
0.610956 0.796078 0.772793
0.649500 0.795163 0.774838
0.695308 0.793332 0.775418
0.760067 0.800504 0.770352
0.859281 0.800717 0.776242
0.569085 0.861479 0.790707
0.572320 0.861784 0.791135
0.587274 0.863828 0.794064
0.612299 0.864622 0.796139
0.647761 0.864622 0.797604
0.667262 0.865385 0.783841
0.711818 0.866178 0.768521
0.846494 0.886046 0.783658
0.453559 0.207706 0.851926
0.469398 0.213169 0.852018
0.521965 0.229282 0.847868
0.605859 0.263890 0.843320
0.697536 0.308904 0.835233
0.775692 0.391028 0.816922
0.824247 0.447700 0.799069
0.825040 0.486519 0.753140
0.458015 0.260655 0.847044
0.472908 0.265293 0.847227
0.523400 0.277592 0.844144
0.603326 0.302831 0.839139
0.692622 0.337987 0.831205
0.770169 0.406653 0.813352
0.818387 0.455543 0.794858
0.819211 0.490181 0.748623
0.476875 0.402380 0.842161
0.488533 0.404120 0.841764
0.530663 0.408576 0.838468
0.603723 0.424170 0.836057
0.684260 0.438880 0.827420
0.758236 0.471626 0.810239
0.807401 0.502190 0.792477
0.810330 0.525261 0.748806
0.484138 0.538415 0.837949
0.494514 0.539391 0.837888
0.531273 0.540093 0.835233
0.594354 0.543694 0.831479
0.669459 0.547662 0.824552
0.742977 0.556725 0.811307
0.794247 0.570550 0.794247
0.802731 0.581140 0.756710
0.430365 0.621393 0.839597
0.441474 0.621607 0.839780
0.478553 0.618097 0.837247
0.565087 0.631617 0.831815
0.643458 0.631006 0.824399
0.721279 0.627893 0.814603
0.780850 0.631434 0.798032
0.799557 0.636225 0.769162
0.454627 0.717830 0.835843
0.459998 0.716762 0.835142
0.482948 0.713680 0.833799
0.525689 0.709407 0.833799
0.587091 0.701961 0.835477
0.694453 0.704463 0.830442
0.781460 0.706722 0.820706
0.804776 0.699672 0.791226
0.492500 0.809842 0.845701
0.497200 0.809415 0.845518
0.516991 0.807797 0.845029
0.554681 0.805539 0.845060
0.607904 0.801938 0.845426
0.674586 0.796750 0.846616
0.761532 0.788632 0.843931
0.810025 0.769253 0.814969
0.561822 0.868254 0.840482
0.565118 0.867887 0.840299
0.580560 0.867552 0.840818
0.611902 0.868193 0.843198
0.652705 0.868681 0.846525
0.702846 0.868711 0.850492
0.765316 0.868956 0.856718
0.843992 0.877440 0.858640
