20 Preset/Natural Girl/【3】LUT video cho PR-AE-FCPX/Lut Tone  (5).cube
# Created by Adobe Lightroom plugin Export LUT (1.24.0)
# www.johnrellis.com/lightroom/exportlut.htm
# Preset: 自然胶片-素材江湖（原版）14
# Color profile: C:\Program Files (x86)\Common Files\Adobe\Color\Profiles\Recommended\VideoHD.icc
LUT_3D_SIZE 8
DOMAIN_MIN 0.000000 0.000000 0.000000
DOMAIN_MAX 0.903226 0.903226 0.903226
0.110994 0.104921 0.109651
0.173098 0.114748 0.118105
0.309453 0.136599 0.138430
0.478431 0.154025 0.153841
0.616297 0.196170 0.179995
0.715877 0.265110 0.225284
0.787625 0.342962 0.285222
0.830564 0.406897 0.342535
0.149294 0.167391 0.145418
0.192020 0.179019 0.142977
0.320165 0.188815 0.148898
0.474434 0.202823 0.161532
0.607446 0.234470 0.188083
0.705959 0.288579 0.231235
0.774899 0.350164 0.283238
0.822660 0.409796 0.339422
0.222202 0.328893 0.217136
0.257359 0.329137 0.221805
0.379706 0.364050 0.195438
0.515526 0.359686 0.205905
0.625666 0.371374 0.239994
0.713405 0.399176 0.284550
0.778378 0.437995 0.336461
0.820951 0.474525 0.385046
0.345830 0.493233 0.340368
0.363561 0.492226 0.342412
0.426703 0.502556 0.344518
0.554101 0.542779 0.323613
0.655329 0.534569 0.335882
0.718959 0.536065 0.374578
0.768154 0.538994 0.407446
0.808927 0.550927 0.441596
0.453529 0.598383 0.452522
0.461494 0.597192 0.452827
0.493782 0.595361 0.457374
0.551202 0.614374 0.452033
0.639185 0.632959 0.434119
0.707179 0.618616 0.431128
0.751186 0.616205 0.467628
0.795163 0.626154 0.502678
0.529717 0.664576 0.539971
0.537469 0.666957 0.544762
0.553948 0.665370 0.546471
0.583185 0.665217 0.548638
0.629358 0.681697 0.538964
0.692775 0.692378 0.531731
0.748623 0.686915 0.532250
0.793454 0.692317 0.564630
0.593713 0.714290 0.617731
0.596582 0.714626 0.618769
0.604944 0.713161 0.618830
0.621485 0.711055 0.620111
0.645411 0.716701 0.616754
0.687800 0.733120 0.610651
0.741329 0.744533 0.609705
0.796017 0.747677 0.610925
0.649256 0.774807 0.684108
0.650752 0.774563 0.684077
0.657435 0.774228 0.684810
0.670771 0.774105 0.686671
0.682399 0.765438 0.680812
0.713649 0.782315 0.679225
0.760281 0.801114 0.677638
0.811643 0.812436 0.679408
0.109468 0.105562 0.153292
0.170962 0.111574 0.159091
0.279942 0.140993 0.170443
0.445563 0.177066 0.198215
0.590143 0.219730 0.223209
0.692439 0.278141 0.257755
0.763485 0.339422 0.298863
0.814755 0.397955 0.345098
0.135164 0.167330 0.172122
0.177951 0.174777 0.178012
0.304997 0.192172 0.189639
0.459876 0.216037 0.205631
0.594263 0.252415 0.229587
0.691798 0.301305 0.263218
0.758480 0.351781 0.300725
0.809751 0.403845 0.344549
0.217441 0.326543 0.245548
0.251865 0.327489 0.249729
0.363317 0.354498 0.236210
0.498543 0.357488 0.244450
0.608667 0.370001 0.269078
0.694575 0.393927 0.301701
0.758633 0.424781 0.337926
0.807492 0.461707 0.380743
0.334447 0.481697 0.347784
0.352453 0.480812 0.349187
0.414435 0.486030 0.355810
0.528344 0.520378 0.328710
0.628077 0.510918 0.332921
0.696040 0.515587 0.367132
0.751492 0.520684 0.395850
0.796078 0.535607 0.430213
0.448432 0.594171 0.456703
0.455512 0.592493 0.456245
0.486275 0.589136 0.458442
0.539757 0.603052 0.452247
0.625513 0.620539 0.430762
0.696010 0.608362 0.427375
0.743038 0.608057 0.463294
0.786831 0.617243 0.496559
0.523217 0.659632 0.537682
0.527733 0.659449 0.538415
0.545037 0.658198 0.540551
0.575860 0.657588 0.544884
0.622675 0.675685 0.536919
0.687861 0.688228 0.531426
0.743496 0.682460 0.530999
0.787625 0.686885 0.561486
0.587457 0.709712 0.613001
0.588769 0.708736 0.611963
0.597192 0.707179 0.611719
0.614801 0.705684 0.613947
0.640436 0.711818 0.613336
0.682399 0.728115 0.607477
0.734981 0.738491 0.604364
0.788876 0.740536 0.603723
0.644495 0.769802 0.680354
0.646693 0.770474 0.681270
0.653193 0.769924 0.681758
0.666560 0.769863 0.683711
0.685206 0.768795 0.685664
0.714046 0.783047 0.681819
0.758633 0.799863 0.678004
0.809873 0.811002 0.679438
0.103120 0.114992 0.242283
0.157076 0.119081 0.248783
0.301305 0.125216 0.271641
0.422583 0.191287 0.280797
0.569787 0.250523 0.313054
0.671504 0.335485 0.359686
0.746242 0.390661 0.389410
0.800809 0.437354 0.418311
0.126680 0.175113 0.268315
0.174319 0.180331 0.273808
0.316075 0.185641 0.291386
0.431891 0.236240 0.297429
0.569726 0.284764 0.324987
0.669825 0.352056 0.363500
0.742702 0.397589 0.387976
0.797635 0.441321 0.416449
0.180331 0.331182 0.328405
0.222599 0.336004 0.331823
0.336889 0.352819 0.344732
0.475319 0.370550 0.354162
0.594720 0.395422 0.370153
0.681758 0.423224 0.389258
0.746242 0.452003 0.410437
0.796078 0.482429 0.436378
0.316869 0.495369 0.403967
0.339910 0.497261 0.408026
0.416938 0.499519 0.423377
0.516533 0.523583 0.414557
0.617121 0.522881 0.417395
0.686213 0.528496 0.437690
0.742672 0.536675 0.456367
0.788174 0.550225 0.478401
0.450019 0.599908 0.495552
0.457923 0.599115 0.495857
0.489021 0.597223 0.498451
0.539300 0.601587 0.502129
0.619287 0.623743 0.485206
0.688197 0.613916 0.479530
0.734829 0.615015 0.505272
0.780270 0.622522 0.528862
0.525078 0.662287 0.560937
0.529686 0.662318 0.561669
0.546044 0.660883 0.563073
0.575006 0.658473 0.566003
0.617090 0.671839 0.561517
0.680446 0.686122 0.555871
0.736355 0.682521 0.555932
0.782773 0.689296 0.583093
0.590906 0.712795 0.628809
0.592279 0.712001 0.628168
0.599664 0.709926 0.626978
0.615747 0.707668 0.627466
0.639368 0.709682 0.627619
0.679561 0.726925 0.623499
0.733242 0.739956 0.622004
0.788937 0.744533 0.623133
0.642542 0.771542 0.686549
0.643732 0.770901 0.686091
0.650202 0.770230 0.686397
0.664637 0.771145 0.689174
0.683558 0.769894 0.690852
0.712367 0.782498 0.689174
0.757778 0.800839 0.685634
0.809842 0.812375 0.687160
0.000000 0.126772 0.373327
0.126497 0.128908 0.380560
0.287175 0.130709 0.397650
0.464179 0.141878 0.417212
0.540368 0.254917 0.397040
0.643214 0.328374 0.420600
0.717800 0.393347 0.447211
0.768765 0.461891 0.486610
0.057527 0.183017 0.399756
0.152377 0.187533 0.403449
0.301091 0.192905 0.414893
0.472877 0.206302 0.430335
0.543969 0.292515 0.409735
0.644282 0.353674 0.430915
0.716304 0.409888 0.454810
0.768368 0.470069 0.489845
0.169802 0.332616 0.438331
0.212650 0.338231 0.440711
0.327398 0.352056 0.448554
0.478676 0.358160 0.458839
0.555962 0.404120 0.454292
0.650568 0.441566 0.473182
0.716640 0.488197 0.501976
0.772030 0.511498 0.512840
0.290105 0.498573 0.492958
0.313176 0.499611 0.493568
0.389899 0.506249 0.498970
0.489509 0.519493 0.510674
0.583429 0.527459 0.513298
0.657954 0.536400 0.517388
0.720058 0.547845 0.524620
0.770718 0.560937 0.534112
0.430060 0.609888 0.545586
0.439765 0.609216 0.545800
0.478309 0.609186 0.550195
0.540215 0.610864 0.563745
0.605432 0.625513 0.559258
0.672847 0.622278 0.554681
0.720943 0.624750 0.566430
0.768765 0.628534 0.574914
0.521355 0.671901 0.596155
0.529320 0.673945 0.600305
0.552239 0.672389 0.606775
0.581445 0.669947 0.609857
0.616358 0.671717 0.610040
0.671656 0.687098 0.602319
0.726589 0.685725 0.600366
0.774960 0.693355 0.618463
0.593072 0.717617 0.652796
0.595361 0.717678 0.653285
0.604120 0.716823 0.653712
0.620356 0.715236 0.654536
0.642329 0.712459 0.655146
0.676600 0.726741 0.651789
0.728634 0.740993 0.648096
0.785885 0.747066 0.648615
0.639857 0.778408 0.701076
0.641382 0.778134 0.701015
0.648188 0.777218 0.701045
0.661799 0.776150 0.701778
0.681300 0.774166 0.702510
0.708370 0.780423 0.702113
0.754025 0.800626 0.699123
0.809567 0.814664 0.701259
0.000000 0.141421 0.506493
0.000000 0.143435 0.510460
0.260655 0.149660 0.517845
0.438605 0.157473 0.530205
0.589380 0.201846 0.537285
0.630549 0.322942 0.501244
0.689631 0.394110 0.507561
0.754910 0.448310 0.526604
0.000000 0.196231 0.520623
0.112062 0.198611 0.523980
0.279271 0.206394 0.529351
0.444953 0.215946 0.536889
0.590753 0.249729 0.542779
0.630213 0.349371 0.508080
0.689418 0.410712 0.513787
0.753658 0.459846 0.531395
0.162020 0.338323 0.546502
0.200107 0.339788 0.547692
0.327611 0.358709 0.549187
0.457862 0.363928 0.553887
0.586542 0.377234 0.557733
0.622583 0.428199 0.527245
0.686183 0.465309 0.534417
0.747555 0.497200 0.546777
0.297246 0.488930 0.572412
0.317967 0.491310 0.573083
0.388067 0.502037 0.576745
0.477119 0.513909 0.582727
0.581415 0.515679 0.585901
0.620783 0.533288 0.569940
0.688685 0.546441 0.575158
0.741695 0.563104 0.582940
0.406683 0.601892 0.603418
0.417731 0.602777 0.604120
0.457313 0.605249 0.606378
0.516991 0.610071 0.610834
0.579919 0.616297 0.616449
0.641535 0.617762 0.614313
0.696559 0.619257 0.612451
0.748287 0.622309 0.611810
0.495491 0.668421 0.627832
0.501183 0.668421 0.628260
0.520867 0.667048 0.628138
0.555932 0.666285 0.630549
0.603815 0.666987 0.640436
0.653742 0.680293 0.642603
0.709102 0.683070 0.642420
0.760342 0.689845 0.650111
0.573419 0.719478 0.667628
0.575341 0.718868 0.667140
0.584833 0.717769 0.667079
0.607324 0.718135 0.671992
0.636683 0.715969 0.676844
0.665583 0.718532 0.675929
0.716793 0.736019 0.671595
0.775113 0.741787 0.669947
0.612482 0.778531 0.704311
0.615106 0.778225 0.704799
0.629358 0.777127 0.709621
0.648859 0.777981 0.714076
0.671015 0.776028 0.714687
0.698085 0.773373 0.715419
0.741329 0.793454 0.713008
0.800351 0.809781 0.712947
0.000000 0.164004 0.619745
0.000000 0.166751 0.621271
0.242466 0.175814 0.622644
0.410346 0.193820 0.626276
0.565087 0.219303 0.630823
0.677333 0.283482 0.630762
0.695186 0.388891 0.588006
0.735134 0.449958 0.583856
0.000000 0.212039 0.618921
0.078187 0.213931 0.619257
0.261479 0.222538 0.620935
0.414832 0.237705 0.624140
0.561852 0.258885 0.628534
0.671412 0.309026 0.628016
0.690333 0.401678 0.587182
0.731289 0.456641 0.583520
0.168978 0.341466 0.635370
0.218601 0.348852 0.634974
0.329961 0.366644 0.634943
0.442664 0.373327 0.635248
0.564233 0.383368 0.637507
0.664240 0.407172 0.636500
0.685206 0.463935 0.601831
0.727047 0.497536 0.597467
0.324132 0.499794 0.653132
0.340063 0.501854 0.652766
0.396124 0.507897 0.653712
0.486183 0.524620 0.656916
0.571618 0.525536 0.658442
0.656947 0.527214 0.656855
0.681147 0.549310 0.630182
0.726558 0.561028 0.625452
0.415045 0.595758 0.662837
0.424170 0.596612 0.662959
0.459236 0.600671 0.664027
0.514153 0.608667 0.666896
0.572381 0.614130 0.669245
0.643061 0.610376 0.668238
0.671351 0.614191 0.650996
0.724056 0.616907 0.649134
0.489387 0.668116 0.678187
0.496437 0.669398 0.679530
0.516503 0.670069 0.680110
0.551019 0.671687 0.681483
0.593988 0.674128 0.683558
0.641810 0.679988 0.689418
0.689784 0.680903 0.687770
0.744289 0.679805 0.682612
0.561883 0.725612 0.704860
0.565362 0.726162 0.705715
0.576287 0.726070 0.705898
0.596460 0.725978 0.706203
0.623957 0.726070 0.706477
0.661250 0.724758 0.709499
0.707271 0.735897 0.706813
0.769894 0.741970 0.705104
0.597864 0.783047 0.732357
0.599145 0.782498 0.731685
0.606256 0.782010 0.730709
0.621576 0.782742 0.730465
0.646662 0.782864 0.730617
0.687098 0.779324 0.736080
0.726375 0.785183 0.735775
0.791165 0.806973 0.734981
0.000000 0.185031 0.700557
0.000000 0.188418 0.702205
0.230137 0.197696 0.702296
0.388434 0.217319 0.703548
0.528862 0.242435 0.702754
0.652216 0.272679 0.701198
0.735103 0.335302 0.694484
0.739864 0.427161 0.648585
0.000000 0.223209 0.695460
0.055360 0.226719 0.697566
0.248356 0.235050 0.697810
0.390936 0.249241 0.697475
0.524468 0.268437 0.696407
0.644099 0.290593 0.694026
0.726284 0.341955 0.686519
0.731777 0.425574 0.640711
0.207584 0.350500 0.703944
0.244999 0.357610 0.703517
0.320287 0.361486 0.702022
0.423438 0.368627 0.700893
0.532952 0.376745 0.698512
0.639368 0.387457 0.696895
0.720455 0.419318 0.693019
0.730404 0.479438 0.654627
0.308354 0.481025 0.712520
0.321294 0.480903 0.711666
0.371160 0.483925 0.709957
0.469245 0.507286 0.708003
0.547387 0.507012 0.706325
0.634211 0.508110 0.705776
0.709621 0.517815 0.703059
0.723415 0.546044 0.670130
0.406226 0.585534 0.713161
0.412360 0.585107 0.712032
0.441810 0.587671 0.710903
0.491646 0.592828 0.711269
0.559258 0.600702 0.709865
0.623590 0.595361 0.708614
0.692592 0.592340 0.706447
0.714473 0.607019 0.684871
0.479591 0.658259 0.719600
0.484901 0.658808 0.719936
0.504112 0.660548 0.720516
0.538354 0.663935 0.721828
0.582330 0.668605 0.723507
0.630549 0.673060 0.727077
0.688899 0.668879 0.725551
0.713405 0.665644 0.707362
0.542962 0.719722 0.736995
0.546624 0.720485 0.737789
0.558068 0.720943 0.738186
0.579492 0.722377 0.739559
0.607935 0.723812 0.740749
0.643549 0.726436 0.743130
0.690425 0.731655 0.747921
0.748653 0.729091 0.741512
0.577142 0.785336 0.768917
0.579217 0.785733 0.769253
0.588403 0.788205 0.771481
0.604852 0.789639 0.772030
0.629847 0.790066 0.770901
0.664546 0.790494 0.769070
0.715114 0.788113 0.771176
0.778317 0.804318 0.770108
0.000000 0.194675 0.761074
0.000000 0.196933 0.761715
0.208499 0.202701 0.759640
0.359075 0.217105 0.759426
0.492470 0.238895 0.758175
0.611048 0.264897 0.755642
0.716518 0.293675 0.753414
0.782712 0.357977 0.744350
0.000000 0.224857 0.757259
0.000000 0.227604 0.757961
0.226719 0.233097 0.756954
0.364446 0.245457 0.756252
0.492561 0.263798 0.755001
0.608240 0.285588 0.752560
0.711604 0.307713 0.749599
0.777676 0.363775 0.740261
0.188876 0.333013 0.756435
0.214664 0.334142 0.756497
0.290776 0.337255 0.755123
0.397467 0.349248 0.756832
0.503929 0.358129 0.754421
0.606348 0.367498 0.750851
0.703792 0.378088 0.748257
0.769833 0.413123 0.739742
0.221561 0.427955 0.758816
0.252873 0.433967 0.758938
0.343389 0.454475 0.756832
0.435676 0.471931 0.755917
0.518456 0.474434 0.754818
0.605158 0.475227 0.752529
0.693202 0.474983 0.750454
0.759426 0.488533 0.743282
0.328740 0.548730 0.760220
0.338750 0.549279 0.760739
0.368994 0.546502 0.759548
0.436164 0.551354 0.758877
0.529686 0.570397 0.755459
0.599939 0.565118 0.753231
0.678401 0.559197 0.751736
0.746822 0.561456 0.747372
0.423621 0.638209 0.764431
0.427161 0.637385 0.763607
0.444709 0.636225 0.761746
0.480903 0.637171 0.761166
0.531273 0.639643 0.762325
0.606287 0.649409 0.764340
0.674983 0.646143 0.766629
0.743252 0.641718 0.764462
0.501366 0.713161 0.779568
0.504204 0.712978 0.779355
0.516045 0.712551 0.778744
0.539971 0.713344 0.779355
0.573724 0.714687 0.780880
0.615564 0.716701 0.784726
0.672175 0.718166 0.790890
0.746304 0.708248 0.786069
0.551659 0.781033 0.803922
0.553307 0.780850 0.803708
0.561181 0.781155 0.803952
0.578027 0.782864 0.805631
0.604089 0.784878 0.807584
0.640314 0.787198 0.809689
0.690578 0.790646 0.812924
0.754726 0.795682 0.817441
