20 Preset/Natural Girl/【3】LUT video cho PR-AE-FCPX/Lut Tone  (2).cube
# Created by Adobe Lightroom plugin Export LUT (1.24.0)
# www.johnrellis.com/lightroom/exportlut.htm
# Preset: 自然胶片-素材江湖（原版）11
# Color profile: C:\Program Files (x86)\Common Files\Adobe\Color\Profiles\Recommended\VideoHD.icc
LUT_3D_SIZE 32
DOMAIN_MIN 0.0 0.0 0.0
DOMAIN_MAX 1.0 1.0 1.0
0.115938 0.109773 0.114900
0.122805 0.110780 0.115236
0.139590 0.112764 0.117006
0.160037 0.118013 0.120119
0.192294 0.125612 0.126070
0.240391 0.132448 0.130465
0.297337 0.139223 0.133761
0.356634 0.145632 0.136110
0.415839 0.152285 0.137758
0.474220 0.160739 0.139681
0.530877 0.171389 0.142031
0.585077 0.184970 0.144503
0.635035 0.201938 0.147555
0.680018 0.221500 0.152193
0.719478 0.242618 0.158358
0.753841 0.264988 0.166415
0.782986 0.287449 0.177127
0.808530 0.309667 0.189517
0.841306 0.340337 0.208927
0.869535 0.370092 0.230411
0.892424 0.396002 0.251316
0.911467 0.418799 0.271611
0.927184 0.438422 0.289952
0.941253 0.456123 0.307408
0.953979 0.471962 0.323919
0.965820 0.486885 0.339788
0.977417 0.501274 0.355932
0.989014 0.515526 0.372076
1.000000 0.529931 0.388830
1.000000 0.544671 0.406531
1.000000 0.559808 0.425360
1.000000 0.575372 0.445197
0.119570 0.114839 0.117189
0.121798 0.115175 0.116793
0.140352 0.117708 0.118379
0.160372 0.121035 0.121706
0.192416 0.128145 0.127291
0.239322 0.135378 0.131380
0.294224 0.141817 0.134066
0.351385 0.147860 0.136385
0.409552 0.154696 0.137942
0.466926 0.162905 0.139620
0.522789 0.173007 0.141848
0.576501 0.186038 0.144350
0.626673 0.201816 0.147524
0.671962 0.220554 0.151644
0.711971 0.241184 0.157412
0.747219 0.262943 0.166018
0.777340 0.285557 0.176028
0.803433 0.307225 0.187930
0.835843 0.336950 0.206210
0.863096 0.364813 0.226474
0.885649 0.389868 0.245853
0.904387 0.411627 0.264988
0.920012 0.430762 0.282475
0.934051 0.448127 0.299321
0.946929 0.463966 0.315160
0.959014 0.478676 0.330571
0.971038 0.493172 0.346288
0.983062 0.507713 0.362585
0.995300 0.522576 0.379583
1.000000 0.537774 0.397436
1.000000 0.553399 0.416602
1.000000 0.569299 0.436744
0.130556 0.129854 0.125063
0.133791 0.130220 0.126009
0.141634 0.132296 0.125277
0.163424 0.135592 0.127932
0.198123 0.141176 0.131167
0.245182 0.148257 0.133913
0.298528 0.154604 0.136202
0.353979 0.160464 0.137972
0.410285 0.167666 0.139681
0.465949 0.175418 0.141207
0.520836 0.185000 0.142977
0.573541 0.196719 0.145266
0.622980 0.211673 0.148501
0.667842 0.229252 0.152895
0.707729 0.248417 0.158816
0.742885 0.269291 0.166842
0.773342 0.290410 0.177005
0.799680 0.311376 0.189029
0.832334 0.340002 0.206790
0.858976 0.366369 0.225986
0.881315 0.390600 0.245121
0.900145 0.411719 0.263523
0.915801 0.430396 0.280827
0.929992 0.447120 0.296910
0.942779 0.462501 0.312596
0.955047 0.476692 0.327520
0.967132 0.491218 0.343145
0.979400 0.505608 0.359228
0.991943 0.520470 0.376135
1.000000 0.535729 0.394141
1.000000 0.551202 0.413062
1.000000 0.567102 0.432929
0.146365 0.150942 0.136965
0.148867 0.151278 0.137331
0.155917 0.153933 0.137240
0.170932 0.159579 0.136660
0.209781 0.169131 0.137331
0.259678 0.174960 0.138674
0.311284 0.180789 0.139925
0.363928 0.186343 0.141268
0.418067 0.192538 0.142672
0.471260 0.199557 0.144137
0.524193 0.208408 0.146059
0.574762 0.219059 0.147921
0.622614 0.232517 0.151400
0.666072 0.248203 0.156069
0.704585 0.265232 0.162295
0.738979 0.283726 0.170626
0.768673 0.302190 0.180179
0.796567 0.322850 0.192569
0.826688 0.347906 0.209232
0.851438 0.370764 0.225986
0.872770 0.391821 0.243381
0.891356 0.411536 0.260716
0.907591 0.429297 0.277379
0.922576 0.445899 0.293706
0.936645 0.461738 0.309483
0.950103 0.477028 0.325689
0.963348 0.492226 0.342504
0.976501 0.507256 0.359411
0.989654 0.522332 0.376654
1.000000 0.537438 0.394873
1.000000 0.552575 0.413245
1.000000 0.567590 0.432319
0.167300 0.186770 0.148928
0.170291 0.186923 0.149264
0.179660 0.188388 0.149813
0.193088 0.194461 0.148714
0.218265 0.204471 0.146487
0.269780 0.217197 0.144564
0.322362 0.220615 0.144686
0.374578 0.223423 0.145998
0.425299 0.227756 0.146700
0.475929 0.233585 0.148440
0.525963 0.240543 0.149966
0.574578 0.249882 0.152834
0.620539 0.260929 0.156497
0.663081 0.274601 0.161654
0.701289 0.289708 0.168490
0.735470 0.306279 0.176974
0.765560 0.322698 0.186435
0.796231 0.343328 0.200107
0.824277 0.364843 0.215976
0.847837 0.384802 0.232181
0.868620 0.403571 0.248569
0.886931 0.420996 0.264836
0.903197 0.437476 0.281102
0.918547 0.453101 0.297032
0.933013 0.468269 0.312779
0.946899 0.483192 0.329168
0.960388 0.497627 0.345525
0.973724 0.512047 0.361944
0.986816 0.526421 0.378973
0.999817 0.540887 0.396429
1.000000 0.555261 0.414252
1.000000 0.569696 0.432746
0.193545 0.231998 0.162234
0.195956 0.232212 0.162295
0.207004 0.231968 0.163546
0.220157 0.237247 0.162356
0.241733 0.246860 0.160311
0.275181 0.259678 0.156435
0.334142 0.275395 0.152041
0.387213 0.275761 0.152346
0.441016 0.277134 0.153597
0.490364 0.280339 0.155306
0.537469 0.285222 0.158022
0.583764 0.292515 0.160861
0.627344 0.301762 0.165652
0.667567 0.312810 0.171908
0.704250 0.325414 0.179263
0.737423 0.338781 0.188205
0.767910 0.353948 0.198734
0.799252 0.373205 0.213657
0.825376 0.390906 0.228763
0.847868 0.407935 0.244358
0.868040 0.424231 0.260044
0.886015 0.439673 0.276280
0.937591 0.498116 0.338293
0.950896 0.511131 0.354498
0.963226 0.523217 0.370062
0.974823 0.534752 0.385138
0.985992 0.546014 0.399847
0.996979 0.557092 0.414282
1.000000 0.568261 0.428962
1.000000 0.579675 0.444160
1.000000 0.590967 0.459663
1.000000 0.602136 0.474769
0.232975 0.299138 0.183780
0.235660 0.299168 0.183993
0.246403 0.298314 0.185031
0.263218 0.300755 0.185092
0.282750 0.309575 0.182650
0.312322 0.321416 0.178927
0.352331 0.336522 0.173800
0.418708 0.355993 0.166964
0.472236 0.354467 0.168124
0.525597 0.354528 0.171298
0.576867 0.356329 0.175479
0.619471 0.360754 0.180392
0.658686 0.366491 0.186893
0.694301 0.373693 0.193942
0.726436 0.381720 0.201572
0.755093 0.390600 0.211246
0.789242 0.408118 0.227054
0.816983 0.423377 0.243076
0.840879 0.438056 0.259525
0.862913 0.452888 0.276371
0.883543 0.468208 0.294102
0.902861 0.483803 0.313054
0.920867 0.499458 0.332738
0.937560 0.514580 0.352178
0.952728 0.528283 0.369879
0.966003 0.540520 0.386236
0.978149 0.551324 0.400793
0.989532 0.561639 0.414984
1.000000 0.572076 0.429084
1.000000 0.582452 0.443305
1.000000 0.593011 0.457923
1.000000 0.603601 0.472755
0.266850 0.348180 0.204471
0.269230 0.347997 0.204715
0.278569 0.347112 0.205386
0.295048 0.346746 0.206851
0.311070 0.353765 0.204959
0.335027 0.364080 0.202609
0.366796 0.376715 0.199313
0.407935 0.392340 0.194400
0.473640 0.414984 0.187747
0.524681 0.413184 0.190799
0.574395 0.413428 0.195499
0.621637 0.414862 0.200381
0.661555 0.417121 0.206851
0.695003 0.420325 0.213321
0.727474 0.426581 0.221866
0.760678 0.437415 0.234867
0.788663 0.447272 0.248386
0.812985 0.456703 0.261418
0.835050 0.466468 0.275395
0.855955 0.477363 0.290440
0.875853 0.489326 0.306828
0.894835 0.501976 0.323980
0.912688 0.515068 0.342260
0.929442 0.528038 0.360204
0.944762 0.540337 0.377142
0.958404 0.550988 0.392523
0.970825 0.560876 0.406683
0.982727 0.570092 0.419806
0.994263 0.579614 0.433448
1.000000 0.589166 0.446998
1.000000 0.598901 0.460914
1.000000 0.608972 0.475441
0.303441 0.396704 0.229648
0.305882 0.396521 0.229618
0.312810 0.395850 0.230320
0.327489 0.394598 0.231693
0.342565 0.398688 0.230930
0.362036 0.406989 0.229404
0.387579 0.417487 0.227115
0.420996 0.430732 0.224338
0.461585 0.446571 0.220310
0.524987 0.470893 0.215000
0.572992 0.469947 0.219425
0.617884 0.469917 0.224887
0.659663 0.470192 0.231449
0.703822 0.476631 0.243534
0.736904 0.481361 0.253910
0.764279 0.484962 0.264103
0.788632 0.488930 0.274784
0.810636 0.493690 0.285801
0.831388 0.499519 0.297734
0.851347 0.506889 0.311009
0.870573 0.515679 0.325444
0.888945 0.525597 0.341039
0.906401 0.536065 0.357702
0.923003 0.546685 0.374090
0.938262 0.556878 0.389624
0.952026 0.565972 0.403845
0.964721 0.574426 0.416876
0.976806 0.582666 0.429511
0.988586 0.590997 0.442115
1.000000 0.599481 0.454871
1.000000 0.608331 0.468147
1.000000 0.617334 0.481636
0.340826 0.443763 0.257298
0.342504 0.443214 0.257206
0.347936 0.442329 0.257511
0.360235 0.440650 0.258183
0.374426 0.441382 0.258518
0.389837 0.447639 0.257145
0.410864 0.456123 0.255222
0.437568 0.466926 0.253574
0.470436 0.479713 0.251438
0.509056 0.494697 0.249363
0.572686 0.523156 0.248325
0.618921 0.525139 0.255772
0.661799 0.526879 0.264408
0.700435 0.528008 0.274144
0.734707 0.528527 0.284703
0.764340 0.529015 0.295659
0.787442 0.530022 0.304967
0.808957 0.532158 0.314977
0.829252 0.535546 0.325719
0.848508 0.540215 0.337438
0.866575 0.545617 0.349584
0.883574 0.551598 0.362036
0.899626 0.558404 0.375128
0.915038 0.565484 0.387976
0.929473 0.572595 0.400885
0.943023 0.579553 0.412818
0.955901 0.586572 0.424872
0.968444 0.593774 0.436744
0.980804 0.601404 0.449012
0.992920 0.609430 0.461769
1.000000 0.617884 0.474922
1.000000 0.626581 0.488502
0.373724 0.483314 0.283513
0.374640 0.483253 0.283665
0.380072 0.482643 0.284031
0.390051 0.481483 0.284825
0.404730 0.479988 0.285985
0.417884 0.485756 0.285435
0.435889 0.493355 0.284916
0.460731 0.505394 0.286137
0.491371 0.519493 0.287358
0.526635 0.535180 0.289311
0.565698 0.551781 0.290929
0.621912 0.577325 0.291905
0.660548 0.575921 0.299321
0.696040 0.574090 0.307378
0.727993 0.572229 0.316350
0.757107 0.570672 0.326452
0.783810 0.569665 0.336706
0.806394 0.569482 0.346410
0.825803 0.570184 0.355047
0.844205 0.571954 0.364324
0.861570 0.574701 0.374212
0.877989 0.578363 0.384955
0.893797 0.582971 0.396246
0.908934 0.587976 0.407599
0.923400 0.593256 0.418585
0.936950 0.598718 0.429633
0.949981 0.604303 0.440375
0.962676 0.610285 0.451057
0.975097 0.616693 0.462501
0.987427 0.623651 0.474281
0.999512 0.631067 0.486641
1.000000 0.638758 0.499306
0.414740 0.530602 0.318761
0.415961 0.530480 0.318883
0.420325 0.530266 0.319188
0.429175 0.529839 0.320348
0.442542 0.529198 0.321996
0.456641 0.532982 0.323339
0.472969 0.540734 0.324376
0.493446 0.549889 0.325841
0.517906 0.560662 0.327672
0.546288 0.572686 0.329900
0.577935 0.585718 0.332403
0.612238 0.599420 0.335821
0.696132 0.658473 0.387793
0.726925 0.654047 0.395270
0.754910 0.649470 0.402838
0.780941 0.645472 0.410285
0.805081 0.642023 0.417884
0.827634 0.639399 0.425879
0.848539 0.637629 0.434760
0.865080 0.636042 0.440253
0.880247 0.635096 0.446235
0.894591 0.635157 0.453040
0.908324 0.635828 0.459632
0.921508 0.637293 0.467018
0.934142 0.639124 0.474128
0.946166 0.641077 0.480903
0.957610 0.643244 0.487526
0.968719 0.645838 0.494179
0.979614 0.649042 0.501640
0.990570 0.652979 0.509880
1.000000 0.657649 0.518730
1.000000 0.662959 0.528588
0.477394 0.597040 0.379736
0.477729 0.596857 0.379614
0.480598 0.595544 0.379187
0.486763 0.593805 0.378546
0.496010 0.591180 0.377905
0.507408 0.589929 0.377508
0.519402 0.594476 0.377752
0.535027 0.600610 0.378790
0.554620 0.608759 0.381262
0.578027 0.618830 0.385199
0.605463 0.630823 0.391241
0.635767 0.644038 0.399176
0.667903 0.657557 0.408118
0.710780 0.677607 0.415900
0.740291 0.675380 0.425757
0.766690 0.671839 0.433387
0.790707 0.668086 0.440253
0.812863 0.664485 0.446601
0.833555 0.661555 0.453498
0.852873 0.659297 0.460761
0.870512 0.657527 0.467323
0.884733 0.656092 0.472236
0.898466 0.655451 0.477455
0.911864 0.655665 0.483101
0.924712 0.656306 0.488930
0.937011 0.657465 0.495186
0.948974 0.658930 0.500938
0.960540 0.660883 0.507408
0.971984 0.663569 0.514458
0.983429 0.666957 0.522118
0.994720 0.670924 0.530632
1.000000 0.675654 0.539971
0.506523 0.626551 0.412726
0.506432 0.626032 0.412085
0.508385 0.624750 0.411231
0.512810 0.622675 0.409979
0.519768 0.619745 0.408423
0.529595 0.616510 0.407477
0.539452 0.618952 0.407233
0.551690 0.623438 0.407721
0.567437 0.629725 0.409918
0.586786 0.637842 0.413458
0.609369 0.647639 0.419440
0.634821 0.658717 0.426886
0.662104 0.670253 0.435523
0.690181 0.681544 0.444068
0.728511 0.699763 0.450416
0.754604 0.696651 0.457710
0.778042 0.692622 0.463386
0.799832 0.688594 0.468452
0.820340 0.685115 0.474098
0.839567 0.682002 0.480140
0.857969 0.679683 0.486488
0.875608 0.678340 0.493721
0.890684 0.677089 0.499062
0.904173 0.676265 0.503655
0.917174 0.676020 0.508476
0.929686 0.676265 0.513420
0.941802 0.676905 0.518547
0.953552 0.678065 0.524102
0.965270 0.679835 0.530022
0.976867 0.682521 0.537224
0.988342 0.685786 0.545037
0.999878 0.689784 0.553613
0.530999 0.651057 0.443824
0.531487 0.650629 0.443305
0.532647 0.649561 0.442542
0.535851 0.647578 0.440925
0.541466 0.644770 0.438758
0.549401 0.641596 0.437140
0.558251 0.641199 0.436378
0.568322 0.644678 0.436927
0.581353 0.649683 0.438727
0.597253 0.656306 0.442481
0.616114 0.664393 0.448127
0.637659 0.673762 0.455055
0.660639 0.683528 0.462776
0.684901 0.693294 0.470710
0.709682 0.702571 0.477577
0.744167 0.719295 0.481941
0.767758 0.715816 0.487465
0.788876 0.711696 0.491737
0.809018 0.707790 0.496254
0.828092 0.704250 0.500908
0.846311 0.701411 0.506310
0.863951 0.699397 0.512352
0.880888 0.698024 0.518669
0.897246 0.697292 0.525658
0.910307 0.696132 0.529381
0.922911 0.695491 0.533196
0.935241 0.695521 0.537591
0.947356 0.696223 0.542718
0.959503 0.697688 0.548577
0.971527 0.700130 0.555779
0.983551 0.703304 0.563836
0.995453 0.707210 0.572839
0.551202 0.670527 0.470741
0.551781 0.670527 0.470863
0.553277 0.669947 0.470497
0.556451 0.668818 0.469917
0.561608 0.667201 0.469001
0.569055 0.665248 0.468360
0.578698 0.663813 0.468330
0.587640 0.667323 0.470192
0.598932 0.671931 0.472999
0.612238 0.677424 0.476539
0.627497 0.683589 0.480720
0.644617 0.690425 0.485756
0.663142 0.697627 0.490822
0.682887 0.704891 0.495766
0.703456 0.712032 0.500206
0.724788 0.719020 0.504601
0.756619 0.734829 0.507317
0.778134 0.731441 0.511650
0.797910 0.727626 0.515740
0.816831 0.724147 0.520195
0.835233 0.721401 0.525139
0.853086 0.719387 0.530938
0.870298 0.717922 0.537133
0.887022 0.716976 0.543481
0.903044 0.716457 0.550103
0.917662 0.716091 0.556023
0.930114 0.715602 0.559747
0.942351 0.715755 0.564233
0.954498 0.716487 0.569207
0.966430 0.718013 0.575311
0.978332 0.720089 0.581811
0.990021 0.722866 0.589319
0.569177 0.687678 0.495888
0.569543 0.687617 0.495918
0.570764 0.687221 0.495796
0.573724 0.686366 0.495155
0.578271 0.685237 0.494820
0.584710 0.683772 0.494545
0.593164 0.682277 0.494575
0.601648 0.683833 0.495766
0.610986 0.687495 0.498116
0.622156 0.692012 0.501274
0.635096 0.697261 0.504845
0.649744 0.703090 0.509331
0.665644 0.709316 0.513909
0.682612 0.715663 0.518242
0.700740 0.722072 0.522606
0.719478 0.728298 0.526299
0.739071 0.734554 0.530053
0.768795 0.749508 0.532677
0.789090 0.747066 0.536675
0.807523 0.743587 0.540642
0.825711 0.740841 0.544976
0.843412 0.738582 0.550011
0.860685 0.736873 0.555474
0.877409 0.735775 0.561425
0.893553 0.735073 0.567773
0.909300 0.734737 0.574151
0.924529 0.734859 0.580774
0.937621 0.734798 0.585565
0.949798 0.735103 0.590112
0.961822 0.735988 0.595300
0.973785 0.737514 0.601038
0.985534 0.739559 0.607752
0.588281 0.705562 0.523613
0.588739 0.705745 0.523888
0.608453 0.722225 0.551232
0.610681 0.721645 0.551080
0.614313 0.720638 0.550439
0.619287 0.719203 0.549889
0.625879 0.717556 0.549187
0.633570 0.716823 0.549279
0.641047 0.719753 0.550958
0.650202 0.723354 0.553429
0.660731 0.727504 0.556451
0.672541 0.732052 0.559808
0.685359 0.736629 0.562676
0.699092 0.741390 0.565362
0.713680 0.746029 0.567712
0.729030 0.750576 0.569848
0.745113 0.755093 0.571344
0.762142 0.759640 0.572717
0.788815 0.772366 0.573510
0.806851 0.770108 0.575372
0.823667 0.766293 0.577539
0.840360 0.763394 0.580713
0.856779 0.760983 0.584283
0.872740 0.758877 0.588342
0.888151 0.756954 0.591943
0.903075 0.755398 0.596094
0.917693 0.754208 0.600366
0.931975 0.753536 0.605341
0.945830 0.753506 0.610956
0.957610 0.753567 0.614954
0.969421 0.754330 0.619806
0.981079 0.755703 0.625483
0.610681 0.726467 0.556970
0.612482 0.727810 0.559106
0.615167 0.729122 0.561608
0.618677 0.729915 0.563684
0.622889 0.730098 0.565026
0.627680 0.729397 0.565148
0.633509 0.728023 0.564691
0.640650 0.726345 0.564263
0.647364 0.728115 0.565423
0.655146 0.731075 0.567346
0.664240 0.734646 0.569665
0.674403 0.738613 0.572534
0.685664 0.742702 0.575128
0.697810 0.746975 0.577630
0.710780 0.751278 0.580041
0.724605 0.755673 0.582269
0.739315 0.760098 0.584192
0.754879 0.764736 0.586419
0.771389 0.769589 0.588922
0.797269 0.782284 0.590478
0.815122 0.781552 0.593072
0.831754 0.778866 0.596185
0.848112 0.776516 0.599451
0.864012 0.774441 0.602899
0.879301 0.772427 0.606439
0.894285 0.770718 0.609888
0.908843 0.769314 0.613794
0.923186 0.768429 0.618311
0.937407 0.768215 0.623590
0.951507 0.768643 0.629816
0.964385 0.769314 0.635615
0.976104 0.770291 0.640681
0.622492 0.737850 0.574548
0.624262 0.739193 0.576837
0.626795 0.740475 0.579309
0.629877 0.741390 0.581415
0.633814 0.741665 0.582666
0.638239 0.741054 0.582940
0.643244 0.739986 0.582666
0.649378 0.738460 0.582177
0.656001 0.738338 0.582422
0.662593 0.740841 0.583917
0.670405 0.743893 0.585901
0.679347 0.747311 0.588190
0.689174 0.750973 0.590387
0.700008 0.754879 0.592737
0.711574 0.758846 0.594995
0.724025 0.762966 0.597192
0.737270 0.767086 0.599145
0.751247 0.771389 0.601068
0.766171 0.775937 0.603388
0.782010 0.780789 0.606043
0.806607 0.792844 0.607904
0.824247 0.793393 0.610895
0.840391 0.791226 0.614130
0.856168 0.789212 0.617487
0.871427 0.787228 0.620417
0.886259 0.785458 0.623621
0.900786 0.783963 0.627070
0.915160 0.782864 0.631006
0.929412 0.782437 0.635950
0.943603 0.782650 0.641718
0.957641 0.783413 0.648310
0.971374 0.784634 0.655665
0.634730 0.749752 0.592706
0.636255 0.750912 0.594720
0.638392 0.752010 0.596765
0.641169 0.752743 0.598352
0.644495 0.752987 0.599481
0.648249 0.752529 0.599786
0.652796 0.751522 0.599512
0.658137 0.750179 0.598932
0.664668 0.748684 0.598566
0.670558 0.750759 0.599939
0.677394 0.753414 0.601556
0.685206 0.756405 0.603449
0.693965 0.759701 0.605371
0.703517 0.763210 0.607477
0.713954 0.766934 0.609827
0.725277 0.770871 0.612024
0.737545 0.775174 0.614679
0.750912 0.779721 0.617487
0.765042 0.784665 0.620844
0.780209 0.790036 0.624842
0.796170 0.795682 0.629023
0.820432 0.807919 0.632471
0.838102 0.809995 0.636347
0.854154 0.808682 0.640345
0.869627 0.807340 0.644251
0.884581 0.805997 0.647913
0.899138 0.804776 0.651606
0.913542 0.803830 0.655756
0.927764 0.803494 0.660639
0.941894 0.803616 0.666468
0.955749 0.804227 0.672755
0.969177 0.805112 0.679713
0.654719 0.768948 0.621942
0.655451 0.769375 0.622583
0.656458 0.769589 0.623224
0.657984 0.769467 0.623407
0.660243 0.768978 0.623194
0.662928 0.768093 0.622736
0.666682 0.766934 0.622065
0.671199 0.765652 0.621485
0.676967 0.764187 0.620935
0.682887 0.764584 0.621485
0.688899 0.767025 0.623011
0.695827 0.769741 0.624689
0.703578 0.772641 0.626429
0.712062 0.775753 0.628290
0.721340 0.779110 0.630060
0.731380 0.782589 0.632136
0.742214 0.786282 0.634089
0.753933 0.790219 0.636378
0.766415 0.794430 0.638849
0.779782 0.798917 0.641474
0.793912 0.803647 0.644648
0.808713 0.808560 0.647944
0.831205 0.819486 0.650294
0.847837 0.821622 0.653040
0.862943 0.820096 0.656123
0.877775 0.818814 0.659602
0.892393 0.817716 0.663416
0.906767 0.816983 0.667659
0.921111 0.816648 0.672450
0.935241 0.816709 0.677882
0.949035 0.817136 0.683925
0.962554 0.817899 0.690608
0.665827 0.780179 0.637598
0.666316 0.780575 0.638300
0.667292 0.780728 0.638636
0.668696 0.780667 0.638880
0.670619 0.780270 0.638880
0.673182 0.779538 0.638483
0.676448 0.778531 0.637903
0.680629 0.777371 0.637385
0.685756 0.776150 0.637079
0.691798 0.774960 0.636744
0.697230 0.777127 0.638209
0.703456 0.779599 0.639612
0.710353 0.782315 0.641321
0.718196 0.785245 0.643153
0.726589 0.788357 0.645045
0.735805 0.791714 0.647028
0.745785 0.795315 0.649226
0.756558 0.799100 0.651423
0.768093 0.803128 0.653956
0.780362 0.807401 0.656703
0.793423 0.811887 0.659632
0.807156 0.816587 0.662928
0.821469 0.821439 0.666285
0.842802 0.831754 0.668788
0.855924 0.831144 0.665522
0.870390 0.829679 0.668605
0.884977 0.828763 0.672419
0.899382 0.828153 0.676600
0.913756 0.827878 0.681392
0.927947 0.827970 0.686824
0.942046 0.828519 0.693019
0.955840 0.829526 0.699947
0.680995 0.795438 0.658961
0.681788 0.795987 0.659937
0.682643 0.796109 0.660273
0.683589 0.795773 0.660029
0.684810 0.794980 0.659297
0.686549 0.793820 0.658167
0.688838 0.792355 0.656825
0.691951 0.790707 0.655329
0.695918 0.788968 0.654139
0.700679 0.787198 0.652949
0.705562 0.787137 0.652522
0.710658 0.788907 0.653254
0.716457 0.790921 0.653956
0.722988 0.793088 0.654780
0.730159 0.795468 0.655726
0.738003 0.798032 0.656764
0.746731 0.800931 0.658045
0.756283 0.804196 0.659754
0.766842 0.807950 0.662074
0.778317 0.812131 0.665034
0.790555 0.816556 0.668147
0.803403 0.821134 0.671382
0.816617 0.825620 0.674464
0.830228 0.830014 0.677302
0.850156 0.839322 0.678828
0.865599 0.842100 0.680507
0.879271 0.840543 0.683101
0.893248 0.839597 0.686549
0.907286 0.839017 0.690700
0.921355 0.838987 0.695705
0.935332 0.839536 0.701686
0.949187 0.840635 0.708644
0.689052 0.804166 0.669856
0.689784 0.804715 0.670680
0.690608 0.804959 0.671290
0.691676 0.804776 0.671290
0.693172 0.804318 0.670954
0.695033 0.803647 0.670558
0.697688 0.802792 0.670039
0.701015 0.801816 0.669490
0.705074 0.800717 0.669123
0.709987 0.799527 0.668696
0.715358 0.798367 0.668330
0.720241 0.800198 0.669276
0.725643 0.802152 0.670283
0.731594 0.804257 0.671138
0.738125 0.806424 0.671870
0.745174 0.808743 0.672816
0.753017 0.811307 0.673823
0.761715 0.814237 0.675257
0.771237 0.817624 0.677272
0.781735 0.821439 0.679774
0.793027 0.825589 0.682734
0.804959 0.829892 0.685847
0.817350 0.834287 0.689052
0.830167 0.838682 0.692164
0.843290 0.842954 0.695155
0.862364 0.851774 0.696986
0.877562 0.855253 0.699001
0.890776 0.853880 0.701991
0.904723 0.853544 0.706355
0.918608 0.853635 0.711513
0.932494 0.854276 0.717586
0.946197 0.855528 0.724788
0.700649 0.816281 0.685603
0.701076 0.816526 0.686000
0.701656 0.816556 0.686152
0.702510 0.816342 0.686030
0.703792 0.815854 0.685695
0.705501 0.815183 0.685206
0.707790 0.814328 0.684627
0.710689 0.813382 0.684077
0.714351 0.812284 0.683528
0.718715 0.811124 0.682979
0.723781 0.809812 0.682521
0.728695 0.810239 0.682826
0.733700 0.812070 0.683742
0.739132 0.813993 0.684596
0.745144 0.815976 0.685359
0.751522 0.818112 0.686122
0.758663 0.820493 0.687098
0.766567 0.823178 0.688472
0.775387 0.826291 0.690303
0.785061 0.829862 0.692622
0.795468 0.833707 0.695369
0.806516 0.837766 0.698329
0.817929 0.841825 0.701228
0.829831 0.845945 0.704219
0.842039 0.849973 0.706996
0.854582 0.854002 0.709773
0.872709 0.862211 0.711635
0.887572 0.866056 0.713497
0.900237 0.864836 0.716793
0.914122 0.865171 0.722194
0.928038 0.866087 0.728573
0.941894 0.867643 0.736080
0.710628 0.826902 0.698695
0.710994 0.827115 0.699001
0.711574 0.827207 0.699275
0.712490 0.827115 0.699336
0.713893 0.826932 0.699428
0.715877 0.826749 0.699702
0.718868 0.826749 0.700282
0.722591 0.826749 0.701137
0.727138 0.826871 0.702296
0.732357 0.826963 0.703578
0.738277 0.827024 0.705074
0.744686 0.826993 0.706477
0.750301 0.829709 0.708858
0.756161 0.832303 0.710994
0.762264 0.834867 0.712795
0.768521 0.837156 0.714137
0.775235 0.839536 0.715419
0.782589 0.842161 0.716854
0.790799 0.845151 0.718807
0.799710 0.848539 0.721309
0.809354 0.852171 0.724147
0.819577 0.856077 0.727199
0.830259 0.859953 0.730220
0.841306 0.863890 0.733303
0.852689 0.867826 0.736294
0.864561 0.871794 0.739254
0.876768 0.875792 0.742458
0.893584 0.883299 0.744625
0.907713 0.887266 0.746822
0.919493 0.886168 0.750607
0.933135 0.887388 0.757534
0.946654 0.889311 0.765743
0.730129 0.845670 0.724483
0.730190 0.845670 0.724514
0.730495 0.845518 0.724392
0.731044 0.845243 0.724147
0.732052 0.844846 0.723873
0.733547 0.844358 0.723568
0.735592 0.843839 0.723323
0.738338 0.843259 0.723140
0.741665 0.842679 0.723140
0.745693 0.842100 0.723293
0.750301 0.841398 0.723415
0.755581 0.840696 0.723659
0.760708 0.841276 0.724453
0.765682 0.843259 0.725795
