20 Preset/Natural Girl/【3】LUT video cho PR-AE-FCPX/Lut Tone  (10).cube
# Created by Adobe Lightroom plugin Export LUT (1.24.0)
# www.johnrellis.com/lightroom/exportlut.htm
# Preset: 自然胶片-素材江湖（原版）03
# Color profile: C:\Program Files (x86)\Common Files\Adobe\Color\Profiles\Recommended\VideoHD.icc
LUT_3D_SIZE 5
DOMAIN_MIN 0.000000 0.000000 0.000000
DOMAIN_MAX 0.903226 0.903226 0.903226
0.060334 0.054017 0.055787
0.214054 0.105135 0.100374
0.479591 0.160922 0.141360
0.717952 0.298833 0.230533
0.860502 0.438972 0.345129
0.176394 0.235111 0.153536
0.278111 0.269413 0.145724
0.514641 0.289860 0.194644
0.724117 0.379889 0.273808
0.863218 0.488960 0.382971
0.382269 0.514580 0.341650
0.423713 0.509911 0.343267
0.580224 0.580194 0.347265
0.746212 0.587274 0.416938
0.858915 0.618647 0.499977
0.549767 0.690974 0.535576
0.567895 0.689570 0.537865
0.627588 0.704036 0.544945
0.735164 0.742428 0.559045
0.865049 0.767849 0.629938
0.690578 0.832425 0.718135
0.699367 0.831876 0.719112
0.725002 0.822904 0.713344
0.789883 0.853910 0.729397
0.884154 0.888365 0.755245
0.055116 0.052003 0.157473
0.202335 0.095033 0.171756
0.448890 0.192020 0.218967
0.677272 0.320165 0.295232
0.832120 0.437781 0.376471
0.137209 0.239719 0.224949
0.259953 0.256352 0.235172
0.484657 0.306462 0.271244
0.689235 0.385473 0.326452
0.834318 0.480171 0.404486
0.365789 0.508904 0.374975
0.412451 0.505974 0.378607
0.553033 0.556298 0.379553
0.721859 0.572625 0.444282
0.845365 0.615991 0.518914
0.546593 0.691737 0.555627
0.565087 0.690852 0.558190
0.624414 0.700649 0.565454
0.729000 0.738857 0.577813
0.859709 0.765194 0.643580
0.686671 0.833005 0.724392
0.695247 0.832059 0.724849
0.730373 0.830411 0.729458
0.792538 0.857328 0.742031
0.887816 0.892668 0.768246
0.000000 0.070985 0.352483
0.182010 0.073274 0.365545
0.454139 0.141939 0.382849
0.634028 0.289830 0.396002
0.803922 0.432563 0.463600
0.000000 0.214054 0.415137
0.216434 0.228489 0.417334
0.472908 0.283543 0.415290
0.648646 0.369482 0.428779
0.800778 0.493935 0.502190
0.271122 0.528496 0.505760
0.350256 0.530907 0.507927
0.529015 0.548028 0.521141
0.682368 0.573053 0.547234
0.813687 0.612726 0.583185
0.516320 0.700649 0.613367
0.546258 0.697139 0.622217
0.612299 0.692927 0.628717
0.712184 0.731289 0.641718
0.844388 0.755764 0.688716
0.663020 0.834531 0.744808
0.673701 0.834348 0.746090
0.713252 0.832364 0.749752
0.777981 0.848020 0.759274
0.878111 0.886320 0.782437
0.000000 0.050202 0.584985
0.000000 0.028565 0.589502
0.450721 0.000000 0.598474
0.661036 0.233280 0.587304
0.751583 0.383001 0.560388
0.000000 0.197086 0.614099
0.063874 0.205447 0.614710
0.466560 0.231662 0.615534
0.658808 0.325139 0.596918
0.752926 0.426154 0.573236
0.000000 0.484657 0.663478
0.173342 0.486061 0.662715
0.473213 0.500572 0.661158
0.645533 0.528557 0.631952
0.766903 0.564080 0.633692
0.446937 0.710506 0.718715
0.474556 0.709377 0.717586
0.567742 0.710292 0.720150
0.685634 0.719661 0.728023
0.816373 0.732357 0.740536
0.609003 0.847105 0.792111
0.619776 0.847257 0.792142
0.664729 0.848875 0.793881
0.756374 0.842618 0.802945
0.869047 0.883391 0.822141
0.000000 0.000000 0.787808
0.000000 0.000000 0.786465
0.392157 0.000000 0.785580
0.676295 0.000000 0.778775
0.813169 0.282475 0.751064
0.000000 0.131533 0.789822
0.000000 0.129397 0.789120
0.394903 0.129397 0.786679
0.670832 0.188876 0.778012
0.806149 0.336370 0.750179
0.000000 0.369055 0.811765
0.000000 0.365118 0.809415
0.372290 0.406928 0.801419
0.649683 0.427710 0.788113
0.792325 0.489021 0.763088
0.000000 0.667750 0.835904
0.000000 0.664576 0.834257
0.346197 0.656703 0.833646
0.614801 0.655756 0.829679
0.793301 0.677760 0.811551
0.500206 0.855344 0.874296
0.515557 0.855009 0.874113
0.581964 0.857572 0.876860
0.694484 0.859983 0.880095
0.840635 0.868498 0.888670
