20 Preset/Natural Girl/【3】LUT video cho PR-AE-FCPX/Lut Tone  (12).cube
# Created by Adobe Lightroom plugin Export LUT (1.24.0)
# www.johnrellis.com/lightroom/exportlut.htm
# Preset: 自然胶片-素材江湖（原版）05
# Color profile: C:\Program Files (x86)\Common Files\Adobe\Color\Profiles\Recommended\VideoHD.icc
LUT_3D_SIZE 8
DOMAIN_MIN 0.000000 0.000000 0.000000
DOMAIN_MAX 0.903226 0.903226 0.903226
0.051881 0.044495 0.033570
0.144289 0.079316 0.051972
0.287907 0.105531 0.090364
0.450660 0.126101 0.105898
0.585779 0.177096 0.135561
0.680659 0.248295 0.183291
0.745205 0.315648 0.237797
0.794644 0.378424 0.296300
0.095033 0.157931 0.080873
0.154604 0.169558 0.066865
0.288182 0.174258 0.105989
0.450996 0.194522 0.119570
0.584161 0.232547 0.152010
0.677729 0.284642 0.198276
0.741787 0.338933 0.249577
0.791623 0.394079 0.305791
0.000000 0.346075 0.101411
0.141695 0.345617 0.105287
0.305516 0.369421 0.036805
0.491737 0.370794 0.040589
0.577295 0.375616 0.229557
0.667628 0.395300 0.262730
0.732418 0.421057 0.302342
0.781918 0.453742 0.349371
0.164553 0.496681 0.193698
0.207492 0.495583 0.196231
0.318456 0.491554 0.205814
0.448310 0.514946 0.171908
0.601770 0.524712 0.127535
0.679683 0.506676 0.274937
0.714290 0.521782 0.392432
0.764004 0.534478 0.423713
0.299901 0.588373 0.295598
0.315190 0.587579 0.296452
0.370336 0.584283 0.300603
0.450599 0.579889 0.306950
0.546197 0.599847 0.279698
0.657191 0.608240 0.263981
0.734310 0.596704 0.326207
0.766476 0.599268 0.447730
0.397894 0.646662 0.384497
0.405402 0.646418 0.385412
0.433448 0.644251 0.386908
0.480964 0.640162 0.390570
0.538872 0.640864 0.389502
0.611231 0.654353 0.372473
0.696742 0.663783 0.367773
0.776883 0.668696 0.400305
0.476234 0.692653 0.466102
0.480079 0.692378 0.466377
0.495430 0.691005 0.467109
0.523674 0.688441 0.469154
0.562371 0.684504 0.471778
0.608209 0.690974 0.467048
0.669520 0.706172 0.453956
0.747707 0.723354 0.454902
0.541314 0.755642 0.544244
0.543908 0.755428 0.544518
0.554559 0.754635 0.545098
0.574914 0.753109 0.546532
0.603479 0.750088 0.547814
0.639765 0.747280 0.551019
0.684901 0.762936 0.542351
0.746395 0.782620 0.528588
0.097627 0.043915 0.127565
0.163760 0.072297 0.126131
0.298497 0.098665 0.126833
0.454078 0.165133 0.155703
0.582849 0.218265 0.183993
0.675349 0.276158 0.221561
0.739467 0.332219 0.264286
0.790188 0.387274 0.313848
0.084260 0.164584 0.133944
0.159335 0.171145 0.137514
0.299199 0.194400 0.152468
0.453620 0.224094 0.170565
0.581628 0.262394 0.198337
0.672938 0.307225 0.234195
0.736843 0.353613 0.274968
0.787564 0.402106 0.322545
0.088136 0.352789 0.165469
0.166842 0.352667 0.168582
0.310369 0.367407 0.159854
0.487434 0.376928 0.160189
0.574121 0.386816 0.262119
0.663142 0.404852 0.288243
0.727657 0.427985 0.321172
0.778317 0.457954 0.361975
0.194217 0.498177 0.232364
0.229007 0.497169 0.233768
0.328771 0.493385 0.240879
0.449500 0.512352 0.219303
0.597925 0.523613 0.183566
0.673365 0.508721 0.304387
0.710811 0.523430 0.403113
0.761257 0.535760 0.431556
0.311833 0.588922 0.316655
0.326055 0.588159 0.317601
0.377722 0.584863 0.320684
0.454871 0.578851 0.326970
0.546441 0.598322 0.303593
0.655177 0.607477 0.287785
0.731533 0.597101 0.346014
0.763272 0.600366 0.459266
0.403693 0.646601 0.396612
0.410590 0.646113 0.397131
0.437598 0.644068 0.398535
0.483803 0.640101 0.401617
0.540551 0.639948 0.401465
0.611200 0.653651 0.386023
0.695766 0.663355 0.380957
0.775235 0.668421 0.412024
0.478737 0.692409 0.472786
0.482338 0.692042 0.473030
0.497353 0.690669 0.473610
0.525200 0.688136 0.475319
0.563378 0.684382 0.477760
0.608545 0.690242 0.473671
0.669123 0.705409 0.461067
0.746822 0.722774 0.461616
0.541650 0.755367 0.547631
0.544244 0.755245 0.547845
0.554864 0.754452 0.548455
0.575128 0.752926 0.549798
0.604150 0.750637 0.551812
0.640223 0.747555 0.554498
0.684810 0.762570 0.546258
0.746212 0.782315 0.532586
0.125277 0.053468 0.267979
0.192416 0.055177 0.267338
0.339849 0.086946 0.264408
0.450080 0.167605 0.252506
0.585443 0.222629 0.262394
0.668086 0.315404 0.303960
0.729519 0.366888 0.333928
0.781064 0.410346 0.366522
0.063966 0.168338 0.281041
0.174136 0.175357 0.280980
0.342107 0.192111 0.276768
0.458045 0.232395 0.267552
0.583246 0.285405 0.284825
0.664820 0.343664 0.315953
0.727169 0.384131 0.341955
0.778653 0.423377 0.373663
0.053193 0.365637 0.291478
0.173678 0.367803 0.293187
0.327520 0.374304 0.301640
0.462928 0.389807 0.322240
0.572168 0.408301 0.339788
0.655879 0.426520 0.356786
0.718959 0.447425 0.377844
0.770260 0.472175 0.405463
0.227085 0.507378 0.324620
0.261753 0.507256 0.328710
0.357549 0.504875 0.339940
0.459785 0.509789 0.337438
0.592798 0.525658 0.312932
0.656886 0.520745 0.397711
0.704616 0.533043 0.444160
0.755245 0.543542 0.463996
0.350378 0.593317 0.387579
0.361791 0.592584 0.387945
0.404334 0.589624 0.389593
0.470832 0.584192 0.392309
0.550866 0.596551 0.382452
0.651301 0.607996 0.368292
0.723384 0.601190 0.415686
0.752895 0.607294 0.505211
0.427100 0.648127 0.443061
0.432898 0.647669 0.443153
0.456367 0.645747 0.444038
0.496956 0.641993 0.445411
0.548699 0.637781 0.446693
0.612726 0.652033 0.435645
0.693202 0.663142 0.430274
0.770809 0.669215 0.457679
0.490974 0.693385 0.501457
0.494148 0.693080 0.501396
0.507836 0.691707 0.501579
0.533471 0.689174 0.502373
0.569055 0.685451 0.503624
0.611841 0.688716 0.501549
0.669642 0.704494 0.491615
0.746304 0.723079 0.491402
0.544488 0.756405 0.563134
0.546868 0.756191 0.563195
0.557214 0.755367 0.563500
0.577111 0.753933 0.564569
0.605707 0.751553 0.565972
0.641260 0.748531 0.567956
0.685023 0.761593 0.561608
0.745907 0.781857 0.549523
0.148898 0.045655 0.428626
0.209140 0.042023 0.428931
0.361852 0.079652 0.424323
0.507439 0.152224 0.415076
0.569268 0.246525 0.378820
0.656275 0.300908 0.378973
0.725002 0.350500 0.386725
0.771542 0.417182 0.421210
0.146212 0.176059 0.436439
0.208988 0.178683 0.436133
0.360296 0.193545 0.431922
0.505241 0.228977 0.420813
0.567834 0.288853 0.387945
0.655909 0.329595 0.387213
0.723568 0.370916 0.394263
0.768612 0.433051 0.429847
0.043244 0.361425 0.447547
0.166232 0.365515 0.447822
0.319677 0.374456 0.448585
0.490486 0.387213 0.438361
0.568078 0.403143 0.420905
0.653376 0.422492 0.421057
0.709895 0.458503 0.441535
0.760708 0.481422 0.457618
0.225162 0.517327 0.447364
0.261967 0.517235 0.447883
0.364233 0.517601 0.451331
0.475074 0.518547 0.458228
0.578149 0.527977 0.462196
0.635645 0.534783 0.489021
0.696193 0.540612 0.494484
0.747494 0.548425 0.504356
0.360021 0.599725 0.464088
0.374060 0.599298 0.465614
0.424598 0.597833 0.472541
0.494301 0.594293 0.482826
0.557763 0.593469 0.480507
0.644923 0.608972 0.469673
0.704921 0.606104 0.511528
0.735714 0.617365 0.567407
0.447486 0.652094 0.502312
0.454505 0.651942 0.503960
0.484718 0.650080 0.512169
0.518090 0.646601 0.511589
0.562036 0.641444 0.510948
0.615656 0.649775 0.506065
0.689784 0.662989 0.500908
0.763729 0.670100 0.525566
0.508843 0.696010 0.546868
0.511833 0.695705 0.546868
0.523949 0.694514 0.546807
0.546715 0.692073 0.546563
0.578576 0.688411 0.546044
0.617273 0.686152 0.544976
0.670344 0.702846 0.538293
0.745602 0.723232 0.536736
0.546868 0.759457 0.589960
0.549310 0.759213 0.589868
0.559472 0.758328 0.589899
0.578912 0.756649 0.590112
0.606958 0.754086 0.590356
0.642115 0.750790 0.590967
0.684840 0.759609 0.587396
0.745388 0.781033 0.577478
0.193393 0.075471 0.558526
0.238254 0.081849 0.558221
0.365423 0.112123 0.554559
0.513634 0.168856 0.544823
0.620264 0.240299 0.531304
0.649653 0.315740 0.482033
0.701259 0.363195 0.472633
0.762509 0.400855 0.475624
0.211215 0.185977 0.561242
0.251835 0.188968 0.560906
0.369970 0.203281 0.557580
0.511589 0.237156 0.547417
0.616449 0.284611 0.533227
0.646876 0.342748 0.486763
0.700221 0.381628 0.477974
0.760952 0.414313 0.480293
0.182315 0.353948 0.568444
0.225528 0.355261 0.567590
0.366003 0.376898 0.563104
0.496681 0.386084 0.555047
0.600671 0.402777 0.540642
0.636225 0.426337 0.505150
0.696712 0.443824 0.498421
0.755337 0.461128 0.497810
0.239994 0.508263 0.566247
0.270390 0.509453 0.566217
0.361456 0.514397 0.565606
0.468269 0.520684 0.565026
0.578027 0.523919 0.556878
0.629236 0.525292 0.539208
0.693324 0.527184 0.533257
0.741604 0.539666 0.539574
0.363378 0.606012 0.558953
0.377630 0.605829 0.559350
0.428992 0.604974 0.560998
0.499550 0.603693 0.563745
0.568353 0.602319 0.567773
0.638849 0.609308 0.561639
0.681056 0.611414 0.592218
0.732204 0.611353 0.590417
0.454444 0.655604 0.563745
0.461097 0.655299 0.564477
0.486244 0.653925 0.567010
0.526757 0.651453 0.571313
0.576623 0.648585 0.579004
0.619776 0.646387 0.575738
0.687343 0.662409 0.571618
0.753048 0.668696 0.598688
0.506401 0.700313 0.586511
0.510002 0.700099 0.586908
0.524743 0.699306 0.588708
0.556359 0.697566 0.595819
0.588373 0.693629 0.596002
0.623896 0.688441 0.593286
0.670863 0.700191 0.589715
0.745968 0.722866 0.587366
0.530236 0.765072 0.615106
0.533654 0.764920 0.615686
0.553277 0.763638 0.622095
0.573968 0.761837 0.621729
0.603510 0.758816 0.620996
0.640192 0.754849 0.620050
0.682612 0.756008 0.618067
0.743618 0.779263 0.610681
0.255955 0.120974 0.651972
0.285222 0.126192 0.651545
0.379797 0.149386 0.648768
0.504112 0.199435 0.641260
0.618677 0.258640 0.628748
0.691371 0.316991 0.614069
0.705653 0.376013 0.565057
0.744808 0.410407 0.550958
0.276127 0.203861 0.651881
0.301610 0.207736 0.651331
0.387549 0.221439 0.648829
0.504356 0.253941 0.641260
0.615259 0.297063 0.628748
0.687434 0.343481 0.614282
0.702907 0.393133 0.567376
0.742428 0.421973 0.553307
0.314214 0.371862 0.651667
0.333867 0.373236 0.651057
0.402625 0.377966 0.648493
0.501457 0.387671 0.642817
0.602167 0.405585 0.631342
0.673701 0.427314 0.617578
0.693599 0.452461 0.577874
0.734585 0.464118 0.564111
0.306371 0.497292 0.652369
0.325292 0.499245 0.652064
0.390143 0.506432 0.650904
0.483864 0.512047 0.646418
0.582422 0.520836 0.638300
0.654566 0.524620 0.625269
0.681025 0.528496 0.596551
0.729763 0.525963 0.584863
0.371038 0.598901 0.645960
0.383062 0.599268 0.645899
0.427863 0.600793 0.645624
0.494087 0.602899 0.645106
0.564141 0.604700 0.644434
0.636439 0.604334 0.638178
0.675044 0.597009 0.621210
0.730068 0.588708 0.610224
0.456458 0.661433 0.636347
0.463294 0.661250 0.636561
0.489265 0.660395 0.637140
0.531701 0.658900 0.638666
0.581170 0.656855 0.640558
0.630610 0.654749 0.643366
0.688075 0.661280 0.640436
0.734066 0.663508 0.660029
0.509667 0.705684 0.641962
0.513329 0.705623 0.642206
0.527703 0.705074 0.643153
0.553674 0.704128 0.644709
0.588281 0.702693 0.646265
0.630457 0.698970 0.647761
0.672145 0.697444 0.643427
0.750027 0.722988 0.641260
0.520989 0.770565 0.661311
0.523339 0.770474 0.661189
0.533471 0.770230 0.660304
0.552514 0.769924 0.658259
0.583368 0.768948 0.655573
0.632044 0.763394 0.657435
0.679072 0.757046 0.654322
0.740871 0.777188 0.649928
0.319829 0.161593 0.722896
0.340154 0.167269 0.723354
0.406653 0.184939 0.720790
0.506279 0.227451 0.715206
0.606928 0.279484 0.705867
0.692988 0.331579 0.692927
0.744778 0.376043 0.679438
0.749538 0.420294 0.631037
0.331212 0.219913 0.717800
0.349645 0.224643 0.718563
0.411292 0.236881 0.716213
0.504082 0.265110 0.710475
0.601343 0.304601 0.700984
0.685908 0.346441 0.687770
0.738003 0.383642 0.673793
0.743526 0.422583 0.625635
0.373907 0.369238 0.718013
0.386664 0.370336 0.717494
0.433997 0.374517 0.714565
0.509819 0.383368 0.709926
0.595239 0.400977 0.700069
0.674525 0.422278 0.687953
0.728176 0.445075 0.676387
0.738582 0.469856 0.635340
0.367803 0.484230 0.720790
0.380591 0.484993 0.719844
0.436774 0.495125 0.715785
0.515984 0.509697 0.710719
0.587579 0.511284 0.703700
0.659632 0.517144 0.692927
0.713191 0.524163 0.681392
0.728817 0.529595 0.647028
0.393866 0.582452 0.714412
0.401862 0.581994 0.713222
0.436011 0.583032 0.711604
0.492287 0.586084 0.710933
0.562982 0.587121 0.705959
0.639551 0.590784 0.696132
0.694667 0.588708 0.683162
0.719234 0.585351 0.659571
0.436744 0.656397 0.706691
0.443305 0.656550 0.706844
0.467933 0.656672 0.706996
0.510307 0.656764 0.707515
0.563806 0.656214 0.707790
0.622583 0.656275 0.709194
0.686702 0.652399 0.700954
0.721340 0.639124 0.679774
0.496193 0.712398 0.703914
0.500694 0.712734 0.704494
0.516442 0.712276 0.704829
0.545098 0.711757 0.705806
0.582330 0.710842 0.706600
0.625238 0.709926 0.707027
0.677211 0.708339 0.707149
0.754238 0.716793 0.709438
0.511589 0.775631 0.719661
0.514092 0.775814 0.719783
0.524498 0.777340 0.720974
0.543542 0.777798 0.720272
0.572625 0.777462 0.717678
0.612909 0.776516 0.712673
0.673152 0.770809 0.709224
0.736324 0.772702 0.703456
0.373877 0.170321 0.793057
0.387945 0.174319 0.793240
0.436439 0.187076 0.789853
0.517357 0.221103 0.785580
0.606348 0.270359 0.777279
0.687800 0.320592 0.765408
0.757046 0.368170 0.751431
0.795468 0.403388 0.736812
0.380377 0.217899 0.788968
0.393744 0.221561 0.789242
0.440314 0.230869 0.786831
0.516869 0.255131 0.782376
0.603479 0.294743 0.774197
0.683772 0.337682 0.762509
0.752193 0.378363 0.748074
0.790890 0.409155 0.733089
0.406561 0.344762 0.785824
0.417060 0.346166 0.785519
0.455451 0.349828 0.782834
0.522911 0.361364 0.781277
0.600366 0.380529 0.772641
0.675380 0.403021 0.760403
0.742458 0.427527 0.746578
0.782742 0.446937 0.732143
0.426856 0.473945 0.783200
0.435645 0.474464 0.783261
0.467659 0.475135 0.781094
0.523522 0.477760 0.778286
0.592157 0.480964 0.772580
0.663600 0.488655 0.761715
0.729244 0.497719 0.748653
0.772213 0.504967 0.734554
0.370977 0.550652 0.786038
0.381170 0.550805 0.786221
0.415686 0.547967 0.784115
0.485939 0.552819 0.780484
0.574884 0.566339 0.772885
0.644739 0.563195 0.764187
0.711910 0.563134 0.751614
0.760189 0.564233 0.738399
0.392157 0.639490 0.781918
0.397742 0.638666 0.781216
0.422766 0.636652 0.779751
0.468177 0.634638 0.779324
0.528771 0.632136 0.780728
0.615259 0.632959 0.777523
0.697902 0.631373 0.769467
0.757778 0.627558 0.755428
0.431708 0.720546 0.785946
0.436225 0.720333 0.785855
0.454994 0.719417 0.785733
0.489113 0.718532 0.786893
0.534752 0.716915 0.789151
0.589502 0.711940 0.790921
0.661433 0.704372 0.791836
0.750515 0.692348 0.772030
0.469490 0.783536 0.785580
0.472328 0.783261 0.785367
0.484535 0.783047 0.785458
0.507774 0.783688 0.786648
0.543267 0.784054 0.787839
0.592187 0.783902 0.788937
0.659724 0.783566 0.791043
0.740444 0.779446 0.789975
