20 Preset/Natural Girl/【3】LUT video cho PR-AE-FCPX/Lut Tone  (4).cube
# Created by Adobe Lightroom plugin Export LUT (1.24.0)
# www.johnrellis.com/lightroom/exportlut.htm
# Preset: 自然胶片-素材江湖（原版）13
# Color profile: C:\Program Files (x86)\Common Files\Adobe\Color\Profiles\Recommended\VideoHD.icc
LUT_3D_SIZE 32
DOMAIN_MIN 0.0 0.0 0.0
DOMAIN_MAX 1.0 1.0 1.0
0.108553 0.102541 0.106020
0.114900 0.103151 0.106142
0.134340 0.104158 0.106233
0.159945 0.107942 0.107973
0.187259 0.111940 0.110628
0.219028 0.116548 0.114809
0.254643 0.122225 0.118685
0.292973 0.126864 0.122499
0.333471 0.130709 0.124514
0.374701 0.134920 0.126650
0.416663 0.138277 0.127657
0.457954 0.142306 0.128573
0.498085 0.146731 0.129427
0.536309 0.153048 0.129885
0.572076 0.160006 0.131258
0.605280 0.169223 0.132052
0.635218 0.179782 0.134798
0.662654 0.191714 0.138064
0.687587 0.203983 0.141573
0.710201 0.217288 0.146212
0.732662 0.231479 0.151705
0.754116 0.247105 0.159182
0.772061 0.261540 0.167025
0.787411 0.275273 0.174929
0.800778 0.288365 0.182559
0.812619 0.300877 0.190951
0.823392 0.313176 0.199954
0.834104 0.325597 0.209018
0.844999 0.338231 0.218906
0.856321 0.351507 0.228977
0.868101 0.365393 0.239811
0.880278 0.379950 0.251621
0.111574 0.107607 0.107301
0.115724 0.107790 0.106508
0.135714 0.109560 0.107118
0.160494 0.111360 0.108461
0.187106 0.114992 0.112123
0.218845 0.119753 0.116182
0.253666 0.124697 0.119539
0.291630 0.128908 0.122560
0.331670 0.132692 0.124910
0.372564 0.136843 0.127077
0.414252 0.140230 0.127871
0.455329 0.143984 0.129122
0.495308 0.148867 0.129183
0.533379 0.154330 0.130312
0.569421 0.161410 0.130648
0.602472 0.170382 0.132784
0.632807 0.180850 0.135500
0.660456 0.192233 0.137881
0.685451 0.204501 0.141604
0.708156 0.216892 0.146242
0.730434 0.231144 0.151766
0.751553 0.245945 0.158175
0.769223 0.260227 0.165835
0.784573 0.273564 0.173617
0.798001 0.286503 0.181552
0.810025 0.298711 0.189334
0.821042 0.310613 0.197848
0.831785 0.323003 0.206821
0.842741 0.335698 0.216617
0.854215 0.348760 0.226535
0.866087 0.362554 0.236912
0.878325 0.377264 0.248631
0.122286 0.124575 0.113924
0.126436 0.124636 0.115023
0.139254 0.126864 0.111574
0.162112 0.126680 0.113466
0.189822 0.127993 0.114992
0.221469 0.131746 0.119265
0.256107 0.135073 0.122103
0.293584 0.138643 0.124544
0.333227 0.142123 0.126284
0.373480 0.145266 0.128054
0.414679 0.148531 0.128603
0.455329 0.151797 0.129122
0.494759 0.156466 0.129732
0.532677 0.162081 0.130556
0.568292 0.169009 0.131411
0.601434 0.177127 0.133120
0.631617 0.186618 0.135927
0.659144 0.197635 0.138796
0.684321 0.209140 0.142336
0.707027 0.221195 0.146914
0.729519 0.235019 0.152407
0.750271 0.249271 0.158724
0.767788 0.262852 0.166476
0.783108 0.275608 0.173495
0.796536 0.287968 0.180941
0.808591 0.299809 0.189273
0.819669 0.311833 0.197726
0.830442 0.323735 0.206149
0.841489 0.336248 0.215640
0.852934 0.349279 0.225742
0.864805 0.362737 0.236576
0.877073 0.377173 0.247868
0.137484 0.146059 0.127443
0.140200 0.145998 0.127413
0.149111 0.147585 0.126406
0.165866 0.150240 0.122774
0.192874 0.151278 0.123903
0.226535 0.153445 0.124880
0.262608 0.154635 0.125826
0.299199 0.157351 0.127901
0.338140 0.159487 0.129000
0.377905 0.161929 0.129183
0.418067 0.164584 0.129793
0.457557 0.167605 0.130343
0.496498 0.171420 0.131044
0.533562 0.176761 0.131624
0.568322 0.182712 0.132876
0.600855 0.190219 0.134585
0.630579 0.198703 0.137240
0.657832 0.208804 0.140139
0.682582 0.219028 0.144289
0.705104 0.230106 0.148287
0.727504 0.242649 0.153658
0.747402 0.255741 0.160220
0.764889 0.268193 0.167025
0.780392 0.280339 0.174075
0.794278 0.292302 0.181735
0.806760 0.303899 0.189670
0.818235 0.315740 0.198337
0.829343 0.327459 0.207340
0.840574 0.339666 0.216770
0.852140 0.352361 0.226596
0.863890 0.365667 0.237186
0.875914 0.379522 0.248661
0.154208 0.171115 0.139040
0.156252 0.171237 0.139681
0.164981 0.171023 0.140200
0.178103 0.176425 0.135286
0.199802 0.179904 0.131167
0.231113 0.181125 0.131197
0.267216 0.182589 0.130678
0.305791 0.183383 0.130770
0.344366 0.184176 0.130709
0.383154 0.185733 0.130983
0.421912 0.187411 0.131533
0.460761 0.190036 0.131594
0.498421 0.193088 0.132692
0.534936 0.197330 0.133608
0.569146 0.202976 0.134798
0.601099 0.209598 0.137240
0.630945 0.216739 0.139193
0.657862 0.225650 0.142550
0.682490 0.234806 0.146639
0.705043 0.244572 0.151247
0.727199 0.255985 0.156588
0.746548 0.267613 0.162661
0.763729 0.278813 0.169863
0.779141 0.289891 0.176394
0.793027 0.300877 0.184237
0.805600 0.311925 0.192050
0.817136 0.322789 0.200839
0.828183 0.333989 0.209628
0.839384 0.345617 0.219242
0.850858 0.357824 0.228763
0.862608 0.370336 0.239109
0.874632 0.383581 0.250065
0.170047 0.200595 0.148257
0.171572 0.200717 0.148623
0.179507 0.200229 0.149172
0.192172 0.202976 0.147189
0.212436 0.211093 0.140047
0.238773 0.214298 0.135622
0.273960 0.215640 0.134310
0.312535 0.215946 0.133944
0.352209 0.217075 0.134066
0.392187 0.217533 0.133150
0.430488 0.217960 0.133364
0.468086 0.219669 0.133547
0.504601 0.221836 0.135012
0.539788 0.225284 0.136294
0.573236 0.229770 0.138216
0.604608 0.234958 0.140536
0.633478 0.241093 0.142763
0.659937 0.248203 0.146670
0.683955 0.255924 0.150362
0.707118 0.264958 0.155795
0.728420 0.274937 0.160952
0.747341 0.284733 0.167269
0.778714 0.307744 0.181949
0.792660 0.318212 0.190555
0.805081 0.327977 0.199161
0.816129 0.337896 0.207675
0.826688 0.347723 0.216709
0.837308 0.357916 0.225834
0.848081 0.368658 0.235294
0.859159 0.379767 0.244663
0.870329 0.391485 0.255344
0.881773 0.403601 0.265721
0.188174 0.238682 0.158907
0.190158 0.238621 0.159060
0.197543 0.238224 0.159731
0.212436 0.237583 0.160616
0.229068 0.245090 0.154330
0.257145 0.255192 0.143893
0.286748 0.257786 0.139376
0.326207 0.259159 0.136568
0.366125 0.258793 0.136690
0.406683 0.258976 0.137057
0.447486 0.259953 0.137087
0.485389 0.259953 0.137728
0.521080 0.260929 0.139040
0.554589 0.262821 0.140566
0.586084 0.265324 0.142702
0.615290 0.268833 0.145541
0.642420 0.272984 0.148775
0.667475 0.278325 0.152407
0.691249 0.285191 0.156802
0.714992 0.293767 0.163241
0.736416 0.302647 0.169558
0.755581 0.312047 0.177127
0.772580 0.321752 0.185245
0.787747 0.331395 0.193881
0.801114 0.340703 0.202853
0.812680 0.349950 0.211551
0.823514 0.358709 0.220249
0.834195 0.367895 0.228977
0.845060 0.377508 0.237797
0.856016 0.387549 0.247013
0.867247 0.398291 0.256748
0.878691 0.409583 0.267094
0.206546 0.274388 0.170169
0.208347 0.274266 0.170504
0.215579 0.273686 0.170626
0.229129 0.272892 0.171328
0.245212 0.275883 0.169162
0.267185 0.285161 0.160586
0.299687 0.296544 0.148135
0.330327 0.297704 0.143313
0.370153 0.299413 0.138979
0.409796 0.298222 0.141024
0.449378 0.298222 0.142611
0.488624 0.299199 0.144228
0.525200 0.300023 0.144839
0.558892 0.299901 0.145785
0.589502 0.300572 0.147982
0.617517 0.302251 0.151705
0.643854 0.304723 0.154421
0.668513 0.308415 0.158999
0.692958 0.314214 0.164401
0.715053 0.320195 0.169955
0.735225 0.327123 0.175906
0.753567 0.334356 0.183322
0.770077 0.341955 0.191257
0.784878 0.349645 0.199496
0.798123 0.357519 0.208133
0.809689 0.365148 0.216709
0.820523 0.372930 0.225498
0.831296 0.380926 0.233585
0.842252 0.389319 0.242283
0.853239 0.398474 0.251286
0.864500 0.408301 0.261021
0.876066 0.418616 0.270848
0.227634 0.311284 0.183383
0.229435 0.311376 0.183474
0.235355 0.310857 0.184085
0.247684 0.310094 0.184726
0.264958 0.308659 0.186007
0.282658 0.316594 0.178470
0.308202 0.326574 0.168215
0.343572 0.338567 0.153933
0.373724 0.338781 0.148775
0.412909 0.339971 0.143008
0.452125 0.338689 0.145998
0.490211 0.338476 0.149355
0.527184 0.338842 0.151919
0.562005 0.340002 0.155337
0.592981 0.339300 0.157382
0.621088 0.339025 0.159121
0.647364 0.340459 0.163027
0.672297 0.343023 0.167453
0.694881 0.346227 0.172671
0.715602 0.349981 0.178592
0.734798 0.354620 0.184787
0.752255 0.359930 0.192416
0.768124 0.365606 0.199741
0.782528 0.371557 0.207889
0.795438 0.377722 0.216312
0.806943 0.383764 0.224521
0.817807 0.390082 0.232731
0.828702 0.396826 0.240787
0.839658 0.404211 0.248875
0.850736 0.412207 0.257664
0.861997 0.420905 0.266972
0.873594 0.430304 0.276371
0.250309 0.348913 0.199619
0.251804 0.348730 0.199619
0.257359 0.348211 0.199619
0.267948 0.347204 0.200595
0.283299 0.345922 0.201755
0.300755 0.348394 0.199039
0.321355 0.357031 0.189761
0.349279 0.367437 0.178073
0.385046 0.378210 0.163668
0.414862 0.378149 0.156832
0.453254 0.379065 0.148257
0.490547 0.377386 0.153384
0.526268 0.376532 0.158633
0.560449 0.376684 0.162875
0.592950 0.377417 0.167330
0.623987 0.379187 0.172488
0.650690 0.379370 0.175296
0.675227 0.379583 0.178836
0.696803 0.380560 0.183597
0.716487 0.382269 0.189609
0.734554 0.384680 0.195773
0.750881 0.387518 0.202487
0.765713 0.390631 0.209842
0.779324 0.394385 0.217136
0.791775 0.398505 0.224430
0.803067 0.402899 0.232181
0.813962 0.407813 0.240085
0.825040 0.413275 0.247532
0.836149 0.419623 0.255802
0.847440 0.426795 0.264256
0.858915 0.434638 0.273350
0.870726 0.443214 0.282536
0.273381 0.383948 0.216373
0.274296 0.383886 0.216617
0.279545 0.383398 0.216648
0.288579 0.382727 0.217441
0.302647 0.381598 0.218357
0.320714 0.380041 0.219486
0.337957 0.387610 0.211917
0.360876 0.396765 0.201938
0.390753 0.407446 0.188968
0.426276 0.417395 0.174258
0.455207 0.416663 0.166873
0.491646 0.417609 0.155612
0.527611 0.416022 0.163973
0.561852 0.415656 0.170535
0.594018 0.415625 0.177401
0.623774 0.416144 0.183993
0.651209 0.417090 0.189700
0.675288 0.416693 0.194888
0.696620 0.415747 0.198306
0.716182 0.415198 0.201877
0.733425 0.415320 0.208347
0.748989 0.416144 0.214725
0.763302 0.417670 0.221653
0.776669 0.419532 0.228244
0.788815 0.422034 0.235477
0.800015 0.424994 0.243015
0.811032 0.428534 0.250340
0.822171 0.432929 0.257389
0.833371 0.438025 0.265324
0.844785 0.444007 0.273320
0.856352 0.450843 0.281926
0.868193 0.458381 0.290959
0.297887 0.419257 0.235172
0.298955 0.419165 0.235508
0.303197 0.418769 0.235752
0.311467 0.418250 0.236332
0.323430 0.417334 0.237247
0.339818 0.415869 0.238285
0.357214 0.418341 0.235294
0.376379 0.426520 0.227329
0.401221 0.436011 0.216464
0.432349 0.447089 0.202609
0.467536 0.456672 0.188846
0.496407 0.456672 0.181399
0.545830 0.471565 0.175937
0.579248 0.469581 0.186313
0.609583 0.467659 0.195804
0.637568 0.466255 0.204105
0.663020 0.465064 0.212589
0.686458 0.464240 0.220310
0.707851 0.463905 0.227237
0.725795 0.461372 0.231510
0.741878 0.458869 0.235569
0.756344 0.456916 0.239780
0.769070 0.455879 0.246128
0.780911 0.455665 0.252659
0.791928 0.456001 0.259129
0.802792 0.457191 0.265263
0.813535 0.458747 0.271336
0.824247 0.461311 0.277287
0.834989 0.464759 0.284184
0.845975 0.469032 0.291386
0.857206 0.474189 0.298985
0.868803 0.480201 0.306920
0.327916 0.459083 0.259831
0.328496 0.459022 0.259953
0.332128 0.458473 0.259922
0.339330 0.457954 0.260166
0.350286 0.456916 0.260929
0.364721 0.455543 0.261967
0.382544 0.454078 0.263432
0.398962 0.461250 0.256931
0.420356 0.470222 0.248112
0.446998 0.480507 0.237278
0.479561 0.492012 0.223453
0.513909 0.501244 0.211856
0.542077 0.501793 0.205661
0.574212 0.502037 0.195377
0.605341 0.500511 0.204562
0.632624 0.497841 0.214878
0.657404 0.495338 0.223728
0.680018 0.492958 0.231571
0.700771 0.491341 0.239353
0.719448 0.489784 0.246708
0.735988 0.487861 0.253208
0.750332 0.484596 0.257023
0.763638 0.481941 0.260899
0.775937 0.479957 0.265232
0.787167 0.479072 0.271275
0.798154 0.479042 0.277195
0.809140 0.479835 0.282994
0.820096 0.481422 0.288823
0.831205 0.483833 0.294743
0.842435 0.487221 0.301549
0.853849 0.491493 0.308934
0.865537 0.496712 0.316747
0.355169 0.492653 0.283085
0.355810 0.492470 0.282963
0.358679 0.491890 0.283055
0.364569 0.490852 0.283116
0.373541 0.489479 0.283360
0.385565 0.487861 0.283635
0.401190 0.485969 0.284550
0.417029 0.487892 0.282017
0.434516 0.495155 0.274907
0.456367 0.503899 0.265751
0.483040 0.513725 0.255344
0.514672 0.524315 0.242588
0.546380 0.531853 0.232731
0.571740 0.531579 0.226413
0.599847 0.530175 0.217411
0.627863 0.527916 0.224094
0.651820 0.524010 0.234318
0.673762 0.520714 0.243473
0.694148 0.517876 0.251133
0.712490 0.515038 0.259037
0.729061 0.512840 0.267063
0.744381 0.511162 0.274723
0.758053 0.508476 0.279454
0.770443 0.505608 0.283024
0.782559 0.503258 0.286595
0.794156 0.502159 0.290959
0.805264 0.501946 0.296330
0.816434 0.502556 0.301579
0.827604 0.504082 0.307500
0.838987 0.506615 0.313878
0.850462 0.510002 0.321019
0.862394 0.514366 0.328313
0.380224 0.521172 0.305547
0.380529 0.521050 0.305577
0.382940 0.520409 0.305394
0.387671 0.519463 0.305303
0.395331 0.517906 0.305150
0.405585 0.516045 0.304936
0.418647 0.514153 0.305608
0.434516 0.512016 0.306249
0.449012 0.517937 0.300420
0.467323 0.525353 0.293034
0.489540 0.533776 0.284642
0.515923 0.542992 0.274388
0.545830 0.552514 0.262119
0.574395 0.558404 0.254002
0.597131 0.557153 0.248203
0.621454 0.554376 0.240299
0.647028 0.551629 0.244572
0.668482 0.547295 0.253971
0.688167 0.543297 0.263310
0.706081 0.539696 0.271855
0.722499 0.536461 0.279789
0.737697 0.533959 0.287480
0.751766 0.532006 0.294774
0.764950 0.530724 0.302495
0.777157 0.527794 0.305669
0.789181 0.525872 0.309056
0.801205 0.524468 0.312200
0.812833 0.524315 0.316228
0.824338 0.525200 0.322057
0.836027 0.527153 0.328252
0.847898 0.530114 0.335088
0.859983 0.534112 0.342962
0.402502 0.545251 0.326665
0.402960 0.545220 0.326665
0.405127 0.544915 0.326696
0.409430 0.544121 0.326604
0.416266 0.543084 0.326635
0.425208 0.541650 0.326635
0.436957 0.540337 0.327428
0.450996 0.538720 0.328374
0.465553 0.540459 0.326452
0.480629 0.546685 0.320867
0.499214 0.553704 0.313725
0.520684 0.561151 0.304875
0.545251 0.568902 0.294652
0.572503 0.576715 0.282170
0.597772 0.580560 0.274723
0.617670 0.578180 0.269474
0.639399 0.574456 0.261295
0.662776 0.571832 0.264164
0.682033 0.567071 0.273533
0.699672 0.562676 0.282628
0.716030 0.558892 0.291264
0.731228 0.555810 0.299657
0.745357 0.553338 0.307836
0.758663 0.551537 0.315526
0.771725 0.550683 0.323552
0.784451 0.549828 0.329412
0.796597 0.548180 0.332250
0.808804 0.547234 0.335515
0.821073 0.547021 0.339055
0.832975 0.547967 0.344030
0.844907 0.550042 0.350072
0.856962 0.553002 0.357092
0.423316 0.566217 0.346960
0.423682 0.566064 0.346899
0.425605 0.565728 0.346746
0.429206 0.565209 0.346685
0.435004 0.564416 0.347051
0.442878 0.563378 0.347204
0.452949 0.562066 0.347509
0.465400 0.560540 0.348089
0.479377 0.558923 0.348913
0.492195 0.563958 0.344335
0.507652 0.569909 0.338262
0.525658 0.576379 0.331395
0.546288 0.583124 0.323095
0.569360 0.590021 0.313085
0.594873 0.596918 0.301335
0.617792 0.599634 0.294896
0.635889 0.596948 0.289860
0.655207 0.592798 0.283482
0.676661 0.590112 0.284581
0.693935 0.584955 0.294347
0.710018 0.580652 0.303563
0.725154 0.576928 0.312169
0.739101 0.573938 0.320836
0.752621 0.571710 0.329015
0.765896 0.570367 0.336400
0.778958 0.569940 0.343969
0.791928 0.570275 0.351659
0.804440 0.569787 0.356237
0.816831 0.569207 0.359411
0.829343 0.569421 0.362737
0.841947 0.570489 0.366918
0.854246 0.572747 0.372992
0.444007 0.585779 0.367773
0.444312 0.585870 0.368048
0.454841 0.593652 0.377691
0.457801 0.593256 0.377722
0.462470 0.592493 0.377630
0.469093 0.591455 0.377386
0.477485 0.590234 0.377874
0.487984 0.588678 0.378088
0.500023 0.587091 0.378363
0.512383 0.588128 0.376989
0.524956 0.593133 0.372076
0.539818 0.598474 0.366094
0.556817 0.603998 0.358862
0.575952 0.609613 0.350622
0.597223 0.615198 0.340246
0.619776 0.620233 0.329259
0.640345 0.621973 0.323461
0.656245 0.618280 0.318120
0.672633 0.613153 0.312169
0.691737 0.609949 0.311192
0.707027 0.604517 0.320623
0.721523 0.599939 0.329168
0.735103 0.596185 0.337804
0.748501 0.593378 0.345556
0.761563 0.591333 0.352819
0.774441 0.590112 0.359960
0.787228 0.589624 0.366552
0.799954 0.589990 0.373846
0.812741 0.591089 0.380774
0.825162 0.590875 0.383856
0.837766 0.591455 0.387732
0.850675 0.592737 0.391730
0.465217 0.605585 0.391058
0.466438 0.606195 0.391974
0.468482 0.606744 0.392859
0.472023 0.606958 0.393530
0.476539 0.606836 0.394385
0.482460 0.606165 0.394507
0.489937 0.605097 0.394690
0.498909 0.603784 0.394873
0.509209 0.602289 0.395117
0.521233 0.600580 0.395636
0.532067 0.604547 0.391516
0.544518 0.609216 0.386755
0.559014 0.614130 0.380682
0.575494 0.619196 0.373602
0.593561 0.624201 0.365209
0.613519 0.629084 0.355718
0.634424 0.633173 0.346288
0.653803 0.634852 0.341039
0.668421 0.631373 0.337041
0.683406 0.626307 0.332219
0.701259 0.623529 0.331121
0.715602 0.618616 0.340520
0.729335 0.614557 0.349340
0.742672 0.611414 0.357549
0.755856 0.609064 0.364965
0.768856 0.607507 0.371923
0.781704 0.606775 0.379065
0.794491 0.606744 0.385962
0.807401 0.607538 0.393042
0.820371 0.609247 0.400763
0.833280 0.610925 0.407263
0.846159 0.611963 0.411353
0.481117 0.620172 0.408759
0.482094 0.620783 0.409705
0.484108 0.621302 0.410651
0.487129 0.621607 0.411383
0.491249 0.621515 0.412055
0.496437 0.620996 0.412451
0.502800 0.620050 0.412451
0.510613 0.618860 0.412604
0.519738 0.617487 0.412634
0.530236 0.615930 0.412909
0.540764 0.616693 0.411536
0.551507 0.620752 0.407141
0.563806 0.625025 0.401953
0.577752 0.629419 0.396399
0.593286 0.633906 0.389532
0.610529 0.638300 0.381628
0.629236 0.642603 0.372747
0.648432 0.645899 0.364324
0.666590 0.647456 0.360327
0.679927 0.643885 0.357000
0.693416 0.638880 0.353002
0.710140 0.636378 0.350958
0.723995 0.632074 0.360174
0.737484 0.628748 0.368902
0.750637 0.626184 0.376684
0.763668 0.624384 0.383886
0.776516 0.623346 0.391150
0.789456 0.622980 0.397894
0.802335 0.623621 0.405402
0.815427 0.624964 0.412818
0.828519 0.627192 0.421180
0.841794 0.630091 0.429450
0.496651 0.634058 0.426825
0.497536 0.634577 0.427741
0.499275 0.635004 0.428382
0.501732 0.635157 0.429145
0.505394 0.635126 0.429786
0.509789 0.634668 0.430152
0.515465 0.633845 0.430060
0.522271 0.632837 0.430091
0.530266 0.631647 0.430213
0.539574 0.630304 0.430274
0.549828 0.628717 0.430365
0.559075 0.631952 0.427131
0.569635 0.635615 0.422736
0.581415 0.639460 0.418189
0.594873 0.643427 0.412604
0.609766 0.647395 0.405951
0.626032 0.651484 0.398962
0.644007 0.655543 0.390478
0.661921 0.658442 0.384558
0.679164 0.660243 0.381720
0.691646 0.657038 0.379828
0.704250 0.652552 0.377295
0.720760 0.651118 0.374792
0.734493 0.647944 0.384680
0.747951 0.645502 0.393256
0.761135 0.643793 0.401312
0.774166 0.642786 0.408881
0.787106 0.642512 0.416388
0.800076 0.643122 0.424384
0.813260 0.644343 0.432074
0.826444 0.646387 0.440314
0.839689 0.649226 0.449104
0.515465 0.650050 0.450233
0.516045 0.650202 0.450538
0.517082 0.650202 0.450752
0.518761 0.650080 0.450874
0.521569 0.649683 0.450813
0.525109 0.649073 0.450599
0.529808 0.648310 0.450507
0.535607 0.647395 0.450355
0.542565 0.646296 0.450385
0.550866 0.645106 0.450477
0.559930 0.643763 0.450507
0.568994 0.644312 0.449378
0.577905 0.647486 0.445838
0.588006 0.650813 0.441749
0.599451 0.654200 0.437079
0.612177 0.657710 0.431586
0.626276 0.661219 0.425299
0.641627 0.664729 0.418250
0.658228 0.668269 0.410712
0.674586 0.670649 0.406043
0.690791 0.672267 0.403204
0.702296 0.669062 0.401373
0.714076 0.664851 0.398901
0.730129 0.663813 0.394751
0.743374 0.661067 0.403998
0.756558 0.659205 0.412177
0.769619 0.658076 0.419989
0.782650 0.657679 0.428168
0.795773 0.658076 0.435889
0.808927 0.659174 0.443946
0.822202 0.661006 0.452247
0.835538 0.663600 0.461097
0.529381 0.661555 0.468025
0.529778 0.661707 0.468299
0.530694 0.661707 0.468421
0.532341 0.661585 0.468544
0.534569 0.661280 0.468727
0.537835 0.660761 0.468452
0.541924 0.660090 0.468360
0.546990 0.659297 0.468269
0.553124 0.658381 0.468147
0.560479 0.657313 0.468055
0.568505 0.656184 0.468238
0.577325 0.654871 0.468299
0.585168 0.657404 0.465614
0.593866 0.660365 0.462165
0.603845 0.663386 0.458381
0.614832 0.666529 0.453864
0.626978 0.669764 0.448737
0.640497 0.673091 0.442908
0.655299 0.676600 0.436622
0.671443 0.680262 0.429267
0.687007 0.682490 0.425788
0.702419 0.684321 0.423560
0.713283 0.681361 0.422126
0.724453 0.677577 0.420172
0.738857 0.675532 0.412940
0.751919 0.673304 0.420905
0.765103 0.672023 0.429236
0.778103 0.671565 0.437781
0.791226 0.671809 0.445747
0.804501 0.672816 0.454200
0.817899 0.674586 0.462837
0.831418 0.677241 0.471931
0.545037 0.673793 0.488624
0.545586 0.674006 0.489296
0.546288 0.674037 0.489265
0.547509 0.673793 0.489387
0.549187 0.673396 0.488960
0.551781 0.672724 0.488472
0.554955 0.671931 0.487770
0.559045 0.671015 0.487129
0.564111 0.669978 0.486641
0.570184 0.668849 0.486152
0.576959 0.667597 0.485603
0.584741 0.666285 0.485328
0.592248 0.666499 0.483833
0.599573 0.668879 0.480598
0.607996 0.671382 0.476814
0.617395 0.674098 0.472602
0.627924 0.676997 0.467964
0.639918 0.680171 0.462715
0.653010 0.683558 0.457191
0.667567 0.687190 0.451118
0.683467 0.690944 0.444068
0.698116 0.693111 0.441871
0.713008 0.694942 0.440009
0.723018 0.692012 0.438758
0.733455 0.688228 0.436683
0.748318 0.687861 0.432807
0.761257 0.686183 0.439429
0.774258 0.685389 0.447395
0.787350 0.685328 0.455482
0.800504 0.686152 0.464027
0.813962 0.687800 0.472908
0.827329 0.690028 0.481941
0.556725 0.683223 0.504265
0.557214 0.683406 0.504784
0.557916 0.683467 0.505058
0.559014 0.683314 0.504997
0.560693 0.683070 0.504875
0.563012 0.682612 0.504723
0.566125 0.682094 0.504479
0.570031 0.681453 0.504265
0.574670 0.680690 0.504051
0.580133 0.679866 0.504082
0.586297 0.678889 0.503899
0.593256 0.677821 0.503655
0.600793 0.676539 0.503532
0.607355 0.678614 0.500908
0.614679 0.681025 0.497719
0.623011 0.683589 0.493965
0.632380 0.686397 0.489631
0.642847 0.689418 0.485084
0.654536 0.692653 0.480354
0.667567 0.696162 0.475013
0.681727 0.699855 0.469032
0.697108 0.703639 0.462593
0.710933 0.705592 0.461128
0.725216 0.707515 0.459754
0.734676 0.704738 0.458991
0.744594 0.701381 0.457618
0.759060 0.701381 0.454444
0.772030 0.700374 0.460060
0.785092 0.700374 0.468818
0.798306 0.701167 0.477516
0.811490 0.702419 0.485908
0.824857 0.704402 0.494728
0.570245 0.694270 0.522210
0.570459 0.694362 0.522454
0.571038 0.694362 0.522484
0.571984 0.694240 0.522545
0.573388 0.693935 0.522301
0.575402 0.693507 0.522026
0.578058 0.692988 0.521843
0.581384 0.692409 0.521538
0.585412 0.691707 0.521294
0.590265 0.690913 0.521141
0.595758 0.689998 0.520867
0.601862 0.689021 0.520714
0.608728 0.687892 0.520653
0.615320 0.688136 0.519402
0.621851 0.690486 0.516472
0.629206 0.692988 0.513085
0.637446 0.695644 0.509514
0.646845 0.698573 0.505516
0.657313 0.701717 0.501244
0.668971 0.705104 0.496712
0.681727 0.708705 0.491493
0.695613 0.712398 0.485817
0.710292 0.715908 0.479896
0.723476 0.717800 0.479164
0.737148 0.719692 0.477852
0.746029 0.717006 0.477302
0.755398 0.713832 0.476448
0.769467 0.714015 0.473518
0.782223 0.713527 0.478523
0.795285 0.713954 0.487007
0.808469 0.715084 0.495674
0.821897 0.716976 0.504601
0.582757 0.705226 0.538598
0.583001 0.705287 0.538872
0.583520 0.705287 0.538964
0.584375 0.705196 0.538964
0.585718 0.705074 0.539055
0.587793 0.704860 0.539147
0.590539 0.704677 0.539422
0.593957 0.704524 0.539879
0.598138 0.704311 0.540490
0.602991 0.704097 0.541131
0.608484 0.703761 0.541924
0.614466 0.703334 0.542565
0.620966 0.702785 0.543206
0.627802 0.701991 0.543450
0.633997 0.704250 0.541711
0.640681 0.706783 0.539208
0.648188 0.709499 0.536156
0.656550 0.712367 0.532769
0.665919 0.715450 0.529229
0.676356 0.718776 0.525322
0.687770 0.722225 0.521202
0.700252 0.725856 0.516350
0.713741 0.729458 0.510613
0.727535 0.732723 0.505882
0.740139 0.734585 0.505333
0.753140 0.736324 0.504173
0.761349 0.733669 0.503838
0.770016 0.730556 0.503227
0.783383 0.730800 0.500786
0.795804 0.730587 0.504662
0.808927 0.731716 0.513451
0.822354 0.733577 0.522606
0.599847 0.720089 0.561151
0.599969 0.720058 0.561089
0.600214 0.719997 0.561059
0.600946 0.719844 0.561059
0.602045 0.719600 0.560876
0.603662 0.719265 0.560632
0.605829 0.718929 0.560571
0.608515 0.718532 0.560540
0.611902 0.718044 0.560571
0.615900 0.717586 0.560632
0.620417 0.717006 0.560693
0.625483 0.716365 0.560845
0.631128 0.715633 0.560906
0.637263 0.714748 0.560937
