20 Preset/Natural Girl/【3】LUT video cho PR-AE-FCPX/Lut Tone  (5).cube
# Created by Adobe Lightroom plugin Export LUT (1.24.0)
# www.johnrellis.com/lightroom/exportlut.htm
# Preset: 自然胶片-素材江湖（原版）14
# Color profile: C:\Program Files (x86)\Common Files\Adobe\Color\Profiles\Recommended\VideoHD.icc
LUT_3D_SIZE 5
DOMAIN_MIN 0.000000 0.000000 0.000000
DOMAIN_MAX 0.903226 0.903226 0.903226
0.110994 0.104921 0.109651
0.269505 0.132753 0.134737
0.553429 0.171267 0.164431
0.738643 0.287144 0.241276
0.830564 0.406897 0.342535
0.199313 0.286564 0.194675
0.334386 0.318059 0.177493
0.568780 0.324315 0.206546
0.734310 0.381994 0.284123
0.824857 0.460883 0.377203
0.407141 0.555810 0.403296
0.446204 0.549248 0.404059
0.604486 0.595666 0.384802
0.724422 0.578149 0.412329
0.800717 0.587488 0.469734
0.550988 0.681209 0.565545
0.564141 0.680018 0.567010
0.610498 0.684047 0.567132
0.704189 0.705043 0.553033
0.793149 0.706233 0.576654
0.649256 0.774807 0.684108
0.655146 0.774258 0.684474
0.672236 0.765347 0.679622
0.724025 0.787228 0.678889
0.811643 0.812436 0.679408
0.107301 0.111238 0.212924
0.260472 0.123018 0.236149
0.506157 0.211826 0.272343
0.695857 0.332891 0.337865
0.803250 0.421851 0.392950
0.164431 0.285191 0.284459
0.293614 0.304692 0.299413
0.536004 0.341588 0.320775
0.701961 0.397894 0.359564
0.801266 0.462013 0.411872
0.395544 0.550744 0.438727
0.437171 0.547570 0.441382
0.575433 0.576318 0.425208
0.702724 0.570397 0.445624
0.788571 0.587701 0.495888
0.550988 0.681575 0.581964
0.563989 0.680842 0.583673
0.608484 0.680507 0.585962
0.697475 0.702571 0.571618
0.787106 0.705287 0.591028
0.646723 0.775235 0.688594
0.652430 0.774380 0.688655
0.676265 0.772793 0.690730
0.725460 0.789975 0.688716
0.814755 0.816648 0.689540
0.000000 0.133120 0.442756
0.230228 0.138552 0.455543
0.533104 0.167086 0.481941
0.646815 0.347265 0.461463
0.764767 0.449134 0.500908
0.126680 0.294865 0.487434
0.283391 0.311223 0.491371
0.537896 0.327703 0.504906
0.648096 0.420752 0.490181
0.760525 0.491920 0.523369
0.349767 0.555535 0.552667
0.404303 0.558679 0.555230
0.539574 0.573266 0.568505
0.662898 0.580926 0.569024
0.758389 0.593835 0.575891
0.534112 0.685603 0.625055
0.547356 0.683558 0.624933
0.603082 0.681483 0.636866
0.677821 0.697383 0.632624
0.768215 0.702449 0.637629
0.630823 0.776303 0.703883
0.637903 0.776120 0.704555
0.664515 0.774289 0.705928
0.710903 0.779629 0.705837
0.802853 0.809995 0.703883
0.000000 0.167880 0.636194
0.188510 0.176730 0.639246
0.478126 0.209293 0.644648
0.690455 0.294285 0.645014
0.734707 0.441627 0.595605
0.156832 0.310948 0.647150
0.277928 0.322881 0.647608
0.491646 0.340856 0.649500
0.679866 0.381231 0.647089
0.726741 0.476997 0.602747
0.357824 0.539635 0.663355
0.399268 0.544274 0.662440
0.519432 0.559442 0.663966
0.653071 0.553094 0.660212
0.715267 0.578088 0.637446
0.509880 0.683223 0.695399
0.524407 0.682979 0.694911
0.579400 0.685573 0.697169
0.653468 0.692042 0.703304
0.742977 0.689540 0.694545
0.593805 0.784421 0.741512
0.600793 0.784512 0.741176
0.630121 0.786007 0.740780
0.694423 0.782803 0.745327
0.788479 0.806363 0.742306
0.000000 0.194675 0.761074
0.164553 0.200076 0.760006
0.427649 0.227237 0.759060
0.638788 0.272465 0.755184
0.782712 0.357977 0.744350
0.150179 0.302159 0.757565
0.248814 0.306828 0.756985
0.444465 0.324254 0.755612
0.633326 0.348302 0.751461
0.773770 0.401709 0.741756
0.266850 0.486702 0.759945
0.321233 0.490517 0.758145
0.484443 0.523064 0.753414
0.619471 0.516564 0.748562
0.752316 0.523430 0.743862
0.449805 0.661524 0.770596
0.463966 0.660578 0.769192
0.522667 0.662104 0.768338
0.623285 0.666957 0.768765
0.742824 0.658045 0.768582
0.551659 0.781033 0.803922
0.558465 0.780972 0.803769
0.589929 0.783963 0.806699
0.651514 0.787930 0.810391
0.754726 0.795682 0.817441
