20 Preset/Natural Girl/【3】LUT video cho PR-AE-FCPX/Lut Tone  (4).cube
# Created by Adobe Lightroom plugin Export LUT (1.24.0)
# www.johnrellis.com/lightroom/exportlut.htm
# Preset: 自然胶片-素材江湖（原版）13
# Color profile: C:\Program Files (x86)\Common Files\Adobe\Color\Profiles\Recommended\VideoHD.icc
LUT_3D_SIZE 8
DOMAIN_MIN 0.000000 0.000000 0.000000
DOMAIN_MAX 0.903226 0.903226 0.903226
0.108553 0.102541 0.106020
0.187259 0.111940 0.110628
0.333471 0.130709 0.124514
0.498085 0.146731 0.129427
0.635218 0.179782 0.134798
0.732662 0.231479 0.151705
0.800778 0.288365 0.182559
0.844999 0.338231 0.218906
0.154208 0.171115 0.139040
0.199802 0.179904 0.131167
0.344366 0.184176 0.130709
0.498421 0.193088 0.132692
0.630945 0.216739 0.139193
0.727199 0.255985 0.156588
0.793027 0.300877 0.184237
0.839384 0.345617 0.219242
0.227634 0.311284 0.183383
0.264958 0.308659 0.186007
0.373724 0.338781 0.148775
0.527184 0.338842 0.151919
0.647364 0.340459 0.163027
0.734798 0.354620 0.184787
0.795438 0.377722 0.216312
0.839658 0.404211 0.248875
0.327916 0.459083 0.259831
0.350286 0.456916 0.260929
0.420356 0.470222 0.248112
0.542077 0.501793 0.205661
0.657404 0.495338 0.223728
0.735988 0.487861 0.253208
0.787167 0.479072 0.271275
0.831205 0.483833 0.294743
0.423316 0.566217 0.346960
0.435004 0.564416 0.347051
0.479377 0.558923 0.348913
0.546288 0.583124 0.323095
0.635889 0.596948 0.289860
0.710018 0.580652 0.303563
0.765896 0.570367 0.336400
0.816831 0.569207 0.359411
0.496651 0.634058 0.426825
0.505394 0.635126 0.429786
0.530266 0.631647 0.430213
0.569635 0.635615 0.422736
0.626032 0.651484 0.398962
0.691646 0.657038 0.379828
0.747951 0.645502 0.393256
0.800076 0.643122 0.424384
0.556725 0.683223 0.504265
0.560693 0.683070 0.504875
0.574670 0.680690 0.504051
0.600793 0.676539 0.503532
0.632380 0.686397 0.489631
0.681727 0.699855 0.469032
0.734676 0.704738 0.458991
0.785092 0.700374 0.468818
0.613642 0.732998 0.578851
0.615839 0.732631 0.578698
0.624994 0.731563 0.578973
0.642756 0.729549 0.579553
0.661646 0.728450 0.568597
0.694728 0.740749 0.557519
0.741390 0.754604 0.539666
0.785183 0.758114 0.536065
0.133181 0.126864 0.156039
0.188357 0.106355 0.169955
0.310735 0.129519 0.163607
0.471412 0.170382 0.181155
0.614252 0.202396 0.186221
0.715358 0.247257 0.196597
0.784146 0.294865 0.214511
0.832181 0.340368 0.240116
0.144930 0.170474 0.173465
0.185946 0.178378 0.180148
0.323491 0.191470 0.182650
0.480476 0.208133 0.185397
0.616876 0.234440 0.190311
0.714778 0.270603 0.200961
0.780758 0.309300 0.217044
0.828580 0.349310 0.241428
0.216526 0.314733 0.220401
0.255009 0.312840 0.222446
0.361913 0.333745 0.199588
0.513115 0.338659 0.204135
0.632197 0.342687 0.208591
0.719265 0.356359 0.221378
0.780758 0.376165 0.239994
0.827848 0.402075 0.264927
0.318090 0.455573 0.281926
0.340398 0.453498 0.282536
0.410956 0.460365 0.276585
0.523766 0.487800 0.236576
0.637415 0.481422 0.247990
0.719295 0.477150 0.269352
0.774350 0.471473 0.282628
0.820310 0.477882 0.303502
0.418128 0.564843 0.360479
0.429236 0.562615 0.359716
0.472847 0.556298 0.360327
0.537560 0.575616 0.337316
0.625544 0.588861 0.303929
0.701717 0.574945 0.315953
0.758877 0.566644 0.346532
0.810239 0.565362 0.365515
0.491615 0.631403 0.431983
0.498177 0.630732 0.432349
0.523522 0.627497 0.432868
0.564172 0.630457 0.428077
0.620966 0.647456 0.406043
0.687587 0.654566 0.389075
0.743771 0.643305 0.401465
0.795956 0.640772 0.429541
0.552239 0.680781 0.504875
0.555261 0.679866 0.503807
0.569238 0.677485 0.502831
0.596124 0.673671 0.502800
0.628931 0.683406 0.491920
0.677974 0.696956 0.472236
0.730556 0.701472 0.460578
0.781033 0.696773 0.468727
0.609796 0.730617 0.577539
0.612512 0.730770 0.578180
0.621637 0.729549 0.578149
0.639460 0.727626 0.578820
0.663050 0.729946 0.575402
0.694545 0.741024 0.562554
0.739925 0.753872 0.543328
0.783902 0.757504 0.539025
0.166476 0.162844 0.250095
0.190738 0.152834 0.262272
0.331304 0.105776 0.289403
0.443763 0.161898 0.271000
0.598077 0.190402 0.269780
0.695094 0.296208 0.306340
0.767025 0.343816 0.318212
0.817899 0.382910 0.330449
0.206668 0.218143 0.261845
0.220035 0.215000 0.274144
0.336370 0.174624 0.298894
0.451606 0.208103 0.281804
0.594110 0.251743 0.290013
0.693263 0.315312 0.310369
0.764279 0.353704 0.318303
0.815274 0.389563 0.330571
0.214054 0.317815 0.312871
0.244938 0.321691 0.315953
0.334539 0.335393 0.325933
0.482063 0.347570 0.324163
0.608331 0.364965 0.324529
0.699519 0.385840 0.328496
0.763882 0.407721 0.334905
0.812863 0.430976 0.345922
0.259861 0.474495 0.349004
0.291173 0.475135 0.351995
0.402228 0.469368 0.369268
0.511223 0.491402 0.346593
0.624720 0.492348 0.357153
0.704005 0.491035 0.363195
0.759854 0.491524 0.368719
0.807706 0.498299 0.376776
0.409735 0.574212 0.419593
0.421607 0.572717 0.419409
0.466133 0.567468 0.419562
0.531182 0.574517 0.411749
0.617273 0.591943 0.385595
0.691798 0.581140 0.393652
0.747921 0.577081 0.415167
0.799863 0.575036 0.421332
0.489021 0.635859 0.471748
0.495460 0.635370 0.472175
0.519768 0.632105 0.471778
0.561059 0.627100 0.470832
0.613336 0.644709 0.453925
0.678920 0.653864 0.438727
0.735317 0.645350 0.449042
0.788571 0.645991 0.472541
0.552148 0.683894 0.531151
0.555077 0.683070 0.530449
0.567987 0.680385 0.528557
0.593378 0.676234 0.527092
0.625818 0.681697 0.519554
0.673060 0.696010 0.504295
0.726162 0.702693 0.494514
0.777676 0.700282 0.502190
0.607385 0.732296 0.590784
0.609308 0.731746 0.590326
0.618219 0.730495 0.590082
0.636561 0.729030 0.591180
0.660700 0.728176 0.589349
0.691981 0.740261 0.579126
0.736965 0.753841 0.562524
0.781491 0.758358 0.557427
0.214023 0.219730 0.388861
0.234745 0.213718 0.396857
0.328405 0.177615 0.416815
0.491493 0.063081 0.428199
0.557305 0.200046 0.380591
0.668116 0.254307 0.377325
0.748592 0.315099 0.378882
0.788083 0.418341 0.423102
0.265080 0.284703 0.402960
0.275181 0.276982 0.408240
0.341711 0.238651 0.424689
0.495064 0.163638 0.434730
0.558770 0.240360 0.388891
0.669032 0.283818 0.384833
0.744564 0.344701 0.391089
0.787076 0.427314 0.426062
0.347448 0.389471 0.419287
0.364263 0.396857 0.421210
0.380560 0.386267 0.437385
0.490150 0.324102 0.447944
0.567956 0.355200 0.419623
0.672847 0.382483 0.416754
0.733608 0.445777 0.442878
0.786770 0.467597 0.444221
0.316869 0.477516 0.466529
0.334752 0.478279 0.466804
0.396460 0.483040 0.470100
0.478248 0.491279 0.476051
0.585412 0.496254 0.470253
0.667109 0.502861 0.466102
0.730373 0.510918 0.463935
0.782925 0.520043 0.463264
0.356237 0.588983 0.488380
0.372778 0.587945 0.488350
0.430732 0.586023 0.491463
0.520867 0.579858 0.504997
0.599329 0.595026 0.490944
0.672663 0.591730 0.497292
0.728237 0.589563 0.500450
0.780362 0.588128 0.497017
0.470741 0.648157 0.524712
0.484718 0.648707 0.530938
0.517632 0.645075 0.537560
0.557244 0.639277 0.535698
0.605066 0.644343 0.528527
0.666194 0.655665 0.514702
0.721950 0.650965 0.521599
0.776516 0.654597 0.535698
0.550134 0.689357 0.572595
0.553521 0.689052 0.572717
0.566613 0.687160 0.571862
0.590723 0.683467 0.570306
0.623011 0.680507 0.566369
0.665431 0.695399 0.555138
0.717617 0.703944 0.544915
0.770474 0.703975 0.550805
0.602960 0.737667 0.615564
0.605035 0.737301 0.615412
0.614008 0.735866 0.614740
0.631312 0.733333 0.613855
0.655940 0.729244 0.612116
0.686458 0.738308 0.605127
0.730770 0.753079 0.592554
0.777218 0.759792 0.587640
0.303227 0.313207 0.526879
0.315831 0.309026 0.530510
0.367742 0.283116 0.538720
0.479347 0.206821 0.548363
0.615229 0.092134 0.542443
0.648341 0.244816 0.478920
0.711757 0.311864 0.465278
0.779690 0.368536 0.464332
0.342412 0.364599 0.532891
0.350225 0.359289 0.536065
0.386999 0.330877 0.543297
0.482765 0.257725 0.550591
0.614466 0.171420 0.544793
0.646998 0.275578 0.483314
0.711421 0.331853 0.470130
0.777951 0.383337 0.468727
0.420325 0.466529 0.540490
0.421332 0.463294 0.542870
0.436835 0.449165 0.548913
0.488380 0.392065 0.554925
0.605188 0.322850 0.550347
0.637171 0.367620 0.496895
0.707912 0.399359 0.487160
0.770291 0.433326 0.484108
0.460853 0.531456 0.558099
0.469825 0.533837 0.558556
0.502068 0.544671 0.560906
0.515557 0.533867 0.565850
0.586328 0.475959 0.562493
0.627832 0.485908 0.528985
0.703853 0.497444 0.521843
0.753658 0.526207 0.529351
0.429419 0.585962 0.578759
0.438178 0.586511 0.579217
0.470069 0.587640 0.579767
0.518364 0.589441 0.580560
0.568383 0.590295 0.579919
0.637903 0.589502 0.572015
0.697200 0.589441 0.564416
0.753475 0.590448 0.556847
0.431403 0.650752 0.580133
0.440101 0.650477 0.580316
0.471504 0.648219 0.579736
0.521660 0.645228 0.580285
0.586847 0.639765 0.588464
0.645869 0.652827 0.583062
0.703120 0.653834 0.589105
0.759640 0.656703 0.590082
0.514183 0.695888 0.597986
0.517815 0.695338 0.597803
0.533471 0.693721 0.598322
0.579187 0.690211 0.613336
0.612421 0.684382 0.610010
0.651331 0.689754 0.603601
0.703853 0.702052 0.594995
0.759152 0.704036 0.597864
0.578546 0.741878 0.635187
0.583062 0.741390 0.636835
0.595880 0.739681 0.638514
0.615961 0.737911 0.638514
0.642817 0.733516 0.636286
0.675196 0.732174 0.632502
0.718624 0.748806 0.623377
0.768399 0.757931 0.617243
0.407507 0.422431 0.632807
0.413367 0.418738 0.634089
0.436561 0.397742 0.636347
0.493355 0.349523 0.639979
0.594415 0.245243 0.640528
0.699855 0.168124 0.628382
0.713680 0.296391 0.561883
0.750942 0.360113 0.539849
0.426917 0.450416 0.629999
0.430335 0.445808 0.630762
0.448066 0.425299 0.633417
0.496284 0.378393 0.637110
0.591424 0.281865 0.638117
0.695033 0.211521 0.626001
0.709468 0.315251 0.561578
0.747494 0.370764 0.540124
0.484352 0.529381 0.633814
0.487953 0.528466 0.634333
0.494850 0.514733 0.636378
0.516838 0.474800 0.638392
0.587243 0.398688 0.639002
0.684474 0.335515 0.628229
0.701106 0.390112 0.570672
0.743282 0.421576 0.551110
0.557031 0.605829 0.638819
0.556298 0.604395 0.639185
0.554894 0.598688 0.641840
0.558892 0.583276 0.645411
0.586145 0.533410 0.644923
0.665949 0.473793 0.635126
0.687404 0.489937 0.589349
0.737636 0.499245 0.573205
0.546685 0.623407 0.647272
0.551019 0.624231 0.647272
0.567163 0.628046 0.647730
0.593133 0.635584 0.648920
0.598169 0.624445 0.647181
0.640345 0.574578 0.637598
0.669490 0.569757 0.605707
0.731868 0.572198 0.596368
0.516136 0.653071 0.652705
0.521202 0.653803 0.653437
0.536492 0.653895 0.653223
0.561944 0.654047 0.652827
0.592645 0.653773 0.651667
0.626154 0.653437 0.650263
0.678920 0.651789 0.643214
0.736904 0.649989 0.634119
0.495735 0.703243 0.656245
0.500938 0.703334 0.656641
0.519097 0.702358 0.656001
0.550469 0.700618 0.655024
0.589929 0.698177 0.653437
0.639368 0.691279 0.655085
0.690517 0.703120 0.649409
0.750576 0.707301 0.651392
0.539605 0.749416 0.662593
0.541924 0.748989 0.662074
0.552422 0.748135 0.660883
0.572686 0.747250 0.659144
0.618982 0.743465 0.668544
0.658869 0.736049 0.664881
0.702815 0.743404 0.659266
0.758694 0.757229 0.653834
0.494484 0.516838 0.696712
0.497719 0.515373 0.697993
0.506462 0.501030 0.699275
0.530846 0.469734 0.702022
0.581415 0.404700 0.703029
0.670619 0.277379 0.700679
0.755337 0.216800 0.687373
0.758694 0.330083 0.622675
0.501762 0.529168 0.692409
0.504784 0.527916 0.693935
0.511620 0.513848 0.695338
0.531456 0.481636 0.697200
0.578088 0.418616 0.697993
0.664393 0.297215 0.695247
0.748318 0.235325 0.681697
0.752193 0.334264 0.617121
0.545739 0.586999 0.694453
0.545739 0.584375 0.694728
0.545495 0.571435 0.694820
0.553307 0.544060 0.695827
0.583215 0.491402 0.695827
0.656428 0.393683 0.693843
0.739834 0.336339 0.683253
0.747005 0.398688 0.625513
0.587640 0.638025 0.697414
0.586938 0.636378 0.697200
0.587366 0.631464 0.697414
0.590875 0.619287 0.698268
0.598993 0.582635 0.697261
0.645747 0.514641 0.694972
0.722194 0.456184 0.685267
0.733791 0.480446 0.634821
0.612665 0.667506 0.698726
0.613916 0.667414 0.697871
0.621454 0.669734 0.697566
0.622644 0.666377 0.699214
0.620203 0.649683 0.698116
0.635035 0.605005 0.693050
0.697078 0.548577 0.682338
0.717617 0.554223 0.644038
0.596612 0.678920 0.704372
0.598840 0.679408 0.704646
0.607141 0.681025 0.705318
0.622339 0.684230 0.706600
0.644007 0.689601 0.708064
0.648646 0.679011 0.705440
0.679530 0.634516 0.690639
0.704158 0.622766 0.659724
0.567681 0.704280 0.710658
0.570062 0.704829 0.711208
0.577905 0.704860 0.711177
0.592645 0.705287 0.711360
0.613428 0.704952 0.710536
0.639857 0.703883 0.708614
0.670069 0.700526 0.703822
0.728573 0.696315 0.693141
0.519707 0.754177 0.718013
0.521813 0.754299 0.717952
0.530327 0.755306 0.718227
0.550011 0.755123 0.716365
0.582788 0.753567 0.712520
0.624628 0.751034 0.706844
0.683345 0.742245 0.705776
0.745205 0.756771 0.701534
0.561151 0.590204 0.749569
0.562280 0.588525 0.750240
0.564263 0.577325 0.750057
0.574426 0.555993 0.751980
0.598230 0.514519 0.753841
0.647791 0.435737 0.754482
0.734310 0.273930 0.752590
0.805173 0.219181 0.738216
0.564538 0.596338 0.746639
0.565759 0.594965 0.747402
0.567773 0.584863 0.747829
0.576196 0.563745 0.749477
0.598138 0.523339 0.751278
0.645563 0.447028 0.751858
0.729946 0.292180 0.749477
0.800687 0.235447 0.734768
0.586023 0.627070 0.745205
0.586236 0.625360 0.745449
0.586419 0.616632 0.745602
0.592737 0.601038 0.748531
0.606500 0.565545 0.749264
0.643427 0.499458 0.748745
0.720912 0.371008 0.746639
0.792142 0.311498 0.732784
0.605737 0.657923 0.745083
0.607141 0.658076 0.745724
0.611963 0.656947 0.746487
0.615015 0.646601 0.747829
0.621546 0.621912 0.748287
0.644648 0.573083 0.747524
0.706813 0.476753 0.744900
0.778286 0.412268 0.732204
0.636316 0.693019 0.744656
0.636378 0.692714 0.745418
0.634180 0.688960 0.746273
0.633356 0.682551 0.749020
0.637903 0.670161 0.749172
0.647639 0.637201 0.746487
0.689387 0.569574 0.742214
0.758938 0.505364 0.730526
0.638514 0.708675 0.749966
0.639582 0.708614 0.749569
0.645014 0.709438 0.748898
0.657465 0.713222 0.749538
0.665370 0.713436 0.752377
0.663630 0.696468 0.754482
0.682734 0.653590 0.749813
0.741390 0.598566 0.736019
0.620752 0.725338 0.759365
0.622156 0.725368 0.759243
0.628260 0.725795 0.759152
0.641352 0.727779 0.760128
0.661494 0.731624 0.761898
0.688838 0.739132 0.765438
0.695399 0.728481 0.764370
0.728450 0.671077 0.744594
0.588678 0.755825 0.769039
0.590021 0.755703 0.768887
0.596185 0.755886 0.769009
0.609430 0.756832 0.769894
0.628962 0.757839 0.770626
0.654566 0.758450 0.770871
0.685756 0.758114 0.769833
0.719539 0.751949 0.762020
