20 Preset/Natural Girl/【3】LUT video cho PR-AE-FCPX/Lut Tone  (10).cube
# Created by Adobe Lightroom plugin Export LUT (1.24.0)
# www.johnrellis.com/lightroom/exportlut.htm
# Preset: 自然胶片-素材江湖（原版）03
# Color profile: C:\Program Files (x86)\Common Files\Adobe\Color\Profiles\Recommended\VideoHD.icc
LUT_3D_SIZE 32
DOMAIN_MIN 0.0 0.0 0.0
DOMAIN_MAX 1.0 1.0 1.0
0.060334 0.054017 0.055787
0.067842 0.056489 0.056428
0.088289 0.060151 0.058808
0.106905 0.071534 0.067475
0.128634 0.083314 0.079072
0.152865 0.092531 0.089296
0.182071 0.099519 0.095644
0.214054 0.105135 0.100374
0.249180 0.109621 0.105074
0.285924 0.115358 0.109987
0.324590 0.121370 0.114534
0.363561 0.128756 0.120333
0.402838 0.137545 0.126253
0.441657 0.148257 0.133211
0.479591 0.160922 0.141360
0.516106 0.175296 0.150027
0.550988 0.191440 0.160372
0.584497 0.209232 0.171206
0.616388 0.227481 0.183169
0.652552 0.250645 0.197940
0.687465 0.275303 0.214084
0.717952 0.298833 0.230533
0.744259 0.320623 0.246006
0.767483 0.341436 0.261753
0.788266 0.361364 0.277134
0.807034 0.380621 0.293187
0.824887 0.399817 0.309514
0.842405 0.419104 0.326757
0.860502 0.438972 0.345129
0.879179 0.459571 0.364935
0.898589 0.481056 0.386511
0.918639 0.503441 0.409979
0.065400 0.062287 0.059083
0.068940 0.063050 0.057801
0.089570 0.067414 0.063386
0.107729 0.077852 0.069947
0.128969 0.086702 0.080751
0.153140 0.094453 0.090272
0.181460 0.100740 0.095888
0.213169 0.106050 0.100649
0.247318 0.111208 0.105287
0.283665 0.116274 0.110018
0.321569 0.122683 0.114900
0.360235 0.129824 0.120180
0.399084 0.138491 0.126223
0.437903 0.148745 0.133028
0.475471 0.160983 0.140871
0.512291 0.175235 0.149844
0.547387 0.191165 0.159670
0.580957 0.208591 0.170657
0.612970 0.226627 0.182284
0.648463 0.248875 0.196719
0.682338 0.272404 0.212619
0.712032 0.295018 0.227817
0.738064 0.316381 0.242893
0.761349 0.336675 0.257603
0.782254 0.356268 0.273014
0.801419 0.375158 0.288334
0.819577 0.394110 0.304295
0.837400 0.413489 0.321233
0.855528 0.433478 0.339727
0.874479 0.454261 0.359442
0.894102 0.475959 0.380896
0.914366 0.498512 0.404395
0.083162 0.086122 0.074006
0.086122 0.086458 0.076081
0.094697 0.089967 0.075746
0.112490 0.092500 0.079622
0.132387 0.096620 0.089052
0.156985 0.102815 0.094667
0.185000 0.108034 0.098878
0.216281 0.112856 0.103059
0.249943 0.117830 0.107851
0.285405 0.122683 0.112123
0.322545 0.128878 0.116579
0.360632 0.135775 0.121523
0.399054 0.144106 0.127718
0.437140 0.154574 0.134371
0.474617 0.166171 0.142153
0.510948 0.180453 0.150973
0.545769 0.195712 0.161135
0.579278 0.212436 0.172061
0.611322 0.230076 0.183383
0.646845 0.252079 0.197971
0.680018 0.274784 0.213016
0.709377 0.296605 0.227970
0.735348 0.317174 0.242557
0.758419 0.336980 0.257511
0.779263 0.356054 0.272129
0.798581 0.374517 0.286992
0.816709 0.393591 0.303288
0.834623 0.412543 0.319890
0.852964 0.432319 0.338140
0.871885 0.453132 0.357794
0.891630 0.474464 0.378882
0.911833 0.496956 0.402075
0.100404 0.105257 0.093202
0.101991 0.105409 0.093568
0.107393 0.107485 0.093904
0.119112 0.111574 0.094118
0.141024 0.115846 0.097017
0.166140 0.118349 0.101289
0.194491 0.122255 0.104768
0.224369 0.126497 0.107942
0.257603 0.130739 0.112062
0.291661 0.135744 0.115694
0.328038 0.141726 0.120424
0.364538 0.148562 0.125368
0.402289 0.156832 0.131197
0.439338 0.166842 0.138277
0.475654 0.178073 0.145510
0.511040 0.191196 0.154726
0.545190 0.205417 0.164309
0.577813 0.221195 0.174868
0.609400 0.237858 0.186038
0.644129 0.258549 0.200229
0.675471 0.278904 0.214206
0.703853 0.299382 0.228428
0.729519 0.319127 0.242679
0.753231 0.338537 0.256870
0.775051 0.357488 0.272038
0.795254 0.376440 0.287236
0.814389 0.395575 0.303716
0.832883 0.414984 0.320775
0.851652 0.434730 0.339178
0.870756 0.455268 0.358923
0.890257 0.476295 0.379767
0.910002 0.497902 0.402472
0.116335 0.129091 0.106203
0.118166 0.129152 0.106477
0.124239 0.130037 0.107515
0.133181 0.134737 0.106752
0.150454 0.141360 0.105989
0.178164 0.145724 0.106783
0.207218 0.145998 0.110719
0.235447 0.147280 0.115297
0.267033 0.150698 0.118471
0.299992 0.155520 0.121981
0.334539 0.160708 0.126131
0.369970 0.167239 0.131380
0.405982 0.175357 0.136995
0.442329 0.184573 0.144259
0.478035 0.195377 0.151980
0.512963 0.207919 0.160922
0.546929 0.221256 0.170596
0.579217 0.235874 0.181094
0.611994 0.252598 0.192538
0.645167 0.271489 0.205814
0.675410 0.290471 0.219272
0.702815 0.309209 0.233066
0.728176 0.327855 0.246647
0.751858 0.346105 0.260655
0.773556 0.364660 0.275578
0.793912 0.383215 0.291081
0.813138 0.401556 0.306889
0.831601 0.420294 0.323766
0.850156 0.439551 0.342199
0.869200 0.459358 0.361212
0.888548 0.479652 0.381689
0.908110 0.500603 0.403815
0.133272 0.158022 0.119600
0.134432 0.158114 0.119570
0.140291 0.158724 0.120729
0.149599 0.161776 0.120729
0.164096 0.169497 0.118379
0.187289 0.177707 0.116548
0.220432 0.183658 0.116609
0.252140 0.181765 0.120699
0.282231 0.180911 0.126833
0.314244 0.183413 0.131502
0.346990 0.187808 0.135653
0.381079 0.193912 0.140688
0.415900 0.201083 0.146548
0.450965 0.209964 0.153994
0.485512 0.220035 0.161837
0.519738 0.231296 0.170321
0.552605 0.243717 0.179812
0.584436 0.257359 0.190219
0.618402 0.273960 0.202396
0.649958 0.291020 0.215671
0.679042 0.308751 0.228580
0.705745 0.326146 0.241886
0.762356 0.371832 0.276982
0.783261 0.389471 0.292454
0.802274 0.406409 0.307866
0.819760 0.423102 0.323583
0.836851 0.439796 0.339818
0.854063 0.456825 0.356603
0.871519 0.474250 0.374395
0.889281 0.492134 0.393286
0.907225 0.510613 0.413306
0.925383 0.529503 0.434485
0.154940 0.198337 0.136507
0.156435 0.198520 0.136446
0.162509 0.198825 0.137636
0.173861 0.200015 0.138705
0.186404 0.207095 0.136934
0.207523 0.216648 0.133059
0.235752 0.226261 0.130220
0.274540 0.234287 0.129671
0.308446 0.231113 0.135134
0.341680 0.229129 0.143069
0.373846 0.229313 0.151980
0.406958 0.234318 0.157839
0.440467 0.240513 0.164096
0.473823 0.248112 0.171145
0.506493 0.256657 0.178988
0.538293 0.266270 0.187289
0.569360 0.277012 0.196597
0.603449 0.291600 0.208194
0.636866 0.307958 0.221286
0.668208 0.324681 0.234379
0.697658 0.342351 0.248539
0.725643 0.360449 0.263035
0.751431 0.378912 0.278691
0.774868 0.397192 0.295201
0.796048 0.414649 0.311162
0.814633 0.431281 0.327550
0.832120 0.447272 0.343633
0.849363 0.463264 0.359930
0.866789 0.479805 0.377203
0.884306 0.496590 0.395392
0.902281 0.514183 0.414557
0.920317 0.532280 0.435279
0.176394 0.235111 0.153536
0.178225 0.235080 0.153902
0.183505 0.235203 0.154543
0.194553 0.235813 0.156130
0.206821 0.239933 0.155764
0.223331 0.248692 0.152560
0.247501 0.259495 0.148836
0.278111 0.269413 0.145724
0.318425 0.280003 0.143771
0.353185 0.276188 0.150607
0.387854 0.274662 0.160525
0.420111 0.274388 0.171328
0.451850 0.277317 0.180911
0.483467 0.283055 0.187289
0.514641 0.289860 0.194644
0.544854 0.297642 0.202243
0.577813 0.309148 0.212528
0.610254 0.321752 0.223453
0.640650 0.334966 0.235050
0.669612 0.349096 0.247257
0.697444 0.364111 0.259953
0.724117 0.379889 0.273808
0.748836 0.396094 0.288487
0.771847 0.412421 0.303624
0.792508 0.428717 0.319554
0.811002 0.443763 0.335027
0.828550 0.458564 0.350378
0.845731 0.473426 0.366430
0.863218 0.488960 0.382971
0.880858 0.504845 0.400580
0.898711 0.521508 0.419409
0.916838 0.538872 0.439460
0.201022 0.273594 0.173617
0.202487 0.273472 0.173617
0.206851 0.273594 0.174502
0.216739 0.273777 0.175875
0.229892 0.275029 0.177371
0.243381 0.282567 0.175021
0.262608 0.291814 0.172183
0.289220 0.303410 0.168093
0.320836 0.313481 0.164675
0.362524 0.326024 0.161349
0.398199 0.323003 0.169467
0.432349 0.321843 0.180728
0.465095 0.321843 0.193027
0.495583 0.322942 0.205600
0.525933 0.327855 0.214572
0.558404 0.336584 0.223606
0.589319 0.345800 0.232700
0.618585 0.355535 0.242161
0.646448 0.366003 0.252506
0.673548 0.377630 0.263462
0.699947 0.390326 0.275029
0.725002 0.404089 0.288151
0.748501 0.418067 0.301976
0.770565 0.432441 0.316564
0.790738 0.446632 0.331334
0.808835 0.460182 0.346227
0.826230 0.473610 0.361089
0.843534 0.487343 0.376226
0.860868 0.501701 0.392340
0.878386 0.516442 0.409400
0.896178 0.532067 0.427771
0.914214 0.548455 0.447181
0.227451 0.312657 0.196414
0.228763 0.312474 0.196262
0.232914 0.312322 0.196933
0.241245 0.312261 0.197879
0.253452 0.312261 0.199649
0.265934 0.316716 0.199161
0.281590 0.324804 0.196658
0.303197 0.334813 0.193057
0.331121 0.346563 0.188968
0.362280 0.356420 0.186587
0.404486 0.371038 0.181338
0.439460 0.368292 0.190524
0.474037 0.367590 0.203861
0.509026 0.370245 0.217350
0.540642 0.372778 0.232425
0.571038 0.376837 0.246738
0.599817 0.383825 0.254917
0.627314 0.391699 0.263767
0.654047 0.400336 0.273136
0.679561 0.409949 0.282994
0.704005 0.420111 0.293736
0.726741 0.430640 0.305150
0.748257 0.441627 0.316808
0.768338 0.453193 0.329961
0.787289 0.464607 0.343023
0.804837 0.476173 0.356695
0.822049 0.488167 0.370611
0.839414 0.500572 0.385290
0.856931 0.514031 0.401251
0.874754 0.528191 0.418128
0.892790 0.543267 0.436469
0.911131 0.559106 0.455756
0.253696 0.349554 0.219516
0.254520 0.349493 0.219760
0.258366 0.349584 0.220249
0.265690 0.349584 0.221042
0.276616 0.349645 0.222904
0.289921 0.351232 0.224308
0.303410 0.358526 0.222141
0.321386 0.367620 0.219944
0.344640 0.378241 0.216953
0.373968 0.390661 0.213107
0.406897 0.402258 0.211795
0.450721 0.420661 0.206546
0.486000 0.418769 0.218143
0.519738 0.418524 0.231601
0.551965 0.419471 0.245975
0.582025 0.421210 0.259861
0.609400 0.424048 0.274754
0.635767 0.428443 0.286717
0.660548 0.435096 0.294987
0.684413 0.442451 0.304173
0.707210 0.450141 0.313420
0.728573 0.458473 0.323674
0.748928 0.467475 0.334874
0.768215 0.476844 0.346838
0.786465 0.486702 0.359472
0.803616 0.496742 0.372320
0.820645 0.507347 0.385779
0.837888 0.518608 0.399878
0.855314 0.530816 0.415015
0.873045 0.543908 0.431373
0.891051 0.557946 0.448859
0.909300 0.572747 0.467781
0.282048 0.388342 0.245243
0.283085 0.388281 0.245243
0.286107 0.388159 0.245426
0.292302 0.388190 0.246403
0.302159 0.388373 0.248081
0.315282 0.389075 0.250431
0.329015 0.395178 0.250553
0.345312 0.404303 0.249393
0.366064 0.415045 0.247959
0.391852 0.427253 0.246067
0.422675 0.440742 0.243595
0.454170 0.451026 0.242649
0.522301 0.495338 0.255406
0.556390 0.493904 0.267674
0.588281 0.492531 0.280919
0.617334 0.492439 0.296330
0.645319 0.493141 0.310185
0.669551 0.494179 0.325566
0.692378 0.496498 0.340246
0.713252 0.500237 0.350713
0.732662 0.504692 0.358984
0.750729 0.509697 0.368139
0.768032 0.515251 0.377752
0.784604 0.521630 0.388067
0.800809 0.528466 0.398749
0.816770 0.535882 0.409857
0.832609 0.543786 0.421149
0.848417 0.552605 0.433417
0.864439 0.562249 0.446723
0.880919 0.572869 0.461189
0.897765 0.584588 0.476692
0.915038 0.597467 0.493874
0.323491 0.442939 0.284215
0.324010 0.442756 0.284245
0.326574 0.442329 0.284398
0.332341 0.441871 0.284550
0.340520 0.441260 0.285496
0.351598 0.440894 0.286931
0.365393 0.442512 0.288518
0.378668 0.449928 0.287114
0.396612 0.459297 0.286259
0.419135 0.470527 0.285344
0.446876 0.483864 0.284886
0.479530 0.498848 0.284642
0.512078 0.510521 0.286351
0.554101 0.529412 0.283635
0.587396 0.530510 0.294926
0.617365 0.529381 0.307073
0.644282 0.528527 0.322667
0.669490 0.528405 0.336217
0.692073 0.528344 0.350378
0.712093 0.529046 0.365087
0.731014 0.530724 0.379858
0.748379 0.534173 0.387549
0.765072 0.538231 0.396307
0.781338 0.543084 0.405524
0.797269 0.548791 0.415717
0.813230 0.555230 0.426001
0.829160 0.562402 0.437140
0.845243 0.570306 0.448737
0.861509 0.579187 0.461524
0.878172 0.589258 0.475624
0.895048 0.600183 0.491005
0.912383 0.612329 0.507774
0.353918 0.480690 0.313359
0.354009 0.480476 0.313420
0.356176 0.479683 0.313115
0.360388 0.478737 0.313024
0.367163 0.477638 0.313420
0.376562 0.476570 0.314366
0.388983 0.475746 0.316014
0.401160 0.480507 0.315129
0.415961 0.488411 0.314519
0.434943 0.498085 0.313939
0.458350 0.509667 0.314061
0.486275 0.522850 0.314427
0.517937 0.536950 0.314824
0.547753 0.547082 0.316808
0.586450 0.564019 0.314427
0.616632 0.565209 0.323552
0.643854 0.562890 0.335149
0.667964 0.560967 0.348760
0.690578 0.559869 0.362371
0.711574 0.559228 0.376013
0.729610 0.559045 0.390448
0.747158 0.560235 0.405493
0.763790 0.562829 0.418128
0.779751 0.566705 0.426673
0.795621 0.571344 0.435889
0.811521 0.576898 0.445747
0.827451 0.583032 0.456031
0.843381 0.590112 0.467292
0.859586 0.598077 0.479438
0.876219 0.607294 0.492897
0.893187 0.617456 0.507622
0.910491 0.628840 0.523949
0.382269 0.514580 0.341650
0.382635 0.514366 0.341650
0.383978 0.513848 0.341466
0.387213 0.512779 0.341314
0.393194 0.511315 0.341009
0.400977 0.509880 0.341344
0.411658 0.508629 0.342321
0.423713 0.509911 0.343267
0.436347 0.516564 0.342321
0.452674 0.525048 0.342168
0.472663 0.535027 0.342779
0.496407 0.546624 0.343633
0.523308 0.559014 0.344549
0.552972 0.571710 0.345434
0.580224 0.580194 0.347265
0.615320 0.594903 0.345129
0.643061 0.596307 0.352270
0.667079 0.593042 0.363012
0.689082 0.590265 0.375525
0.709377 0.588373 0.389624
0.728695 0.587396 0.402533
0.746212 0.587274 0.416938
0.762478 0.588342 0.432136
0.778775 0.590875 0.447364
0.794705 0.594476 0.457923
0.810452 0.599084 0.466987
0.826291 0.604578 0.476875
0.842435 0.611048 0.487678
0.858915 0.618647 0.499977
0.875853 0.627466 0.513420
0.893004 0.637568 0.528740
0.910765 0.648707 0.545129
0.408087 0.544244 0.368109
0.408423 0.544366 0.368414
0.410437 0.543999 0.368414
0.413458 0.543481 0.368505
0.418647 0.542748 0.368872
0.426154 0.541863 0.369299
0.436011 0.541344 0.370611
0.448035 0.541161 0.372869
0.459815 0.546380 0.373175
0.474037 0.553674 0.373663
0.490700 0.562097 0.373877
0.510216 0.571435 0.374182
0.532280 0.581292 0.374456
0.557000 0.591577 0.374456
0.583276 0.601678 0.374060
0.607294 0.608118 0.375341
0.638727 0.620203 0.373419
0.664454 0.622278 0.378973
0.686244 0.618647 0.389868
0.706783 0.615656 0.401221
0.725582 0.613977 0.416052
0.744015 0.613519 0.429908
0.761837 0.614099 0.444221
0.778225 0.615686 0.459602
0.794430 0.618524 0.475502
0.810849 0.622675 0.491035
0.826627 0.627680 0.500847
0.842741 0.633539 0.511192
0.859098 0.640406 0.522789
0.875731 0.648341 0.535485
0.892699 0.657282 0.549584
0.909880 0.667323 0.565057
0.432593 0.571374 0.394202
0.433021 0.571313 0.393988
0.434333 0.571130 0.394324
0.437507 0.570642 0.394263
0.442054 0.570184 0.394690
0.448554 0.569635 0.395483
0.457282 0.569116 0.396582
0.467872 0.568688 0.398291
0.479438 0.570611 0.399756
0.491279 0.576837 0.400153
0.505669 0.584222 0.400458
0.522484 0.592279 0.401160
0.541405 0.601099 0.401587
0.562463 0.610101 0.402167
0.585351 0.619196 0.401984
0.609461 0.627588 0.401953
0.631525 0.633112 0.403601
0.659907 0.643458 0.402899
0.684230 0.646571 0.407355
0.704280 0.642756 0.417975
0.723659 0.640162 0.429267
0.741817 0.638788 0.443854
0.759670 0.638972 0.458534
0.777676 0.640284 0.472724
0.794339 0.642420 0.488197
0.810605 0.645808 0.504540
0.827054 0.650294 0.521111
0.843381 0.655940 0.535546
0.859678 0.662318 0.546654
0.876188 0.669642 0.558984
0.892973 0.678035 0.572656
0.910124 0.687343 0.587457
0.457801 0.598444 0.421668
0.458167 0.598627 0.421790
0.474067 0.613581 0.438392
0.476722 0.613275 0.438636
0.480629 0.612757 0.438819
0.486091 0.612055 0.439216
0.493263 0.611353 0.440131
0.502342 0.610529 0.441016
0.512993 0.609979 0.442878
0.523369 0.614527 0.443519
0.535485 0.620539 0.443946
0.549493 0.627100 0.444648
0.565026 0.633845 0.444953
0.582238 0.640711 0.445106
0.601007 0.647578 0.444648
0.621118 0.654475 0.443977
0.641993 0.660609 0.443488
0.661463 0.664485 0.444373
0.686030 0.672358 0.443366
0.708309 0.675624 0.446509
0.726619 0.671656 0.456336
0.744991 0.669276 0.466865
0.762417 0.668238 0.480293
0.779599 0.668452 0.494148
0.796689 0.669581 0.507866
0.813260 0.671626 0.521752
0.828794 0.674556 0.537224
0.844663 0.678767 0.553063
0.860777 0.684413 0.570214
0.876951 0.691066 0.583459
0.893553 0.698604 0.596033
0.910582 0.706935 0.609583
0.485634 0.627436 0.453315
0.486976 0.628748 0.454902
0.489357 0.629999 0.456703
0.492866 0.630884 0.458289
0.497169 0.631403 0.459632
0.502556 0.631159 0.460517
0.508873 0.630610 0.461189
0.516777 0.629786 0.461952
0.525994 0.629114 0.463264
0.535851 0.630457 0.464698
0.546349 0.635615 0.465156
0.558160 0.641260 0.465827
0.571557 0.647120 0.466438
0.586664 0.653285 0.466651
0.602899 0.659480 0.467140
0.620783 0.665827 0.466987
0.639857 0.672175 0.466896
0.659449 0.677974 0.467170
0.678096 0.682002 0.469154
0.701259 0.689631 0.469825
0.723598 0.694667 0.472694
0.741939 0.692164 0.483558
0.760037 0.690822 0.494514
0.777554 0.690394 0.507225
0.794369 0.691096 0.521019
0.811307 0.692683 0.535027
0.828305 0.695369 0.549035
0.844083 0.698848 0.564782
0.860136 0.703700 0.581598
0.876585 0.709926 0.599237
0.893462 0.717220 0.616846
0.910460 0.725093 0.629725
0.504540 0.647120 0.476661
0.506065 0.648371 0.478309
0.508415 0.649592 0.480171
0.511467 0.650507 0.481758
0.515435 0.651057 0.483314
0.520104 0.650965 0.484230
0.525841 0.650416 0.484779
0.532616 0.649714 0.485573
0.540764 0.648981 0.486519
0.550042 0.648219 0.487739
0.559136 0.652033 0.488594
0.569451 0.656916 0.489326
0.581140 0.662043 0.489937
0.594232 0.667536 0.490517
0.608423 0.673091 0.491188
0.624079 0.678828 0.491737
0.640894 0.684627 0.491951
0.658900 0.690639 0.492287
0.677455 0.696071 0.493538
0.695338 0.700221 0.496010
0.717311 0.707607 0.497444
0.739620 0.714168 0.500008
0.757656 0.712642 0.511315
0.775540 0.712032 0.522606
0.792966 0.712154 0.534356
0.809598 0.713375 0.548669
0.826383 0.715511 0.562860
0.843442 0.718746 0.577264
0.860166 0.723140 0.593225
0.876616 0.728542 0.610346
0.893492 0.735164 0.628260
0.910887 0.742763 0.646509
0.523857 0.666438 0.501274
0.525139 0.667445 0.502800
0.527184 0.668391 0.504143
0.529992 0.669123 0.505699
0.533410 0.669581 0.506981
0.537499 0.669490 0.507836
0.542535 0.669032 0.508354
0.548455 0.668421 0.508995
0.555566 0.667750 0.509819
0.563867 0.667109 0.511101
0.572686 0.668208 0.512139
0.581537 0.672419 0.513024
0.591760 0.676967 0.513756
0.603021 0.681788 0.514549
0.615686 0.686854 0.515526
0.629603 0.692226 0.516442
0.644770 0.697993 0.517754
0.661524 0.704158 0.519219
0.679530 0.710780 0.520989
0.697993 0.716884 0.523888
0.715785 0.722011 0.528435
0.737453 0.729915 0.532006
0.760098 0.738277 0.535393
0.778347 0.738155 0.547753
0.796353 0.738735 0.560113
0.814115 0.739986 0.572168
0.830961 0.742092 0.587091
0.848081 0.745235 0.601984
0.865660 0.749447 0.617029
0.883665 0.754665 0.632654
0.900664 0.760586 0.649866
0.918059 0.767483 0.667536
0.549767 0.690974 0.535576
0.550408 0.691341 0.536187
0.551507 0.691554 0.536614
0.553094 0.691524 0.536889
0.555474 0.691371 0.537407
0.558648 0.690852 0.537530
0.562737 0.690211 0.537591
0.567895 0.689570 0.537865
0.574060 0.688899 0.538689
0.581476 0.688289 0.539666
0.589776 0.687648 0.540917
0.597711 0.690944 0.542046
0.606531 0.694972 0.543175
0.616510 0.699336 0.544091
0.627588 0.704036 0.544945
0.639918 0.709010 0.546014
0.653346 0.714290 0.547021
0.668055 0.719875 0.548363
0.683955 0.725856 0.550011
0.701198 0.732174 0.551904
0.718441 0.737758 0.554772
0.735164 0.742428 0.559045
0.755184 0.749508 0.562249
0.777127 0.758206 0.564569
0.794675 0.758297 0.576349
0.812345 0.759365 0.588220
0.830167 0.761166 0.600305
0.847471 0.764004 0.614740
0.865049 0.767849 0.629938
0.882963 0.772702 0.645289
0.901335 0.778408 0.661128
0.919249 0.784634 0.677516
0.568383 0.708400 0.560754
0.568963 0.708675 0.561303
0.569909 0.708888 0.561700
0.571405 0.708949 0.562097
0.573510 0.708736 0.562310
0.576226 0.708370 0.562554
0.579889 0.707820 0.562615
0.584466 0.707240 0.563073
0.589899 0.706722 0.563775
0.596399 0.706142 0.564508
0.603815 0.705592 0.565637
0.611475 0.706630 0.566979
0.619440 0.710475 0.567987
0.628443 0.714626 0.569299
0.638483 0.719142 0.570611
0.649500 0.723964 0.572015
0.661830 0.729122 0.573480
0.675196 0.734615 0.575158
0.689784 0.740414 0.577081
0.705501 0.746517 0.579126
0.722377 0.752956 0.581537
0.738918 0.758480 0.585260
0.755093 0.763272 0.589960
0.774228 0.770077 0.593622
0.792813 0.775875 0.590814
0.810056 0.776761 0.601526
0.827878 0.778470 0.613489
0.845792 0.781064 0.626062
0.863706 0.784573 0.640070
0.881773 0.789151 0.655756
0.900175 0.794553 0.671473
0.918639 0.800351 0.686702
0.591089 0.729732 0.591424
0.591913 0.730282 0.592432
0.592737 0.730434 0.592676
0.593683 0.730251 0.592798
0.595087 0.729671 0.592309
0.597070 0.728908 0.591913
0.599603 0.727901 0.591180
0.602991 0.726864 0.590753
0.607324 0.725765 0.590326
0.612512 0.724758 0.590387
0.618524 0.723720 0.590478
0.625360 0.722774 0.591058
0.632258 0.725490 0.591577
0.639887 0.728969 0.592065
0.648402 0.732784 0.592676
0.657984 0.736843 0.593378
0.668666 0.741329 0.594446
0.680568 0.746334 0.595819
0.693843 0.751797 0.597711
0.708309 0.757778 0.600061
0.723842 0.764065 0.602747
0.740536 0.770596 0.605432
0.756405 0.775875 0.609247
0.771817 0.780331 0.613581
0.789639 0.786374 0.616876
0.810452 0.794980 0.618860
0.827329 0.796506 0.628290
0.844938 0.798611 0.639887
0.863005 0.801572 0.652338
0.881132 0.805386 0.665644
0.899046 0.810025 0.680537
0.917327 0.815610 0.696132
0.607294 0.745815 0.613001
0.607965 0.746334 0.613947
0.608820 0.746578 0.614343
0.609949 0.746548 0.614618
0.611444 0.746334 0.614679
0.613458 0.745907 0.614588
0.616266 0.745449 0.614740
0.619776 0.744930 0.614862
0.624048 0.744411 0.615137
0.629175 0.743893 0.615717
0.634882 0.743282 0.616358
0.641352 0.742580 0.617090
0.648066 0.743374 0.617884
0.655024 0.746700 0.618585
0.662684 0.750271 0.619287
0.671412 0.754055 0.619898
0.681025 0.758236 0.620813
0.691707 0.762875 0.622095
0.703700 0.767971 0.623835
0.716945 0.773617 0.626032
0.731258 0.779599 0.628656
0.746609 0.785855 0.631495
0.762783 0.792233 0.634333
0.778134 0.797360 0.638453
0.793210 0.801877 0.643000
0.810330 0.807797 0.646906
0.831144 0.816617 0.649348
0.847990 0.819059 0.658412
0.865660 0.821622 0.669978
0.883665 0.825010 0.682002
0.901976 0.829191 0.695094
0.919890 0.834501 0.710842
0.626673 0.765499 0.638666
0.627008 0.765713 0.638880
0.627649 0.765805 0.639124
0.628504 0.765713 0.639246
0.629816 0.765438 0.639246
0.631586 0.765011 0.639063
0.633967 0.764523 0.639033
0.637079 0.763973 0.639063
0.640894 0.763424 0.639277
0.645441 0.762844 0.639521
0.650721 0.762234 0.640101
0.656580 0.761685 0.640803
0.663020 0.760983 0.641413
0.669520 0.763668 0.642267
0.676600 0.767025 0.642939
0.684474 0.770626 0.643549
0.693263 0.774563 0.644587
0.703151 0.778927 0.645686
0.714107 0.783749 0.647456
0.726253 0.789090 0.649592
0.739467 0.794797 0.652155
0.753719 0.800778 0.654902
0.768673 0.806821 0.657710
0.784421 0.812955 0.660517
0.799069 0.817716 0.664607
0.813443 0.821836 0.668666
0.829770 0.827176 0.672358
0.849851 0.835599 0.674800
0.865965 0.838224 0.682704
0.883848 0.841489 0.694911
0.902007 0.845701 0.708125
0.920470 0.850889 0.722408
0.644434 0.784268 0.661433
0.644800 0.784482 0.661769
0.645350 0.784573 0.661921
0.646296 0.784634 0.662165
0.647761 0.784573 0.662470
0.649836 0.784634 0.662959
0.652827 0.784878 0.663783
0.656519 0.785275 0.665003
0.661006 0.785794 0.666468
0.666285 0.786374 0.668238
0.672267 0.787045 0.670161
0.678706 0.787564 0.672114
0.685664 0.787930 0.673976
0.692805 0.789273 0.675563
0.700008 0.793118 0.677150
0.707607 0.796841 0.678401
0.715908 0.800748 0.679683
0.725124 0.804990 0.681025
0.735378 0.809659 0.682887
0.746822 0.814755 0.685023
0.758907 0.820035 0.687404
0.771939 0.825528 0.689998
0.785611 0.831022 0.692500
0.799985 0.836576 0.694972
0.814908 0.842069 0.697505
0.828855 0.846281 0.701564
0.842741 0.850187 0.705928
0.858274 0.855161 0.710048
0.877714 0.863249 0.712978
0.892943 0.866087 0.720790
0.910735 0.870115 0.734035
0.928740 0.875181 0.748470
0.670527 0.811490 0.693874
0.670588 0.811490 0.693904
0.670924 0.811398 0.693812
0.671565 0.811215 0.693782
0.672663 0.810971 0.693721
0.674311 0.810666 0.693690
0.676478 0.810452 0.693843
0.679347 0.810208 0.694148
0.682826 0.810086 0.694667
0.687068 0.809964 0.695399
0.691951 0.809842 0.696254
0.697353 0.809781 0.697200
0.703365 0.809598 0.698207
0.709682 0.809201 0.699062
