20 Preset/Natural Girl/【3】LUT video cho PR-AE-FCPX/Lut Tone  (14).cube
# Created by Adobe Lightroom plugin Export LUT (1.24.0)
# www.johnrellis.com/lightroom/exportlut.htm
# Preset: 自然胶片-素材江湖（原版）07
# Color profile: C:\Program Files (x86)\Common Files\Adobe\Color\Profiles\Recommended\VideoHD.icc
LUT_3D_SIZE 32
DOMAIN_MIN 0.0 0.0 0.0
DOMAIN_MAX 1.0 1.0 1.0
0.115938 0.109773 0.114900
0.118105 0.110140 0.115114
0.123445 0.110994 0.115785
0.132235 0.112612 0.116915
0.141176 0.115450 0.119509
0.153079 0.118227 0.122255
0.167056 0.121218 0.124514
0.184054 0.123476 0.126101
0.202945 0.125673 0.127779
0.223606 0.127871 0.129274
0.245487 0.130068 0.131075
0.268833 0.132540 0.132845
0.293126 0.134951 0.134585
0.317937 0.137606 0.136812
0.342870 0.140780 0.139223
0.367895 0.144350 0.141970
0.392798 0.148379 0.144839
0.417762 0.153323 0.148196
0.442695 0.158267 0.151827
0.471107 0.165316 0.156313
0.504753 0.174166 0.162081
0.535088 0.183719 0.167910
0.561883 0.193118 0.173526
0.586053 0.202701 0.178897
0.608057 0.212436 0.184787
0.628504 0.222324 0.190799
0.648005 0.232853 0.197055
0.667536 0.243931 0.203861
0.687953 0.256352 0.211154
0.709560 0.270085 0.219608
0.732784 0.285466 0.229099
0.757626 0.303014 0.239933
0.117739 0.111421 0.115572
0.118135 0.111696 0.115206
0.123903 0.112520 0.116182
0.132357 0.113802 0.117342
0.141482 0.116304 0.119692
0.152651 0.119142 0.122438
0.166476 0.121859 0.124697
0.182834 0.123995 0.126070
0.201389 0.126284 0.127749
0.221500 0.128420 0.129305
0.243168 0.130465 0.130861
0.266178 0.132845 0.132692
0.289982 0.135286 0.134493
0.314611 0.138125 0.136477
0.339361 0.140993 0.138949
0.364324 0.144747 0.141726
0.389349 0.148867 0.144594
0.414252 0.153323 0.148043
0.439185 0.158602 0.151461
0.467018 0.165164 0.155734
0.499153 0.173587 0.161166
0.528374 0.182254 0.166659
0.554467 0.191165 0.172030
0.578332 0.200137 0.177462
0.600244 0.209506 0.182925
0.620783 0.218723 0.188418
0.640681 0.228794 0.194339
0.660304 0.239933 0.201053
0.680873 0.251987 0.208316
0.702663 0.265446 0.216556
0.725978 0.280766 0.225742
0.750942 0.298070 0.236484
0.122286 0.116884 0.118318
0.123415 0.117006 0.118868
0.125978 0.118166 0.118349
0.133028 0.119234 0.119783
0.141665 0.121126 0.121889
0.153536 0.123171 0.124086
0.167605 0.125185 0.125582
0.183658 0.126986 0.126955
0.201907 0.129274 0.128389
0.221805 0.131106 0.129946
0.243198 0.133394 0.131472
0.265629 0.135653 0.133059
0.289189 0.138125 0.134890
0.313298 0.140841 0.136904
0.337957 0.143740 0.139345
0.362768 0.147311 0.141909
0.387549 0.151247 0.145052
0.412390 0.155917 0.148470
0.437293 0.160983 0.151888
0.465644 0.167605 0.156100
0.496803 0.175753 0.161257
0.525353 0.184054 0.166659
0.551171 0.192813 0.171756
0.574701 0.201236 0.177005
0.596429 0.210239 0.182254
0.616968 0.218997 0.187716
0.636896 0.229007 0.193668
0.656611 0.239628 0.200107
0.677211 0.251469 0.207218
0.699062 0.264836 0.215518
0.722286 0.279698 0.224552
0.747127 0.296727 0.235111
0.129427 0.123995 0.123690
0.130098 0.124178 0.123934
0.132570 0.124971 0.123781
0.135744 0.126436 0.123781
0.145266 0.128573 0.124636
0.156497 0.130526 0.126223
0.170718 0.132052 0.127443
0.186801 0.133455 0.128603
0.204532 0.135348 0.130007
0.224125 0.137057 0.131289
0.244877 0.139345 0.132570
0.266850 0.141299 0.134157
0.290043 0.143893 0.136172
0.313603 0.146426 0.138186
0.337743 0.149569 0.140352
0.361944 0.152956 0.143160
0.386114 0.156619 0.146120
0.410315 0.161196 0.149325
0.434668 0.165988 0.152590
0.462959 0.172457 0.157168
0.491798 0.179721 0.161868
0.518944 0.187594 0.166720
0.544396 0.195224 0.171695
0.568414 0.203464 0.176791
0.591028 0.212436 0.181949
0.612696 0.221500 0.187716
0.633845 0.231449 0.193851
0.654414 0.242222 0.200565
0.675532 0.254093 0.207828
0.697536 0.267247 0.215854
0.720485 0.281834 0.224796
0.744564 0.298009 0.234806
0.137057 0.133486 0.128908
0.137728 0.133639 0.128847
0.140841 0.133974 0.129244
0.144930 0.136172 0.128328
0.149874 0.138125 0.127901
0.162020 0.140658 0.128511
0.175845 0.142245 0.129427
0.190249 0.143679 0.130800
0.207767 0.144930 0.132021
0.226596 0.146578 0.132998
0.246921 0.148043 0.134340
0.268376 0.150332 0.135866
0.290898 0.152682 0.137636
0.314305 0.155215 0.139834
0.338048 0.158419 0.142397
0.362219 0.161746 0.144900
0.386450 0.165621 0.147738
0.410620 0.169863 0.151095
0.434974 0.174655 0.154452
0.464057 0.181155 0.158999
0.491707 0.187991 0.163516
0.517784 0.195132 0.168276
0.542748 0.202640 0.173007
0.566644 0.210452 0.178073
0.589410 0.218631 0.183291
0.611292 0.227787 0.188907
0.632502 0.237247 0.194858
0.652979 0.247745 0.201511
0.673884 0.259098 0.208530
0.695583 0.271611 0.216495
0.718227 0.285557 0.225376
0.742031 0.301244 0.234989
0.147189 0.145266 0.133730
0.147768 0.145418 0.133944
0.150790 0.145480 0.134096
0.154757 0.147372 0.133700
0.161227 0.151003 0.132235
0.167880 0.153231 0.131930
0.182895 0.156558 0.131930
0.198978 0.157870 0.132692
0.214542 0.159091 0.134615
0.232639 0.160342 0.136110
0.252354 0.161440 0.137423
0.273533 0.163394 0.138918
0.295750 0.165621 0.140597
0.318517 0.168276 0.143130
0.342077 0.171237 0.145357
0.366094 0.174502 0.148165
0.390112 0.178286 0.150820
0.414252 0.182345 0.154238
0.440833 0.187716 0.158114
0.468818 0.194003 0.162295
0.495613 0.200443 0.166903
0.521202 0.207370 0.171481
0.585229 0.231998 0.186130
0.607630 0.240726 0.192020
0.628260 0.249516 0.198062
0.647456 0.258579 0.204440
0.666346 0.268009 0.211154
0.685512 0.278538 0.218051
0.705257 0.289982 0.225803
0.725978 0.302464 0.233951
0.747463 0.316381 0.243168
0.769955 0.331518 0.252995
0.161868 0.163882 0.140810
0.162356 0.164004 0.141024
0.165652 0.164004 0.141176
0.171054 0.164645 0.141390
0.177371 0.168582 0.139834
0.186923 0.173983 0.137636
0.195041 0.176303 0.136721
0.213809 0.180911 0.136355
0.231693 0.181369 0.137697
0.250278 0.182650 0.139712
0.268132 0.184176 0.142702
0.289708 0.185550 0.144472
0.312108 0.187137 0.146456
0.334600 0.189364 0.148775
0.357733 0.191775 0.151064
0.380591 0.194491 0.153719
0.403937 0.197757 0.156619
0.429175 0.202060 0.160098
0.458961 0.208774 0.164706
0.487922 0.215335 0.169650
0.516564 0.222843 0.174533
0.544945 0.230900 0.180026
0.571801 0.239597 0.186282
0.597253 0.248814 0.192355
0.620478 0.257939 0.199039
0.641077 0.267002 0.205600
0.660456 0.275883 0.212131
0.679561 0.285527 0.218875
0.699092 0.296208 0.226230
0.719326 0.307652 0.234104
0.740475 0.320623 0.242771
0.762661 0.334783 0.252293
0.175906 0.181247 0.147616
0.176333 0.181369 0.147799
0.179355 0.181186 0.148196
0.185000 0.181155 0.148684
0.191012 0.183932 0.147585
0.199008 0.189151 0.145480
0.210483 0.195407 0.142733
0.219028 0.197757 0.141939
0.239445 0.203403 0.141268
0.258488 0.203494 0.143374
0.278813 0.204929 0.145632
0.297215 0.206729 0.149264
0.317388 0.208377 0.151980
0.339513 0.209659 0.154147
0.361822 0.211429 0.156191
0.384039 0.213504 0.158999
0.408118 0.216953 0.161959
0.435737 0.222141 0.165713
0.462684 0.227207 0.169924
0.489357 0.233036 0.174350
0.516289 0.239475 0.178927
0.543267 0.246555 0.184085
0.569207 0.254307 0.189548
0.593683 0.262425 0.195651
0.616602 0.270848 0.201968
0.636988 0.279057 0.208255
0.656214 0.287266 0.214725
0.675257 0.295842 0.221256
0.694759 0.305730 0.228214
0.714839 0.316594 0.236057
0.735866 0.328649 0.244419
0.757870 0.342321 0.253696
0.191745 0.200626 0.156313
0.192386 0.200717 0.156497
0.195010 0.200687 0.156619
0.200229 0.200381 0.157137
0.206424 0.201602 0.156924
0.213626 0.206210 0.155001
0.223148 0.212009 0.152682
0.235691 0.218509 0.149752
0.244938 0.221012 0.148409
0.267033 0.228061 0.147005
0.287144 0.228611 0.149966
0.308324 0.230167 0.152865
0.328496 0.231968 0.156374
0.346746 0.233799 0.160739
0.368322 0.235019 0.163119
0.392737 0.237827 0.165896
0.418280 0.241459 0.169284
0.443336 0.245212 0.172946
0.468360 0.249302 0.176242
0.493507 0.254154 0.180270
0.519127 0.259586 0.184634
0.544579 0.265721 0.189456
0.569268 0.272374 0.194736
0.592889 0.279698 0.200595
0.615076 0.286992 0.206729
0.635035 0.294285 0.212802
0.653986 0.301640 0.219059
0.672938 0.309667 0.225284
0.692287 0.318822 0.232029
0.712154 0.328771 0.239597
0.732967 0.340124 0.247837
0.754788 0.352819 0.256840
0.209079 0.221836 0.166201
0.209903 0.221500 0.166445
0.211917 0.221286 0.166598
0.216526 0.221134 0.167056
0.223453 0.220493 0.167514
0.229465 0.224369 0.165835
0.237705 0.229587 0.163729
0.248966 0.236362 0.160678
0.261723 0.242924 0.157656
0.271611 0.245365 0.155856
0.294621 0.253788 0.153353
0.315343 0.254063 0.157412
0.336400 0.255497 0.160922
0.359930 0.258701 0.164553
0.381262 0.262242 0.169772
0.403265 0.265537 0.174838
0.427436 0.268315 0.177615
0.451789 0.271183 0.180789
0.475990 0.274449 0.184298
0.500023 0.278264 0.187961
0.524010 0.282536 0.191836
0.547021 0.287144 0.196201
0.569360 0.292058 0.200839
0.590845 0.297704 0.205936
0.611414 0.303258 0.211093
0.630488 0.309270 0.216617
0.649165 0.315587 0.222416
0.668025 0.323003 0.228702
0.687526 0.331518 0.235569
0.707729 0.341131 0.242924
0.728908 0.352056 0.251286
0.751034 0.364569 0.260410
0.226352 0.242435 0.176547
0.226749 0.242405 0.176730
0.228885 0.242283 0.176852
0.233097 0.242039 0.177279
0.239353 0.241672 0.178012
0.246372 0.243748 0.177340
0.253727 0.248631 0.175387
0.263828 0.255039 0.172915
0.276493 0.262821 0.169680
0.290013 0.269566 0.166690
0.300877 0.272679 0.164645
0.327367 0.284520 0.161807
0.349920 0.285924 0.166995
0.372992 0.288121 0.171237
0.396124 0.290867 0.175265
0.417884 0.293645 0.180087
0.437507 0.296422 0.186160
0.459510 0.298711 0.189914
0.482521 0.301030 0.192813
0.505303 0.303716 0.196017
0.527855 0.306615 0.199710
0.549615 0.310124 0.203677
0.570855 0.314214 0.208103
0.591516 0.318578 0.212802
0.611353 0.323308 0.217868
0.629877 0.328435 0.223301
0.648249 0.334142 0.228916
0.666957 0.340795 0.234928
0.686275 0.348394 0.241520
0.706355 0.357336 0.248844
0.727382 0.367681 0.257145
0.749355 0.379553 0.266178
0.245518 0.265812 0.188449
0.246250 0.265751 0.188449
0.247959 0.265660 0.188724
0.251743 0.265629 0.189212
0.257969 0.265232 0.189578
0.265537 0.265232 0.190402
0.272313 0.270115 0.188663
0.282109 0.277073 0.186557
0.294896 0.285496 0.184360
0.310216 0.295415 0.181186
0.325719 0.303532 0.178408
0.337896 0.307469 0.176883
0.390173 0.343481 0.180789
0.414435 0.344335 0.187106
0.437964 0.345464 0.192264
0.461036 0.347173 0.196963
0.483742 0.349126 0.201389
0.502403 0.350500 0.207736
0.520317 0.352544 0.214267
0.540917 0.353002 0.217380
0.560693 0.353857 0.221042
0.579644 0.355230 0.224826
0.597894 0.357092 0.228641
0.615503 0.359411 0.233127
0.632532 0.362280 0.237888
0.649378 0.365789 0.242679
0.666163 0.369726 0.247684
0.683192 0.374670 0.252750
0.700832 0.380682 0.258671
0.719448 0.387976 0.265385
0.739071 0.396765 0.272618
0.760067 0.407324 0.281224
0.276371 0.302983 0.207797
0.276677 0.302800 0.207584
0.278416 0.302403 0.207614
0.281987 0.302098 0.207980
0.287358 0.301457 0.208499
0.294865 0.300694 0.209232
0.302708 0.303838 0.208255
0.311376 0.310094 0.206332
0.323033 0.318029 0.203983
0.337530 0.327794 0.201266
0.356023 0.339849 0.197818
0.373754 0.349920 0.196017
0.388525 0.355840 0.195315
0.417945 0.371221 0.190524
0.442878 0.373083 0.197604
0.465797 0.373907 0.203342
0.487617 0.374823 0.208103
0.508324 0.375616 0.212284
0.526421 0.376165 0.217594
0.542168 0.376837 0.224491
0.558740 0.377630 0.229709
0.576989 0.377874 0.232975
0.594598 0.378576 0.236667
0.611749 0.379828 0.240696
0.628504 0.381933 0.245243
0.645350 0.384802 0.249607
0.662287 0.388281 0.254673
0.679530 0.392676 0.259892
0.697505 0.398291 0.265568
0.716396 0.405371 0.272160
0.736141 0.413703 0.279484
0.757168 0.423743 0.288243
0.299992 0.331456 0.223026
0.299992 0.331243 0.223056
0.301366 0.330632 0.222934
0.304356 0.329503 0.222751
0.308782 0.328374 0.222751
0.315282 0.327062 0.222995
0.323278 0.327153 0.223056
0.330632 0.332372 0.221103
0.340581 0.339330 0.218784
0.353552 0.348150 0.216403
0.369421 0.358953 0.213687
0.388922 0.371649 0.210422
0.405859 0.380835 0.209293
0.420142 0.386419 0.208377
0.448096 0.401556 0.202243
0.471168 0.401801 0.209232
0.491890 0.401190 0.214481
0.511345 0.400641 0.219547
0.530175 0.400549 0.223911
0.548150 0.400732 0.228214
0.562524 0.400519 0.235172
0.576898 0.401831 0.242496
0.593500 0.402197 0.246555
0.610254 0.402777 0.250553
0.626947 0.404120 0.254612
0.643671 0.406378 0.259068
0.660578 0.409277 0.263584
0.677790 0.413184 0.268620
0.695705 0.418067 0.274418
0.714504 0.424567 0.280766
0.734371 0.432471 0.288182
0.755459 0.442084 0.296788
0.322240 0.358038 0.237675
0.322454 0.357763 0.237644
0.323400 0.357122 0.237552
0.325780 0.355962 0.237308
0.329534 0.354437 0.237125
0.335241 0.352636 0.237034
0.342809 0.351141 0.237491
0.349950 0.354589 0.236088
0.358679 0.360754 0.233951
0.370245 0.368811 0.231815
0.384344 0.378637 0.229557
0.401678 0.390295 0.227054
0.420813 0.402594 0.224155
0.436927 0.410956 0.222904
0.450233 0.415595 0.221683
0.476112 0.429877 0.214206
0.497017 0.428687 0.221195
0.515465 0.426734 0.227054
0.533379 0.425269 0.231846
0.550500 0.424384 0.236515
0.567163 0.424140 0.241215
0.582086 0.424323 0.247257
0.595514 0.424964 0.254582
0.609522 0.426551 0.261753
0.626001 0.427222 0.265354
0.642634 0.428809 0.269627
0.659602 0.431342 0.274052
0.677089 0.435004 0.279301
0.695491 0.440009 0.285100
0.714870 0.446540 0.291966
0.735439 0.454749 0.299992
0.757382 0.464576 0.309239
0.342382 0.382055 0.251713
0.342870 0.382025 0.251713
0.344152 0.381720 0.251652
0.346471 0.380987 0.251652
0.350256 0.380102 0.251743
0.355932 0.379004 0.251926
0.363317 0.378180 0.252598
0.371771 0.379339 0.252964
0.380133 0.385443 0.251164
0.390509 0.392859 0.249363
0.402930 0.401495 0.247227
0.417395 0.411200 0.244511
0.434058 0.421881 0.241245
0.450935 0.431800 0.237980
0.464668 0.437781 0.236088
0.475746 0.440620 0.234470
0.498939 0.452918 0.227024
0.518242 0.451667 0.233341
0.535485 0.449287 0.238956
0.552056 0.447486 0.244663
0.568444 0.446723 0.249821
0.584680 0.446693 0.254765
0.600397 0.447486 0.260410
0.613977 0.448524 0.268376
0.627802 0.450813 0.276310
0.643305 0.453162 0.282628
0.660426 0.455512 0.287083
0.678126 0.458869 0.292088
0.696468 0.463416 0.297978
0.715694 0.469337 0.304540
0.735897 0.476631 0.312200
0.757259 0.485542 0.320836
0.362005 0.405066 0.265415
0.362188 0.405035 0.265507
0.363256 0.404669 0.265446
0.365515 0.404150 0.265537
0.369329 0.403418 0.265690
0.374426 0.402625 0.265995
0.381384 0.401801 0.266453
0.389990 0.401068 0.267552
0.397772 0.405798 0.266331
0.406958 0.412390 0.264561
0.417945 0.420111 0.262943
0.430884 0.428962 0.260624
0.445502 0.438544 0.257847
0.461341 0.448432 0.254673
0.476753 0.456794 0.251682
0.489174 0.461769 0.249821
0.499397 0.463966 0.248386
0.520653 0.474983 0.241703
0.538872 0.474281 0.247044
0.554894 0.471565 0.253330
0.570642 0.469886 0.258976
0.586328 0.469154 0.264805
0.602197 0.469551 0.270237
0.618280 0.470924 0.276036
0.632959 0.472755 0.283177
0.647120 0.475563 0.291691
0.661769 0.479591 0.300725
0.679347 0.482948 0.306126
0.697810 0.487343 0.312108
0.717189 0.492958 0.318761
0.737453 0.500008 0.326604
0.758999 0.508507 0.335363
0.383001 0.429633 0.280949
0.383368 0.429847 0.281071
0.399878 0.447181 0.293095
0.402075 0.446754 0.293217
0.405524 0.445960 0.293309
0.410285 0.445045 0.293462
0.416449 0.443854 0.293706
0.424323 0.442695 0.294133
0.432471 0.444160 0.293919
0.440681 0.450019 0.292699
0.450324 0.456672 0.291020
0.461402 0.463996 0.289036
0.473487 0.471626 0.286534
0.486732 0.479561 0.283268
0.500847 0.487495 0.279515
0.513603 0.493324 0.276646
0.523735 0.496223 0.274296
0.532097 0.496895 0.272496
0.550103 0.505272 0.266270
0.566186 0.504173 0.269932
0.580560 0.500664 0.275608
0.595331 0.498878 0.281224
0.610315 0.498116 0.286534
0.625513 0.498329 0.292027
0.640864 0.499245 0.297002
0.656031 0.500969 0.302617
0.669581 0.503258 0.310765
0.683894 0.507012 0.319402
0.699916 0.511833 0.328069
0.718959 0.516808 0.334447
0.739132 0.523369 0.341924
0.760555 0.531334 0.350652
0.407813 0.458015 0.300267
0.409308 0.459571 0.301549
0.411780 0.461036 0.302861
0.415106 0.462043 0.303838
0.419165 0.462531 0.304845
0.424018 0.462074 0.305119
0.429664 0.461250 0.305608
0.436683 0.460029 0.305974
0.445014 0.458869 0.306432
0.452155 0.463630 0.305303
0.460517 0.469429 0.303960
0.470100 0.475837 0.302373
0.480720 0.482612 0.300084
0.492409 0.489693 0.297490
0.505089 0.497017 0.294438
0.518517 0.504417 0.290929
0.530266 0.509514 0.288640
0.539971 0.512322 0.287327
0.548333 0.513359 0.286351
0.565850 0.521813 0.281193
0.582055 0.522454 0.284855
0.596918 0.520317 0.291203
0.611810 0.519249 0.296910
0.626856 0.519005 0.302617
0.641993 0.519615 0.308019
0.657496 0.521019 0.313207
0.673457 0.523522 0.318486
0.688258 0.526665 0.326635
0.703395 0.531365 0.336431
0.719783 0.537804 0.347356
0.739162 0.544671 0.356359
0.760647 0.552514 0.365209
0.424140 0.476478 0.313909
0.425666 0.477913 0.315129
0.428168 0.479347 0.316472
0.431128 0.480476 0.317723
0.435035 0.481056 0.318700
0.439277 0.480873 0.319280
0.444648 0.480049 0.319524
0.450935 0.478889 0.319829
0.458534 0.477699 0.320226
0.465919 0.479408 0.319799
0.473213 0.484382 0.318578
0.481483 0.489967 0.317357
0.490913 0.495979 0.315557
0.501335 0.502464 0.313573
0.512535 0.509056 0.311223
0.524559 0.515831 0.308202
0.537377 0.522667 0.305119
0.548089 0.527092 0.303502
0.557214 0.529808 0.302770
0.565667 0.531212 0.302403
0.582696 0.539666 0.298131
0.598962 0.541711 0.301213
0.613886 0.540337 0.307774
0.628870 0.539879 0.313787
0.643885 0.540154 0.319677
0.659205 0.541314 0.325078
0.674983 0.543359 0.330694
0.691493 0.546654 0.336645
0.708370 0.551141 0.344244
0.724666 0.556939 0.355108
0.742245 0.564538 0.367254
0.761166 0.573846 0.380774
0.441047 0.495155 0.328893
0.442390 0.496437 0.330053
0.444434 0.497688 0.331487
0.447211 0.498634 0.332555
0.450660 0.499062 0.333471
0.454566 0.498848 0.333928
0.459449 0.498116 0.334081
0.465034 0.497169 0.334295
0.471992 0.496101 0.334813
0.479744 0.495125 0.335332
0.486213 0.499580 0.334325
0.493629 0.504540 0.333104
0.501976 0.509880 0.331762
0.511101 0.515557 0.330083
0.521019 0.521538 0.328405
0.532128 0.527916 0.326238
0.544121 0.534813 0.324102
0.557275 0.542168 0.321599
0.568170 0.547173 0.321996
0.578088 0.550927 0.322637
0.587488 0.553735 0.323857
0.605127 0.563256 0.321813
0.622126 0.567346 0.325017
0.637842 0.567498 0.332647
0.653651 0.568383 0.339666
0.669459 0.569940 0.346288
0.685664 0.572320 0.352697
0.702632 0.575891 0.359533
0.720607 0.580865 0.367041
0.739834 0.587366 0.375616
0.758236 0.594842 0.387549
0.777523 0.603845 0.401038
0.465461 0.521355 0.353002
0.466133 0.521843 0.353582
0.467170 0.522118 0.354040
0.468910 0.522057 0.354253
0.471260 0.521752 0.354376
0.474250 0.521019 0.354345
0.478248 0.520073 0.354253
0.483253 0.519127 0.354345
0.489570 0.518090 0.354376
0.496803 0.517052 0.355016
0.503441 0.518944 0.354955
0.510033 0.523247 0.354101
0.517327 0.528038 0.353033
0.525505 0.533165 0.351965
0.534569 0.538659 0.350195
0.544518 0.544610 0.348577
0.555383 0.550896 0.346502
0.567132 0.557610 0.344549
0.579492 0.564294 0.342626
0.590021 0.569116 0.342931
0.599084 0.572351 0.343755
0.607904 0.574884 0.344823
0.624537 0.583703 0.342504
0.640772 0.588067 0.344701
0.656092 0.588312 0.351781
0.671839 0.589685 0.358923
0.688106 0.592065 0.365789
0.705135 0.595605 0.373114
0.723140 0.600458 0.381018
0.742306 0.606683 0.389563
0.762722 0.614374 0.398718
0.783688 0.623224 0.410040
0.481819 0.538689 0.370306
0.482338 0.539055 0.370733
0.483436 0.539269 0.371130
0.484993 0.539330 0.371435
0.487037 0.539025 0.371557
0.489937 0.538476 0.371496
0.493538 0.537682 0.371496
0.498116 0.536736 0.371405
0.503593 0.535851 0.371679
0.510185 0.534936 0.372107
0.517357 0.534508 0.372564
0.523369 0.538567 0.372045
0.530144 0.543023 0.371313
0.537804 0.547967 0.370459
0.546166 0.553338 0.369451
0.555383 0.559045 0.368261
0.565576 0.565209 0.366949
0.576654 0.571801 0.365423
0.588739 0.578851 0.363745
0.600732 0.585473 0.362982
0.611414 0.590631 0.364111
0.620386 0.594049 0.365423
0.629206 0.596948 0.367224
0.645716 0.605921 0.365881
0.657771 0.606775 0.362097
0.672908 0.607416 0.369268
0.689174 0.609674 0.376745
0.706111 0.613184 0.384436
0.724147 0.617884 0.392645
0.743435 0.624048 0.401221
0.764187 0.631800 0.410925
0.786221 0.640803 0.420844
0.503380 0.561059 0.393622
0.504326 0.561730 0.394507
0.505058 0.561975 0.394842
0.506188 0.561669 0.394659
0.507469 0.560906 0.394324
0.509392 0.559808 0.393652
0.512016 0.558404 0.392737
0.515373 0.556909 0.391943
0.519738 0.555322 0.391363
0.525048 0.553796 0.390936
0.530999 0.552239 0.390661
0.536767 0.553765 0.390051
0.542565 0.557519 0.388800
0.549035 0.561547 0.387457
0.556146 0.565972 0.385992
0.564080 0.570794 0.384436
0.572992 0.576135 0.382696
0.583001 0.582086 0.381170
0.594141 0.588769 0.379919
0.606439 0.596155 0.378820
0.618250 0.602838 0.379187
0.629114 0.608301 0.380865
0.637751 0.611658 0.382635
0.646143 0.614313 0.384131
0.661769 0.622553 0.382605
0.677455 0.628168 0.382879
0.692317 0.628992 0.389471
0.708858 0.631739 0.396765
0.726406 0.635889 0.404669
0.745357 0.641596 0.413153
0.765713 0.648829 0.422156
0.787686 0.657740 0.432258
0.518029 0.576745 0.409277
0.518883 0.577417 0.410132
0.519738 0.577783 0.410590
0.520836 0.577722 0.410773
0.522454 0.577264 0.410529
0.524559 0.576715 0.410529
0.527520 0.575952 0.410315
0.531060 0.575158 0.410224
0.535546 0.574304 0.410193
0.540795 0.573480 0.410590
0.546715 0.572442 0.410681
0.553155 0.571954 0.410895
0.558618 0.575616 0.410163
0.564721 0.579614 0.409094
0.571344 0.583795 0.407843
0.578668 0.588342 0.406378
0.586877 0.593317 0.404974
0.596033 0.598871 0.403571
0.606317 0.605188 0.402564
0.617792 0.612238 0.401587
0.630274 0.619806 0.400977
0.641718 0.626246 0.401862
0.652461 0.631769 0.403693
0.661006 0.635157 0.405982
0.669612 0.638239 0.408026
0.685237 0.646723 0.407233
0.701503 0.653651 0.407813
0.716823 0.655207 0.414618
0.734646 0.659480 0.422461
0.753567 0.665034 0.430854
0.773892 0.672175 0.439948
0.795987 0.681086 0.449866
0.537041 0.597162 0.429511
0.537530 0.597498 0.429969
0.538140 0.597589 0.430243
0.539025 0.597467 0.430243
0.540459 0.596979 0.429969
0.542260 0.596399 0.429816
0.544793 0.595605 0.429603
0.547967 0.594751 0.429297
0.551965 0.593805 0.429145
0.556695 0.592950 0.429358
0.562097 0.591974 0.429511
0.568292 0.590936 0.429694
0.573968 0.592889 0.429358
0.579706 0.596674 0.428595
0.585870 0.600671 0.427558
0.592798 0.605005 0.426184
0.600275 0.609735 0.424994
0.608911 0.615045 0.423713
0.618494 0.621057 0.422827
0.629328 0.627802 0.422217
0.641138 0.635126 0.421668
0.653773 0.642878 0.421180
0.664698 0.648951 0.422461
0.675227 0.654414 0.424537
0.683467 0.657557 0.426795
0.691920 0.660639 0.428779
0.707271 0.668940 0.428412
0.723598 0.676631 0.428595
0.739040 0.678492 0.435004
0.758053 0.684077 0.443549
0.778500 0.691341 0.452857
0.800900 0.700496 0.462928
0.554711 0.616571 0.447791
0.555108 0.616876 0.448188
0.555749 0.617029 0.448310
0.556725 0.617029 0.448585
0.558312 0.616938 0.448798
0.560601 0.616876 0.449012
0.563867 0.617212 0.449897
0.567864 0.617639 0.451057
0.572900 0.618189 0.452461
0.578729 0.618799 0.454078
0.585321 0.619501 0.455818
0.592401 0.619959 0.457465
0.599725 0.620905 0.459052
0.606195 0.625696 0.459449
0.612940 0.630488 0.459632
0.619928 0.635126 0.459083
0.627466 0.640040 0.458320
0.635828 0.645441 0.457557
0.645228 0.651453 0.457008
0.655604 0.658167 0.456703
0.667018 0.665400 0.456580
0.679286 0.673060 0.456336
0.692073 0.680812 0.455818
0.702602 0.686488 0.457557
0.712947 0.691707 0.459541
0.721096 0.694911 0.462043
0.729671 0.698054 0.464240
0.745052 0.706477 0.464393
0.761990 0.715084 0.464576
0.777829 0.717525 0.470588
0.798886 0.725063 0.479835
0.821897 0.734676 0.490517
0.583581 0.648127 0.477455
0.583612 0.648127 0.477363
0.583978 0.647944 0.477363
0.584680 0.647669 0.477180
0.585779 0.647303 0.477058
0.587518 0.646784 0.476844
0.589776 0.646357 0.476967
0.592920 0.645899 0.476997
0.596735 0.645502 0.477302
0.601251 0.645167 0.477760
0.606470 0.644800 0.478279
0.612360 0.644404 0.478981
0.618830 0.643885 0.479713
0.624872 0.646326 0.479866
