20 Preset/Natural Girl/【3】LUT video cho PR-AE-FCPX/Lut Tone  (5).cube
# Created by Adobe Lightroom plugin Export LUT (1.24.0)
# www.johnrellis.com/lightroom/exportlut.htm
# Preset: 自然胶片-素材江湖（原版）14
# Color profile: C:\Program Files (x86)\Common Files\Adobe\Color\Profiles\Recommended\VideoHD.icc
LUT_3D_SIZE 32
DOMAIN_MIN 0.0 0.0 0.0
DOMAIN_MAX 1.0 1.0 1.0
0.110994 0.104921 0.109651
0.113405 0.105318 0.109560
0.126589 0.105531 0.110536
0.149355 0.109407 0.113252
0.173098 0.114748 0.118105
0.200534 0.121157 0.124483
0.232792 0.127840 0.130404
0.269505 0.132753 0.134737
0.309453 0.136599 0.138430
0.351659 0.140108 0.141665
0.394446 0.143740 0.145571
0.437385 0.148318 0.149111
0.478431 0.154025 0.153841
0.517205 0.161776 0.158633
0.553429 0.171267 0.164431
0.586358 0.182437 0.171572
0.616297 0.196170 0.179995
0.643702 0.211398 0.189181
0.668452 0.227207 0.199557
0.691127 0.244266 0.210575
0.715877 0.265110 0.225284
0.738643 0.287144 0.241276
0.757351 0.307195 0.256382
0.773587 0.325811 0.271153
0.787625 0.342962 0.285222
0.799832 0.359594 0.299107
0.810819 0.375494 0.313512
0.821012 0.391119 0.327672
0.830564 0.406897 0.342535
0.840696 0.423377 0.358343
0.851804 0.440620 0.375097
0.864012 0.458869 0.393469
0.111666 0.107820 0.110567
0.114626 0.108125 0.110140
0.128115 0.109895 0.111513
0.150210 0.112703 0.114321
0.172946 0.117708 0.119478
0.200107 0.124239 0.125429
0.231601 0.129946 0.130953
0.267185 0.134646 0.135073
0.306706 0.138491 0.138338
0.348028 0.142000 0.142336
0.390661 0.145907 0.145357
0.432929 0.149935 0.149050
0.473732 0.155978 0.153201
0.512749 0.162661 0.158175
0.548882 0.171847 0.164279
0.582147 0.183291 0.171206
0.612512 0.196567 0.179355
0.640253 0.211093 0.188846
0.665278 0.226627 0.199008
0.687892 0.243442 0.209873
0.712398 0.263554 0.223850
0.734554 0.283970 0.238651
0.752834 0.303532 0.253330
0.769009 0.321477 0.267247
0.783230 0.338537 0.281041
0.795743 0.354528 0.294682
0.807187 0.370153 0.308446
0.817716 0.386023 0.322484
0.827665 0.401923 0.337469
0.837766 0.418311 0.353094
0.848844 0.435737 0.369848
0.861112 0.453925 0.387976
0.119722 0.122042 0.117678
0.122957 0.122469 0.118410
0.134432 0.124941 0.117525
0.152041 0.126955 0.120790
0.174472 0.130739 0.125154
0.202090 0.135348 0.129854
0.233433 0.139956 0.134432
0.269169 0.143465 0.137331
0.307927 0.147127 0.140749
0.348608 0.150362 0.143587
0.390356 0.154269 0.146792
0.432227 0.158206 0.150454
0.472480 0.163607 0.154665
0.510765 0.170840 0.159335
0.546777 0.179294 0.165225
0.579889 0.190158 0.172305
0.610437 0.202670 0.180087
0.637934 0.216434 0.189883
0.663111 0.231815 0.199924
0.686030 0.247532 0.210544
0.710658 0.267124 0.224369
0.732418 0.286961 0.239078
0.750546 0.305241 0.253239
0.766476 0.322667 0.267063
0.780728 0.339055 0.280278
0.793301 0.354589 0.293645
0.804929 0.370062 0.307256
0.815732 0.385412 0.320989
0.825864 0.401221 0.335698
0.835904 0.417578 0.351629
0.847013 0.434577 0.368078
0.859129 0.452644 0.386145
0.135195 0.142000 0.131991
0.136660 0.142489 0.132631
0.143648 0.144381 0.132967
0.158999 0.147982 0.131777
0.180362 0.150637 0.134707
0.208255 0.155062 0.136965
0.240299 0.157992 0.139467
0.275425 0.161013 0.141726
0.313603 0.164034 0.144350
0.353155 0.167086 0.146609
0.394110 0.170718 0.149935
0.434089 0.174716 0.153323
0.473671 0.179782 0.157382
0.511040 0.186679 0.162112
0.546197 0.194308 0.167788
0.578515 0.204074 0.174960
0.608240 0.215061 0.183078
0.635187 0.228000 0.192111
0.660090 0.241611 0.201907
0.682704 0.256016 0.212772
0.707057 0.273991 0.225772
0.727810 0.291997 0.239384
0.745815 0.309087 0.252964
0.762020 0.325566 0.266453
0.776974 0.341466 0.279973
0.790372 0.357397 0.293614
0.802609 0.373114 0.307744
0.813931 0.388647 0.322148
0.824460 0.404150 0.336767
0.834684 0.420233 0.352453
0.845579 0.436896 0.368841
0.857511 0.453956 0.385901
0.149294 0.167391 0.145418
0.151034 0.167758 0.145541
0.157565 0.168307 0.146822
0.169375 0.173678 0.144564
0.192020 0.179019 0.142977
0.218509 0.179904 0.143984
0.249119 0.183352 0.145480
0.283238 0.186831 0.146731
0.320165 0.188815 0.148898
0.358434 0.191257 0.151522
0.397589 0.194186 0.153780
0.436378 0.198062 0.157595
0.474434 0.202823 0.161532
0.511254 0.208835 0.166842
0.545647 0.215824 0.172976
0.577935 0.224826 0.179965
0.607446 0.234470 0.188083
0.634424 0.245914 0.197543
0.659052 0.258457 0.207095
0.682826 0.272465 0.217990
0.705959 0.288579 0.231235
0.726009 0.304387 0.244236
0.743618 0.320012 0.257145
0.759884 0.334966 0.270024
0.774899 0.350164 0.283238
0.788449 0.365301 0.296880
0.800809 0.380194 0.310552
0.812192 0.394873 0.324743
0.822660 0.409796 0.339422
0.832853 0.424933 0.354467
0.843717 0.440772 0.370428
0.855436 0.457313 0.387213
0.163668 0.198978 0.158267
0.164767 0.199283 0.158968
0.171115 0.199557 0.159548
0.183017 0.201572 0.160220
0.202670 0.211734 0.154574
0.232731 0.217624 0.152346
0.263615 0.217136 0.151858
0.297124 0.218753 0.153048
0.332372 0.222202 0.154635
0.369390 0.225101 0.157076
0.406836 0.227024 0.160098
0.444404 0.229740 0.163638
0.481147 0.233646 0.168124
0.516594 0.238834 0.173861
0.549889 0.244968 0.180301
0.580926 0.252537 0.188357
0.609796 0.261357 0.196384
0.636286 0.271031 0.205936
0.660426 0.281834 0.215183
0.685023 0.295384 0.227451
0.707118 0.309728 0.239658
0.726467 0.323766 0.252537
0.766506 0.363958 0.287694
0.781094 0.378515 0.301823
0.793668 0.392004 0.315618
0.804837 0.405219 0.328862
0.814908 0.417914 0.342351
0.824094 0.430732 0.356268
0.833707 0.443702 0.369879
0.843870 0.457404 0.384497
0.854734 0.471656 0.399664
0.866484 0.486061 0.414954
0.181491 0.245243 0.176364
0.182986 0.245548 0.176425
0.190036 0.245609 0.177279
0.203281 0.246342 0.179110
0.221164 0.252720 0.176272
0.251072 0.266300 0.167422
0.287999 0.271946 0.164309
0.324681 0.268986 0.160586
0.359655 0.269017 0.163516
0.395544 0.270970 0.166781
0.432136 0.274205 0.170687
0.468299 0.276463 0.175479
0.502922 0.278782 0.181003
0.535729 0.282322 0.187442
0.566583 0.286717 0.194491
0.595117 0.292241 0.202884
0.621485 0.298985 0.211032
0.646021 0.306615 0.220157
0.671382 0.317784 0.232181
0.696040 0.331304 0.245274
0.718288 0.345159 0.259098
0.738247 0.359625 0.274052
0.756527 0.374212 0.289097
0.773159 0.388617 0.303868
0.787381 0.402472 0.318608
0.799466 0.415351 0.332677
0.810056 0.427131 0.345586
0.819577 0.438605 0.358556
0.829068 0.450660 0.372229
0.839200 0.462959 0.385870
0.850004 0.475959 0.400305
0.861601 0.489693 0.415442
0.199313 0.286564 0.194675
0.200931 0.286534 0.194644
0.207431 0.286473 0.195529
0.220401 0.286900 0.197147
0.238254 0.287419 0.199008
0.260136 0.299107 0.192142
0.294896 0.312444 0.182162
0.334386 0.318059 0.177493
0.372473 0.314214 0.170413
0.406928 0.312810 0.175448
0.441321 0.313909 0.181064
0.475257 0.316747 0.186526
0.508415 0.320409 0.192538
0.539483 0.321691 0.199557
0.568780 0.324315 0.206546
0.596033 0.327611 0.214328
0.621424 0.332341 0.223209
0.647150 0.339635 0.233127
0.672084 0.349279 0.245365
0.694606 0.359258 0.257725
0.715206 0.370184 0.270665
0.734310 0.381994 0.284123
0.752163 0.394018 0.297826
0.768368 0.406317 0.311986
0.782498 0.418463 0.326207
0.794644 0.429450 0.339361
0.805447 0.439948 0.351781
0.815183 0.450111 0.364172
0.824857 0.460883 0.377203
0.835019 0.472206 0.390448
0.845975 0.484108 0.404150
0.857603 0.497017 0.418860
0.222202 0.328893 0.217136
0.224002 0.328893 0.217716
0.229709 0.328862 0.218112
0.240970 0.329076 0.219516
0.257359 0.329137 0.221805
0.276829 0.333623 0.220737
0.302800 0.345953 0.211917
0.339696 0.358068 0.202609
0.379706 0.364050 0.195438
0.417243 0.359533 0.185611
0.451850 0.357733 0.190890
0.484474 0.357916 0.198398
0.515526 0.359686 0.205905
0.544915 0.362646 0.213809
0.573022 0.365118 0.221378
0.598779 0.366522 0.229953
0.625666 0.371374 0.239994
0.650568 0.377081 0.250309
0.673121 0.383459 0.261570
0.694026 0.390906 0.272709
0.713405 0.399176 0.284550
0.731594 0.408118 0.297398
0.748806 0.417945 0.310155
0.764492 0.428138 0.323552
0.778378 0.437995 0.336461
0.790585 0.447120 0.348730
0.801266 0.456153 0.361089
0.811124 0.465064 0.372839
0.820951 0.474525 0.385046
0.831296 0.484596 0.397650
0.842313 0.495430 0.410864
0.854002 0.507103 0.424872
0.248600 0.370825 0.243626
0.250187 0.370489 0.243381
0.254368 0.370459 0.244022
0.264134 0.370214 0.245365
0.278447 0.369909 0.246677
0.297063 0.369451 0.249027
0.316869 0.378241 0.243656
0.345495 0.390478 0.234867
0.381933 0.400641 0.225650
0.420935 0.406439 0.217594
0.457710 0.402014 0.205173
0.491066 0.398932 0.208011
0.520806 0.398383 0.217899
0.549310 0.399420 0.227024
0.577844 0.403235 0.237797
0.604944 0.408759 0.248569
0.629908 0.412573 0.259495
0.653040 0.415869 0.269749
0.674403 0.419928 0.279881
0.694026 0.424781 0.290867
0.712276 0.430182 0.301213
0.729122 0.436072 0.312566
0.744930 0.442878 0.323919
0.759579 0.449989 0.335088
0.772824 0.457160 0.346471
0.784756 0.464363 0.357458
0.795651 0.471717 0.368688
0.805753 0.479347 0.379980
0.815793 0.487800 0.392279
0.826444 0.497139 0.404822
0.837766 0.507195 0.417914
0.849821 0.518273 0.431739
0.275212 0.408179 0.270329
0.275853 0.408057 0.270085
0.280278 0.408057 0.270817
0.288823 0.407965 0.271672
0.301091 0.407782 0.273259
0.317418 0.407813 0.275731
0.336126 0.410132 0.276341
0.357763 0.420844 0.269596
0.387945 0.432990 0.260624
0.423255 0.441962 0.252293
0.461616 0.447547 0.242435
0.496590 0.444099 0.230228
0.530663 0.441932 0.230655
0.559197 0.441871 0.243961
0.585626 0.443397 0.255772
0.610224 0.445991 0.267521
0.633143 0.449500 0.278294
0.654353 0.453498 0.289403
0.674281 0.455299 0.298802
0.692805 0.457649 0.308812
0.710109 0.460609 0.318486
0.726314 0.464454 0.328435
0.741665 0.469276 0.338842
0.755856 0.474281 0.349310
0.768856 0.479713 0.359899
0.780575 0.485359 0.370336
0.791379 0.491279 0.381109
0.801511 0.497658 0.391852
0.811765 0.504875 0.403388
0.822629 0.512932 0.415290
0.834073 0.522118 0.428016
0.846342 0.532067 0.441199
0.304692 0.445655 0.299535
0.305821 0.445808 0.299474
0.309270 0.445686 0.299596
0.315923 0.445655 0.300969
0.326757 0.445533 0.302403
0.340856 0.445350 0.304479
0.358190 0.445411 0.306920
0.376410 0.451789 0.303746
0.400244 0.463111 0.297765
0.432227 0.476295 0.290623
0.466926 0.485023 0.284489
0.504631 0.491707 0.275669
0.559167 0.511192 0.284703
0.591272 0.508232 0.281956
0.615015 0.506584 0.296513
0.636744 0.506157 0.309606
0.656764 0.506523 0.321019
0.675410 0.507713 0.331701
0.692805 0.509728 0.342077
0.709133 0.511681 0.351263
0.724453 0.512016 0.360021
0.738399 0.513024 0.368902
0.751339 0.514427 0.377295
0.763302 0.516747 0.386511
0.774441 0.519310 0.394995
0.784634 0.522179 0.403693
0.794186 0.525475 0.412451
0.803983 0.529503 0.421118
0.814054 0.534569 0.430579
0.824765 0.540551 0.440406
0.836118 0.547601 0.451118
0.848356 0.555871 0.462654
0.345830 0.493233 0.340368
0.346471 0.493202 0.340490
0.348913 0.492866 0.340581
0.355016 0.492592 0.341314
0.363561 0.492226 0.342412
0.375402 0.491737 0.343786
0.390661 0.491615 0.346410
0.408026 0.492744 0.348455
0.426703 0.502556 0.344518
0.452338 0.514031 0.338842
0.484169 0.526879 0.333349
0.517937 0.535149 0.329259
0.554101 0.542779 0.323613
0.583703 0.540581 0.316289
0.615229 0.538323 0.309514
0.636286 0.536095 0.323857
0.655329 0.534569 0.335882
0.672877 0.533745 0.346532
0.689235 0.533837 0.356390
0.704646 0.534569 0.365484
0.718959 0.536065 0.374578
0.732418 0.536675 0.383276
0.745052 0.536797 0.391333
0.757076 0.537591 0.399115
0.768154 0.538994 0.407446
0.778470 0.540887 0.415778
0.788357 0.543359 0.424079
0.798520 0.546593 0.432380
0.808927 0.550927 0.441596
0.819974 0.556329 0.451423
0.831662 0.562707 0.461585
0.844083 0.570275 0.473060
0.378424 0.527764 0.373541
0.378576 0.527520 0.373236
0.380682 0.526970 0.373327
0.384863 0.526024 0.373144
0.391577 0.525048 0.373297
0.400763 0.523919 0.373907
0.412818 0.523095 0.375219
0.427466 0.522332 0.377203
0.443427 0.526696 0.376440
0.462989 0.536187 0.372229
0.488136 0.546960 0.368261
0.518700 0.558526 0.363684
0.548913 0.565087 0.360784
0.581415 0.571374 0.355108
0.607416 0.568597 0.347875
0.636164 0.565148 0.336858
0.654292 0.561700 0.349981
0.670893 0.559289 0.361151
0.686641 0.557794 0.371160
0.701259 0.557092 0.379858
0.714992 0.557122 0.389075
0.727932 0.558007 0.397620
0.740108 0.559625 0.406928
0.751858 0.559777 0.414588
0.762905 0.560082 0.422522
0.773251 0.561089 0.430152
0.783413 0.562646 0.437903
0.793698 0.565179 0.446204
0.804440 0.568688 0.454719
0.815732 0.573297 0.463996
0.827604 0.579004 0.473915
0.840299 0.585962 0.485023
0.407141 0.555810 0.403296
0.407416 0.555627 0.403204
0.408759 0.554986 0.402625
0.411933 0.553979 0.402167
0.416999 0.552667 0.401923
0.424323 0.551232 0.401740
0.433997 0.550195 0.402716
0.446204 0.549248 0.404059
0.460456 0.548852 0.406470
0.476234 0.556451 0.403662
0.495827 0.565698 0.400427
0.520348 0.575738 0.396918
0.548180 0.585321 0.393317
0.575433 0.590784 0.390417
0.604486 0.595666 0.384802
0.627649 0.592767 0.377386
0.654139 0.588251 0.362982
0.670008 0.584466 0.374914
0.685054 0.581506 0.385382
0.699031 0.579461 0.394507
0.711940 0.578332 0.403449
0.724422 0.578149 0.412329
0.736233 0.578515 0.420996
0.747463 0.579736 0.429664
0.757961 0.581170 0.438209
0.768368 0.581201 0.445533
0.778805 0.582269 0.453040
0.789578 0.584253 0.460945
0.800717 0.587488 0.469734
0.812497 0.591852 0.479133
0.824979 0.597498 0.489418
0.838285 0.604303 0.500603
0.431739 0.578576 0.428992
0.432013 0.578607 0.428992
0.433631 0.578363 0.429023
0.436225 0.577783 0.429084
0.440833 0.577050 0.428931
0.447425 0.576287 0.429541
0.456001 0.575738 0.430488
0.466835 0.575280 0.432258
0.479316 0.575097 0.434577
0.492714 0.577661 0.435401
0.508110 0.585229 0.432502
0.526818 0.593194 0.428870
0.549096 0.601404 0.424720
0.573236 0.608240 0.420569
0.597131 0.611902 0.416297
0.622858 0.615229 0.409796
0.643946 0.612238 0.402472
0.667659 0.607630 0.389197
0.683070 0.603571 0.397650
0.696468 0.600580 0.407568
0.709194 0.598596 0.417243
0.721431 0.597528 0.426276
0.732937 0.597436 0.435401
0.743984 0.597925 0.444190
0.754330 0.599054 0.453040
0.764675 0.600946 0.461830
0.775235 0.602747 0.470283
0.786343 0.604242 0.477760
0.797665 0.606897 0.486030
0.809659 0.610590 0.494728
0.822232 0.615290 0.504173
0.835477 0.621210 0.514702
0.453529 0.598383 0.452522
0.454078 0.598291 0.452613
0.455024 0.598077 0.452522
0.457527 0.597772 0.452583
0.461494 0.597192 0.452827
0.466957 0.596704 0.453407
0.474067 0.596216 0.454292
0.483253 0.595666 0.455421
0.493782 0.595361 0.457374
0.505669 0.595087 0.459632
0.518181 0.600214 0.458350
0.533379 0.607141 0.455299
0.551202 0.614374 0.452033
0.571954 0.621668 0.448066
0.593866 0.626978 0.444221
0.615717 0.630030 0.439887
0.639185 0.632959 0.434119
0.658961 0.630488 0.427283
0.679896 0.625666 0.415961
0.694942 0.621485 0.420813
0.707179 0.618616 0.431128
0.718990 0.616785 0.440375
0.730220 0.615778 0.449622
0.740841 0.615625 0.458808
0.751186 0.616205 0.467628
0.761685 0.617731 0.476417
0.772427 0.620111 0.485237
0.783474 0.623438 0.494362
0.795163 0.626154 0.502678
0.807309 0.629419 0.511345
0.820188 0.633753 0.520531
0.833768 0.639185 0.530449
0.475441 0.617578 0.476783
0.475807 0.617762 0.477119
0.490852 0.629572 0.493080
0.492683 0.629297 0.493172
0.495735 0.628870 0.493355
0.500237 0.628199 0.493385
0.505791 0.627588 0.493874
0.512932 0.626825 0.494575
0.521569 0.626246 0.495705
0.531334 0.625727 0.497444
0.541894 0.626642 0.498451
0.553674 0.632319 0.495796
0.567529 0.638087 0.492653
0.583642 0.643824 0.488777
0.602075 0.649287 0.484108
0.620630 0.652430 0.479927
0.639582 0.654139 0.475380
0.660151 0.655787 0.469245
0.677394 0.653040 0.462348
0.695094 0.647486 0.452247
0.709346 0.643030 0.453223
0.720089 0.639918 0.462257
0.730373 0.637751 0.470893
0.740414 0.636500 0.479347
0.750515 0.636072 0.487037
0.760708 0.636500 0.494484
0.771115 0.637842 0.502098
0.781979 0.640223 0.510094
0.793454 0.643610 0.518517
0.805509 0.648035 0.527947
0.818448 0.651881 0.536522
0.832181 0.656733 0.546075
0.499092 0.638209 0.503868
0.500389 0.639307 0.505394
0.502708 0.640253 0.506859
0.505425 0.640955 0.508202
0.509026 0.641291 0.509422
0.513054 0.641108 0.509972
0.517998 0.640620 0.510491
0.524041 0.639887 0.510948
0.531334 0.639216 0.511711
0.539757 0.638605 0.512963
0.549126 0.638025 0.514488
0.558984 0.641230 0.513573
0.570336 0.646235 0.510887
0.583703 0.651362 0.508049
0.598962 0.656367 0.504265
0.616175 0.661280 0.499763
0.633356 0.663691 0.496651
0.651209 0.665492 0.492653
0.670527 0.667323 0.487709
0.687160 0.665400 0.482277
0.703120 0.660426 0.474556
0.717678 0.656794 0.474311
0.727810 0.654170 0.483284
0.737942 0.652491 0.491737
0.748135 0.651637 0.499397
0.758328 0.651728 0.507042
0.768765 0.652674 0.514458
0.779629 0.654627 0.522423
0.791135 0.657679 0.530846
0.803311 0.661921 0.540032
0.816312 0.667292 0.549828
0.830167 0.672908 0.559869
0.514366 0.651698 0.521874
0.515740 0.652583 0.523217
0.517723 0.653559 0.524834
0.520287 0.654261 0.526268
0.523461 0.654658 0.527367
0.527062 0.654536 0.528008
0.531273 0.654078 0.528344
0.536461 0.653468 0.528771
0.542687 0.652735 0.529229
0.549828 0.652155 0.530175
0.557946 0.651484 0.531212
0.566827 0.651362 0.532280
0.576135 0.655726 0.530053
0.587213 0.660243 0.527794
0.600000 0.664790 0.524804
0.614466 0.669276 0.521324
0.630640 0.673610 0.517327
0.646265 0.675410 0.514733
0.663020 0.677150 0.511620
0.681056 0.678950 0.507500
0.696590 0.677485 0.503197
0.710964 0.672938 0.497047
0.726009 0.670161 0.495125
0.736172 0.668208 0.504021
0.746242 0.667109 0.512169
0.756527 0.666835 0.519615
0.767056 0.667445 0.526940
0.777951 0.669032 0.534722
0.789517 0.671778 0.542931
0.801785 0.675715 0.551965
0.814878 0.680720 0.561730
0.828824 0.686793 0.571984
0.529717 0.664576 0.539971
0.530968 0.665278 0.541222
0.532708 0.666041 0.542412
0.534783 0.666651 0.543694
0.537469 0.666957 0.544762
0.540581 0.666804 0.545281
0.544305 0.666438 0.545647
0.548669 0.665919 0.545892
0.553948 0.665370 0.546471
0.560266 0.664759 0.547173
0.567254 0.664118 0.548028
0.575097 0.663478 0.549187
0.583185 0.665217 0.548638
0.592432 0.669215 0.546654
0.603235 0.673304 0.544274
0.615442 0.677455 0.541741
0.629358 0.681697 0.538964
0.644739 0.685725 0.536187
0.659571 0.687770 0.535210
0.675593 0.689967 0.533715
0.692775 0.692378 0.531731
0.708064 0.692134 0.529351
0.721736 0.688838 0.525658
0.738033 0.687739 0.523278
0.748623 0.686915 0.532250
0.759304 0.686946 0.540368
0.770169 0.687770 0.548333
0.781491 0.689479 0.556237
0.793454 0.692317 0.564630
0.806119 0.696223 0.573693
0.819577 0.701167 0.583246
0.833860 0.707149 0.593469
0.550988 0.681209 0.565545
0.551507 0.681453 0.566033
0.552300 0.681636 0.566522
0.553552 0.681636 0.566735
0.555261 0.681422 0.566735
0.557427 0.681056 0.566857
0.560327 0.680568 0.566857
0.564141 0.680018 0.567010
0.568627 0.679469 0.567254
0.573877 0.678981 0.567803
0.580011 0.678431 0.568627
0.586755 0.677852 0.569635
0.593988 0.677150 0.570520
0.601617 0.680476 0.569024
0.610498 0.684047 0.567132
0.620661 0.687709 0.564996
0.632166 0.691371 0.562585
0.645045 0.695155 0.560113
0.659144 0.698604 0.557733
0.673060 0.700587 0.556817
0.688136 0.702754 0.555138
0.704189 0.705043 0.553033
0.718624 0.705013 0.550622
0.731167 0.701839 0.546960
0.747982 0.701411 0.543175
0.758663 0.701228 0.551720
0.769680 0.701869 0.559960
0.781094 0.703548 0.568078
0.793149 0.706233 0.576654
0.805936 0.709895 0.585443
0.819394 0.714626 0.594965
0.833768 0.720363 0.605097
0.565118 0.691951 0.582696
0.565515 0.692164 0.583154
0.566217 0.692287 0.583429
0.567315 0.692348 0.583764
0.568780 0.692164 0.583795
0.570703 0.691890 0.583825
0.573236 0.691463 0.583856
0.576379 0.691035 0.583978
0.580316 0.690578 0.584314
0.585016 0.690089 0.584833
0.590326 0.689631 0.585565
0.596216 0.689082 0.586236
0.602564 0.688533 0.587121
0.609369 0.689448 0.587030
0.616876 0.692683 0.585779
0.625483 0.696101 0.584131
0.635431 0.699794 0.582391
0.646845 0.703670 0.580407
0.659663 0.707790 0.578424
0.673121 0.711147 0.576959
0.686549 0.713466 0.576471
0.701045 0.715938 0.575555
0.716487 0.718502 0.574121
0.730526 0.719081 0.572351
0.740108 0.713710 0.565148
0.757412 0.714107 0.560906
0.768734 0.714687 0.569055
0.780209 0.716182 0.577539
0.792386 0.718685 0.586236
0.805234 0.722286 0.595300
0.818936 0.727016 0.605158
0.833585 0.732784 0.615442
0.582361 0.704799 0.603815
0.582971 0.705135 0.604486
0.583490 0.705318 0.604852
0.584161 0.705104 0.604700
0.585046 0.704738 0.604334
0.586328 0.704128 0.603815
0.587945 0.703395 0.603143
0.590173 0.702632 0.602686
0.592920 0.701839 0.602197
0.596551 0.701076 0.602075
0.600641 0.700252 0.601892
0.605402 0.699519 0.602167
0.610742 0.698695 0.602380
0.616419 0.697871 0.602533
0.622583 0.700130 0.601129
0.629694 0.703151 0.599359
0.638117 0.706477 0.597375
0.647852 0.710109 0.595483
0.659113 0.714137 0.593744
0.671931 0.718502 0.592065
0.684962 0.721859 0.591485
0.698177 0.724453 0.591608
0.712184 0.727016 0.590967
0.727016 0.729519 0.589349
0.740322 0.730068 0.587457
0.751156 0.727169 0.584863
0.768093 0.728206 0.581262
0.780453 0.729397 0.587762
0.792477 0.731502 0.596185
0.805234 0.734798 0.605188
0.818906 0.739193 0.614801
0.833249 0.744320 0.624323
0.593713 0.714290 0.617731
0.594293 0.714656 0.618311
0.594842 0.714839 0.618647
0.595575 0.714839 0.618860
0.596582 0.714626 0.618769
0.597986 0.714290 0.618708
0.599725 0.713954 0.618677
0.602075 0.713558 0.618677
0.604944 0.713161 0.618830
0.608362 0.712703 0.618982
0.612299 0.712184 0.619287
0.616693 0.711666 0.619623
0.621485 0.711055 0.620111
0.626642 0.710262 0.620294
0.632013 0.710567 0.619928
0.638178 0.713497 0.618402
0.645411 0.716701 0.616754
0.653956 0.720241 0.614954
0.663783 0.724178 0.613519
0.675105 0.728511 0.612055
0.687800 0.733120 0.610651
0.700404 0.736294 0.610681
0.713283 0.739040 0.610925
0.726925 0.741787 0.610681
0.741329 0.744533 0.609705
0.754574 0.745602 0.608515
0.764920 0.743282 0.607080
0.781918 0.745205 0.604974
0.796017 0.747677 0.610925
0.808804 0.750759 0.619776
0.822293 0.754604 0.628351
0.836790 0.759487 0.637446
0.607568 0.726711 0.634516
0.607843 0.726925 0.634882
0.608270 0.726986 0.635035
0.608820 0.726925 0.635096
0.609674 0.726680 0.634974
0.610773 0.726375 0.634882
0.612329 0.725978 0.634607
0.614343 0.725521 0.634577
0.616785 0.725093 0.634546
0.619806 0.724666 0.634730
0.623285 0.724147 0.634882
0.627253 0.723690 0.635218
0.631556 0.723140 0.635584
0.636225 0.722438 0.635767
0.641077 0.721614 0.635950
0.646479 0.723629 0.634943
0.652857 0.726772 0.633478
0.660456 0.730282 0.632044
0.669215 0.734157 0.630823
0.679347 0.738399 0.629725
0.690822 0.742977 0.628534
0.703548 0.747768 0.627405
0.715663 0.750607 0.627893
0.728328 0.753414 0.628016
0.741543 0.756191 0.627924
0.755642 0.758968 0.627253
0.768582 0.760342 0.626581
0.778408 0.758145 0.625757
0.795071 0.760372 0.624323
0.810391 0.763607 0.629267
0.823941 0.767361 0.637934
0.838651 0.772152 0.646815
0.619501 0.739040 0.649073
0.619776 0.739193 0.649287
0.620233 0.739284 0.649470
0.620844 0.739284 0.649592
0.621759 0.739254 0.649683
0.623133 0.739254 0.649989
0.625147 0.739498 0.650599
0.627649 0.739773 0.651362
0.630701 0.740200 0.652461
0.634302 0.740627 0.653590
0.638392 0.741115 0.654902
0.642756 0.741512 0.656153
0.647517 0.741756 0.657313
0.652338 0.741787 0.658350
0.657343 0.741573 0.659113
0.662531 0.741817 0.659266
0.668544 0.745144 0.658228
0.675441 0.748745 0.657221
0.683558 0.752712 0.656336
0.692958 0.757046 0.655482
0.703487 0.761654 0.654658
0.715267 0.766506 0.653803
0.727932 0.771145 0.653010
0.739803 0.773983 0.653590
0.752163 0.776638 0.653803
0.765133 0.779324 0.653712
0.778927 0.782040 0.653254
0.791592 0.783444 0.652827
0.800809 0.781308 0.652888
0.817350 0.783902 0.652277
0.834318 0.788296 0.656977
0.849424 0.792966 0.665278
0.637171 0.758755 0.670008
0.637171 0.758755 0.670008
0.637415 0.758694 0.670008
0.637812 0.758541 0.669947
0.638544 0.758328 0.669825
0.639551 0.758083 0.669764
0.640986 0.757870 0.669856
0.642878 0.757656 0.669947
0.645136 0.757534 0.670222
0.647913 0.757382 0.670558
0.651118 0.757321 0.671015
0.654749 0.757168 0.671504
0.658717 0.757015 0.672053
0.663050 0.756741 0.672511
