20 Preset/Natural Girl/【3】LUT video cho PR-AE-FCPX/Lut Tone  (9).cube
# Created by Adobe Lightroom plugin Export LUT (1.24.0)
# www.johnrellis.com/lightroom/exportlut.htm
# Preset: 自然胶片-素材江湖（原版）02
# Color profile: C:\Program Files (x86)\Common Files\Adobe\Color\Profiles\Recommended\VideoHD.icc
LUT_3D_SIZE 32
DOMAIN_MIN 0.0 0.0 0.0
DOMAIN_MAX 1.0 1.0 1.0
0.000000 0.000000 0.000000
0.028351 0.001221 0.001526
0.094972 0.003937 0.004028
0.129427 0.018891 0.009735
0.164187 0.036042 0.019654
0.209445 0.038392 0.034302
0.259525 0.032441 0.048951
0.310613 0.018402 0.060243
0.360204 0.000000 0.066255
0.407385 0.000000 0.072053
0.452247 0.000000 0.075715
0.493904 0.000000 0.078492
0.532616 0.000000 0.080537
0.568017 0.000000 0.083742
0.600244 0.000000 0.088472
0.629419 0.000000 0.092195
0.655756 0.024201 0.097475
0.679835 0.083986 0.104158
0.701808 0.110933 0.111269
0.724544 0.136538 0.120455
0.747829 0.161501 0.131106
0.767514 0.183993 0.141726
0.784176 0.203403 0.152560
0.798734 0.221256 0.162936
0.811673 0.237095 0.172885
0.823362 0.252232 0.183078
0.834318 0.266728 0.193362
0.844877 0.281132 0.203830
0.856046 0.295598 0.214694
0.868040 0.311040 0.226413
0.881102 0.327031 0.238621
0.895171 0.344244 0.252140
0.005890 0.019409 0.001770
0.024933 0.019593 0.000000
0.092500 0.022522 0.007294
0.127993 0.034058 0.011200
0.163272 0.046632 0.022827
0.207675 0.050111 0.036378
0.256901 0.044739 0.050141
0.307134 0.029755 0.060822
0.356542 0.010925 0.067903
0.403479 0.000000 0.072786
0.447913 0.000000 0.076692
0.489662 0.000000 0.078614
0.528283 0.000000 0.080903
0.563928 0.000000 0.084230
0.596338 0.000000 0.088441
0.625940 0.000000 0.092103
0.652583 0.036011 0.097444
0.676905 0.088258 0.103975
0.699001 0.112551 0.111147
0.721645 0.136629 0.119692
0.744259 0.160647 0.129763
0.763577 0.181521 0.140078
0.780087 0.200504 0.150240
0.794675 0.217777 0.160250
0.807706 0.233494 0.169986
0.819577 0.248142 0.179751
0.830838 0.262486 0.189578
0.841581 0.276860 0.200259
0.852811 0.291264 0.210941
0.864805 0.306554 0.222446
0.877867 0.322728 0.234867
0.891997 0.339818 0.248020
0.035065 0.079713 0.012055
0.053895 0.080446 0.014923
0.098909 0.084199 0.000336
0.130495 0.083528 0.006073
0.162203 0.087404 0.035889
0.206729 0.089845 0.049134
0.255955 0.088014 0.059480
0.305547 0.080903 0.065370
0.354559 0.067414 0.071077
0.401221 0.046662 0.075196
0.445624 0.027344 0.077028
0.487221 0.010925 0.078859
0.525689 0.003113 0.081178
0.561212 0.005158 0.084535
0.593805 0.016144 0.088746
0.623285 0.047395 0.092836
0.650202 0.085481 0.098329
0.674617 0.106813 0.104707
0.696925 0.126162 0.111543
0.719966 0.146944 0.120333
0.742184 0.168215 0.130068
0.761196 0.187778 0.140230
0.777646 0.205173 0.150179
0.792294 0.221347 0.159945
0.805356 0.236118 0.169497
0.817380 0.249912 0.179080
0.828702 0.263890 0.188846
0.839567 0.277775 0.199100
0.850797 0.291875 0.209781
0.862852 0.306981 0.221286
0.875883 0.322454 0.233371
0.889952 0.339361 0.246586
0.082704 0.112520 0.038544
0.088808 0.112825 0.038178
0.104402 0.114504 0.033051
0.134157 0.118929 0.005951
0.175814 0.120180 0.004089
0.211307 0.119905 0.053040
0.256352 0.121279 0.071687
0.305180 0.119875 0.074769
0.354192 0.115999 0.077058
0.400549 0.110872 0.077668
0.444617 0.105928 0.078920
0.485573 0.101198 0.080507
0.523919 0.098634 0.082948
0.559075 0.099977 0.086336
0.591241 0.103883 0.090333
0.620569 0.111818 0.094667
0.647120 0.122377 0.100587
0.671290 0.135714 0.106569
0.693538 0.149386 0.113527
0.716670 0.165713 0.122255
0.737819 0.182223 0.131228
0.756344 0.198459 0.141024
0.772885 0.213718 0.150484
0.787961 0.228428 0.159945
0.801785 0.242283 0.169284
0.814450 0.256077 0.179171
0.826444 0.269718 0.189425
0.837858 0.283146 0.199985
0.849332 0.296941 0.210697
0.861509 0.311376 0.222202
0.874388 0.326421 0.234165
0.888151 0.342351 0.246769
0.097749 0.149691 0.063752
0.101961 0.149599 0.064698
0.117983 0.149264 0.067231
0.138491 0.155489 0.040528
0.177249 0.162844 0.003204
0.225711 0.163424 0.000000
0.271153 0.160494 0.023835
0.304265 0.158511 0.078553
0.351293 0.157290 0.080537
0.397467 0.154879 0.080659
0.440925 0.151736 0.080659
0.482124 0.148836 0.082368
0.520195 0.147524 0.085664
0.555627 0.148104 0.089113
0.587945 0.150271 0.093324
0.617487 0.155154 0.098207
0.644495 0.161440 0.103578
0.669001 0.169955 0.110170
0.691829 0.179843 0.117403
0.715114 0.192386 0.126101
0.735592 0.205478 0.134981
0.753780 0.218448 0.144320
0.770199 0.231144 0.153536
0.785489 0.243381 0.162783
0.799466 0.255711 0.172152
0.812375 0.268254 0.181857
0.824552 0.280522 0.191897
0.835996 0.292851 0.202243
0.847471 0.305516 0.212924
0.859556 0.318975 0.223880
0.872435 0.332921 0.235447
0.886076 0.347875 0.247807
0.105562 0.192721 0.071504
0.109102 0.192996 0.070985
0.125002 0.192081 0.074128
0.146731 0.193973 0.065675
0.178286 0.204166 0.024903
0.225437 0.212467 0.000000
0.277104 0.213291 0.000000
0.329900 0.209293 0.000000
0.363439 0.202426 0.033753
0.397375 0.200717 0.083619
0.440772 0.198581 0.084382
0.481788 0.196536 0.086885
0.519646 0.195468 0.089845
0.554772 0.195590 0.093355
0.587182 0.196475 0.097871
0.616693 0.199191 0.103456
0.643610 0.203067 0.109346
0.668147 0.208560 0.116335
0.692561 0.216312 0.123751
0.715114 0.225498 0.132723
0.735073 0.235325 0.141604
0.753017 0.245365 0.150637
0.790219 0.278202 0.175418
0.803830 0.288853 0.185733
0.816068 0.298894 0.195621
0.827298 0.308995 0.205661
0.837827 0.318975 0.215915
0.848600 0.329442 0.225742
0.859892 0.340551 0.236027
0.871855 0.352300 0.246708
0.884398 0.364813 0.257877
0.897673 0.377905 0.269444
0.107729 0.247807 0.064179
0.112276 0.247623 0.064118
0.130312 0.246677 0.066407
0.158236 0.245365 0.068879
0.186526 0.252445 0.036713
0.229038 0.263706 0.000000
0.282048 0.271946 0.000000
0.337407 0.272465 0.000000
0.389471 0.267277 0.000000
0.430060 0.258854 0.000000
0.460517 0.253025 0.042420
0.493263 0.252445 0.094240
0.530632 0.250584 0.098146
0.564691 0.249363 0.102602
0.595758 0.248905 0.107912
0.623865 0.249271 0.113924
0.649775 0.250645 0.119814
0.675380 0.255009 0.127779
0.700496 0.261875 0.136934
0.722988 0.269169 0.146426
0.743587 0.277592 0.156252
0.762600 0.286717 0.166598
0.779995 0.296391 0.177310
0.795621 0.306462 0.188205
0.809567 0.315984 0.198795
0.821683 0.325200 0.209201
0.832761 0.333684 0.218875
0.843687 0.342473 0.228428
0.855009 0.352087 0.238224
0.866819 0.362310 0.248325
0.879301 0.373388 0.258946
0.892485 0.385321 0.269993
0.115663 0.291478 0.060761
0.120729 0.291325 0.061799
0.136507 0.290593 0.062959
0.163912 0.289097 0.066194
0.193881 0.290043 0.055909
0.227573 0.299718 0.000366
0.272984 0.311223 0.000000
0.326818 0.318212 0.000000
0.380774 0.319402 0.000000
0.430976 0.314153 0.000000
0.476326 0.307530 0.000000
0.504936 0.298955 0.000000
0.531518 0.296483 0.089815
0.560571 0.296025 0.113680
0.591485 0.294163 0.118776
0.619562 0.292851 0.124605
0.647242 0.294072 0.131533
0.673548 0.296910 0.139437
0.697078 0.300267 0.147646
0.718532 0.304631 0.156466
0.738491 0.310002 0.165286
0.757259 0.316228 0.174777
0.774472 0.323369 0.184970
0.790158 0.330816 0.195010
0.804196 0.338384 0.205386
0.816648 0.345434 0.214939
0.827878 0.352331 0.224521
0.838956 0.359503 0.233310
0.850462 0.367498 0.242741
0.862333 0.376440 0.252445
0.874937 0.386023 0.262303
0.888182 0.396765 0.273136
0.131746 0.333135 0.067842
0.135225 0.333013 0.067781
0.148775 0.332280 0.070375
0.172732 0.331090 0.073640
0.204227 0.328771 0.079225
0.232975 0.334905 0.035126
0.269139 0.344244 0.000000
0.316075 0.355474 0.000000
0.368231 0.361517 0.000000
0.420752 0.362799 0.000000
0.469551 0.358953 0.000000
0.512963 0.352209 0.000000
0.544640 0.343725 0.000000
0.568658 0.338476 0.046296
0.590723 0.338201 0.123354
0.618952 0.339422 0.140841
0.646540 0.339269 0.147494
0.671290 0.339330 0.154452
0.693843 0.340185 0.161593
0.714748 0.341985 0.169314
0.734310 0.344854 0.177432
0.752621 0.348974 0.186587
0.769680 0.353582 0.195926
0.785214 0.358862 0.205386
0.799283 0.364172 0.214755
0.811856 0.369329 0.223728
0.823270 0.374426 0.232517
0.834531 0.380163 0.241123
0.846159 0.386603 0.249973
0.858244 0.393866 0.258976
0.870848 0.402228 0.268498
0.884154 0.411475 0.278599
0.150637 0.372076 0.085634
0.154269 0.371771 0.085847
0.165042 0.371069 0.086976
0.186191 0.369757 0.088472
0.212924 0.367803 0.090455
0.242466 0.367803 0.084413
0.271519 0.375555 0.018402
0.309300 0.384802 0.000000
0.355932 0.394873 0.000000
0.405829 0.400061 0.000000
0.455909 0.401465 0.000000
0.502708 0.399023 0.000000
0.543389 0.392004 0.000000
0.580102 0.386481 0.000000
0.604089 0.380743 0.000000
0.625513 0.379431 0.116243
0.644678 0.382330 0.162966
0.668391 0.381598 0.172519
0.690761 0.380743 0.178866
0.711360 0.380652 0.186099
0.730343 0.381262 0.192966
0.747890 0.382666 0.200473
0.764096 0.384588 0.208438
0.779049 0.387060 0.216190
0.792782 0.389807 0.224155
0.805295 0.392920 0.232090
0.816922 0.396338 0.240177
0.828489 0.400427 0.248295
0.840452 0.405646 0.256779
0.852873 0.411841 0.265690
0.865843 0.419135 0.274815
0.879545 0.427466 0.284764
0.172091 0.405768 0.099794
0.174105 0.405585 0.099886
0.183474 0.405158 0.100252
0.200870 0.404150 0.101106
0.224582 0.402533 0.102754
0.253239 0.400336 0.105379
0.279240 0.405341 0.084932
0.309941 0.413275 0.003784
0.348333 0.422339 0.000000
0.394171 0.432197 0.000000
0.443366 0.438117 0.000000
0.492836 0.441627 0.000000
0.538415 0.441016 0.000000
0.576532 0.433631 0.000000
0.611048 0.427344 0.000000
0.634760 0.420142 0.000000
0.653559 0.416449 0.103944
0.670283 0.416754 0.160922
0.686183 0.419654 0.198520
0.706355 0.417853 0.204166
0.725093 0.416571 0.210147
0.742519 0.416175 0.216434
0.758633 0.416449 0.223270
0.773587 0.417060 0.230289
0.787381 0.418128 0.237369
0.800015 0.419715 0.244663
0.811887 0.421607 0.252018
0.823667 0.424414 0.259586
0.835813 0.428260 0.267155
0.848447 0.433082 0.275395
0.861631 0.439094 0.284092
0.875425 0.446174 0.293309
0.194491 0.438911 0.115572
0.196963 0.438727 0.115633
0.203677 0.438453 0.115602
0.218173 0.437568 0.117220
0.238895 0.436255 0.118196
0.264683 0.434882 0.120485
0.291844 0.435828 0.116182
0.318120 0.443458 0.089631
0.350561 0.452277 0.000000
0.389715 0.461799 0.000000
0.435157 0.471748 0.000000
0.480934 0.476081 0.000000
0.547997 0.498878 0.000000
0.591272 0.498512 0.000000
0.625360 0.490150 0.000000
0.655756 0.482185 0.000000
0.679957 0.474372 0.000000
0.695796 0.468544 0.109865
0.709712 0.466560 0.175021
0.722133 0.467750 0.220066
0.734951 0.469123 0.247868
0.750668 0.466072 0.252659
0.765133 0.463630 0.257603
0.778592 0.461860 0.263035
0.791073 0.460548 0.268589
0.802731 0.459663 0.273930
0.814298 0.459358 0.279149
0.825864 0.460060 0.284611
0.837705 0.461769 0.290715
0.850065 0.464637 0.297246
0.862974 0.468605 0.304234
0.876646 0.473884 0.312108
0.229038 0.483162 0.142031
0.230137 0.483009 0.141665
0.236362 0.482216 0.142458
0.248264 0.481147 0.142336
0.265202 0.479438 0.143282
0.286778 0.477302 0.144472
0.312749 0.474861 0.146151
0.335790 0.479042 0.131960
0.362951 0.486305 0.104738
0.396094 0.494697 0.018311
0.435340 0.504295 0.000000
0.480323 0.514672 0.000000
0.524895 0.519615 0.000000
0.569512 0.523186 0.000000
0.610956 0.524132 0.000000
0.643214 0.517021 0.000000
0.670985 0.508782 0.000000
0.696040 0.501183 0.000000
0.711299 0.494057 0.088075
0.723873 0.490333 0.166812
0.734829 0.489448 0.215671
0.744594 0.491249 0.255100
0.756497 0.491035 0.273564
0.770291 0.488167 0.277775
0.783078 0.485786 0.282322
0.795132 0.483955 0.286992
0.807126 0.482887 0.291905
0.819181 0.482734 0.296849
0.831449 0.483558 0.302281
0.844236 0.485634 0.308232
0.857481 0.488777 0.314733
0.871366 0.493141 0.322332
0.253788 0.511009 0.162448
0.254612 0.510735 0.162234
0.259525 0.509880 0.162448
0.268620 0.508537 0.162234
0.282444 0.506676 0.162173
0.300664 0.504326 0.162753
0.322759 0.501823 0.163882
0.346197 0.501061 0.160311
0.368505 0.507073 0.141573
0.395880 0.514244 0.113741
0.428870 0.522515 0.038025
0.467018 0.531487 0.000000
0.509514 0.540795 0.000000
0.550530 0.544457 0.000000
0.591089 0.547143 0.000000
0.629450 0.547692 0.000000
0.659297 0.540948 0.000000
0.684565 0.532403 0.000000
0.707790 0.524743 0.000000
0.724971 0.517235 0.025055
0.736477 0.512047 0.158175
0.746731 0.510033 0.211643
0.755886 0.510521 0.253208
0.764157 0.513115 0.288670
0.775906 0.511559 0.299107
0.788296 0.508995 0.302953
0.800656 0.507164 0.306889
0.813046 0.506188 0.311070
0.825681 0.506218 0.315862
0.838712 0.507500 0.321202
0.852262 0.509819 0.327276
0.866392 0.513451 0.334234
0.276829 0.534966 0.182071
0.277806 0.534691 0.182040
0.281132 0.533959 0.181888
0.288579 0.532647 0.181277
0.300237 0.530694 0.181094
0.315526 0.528374 0.181064
0.334447 0.525872 0.181582
0.356573 0.523278 0.182559
0.376837 0.526390 0.171725
0.399847 0.532555 0.152499
0.427527 0.539727 0.125978
0.459937 0.547662 0.073915
0.495949 0.555840 0.000000
0.535637 0.563897 0.000000
0.573083 0.566308 0.000000
0.610132 0.568017 0.000000
0.645930 0.568597 0.000000
0.673915 0.562737 0.000000
0.697414 0.553887 0.000000
0.718654 0.545800 0.000000
0.737392 0.538354 0.000000
0.748348 0.532494 0.148501
0.758022 0.529412 0.207095
0.766690 0.528832 0.251133
0.774380 0.530236 0.287999
0.781704 0.533471 0.320043
0.794400 0.531182 0.323400
0.807187 0.529900 0.327245
0.820371 0.529564 0.331640
0.834012 0.530510 0.336736
0.848112 0.532616 0.342809
0.862852 0.535943 0.349767
0.297642 0.555077 0.200046
0.298589 0.555016 0.200320
0.301854 0.554589 0.200168
0.308019 0.553735 0.200015
0.318090 0.552453 0.199954
0.331487 0.550805 0.200229
0.348394 0.549096 0.200900
0.368109 0.547173 0.202060
0.388983 0.546624 0.200412
0.408423 0.551934 0.186130
0.431678 0.557733 0.167605
0.458473 0.564050 0.141421
0.488594 0.570611 0.100343
0.522026 0.577081 0.000000
0.557641 0.583062 0.000000
0.591547 0.584283 0.000000
0.625696 0.585382 0.000000
0.659632 0.586297 0.000000
0.686427 0.581476 0.000000
0.708125 0.572625 0.000000
0.728084 0.564630 0.000000
0.746548 0.557488 0.000000
0.759396 0.551354 0.137118
0.768765 0.547723 0.202060
0.777218 0.546532 0.248966
0.785245 0.547601 0.287694
0.792935 0.550713 0.321752
0.802121 0.553765 0.345495
0.815579 0.553002 0.349157
0.829374 0.553307 0.353491
0.843534 0.554620 0.358587
0.858274 0.557061 0.364446
0.317144 0.573022 0.217380
0.318120 0.572900 0.217411
0.320348 0.572595 0.217350
0.325963 0.571923 0.217258
0.334417 0.570916 0.217502
0.346044 0.569635 0.217624
0.360815 0.568109 0.218235
0.378119 0.566369 0.218936
0.397681 0.564416 0.220066
0.415747 0.566949 0.212375
0.435340 0.572015 0.197757
0.458106 0.577539 0.179171
0.483925 0.583307 0.154116
0.512505 0.589136 0.116213
0.543938 0.594842 0.000000
0.577020 0.599786 0.000000
0.608576 0.600824 0.000000
0.640497 0.601831 0.000000
0.672511 0.602777 0.000000
0.698390 0.598932 0.000000
0.718837 0.590478 0.000000
0.737728 0.582544 0.000000
0.755154 0.575494 0.006317
0.769955 0.569238 0.123018
0.779416 0.565393 0.196048
0.788357 0.564019 0.246098
0.796902 0.564996 0.286839
0.805173 0.568048 0.322545
0.813443 0.572961 0.355169
0.824949 0.575891 0.371466
0.839445 0.576776 0.375921
0.854398 0.578729 0.381170
0.337560 0.590723 0.235874
0.337987 0.590784 0.236057
0.353643 0.600855 0.248661
0.358160 0.600275 0.248692
0.365118 0.599359 0.248600
0.374731 0.598138 0.248417
0.386816 0.596612 0.248600
0.401495 0.594842 0.248875
0.418463 0.592889 0.249393
0.436469 0.591791 0.248539
0.452827 0.595972 0.237186
0.471870 0.600549 0.223026
0.493324 0.605188 0.204623
0.517357 0.609918 0.180941
0.543664 0.614496 0.147463
0.572045 0.618891 0.091157
0.601892 0.622156 0.000000
0.630701 0.622248 0.000000
0.659663 0.622400 0.000000
0.688716 0.622339 0.000000
0.713405 0.618830 0.000000
0.732662 0.610773 0.000000
0.749935 0.602594 0.000000
0.766293 0.595331 0.080659
0.782223 0.589136 0.123812
0.792569 0.584802 0.192081
0.801419 0.582971 0.244083
0.810025 0.583368 0.286259
0.818662 0.585992 0.323308
0.827420 0.590692 0.357092
0.836362 0.597131 0.388830
0.850401 0.599817 0.398291
0.360143 0.609796 0.257328
0.361639 0.610651 0.258457
0.364904 0.611353 0.259709
0.370062 0.611688 0.260655
0.376898 0.611597 0.261509
0.385534 0.610773 0.261875
0.396307 0.609491 0.261997
0.409308 0.607843 0.261967
0.424079 0.606043 0.262303
0.440711 0.604059 0.262821
0.456214 0.605707 0.256687
0.472663 0.609674 0.245212
0.491188 0.613916 0.230564
0.512016 0.618189 0.212039
0.534844 0.622431 0.188693
0.559930 0.626551 0.156405
0.586877 0.630549 0.105196
0.615045 0.633448 0.000000
0.642542 0.633783 0.000000
0.670253 0.634241 0.000000
0.698024 0.634607 0.000000
0.722438 0.632166 0.000000
0.741268 0.625116 0.000000
0.758114 0.617304 0.000000
0.774380 0.610681 0.094057
0.790494 0.605127 0.129976
0.803677 0.600916 0.178134
0.813046 0.599084 0.235966
0.822354 0.599695 0.281041
0.831693 0.602472 0.320439
0.841154 0.607324 0.356390
0.850919 0.613977 0.390021
0.375006 0.622858 0.271397
0.376623 0.623651 0.272648
0.379583 0.624445 0.273747
0.384070 0.624842 0.274876
0.390173 0.624842 0.275761
0.397986 0.624201 0.276127
0.407202 0.623133 0.276188
0.418585 0.621668 0.276158
0.431952 0.619989 0.276402
0.446662 0.618097 0.276646
0.462440 0.616602 0.276036
0.476509 0.620203 0.266209
0.492470 0.623896 0.254002
0.510521 0.627771 0.239109
0.530632 0.631556 0.221042
0.552514 0.635340 0.197879
0.576349 0.639063 0.166964
0.601831 0.642634 0.120150
0.628473 0.645045 0.019776
0.654536 0.645502 0.000000
0.680812 0.645991 0.000000
0.707332 0.646509 0.000000
0.731197 0.644831 0.000000
0.750149 0.638911 0.000000
0.766812 0.631891 0.000000
0.783230 0.625971 0.101076
0.799557 0.620996 0.134035
0.815610 0.617182 0.158755
0.825711 0.615656 0.224979
0.835752 0.616480 0.274418
0.845884 0.619501 0.316808
0.856107 0.624567 0.354925
0.389807 0.635920 0.285710
0.391180 0.636622 0.286748
0.393652 0.637201 0.287938
0.397650 0.637537 0.288853
0.402991 0.637507 0.289677
0.409735 0.636957 0.289891
0.418006 0.635981 0.289830
0.428138 0.634730 0.289860
0.439765 0.633326 0.289952
0.453254 0.631617 0.290166
0.467994 0.629725 0.290440
0.481788 0.630671 0.285588
0.495644 0.633967 0.275242
0.511284 0.637293 0.263005
0.528893 0.640803 0.248173
0.548150 0.644343 0.230045
0.569360 0.647974 0.207797
0.592523 0.651637 0.178439
0.617212 0.655299 0.137453
0.642878 0.657832 0.093690
0.668177 0.658717 0.063661
0.693568 0.659663 0.014435
0.719081 0.660609 0.000000
0.743343 0.660395 0.000000
0.763088 0.656489 0.000000
0.780209 0.650629 0.062196
0.797086 0.645808 0.122927
0.814023 0.641993 0.150820
0.831205 0.639246 0.170443
0.844388 0.638239 0.221378
0.855283 0.639582 0.275395
0.866209 0.643061 0.320806
0.410529 0.652674 0.306981
0.411231 0.652918 0.307469
0.412726 0.652979 0.307927
0.415473 0.652796 0.307988
0.419593 0.652338 0.307958
0.424994 0.651606 0.307713
0.432258 0.650599 0.307652
0.440986 0.649470 0.307347
0.451423 0.648127 0.307225
0.463325 0.646723 0.307347
0.476478 0.645106 0.307591
0.490791 0.643427 0.307622
0.502708 0.646235 0.298802
0.516442 0.649165 0.288457
0.531579 0.652216 0.275853
0.548516 0.655329 0.261112
0.567010 0.658442 0.243137
0.587121 0.661616 0.221012
0.608850 0.664820 0.193088
0.632227 0.667964 0.154208
0.656397 0.669947 0.120760
0.680293 0.670680 0.107912
0.704463 0.671473 0.089784
0.728725 0.672267 0.034882
0.752926 0.672938 0.000000
0.773159 0.670405 0.000000
0.790433 0.665370 0.072847
0.807767 0.661341 0.125216
0.825284 0.658412 0.151980
0.843107 0.656428 0.170657
0.859525 0.655726 0.201877
0.871183 0.657404 0.263340
0.423896 0.664149 0.321202
0.424445 0.664332 0.321569
0.425879 0.664393 0.321996
0.428229 0.664271 0.322057
0.431983 0.663844 0.322087
0.436866 0.663233 0.321965
0.443214 0.662409 0.321721
0.450965 0.661372 0.321447
0.460212 0.660304 0.321263
0.471046 0.658991 0.321386
0.482948 0.657588 0.321508
0.496162 0.655970 0.321630
0.508415 0.656306 0.317876
0.520378 0.658961 0.308873
0.533745 0.661738 0.298375
0.548730 0.664607 0.285832
0.565087 0.667567 0.270939
0.583093 0.670497 0.253391
0.602625 0.673610 0.231601
0.623804 0.676844 0.204013
0.646693 0.680262 0.166476
0.670008 0.682277 0.139620
0.693172 0.683253 0.129305
0.716487 0.684260 0.115511
0.737850 0.683070 0.082277
0.762142 0.684627 0.000000
0.782712 0.683192 0.000000
0.800717 0.679438 0.057496
0.818540 0.676295 0.120394
0.836698 0.674189 0.147066
0.855283 0.673121 0.165835
0.873960 0.672511 0.177768
0.440284 0.677363 0.339574
0.441077 0.677699 0.340246
0.442359 0.677729 0.340459
0.444129 0.677455 0.340246
0.447028 0.676875 0.339849
0.450935 0.676051 0.339147
0.456001 0.675013 0.338323
0.462409 0.673793 0.337346
0.470222 0.672419 0.336584
0.479286 0.670985 0.335912
0.489631 0.669398 0.335363
0.501152 0.667720 0.334874
0.513695 0.665858 0.334508
0.524041 0.667689 0.326665
0.535546 0.669856 0.316686
0.548302 0.672175 0.305119
0.562707 0.674678 0.291752
0.578607 0.677455 0.276127
0.596277 0.680476 0.257877
0.615595 0.683803 0.235721
0.636500 0.687343 0.207706
0.659022 0.690944 0.169436
0.681605 0.692866 0.145449
0.703853 0.693782 0.135195
0.726223 0.694606 0.121096
0.748714 0.695369 0.102174
0.772854 0.697597 0.038056
0.793545 0.696803 0.000000
0.812375 0.694301 0.033051
0.830503 0.691737 0.110689
0.848844 0.690028 0.136294
0.867613 0.689296 0.152010
0.450446 0.686915 0.350988
0.451240 0.687221 0.351537
0.452369 0.687312 0.351934
0.454292 0.687160 0.352056
0.456977 0.686793 0.351843
0.460792 0.686244 0.351568
0.465675 0.685542 0.351202
0.471870 0.684718 0.350927
0.479286 0.683772 0.350713
0.487953 0.682704 0.350652
0.497566 0.681483 0.350317
0.508385 0.680079 0.350317
0.519890 0.678492 0.350042
0.530907 0.678157 0.346807
0.541009 0.680232 0.338018
0.552361 0.682429 0.327550
0.565148 0.684840 0.315648
0.579370 0.687526 0.301823
0.595270 0.690517 0.285893
0.612696 0.693812 0.267094
0.631800 0.697322 0.244205
0.652308 0.700984 0.215427
0.674311 0.704677 0.176059
0.696315 0.706600 0.155337
0.718074 0.707698 0.145998
0.739895 0.708766 0.134310
0.761929 0.709834 0.118715
0.786282 0.712917 0.088106
0.807248 0.712917 0.000000
0.826780 0.711635 0.013397
0.845212 0.709712 0.099947
0.864012 0.708827 0.123629
0.463569 0.699001 0.365759
0.463966 0.699184 0.365942
0.464851 0.699153 0.366155
0.466499 0.698970 0.366064
0.468879 0.698604 0.365942
0.472267 0.698024 0.365545
0.476600 0.697353 0.365179
0.482063 0.696559 0.364813
0.488655 0.695613 0.364446
0.496529 0.694606 0.364263
0.505364 0.693416 0.364019
0.515129 0.692164 0.363836
0.525780 0.690700 0.363561
0.537041 0.689052 0.363256
0.546685 0.690364 0.356451
0.556817 0.692531 0.346929
0.568261 0.694881 0.336187
0.581018 0.697566 0.323644
0.595422 0.700496 0.309483
0.611292 0.703761 0.292943
0.628687 0.707240 0.273472
0.647608 0.710903 0.249516
0.667689 0.714626 0.218875
0.689296 0.718318 0.176425
0.710628 0.720027 0.157870
0.731594 0.720974 0.147677
0.752773 0.721889 0.134707
0.774105 0.722774 0.118044
0.796902 0.725002 0.086213
0.819333 0.726864 0.000000
0.839689 0.727047 0.000000
0.858701 0.726162 0.017914
0.475135 0.711055 0.378454
0.475410 0.711208 0.378668
0.476295 0.711238 0.378882
0.477852 0.711116 0.379034
0.480232 0.710903 0.379156
0.483680 0.710689 0.379187
0.488350 0.710536 0.379736
0.494209 0.710323 0.380438
0.501091 0.710140 0.381384
0.509209 0.709926 0.382422
0.518273 0.709621 0.383612
0.528130 0.709133 0.384741
0.538720 0.708400 0.385595
0.549676 0.707424 0.386175
0.560540 0.707027 0.384680
0.569787 0.709438 0.376287
0.580102 0.711940 0.366735
0.591699 0.714656 0.355505
0.604730 0.717708 0.343053
0.619165 0.721004 0.328435
0.634882 0.724422 0.311345
0.651911 0.727932 0.290684
0.670314 0.731411 0.265049
0.689906 0.734920 0.232486
0.710780 0.738369 0.187839
0.731319 0.739620 0.171633
0.751797 0.740505 0.161654
0.772427 0.741360 0.149538
0.793210 0.742306 0.134371
0.815274 0.744411 0.108736
0.838315 0.747463 0.007660
0.859648 0.749294 0.000000
0.494240 0.729427 0.400519
0.494301 0.729427 0.400519
0.495064 0.729274 0.400458
0.496101 0.729091 0.400214
0.497993 0.728756 0.400061
0.500908 0.728298 0.399908
0.504601 0.727810 0.399756
0.509361 0.727260 0.399634
0.515099 0.726680 0.399786
0.521843 0.725978 0.399847
0.529503 0.725246 0.400092
0.538109 0.724361 0.400305
0.547448 0.723354 0.400458
0.557336 0.722103 0.400336
