20 Preset/Art Style/【3】LUT video cho PR-AE-FCPX/400H Pastel Soft Cold.cube
# Created by Adobe Lightroom plugin Export LUT (1.24.0)
# www.johnrellis.com/lightroom/exportlut.htm
# Preset: 400H Pastel Soft Cold
# Color profile: E:\lut插件\exportlut.1.24\exportlut.lrplugin\color profiles\Rec709gamma2.4.icc
LUT_3D_SIZE 5
DOMAIN_MIN 0.000000 0.000000 0.000000
DOMAIN_MAX 0.903226 0.903226 0.903226
0.048371 0.173342 0.215488
0.101503 0.165225 0.207462
0.539544 0.000000 0.198001
0.911803 0.000000 0.218387
1.000000 0.319677 0.390814
0.000000 0.188846 0.209445
0.110628 0.187533 0.201968
0.502617 0.227176 0.182498
0.899199 0.215427 0.194186
1.000000 0.383642 0.385138
0.000000 0.615259 0.472572
0.000000 0.648402 0.463020
0.554711 0.572473 0.218662
0.854215 0.523247 0.129000
1.000000 0.531762 0.330724
0.613611 0.814054 0.748501
0.629969 0.820768 0.750301
0.712428 0.834653 0.762387
0.804471 0.775448 0.541650
0.948211 0.724971 0.474983
0.814450 0.869413 0.854948
0.817746 0.870542 0.855558
0.827878 0.872831 0.855863
0.844877 0.872862 0.844450
0.900481 0.855711 0.745205
0.007874 0.163180 0.210575
0.066987 0.161898 0.211093
0.498299 0.077241 0.223972
0.876951 0.093141 0.213596
1.000000 0.307530 0.347204
0.000000 0.185000 0.228061
0.100374 0.199100 0.241550
0.493690 0.216617 0.236057
0.868864 0.255558 0.220645
1.000000 0.365026 0.338231
0.000000 0.552636 0.472541
0.000000 0.590387 0.509880
0.511650 0.549828 0.334264
0.828824 0.516930 0.273594
0.998413 0.533410 0.325444
0.594659 0.805081 0.745174
0.640375 0.810727 0.757504
0.724971 0.832670 0.778225
0.793912 0.775265 0.595941
0.937285 0.731228 0.534966
0.809171 0.868223 0.853391
0.819455 0.869047 0.857420
0.835019 0.873289 0.861784
0.851347 0.873838 0.854154
0.899748 0.857786 0.763455
0.000000 0.196933 0.365698
0.000000 0.197940 0.386084
0.351690 0.185183 0.402045
0.830106 0.257115 0.497780
0.980743 0.485756 0.578485
0.000000 0.255589 0.398413
0.000000 0.266972 0.432959
0.390387 0.268864 0.458747
0.821866 0.373938 0.535241
0.971496 0.526299 0.592248
0.000000 0.481086 0.536126
0.000000 0.498726 0.550652
0.460548 0.570886 0.610986
0.780911 0.599756 0.615259
0.944121 0.628534 0.620569
0.484657 0.764401 0.724697
0.534325 0.769253 0.733150
0.697597 0.798672 0.776883
0.769833 0.776974 0.708705
0.907439 0.748959 0.664607
0.771420 0.861936 0.841764
0.786801 0.863157 0.846860
0.835142 0.868193 0.865446
0.862394 0.874662 0.873503
0.891691 0.857572 0.794339
0.000000 0.334905 0.639582
0.000000 0.343450 0.652979
0.387488 0.343267 0.674525
0.694026 0.363958 0.676844
0.900511 0.594293 0.720546
0.000000 0.391760 0.646693
0.000000 0.402045 0.660426
0.393256 0.408453 0.681849
0.688777 0.433539 0.685389
0.893858 0.619593 0.728054
0.000000 0.542565 0.678279
0.000000 0.549828 0.681331
0.439704 0.592309 0.708156
0.693019 0.624933 0.727657
0.885100 0.703182 0.760861
0.359716 0.725368 0.742550
0.406195 0.726711 0.743740
0.554864 0.739010 0.754879
0.735317 0.771054 0.785458
0.884245 0.781674 0.788357
0.684779 0.845792 0.826017
0.701778 0.847318 0.829465
0.767300 0.854490 0.845518
0.859098 0.868772 0.878813
0.883391 0.860014 0.841001
0.465370 0.647120 0.820218
0.497505 0.650507 0.821622
0.585779 0.645502 0.823545
0.735042 0.630182 0.828031
0.865507 0.647089 0.817411
0.475380 0.662867 0.819455
0.505394 0.665644 0.820920
0.594354 0.665492 0.824125
0.734401 0.652186 0.828855
0.862303 0.667567 0.820218
0.491432 0.708217 0.819089
0.513695 0.708888 0.819181
0.611597 0.718349 0.826108
0.733211 0.715450 0.833036
0.855283 0.726284 0.830900
0.583032 0.783688 0.837919
0.594202 0.783200 0.837736
0.636652 0.780392 0.836637
0.732631 0.782223 0.841398
0.854826 0.795377 0.850797
0.693050 0.848783 0.864683
0.701076 0.848844 0.864958
0.733455 0.849180 0.866331
0.792905 0.850919 0.870054
0.874327 0.862425 0.885252
