20 Preset/Art Style/【3】LUT video cho PR-AE-FCPX/400H Pastel Warm.cube
# Created by Adobe Lightroom plugin Export LUT (1.24.0)
# www.johnrellis.com/lightroom/exportlut.htm
# Preset: 400H Pastel Warm
# Color profile: E:\lut插件\exportlut.1.24\exportlut.lrplugin\color profiles\Rec709gamma2.4.icc
LUT_3D_SIZE 8
DOMAIN_MIN 0.000000 0.000000 0.000000
DOMAIN_MAX 0.903226 0.903226 0.903226
0.078035 0.147341 0.148104
0.077363 0.147158 0.147707
0.210330 0.142916 0.145083
0.496071 0.000000 0.135470
0.799893 0.000000 0.114046
0.986969 0.000000 0.089815
1.000000 0.000000 0.079927
1.000000 0.000000 0.121035
0.072572 0.147677 0.147219
0.081575 0.148318 0.147097
0.195468 0.159609 0.143099
0.461372 0.112795 0.132113
0.768551 0.000000 0.107515
0.968505 0.000000 0.070466
1.000000 0.000000 0.041077
1.000000 0.000000 0.102083
0.000000 0.233127 0.161288
0.000000 0.239048 0.155489
0.197574 0.229068 0.133394
0.457801 0.247410 0.101625
0.752926 0.203494 0.000000
0.969970 0.000000 0.000000
1.000000 0.000000 0.000000
1.000000 0.241978 0.000000
0.000000 0.488991 0.249180
0.000000 0.497444 0.236545
0.168582 0.525597 0.238132
0.505638 0.471839 0.000000
0.791775 0.456123 0.000000
0.961486 0.415442 0.000000
1.000000 0.400458 0.000000
1.000000 0.444465 0.000000
0.302312 0.719722 0.463172
0.323980 0.724147 0.460853
0.450935 0.743130 0.476478
0.586908 0.742214 0.433295
0.751461 0.668879 0.000000
0.924315 0.620050 0.000000
1.000000 0.588464 0.000000
1.000000 0.611597 0.000000
0.608148 0.843381 0.642664
0.624781 0.850919 0.649439
0.655390 0.863005 0.649622
0.759091 0.879667 0.684352
0.800748 0.854063 0.587549
0.897826 0.797177 0.304448
1.000000 0.778897 0.138674
1.000000 0.779385 0.000000
0.772732 0.938231 0.780697
0.778531 0.940337 0.782223
0.794461 0.945373 0.781827
0.843839 0.952667 0.796139
0.901396 0.956085 0.807767
0.927153 0.933959 0.697810
0.997131 0.897307 0.484718
1.000000 0.895048 0.368109
0.906615 0.984588 0.891783
0.908629 0.984833 0.891936
0.917723 0.985870 0.893309
0.936767 0.987427 0.898650
0.959960 0.986511 0.905303
0.976623 0.985473 0.889586
1.000000 0.978973 0.803494
1.000000 0.967498 0.632441
0.076509 0.146731 0.147982
0.077821 0.146487 0.147585
0.193729 0.141726 0.146181
0.437720 0.108125 0.135592
0.751553 0.000000 0.109834
0.957702 0.000000 0.075898
1.000000 0.000000 0.044312
1.000000 0.000000 0.099428
0.065431 0.148806 0.149630
0.082490 0.149416 0.149905
0.191501 0.155093 0.146548
0.434607 0.136843 0.133944
0.741665 0.000000 0.101625
0.952300 0.000000 0.044556
1.000000 0.000000 0.012116
1.000000 0.000000 0.078767
0.000000 0.223850 0.173495
0.000000 0.230014 0.176669
0.195590 0.228031 0.149813
0.445167 0.238682 0.122805
0.731533 0.204654 0.030488
0.943877 0.112612 0.000000
1.000000 0.000000 0.000000
1.000000 0.192508 0.000000
0.000000 0.456550 0.254734
0.000000 0.463447 0.262577
0.207767 0.506157 0.270756
0.470832 0.443580 0.101839
0.743587 0.427161 0.000000
0.925292 0.391516 0.000000
1.000000 0.373144 0.000000
1.000000 0.407752 0.000000
0.264927 0.705776 0.457374
0.335515 0.706569 0.466377
0.434424 0.725185 0.471626
0.575525 0.725765 0.442603
0.728542 0.649317 0.108217
0.904814 0.603632 0.000000
1.000000 0.574060 0.000000
1.000000 0.592065 0.000000
0.586603 0.831174 0.631525
0.608240 0.833005 0.637781
0.640833 0.846281 0.639490
0.743282 0.865995 0.673274
0.790951 0.844663 0.589563
0.889006 0.789670 0.325689
1.000000 0.771115 0.187106
1.000000 0.769772 0.000000
0.756497 0.930480 0.770047
0.764614 0.930449 0.771542
0.780636 0.936034 0.771176
0.829923 0.945586 0.785153
0.896086 0.952392 0.805447
0.920592 0.929168 0.696773
0.988861 0.889311 0.483467
1.000000 0.885832 0.365911
0.895933 0.982910 0.884977
0.902556 0.983185 0.888060
0.911864 0.984375 0.889311
0.931029 0.986358 0.894163
0.963348 0.986999 0.910674
0.978088 0.985748 0.895109
0.999237 0.978759 0.807553
1.000000 0.966857 0.637842
0.000763 0.149020 0.190249
0.068269 0.146975 0.189364
0.156100 0.145205 0.178195
0.433051 0.000000 0.181460
0.767910 0.000000 0.170871
0.964599 0.000000 0.138796
1.000000 0.000000 0.032959
1.000000 0.000000 0.063172
0.000000 0.162020 0.198489
0.022309 0.158297 0.200687
0.169924 0.158297 0.189029
0.439216 0.089021 0.186221
0.754513 0.000000 0.175174
0.956023 0.000000 0.141543
1.000000 0.000000 0.030030
1.000000 0.000000 0.020233
0.000000 0.228458 0.225589
0.000000 0.230900 0.226932
0.204227 0.239170 0.231571
0.467201 0.242283 0.216098
0.754360 0.214969 0.187900
0.951812 0.186557 0.147158
1.000000 0.190433 0.025177
1.000000 0.261906 0.000000
0.000000 0.430274 0.299840
0.000000 0.439948 0.308568
0.285985 0.473548 0.347784
0.492561 0.458045 0.258701
0.748684 0.442329 0.202853
0.932158 0.423316 0.165164
1.000000 0.418647 0.082216
1.000000 0.443091 0.000000
0.168429 0.683284 0.472358
0.270787 0.685542 0.481239
0.489998 0.696864 0.522240
0.641108 0.729641 0.554376
0.737911 0.657130 0.318669
0.900450 0.617395 0.234989
1.000000 0.597589 0.164828
1.000000 0.617853 0.000000
0.557122 0.817502 0.633173
0.582208 0.819608 0.640162
0.664881 0.826535 0.663996
0.741268 0.851102 0.685267
0.802518 0.843046 0.645472
0.882383 0.786984 0.436530
1.000000 0.774533 0.347112
1.000000 0.779690 0.256352
0.742031 0.926390 0.772885
0.751949 0.926452 0.775204
0.793423 0.928862 0.787716
0.829007 0.940703 0.793515
0.904112 0.951873 0.827726
0.924376 0.931304 0.736202
0.987091 0.892668 0.554040
1.000000 0.892699 0.463996
0.882444 0.982330 0.882597
0.888273 0.982116 0.884489
0.913268 0.982086 0.894621
0.933410 0.984985 0.900542
0.963775 0.986389 0.915099
0.981933 0.986206 0.911742
0.998688 0.979767 0.833463
1.000000 0.968017 0.674556
0.000000 0.160586 0.303105
0.000000 0.158389 0.307927
0.175540 0.157321 0.301976
0.343603 0.147250 0.281346
0.688899 0.000000 0.299779
0.950896 0.000000 0.275273
1.000000 0.071138 0.299596
1.000000 0.226719 0.251835
0.000000 0.181064 0.317754
0.000000 0.178561 0.322271
0.182406 0.177890 0.318395
0.363287 0.170901 0.297124
0.699275 0.000000 0.311101
0.950530 0.000000 0.293858
1.000000 0.175448 0.306218
1.000000 0.262730 0.256718
0.000000 0.254124 0.347051
0.000000 0.255589 0.348852
0.162112 0.259861 0.359594
0.406561 0.266606 0.341955
0.737636 0.251408 0.356512
0.947967 0.313359 0.372686
1.000000 0.362371 0.350195
1.000000 0.395605 0.289921
0.000000 0.426062 0.413977
0.000000 0.428412 0.414771
0.115511 0.440101 0.421820
0.487312 0.460273 0.439094
0.743465 0.472236 0.423407
0.913634 0.481331 0.404211
1.000000 0.495766 0.374945
1.000000 0.521141 0.319158
0.000000 0.642878 0.496681
0.000000 0.644953 0.501854
0.363500 0.657374 0.529473
0.635340 0.685023 0.591943
0.737575 0.662318 0.505516
0.883787 0.639704 0.451118
1.000000 0.644709 0.425513
1.000000 0.667628 0.378271
0.497963 0.798703 0.642847
0.532647 0.803769 0.652674
0.620539 0.809201 0.671260
0.748440 0.825376 0.711086
0.835111 0.853910 0.735073
0.878019 0.790921 0.573877
0.987610 0.784512 0.512413
1.000000 0.796994 0.458289
0.698329 0.915099 0.771237
0.711635 0.916350 0.775021
0.761349 0.920623 0.789303
0.841672 0.929686 0.817990
0.904723 0.947570 0.844205
0.934630 0.937987 0.800626
0.982361 0.896239 0.641627
1.000000 0.897856 0.574426
0.854063 0.982391 0.881041
0.861570 0.982269 0.883207
0.891447 0.981903 0.892882
0.938323 0.982208 0.912444
0.963165 0.985412 0.921691
0.988373 0.987121 0.936370
0.997711 0.981292 0.873167
1.000000 0.969940 0.731319
0.000000 0.188663 0.462898
0.000000 0.188083 0.469123
0.000000 0.190829 0.468544
0.386358 0.178683 0.464149
0.599939 0.151736 0.443915
0.865324 0.219181 0.465553
1.000000 0.229282 0.453346
1.000000 0.361395 0.468971
0.000000 0.211490 0.473152
0.000000 0.211246 0.479194
0.000000 0.212985 0.482216
0.396124 0.204471 0.474586
0.611475 0.191287 0.455970
0.866880 0.259831 0.475380
1.000000 0.273289 0.463447
1.000000 0.394781 0.481422
0.000000 0.286809 0.492226
0.000000 0.287114 0.494209
0.000000 0.292027 0.508995
0.421149 0.300481 0.509819
0.635889 0.313085 0.490669
0.862303 0.369177 0.503227
1.000000 0.387213 0.495094
1.000000 0.493660 0.521599
0.000000 0.425818 0.539208
0.000000 0.427893 0.539788
0.000000 0.437324 0.544182
0.437842 0.459998 0.560204
0.671473 0.489113 0.552758
0.869566 0.519738 0.562737
1.000000 0.560357 0.572076
1.000000 0.595941 0.551232
0.000000 0.612390 0.592065
0.000000 0.614191 0.593286
0.155520 0.619623 0.596765
0.490578 0.629053 0.604944
0.705837 0.643244 0.619684
0.859770 0.653590 0.609796
0.986877 0.669184 0.594965
1.000000 0.693141 0.565454
0.247013 0.748653 0.632532
0.297490 0.749050 0.634302
0.432929 0.749142 0.639063
0.616999 0.762600 0.668971
0.787045 0.792966 0.721950
0.856443 0.778195 0.663111
0.966094 0.778439 0.624750
1.000000 0.802670 0.602106
0.587366 0.887633 0.755184
0.600763 0.887785 0.756680
0.656764 0.890990 0.766140
0.758083 0.902312 0.792416
0.875608 0.920745 0.835691
0.941497 0.940429 0.858305
0.969329 0.891569 0.714168
1.000000 0.892271 0.656489
0.754574 0.977935 0.861997
0.764981 0.977783 0.863798
0.807095 0.977417 0.872190
0.882811 0.978576 0.894316
0.955016 0.980377 0.923888
0.986358 0.985595 0.942473
0.996002 0.982208 0.911315
1.000000 0.968719 0.782834
0.000000 0.239384 0.619165
0.000000 0.240665 0.622278
0.000000 0.245823 0.622583
0.358160 0.249454 0.625147
0.633326 0.246189 0.622980
0.804471 0.268681 0.599115
0.964508 0.423346 0.615686
1.000000 0.479255 0.631922
0.000000 0.255802 0.614954
0.000000 0.256474 0.616846
0.000000 0.262486 0.621210
0.356817 0.266361 0.621515
0.626947 0.266117 0.618860
0.797971 0.291203 0.597498
0.958068 0.435035 0.615076
1.000000 0.485298 0.630549
0.000000 0.329473 0.631861
0.000000 0.330632 0.633295
0.000000 0.339391 0.641535
0.384680 0.349554 0.640009
0.641291 0.363073 0.636072
0.803586 0.399268 0.619165
0.952026 0.512016 0.640192
1.000000 0.541100 0.651057
0.000000 0.448493 0.654902
0.000000 0.449165 0.653986
0.000000 0.455848 0.653834
0.421881 0.485420 0.669368
0.669886 0.512688 0.671199
0.816312 0.549157 0.661952
0.955962 0.612146 0.683711
1.000000 0.624567 0.684901
0.000000 0.591424 0.678065
0.000000 0.592554 0.677974
0.087160 0.597803 0.678370
0.434760 0.608392 0.680812
0.660151 0.629572 0.692256
0.815915 0.658900 0.693568
0.959380 0.685145 0.709346
1.000000 0.710475 0.711421
0.000000 0.736599 0.712154
0.153597 0.738705 0.714137
0.347936 0.739773 0.715175
0.525414 0.742580 0.718379
0.684810 0.748775 0.725612
0.837247 0.768551 0.746426
0.962646 0.786587 0.743679
1.000000 0.808774 0.729488
0.448920 0.862303 0.770474
0.469520 0.863371 0.772366
0.534722 0.864286 0.774960
0.636133 0.866911 0.780789
0.769955 0.881468 0.805264
0.915801 0.913603 0.860258
0.959655 0.892546 0.795377
1.000000 0.893034 0.751034
0.627283 0.968994 0.858946
0.637385 0.968750 0.859373
0.682582 0.969146 0.863981
0.766079 0.971405 0.876463
0.876921 0.973999 0.899809
0.974029 0.979156 0.938628
0.998291 0.984924 0.951141
1.000000 0.968963 0.846189
0.000000 0.314488 0.740902
0.000000 0.317205 0.742123
0.000000 0.327825 0.743282
0.355657 0.336004 0.741756
0.604211 0.345525 0.737789
0.811704 0.371313 0.732021
0.922759 0.417273 0.711421
1.000000 0.551507 0.731746
0.000000 0.328588 0.739742
0.000000 0.331304 0.740993
0.000000 0.343023 0.743282
0.359106 0.350591 0.741054
0.604517 0.360845 0.737209
0.809201 0.386603 0.731380
0.919493 0.430884 0.711391
1.000000 0.558312 0.731594
0.000000 0.383734 0.743008
0.000000 0.385779 0.743740
0.000000 0.396460 0.746365
0.385840 0.413733 0.747127
0.616724 0.427131 0.743496
0.810544 0.455055 0.738674
0.917571 0.498695 0.723873
1.000000 0.603479 0.747189
0.000000 0.473091 0.749111
0.000000 0.472633 0.747799
0.000000 0.480232 0.749325
0.397864 0.505211 0.755703
0.630854 0.527398 0.755886
0.811917 0.553826 0.753384
0.915007 0.593256 0.745174
1.000000 0.668818 0.770901
0.000000 0.596674 0.767117
0.000000 0.596704 0.766262
0.000000 0.597955 0.764157
0.352270 0.599695 0.760983
0.615778 0.623468 0.768948
0.805234 0.647608 0.771572
0.913664 0.681514 0.770169
1.000000 0.737179 0.798856
0.000000 0.732570 0.792050
0.000000 0.732784 0.791928
0.240757 0.733028 0.791287
0.439612 0.732937 0.790127
0.607477 0.731624 0.788937
0.783230 0.741390 0.799222
0.920867 0.777371 0.808316
1.000000 0.808133 0.829526
0.308690 0.853941 0.826963
0.335210 0.854124 0.827298
0.421027 0.853727 0.827634
0.540185 0.853452 0.828946
0.670588 0.854002 0.831754
0.803220 0.858915 0.839231
0.936278 0.877806 0.859861
1.000000 0.894469 0.855833
0.494911 0.959289 0.884672
0.507958 0.959289 0.885039
0.559747 0.959533 0.886656
0.643305 0.959655 0.889220
0.747372 0.960174 0.893309
0.878386 0.964965 0.910399
0.991119 0.978363 0.954009
1.000000 0.970062 0.910155
0.000000 0.463630 0.874846
0.000000 0.466896 0.874968
0.312810 0.479835 0.873808
0.500084 0.486366 0.870848
0.681575 0.495766 0.865995
0.844266 0.512993 0.859464
0.966522 0.544884 0.853788
1.000000 0.578058 0.835935
0.000000 0.472206 0.873655
0.000000 0.475227 0.873808
0.307317 0.486671 0.873259
0.501061 0.495827 0.870237
0.680720 0.504723 0.865568
0.842771 0.521477 0.859159
0.964538 0.552117 0.853269
1.000000 0.584375 0.835843
0.000000 0.509056 0.873777
0.000000 0.511345 0.873716
0.296757 0.520378 0.873075
0.507561 0.536461 0.872282
0.682612 0.543908 0.867643
0.840787 0.558465 0.861387
0.961059 0.586175 0.855711
1.000000 0.615778 0.841032
0.000000 0.568902 0.875273
0.000000 0.570672 0.875303
0.223087 0.577111 0.874815
0.481819 0.591424 0.875029
0.675410 0.604730 0.872740
0.834592 0.616144 0.867796
0.955779 0.639826 0.862547
1.000000 0.667964 0.851926
0.000000 0.661280 0.883940
0.000000 0.660792 0.883665
0.000000 0.656306 0.881315
0.365759 0.655207 0.877867
0.625849 0.667201 0.879393
0.811917 0.678309 0.877165
0.945220 0.698939 0.873503
1.000000 0.729824 0.866941
0.000000 0.781704 0.898711
0.000000 0.780545 0.898161
0.027558 0.776120 0.896269
0.362524 0.767544 0.893126
0.534051 0.751156 0.888090
0.752102 0.748623 0.890776
0.928679 0.769986 0.891661
1.000000 0.805264 0.889799
0.156069 0.893156 0.918944
0.202335 0.892485 0.918700
0.317205 0.889860 0.917876
0.450111 0.884764 0.916564
0.585687 0.875761 0.914305
0.719997 0.860777 0.910704
0.882536 0.849607 0.912261
1.000000 0.888334 0.917662
0.425391 0.972168 0.941772
0.438117 0.971801 0.941711
0.488350 0.970489 0.941650
0.571954 0.968170 0.941711
0.674586 0.964569 0.941772
0.788479 0.960052 0.941955
0.907347 0.956756 0.943694
1.000000 0.965576 0.955383
