20 Preset/Art Style/【3】LUT video cho PR-AE-FCPX/400H Daylight .cube
# Created by Adobe Lightroom plugin Export LUT (1.24.0)
# www.johnrellis.com/lightroom/exportlut.htm
# Preset: 400H Daylight 
# Color profile: E:\lut插件\exportlut.1.24\exportlut.lrplugin\color profiles\Rec709gamma2.4.icc
LUT_3D_SIZE 5
DOMAIN_MIN 0.000000 0.000000 0.000000
DOMAIN_MAX 0.903226 0.903226 0.903226
0.041291 0.021668 0.082643
0.112490 0.020661 0.081880
0.682094 0.000000 0.000000
1.000000 0.000000 0.000000
1.000000 0.000000 0.000000
0.000000 0.172396 0.105226
0.137850 0.191135 0.081056
0.688228 0.146609 0.000000
1.000000 0.000000 0.000000
1.000000 0.000000 0.000000
0.000000 0.695857 0.356756
0.217533 0.672663 0.333684
0.708522 0.706569 0.256718
0.954589 0.637842 0.000000
1.000000 0.552270 0.000000
0.593439 0.846891 0.677485
0.625238 0.842741 0.677485
0.696315 0.826658 0.632136
0.849790 0.844724 0.620081
0.968200 0.831388 0.595300
0.776577 0.913756 0.834379
0.786709 0.912383 0.836423
0.797421 0.903868 0.819089
0.837552 0.896544 0.798764
0.917113 0.919005 0.812802
0.024292 0.025116 0.131228
0.100221 0.019806 0.133211
0.668757 0.000000 0.118318
1.000000 0.000000 0.000000
1.000000 0.000000 0.000000
0.000000 0.170260 0.210025
0.130159 0.186984 0.213626
0.695521 0.000000 0.157259
1.000000 0.000000 0.000000
1.000000 0.000000 0.000000
0.000000 0.682551 0.459297
0.272801 0.673457 0.442054
0.682704 0.681666 0.385229
0.932555 0.629114 0.282506
1.000000 0.567864 0.165957
0.609613 0.845640 0.705257
0.636042 0.843168 0.704402
0.706020 0.827726 0.672480
0.844877 0.842679 0.659632
0.959533 0.832334 0.638514
0.777493 0.913909 0.839689
0.783108 0.912902 0.838621
0.805722 0.908263 0.833127
0.841154 0.899321 0.811460
0.918578 0.921233 0.824430
0.000000 0.000000 0.518853
0.000000 0.000000 0.536278
0.658045 0.000000 0.522667
0.996246 0.000000 0.440436
1.000000 0.000000 0.413306
0.000000 0.237339 0.575463
0.205386 0.234134 0.582849
0.692531 0.127901 0.568444
0.978912 0.178897 0.499611
1.000000 0.361944 0.474922
0.323522 0.672206 0.675685
0.446052 0.673579 0.673945
0.679622 0.683619 0.673732
0.888273 0.673243 0.643397
1.000000 0.651331 0.587884
0.659907 0.845853 0.788235
0.674372 0.842344 0.783322
0.735592 0.834623 0.773404
0.833677 0.839048 0.760586
0.936461 0.832609 0.737850
0.775021 0.914153 0.857176
0.781827 0.913634 0.856809
0.805142 0.910765 0.853300
0.839658 0.900450 0.835630
0.913603 0.918120 0.841520
0.000000 0.026856 0.818723
0.293370 0.000000 0.822660
0.678462 0.000000 0.833524
0.950591 0.000000 0.800412
1.000000 0.340490 0.688930
0.294530 0.333074 0.820035
0.414405 0.337591 0.822171
0.691463 0.362768 0.830289
0.925109 0.361730 0.801083
1.000000 0.471138 0.710933
0.515984 0.670802 0.806882
0.569818 0.678279 0.808957
0.702876 0.693690 0.819303
0.852628 0.691127 0.811429
0.961883 0.701198 0.780087
0.689998 0.832273 0.844846
0.703853 0.831724 0.843748
0.755764 0.832761 0.842893
0.825528 0.835813 0.842283
0.924010 0.831479 0.830259
0.790311 0.919677 0.898466
0.794369 0.919310 0.897459
0.811276 0.918181 0.893065
0.844541 0.912230 0.881193
0.910124 0.917144 0.874571
0.518547 0.376043 0.925628
0.564202 0.381689 0.925536
0.711543 0.411566 0.925933
0.886992 0.466957 0.926787
1.000000 0.453315 0.901793
0.569757 0.508110 0.918425
0.604486 0.511803 0.918517
0.722408 0.529320 0.919249
0.875181 0.563684 0.920958
1.000000 0.540215 0.899168
0.662226 0.717311 0.903380
0.679011 0.717708 0.903532
0.746365 0.723598 0.905241
0.849180 0.736172 0.909026
0.950500 0.716670 0.896544
0.722957 0.831662 0.898985
0.729915 0.830747 0.898070
0.762844 0.829557 0.896605
0.832700 0.835203 0.905852
0.916899 0.834470 0.905211
0.794614 0.911223 0.924193
0.798795 0.911223 0.924102
0.817533 0.912230 0.924590
0.852354 0.913725 0.924895
0.907408 0.916381 0.924804
