20 Preset/Art Style/【3】LUT video cho PR-AE-FCPX/400H Pastel Soft Cold.cube
# Created by Adobe Lightroom plugin Export LUT (1.24.0)
# www.johnrellis.com/lightroom/exportlut.htm
# Preset: 400H Pastel Soft Cold
# Color profile: E:\lut插件\exportlut.1.24\exportlut.lrplugin\color profiles\Rec709gamma2.4.icc
LUT_3D_SIZE 8
DOMAIN_MIN 0.000000 0.000000 0.000000
DOMAIN_MAX 0.903226 0.903226 0.903226
0.048371 0.173342 0.215488
0.000000 0.170718 0.212497
0.146914 0.162905 0.206058
0.387976 0.126680 0.200473
0.678004 0.000000 0.196536
0.871366 0.000000 0.208042
0.991638 0.047089 0.271977
1.000000 0.319677 0.390814
0.034516 0.163027 0.207248
0.009949 0.163210 0.209659
0.135317 0.170748 0.205814
0.357397 0.161410 0.198764
0.644404 0.000000 0.191958
0.851621 0.000000 0.199405
0.975311 0.111360 0.252567
1.000000 0.308263 0.366155
0.000000 0.216068 0.217777
0.000000 0.224704 0.212924
0.148409 0.211368 0.200168
0.359136 0.245518 0.187198
0.630213 0.262669 0.167269
0.853300 0.261509 0.172274
0.975647 0.302708 0.244327
1.000000 0.396735 0.375921
0.000000 0.463813 0.341344
0.000000 0.477211 0.328344
0.000000 0.524376 0.319493
0.410620 0.445441 0.190036
0.675471 0.462593 0.132753
0.846220 0.455818 0.103090
0.956146 0.453193 0.200900
1.000000 0.486976 0.353796
0.104128 0.705074 0.582879
0.137881 0.710780 0.581048
0.299931 0.734218 0.589319
0.464759 0.734829 0.549645
0.652216 0.651637 0.289830
0.806821 0.606897 0.226352
0.915862 0.579644 0.199924
0.992493 0.582605 0.312718
0.547936 0.796597 0.719326
0.564782 0.801480 0.724575
0.586847 0.810422 0.726162
0.658839 0.822263 0.742458
0.681483 0.806119 0.681209
0.782864 0.757473 0.497322
0.882933 0.719356 0.442756
0.959899 0.697780 0.421820
0.718837 0.844114 0.800717
0.722560 0.845396 0.801785
0.730770 0.848661 0.802548
0.755581 0.853788 0.808652
0.784390 0.856992 0.811246
0.791684 0.844053 0.757229
0.854704 0.816709 0.644129
0.917205 0.791226 0.605524
0.814450 0.869413 0.854948
0.815244 0.869688 0.855070
0.819089 0.870970 0.855894
0.827481 0.873228 0.858122
0.836698 0.874083 0.858885
0.844358 0.873838 0.851164
0.854246 0.868406 0.815457
0.900481 0.855711 0.745205
0.038849 0.166995 0.205905
0.011841 0.167453 0.206455
0.135592 0.160494 0.204807
0.337560 0.155978 0.200290
0.626856 0.029908 0.192203
0.840360 0.000000 0.198245
0.967071 0.025269 0.245304
1.000000 0.280735 0.351049
0.032380 0.162997 0.204990
0.021149 0.163027 0.205020
0.137636 0.166049 0.204257
0.336156 0.170413 0.199557
0.616510 0.137575 0.188235
0.834623 0.000000 0.192416
0.958068 0.130678 0.236057
1.000000 0.282689 0.336034
0.000000 0.205966 0.224643
0.000000 0.215671 0.228000
0.146670 0.213107 0.209140
0.349950 0.237827 0.197330
0.608789 0.259098 0.177676
0.826108 0.269596 0.165469
0.951629 0.287449 0.218357
1.000000 0.365698 0.336309
0.000000 0.423987 0.337987
0.000000 0.438666 0.345464
0.000000 0.504601 0.347051
0.376379 0.416907 0.218173
0.625452 0.429511 0.172641
0.809079 0.430579 0.148714
0.931273 0.432502 0.168948
1.000000 0.460945 0.311833
0.000000 0.689876 0.575494
0.156863 0.693660 0.581201
0.273838 0.717647 0.582696
0.444617 0.721462 0.551690
0.625116 0.632746 0.303136
0.786618 0.592798 0.244053
0.902678 0.569848 0.220981
0.986389 0.570581 0.283940
0.522881 0.788296 0.710445
0.540032 0.790249 0.714473
0.565454 0.800351 0.717098
0.641505 0.814786 0.734493
0.671504 0.800748 0.679927
0.773709 0.752590 0.504997
0.875731 0.715145 0.450752
0.954620 0.693080 0.425330
0.704921 0.840024 0.794339
0.709102 0.840269 0.795224
0.717800 0.843839 0.796017
0.744289 0.850126 0.802548
0.780117 0.855100 0.809506
0.786496 0.841581 0.755459
0.848081 0.812314 0.639216
0.912718 0.785794 0.597223
0.808042 0.867887 0.851530
0.811398 0.868345 0.852995
0.815335 0.869688 0.853788
0.823911 0.872221 0.856046
0.840024 0.874510 0.861631
0.846281 0.874083 0.853666
0.854032 0.868223 0.817044
0.899474 0.855375 0.746944
0.000000 0.163729 0.219272
0.007111 0.163058 0.221134
0.103792 0.161563 0.220493
0.337011 0.137209 0.241001
0.648066 0.000000 0.248234
0.848569 0.043091 0.250278
0.965850 0.215061 0.256962
1.000000 0.330053 0.356176
0.000000 0.169650 0.224704
0.000000 0.170108 0.229740
0.116121 0.168612 0.229831
0.343450 0.153536 0.245670
0.634577 0.096956 0.251591
0.839597 0.150790 0.253239
0.957427 0.234867 0.253788
1.000000 0.332708 0.343328
0.000000 0.206119 0.250462
0.000000 0.210788 0.255039
0.134188 0.230411 0.274113
0.368933 0.246036 0.273716
0.636835 0.264164 0.269657
0.834958 0.295933 0.268193
0.949065 0.334691 0.271397
1.000000 0.391516 0.335058
0.000000 0.381689 0.363897
0.000000 0.397742 0.377386
0.099367 0.462226 0.428412
0.384283 0.444862 0.336919
0.634394 0.446540 0.298741
0.815213 0.454597 0.301396
0.929839 0.464942 0.311772
1.000000 0.482826 0.328740
0.000000 0.659907 0.580652
0.069856 0.665614 0.587976
0.357610 0.689174 0.619593
0.504295 0.728695 0.639429
0.623957 0.646998 0.443153
0.780026 0.607691 0.384741
0.894835 0.589593 0.370153
0.976837 0.593378 0.398322
0.500175 0.776730 0.708827
0.519554 0.779019 0.713375
0.584802 0.786770 0.729000
0.643091 0.805142 0.741665
0.684474 0.800259 0.714778
0.761868 0.753201 0.574212
0.862791 0.722164 0.531029
0.943145 0.705226 0.509941
0.697902 0.837003 0.794583
0.703243 0.837278 0.795865
0.727291 0.839658 0.802853
0.747280 0.847044 0.806943
0.789029 0.854612 0.820401
0.792996 0.842741 0.775387
0.845212 0.815244 0.676875
0.907622 0.793332 0.643732
0.802304 0.866789 0.850126
0.804898 0.866911 0.851011
0.817044 0.867948 0.855772
0.826658 0.871122 0.858824
0.841794 0.873869 0.864042
0.851713 0.874540 0.861265
0.856748 0.868986 0.828214
0.897765 0.856535 0.762570
0.000000 0.178714 0.296880
0.000000 0.179080 0.306310
0.109987 0.176883 0.317113
0.252750 0.171847 0.317601
0.563378 0.150637 0.379797
0.828367 0.120027 0.403601
0.939452 0.327184 0.459602
1.000000 0.407080 0.472328
0.000000 0.195041 0.311467
0.000000 0.195956 0.321813
0.110933 0.193942 0.335821
0.268132 0.188846 0.335821
0.573846 0.185580 0.393347
0.828275 0.191165 0.417090
0.934630 0.349706 0.465217
1.000000 0.420172 0.476326
0.000000 0.245487 0.344732
0.000000 0.249516 0.350256
0.075135 0.267002 0.382177
0.297917 0.268681 0.391638
0.610925 0.309422 0.449256
0.819821 0.389990 0.496223
0.924041 0.451911 0.510307
0.993561 0.488441 0.511192
0.000000 0.376165 0.432898
0.000000 0.381567 0.437934
0.000000 0.408331 0.462654
0.342473 0.462867 0.512810
0.613855 0.487617 0.516197
0.785183 0.510399 0.520165
0.897520 0.533043 0.525841
0.974640 0.554955 0.530724
0.000000 0.599115 0.574792
0.000000 0.605249 0.581323
0.261936 0.634180 0.611872
0.504021 0.685298 0.666773
0.608850 0.661189 0.596124
0.757351 0.634943 0.558770
0.871031 0.635737 0.563409
0.950317 0.642908 0.570916
0.464057 0.757626 0.709255
0.491829 0.762631 0.716243
0.555230 0.770504 0.729366
0.654658 0.787442 0.755795
0.720790 0.807309 0.768307
0.752285 0.760037 0.664851
0.845426 0.737545 0.633387
0.924346 0.727687 0.619471
0.673274 0.828977 0.790646
0.681239 0.829953 0.792935
0.710658 0.833494 0.801480
0.759030 0.840452 0.817533
0.795010 0.851530 0.829740
0.807095 0.846403 0.807767
0.840269 0.818875 0.725185
0.899413 0.801450 0.697597
0.791806 0.865293 0.848600
0.795132 0.865507 0.849729
0.808591 0.866545 0.854551
0.831846 0.868925 0.863951
0.844358 0.872770 0.867948
0.860746 0.875456 0.873198
0.861082 0.870207 0.845182
0.895140 0.858457 0.786954
0.000000 0.223911 0.447425
0.000000 0.226017 0.459693
0.000000 0.226658 0.473426
0.278050 0.216281 0.496468
0.465339 0.212192 0.500694
0.733028 0.319829 0.561913
0.889860 0.402319 0.588281
0.966003 0.508415 0.624567
0.000000 0.244724 0.459785
0.000000 0.247532 0.471626
0.000000 0.249119 0.490608
0.283696 0.238437 0.509148
0.476509 0.238804 0.514885
0.733883 0.347723 0.570886
0.886717 0.425025 0.595972
0.961517 0.525902 0.632654
0.000000 0.305425 0.481056
0.000000 0.308354 0.486488
0.000000 0.324712 0.523247
0.296147 0.328710 0.550805
0.498390 0.337682 0.554864
0.725948 0.431128 0.595117
0.872709 0.494331 0.619501
0.944457 0.579706 0.657099
0.000000 0.419623 0.546929
0.000000 0.423468 0.550072
0.000000 0.442145 0.564904
0.318853 0.485939 0.603449
0.527916 0.505699 0.619684
0.728481 0.561425 0.646998
0.854765 0.606378 0.669062
0.931762 0.633783 0.674464
0.000000 0.573938 0.617395
0.000000 0.577722 0.620294
0.102846 0.591272 0.630854
0.383001 0.616785 0.651179
0.563226 0.651209 0.679713
0.723140 0.661555 0.680415
0.837034 0.672786 0.681880
0.919341 0.682704 0.681239
0.294469 0.703639 0.682918
0.321080 0.705348 0.685054
0.403571 0.710567 0.692073
0.536156 0.734096 0.718990
0.673823 0.768002 0.757900
0.728664 0.755459 0.719997
0.823819 0.743160 0.700374
0.904387 0.745907 0.702388
0.605493 0.809262 0.775296
0.611994 0.809751 0.776364
0.642695 0.813321 0.782956
0.704494 0.822843 0.799985
0.777462 0.836545 0.824979
0.817136 0.848173 0.834958
0.829679 0.818296 0.761654
0.888396 0.803586 0.737118
0.748409 0.858885 0.836118
0.752682 0.859098 0.837217
0.770474 0.860227 0.842222
0.805051 0.863706 0.854276
0.841672 0.868315 0.869017
0.861295 0.873930 0.877104
0.864805 0.871122 0.861875
0.889647 0.858366 0.807553
0.000000 0.313787 0.614862
0.000000 0.316686 0.620752
0.000000 0.319524 0.629236
0.278477 0.321752 0.645655
0.509667 0.308751 0.664973
0.666194 0.335149 0.656672
0.819303 0.502739 0.684077
0.916258 0.588006 0.710475
0.000000 0.326116 0.610346
0.000000 0.328008 0.614923
0.000000 0.334203 0.628351
0.272740 0.334569 0.642329
0.500633 0.322606 0.660914
0.658961 0.350072 0.654688
0.813016 0.509209 0.683070
0.913054 0.589776 0.709468
0.000000 0.393927 0.627253
0.000000 0.396460 0.631159
0.000000 0.410773 0.649409
0.295811 0.414557 0.661372
0.507713 0.410651 0.676265
0.663905 0.441016 0.673640
0.804746 0.569665 0.700435
0.906584 0.625422 0.722744
0.000000 0.490639 0.654108
0.000000 0.491798 0.654231
0.000000 0.501946 0.658839
0.350256 0.539178 0.687770
0.531212 0.552331 0.705348
0.676539 0.576593 0.708675
0.804929 0.649653 0.731106
0.900175 0.682856 0.747524
0.000000 0.595056 0.683558
0.000000 0.596674 0.684352
0.209323 0.604456 0.688502
0.383368 0.621271 0.697688
0.545037 0.652369 0.719509
0.678401 0.670069 0.732631
0.804746 0.704616 0.751156
0.894560 0.726009 0.763638
0.277104 0.698543 0.720027
0.306676 0.701320 0.722286
0.379217 0.705409 0.725673
0.480903 0.714015 0.733028
0.592554 0.728084 0.745480
0.708858 0.753475 0.768795
0.814389 0.762631 0.773037
0.890410 0.769162 0.774075
0.529168 0.788754 0.771298
0.540002 0.789853 0.772854
0.572656 0.791897 0.776242
0.628382 0.796506 0.783322
0.709499 0.810330 0.802579
0.801205 0.833860 0.835843
0.823575 0.821347 0.802640
0.881956 0.810971 0.784268
0.700435 0.849332 0.828336
0.703548 0.849424 0.828794
0.720546 0.850797 0.832273
0.755489 0.854490 0.841062
0.803647 0.860075 0.855528
0.854398 0.868223 0.876005
0.873442 0.873564 0.881437
0.884611 0.859586 0.834134
0.000000 0.448829 0.729091
0.000000 0.451301 0.730739
0.176211 0.458869 0.735561
0.346838 0.458137 0.739956
0.506828 0.452735 0.746212
0.680690 0.441352 0.755581
0.781491 0.484596 0.742794
0.867216 0.619898 0.756405
0.000000 0.461769 0.729305
0.000000 0.464149 0.730892
0.195560 0.473640 0.736751
0.352300 0.472084 0.740749
0.508934 0.467475 0.747189
0.679866 0.457740 0.756588
0.780484 0.499428 0.744747
0.865934 0.628016 0.758572
0.000000 0.502190 0.728817
0.000000 0.504326 0.730404
0.224949 0.514427 0.737026
0.374701 0.522850 0.744472
0.516289 0.520775 0.751034
0.676356 0.515679 0.760464
0.776150 0.552270 0.751858
0.861082 0.657252 0.766690
0.000000 0.561059 0.730037
0.070222 0.560876 0.729519
0.247013 0.568994 0.734829
0.402197 0.589410 0.747982
0.532525 0.598505 0.757565
0.671687 0.599176 0.767117
0.771054 0.626093 0.764340
0.855772 0.701717 0.781155
0.240604 0.639582 0.748074
0.259831 0.640223 0.748196
0.324285 0.642634 0.748623
0.415442 0.646784 0.749416
0.551690 0.669581 0.764645
0.671412 0.678340 0.777066
0.771023 0.697749 0.781186
0.857450 0.745724 0.799374
0.387671 0.718441 0.770047
0.397436 0.718807 0.770230
0.435157 0.720241 0.771054
0.497963 0.722957 0.772671
0.578332 0.727871 0.775784
0.683467 0.744991 0.789700
0.781125 0.761532 0.803311
0.867460 0.786069 0.820096
0.512169 0.784115 0.795224
0.518639 0.784390 0.795529
0.544762 0.785428 0.796780
0.591882 0.787808 0.799588
0.654627 0.792355 0.804868
0.727749 0.800870 0.814511
0.806516 0.817472 0.833280
0.875578 0.822354 0.836057
0.656214 0.841489 0.833371
0.660029 0.841642 0.833738
0.676326 0.842344 0.835355
0.706752 0.843931 0.838773
0.749355 0.846738 0.844633
0.806455 0.854215 0.858518
0.868376 0.868559 0.884001
0.880613 0.861967 0.862242
0.465370 0.647120 0.820218
0.474159 0.647974 0.820554
0.509636 0.652186 0.822019
0.554925 0.648341 0.822873
0.622126 0.642084 0.824460
0.710140 0.632929 0.827146
0.811948 0.624262 0.830930
0.865507 0.647089 0.817411
0.468727 0.651728 0.820005
0.477333 0.652522 0.820340
0.511528 0.656214 0.822019
0.558160 0.653925 0.822965
0.623896 0.647883 0.824643
0.710292 0.639094 0.827359
0.811185 0.630518 0.831235
0.864652 0.652857 0.818204
0.478096 0.667903 0.819242
0.485847 0.668574 0.819577
0.517967 0.671626 0.821256
0.569360 0.674403 0.823575
0.629999 0.669215 0.825345
0.710964 0.661769 0.828244
0.808347 0.653590 0.832456
0.861234 0.674464 0.821256
0.486213 0.692897 0.818265
0.493477 0.693416 0.818570
0.523339 0.695735 0.820249
0.577966 0.701259 0.823880
0.639948 0.702419 0.827146
0.712398 0.697139 0.830289
0.803281 0.690364 0.835019
0.856901 0.707942 0.827024
0.512688 0.728756 0.823453
0.516503 0.728450 0.823301
0.532311 0.727230 0.822690
0.572076 0.727596 0.822660
0.644862 0.735622 0.829160
0.713985 0.735897 0.834012
0.796109 0.732021 0.839261
0.854185 0.745418 0.835477
0.568261 0.772946 0.834653
0.571374 0.772824 0.834592
0.584222 0.772091 0.834287
0.608209 0.770321 0.833555
0.642359 0.766659 0.832029
0.714107 0.772305 0.838285
0.790677 0.774228 0.845701
0.854154 0.785275 0.847227
0.629145 0.814298 0.848753
0.631678 0.814237 0.848753
0.642298 0.814023 0.848783
0.662684 0.813474 0.848844
0.692775 0.812497 0.848814
0.731441 0.810727 0.848539
0.791501 0.814084 0.853819
0.859312 0.825345 0.863340
0.693050 0.848783 0.864683
0.695155 0.848844 0.864744
0.704005 0.848905 0.865080
0.721340 0.849027 0.865782
0.747829 0.849424 0.867063
0.782895 0.850462 0.869261
0.825620 0.853208 0.873594
0.874327 0.862425 0.885252
