20 Preset/Art Style/【3】LUT video cho PR-AE-FCPX/400H Pastel Warm.cube
# Created by Adobe Lightroom plugin Export LUT (1.24.0)
# www.johnrellis.com/lightroom/exportlut.htm
# Preset: 400H Pastel Warm
# Color profile: E:\lut插件\exportlut.1.24\exportlut.lrplugin\color profiles\Rec709gamma2.4.icc
LUT_3D_SIZE 32
DOMAIN_MIN 0.0 0.0 0.0
DOMAIN_MAX 1.0 1.0 1.0
0.078035 0.147341 0.148104
0.078035 0.147341 0.148104
0.076051 0.147372 0.148104
0.073091 0.147219 0.147921
0.077363 0.147158 0.147707
0.094606 0.146822 0.147402
0.122225 0.146731 0.147066
0.161410 0.145724 0.146242
0.210330 0.142916 0.145083
0.268406 0.135897 0.143679
0.336034 0.121035 0.141665
0.413031 0.085359 0.139071
0.496071 0.000000 0.135470
0.580804 0.000000 0.131228
0.661860 0.000000 0.125856
0.734981 0.000000 0.120119
0.799893 0.000000 0.114046
0.856931 0.000000 0.107424
0.905913 0.000000 0.101289
0.948974 0.000000 0.095705
0.986969 0.000000 0.089815
1.000000 0.000000 0.082979
1.000000 0.000000 0.077943
1.000000 0.000000 0.075593
1.000000 0.000000 0.079927
1.000000 0.000000 0.087434
1.000000 0.000000 0.095399
1.000000 0.000000 0.106111
1.000000 0.000000 0.121035
1.000000 0.000000 0.139651
1.000000 0.154726 0.163058
1.000000 0.266606 0.191745
0.078035 0.147341 0.148104
0.078035 0.147341 0.148104
0.076783 0.147127 0.148135
0.073091 0.147219 0.147921
0.077058 0.147127 0.147921
0.094240 0.147066 0.147585
0.120760 0.146853 0.147066
0.158968 0.146273 0.146242
0.206302 0.143923 0.145083
0.262730 0.137758 0.143709
0.328923 0.124269 0.141756
0.404639 0.094087 0.139223
0.486732 0.000000 0.135775
0.571008 0.000000 0.131563
0.652399 0.000000 0.126345
0.726314 0.000000 0.120394
0.792325 0.000000 0.114443
0.850462 0.000000 0.107881
0.900389 0.000000 0.101747
0.943725 0.000000 0.095827
0.982116 0.000000 0.090242
1.000000 0.000000 0.083467
1.000000 0.000000 0.077638
1.000000 0.000000 0.074586
1.000000 0.000000 0.077485
1.000000 0.000000 0.084047
1.000000 0.000000 0.092866
1.000000 0.000000 0.103029
1.000000 0.000000 0.116915
1.000000 0.000000 0.134218
1.000000 0.112886 0.157504
1.000000 0.246128 0.185245
0.079164 0.146883 0.147951
0.079164 0.146883 0.147951
0.076509 0.146731 0.147982
0.074525 0.146761 0.147982
0.078889 0.147097 0.147707
0.093874 0.147524 0.147311
0.119722 0.148226 0.146670
0.156619 0.148257 0.145998
0.203311 0.146639 0.144778
0.258610 0.141604 0.143374
0.323919 0.130282 0.141360
0.398535 0.104799 0.138827
0.479774 0.000000 0.135348
0.563287 0.000000 0.131167
0.644709 0.000000 0.125948
0.719356 0.000000 0.119936
0.785824 0.000000 0.113466
0.845029 0.000000 0.106752
0.895567 0.000000 0.100557
0.939605 0.000000 0.094606
0.978454 0.000000 0.088869
1.000000 0.000000 0.080140
1.000000 0.000000 0.071717
1.000000 0.000000 0.068727
1.000000 0.000000 0.070680
1.000000 0.000000 0.079622
1.000000 0.000000 0.088838
1.000000 0.000000 0.099702
1.000000 0.000000 0.112886
1.000000 0.000000 0.130617
1.000000 0.095979 0.153323
1.000000 0.238865 0.181430
0.078553 0.146273 0.147372
0.078553 0.146273 0.147372
0.076844 0.146304 0.147372
0.076234 0.146304 0.147829
0.079683 0.147280 0.147677
0.094881 0.148928 0.147097
0.119081 0.150790 0.146334
0.155398 0.152132 0.145480
0.200504 0.152132 0.144106
0.255436 0.148714 0.142550
0.319524 0.139895 0.140383
0.393011 0.119905 0.137758
0.473030 0.059602 0.134096
0.555688 0.000000 0.129549
0.636439 0.000000 0.124422
0.710628 0.000000 0.118288
0.777249 0.000000 0.111727
0.836362 0.000000 0.104952
0.887694 0.000000 0.098024
0.932128 0.000000 0.091524
0.971405 0.000000 0.084047
1.000000 0.000000 0.072938
1.000000 0.000000 0.063020
1.000000 0.000000 0.056855
1.000000 0.000000 0.058473
1.000000 0.000000 0.067048
1.000000 0.000000 0.081514
1.000000 0.000000 0.093782
1.000000 0.000000 0.109194
1.000000 0.000000 0.126589
1.000000 0.114168 0.149325
1.000000 0.241062 0.176669
0.072572 0.147677 0.147219
0.072572 0.147677 0.147219
0.072877 0.147677 0.147005
0.076143 0.147829 0.146975
0.081575 0.148318 0.147097
0.095735 0.151186 0.146578
0.117342 0.154574 0.145815
0.151614 0.157900 0.144717
0.195468 0.159609 0.143099
0.248417 0.158907 0.141299
0.310948 0.153414 0.138949
0.382788 0.140169 0.136049
0.461372 0.112795 0.132113
0.543999 0.000000 0.127321
0.624659 0.000000 0.121431
0.700557 0.000000 0.114900
0.768551 0.000000 0.107515
0.829465 0.000000 0.099977
0.881743 0.000000 0.092531
0.927001 0.000000 0.084016
0.968505 0.000000 0.070466
1.000000 0.000000 0.055573
1.000000 0.000000 0.044343
1.000000 0.000000 0.039826
1.000000 0.000000 0.041077
1.000000 0.000000 0.047730
1.000000 0.000000 0.063447
1.000000 0.000000 0.085603
1.000000 0.000000 0.102083
1.000000 0.000000 0.120363
1.000000 0.139986 0.144259
1.000000 0.250278 0.171817
0.055146 0.153780 0.147494
0.054444 0.153994 0.147463
0.055329 0.153994 0.146822
0.063844 0.154238 0.146761
0.079866 0.154299 0.146242
0.095277 0.155032 0.145785
0.120363 0.160922 0.144564
0.151553 0.165957 0.143191
0.192294 0.170413 0.141390
0.244450 0.172183 0.139193
0.306249 0.170382 0.136355
0.377813 0.162142 0.132937
0.455818 0.145174 0.128389
0.537499 0.110933 0.122805
0.618830 0.000000 0.116365
0.694911 0.000000 0.108797
0.763638 0.000000 0.100435
0.825315 0.000000 0.091676
0.878294 0.000000 0.079927
0.923919 0.000000 0.062287
0.968414 0.000000 0.043000
1.000000 0.000000 0.027222
1.000000 0.000000 0.004761
1.000000 0.000000 0.004395
1.000000 0.000000 0.013733
1.000000 0.000000 0.030274
1.000000 0.000000 0.058839
1.000000 0.000000 0.091157
1.000000 0.071717 0.112123
1.000000 0.204440 0.135836
1.000000 0.281346 0.163577
1.000000 0.346960 0.195224
0.009003 0.171572 0.149569
0.008606 0.171756 0.149325
0.010376 0.172091 0.148440
0.021912 0.172763 0.147433
0.049439 0.173312 0.147219
0.092836 0.172213 0.144808
0.121614 0.172488 0.143069
0.163668 0.181979 0.140230
0.205844 0.187320 0.137942
0.255680 0.191775 0.134707
0.319493 0.193820 0.130831
0.393835 0.189944 0.125948
0.473701 0.178714 0.119814
0.555352 0.157809 0.112764
0.635126 0.120729 0.104067
0.708766 0.000000 0.094636
0.775387 0.000000 0.081819
0.834531 0.000000 0.059266
0.885954 0.000000 0.036408
0.933196 0.000000 0.016266
0.982391 0.000000 0.000000
1.000000 0.000000 0.000000
1.000000 0.000000 0.000000
1.000000 0.000000 0.000000
1.000000 0.000000 0.000000
1.000000 0.000000 0.000000
1.000000 0.000000 0.010681
1.000000 0.000000 0.050813
1.000000 0.135805 0.093812
1.000000 0.222385 0.120577
1.000000 0.289708 0.149966
1.000000 0.351019 0.181674
0.000000 0.197208 0.153689
0.000000 0.197360 0.153231
0.000000 0.198093 0.151858
0.000000 0.199313 0.149752
0.000000 0.201114 0.149844
0.049409 0.200931 0.147555
0.112764 0.197513 0.143008
0.155184 0.196506 0.139284
0.209415 0.207767 0.134310
0.259831 0.212192 0.130739
0.317266 0.215640 0.126070
0.385443 0.217441 0.119722
0.461982 0.215793 0.110750
0.542779 0.205539 0.101534
0.622217 0.186984 0.090242
0.695644 0.159243 0.069398
0.762875 0.114290 0.040589
0.822965 0.000000 0.014496
0.875761 0.000000 0.000000
0.929320 0.000000 0.000000
0.975891 0.000000 0.000000
1.000000 0.000000 0.000000
1.000000 0.000000 0.000000
1.000000 0.000000 0.000000
1.000000 0.000000 0.000000
1.000000 0.000000 0.000000
1.000000 0.000000 0.000000
1.000000 0.104799 0.000000
1.000000 0.189670 0.048432
1.000000 0.252445 0.101778
1.000000 0.310155 0.135134
1.000000 0.365637 0.169375
0.000000 0.233127 0.161288
0.000000 0.233494 0.160830
0.000000 0.234287 0.159335
0.000000 0.236240 0.155947
0.000000 0.239048 0.155489
0.000000 0.242466 0.156374
0.078218 0.238926 0.148440
0.142306 0.232456 0.140536
0.197574 0.229068 0.133394
0.265629 0.241703 0.125154
0.325048 0.245090 0.119112
0.389136 0.247288 0.111574
0.457801 0.247410 0.101625
0.535698 0.245212 0.086336
0.612329 0.239445 0.046784
0.685756 0.224613 0.011383
0.752926 0.203494 0.000000
0.813809 0.175479 0.000000
0.873686 0.142763 0.000000
0.925017 0.096040 0.000000
0.969970 0.000000 0.000000
1.000000 0.000000 0.000000
1.000000 0.000000 0.000000
1.000000 0.000000 0.000000
1.000000 0.000000 0.000000
1.000000 0.067811 0.000000
1.000000 0.142367 0.000000
1.000000 0.193515 0.000000
1.000000 0.241978 0.000000
1.000000 0.289891 0.063539
1.000000 0.338323 0.117403
1.000000 0.387823 0.156344
0.000000 0.280400 0.173404
0.000000 0.280583 0.173007
0.000000 0.281468 0.171237
0.000000 0.283909 0.167391
0.000000 0.287358 0.164492
0.000000 0.291875 0.165560
0.000000 0.294438 0.163546
0.113741 0.286687 0.149325
0.182956 0.276188 0.136385
0.249363 0.269932 0.124453
0.329686 0.283085 0.110018
0.395087 0.284733 0.100191
0.462837 0.284947 0.086427
0.530816 0.283146 0.051972
0.604578 0.280217 0.004883
0.676997 0.274418 0.000000
0.744930 0.266941 0.000000
0.813107 0.252689 0.000000
0.871031 0.235142 0.000000
0.920684 0.215671 0.000000
0.964202 0.197086 0.000000
1.000000 0.181399 0.000000
1.000000 0.170596 0.000000
1.000000 0.169131 0.000000
1.000000 0.177188 0.000000
1.000000 0.193027 0.000000
1.000000 0.218051 0.000000
1.000000 0.248234 0.000000
1.000000 0.284092 0.000000
1.000000 0.323552 0.000000
1.000000 0.365942 0.088716
1.000000 0.411475 0.137911
0.000000 0.334691 0.189029
0.000000 0.335119 0.188449
0.000000 0.336645 0.186770
0.000000 0.339757 0.183139
0.000000 0.344366 0.176761
0.000000 0.350439 0.178439
0.000000 0.358221 0.180819
0.000000 0.355962 0.170321
0.161715 0.344945 0.149416
0.237034 0.329870 0.129549
0.312840 0.320348 0.108431
0.402869 0.333196 0.073732
0.472663 0.332464 0.033448
0.540612 0.330358 0.000000
0.608545 0.326909 0.000000
0.677668 0.323919 0.000000
0.747799 0.319341 0.000000
0.810575 0.312871 0.000000
0.864500 0.304662 0.000000
0.912810 0.290501 0.000000
0.955749 0.276707 0.000000
0.994079 0.265629 0.000000
1.000000 0.257725 0.000000
1.000000 0.255131 0.000000
1.000000 0.258274 0.000000
1.000000 0.267002 0.000000
1.000000 0.282536 0.000000
1.000000 0.304051 0.000000
1.000000 0.331182 0.000000
1.000000 0.363897 0.000000
1.000000 0.400977 0.006653
1.000000 0.441352 0.116365
0.000000 0.401404 0.210971
0.000000 0.401831 0.210422
0.000000 0.403357 0.208591
0.000000 0.406653 0.205051
0.000000 0.412238 0.199039
0.000000 0.419165 0.197269
0.000000 0.427802 0.200870
0.000000 0.438361 0.205875
0.138796 0.427680 0.178927
0.229709 0.412085 0.148379
0.305913 0.392554 0.117403
0.387732 0.379217 0.065797
0.524529 0.418616 0.000000
0.602441 0.417365 0.000000
0.671870 0.412421 0.000000
0.734310 0.405432 0.000000
0.790249 0.396918 0.000000
0.844663 0.388647 0.000000
0.893736 0.380346 0.000000
0.937285 0.372076 0.000000
0.976623 0.363928 0.000000
1.000000 0.355413 0.000000
1.000000 0.350134 0.000000
1.000000 0.348699 0.000000
1.000000 0.351507 0.000000
1.000000 0.358251 0.000000
1.000000 0.369940 0.000000
1.000000 0.385901 0.000000
1.000000 0.406653 0.000000
1.000000 0.432380 0.000000
1.000000 0.462501 0.000000
1.000000 0.497139 0.110506
0.000000 0.488991 0.249180
0.000000 0.489448 0.248722
0.000000 0.490394 0.247013
0.000000 0.492866 0.243168
0.000000 0.497444 0.236545
0.000000 0.503563 0.230381
0.000000 0.510826 0.235508
0.000000 0.520378 0.242802
0.168582 0.525597 0.238132
0.249668 0.515557 0.199557
0.329656 0.502251 0.153597
0.411170 0.484138 0.095155
0.505638 0.471839 0.000000
0.608392 0.482704 0.000000
0.678523 0.476783 0.000000
0.738735 0.467079 0.000000
0.791775 0.456123 0.000000
0.837400 0.444160 0.000000
0.879759 0.433112 0.000000
0.922850 0.423590 0.000000
0.961486 0.415442 0.000000
0.996612 0.408972 0.000000
1.000000 0.403174 0.000000
1.000000 0.400183 0.000000
1.000000 0.400458 0.000000
1.000000 0.404669 0.000000
1.000000 0.413458 0.000000
1.000000 0.426673 0.000000
1.000000 0.444465 0.000000
1.000000 0.467475 0.000000
1.000000 0.494820 0.000000
1.000000 0.526238 0.040681
0.000000 0.560754 0.293828
0.000000 0.560510 0.293492
0.000000 0.561486 0.291356
0.000000 0.563989 0.288365
0.000000 0.568109 0.284123
0.000000 0.574609 0.277287
0.000000 0.582483 0.281773
0.000000 0.591852 0.291997
0.239963 0.603235 0.305425
0.302922 0.600824 0.282383
0.356542 0.588983 0.233646
0.423957 0.573205 0.175143
0.497597 0.551965 0.090547
0.586664 0.536065 0.000000
0.678920 0.540093 0.000000
0.739467 0.529290 0.000000
0.790066 0.515679 0.000000
0.834195 0.501457 0.000000
0.873747 0.487922 0.000000
0.909606 0.475105 0.000000
0.947143 0.465736 0.000000
0.983124 0.458503 0.000000
1.000000 0.453346 0.000000
1.000000 0.450172 0.000000
1.000000 0.449378 0.000000
1.000000 0.451911 0.000000
1.000000 0.458503 0.000000
1.000000 0.469337 0.000000
1.000000 0.484718 0.000000
1.000000 0.504936 0.000000
1.000000 0.529656 0.000000
1.000000 0.558648 0.000000
0.000000 0.629023 0.352636
0.000000 0.629175 0.352087
0.000000 0.629755 0.350286
0.000000 0.630976 0.347601
0.000000 0.633722 0.343511
0.000000 0.637964 0.338262
0.000000 0.643885 0.337957
0.200076 0.650660 0.348241
0.305882 0.659297 0.362188
0.390692 0.668757 0.378363
0.413275 0.659480 0.331975
0.454292 0.647333 0.277745
0.509606 0.630640 0.211002
0.573571 0.608209 0.117098
0.654200 0.589929 0.000000
0.735927 0.588952 0.000000
0.787106 0.574670 0.000000
0.830442 0.558770 0.000000
0.869108 0.543481 0.000000
0.904387 0.529351 0.000000
0.937133 0.516960 0.000000
0.969451 0.507347 0.000000
1.000000 0.501427 0.000000
1.000000 0.497841 0.000000
1.000000 0.496101 0.000000
1.000000 0.497627 0.000000
1.000000 0.502892 0.000000
1.000000 0.512444 0.000000
1.000000 0.526604 0.000000
1.000000 0.545739 0.000000
1.000000 0.569543 0.000000
1.000000 0.597528 0.000000
0.128542 0.680049 0.409277
0.133364 0.680232 0.409522
0.141665 0.681025 0.408759
0.156252 0.682704 0.407141
0.177890 0.685084 0.404944
0.206332 0.689082 0.402625
0.239475 0.694575 0.400519
0.315557 0.700465 0.411017
0.387396 0.707424 0.424933
0.455512 0.715236 0.441382
0.498573 0.717372 0.436896
0.512383 0.707240 0.387793
0.540673 0.693721 0.328130
0.582849 0.675685 0.255314
0.635889 0.652125 0.158053
0.707149 0.632593 0.000000
0.778988 0.627863 0.000000
0.823667 0.612604 0.000000
0.862181 0.596490 0.000000
0.897398 0.581781 0.000000
0.930510 0.568902 0.000000
0.961669 0.557855 0.000000
0.990967 0.549004 0.000000
1.000000 0.544732 0.000000
1.000000 0.543084 0.000000
1.000000 0.543877 0.000000
1.000000 0.548150 0.000000
1.000000 0.556786 0.000000
1.000000 0.569451 0.000000
1.000000 0.586542 0.000000
1.000000 0.607538 0.000000
1.000000 0.632380 0.000000
0.302312 0.719722 0.463172
0.302922 0.719844 0.462959
0.306218 0.720516 0.462440
0.313390 0.721889 0.461799
0.323980 0.724147 0.460853
0.339147 0.727535 0.459785
0.358373 0.732357 0.458534
0.397864 0.737423 0.464179
0.450935 0.743130 0.476478
0.504509 0.749569 0.490517
0.559167 0.756924 0.506767
0.575433 0.752773 0.481514
0.586908 0.742214 0.433295
0.608789 0.728206 0.372564
0.642756 0.710384 0.298009
0.688045 0.687465 0.203281
0.751461 0.668879 0.000000
0.815976 0.663386 0.000000
0.856291 0.648585 0.000000
0.891325 0.633387 0.000000
0.924315 0.620050 0.000000
0.955322 0.608698 0.000000
0.984527 0.599481 0.000000
1.000000 0.592279 0.000000
1.000000 0.588464 0.000000
1.000000 0.589227 0.000000
1.000000 0.592584 0.000000
1.000000 0.599725 0.000000
1.000000 0.611597 0.000000
1.000000 0.627222 0.000000
1.000000 0.646693 0.000000
1.000000 0.669612 0.000000
0.409735 0.755856 0.515496
0.411322 0.756283 0.516045
0.462043 0.774777 0.543175
0.466529 0.775937 0.542962
0.473548 0.778012 0.542535
0.483070 0.780606 0.542107
0.495888 0.784329 0.541741
0.514611 0.788815 0.542962
0.551690 0.793271 0.553094
0.591608 0.798703 0.564996
0.632685 0.804929 0.578058
0.669673 0.809995 0.587274
0.671565 0.800656 0.550195
0.678553 0.788876 0.502464
0.693385 0.774105 0.443305
0.717800 0.755581 0.368902
0.752071 0.732357 0.274052
0.805234 0.713680 0.139437
0.860685 0.707027 0.000000
0.895384 0.692653 0.000000
0.926360 0.678492 0.000000
0.956054 0.666499 0.000000
0.984192 0.656489 0.000000
1.000000 0.648432 0.000000
1.000000 0.642115 0.000000
1.000000 0.638300 0.000000
1.000000 0.639612 0.000000
1.000000 0.644099 0.000000
1.000000 0.653071 0.000000
1.000000 0.666896 0.000000
1.000000 0.684504 0.000000
1.000000 0.705074 0.000000
0.504265 0.792630 0.570733
0.508782 0.794186 0.573175
0.514458 0.796384 0.575555
0.521324 0.798917 0.577722
0.529595 0.801816 0.579095
0.538201 0.804562 0.579553
0.548455 0.807889 0.579492
0.560327 0.811978 0.579187
0.586725 0.816220 0.585534
0.619409 0.820737 0.595331
0.654292 0.826078 0.606378
0.689784 0.831876 0.618219
0.709438 0.831205 0.610620
0.713222 0.821653 0.575433
0.720790 0.809720 0.529808
0.734401 0.795254 0.472419
0.756008 0.777737 0.401953
0.786740 0.756344 0.311254
0.835477 0.739742 0.193332
0.886503 0.734524 0.029877
0.918730 0.722530 0.000000
0.948241 0.711299 0.000000
0.976410 0.701656 0.000000
1.000000 0.693660 0.000000
1.000000 0.687282 0.000000
1.000000 0.683131 0.000000
1.000000 0.681239 0.000000
1.000000 0.683314 0.000000
1.000000 0.690333 0.000000
1.000000 0.701717 0.000000
1.000000 0.717708 0.000000
1.000000 0.736568 0.000000
0.559930 0.818051 0.607721
0.563653 0.819760 0.609827
0.568475 0.821805 0.612207
0.574212 0.824216 0.614221
0.581079 0.826810 0.615808
0.587884 0.829465 0.616205
0.596124 0.832517 0.616114
0.605676 0.836057 0.615778
0.622156 0.840024 0.618372
0.649531 0.843931 0.626551
0.679255 0.848600 0.636011
0.710140 0.853635 0.646418
0.741634 0.859037 0.657588
0.748836 0.853330 0.635859
0.753780 0.843534 0.601617
0.762234 0.831876 0.559045
0.775113 0.817807 0.505058
0.794522 0.801114 0.437446
0.821683 0.781247 0.351965
0.865293 0.766537 0.244968
0.911589 0.762387 0.156771
0.941283 0.752529 0.117128
0.969116 0.743679 0.006134
0.995605 0.736233 0.000000
1.000000 0.730251 0.000000
1.000000 0.725948 0.000000
1.000000 0.723690 0.000000
1.000000 0.724086 0.000000
1.000000 0.727596 0.000000
1.000000 0.736294 0.000000
1.000000 0.749752 0.000000
1.000000 0.766659 0.000000
0.608148 0.843381 0.642664
0.610956 0.844785 0.644556
0.614832 0.846525 0.646479
0.619501 0.848600 0.648249
0.624781 0.850919 0.649439
0.630579 0.853178 0.649805
0.637293 0.855955 0.649866
0.645594 0.859098 0.649714
0.655390 0.863005 0.649622
0.678279 0.866423 0.656519
0.704158 0.870481 0.664973
0.731319 0.874876 0.674342
0.759091 0.879667 0.684352
0.782071 0.882475 0.688350
0.785061 0.874540 0.660517
0.791073 0.865080 0.627253
0.800748 0.854063 0.587549
0.814572 0.841276 0.538659
0.833310 0.826505 0.476783
0.858335 0.809232 0.399359
0.897826 0.797177 0.304448
0.940551 0.795193 0.233463
0.967895 0.788327 0.208164
0.994263 0.783017 0.178958
1.000000 0.778897 0.138674
1.000000 0.776059 0.045045
1.000000 0.774960 0.000000
1.000000 0.775967 0.000000
1.000000 0.779385 0.000000
1.000000 0.785336 0.000000
1.000000 0.794430 0.000000
1.000000 0.808835 0.000000
0.665400 0.875395 0.687465
0.666468 0.875975 0.688136
0.668208 0.876646 0.688777
0.670558 0.877745 0.689052
0.673793 0.878996 0.689113
0.677852 0.880491 0.688930
0.683009 0.882567 0.688594
0.689693 0.885222 0.688380
0.697780 0.888579 0.688136
0.713680 0.892027 0.692012
0.735775 0.895476 0.699611
0.759243 0.899321 0.707942
0.783352 0.903380 0.716884
0.807980 0.907591 0.726467
0.820401 0.906035 0.718013
0.824216 0.898405 0.690578
0.830808 0.889372 0.658412
0.840482 0.878813 0.620356
0.853635 0.866575 0.574945
0.870573 0.852506 0.517906
0.891936 0.836088 0.444587
0.926329 0.824826 0.355901
0.964294 0.822934 0.288609
0.988434 0.816922 0.265263
1.000000 0.813046 0.238895
1.000000 0.810666 0.208438
1.000000 0.809842 0.169955
1.000000 0.810849 0.115053
1.000000 0.813779 0.000000
1.000000 0.818723 0.000000
1.000000 0.825711 0.000000
1.000000 0.834470 0.000000
0.702693 0.897826 0.718837
0.703517 0.898222 0.719417
0.704982 0.898924 0.720058
0.707118 0.899779 0.720394
0.709834 0.900877 0.720485
0.713436 0.902281 0.720394
0.717952 0.904143 0.720150
0.723659 0.906462 0.719966
0.730739 0.909239 0.719997
0.740749 0.912505 0.721065
0.760281 0.915373 0.727810
0.780911 0.918517 0.735409
0.802640 0.921874 0.743679
0.824887 0.925353 0.752499
0.847105 0.928893 0.761776
0.851438 0.924224 0.742214
0.856229 0.917479 0.715816
0.863676 0.909483 0.685054
0.873777 0.900114 0.648615
0.886900 0.889128 0.605951
0.903014 0.876341 0.553674
0.922637 0.861540 0.486793
0.953368 0.851713 0.405402
0.987518 0.850797 0.343359
1.000000 0.841886 0.310216
1.000000 0.839384 0.285954
1.000000 0.838804 0.260136
1.000000 0.839689 0.230900
1.000000 0.842283 0.195987
1.000000 0.846647 0.149874
1.000000 0.852781 0.053803
1.000000 0.860441 0.000000
0.744259 0.922271 0.755306
0.745510 0.922911 0.756283
0.746700 0.923430 0.756710
0.748043 0.923857 0.756588
0.749538 0.924346 0.756008
0.751827 0.925017 0.755215
0.754665 0.925933 0.754208
0.758572 0.927276 0.753109
0.763790 0.929015 0.752224
0.770382 0.931243 0.751553
0.784268 0.933196 0.755245
0.802152 0.935271 0.761471
0.820798 0.937469 0.768246
0.840085 0.939818 0.775540
0.859403 0.942199 0.783169
0.873869 0.942840 0.783810
0.875853 0.937530 0.760708
0.880705 0.931365 0.734524
0.888426 0.924224 0.704311
0.899046 0.915953 0.669551
0.912322 0.906371 0.628595
0.928008 0.895079 0.579644
0.946197 0.881651 0.517327
0.973968 0.872740 0.440101
1.000000 0.871702 0.379339
1.000000 0.867582 0.357214
1.000000 0.865843 0.334112
1.000000 0.866239 0.310307
1.000000 0.868070 0.284703
1.000000 0.871550 0.256901
1.000000 0.876585 0.226505
1.000000 0.883085 0.190890
0.772732 0.938231 0.780697
0.773953 0.938750 0.781552
0.775174 0.939269 0.782101
0.776638 0.939727 0.782254
0.778531 0.940337 0.782223
0.781094 0.941161 0.782010
0.784512 0.942229 0.781888
0.788998 0.943664 0.781796
0.794461 0.945373 0.781827
0.800992 0.947417 0.781979
0.811093 0.949401 0.783963
0.827115 0.950988 0.789822
0.843839 0.952667 0.796139
0.860960 0.954345 0.802884
0.877928 0.956023 0.809812
0.894774 0.957702 0.817044
0.901396 0.956085 0.807767
0.903624 0.951812 0.785580
0.908690 0.946777 0.760342
0.916564 0.940887 0.731350
0.927153 0.933959 0.697810
0.940002 0.925811 0.658778
0.954955 0.916136 0.612116
0.971954 0.904631 0.554498
0.997131 0.897307 0.484718
1.000000 0.896941 0.427649
1.000000 0.893980 0.407477
1.000000 0.893339 0.387793
1.000000 0.895048 0.368109
1.000000 0.898009 0.347814
1.000000 0.902159 0.326604
1.000000 0.907439 0.304601
0.806607 0.954284 0.809812
0.807248 0.954498 0.810269
0.808072 0.954711 0.810452
0.809201 0.955047 0.810544
0.810788 0.955444 0.810391
0.812955 0.955993 0.810208
0.815824 0.956786 0.809995
0.819669 0.957733 0.809934
0.824399 0.958953 0.809903
0.830076 0.960418 0.810056
0.836576 0.962036 0.810300
0.850309 0.963134 0.815305
0.864897 0.964233 0.820981
0.879850 0.965332 0.827024
0.894621 0.966430 0.833219
0.909270 0.967559 0.839658
0.923522 0.968688 0.846433
0.924163 0.966033 0.828550
0.926757 0.962676 0.807340
0.932006 0.958740 0.783383
0.939849 0.954009 0.755642
0.950103 0.948363 0.723354
0.962463 0.941527 0.685481
0.976776 0.933379 0.640009
0.992767 0.923674 0.585534
1.000000 0.917662 0.521050
1.000000 0.917571 0.466712
1.000000 0.915160 0.447364
1.000000 0.914855 0.429267
1.000000 0.917296 0.412177
1.000000 0.920836 0.395666
1.000000 0.925475 0.380041
0.836973 0.966217 0.835355
0.837491 0.966369 0.835660
0.838315 0.966552 0.835966
0.839506 0.966827 0.836149
0.841337 0.967254 0.836423
0.843931 0.967834 0.836881
0.847837 0.968719 0.837858
0.852689 0.969818 0.839139
0.858488 0.971069 0.840696
0.865263 0.972503 0.842588
0.872740 0.974060 0.844602
0.883543 0.975250 0.848844
0.896818 0.976104 0.855070
0.909819 0.976928 0.861204
0.922332 0.977661 0.867216
0.934051 0.978302 0.872984
0.945220 0.978912 0.878752
0.952148 0.978820 0.877806
0.952789 0.977081 0.861723
0.955352 0.974914 0.842771
0.960082 0.972320 0.820706
0.967163 0.969055 0.794766
0.976501 0.964996 0.764309
0.987945 0.960082 0.728389
1.000000 0.954162 0.685786
1.000000 0.947082 0.634546
1.000000 0.942931 0.576684
1.000000 0.943175 0.528527
1.000000 0.941375 0.511772
1.000000 0.941253 0.496437
1.000000 0.943969 0.484016
1.000000 0.947387 0.472480
0.879088 0.978302 0.869444
0.879179 0.978332 0.869444
0.879545 0.978363 0.869413
0.880186 0.978454 0.869352
0.881285 0.978576 0.869322
0.882933 0.978851 0.869322
0.885252 0.979187 0.869505
0.888243 0.979644 0.869780
0.891966 0.980224 0.870298
0.896361 0.980896 0.870970
0.901396 0.981628 0.871824
0.907439 0.982330 0.873228
0.917449 0.982635 0.877653
0.927428 0.982910 0.882231
