20 Preset/Art Style/【3】LUT video cho PR-AE-FCPX/400H Daylight .cube
# Created by Adobe Lightroom plugin Export LUT (1.24.0)
# www.johnrellis.com/lightroom/exportlut.htm
# Preset: 400H Daylight 
# Color profile: E:\lut插件\exportlut.1.24\exportlut.lrplugin\color profiles\Rec709gamma2.4.icc
LUT_3D_SIZE 8
DOMAIN_MIN 0.000000 0.000000 0.000000
DOMAIN_MAX 0.903226 0.903226 0.903226
0.041291 0.021668 0.082643
0.057465 0.022065 0.083131
0.147005 0.013611 0.080629
0.486213 0.000000 0.045594
0.824155 0.000000 0.000000
0.992859 0.000000 0.000000
1.000000 0.000000 0.000000
1.000000 0.000000 0.000000
0.034760 0.048707 0.091005
0.055940 0.052033 0.089418
0.149111 0.072755 0.080415
0.464393 0.000000 0.024628
0.799619 0.000000 0.000000
0.975494 0.000000 0.000000
1.000000 0.000000 0.000000
1.000000 0.000000 0.000000
0.000000 0.238834 0.111971
0.000000 0.234318 0.112337
0.208560 0.263188 0.039765
0.547448 0.264775 0.000000
0.809934 0.225467 0.000000
0.975402 0.193027 0.000000
1.000000 0.182895 0.000000
1.000000 0.179904 0.000000
0.000000 0.579736 0.230289
0.000000 0.573663 0.234989
0.217746 0.550408 0.203677
0.603021 0.613428 0.074098
0.842924 0.598505 0.000000
0.958404 0.538567 0.000000
1.000000 0.487098 0.000000
1.000000 0.442725 0.000000
0.199191 0.759335 0.463294
0.295018 0.755215 0.469581
0.417151 0.742794 0.445655
0.573602 0.721035 0.401740
0.768307 0.761776 0.374609
0.904540 0.744320 0.325383
0.981384 0.694148 0.231968
1.000000 0.652430 0.057343
0.535698 0.832517 0.634455
0.564080 0.833127 0.645777
0.594965 0.827817 0.635309
0.646418 0.817288 0.607874
0.727077 0.810727 0.576257
0.838529 0.832395 0.580102
0.924315 0.831998 0.584588
0.982208 0.807095 0.531731
0.690578 0.874601 0.756924
0.698360 0.874174 0.759823
0.710872 0.871244 0.756435
0.727535 0.866300 0.742123
0.755093 0.857633 0.715633
0.808530 0.860472 0.705715
0.877287 0.876005 0.716945
0.936828 0.882902 0.729976
0.776577 0.913756 0.834379
0.779538 0.913329 0.835050
0.788388 0.912016 0.835660
0.798428 0.910124 0.831205
0.806241 0.901946 0.814298
0.830045 0.897398 0.801938
0.870512 0.906737 0.806760
0.917113 0.919005 0.812802
0.039551 0.023346 0.093507
0.052735 0.022980 0.093446
0.140841 0.004150 0.091829
0.445289 0.000000 0.075471
0.793545 0.000000 0.000000
0.972930 0.000000 0.000000
1.000000 0.000000 0.000000
1.000000 0.000000 0.000000
0.032929 0.047944 0.101167
0.049622 0.052705 0.101961
0.152926 0.052369 0.097444
0.457923 0.000000 0.071260
0.791287 0.000000 0.000000
0.968231 0.000000 0.000000
1.000000 0.000000 0.000000
1.000000 0.000000 0.000000
0.000000 0.230808 0.158053
0.000000 0.234073 0.148928
0.202365 0.253269 0.122103
0.528527 0.247684 0.000000
0.797971 0.192538 0.000000
0.964172 0.138277 0.000000
1.000000 0.101900 0.000000
1.000000 0.101137 0.000000
0.000000 0.557916 0.268681
0.000000 0.556176 0.259220
0.204868 0.536065 0.243046
0.567559 0.580682 0.163058
0.807950 0.562188 0.000000
0.934752 0.509361 0.000000
1.000000 0.463355 0.000000
1.000000 0.423987 0.000000
0.207218 0.753048 0.477394
0.258579 0.749660 0.472023
0.411109 0.735409 0.457984
0.560296 0.709682 0.410651
0.752346 0.747066 0.378119
0.893889 0.731716 0.331548
0.973968 0.684321 0.248966
1.000000 0.644190 0.130068
0.524926 0.828031 0.632532
0.536400 0.827176 0.632136
0.581964 0.821592 0.630213
0.637018 0.811704 0.605493
0.719814 0.804593 0.574914
0.834195 0.828550 0.583001
0.920439 0.828092 0.587030
0.978882 0.802640 0.532677
0.681514 0.871397 0.751827
0.683711 0.870451 0.750210
0.701015 0.867124 0.749691
0.719478 0.862486 0.736355
0.750057 0.854704 0.712642
0.804013 0.856962 0.701564
0.873472 0.872129 0.710567
0.933928 0.878447 0.722103
0.771481 0.911070 0.830991
0.773953 0.911284 0.831571
0.784604 0.909758 0.833310
0.794827 0.907866 0.828946
0.810086 0.904204 0.820310
0.831174 0.898253 0.805539
0.869566 0.905974 0.807248
0.916258 0.918303 0.813230
0.000000 0.026276 0.164157
0.019593 0.023865 0.167391
0.133455 0.007416 0.167025
0.476967 0.000000 0.182406
0.824613 0.000000 0.143465
0.988434 0.000000 0.103029
1.000000 0.000000 0.000000
1.000000 0.000000 0.000000
0.000000 0.069032 0.192172
0.000000 0.068666 0.194858
0.158602 0.042725 0.192966
0.496315 0.000000 0.191928
0.819944 0.000000 0.154788
0.983001 0.000000 0.114046
1.000000 0.000000 0.000000
1.000000 0.000000 0.000000
0.000000 0.240269 0.276799
0.000000 0.245548 0.277501
0.216678 0.261631 0.279942
0.564019 0.228794 0.249973
0.823209 0.160098 0.205783
0.976715 0.131136 0.153994
1.000000 0.109163 0.006287
1.000000 0.000000 0.000000
0.000000 0.580957 0.429938
0.000000 0.581201 0.426917
0.282170 0.576806 0.406897
0.585870 0.590539 0.374273
0.805203 0.573022 0.325078
0.934722 0.533745 0.268956
1.000000 0.498268 0.214847
1.000000 0.458473 0.097627
0.332677 0.755062 0.566613
0.363470 0.753262 0.563958
0.463600 0.746761 0.554406
0.592370 0.725582 0.525170
0.755184 0.751919 0.507439
0.881559 0.738064 0.477272
0.959869 0.698848 0.413306
1.000000 0.666041 0.352209
0.555322 0.828000 0.675135
0.565759 0.827481 0.675288
0.600916 0.823850 0.671748
0.654780 0.813748 0.656519
0.722347 0.801450 0.622797
0.828946 0.826627 0.635615
0.910491 0.828000 0.642359
0.968322 0.808011 0.599969
0.694881 0.872831 0.772274
0.697017 0.871977 0.770993
0.708675 0.869322 0.767819
0.731197 0.863890 0.760769
0.757046 0.856046 0.739254
0.804990 0.856229 0.726345
0.872221 0.873136 0.739895
0.931212 0.881834 0.755337
0.773617 0.911894 0.838041
0.774746 0.911376 0.837400
0.781247 0.910430 0.836423
0.797543 0.908812 0.837034
0.811948 0.905058 0.828641
0.832975 0.899718 0.815793
0.869932 0.906340 0.816129
0.916289 0.919066 0.822690
0.000000 0.017762 0.383429
0.000000 0.007782 0.393133
0.183444 0.000000 0.412726
0.473396 0.000000 0.394202
0.789578 0.000000 0.366369
0.983398 0.000000 0.334264
1.000000 0.000000 0.317845
1.000000 0.000000 0.271305
0.000000 0.086183 0.420478
0.000000 0.081086 0.425269
0.212680 0.000000 0.439704
0.508232 0.000000 0.420600
0.800595 0.000000 0.384344
0.984131 0.000000 0.353002
1.000000 0.000000 0.341314
1.000000 0.000000 0.284123
0.000000 0.283452 0.468208
0.000000 0.287785 0.474220
0.269291 0.285618 0.489601
0.560845 0.255467 0.480568
0.816800 0.227878 0.454932
0.966796 0.276219 0.443580
1.000000 0.347631 0.424628
1.000000 0.321630 0.353063
0.000000 0.574762 0.576532
0.000000 0.575189 0.575280
0.380041 0.579767 0.574273
0.587610 0.591119 0.575677
0.784634 0.582086 0.553033
0.908659 0.574884 0.527184
0.990204 0.563897 0.493599
1.000000 0.537224 0.435004
0.447913 0.766873 0.691035
0.467109 0.764614 0.687709
0.538689 0.758480 0.678889
0.635523 0.750790 0.664881
0.754208 0.756222 0.649226
0.860197 0.746029 0.629206
0.935393 0.723171 0.592309
1.000000 0.702998 0.555108
0.613458 0.833097 0.746853
0.626490 0.834104 0.749844
0.650843 0.830564 0.745174
0.694270 0.825010 0.738521
0.741787 0.810727 0.712398
0.825071 0.827970 0.716915
0.896574 0.830076 0.719356
0.952758 0.815396 0.685389
0.711696 0.874937 0.802213
0.715236 0.874723 0.802182
0.727626 0.873136 0.800900
0.749142 0.869993 0.797726
0.773800 0.862272 0.785000
0.808377 0.856474 0.765927
0.869841 0.873991 0.778286
0.926329 0.883146 0.789822
0.779721 0.915373 0.853330
0.781125 0.915129 0.853056
0.787411 0.914122 0.851896
0.799466 0.912505 0.849943
0.816587 0.908171 0.844907
0.835508 0.902434 0.832670
0.869413 0.906218 0.829435
0.916503 0.920439 0.837888
0.000000 0.000000 0.634730
0.000000 0.000000 0.640162
0.216739 0.000000 0.650935
0.558587 0.000000 0.671168
0.786282 0.000000 0.628779
0.944976 0.000000 0.555077
1.000000 0.000000 0.518700
1.000000 0.000000 0.492775
0.000000 0.096407 0.650416
0.000000 0.089052 0.655482
0.262608 0.000000 0.664302
0.572717 0.000000 0.678737
0.791348 0.000000 0.638239
0.942229 0.000000 0.565942
1.000000 0.000000 0.533257
1.000000 0.204807 0.510246
0.000000 0.326787 0.673884
0.021363 0.328191 0.675685
0.354620 0.329015 0.680995
0.596490 0.330266 0.693721
0.790005 0.299229 0.666560
0.915679 0.336004 0.601801
1.000000 0.385809 0.583368
1.000000 0.439765 0.568322
0.276341 0.573388 0.693446
0.322759 0.575616 0.692958
0.458412 0.587518 0.694545
0.613397 0.603296 0.711574
0.759365 0.600732 0.705623
0.873930 0.603876 0.678218
0.954040 0.616541 0.668513
1.000000 0.618402 0.646174
0.485420 0.739925 0.747616
0.504082 0.740444 0.747707
0.566918 0.741726 0.747219
0.655024 0.744289 0.746242
0.740658 0.747311 0.744442
0.836332 0.742061 0.731899
0.910704 0.735866 0.715816
0.975830 0.723720 0.688014
0.637751 0.830838 0.800748
0.644770 0.830442 0.800443
0.665980 0.827024 0.795468
0.703792 0.822080 0.787900
0.749264 0.815763 0.776608
0.815488 0.822568 0.774350
0.881529 0.824552 0.771572
0.938018 0.814420 0.747555
0.724941 0.876280 0.833799
0.726223 0.875608 0.832609
0.734188 0.873747 0.829465
0.754330 0.871427 0.826108
0.780911 0.867094 0.819974
0.808316 0.855741 0.801389
0.864530 0.871214 0.808682
0.919249 0.878416 0.812863
0.773434 0.915343 0.865507
0.774990 0.915007 0.865141
0.781704 0.913939 0.863920
0.797177 0.913573 0.863828
0.814786 0.910948 0.860075
0.835416 0.904631 0.850919
0.864042 0.902312 0.840848
0.912993 0.918181 0.850248
0.000000 0.000000 0.799039
0.000000 0.000000 0.801083
0.329717 0.000000 0.803586
0.574182 0.000000 0.810605
0.787991 0.000000 0.815488
0.934661 0.000000 0.781216
1.000000 0.176547 0.703609
1.000000 0.325750 0.662776
0.000000 0.147738 0.795407
0.085359 0.144167 0.796017
0.355261 0.123384 0.799344
0.578332 0.013123 0.806180
0.783688 0.000000 0.811917
0.926085 0.000000 0.778042
0.998230 0.256046 0.704219
1.000000 0.361151 0.666316
0.310979 0.390570 0.802304
0.346105 0.391638 0.802976
0.462959 0.398871 0.806180
0.615869 0.407355 0.809293
0.778500 0.430091 0.815122
0.901152 0.414832 0.786526
0.968017 0.469551 0.726619
1.000000 0.507836 0.700587
0.487129 0.620386 0.801022
0.506188 0.622858 0.801236
0.560052 0.624720 0.805173
0.658045 0.639307 0.812497
0.768185 0.655818 0.820310
0.861112 0.642634 0.803464
0.923095 0.651698 0.764920
0.985626 0.659266 0.754147
0.559075 0.733242 0.806088
0.569757 0.733913 0.805692
0.610895 0.736934 0.804715
0.674800 0.743313 0.803647
0.752804 0.754910 0.814115
0.825101 0.753231 0.811032
0.889555 0.751064 0.795895
0.952728 0.751095 0.789853
0.657801 0.816861 0.828916
0.666102 0.817838 0.829801
0.687770 0.818021 0.829252
0.723568 0.818631 0.828489
0.766262 0.819547 0.827481
0.813016 0.823026 0.828489
0.873930 0.822507 0.824247
0.930846 0.819028 0.814664
0.745937 0.878874 0.867552
0.749447 0.879240 0.868070
0.759823 0.879271 0.868254
0.777401 0.878813 0.867399
0.796658 0.875395 0.860929
0.820584 0.869108 0.849821
0.863157 0.872160 0.845274
0.915526 0.876219 0.843351
0.785763 0.918700 0.891447
0.786313 0.918303 0.890776
0.790341 0.917540 0.889097
0.799741 0.916869 0.886534
0.814664 0.914855 0.881743
0.836576 0.910857 0.875212
0.860502 0.901274 0.860807
0.910613 0.917266 0.869047
0.309087 0.191409 0.878019
0.345892 0.194858 0.878874
0.455940 0.198001 0.879698
0.605921 0.212833 0.881956
0.759518 0.248020 0.884428
0.893278 0.275486 0.880613
0.988098 0.284550 0.853513
1.000000 0.403388 0.789975
0.345159 0.256260 0.874632
0.377234 0.260258 0.875639
0.473518 0.265049 0.876555
0.610010 0.277653 0.878172
0.756344 0.306920 0.880522
0.885985 0.326299 0.876768
0.980346 0.322911 0.849668
1.000000 0.418555 0.786954
0.464881 0.456977 0.870939
0.481453 0.458350 0.871183
0.542840 0.463447 0.871519
0.642359 0.475624 0.872770
0.757443 0.495949 0.874540
0.868254 0.509209 0.872984
0.954589 0.499641 0.851255
0.995605 0.544549 0.801816
0.572015 0.641169 0.863188
0.579675 0.640620 0.863005
0.614618 0.642695 0.863371
0.679377 0.650660 0.865385
0.760372 0.661799 0.868070
0.845731 0.674403 0.870603
0.916838 0.658839 0.854582
0.961456 0.668696 0.820279
0.621515 0.740047 0.852750
0.628382 0.740414 0.852628
0.659449 0.745083 0.853635
0.708125 0.752651 0.857145
0.761318 0.757137 0.861540
0.827085 0.767422 0.867308
0.884001 0.756039 0.856901
0.931853 0.757015 0.837125
0.684749 0.812955 0.862242
0.688899 0.813230 0.862181
0.704616 0.813993 0.861723
0.731868 0.815091 0.860838
0.767086 0.816098 0.859098
0.817777 0.824277 0.868040
0.867491 0.824338 0.867521
0.917937 0.820249 0.858488
0.744930 0.866728 0.880064
0.747677 0.867033 0.880278
0.756649 0.867155 0.880156
0.773770 0.867643 0.880095
0.797269 0.868132 0.879698
0.826322 0.869017 0.879240
0.860044 0.870542 0.878904
0.913329 0.869627 0.874907
0.792813 0.917845 0.911162
0.794339 0.917967 0.911284
0.801328 0.918822 0.912108
0.813291 0.919829 0.912871
0.830808 0.921172 0.913787
0.846372 0.918914 0.907897
0.866911 0.913207 0.896849
0.909239 0.917327 0.893889
0.518547 0.376043 0.925628
0.532341 0.379400 0.925841
0.580041 0.384192 0.925475
0.662715 0.400183 0.925780
0.761929 0.424079 0.926024
0.862791 0.456641 0.926543
0.951995 0.462348 0.921843
1.000000 0.453315 0.901793
0.531273 0.414374 0.922911
0.544121 0.417212 0.923125
0.589532 0.422461 0.923064
0.666804 0.435523 0.923308
0.761624 0.456428 0.923674
0.859312 0.484474 0.924346
0.946868 0.485512 0.919799
1.000000 0.471839 0.899992
0.583124 0.541588 0.916136
0.591913 0.542901 0.916197
0.625544 0.545190 0.916167
0.689204 0.556878 0.917235
0.766598 0.568231 0.917754
0.850462 0.584253 0.918700
0.929686 0.581964 0.915526
0.994598 0.562371 0.897948
0.639155 0.668391 0.907317
0.645594 0.669398 0.907500
0.669062 0.671138 0.907805
0.713588 0.676570 0.908812
0.772793 0.684108 0.910246
0.840055 0.694423 0.912230
0.906523 0.693599 0.911254
0.965179 0.672114 0.896971
0.694820 0.765438 0.898558
0.699916 0.766629 0.898863
0.704738 0.760281 0.900114
0.731655 0.759854 0.901762
0.776059 0.763973 0.903716
0.829770 0.770047 0.906645
0.886961 0.773770 0.908873
0.937499 0.756924 0.897429
0.708370 0.815915 0.895506
0.710048 0.815427 0.895109
0.718654 0.814176 0.893950
0.743465 0.815732 0.894926
0.781491 0.820432 0.898741
0.822263 0.822721 0.904631
0.875975 0.831907 0.911681
0.920134 0.821958 0.903655
0.755032 0.868772 0.908080
0.756435 0.868620 0.907958
0.762692 0.868132 0.907439
0.775601 0.867643 0.906798
0.794827 0.866697 0.905669
0.820035 0.865019 0.903960
0.864256 0.870848 0.912566
0.911070 0.870665 0.912535
0.794614 0.911223 0.924193
0.795651 0.911162 0.924132
0.800443 0.911284 0.924132
0.810605 0.911864 0.924407
0.825742 0.912566 0.924681
0.846250 0.913451 0.924834
0.873198 0.914733 0.924987
0.907408 0.916381 0.924804
