20 Preset/Art Style/【3】LUT video cho PR-AE-FCPX/400H Alt.cube
# Created by Adobe Lightroom plugin Export LUT (1.24.0)
# www.johnrellis.com/lightroom/exportlut.htm
# Preset: 400H Alt
# Color profile: E:\lut插件\exportlut.1.24\exportlut.lrplugin\color profiles\Rec709gamma2.4.icc
LUT_3D_SIZE 8
DOMAIN_MIN 0.000000 0.000000 0.000000
DOMAIN_MAX 0.903226 0.903226 0.903226
0.029297 0.029297 0.029297
0.138735 0.048310 0.053407
0.326421 0.033753 0.067964
0.546929 0.000000 0.028687
0.744442 0.000000 0.000000
0.889921 0.030579 0.000000
1.000000 0.111574 0.000000
1.000000 0.152743 0.133120
0.039429 0.127413 0.082704
0.134615 0.132876 0.056458
0.323796 0.158907 0.038636
0.540612 0.169802 0.000000
0.736721 0.175326 0.000000
0.882109 0.178897 0.000000
0.990173 0.185672 0.000000
1.000000 0.197879 0.121950
0.000000 0.316930 0.129824
0.042878 0.312169 0.136507
0.333715 0.328283 0.000000
0.565881 0.356573 0.000000
0.749691 0.356207 0.000000
0.892729 0.345464 0.000000
0.997223 0.334142 0.000000
1.000000 0.325566 0.126436
0.000000 0.570184 0.241215
0.000000 0.565637 0.253635
0.296757 0.564294 0.216129
0.591913 0.581689 0.000000
0.793606 0.569207 0.000000
0.903014 0.519524 0.000000
0.992340 0.485725 0.043153
1.000000 0.461341 0.143435
0.000000 0.751614 0.417090
0.191257 0.749599 0.424842
0.362615 0.745510 0.435187
0.520012 0.744320 0.358434
0.752010 0.740200 0.199863
0.897765 0.698238 0.161807
0.973480 0.631769 0.178073
1.000000 0.594812 0.213107
0.428717 0.844175 0.572259
0.454200 0.845274 0.581201
0.521691 0.841764 0.600397
0.573358 0.840482 0.570092
0.670283 0.836423 0.495735
0.843107 0.830961 0.375250
0.961608 0.792905 0.338079
1.000000 0.732174 0.323674
0.599969 0.901122 0.691310
0.608911 0.900908 0.694667
0.638758 0.898711 0.704341
0.673213 0.896727 0.705043
0.701045 0.896117 0.665614
0.769863 0.893675 0.599817
0.900877 0.889464 0.495796
1.000000 0.858305 0.448127
0.702754 0.941039 0.770932
0.706600 0.940734 0.772183
0.723018 0.939574 0.778073
0.752987 0.937499 0.789731
0.757900 0.936522 0.765133
0.784146 0.937621 0.731289
0.839231 0.937041 0.671687
0.944213 0.933349 0.593194
0.002960 0.081758 0.142458
0.145693 0.046937 0.139986
0.292302 0.010407 0.151492
0.509209 0.000000 0.134707
0.714534 0.000000 0.120241
0.867613 0.000000 0.105867
0.979431 0.112398 0.111666
1.000000 0.165621 0.139345
0.000000 0.140505 0.137545
0.137270 0.137270 0.137270
0.304356 0.143465 0.139895
0.513970 0.147524 0.132082
0.715572 0.152407 0.116030
0.867185 0.163485 0.101717
0.974823 0.179690 0.107973
1.000000 0.205051 0.136446
0.000000 0.312078 0.193423
0.120851 0.308202 0.192844
0.320775 0.316503 0.153506
0.542779 0.338140 0.123262
0.729305 0.339666 0.099306
0.873045 0.331182 0.094759
0.976867 0.322057 0.115084
1.000000 0.321324 0.151583
0.000000 0.553674 0.276432
0.000000 0.550805 0.286961
0.304692 0.548852 0.278233
0.566613 0.557488 0.159854
0.761044 0.544671 0.112398
0.878111 0.503624 0.122194
0.973236 0.474250 0.148165
1.000000 0.453864 0.181643
0.144015 0.743587 0.435615
0.227176 0.741146 0.441962
0.384863 0.735195 0.462684
0.518547 0.732143 0.391516
0.738369 0.726894 0.258854
0.883970 0.688289 0.224369
0.963195 0.626184 0.223789
1.000000 0.591272 0.243900
0.433356 0.838560 0.577203
0.452735 0.837827 0.582116
0.519921 0.834806 0.601160
0.577111 0.833707 0.581231
0.669734 0.830533 0.513909
0.838071 0.826566 0.407019
0.955352 0.789975 0.368566
1.000000 0.730159 0.347326
0.599084 0.897826 0.691859
0.605371 0.897002 0.693263
0.635218 0.894774 0.702724
0.674495 0.892760 0.708461
0.703090 0.892943 0.672663
0.769619 0.890593 0.610407
0.897307 0.886137 0.509972
0.995941 0.855406 0.461341
0.701595 0.939483 0.770809
0.706325 0.939391 0.772763
0.722621 0.938201 0.778531
0.752712 0.936217 0.790188
0.765988 0.937011 0.774655
0.789029 0.937469 0.740658
0.840940 0.936370 0.681971
0.943725 0.933043 0.591699
0.000000 0.143801 0.363592
0.000000 0.098421 0.360723
0.349828 0.000000 0.332921
0.440894 0.105715 0.324620
0.676173 0.000000 0.325780
0.849729 0.000000 0.266178
0.960296 0.000000 0.274754
1.000000 0.161532 0.284886
0.000000 0.215793 0.341283
0.000000 0.185672 0.338842
0.335515 0.132692 0.321752
0.453834 0.155825 0.322087
0.680049 0.000000 0.307622
0.844053 0.000000 0.267124
0.956359 0.134157 0.273930
1.000000 0.202640 0.283207
0.000000 0.326085 0.317937
0.000000 0.322942 0.316075
0.316350 0.316350 0.316350
0.514488 0.305425 0.301335
0.702235 0.303227 0.292668
0.849577 0.305180 0.287144
0.958618 0.310704 0.287022
1.000000 0.323491 0.295689
0.000000 0.543725 0.396490
0.177890 0.541894 0.403204
0.355657 0.540185 0.411872
0.550256 0.544549 0.363561
0.729976 0.522698 0.332769
0.858610 0.497322 0.322179
0.958282 0.476051 0.318669
1.000000 0.462470 0.323644
0.325750 0.728176 0.518395
0.344793 0.727993 0.517449
0.440681 0.725948 0.531365
0.552819 0.723384 0.518364
0.728389 0.719844 0.434424
0.863035 0.682124 0.395087
0.947295 0.630243 0.372839
1.000000 0.600488 0.371099
0.488746 0.830716 0.620722
0.499672 0.830747 0.622614
0.556695 0.828367 0.638758
0.624872 0.825528 0.649348
0.688075 0.823209 0.597314
0.829801 0.820554 0.520897
0.939055 0.788693 0.482887
1.000000 0.735653 0.451301
0.629328 0.895445 0.718379
0.635126 0.894774 0.719753
0.661067 0.892638 0.727596
0.707576 0.889555 0.744442
0.729335 0.889494 0.717403
0.783200 0.887907 0.669703
0.894499 0.885161 0.595300
0.986206 0.858366 0.549462
0.716915 0.938628 0.785519
0.720150 0.938262 0.786374
0.735348 0.937194 0.791592
0.764797 0.935760 0.803281
0.784451 0.935454 0.798337
0.804654 0.936217 0.770901
0.850126 0.935454 0.723873
0.942290 0.932891 0.643549
0.000000 0.223728 0.610010
0.000000 0.166201 0.608881
0.341802 0.057618 0.593408
0.584161 0.000000 0.555718
0.629328 0.120027 0.497871
0.777890 0.102449 0.499733
0.921355 0.000000 0.465461
1.000000 0.000000 0.423438
0.000000 0.291142 0.595880
0.000000 0.262181 0.593225
0.319951 0.189273 0.582208
0.577050 0.000000 0.550347
0.626459 0.190982 0.497810
0.781399 0.164126 0.496040
0.921324 0.037873 0.459236
1.000000 0.000000 0.417700
0.000000 0.414893 0.562127
0.000000 0.408850 0.558618
0.255680 0.371374 0.549554
0.546563 0.312566 0.528130
0.621363 0.337774 0.500328
0.799985 0.297795 0.480629
0.930571 0.270603 0.442206
1.000000 0.313176 0.430518
0.000000 0.546990 0.532830
0.000000 0.543511 0.530388
0.232883 0.532464 0.523522
0.520684 0.520684 0.520684
0.679438 0.495766 0.492836
0.810941 0.482795 0.476570
0.919493 0.475349 0.465644
1.000000 0.474372 0.461463
0.146517 0.715145 0.575952
0.249332 0.712642 0.578485
0.443244 0.705165 0.593835
0.587945 0.705226 0.619532
0.707790 0.703456 0.582177
0.822965 0.667872 0.542657
0.917266 0.638148 0.521477
0.999634 0.616022 0.508232
0.559014 0.816739 0.685267
0.579156 0.817594 0.691676
0.605035 0.817899 0.692042
0.663752 0.818357 0.706111
0.718929 0.816556 0.695338
0.819333 0.813291 0.643275
0.913664 0.786282 0.605188
0.984558 0.743435 0.568933
0.671809 0.888853 0.757382
0.675776 0.888975 0.758053
0.691035 0.889036 0.760342
0.729793 0.887999 0.772824
0.767697 0.886625 0.776883
0.802792 0.885100 0.743099
0.889525 0.882750 0.691432
0.969696 0.860685 0.651270
0.742367 0.937865 0.810666
0.744289 0.937743 0.810849
0.754177 0.937255 0.812955
0.780423 0.935760 0.822324
0.812436 0.933837 0.833402
0.826169 0.934569 0.812070
0.862364 0.934142 0.777829
0.939910 0.932586 0.722469
0.000000 0.301427 0.773526
0.000000 0.280461 0.772580
0.098085 0.227970 0.765621
0.548608 0.130037 0.753079
0.757870 0.000000 0.721706
0.785641 0.180026 0.647395
0.846159 0.289616 0.635828
0.975402 0.277592 0.615259
0.000000 0.353643 0.765866
0.000000 0.339513 0.765469
0.092622 0.288609 0.759731
0.541253 0.219974 0.747372
0.752651 0.049958 0.717861
0.781552 0.233677 0.645991
0.847227 0.311009 0.634485
0.975067 0.297673 0.612787
0.000000 0.479561 0.742824
0.000000 0.472602 0.741756
0.164675 0.442145 0.735927
0.515190 0.392065 0.726864
0.728817 0.331914 0.700343
0.759426 0.364813 0.636622
0.849912 0.380407 0.626398
0.972625 0.360693 0.600671
0.000000 0.587488 0.717006
0.000000 0.585809 0.715206
0.222751 0.581262 0.708583
0.499397 0.564202 0.698848
0.695827 0.518853 0.679805
0.731350 0.514153 0.636988
0.863340 0.483314 0.614496
0.976287 0.454932 0.580102
0.000000 0.700923 0.684810
0.000000 0.699275 0.683925
0.235050 0.691859 0.679438
0.488533 0.679133 0.672053
0.665339 0.665339 0.665339
0.771725 0.637568 0.635584
0.874632 0.617884 0.613642
0.966979 0.605188 0.598535
0.318303 0.803342 0.686213
0.356420 0.802304 0.688045
0.469947 0.796841 0.694697
0.611048 0.789548 0.711543
0.718624 0.792477 0.737728
0.796994 0.793912 0.715541
0.880552 0.768368 0.681453
0.958404 0.743099 0.657435
0.632471 0.880613 0.768673
0.642115 0.879789 0.770382
0.681178 0.877440 0.778988
0.732601 0.877043 0.791470
0.777707 0.879118 0.804227
0.813443 0.878325 0.795956
0.880278 0.875944 0.759182
0.951019 0.855619 0.722621
0.758114 0.932891 0.834012
0.760067 0.932830 0.834073
0.768612 0.932738 0.834714
0.787533 0.933471 0.838682
0.818723 0.932708 0.848661
0.845914 0.932036 0.850401
0.871702 0.931762 0.824735
0.935821 0.930449 0.784970
0.000000 0.381140 0.866178
0.000000 0.377173 0.865537
0.000000 0.349401 0.861875
0.443275 0.320226 0.855924
0.692195 0.253635 0.847196
0.862577 0.174472 0.823545
0.895018 0.283848 0.762234
0.929686 0.401312 0.745846
0.000000 0.414313 0.859251
0.000000 0.410864 0.858213
0.000000 0.385931 0.855161
0.443854 0.356939 0.849485
0.686213 0.297002 0.840970
0.856016 0.232547 0.818143
0.888243 0.311681 0.757839
0.924315 0.413855 0.743099
0.000000 0.517510 0.847654
0.000000 0.515465 0.846647
0.205112 0.509819 0.843046
0.465492 0.479316 0.836759
0.677333 0.435615 0.829129
0.841123 0.387335 0.808347
0.872923 0.414923 0.752499
0.911437 0.473915 0.742000
0.000000 0.623285 0.830503
0.000000 0.624079 0.829007
0.315557 0.629816 0.824369
0.516320 0.621241 0.819883
0.672602 0.589380 0.813962
0.819364 0.547845 0.796139
0.849699 0.541863 0.748470
0.910491 0.548669 0.738918
0.000000 0.708827 0.807218
0.000000 0.708614 0.806302
0.336950 0.708095 0.802914
0.517510 0.708156 0.797208
0.660700 0.699367 0.789425
0.787320 0.663966 0.775387
0.815152 0.641230 0.738216
0.921782 0.611170 0.718257
0.000000 0.798215 0.782467
0.175418 0.797940 0.782712
0.345373 0.793606 0.780270
0.502770 0.785824 0.775662
0.640406 0.774685 0.769192
0.763790 0.763790 0.763790
0.845945 0.738552 0.737087
0.932341 0.720089 0.716854
0.424659 0.878050 0.775967
0.446632 0.877684 0.777646
0.519615 0.874937 0.782345
0.625452 0.870390 0.792172
0.736599 0.865965 0.809079
0.818631 0.869230 0.831449
0.869688 0.867491 0.811826
0.932280 0.845457 0.778836
0.674067 0.933623 0.829496
0.680995 0.933135 0.830625
0.710872 0.931640 0.836423
0.763119 0.929839 0.848875
0.819638 0.928618 0.864500
0.855772 0.929992 0.874784
0.882261 0.930022 0.868345
0.932128 0.928679 0.839414
0.000000 0.462165 0.921294
0.000000 0.466651 0.921111
0.000000 0.460945 0.918944
0.399878 0.446296 0.916075
0.604883 0.415747 0.911437
0.790005 0.359930 0.905211
0.927276 0.319463 0.887755
0.966247 0.370520 0.843137
0.000000 0.479805 0.915953
0.000000 0.483986 0.916014
0.114473 0.485695 0.913542
0.405798 0.465095 0.910674
0.602564 0.433509 0.906004
0.783902 0.377295 0.899351
0.920043 0.332616 0.881254
0.957671 0.373602 0.835355
0.000000 0.555566 0.909422
0.000000 0.557244 0.908782
0.287938 0.564111 0.905455
0.461830 0.552575 0.902098
0.616968 0.523278 0.897612
0.779782 0.478004 0.892058
0.911711 0.440192 0.876982
0.949462 0.459174 0.835111
0.113375 0.650660 0.899046
0.202914 0.650599 0.898131
0.367559 0.652369 0.895048
0.532586 0.659236 0.890532
0.645258 0.638392 0.886534
0.776730 0.604883 0.882414
0.896910 0.568261 0.869566
0.931090 0.560784 0.830076
0.220157 0.717952 0.884337
0.262333 0.717891 0.883116
0.387549 0.721126 0.880217
0.532250 0.729702 0.876341
0.661402 0.727504 0.870939
0.763760 0.700404 0.866514
0.873686 0.665614 0.854612
0.906676 0.651118 0.821378
0.266606 0.790127 0.868620
0.301335 0.790372 0.868376
0.404334 0.790860 0.867063
0.530694 0.791745 0.864622
0.652155 0.792355 0.860868
0.760403 0.788510 0.856565
0.855833 0.760586 0.846250
0.880705 0.732998 0.815030
0.291234 0.870634 0.854795
0.322271 0.870481 0.855009
0.409003 0.868009 0.853849
0.523857 0.863615 0.851835
0.638849 0.856352 0.847898
0.743191 0.846921 0.842496
0.835660 0.835660 0.835660
0.905180 0.811887 0.810605
0.422248 0.936034 0.835538
0.441444 0.935546 0.836545
0.514427 0.933898 0.841428
0.614649 0.930114 0.849058
0.719173 0.925505 0.859922
0.817319 0.922454 0.876402
0.888457 0.926268 0.897948
0.926940 0.925231 0.882231
0.000000 0.545617 0.959197
0.004822 0.551751 0.958709
0.336828 0.568750 0.955657
0.442390 0.550988 0.955138
0.575250 0.530571 0.953338
0.714229 0.495888 0.950774
0.862089 0.440894 0.948119
0.975891 0.408362 0.936522
0.000000 0.554498 0.956664
0.090150 0.560143 0.956298
0.347936 0.578851 0.953460
0.451637 0.563531 0.952605
0.578393 0.542931 0.950896
0.713863 0.508354 0.948455
0.859312 0.452888 0.945556
0.972686 0.417090 0.933684
0.109895 0.596704 0.951843
0.206882 0.600336 0.951324
0.374090 0.614252 0.948638
0.504570 0.621942 0.946990
0.603662 0.601007 0.945281
0.720577 0.567407 0.942840
0.855375 0.518547 0.940429
0.965515 0.480537 0.929412
0.204196 0.655634 0.945251
0.261509 0.658564 0.944915
0.397742 0.668360 0.942687
0.549248 0.688533 0.938964
0.640925 0.680903 0.936858
0.734585 0.654078 0.935088
0.850675 0.614374 0.933318
0.954559 0.575250 0.923766
0.195193 0.714809 0.937682
0.248203 0.717067 0.937560
0.369635 0.723445 0.935882
0.527550 0.736110 0.932677
0.662226 0.748714 0.927977
0.742458 0.730587 0.925811
0.841672 0.699886 0.924224
0.940429 0.665553 0.916228
0.221378 0.776852 0.928618
0.255283 0.776974 0.928069
0.363134 0.779019 0.926390
0.497993 0.785061 0.924163
0.628992 0.795163 0.921843
0.752712 0.803311 0.919127
0.837369 0.785306 0.918547
0.927977 0.758267 0.911833
0.259861 0.850248 0.920836
0.289769 0.850278 0.920592
0.384009 0.850492 0.919493
0.507012 0.851774 0.918181
0.630030 0.853941 0.916411
0.739376 0.856931 0.914824
0.834012 0.856840 0.913420
0.913207 0.830838 0.904845
0.275486 0.930022 0.912779
0.300694 0.929503 0.912535
0.388037 0.927916 0.911986
0.506828 0.925231 0.911406
0.623865 0.921111 0.910216
0.727565 0.915679 0.908110
0.818570 0.908812 0.904906
0.897765 0.897765 0.897765
