20 Preset/Art Style/【3】LUT video cho PR-AE-FCPX/400H Pastel Warm.cube
# Created by Adobe Lightroom plugin Export LUT (1.24.0)
# www.johnrellis.com/lightroom/exportlut.htm
# Preset: 400H Pastel Warm
# Color profile: E:\lut插件\exportlut.1.24\exportlut.lrplugin\color profiles\Rec709gamma2.4.icc
LUT_3D_SIZE 5
DOMAIN_MIN 0.000000 0.000000 0.000000
DOMAIN_MAX 0.903226 0.903226 0.903226
0.078035 0.147341 0.148104
0.161410 0.145724 0.146242
0.661860 0.000000 0.125856
1.000000 0.000000 0.082979
1.000000 0.000000 0.121035
0.000000 0.197208 0.153689
0.155184 0.196506 0.139284
0.622217 0.186984 0.090242
1.000000 0.000000 0.000000
1.000000 0.189670 0.048432
0.000000 0.629023 0.352636
0.200076 0.650660 0.348241
0.654200 0.589929 0.000000
0.969451 0.507347 0.000000
1.000000 0.526604 0.000000
0.665400 0.875395 0.687465
0.689693 0.885222 0.688380
0.820401 0.906035 0.718013
0.926329 0.824826 0.355901
1.000000 0.813779 0.000000
0.906615 0.984588 0.891783
0.914702 0.985534 0.892790
0.943236 0.986053 0.896330
0.979736 0.984375 0.873777
1.000000 0.967498 0.632441
0.035126 0.147616 0.171328
0.124971 0.145266 0.163516
0.614923 0.000000 0.157076
0.994049 0.000000 0.071656
1.000000 0.000000 0.073426
0.000000 0.196872 0.195346
0.157443 0.203372 0.199100
0.607141 0.179660 0.167636
0.986572 0.000000 0.045869
1.000000 0.187961 0.000000
0.000000 0.581262 0.369268
0.306218 0.598352 0.407019
0.622553 0.562310 0.224887
0.945464 0.502922 0.062348
1.000000 0.529229 0.000000
0.641840 0.862364 0.685786
0.706294 0.868650 0.706203
0.831052 0.902770 0.747860
0.919036 0.821714 0.450477
1.000000 0.815976 0.277501
0.894865 0.983795 0.889067
0.916320 0.983581 0.897704
0.950591 0.986633 0.908080
0.983978 0.985504 0.895232
1.000000 0.969940 0.673426
0.000000 0.172274 0.381201
0.000000 0.171969 0.384863
0.469123 0.143923 0.357824
0.960388 0.000000 0.366766
1.000000 0.346502 0.392004
0.000000 0.246372 0.410925
0.000000 0.246433 0.423987
0.515282 0.251774 0.403082
0.957244 0.250736 0.405982
1.000000 0.429572 0.412818
0.000000 0.526787 0.510338
0.000000 0.533928 0.513909
0.610864 0.561456 0.538262
0.917052 0.582055 0.515129
1.000000 0.621271 0.460426
0.495186 0.813291 0.671534
0.574395 0.815366 0.682979
0.794827 0.844999 0.748318
0.898802 0.815854 0.637446
1.000000 0.819059 0.541405
0.809781 0.979736 0.869566
0.844450 0.979736 0.878843
0.944518 0.980804 0.916167
0.990051 0.986175 0.936858
1.000000 0.968170 0.751522
0.000000 0.251133 0.644190
0.000000 0.258274 0.649714
0.484901 0.264958 0.649866
0.832639 0.297856 0.623682
1.000000 0.499977 0.658228
0.000000 0.314336 0.651240
0.000000 0.320836 0.657252
0.499031 0.338720 0.657862
0.828489 0.385565 0.634516
1.000000 0.540002 0.669642
0.000000 0.508232 0.678889
0.000000 0.512902 0.678187
0.524651 0.546563 0.689021
0.830076 0.601343 0.685603
1.000000 0.660883 0.713436
0.182803 0.768429 0.743343
0.334569 0.767422 0.742580
0.607080 0.771725 0.748226
0.862821 0.795804 0.774441
1.000000 0.827207 0.758663
0.582635 0.965148 0.858579
0.629999 0.965942 0.863035
0.790494 0.970550 0.885466
0.979950 0.979583 0.944121
1.000000 0.969116 0.862486
0.000000 0.463630 0.874846
0.248692 0.474281 0.874205
0.592065 0.490578 0.868681
0.879545 0.519921 0.857694
1.000000 0.578058 0.835935
0.000000 0.497932 0.873960
0.242924 0.506920 0.873564
0.595026 0.526970 0.869444
0.876432 0.553216 0.859159
1.000000 0.606775 0.839902
0.000000 0.607538 0.878050
0.000000 0.608850 0.876036
0.557702 0.628901 0.875975
0.860319 0.649500 0.869780
1.000000 0.697108 0.858427
0.000000 0.813199 0.904173
0.005371 0.809659 0.902739
0.468360 0.794125 0.897490
0.783780 0.771664 0.894987
1.000000 0.825223 0.896086
0.425391 0.972168 0.941772
0.472236 0.970916 0.941650
0.621637 0.966552 0.941772
0.818204 0.958953 0.942168
1.000000 0.965576 0.955383
