20 Preset/Art Style/【3】LUT video cho PR-AE-FCPX/400H Daylight .cube
# Created by Adobe Lightroom plugin Export LUT (1.24.0)
# www.johnrellis.com/lightroom/exportlut.htm
# Preset: 400H Daylight 
# Color profile: E:\lut插件\exportlut.1.24\exportlut.lrplugin\color profiles\Rec709gamma2.4.icc
LUT_3D_SIZE 32
DOMAIN_MIN 0.0 0.0 0.0
DOMAIN_MAX 1.0 1.0 1.0
0.041291 0.021668 0.082643
0.041291 0.021668 0.082643
0.045289 0.021210 0.082643
0.048524 0.021973 0.082551
0.057465 0.022065 0.083131
0.074617 0.021241 0.082979
0.092287 0.022248 0.082521
0.112490 0.020661 0.081880
0.147005 0.013611 0.080629
0.204685 0.000000 0.078889
0.284825 0.000000 0.072511
0.381598 0.000000 0.061372
0.486213 0.000000 0.045594
0.589105 0.000000 0.022492
0.682094 0.000000 0.000000
0.759640 0.000000 0.000000
0.824155 0.000000 0.000000
0.877531 0.000000 0.000000
0.922515 0.000000 0.000000
0.960815 0.000000 0.000000
0.992859 0.000000 0.000000
1.000000 0.000000 0.000000
1.000000 0.000000 0.000000
1.000000 0.000000 0.000000
1.000000 0.000000 0.000000
1.000000 0.000000 0.000000
1.000000 0.000000 0.000000
1.000000 0.000000 0.000000
1.000000 0.000000 0.000000
1.000000 0.000000 0.000000
1.000000 0.000000 0.000000
1.000000 0.000000 0.000000
0.041016 0.021668 0.083375
0.042267 0.022644 0.083253
0.044251 0.022431 0.083253
0.048524 0.021973 0.082551
0.057465 0.022065 0.083131
0.073915 0.022461 0.082887
0.092287 0.022248 0.082521
0.111147 0.022339 0.081788
0.144045 0.017578 0.080476
0.199252 0.000000 0.078920
0.276555 0.000000 0.072969
0.371496 0.000000 0.062348
0.474708 0.000000 0.047242
0.577905 0.000000 0.024048
0.671656 0.000000 0.000000
0.750729 0.000000 0.000000
0.816709 0.000000 0.000000
0.871183 0.000000 0.000000
0.917174 0.000000 0.000000
0.955932 0.000000 0.000000
0.988586 0.000000 0.000000
1.000000 0.000000 0.000000
1.000000 0.000000 0.000000
1.000000 0.000000 0.000000
1.000000 0.000000 0.000000
1.000000 0.000000 0.000000
1.000000 0.000000 0.000000
1.000000 0.000000 0.000000
1.000000 0.000000 0.000000
1.000000 0.000000 0.000000
1.000000 0.000000 0.000000
1.000000 0.000000 0.000000
0.042237 0.024811 0.084474
0.042237 0.024811 0.084474
0.044221 0.024598 0.084474
0.047791 0.025360 0.083680
0.056306 0.026642 0.083467
0.075044 0.026825 0.082521
0.091432 0.029267 0.081971
0.110872 0.030304 0.081147
0.143648 0.026764 0.080415
0.197879 0.005127 0.077913
0.274418 0.000000 0.071107
0.367559 0.000000 0.060243
0.469459 0.000000 0.044465
0.571557 0.000000 0.021027
0.665248 0.000000 0.000000
0.745083 0.000000 0.000000
0.811337 0.000000 0.000000
0.866636 0.000000 0.000000
0.913024 0.000000 0.000000
0.952331 0.000000 0.000000
0.985504 0.000000 0.000000
1.000000 0.000000 0.000000
1.000000 0.000000 0.000000
1.000000 0.000000 0.000000
1.000000 0.000000 0.000000
1.000000 0.000000 0.000000
1.000000 0.000000 0.000000
1.000000 0.000000 0.000000
1.000000 0.000000 0.000000
1.000000 0.000000 0.000000
1.000000 0.000000 0.000000
1.000000 0.000000 0.000000
0.040162 0.031586 0.088045
0.042145 0.031342 0.088045
0.043427 0.032319 0.087984
0.046967 0.033082 0.087251
0.056092 0.034394 0.085634
0.073426 0.036957 0.084474
0.092897 0.039948 0.083131
0.112367 0.045350 0.081209
0.146029 0.046723 0.078584
0.200931 0.029297 0.074128
0.276860 0.000000 0.066529
0.368048 0.000000 0.055207
0.468025 0.000000 0.036378
0.567895 0.000000 0.011170
0.659876 0.000000 0.000000
0.738674 0.000000 0.000000
0.804715 0.000000 0.000000
0.859556 0.000000 0.000000
0.906249 0.000000 0.000000
0.945800 0.000000 0.000000
0.979461 0.000000 0.000000
1.000000 0.000000 0.000000
1.000000 0.000000 0.000000
1.000000 0.000000 0.000000
1.000000 0.000000 0.000000
1.000000 0.000000 0.000000
1.000000 0.000000 0.000000
1.000000 0.000000 0.000000
1.000000 0.000000 0.000000
1.000000 0.000000 0.000000
1.000000 0.000000 0.000000
1.000000 0.000000 0.000000
0.034760 0.048707 0.091005
0.036744 0.048463 0.091005
0.038727 0.048249 0.091005
0.044984 0.047578 0.090578
0.055940 0.052033 0.089418
0.073152 0.055818 0.087800
0.092744 0.062196 0.086152
0.113619 0.069337 0.083345
0.149111 0.072755 0.080415
0.204288 0.061952 0.073671
0.277836 0.020996 0.064149
0.367010 0.000000 0.047944
0.464393 0.000000 0.024628
0.562554 0.000000 0.000000
0.653803 0.000000 0.000000
0.733242 0.000000 0.000000
0.799619 0.000000 0.000000
0.855283 0.000000 0.000000
0.901884 0.000000 0.000000
0.941711 0.000000 0.000000
0.975494 0.000000 0.000000
1.000000 0.000000 0.000000
1.000000 0.000000 0.000000
1.000000 0.000000 0.000000
1.000000 0.000000 0.000000
1.000000 0.000000 0.000000
1.000000 0.000000 0.000000
1.000000 0.000000 0.000000
1.000000 0.000000 0.000000
1.000000 0.000000 0.000000
1.000000 0.000000 0.000000
1.000000 0.000000 0.000000
0.020325 0.082918 0.094240
0.021302 0.083528 0.094575
0.025269 0.083253 0.094575
0.035523 0.082551 0.094148
0.047883 0.083833 0.093172
0.071656 0.089967 0.090700
0.094850 0.092897 0.088319
0.120272 0.096986 0.085145
0.158938 0.100374 0.080598
0.215000 0.099916 0.071962
0.289677 0.089693 0.058473
0.377783 0.023133 0.039124
0.472694 0.000000 0.012421
0.568750 0.000000 0.000000
0.657679 0.000000 0.000000
0.734829 0.000000 0.000000
0.800076 0.000000 0.000000
0.854856 0.000000 0.000000
0.900938 0.000000 0.000000
0.940154 0.000000 0.000000
0.973266 0.000000 0.000000
1.000000 0.000000 0.000000
1.000000 0.000000 0.000000
1.000000 0.000000 0.000000
1.000000 0.000000 0.000000
1.000000 0.000000 0.000000
1.000000 0.000000 0.000000
1.000000 0.000000 0.000000
1.000000 0.000000 0.000000
1.000000 0.000000 0.000000
1.000000 0.000000 0.000000
1.000000 0.000000 0.000000
0.000000 0.122225 0.099763
0.000000 0.122408 0.100069
0.000000 0.122194 0.100069
0.000000 0.120851 0.099458
0.018006 0.119570 0.098787
0.049836 0.123201 0.095949
0.096559 0.134340 0.090211
0.138430 0.139803 0.082734
0.192691 0.142824 0.071229
0.258000 0.143801 0.054994
0.333440 0.140291 0.033417
0.423072 0.127901 0.004486
0.517388 0.096529 0.000000
0.607782 0.000000 0.000000
0.688899 0.000000 0.000000
0.758663 0.000000 0.000000
0.817868 0.000000 0.000000
0.867948 0.000000 0.000000
0.911131 0.000000 0.000000
0.948730 0.000000 0.000000
0.981109 0.000000 0.000000
1.000000 0.000000 0.000000
1.000000 0.000000 0.000000
1.000000 0.000000 0.000000
1.000000 0.000000 0.000000
1.000000 0.000000 0.000000
1.000000 0.000000 0.000000
1.000000 0.000000 0.000000
1.000000 0.000000 0.000000
1.000000 0.000000 0.000000
1.000000 0.000000 0.000000
1.000000 0.000000 0.000000
0.000000 0.172396 0.105226
0.000000 0.172366 0.105226
0.000000 0.172091 0.106233
0.000000 0.170626 0.105440
0.000000 0.168704 0.104005
0.000000 0.165530 0.102663
0.062959 0.174929 0.095674
0.137850 0.191135 0.081056
0.204898 0.197421 0.055207
0.281041 0.199954 0.028779
0.359106 0.198581 0.000000
0.440803 0.193942 0.000000
0.523064 0.185275 0.000000
0.609766 0.169314 0.000000
0.688228 0.146609 0.000000
0.754971 0.118135 0.000000
0.812924 0.075135 0.000000
0.862242 0.000000 0.000000
0.905272 0.000000 0.000000
0.942535 0.000000 0.000000
0.976532 0.000000 0.000000
1.000000 0.000000 0.000000
1.000000 0.000000 0.000000
1.000000 0.000000 0.000000
1.000000 0.000000 0.000000
1.000000 0.000000 0.000000
1.000000 0.000000 0.000000
1.000000 0.000000 0.000000
1.000000 0.000000 0.000000
1.000000 0.000000 0.000000
1.000000 0.000000 0.000000
1.000000 0.000000 0.000000
0.000000 0.238834 0.111971
0.000000 0.238651 0.112642
0.000000 0.238743 0.114961
0.000000 0.236759 0.113954
0.000000 0.234318 0.112337
0.000000 0.229740 0.109590
0.000000 0.225101 0.106416
0.119142 0.242527 0.090639
0.208560 0.263188 0.039765
0.293431 0.271061 0.000000
0.385565 0.273930 0.000000
0.467933 0.270298 0.000000
0.547448 0.264775 0.000000
0.621515 0.257328 0.000000
0.690028 0.248631 0.000000
0.754116 0.237400 0.000000
0.809934 0.225467 0.000000
0.858274 0.212863 0.000000
0.900572 0.201938 0.000000
0.940276 0.195407 0.000000
0.975402 0.193027 0.000000
1.000000 0.189731 0.000000
1.000000 0.186709 0.000000
1.000000 0.184726 0.000000
1.000000 0.182895 0.000000
1.000000 0.180148 0.000000
1.000000 0.178897 0.000000
1.000000 0.178805 0.000000
1.000000 0.179904 0.000000
1.000000 0.183932 0.000000
1.000000 0.168307 0.000000
1.000000 0.148989 0.000000
0.000000 0.317845 0.123507
0.000000 0.317937 0.124239
0.000000 0.317266 0.127810
0.000000 0.315465 0.126802
0.000000 0.311131 0.124300
0.000000 0.305882 0.120455
0.000000 0.299413 0.116518
0.088594 0.299107 0.107240
0.194095 0.320043 0.071534
0.294347 0.343450 0.000000
0.394659 0.357580 0.000000
0.486488 0.355962 0.000000
0.564202 0.349554 0.000000
0.635065 0.342199 0.000000
0.698146 0.334630 0.000000
0.753384 0.326513 0.000000
0.805692 0.318425 0.000000
0.856229 0.310826 0.000000
0.900999 0.305211 0.000000
0.939452 0.299046 0.000000
0.972015 0.293919 0.000000
0.999420 0.286809 0.000000
1.000000 0.280034 0.000000
1.000000 0.273747 0.000000
1.000000 0.268315 0.000000
1.000000 0.262425 0.000000
1.000000 0.257542 0.000000
1.000000 0.253483 0.000000
1.000000 0.251530 0.000000
1.000000 0.250767 0.000000
1.000000 0.251957 0.000000
1.000000 0.249882 0.000000
0.000000 0.398169 0.141726
0.000000 0.398077 0.142397
0.000000 0.398199 0.146487
0.000000 0.396368 0.147494
0.000000 0.392920 0.144106
0.000000 0.388251 0.140291
0.000000 0.381811 0.134401
0.000000 0.373968 0.127504
0.183047 0.380896 0.110109
0.284184 0.403998 0.035523
0.389563 0.428748 0.000000
0.494881 0.447547 0.000000
0.579889 0.442206 0.000000
0.647883 0.432227 0.000000
0.709590 0.423560 0.000000
0.764828 0.416144 0.000000
0.813107 0.408118 0.000000
0.855436 0.400732 0.000000
0.896818 0.392370 0.000000
0.933227 0.384344 0.000000
0.964691 0.375189 0.000000
0.991302 0.366461 0.000000
1.000000 0.357946 0.000000
1.000000 0.349493 0.000000
1.000000 0.341344 0.000000
1.000000 0.333196 0.000000
1.000000 0.326452 0.000000
1.000000 0.319524 0.000000
1.000000 0.314519 0.000000
1.000000 0.310552 0.000000
1.000000 0.308263 0.000000
1.000000 0.308141 0.000000
0.000000 0.482704 0.170993
0.000000 0.482399 0.172305
0.000000 0.482124 0.176547
0.000000 0.480537 0.179171
0.000000 0.477821 0.176059
0.000000 0.473121 0.170596
0.000000 0.467628 0.164920
0.000000 0.459968 0.156497
0.182132 0.450752 0.147860
0.283726 0.465248 0.121828
0.383185 0.489937 0.043183
0.489845 0.516075 0.000000
0.632410 0.572900 0.000000
0.705379 0.566583 0.000000
0.759945 0.553063 0.000000
0.807492 0.539544 0.000000
0.848966 0.525719 0.000000
0.885252 0.512566 0.000000
0.917235 0.500175 0.000000
0.945861 0.487984 0.000000
0.973419 0.475563 0.000000
0.997192 0.463172 0.000000
1.000000 0.450874 0.000000
1.000000 0.439033 0.000000
1.000000 0.427588 0.000000
1.000000 0.416480 0.000000
1.000000 0.405921 0.000000
1.000000 0.396063 0.000000
1.000000 0.386877 0.000000
1.000000 0.379187 0.000000
1.000000 0.372900 0.000000
1.000000 0.368505 0.000000
0.000000 0.579736 0.230289
0.000000 0.579431 0.230777
0.000000 0.578668 0.234134
0.000000 0.576959 0.238376
0.000000 0.573663 0.234989
0.000000 0.569146 0.228489
0.000000 0.563867 0.222324
0.000000 0.557641 0.213809
0.217746 0.550408 0.203677
0.323033 0.543908 0.192416
0.413703 0.566644 0.170993
0.508659 0.590173 0.139895
0.603021 0.613428 0.074098
0.695094 0.635492 0.000000
0.754818 0.626825 0.000000
0.803555 0.614038 0.000000
0.842924 0.598505 0.000000
0.877470 0.582940 0.000000
0.908080 0.567742 0.000000
0.934874 0.552789 0.000000
0.958404 0.538567 0.000000
0.980926 0.525017 0.000000
1.000000 0.511833 0.000000
1.000000 0.499184 0.000000
1.000000 0.487098 0.000000
1.000000 0.475074 0.000000
1.000000 0.463569 0.000000
1.000000 0.452705 0.000000
1.000000 0.442725 0.000000
1.000000 0.433539 0.000000
1.000000 0.425910 0.000000
1.000000 0.419074 0.000000
0.000000 0.647456 0.294530
0.000000 0.646998 0.294438
0.000000 0.645136 0.296727
0.000000 0.642969 0.302068
0.000000 0.639307 0.297337
0.000000 0.634394 0.289891
0.000000 0.628840 0.282048
0.092653 0.622644 0.272984
0.253300 0.615686 0.262882
0.345312 0.608331 0.251957
0.422797 0.608392 0.239811
0.502037 0.627802 0.226596
0.583215 0.647486 0.207584
0.662867 0.666041 0.181949
0.740444 0.683131 0.138949
0.790127 0.673671 0.111421
0.833738 0.662287 0.009735
0.867155 0.645747 0.000000
0.896849 0.629511 0.000000
0.923033 0.613397 0.000000
0.946380 0.597864 0.000000
0.967681 0.583337 0.000000
0.987030 0.569543 0.000000
1.000000 0.556664 0.000000
1.000000 0.544244 0.000000
1.000000 0.532006 0.000000
1.000000 0.520195 0.000000
1.000000 0.508690 0.000000
1.000000 0.497963 0.000000
1.000000 0.488167 0.000000
1.000000 0.479286 0.000000
1.000000 0.471260 0.000000
0.000000 0.695857 0.356756
0.000000 0.695491 0.356085
0.000000 0.693965 0.358068
0.000000 0.691554 0.361700
0.000000 0.688045 0.358221
0.000000 0.683375 0.350866
0.035065 0.678462 0.343572
0.217533 0.672663 0.333684
0.303105 0.666743 0.324010
0.374701 0.660334 0.313787
0.440253 0.653620 0.303105
0.504143 0.659297 0.293950
0.572320 0.675898 0.284764
0.640528 0.691798 0.273808
0.708522 0.706569 0.256718
0.773922 0.719722 0.232059
0.816159 0.710811 0.217472
0.855863 0.701259 0.195621
0.884398 0.685054 0.158907
0.910094 0.668605 0.113313
0.933288 0.652888 0.000000
0.954589 0.637842 0.000000
0.974121 0.623682 0.000000
0.992218 0.610101 0.000000
1.000000 0.597284 0.000000
1.000000 0.585290 0.000000
1.000000 0.573663 0.000000
1.000000 0.562554 0.000000
1.000000 0.552270 0.000000
1.000000 0.542870 0.000000
1.000000 0.533989 0.000000
1.000000 0.526085 0.000000
0.000000 0.731136 0.411963
0.000000 0.731258 0.412604
0.000000 0.730220 0.414343
0.000000 0.728664 0.418067
0.140993 0.726131 0.417365
0.202976 0.723110 0.411963
0.259403 0.719570 0.405707
0.313359 0.715633 0.398260
0.366827 0.711055 0.390448
0.418494 0.705806 0.380865
0.468757 0.699702 0.370275
0.517815 0.692470 0.357214
0.570886 0.701076 0.349767
0.626947 0.713588 0.342351
0.684413 0.725673 0.331884
0.741360 0.736782 0.317693
0.797726 0.747311 0.300542
0.834440 0.739406 0.287816
0.870634 0.731594 0.275944
0.895720 0.716335 0.249943
0.918914 0.701534 0.223423
0.940368 0.687190 0.193698
0.960113 0.673579 0.161776
0.978607 0.660304 0.121126
0.995850 0.647822 0.004211
1.000000 0.635767 0.000000
1.000000 0.624628 0.000000
1.000000 0.614130 0.000000
1.000000 0.604181 0.000000
1.000000 0.594873 0.000000
1.000000 0.586084 0.000000
1.000000 0.577874 0.000000
0.199191 0.759335 0.463294
0.203738 0.759091 0.462959
0.225559 0.758358 0.464759
0.259129 0.757137 0.467689
0.295018 0.755215 0.469581
0.319310 0.752895 0.465339
0.348150 0.750027 0.459541
0.381262 0.746761 0.453132
0.417151 0.742794 0.445655
0.454322 0.738430 0.437110
0.493721 0.733150 0.426612
0.533440 0.727260 0.415503
0.573602 0.721035 0.401740
0.620630 0.731930 0.398474
0.669184 0.742519 0.392950
0.718715 0.752529 0.385260
0.768307 0.761776 0.374609
0.817014 0.770382 0.361608
0.849516 0.764309 0.352361
0.881956 0.757931 0.347784
0.904540 0.744320 0.325383
0.925628 0.731075 0.303777
0.945220 0.718471 0.282078
0.963806 0.706050 0.258274
0.981384 0.694148 0.231968
0.997833 0.682918 0.205386
1.000000 0.672084 0.171908
1.000000 0.661738 0.127810
1.000000 0.652430 0.057343
1.000000 0.643946 0.000000
1.000000 0.635676 0.000000
1.000000 0.628260 0.000000
0.335058 0.783871 0.513115
0.337926 0.783993 0.513817
0.400275 0.795804 0.543267
0.415198 0.794705 0.545678
0.435615 0.793179 0.548821
0.446113 0.791379 0.544762
0.460731 0.788968 0.539635
0.478676 0.786130 0.533440
0.500023 0.782925 0.526421
0.524285 0.779263 0.518486
0.550866 0.774899 0.509148
0.579126 0.769802 0.498482
0.608026 0.763668 0.485054
0.640131 0.761135 0.473487
0.678157 0.769253 0.470253
0.717464 0.776852 0.465431
0.757382 0.783719 0.459266
0.797696 0.790158 0.450141
0.837613 0.796170 0.440589
0.866514 0.792233 0.431312
0.893004 0.785641 0.430243
0.913146 0.774136 0.411505
0.931975 0.762295 0.391028
0.949798 0.750820 0.370764
0.966888 0.739315 0.348241
0.983246 0.728115 0.324987
0.998993 0.717250 0.299870
1.000000 0.706905 0.273136
1.000000 0.697444 0.245579
1.000000 0.688655 0.212741
1.000000 0.681300 0.187900
1.000000 0.674739 0.156771
0.432959 0.806607 0.565911
0.437842 0.807492 0.568505
0.447761 0.808011 0.572015
0.461921 0.808103 0.576471
0.480903 0.807401 0.581201
0.491035 0.806210 0.579370
0.501793 0.804410 0.575128
0.514549 0.802060 0.569970
0.530327 0.799405 0.563592
0.548760 0.796231 0.556390
0.569696 0.792691 0.548272
0.592309 0.788540 0.538750
0.616541 0.783413 0.527001
0.641627 0.777646 0.513725
0.671473 0.778714 0.506157
0.705440 0.785672 0.504326
0.740230 0.792264 0.500847
0.775937 0.798459 0.497017
0.811856 0.804349 0.491890
0.847562 0.809964 0.485206
0.874601 0.808225 0.479805
0.897490 0.802518 0.481422
0.916991 0.793973 0.469368
0.934508 0.783932 0.450843
0.951110 0.773983 0.432349
0.967376 0.763973 0.411872
0.982940 0.754391 0.391608
0.998260 0.745052 0.369635
1.000000 0.736416 0.347723
1.000000 0.728573 0.325109
1.000000 0.721401 0.301091
1.000000 0.715145 0.275975
0.487495 0.820218 0.600885
0.491859 0.820981 0.603296
0.499672 0.821469 0.606378
0.510399 0.821653 0.610407
0.524559 0.821195 0.614710
0.534844 0.820127 0.614557
0.542504 0.818723 0.610986
0.551934 0.816861 0.606409
0.563684 0.814664 0.601068
0.577295 0.812070 0.594568
0.593225 0.809140 0.587366
0.611078 0.805692 0.579034
0.630243 0.801663 0.569116
0.650813 0.797024 0.557519
0.672816 0.791623 0.544457
0.700618 0.795468 0.541039
0.730922 0.801450 0.540398
0.761776 0.807187 0.538567
0.793332 0.812680 0.536217
0.825040 0.817929 0.533043
0.856382 0.822965 0.528985
0.881682 0.822873 0.526238
0.901610 0.817838 0.528618
0.920256 0.811887 0.521965
0.936309 0.803372 0.506004
0.951934 0.794858 0.489387
0.967285 0.786496 0.471534
0.982391 0.778347 0.452949
0.997162 0.770962 0.435065
1.000000 0.764187 0.417029
1.000000 0.758083 0.398840
1.000000 0.752590 0.378546
0.535698 0.832517 0.634455
0.538811 0.833127 0.636408
0.544793 0.833494 0.639094
0.553338 0.833524 0.642420
0.564080 0.833127 0.645777
0.573510 0.832212 0.646845
0.579339 0.831113 0.644129
0.586175 0.829618 0.640101
0.594965 0.827817 0.635309
0.605188 0.825772 0.629938
0.617426 0.823362 0.623651
0.631128 0.820584 0.616266
0.646418 0.817288 0.607874
0.663081 0.813535 0.597711
0.681056 0.809293 0.586755
0.700710 0.805020 0.574914
0.727077 0.810727 0.576257
0.754360 0.816312 0.577173
0.782162 0.821775 0.578363
0.810422 0.827146 0.579095
0.838529 0.832395 0.580102
0.866361 0.837522 0.580102
0.889647 0.839078 0.580194
0.906798 0.835203 0.585473
0.924315 0.831998 0.584588
0.939117 0.825406 0.572076
0.953643 0.818936 0.558648
0.967956 0.812772 0.545190
0.982208 0.807095 0.531731
0.996307 0.801999 0.518822
1.000000 0.797421 0.504906
1.000000 0.793454 0.491218
0.593439 0.846891 0.677485
0.594751 0.847074 0.678157
0.597406 0.847044 0.679194
0.602197 0.846677 0.680690
0.609430 0.845975 0.682521
0.617060 0.844938 0.683711
0.620539 0.843961 0.680934
0.625238 0.842741 0.677485
0.631250 0.841276 0.673396
0.638911 0.839658 0.668940
0.647791 0.837766 0.663416
0.658167 0.835569 0.657374
0.669581 0.833005 0.650111
0.682368 0.830045 0.641718
0.696315 0.826658 0.632136
0.711635 0.822751 0.621118
0.729885 0.821256 0.613336
0.753048 0.826108 0.615015
0.776608 0.830838 0.616815
0.800900 0.835569 0.618128
0.825315 0.840146 0.619348
0.849790 0.844724 0.620081
0.874113 0.849119 0.620020
0.895476 0.851164 0.619593
0.910307 0.847593 0.623987
0.927001 0.846220 0.627008
0.940826 0.840970 0.616449
0.954559 0.835966 0.605646
0.968200 0.831388 0.595300
0.981872 0.827329 0.584771
0.995575 0.823758 0.574365
1.000000 0.820645 0.563653
0.628962 0.856352 0.705592
0.629847 0.856504 0.706172
0.632074 0.856474 0.707027
0.635981 0.856168 0.708278
0.641505 0.855589 0.709773
0.648524 0.854765 0.711696
0.651453 0.853910 0.709407
0.654963 0.852903 0.706508
0.659510 0.851774 0.703273
0.665278 0.850431 0.699458
0.672023 0.848875 0.694972
0.679835 0.847105 0.689662
0.688777 0.845029 0.683497
0.698848 0.842679 0.676783
0.710048 0.839933 0.668696
0.722377 0.836881 0.659510
0.735897 0.833494 0.649500
0.753506 0.834348 0.646143
0.774136 0.838834 0.648890
0.795285 0.843290 0.651331
0.816831 0.847715 0.653834
0.838468 0.852049 0.655970
0.860044 0.856321 0.657527
0.881529 0.860502 0.658839
0.900420 0.861418 0.651850
0.913542 0.858213 0.655940
0.929717 0.858549 0.662776
0.942718 0.854551 0.654383
0.955840 0.850889 0.645930
0.968994 0.847715 0.637812
0.982147 0.845090 0.630335
0.995392 0.842924 0.622827
0.667384 0.867002 0.737179
0.668574 0.867247 0.737942
0.670222 0.867247 0.738674
0.672786 0.866850 0.739315
0.676112 0.866239 0.739864
0.681025 0.865263 0.740658
0.683284 0.864256 0.738888
0.684901 0.863157 0.735622
0.687465 0.861936 0.732021
0.690822 0.860594 0.728023
0.695064 0.859007 0.723384
0.700465 0.857359 0.718257
0.706722 0.855467 0.712581
0.714015 0.853269 0.705806
0.722255 0.850767 0.698207
0.731624 0.847990 0.689784
0.742306 0.844968 0.680537
0.754269 0.841703 0.670466
0.771481 0.844450 0.670863
0.790311 0.848722 0.674220
0.809659 0.853025 0.677607
0.829099 0.857267 0.680659
0.848569 0.861326 0.683009
0.867887 0.865202 0.684413
0.887175 0.868894 0.684962
0.905821 0.871916 0.684352
0.917296 0.869047 0.687892
0.932586 0.870115 0.695186
0.945342 0.867704 0.690089
0.957885 0.865110 0.683345
0.970428 0.863096 0.677546
0.983124 0.861540 0.672114
0.690578 0.874601 0.756924
0.691432 0.874815 0.757626
0.692988 0.874846 0.758328
0.695186 0.874632 0.758999
0.698360 0.874174 0.759823
0.702663 0.873533 0.760891
0.706294 0.872831 0.760830
0.708248 0.872068 0.758633
0.710872 0.871244 0.756435
0.714107 0.870298 0.753658
0.717983 0.869139 0.750393
0.722438 0.867826 0.746639
0.727535 0.866300 0.742123
0.733303 0.864530 0.736904
0.739651 0.862455 0.730648
0.746853 0.860197 0.723659
0.755093 0.857633 0.715633
0.764401 0.854917 0.707057
0.775326 0.852537 0.698695
0.791623 0.856443 0.702235
0.808530 0.860472 0.705715
0.825559 0.864469 0.709194
0.842710 0.868437 0.712459
0.860014 0.872251 0.714961
0.877287 0.876005 0.716945
0.894591 0.879606 0.718105
0.912016 0.883177 0.718654
0.922515 0.881132 0.722103
0.936828 0.882902 0.729976
0.949371 0.882414 0.729397
0.961151 0.881010 0.725154
0.973114 0.880034 0.721370
0.715297 0.883574 0.778622
0.715755 0.883696 0.778958
0.716701 0.883635 0.779263
0.718318 0.883421 0.779690
0.720790 0.883024 0.780301
0.724300 0.882414 0.781003
0.727871 0.881773 0.781460
0.729366 0.881102 0.779721
0.731411 0.880308 0.777676
0.734035 0.879454 0.775479
0.737057 0.878477 0.772671
0.740841 0.877348 0.769680
0.745052 0.876066 0.766140
0.749691 0.874571 0.761898
0.754849 0.872801 0.756832
0.760647 0.870848 0.751156
0.767269 0.868711 0.744808
0.774777 0.866423 0.737636
0.783383 0.864073 0.730282
0.794522 0.863584 0.726070
0.809201 0.867338 0.729732
0.824247 0.871153 0.733150
0.839414 0.874876 0.736385
0.854826 0.878569 0.739193
0.870298 0.882170 0.741360
0.885863 0.885679 0.742947
0.901579 0.889128 0.744106
0.917540 0.892576 0.744594
0.928191 0.891722 0.747616
0.941344 0.893675 0.755734
0.953826 0.894652 0.758480
0.965148 0.894194 0.756191
0.734890 0.891966 0.796170
0.735225 0.892027 0.796445
0.736110 0.892027 0.796811
0.737667 0.891875 0.797238
0.739864 0.891661 0.797940
0.743221 0.891356 0.798947
0.747677 0.891051 0.800504
0.749966 0.890867 0.800015
0.752773 0.890684 0.799435
0.756130 0.890440 0.798734
0.759945 0.890105 0.797910
0.764065 0.889647 0.796628
0.768460 0.889006 0.794919
0.773037 0.888121 0.792599
0.777829 0.886992 0.789517
0.782834 0.885496 0.785763
0.788205 0.883848 0.781216
0.794247 0.882017 0.776089
0.801083 0.880186 0.770748
0.808743 0.878233 0.765011
0.819303 0.879393 0.764340
0.832029 0.882963 0.767544
0.844907 0.886473 0.770474
0.858091 0.889952 0.773129
0.871427 0.893370 0.775204
0.885008 0.896757 0.777005
0.898863 0.900084 0.778561
0.912902 0.903380 0.779599
0.927153 0.906676 0.780423
0.937469 0.906767 0.782956
0.949432 0.908812 0.790433
0.961486 0.910857 0.795224
0.760311 0.904143 0.819242
0.760433 0.904112 0.819181
0.760891 0.904021 0.819272
0.761868 0.903807 0.819455
0.763516 0.903502 0.819791
0.765866 0.903105 0.820310
0.768978 0.902647 0.821073
0.770871 0.902220 0.820554
0.772610 0.901762 0.819516
0.774746 0.901244 0.818326
0.777310 0.900664 0.816983
0.780240 0.899992 0.815427
0.783566 0.899199 0.813535
0.787137 0.898253 0.811307
