20 Preset/Art Style/【3】LUT video cho PR-AE-FCPX/400H Pastel.cube
# Created by Adobe Lightroom plugin Export LUT (1.24.0)
# www.johnrellis.com/lightroom/exportlut.htm
# Preset: 400H Pastel
# Color profile: E:\lut插件\exportlut.1.24\exportlut.lrplugin\color profiles\Rec709gamma2.4.icc
LUT_3D_SIZE 8
DOMAIN_MIN 0.000000 0.000000 0.000000
DOMAIN_MAX 0.903226 0.903226 0.903226
0.000000 0.058198 0.037446
0.018128 0.060395 0.039948
0.222049 0.012604 0.050233
0.522545 0.000000 0.046693
0.787350 0.000000 0.086183
0.959686 0.000000 0.161593
1.000000 0.121096 0.271580
1.000000 0.367651 0.379309
0.000000 0.087526 0.053132
0.017731 0.088777 0.040742
0.218631 0.089174 0.033692
0.500298 0.000000 0.016510
0.763699 0.000000 0.020722
0.944854 0.000000 0.133730
1.000000 0.120394 0.245365
1.000000 0.355108 0.357763
0.000000 0.251164 0.143465
0.000000 0.260166 0.127260
0.243412 0.239841 0.000000
0.520836 0.233951 0.000000
0.763180 0.202945 0.000000
0.949401 0.214420 0.000000
1.000000 0.312718 0.216342
1.000000 0.429236 0.349432
0.000000 0.552209 0.333715
0.000000 0.559716 0.321294
0.159609 0.584100 0.327214
0.552117 0.525048 0.000000
0.795621 0.494301 0.000000
0.945129 0.465797 0.000000
1.000000 0.466194 0.036286
1.000000 0.510887 0.299657
0.261448 0.756832 0.539666
0.286503 0.760311 0.536950
0.424475 0.774594 0.550195
0.581628 0.771420 0.511528
0.767849 0.703212 0.236149
0.906065 0.645319 0.112184
1.000000 0.607202 0.000000
1.000000 0.606165 0.190677
0.598779 0.837919 0.712764
0.616846 0.841642 0.719661
0.648402 0.847410 0.722805
0.736294 0.853758 0.753750
0.771939 0.839414 0.666621
0.886137 0.797452 0.417945
0.973999 0.754696 0.337133
1.000000 0.727413 0.268894
0.765560 0.884733 0.821439
0.770016 0.885985 0.822660
0.781704 0.889006 0.823667
0.814054 0.893980 0.832822
0.851438 0.897154 0.839139
0.869810 0.881437 0.768429
0.948699 0.853422 0.580621
1.000000 0.824338 0.493080
0.855222 0.927367 0.881834
0.856504 0.927886 0.881956
0.862242 0.930205 0.882689
0.875120 0.934630 0.885466
0.893980 0.935668 0.889067
0.909514 0.934936 0.880156
0.930388 0.923796 0.835019
0.991180 0.904417 0.718349
0.000000 0.065614 0.073793
0.009003 0.065156 0.063172
0.199313 0.034241 0.070314
0.476204 0.000000 0.040314
0.749081 0.000000 0.016968
0.935485 0.000000 0.127382
1.000000 0.000000 0.235691
1.000000 0.330236 0.346532
0.000000 0.091127 0.087251
0.010285 0.092195 0.088716
0.208164 0.092012 0.083284
0.478737 0.000000 0.036652
0.743862 0.000000 0.000000
0.931609 0.000000 0.105745
1.000000 0.110018 0.219394
1.000000 0.328832 0.331884
0.000000 0.236027 0.175479
0.000000 0.246433 0.186587
0.236637 0.239170 0.107820
0.504448 0.229282 0.000000
0.742916 0.212070 0.000000
0.927947 0.221683 0.000000
1.000000 0.287510 0.178317
1.000000 0.399207 0.317967
0.000000 0.521233 0.336187
0.000000 0.527550 0.345586
0.193881 0.565972 0.357519
0.517693 0.499001 0.149294
0.751247 0.465675 0.000000
0.912871 0.445167 0.000000
1.000000 0.442267 0.000000
1.000000 0.485451 0.264744
0.218753 0.745144 0.534905
0.298222 0.745846 0.541894
0.405798 0.760616 0.544945
0.566552 0.759091 0.518761
0.743923 0.686885 0.264317
0.888426 0.633478 0.173037
0.991272 0.599695 0.039246
1.000000 0.594720 0.156100
0.574029 0.831540 0.701747
0.595636 0.832059 0.708034
0.630365 0.838651 0.712184
0.721157 0.846860 0.743618
0.763363 0.834348 0.667445
0.878019 0.793088 0.433112
0.967529 0.751125 0.355200
1.000000 0.723507 0.288212
0.752193 0.880430 0.814420
0.758328 0.880278 0.815824
0.770657 0.883330 0.816861
0.804410 0.889067 0.826505
0.847990 0.894194 0.837980
0.865202 0.878416 0.767453
0.942809 0.849088 0.578607
1.000000 0.819242 0.489937
0.848692 0.924224 0.878325
0.853025 0.925017 0.879973
0.858824 0.927398 0.880674
0.871366 0.932158 0.883177
0.897002 0.937072 0.892058
0.911254 0.935698 0.883116
0.929961 0.923461 0.837217
0.989685 0.903746 0.722805
0.000000 0.088411 0.210422
0.000000 0.084260 0.207858
0.157778 0.073671 0.177798
0.471931 0.000000 0.213199
0.748653 0.000000 0.253544
0.932647 0.025269 0.253147
1.000000 0.231052 0.248081
1.000000 0.370703 0.343816
0.000000 0.118410 0.230014
0.000000 0.113649 0.234195
0.177859 0.112703 0.208042
0.473152 0.000000 0.234195
0.738521 0.000000 0.258732
0.924773 0.161746 0.256779
1.000000 0.251255 0.244663
1.000000 0.370977 0.330724
0.000000 0.242679 0.284794
0.000000 0.247044 0.287144
0.216251 0.261387 0.294926
0.495979 0.274571 0.289342
0.742428 0.290043 0.279881
0.920928 0.323400 0.270756
1.000000 0.360327 0.260288
1.000000 0.421729 0.310552
0.000000 0.495064 0.382116
0.000000 0.504143 0.391577
0.279332 0.535210 0.430152
0.515129 0.516442 0.343908
0.744991 0.492287 0.296574
0.905669 0.490822 0.292821
1.000000 0.496498 0.288762
1.000000 0.507836 0.277226
0.000000 0.725521 0.550042
0.223484 0.727626 0.557427
0.456336 0.737148 0.592676
0.612482 0.761959 0.623621
0.740291 0.695918 0.413428
0.878630 0.649042 0.351232
0.980316 0.624384 0.321447
1.000000 0.622095 0.322026
0.540612 0.824033 0.701656
0.565911 0.824613 0.708339
0.647730 0.826413 0.731685
0.719478 0.838285 0.752621
0.771298 0.832609 0.718471
0.865568 0.792447 0.522576
0.955413 0.757076 0.457679
1.000000 0.735103 0.404181
0.740688 0.878294 0.815000
0.748409 0.878111 0.816892
0.779599 0.878691 0.826108
0.805264 0.885588 0.831266
0.855100 0.893645 0.850004
0.868620 0.879393 0.795468
0.935973 0.851438 0.643397
1.000000 0.826291 0.568627
0.840055 0.922606 0.876890
0.843961 0.922698 0.877958
0.860868 0.924315 0.883635
0.873991 0.930236 0.886717
0.898009 0.936004 0.894682
0.916289 0.937346 0.892393
0.931456 0.925231 0.850828
0.985901 0.905394 0.751705
0.000000 0.115328 0.388769
0.000000 0.114168 0.393957
0.157107 0.110140 0.387030
0.392462 0.086336 0.361334
0.694728 0.105440 0.391577
0.906432 0.226963 0.417395
1.000000 0.406043 0.465370
1.000000 0.461891 0.460060
0.000000 0.156741 0.405097
0.000000 0.154879 0.409766
0.174350 0.155673 0.405066
0.409644 0.153445 0.379828
0.698695 0.192142 0.405707
0.903838 0.282444 0.430213
0.997955 0.423072 0.468727
1.000000 0.473182 0.462806
0.000000 0.278965 0.433814
0.000000 0.282109 0.435401
0.142000 0.292180 0.445289
0.437232 0.310704 0.426246
0.711330 0.368688 0.456367
0.889189 0.458625 0.497292
0.991638 0.504875 0.499763
1.000000 0.531060 0.486458
0.000000 0.489754 0.491737
0.000000 0.491768 0.492500
0.000000 0.502953 0.498421
0.481697 0.524102 0.513390
0.712001 0.539727 0.510338
0.869413 0.556359 0.507622
0.973358 0.574304 0.504784
1.000000 0.590356 0.495308
0.000000 0.689418 0.572168
0.000000 0.691432 0.576745
0.326543 0.702876 0.601282
0.601862 0.726650 0.659480
0.722286 0.703853 0.576257
0.856077 0.672541 0.529442
0.956237 0.669032 0.526665
1.000000 0.672450 0.521324
0.473030 0.813107 0.709041
0.510399 0.815610 0.718074
0.600366 0.816953 0.735561
0.723568 0.822995 0.771481
0.798276 0.836759 0.791318
0.849516 0.796445 0.649592
0.935760 0.770077 0.596490
1.000000 0.756039 0.559106
0.703822 0.872953 0.811643
0.714992 0.873289 0.814542
0.754849 0.874418 0.825162
0.814450 0.878264 0.844053
0.857328 0.890074 0.858671
0.877806 0.883268 0.835111
0.925170 0.854063 0.721889
0.986999 0.834409 0.667109
0.821866 0.921172 0.875456
0.826780 0.921386 0.876768
0.846220 0.922667 0.882414
0.879179 0.926452 0.893645
0.898375 0.934112 0.898741
0.925261 0.940490 0.907866
0.933898 0.928191 0.871275
0.980621 0.908141 0.792050
0.000000 0.173098 0.544701
0.000000 0.174319 0.550225
0.000000 0.181491 0.548943
0.423682 0.183749 0.543633
0.618860 0.206699 0.522728
0.847105 0.338964 0.548760
0.970184 0.442023 0.571496
1.000000 0.550927 0.614313
0.000000 0.212345 0.553460
0.000000 0.214176 0.558679
0.000000 0.221195 0.560723
0.430762 0.227024 0.552361
0.624933 0.254154 0.533013
0.845518 0.372137 0.557641
0.966461 0.464668 0.580163
1.000000 0.568444 0.624689
0.000000 0.326055 0.568414
0.000000 0.327184 0.570001
0.000000 0.336706 0.583032
0.441016 0.356390 0.581628
0.632624 0.387335 0.562493
0.831388 0.466407 0.583215
0.950286 0.535393 0.608423
1.000000 0.624506 0.658625
0.000000 0.491341 0.607263
0.000000 0.493202 0.607904
0.000000 0.502617 0.611780
0.427466 0.524437 0.627161
0.649195 0.553826 0.620020
0.822812 0.598413 0.641627
0.926329 0.647639 0.672389
0.998199 0.672633 0.677546
0.000000 0.665400 0.658167
0.000000 0.666804 0.659297
0.000000 0.670802 0.663111
0.455970 0.678798 0.671809
0.673396 0.691157 0.686641
0.813352 0.698299 0.685634
0.915740 0.707301 0.684565
0.992157 0.715541 0.678706
0.161868 0.779507 0.701228
0.236027 0.779721 0.702663
0.391424 0.778836 0.706325
0.586175 0.786007 0.732998
0.753201 0.802426 0.779782
0.820768 0.790280 0.731502
0.909117 0.775143 0.700252
0.983337 0.775692 0.695949
0.599603 0.861326 0.798276
0.611353 0.861021 0.799557
0.661952 0.861143 0.807401
0.749111 0.864256 0.826871
0.837613 0.872282 0.854063
0.884276 0.884672 0.865934
0.909911 0.852293 0.778897
0.970977 0.835996 0.737331
0.758267 0.913573 0.863035
0.765286 0.913573 0.864317
0.792966 0.914061 0.869993
0.841672 0.918059 0.883268
0.893492 0.924987 0.900603
0.923735 0.937041 0.912383
0.935546 0.930358 0.892149
0.972625 0.907195 0.823697
0.000000 0.260777 0.689998
0.000000 0.263279 0.693019
0.000000 0.273350 0.692897
0.393805 0.290349 0.693721
0.642206 0.319097 0.689815
0.786984 0.365240 0.668696
0.924163 0.505669 0.681849
0.997681 0.601801 0.710903
0.000000 0.285374 0.685481
0.000000 0.286992 0.687190
0.000000 0.297215 0.690913
0.389105 0.312108 0.689845
0.634302 0.338689 0.685695
0.779721 0.383886 0.666529
0.918120 0.515099 0.681300
0.994018 0.606012 0.710628
0.000000 0.385016 0.699428
0.000000 0.386358 0.700923
0.000000 0.396490 0.708583
0.397711 0.411292 0.706477
0.636500 0.436866 0.701869
0.779294 0.478035 0.686610
0.907225 0.580621 0.703029
0.983673 0.647944 0.731014
0.000000 0.520043 0.719356
0.000000 0.520226 0.718441
0.000000 0.525322 0.718502
0.397620 0.548943 0.733883
0.645472 0.574884 0.735378
0.783352 0.608972 0.726345
0.895781 0.671962 0.744808
0.971771 0.710445 0.766201
0.000000 0.652796 0.740566
0.000000 0.653346 0.740475
0.000000 0.656214 0.741207
0.391669 0.662684 0.744106
0.625727 0.679561 0.754696
0.776455 0.704768 0.755276
0.885191 0.734676 0.773373
0.960998 0.758938 0.791196
0.000000 0.769619 0.771359
0.000000 0.770993 0.773068
0.293919 0.771084 0.774075
0.489723 0.772000 0.776822
0.654200 0.774838 0.782650
0.794949 0.786160 0.798398
0.888609 0.793515 0.801938
0.961700 0.799161 0.800961
0.460029 0.850431 0.810971
0.480385 0.850645 0.812192
0.542260 0.849668 0.814176
0.636469 0.848508 0.818570
0.754910 0.852537 0.835294
0.865385 0.867338 0.867216
0.898558 0.853666 0.832029
0.959686 0.842222 0.806424
0.668116 0.906096 0.858946
0.675441 0.905821 0.859434
0.708522 0.905821 0.863005
0.766842 0.907744 0.871733
0.839048 0.912627 0.886442
0.911742 0.924315 0.910246
0.942901 0.936309 0.918975
0.965393 0.908202 0.858091
0.000000 0.364538 0.799863
0.000000 0.368048 0.801236
0.000000 0.380560 0.801755
0.376135 0.395056 0.799832
0.607050 0.416358 0.795590
0.787655 0.453559 0.789517
0.884184 0.497566 0.770047
0.960388 0.618738 0.774624
0.000000 0.380163 0.796780
0.000000 0.383703 0.798215
0.000000 0.396460 0.799863
0.371771 0.408484 0.797299
0.602106 0.428443 0.793027
0.781796 0.462837 0.786709
0.878660 0.504265 0.767239
0.956573 0.619928 0.772061
0.000000 0.448066 0.799100
0.000000 0.449744 0.799680
0.000000 0.458320 0.801572
0.377447 0.475380 0.801602
0.601221 0.492317 0.797330
0.777127 0.522850 0.792416
0.873716 0.564172 0.777981
0.949889 0.661921 0.787045
0.000000 0.544549 0.802853
0.000000 0.543572 0.801724
0.000000 0.547631 0.802640
0.363470 0.565850 0.807828
0.600244 0.585962 0.807126
0.771511 0.612573 0.804349
0.865232 0.649775 0.795773
0.940856 0.715785 0.807279
0.000000 0.653559 0.813657
0.000000 0.652766 0.812741
0.000000 0.651820 0.811002
0.292088 0.650996 0.808896
0.577264 0.670558 0.814511
0.758999 0.693263 0.815244
0.856291 0.721431 0.812345
0.935943 0.765774 0.828733
0.000000 0.758145 0.829099
0.000000 0.758206 0.829038
0.162417 0.757931 0.828702
0.403204 0.757321 0.828031
0.578302 0.757076 0.827115
0.747311 0.767422 0.833555
0.860685 0.790372 0.838376
0.940093 0.811643 0.852476
0.338201 0.841245 0.849790
0.362982 0.841276 0.850065
0.439521 0.840299 0.850187
0.549615 0.838895 0.850828
0.666835 0.837339 0.852110
0.778195 0.838163 0.855985
0.876951 0.846555 0.866850
0.948669 0.851804 0.868284
0.565606 0.900420 0.875792
0.575555 0.900298 0.876036
0.616144 0.899870 0.877317
0.679286 0.898833 0.879057
0.753933 0.898314 0.881895
0.841123 0.903380 0.892668
0.932403 0.923461 0.921782
0.958526 0.910155 0.892058
0.000000 0.512291 0.884062
0.000000 0.515587 0.884123
0.274449 0.527428 0.882719
0.463600 0.536034 0.880461
0.631830 0.549157 0.876738
0.779416 0.569726 0.871519
0.893950 0.602136 0.866667
0.948394 0.633722 0.850034
0.000000 0.518791 0.882383
0.000000 0.521965 0.882506
0.261601 0.532403 0.881682
0.460670 0.543175 0.879301
0.628779 0.555596 0.875669
0.776516 0.575555 0.870573
0.891051 0.606439 0.865476
0.945861 0.636866 0.848997
0.000000 0.553216 0.881010
0.000000 0.555200 0.880919
0.236942 0.562829 0.880095
0.463264 0.580926 0.879240
0.627283 0.590661 0.875517
0.771817 0.607507 0.870420
0.885252 0.636164 0.865507
0.940093 0.663630 0.851499
0.000000 0.606287 0.879789
0.000000 0.607813 0.879850
0.108125 0.612818 0.879301
0.435920 0.628168 0.878752
0.621851 0.645411 0.876249
0.765713 0.659876 0.872190
0.877348 0.683253 0.867887
0.932860 0.707088 0.857816
0.000000 0.680232 0.881956
0.000000 0.679957 0.881895
0.000000 0.676326 0.880400
0.312474 0.676967 0.878172
0.586145 0.696407 0.877409
0.749264 0.711666 0.874815
0.865568 0.729824 0.871946
0.926116 0.753140 0.865934
0.000000 0.767483 0.887297
0.000000 0.766537 0.886839
0.000000 0.763455 0.885405
0.338445 0.758724 0.883330
0.508232 0.751675 0.880247
0.716915 0.763699 0.880858
0.856107 0.781796 0.881376
0.925719 0.802823 0.879942
0.305821 0.844999 0.897429
0.324681 0.844602 0.897246
0.392676 0.842985 0.896513
0.493599 0.840269 0.895506
0.604486 0.835935 0.893919
0.713893 0.829892 0.891722
0.836027 0.829343 0.892882
0.929717 0.848600 0.896117
0.520134 0.901915 0.911528
0.528496 0.901610 0.911437
0.563104 0.900603 0.911284
0.624659 0.899016 0.911345
0.699489 0.896788 0.911345
0.778500 0.894621 0.911437
0.859007 0.894285 0.912810
0.943114 0.904021 0.921813
