20 Preset/Art Style/【3】LUT video cho PR-AE-FCPX/400H Alt.cube
# Created by Adobe Lightroom plugin Export LUT (1.24.0)
# www.johnrellis.com/lightroom/exportlut.htm
# Preset: 400H Alt
# Color profile: E:\lut插件\exportlut.1.24\exportlut.lrplugin\color profiles\Rec709gamma2.4.icc
LUT_3D_SIZE 32
DOMAIN_MIN 0.0 0.0 0.0
DOMAIN_MAX 1.0 1.0 1.0
0.029297 0.029297 0.029297
0.041474 0.030121 0.030060
0.076722 0.033845 0.034516
0.106050 0.039094 0.041474
0.138735 0.048310 0.053407
0.180209 0.053956 0.063661
0.225711 0.052857 0.068910
0.274296 0.045960 0.070649
0.326421 0.033753 0.067964
0.380560 0.017365 0.061433
0.435554 0.000000 0.052796
0.491341 0.000000 0.040925
0.546929 0.000000 0.028687
0.601160 0.000000 0.014191
0.652766 0.000000 0.000000
0.700435 0.000000 0.000000
0.744442 0.000000 0.000000
0.785092 0.000000 0.000000
0.822934 0.000000 0.000000
0.858244 0.000000 0.000000
0.889921 0.030579 0.000000
0.920500 0.056489 0.000000
0.950225 0.088289 0.000000
0.976745 0.100404 0.000000
1.000000 0.111574 0.000000
1.000000 0.121981 0.026184
1.000000 0.131563 0.080812
1.000000 0.141726 0.108858
1.000000 0.152743 0.133120
1.000000 0.166812 0.157076
1.000000 0.182589 0.182071
1.000000 0.201663 0.209415
0.029389 0.037049 0.031617
0.035645 0.036378 0.030457
0.074159 0.040833 0.034760
0.105257 0.046082 0.041688
0.138674 0.055085 0.052491
0.179232 0.062623 0.062623
0.224338 0.062165 0.067903
0.272740 0.057160 0.069520
0.323766 0.048615 0.066773
0.377478 0.033234 0.060456
0.432227 0.018341 0.051759
0.487770 0.000000 0.041047
0.543297 0.000000 0.027619
0.597345 0.000000 0.012604
0.649012 0.000000 0.000000
0.696895 0.000000 0.000000
0.741268 0.000000 0.000000
0.782040 0.000000 0.000000
0.820157 0.000000 0.000000
0.855497 0.016876 0.000000
0.887327 0.042786 0.000000
0.917662 0.072633 0.000000
0.946807 0.093996 0.000000
0.972961 0.104128 0.000000
0.996582 0.112703 0.000000
1.000000 0.123110 0.017792
1.000000 0.132448 0.069459
1.000000 0.142031 0.103639
1.000000 0.152316 0.128542
1.000000 0.164706 0.153048
1.000000 0.179965 0.178225
1.000000 0.198672 0.205356
0.034852 0.062959 0.040406
0.039521 0.063508 0.042512
0.068544 0.067140 0.035798
0.104646 0.075349 0.043397
0.138064 0.084871 0.053590
0.178988 0.090517 0.061982
0.224063 0.092500 0.065370
0.272007 0.092134 0.066560
0.323186 0.090669 0.062043
0.376257 0.088045 0.054871
0.431128 0.081117 0.045747
0.486366 0.070283 0.034333
0.541375 0.056428 0.021820
0.595422 0.045075 0.005859
0.646967 0.040223 0.000000
0.694972 0.040375 0.000000
0.739315 0.048341 0.000000
0.780301 0.064576 0.000000
0.818387 0.074678 0.000000
0.853819 0.089509 0.000000
0.885863 0.098451 0.000000
0.916503 0.106203 0.000000
0.945129 0.114595 0.000000
0.971069 0.122560 0.000000
0.994629 0.129274 0.000000
1.000000 0.135683 0.008881
1.000000 0.142123 0.061799
1.000000 0.150271 0.101320
1.000000 0.159243 0.126101
1.000000 0.170809 0.150332
1.000000 0.184756 0.175937
1.000000 0.202304 0.203281
0.042084 0.097230 0.060761
0.048157 0.096590 0.063172
0.066072 0.097475 0.059083
0.101717 0.100649 0.047456
0.139895 0.108980 0.054292
0.179995 0.114260 0.060639
0.224552 0.118410 0.061524
0.272648 0.121798 0.058442
0.323705 0.123537 0.053559
0.376898 0.124178 0.044984
0.431525 0.123751 0.032380
0.486793 0.123293 0.019440
0.541527 0.123690 0.003815
0.594995 0.123415 0.000000
0.645930 0.121859 0.000000
0.693385 0.123262 0.000000
0.737453 0.125216 0.000000
0.777951 0.128084 0.000000
0.815885 0.131106 0.000000
0.851102 0.134096 0.000000
0.883024 0.137636 0.000000
0.913787 0.141329 0.000000
0.941772 0.146334 0.000000
0.967651 0.149722 0.000000
0.991608 0.153841 0.000000
1.000000 0.158175 0.000000
1.000000 0.163485 0.049836
1.000000 0.168734 0.097993
1.000000 0.175784 0.123720
1.000000 0.185183 0.149020
1.000000 0.196292 0.175143
1.000000 0.211612 0.201572
0.039429 0.127413 0.082704
0.045106 0.127260 0.083406
0.071321 0.126314 0.084138
0.098726 0.128695 0.074098
0.134615 0.132876 0.056458
0.182315 0.144625 0.053437
0.225071 0.148928 0.053590
0.272740 0.154330 0.047272
0.323796 0.158907 0.038636
0.376776 0.162417 0.026520
0.431006 0.164889 0.012940
0.486061 0.167453 0.000000
0.540612 0.169802 0.000000
0.594110 0.171054 0.000000
0.644770 0.172946 0.000000
0.692683 0.173861 0.000000
0.736721 0.175326 0.000000
0.777401 0.176181 0.000000
0.815305 0.176394 0.000000
0.850431 0.177829 0.000000
0.882109 0.178897 0.000000
0.913085 0.180697 0.000000
0.940673 0.182559 0.000000
0.966308 0.184146 0.000000
0.990173 0.185672 0.000000
1.000000 0.187320 0.000000
1.000000 0.189609 0.039033
1.000000 0.193271 0.093782
1.000000 0.197879 0.121950
1.000000 0.204807 0.147250
1.000000 0.214237 0.173129
1.000000 0.226627 0.200412
0.009918 0.163668 0.093568
0.018952 0.163485 0.094728
0.052216 0.161563 0.096986
0.093538 0.162966 0.093050
0.127413 0.165621 0.081758
0.174380 0.171633 0.050050
0.231632 0.188113 0.033112
0.277440 0.192233 0.026642
0.327031 0.197330 0.015229
0.379950 0.203098 0.000000
0.434485 0.207828 0.000000
0.489448 0.212375 0.000000
0.544030 0.216251 0.000000
0.597101 0.219364 0.000000
0.647730 0.221744 0.000000
0.695003 0.222477 0.000000
0.738735 0.223453 0.000000
0.779324 0.223087 0.000000
0.816861 0.222904 0.000000
0.851652 0.222232 0.000000
0.884184 0.222202 0.000000
0.914397 0.221653 0.000000
0.960784 0.227573 0.000000
0.986053 0.228153 0.000000
1.000000 0.228580 0.000000
1.000000 0.228946 0.011017
1.000000 0.230655 0.081025
1.000000 0.232700 0.113741
1.000000 0.236851 0.139895
1.000000 0.242252 0.165927
1.000000 0.250675 0.191653
1.000000 0.261662 0.218753
0.000000 0.211856 0.104463
0.000000 0.211612 0.104494
0.000000 0.209934 0.107515
0.074189 0.208896 0.107424
0.121553 0.211185 0.098360
0.168368 0.213687 0.082277
0.224857 0.221469 0.035950
0.295018 0.244755 0.000000
0.344427 0.247959 0.000000
0.394171 0.250065 0.000000
0.449165 0.256687 0.000000
0.505119 0.262333 0.000000
0.559319 0.266484 0.000000
0.611688 0.269139 0.000000
0.660914 0.270542 0.000000
0.706447 0.270481 0.000000
0.748745 0.270115 0.000000
0.787869 0.268650 0.000000
0.824704 0.267033 0.000000
0.858976 0.265904 0.000000
0.893889 0.265568 0.000000
0.924987 0.265202 0.000000
0.953552 0.264958 0.000000
0.979950 0.264714 0.000000
1.000000 0.263371 0.000000
1.000000 0.262577 0.000000
1.000000 0.261875 0.055543
1.000000 0.262242 0.105928
1.000000 0.263981 0.134554
1.000000 0.266941 0.161685
1.000000 0.272618 0.187839
1.000000 0.281224 0.215213
0.000000 0.261479 0.115328
0.000000 0.260929 0.116091
0.000000 0.259739 0.118074
0.000000 0.256809 0.123507
0.104646 0.258762 0.115419
0.159426 0.260990 0.102205
0.213718 0.263401 0.079469
0.277653 0.272801 0.011780
0.354742 0.299443 0.000000
0.405158 0.301854 0.000000
0.455146 0.302983 0.000000
0.507408 0.305913 0.000000
0.561486 0.310246 0.000000
0.613153 0.313207 0.000000
0.661677 0.314214 0.000000
0.706386 0.313725 0.000000
0.748135 0.311986 0.000000
0.787045 0.310460 0.000000
0.823575 0.308080 0.000000
0.859953 0.306859 0.000000
0.892912 0.304692 0.000000
0.922820 0.303044 0.000000
0.950622 0.301366 0.000000
0.976532 0.300206 0.000000
1.000000 0.299168 0.000000
1.000000 0.297459 0.000000
1.000000 0.295537 0.028138
1.000000 0.293828 0.098116
1.000000 0.293736 0.129793
1.000000 0.295232 0.157778
1.000000 0.298680 0.185245
1.000000 0.304601 0.213413
0.000000 0.316930 0.129824
0.000000 0.316594 0.130159
0.000000 0.315373 0.132723
0.000000 0.313146 0.137758
0.042878 0.312169 0.136507
0.143557 0.314183 0.123995
0.205081 0.316045 0.105959
0.264591 0.317967 0.071443
0.333715 0.328283 0.000000
0.417975 0.358099 0.000000
0.469093 0.359106 0.000000
0.518242 0.358556 0.000000
0.565881 0.356573 0.000000
0.616907 0.359167 0.000000
0.664454 0.359319 0.000000
0.708583 0.358312 0.000000
0.749691 0.356207 0.000000
0.787991 0.353307 0.000000
0.826505 0.351263 0.000000
0.861295 0.348394 0.000000
0.892729 0.345464 0.000000
0.921538 0.342168 0.000000
0.948669 0.339239 0.000000
0.974060 0.336522 0.000000
0.997223 0.334142 0.000000
1.000000 0.332067 0.000000
1.000000 0.330053 0.002258
1.000000 0.327337 0.090364
1.000000 0.325566 0.126436
1.000000 0.325444 0.156405
1.000000 0.327092 0.184573
1.000000 0.331182 0.212772
0.000000 0.376776 0.147951
0.000000 0.376532 0.148409
0.000000 0.375372 0.150393
0.000000 0.373480 0.155856
0.000000 0.370214 0.161746
0.114626 0.371496 0.149722
0.190555 0.372900 0.132815
0.255924 0.374426 0.109071
0.319219 0.375586 0.054322
0.393011 0.386511 0.000000
0.481880 0.417731 0.000000
0.531579 0.416480 0.000000
0.578729 0.413519 0.000000
0.622827 0.408453 0.000000
0.667109 0.405524 0.000000
0.710964 0.403723 0.000000
0.753048 0.401556 0.000000
0.793088 0.399023 0.000000
0.829892 0.395483 0.000000
0.863035 0.391211 0.000000
0.893004 0.386481 0.000000
0.920470 0.381659 0.000000
0.946258 0.377478 0.000000
0.970520 0.373083 0.000000
0.992798 0.369604 0.000000
1.000000 0.366033 0.000000
1.000000 0.363165 0.000000
1.000000 0.360204 0.075532
1.000000 0.357458 0.120485
1.000000 0.356054 0.153201
1.000000 0.356115 0.183291
1.000000 0.358740 0.212894
0.000000 0.437110 0.170687
0.000000 0.436835 0.171267
0.000000 0.436194 0.173434
0.000000 0.434791 0.178470
0.000000 0.432197 0.185916
0.026825 0.431708 0.181338
0.171145 0.433021 0.165072
0.244144 0.434424 0.143923
0.311009 0.435615 0.114565
0.377783 0.436255 0.036439
0.455482 0.447395 0.000000
0.546288 0.478981 0.000000
0.593622 0.474281 0.000000
0.636896 0.467323 0.000000
0.678126 0.459876 0.000000
0.716945 0.452155 0.000000
0.758297 0.448737 0.000000
0.796841 0.444800 0.000000
0.831754 0.439887 0.000000
0.863523 0.434119 0.000000
0.892363 0.427893 0.000000
0.918975 0.421729 0.000000
0.944274 0.416297 0.000000
0.967987 0.410895 0.000000
0.990021 0.405951 0.000000
1.000000 0.401373 0.000000
1.000000 0.397467 0.018494
1.000000 0.394049 0.078126
1.000000 0.390692 0.118379
1.000000 0.387976 0.153292
1.000000 0.387030 0.183902
1.000000 0.388098 0.214817
0.000000 0.500572 0.199588
0.000000 0.500572 0.200656
0.000000 0.499641 0.202823
0.000000 0.498756 0.207004
0.000000 0.496803 0.214237
0.000000 0.494850 0.219760
0.148257 0.495949 0.204776
0.230686 0.497139 0.186221
0.301854 0.497810 0.160647
0.369818 0.498390 0.126070
0.437873 0.497993 0.036774
0.518425 0.509422 0.000000
0.629145 0.556664 0.000000
0.674495 0.548180 0.000000
0.715206 0.537591 0.000000
0.752163 0.525963 0.000000
0.785733 0.513298 0.000000
0.819089 0.503471 0.000000
0.851408 0.495827 0.000000
0.880858 0.487465 0.000000
0.907652 0.479225 0.000000
0.932586 0.471138 0.000000
0.955901 0.463783 0.000000
0.977661 0.456458 0.000000
0.997833 0.449866 0.000702
1.000000 0.443549 0.056428
1.000000 0.438117 0.095796
1.000000 0.433112 0.116274
1.000000 0.429175 0.134127
1.000000 0.425208 0.166476
1.000000 0.422889 0.197452
1.000000 0.422827 0.227512
0.000000 0.570184 0.241215
0.000000 0.569940 0.241825
0.000000 0.569238 0.243229
0.000000 0.567681 0.247410
0.000000 0.565637 0.253635
0.000000 0.562921 0.262394
0.137362 0.562158 0.254276
0.224186 0.562463 0.236698
0.296757 0.564294 0.216129
0.366796 0.566003 0.188846
0.436530 0.568078 0.151339
0.507927 0.569421 0.090089
0.591913 0.581689 0.000000
0.683497 0.609735 0.000000
0.725154 0.598444 0.000000
0.761410 0.584436 0.000000
0.793606 0.569207 0.000000
0.822232 0.553948 0.000000
0.848692 0.538964 0.000000
0.876890 0.529137 0.000000
0.903014 0.519524 0.000000
0.927581 0.510460 0.000000
0.950561 0.501640 0.000000
0.972107 0.493507 0.000000
0.992340 0.485725 0.043153
1.000000 0.478523 0.089906
1.000000 0.472053 0.110597
1.000000 0.466346 0.126802
1.000000 0.461341 0.143435
1.000000 0.457038 0.168032
1.000000 0.453773 0.199435
1.000000 0.452461 0.230747
0.000000 0.626276 0.283787
0.000000 0.625971 0.283635
0.000000 0.625086 0.285283
0.000000 0.623926 0.288884
0.000000 0.622370 0.294652
0.000000 0.620081 0.302495
0.155673 0.618585 0.305058
0.228519 0.619043 0.289769
0.294804 0.619532 0.271244
0.359289 0.620569 0.248936
0.425055 0.621668 0.220890
0.492805 0.622461 0.183688
0.562036 0.622522 0.129366
0.643397 0.632563 0.000000
0.731380 0.657282 0.000000
0.767758 0.642084 0.000000
0.798825 0.624720 0.000000
0.826505 0.607202 0.000000
0.851865 0.589868 0.000000
0.875273 0.573266 0.000000
0.899016 0.560235 0.000000
0.923278 0.550011 0.000000
0.946014 0.540093 0.001434
0.967437 0.530999 0.052766
0.987579 0.522332 0.093111
1.000000 0.514183 0.111543
1.000000 0.506828 0.127047
1.000000 0.499977 0.142153
1.000000 0.494209 0.156680
1.000000 0.489326 0.172122
1.000000 0.485145 0.204868
1.000000 0.483009 0.235904
0.000000 0.677058 0.329778
0.000000 0.676936 0.329931
0.000000 0.675929 0.330999
0.000000 0.674769 0.333806
0.000000 0.672847 0.338354
0.032441 0.670344 0.345159
0.196353 0.667964 0.354589
0.249668 0.667659 0.342931
0.303258 0.667933 0.326757
0.358495 0.668544 0.307103
0.417487 0.669123 0.283757
0.479164 0.669673 0.255467
0.543877 0.669520 0.219272
0.609827 0.668269 0.170413
0.687556 0.676051 0.080354
0.770230 0.696651 0.000000
0.802182 0.678950 0.000000
0.829526 0.659724 0.000000
0.854368 0.640925 0.000000
0.877134 0.622705 0.000000
0.898528 0.605402 0.005035
0.919097 0.589410 0.046937
0.941558 0.578729 0.088319
0.962707 0.568475 0.106722
0.982818 0.558770 0.121065
1.000000 0.549859 0.134127
1.000000 0.541558 0.147433
1.000000 0.534142 0.160067
1.000000 0.527520 0.172396
1.000000 0.522026 0.186496
1.000000 0.517479 0.214206
1.000000 0.514855 0.246616
0.000000 0.718196 0.374182
0.000000 0.718166 0.374365
0.000000 0.717769 0.375891
0.000000 0.716884 0.378454
0.000000 0.715694 0.382544
0.168063 0.714076 0.389075
0.241794 0.712276 0.398016
0.290776 0.711574 0.397925
0.328801 0.711879 0.383795
0.372412 0.712184 0.367010
0.420569 0.712184 0.346807
0.472999 0.711788 0.322820
0.529076 0.710811 0.293553
0.588434 0.708705 0.257786
0.649836 0.705623 0.210422
0.722499 0.710689 0.148806
0.800076 0.728115 0.055512
0.829801 0.709957 0.068238
0.854551 0.690089 0.092103
0.877256 0.670710 0.103151
0.898711 0.652338 0.111513
0.918944 0.634913 0.120119
0.938231 0.618708 0.129519
0.958190 0.605798 0.138918
0.978271 0.595575 0.149722
0.997559 0.585809 0.159731
1.000000 0.576928 0.169802
1.000000 0.568719 0.180972
1.000000 0.561212 0.191806
1.000000 0.554864 0.203220
1.000000 0.549401 0.224491
1.000000 0.545739 0.256352
0.000000 0.751614 0.417090
0.000000 0.751522 0.417548
0.087831 0.751125 0.418799
0.139559 0.750546 0.420844
0.191257 0.749599 0.424842
0.241032 0.748348 0.430640
0.289189 0.746853 0.438148
0.336736 0.745327 0.447333
0.362615 0.745510 0.435187
0.393744 0.745632 0.421057
0.431006 0.745510 0.403510
0.473060 0.745144 0.383062
0.520012 0.744320 0.358434
0.571405 0.742641 0.329076
0.626093 0.740047 0.293950
0.683955 0.736263 0.249546
0.752010 0.740200 0.199863
0.824674 0.755001 0.159670
0.853910 0.737850 0.156161
0.876371 0.717586 0.160220
0.897765 0.698238 0.161807
0.917937 0.680049 0.165408
0.937072 0.662898 0.170047
0.955535 0.646754 0.173678
0.973480 0.631769 0.178073
0.992645 0.621515 0.186435
1.000000 0.611841 0.194797
1.000000 0.602960 0.203189
1.000000 0.594812 0.213107
1.000000 0.587701 0.223362
1.000000 0.581476 0.238346
1.000000 0.577264 0.270115
0.220768 0.780728 0.460182
0.224247 0.780789 0.460731
0.268467 0.790433 0.478035
0.283940 0.789883 0.480201
0.305791 0.789120 0.483558
0.332525 0.787991 0.488045
0.364416 0.786587 0.494423
0.398657 0.784970 0.502464
0.422736 0.784360 0.499855
0.443000 0.784329 0.487465
0.468147 0.784085 0.472816
0.498207 0.783658 0.455024
0.533257 0.782620 0.433906
0.573693 0.780850 0.409216
0.618647 0.778225 0.379553
0.667994 0.774685 0.344610
0.721096 0.769986 0.302312
0.784543 0.772335 0.258793
0.850767 0.783200 0.229435
0.878477 0.766781 0.222904
0.899168 0.746242 0.220523
0.918853 0.727016 0.219791
0.937713 0.708675 0.218326
0.955718 0.691402 0.218204
0.972900 0.674983 0.218997
0.989593 0.659571 0.219669
1.000000 0.647181 0.222507
1.000000 0.637263 0.228977
1.000000 0.628321 0.236118
1.000000 0.620294 0.244236
1.000000 0.613306 0.253971
1.000000 0.608362 0.285679
0.315282 0.807889 0.505089
0.319371 0.808621 0.506798
0.327489 0.809232 0.509056
0.340124 0.809506 0.512230
0.357855 0.809415 0.516136
0.378546 0.808713 0.520714
0.403174 0.807614 0.526238
0.430640 0.806149 0.532799
0.457710 0.804929 0.538354
0.471656 0.804868 0.527764
0.489784 0.804715 0.515160
0.512169 0.804349 0.500572
0.539330 0.803586 0.482887
0.570977 0.802335 0.461707
0.607752 0.800443 0.437476
0.649165 0.797879 0.408301
0.694759 0.794522 0.374701
0.744686 0.790372 0.335485
0.804715 0.792538 0.296788
0.866941 0.801999 0.273136
0.894865 0.787594 0.264805
0.914794 0.768154 0.261234
0.933806 0.749477 0.258824
0.951904 0.731746 0.255924
0.969146 0.714809 0.254429
0.985840 0.698817 0.252262
1.000000 0.683772 0.251835
1.000000 0.670008 0.252873
1.000000 0.660365 0.257847
1.000000 0.651698 0.264500
1.000000 0.644099 0.272770
1.000000 0.638453 0.301122
0.374945 0.826902 0.539178
0.378729 0.827512 0.540764
0.384985 0.828092 0.543053
0.394751 0.828428 0.545922
0.408118 0.828397 0.549432
0.424384 0.827787 0.553460
0.443702 0.826902 0.558221
0.466224 0.825711 0.564294
0.490852 0.824338 0.571374
0.505180 0.823850 0.566857
0.517418 0.823819 0.555993
0.533501 0.823575 0.543236
0.553552 0.823087 0.528283
0.577935 0.822202 0.510948
0.606683 0.820951 0.490639
0.640070 0.819120 0.466835
0.678157 0.816617 0.438697
0.720607 0.813504 0.406836
0.767483 0.809628 0.368902
0.823789 0.811612 0.334020
0.882109 0.819791 0.313603
0.909850 0.807034 0.304479
0.928985 0.788479 0.299413
0.947234 0.770565 0.295232
0.964630 0.753323 0.290776
0.981353 0.736873 0.287297
0.997589 0.721340 0.284245
1.000000 0.706661 0.282841
1.000000 0.693263 0.282658
1.000000 0.682704 0.286381
1.000000 0.674495 0.293217
1.000000 0.668208 0.319188
0.428717 0.844175 0.572259
0.431250 0.844694 0.573693
0.436011 0.845121 0.575433
0.443915 0.845365 0.578119
0.454200 0.845274 0.581201
0.467018 0.844785 0.584649
0.482490 0.844022 0.588800
0.500755 0.842954 0.594018
0.521691 0.841764 0.600397
0.539300 0.840818 0.602991
0.547753 0.840879 0.593713
0.558953 0.840757 0.582788
0.573358 0.840482 0.570092
0.591150 0.839963 0.554925
0.613214 0.839170 0.538231
0.639460 0.837949 0.518395
0.670283 0.836423 0.495735
0.705592 0.834440 0.469703
0.745571 0.831907 0.439979
0.789639 0.828855 0.405402
0.843107 0.830961 0.375250
0.897978 0.838437 0.357305
0.925628 0.827420 0.348119
0.944030 0.809903 0.343206
0.961608 0.792905 0.338079
0.978546 0.776516 0.332738
0.994812 0.760830 0.328557
1.000000 0.745968 0.325292
1.000000 0.732174 0.323674
1.000000 0.719417 0.323369
1.000000 0.708095 0.325536
1.000000 0.701625 0.350134
0.488411 0.862791 0.611475
0.489540 0.862943 0.611963
0.492470 0.862974 0.613062
0.497169 0.862852 0.614405
0.504448 0.862455 0.616419
0.513970 0.861814 0.619043
0.525872 0.861051 0.622431
0.540307 0.860136 0.626673
0.557031 0.859098 0.631922
0.576013 0.857939 0.638392
0.583886 0.857847 0.632868
0.591485 0.857877 0.623682
0.600977 0.857816 0.612634
0.613458 0.857572 0.599908
0.629175 0.857053 0.585260
0.648646 0.856260 0.568078
0.672236 0.855131 0.548882
0.700191 0.853635 0.527031
0.732448 0.851682 0.501579
0.769162 0.849271 0.473060
0.810025 0.846281 0.439887
0.859709 0.847868 0.411261
0.910918 0.854002 0.393866
0.938109 0.844114 0.382330
0.955444 0.827237 0.375769
0.972351 0.810910 0.368627
0.988708 0.795254 0.363317
1.000000 0.780240 0.358007
1.000000 0.766140 0.354437
1.000000 0.752956 0.352514
1.000000 0.740871 0.352026
1.000000 0.730983 0.372869
0.529839 0.876463 0.640162
0.530724 0.876585 0.640711
0.532982 0.876646 0.641505
0.536980 0.876493 0.642817
0.542779 0.876188 0.644526
0.550317 0.875700 0.646632
0.560266 0.875059 0.649653
0.572168 0.874235 0.653285
0.586084 0.873350 0.657862
0.601923 0.872374 0.663386
0.613458 0.871824 0.663996
0.618982 0.871916 0.656428
0.625818 0.872007 0.647181
0.635096 0.871916 0.636866
0.646662 0.871702 0.624414
0.661097 0.871336 0.610468
0.678859 0.870695 0.593835
0.700496 0.869810 0.575463
0.726162 0.868528 0.554223
0.755978 0.866850 0.529992
0.790188 0.864744 0.502739
0.828611 0.862028 0.471321
0.875090 0.863432 0.444739
0.923217 0.868742 0.427466
0.948821 0.858793 0.410864
0.965393 0.842557 0.403021
0.981872 0.827085 0.395331
0.997894 0.812161 0.389197
1.000000 0.798001 0.383612
1.000000 0.784543 0.379675
1.000000 0.772152 0.377661
1.000000 0.762020 0.399176
0.571435 0.890501 0.670069
0.572595 0.890684 0.670771
0.574365 0.890684 0.671443
0.577264 0.890471 0.672328
0.581292 0.890043 0.673304
0.586725 0.889464 0.674617
0.593957 0.888701 0.676631
0.602991 0.887785 0.679103
0.613977 0.886809 0.682551
0.626612 0.885740 0.686641
0.640711 0.884550 0.691585
0.644099 0.884520 0.684688
0.648920 0.884489 0.676844
0.655085 0.884367 0.667445
0.663264 0.884062 0.656733
0.673518 0.883726 0.644099
0.686732 0.883238 0.629847
0.703273 0.882567 0.613794
0.723354 0.881773 0.595544
0.747372 0.880735 0.575097
0.775570 0.879301 0.552117
0.807736 0.877409 0.525475
0.843900 0.874907 0.494881
0.887663 0.876066 0.468421
0.932921 0.880491 0.450782
0.959411 0.873045 0.438117
0.975128 0.857328 0.429297
0.991028 0.842496 0.421118
1.000000 0.828244 0.413153
1.000000 0.814725 0.407233
1.000000 0.802029 0.404028
1.000000 0.791714 0.426825
0.599969 0.901122 0.691310
0.601007 0.901274 0.691981
0.602655 0.901335 0.692683
0.605219 0.901183 0.693538
0.608911 0.900908 0.694667
0.613977 0.900542 0.696223
0.620630 0.900023 0.698268
0.628992 0.899382 0.700984
0.638758 0.898711 0.704341
0.649897 0.897917 0.708248
0.662440 0.897002 0.712825
0.669886 0.896635 0.711879
0.673213 0.896727 0.705043
0.677668 0.896757 0.697169
0.683558 0.896635 0.688075
0.691127 0.896452 0.677516
0.701045 0.896117 0.665614
0.713405 0.895720 0.652155
0.728847 0.895232 0.636957
0.747524 0.894560 0.619562
0.769863 0.893675 0.599817
0.795834 0.892424 0.577325
0.825742 0.890715 0.551263
0.859709 0.888457 0.521263
0.900877 0.889464 0.495796
0.943511 0.893309 0.478737
0.969970 0.887175 0.465370
0.984924 0.872190 0.456672
1.000000 0.858305 0.448127
1.000000 0.844816 0.440467
1.000000 0.832334 0.439918
1.000000 0.821714 0.460731
0.629480 0.912016 0.713649
0.630243 0.912047 0.714076
0.631312 0.912047 0.714443
0.633234 0.911894 0.715023
0.636408 0.911620 0.716060
0.640589 0.911254 0.717281
0.646204 0.910796 0.719112
0.653101 0.910246 0.721340
0.661463 0.909575 0.724239
0.670954 0.908873 0.727596
0.681849 0.908019 0.731655
0.692439 0.907256 0.734981
0.694667 0.907439 0.729122
0.697749 0.907530 0.722255
0.701991 0.907561 0.714382
0.707424 0.907500 0.705165
0.714717 0.907378 0.695033
0.724208 0.907164 0.683589
0.736019 0.906889 0.670466
0.750790 0.906554 0.656123
0.768429 0.906035 0.639673
0.789303 0.905241 0.620813
0.813596 0.904112 0.598413
0.841672 0.902556 0.572381
0.873655 0.900420 0.542321
0.912657 0.901244 0.516838
0.952972 0.904509 0.499458
0.979339 0.899474 0.486213
0.993713 0.885039 0.476692
1.000000 0.871946 0.467903
1.000000 0.859556 0.471504
1.000000 0.848600 0.490364
0.654292 0.921569 0.732784
0.654749 0.921630 0.733028
0.655756 0.921599 0.733455
0.657588 0.921538 0.734096
0.660395 0.921386 0.735042
0.664454 0.921172 0.736538
0.670039 0.920958 0.738643
0.676844 0.920684 0.741329
0.684840 0.920409 0.744472
0.694087 0.920104 0.748318
0.704250 0.919707 0.752499
0.715114 0.919219 0.757076
0.720638 0.919341 0.755764
0.723598 0.919738 0.750698
0.727169 0.920012 0.744656
0.731441 0.920165 0.737362
0.736843 0.920226 0.729061
0.743679 0.920256 0.719356
0.752377 0.920256 0.708492
0.763394 0.920134 0.696376
0.776974 0.919951 0.682948
0.793027 0.919554 0.667109
0.812100 0.918883 0.649012
0.834440 0.917845 0.628046
0.860197 0.916472 0.602777
0.889982 0.914580 0.573144
0.926238 0.915190 0.547997
0.964111 0.917845 0.529992
0.990173 0.913848 0.516503
1.000000 0.899901 0.506737
1.000000 0.887755 0.515190
1.000000 0.876951 0.532525
0.683619 0.932494 0.755520
0.683742 0.932494 0.755550
0.684352 0.932464 0.755703
0.685695 0.932280 0.756069
0.687892 0.932097 0.756832
0.690852 0.931853 0.757748
0.694972 0.931518 0.759121
0.700069 0.931121 0.760891
0.706294 0.930694 0.763210
0.713497 0.930175 0.765866
0.721614 0.929625 0.768948
0.730495 0.929015 0.772396
0.738094 0.928557 0.774228
0.740078 0.928832 0.769589
