20 Preset/Art Style/【3】LUT video cho PR-AE-FCPX/400H Pastel Soft Cold.cube
# Created by Adobe Lightroom plugin Export LUT (1.24.0)
# www.johnrellis.com/lightroom/exportlut.htm
# Preset: 400H Pastel Soft Cold
# Color profile: E:\lut插件\exportlut.1.24\exportlut.lrplugin\color profiles\Rec709gamma2.4.icc
LUT_3D_SIZE 32
DOMAIN_MIN 0.0 0.0 0.0
DOMAIN_MAX 1.0 1.0 1.0
0.048371 0.173342 0.215488
0.041413 0.173312 0.215396
0.027893 0.172885 0.214847
0.001160 0.172183 0.214084
0.000000 0.170718 0.212497
0.000000 0.168765 0.210727
0.031952 0.166995 0.208988
0.101503 0.165225 0.207462
0.146914 0.162905 0.206058
0.197360 0.159548 0.204685
0.253696 0.154116 0.203250
0.317479 0.144259 0.201968
0.387976 0.126680 0.200473
0.463355 0.094301 0.199130
0.539544 0.000000 0.198001
0.611810 0.000000 0.196994
0.678004 0.000000 0.196536
0.737575 0.000000 0.197177
0.788907 0.000000 0.199130
0.833188 0.000000 0.202548
0.871366 0.000000 0.208042
0.911803 0.000000 0.218387
0.945190 0.000000 0.232883
0.971099 0.000000 0.250980
0.991638 0.047089 0.271977
1.000000 0.161898 0.296361
1.000000 0.220737 0.323919
1.000000 0.271244 0.355138
1.000000 0.319677 0.390814
1.000000 0.368078 0.430335
1.000000 0.417090 0.473976
1.000000 0.466590 0.519310
0.048432 0.172702 0.215061
0.045838 0.172732 0.215305
0.028016 0.172366 0.214878
0.001312 0.171664 0.214145
0.000000 0.170321 0.212528
0.000000 0.168582 0.210758
0.029694 0.167025 0.209110
0.098848 0.165377 0.207614
0.143282 0.163455 0.206180
0.192142 0.160494 0.204807
0.247776 0.155398 0.203281
0.310307 0.146395 0.202060
0.379553 0.130526 0.200595
0.453895 0.102327 0.199191
0.529961 0.000000 0.197848
0.602808 0.000000 0.196902
0.669764 0.000000 0.196506
0.730251 0.000000 0.196750
0.782650 0.000000 0.198459
0.827573 0.000000 0.201755
0.866148 0.000000 0.206729
0.906493 0.000000 0.216403
0.939544 0.000000 0.229679
0.965576 0.000000 0.246555
0.986603 0.000000 0.265904
1.000000 0.143374 0.288945
1.000000 0.204990 0.314977
1.000000 0.257176 0.345739
1.000000 0.306249 0.380224
1.000000 0.355474 0.419715
1.000000 0.405066 0.463172
1.000000 0.455421 0.509209
0.047395 0.170199 0.213535
0.047791 0.170016 0.213687
0.033112 0.170077 0.214359
0.005463 0.169680 0.214176
0.000000 0.168887 0.212650
0.000000 0.167819 0.210819
0.029694 0.167025 0.209110
0.097871 0.166171 0.207553
0.140841 0.164767 0.206088
0.188907 0.162661 0.204654
0.243503 0.158450 0.203250
0.305180 0.150546 0.201877
0.373327 0.137179 0.200381
0.446784 0.113252 0.198856
0.522179 0.043244 0.197482
0.595270 0.000000 0.196353
0.662684 0.000000 0.195804
0.724178 0.000000 0.195926
0.777340 0.000000 0.197482
0.822934 0.000000 0.200351
0.862364 0.000000 0.205478
0.903349 0.000000 0.214542
0.936339 0.000000 0.227390
0.962310 0.000000 0.243595
0.983490 0.000000 0.262486
1.000000 0.140993 0.284642
1.000000 0.201511 0.310094
1.000000 0.253025 0.340246
1.000000 0.301701 0.374670
1.000000 0.350408 0.413672
1.000000 0.399786 0.457008
1.000000 0.449805 0.503044
0.043732 0.165988 0.210361
0.043427 0.165988 0.210483
0.039277 0.165866 0.210910
0.015259 0.165866 0.212497
0.000000 0.166445 0.212497
0.000000 0.166812 0.210758
0.032929 0.167147 0.209110
0.096834 0.167453 0.207401
0.138888 0.167269 0.205997
0.186435 0.166079 0.204501
0.240055 0.163455 0.202976
0.300298 0.157748 0.201358
0.367498 0.147280 0.199649
0.439734 0.129274 0.198032
0.514122 0.097108 0.196475
0.586267 0.000000 0.195132
0.653559 0.000000 0.194430
0.714687 0.000000 0.194217
0.768490 0.000000 0.195346
0.814817 0.000000 0.198093
0.854887 0.000000 0.202731
0.896757 0.000000 0.211307
0.929595 0.000000 0.223239
0.956359 0.000000 0.238285
0.978607 0.025666 0.256809
0.997253 0.148104 0.279179
1.000000 0.205570 0.305180
1.000000 0.255467 0.335851
1.000000 0.303441 0.370855
1.000000 0.351324 0.410193
1.000000 0.399329 0.453040
1.000000 0.447700 0.498451
0.034516 0.163027 0.207248
0.035218 0.162844 0.207279
0.034333 0.162844 0.207675
0.029145 0.162905 0.208194
0.009949 0.163210 0.209659
0.007904 0.165042 0.209873
0.036469 0.167605 0.209171
0.095674 0.169284 0.207370
0.135317 0.170748 0.205814
0.180941 0.171542 0.204166
0.232883 0.170657 0.202396
0.291722 0.167941 0.200626
0.357397 0.161410 0.198764
0.428840 0.149538 0.196841
0.502678 0.130465 0.194919
0.575952 0.099397 0.193179
0.644404 0.000000 0.191958
0.707149 0.000000 0.191562
0.762051 0.000000 0.192294
0.809232 0.000000 0.194888
0.851621 0.000000 0.199405
0.893034 0.000000 0.207919
0.925566 0.000000 0.219181
0.952636 0.000000 0.234195
0.975311 0.111360 0.252567
0.994568 0.169558 0.274968
1.000000 0.218082 0.301213
1.000000 0.263310 0.331518
1.000000 0.308263 0.366155
1.000000 0.353826 0.405371
1.000000 0.400122 0.448157
1.000000 0.446998 0.493202
0.019409 0.163760 0.205356
0.019409 0.163760 0.205356
0.018708 0.163973 0.205325
0.019257 0.164340 0.205295
0.023713 0.164218 0.205966
0.022309 0.164370 0.207156
0.052033 0.168124 0.207095
0.098116 0.171939 0.206821
0.134279 0.175753 0.205295
0.178775 0.178653 0.203403
0.229923 0.180331 0.201511
0.288060 0.180575 0.199313
0.353002 0.177829 0.197147
0.423682 0.171633 0.194858
0.497322 0.160494 0.192416
0.570611 0.143832 0.190158
0.639612 0.120668 0.188540
0.702876 0.088533 0.187716
0.758358 0.007507 0.188205
0.805875 0.000000 0.190585
0.851652 0.000000 0.195499
0.892027 0.000000 0.204044
0.954437 0.142336 0.232334
0.978332 0.184054 0.253605
0.997467 0.223026 0.278355
1.000000 0.260655 0.306218
1.000000 0.298253 0.337499
1.000000 0.336522 0.372198
1.000000 0.375708 0.409796
1.000000 0.415869 0.450355
1.000000 0.456886 0.492287
1.000000 0.498116 0.533989
0.000000 0.172793 0.205692
0.000000 0.172793 0.205570
0.000000 0.173342 0.204959
0.000000 0.174319 0.204440
0.000305 0.175631 0.204135
0.034730 0.173739 0.203861
0.072999 0.172732 0.204288
0.112367 0.178775 0.203525
0.148104 0.184665 0.202609
0.190677 0.190829 0.201328
0.242649 0.196078 0.199100
0.303288 0.199466 0.196353
0.369970 0.200443 0.193423
0.441413 0.198672 0.190463
0.514794 0.193301 0.187350
0.585992 0.184726 0.184665
0.652522 0.173281 0.182712
0.713313 0.160739 0.181613
0.766934 0.148592 0.182345
0.816098 0.140139 0.185214
0.866361 0.143557 0.192111
0.907103 0.158541 0.203403
0.940124 0.181674 0.219394
0.967224 0.210391 0.240208
0.989197 0.241855 0.265873
1.000000 0.274113 0.293797
1.000000 0.306889 0.324865
1.000000 0.340887 0.359289
1.000000 0.376593 0.396460
1.000000 0.413733 0.436652
1.000000 0.452857 0.479042
1.000000 0.492683 0.521508
0.000000 0.188846 0.209445
0.000000 0.189212 0.209140
0.000000 0.190127 0.208377
0.000000 0.191989 0.206821
0.000000 0.194858 0.206455
0.000000 0.194827 0.204868
0.071382 0.190524 0.202914
0.110628 0.187533 0.201968
0.151492 0.195468 0.200534
0.194003 0.202426 0.198917
0.242069 0.209628 0.196780
0.297642 0.216953 0.193973
0.360479 0.223728 0.190249
0.430396 0.226749 0.186465
0.502617 0.227176 0.182498
0.573144 0.224552 0.179080
0.639826 0.219944 0.175998
0.701228 0.213840 0.174319
0.756008 0.207553 0.174319
0.812100 0.205417 0.177035
0.859464 0.207492 0.183169
0.899199 0.215427 0.194186
0.932128 0.228489 0.209842
0.959533 0.247410 0.230320
0.982147 0.269871 0.254704
1.000000 0.295201 0.282719
1.000000 0.322362 0.313695
1.000000 0.351507 0.347784
1.000000 0.383642 0.385138
1.000000 0.418036 0.425635
1.000000 0.454658 0.468391
1.000000 0.492897 0.511955
0.000000 0.216068 0.217777
0.000000 0.216464 0.217716
0.000000 0.217777 0.216434
0.000000 0.220371 0.213931
0.000000 0.224704 0.212924
0.000000 0.230716 0.212192
0.004181 0.225559 0.207248
0.108919 0.217350 0.203128
0.148409 0.211368 0.200168
0.197635 0.220768 0.197513
0.246738 0.229007 0.194736
0.300633 0.237339 0.191409
0.359136 0.245518 0.187198
0.425452 0.253666 0.182284
0.494087 0.260990 0.176120
0.563806 0.263218 0.171145
0.630213 0.262669 0.167269
0.691707 0.260563 0.164614
0.754635 0.260380 0.163180
0.808011 0.259739 0.165896
0.853300 0.261509 0.172274
0.892149 0.265721 0.183200
0.924926 0.273869 0.198947
0.952544 0.286442 0.219272
0.975647 0.302708 0.244327
0.994415 0.321813 0.272496
1.000000 0.343694 0.303593
1.000000 0.368566 0.338079
1.000000 0.396735 0.375921
1.000000 0.427497 0.416510
1.000000 0.461158 0.459663
1.000000 0.497078 0.503929
0.000000 0.255894 0.232731
0.000000 0.256321 0.232090
0.000000 0.257786 0.230747
0.000000 0.261326 0.227787
0.000000 0.266636 0.224430
0.000000 0.274174 0.223850
0.000000 0.279301 0.220920
0.048463 0.267948 0.211673
0.145266 0.254551 0.204166
0.192325 0.244480 0.198672
0.248142 0.254337 0.194369
0.302892 0.263493 0.190127
0.361151 0.272557 0.185122
0.422095 0.280827 0.179171
0.488808 0.289555 0.172396
0.556451 0.297490 0.164523
0.623194 0.304448 0.155520
0.692622 0.308690 0.149630
0.752651 0.310246 0.147677
0.803677 0.310124 0.150729
0.847288 0.310887 0.157656
0.884672 0.312261 0.169467
0.916381 0.316381 0.185641
0.943542 0.323186 0.206027
0.966583 0.333410 0.229953
0.986053 0.346624 0.257664
1.000000 0.363561 0.288701
1.000000 0.384100 0.323552
1.000000 0.408606 0.361883
1.000000 0.436744 0.403876
1.000000 0.468055 0.448585
1.000000 0.502403 0.494850
0.000000 0.305882 0.253605
0.000000 0.306279 0.253330
0.000000 0.308446 0.251652
0.000000 0.312718 0.248661
0.000000 0.319677 0.242649
0.000000 0.329107 0.242710
0.000000 0.342016 0.242374
0.000000 0.339605 0.232792
0.109224 0.323339 0.217838
0.190646 0.304448 0.205844
0.244724 0.289281 0.196445
0.306188 0.298741 0.190127
0.366461 0.308354 0.183658
0.427924 0.317144 0.176455
0.492164 0.325750 0.168032
0.560082 0.335790 0.157717
0.628595 0.344915 0.147189
0.691585 0.352239 0.136294
0.746578 0.357092 0.126619
0.796048 0.356634 0.129854
0.838804 0.356054 0.138277
0.875853 0.356054 0.151522
0.907897 0.357641 0.169406
0.935515 0.361364 0.191348
0.959197 0.368048 0.216831
0.979339 0.377661 0.245335
0.996338 0.390478 0.277470
1.000000 0.406989 0.313207
1.000000 0.427619 0.352270
1.000000 0.452308 0.395270
1.000000 0.480690 0.441047
1.000000 0.512169 0.488075
0.000000 0.370855 0.285649
0.000000 0.371527 0.285435
0.000000 0.374212 0.283665
0.000000 0.379034 0.280308
0.000000 0.386877 0.274540
0.000000 0.397772 0.271489
0.000000 0.411810 0.272465
0.000000 0.429633 0.273503
0.000000 0.413153 0.250706
0.165164 0.391516 0.228000
0.246220 0.366644 0.208652
0.305791 0.346197 0.193668
0.410742 0.384222 0.180117
0.484871 0.397192 0.168063
0.554040 0.405890 0.155245
0.617914 0.411749 0.141787
0.675929 0.415351 0.127321
0.730922 0.418189 0.116640
0.779965 0.420203 0.108095
0.822812 0.420996 0.102632
0.860655 0.420600 0.109010
0.893462 0.418830 0.134829
0.921752 0.418463 0.161990
0.946349 0.419898 0.191562
0.967285 0.423987 0.222965
0.985168 0.430426 0.255924
1.000000 0.439918 0.290898
1.000000 0.452674 0.328344
1.000000 0.468971 0.368353
1.000000 0.489387 0.411414
1.000000 0.513390 0.456306
1.000000 0.541039 0.502434
0.000000 0.463813 0.341344
0.000000 0.464393 0.340764
0.000000 0.466285 0.338994
0.000000 0.470405 0.334905
0.000000 0.477211 0.328344
0.000000 0.487190 0.320928
0.000000 0.499641 0.323369
0.000000 0.515557 0.326268
0.000000 0.524376 0.319493
0.088197 0.508965 0.286229
0.249882 0.489876 0.252201
0.337438 0.465980 0.219364
0.410620 0.445441 0.190036
0.488075 0.451637 0.174594
0.558495 0.459510 0.160433
0.620294 0.462470 0.147036
0.675471 0.462593 0.132753
0.723384 0.460578 0.118776
0.767056 0.458137 0.106722
0.809018 0.457130 0.103761
0.846220 0.455818 0.103090
0.878782 0.454505 0.105165
0.908019 0.452613 0.132021
0.933806 0.451911 0.166384
0.956146 0.453193 0.200900
0.975402 0.456916 0.236301
0.991638 0.463569 0.273136
1.000000 0.473457 0.312230
1.000000 0.486976 0.353796
1.000000 0.504723 0.398901
1.000000 0.526146 0.445533
1.000000 0.551354 0.493202
0.000000 0.541985 0.400336
0.000000 0.541863 0.400061
0.000000 0.543297 0.398199
0.000000 0.547417 0.395422
0.000000 0.553887 0.390600
0.000000 0.563409 0.383825
0.000000 0.575128 0.385992
0.000000 0.589929 0.393103
0.000000 0.607630 0.402441
0.000000 0.604273 0.379614
0.235111 0.587366 0.336095
0.338018 0.566552 0.289586
0.417212 0.540093 0.241184
0.487800 0.515496 0.197330
0.556603 0.511650 0.178805
0.619196 0.513085 0.164157
0.672145 0.510277 0.150912
0.718410 0.505394 0.137819
0.759731 0.499977 0.125093
0.796597 0.494423 0.112001
0.833127 0.491096 0.111086
0.866392 0.488746 0.114504
0.895933 0.486610 0.120485
0.922545 0.485145 0.136812
0.946014 0.484474 0.177920
0.966369 0.485908 0.216953
0.983734 0.490150 0.256931
0.998322 0.497292 0.297765
1.000000 0.508110 0.341314
1.000000 0.523003 0.387640
1.000000 0.541772 0.436042
1.000000 0.564599 0.485695
0.000000 0.615259 0.472572
0.000000 0.615656 0.472267
0.000000 0.616510 0.470375
0.000000 0.618952 0.467689
0.000000 0.622950 0.463691
0.000000 0.629358 0.457954
0.000000 0.637995 0.455970
0.000000 0.648402 0.463020
0.000000 0.661006 0.472541
0.159670 0.674434 0.483192
0.256840 0.661860 0.441596
0.342748 0.646204 0.393194
0.420813 0.625757 0.337072
0.489784 0.599237 0.276982
0.554711 0.572473 0.218662
0.614038 0.561364 0.196414
0.667720 0.557549 0.182498
0.713039 0.550652 0.170016
0.753475 0.543175 0.158053
0.789761 0.535698 0.146761
0.822995 0.528679 0.135225
0.854215 0.523247 0.129000
0.884337 0.520195 0.136324
0.911437 0.517632 0.144015
0.935851 0.515679 0.152956
0.957214 0.515435 0.195926
0.975708 0.517540 0.239506
0.991455 0.522881 0.283940
1.000000 0.531762 0.330724
1.000000 0.544823 0.380285
1.000000 0.562005 0.431952
1.000000 0.583246 0.484596
0.000000 0.667201 0.533471
0.000000 0.667811 0.533349
0.000000 0.668605 0.532738
0.000000 0.670832 0.531487
0.000000 0.674403 0.529381
0.000000 0.679652 0.526879
0.000000 0.686976 0.524376
0.000000 0.695125 0.531212
0.177676 0.704555 0.540429
0.279911 0.715145 0.550958
0.341527 0.717922 0.544945
0.381018 0.705776 0.504234
0.432532 0.690242 0.453193
0.490883 0.669673 0.390387
0.549401 0.643244 0.319066
0.607996 0.616175 0.250034
0.657801 0.599664 0.224216
0.704738 0.592889 0.210544
0.744869 0.584131 0.199161
0.781216 0.575708 0.188113
0.814755 0.567834 0.177829
0.845426 0.560510 0.168093
0.873381 0.554040 0.159884
0.900877 0.550347 0.165316
0.926024 0.547906 0.175479
0.948760 0.546288 0.185916
0.968414 0.546746 0.223667
0.984985 0.550286 0.272160
0.998505 0.557061 0.321813
1.000000 0.567437 0.373114
1.000000 0.581811 0.426184
1.000000 0.600061 0.479713
0.104128 0.705074 0.582879
0.105501 0.705074 0.582818
0.112367 0.706142 0.582452
0.122255 0.707790 0.581903
0.137881 0.710780 0.581048
0.158480 0.714992 0.579767
0.183322 0.720577 0.578729
0.236027 0.727077 0.581750
0.299931 0.734218 0.589319
0.358953 0.741970 0.598047
0.416571 0.750179 0.607752
0.440558 0.745937 0.587610
0.464759 0.734829 0.549645
0.501274 0.720058 0.501061
0.547112 0.701076 0.438666
0.598016 0.676905 0.364355
0.652216 0.651637 0.289830
0.695369 0.633112 0.261540
0.737392 0.625086 0.248386
0.773526 0.615656 0.236912
0.806821 0.606897 0.226352
0.837308 0.598718 0.217227
0.865324 0.591302 0.208865
0.891356 0.584527 0.201328
0.915862 0.579644 0.199924
0.939178 0.577508 0.211276
0.960266 0.576287 0.224063
0.978241 0.577508 0.259098
0.992493 0.582605 0.312718
1.000000 0.590997 0.366857
1.000000 0.603235 0.422431
1.000000 0.619348 0.478279
0.306584 0.736507 0.627283
0.308110 0.736995 0.627710
0.376776 0.752529 0.650324
0.379706 0.753780 0.650050
0.384741 0.755886 0.649836
0.391363 0.758602 0.649500
0.400458 0.762448 0.648920
0.415015 0.766812 0.649470
0.446448 0.771450 0.654932
0.481025 0.776608 0.661433
0.516869 0.782162 0.668360
0.549950 0.786709 0.672877
0.553094 0.779049 0.647364
0.563684 0.769070 0.613581
0.584161 0.756130 0.569238
0.616022 0.739254 0.512047
0.656855 0.717311 0.437354
0.704555 0.693568 0.357549
0.740078 0.672999 0.323522
0.775631 0.662928 0.308782
0.806607 0.652308 0.295811
0.835508 0.642695 0.284886
0.862394 0.633845 0.274784
0.887327 0.625727 0.265629
0.910307 0.618280 0.257572
0.931701 0.611780 0.249973
0.952239 0.608515 0.257603
0.971038 0.606867 0.268925
0.986572 0.608515 0.304692
0.998016 0.614862 0.361578
1.000000 0.624872 0.419226
1.000000 0.638544 0.476173
0.426307 0.764675 0.669612
0.431128 0.765957 0.671321
0.437293 0.767666 0.673213
0.444099 0.769772 0.674922
0.451301 0.772152 0.676143
0.457771 0.774746 0.676509
0.465156 0.777829 0.676448
0.473823 0.781460 0.676265
0.494423 0.785092 0.679683
0.520867 0.789181 0.684840
0.549310 0.793606 0.690730
0.579034 0.798276 0.696895
0.594568 0.798093 0.690913
0.596612 0.790860 0.666804
0.605402 0.781613 0.636072
0.622339 0.769833 0.595422
0.649500 0.754849 0.542473
0.686397 0.735836 0.474708
0.731441 0.715175 0.399695
0.763760 0.695460 0.365393
0.796078 0.686152 0.352453
0.825132 0.676539 0.340734
0.852110 0.667597 0.330297
0.877073 0.659266 0.321080
0.900175 0.651514 0.311559
0.921782 0.644404 0.303349
0.941894 0.638361 0.296452
0.960845 0.634363 0.297765
0.978180 0.633570 0.311467
0.991791 0.636469 0.351232
1.000000 0.644526 0.411688
1.000000 0.656214 0.471351
0.491066 0.781430 0.695430
0.495430 0.782589 0.697017
0.500664 0.784085 0.698817
0.506432 0.785885 0.700465
0.512383 0.787900 0.701656
0.517815 0.789975 0.702235
0.523827 0.792447 0.702449
0.530968 0.795315 0.702571
0.543023 0.798520 0.704067
0.563378 0.801663 0.708339
0.585809 0.805264 0.713191
0.609644 0.809018 0.718441
0.633906 0.812924 0.723751
0.636683 0.809232 0.709712
0.638148 0.802640 0.687343
0.645136 0.794247 0.658991
0.659480 0.783627 0.622614
0.682490 0.770382 0.574914
0.715206 0.753719 0.513146
0.756619 0.735683 0.444739
0.785489 0.716976 0.410590
0.814755 0.708125 0.398810
0.841611 0.699367 0.387732
0.866484 0.691218 0.378241
0.889616 0.683345 0.368597
0.911254 0.676112 0.359655
0.931487 0.669612 0.351843
0.950439 0.664271 0.346319
0.968170 0.660182 0.343389
0.984070 0.659815 0.357702
0.994934 0.664607 0.405280
1.000000 0.674189 0.466896
0.547936 0.796597 0.719326
0.551354 0.797391 0.720668
0.555413 0.798550 0.722103
0.560052 0.799954 0.723476
0.564782 0.801480 0.724575
0.569268 0.803189 0.725154
0.574151 0.805234 0.725551
0.579858 0.807523 0.725826
0.586847 0.810422 0.726162
0.602319 0.812985 0.729519
0.620050 0.815915 0.733577
0.639094 0.819028 0.737972
0.658839 0.822263 0.742458
0.674983 0.824216 0.743709
0.673548 0.819394 0.727230
0.675013 0.813413 0.706600
0.681483 0.806119 0.681209
0.694575 0.797086 0.649683
0.715419 0.785977 0.609064
0.744747 0.772366 0.556085
0.782864 0.757473 0.497322
0.809171 0.740963 0.467536
0.835477 0.733333 0.458106
0.860166 0.726131 0.449714
0.882933 0.719356 0.442756
0.904265 0.712734 0.435035
0.924071 0.706874 0.428779
0.942626 0.701747 0.424170
0.959899 0.697780 0.421820
0.975738 0.695003 0.422858
0.989685 0.694392 0.432166
0.996063 0.701778 0.487678
0.613611 0.814054 0.748501
0.614740 0.814450 0.748959
0.616205 0.814878 0.749447
0.617914 0.815549 0.749722
0.620050 0.816495 0.749935
0.622522 0.817533 0.750027
0.625727 0.818967 0.750088
0.629969 0.820768 0.750301
0.635248 0.823026 0.750637
0.645106 0.825345 0.752529
0.659052 0.827665 0.756008
0.674067 0.830167 0.759701
0.689754 0.832731 0.763546
0.706111 0.835386 0.767544
0.712428 0.834653 0.762387
0.711452 0.830320 0.747250
0.713100 0.825040 0.728908
0.718379 0.818509 0.705898
0.729030 0.810575 0.677333
0.746395 0.800778 0.641535
0.771176 0.788754 0.594934
0.804471 0.775448 0.541650
0.827237 0.759762 0.512322
0.850065 0.752193 0.502525
0.872251 0.745510 0.494453
0.893065 0.739376 0.487648
0.912718 0.733791 0.481666
0.931029 0.728969 0.477638
0.948211 0.724971 0.474983
0.963958 0.721981 0.475441
0.978241 0.720027 0.478431
0.990753 0.719356 0.486580
0.652399 0.825223 0.766934
0.653193 0.825437 0.767330
0.654383 0.825864 0.767666
0.655818 0.826413 0.767971
0.657649 0.827115 0.768246
0.659754 0.828031 0.768368
0.662470 0.829191 0.768521
0.665919 0.830686 0.768765
0.670314 0.832486 0.769162
0.676478 0.834531 0.770047
0.687648 0.836423 0.772946
0.700008 0.838468 0.776242
0.712978 0.840574 0.779629
0.726589 0.842771 0.783230
0.740566 0.844968 0.786893
0.740261 0.842435 0.776791
0.740078 0.838682 0.762905
0.742214 0.834134 0.746242
0.747677 0.828519 0.725856
0.757473 0.821683 0.700435
0.772824 0.813382 0.668879
0.794736 0.803037 0.628565
0.824002 0.791745 0.582788
0.844175 0.777676 0.555627
0.862058 0.767880 0.538354
0.882170 0.761898 0.530907
0.901457 0.756710 0.525750
0.919524 0.752132 0.521782
0.936461 0.748257 0.519402
0.952178 0.745235 0.519219
0.966491 0.743221 0.521965
0.979339 0.742153 0.527184
0.693355 0.836851 0.787381
0.694545 0.837156 0.787930
0.695460 0.837461 0.788235
0.696132 0.837705 0.788266
0.696712 0.838102 0.788083
0.697627 0.838590 0.787808
0.698817 0.839261 0.787503
0.700618 0.840116 0.787198
0.703182 0.841306 0.787045
0.706538 0.842771 0.787045
0.713619 0.844114 0.788540
0.723049 0.845579 0.790951
0.733150 0.847135 0.793545
0.743801 0.848753 0.796292
0.754726 0.850401 0.799069
0.762417 0.850980 0.798642
0.760372 0.848081 0.787137
0.760281 0.844633 0.773739
0.762783 0.840543 0.758175
0.768582 0.835660 0.739528
0.778225 0.829770 0.716793
0.792508 0.822599 0.688228
0.812314 0.813535 0.651667
0.838407 0.803433 0.610895
0.856199 0.790158 0.584405
0.873960 0.783566 0.575280
0.891875 0.778042 0.568078
0.909300 0.773434 0.563165
0.925780 0.769467 0.560021
0.941131 0.766323 0.559289
0.955291 0.764065 0.560845
0.968078 0.762753 0.565057
0.718837 0.844114 0.800717
0.719814 0.844388 0.801205
0.720729 0.844694 0.801541
0.721584 0.844968 0.801694
0.722560 0.845396 0.801785
0.723812 0.845884 0.801877
0.725612 0.846616 0.801999
0.727901 0.847532 0.802243
0.730770 0.848661 0.802548
0.734249 0.849943 0.803006
0.739284 0.851316 0.804013
0.747158 0.852506 0.806271
0.755581 0.853788 0.808652
0.764248 0.855131 0.811063
0.773190 0.856443 0.813504
0.782345 0.857786 0.815976
0.784390 0.856992 0.811246
0.782864 0.854520 0.800595
0.783230 0.851682 0.788388
0.786038 0.848203 0.774166
0.791684 0.844053 0.757229
0.800687 0.839017 0.736934
0.813657 0.832883 0.711666
0.831540 0.825284 0.679347
0.854704 0.816709 0.644129
0.870359 0.805112 0.621149
0.885893 0.799466 0.613672
0.901579 0.794766 0.608301
0.917205 0.791226 0.605524
0.931853 0.788266 0.604639
0.945373 0.786007 0.605737
0.957702 0.784482 0.609033
0.746670 0.851743 0.815702
0.747127 0.851865 0.815946
0.747555 0.852018 0.816068
0.748165 0.852232 0.816129
0.748867 0.852537 0.816190
0.749813 0.852934 0.816190
0.751156 0.853452 0.816312
0.752926 0.854154 0.816434
0.755123 0.855009 0.816678
0.757870 0.856016 0.817014
0.760983 0.857176 0.817411
0.767239 0.858152 0.819272
0.774044 0.859190 0.821317
0.781155 0.860258 0.823423
0.788479 0.861326 0.825528
0.795956 0.862425 0.827665
0.803708 0.863554 0.829892
0.801785 0.861845 0.821683
0.800900 0.859800 0.812009
0.801724 0.857389 0.800839
0.804715 0.854490 0.787778
0.810147 0.850980 0.772305
0.818601 0.846647 0.753628
0.830655 0.841306 0.730770
0.846952 0.834806 0.701869
0.867918 0.827390 0.670130
0.881773 0.816983 0.649500
0.895384 0.811795 0.642817
0.909270 0.807614 0.638392
0.923339 0.804837 0.637354
0.936461 0.802701 0.638178
0.948486 0.801266 0.641382
0.769039 0.857786 0.828214
0.769375 0.857877 0.828397
0.769833 0.858030 0.828580
0.770443 0.858213 0.828733
0.771298 0.858518 0.828946
0.772610 0.858946 0.829252
0.774624 0.859556 0.829862
0.777127 0.860349 0.830594
0.780209 0.861295 0.831601
0.783627 0.862394 0.832670
0.787411 0.863554 0.833829
0.792508 0.864622 0.835630
0.798703 0.865629 0.837919
0.804929 0.866606 0.840146
0.811032 0.867521 0.842252
0.816953 0.868437 0.844144
0.822904 0.869291 0.846006
0.826291 0.869474 0.845151
0.824918 0.868193 0.838071
0.824460 0.866667 0.829831
0.825406 0.864836 0.820188
0.828061 0.862608 0.808713
0.832883 0.859892 0.795102
0.840391 0.856504 0.778744
0.851133 0.852323 0.758938
0.865660 0.847227 0.734585
0.883879 0.841367 0.708858
0.895842 0.832517 0.690974
0.907103 0.828031 0.685481
0.918578 0.824399 0.682277
0.930419 0.822354 0.682918
0.941253 0.820920 0.685634
0.797330 0.864958 0.844602
0.797391 0.864988 0.844602
0.797513 0.865019 0.844602
0.797726 0.865110 0.844602
0.798123 0.865263 0.844633
0.798764 0.865537 0.844694
0.799710 0.865843 0.844816
0.800961 0.866300 0.845060
0.802579 0.866850 0.845396
0.804501 0.867491 0.845792
0.806699 0.868223 0.846250
0.809354 0.869017 0.846921
0.813718 0.869688 0.848447
0.818235 0.870329 0.850004
