20 Preset/Art Style/【3】LUT video cho PR-AE-FCPX/400H Pastel.cube
# Created by Adobe Lightroom plugin Export LUT (1.24.0)
# www.johnrellis.com/lightroom/exportlut.htm
# Preset: 400H Pastel
# Color profile: E:\lut插件\exportlut.1.24\exportlut.lrplugin\color profiles\Rec709gamma2.4.icc
LUT_3D_SIZE 5
DOMAIN_MIN 0.000000 0.000000 0.000000
DOMAIN_MAX 0.903226 0.903226 0.903226
0.000000 0.058198 0.037446
0.158633 0.048829 0.047883
0.666468 0.000000 0.052766
0.993683 0.000000 0.189883
1.000000 0.367651 0.379309
0.000000 0.190372 0.109834
0.178592 0.185916 0.009003
0.652430 0.142123 0.000000
0.986297 0.162692 0.121218
1.000000 0.418677 0.361395
0.000000 0.677455 0.439368
0.176303 0.696620 0.434394
0.679866 0.632898 0.145174
0.950774 0.547112 0.000000
1.000000 0.554406 0.252262
0.661616 0.853513 0.752804
0.685359 0.858061 0.755856
0.788052 0.866361 0.781338
0.905516 0.813718 0.461921
1.000000 0.755642 0.329656
0.855222 0.927367 0.881834
0.860319 0.929381 0.882414
0.880400 0.932982 0.884306
0.912291 0.932769 0.871763
0.991180 0.904417 0.718349
0.000000 0.081941 0.160708
0.112947 0.076081 0.135988
0.621515 0.000000 0.191348
0.964294 0.000000 0.179507
1.000000 0.350927 0.338964
0.000000 0.188937 0.226505
0.153292 0.202121 0.235233
0.623651 0.206180 0.221073
0.956695 0.251987 0.193027
1.000000 0.398718 0.319982
0.000000 0.634150 0.453071
0.286900 0.648951 0.485908
0.636713 0.610407 0.324681
0.922393 0.551965 0.241672
1.000000 0.557305 0.248814
0.636591 0.847135 0.749508
0.695796 0.848539 0.768185
0.798245 0.863767 0.801968
0.894041 0.812741 0.538781
1.000000 0.761624 0.422400
0.847715 0.925383 0.880308
0.862364 0.926696 0.885191
0.886473 0.934813 0.890684
0.917906 0.935607 0.882994
0.988403 0.907652 0.750851
0.000000 0.140810 0.469581
0.000000 0.143587 0.472389
0.510948 0.135409 0.443549
0.914580 0.315648 0.490028
1.000000 0.539452 0.568994
0.000000 0.267063 0.495491
0.000000 0.271794 0.506798
0.537774 0.304143 0.484169
0.901488 0.431983 0.525841
1.000000 0.572473 0.579461
0.000000 0.586572 0.578851
0.000000 0.592279 0.582361
0.586084 0.617853 0.605921
0.867521 0.638056 0.603845
1.000000 0.661067 0.597192
0.475837 0.822171 0.734157
0.556634 0.821714 0.744686
0.766720 0.832578 0.800046
0.860502 0.811551 0.710872
0.991882 0.778744 0.630854
0.794278 0.916472 0.868559
0.816464 0.917662 0.874296
0.884581 0.924834 0.895872
0.928069 0.938537 0.908232
0.975830 0.906279 0.805051
0.000000 0.278965 0.714076
0.000000 0.290684 0.719081
0.511192 0.320195 0.716884
0.811246 0.392767 0.692226
0.986908 0.603021 0.724025
0.000000 0.366217 0.718654
0.000000 0.373754 0.724239
0.511101 0.403967 0.723598
0.802976 0.467567 0.701564
0.976776 0.634852 0.735958
0.000000 0.578027 0.740505
0.000000 0.580102 0.739528
0.490455 0.603357 0.750607
0.790219 0.652338 0.745418
0.957122 0.729366 0.782559
0.000000 0.791867 0.796201
0.290288 0.790646 0.795682
0.581628 0.791196 0.799893
0.817350 0.802762 0.817960
0.955810 0.811521 0.818357
0.633906 0.903807 0.858427
0.669764 0.903777 0.861814
0.783200 0.907225 0.877256
0.918151 0.925322 0.914153
0.963653 0.908568 0.866514
0.000000 0.512291 0.884062
0.202121 0.521935 0.883207
0.549920 0.542046 0.878843
0.812009 0.577111 0.870115
0.948394 0.633722 0.850034
0.000000 0.543328 0.881712
0.173312 0.551080 0.881132
0.547112 0.573510 0.877501
0.806058 0.604517 0.869291
0.942382 0.657008 0.851408
0.000000 0.638575 0.880217
0.000000 0.638941 0.878721
0.512016 0.661006 0.877195
0.788388 0.687739 0.871183
0.928923 0.729091 0.861112
0.000000 0.790219 0.890349
0.155520 0.787900 0.889220
0.462654 0.780270 0.885557
0.748165 0.780453 0.882811
0.926177 0.814237 0.883604
0.520134 0.901915 0.911528
0.551781 0.900877 0.911315
0.661189 0.897978 0.911406
0.798489 0.894255 0.911589
0.943114 0.904021 0.921813
