20 Preset/Art Style/【3】LUT video cho PR-AE-FCPX/400H Pastel.cube
# Created by Adobe Lightroom plugin Export LUT (1.24.0)
# www.johnrellis.com/lightroom/exportlut.htm
# Preset: 400H Pastel
# Color profile: E:\lut插件\exportlut.1.24\exportlut.lrplugin\color profiles\Rec709gamma2.4.icc
LUT_3D_SIZE 32
DOMAIN_MIN 0.0 0.0 0.0
DOMAIN_MAX 1.0 1.0 1.0
0.000000 0.058198 0.037446
0.000000 0.058198 0.037446
0.000000 0.057740 0.037415
0.001007 0.059022 0.038209
0.018128 0.060395 0.039948
0.060365 0.062226 0.043397
0.109224 0.061219 0.046143
0.158633 0.048829 0.047883
0.222049 0.012604 0.050233
0.293767 0.000000 0.050202
0.368811 0.000000 0.049500
0.445869 0.000000 0.048493
0.522545 0.000000 0.046693
0.597040 0.000000 0.048219
0.666468 0.000000 0.052766
0.729641 0.000000 0.068666
0.787350 0.000000 0.086183
0.840024 0.000000 0.101717
0.886503 0.000000 0.119661
0.926177 0.000000 0.140139
0.959686 0.000000 0.161593
0.993683 0.000000 0.189883
1.000000 0.000000 0.218051
1.000000 0.000000 0.245274
1.000000 0.121096 0.271580
1.000000 0.209628 0.297185
1.000000 0.270054 0.323247
1.000000 0.320684 0.350011
1.000000 0.367651 0.379309
1.000000 0.412390 0.410040
1.000000 0.456367 0.444007
1.000000 0.499763 0.480873
0.000000 0.058198 0.037446
0.000000 0.058198 0.037446
0.000000 0.058961 0.037263
0.000275 0.060243 0.038056
0.017426 0.061616 0.039796
0.059632 0.063447 0.043244
0.107851 0.062867 0.046021
0.155764 0.051820 0.047791
0.217472 0.018524 0.049134
0.287785 0.000000 0.049256
0.362036 0.000000 0.048768
0.438239 0.000000 0.048127
0.514763 0.000000 0.046845
0.588891 0.000000 0.046540
0.658656 0.000000 0.051850
0.722255 0.000000 0.063447
0.780789 0.000000 0.082704
0.833829 0.000000 0.099062
0.881254 0.000000 0.115816
0.921599 0.000000 0.136263
0.955474 0.000000 0.157900
0.989319 0.000000 0.185367
1.000000 0.000000 0.212802
1.000000 0.000000 0.239139
1.000000 0.080812 0.264652
1.000000 0.191165 0.289677
1.000000 0.255009 0.315618
1.000000 0.307805 0.342535
1.000000 0.355596 0.371130
1.000000 0.401831 0.402533
1.000000 0.446448 0.436164
1.000000 0.490822 0.473182
0.000000 0.062776 0.039094
0.000000 0.062776 0.039094
0.000000 0.062318 0.036805
0.000458 0.063630 0.036469
0.018555 0.065980 0.039185
0.062348 0.068788 0.041352
0.108461 0.069398 0.043946
0.155520 0.060975 0.045441
0.215946 0.030243 0.046662
0.285283 0.000000 0.046571
0.358740 0.000000 0.045899
0.434302 0.000000 0.044129
0.509728 0.000000 0.041505
0.583551 0.000000 0.041352
0.653132 0.000000 0.042969
0.717159 0.000000 0.053498
0.775692 0.000000 0.072908
0.829252 0.000000 0.094087
0.877226 0.000000 0.111086
0.918120 0.000000 0.131533
0.952544 0.000000 0.153262
0.986908 0.000000 0.180941
1.000000 0.000000 0.208652
1.000000 0.000000 0.234592
1.000000 0.072877 0.260105
1.000000 0.186740 0.285069
1.000000 0.250126 0.310582
1.000000 0.302983 0.337652
1.000000 0.351080 0.366339
1.000000 0.397223 0.397559
1.000000 0.441962 0.431189
1.000000 0.486122 0.467720
0.000000 0.072908 0.044526
0.000000 0.072908 0.043397
0.000000 0.072480 0.043397
0.000000 0.073762 0.038514
0.021393 0.076875 0.037659
0.068025 0.080323 0.038361
0.111360 0.081788 0.040650
0.158297 0.078248 0.041657
0.217960 0.052918 0.042115
0.285801 0.000000 0.041291
0.357702 0.000000 0.039124
0.432074 0.000000 0.035309
0.506371 0.000000 0.032258
0.579187 0.000000 0.029175
0.647883 0.000000 0.030762
0.711055 0.000000 0.037598
0.769467 0.000000 0.051484
0.822354 0.000000 0.080964
0.870665 0.000000 0.101045
0.911864 0.000000 0.121584
0.946899 0.000000 0.144778
0.981750 0.000000 0.171969
1.000000 0.000000 0.199466
1.000000 0.000000 0.225895
1.000000 0.075837 0.252110
1.000000 0.186801 0.277989
1.000000 0.251164 0.305425
1.000000 0.303990 0.333288
1.000000 0.351812 0.362493
1.000000 0.397620 0.394141
1.000000 0.441444 0.427497
1.000000 0.484443 0.463630
0.000000 0.087526 0.053132
0.000000 0.087526 0.053132
0.000000 0.088014 0.050721
0.000000 0.088075 0.048249
0.017731 0.088777 0.040742
0.070405 0.092042 0.037415
0.113924 0.095064 0.034211
0.160159 0.095369 0.034302
0.218631 0.089174 0.033692
0.284398 0.054932 0.030793
0.354345 0.000000 0.027436
0.427192 0.000000 0.022919
0.500298 0.000000 0.016510
0.572625 0.000000 0.011292
0.641016 0.000000 0.008179
0.705135 0.000000 0.010040
0.763699 0.000000 0.020722
0.817655 0.000000 0.045197
0.866392 0.000000 0.085420
0.908110 0.000000 0.109560
0.944854 0.000000 0.133730
0.979126 0.000000 0.162692
1.000000 0.000000 0.190829
1.000000 0.000000 0.218601
1.000000 0.120394 0.245365
1.000000 0.201053 0.271946
1.000000 0.258976 0.299382
1.000000 0.308904 0.328069
1.000000 0.355108 0.357763
1.000000 0.398962 0.388952
1.000000 0.441871 0.422705
1.000000 0.483864 0.458473
0.000000 0.104372 0.068330
0.000000 0.104707 0.067048
0.000000 0.104738 0.061372
0.000000 0.104982 0.062165
0.004944 0.105135 0.052522
0.065553 0.105867 0.040833
0.117220 0.112001 0.033326
0.166384 0.115785 0.024384
0.224033 0.115084 0.019318
0.288426 0.106844 0.014557
0.357305 0.085634 0.008240
0.428748 0.000183 0.000549
0.500786 0.000000 0.000000
0.571954 0.000000 0.000000
0.639979 0.000000 0.000000
0.703426 0.000000 0.000000
0.762112 0.000000 0.000000
0.816251 0.000000 0.000000
0.864897 0.000000 0.034974
0.906645 0.000000 0.089265
0.945434 0.000000 0.120790
0.978882 0.000000 0.151858
1.000000 0.107210 0.211032
1.000000 0.190524 0.241123
1.000000 0.246830 0.270573
1.000000 0.293462 0.298985
1.000000 0.335698 0.327276
1.000000 0.375311 0.356268
1.000000 0.413947 0.386816
1.000000 0.451850 0.418860
1.000000 0.489052 0.452552
1.000000 0.525841 0.488289
0.000000 0.142061 0.089509
0.000000 0.142061 0.088685
0.000000 0.143221 0.083070
0.000000 0.144533 0.079561
0.000000 0.145754 0.077760
0.027619 0.143893 0.052644
0.121614 0.142306 0.031098
0.185641 0.149447 0.014527
0.246769 0.151064 0.000336
0.311803 0.149599 0.000000
0.380774 0.142367 0.000000
0.452735 0.125826 0.000000
0.523827 0.097566 0.000000
0.593194 0.000000 0.000000
0.658503 0.000000 0.000000
0.719081 0.000000 0.000000
0.775540 0.000000 0.000000
0.827329 0.000000 0.000000
0.874113 0.000000 0.000000
0.916350 0.000000 0.037263
0.958007 0.000000 0.109865
0.991913 0.000000 0.150637
1.000000 0.147189 0.186618
1.000000 0.209140 0.220768
1.000000 0.258457 0.252873
1.000000 0.301488 0.283421
1.000000 0.340826 0.313664
1.000000 0.377600 0.343542
1.000000 0.413825 0.374060
1.000000 0.449470 0.406012
1.000000 0.485328 0.439704
1.000000 0.521447 0.475776
0.000000 0.190372 0.109834
0.000000 0.190524 0.109163
0.000000 0.191928 0.103670
0.000000 0.193973 0.096284
0.000000 0.197330 0.098238
0.000000 0.197360 0.088258
0.096590 0.191287 0.043977
0.178592 0.185916 0.009003
0.252018 0.191501 0.000000
0.316960 0.190890 0.000000
0.383307 0.188846 0.000000
0.451362 0.184543 0.000000
0.520165 0.177035 0.000000
0.588037 0.161807 0.000000
0.652430 0.142123 0.000000
0.712123 0.117830 0.000000
0.768063 0.087739 0.000000
0.819852 0.027344 0.000000
0.867094 0.000824 0.000000
0.914122 0.060212 0.000000
0.953307 0.119814 0.045563
0.986297 0.162692 0.121218
1.000000 0.204227 0.164004
1.000000 0.244358 0.200778
1.000000 0.282658 0.235599
1.000000 0.318029 0.268101
1.000000 0.352270 0.299351
1.000000 0.385138 0.329992
1.000000 0.418677 0.361395
1.000000 0.452461 0.394171
1.000000 0.486793 0.428595
1.000000 0.521691 0.465064
0.000000 0.251164 0.143465
0.000000 0.251682 0.141970
0.000000 0.252934 0.136934
0.000000 0.256138 0.127382
0.000000 0.260166 0.127260
0.000000 0.265782 0.131136
0.000000 0.260227 0.101564
0.153933 0.249699 0.034394
0.243412 0.239841 0.000000
0.322026 0.242191 0.000000
0.389136 0.240757 0.000000
0.455512 0.238163 0.000000
0.520836 0.233951 0.000000
0.586358 0.229404 0.000000
0.648646 0.223880 0.000000
0.707607 0.213687 0.000000
0.763180 0.202945 0.000000
0.814572 0.194675 0.000000
0.867277 0.195071 0.000000
0.911772 0.201419 0.000000
0.949401 0.214420 0.000000
0.981537 0.233219 0.059815
1.000000 0.256992 0.133639
1.000000 0.284276 0.178256
1.000000 0.312718 0.216342
1.000000 0.341192 0.251408
1.000000 0.369879 0.284642
1.000000 0.399115 0.317205
1.000000 0.429236 0.349432
1.000000 0.460456 0.383307
1.000000 0.492439 0.418219
1.000000 0.525536 0.455268
0.000000 0.320745 0.186862
0.000000 0.320897 0.185428
0.000000 0.322454 0.180880
0.000000 0.325841 0.173861
0.000000 0.330266 0.166812
0.000000 0.336004 0.171725
0.000000 0.339696 0.167697
0.079713 0.328740 0.123812
0.217075 0.313817 0.034485
0.310155 0.299962 0.000000
0.389960 0.298650 0.000000
0.456977 0.295537 0.000000
0.521630 0.292149 0.000000
0.583490 0.287510 0.000000
0.644617 0.283574 0.000000
0.702937 0.279911 0.000000
0.759365 0.277806 0.000000
0.816526 0.276127 0.000000
0.866758 0.275975 0.000000
0.909545 0.277409 0.000000
0.945647 0.282963 0.000000
0.976471 0.291752 0.000000
1.000000 0.305272 0.072847
1.000000 0.321935 0.144656
1.000000 0.341680 0.189883
1.000000 0.362829 0.227787
1.000000 0.386542 0.264042
1.000000 0.411536 0.298192
1.000000 0.438849 0.332952
1.000000 0.467750 0.368292
1.000000 0.498238 0.404944
1.000000 0.530266 0.443641
0.000000 0.390723 0.231205
0.000000 0.391333 0.229892
0.000000 0.393042 0.227420
0.000000 0.396460 0.221408
0.000000 0.402258 0.211276
0.000000 0.408911 0.216403
0.000000 0.417304 0.223117
0.000000 0.414710 0.203189
0.174716 0.401404 0.153109
0.286015 0.382330 0.064759
0.379980 0.364843 0.000000
0.458564 0.360388 0.000000
0.524529 0.355688 0.000000
0.586267 0.350408 0.000000
0.645777 0.345678 0.000000
0.704738 0.343114 0.000000
0.762478 0.342779 0.000000
0.815854 0.342687 0.000000
0.863157 0.342290 0.000000
0.904417 0.340795 0.000000
0.939757 0.341436 0.000000
0.970245 0.344915 0.000000
0.996826 0.352117 0.000000
1.000000 0.362737 0.093019
1.000000 0.376501 0.157900
1.000000 0.392401 0.204196
1.000000 0.411048 0.244114
1.000000 0.432013 0.281407
1.000000 0.455482 0.318120
1.000000 0.481300 0.355200
1.000000 0.509239 0.393225
1.000000 0.538933 0.432776
0.000000 0.465736 0.276310
0.000000 0.466224 0.275914
0.000000 0.467689 0.274235
0.000000 0.471260 0.269444
0.000000 0.477150 0.261814
0.000000 0.483894 0.261570
0.000000 0.492287 0.268589
0.000000 0.502586 0.277287
0.127596 0.490883 0.238743
0.262089 0.474769 0.186465
0.359838 0.452979 0.108675
0.451301 0.433021 0.000000
0.560540 0.453040 0.000000
0.629389 0.449653 0.000000
0.691218 0.444495 0.000000
0.747433 0.439033 0.000000
0.798764 0.433173 0.000000
0.846647 0.429297 0.000000
0.888945 0.425818 0.000000
0.925658 0.422705 0.000000
0.957671 0.420264 0.000000
0.984894 0.419989 0.000000
1.000000 0.422583 0.000000
1.000000 0.428107 0.023468
1.000000 0.436378 0.147768
1.000000 0.447059 0.201144
1.000000 0.460182 0.244175
1.000000 0.475807 0.283238
1.000000 0.493965 0.320806
1.000000 0.514855 0.358434
1.000000 0.538354 0.397101
1.000000 0.564324 0.437293
0.000000 0.552209 0.333715
0.000000 0.552361 0.332891
0.000000 0.553491 0.331334
0.000000 0.555810 0.327031
0.000000 0.559716 0.321294
0.000000 0.565393 0.315496
0.000000 0.571557 0.321813
0.000000 0.579736 0.330602
0.159609 0.584100 0.327214
0.270970 0.574243 0.286168
0.367437 0.560845 0.233677
0.459266 0.542748 0.162539
0.552117 0.525048 0.000000
0.627375 0.515831 0.000000
0.690791 0.510399 0.000000
0.746029 0.502617 0.000000
0.795621 0.494301 0.000000
0.838560 0.485145 0.000000
0.877226 0.476295 0.000000
0.913298 0.470680 0.000000
0.945129 0.465797 0.000000
0.973419 0.461952 0.000000
0.997986 0.460395 0.000000
1.000000 0.461952 0.000000
1.000000 0.466194 0.036286
1.000000 0.473060 0.157076
1.000000 0.483009 0.212589
1.000000 0.495430 0.257511
1.000000 0.510887 0.299657
1.000000 0.529259 0.340185
1.000000 0.550469 0.380957
1.000000 0.574273 0.422980
0.000000 0.616632 0.383642
0.000000 0.616724 0.382910
0.000000 0.617304 0.380957
0.000000 0.619654 0.378424
0.000000 0.623255 0.374426
0.000000 0.629084 0.368017
0.000000 0.635431 0.372961
0.000000 0.643671 0.382727
0.233433 0.653712 0.395453
0.312505 0.650813 0.374945
0.381842 0.639338 0.330907
0.458625 0.624323 0.276616
0.537987 0.604303 0.205722
0.620722 0.584039 0.071656
0.686122 0.570153 0.000000
0.742275 0.562036 0.000000
0.790219 0.551476 0.000000
0.831815 0.540246 0.000000
0.868864 0.528893 0.000000
0.901762 0.517906 0.000000
0.933074 0.510582 0.000000
0.961975 0.505180 0.000000
0.987671 0.500725 0.000000
1.000000 0.498146 0.000000
1.000000 0.499184 0.000000
1.000000 0.502892 0.087953
1.000000 0.509483 0.174746
1.000000 0.518822 0.229374
1.000000 0.531212 0.276890
1.000000 0.546838 0.321263
1.000000 0.565484 0.364721
1.000000 0.587121 0.409064
0.000000 0.677455 0.439368
0.000000 0.677638 0.438849
0.000000 0.677974 0.437537
0.000000 0.679225 0.434760
0.000000 0.681453 0.431067
0.000000 0.685298 0.425879
0.000000 0.690486 0.425422
0.176303 0.696620 0.434394
0.292912 0.703975 0.446509
0.379553 0.712276 0.460670
0.420386 0.703243 0.421088
0.475502 0.691524 0.374395
0.539544 0.675532 0.317815
0.606928 0.654719 0.247013
0.679866 0.632898 0.145174
0.736233 0.615656 0.043244
0.784512 0.605097 0.000000
0.825132 0.592615 0.000000
0.861326 0.579950 0.000000
0.893675 0.567803 0.000000
0.923095 0.556481 0.000000
0.950774 0.547112 0.000000
0.976867 0.541650 0.000000
1.000000 0.536950 0.000000
1.000000 0.533165 0.000000
1.000000 0.533928 0.000000
1.000000 0.537713 0.118502
1.000000 0.544427 0.195651
1.000000 0.554406 0.252262
1.000000 0.568048 0.302342
1.000000 0.584924 0.350256
1.000000 0.605066 0.398718
0.000000 0.722927 0.491188
0.000000 0.723384 0.491005
0.000000 0.723842 0.490272
0.028229 0.725368 0.488655
0.109621 0.727474 0.486122
0.154208 0.730983 0.483406
0.198459 0.735622 0.480476
0.288396 0.740505 0.489967
0.364752 0.745937 0.502434
0.434333 0.752224 0.517205
0.482856 0.753384 0.513237
0.512932 0.744076 0.469917
0.555505 0.731838 0.419715
0.607263 0.715328 0.359411
0.664485 0.693996 0.286198
0.727810 0.671504 0.193027
0.775051 0.651301 0.139193
0.816678 0.639460 0.105104
0.852354 0.626276 0.019440
0.884489 0.613703 0.000000
0.914214 0.602045 0.000000
0.941527 0.591302 0.000000
0.966613 0.581476 0.000000
0.990539 0.575433 0.000000
1.000000 0.571099 0.000000
1.000000 0.567681 0.000000
1.000000 0.568139 0.000000
1.000000 0.572503 0.153933
1.000000 0.579950 0.224735
1.000000 0.590570 0.281315
1.000000 0.604517 0.333165
1.000000 0.621698 0.383612
0.261448 0.756832 0.539666
0.262547 0.756832 0.539696
0.266758 0.757443 0.539269
0.273930 0.758663 0.538079
0.286503 0.760311 0.536950
0.303044 0.763088 0.535241
0.325139 0.766720 0.533837
0.368170 0.770657 0.538842
0.424475 0.774594 0.550195
0.479652 0.779080 0.563745
0.534234 0.783902 0.579309
0.557977 0.780148 0.555596
0.581628 0.771420 0.511528
0.616785 0.759579 0.458686
0.660914 0.744228 0.397253
0.711238 0.724361 0.323125
0.767849 0.703212 0.236149
0.808255 0.682246 0.190768
0.844938 0.670253 0.169223
0.876585 0.657282 0.144228
0.906065 0.645319 0.112184
0.933074 0.634211 0.042237
0.958099 0.624018 0.000000
0.981292 0.614588 0.000000
1.000000 0.607202 0.000000
1.000000 0.603235 0.000000
1.000000 0.600336 0.000000
1.000000 0.600916 0.055970
1.000000 0.606165 0.190677
1.000000 0.614527 0.257816
1.000000 0.626062 0.315343
1.000000 0.640955 0.369696
0.377478 0.784695 0.589075
0.378851 0.785061 0.589258
0.433295 0.797971 0.615473
0.438300 0.798764 0.615259
0.446235 0.800076 0.614923
0.456397 0.801785 0.614435
0.470130 0.804227 0.614038
0.490425 0.806943 0.615778
0.528496 0.809323 0.625879
0.568811 0.812070 0.638056
0.609094 0.815030 0.651362
0.644709 0.817380 0.660761
0.649958 0.811490 0.624140
0.663996 0.803403 0.578149
0.688930 0.792538 0.523156
0.723690 0.778195 0.458412
0.765499 0.759701 0.382300
0.813993 0.739681 0.297612
0.846799 0.717830 0.254551
0.877623 0.705348 0.234684
0.904814 0.692348 0.215549
0.930419 0.680476 0.193912
0.954192 0.669459 0.171725
0.976318 0.659236 0.144503
0.996857 0.649653 0.108309
1.000000 0.640925 0.000092
1.000000 0.635798 0.000000
1.000000 0.632502 0.002106
1.000000 0.633112 0.142672
1.000000 0.638972 0.230167
1.000000 0.648096 0.294926
1.000000 0.660578 0.353979
0.480293 0.809537 0.642542
0.484810 0.810605 0.644831
0.491249 0.811887 0.647272
0.499214 0.813352 0.649561
0.508476 0.815030 0.651270
0.517845 0.816709 0.651942
0.529137 0.818601 0.652216
0.542443 0.820890 0.652735
0.568872 0.822904 0.659358
0.600702 0.824949 0.669215
0.633722 0.827207 0.680262
0.666865 0.829740 0.692164
0.684840 0.828916 0.685054
0.690028 0.823301 0.650629
0.702296 0.815793 0.606256
0.724117 0.805875 0.551720
0.755367 0.792996 0.487953
0.793759 0.776913 0.414191
0.838773 0.759091 0.333196
0.868345 0.738888 0.291905
0.896330 0.727443 0.275212
0.921630 0.715999 0.257816
0.945251 0.705135 0.240665
0.967193 0.695033 0.220951
0.987701 0.685512 0.199344
1.000000 0.676539 0.174502
1.000000 0.668605 0.144503
1.000000 0.662684 0.120882
1.000000 0.660090 0.126528
1.000000 0.661860 0.190585
1.000000 0.668849 0.268315
1.000000 0.679225 0.333959
0.543603 0.824521 0.679042
0.547845 0.825406 0.681300
0.553155 0.826566 0.683528
0.559655 0.827848 0.685756
0.567041 0.829221 0.687495
0.574640 0.830594 0.688319
0.583581 0.832120 0.688930
0.593988 0.833982 0.689509
0.610285 0.835843 0.692653
0.635523 0.837369 0.700649
0.662531 0.839231 0.709743
0.689815 0.841245 0.719570
0.716945 0.843351 0.729763
0.722560 0.840299 0.710506
0.727718 0.834806 0.678035
0.738918 0.827909 0.636805
0.757900 0.819028 0.584253
0.785794 0.807645 0.521538
0.820981 0.793454 0.449226
0.862211 0.777829 0.371099
0.888487 0.758724 0.330144
0.913603 0.748135 0.314702
0.936797 0.737942 0.299107
0.958465 0.728115 0.282994
0.978790 0.718837 0.265385
0.998016 0.710048 0.245945
1.000000 0.701930 0.224186
1.000000 0.694759 0.200839
1.000000 0.688930 0.174838
1.000000 0.686824 0.174380
1.000000 0.690181 0.236728
1.000000 0.698299 0.311315
0.598779 0.837919 0.712764
0.601862 0.838621 0.714534
0.606104 0.839475 0.716457
0.611109 0.840513 0.718257
0.616846 0.841642 0.719661
0.622919 0.842741 0.720485
0.629999 0.844022 0.721187
0.638300 0.845548 0.721828
0.648402 0.847410 0.722805
0.668421 0.848692 0.729183
0.690455 0.850187 0.736812
0.713283 0.851926 0.745083
0.736294 0.853758 0.753750
0.754543 0.854734 0.757137
0.755612 0.850706 0.733669
0.761013 0.845640 0.704036
0.771939 0.839414 0.666621
0.789700 0.831693 0.618891
0.815152 0.822232 0.560418
0.847959 0.810391 0.491341
0.886137 0.797452 0.417945
0.910277 0.780514 0.377996
0.932677 0.771389 0.365057
0.953979 0.762875 0.351354
0.973999 0.754696 0.337133
0.992981 0.746792 0.321324
1.000000 0.739498 0.304784
1.000000 0.732937 0.286931
1.000000 0.727413 0.268894
1.000000 0.722988 0.250340
1.000000 0.720699 0.239231
1.000000 0.726375 0.307408
0.661616 0.853513 0.752804
0.662837 0.853788 0.753475
0.664454 0.854124 0.753964
0.666804 0.854582 0.754391
0.670039 0.855161 0.754818
0.673884 0.855894 0.755001
0.679042 0.856779 0.755337
0.685359 0.858061 0.755856
0.693111 0.859586 0.756710
0.706416 0.860990 0.760403
0.724086 0.862333 0.766690
0.742550 0.863859 0.773312
0.761196 0.865476 0.780270
0.779782 0.867308 0.787442
0.788052 0.866361 0.781338
0.789517 0.862364 0.760098
0.794522 0.857572 0.733333
0.804318 0.851774 0.699489
0.819974 0.844663 0.656428
0.842344 0.836027 0.601129
0.871183 0.825498 0.534234
0.905516 0.813718 0.461921
0.926879 0.797787 0.419257
0.946471 0.789029 0.405035
0.965850 0.781186 0.390661
0.984527 0.773831 0.375647
1.000000 0.767025 0.360601
1.000000 0.760891 0.345190
1.000000 0.755642 0.329656
1.000000 0.751278 0.313237
1.000000 0.747890 0.296269
1.000000 0.745663 0.282506
0.700679 0.864103 0.778408
0.701564 0.864286 0.778897
0.702937 0.864622 0.779385
0.704952 0.865019 0.779812
0.707393 0.865537 0.780117
0.710658 0.866178 0.780392
0.714748 0.867033 0.780667
0.719966 0.868101 0.781247
0.726131 0.869474 0.781979
0.734524 0.870970 0.783627
0.748928 0.872190 0.788632
0.764157 0.873625 0.794125
0.779873 0.875151 0.799924
0.795651 0.876860 0.805875
0.811460 0.878752 0.811978
0.813107 0.876066 0.799161
0.815396 0.872282 0.780392
0.820737 0.867826 0.756710
0.830137 0.862455 0.726497
0.844602 0.856046 0.687984
0.864775 0.848356 0.638605
0.891173 0.839017 0.575067
0.922576 0.828733 0.505425
0.942199 0.814237 0.462501
0.957946 0.803799 0.439521
0.975860 0.796750 0.424933
0.993561 0.790463 0.410986
1.000000 0.784817 0.396490
1.000000 0.779873 0.382238
1.000000 0.775753 0.367803
1.000000 0.772549 0.353124
1.000000 0.770199 0.337377
0.740810 0.876066 0.804929
0.742031 0.876371 0.805600
0.743008 0.876616 0.805936
0.744076 0.876860 0.805997
0.745296 0.877073 0.805814
0.747036 0.877440 0.805539
0.749355 0.877897 0.805173
0.752468 0.878569 0.804959
0.756558 0.879545 0.804929
0.761654 0.880735 0.805203
0.771298 0.881712 0.807858
0.783383 0.882811 0.811856
0.795956 0.884031 0.816159
0.808988 0.885435 0.820676
0.821988 0.886961 0.825223
0.831479 0.887358 0.825589
0.831693 0.884001 0.811521
0.834165 0.880186 0.794095
0.839750 0.875883 0.772549
0.849119 0.870878 0.745205
0.862943 0.865049 0.710109
0.881804 0.858030 0.665248
0.906035 0.849577 0.606256
0.935119 0.840055 0.538201
0.953368 0.826230 0.492958
0.969360 0.818631 0.477455
0.985931 0.812192 0.462287
1.000000 0.806699 0.448096
1.000000 0.801877 0.433387
1.000000 0.797787 0.419409
1.000000 0.794644 0.405737
1.000000 0.792325 0.391730
0.765560 0.884733 0.821439
0.766537 0.885039 0.822019
0.767544 0.885313 0.822385
0.768643 0.885618 0.822599
0.770016 0.885985 0.822660
0.771939 0.886412 0.822782
0.774472 0.887083 0.822965
0.777707 0.887907 0.823239
0.781704 0.889006 0.823667
0.786313 0.890288 0.824216
0.793088 0.891600 0.825772
0.803342 0.892760 0.829221
0.814054 0.893980 0.832822
0.825101 0.895354 0.836576
0.836240 0.896757 0.840391
0.847440 0.898344 0.844236
0.851438 0.897154 0.839139
0.852232 0.893889 0.826627
0.855222 0.890227 0.811368
0.860929 0.886137 0.792508
0.869810 0.881437 0.768429
0.882506 0.876036 0.737423
0.899718 0.869535 0.697200
0.921813 0.861906 0.644404
0.948699 0.853422 0.580621
0.966094 0.840818 0.535760
0.980987 0.834134 0.520470
0.996368 0.828611 0.506340
1.000000 0.824338 0.493080
1.000000 0.820676 0.480110
1.000000 0.817746 0.467231
1.000000 0.815579 0.454261
0.791653 0.894896 0.838773
0.792111 0.895079 0.839048
0.792660 0.895232 0.839170
0.793393 0.895476 0.839261
0.794491 0.895750 0.839292
0.795956 0.896178 0.839292
0.797940 0.896727 0.839384
0.800412 0.897459 0.839506
0.803555 0.898375 0.839811
0.807340 0.899535 0.840177
0.811521 0.900847 0.840635
0.819944 0.901946 0.843351
0.829068 0.903166 0.846372
0.838529 0.904448 0.849516
0.848142 0.905821 0.852720
0.857847 0.907286 0.855955
0.867674 0.908904 0.859373
0.867796 0.906188 0.850126
0.869200 0.903075 0.838804
0.872618 0.899626 0.825162
0.878416 0.895781 0.808499
0.887053 0.891295 0.787259
0.898894 0.886137 0.759548
0.914763 0.880064 0.722927
0.935119 0.872953 0.674800
0.959930 0.865171 0.616724
0.976684 0.853452 0.571710
0.990509 0.847349 0.556023
1.000000 0.842405 0.542321
1.000000 0.839078 0.530083
1.000000 0.836454 0.518059
1.000000 0.834592 0.507164
0.812528 0.904356 0.852781
0.812863 0.904448 0.852934
0.813382 0.904662 0.853117
0.814145 0.904906 0.853239
0.815244 0.905272 0.853452
0.816922 0.905852 0.853758
0.819364 0.906706 0.854368
0.822385 0.907774 0.855100
0.826017 0.909117 0.856077
0.830198 0.910674 0.857176
0.834775 0.912413 0.858335
0.841367 0.914122 0.860533
0.849760 0.915679 0.863615
0.858213 0.917296 0.866667
0.866636 0.918883 0.869657
0.874968 0.920409 0.872526
0.883268 0.921965 0.875395
0.888731 0.922301 0.874815
0.889250 0.919738 0.866545
0.891142 0.916869 0.856809
0.894713 0.913695 0.845335
0.900328 0.910033 0.831235
0.908171 0.905821 0.813565
0.918914 0.900969 0.790738
0.933104 0.895384 0.760311
0.951385 0.888975 0.719173
0.973724 0.882078 0.669886
0.989471 0.871458 0.629389
1.000000 0.866117 0.614862
1.000000 0.861906 0.601648
1.000000 0.859739 0.591302
1.000000 0.858183 0.581353
0.838743 0.917418 0.870359
0.838804 0.917479 0.870390
0.838987 0.917540 0.870359
0.839384 0.917662 0.870359
0.840055 0.917906 0.870359
0.841032 0.918242 0.870359
0.842466 0.918761 0.870512
0.844297 0.919463 0.870665
0.846555 0.920348 0.870970
0.849210 0.921416 0.871366
0.852293 0.922667 0.871824
0.856046 0.923980 0.872557
0.862669 0.925170 0.874815
0.869474 0.926390 0.877104
