20 Preset/Art Style/【3】LUT video cho PR-AE-FCPX/400H Alt.cube
# Created by Adobe Lightroom plugin Export LUT (1.24.0)
# www.johnrellis.com/lightroom/exportlut.htm
# Preset: 400H Alt
# Color profile: E:\lut插件\exportlut.1.24\exportlut.lrplugin\color profiles\Rec709gamma2.4.icc
LUT_3D_SIZE 5
DOMAIN_MIN 0.000000 0.000000 0.000000
DOMAIN_MAX 0.903226 0.903226 0.903226
0.029297 0.029297 0.029297
0.274296 0.045960 0.070649
0.652766 0.000000 0.000000
0.920500 0.056489 0.000000
1.000000 0.152743 0.133120
0.000000 0.261479 0.115328
0.277653 0.272801 0.011780
0.661677 0.314214 0.000000
0.922820 0.303044 0.000000
1.000000 0.293736 0.129793
0.000000 0.677058 0.329778
0.249668 0.667659 0.342931
0.687556 0.676051 0.080354
0.919097 0.589410 0.046937
1.000000 0.527520 0.172396
0.488411 0.862791 0.611475
0.540307 0.860136 0.626673
0.629175 0.857053 0.585260
0.859709 0.847868 0.411261
1.000000 0.766140 0.354437
0.702754 0.941039 0.770932
0.717494 0.939940 0.776028
0.751217 0.935821 0.776425
0.794522 0.937774 0.719570
0.944213 0.933349 0.593194
0.000000 0.124880 0.297551
0.292454 0.000000 0.278660
0.583490 0.000000 0.281193
0.879393 0.000000 0.232273
1.000000 0.156008 0.245060
0.000000 0.273625 0.266941
0.266087 0.266087 0.266087
0.612512 0.259525 0.249546
0.883940 0.264805 0.239963
1.000000 0.289067 0.254673
0.172885 0.649622 0.431891
0.331670 0.646082 0.439857
0.653223 0.644648 0.344884
0.888853 0.575921 0.299931
1.000000 0.531243 0.312444
0.530694 0.856138 0.646174
0.575830 0.854337 0.659815
0.664210 0.850584 0.649805
0.852873 0.842985 0.518425
1.000000 0.769497 0.451942
0.716823 0.939971 0.784237
0.730526 0.938933 0.788846
0.775692 0.935973 0.802579
0.810483 0.937316 0.754086
0.943938 0.934173 0.631098
0.000000 0.263493 0.704189
0.000000 0.179599 0.695155
0.680537 0.000000 0.647608
0.772457 0.224887 0.574121
1.000000 0.170413 0.527062
0.000000 0.423835 0.671138
0.000000 0.376806 0.664149
0.655970 0.265263 0.629145
0.782834 0.317662 0.567529
1.000000 0.278569 0.515099
0.000000 0.631861 0.616236
0.000000 0.622675 0.610285
0.599725 0.599725 0.599725
0.815946 0.560540 0.556268
0.987976 0.544366 0.535149
0.547753 0.833219 0.708492
0.603784 0.828794 0.718318
0.713191 0.829923 0.744198
0.831815 0.827115 0.697658
0.966888 0.771145 0.628656
0.749966 0.935088 0.821103
0.758389 0.935088 0.822477
0.798581 0.933776 0.834592
0.840146 0.932860 0.824125
0.937285 0.930907 0.752834
0.000000 0.398016 0.880034
0.000000 0.377905 0.877958
0.549187 0.329046 0.868162
0.879179 0.212589 0.839750
0.937804 0.391180 0.766232
0.000000 0.496559 0.867155
0.000000 0.493721 0.863981
0.555566 0.446479 0.855650
0.864286 0.359899 0.829282
0.923827 0.447791 0.761593
0.000000 0.663416 0.835325
0.263249 0.665156 0.831022
0.585779 0.662074 0.820249
0.817838 0.596216 0.798001
0.891722 0.589532 0.753750
0.191196 0.819577 0.804013
0.331823 0.815640 0.801511
0.575952 0.803220 0.794644
0.783444 0.783444 0.783444
0.923522 0.742794 0.740169
0.636988 0.934203 0.829160
0.669551 0.932799 0.834348
0.773068 0.928985 0.855619
0.865660 0.929931 0.881987
0.931151 0.928161 0.851347
0.000000 0.545617 0.959197
0.290105 0.564446 0.956481
0.508446 0.542626 0.954406
0.750454 0.484779 0.950164
0.975891 0.408362 0.936522
0.017243 0.584924 0.953582
0.326299 0.599451 0.951324
0.539757 0.594934 0.947936
0.752285 0.540002 0.944244
0.968536 0.465370 0.931609
0.193393 0.686824 0.941833
0.350317 0.692866 0.939727
0.608118 0.718471 0.932677
0.760525 0.681910 0.928679
0.947356 0.619440 0.919615
0.251102 0.796597 0.927764
0.352361 0.798032 0.926360
0.571344 0.806668 0.922606
0.773495 0.816587 0.917327
0.924468 0.777615 0.910246
0.275486 0.930022 0.912779
0.362127 0.928405 0.912139
0.567254 0.923369 0.910979
0.751583 0.914122 0.907469
0.897765 0.897765 0.897765
