20 Preset/Art Style/【3】LUT video cho PR-AE-FCPX/Black _ White Soft OD Alt.cube
# Created by Adobe Lightroom plugin Export LUT (1.24.0)
# www.johnrellis.com/lightroom/exportlut.htm
# Preset: Black & White Soft OD Alt
# Color profile: E:\lut插件\exportlut.1.24\exportlut.lrplugin\color profiles\Rec709gamma2.4.icc
LUT_3D_SIZE 32
DOMAIN_MIN 0.0 0.0 0.0
DOMAIN_MAX 1.0 1.0 1.0
0.185733 0.185733 0.185733
0.185733 0.185733 0.185733
0.185855 0.185855 0.185855
0.186007 0.186007 0.186007
0.186130 0.186130 0.186130
0.186404 0.186404 0.186404
0.186679 0.186679 0.186679
0.187076 0.187076 0.187076
0.187320 0.187320 0.187320
0.187869 0.187869 0.187869
0.188388 0.188388 0.188388
0.189181 0.189181 0.189181
0.190097 0.190097 0.190097
0.191379 0.191379 0.191379
0.192905 0.192905 0.192905
0.194797 0.194797 0.194797
0.197024 0.197024 0.197024
0.199741 0.199741 0.199741
0.202853 0.202853 0.202853
0.206699 0.206699 0.206699
0.211368 0.211368 0.211368
0.216617 0.216617 0.216617
0.222660 0.222660 0.222660
0.229801 0.229801 0.229801
0.238132 0.238132 0.238132
0.248051 0.248051 0.248051
0.259922 0.259922 0.259922
0.276341 0.276341 0.276341
0.298955 0.298955 0.298955
0.326726 0.326726 0.326726
0.360876 0.360876 0.360876
0.401373 0.401373 0.401373
0.185855 0.185855 0.185855
0.185855 0.185855 0.185855
0.185855 0.185855 0.185855
0.186007 0.186007 0.186007
0.186252 0.186252 0.186252
0.186526 0.186526 0.186526
0.186801 0.186801 0.186801
0.187076 0.187076 0.187076
0.187472 0.187472 0.187472
0.187869 0.187869 0.187869
0.188388 0.188388 0.188388
0.189181 0.189181 0.189181
0.190097 0.190097 0.190097
0.191379 0.191379 0.191379
0.192905 0.192905 0.192905
0.194675 0.194675 0.194675
0.196902 0.196902 0.196902
0.199619 0.199619 0.199619
0.202731 0.202731 0.202731
0.206455 0.206455 0.206455
0.210910 0.210910 0.210910
0.216098 0.216098 0.216098
0.222049 0.222049 0.222049
0.228977 0.228977 0.228977
0.237095 0.237095 0.237095
0.246708 0.246708 0.246708
0.258396 0.258396 0.258396
0.274174 0.274174 0.274174
0.295537 0.295537 0.295537
0.321813 0.321813 0.321813
0.354437 0.354437 0.354437
0.393591 0.393591 0.393591
0.186007 0.186007 0.186007
0.186007 0.186007 0.186007
0.186130 0.186130 0.186130
0.186252 0.186252 0.186252
0.186526 0.186526 0.186526
0.186801 0.186801 0.186801
0.187076 0.187076 0.187076
0.187320 0.187320 0.187320
0.187716 0.187716 0.187716
0.188266 0.188266 0.188266
0.188785 0.188785 0.188785
0.189578 0.189578 0.189578
0.190585 0.190585 0.190585
0.191775 0.191775 0.191775
0.193423 0.193423 0.193423
0.195163 0.195163 0.195163
0.197421 0.197421 0.197421
0.200076 0.200076 0.200076
0.203311 0.203311 0.203311
0.207034 0.207034 0.207034
0.211582 0.211582 0.211582
0.216739 0.216739 0.216739
0.222660 0.222660 0.222660
0.229587 0.229587 0.229587
0.237766 0.237766 0.237766
0.247257 0.247257 0.247257
0.258824 0.258824 0.258824
0.274876 0.274876 0.274876
0.295689 0.295689 0.295689
0.321508 0.321508 0.321508
0.353399 0.353399 0.353399
0.391821 0.391821 0.391821
0.186404 0.186404 0.186404
0.186404 0.186404 0.186404
0.186404 0.186404 0.186404
0.186679 0.186679 0.186679
0.186923 0.186923 0.186923
0.187198 0.187198 0.187198
0.187594 0.187594 0.187594
0.187869 0.187869 0.187869
0.188388 0.188388 0.188388
0.188907 0.188907 0.188907
0.189578 0.189578 0.189578
0.190463 0.190463 0.190463
0.191501 0.191501 0.191501
0.192905 0.192905 0.192905
0.194430 0.194430 0.194430
0.196292 0.196292 0.196292
0.198642 0.198642 0.198642
0.201297 0.201297 0.201297
0.204501 0.204501 0.204501
0.208316 0.208316 0.208316
0.212802 0.212802 0.212802
0.218021 0.218021 0.218021
0.224002 0.224002 0.224002
0.230991 0.230991 0.230991
0.239261 0.239261 0.239261
0.249210 0.249210 0.249210
0.261173 0.261173 0.261173
0.278172 0.278172 0.278172
0.299290 0.299290 0.299290
0.325261 0.325261 0.325261
0.356878 0.356878 0.356878
0.394293 0.394293 0.394293
0.187076 0.187076 0.187076
0.187076 0.187076 0.187076
0.187076 0.187076 0.187076
0.187198 0.187198 0.187198
0.187472 0.187472 0.187472
0.187716 0.187716 0.187716
0.188113 0.188113 0.188113
0.188785 0.188785 0.188785
0.189303 0.189303 0.189303
0.189944 0.189944 0.189944
0.190738 0.190738 0.190738
0.191775 0.191775 0.191775
0.193027 0.193027 0.193027
0.194553 0.194553 0.194553
0.196292 0.196292 0.196292
0.198398 0.198398 0.198398
0.200809 0.200809 0.200809
0.203677 0.203677 0.203677
0.207034 0.207034 0.207034
0.211032 0.211032 0.211032
0.215763 0.215763 0.215763
0.221103 0.221103 0.221103
0.227176 0.227176 0.227176
0.234501 0.234501 0.234501
0.243168 0.243168 0.243168
0.253422 0.253422 0.253422
0.266423 0.266423 0.266423
0.284123 0.284123 0.284123
0.305516 0.305516 0.305516
0.331548 0.331548 0.331548
0.363073 0.363073 0.363073
0.400031 0.400031 0.400031
0.187869 0.187869 0.187869
0.187869 0.187869 0.187869
0.187869 0.187869 0.187869
0.187869 0.187869 0.187869
0.188113 0.188113 0.188113
0.188632 0.188632 0.188632
0.189181 0.189181 0.189181
0.189700 0.189700 0.189700
0.190738 0.190738 0.190738
0.191623 0.191623 0.191623
0.192538 0.192538 0.192538
0.193668 0.193668 0.193668
0.195041 0.195041 0.195041
0.196780 0.196780 0.196780
0.199008 0.199008 0.199008
0.201541 0.201541 0.201541
0.204501 0.204501 0.204501
0.207614 0.207614 0.207614
0.211246 0.211246 0.211246
0.215549 0.215549 0.215549
0.220584 0.220584 0.220584
0.226261 0.226261 0.226261
0.239445 0.239445 0.239445
0.248142 0.248142 0.248142
0.258396 0.258396 0.258396
0.270420 0.270420 0.270420
0.290288 0.290288 0.290288
0.314183 0.314183 0.314183
0.342718 0.342718 0.342718
0.375280 0.375280 0.375280
0.411749 0.411749 0.411749
0.450690 0.450690 0.450690
0.189303 0.189303 0.189303
0.189303 0.189303 0.189303
0.189303 0.189303 0.189303
0.189425 0.189425 0.189425
0.189578 0.189578 0.189578
0.190219 0.190219 0.190219
0.190982 0.190982 0.190982
0.191897 0.191897 0.191897
0.192782 0.192782 0.192782
0.193912 0.193912 0.193912
0.196048 0.196048 0.196048
0.197421 0.197421 0.197421
0.199130 0.199130 0.199130
0.201175 0.201175 0.201175
0.203555 0.203555 0.203555
0.206363 0.206363 0.206363
0.209781 0.209781 0.209781
0.213809 0.213809 0.213809
0.218448 0.218448 0.218448
0.224125 0.224125 0.224125
0.229984 0.229984 0.229984
0.236790 0.236790 0.236790
0.244999 0.244999 0.244999
0.254734 0.254734 0.254734
0.265934 0.265934 0.265934
0.282689 0.282689 0.282689
0.303105 0.303105 0.303105
0.326970 0.326970 0.326970
0.354711 0.354711 0.354711
0.385901 0.385901 0.385901
0.420600 0.420600 0.420600
0.457862 0.457862 0.457862
0.191379 0.191379 0.191379
0.191379 0.191379 0.191379
0.191379 0.191379 0.191379
0.191501 0.191501 0.191501
0.191623 0.191623 0.191623
0.192142 0.192142 0.192142
0.192905 0.192905 0.192905
0.194034 0.194034 0.194034
0.195315 0.195315 0.195315
0.196536 0.196536 0.196536
0.198154 0.198154 0.198154
0.200565 0.200565 0.200565
0.203433 0.203433 0.203433
0.205661 0.205661 0.205661
0.208194 0.208194 0.208194
0.211368 0.211368 0.211368
0.214878 0.214878 0.214878
0.219089 0.219089 0.219089
0.224125 0.224125 0.224125
0.229984 0.229984 0.229984
0.237003 0.237003 0.237003
0.245182 0.245182 0.245182
0.254917 0.254917 0.254917
0.265507 0.265507 0.265507
0.281285 0.281285 0.281285
0.299504 0.299504 0.299504
0.320439 0.320439 0.320439
0.344244 0.344244 0.344244
0.371862 0.371862 0.371862
0.402472 0.402472 0.402472
0.435889 0.435889 0.435889
0.471321 0.471321 0.471321
0.194308 0.194308 0.194308
0.194308 0.194308 0.194308
0.194308 0.194308 0.194308
0.194430 0.194430 0.194430
0.194675 0.194675 0.194675
0.194919 0.194919 0.194919
0.195682 0.195682 0.195682
0.196780 0.196780 0.196780
0.198276 0.198276 0.198276
0.200076 0.200076 0.200076
0.201877 0.201877 0.201877
0.204135 0.204135 0.204135
0.206699 0.206699 0.206699
0.211917 0.211917 0.211917
0.214786 0.214786 0.214786
0.218143 0.218143 0.218143
0.222049 0.222049 0.222049
0.226566 0.226566 0.226566
0.231876 0.231876 0.231876
0.238224 0.238224 0.238224
0.245640 0.245640 0.245640
0.254307 0.254307 0.254307
0.266331 0.266331 0.266331
0.281590 0.281590 0.281590
0.299687 0.299687 0.299687
0.320684 0.320684 0.320684
0.343053 0.343053 0.343053
0.367498 0.367498 0.367498
0.394659 0.394659 0.394659
0.424475 0.424475 0.424475
0.456428 0.456428 0.456428
0.489998 0.489998 0.489998
0.198154 0.198154 0.198154
0.198154 0.198154 0.198154
0.198154 0.198154 0.198154
0.198276 0.198276 0.198276
0.198398 0.198398 0.198398
0.198642 0.198642 0.198642
0.199252 0.199252 0.199252
0.200443 0.200443 0.200443
0.201999 0.201999 0.201999
0.204013 0.204013 0.204013
0.206455 0.206455 0.206455
0.208865 0.208865 0.208865
0.211704 0.211704 0.211704
0.215122 0.215122 0.215122
0.219516 0.219516 0.219516
0.226780 0.226780 0.226780
0.231174 0.231174 0.231174
0.236332 0.236332 0.236332
0.242344 0.242344 0.242344
0.249851 0.249851 0.249851
0.258976 0.258976 0.258976
0.269688 0.269688 0.269688
0.282475 0.282475 0.282475
0.297704 0.297704 0.297704
0.315526 0.315526 0.315526
0.335973 0.335973 0.335973
0.359808 0.359808 0.359808
0.386389 0.386389 0.386389
0.416052 0.416052 0.416052
0.446754 0.446754 0.446754
0.477638 0.477638 0.477638
0.510002 0.510002 0.510002
0.202945 0.202945 0.202945
0.202945 0.202945 0.202945
0.202945 0.202945 0.202945
0.203067 0.203067 0.203067
0.203311 0.203311 0.203311
0.203677 0.203677 0.203677
0.204013 0.204013 0.204013
0.205081 0.205081 0.205081
0.206821 0.206821 0.206821
0.209110 0.209110 0.209110
0.211795 0.211795 0.211795
0.215122 0.215122 0.215122
0.218235 0.218235 0.218235
0.222049 0.222049 0.222049
0.226780 0.226780 0.226780
0.232364 0.232364 0.232364
0.242802 0.242802 0.242802
0.250828 0.250828 0.250828
0.258152 0.258152 0.258152
0.266575 0.266575 0.266575
0.276493 0.276493 0.276493
0.287846 0.287846 0.287846
0.301335 0.301335 0.301335
0.317418 0.317418 0.317418
0.336217 0.336217 0.336217
0.357458 0.357458 0.357458
0.381140 0.381140 0.381140
0.407507 0.407507 0.407507
0.436378 0.436378 0.436378
0.467323 0.467323 0.467323
0.499458 0.499458 0.499458
0.533043 0.533043 0.533043
0.209567 0.209567 0.209567
0.209567 0.209567 0.209567
0.209659 0.209659 0.209659
0.209903 0.209903 0.209903
0.210117 0.210117 0.210117
0.210575 0.210575 0.210575
0.211124 0.211124 0.211124
0.211917 0.211917 0.211917
0.214023 0.214023 0.214023
0.216739 0.216739 0.216739
0.220035 0.220035 0.220035
0.224002 0.224002 0.224002
0.236515 0.236515 0.236515
0.242069 0.242069 0.242069
0.248234 0.248234 0.248234
0.255497 0.255497 0.255497
0.263981 0.263981 0.263981
0.273869 0.273869 0.273869
0.294926 0.294926 0.294926
0.305577 0.305577 0.305577
0.317998 0.317998 0.317998
0.332128 0.332128 0.332128
0.348730 0.348730 0.348730
0.367407 0.367407 0.367407
0.387854 0.387854 0.387854
0.409674 0.409674 0.409674
0.432959 0.432959 0.432959
0.457374 0.457374 0.457374
0.483070 0.483070 0.483070
0.510185 0.510185 0.510185
0.538781 0.538781 0.538781
0.569512 0.569512 0.569512
0.222995 0.222995 0.222995
0.222873 0.222873 0.222873
0.222873 0.222873 0.222873
0.222995 0.222995 0.222995
0.222995 0.222995 0.222995
0.223301 0.223301 0.223301
0.223819 0.223819 0.223819
0.224521 0.224521 0.224521
0.226169 0.226169 0.226169
0.229496 0.229496 0.229496
0.233921 0.233921 0.233921
0.239536 0.239536 0.239536
0.246281 0.246281 0.246281
0.254459 0.254459 0.254459
0.262394 0.262394 0.262394
0.270512 0.270512 0.270512
0.279637 0.279637 0.279637
0.289952 0.289952 0.289952
0.301671 0.301671 0.301671
0.321935 0.321935 0.321935
0.342901 0.342901 0.342901
0.357183 0.357183 0.357183
0.373419 0.373419 0.373419
0.391730 0.391730 0.391730
0.411505 0.411505 0.411505
0.432837 0.432837 0.432837
0.455024 0.455024 0.455024
0.478462 0.478462 0.478462
0.502892 0.502892 0.502892
0.529168 0.529168 0.529168
0.556909 0.556909 0.556909
0.586603 0.586603 0.586603
0.235752 0.235752 0.235752
0.235660 0.235660 0.235660
0.235447 0.235447 0.235447
0.235355 0.235355 0.235355
0.235355 0.235355 0.235355
0.235355 0.235355 0.235355
0.235752 0.235752 0.235752
0.236423 0.236423 0.236423
0.237644 0.237644 0.237644
0.240848 0.240848 0.240848
0.245640 0.245640 0.245640
0.251774 0.251774 0.251774
0.259251 0.259251 0.259251
0.267948 0.267948 0.267948
0.277714 0.277714 0.277714
0.287205 0.287205 0.287205
0.296880 0.296880 0.296880
0.307591 0.307591 0.307591
0.319951 0.319951 0.319951
0.333745 0.333745 0.333745
0.349615 0.349615 0.349615
0.385168 0.385168 0.385168
0.402045 0.402045 0.402045
0.419928 0.419928 0.419928
0.439216 0.439216 0.439216
0.459388 0.459388 0.459388
0.480629 0.480629 0.480629
0.502647 0.502647 0.502647
0.525963 0.525963 0.525963
0.551080 0.551080 0.551080
0.577630 0.577630 0.577630
0.606287 0.606287 0.606287
0.251072 0.251072 0.251072
0.250980 0.250980 0.250980
0.250828 0.250828 0.250828
0.250553 0.250553 0.250553
0.250278 0.250278 0.250278
0.250187 0.250187 0.250187
0.250553 0.250553 0.250553
0.251164 0.251164 0.251164
0.252476 0.252476 0.252476
0.254551 0.254551 0.254551
0.259922 0.259922 0.259922
0.266575 0.266575 0.266575
0.274723 0.274723 0.274723
0.284031 0.284031 0.284031
0.294408 0.294408 0.294408
0.305852 0.305852 0.305852
0.316930 0.316930 0.316930
0.328374 0.328374 0.328374
0.341192 0.341192 0.341192
0.355261 0.355261 0.355261
0.371191 0.371191 0.371191
0.389441 0.389441 0.389441
0.416358 0.416358 0.416358
0.450233 0.450233 0.450233
0.468055 0.468055 0.468055
0.487160 0.487160 0.487160
0.507195 0.507195 0.507195
0.528679 0.528679 0.528679
0.551781 0.551781 0.551781
0.576837 0.576837 0.576837
0.603662 0.603662 0.603662
0.631769 0.631769 0.631769
0.268894 0.268894 0.268894
0.268986 0.268986 0.268986
0.268894 0.268894 0.268894
0.268894 0.268894 0.268894
0.268894 0.268894 0.268894
0.269230 0.269230 0.269230
0.270024 0.270024 0.270024
0.271122 0.271122 0.271122
0.272923 0.272923 0.272923
0.275120 0.275120 0.275120
0.279179 0.279179 0.279179
0.286015 0.286015 0.286015
0.293919 0.293919 0.293919
0.302983 0.302983 0.302983
0.313268 0.313268 0.313268
0.324590 0.324590 0.324590
0.337255 0.337255 0.337255
0.350164 0.350164 0.350164
0.363348 0.363348 0.363348
0.377844 0.377844 0.377844
0.394293 0.394293 0.394293
0.412696 0.412696 0.412696
0.432746 0.432746 0.432746
0.454444 0.454444 0.454444
0.492744 0.492744 0.492744
0.517723 0.517723 0.517723
0.537133 0.537133 0.537133
0.557702 0.557702 0.557702
0.579736 0.579736 0.579736
0.603418 0.603418 0.603418
0.628138 0.628138 0.628138
0.654261 0.654261 0.654261
0.290166 0.290166 0.290166
0.290166 0.290166 0.290166
0.290166 0.290166 0.290166
0.290288 0.290288 0.290288
0.290593 0.290593 0.290593
0.291020 0.291020 0.291020
0.291875 0.291875 0.291875
0.293217 0.293217 0.293217
0.295048 0.295048 0.295048
0.297276 0.297276 0.297276
0.300237 0.300237 0.300237
0.306737 0.306737 0.306737
0.315251 0.315251 0.315251
0.324956 0.324956 0.324956
0.335607 0.335607 0.335607
0.347387 0.347387 0.347387
0.360174 0.360174 0.360174
0.374578 0.374578 0.374578
0.389349 0.389349 0.389349
0.403815 0.403815 0.403815
0.420050 0.420050 0.420050
0.438025 0.438025 0.438025
0.457557 0.457557 0.457557
0.478279 0.478279 0.478279
0.500008 0.500008 0.500008
0.527276 0.527276 0.527276
0.567224 0.567224 0.567224
0.587030 0.587030 0.587030
0.608331 0.608331 0.608331
0.630610 0.630610 0.630610
0.654078 0.654078 0.654078
0.678462 0.678462 0.678462
0.317998 0.317998 0.317998
0.318364 0.318364 0.318364
0.337072 0.337072 0.337072
0.337377 0.337377 0.337377
0.337591 0.337591 0.337591
0.337957 0.337957 0.337957
0.338720 0.338720 0.338720
0.340093 0.340093 0.340093
0.341985 0.341985 0.341985
0.344640 0.344640 0.344640
0.347906 0.347906 0.347906
0.352361 0.352361 0.352361
0.361456 0.361456 0.361456
0.371496 0.371496 0.371496
0.382025 0.382025 0.382025
0.393500 0.393500 0.393500
0.405310 0.405310 0.405310
0.417945 0.417945 0.417945
0.431891 0.431891 0.431891
0.446296 0.446296 0.446296
0.460578 0.460578 0.460578
0.476814 0.476814 0.476814
0.494148 0.494148 0.494148
0.512627 0.512627 0.512627
0.531670 0.531670 0.531670
0.551781 0.551781 0.551781
0.572839 0.572839 0.572839
0.607477 0.607477 0.607477
0.637293 0.637293 0.637293
0.657679 0.657679 0.657679
0.679316 0.679316 0.679316
0.701961 0.701961 0.701961
0.357733 0.357733 0.357733
0.359747 0.359747 0.359747
0.361944 0.361944 0.361944
0.364019 0.364019 0.364019
0.366064 0.366064 0.366064
0.367163 0.367163 0.367163
0.368017 0.368017 0.368017
0.369146 0.369146 0.369146
0.370886 0.370886 0.370886
0.373327 0.373327 0.373327
0.376532 0.376532 0.376532
0.380041 0.380041 0.380041
0.386572 0.386572 0.386572
0.396246 0.396246 0.396246
0.406928 0.406928 0.406928
0.418158 0.418158 0.418158
0.429969 0.429969 0.429969
0.442695 0.442695 0.442695
0.456428 0.456428 0.456428
0.471138 0.471138 0.471138
0.486458 0.486458 0.486458
0.501854 0.501854 0.501854
0.518547 0.518547 0.518547
0.536095 0.536095 0.536095
0.554162 0.554162 0.554162
0.573205 0.573205 0.573205
0.593286 0.593286 0.593286
0.614649 0.614649 0.614649
0.639551 0.639551 0.639551
0.678431 0.678431 0.678431
0.701198 0.701198 0.701198
0.722591 0.722591 0.722591
0.391608 0.391608 0.391608
0.393866 0.393866 0.393866
0.396490 0.396490 0.396490
0.398932 0.398932 0.398932
0.401038 0.401038 0.401038
0.402472 0.402472 0.402472
0.403235 0.403235 0.403235
0.404547 0.404547 0.404547
0.406104 0.406104 0.406104
0.408392 0.408392 0.408392
0.411109 0.411109 0.411109
0.414466 0.414466 0.414466
0.417945 0.417945 0.417945
0.427039 0.427039 0.427039
0.437232 0.437232 0.437232
0.447944 0.447944 0.447944
0.459266 0.459266 0.459266
0.471229 0.471229 0.471229
0.483955 0.483955 0.483955
0.497658 0.497658 0.497658
0.512139 0.512139 0.512139
0.527459 0.527459 0.527459
0.543481 0.543481 0.543481
0.560174 0.560174 0.560174
0.577569 0.577569 0.577569
0.595666 0.595666 0.595666
0.614527 0.614527 0.614527
0.634546 0.634546 0.634546
0.655970 0.655970 0.655970
0.678584 0.678584 0.678584
0.710384 0.710384 0.710384
0.742763 0.742763 0.742763
0.429816 0.429816 0.429816
0.432044 0.432044 0.432044
0.434424 0.434424 0.434424
0.436866 0.436866 0.436866
0.438788 0.438788 0.438788
0.440101 0.440101 0.440101
0.441138 0.441138 0.441138
0.442206 0.442206 0.442206
0.443885 0.443885 0.443885
0.445808 0.445808 0.445808
0.448402 0.448402 0.448402
0.451667 0.451667 0.451667
0.454902 0.454902 0.454902
0.459937 0.459937 0.459937
0.469642 0.469642 0.469642
0.479988 0.479988 0.479988
0.491341 0.491341 0.491341
0.503502 0.503502 0.503502
0.516838 0.516838 0.516838
0.531090 0.531090 0.531090
0.546441 0.546441 0.546441
0.562432 0.562432 0.562432
0.578729 0.578729 0.578729
0.596216 0.596216 0.596216
0.613886 0.613886 0.613886
0.631708 0.631708 0.631708
0.650050 0.650050 0.650050
0.669215 0.669215 0.669215
0.689509 0.689509 0.689509
0.710811 0.710811 0.710811
0.732906 0.732906 0.732906
0.755612 0.755612 0.755612
0.484230 0.484230 0.484230
0.485206 0.485206 0.485206
0.486122 0.486122 0.486122
0.486732 0.486732 0.486732
0.487282 0.487251 0.487251
0.487617 0.487617 0.487617
0.487953 0.487953 0.487953
0.488869 0.488869 0.488869
0.490211 0.490211 0.490211
0.492134 0.492134 0.492134
0.494697 0.494697 0.494697
0.497536 0.497536 0.497536
0.500603 0.500603 0.500603
0.503868 0.503868 0.503868
0.510613 0.510613 0.510613
0.519982 0.519982 0.519982
0.530053 0.530053 0.530053
0.540856 0.540856 0.540856
0.552392 0.552392 0.552392
0.564813 0.564813 0.564813
0.577935 0.577935 0.577935
0.591913 0.591913 0.591913
0.606073 0.606073 0.606073
0.620356 0.620356 0.620356
0.636347 0.636347 0.636347
0.653193 0.653193 0.653193
0.670649 0.670649 0.670649
0.688930 0.688930 0.688930
0.708125 0.708125 0.708125
0.728237 0.728237 0.728237
0.748928 0.748928 0.748928
0.768978 0.768978 0.768978
0.524254 0.524254 0.524254
0.525109 0.525109 0.525109
0.525811 0.525811 0.525811
0.526574 0.526574 0.526574
0.527123 0.527123 0.527123
0.527520 0.527520 0.527520
0.527947 0.527947 0.527947
0.528740 0.528740 0.528740
0.530053 0.530053 0.530053
0.531914 0.531914 0.531914
0.534173 0.534173 0.534173
0.536889 0.536889 0.536889
0.539757 0.539757 0.539757
0.543084 0.543084 0.543084
0.546593 0.546593 0.546593
0.555383 0.555383 0.555383
0.565118 0.565118 0.565118
0.575463 0.575463 0.575463
0.586481 0.586481 0.586481
0.598260 0.598260 0.598260
0.610620 0.610620 0.610620
0.623529 0.623529 0.623529
0.636713 0.636713 0.636713
0.650172 0.650172 0.650172
0.656367 0.656367 0.656367
0.671473 0.671473 0.671473
0.688106 0.688106 0.688106
0.705531 0.705531 0.705531
0.723812 0.723812 0.723812
0.742947 0.742947 0.742947
0.762234 0.762234 0.762234
0.780667 0.780667 0.780667
0.572900 0.572900 0.572900
0.574273 0.574273 0.574273
0.574945 0.574945 0.574945
0.574945 0.574945 0.574945
0.574487 0.574487 0.574487
0.573785 0.573785 0.573785
0.573114 0.573114 0.573114
0.572534 0.572534 0.572534
0.572381 0.572381 0.572381
0.572900 0.572900 0.572900
0.573632 0.573632 0.573632
0.575097 0.575097 0.575097
0.576928 0.576928 0.576928
0.578943 0.578943 0.578943
0.580957 0.580957 0.580957
0.585138 0.585138 0.585138
0.593225 0.593225 0.593225
0.602258 0.602258 0.602258
0.612390 0.612390 0.612390
0.623529 0.623529 0.623529
0.635340 0.635340 0.635340
0.647395 0.647395 0.647395
0.659388 0.659388 0.659388
0.671138 0.671138 0.671138
0.682490 0.682490 0.682490
0.693782 0.693782 0.693782
0.707576 0.707576 0.707576
0.723232 0.723232 0.723232
0.739925 0.739925 0.739925
0.757229 0.757229 0.757229
0.774411 0.774411 0.774411
0.791165 0.791165 0.791165
0.607935 0.607935 0.607935
0.609186 0.609186 0.609186
0.610101 0.610101 0.610101
0.610498 0.610498 0.610498
0.610620 0.610620 0.610620
0.610834 0.610834 0.610834
0.611139 0.611139 0.611139
0.611688 0.611688 0.611688
0.612604 0.612604 0.612604
0.613947 0.613947 0.613947
0.615442 0.615442 0.615442
0.617304 0.617304 0.617304
0.619196 0.619196 0.619196
0.621210 0.621210 0.621210
0.623072 0.623072 0.623072
0.625177 0.625177 0.625177
0.630976 0.630976 0.630976
0.638911 0.638911 0.638911
0.647883 0.647883 0.647883
0.657740 0.657740 0.657740
0.668330 0.668330 0.668330
0.679225 0.679225 0.679225
0.690303 0.690303 0.690303
0.701320 0.701320 0.701320
0.712184 0.712184 0.712184
0.722957 0.722957 0.722957
0.733608 0.733608 0.733608
0.746700 0.746700 0.746700
0.761654 0.761654 0.761654
0.776669 0.776669 0.776669
0.791501 0.791501 0.791501
0.806088 0.806088 0.806088
0.649012 0.649012 0.649012
0.649683 0.649683 0.649683
0.650050 0.650050 0.650050
0.650202 0.650202 0.650202
0.650263 0.650263 0.650263
0.650263 0.650263 0.650263
0.650355 0.650355 0.650355
0.650721 0.650721 0.650721
0.651331 0.651331 0.651331
0.652399 0.652399 0.652399
0.653712 0.653712 0.653712
0.655268 0.655268 0.655268
0.657160 0.657160 0.657160
0.658869 0.658869 0.658869
0.660639 0.660639 0.660639
0.662470 0.662470 0.662470
0.664973 0.664973 0.664973
0.671962 0.671962 0.671962
0.679927 0.679927 0.679927
0.688746 0.688746 0.688746
0.698299 0.698299 0.698299
0.708125 0.708125 0.708125
0.718074 0.718074 0.718074
0.727932 0.727932 0.727932
0.737728 0.737728 0.737728
0.747219 0.747219 0.747219
0.756558 0.756558 0.756558
0.765560 0.765560 0.765560
0.776516 0.776516 0.776516
0.790127 0.790127 0.790127
0.803555 0.803555 0.803555
0.816648 0.816648 0.816648
0.685267 0.685267 0.685267
0.685786 0.685786 0.685786
0.686213 0.686213 0.686213
0.686580 0.686580 0.686580
0.687098 0.687098 0.687098
0.687953 0.687953 0.687953
0.689631 0.689631 0.689631
0.691768 0.691768 0.691768
0.694484 0.694484 0.694484
0.697688 0.697688 0.697688
0.701198 0.701198 0.701198
0.704707 0.704707 0.704707
0.708186 0.708186 0.708186
0.711391 0.711391 0.711391
0.714260 0.714260 0.714260
0.716518 0.716518 0.716518
0.718837 0.718837 0.718837
0.723079 0.723079 0.723079
0.730068 0.730068 0.730068
0.737728 0.737728 0.737728
0.745907 0.745907 0.745907
0.754116 0.754116 0.754116
0.762142 0.762142 0.762142
0.770016 0.770016 0.770016
0.777493 0.777493 0.777493
0.784665 0.784665 0.784665
0.791714 0.791714 0.791714
0.798550 0.798550 0.798550
0.805264 0.805264 0.805264
0.813382 0.813382 0.813382
0.824033 0.824033 0.824033
0.834257 0.834257 0.834257
0.735378 0.735378 0.735378
0.735409 0.735409 0.735409
0.735409 0.735409 0.735409
0.735348 0.735348 0.735348
0.735348 0.735348 0.735348
0.735500 0.735500 0.735500
0.735866 0.735866 0.735866
0.736507 0.736507 0.736507
0.737575 0.737575 0.737575
0.738888 0.738888 0.738888
0.740566 0.740566 0.740566
0.742397 0.742397 0.742397
0.744442 0.744442 0.744442
0.746426 0.746426 0.746426
