20 Preset/Art Style/【3】LUT video cho PR-AE-FCPX/Black _ White Soft OD Alt.cube
# Created by Adobe Lightroom plugin Export LUT (1.24.0)
# www.johnrellis.com/lightroom/exportlut.htm
# Preset: Black & White Soft OD Alt
# Color profile: E:\lut插件\exportlut.1.24\exportlut.lrplugin\color profiles\Rec709gamma2.4.icc
LUT_3D_SIZE 8
DOMAIN_MIN 0.000000 0.000000 0.000000
DOMAIN_MAX 0.903226 0.903226 0.903226
0.185733 0.185733 0.185733
0.186130 0.186130 0.186130
0.187320 0.187320 0.187320
0.190097 0.190097 0.190097
0.197024 0.197024 0.197024
0.211368 0.211368 0.211368
0.238132 0.238132 0.238132
0.298955 0.298955 0.298955
0.187076 0.187076 0.187076
0.187472 0.187472 0.187472
0.189303 0.189303 0.189303
0.193027 0.193027 0.193027
0.200809 0.200809 0.200809
0.215763 0.215763 0.215763
0.243168 0.243168 0.243168
0.305516 0.305516 0.305516
0.194308 0.194308 0.194308
0.194675 0.194675 0.194675
0.198276 0.198276 0.198276
0.206699 0.206699 0.206699
0.222049 0.222049 0.222049
0.245640 0.245640 0.245640
0.299687 0.299687 0.299687
0.394659 0.394659 0.394659
0.222995 0.222995 0.222995
0.222995 0.222995 0.222995
0.226169 0.226169 0.226169
0.246281 0.246281 0.246281
0.279637 0.279637 0.279637
0.342901 0.342901 0.342901
0.411505 0.411505 0.411505
0.502892 0.502892 0.502892
0.290166 0.290166 0.290166
0.290593 0.290593 0.290593
0.295048 0.295048 0.295048
0.315251 0.315251 0.315251
0.360174 0.360174 0.360174
0.420050 0.420050 0.420050
0.500008 0.500008 0.500008
0.608331 0.608331 0.608331
0.429816 0.429816 0.429816
0.438788 0.438788 0.438788
0.443885 0.443885 0.443885
0.454902 0.454902 0.454902
0.491341 0.491341 0.491341
0.546441 0.546441 0.546441
0.613886 0.613886 0.613886
0.689509 0.689509 0.689509
0.607935 0.607935 0.607935
0.610620 0.610620 0.610620
0.612604 0.612604 0.612604
0.619196 0.619196 0.619196
0.630976 0.630976 0.630976
0.668330 0.668330 0.668330
0.712184 0.712184 0.712184
0.761654 0.761654 0.761654
0.769375 0.769375 0.769375
0.769741 0.769741 0.769741
0.772305 0.772305 0.772305
0.778347 0.778347 0.778347
0.771481 0.771481 0.771481
0.790036 0.790036 0.790036
0.813779 0.813779 0.813779
0.832944 0.832944 0.832944
0.186801 0.186801 0.186801
0.187076 0.187076 0.187076
0.188113 0.188113 0.188113
0.193912 0.193912 0.193912
0.202243 0.202243 0.202243
0.217166 0.217166 0.217166
0.243534 0.243534 0.243534
0.299229 0.299229 0.299229
0.189029 0.189029 0.189029
0.190463 0.190463 0.190463
0.192905 0.192905 0.192905
0.197787 0.197787 0.197787
0.206821 0.206821 0.206821
0.222782 0.222782 0.222782
0.250187 0.250187 0.250187
0.306462 0.306462 0.306462
0.199954 0.199954 0.199954
0.200443 0.200443 0.200443
0.204379 0.204379 0.204379
0.215000 0.215000 0.215000
0.229191 0.229191 0.229191
0.253513 0.253513 0.253513
0.299077 0.299077 0.299077
0.378820 0.378820 0.378820
0.227695 0.227695 0.227695
0.228000 0.228000 0.228000
0.231083 0.231083 0.231083
0.247807 0.247807 0.247807
0.275425 0.275425 0.275425
0.328191 0.328191 0.328191
0.388434 0.388434 0.388434
0.479011 0.479011 0.479011
0.299413 0.299413 0.299413
0.299016 0.299016 0.299016
0.301610 0.301610 0.301610
0.316930 0.316930 0.316930
0.355840 0.355840 0.355840
0.412543 0.412543 0.412543
0.491188 0.491188 0.491188
0.595239 0.595239 0.595239
0.431678 0.431678 0.431678
0.433326 0.433326 0.433326
0.439002 0.439002 0.439002
0.451850 0.451850 0.451850
0.488502 0.488502 0.488502
0.545892 0.545892 0.545892
0.611139 0.611139 0.611139
0.683619 0.683619 0.683619
0.601770 0.601770 0.601770
0.600305 0.600305 0.600305
0.601770 0.601770 0.601770
0.610040 0.610040 0.610040
0.625422 0.625422 0.625422
0.662409 0.662409 0.662409
0.703395 0.703395 0.703395
0.751827 0.751827 0.751827
0.763088 0.763088 0.763088
0.765194 0.765194 0.765194
0.767422 0.767422 0.767422
0.773831 0.773831 0.773831
0.781308 0.781308 0.781308
0.794247 0.794247 0.794247
0.814237 0.814237 0.814237
0.832944 0.832944 0.832944
0.191104 0.191104 0.191104
0.191623 0.191623 0.191623
0.193545 0.193545 0.193545
0.196048 0.196048 0.196048
0.209232 0.209232 0.209232
0.236332 0.236332 0.236332
0.280766 0.280766 0.280766
0.356603 0.356603 0.356603
0.194430 0.194430 0.194430
0.195315 0.195315 0.195315
0.198398 0.198398 0.198398
0.202243 0.202243 0.202243
0.218021 0.218021 0.218021
0.247349 0.247349 0.247349
0.290074 0.290074 0.290074
0.364508 0.364508 0.364508
0.219516 0.219516 0.219516
0.222354 0.222354 0.222354
0.233829 0.233829 0.233829
0.245365 0.245365 0.245365
0.264469 0.264469 0.264469
0.296727 0.296727 0.296727
0.350774 0.350774 0.350774
0.432532 0.432532 0.432532
0.274022 0.274022 0.274022
0.276280 0.276280 0.276280
0.280980 0.280980 0.280980
0.301152 0.301152 0.301152
0.342565 0.342565 0.342565
0.399939 0.399939 0.399939
0.463325 0.463325 0.463325
0.541344 0.541344 0.541344
0.366949 0.366949 0.366949
0.367712 0.367712 0.367712
0.372564 0.372564 0.372564
0.387518 0.387518 0.387518
0.431678 0.431678 0.431678
0.483711 0.483711 0.483711
0.559136 0.559136 0.559136
0.634607 0.634607 0.634607
0.494087 0.494087 0.494087
0.495979 0.495979 0.495979
0.500145 0.500145 0.500145
0.509117 0.509117 0.509117
0.535607 0.535607 0.535607
0.586542 0.586542 0.586542
0.645686 0.645686 0.645686
0.712367 0.712367 0.712367
0.644282 0.644282 0.644282
0.643244 0.643244 0.643244
0.642664 0.642664 0.642664
0.647517 0.647517 0.647517
0.657252 0.657252 0.657252
0.690455 0.690455 0.690455
0.730343 0.730343 0.730343
0.774563 0.774563 0.774563
0.778653 0.778653 0.778653
0.778195 0.778195 0.778195
0.779965 0.779965 0.779965
0.787289 0.787289 0.787289
0.793545 0.793545 0.793545
0.805081 0.805081 0.805081
0.823026 0.823026 0.823026
0.839261 0.839261 0.839261
0.204013 0.204013 0.204013
0.205203 0.205203 0.205203
0.208408 0.208408 0.208408
0.213474 0.213474 0.213474
0.218143 0.218143 0.218143
0.233616 0.233616 0.233616
0.281804 0.281804 0.281804
0.371618 0.371618 0.371618
0.205875 0.205875 0.205875
0.206699 0.206699 0.206699
0.211032 0.211032 0.211032
0.219516 0.219516 0.219516
0.228000 0.228000 0.228000
0.246189 0.246189 0.246189
0.300237 0.300237 0.300237
0.393164 0.393164 0.393164
0.244633 0.244633 0.244633
0.246891 0.246891 0.246891
0.254398 0.254398 0.254398
0.265751 0.265751 0.265751
0.278172 0.278172 0.278172
0.324590 0.324590 0.324590
0.409583 0.409583 0.409583
0.497200 0.497200 0.497200
0.348608 0.348608 0.348608
0.352911 0.352911 0.352911
0.374578 0.374578 0.374578
0.419745 0.419745 0.419745
0.450233 0.450233 0.450233
0.489021 0.489021 0.489021
0.537469 0.537469 0.537469
0.595575 0.595575 0.595575
0.500145 0.500145 0.500145
0.500008 0.500008 0.500008
0.504784 0.504784 0.504784
0.518334 0.518334 0.518334
0.547051 0.547051 0.547051
0.588159 0.588159 0.588159
0.641138 0.641138 0.641138
0.690364 0.690364 0.690364
0.600916 0.600885 0.600885
0.607416 0.607416 0.607416
0.608423 0.608423 0.608423
0.615076 0.615076 0.615076
0.627619 0.627619 0.627619
0.661555 0.661555 0.661555
0.705409 0.705409 0.705409
0.756741 0.756741 0.756741
0.704433 0.704433 0.704433
0.705623 0.705623 0.705623
0.708186 0.708186 0.708186
0.713375 0.713375 0.713375
0.720241 0.720241 0.720241
0.739834 0.739834 0.739834
0.768154 0.768154 0.768154
0.801083 0.801083 0.801083
0.806424 0.806424 0.806424
0.806546 0.806546 0.806546
0.807584 0.807584 0.807584
0.810544 0.810544 0.810544
0.814603 0.814603 0.814603
0.821012 0.821012 0.821012
0.835386 0.835386 0.835386
0.848875 0.848875 0.848875
0.238407 0.238407 0.238407
0.240299 0.240299 0.240299
0.245457 0.245457 0.245457
0.256352 0.256352 0.256352
0.267948 0.267948 0.267948
0.269535 0.269535 0.269535
0.295262 0.295262 0.295262
0.362982 0.362982 0.362982
0.241398 0.241398 0.241398
0.243351 0.243351 0.243351
0.248142 0.248142 0.248142
0.257816 0.257816 0.257816
0.266911 0.266911 0.266911
0.283452 0.283452 0.283452
0.311833 0.311833 0.311833
0.384680 0.384680 0.384680
0.284123 0.284123 0.284123
0.286259 0.286259 0.286259
0.293858 0.293858 0.293858
0.310613 0.310613 0.310613
0.331914 0.331914 0.331914
0.352636 0.352636 0.352636
0.383825 0.383825 0.383825
0.465187 0.465187 0.465187
0.428534 0.428534 0.428534
0.431250 0.431250 0.431250
0.444556 0.444556 0.444556
0.466896 0.466896 0.466896
0.488869 0.488869 0.488869
0.504112 0.504112 0.504112
0.544640 0.544640 0.544640
0.601526 0.601526 0.601526
0.566247 0.566247 0.566247
0.570153 0.570153 0.570153
0.583978 0.583978 0.583978
0.609522 0.609522 0.609522
0.642512 0.642512 0.642512
0.661219 0.661219 0.661219
0.687831 0.687800 0.687800
0.721157 0.721157 0.721157
0.680385 0.680385 0.680385
0.681117 0.681117 0.681117
0.680964 0.680964 0.680964
0.684749 0.684749 0.684749
0.692348 0.692348 0.692348
0.720546 0.720546 0.720546
0.756008 0.756008 0.756008
0.792538 0.792538 0.792538
0.762325 0.762325 0.762325
0.761196 0.761196 0.761196
0.759213 0.759213 0.759213
0.762478 0.762478 0.762478
0.768673 0.768673 0.768673
0.777310 0.777310 0.777310
0.796750 0.796750 0.796750
0.819486 0.819486 0.819486
0.822873 0.822873 0.822873
0.822873 0.822873 0.822873
0.823331 0.823331 0.823331
0.828000 0.827970 0.827970
0.831357 0.831357 0.831357
0.835630 0.835630 0.835630
0.844785 0.844785 0.844785
0.855161 0.855161 0.855161
0.328191 0.328191 0.328191
0.331121 0.331121 0.331121
0.337713 0.337713 0.337713
0.353674 0.353674 0.353674
0.377722 0.377722 0.377722
0.404120 0.404120 0.404120
0.418616 0.418616 0.418616
0.452705 0.452705 0.452705
0.324651 0.324651 0.324651
0.326299 0.326299 0.326299
0.333318 0.333318 0.333318
0.348608 0.348608 0.348608
0.373327 0.373327 0.373327
0.396399 0.396399 0.396399
0.410468 0.410468 0.410468
0.444739 0.444739 0.444739
0.351995 0.351995 0.351995
0.353948 0.353948 0.353948
0.364141 0.364141 0.364141
0.382361 0.382361 0.382361
0.418616 0.418616 0.418616
0.449653 0.449653 0.449653
0.478828 0.478828 0.478828
0.510338 0.510338 0.510338
0.510765 0.510765 0.510765
0.512139 0.512139 0.512139
0.522698 0.522698 0.522698
0.543145 0.543145 0.543145
0.567315 0.567315 0.567315
0.586267 0.586267 0.586267
0.602747 0.602747 0.602747
0.619196 0.619196 0.619196
0.649744 0.649744 0.649744
0.650843 0.650843 0.650843
0.655970 0.655970 0.655970
0.666743 0.666743 0.666743
0.678981 0.678981 0.678981
0.691249 0.691249 0.691249
0.699306 0.699306 0.699306
0.719875 0.719875 0.719875
0.729702 0.729702 0.729702
0.733272 0.733272 0.733272
0.738918 0.738918 0.738918
0.749874 0.749874 0.749874
0.765347 0.765347 0.765347
0.788510 0.788510 0.788510
0.802487 0.802487 0.802487
0.817105 0.817105 0.817105
0.818479 0.818479 0.818479
0.819272 0.819272 0.819272
0.819516 0.819516 0.819516
0.820035 0.820035 0.820035
0.820737 0.820737 0.820737
0.822904 0.822904 0.822904
0.831754 0.831754 0.831754
0.845548 0.845548 0.845548
0.851133 0.851133 0.851133
0.850706 0.850706 0.850706
0.850095 0.850095 0.850095
0.850004 0.850004 0.850004
0.849943 0.849943 0.849943
0.852689 0.852689 0.852689
0.857145 0.857145 0.857145
0.864378 0.864378 0.864378
0.496590 0.496590 0.496590
0.499580 0.499580 0.499580
0.506615 0.506615 0.506615
0.521721 0.521721 0.521721
0.542412 0.542412 0.542412
0.569207 0.569207 0.569207
0.592676 0.592676 0.592676
0.604211 0.604211 0.604211
0.494087 0.494087 0.494087
0.497200 0.497200 0.497200
0.504295 0.504295 0.504295
0.517906 0.517906 0.517906
0.538079 0.538079 0.538079
0.563775 0.563775 0.563775
0.584527 0.584527 0.584527
0.595880 0.595880 0.595880
0.505821 0.505821 0.505821
0.507469 0.507469 0.507469
0.513115 0.513115 0.513115
0.525566 0.525566 0.525566
0.543999 0.543999 0.543999
0.569574 0.569574 0.569574
0.585748 0.585748 0.585748
0.601984 0.601984 0.601984
0.584466 0.584466 0.584466
0.584527 0.584527 0.584527
0.589532 0.589532 0.589532
0.601862 0.601862 0.601862
0.619196 0.619196 0.619196
0.643366 0.643366 0.643366
0.659419 0.659419 0.659419
0.672877 0.672877 0.672877
0.700649 0.700649 0.700649
0.700374 0.700374 0.700374
0.701991 0.701991 0.701991
0.706142 0.706142 0.706142
0.715663 0.715663 0.715663
0.729549 0.729549 0.729549
0.740658 0.740658 0.740658
0.751827 0.751827 0.751827
0.793668 0.793668 0.793668
0.794034 0.794034 0.794034
0.795193 0.795193 0.795193
0.797299 0.797299 0.797299
0.800198 0.800198 0.800198
0.806088 0.806088 0.806088
0.813687 0.813687 0.813687
0.817655 0.817655 0.817655
0.831113 0.831113 0.831113
0.831754 0.831754 0.831754
0.833463 0.833463 0.833463
0.836973 0.836973 0.836973
0.842008 0.842008 0.842008
0.848692 0.848692 0.848692
0.856870 0.856870 0.856870
0.861723 0.861723 0.861723
0.868742 0.868742 0.868742
0.868894 0.868894 0.868894
0.869474 0.869474 0.869474
0.869780 0.869780 0.869780
0.869993 0.869993 0.869993
0.870146 0.870146 0.870146
0.870878 0.870878 0.870878
0.874357 0.874357 0.874357
0.694697 0.694697 0.694697
0.696193 0.696193 0.696193
0.699092 0.699092 0.699092
0.707485 0.707485 0.707485
0.719448 0.719448 0.719448
0.734737 0.734737 0.734737
0.753689 0.753689 0.753689
0.770993 0.770993 0.770993
0.693019 0.693019 0.693019
0.694545 0.694545 0.694545
0.698177 0.698177 0.698177
0.706081 0.706081 0.706081
0.718044 0.718044 0.718044
0.733303 0.733303 0.733303
0.751736 0.751736 0.751736
0.768246 0.768246 0.768246
0.696468 0.696468 0.696468
0.697505 0.697505 0.697505
0.700587 0.700587 0.700587
0.710140 0.710140 0.710140
0.720943 0.720943 0.720943
0.735103 0.735103 0.735103
0.753475 0.753475 0.753475
0.767605 0.767605 0.767605
0.703365 0.703365 0.703365
0.704555 0.704555 0.704555
0.707942 0.707942 0.707942
0.715816 0.715816 0.715816
0.727047 0.727047 0.727047
0.741604 0.741604 0.741604
0.759548 0.759548 0.759548
0.769345 0.769345 0.769345
0.760861 0.760861 0.760861
0.761044 0.761044 0.761044
0.759548 0.759548 0.759548
0.762631 0.762631 0.762631
0.769436 0.769436 0.769436
0.778439 0.778439 0.778439
0.790036 0.790036 0.790036
0.794949 0.794949 0.794949
0.826047 0.826047 0.826047
0.825650 0.825650 0.825650
0.824674 0.824674 0.824674
0.823514 0.823514 0.823514
0.822080 0.822080 0.822080
0.826810 0.826810 0.826810
0.834348 0.834348 0.834348
0.838437 0.838437 0.838437
0.859312 0.859312 0.859312
0.859556 0.859556 0.859556
0.860624 0.860624 0.860624
0.862608 0.862608 0.862608
0.862669 0.862669 0.862669
0.862791 0.862791 0.862791
0.863920 0.863920 0.863920
0.867033 0.867033 0.867033
0.873869 0.873869 0.873869
0.873930 0.873930 0.873930
0.874296 0.874296 0.874296
0.875151 0.875151 0.875151
0.876402 0.876402 0.876402
0.878080 0.878080 0.878080
0.880308 0.880308 0.880308
0.883116 0.883116 0.883116
