20 Preset/Art Style/【3】LUT video cho PR-AE-FCPX/Black _ White HC -.cube
# Created by Adobe Lightroom plugin Export LUT (1.24.0)
# www.johnrellis.com/lightroom/exportlut.htm
# Preset: Black & White HC -
# Color profile: E:\lut插件\exportlut.1.24\exportlut.lrplugin\color profiles\Rec709gamma2.4.icc
LUT_3D_SIZE 32
DOMAIN_MIN 0.0 0.0 0.0
DOMAIN_MAX 1.0 1.0 1.0
0.000000 0.000000 0.000000
0.000000 0.000000 0.000000
0.000977 0.000977 0.000977
0.000977 0.000977 0.000977
0.002930 0.002930 0.002930
0.004883 0.004883 0.004883
0.006836 0.006836 0.006836
0.008789 0.008789 0.008789
0.011719 0.011719 0.011719
0.015625 0.015625 0.015625
0.019532 0.019532 0.019532
0.025391 0.025391 0.025391
0.033204 0.033204 0.033204
0.042969 0.042969 0.042969
0.055665 0.055665 0.055665
0.069337 0.069337 0.069337
0.082399 0.082399 0.082399
0.091157 0.091157 0.091157
0.099062 0.099062 0.099062
0.107851 0.107851 0.107851
0.118044 0.118044 0.118044
0.130709 0.130709 0.130709
0.145541 0.145541 0.145541
0.161593 0.161593 0.161593
0.179141 0.179141 0.179141
0.198398 0.198398 0.198398
0.219944 0.219944 0.219944
0.244266 0.244266 0.244266
0.271763 0.271763 0.271763
0.303319 0.303319 0.303319
0.339269 0.339269 0.339269
0.380407 0.380407 0.380407
0.000000 0.000000 0.000000
0.000977 0.000977 0.000977
0.000977 0.000977 0.000977
0.001953 0.001953 0.001953
0.002930 0.002930 0.002930
0.004883 0.004883 0.004883
0.006836 0.006836 0.006836
0.008789 0.008789 0.008789
0.011719 0.011719 0.011719
0.015625 0.015625 0.015625
0.020508 0.020508 0.020508
0.025391 0.025391 0.025391
0.033204 0.033204 0.033204
0.042969 0.042969 0.042969
0.054688 0.054688 0.054688
0.068360 0.068360 0.068360
0.081788 0.081788 0.081788
0.091157 0.091157 0.091157
0.098726 0.098726 0.098726
0.107546 0.107546 0.107546
0.117311 0.117311 0.117311
0.129641 0.129641 0.129641
0.144015 0.144015 0.144015
0.159487 0.159487 0.159487
0.176303 0.176303 0.176303
0.195041 0.195041 0.195041
0.216098 0.216098 0.216098
0.239841 0.239841 0.239841
0.266819 0.266819 0.266819
0.297765 0.297765 0.297765
0.333318 0.333318 0.333318
0.373877 0.373877 0.373877
0.000977 0.000977 0.000977
0.000977 0.000977 0.000977
0.001953 0.001953 0.001953
0.002930 0.002930 0.002930
0.003906 0.003906 0.003906
0.005859 0.005859 0.005859
0.007813 0.007813 0.007813
0.010742 0.010742 0.010742
0.012696 0.012696 0.012696
0.016602 0.016602 0.016602
0.021485 0.021485 0.021485
0.027344 0.027344 0.027344
0.035157 0.035157 0.035157
0.044923 0.044923 0.044923
0.056641 0.056641 0.056641
0.070314 0.070314 0.070314
0.083009 0.083009 0.083009
0.091524 0.091524 0.091524
0.099367 0.099367 0.099367
0.108125 0.108125 0.108125
0.118044 0.118044 0.118044
0.130495 0.130495 0.130495
0.144381 0.144381 0.144381
0.159640 0.159640 0.159640
0.176303 0.176303 0.176303
0.194553 0.194553 0.194553
0.215335 0.215335 0.215335
0.238712 0.238712 0.238712
0.265507 0.265507 0.265507
0.296300 0.296300 0.296300
0.331426 0.331426 0.331426
0.371649 0.371649 0.371649
0.003906 0.003906 0.003906
0.003906 0.003906 0.003906
0.003906 0.003906 0.003906
0.004883 0.004883 0.004883
0.006836 0.006836 0.006836
0.008789 0.008789 0.008789
0.010742 0.010742 0.010742
0.012696 0.012696 0.012696
0.015625 0.015625 0.015625
0.019532 0.019532 0.019532
0.024414 0.024414 0.024414
0.031250 0.031250 0.031250
0.039063 0.039063 0.039063
0.049805 0.049805 0.049805
0.061524 0.061524 0.061524
0.075196 0.075196 0.075196
0.086030 0.086030 0.086030
0.093324 0.093324 0.093324
0.100923 0.100923 0.100923
0.109560 0.109560 0.109560
0.119295 0.119295 0.119295
0.131807 0.131807 0.131807
0.145357 0.145357 0.145357
0.160281 0.160281 0.160281
0.176730 0.176730 0.176730
0.195315 0.195315 0.195315
0.216403 0.216403 0.216403
0.240208 0.240208 0.240208
0.267216 0.267216 0.267216
0.297978 0.297978 0.297978
0.332921 0.332921 0.332921
0.372259 0.372259 0.372259
0.006836 0.006836 0.006836
0.007813 0.007813 0.007813
0.006836 0.006836 0.006836
0.007813 0.007813 0.007813
0.009766 0.009766 0.009766
0.012696 0.012696 0.012696
0.014649 0.014649 0.014649
0.017578 0.017578 0.017578
0.020508 0.020508 0.020508
0.024414 0.024414 0.024414
0.030274 0.030274 0.030274
0.037110 0.037110 0.037110
0.045899 0.045899 0.045899
0.056641 0.056641 0.056641
0.068360 0.068360 0.068360
0.080568 0.080568 0.080568
0.089693 0.089693 0.089693
0.096376 0.096376 0.096376
0.104067 0.104067 0.104067
0.112856 0.112856 0.112856
0.123201 0.123201 0.123201
0.135439 0.135439 0.135439
0.148684 0.148684 0.148684
0.163699 0.163699 0.163699
0.180270 0.180270 0.180270
0.198886 0.198886 0.198886
0.219852 0.219852 0.219852
0.243534 0.243534 0.243534
0.270573 0.270573 0.270573
0.301061 0.301061 0.301061
0.335668 0.335668 0.335668
0.374640 0.374640 0.374640
0.011719 0.011719 0.011719
0.011719 0.011719 0.011719
0.011719 0.011719 0.011719
0.012696 0.012696 0.012696
0.014649 0.014649 0.014649
0.017578 0.017578 0.017578
0.022461 0.022461 0.022461
0.025391 0.025391 0.025391
0.029297 0.029297 0.029297
0.033204 0.033204 0.033204
0.040040 0.040040 0.040040
0.047852 0.047852 0.047852
0.056641 0.056641 0.056641
0.067384 0.067384 0.067384
0.079347 0.079347 0.079347
0.088228 0.088228 0.088228
0.094362 0.094362 0.094362
0.101259 0.101259 0.101259
0.109285 0.109285 0.109285
0.118318 0.118318 0.118318
0.129183 0.129183 0.129183
0.141695 0.141695 0.141695
0.167330 0.167330 0.167330
0.184787 0.184787 0.184787
0.203891 0.203891 0.203891
0.224826 0.224826 0.224826
0.248325 0.248325 0.248325
0.274113 0.274113 0.274113
0.303166 0.303166 0.303166
0.335393 0.335393 0.335393
0.371344 0.371344 0.371344
0.411261 0.411261 0.411261
0.020508 0.020508 0.020508
0.020508 0.020508 0.020508
0.020508 0.020508 0.020508
0.020508 0.020508 0.020508
0.022461 0.022461 0.022461
0.025391 0.025391 0.025391
0.030274 0.030274 0.030274
0.041016 0.041016 0.041016
0.044923 0.044923 0.044923
0.050782 0.050782 0.050782
0.057618 0.057618 0.057618
0.066407 0.066407 0.066407
0.076173 0.076173 0.076173
0.083619 0.083619 0.083619
0.090059 0.090059 0.090059
0.095705 0.095705 0.095705
0.102174 0.102174 0.102174
0.109560 0.109560 0.109560
0.118044 0.118044 0.118044
0.128054 0.128054 0.128054
0.140902 0.140902 0.140902
0.155062 0.155062 0.155062
0.170993 0.170993 0.170993
0.188785 0.188785 0.188785
0.208530 0.208530 0.208530
0.229984 0.229984 0.229984
0.253269 0.253269 0.253269
0.278721 0.278721 0.278721
0.307195 0.307195 0.307195
0.338720 0.338720 0.338720
0.373968 0.373968 0.373968
0.413306 0.413306 0.413306
0.032227 0.032227 0.032227
0.032227 0.032227 0.032227
0.032227 0.032227 0.032227
0.032227 0.032227 0.032227
0.033204 0.033204 0.033204
0.037110 0.037110 0.037110
0.041993 0.041993 0.041993
0.049805 0.049805 0.049805
0.062501 0.062501 0.062501
0.070314 0.070314 0.070314
0.077150 0.077150 0.077150
0.083009 0.083009 0.083009
0.088594 0.088594 0.088594
0.092958 0.092958 0.092958
0.098054 0.098054 0.098054
0.103731 0.103731 0.103731
0.110384 0.110384 0.110384
0.117800 0.117800 0.117800
0.126680 0.126680 0.126680
0.137697 0.137697 0.137697
0.150149 0.150149 0.150149
0.164187 0.164187 0.164187
0.179690 0.179690 0.179690
0.197543 0.197543 0.197543
0.217075 0.217075 0.217075
0.238407 0.238407 0.238407
0.261509 0.261509 0.261509
0.286748 0.286748 0.286748
0.314946 0.314946 0.314946
0.346349 0.346349 0.346349
0.381231 0.381231 0.381231
0.419959 0.419959 0.419959
0.049805 0.049805 0.049805
0.049805 0.049805 0.049805
0.049805 0.049805 0.049805
0.049805 0.049805 0.049805
0.049805 0.049805 0.049805
0.052735 0.052735 0.052735
0.058595 0.058595 0.058595
0.065431 0.065431 0.065431
0.075196 0.075196 0.075196
0.084810 0.084810 0.084810
0.091157 0.091157 0.091157
0.094362 0.094362 0.094362
0.098390 0.098390 0.098390
0.102815 0.102815 0.102815
0.108125 0.108125 0.108125
0.114168 0.114168 0.114168
0.120790 0.120790 0.120790
0.128969 0.128969 0.128969
0.138918 0.138918 0.138918
0.149966 0.149966 0.149966
0.162264 0.162264 0.162264
0.175998 0.175998 0.175998
0.191623 0.191623 0.191623
0.209323 0.209323 0.209323
0.228977 0.228977 0.228977
0.250187 0.250187 0.250187
0.273259 0.273259 0.273259
0.298589 0.298589 0.298589
0.326665 0.326665 0.326665
0.357794 0.357794 0.357794
0.392370 0.392370 0.392370
0.430945 0.430945 0.430945
0.072267 0.072267 0.072267
0.072267 0.072267 0.072267
0.072267 0.072267 0.072267
0.072267 0.072267 0.072267
0.071290 0.071290 0.071290
0.072267 0.072267 0.072267
0.078126 0.078126 0.078126
0.082399 0.082399 0.082399
0.088228 0.088228 0.088228
0.092226 0.092226 0.092226
0.098054 0.098054 0.098054
0.105806 0.105806 0.105806
0.110109 0.110109 0.110109
0.114687 0.114687 0.114687
0.120302 0.120302 0.120302
0.126467 0.126467 0.126467
0.134798 0.134798 0.134798
0.143618 0.143618 0.143618
0.153872 0.153872 0.153872
0.164828 0.164828 0.164828
0.177157 0.177157 0.177157
0.190585 0.190585 0.190585
0.205661 0.205661 0.205661
0.222660 0.222660 0.222660
0.241520 0.241520 0.241520
0.261997 0.261997 0.261997
0.284916 0.284916 0.284916
0.310094 0.310094 0.310094
0.338231 0.338231 0.338231
0.369665 0.369665 0.369665
0.404486 0.404486 0.404486
0.443366 0.443366 0.443366
0.089693 0.089693 0.089693
0.089693 0.089693 0.089693
0.089326 0.089326 0.089326
0.089326 0.089326 0.089326
0.089326 0.089326 0.089326
0.089326 0.089326 0.089326
0.090791 0.090791 0.090791
0.093690 0.093690 0.093690
0.097047 0.097047 0.097047
0.101564 0.101564 0.101564
0.106691 0.106691 0.106691
0.113130 0.113130 0.113130
0.124636 0.124636 0.124636
0.129641 0.129641 0.129641
0.136263 0.136263 0.136263
0.143435 0.143435 0.143435
0.151736 0.151736 0.151736
0.160800 0.160800 0.160800
0.170840 0.170840 0.170840
0.181796 0.181796 0.181796
0.194034 0.194034 0.194034
0.207401 0.207401 0.207401
0.222568 0.222568 0.222568
0.239536 0.239536 0.239536
0.258579 0.258579 0.258579
0.279240 0.279240 0.279240
0.302159 0.302159 0.302159
0.327398 0.327398 0.327398
0.355535 0.355535 0.355535
0.386908 0.386908 0.386908
0.421790 0.421790 0.421790
0.460395 0.460395 0.460395
0.101564 0.101564 0.101564
0.101564 0.101564 0.101564
0.101564 0.101564 0.101564
0.101564 0.101564 0.101564
0.101564 0.101564 0.101564
0.101259 0.101259 0.101259
0.101869 0.101869 0.101869
0.104646 0.104646 0.104646
0.108431 0.108431 0.108431
0.113130 0.113130 0.113130
0.118563 0.118563 0.118563
0.125551 0.125551 0.125551
0.140902 0.140902 0.140902
0.158633 0.158633 0.158633
0.166079 0.166079 0.166079
0.174411 0.174411 0.174411
0.183444 0.183444 0.183444
0.193423 0.193423 0.193423
0.204501 0.204501 0.204501
0.216526 0.216526 0.216526
0.229587 0.229587 0.229587
0.243900 0.243900 0.243900
0.259831 0.259831 0.259831
0.277501 0.277501 0.277501
0.296788 0.296788 0.296788
0.317754 0.317754 0.317754
0.340612 0.340612 0.340612
0.365393 0.365393 0.365393
0.392859 0.392859 0.392859
0.423438 0.423438 0.423438
0.457588 0.457588 0.457588
0.495796 0.495796 0.495796
0.118807 0.118807 0.118807
0.118807 0.118807 0.118807
0.118563 0.118563 0.118563
0.118318 0.118318 0.118318
0.118044 0.118044 0.118044
0.117800 0.117800 0.117800
0.117556 0.117556 0.117556
0.120058 0.120058 0.120058
0.124636 0.124636 0.124636
0.130068 0.130068 0.130068
0.137087 0.137087 0.137087
0.145357 0.145357 0.145357
0.155245 0.155245 0.155245
0.166537 0.166537 0.166537
0.188907 0.188907 0.188907
0.197299 0.197299 0.197299
0.206241 0.206241 0.206241
0.215885 0.215885 0.215885
0.226474 0.226474 0.226474
0.237949 0.237949 0.237949
0.250645 0.250645 0.250645
0.264622 0.264622 0.264622
0.280217 0.280217 0.280217
0.297704 0.297704 0.297704
0.316716 0.316716 0.316716
0.337713 0.337713 0.337713
0.360449 0.360449 0.360449
0.385412 0.385412 0.385412
0.413123 0.413123 0.413123
0.444007 0.444007 0.444007
0.478065 0.478065 0.478065
0.516106 0.516106 0.516106
0.138094 0.138094 0.138094
0.138094 0.138094 0.138094
0.137697 0.137697 0.137697
0.137697 0.137697 0.137697
0.137270 0.137270 0.137270
0.136873 0.136873 0.136873
0.136660 0.136660 0.136660
0.137087 0.137087 0.137087
0.141482 0.141482 0.141482
0.147219 0.147219 0.147219
0.154025 0.154025 0.154025
0.162570 0.162570 0.162570
0.172335 0.172335 0.172335
0.183566 0.183566 0.183566
0.196048 0.196048 0.196048
0.219425 0.219425 0.219425
0.231662 0.231662 0.231662
0.241032 0.241032 0.241032
0.251438 0.251438 0.251438
0.262394 0.262394 0.262394
0.274876 0.274876 0.274876
0.288792 0.288792 0.288792
0.304448 0.304448 0.304448
0.321996 0.321996 0.321996
0.341070 0.341070 0.341070
0.361761 0.361761 0.361761
0.384588 0.384588 0.384588
0.409491 0.409491 0.409491
0.437201 0.437201 0.437201
0.468055 0.468055 0.468055
0.502129 0.502129 0.502129
0.539971 0.539971 0.539971
0.160616 0.160616 0.160616
0.160616 0.160616 0.160616
0.160281 0.160281 0.160281
0.159976 0.159976 0.159976
0.159304 0.159304 0.159304
0.158633 0.158633 0.158633
0.158145 0.158145 0.158145
0.157626 0.157626 0.157626
0.160464 0.160464 0.160464
0.166079 0.166079 0.166079
0.173068 0.173068 0.173068
0.181796 0.181796 0.181796
0.191775 0.191775 0.191775
0.202853 0.202853 0.202853
0.215213 0.215213 0.215213
0.228489 0.228489 0.228489
0.252476 0.252476 0.252476
0.269383 0.269383 0.269383
0.279332 0.279332 0.279332
0.290227 0.290227 0.290227
0.302281 0.302281 0.302281
0.316075 0.316075 0.316075
0.331670 0.331670 0.331670
0.348943 0.348943 0.348943
0.367926 0.367926 0.367926
0.388769 0.388769 0.388769
0.411627 0.411627 0.411627
0.437110 0.437110 0.437110
0.465339 0.465339 0.465339
0.497017 0.497017 0.497017
0.532097 0.532097 0.532097
0.569970 0.569970 0.569970
0.184787 0.184787 0.184787
0.184939 0.184939 0.184939
0.184665 0.184665 0.184665
0.184390 0.184390 0.184390
0.183841 0.183841 0.183841
0.183444 0.183444 0.183444
0.183169 0.183169 0.183169
0.182895 0.182895 0.182895
0.183291 0.183291 0.183291
0.189181 0.189181 0.189181
0.196292 0.196292 0.196292
0.204379 0.204379 0.204379
0.213901 0.213901 0.213901
0.224430 0.224430 0.224430
0.236118 0.236118 0.236118
0.248783 0.248783 0.248783
0.262669 0.262669 0.262669
0.286473 0.286473 0.286473
0.308904 0.308904 0.308904
0.319554 0.319554 0.319554
0.331853 0.331853 0.331853
0.345769 0.345769 0.345769
0.361517 0.361517 0.361517
0.378973 0.378973 0.378973
0.398444 0.398444 0.398444
0.419654 0.419654 0.419654
0.443275 0.443275 0.443275
0.468879 0.468879 0.468879
0.497169 0.497169 0.497169
0.528405 0.528405 0.528405
0.562097 0.562097 0.562097
0.597894 0.597894 0.597894
0.211368 0.211368 0.211368
0.211246 0.211246 0.211246
0.211124 0.211124 0.211124
0.210788 0.210788 0.210788
0.210452 0.210452 0.210452
0.210117 0.210117 0.210117
0.209659 0.209659 0.209659
0.209323 0.209323 0.209323
0.209110 0.209110 0.209110
0.212589 0.212589 0.212589
0.219730 0.219730 0.219730
0.227878 0.227878 0.227878
0.237369 0.237369 0.237369
0.247898 0.247898 0.247898
0.259251 0.259251 0.259251
0.271916 0.271916 0.271916
0.285374 0.285374 0.285374
0.300328 0.300328 0.300328
0.323919 0.323919 0.323919
0.352209 0.352209 0.352209
0.364294 0.364294 0.364294
0.378332 0.378332 0.378332
0.394079 0.394079 0.394079
0.411627 0.411627 0.411627
0.431189 0.431189 0.431189
0.452796 0.452796 0.452796
0.476539 0.476539 0.476539
0.502556 0.502556 0.502556
0.531243 0.531243 0.531243
0.561852 0.561852 0.561852
0.594293 0.594293 0.594293
0.628016 0.628016 0.628016
0.242069 0.242069 0.242069
0.242252 0.242252 0.242252
0.254643 0.254643 0.254643
0.254307 0.254307 0.254307
0.253941 0.253941 0.253941
0.253361 0.253361 0.253361
0.252659 0.252659 0.252659
0.252049 0.252049 0.252049
0.251682 0.251682 0.251682
0.251682 0.251682 0.251682
0.258915 0.258915 0.258915
0.267460 0.267460 0.267460
0.276646 0.276646 0.276646
0.286961 0.286961 0.286961
0.298039 0.298039 0.298039
0.310094 0.310094 0.310094
0.322820 0.322820 0.322820
0.336492 0.336492 0.336492
0.351659 0.351659 0.351659
0.373877 0.373877 0.373877
0.408850 0.408850 0.408850
0.422187 0.422187 0.422187
0.437263 0.437263 0.437263
0.454231 0.454231 0.454231
0.472572 0.472572 0.472572
0.492927 0.492927 0.492927
0.515129 0.515129 0.515129
0.539727 0.539727 0.539727
0.566796 0.566796 0.566796
0.595758 0.595758 0.595758
0.626123 0.626123 0.626123
0.656947 0.656947 0.656947
0.280003 0.280003 0.280003
0.281132 0.281132 0.281132
0.282414 0.282414 0.282414
0.283513 0.283513 0.283513
0.284031 0.284031 0.284031
0.283970 0.283970 0.283970
0.283299 0.283299 0.283299
0.282475 0.282475 0.282475
0.281956 0.281956 0.281956
0.281346 0.281346 0.281346
0.285130 0.285130 0.285130
0.293278 0.293278 0.293278
0.302434 0.302434 0.302434
0.312352 0.312352 0.312352
0.323430 0.323430 0.323430
0.335393 0.335393 0.335393
0.348119 0.348119 0.348119
0.361944 0.361944 0.361944
0.377142 0.377142 0.377142
0.393591 0.393591 0.393591
0.415259 0.415259 0.415259
0.458137 0.458137 0.458137
0.473274 0.473274 0.473274
0.489967 0.489967 0.489967
0.508202 0.508202 0.508202
0.528161 0.528161 0.528161
0.549798 0.549798 0.549798
0.573327 0.573327 0.573327
0.598779 0.598779 0.598779
0.625910 0.625910 0.625910
0.654078 0.654078 0.654078
0.682643 0.682643 0.682643
0.314244 0.314244 0.314244
0.315587 0.315587 0.315587
0.316991 0.316991 0.316991
0.318303 0.318303 0.318303
0.319127 0.319127 0.319127
0.319005 0.319005 0.319005
0.318425 0.318425 0.318425
0.317815 0.317815 0.317815
0.317174 0.317174 0.317174
0.316411 0.316411 0.316411
0.315770 0.315770 0.315770
0.323796 0.323796 0.323796
0.332799 0.332799 0.332799
0.342840 0.342840 0.342840
0.353674 0.353674 0.353674
0.365332 0.365332 0.365332
0.378088 0.378088 0.378088
0.391669 0.391669 0.391669
0.406531 0.406531 0.406531
0.422644 0.422644 0.422644
0.440131 0.440131 0.440131
0.460761 0.460761 0.460761
0.506188 0.506188 0.506188
0.527550 0.527550 0.527550
0.545434 0.545434 0.545434
0.564477 0.564477 0.564477
0.584802 0.584802 0.584802
0.606836 0.606836 0.606836
0.630518 0.630518 0.630518
0.655268 0.655268 0.655268
0.680995 0.680995 0.680995
0.707301 0.707301 0.707301
0.352483 0.352483 0.352483
0.353948 0.353948 0.353948
0.355261 0.355261 0.355261
0.356542 0.356542 0.356542
0.357183 0.357183 0.357183
0.357183 0.357183 0.357183
0.356756 0.356756 0.356756
0.356115 0.356115 0.356115
0.355474 0.355474 0.355474
0.354711 0.354711 0.354711
0.354162 0.354162 0.354162
0.357794 0.357794 0.357794
0.366522 0.366522 0.366522
0.376379 0.376379 0.376379
0.387182 0.387182 0.387182
0.399084 0.399084 0.399084
0.412207 0.412207 0.412207
0.426490 0.426490 0.426490
0.442237 0.442237 0.442237
0.459419 0.459419 0.459419
0.478126 0.478126 0.478126
0.498146 0.498146 0.498146
0.518883 0.518883 0.518883
0.565911 0.565911 0.565911
0.593194 0.593194 0.593194
0.611872 0.611872 0.611872
0.631220 0.631220 0.631220
0.651453 0.651453 0.651453
0.672938 0.672938 0.672938
0.695247 0.695247 0.695247
0.718379 0.718379 0.718379
0.741176 0.741176 0.741176
0.404578 0.404578 0.404578
0.405219 0.405219 0.405219
0.405585 0.405585 0.405585
0.405798 0.405798 0.405798
0.405493 0.405493 0.405493
0.404944 0.404944 0.404944
0.404181 0.404181 0.404181
0.403265 0.403265 0.403265
0.402625 0.402625 0.402625
0.402045 0.402045 0.402045
0.401587 0.401587 0.401587
0.401038 0.401038 0.401038
0.409277 0.409277 0.409277
0.419104 0.419104 0.419104
0.429725 0.429725 0.429725
0.441321 0.441321 0.441321
0.454047 0.454047 0.454047
0.467872 0.467872 0.467872
0.482826 0.482826 0.482826
0.499062 0.499062 0.499062
0.516350 0.516350 0.516350
0.534844 0.534844 0.534844
0.553887 0.553887 0.553887
0.573236 0.573236 0.573236
0.615198 0.615198 0.615198
0.644984 0.644984 0.644984
0.662684 0.662684 0.662684
0.681331 0.681331 0.681331
0.700862 0.700862 0.700862
0.721279 0.721279 0.721279
0.741573 0.741573 0.741573
0.761532 0.761532 0.761532
0.450507 0.450507 0.450507
0.451057 0.451057 0.451057
0.451514 0.451514 0.451514
0.451667 0.451667 0.451667
0.451514 0.451514 0.451514
0.451057 0.451057 0.451057
0.450294 0.450294 0.450294
0.449561 0.449561 0.449561
0.449012 0.449012 0.449012
0.448463 0.448463 0.448463
0.448005 0.448005 0.448005
0.447578 0.447578 0.447578
0.451057 0.451057 0.451057
0.460761 0.460761 0.460761
0.471565 0.471565 0.471565
0.483284 0.483284 0.483284
0.496010 0.496010 0.496010
0.509880 0.509880 0.509880
0.524681 0.524681 0.524681
0.540551 0.540551 0.540551
0.557305 0.557305 0.557305
0.574792 0.574792 0.574792
0.592767 0.592767 0.592767
0.610864 0.610864 0.610864
0.622644 0.622644 0.622644
0.658564 0.658564 0.658564
0.689906 0.689906 0.689906
0.707118 0.707118 0.707118
0.725002 0.725002 0.725002
0.743038 0.743038 0.743038
0.761227 0.761227 0.761227
0.779232 0.779232 0.779232
0.506859 0.506859 0.506859
0.508019 0.508019 0.508019
0.508476 0.508476 0.508476
0.508019 0.508019 0.508019
0.507134 0.507134 0.507134
0.505760 0.505760 0.505760
0.504143 0.504143 0.504143
0.502403 0.502403 0.502403
0.500725 0.500725 0.500725
0.499245 0.499245 0.499245
0.497719 0.497719 0.497719
0.496407 0.496407 0.496407
0.495155 0.495155 0.495155
0.502922 0.502922 0.502922
0.512322 0.512322 0.512322
0.522789 0.522789 0.522789
0.534325 0.534325 0.534325
0.547143 0.547143 0.547143
0.561120 0.561120 0.561120
0.576287 0.576287 0.576287
0.592218 0.592218 0.592218
0.608606 0.608606 0.608606
0.624811 0.624811 0.624811
0.640681 0.640681 0.640681
0.656031 0.656031 0.656031
0.671077 0.671077 0.671077
0.700801 0.700801 0.700801
0.731960 0.731960 0.731960
0.747189 0.747189 0.747189
0.762905 0.762905 0.762905
0.778927 0.778927 0.778927
0.795254 0.795254 0.795254
0.554711 0.554711 0.554711
0.555779 0.555779 0.555779
0.556420 0.556420 0.556420
0.556420 0.556420 0.556420
0.556023 0.556023 0.556023
0.555474 0.555474 0.555474
0.554894 0.554894 0.554894
0.554070 0.554070 0.554070
0.553491 0.553491 0.553491
0.552911 0.552911 0.552911
0.552270 0.552270 0.552270
0.551690 0.551690 0.551690
0.550713 0.550713 0.550713
0.553246 0.553246 0.553246
0.562249 0.562249 0.562249
0.571923 0.571923 0.571923
0.582422 0.582422 0.582422
0.593927 0.593927 0.593927
0.606531 0.606531 0.606531
0.620142 0.620142 0.620142
0.634363 0.634363 0.634363
0.648829 0.648829 0.648829
0.663264 0.663264 0.663264
0.677455 0.677455 0.677455
0.691432 0.691432 0.691432
0.705196 0.705196 0.705196
0.718685 0.718685 0.718685
0.742672 0.742672 0.742672
0.771542 0.771542 0.771542
0.785245 0.785245 0.785245
0.799405 0.799405 0.799405
0.814176 0.814176 0.814176
0.608545 0.608545 0.608545
0.609125 0.609125 0.609125
0.609247 0.609247 0.609247
0.609186 0.609186 0.609186
0.608759 0.608759 0.608759
0.608057 0.608057 0.608057
0.607416 0.607416 0.607416
0.606622 0.606622 0.606622
0.605982 0.605982 0.605982
0.605402 0.605402 0.605402
0.604852 0.604852 0.604852
0.604211 0.604211 0.604211
0.603601 0.603601 0.603601
0.602686 0.602686 0.602686
0.609522 0.609522 0.609522
0.618128 0.618128 0.618128
0.627527 0.627527 0.627527
0.637537 0.637537 0.637537
0.648524 0.648524 0.648524
0.660334 0.660334 0.660334
0.672694 0.672694 0.672694
0.685359 0.685359 0.685359
0.697841 0.697841 0.697841
0.710414 0.710414 0.710414
0.722683 0.722683 0.722683
0.734340 0.734340 0.734340
0.745632 0.745632 0.745632
0.756558 0.756558 0.756558
0.775143 0.775143 0.775143
0.800778 0.800778 0.800778
0.815702 0.815702 0.815702
0.829496 0.829496 0.829496
0.656794 0.656794 0.656794
0.657252 0.657252 0.657252
0.657465 0.657465 0.657465
0.657527 0.657527 0.657527
0.657649 0.657649 0.657649
0.657862 0.657862 0.657862
0.658564 0.658564 0.658564
0.659602 0.659602 0.659602
0.660853 0.660853 0.660853
0.662348 0.662348 0.662348
0.663996 0.663996 0.663996
0.665370 0.665370 0.665370
0.666590 0.666590 0.666590
0.667384 0.667384 0.667384
0.670161 0.670161 0.670161
0.677943 0.677943 0.677943
0.686000 0.686000 0.686000
0.694545 0.694545 0.694545
0.703853 0.703853 0.703853
0.713741 0.713741 0.713741
0.723964 0.723964 0.723964
0.734218 0.734218 0.734218
0.744198 0.744198 0.744198
0.753933 0.753933 0.753933
0.763302 0.763302 0.763302
0.772427 0.772427 0.772427
0.781399 0.781399 0.781399
0.790219 0.790219 0.790219
0.799008 0.799008 0.799008
0.813199 0.813199 0.813199
0.835782 0.835782 0.835782
0.851347 0.851347 0.851347
0.713710 0.713710 0.713710
0.713710 0.713710 0.713710
0.713588 0.713588 0.713588
0.713375 0.713375 0.713375
0.713069 0.713069 0.713069
0.712795 0.712795 0.712795
0.712581 0.712581 0.712581
0.712428 0.712428 0.712428
0.712490 0.712490 0.712490
0.712581 0.712581 0.712581
0.712795 0.712795 0.712795
0.713069 0.713069 0.713069
0.713222 0.713222 0.713222
0.713283 0.713283 0.713283
