20 Preset/Art Style/【3】LUT video cho PR-AE-FCPX/Black _ White Soft OD _.cube
# Created by Adobe Lightroom plugin Export LUT (1.24.0)
# www.johnrellis.com/lightroom/exportlut.htm
# Preset: Black & White Soft OD +
# Color profile: E:\lut插件\exportlut.1.24\exportlut.lrplugin\color profiles\Rec709gamma2.4.icc
LUT_3D_SIZE 8
DOMAIN_MIN 0.000000 0.000000 0.000000
DOMAIN_MAX 0.903226 0.903226 0.903226
0.185733 0.185733 0.185733
0.185855 0.185855 0.185855
0.186252 0.186252 0.186252
0.187594 0.187594 0.187594
0.192386 0.192386 0.192386
0.206241 0.206241 0.206241
0.246799 0.246799 0.246799
0.340734 0.340734 0.340734
0.186130 0.186130 0.186130
0.186252 0.186252 0.186252
0.186801 0.186801 0.186801
0.188510 0.188510 0.188510
0.193912 0.193912 0.193912
0.208072 0.208072 0.208072
0.244907 0.244907 0.244907
0.332738 0.332738 0.332738
0.188907 0.188907 0.188907
0.188785 0.188785 0.188785
0.191257 0.191257 0.191257
0.197299 0.197299 0.197299
0.207034 0.207034 0.207034
0.232273 0.232273 0.232273
0.291722 0.291722 0.291722
0.411933 0.411933 0.411933
0.206455 0.206455 0.206455
0.205875 0.205875 0.205875
0.209232 0.209232 0.209232
0.228489 0.228489 0.228489
0.270817 0.270817 0.270817
0.316655 0.316655 0.316655
0.400824 0.400824 0.400824
0.517693 0.517693 0.517693
0.270970 0.270970 0.270970
0.270024 0.270024 0.270024
0.268498 0.268498 0.268498
0.296452 0.296452 0.296452
0.352270 0.352270 0.352270
0.455543 0.455543 0.455543
0.532097 0.532097 0.532097
0.614191 0.614191 0.614191
0.436835 0.436835 0.436835
0.445808 0.445808 0.445808
0.442847 0.442847 0.442847
0.456336 0.456336 0.456336
0.510460 0.510460 0.510460
0.574334 0.574334 0.574334
0.653529 0.653529 0.653529
0.697902 0.697902 0.697902
0.627588 0.627588 0.627588
0.628809 0.628809 0.628809
0.626429 0.626429 0.626429
0.623926 0.623926 0.623926
0.642451 0.642451 0.642451
0.672236 0.672236 0.672236
0.706233 0.706233 0.706233
0.758450 0.758450 0.758450
0.747066 0.747066 0.747066
0.746914 0.746914 0.746914
0.747036 0.747036 0.747036
0.748104 0.748104 0.748104
0.741421 0.741421 0.741421
0.762203 0.762203 0.762203
0.784939 0.784939 0.784939
0.805814 0.805814 0.805814
0.186007 0.186007 0.186007
0.186130 0.186130 0.186130
0.186923 0.186923 0.186923
0.190097 0.190097 0.190097
0.196902 0.196902 0.196902
0.212589 0.212589 0.212589
0.248875 0.248875 0.248875
0.330816 0.330816 0.330816
0.186404 0.186404 0.186404
0.187076 0.187076 0.187076
0.188388 0.188388 0.188388
0.191501 0.191501 0.191501
0.199130 0.199130 0.199130
0.215976 0.215976 0.215976
0.250889 0.250889 0.250889
0.329503 0.329503 0.329503
0.192142 0.192142 0.192142
0.192142 0.192142 0.192142
0.194675 0.194675 0.194675
0.201785 0.201785 0.201785
0.212802 0.212802 0.212802
0.237186 0.237186 0.237186
0.285435 0.285435 0.285435
0.391852 0.391852 0.391852
0.211795 0.211795 0.211795
0.211368 0.211368 0.211368
0.213687 0.213687 0.213687
0.229892 0.229892 0.229892
0.262974 0.262974 0.262974
0.300786 0.300786 0.300786
0.371557 0.371557 0.371557
0.488441 0.488441 0.488441
0.281651 0.281651 0.281651
0.279698 0.279698 0.279698
0.276280 0.276280 0.276280
0.297490 0.297490 0.297490
0.345617 0.345617 0.345617
0.441657 0.441657 0.441657
0.519249 0.519249 0.519249
0.602686 0.602686 0.602686
0.440253 0.440253 0.440253
0.440131 0.440131 0.440131
0.438361 0.438361 0.438361
0.450507 0.450507 0.450507
0.506035 0.506035 0.506035
0.572900 0.572900 0.572900
0.650019 0.650019 0.650019
0.692775 0.692775 0.692775
0.623163 0.623163 0.623163
0.620935 0.620935 0.620935
0.618219 0.618219 0.618219
0.617090 0.617090 0.617090
0.637873 0.637873 0.637873
0.667750 0.667750 0.667750
0.699489 0.699489 0.699489
0.751034 0.751034 0.751034
0.742611 0.742611 0.742611
0.743740 0.743740 0.743740
0.743587 0.743587 0.743587
0.744778 0.744778 0.744778
0.749142 0.749142 0.749142
0.765652 0.765652 0.765652
0.785245 0.785245 0.785245
0.805722 0.805722 0.805722
0.187198 0.187198 0.187198
0.187594 0.187594 0.187594
0.189700 0.189700 0.189700
0.198642 0.198642 0.198642
0.214878 0.214878 0.214878
0.251255 0.251255 0.251255
0.318303 0.318303 0.318303
0.432044 0.432044 0.432044
0.189822 0.189822 0.189822
0.190463 0.190463 0.190463
0.193301 0.193301 0.193301
0.203067 0.203067 0.203067
0.220371 0.220371 0.220371
0.257877 0.257877 0.257877
0.318547 0.318547 0.318547
0.429664 0.429664 0.429664
0.197543 0.197543 0.197543
0.200443 0.200443 0.200443
0.215213 0.215213 0.215213
0.226688 0.226688 0.226688
0.249393 0.249393 0.249393
0.291936 0.291936 0.291936
0.364660 0.364660 0.364660
0.479225 0.479225 0.479225
0.245182 0.245182 0.245182
0.252140 0.252140 0.252140
0.256107 0.256107 0.256107
0.277501 0.277501 0.277501
0.325750 0.325750 0.325750
0.381964 0.381964 0.381964
0.464485 0.464485 0.464485
0.559411 0.559411 0.559411
0.362402 0.362402 0.362402
0.361151 0.361151 0.361151
0.357824 0.357824 0.357824
0.373266 0.373266 0.373266
0.432746 0.432746 0.432746
0.514153 0.514153 0.514153
0.573205 0.573205 0.573205
0.636774 0.636774 0.636774
0.519646 0.519646 0.519646
0.520317 0.520317 0.520317
0.517876 0.517876 0.517876
0.514061 0.514061 0.514061
0.555016 0.555016 0.555016
0.607691 0.607691 0.607691
0.668910 0.668910 0.668910
0.709743 0.709743 0.709743
0.657496 0.657496 0.657496
0.656001 0.656001 0.656001
0.652583 0.652583 0.652583
0.649928 0.649928 0.649928
0.660029 0.660029 0.660029
0.686580 0.686580 0.686580
0.718135 0.718135 0.718135
0.764706 0.764706 0.764706
0.755917 0.755917 0.755917
0.755154 0.755154 0.755154
0.754818 0.754818 0.754818
0.757382 0.757382 0.757382
0.758145 0.758145 0.758145
0.774685 0.774685 0.774685
0.793332 0.793332 0.793332
0.812436 0.812436 0.812436
0.193423 0.193423 0.193423
0.194797 0.194797 0.194797
0.200809 0.200809 0.200809
0.212131 0.212131 0.212131
0.238041 0.238041 0.238041
0.303929 0.303929 0.303929
0.398199 0.398199 0.398199
0.522606 0.522606 0.522606
0.200809 0.200809 0.200809
0.202243 0.202243 0.202243
0.208774 0.208774 0.208774
0.221195 0.221195 0.221195
0.250553 0.250553 0.250553
0.319127 0.319127 0.319127
0.413733 0.413733 0.413733
0.533043 0.533043 0.533043
0.217929 0.217929 0.217929
0.223911 0.223911 0.223911
0.242344 0.242344 0.242344
0.260166 0.260166 0.260166
0.319615 0.319615 0.319615
0.398810 0.398810 0.398810
0.504479 0.504479 0.504479
0.587396 0.587396 0.587396
0.264958 0.264958 0.264958
0.272068 0.272068 0.272068
0.308385 0.308385 0.308385
0.402014 0.402014 0.402014
0.447822 0.447822 0.447822
0.504295 0.504295 0.504295
0.566003 0.566003 0.566003
0.626612 0.626612 0.626612
0.456855 0.456855 0.456855
0.465064 0.465064 0.465064
0.503807 0.503807 0.503807
0.528435 0.528435 0.528435
0.560601 0.560601 0.560601
0.604608 0.604608 0.604608
0.640772 0.640772 0.640772
0.679927 0.679927 0.679927
0.627008 0.627008 0.627008
0.631434 0.631434 0.631434
0.628382 0.628382 0.628382
0.626307 0.626307 0.626307
0.635096 0.635096 0.635096
0.663142 0.663142 0.663142
0.703395 0.703395 0.703395
0.737026 0.737026 0.737026
0.702937 0.702937 0.702937
0.703212 0.703212 0.703212
0.702754 0.702754 0.702754
0.701900 0.701900 0.701900
0.700923 0.700923 0.700923
0.721218 0.721218 0.721218
0.744869 0.744869 0.744869
0.781765 0.781765 0.781765
0.781094 0.781094 0.781094
0.780911 0.780911 0.780911
0.780392 0.780392 0.780392
0.780240 0.780240 0.780240
0.779629 0.779629 0.779629
0.788998 0.788998 0.788998
0.805692 0.805692 0.805692
0.823758 0.823758 0.823758
0.218784 0.218784 0.218784
0.221836 0.221836 0.221836
0.232944 0.232944 0.232944
0.258244 0.258244 0.258244
0.292241 0.292241 0.292241
0.354711 0.354711 0.354711
0.515343 0.515343 0.515343
0.603082 0.603082 0.603082
0.233036 0.233036 0.233036
0.236332 0.236332 0.236332
0.247898 0.247898 0.247898
0.273320 0.273320 0.273320
0.310552 0.310552 0.310552
0.377142 0.377142 0.377142
0.528252 0.528252 0.528252
0.610193 0.610193 0.610193
0.288640 0.288640 0.288640
0.292149 0.292149 0.292149
0.305852 0.305852 0.305852
0.340612 0.340612 0.340612
0.384894 0.384894 0.384894
0.454871 0.454871 0.454871
0.566949 0.566949 0.566949
0.630762 0.630762 0.630762
0.343297 0.343297 0.343297
0.354070 0.354070 0.354070
0.405859 0.405859 0.405859
0.491066 0.491066 0.491066
0.528893 0.528893 0.528893
0.585504 0.585504 0.585504
0.631952 0.631952 0.631952
0.672175 0.672175 0.672175
0.476204 0.476204 0.476204
0.486702 0.486702 0.486702
0.524132 0.524132 0.524132
0.582300 0.582300 0.582300
0.641169 0.641169 0.641169
0.658778 0.658778 0.658778
0.682124 0.682124 0.682124
0.711391 0.711391 0.711391
0.630640 0.630640 0.630640
0.634272 0.634272 0.634272
0.645869 0.645869 0.645869
0.668940 0.668940 0.668940
0.681666 0.681666 0.681666
0.703120 0.703120 0.703120
0.733211 0.733211 0.733211
0.758389 0.758389 0.758389
0.731289 0.731289 0.731289
0.731960 0.731960 0.731960
0.737087 0.737087 0.737087
0.742885 0.742885 0.742885
0.742184 0.742184 0.742184
0.748562 0.748562 0.748562
0.766629 0.766629 0.766629
0.793851 0.793851 0.793851
0.799069 0.799069 0.799069
0.798764 0.798764 0.798764
0.798062 0.798062 0.798062
0.800351 0.800351 0.800351
0.800229 0.800229 0.800229
0.801602 0.801602 0.801602
0.816098 0.816098 0.816098
0.831754 0.831754 0.831754
0.301396 0.301396 0.301396
0.307134 0.307134 0.307134
0.326360 0.326360 0.326360
0.369360 0.369360 0.369360
0.445930 0.445930 0.445930
0.500786 0.500786 0.500786
0.551843 0.551843 0.551843
0.660761 0.660761 0.660761
0.318364 0.318364 0.318364
0.322667 0.322667 0.322667
0.341680 0.341680 0.341680
0.384558 0.384558 0.384558
0.453101 0.453101 0.453101
0.505943 0.505943 0.505943
0.556634 0.556634 0.556634
0.661799 0.661799 0.661799
0.418891 0.418891 0.418891
0.423316 0.423316 0.423316
0.443671 0.443671 0.443671
0.475044 0.475044 0.475044
0.525719 0.525719 0.525719
0.564324 0.564324 0.564324
0.606195 0.606195 0.606195
0.685817 0.685817 0.685817
0.523735 0.523735 0.523735
0.533227 0.533227 0.533227
0.573205 0.573205 0.573205
0.597894 0.597894 0.597894
0.624903 0.624903 0.624903
0.645075 0.645075 0.645075
0.673487 0.673487 0.673487
0.726314 0.726314 0.726314
0.579217 0.579217 0.579217
0.584802 0.584802 0.584802
0.607172 0.607172 0.607172
0.643183 0.643183 0.643183
0.681300 0.681300 0.681300
0.695674 0.695674 0.695674
0.722713 0.722713 0.722713
0.750332 0.750332 0.750332
0.650141 0.650141 0.650141
0.655116 0.655116 0.655116
0.666804 0.666804 0.666804
0.687739 0.687739 0.687739
0.716915 0.716915 0.716915
0.754513 0.754513 0.754513
0.769223 0.769223 0.769223
0.785916 0.785916 0.785916
0.745754 0.745754 0.745754
0.748074 0.748074 0.748074
0.753719 0.753719 0.753719
0.764584 0.764584 0.764584
0.780514 0.780514 0.780514
0.788907 0.788907 0.788907
0.798856 0.798856 0.798856
0.817624 0.817624 0.817624
0.810056 0.810056 0.810056
0.810239 0.810239 0.810239
0.812894 0.812894 0.812894
0.819852 0.819852 0.819852
0.826261 0.826261 0.826261
0.825956 0.825956 0.825956
0.832364 0.832364 0.832364
0.845823 0.845823 0.845823
0.490822 0.490822 0.490822
0.497230 0.497230 0.497230
0.516320 0.516320 0.516320
0.550072 0.550072 0.550072
0.589746 0.589746 0.589746
0.630396 0.630396 0.630396
0.652186 0.652186 0.652186
0.666896 0.666896 0.666896
0.507164 0.507164 0.507164
0.513054 0.513054 0.513054
0.529656 0.529656 0.529656
0.558343 0.558343 0.558343
0.594842 0.594842 0.594842
0.632502 0.632502 0.632502
0.652827 0.652827 0.652827
0.667170 0.667170 0.667170
0.573571 0.573571 0.573571
0.576165 0.576165 0.576165
0.586053 0.586053 0.586053
0.605035 0.605035 0.605035
0.629755 0.629755 0.629755
0.658137 0.658137 0.658137
0.676326 0.676326 0.676326
0.692561 0.692561 0.692561
0.645502 0.645502 0.645502
0.645899 0.645899 0.645899
0.650843 0.650843 0.650843
0.661982 0.661982 0.661982
0.677211 0.677211 0.677211
0.697658 0.697658 0.697658
0.713008 0.713008 0.713008
0.729763 0.729763 0.729763
0.662348 0.662348 0.662348
0.665431 0.665431 0.665431
0.679896 0.679896 0.679896
0.706905 0.706905 0.706905
0.722042 0.722042 0.722042
0.736538 0.736538 0.736538
0.748714 0.748714 0.748714
0.768185 0.768185 0.768185
0.703212 0.703212 0.703212
0.705440 0.705440 0.705440
0.714137 0.714137 0.714137
0.730159 0.730159 0.730159
0.752132 0.752132 0.752132
0.779294 0.779294 0.779294
0.790249 0.790249 0.790249
0.808499 0.808499 0.808499
0.749630 0.749630 0.749630
0.751400 0.751400 0.751400
0.757290 0.757259 0.757259
0.768673 0.768673 0.768673
0.784878 0.784878 0.784878
0.805509 0.805509 0.805509
0.829984 0.829984 0.829984
0.839902 0.839902 0.839902
0.817685 0.817685 0.817685
0.818479 0.818479 0.818479
0.822171 0.822171 0.822171
0.828397 0.828397 0.828397
0.837522 0.837522 0.837522
0.849760 0.849760 0.849760
0.856840 0.856840 0.856840
0.865232 0.865232 0.865232
0.670405 0.670405 0.670405
0.672297 0.672297 0.672297
0.677577 0.677577 0.677577
0.689418 0.689418 0.689418
0.705928 0.705928 0.705928
0.726009 0.726009 0.726009
0.748043 0.748043 0.748043
0.757778 0.757778 0.757778
0.674403 0.674403 0.674403
0.676265 0.676265 0.676265
0.681666 0.681666 0.681666
0.692622 0.692622 0.692622
0.708492 0.708492 0.708492
0.727901 0.727901 0.727901
0.748867 0.748867 0.748867
0.758145 0.758145 0.758145
0.694942 0.694942 0.694942
0.696162 0.696162 0.696162
0.700374 0.700374 0.700374
0.711086 0.711086 0.711086
0.724117 0.724117 0.724117
0.739986 0.739986 0.739986
0.758480 0.758480 0.758480
0.767086 0.767086 0.767086
0.726040 0.726040 0.726040
0.727169 0.727169 0.727169
0.730556 0.730556 0.730556
0.737881 0.737881 0.737881
0.748165 0.748165 0.748165
0.760830 0.760830 0.760830
0.775875 0.775875 0.775875
0.783749 0.783749 0.783749
0.748379 0.748379 0.748379
0.750668 0.750668 0.750668
0.758450 0.758450 0.758450
0.766018 0.766018 0.766018
0.773373 0.773373 0.773373
0.783108 0.783108 0.783108
0.795438 0.795438 0.795438
0.803677 0.803677 0.803677
0.759457 0.759457 0.759457
0.760220 0.760220 0.760220
0.764279 0.764279 0.764279
0.776516 0.776516 0.776516
0.796597 0.796597 0.796597
0.809934 0.809934 0.809934
0.821469 0.821469 0.821469
0.830137 0.830137 0.830137
0.791623 0.791623 0.791623
0.792416 0.792416 0.792416
0.795834 0.795834 0.795834
0.803159 0.803159 0.803159
0.814420 0.814420 0.814420
0.829709 0.829709 0.829709
0.849790 0.849790 0.849790
0.857908 0.857908 0.857908
0.824338 0.824338 0.824338
0.824949 0.824949 0.824949
0.827817 0.827817 0.827817
0.833860 0.833860 0.833860
0.842954 0.842954 0.842954
0.855070 0.855070 0.855070
0.870329 0.870329 0.870329
0.888029 0.888029 0.888029
