20 Preset/Art Style/【3】LUT video cho PR-AE-FCPX/Black _ White HC --.cube
# Created by Adobe Lightroom plugin Export LUT (1.24.0)
# www.johnrellis.com/lightroom/exportlut.htm
# Preset: Black & White HC --
# Color profile: E:\lut插件\exportlut.1.24\exportlut.lrplugin\color profiles\Rec709gamma2.4.icc
LUT_3D_SIZE 8
DOMAIN_MIN 0.000000 0.000000 0.000000
DOMAIN_MAX 0.903226 0.903226 0.903226
0.000000 0.000000 0.000000
0.010742 0.010742 0.010742
0.055665 0.055665 0.055665
0.109010 0.109010 0.109010
0.172915 0.172915 0.172915
0.269474 0.269474 0.269474
0.417884 0.417884 0.417884
0.578820 0.578820 0.578820
0.038087 0.038087 0.038087
0.048829 0.048829 0.048829
0.088960 0.088960 0.088960
0.122957 0.122957 0.122957
0.185061 0.185061 0.185061
0.277867 0.277867 0.277867
0.411963 0.411963 0.411963
0.569696 0.569696 0.569696
0.144381 0.144381 0.144381
0.147402 0.147402 0.147402
0.164828 0.164828 0.164828
0.210788 0.210788 0.210788
0.270329 0.270329 0.270329
0.372168 0.372168 0.372168
0.506371 0.506371 0.506371
0.643915 0.643915 0.643915
0.305394 0.305394 0.305394
0.306523 0.306523 0.306523
0.324163 0.324163 0.324163
0.375830 0.375830 0.375830
0.468147 0.468147 0.468147
0.540917 0.540917 0.540917
0.630152 0.630152 0.630152
0.718166 0.718166 0.718166
0.530205 0.530205 0.530205
0.531121 0.531121 0.531121
0.541070 0.541070 0.541070
0.569909 0.569909 0.569909
0.605341 0.605341 0.605341
0.673060 0.673060 0.673060
0.726009 0.726009 0.726009
0.782376 0.782376 0.782376
0.712520 0.712520 0.712520
0.719417 0.719417 0.719417
0.723323 0.723323 0.723323
0.732387 0.732387 0.732387
0.746670 0.746670 0.746670
0.766629 0.766629 0.766629
0.809140 0.809140 0.809140
0.842710 0.842710 0.842710
0.824338 0.824338 0.824338
0.825589 0.825589 0.825589
0.826596 0.826596 0.826596
0.829801 0.829801 0.829801
0.835019 0.835019 0.835019
0.844785 0.844785 0.844785
0.857511 0.857511 0.857511
0.886961 0.886961 0.886961
0.904448 0.904448 0.904448
0.904601 0.904601 0.904601
0.905913 0.905913 0.905913
0.908934 0.908934 0.908934
0.906279 0.906279 0.906279
0.913725 0.913725 0.913725
0.922698 0.922698 0.922698
0.931121 0.931121 0.931121
0.006836 0.006836 0.006836
0.011719 0.011719 0.011719
0.058595 0.058595 0.058595
0.114168 0.114168 0.114168
0.176577 0.176577 0.176577
0.266911 0.266911 0.266911
0.393225 0.393225 0.393225
0.545068 0.545068 0.545068
0.033204 0.033204 0.033204
0.053712 0.053712 0.053712
0.092226 0.092226 0.092226
0.129854 0.129854 0.129854
0.191897 0.191897 0.191897
0.282322 0.282322 0.282322
0.399268 0.399268 0.399268
0.544366 0.544366 0.544366
0.144015 0.144015 0.144015
0.147219 0.147219 0.147219
0.163394 0.163394 0.163394
0.207950 0.207950 0.207950
0.266728 0.266728 0.266728
0.358312 0.358312 0.358312
0.471626 0.471626 0.471626
0.611048 0.611048 0.611048
0.293492 0.293492 0.293492
0.295689 0.295689 0.295689
0.312505 0.312505 0.312505
0.349554 0.349554 0.349554
0.426246 0.426246 0.426246
0.495979 0.495979 0.495979
0.587152 0.587152 0.587152
0.688441 0.688441 0.688441
0.520378 0.520378 0.520378
0.519951 0.519951 0.519951
0.526452 0.526452 0.526452
0.548425 0.548425 0.548425
0.579553 0.579553 0.579553
0.650752 0.650752 0.650752
0.708583 0.708583 0.708583
0.769772 0.769772 0.769772
0.701289 0.701289 0.701289
0.702693 0.702693 0.702693
0.707546 0.707546 0.707546
0.718898 0.718898 0.718898
0.735958 0.735958 0.735958
0.759457 0.759457 0.759457
0.802914 0.802914 0.802914
0.836576 0.836576 0.836576
0.817258 0.817258 0.817258
0.816587 0.816587 0.816587
0.817472 0.817472 0.817472
0.821683 0.821683 0.821683
0.829068 0.829068 0.829068
0.839078 0.839078 0.839078
0.850828 0.850828 0.850828
0.880247 0.880247 0.880247
0.899870 0.899870 0.899870
0.900877 0.900877 0.900877
0.902037 0.902037 0.902037
0.905211 0.905211 0.905211
0.909392 0.909392 0.909392
0.914672 0.914672 0.914672
0.921904 0.921904 0.921904
0.930236 0.930236 0.930236
0.024414 0.024414 0.024414
0.030274 0.030274 0.030274
0.064454 0.064454 0.064454
0.122255 0.122255 0.122255
0.193027 0.193027 0.193027
0.297490 0.297490 0.297490
0.427436 0.427436 0.427436
0.575158 0.575158 0.575158
0.078126 0.078126 0.078126
0.082399 0.082399 0.082399
0.096712 0.096712 0.096712
0.140505 0.140505 0.140505
0.208988 0.208988 0.208988
0.311009 0.311009 0.311009
0.431769 0.431769 0.431769
0.575860 0.575860 0.575860
0.134371 0.134371 0.134371
0.142275 0.142275 0.142275
0.173220 0.173220 0.173220
0.217502 0.217502 0.217502
0.288273 0.288273 0.288273
0.383856 0.383856 0.383856
0.495918 0.495918 0.495918
0.626276 0.626276 0.626276
0.305577 0.305577 0.305577
0.313329 0.313329 0.313329
0.330602 0.330602 0.330602
0.365423 0.365423 0.365423
0.440620 0.440620 0.440620
0.515465 0.515465 0.515465
0.608057 0.608057 0.608057
0.702266 0.702266 0.702266
0.527398 0.527398 0.527398
0.529076 0.529076 0.529076
0.538079 0.538079 0.538079
0.560754 0.560754 0.560754
0.594141 0.594141 0.594141
0.658412 0.658412 0.658412
0.714504 0.714504 0.714504
0.774136 0.774136 0.774136
0.703426 0.703426 0.703426
0.705287 0.705287 0.705287
0.709529 0.709529 0.709529
0.718410 0.718410 0.718410
0.734585 0.734585 0.734585
0.758206 0.758206 0.758206
0.801968 0.801968 0.801968
0.837797 0.837797 0.837797
0.820340 0.820340 0.820340
0.819913 0.819913 0.819913
0.820066 0.820066 0.820066
0.823087 0.823087 0.823087
0.829526 0.829526 0.829526
0.840208 0.840208 0.840208
0.853788 0.853788 0.853788
0.884092 0.884092 0.884092
0.900481 0.900481 0.900481
0.900298 0.900298 0.900298
0.901366 0.901366 0.901366
0.905486 0.905486 0.905486
0.909453 0.909453 0.909453
0.915679 0.915679 0.915679
0.923308 0.923308 0.923308
0.931640 0.931640 0.931640
0.066407 0.066407 0.066407
0.075196 0.075196 0.075196
0.094697 0.094697 0.094697
0.122957 0.122957 0.122957
0.189303 0.189303 0.189303
0.299351 0.299351 0.299351
0.424933 0.424933 0.424933
0.570550 0.570550 0.570550
0.101869 0.101869 0.101869
0.105226 0.105226 0.105226
0.117556 0.117556 0.117556
0.143801 0.143801 0.143801
0.210575 0.210575 0.210575
0.318425 0.318425 0.318425
0.439734 0.439734 0.439734
0.581628 0.581628 0.581628
0.154025 0.154025 0.154025
0.166079 0.166079 0.166079
0.195560 0.195560 0.195560
0.218662 0.218662 0.218662
0.299351 0.299351 0.299351
0.400916 0.400916 0.400916
0.523644 0.523644 0.523644
0.643427 0.643427 0.643427
0.278111 0.278111 0.278111
0.285130 0.285130 0.285130
0.316716 0.316716 0.316716
0.377874 0.377874 0.377874
0.441291 0.441291 0.441291
0.519951 0.519951 0.519951
0.613642 0.613642 0.613642
0.705989 0.705989 0.705989
0.530968 0.530968 0.530968
0.533928 0.533928 0.533928
0.551720 0.551720 0.551720
0.579278 0.579278 0.579278
0.611292 0.611292 0.611292
0.668910 0.668910 0.668910
0.724147 0.724147 0.724147
0.779049 0.779049 0.779049
0.718288 0.718288 0.718288
0.723781 0.723781 0.723781
0.726101 0.726101 0.726101
0.734096 0.734096 0.734096
0.746853 0.746853 0.746853
0.765255 0.765255 0.765255
0.804807 0.804807 0.804807
0.840238 0.840238 0.840238
0.823606 0.823606 0.823606
0.824369 0.824369 0.824369
0.826352 0.826352 0.826352
0.830289 0.830289 0.830289
0.835813 0.835813 0.835813
0.845090 0.845090 0.845090
0.857145 0.857145 0.857145
0.886900 0.886900 0.886900
0.904265 0.904265 0.904265
0.904417 0.904417 0.904417
0.905333 0.905333 0.905333
0.907805 0.907805 0.907805
0.911345 0.911345 0.911345
0.917021 0.917021 0.917021
0.924895 0.924895 0.924895
0.933989 0.933989 0.933989
0.107851 0.107851 0.107851
0.112032 0.112032 0.112032
0.126223 0.126223 0.126223
0.153170 0.153170 0.153170
0.196780 0.196780 0.196780
0.285130 0.285130 0.285130
0.429847 0.429847 0.429847
0.574884 0.574884 0.574884
0.133944 0.133944 0.133944
0.137697 0.137697 0.137697
0.150332 0.150332 0.150332
0.174258 0.174258 0.174258
0.217288 0.217288 0.217288
0.305394 0.305394 0.305394
0.445808 0.445808 0.445808
0.586725 0.586725 0.586725
0.218875 0.218875 0.218875
0.221744 0.221744 0.221744
0.231876 0.231876 0.231876
0.255070 0.255070 0.255070
0.293858 0.293858 0.293858
0.376745 0.376745 0.376745
0.501854 0.501854 0.501854
0.624567 0.624567 0.624567
0.299016 0.299016 0.299016
0.306249 0.306249 0.306249
0.341070 0.341070 0.341070
0.406073 0.406073 0.406073
0.437263 0.437263 0.437263
0.516838 0.516838 0.516838
0.609491 0.609491 0.609491
0.697047 0.697047 0.697047
0.470680 0.470680 0.470680
0.477150 0.477150 0.477150
0.501396 0.501396 0.501396
0.546624 0.546624 0.546624
0.605554 0.605554 0.605554
0.654841 0.654841 0.654841
0.711727 0.711727 0.711727
0.768734 0.768734 0.768734
0.689815 0.689815 0.689815
0.692226 0.692226 0.692226
0.698726 0.698726 0.698726
0.715358 0.715358 0.715358
0.734035 0.734035 0.734035
0.759579 0.759579 0.759579
0.799527 0.799527 0.799527
0.835111 0.835111 0.835111
0.819181 0.819181 0.819181
0.819181 0.819181 0.819181
0.821317 0.821317 0.821317
0.827329 0.827329 0.827329
0.833982 0.833982 0.833982
0.842618 0.842618 0.842618
0.854582 0.854582 0.854582
0.883146 0.883146 0.883146
0.899992 0.899992 0.899992
0.900084 0.900084 0.900084
0.900847 0.900847 0.900847
0.905394 0.905394 0.905394
0.909514 0.909514 0.909514
0.915099 0.915099 0.915099
0.923003 0.923003 0.923003
0.932006 0.932006 0.932006
0.159152 0.159152 0.159152
0.163058 0.163058 0.163058
0.176852 0.176852 0.176852
0.203433 0.203433 0.203433
0.247257 0.247257 0.247257
0.308843 0.308843 0.308843
0.407446 0.407446 0.407446
0.579339 0.579339 0.579339
0.180545 0.180545 0.180545
0.183566 0.183566 0.183566
0.195804 0.195804 0.195804
0.221195 0.221195 0.221195
0.260990 0.260990 0.260990
0.320195 0.320195 0.320195
0.416938 0.416938 0.416938
0.584100 0.584100 0.584100
0.272618 0.272618 0.272618
0.275181 0.275181 0.275181
0.287205 0.287205 0.287205
0.306462 0.306462 0.306462
0.341009 0.341009 0.341009
0.394018 0.394018 0.394018
0.487465 0.487465 0.487465
0.634821 0.634821 0.634821
0.384985 0.384985 0.384985
0.394965 0.394965 0.394965
0.440162 0.440162 0.440162
0.463844 0.463844 0.463844
0.493263 0.493263 0.493263
0.533440 0.533440 0.533440
0.613947 0.613947 0.613947
0.713069 0.713069 0.713069
0.497719 0.497719 0.497719
0.503105 0.503105 0.503105
0.525872 0.525872 0.525872
0.569604 0.569604 0.569604
0.633997 0.633997 0.633997
0.656336 0.656336 0.656336
0.711543 0.711543 0.711543
0.767544 0.767544 0.767544
0.657923 0.657923 0.657923
0.663478 0.663478 0.663478
0.675227 0.675227 0.675227
0.696956 0.696956 0.696956
0.726802 0.726802 0.726802
0.765835 0.765835 0.765835
0.797635 0.797635 0.797635
0.831113 0.831113 0.831113
0.814389 0.814389 0.814389
0.816037 0.816037 0.816037
0.819394 0.819394 0.819394
0.826108 0.826108 0.826108
0.836606 0.836606 0.836606
0.847410 0.847410 0.847410
0.859037 0.859037 0.859037
0.886412 0.886412 0.886412
0.897093 0.897093 0.897093
0.897063 0.897063 0.897063
0.898528 0.898528 0.898528
0.903105 0.903105 0.903105
0.908843 0.908843 0.908843
0.914611 0.914611 0.914611
0.922759 0.922759 0.922759
0.932128 0.932128 0.932128
0.230381 0.230381 0.230381
0.234409 0.234409 0.234409
0.248325 0.248325 0.248325
0.275334 0.275334 0.275334
0.314092 0.314092 0.314092
0.364660 0.364660 0.364660
0.435798 0.435798 0.435798
0.529808 0.529808 0.529808
0.251072 0.251072 0.251072
0.255070 0.255070 0.255070
0.267613 0.267613 0.267613
0.291936 0.291936 0.291936
0.328496 0.328496 0.328496
0.376074 0.376074 0.376074
0.443610 0.443610 0.443610
0.534630 0.534630 0.534630
0.337499 0.337499 0.337499
0.339849 0.339849 0.339849
0.349828 0.349828 0.349828
0.370397 0.370397 0.370397
0.401465 0.401465 0.401465
0.444099 0.444099 0.444099
0.507042 0.507042 0.507042
0.595300 0.595300 0.595300
0.479652 0.479652 0.479652
0.480049 0.480049 0.480049
0.487129 0.487129 0.487129
0.503929 0.503929 0.503929
0.528527 0.528527 0.528527
0.563470 0.563470 0.563470
0.611749 0.611749 0.611749
0.679286 0.679286 0.679286
0.542107 0.542107 0.542107
0.548943 0.548943 0.548943
0.580407 0.580407 0.580407
0.636896 0.636896 0.636896
0.660121 0.660121 0.660121
0.679561 0.679561 0.679561
0.707027 0.707027 0.707027
0.757900 0.757900 0.757900
0.682277 0.682277 0.682277
0.684871 0.684871 0.684871
0.694881 0.694881 0.694881
0.713344 0.713344 0.713344
0.739132 0.739132 0.739132
0.778592 0.778592 0.778592
0.793210 0.793210 0.793210
0.825528 0.825528 0.825528
0.787930 0.787930 0.787930
0.789456 0.789456 0.789456
0.794217 0.794217 0.794217
0.803769 0.803769 0.803769
0.817624 0.817624 0.817624
0.836271 0.836271 0.836271
0.860166 0.860166 0.860166
0.882750 0.882750 0.882750
0.891234 0.891234 0.891234
0.891783 0.891783 0.891783
0.894499 0.894499 0.894499
0.898924 0.898924 0.898924
0.905516 0.905516 0.905516
0.914763 0.914763 0.914763
0.924346 0.924346 0.924346
0.934112 0.934112 0.934112
0.354589 0.354589 0.354589
0.358221 0.358221 0.358221
0.369512 0.369512 0.369512
0.394018 0.394018 0.394018
0.429847 0.429847 0.429847
0.476143 0.476143 0.476143
0.532982 0.532982 0.532982
0.606256 0.606256 0.606256
0.371954 0.371954 0.371954
0.375372 0.375372 0.375372
0.386572 0.386572 0.386572
0.409186 0.409186 0.409186
0.443427 0.443427 0.443427
0.487953 0.487953 0.487953
0.541863 0.541863 0.541863
0.611749 0.611749 0.611749
0.444770 0.444770 0.444770
0.447181 0.447181 0.447181
0.456031 0.456031 0.456031
0.477882 0.477882 0.477882
0.506432 0.506432 0.506432
0.544030 0.544030 0.544030
0.590600 0.590600 0.590600
0.648707 0.648707 0.648707
0.562036 0.562036 0.562036
0.564294 0.564294 0.564294
0.571221 0.571221 0.571221
0.586450 0.586450 0.586450
0.608179 0.608179 0.608179
0.635370 0.635370 0.635370
0.667445 0.667445 0.667445
0.707851 0.707851 0.707851
0.652766 0.652766 0.652766
0.658442 0.658442 0.658442
0.678218 0.678218 0.678218
0.693538 0.693538 0.693538
0.705379 0.705379 0.705379
0.721187 0.721187 0.721187
0.741146 0.741146 0.741146
0.767269 0.767269 0.767269
0.708583 0.708583 0.708583
0.709407 0.709407 0.709407
0.714229 0.714229 0.714229
0.738094 0.738094 0.738094
0.776608 0.776608 0.776608
0.796017 0.796017 0.796017
0.809964 0.809964 0.809964
0.826780 0.826780 0.826780
0.808164 0.808164 0.808164
0.808804 0.808804 0.808804
0.811704 0.811704 0.811704
0.818265 0.818265 0.818265
0.828580 0.828580 0.828580
0.843320 0.843320 0.843320
0.870817 0.870817 0.870817
0.881834 0.881834 0.881834
0.876799 0.876799 0.876799
0.877226 0.877226 0.877226
0.879545 0.879545 0.879545
0.884611 0.884611 0.884611
0.892363 0.892363 0.892363
0.903166 0.903166 0.903166
0.917754 0.917754 0.917754
0.936492 0.936492 0.936492
