20 Preset/Art Style/【3】LUT video cho PR-AE-FCPX/Black _ White HC -.cube
# Created by Adobe Lightroom plugin Export LUT (1.24.0)
# www.johnrellis.com/lightroom/exportlut.htm
# Preset: Black & White HC -
# Color profile: E:\lut插件\exportlut.1.24\exportlut.lrplugin\color profiles\Rec709gamma2.4.icc
LUT_3D_SIZE 8
DOMAIN_MIN 0.000000 0.000000 0.000000
DOMAIN_MAX 0.903226 0.903226 0.903226
0.000000 0.000000 0.000000
0.002930 0.002930 0.002930
0.011719 0.011719 0.011719
0.033204 0.033204 0.033204
0.082399 0.082399 0.082399
0.118044 0.118044 0.118044
0.179141 0.179141 0.179141
0.271763 0.271763 0.271763
0.006836 0.006836 0.006836
0.009766 0.009766 0.009766
0.020508 0.020508 0.020508
0.045899 0.045899 0.045899
0.089693 0.089693 0.089693
0.123201 0.123201 0.123201
0.180270 0.180270 0.180270
0.270573 0.270573 0.270573
0.049805 0.049805 0.049805
0.049805 0.049805 0.049805
0.075196 0.075196 0.075196
0.098390 0.098390 0.098390
0.120790 0.120790 0.120790
0.162264 0.162264 0.162264
0.228977 0.228977 0.228977
0.326665 0.326665 0.326665
0.118807 0.118807 0.118807
0.118044 0.118044 0.118044
0.124636 0.124636 0.124636
0.155245 0.155245 0.155245
0.206241 0.206241 0.206241
0.250645 0.250645 0.250645
0.316716 0.316716 0.316716
0.413123 0.413123 0.413123
0.211368 0.211368 0.211368
0.210452 0.210452 0.210452
0.209110 0.209110 0.209110
0.237369 0.237369 0.237369
0.285374 0.285374 0.285374
0.364294 0.364294 0.364294
0.431189 0.431189 0.431189
0.531243 0.531243 0.531243
0.352483 0.352483 0.352483
0.357183 0.357183 0.357183
0.355474 0.355474 0.355474
0.366522 0.366522 0.366522
0.412207 0.412207 0.412207
0.478126 0.478126 0.478126
0.593194 0.593194 0.593194
0.672938 0.672938 0.672938
0.554711 0.554711 0.554711
0.556023 0.556023 0.556023
0.553491 0.553491 0.553491
0.550713 0.550713 0.550713
0.582422 0.582422 0.582422
0.634363 0.634363 0.634363
0.691432 0.691432 0.691432
0.771542 0.771542 0.771542
0.753780 0.753780 0.753780
0.753597 0.753597 0.753597
0.753841 0.753841 0.753841
0.755184 0.755184 0.755184
0.751034 0.751034 0.751034
0.779721 0.779721 0.779721
0.809964 0.809964 0.809964
0.838132 0.838132 0.838132
0.005859 0.005859 0.005859
0.008789 0.008789 0.008789
0.024414 0.024414 0.024414
0.064454 0.064454 0.064454
0.098390 0.098390 0.098390
0.132265 0.132265 0.132265
0.187198 0.187198 0.187198
0.272374 0.272374 0.272374
0.013672 0.013672 0.013672
0.026368 0.026368 0.026368
0.044923 0.044923 0.044923
0.078737 0.078737 0.078737
0.104067 0.104067 0.104067
0.138705 0.138705 0.138705
0.191501 0.191501 0.191501
0.274571 0.274571 0.274571
0.082399 0.082399 0.082399
0.081788 0.081788 0.081788
0.091890 0.091890 0.091890
0.110109 0.110109 0.110109
0.133120 0.133120 0.133120
0.172335 0.172335 0.172335
0.230381 0.230381 0.230381
0.321813 0.321813 0.321813
0.130953 0.130953 0.130953
0.130282 0.130282 0.130282
0.134585 0.134585 0.134585
0.161105 0.161105 0.161105
0.204837 0.204837 0.204837
0.245548 0.245548 0.245548
0.306462 0.306462 0.306462
0.399847 0.399847 0.399847
0.224735 0.224735 0.224735
0.223178 0.223178 0.223178
0.220371 0.220371 0.220371
0.242618 0.242618 0.242618
0.286381 0.286381 0.286381
0.361028 0.361028 0.361028
0.426703 0.426703 0.426703
0.523644 0.523644 0.523644
0.359533 0.359533 0.359533
0.359442 0.359442 0.359442
0.358312 0.358312 0.358312
0.367712 0.367712 0.367712
0.413642 0.413642 0.413642
0.481025 0.481025 0.481025
0.592004 0.592004 0.592004
0.669093 0.669093 0.669093
0.554070 0.554070 0.554070
0.551781 0.551781 0.551781
0.548821 0.548821 0.548821
0.547662 0.547662 0.547662
0.580285 0.580285 0.580285
0.631403 0.631403 0.631403
0.685817 0.685817 0.685817
0.765225 0.765225 0.765225
0.750698 0.750698 0.750698
0.751919 0.751919 0.751919
0.751827 0.751827 0.751827
0.753323 0.753323 0.753323
0.759884 0.759884 0.759884
0.783902 0.783902 0.783902
0.810910 0.810910 0.810910
0.838590 0.838590 0.838590
0.027344 0.027344 0.027344
0.033204 0.033204 0.033204
0.060548 0.060548 0.060548
0.101869 0.101869 0.101869
0.135439 0.135439 0.135439
0.188907 0.188907 0.188907
0.257389 0.257389 0.257389
0.347448 0.347448 0.347448
0.061524 0.061524 0.061524
0.068360 0.068360 0.068360
0.087861 0.087861 0.087861
0.112581 0.112581 0.112581
0.145541 0.145541 0.145541
0.198154 0.198154 0.198154
0.260166 0.260166 0.260166
0.349004 0.349004 0.349004
0.099672 0.099672 0.099672
0.106386 0.106386 0.106386
0.136263 0.136263 0.136263
0.155581 0.155581 0.155581
0.187594 0.187594 0.187594
0.234684 0.234684 0.234684
0.297856 0.297856 0.297856
0.388098 0.388098 0.388098
0.182193 0.182193 0.182193
0.190738 0.190738 0.190738
0.195682 0.195682 0.195682
0.219516 0.219516 0.219516
0.264958 0.264958 0.264958
0.310338 0.310338 0.310338
0.374426 0.374426 0.374426
0.464973 0.464973 0.464973
0.296391 0.296391 0.296391
0.295689 0.295689 0.295689
0.293492 0.293492 0.293492
0.305577 0.305577 0.305577
0.351263 0.351263 0.351263
0.419196 0.419196 0.419196
0.482551 0.482551 0.482551
0.573419 0.573419 0.573419
0.426703 0.426703 0.426703
0.427161 0.427161 0.427161
0.425299 0.425299 0.425299
0.422431 0.422431 0.422431
0.464149 0.464149 0.464149
0.527977 0.527977 0.527977
0.626246 0.626246 0.626246
0.696529 0.696529 0.696529
0.608972 0.608972 0.608972
0.607202 0.607202 0.607202
0.602960 0.602960 0.602960
0.599786 0.599786 0.599786
0.618067 0.618067 0.618067
0.663478 0.663478 0.663478
0.713802 0.713802 0.713802
0.782467 0.782467 0.782467
0.769772 0.769772 0.769772
0.769039 0.769039 0.769039
0.768826 0.768826 0.768826
0.771511 0.771511 0.771511
0.772915 0.772915 0.772915
0.795865 0.795865 0.795865
0.821012 0.821012 0.821012
0.846799 0.846799 0.846799
0.088594 0.088594 0.088594
0.092226 0.092226 0.092226
0.107546 0.107546 0.107546
0.130953 0.130953 0.130953
0.173068 0.173068 0.173068
0.246983 0.246983 0.246983
0.324529 0.324529 0.324529
0.427771 0.427771 0.427771
0.107271 0.107271 0.107271
0.110658 0.110658 0.110658
0.124392 0.124392 0.124392
0.146639 0.146639 0.146639
0.189578 0.189578 0.189578
0.260899 0.260899 0.260899
0.337011 0.337011 0.337011
0.438636 0.438636 0.438636
0.141695 0.141695 0.141695
0.151736 0.151736 0.151736
0.178988 0.178988 0.178988
0.202121 0.202121 0.202121
0.260899 0.260899 0.260899
0.322423 0.322423 0.322423
0.404395 0.404395 0.404395
0.495247 0.495247 0.495247
0.206699 0.206699 0.206699
0.214878 0.214878 0.214878
0.251530 0.251530 0.251530
0.326299 0.326299 0.326299
0.361883 0.361883 0.361883
0.408759 0.408759 0.408759
0.471565 0.471565 0.471565
0.554894 0.554894 0.554894
0.367620 0.367620 0.367620
0.374548 0.374548 0.374548
0.406958 0.406958 0.406958
0.429206 0.429206 0.429206
0.462776 0.462776 0.462776
0.518608 0.518608 0.518608
0.575647 0.575647 0.575647
0.646235 0.646235 0.646235
0.553582 0.553582 0.553582
0.558556 0.558556 0.558556
0.554986 0.554986 0.554986
0.552270 0.552270 0.552270
0.567285 0.567285 0.567285
0.615320 0.615320 0.615320
0.684382 0.684382 0.684382
0.738491 0.738491 0.738491
0.686122 0.686122 0.686122
0.686458 0.686458 0.686458
0.685908 0.685908 0.685908
0.684810 0.684810 0.684810
0.684230 0.684230 0.684230
0.717067 0.717067 0.717067
0.752987 0.752987 0.752987
0.804868 0.804868 0.804868
0.802731 0.802731 0.802731
0.802579 0.802579 0.802579
0.802182 0.802182 0.802182
0.802152 0.802152 0.802152
0.801816 0.801816 0.801816
0.814694 0.814694 0.814694
0.836912 0.836912 0.836912
0.860868 0.860868 0.860868
0.143252 0.143252 0.143252
0.148318 0.148318 0.148318
0.165774 0.165774 0.165774
0.199496 0.199496 0.199496
0.237278 0.237278 0.237278
0.292576 0.292576 0.292576
0.421057 0.421057 0.421057
0.522179 0.522179 0.522179
0.165591 0.165591 0.165591
0.170077 0.170077 0.170077
0.185855 0.185855 0.185855
0.216861 0.216861 0.216861
0.254459 0.254459 0.254459
0.310033 0.310033 0.310033
0.433509 0.433509 0.433509
0.532708 0.532708 0.532708
0.232853 0.232853 0.232853
0.236515 0.236515 0.236515
0.250278 0.250278 0.250278
0.280980 0.280980 0.280980
0.316991 0.316991 0.316991
0.372564 0.372564 0.372564
0.477790 0.477790 0.477790
0.567498 0.567498 0.567498
0.283970 0.283970 0.283970
0.292668 0.292668 0.292668
0.332433 0.332433 0.332433
0.399390 0.399390 0.399390
0.434699 0.434699 0.434699
0.498695 0.498695 0.498695
0.566400 0.566400 0.566400
0.637110 0.637110 0.637110
0.389380 0.389380 0.389380
0.397864 0.397864 0.397864
0.431464 0.431464 0.431464
0.495064 0.495064 0.495064
0.581079 0.581079 0.581079
0.612634 0.612634 0.612634
0.654200 0.654200 0.654200
0.703670 0.703670 0.703670
0.569543 0.569543 0.569543
0.575250 0.575250 0.575250
0.595544 0.595544 0.595544
0.635706 0.635706 0.635706
0.656947 0.656947 0.656947
0.689509 0.689509 0.689509
0.735348 0.735348 0.735348
0.772732 0.772732 0.772732
0.733822 0.733822 0.733822
0.735225 0.735225 0.735225
0.743557 0.743557 0.743557
0.751797 0.751797 0.751797
0.750973 0.750973 0.750973
0.760739 0.760739 0.760739
0.786343 0.786343 0.786343
0.823667 0.823667 0.823667
0.829709 0.829709 0.829709
0.829435 0.829435 0.829435
0.828824 0.828824 0.828824
0.830930 0.830930 0.830930
0.830991 0.830991 0.830991
0.833097 0.833097 0.833097
0.852262 0.852262 0.852262
0.873228 0.873228 0.873228
0.244724 0.244724 0.244724
0.249851 0.249851 0.249851
0.267704 0.267704 0.267704
0.303166 0.303166 0.303166
0.361181 0.361181 0.361181
0.407263 0.407263 0.407263
0.458595 0.458595 0.458595
0.613916 0.613916 0.613916
0.262486 0.262486 0.262486
0.266423 0.266423 0.266423
0.282933 0.282933 0.282933
0.317296 0.317296 0.317296
0.370123 0.370123 0.370123
0.415045 0.415045 0.415045
0.466896 0.466896 0.466896
0.618524 0.618524 0.618524
0.341070 0.341070 0.341070
0.344488 0.344488 0.344488
0.360296 0.360296 0.360296
0.387091 0.387091 0.387091
0.432654 0.432654 0.432654
0.474311 0.474311 0.474311
0.528496 0.528496 0.528496
0.660212 0.660212 0.660212
0.427161 0.427161 0.427161
0.436835 0.436835 0.436835
0.480385 0.480385 0.480385
0.510155 0.510155 0.510155
0.549554 0.549554 0.549554
0.583978 0.583978 0.583978
0.634699 0.634699 0.634699
0.723323 0.723323 0.723323
0.494087 0.494087 0.494087
0.501061 0.501061 0.501061
0.530999 0.530999 0.530999
0.586084 0.586084 0.586084
0.652033 0.652033 0.652033
0.677302 0.677302 0.677302
0.721065 0.721065 0.721065
0.762936 0.762936 0.762936
0.602472 0.602472 0.602472
0.609949 0.609949 0.609949
0.630396 0.630396 0.630396
0.666468 0.666468 0.666468
0.713710 0.713710 0.713710
0.768246 0.768246 0.768246
0.788296 0.788296 0.788296
0.811337 0.811337 0.811337
0.755795 0.755795 0.755795
0.758724 0.758724 0.758724
0.766903 0.766903 0.766903
0.782284 0.782284 0.782284
0.804135 0.804135 0.804135
0.815702 0.815702 0.815702
0.829129 0.829129 0.829129
0.854276 0.854276 0.854276
0.844938 0.844938 0.844938
0.845396 0.845396 0.845396
0.849119 0.849119 0.849119
0.858030 0.858030 0.858030
0.866484 0.866484 0.866484
0.866300 0.866300 0.866300
0.874693 0.874693 0.874693
0.892546 0.892546 0.892546
0.404669 0.404669 0.404669
0.409491 0.409491 0.409491
0.427405 0.427405 0.427405
0.461402 0.461402 0.461402
0.509361 0.509361 0.509361
0.569238 0.569238 0.569238
0.607050 0.607050 0.607050
0.634760 0.634760 0.634760
0.422980 0.422980 0.422980
0.427527 0.427527 0.427527
0.443793 0.443793 0.443793
0.474922 0.474922 0.474922
0.520806 0.520806 0.520806
0.577905 0.577905 0.577905
0.614069 0.614069 0.614069
0.641352 0.641352 0.641352
0.490791 0.490791 0.490791
0.494087 0.494087 0.494087
0.507378 0.507378 0.507378
0.533806 0.533806 0.533806
0.572473 0.572473 0.572473
0.620661 0.620661 0.620661
0.652155 0.652155 0.652155
0.679866 0.679866 0.679866
0.592432 0.592432 0.592432
0.593866 0.593866 0.593866
0.603418 0.603418 0.603418
0.623011 0.623011 0.623011
0.650629 0.650629 0.650629
0.684993 0.684993 0.684993
0.709377 0.709377 0.709377
0.735927 0.735927 0.735927
0.626978 0.626978 0.626978
0.633143 0.633143 0.633143
0.658503 0.658503 0.658503
0.702144 0.702144 0.702144
0.725795 0.725795 0.725795
0.747646 0.747646 0.747646
0.765072 0.765072 0.765072
0.790799 0.790799 0.790799
0.698360 0.698360 0.698360
0.701717 0.701717 0.701717
0.714992 0.714992 0.714992
0.738460 0.738460 0.738460
0.769406 0.769406 0.769406
0.805173 0.805173 0.805173
0.819486 0.819486 0.819486
0.843839 0.843839 0.843839
0.766293 0.766293 0.766293
0.768429 0.768429 0.768429
0.776547 0.776547 0.776547
0.791897 0.791897 0.791897
0.813504 0.813504 0.813504
0.840482 0.840482 0.840482
0.872251 0.872251 0.872251
0.885313 0.885313 0.885313
0.856809 0.856809 0.856809
0.857786 0.857786 0.857786
0.862089 0.862089 0.862089
0.870115 0.870115 0.870115
0.882109 0.882109 0.882109
0.898100 0.898100 0.898100
0.907378 0.907378 0.907378
0.918364 0.918364 0.918364
0.648585 0.648585 0.648585
0.651453 0.651453 0.651453
0.661402 0.661402 0.661402
0.680751 0.680751 0.680751
0.707240 0.707240 0.707240
0.737789 0.737789 0.737789
0.768765 0.768765 0.768765
0.782834 0.782834 0.782834
0.657862 0.657862 0.657862
0.660487 0.660487 0.660487
0.669947 0.669947 0.669947
0.687922 0.687922 0.687922
0.713008 0.713008 0.713008
0.742031 0.742031 0.742031
0.771603 0.771603 0.771603
0.785183 0.785183 0.785183
0.692470 0.692470 0.692470
0.694301 0.694301 0.694301
0.701656 0.701656 0.701656
0.716854 0.716854 0.716854
0.736812 0.736812 0.736812
0.760128 0.760128 0.760128
0.785275 0.785275 0.785275
0.797513 0.797513 0.797513
0.740108 0.740108 0.740108
0.741451 0.741451 0.741451
0.746548 0.746548 0.746548
0.756619 0.756619 0.756619
0.770840 0.770840 0.770840
0.788205 0.788205 0.788205
0.807889 0.807889 0.807889
0.818509 0.818509 0.818509
0.772457 0.772457 0.772457
0.775265 0.775265 0.775265
0.785794 0.785794 0.785794
0.795621 0.795621 0.795621
0.805539 0.805539 0.805539
0.818387 0.818387 0.818387
0.833982 0.833982 0.833982
0.844175 0.844175 0.844175
0.788815 0.788815 0.788815
0.790127 0.790127 0.790127
0.795987 0.795987 0.795987
0.811704 0.811704 0.811704
0.836301 0.836301 0.836301
0.852049 0.852049 0.852049
0.865629 0.865629 0.865629
0.876097 0.876097 0.876097
0.828946 0.828946 0.828946
0.830014 0.830014 0.830014
0.834562 0.834562 0.834562
0.843717 0.843717 0.843717
0.857755 0.857755 0.857755
0.876616 0.876616 0.876616
0.901030 0.901030 0.901030
0.911376 0.911376 0.911376
0.869017 0.869017 0.869017
0.869841 0.869841 0.869841
0.873533 0.873533 0.873533
0.881010 0.881010 0.881010
0.892424 0.892424 0.892424
0.907836 0.907836 0.907836
0.927092 0.927092 0.927092
0.949310 0.949310 0.949310
