20 Preset/Art Style/【3】LUT video cho PR-AE-FCPX/Black _ White HC _.cube
# Created by Adobe Lightroom plugin Export LUT (1.24.0)
# www.johnrellis.com/lightroom/exportlut.htm
# Preset: Black & White HC +
# Color profile: E:\lut插件\exportlut.1.24\exportlut.lrplugin\color profiles\Rec709gamma2.4.icc
LUT_3D_SIZE 32
DOMAIN_MIN 0.0 0.0 0.0
DOMAIN_MAX 1.0 1.0 1.0
0.000000 0.000000 0.000000
0.000000 0.000000 0.000000
0.000000 0.000000 0.000000
0.000000 0.000000 0.000000
0.000000 0.000000 0.000000
0.000000 0.000000 0.000000
0.000000 0.000000 0.000000
0.000000 0.000000 0.000000
0.000000 0.000000 0.000000
0.000000 0.000000 0.000000
0.000000 0.000000 0.000000
0.001953 0.001953 0.001953
0.007813 0.007813 0.007813
0.015625 0.015625 0.015625
0.028321 0.028321 0.028321
0.045899 0.045899 0.045899
0.070314 0.070314 0.070314
0.090425 0.090425 0.090425
0.104921 0.104921 0.104921
0.122011 0.122011 0.122011
0.141085 0.141085 0.141085
0.163546 0.163546 0.163546
0.188632 0.188632 0.188632
0.214572 0.214572 0.214572
0.241123 0.241123 0.241123
0.268742 0.268742 0.268742
0.297978 0.297978 0.297978
0.328801 0.328801 0.328801
0.362249 0.362249 0.362249
0.399390 0.399390 0.399390
0.441016 0.441016 0.441016
0.488869 0.488869 0.488869
0.000000 0.000000 0.000000
0.000000 0.000000 0.000000
0.000000 0.000000 0.000000
0.000000 0.000000 0.000000
0.000000 0.000000 0.000000
0.000000 0.000000 0.000000
0.000000 0.000000 0.000000
0.000000 0.000000 0.000000
0.000000 0.000000 0.000000
0.000000 0.000000 0.000000
0.000000 0.000000 0.000000
0.001953 0.001953 0.001953
0.007813 0.007813 0.007813
0.015625 0.015625 0.015625
0.028321 0.028321 0.028321
0.045899 0.045899 0.045899
0.069337 0.069337 0.069337
0.090059 0.090059 0.090059
0.104341 0.104341 0.104341
0.121309 0.121309 0.121309
0.139895 0.139895 0.139895
0.161929 0.161929 0.161929
0.186130 0.186130 0.186130
0.211368 0.211368 0.211368
0.237278 0.237278 0.237278
0.264378 0.264378 0.264378
0.292943 0.292943 0.292943
0.323552 0.323552 0.323552
0.356725 0.356725 0.356725
0.393378 0.393378 0.393378
0.434577 0.434577 0.434577
0.481758 0.481758 0.481758
0.000000 0.000000 0.000000
0.000000 0.000000 0.000000
0.000000 0.000000 0.000000
0.000000 0.000000 0.000000
0.000000 0.000000 0.000000
0.000000 0.000000 0.000000
0.000000 0.000000 0.000000
0.000000 0.000000 0.000000
0.000000 0.000000 0.000000
0.000000 0.000000 0.000000
0.000000 0.000000 0.000000
0.002930 0.002930 0.002930
0.008789 0.008789 0.008789
0.017578 0.017578 0.017578
0.030274 0.030274 0.030274
0.047852 0.047852 0.047852
0.072267 0.072267 0.072267
0.091157 0.091157 0.091157
0.105501 0.105501 0.105501
0.122255 0.122255 0.122255
0.141085 0.141085 0.141085
0.163210 0.163210 0.163210
0.186679 0.186679 0.186679
0.211460 0.211460 0.211460
0.237003 0.237003 0.237003
0.263493 0.263493 0.263493
0.291936 0.291936 0.291936
0.322179 0.322179 0.322179
0.355047 0.355047 0.355047
0.391577 0.391577 0.391577
0.432471 0.432471 0.432471
0.479164 0.479164 0.479164
0.000000 0.000000 0.000000
0.000000 0.000000 0.000000
0.000000 0.000000 0.000000
0.000000 0.000000 0.000000
0.000000 0.000000 0.000000
0.000000 0.000000 0.000000
0.000000 0.000000 0.000000
0.000000 0.000000 0.000000
0.000000 0.000000 0.000000
0.000000 0.000000 0.000000
0.000977 0.000977 0.000977
0.004883 0.004883 0.004883
0.011719 0.011719 0.011719
0.021485 0.021485 0.021485
0.035157 0.035157 0.035157
0.053712 0.053712 0.053712
0.078126 0.078126 0.078126
0.094026 0.094026 0.094026
0.108125 0.108125 0.108125
0.124849 0.124849 0.124849
0.143252 0.143252 0.143252
0.164981 0.164981 0.164981
0.187869 0.187869 0.187869
0.212009 0.212009 0.212009
0.237461 0.237461 0.237461
0.264378 0.264378 0.264378
0.293095 0.293095 0.293095
0.323613 0.323613 0.323613
0.356725 0.356725 0.356725
0.393164 0.393164 0.393164
0.433722 0.433722 0.433722
0.479530 0.479530 0.479530
0.000000 0.000000 0.000000
0.000000 0.000000 0.000000
0.000000 0.000000 0.000000
0.000000 0.000000 0.000000
0.000000 0.000000 0.000000
0.000000 0.000000 0.000000
0.000000 0.000000 0.000000
0.000000 0.000000 0.000000
0.000000 0.000000 0.000000
0.000977 0.000977 0.000977
0.004883 0.004883 0.004883
0.009766 0.009766 0.009766
0.017578 0.017578 0.017578
0.028321 0.028321 0.028321
0.043946 0.043946 0.043946
0.064454 0.064454 0.064454
0.086030 0.086030 0.086030
0.099062 0.099062 0.099062
0.113649 0.113649 0.113649
0.130495 0.130495 0.130495
0.149233 0.149233 0.149233
0.170687 0.170687 0.170687
0.192905 0.192905 0.192905
0.216861 0.216861 0.216861
0.241978 0.241978 0.241978
0.268650 0.268650 0.268650
0.297002 0.297002 0.297002
0.327337 0.327337 0.327337
0.360174 0.360174 0.360174
0.396246 0.396246 0.396246
0.436378 0.436378 0.436378
0.481819 0.481819 0.481819
0.000000 0.000000 0.000000
0.000000 0.000000 0.000000
0.000000 0.000000 0.000000
0.000000 0.000000 0.000000
0.000000 0.000000 0.000000
0.000000 0.000000 0.000000
0.000000 0.000000 0.000000
0.000977 0.000977 0.000977
0.002930 0.002930 0.002930
0.006836 0.006836 0.006836
0.011719 0.011719 0.011719
0.018555 0.018555 0.018555
0.028321 0.028321 0.028321
0.041993 0.041993 0.041993
0.059571 0.059571 0.059571
0.080568 0.080568 0.080568
0.094697 0.094697 0.094697
0.107546 0.107546 0.107546
0.122713 0.122713 0.122713
0.139712 0.139712 0.139712
0.159152 0.159152 0.159152
0.180270 0.180270 0.180270
0.220584 0.220584 0.220584
0.246433 0.246433 0.246433
0.273106 0.273106 0.273106
0.300938 0.300938 0.300938
0.330297 0.330297 0.330297
0.361334 0.361334 0.361334
0.395331 0.395331 0.395331
0.432654 0.432654 0.432654
0.474403 0.474403 0.474403
0.520958 0.520958 0.520958
0.000000 0.000000 0.000000
0.000000 0.000000 0.000000
0.000000 0.000000 0.000000
0.000000 0.000000 0.000000
0.000000 0.000000 0.000000
0.001953 0.001953 0.001953
0.004883 0.004883 0.004883
0.011719 0.011719 0.011719
0.015625 0.015625 0.015625
0.020508 0.020508 0.020508
0.027344 0.027344 0.027344
0.037110 0.037110 0.037110
0.050782 0.050782 0.050782
0.067384 0.067384 0.067384
0.084810 0.084810 0.084810
0.096376 0.096376 0.096376
0.108125 0.108125 0.108125
0.122255 0.122255 0.122255
0.137911 0.137881 0.137911
0.156100 0.156100 0.156100
0.177584 0.177584 0.177584
0.200565 0.200565 0.200565
0.225254 0.225254 0.225254
0.251347 0.251347 0.251347
0.278325 0.278325 0.278325
0.306401 0.306401 0.306401
0.335332 0.335332 0.335332
0.365850 0.365850 0.365850
0.399115 0.399115 0.399115
0.435492 0.435492 0.435492
0.476356 0.476356 0.476356
0.522393 0.522393 0.522393
0.006836 0.006836 0.006836
0.006836 0.006836 0.006836
0.006836 0.006836 0.006836
0.006836 0.006836 0.006836
0.007813 0.007813 0.007813
0.010742 0.010742 0.010742
0.014649 0.014649 0.014649
0.020508 0.020508 0.020508
0.033204 0.033204 0.033204
0.042969 0.042969 0.042969
0.051759 0.051759 0.051759
0.064454 0.064454 0.064454
0.078737 0.078737 0.078737
0.089693 0.089693 0.089693
0.099062 0.099062 0.099062
0.109834 0.109834 0.109834
0.122255 0.122255 0.122255
0.136049 0.136049 0.136049
0.152102 0.152102 0.152102
0.170993 0.170993 0.170993
0.191379 0.191379 0.191379
0.213474 0.213474 0.213474
0.237003 0.237003 0.237003
0.262150 0.262150 0.262150
0.288426 0.288426 0.288426
0.315587 0.315587 0.315587
0.343847 0.343847 0.343847
0.373816 0.373816 0.373816
0.406653 0.406653 0.406653
0.442817 0.442817 0.442817
0.483345 0.483345 0.483345
0.528893 0.528893 0.528893
0.023438 0.023438 0.023438
0.023438 0.023438 0.023438
0.023438 0.023438 0.023438
0.023438 0.023438 0.023438
0.023438 0.023438 0.023438
0.026368 0.026368 0.026368
0.032227 0.032227 0.032227
0.040040 0.040040 0.040040
0.050782 0.050782 0.050782
0.069337 0.069337 0.069337
0.085420 0.085420 0.085420
0.091890 0.091890 0.091890
0.098726 0.098726 0.098726
0.106691 0.106691 0.106691
0.116274 0.116274 0.116274
0.127382 0.127382 0.127382
0.139895 0.139895 0.139895
0.154391 0.154391 0.154391
0.171145 0.171145 0.171145
0.189303 0.189303 0.189303
0.208865 0.208865 0.208865
0.229801 0.229801 0.229801
0.252293 0.252293 0.252293
0.276493 0.276493 0.276493
0.301946 0.301946 0.301946
0.328374 0.328374 0.328374
0.356054 0.356054 0.356054
0.385809 0.385809 0.385809
0.418280 0.418280 0.418280
0.454139 0.454139 0.454139
0.494331 0.494331 0.494331
0.539727 0.539727 0.539727
0.052735 0.052735 0.052735
0.052735 0.052735 0.052735
0.051759 0.051759 0.051759
0.051759 0.051759 0.051759
0.050782 0.050782 0.050782
0.051759 0.051759 0.051759
0.058595 0.058595 0.058595
0.069337 0.069337 0.069337
0.080568 0.080568 0.080568
0.089693 0.089693 0.089693
0.098726 0.098726 0.098726
0.112306 0.112306 0.112306
0.119295 0.119295 0.119295
0.127840 0.127840 0.127840
0.137697 0.137697 0.137697
0.148501 0.148501 0.148501
0.161929 0.161929 0.161929
0.177005 0.177005 0.177005
0.193301 0.193301 0.193301
0.210697 0.210697 0.210697
0.229282 0.229282 0.229282
0.248692 0.248692 0.248692
0.269627 0.269627 0.269627
0.292027 0.292027 0.292027
0.315770 0.315770 0.315770
0.340826 0.340826 0.340826
0.367926 0.367926 0.367926
0.397223 0.397223 0.397223
0.429694 0.429694 0.429694
0.465766 0.465766 0.465766
0.506371 0.506371 0.506371
0.552056 0.552056 0.552056
0.088228 0.088228 0.088228
0.088228 0.088228 0.088228
0.087861 0.087861 0.087861
0.087861 0.087861 0.087861
0.087251 0.087251 0.087251
0.086641 0.086641 0.086641
0.089693 0.089693 0.089693
0.094026 0.094026 0.094026
0.099672 0.099672 0.099672
0.106966 0.106966 0.106966
0.115480 0.115480 0.115480
0.125551 0.125551 0.125551
0.144778 0.144778 0.144778
0.153323 0.153323 0.153323
0.163851 0.163851 0.163851
0.175418 0.175418 0.175418
0.188266 0.188266 0.188266
0.201999 0.201999 0.201999
0.217288 0.217288 0.217288
0.233616 0.233616 0.233616
0.251072 0.251072 0.251072
0.269535 0.269535 0.269535
0.289433 0.289433 0.289433
0.311070 0.311070 0.311070
0.334203 0.334203 0.334203
0.358892 0.358892 0.358892
0.385473 0.385473 0.385473
0.414527 0.414527 0.414527
0.446784 0.446784 0.446784
0.483101 0.483101 0.483101
0.523705 0.523705 0.523705
0.569268 0.569268 0.569268
0.110658 0.110658 0.110658
0.110658 0.110658 0.110658
0.110384 0.110384 0.110384
0.110384 0.110384 0.110384
0.109834 0.109834 0.109834
0.109560 0.109560 0.109560
0.110109 0.110109 0.110109
0.114961 0.114961 0.114961
0.121035 0.121035 0.121035
0.128511 0.128511 0.128511
0.137270 0.137270 0.137270
0.148318 0.148318 0.148318
0.171756 0.171756 0.171756
0.197787 0.197787 0.197787
0.208652 0.208652 0.208652
0.220584 0.220584 0.220584
0.233249 0.233249 0.233249
0.246799 0.246799 0.246799
0.261234 0.261234 0.261234
0.276646 0.276646 0.276646
0.293645 0.293645 0.293645
0.311406 0.311406 0.311406
0.330816 0.330816 0.330816
0.351720 0.351720 0.351720
0.374182 0.374182 0.374182
0.398291 0.398291 0.398291
0.424506 0.424506 0.424506
0.453040 0.453040 0.453040
0.484779 0.484779 0.484779
0.520531 0.520531 0.520531
0.560784 0.560784 0.560784
0.605463 0.605463 0.605463
0.142458 0.142458 0.142458
0.142458 0.142458 0.142458
0.142092 0.142092 0.142092
0.141695 0.141695 0.141695
0.140902 0.140902 0.140902
0.140108 0.140108 0.140108
0.139498 0.139498 0.139498
0.143252 0.143252 0.143252
0.150332 0.150332 0.150332
0.158633 0.158633 0.158633
0.169009 0.169009 0.169009
0.181247 0.181247 0.181247
0.195041 0.195041 0.195041
0.210330 0.210330 0.210330
0.240208 0.240208 0.240208
0.251255 0.251255 0.251255
0.262913 0.262913 0.262913
0.275273 0.275273 0.275273
0.288365 0.288365 0.288365
0.302159 0.302159 0.302159
0.317113 0.317113 0.317113
0.333501 0.333501 0.333501
0.352056 0.352056 0.352056
0.372198 0.372198 0.372198
0.394171 0.394171 0.394171
0.418036 0.418036 0.418036
0.444038 0.444038 0.444038
0.472816 0.472816 0.472816
0.504845 0.504845 0.504845
0.541100 0.541100 0.541100
0.581323 0.581323 0.581323
0.625299 0.625299 0.625299
0.175998 0.175998 0.175998
0.175723 0.175723 0.175723
0.175143 0.175143 0.175143
0.174838 0.174838 0.174838
0.174105 0.174105 0.174105
0.173068 0.173068 0.173068
0.172335 0.172335 0.172335
0.172488 0.172488 0.172488
0.179141 0.179141 0.179141
0.187198 0.187198 0.187198
0.197024 0.197024 0.197024
0.208652 0.208652 0.208652
0.221744 0.221744 0.221744
0.235935 0.235935 0.235935
0.251072 0.251072 0.251072
0.279240 0.279240 0.279240
0.293797 0.293797 0.293797
0.304997 0.304997 0.304997
0.317174 0.317174 0.317174
0.329931 0.329931 0.329931
0.344030 0.344030 0.344030
0.359594 0.359594 0.359594
0.376898 0.376898 0.376898
0.396429 0.396429 0.396429
0.418189 0.418189 0.418189
0.441901 0.441901 0.441901
0.468116 0.468116 0.468116
0.496742 0.496742 0.496742
0.529137 0.529137 0.529137
0.565515 0.565515 0.565515
0.605310 0.605310 0.605310
0.648310 0.648310 0.648310
0.211704 0.211704 0.211704
0.211582 0.211582 0.211582
0.211124 0.211124 0.211124
0.210330 0.210330 0.210330
0.209323 0.209323 0.209323
0.208072 0.208072 0.208072
0.206943 0.206943 0.206943
0.205783 0.205783 0.205783
0.209567 0.209567 0.209567
0.217166 0.217166 0.217166
0.226474 0.226474 0.226474
0.237552 0.237552 0.237552
0.249943 0.249943 0.249943
0.263157 0.263157 0.263157
0.277409 0.277409 0.277409
0.291936 0.291936 0.291936
0.318120 0.318120 0.318120
0.336736 0.336736 0.336736
0.347906 0.347906 0.347906
0.360082 0.360082 0.360082
0.373388 0.373388 0.373388
0.388434 0.388434 0.388434
0.405402 0.405402 0.405402
0.424170 0.424170 0.424170
0.444953 0.444953 0.444953
0.468605 0.468605 0.468605
0.494972 0.494972 0.494972
0.524498 0.524498 0.524498
0.557610 0.557610 0.557610
0.594690 0.594690 0.594690
0.634760 0.634760 0.634760
0.674769 0.674769 0.674769
0.247349 0.247349 0.247349
0.247349 0.247349 0.247349
0.246983 0.246983 0.246983
0.246525 0.246525 0.246525
0.245823 0.245823 0.245823
0.244907 0.244907 0.244907
0.244266 0.244266 0.244266
0.243351 0.243351 0.243351
0.243534 0.243534 0.243534
0.250889 0.250889 0.250889
0.259403 0.259403 0.259403
0.269230 0.269230 0.269230
0.280003 0.280003 0.280003
0.291722 0.291722 0.291722
0.304265 0.304265 0.304265
0.317540 0.317540 0.317540
0.331548 0.331548 0.331548
0.355962 0.355962 0.355962
0.379126 0.379126 0.379126
0.390875 0.390875 0.390875
0.404211 0.404211 0.404211
0.419348 0.419348 0.419348
0.436378 0.436378 0.436378
0.455543 0.455543 0.455543
0.476722 0.476722 0.476722
0.500359 0.500359 0.500359
0.526696 0.526696 0.526696
0.556725 0.556725 0.556725
0.589868 0.589868 0.589868
0.625757 0.625757 0.625757
0.663111 0.663111 0.663111
0.696071 0.696071 0.696071
0.283146 0.283146 0.283146
0.282994 0.282994 0.282994
0.282841 0.282841 0.282841
0.282414 0.282414 0.282414
0.281895 0.281895 0.281895
0.281132 0.281132 0.281132
0.280461 0.280461 0.280461
0.279698 0.279698 0.279698
0.279179 0.279179 0.279179
0.282841 0.282841 0.282841
0.290806 0.290806 0.290806
0.299840 0.299840 0.299840
0.310033 0.310033 0.310033
0.320928 0.320928 0.320928
0.332677 0.332677 0.332677
0.345220 0.345220 0.345220
0.358434 0.358434 0.358434
0.372808 0.372808 0.372808
0.395972 0.395972 0.395972
0.424598 0.424598 0.424598
0.437720 0.437720 0.437720
0.452857 0.452857 0.452857
0.470222 0.470222 0.470222
0.489448 0.489448 0.489448
0.511131 0.511131 0.511131
0.535271 0.535271 0.535271
0.562066 0.562066 0.562066
0.591547 0.591547 0.591547
0.623804 0.623804 0.623804
0.658228 0.658228 0.658228
0.689387 0.689387 0.689387
0.716365 0.716365 0.716365
0.321324 0.321324 0.321324
0.321508 0.321508 0.321508
0.335271 0.335271 0.335271
0.334874 0.334874 0.334874
0.334325 0.334325 0.334325
0.333501 0.333501 0.333501
0.332494 0.332494 0.332494
0.331548 0.331548 0.331548
0.330663 0.330663 0.330663
0.330358 0.330358 0.330358
0.337713 0.337713 0.337713
0.346349 0.346349 0.346349
0.355535 0.355535 0.355535
0.365484 0.365484 0.365484
0.376196 0.376196 0.376196
0.387671 0.387671 0.387671
0.399634 0.399634 0.399634
0.412543 0.412543 0.412543
0.426642 0.426642 0.426642
0.448035 0.448035 0.448035
0.483345 0.483345 0.483345
0.498146 0.498146 0.498146
0.514916 0.514916 0.514916
0.533959 0.533959 0.533959
0.554650 0.554650 0.554650
0.577691 0.577691 0.577691
0.602777 0.602777 0.602777
0.630243 0.630243 0.630243
0.659693 0.659693 0.659693
0.687007 0.687007 0.687007
0.711849 0.711849 0.711849
0.733974 0.733974 0.733974
0.364965 0.364965 0.364965
0.366308 0.366308 0.366308
0.367498 0.367498 0.367498
0.368597 0.368597 0.368597
0.369055 0.369055 0.369055
0.368750 0.368750 0.368750
0.367864 0.367864 0.367864
0.366796 0.366796 0.366796
0.365850 0.365850 0.365850
0.364965 0.364965 0.364965
0.368383 0.368383 0.368383
0.376440 0.376440 0.376440
0.385168 0.385168 0.385168
0.394812 0.394812 0.394812
0.405219 0.405219 0.405219
0.416480 0.416480 0.416480
0.428443 0.428443 0.428443
0.441444 0.441444 0.441444
0.455726 0.455726 0.455726
0.471229 0.471229 0.471229
0.492195 0.492195 0.492195
0.535882 0.535882 0.535882
0.552850 0.552850 0.552850
0.571893 0.571893 0.571893
0.592432 0.592432 0.592432
0.614771 0.614771 0.614771
0.638911 0.638911 0.638911
0.664118 0.664118 0.664118
0.687892 0.687892 0.687892
0.709895 0.709895 0.709895
0.730098 0.730098 0.730098
0.748409 0.748409 0.748409
0.403326 0.403326 0.403326
0.404761 0.404761 0.404761
0.406195 0.406195 0.406195
0.407446 0.407446 0.407446
0.408179 0.408179 0.408179
0.407996 0.407996 0.407996
0.407202 0.407202 0.407202
0.406195 0.406195 0.406195
0.405310 0.405310 0.405310
0.404211 0.404211 0.404211
0.403143 0.403143 0.403143
0.410864 0.410864 0.410864
0.419440 0.419440 0.419440
0.428901 0.428901 0.428901
0.439246 0.439246 0.439246
0.450263 0.450263 0.450263
0.462226 0.462226 0.462226
0.475135 0.475135 0.475135
0.489265 0.489265 0.489265
0.504601 0.504601 0.504601
0.521263 0.521263 0.521263
0.541283 0.541283 0.541283
0.588037 0.588037 0.588037
0.611322 0.611322 0.611322
0.631159 0.631159 0.631159
0.652399 0.652399 0.652399
0.672999 0.672999 0.672999
0.692836 0.692836 0.692836
0.711788 0.711788 0.711788
0.729610 0.729610 0.729610
0.746365 0.746365 0.746365
0.761593 0.761593 0.761593
0.445563 0.445563 0.445563
0.446998 0.446998 0.446998
0.448402 0.448402 0.448402
0.449653 0.449653 0.449653
0.450263 0.450263 0.450263
0.450111 0.450111 0.450111
0.449500 0.449500 0.449500
0.448585 0.448585 0.448585
0.447700 0.447700 0.447700
0.446632 0.446632 0.446632
0.445655 0.445655 0.445655
0.448859 0.448859 0.448859
0.457221 0.457221 0.457221
0.466590 0.466590 0.466590
0.476875 0.476875 0.476875
0.488228 0.488228 0.488228
0.500786 0.500786 0.500786
0.514488 0.514488 0.514488
0.529686 0.529686 0.529686
0.546349 0.546349 0.546349
0.564538 0.564538 0.564538
0.583825 0.583825 0.583825
0.603845 0.603845 0.603845
0.651423 0.651423 0.651423
0.677394 0.677394 0.677394
0.693904 0.693904 0.693904
0.709560 0.709560 0.709560
0.724605 0.724605 0.724605
0.739132 0.739132 0.739132
0.753017 0.753017 0.753017
0.766049 0.766049 0.766049
0.778714 0.778714 0.778714
0.502556 0.502556 0.502556
0.503349 0.503349 0.503349
0.503716 0.503716 0.503716
0.503807 0.503807 0.503807
0.503471 0.503471 0.503471
0.502739 0.502739 0.502739
0.501762 0.501762 0.501762
0.500694 0.500694 0.500694
0.499672 0.499672 0.499672
0.498756 0.498756 0.498756
0.497871 0.497871 0.497871
0.496895 0.496895 0.496895
0.504845 0.504845 0.504845
0.514305 0.514305 0.514305
0.524590 0.524590 0.524590
0.535790 0.535790 0.535790
0.548058 0.548058 0.548058
0.561456 0.561456 0.561456
0.575891 0.575891 0.575891
0.591547 0.591547 0.591547
0.608118 0.608118 0.608118
0.625605 0.625605 0.625605
0.643580 0.643580 0.643580
0.661219 0.661219 0.661219
0.696254 0.696254 0.696254
0.718227 0.718227 0.718227
0.730922 0.730922 0.730922
0.743313 0.743313 0.743313
0.755215 0.755215 0.755215
0.766690 0.766690 0.766690
0.778073 0.778073 0.778073
0.789853 0.789853 0.789853
0.554131 0.554131 0.554131
0.554742 0.554742 0.554742
0.555169 0.555169 0.555169
0.555352 0.555352 0.555352
0.555077 0.555077 0.555077
0.554467 0.554467 0.554467
0.553552 0.553552 0.553552
0.552575 0.552575 0.552575
0.551720 0.551720 0.551720
0.551049 0.551049 0.551049
0.550164 0.550164 0.550164
0.549279 0.549279 0.549279
0.552331 0.552331 0.552331
0.561883 0.561883 0.561883
0.572320 0.572320 0.572320
0.583581 0.583581 0.583581
0.596002 0.596002 0.596002
0.609064 0.609064 0.609064
0.623102 0.623102 0.623102
0.638025 0.638025 0.638025
0.653651 0.653651 0.653651
0.668635 0.668635 0.668635
0.682856 0.682856 0.682856
0.696132 0.696132 0.696132
0.704067 0.704067 0.704067
0.728298 0.728298 0.728298
0.747585 0.747585 0.747585
0.757809 0.757809 0.757809
0.767910 0.767910 0.767910
0.778164 0.778164 0.778164
0.788907 0.788907 0.788907
0.800473 0.800473 0.800473
0.616663 0.616663 0.616663
0.617700 0.617700 0.617700
0.618097 0.618097 0.618097
0.617762 0.617762 0.617762
0.616754 0.616754 0.616754
0.615229 0.615229 0.615229
0.613397 0.613397 0.613397
0.611475 0.611475 0.611475
0.609552 0.609552 0.609552
0.607782 0.607782 0.607782
0.605951 0.605951 0.605951
0.604425 0.604425 0.604425
0.602716 0.602716 0.602716
0.609949 0.609949 0.609949
0.618799 0.618799 0.618799
0.628534 0.628534 0.628534
0.639307 0.639307 0.639307
0.651057 0.651057 0.651057
0.663294 0.663294 0.663294
0.675654 0.675654 0.675654
0.687770 0.687770 0.687770
0.699306 0.699306 0.699306
0.710048 0.710048 0.710048
0.720058 0.720058 0.720058
0.729213 0.729213 0.729213
0.737850 0.737850 0.737850
0.754574 0.754574 0.754574
0.770932 0.770932 0.770932
0.779751 0.779751 0.779751
0.789181 0.789181 0.789181
0.799557 0.799557 0.799557
0.811185 0.811185 0.811185
0.667170 0.667140 0.667140
0.668025 0.668025 0.668025
0.668513 0.668513 0.668513
0.668574 0.668574 0.668574
0.668208 0.668208 0.668208
0.667659 0.667659 0.667659
0.667018 0.667018 0.667018
0.666133 0.666133 0.666133
0.665461 0.665461 0.665461
0.664851 0.664851 0.664851
0.664088 0.664088 0.664088
0.663294 0.663294 0.663294
0.662196 0.662196 0.662196
0.664088 0.664088 0.664088
0.671290 0.671290 0.671290
0.678798 0.678798 0.678798
0.686580 0.686580 0.686580
0.694667 0.694667 0.694667
0.703182 0.703182 0.703182
0.711849 0.711849 0.711849
0.720577 0.720577 0.720577
0.729061 0.729061 0.729061
0.737209 0.737209 0.737209
0.744900 0.744900 0.744900
0.752132 0.752132 0.752132
0.758877 0.758877 0.758877
0.765316 0.765316 0.765316
0.777493 0.777493 0.777493
0.793454 0.793454 0.793454
0.802731 0.802731 0.802731
0.813169 0.813169 0.813169
0.824460 0.824460 0.824460
0.711086 0.711086 0.711086
0.711421 0.711421 0.711421
0.711513 0.711513 0.711513
0.711391 0.711391 0.711391
0.711116 0.711116 0.711116
0.710689 0.710689 0.710689
0.710170 0.710170 0.710170
0.709651 0.709651 0.709651
0.709133 0.709133 0.709133
0.708675 0.708675 0.708675
0.708156 0.708156 0.708156
0.707637 0.707637 0.707637
0.707088 0.707088 0.707088
0.706294 0.706294 0.706294
0.710475 0.710475 0.710475
0.715694 0.715694 0.715694
0.721218 0.721218 0.721218
0.726955 0.726955 0.726955
0.733059 0.733059 0.733059
0.739498 0.739498 0.739498
0.746029 0.746029 0.746029
0.752377 0.752377 0.752377
0.758450 0.758450 0.758450
0.764309 0.764309 0.764309
0.770016 0.770016 0.770016
0.775509 0.775509 0.775509
0.781033 0.781033 0.781033
0.786557 0.786557 0.786557
0.797024 0.797024 0.797024
0.813657 0.813657 0.813657
0.824735 0.824735 0.824735
0.835935 0.835935 0.835935
0.742458 0.742458 0.742458
0.742702 0.742702 0.742702
0.742824 0.742824 0.742824
0.742885 0.742885 0.742885
0.742916 0.742916 0.742916
0.743008 0.743008 0.743008
0.743374 0.743374 0.743374
0.743893 0.743893 0.743893
0.744533 0.744533 0.744533
0.745266 0.745266 0.745266
0.746090 0.746090 0.746090
0.746761 0.746761 0.746761
0.747341 0.747341 0.747341
0.747707 0.747707 0.747707
0.749050 0.749050 0.749050
0.752804 0.752804 0.752804
0.756558 0.756558 0.756558
0.760494 0.760494 0.760494
0.764706 0.764706 0.764706
0.769131 0.769131 0.769131
0.773739 0.773739 0.773739
0.778439 0.778439 0.778439
0.783200 0.783200 0.783200
0.787991 0.787991 0.787991
0.792844 0.792844 0.792844
0.797787 0.797787 0.797787
0.802945 0.802945 0.802945
0.808194 0.808194 0.808194
0.813474 0.813474 0.813474
0.822965 0.822965 0.822965
0.840085 0.840085 0.840085
0.853239 0.853239 0.853239
0.772457 0.772457 0.772457
0.772488 0.772488 0.772488
0.772427 0.772427 0.772427
0.772335 0.772335 0.772335
0.772183 0.772183 0.772183
0.772091 0.772091 0.772091
0.771969 0.771969 0.771969
0.771908 0.771908 0.771908
0.771939 0.771939 0.771939
0.771969 0.771969 0.771969
0.772061 0.772061 0.772061
0.772183 0.772183 0.772183
0.772274 0.772274 0.772274
0.772274 0.772274 0.772274
