20 Preset/Art Style/【3】LUT video cho PR-AE-FCPX/Black _ White HC _.cube
# Created by Adobe Lightroom plugin Export LUT (1.24.0)
# www.johnrellis.com/lightroom/exportlut.htm
# Preset: Black & White HC +
# Color profile: E:\lut插件\exportlut.1.24\exportlut.lrplugin\color profiles\Rec709gamma2.4.icc
LUT_3D_SIZE 5
DOMAIN_MIN 0.000000 0.000000 0.000000
DOMAIN_MAX 0.903226 0.903226 0.903226
0.000000 0.000000 0.000000
0.000000 0.000000 0.000000
0.028321 0.028321 0.028321
0.163546 0.163546 0.163546
0.362249 0.362249 0.362249
0.006836 0.006836 0.006836
0.020508 0.020508 0.020508
0.099062 0.099062 0.099062
0.213474 0.213474 0.213474
0.406653 0.406653 0.406653
0.211704 0.211704 0.211704
0.205783 0.205783 0.205783
0.277409 0.277409 0.277409
0.388434 0.388434 0.388434
0.557610 0.557610 0.557610
0.502556 0.502556 0.502556
0.500694 0.500694 0.500694
0.524590 0.524590 0.524590
0.625605 0.625605 0.625605
0.755215 0.755215 0.755215
0.793942 0.793942 0.793942
0.793973 0.793973 0.793973
0.789059 0.789059 0.789059
0.811917 0.811917 0.811917
0.845243 0.845243 0.845243
0.000000 0.000000 0.000000
0.012696 0.012696 0.012696
0.120058 0.120058 0.120058
0.246342 0.246342 0.246342
0.409857 0.409857 0.409857
0.072267 0.072267 0.072267
0.122713 0.122713 0.122713
0.179843 0.179843 0.179843
0.282841 0.282841 0.282841
0.444739 0.444739 0.444739
0.287846 0.287846 0.287846
0.283604 0.283604 0.283604
0.326299 0.326299 0.326299
0.425696 0.425696 0.425696
0.597894 0.597894 0.597894
0.561120 0.561120 0.561120
0.560143 0.560143 0.560143
0.571893 0.571893 0.571893
0.661982 0.661982 0.661982
0.763607 0.763607 0.763607
0.801389 0.801389 0.801389
0.801236 0.801236 0.801236
0.801816 0.801816 0.801816
0.820127 0.820127 0.820127
0.852537 0.852537 0.852537
0.136263 0.136263 0.136263
0.162417 0.162417 0.162417
0.237278 0.237278 0.237278
0.393835 0.393835 0.393835
0.570733 0.570733 0.570733
0.237461 0.237461 0.237461
0.253178 0.253178 0.253178
0.308629 0.308629 0.308629
0.442451 0.442451 0.442451
0.614435 0.614435 0.614435
0.372198 0.372198 0.372198
0.404852 0.404852 0.404852
0.536584 0.536584 0.536584
0.610986 0.610986 0.610986
0.715724 0.715724 0.715724
0.702296 0.702296 0.702296
0.711604 0.711604 0.711604
0.716823 0.716823 0.716823
0.744137 0.744137 0.744137
0.789242 0.789242 0.789242
0.826444 0.826444 0.826444
0.826810 0.826810 0.826810
0.827451 0.827451 0.827451
0.835630 0.835630 0.835630
0.864256 0.864256 0.864256
0.382452 0.382452 0.382452
0.400549 0.400549 0.400549
0.464637 0.464637 0.464637
0.548791 0.548791 0.548791
0.707424 0.707424 0.707424
0.452430 0.452430 0.452430
0.464973 0.464973 0.464973
0.517571 0.517571 0.517571
0.592798 0.592798 0.592798
0.726619 0.726619 0.726619
0.569604 0.569604 0.569604
0.600824 0.600824 0.600824
0.678798 0.678798 0.678798
0.712398 0.712398 0.712398
0.779812 0.779812 0.779812
0.731868 0.731868 0.731868
0.739284 0.739284 0.739284
0.766842 0.766842 0.766842
0.807797 0.807797 0.807797
0.830625 0.830625 0.830625
0.852842 0.852842 0.852842
0.855619 0.855619 0.855619
0.867796 0.867796 0.867796
0.874907 0.874907 0.874907
0.891600 0.891600 0.891600
0.731075 0.731075 0.731075
0.734798 0.734798 0.734798
0.751980 0.751980 0.751980
0.774380 0.774380 0.774380
0.791928 0.791928 0.791928
0.741787 0.741787 0.741787
0.745174 0.745174 0.745174
0.758572 0.758572 0.758572
0.777890 0.777890 0.777890
0.795010 0.795010 0.795010
0.777584 0.777584 0.777584
0.778286 0.778286 0.778286
0.785031 0.785031 0.785031
0.797604 0.797604 0.797604
0.816190 0.816190 0.816190
0.799313 0.799313 0.799313
0.800931 0.800931 0.800931
0.813626 0.813626 0.813626
0.844022 0.844022 0.844022
0.868101 0.868101 0.868101
0.861021 0.861021 0.861021
0.863157 0.863157 0.863157
0.875334 0.875334 0.875334
0.897520 0.897520 0.897520
0.932433 0.932433 0.932433
