20 Preset/Art Style/【3】LUT video cho PR-AE-FCPX/Black _ White Soft OD _.cube
# Created by Adobe Lightroom plugin Export LUT (1.24.0)
# www.johnrellis.com/lightroom/exportlut.htm
# Preset: Black & White Soft OD +
# Color profile: E:\lut插件\exportlut.1.24\exportlut.lrplugin\color profiles\Rec709gamma2.4.icc
LUT_3D_SIZE 32
DOMAIN_MIN 0.0 0.0 0.0
DOMAIN_MAX 1.0 1.0 1.0
0.185733 0.185733 0.185733
0.185733 0.185733 0.185733
0.185733 0.185733 0.185733
0.185855 0.185855 0.185855
0.185855 0.185855 0.185855
0.186007 0.186007 0.186007
0.186130 0.186130 0.186130
0.186130 0.186130 0.186130
0.186252 0.186252 0.186252
0.186526 0.186526 0.186526
0.186801 0.186801 0.186801
0.187076 0.187076 0.187076
0.187594 0.187594 0.187594
0.188388 0.188388 0.188388
0.189303 0.189303 0.189303
0.190738 0.190738 0.190738
0.192386 0.192386 0.192386
0.194797 0.194797 0.194797
0.197787 0.197787 0.197787
0.201541 0.201541 0.201541
0.206241 0.206241 0.206241
0.213138 0.213138 0.213138
0.222354 0.222354 0.222354
0.233433 0.233433 0.233433
0.246799 0.246799 0.246799
0.262974 0.262974 0.262974
0.283146 0.283146 0.283146
0.308324 0.308324 0.308324
0.340734 0.340734 0.340734
0.381476 0.381476 0.381476
0.430030 0.430030 0.430030
0.483742 0.483742 0.483742
0.185733 0.185733 0.185733
0.185733 0.185733 0.185733
0.185855 0.185855 0.185855
0.185855 0.185855 0.185855
0.185855 0.185855 0.185855
0.186007 0.186007 0.186007
0.186130 0.186130 0.186130
0.186130 0.186130 0.186130
0.186404 0.186404 0.186404
0.186526 0.186526 0.186526
0.186801 0.186801 0.186801
0.187076 0.187076 0.187076
0.187594 0.187594 0.187594
0.188388 0.188388 0.188388
0.189303 0.189303 0.189303
0.190585 0.190585 0.190585
0.192264 0.192264 0.192264
0.194553 0.194553 0.194553
0.197543 0.197543 0.197543
0.201175 0.201175 0.201175
0.205661 0.205661 0.205661
0.212253 0.212253 0.212253
0.220890 0.220890 0.220890
0.231266 0.231266 0.231266
0.243626 0.243626 0.243626
0.258732 0.258732 0.258732
0.277409 0.277409 0.277409
0.301152 0.301152 0.301152
0.331670 0.331670 0.331670
0.370855 0.370855 0.370855
0.418402 0.418402 0.418402
0.472023 0.472023 0.472023
0.185855 0.185855 0.185855
0.185855 0.185855 0.185855
0.185855 0.185855 0.185855
0.185855 0.185855 0.185855
0.186007 0.186007 0.186007
0.186007 0.186007 0.186007
0.186130 0.186130 0.186130
0.186252 0.186252 0.186252
0.186404 0.186404 0.186404
0.186526 0.186526 0.186526
0.186801 0.186801 0.186801
0.187198 0.187198 0.187198
0.187716 0.187716 0.187716
0.188510 0.188510 0.188510
0.189425 0.189425 0.189425
0.190738 0.190738 0.190738
0.192538 0.192538 0.192538
0.194797 0.194797 0.194797
0.197665 0.197665 0.197665
0.201297 0.201297 0.201297
0.205875 0.205875 0.205875
0.212589 0.212589 0.212589
0.220890 0.220890 0.220890
0.231083 0.231083 0.231083
0.243076 0.243076 0.243076
0.257542 0.257542 0.257542
0.275731 0.275731 0.275731
0.298802 0.298802 0.298802
0.328496 0.328496 0.328496
0.366949 0.366949 0.366949
0.413733 0.413733 0.413733
0.466896 0.466896 0.466896
0.186007 0.186007 0.186007
0.186007 0.186007 0.186007
0.186007 0.186007 0.186007
0.186007 0.186007 0.186007
0.186130 0.186130 0.186130
0.186130 0.186130 0.186130
0.186252 0.186252 0.186252
0.186404 0.186404 0.186404
0.186526 0.186526 0.186526
0.186801 0.186801 0.186801
0.187076 0.187076 0.187076
0.187472 0.187472 0.187472
0.187991 0.187991 0.187991
0.188785 0.188785 0.188785
0.189822 0.189822 0.189822
0.191104 0.191104 0.191104
0.192905 0.192905 0.192905
0.195315 0.195315 0.195315
0.198154 0.198154 0.198154
0.201785 0.201785 0.201785
0.206363 0.206363 0.206363
0.212924 0.212924 0.212924
0.221012 0.221012 0.221012
0.230686 0.230686 0.230686
0.242527 0.242527 0.242527
0.257298 0.257298 0.257298
0.275883 0.275883 0.275883
0.299413 0.299413 0.299413
0.329625 0.329625 0.329625
0.368322 0.368322 0.368322
0.414466 0.414466 0.414466
0.466102 0.466102 0.466102
0.186130 0.186130 0.186130
0.186130 0.186130 0.186130
0.186130 0.186130 0.186130
0.186130 0.186130 0.186130
0.186252 0.186252 0.186252
0.186404 0.186404 0.186404
0.186526 0.186526 0.186526
0.186679 0.186679 0.186679
0.186801 0.186801 0.186801
0.187076 0.187076 0.187076
0.187320 0.187320 0.187320
0.187869 0.187869 0.187869
0.188510 0.188510 0.188510
0.189303 0.189303 0.189303
0.190463 0.190463 0.190463
0.191897 0.191897 0.191897
0.193912 0.193912 0.193912
0.196292 0.196292 0.196292
0.199374 0.199374 0.199374
0.203189 0.203189 0.203189
0.208072 0.208072 0.208072
0.214878 0.214878 0.214878
0.222873 0.222873 0.222873
0.232761 0.232761 0.232761
0.244907 0.244907 0.244907
0.259922 0.259922 0.259922
0.278630 0.278630 0.278630
0.302373 0.302373 0.302373
0.332738 0.332738 0.332738
0.371099 0.371099 0.371099
0.416602 0.416602 0.416602
0.467475 0.467475 0.467475
0.186404 0.186404 0.186404
0.186404 0.186404 0.186404
0.186404 0.186404 0.186404
0.186404 0.186404 0.186404
0.186404 0.186404 0.186404
0.186679 0.186679 0.186679
0.186923 0.186923 0.186923
0.187076 0.187076 0.187076
0.187320 0.187320 0.187320
0.187594 0.187594 0.187594
0.187991 0.187991 0.187991
0.188632 0.188632 0.188632
0.189303 0.189303 0.189303
0.190341 0.190341 0.190341
0.191775 0.191775 0.191775
0.193423 0.193423 0.193423
0.195560 0.195560 0.195560
0.198154 0.198154 0.198154
0.201541 0.201541 0.201541
0.205661 0.205661 0.205661
0.211368 0.211368 0.211368
0.218448 0.218448 0.218448
0.239353 0.239353 0.239353
0.254032 0.254032 0.254032
0.271611 0.271611 0.271611
0.292729 0.292729 0.292729
0.318944 0.318944 0.318944
0.350835 0.350835 0.350835
0.389166 0.389166 0.389166
0.432502 0.432502 0.432502
0.479225 0.479225 0.479225
0.524987 0.524987 0.524987
0.186801 0.186801 0.186801
0.186801 0.186801 0.186801
0.186801 0.186801 0.186801
0.186801 0.186801 0.186801
0.186923 0.186923 0.186923
0.187076 0.187076 0.187076
0.187472 0.187472 0.187472
0.188113 0.188113 0.188113
0.188510 0.188510 0.188510
0.188907 0.188907 0.188907
0.189578 0.189578 0.189578
0.190341 0.190341 0.190341
0.191379 0.191379 0.191379
0.192660 0.192660 0.192660
0.194308 0.194308 0.194308
0.196292 0.196292 0.196292
0.198886 0.198886 0.198886
0.201999 0.201999 0.201999
0.205875 0.205875 0.205875
0.211124 0.211124 0.211124
0.218875 0.218875 0.218875
0.228489 0.228489 0.228489
0.240482 0.240482 0.240482
0.255497 0.255497 0.255497
0.273869 0.273869 0.273869
0.295903 0.295903 0.295903
0.322179 0.322179 0.322179
0.353613 0.353613 0.353613
0.390906 0.390906 0.390906
0.432746 0.432746 0.432746
0.478004 0.478004 0.478004
0.522911 0.522911 0.522911
0.187594 0.187594 0.187594
0.187472 0.187472 0.187472
0.187472 0.187472 0.187472
0.187472 0.187472 0.187472
0.187594 0.187594 0.187594
0.187869 0.187869 0.187869
0.188266 0.188266 0.188266
0.188785 0.188785 0.188785
0.189944 0.189944 0.189944
0.190738 0.190738 0.190738
0.191501 0.191501 0.191501
0.192538 0.192538 0.192538
0.193668 0.193668 0.193668
0.195163 0.195163 0.195163
0.197177 0.197177 0.197177
0.199496 0.199496 0.199496
0.202243 0.202243 0.202243
0.205661 0.205661 0.205661
0.210117 0.210117 0.210117
0.216526 0.216526 0.216526
0.224430 0.224430 0.224430
0.234195 0.234195 0.234195
0.246525 0.246525 0.246525
0.261997 0.261997 0.261997
0.280827 0.280827 0.280827
0.303166 0.303166 0.303166
0.329808 0.329808 0.329808
0.361334 0.361334 0.361334
0.398444 0.398444 0.398444
0.439643 0.439643 0.439643
0.483619 0.483619 0.483619
0.527031 0.527031 0.527031
0.188907 0.188907 0.188907
0.188907 0.188907 0.188907
0.188785 0.188785 0.188785
0.188785 0.188785 0.188785
0.188785 0.188785 0.188785
0.189029 0.189029 0.189029
0.189578 0.189578 0.189578
0.190219 0.190219 0.190219
0.191257 0.191257 0.191257
0.192782 0.192782 0.192782
0.194553 0.194553 0.194553
0.195804 0.195804 0.195804
0.197299 0.197299 0.197299
0.199130 0.199130 0.199130
0.201297 0.201297 0.201297
0.203891 0.203891 0.203891
0.207034 0.207034 0.207034
0.211246 0.211246 0.211246
0.216953 0.216953 0.216953
0.223819 0.223819 0.223819
0.232273 0.232273 0.232273
0.242710 0.242710 0.242710
0.255772 0.255772 0.255772
0.271916 0.271916 0.271916
0.291722 0.291722 0.291722
0.315007 0.315007 0.315007
0.342657 0.342657 0.342657
0.375036 0.375036 0.375036
0.411933 0.411933 0.411933
0.452277 0.452277 0.452277
0.494697 0.494697 0.494697
0.535912 0.535912 0.535912
0.190982 0.190982 0.190982
0.190982 0.190982 0.190982
0.190860 0.190860 0.190860
0.190860 0.190860 0.190860
0.190860 0.190860 0.190860
0.190860 0.190860 0.190860
0.191501 0.191501 0.191501
0.192264 0.192264 0.192264
0.193423 0.193423 0.193423
0.194797 0.194797 0.194797
0.197024 0.197024 0.197024
0.200198 0.200198 0.200198
0.201999 0.201999 0.201999
0.204135 0.204135 0.204135
0.206821 0.206821 0.206821
0.209903 0.209903 0.209903
0.214450 0.214450 0.214450
0.219730 0.219730 0.219730
0.226169 0.226169 0.226169
0.233829 0.233829 0.233829
0.242985 0.242985 0.242985
0.253880 0.253880 0.253880
0.267063 0.267063 0.267063
0.283360 0.283360 0.283360
0.302892 0.302892 0.302892
0.326055 0.326055 0.326055
0.354162 0.354162 0.354162
0.386664 0.386664 0.386664
0.423651 0.423651 0.423651
0.464027 0.464027 0.464027
0.505425 0.505425 0.505425
0.545556 0.545556 0.545556
0.193912 0.193912 0.193912
0.193912 0.193912 0.193912
0.193912 0.193912 0.193912
0.193790 0.193790 0.193790
0.193790 0.193790 0.193790
0.193790 0.193790 0.193790
0.194308 0.194308 0.194308
0.195315 0.195315 0.195315
0.196536 0.196536 0.196536
0.198276 0.198276 0.198276
0.200443 0.200443 0.200443
0.203311 0.203311 0.203311
0.208774 0.208774 0.208774
0.211368 0.211368 0.211368
0.215122 0.215122 0.215122
0.219516 0.219516 0.219516
0.224643 0.224643 0.224643
0.230686 0.230686 0.230686
0.237766 0.237766 0.237766
0.246098 0.246098 0.246098
0.256016 0.256016 0.256016
0.267796 0.267796 0.267796
0.282261 0.282261 0.282261
0.299779 0.299779 0.299779
0.320806 0.320806 0.320806
0.345769 0.345769 0.345769
0.374670 0.374670 0.374670
0.407630 0.407630 0.407630
0.444282 0.444282 0.444282
0.483406 0.483406 0.483406
0.522515 0.522515 0.522515
0.559716 0.559716 0.559716
0.198398 0.198398 0.198398
0.198398 0.198398 0.198398
0.198398 0.198398 0.198398
0.198276 0.198276 0.198276
0.198276 0.198276 0.198276
0.198154 0.198154 0.198154
0.198276 0.198276 0.198276
0.199496 0.199496 0.199496
0.201175 0.201175 0.201175
0.203189 0.203189 0.203189
0.205661 0.205661 0.205661
0.209323 0.209323 0.209323
0.219852 0.219852 0.219852
0.231876 0.231876 0.231876
0.237461 0.237461 0.237461
0.243992 0.243992 0.243992
0.251438 0.251438 0.251438
0.260075 0.260075 0.260075
0.270176 0.270176 0.270176
0.282017 0.282017 0.282017
0.295537 0.295537 0.295537
0.311467 0.311467 0.311467
0.330480 0.330480 0.330480
0.352605 0.352605 0.352605
0.377844 0.377844 0.377844
0.405341 0.405341 0.405341
0.434913 0.434913 0.434913
0.465949 0.465949 0.465949
0.498299 0.498299 0.498299
0.530663 0.530663 0.530663
0.562280 0.562280 0.562280
0.593194 0.593194 0.593194
0.206455 0.206455 0.206455
0.206363 0.206363 0.206363
0.206363 0.206363 0.206363
0.206119 0.206119 0.206119
0.205875 0.205875 0.205875
0.205661 0.205661 0.205661
0.205539 0.205539 0.205539
0.206821 0.206821 0.206821
0.209232 0.209232 0.209232
0.212345 0.212345 0.212345
0.216403 0.216403 0.216403
0.221836 0.221836 0.221836
0.228489 0.228489 0.228489
0.236912 0.236912 0.236912
0.255161 0.255161 0.255161
0.262577 0.262577 0.262577
0.270817 0.270817 0.270817
0.280003 0.280003 0.280003
0.290501 0.290501 0.290501
0.302556 0.302556 0.302556
0.316655 0.316655 0.316655
0.333562 0.333562 0.333562
0.353185 0.353185 0.353185
0.375738 0.375738 0.375738
0.400824 0.400824 0.400824
0.428107 0.428107 0.428107
0.457069 0.457069 0.457069
0.487282 0.487251 0.487251
0.517693 0.517693 0.517693
0.548028 0.548028 0.548028
0.577630 0.577630 0.577630
0.606226 0.606226 0.606226
0.217075 0.217075 0.217075
0.216953 0.216953 0.216953
0.216739 0.216739 0.216739
0.216526 0.216526 0.216526
0.216312 0.216312 0.216312
0.215976 0.215976 0.215976
0.215763 0.215763 0.215763
0.215976 0.215976 0.215976
0.218662 0.218662 0.218662
0.222141 0.222141 0.222141
0.226780 0.226780 0.226780
0.232853 0.232853 0.232853
0.240391 0.240391 0.240391
0.249485 0.249485 0.249485
0.260258 0.260258 0.260258
0.282475 0.282475 0.282475
0.294926 0.294926 0.294926
0.304784 0.304784 0.304784
0.316167 0.316167 0.316167
0.329015 0.329015 0.329015
0.344182 0.344182 0.344182
0.361944 0.361944 0.361944
0.382300 0.382300 0.382300
0.405493 0.405493 0.405493
0.430488 0.430488 0.430488
0.456947 0.456947 0.456947
0.484657 0.484657 0.484657
0.512291 0.512291 0.512291
0.540185 0.540185 0.540185
0.567864 0.567864 0.567864
0.594842 0.594842 0.594842
0.620905 0.620905 0.620905
0.231479 0.231479 0.231479
0.231388 0.231388 0.231388
0.231083 0.231083 0.231083
0.230686 0.230686 0.230686
0.230076 0.230076 0.230076
0.229496 0.229496 0.229496
0.228977 0.228977 0.228977
0.228580 0.228580 0.228580
0.230472 0.230472 0.230472
0.234501 0.234501 0.234501
0.239841 0.239841 0.239841
0.246708 0.246708 0.246708
0.255161 0.255161 0.255161
0.265202 0.265202 0.265202
0.277043 0.277043 0.277043
0.290288 0.290288 0.290288
0.316472 0.316472 0.316472
0.336431 0.336431 0.336431
0.348608 0.348608 0.348608
0.362249 0.362249 0.362249
0.377844 0.377844 0.377844
0.395880 0.395880 0.395880
0.416388 0.416388 0.416388
0.438788 0.438788 0.438788
0.462867 0.462867 0.462867
0.488045 0.488045 0.488045
0.513481 0.513481 0.513481
0.539117 0.539117 0.539117
0.564752 0.564752 0.564752
0.590509 0.590509 0.590509
0.615625 0.615625 0.615625
0.639612 0.639612 0.639612
0.249058 0.249058 0.249058
0.249058 0.249058 0.249058
0.248875 0.248875 0.248875
0.248600 0.248600 0.248600
0.247959 0.247959 0.247959
0.247532 0.247532 0.247532
0.247257 0.247257 0.247257
0.246983 0.246983 0.246983
0.247349 0.247349 0.247349
0.252140 0.252140 0.252140
0.258152 0.258152 0.258152
0.265507 0.265507 0.265507
0.274327 0.274327 0.274327
0.284703 0.284703 0.284703
0.296605 0.296605 0.296605
0.310216 0.310216 0.310216
0.325933 0.325933 0.325933
0.355413 0.355413 0.355413
0.384649 0.384649 0.384649
0.398657 0.398657 0.398657
0.414954 0.414954 0.414954
0.433234 0.433234 0.433234
0.453437 0.453437 0.453437
0.475410 0.475410 0.475410
0.498299 0.498299 0.498299
0.521477 0.521477 0.521477
0.544640 0.544640 0.544640
0.567468 0.567468 0.567468
0.590143 0.590143 0.590143
0.612512 0.612512 0.612512
0.634119 0.634119 0.634119
0.655116 0.655116 0.655116
0.270970 0.270970 0.270970
0.270970 0.270970 0.270970
0.270726 0.270726 0.270726
0.270420 0.270420 0.270420
0.270024 0.270024 0.270024
0.269474 0.269474 0.269474
0.269078 0.269078 0.269078
0.268742 0.268742 0.268742
0.268498 0.268498 0.268498
0.271763 0.271763 0.271763
0.278477 0.278477 0.278477
0.286595 0.286595 0.286595
0.296452 0.296452 0.296452
0.307836 0.307836 0.307836
0.320867 0.320867 0.320867
0.335729 0.335729 0.335729
0.352270 0.352270 0.352270
0.371191 0.371191 0.371191
0.402228 0.402228 0.402228
0.440009 0.440009 0.440009
0.455543 0.455543 0.455543
0.473030 0.473030 0.473030
0.492042 0.492042 0.492042
0.511772 0.511772 0.511772
0.532097 0.532097 0.532097
0.552636 0.552636 0.552636
0.573358 0.573358 0.573358
0.593927 0.593927 0.593927
0.614191 0.614191 0.614191
0.633661 0.633661 0.633661
0.652827 0.652827 0.652827
0.671717 0.671717 0.671717
0.301061 0.301061 0.301061
0.301213 0.301213 0.301213
0.321324 0.321324 0.321324
0.320867 0.320867 0.320867
0.320317 0.320317 0.320317
0.319249 0.319249 0.319249
0.318181 0.318181 0.318181
0.317296 0.317296 0.317296
0.316655 0.316655 0.316655
0.316838 0.316838 0.316838
0.325444 0.325444 0.325444
0.335912 0.335912 0.335912
0.347784 0.347784 0.347784
0.360815 0.360815 0.360815
0.375036 0.375036 0.375036
0.390570 0.390570 0.390570
0.406775 0.406775 0.406775
0.424140 0.424140 0.424140
0.443214 0.443214 0.443214
0.471107 0.471107 0.471107
0.512200 0.512200 0.512200
0.525994 0.525994 0.525994
0.540764 0.540764 0.540764
0.556237 0.556237 0.556237
0.571679 0.571679 0.571679
0.587518 0.587518 0.587518
0.603571 0.603571 0.603571
0.619898 0.619898 0.619898
0.636591 0.636591 0.636591
0.653407 0.653407 0.653407
0.670405 0.670405 0.670405
0.687800 0.687800 0.687800
0.346777 0.346777 0.346777
0.349065 0.349065 0.349065
0.351263 0.351263 0.351263
0.353307 0.353307 0.353307
0.354376 0.354376 0.354376
0.354070 0.354070 0.354070
0.353185 0.353185 0.353185
0.351812 0.351812 0.351812
0.350958 0.350958 0.350958
0.350072 0.350072 0.350072
0.354925 0.354925 0.354925
0.365606 0.365606 0.365606
0.377478 0.377478 0.377478
0.390661 0.390661 0.390661
0.405005 0.405005 0.405005
0.420294 0.420294 0.420294
0.436591 0.436591 0.436591
0.454017 0.454017 0.454017
0.472694 0.472694 0.472694
0.492134 0.492134 0.492134
0.516320 0.516320 0.516320
0.558740 0.558740 0.558740
0.571679 0.571679 0.571679
0.584924 0.584924 0.584924
0.598352 0.598352 0.598352
0.611902 0.611902 0.611902
0.625544 0.625544 0.625544
0.639612 0.639612 0.639612
0.654170 0.654170 0.654170
0.669337 0.669337 0.669337
0.685267 0.685267 0.685267
0.702113 0.702113 0.702113
0.388678 0.388678 0.388678
0.391302 0.391302 0.391302
0.394110 0.394110 0.394110
0.396490 0.396490 0.396490
0.398047 0.398047 0.398047
0.398047 0.398047 0.398047
0.397101 0.397101 0.397101
0.395789 0.395789 0.395789
0.394720 0.394720 0.394720
0.393500 0.393500 0.393500
0.392462 0.392462 0.392462
0.403174 0.403174 0.403174
0.415045 0.415045 0.415045
0.428107 0.428107 0.428107
0.442115 0.442115 0.442115
0.456855 0.456855 0.456855
0.472389 0.472389 0.472389
0.488441 0.488441 0.488441
0.505119 0.505119 0.505119
0.522240 0.522240 0.522240
0.539574 0.539574 0.539574
0.558740 0.558740 0.558740
0.596216 0.596216 0.596216
0.611231 0.611231 0.611231
0.622644 0.622644 0.622644
0.634180 0.634180 0.634180
0.645869 0.645869 0.645869
0.658106 0.658106 0.658106
0.671138 0.671138 0.671138
0.685084 0.685084 0.685084
0.700252 0.700252 0.700252
0.716487 0.716487 0.716487
0.436835 0.436835 0.436835
0.439399 0.439399 0.439399
0.441993 0.441993 0.441993
0.444404 0.444404 0.444404
0.445808 0.445808 0.445808
0.445808 0.445808 0.445808
0.445106 0.445106 0.445106
0.443915 0.443915 0.443915
0.442847 0.442847 0.442847
0.441566 0.441566 0.441566
0.440620 0.440620 0.440620
0.445106 0.445106 0.445106
0.456336 0.456336 0.456336
0.468727 0.468727 0.468727
0.481758 0.481758 0.481758
0.495766 0.495766 0.495766
0.510460 0.510460 0.510460
0.525628 0.525628 0.525628
0.541497 0.541497 0.541497
0.557763 0.557763 0.557763
0.574334 0.574334 0.574334
0.590723 0.590723 0.590723
0.606378 0.606378 0.606378
0.637446 0.637446 0.637446
0.653529 0.653529 0.653529
0.663783 0.663783 0.663783
0.674281 0.674281 0.674281
0.685542 0.685542 0.685542
0.697902 0.697902 0.697902
0.711391 0.711391 0.711391
0.725795 0.725795 0.725795
0.740414 0.740414 0.740414
0.504204 0.504204 0.504204
0.505211 0.505211 0.505211
0.506035 0.506035 0.506035
0.506249 0.506249 0.506249
0.505852 0.505852 0.505852
0.504906 0.504906 0.504906
0.503807 0.503807 0.503807
0.502342 0.502342 0.502342
0.501305 0.501305 0.501305
0.500450 0.500450 0.500450
0.499763 0.499763 0.499763
0.498939 0.498939 0.498939
0.508263 0.508263 0.508263
0.518761 0.518761 0.518761
0.529747 0.529747 0.529747
0.541039 0.541039 0.541039
0.552819 0.552819 0.552819
0.565026 0.565026 0.565026
0.577539 0.577539 0.577539
0.590356 0.590356 0.590356
0.603296 0.603296 0.603296
0.616144 0.616144 0.616144
0.628504 0.628504 0.628504
0.640406 0.640406 0.640406
0.664668 0.664668 0.664668
0.681331 0.681331 0.681331
0.691402 0.691402 0.691402
0.702296 0.702296 0.702296
0.714229 0.714229 0.714229
0.726894 0.726894 0.726894
0.739986 0.739986 0.739986
0.753323 0.753323 0.753323
0.549584 0.549584 0.549584
0.550317 0.550317 0.550317
0.550835 0.550835 0.550835
0.551141 0.551141 0.551141
0.550896 0.550896 0.550896
0.550317 0.550317 0.550317
0.549401 0.549401 0.549401
0.548455 0.548455 0.548455
0.547631 0.547631 0.547631
0.547051 0.547051 0.547051
0.546410 0.546410 0.546410
0.545830 0.545830 0.545830
0.549065 0.549065 0.549065
0.558038 0.558038 0.558038
0.567376 0.567376 0.567376
0.577111 0.577111 0.577111
0.587304 0.587304 0.587304
0.597742 0.597742 0.597742
0.608453 0.608453 0.608453
0.619257 0.619257 0.619257
0.630060 0.630060 0.630060
0.640864 0.640864 0.640864
0.651514 0.651514 0.651514
0.661891 0.661891 0.661891
0.666987 0.666987 0.666987
0.687495 0.687495 0.687495
0.706264 0.706264 0.706264
0.716823 0.716823 0.716823
0.728023 0.728023 0.728023
0.739742 0.739742 0.739742
0.752010 0.752010 0.752010
0.764614 0.764614 0.764614
0.597559 0.597559 0.597559
0.598779 0.598779 0.598779
0.599237 0.599237 0.599237
0.598840 0.598840 0.598840
0.597894 0.597894 0.597894
0.596399 0.596399 0.596399
0.594629 0.594629 0.594629
0.592798 0.592798 0.592798
0.590906 0.590906 0.590906
0.589227 0.589227 0.589227
0.587579 0.587579 0.587579
0.586114 0.586114 0.586114
0.584741 0.584741 0.584741
0.590448 0.590448 0.590448
0.597253 0.597253 0.597253
0.604456 0.604456 0.604456
0.612207 0.612207 0.612207
0.620569 0.620569 0.620569
0.629511 0.629511 0.629511
0.639002 0.639002 0.639002
0.648676 0.648676 0.648676
0.658228 0.658228 0.658228
0.667475 0.667475 0.667475
0.676387 0.676387 0.676387
0.685115 0.685115 0.685115
0.693751 0.693751 0.693751
0.711818 0.711818 0.711818
0.731594 0.731594 0.731594
0.741451 0.741451 0.741451
0.752010 0.752010 0.752010
0.763210 0.763210 0.763210
0.774960 0.774960 0.774960
0.627588 0.627588 0.627588
0.628504 0.628504 0.628504
0.629114 0.629114 0.629114
0.629145 0.629145 0.629145
0.628809 0.628809 0.628809
0.628290 0.628290 0.628290
0.627680 0.627680 0.627680
0.627008 0.627008 0.627008
0.626429 0.626429 0.626429
0.625910 0.625910 0.625910
0.625360 0.625360 0.625360
0.624781 0.624781 0.624781
0.623926 0.623926 0.623926
0.625299 0.625299 0.625299
0.630671 0.630671 0.630671
0.636347 0.636347 0.636347
0.642451 0.642451 0.642451
0.649012 0.649012 0.649012
0.656275 0.656275 0.656275
0.664057 0.664057 0.664057
0.672236 0.672236 0.672236
0.680629 0.680629 0.680629
0.689143 0.689143 0.689143
0.697719 0.697719 0.697719
0.706233 0.706233 0.706233
0.714717 0.714717 0.714717
0.723171 0.723171 0.723171
0.738705 0.738705 0.738705
0.758450 0.758450 0.758450
0.768032 0.768032 0.768032
0.778225 0.778225 0.778225
0.789090 0.789090 0.789090
0.658961 0.658961 0.658961
0.659449 0.659449 0.659449
0.659541 0.659541 0.659541
0.659449 0.659449 0.659449
0.659113 0.659113 0.659113
0.658625 0.658625 0.658625
0.658015 0.658015 0.658015
0.657435 0.657435 0.657435
0.656855 0.656855 0.656855
0.656367 0.656367 0.656367
0.655848 0.655848 0.655848
0.655329 0.655329 0.655329
0.654810 0.654810 0.654810
0.654017 0.654017 0.654017
0.657679 0.657679 0.657679
0.662287 0.662287 0.662287
0.667353 0.667353 0.667353
0.672938 0.672938 0.672938
0.679164 0.679164 0.679164
0.686061 0.686061 0.686061
0.693507 0.693507 0.693507
0.701259 0.701259 0.701259
0.709102 0.709102 0.709102
0.717067 0.717067 0.717067
0.724849 0.724849 0.724849
0.732326 0.732326 0.732326
0.739773 0.739773 0.739773
0.747066 0.747066 0.747066
0.759976 0.759976 0.759976
0.778561 0.778561 0.778561
0.789578 0.789578 0.789578
0.799893 0.799893 0.799893
0.685023 0.685023 0.685023
0.685389 0.685389 0.685389
0.685634 0.685634 0.685634
0.685695 0.685695 0.685695
0.685756 0.685756 0.685756
0.685908 0.685908 0.685908
0.686519 0.686519 0.686519
0.687373 0.687373 0.687373
0.688380 0.688380 0.688380
0.689631 0.689631 0.689631
0.690974 0.690974 0.690974
0.692164 0.692164 0.692164
0.693172 0.693172 0.693172
0.693812 0.693812 0.693812
0.695491 0.695491 0.695491
0.700038 0.700038 0.700038
0.704799 0.704799 0.704799
0.709957 0.709957 0.709957
0.715724 0.715724 0.715724
0.721981 0.721981 0.721981
0.728542 0.728542 0.728542
0.735195 0.735195 0.735195
0.741787 0.741787 0.741787
0.748287 0.748287 0.748287
0.754604 0.754604 0.754604
0.760800 0.760800 0.760800
0.766995 0.766995 0.766995
0.773159 0.773159 0.773159
0.779416 0.779416 0.779416
0.789761 0.789761 0.789761
0.806577 0.806577 0.806577
0.818173 0.818173 0.818173
0.721889 0.721889 0.721889
0.721889 0.721889 0.721889
0.721798 0.721798 0.721798
0.721553 0.721553 0.721553
0.721340 0.721340 0.721340
0.721035 0.721035 0.721035
0.720821 0.720821 0.720821
0.720668 0.720668 0.720668
0.720668 0.720668 0.720668
0.720729 0.720729 0.720729
0.720882 0.720882 0.720882
0.721035 0.721035 0.721035
0.721157 0.721157 0.721157
0.721126 0.721126 0.721126
