20 Preset/Art Style/【3】LUT video cho PR-AE-FCPX/Black _ White HC --.cube
# Created by Adobe Lightroom plugin Export LUT (1.24.0)
# www.johnrellis.com/lightroom/exportlut.htm
# Preset: Black & White HC --
# Color profile: E:\lut插件\exportlut.1.24\exportlut.lrplugin\color profiles\Rec709gamma2.4.icc
LUT_3D_SIZE 5
DOMAIN_MIN 0.000000 0.000000 0.000000
DOMAIN_MAX 0.903226 0.903226 0.903226
0.000000 0.000000 0.000000
0.040040 0.040040 0.040040
0.137087 0.137087 0.137087
0.303441 0.303441 0.303441
0.578820 0.578820 0.578820
0.119051 0.119051 0.119051
0.134371 0.134371 0.134371
0.209659 0.209659 0.209659
0.379126 0.379126 0.379126
0.633112 0.633112 0.633112
0.421546 0.421546 0.421546
0.425269 0.425269 0.425269
0.499367 0.499367 0.499367
0.625666 0.625666 0.625666
0.749660 0.749660 0.749660
0.752804 0.752804 0.752804
0.755764 0.755764 0.755764
0.768704 0.768704 0.768704
0.793454 0.793454 0.793454
0.854368 0.854368 0.854368
0.904448 0.904448 0.904448
0.905425 0.905425 0.905425
0.903685 0.903685 0.903685
0.915984 0.915984 0.915984
0.931121 0.931121 0.931121
0.018555 0.018555 0.018555
0.043946 0.043946 0.043946
0.150851 0.150851 0.150851
0.316533 0.316533 0.316533
0.558587 0.558587 0.558587
0.110933 0.110933 0.110933
0.139315 0.139315 0.139315
0.219211 0.219211 0.219211
0.377630 0.377630 0.377630
0.605676 0.605676 0.605676
0.411444 0.411444 0.411444
0.419104 0.419104 0.419104
0.470863 0.470863 0.470863
0.599390 0.599390 0.599390
0.744045 0.744045 0.744045
0.751278 0.751278 0.751278
0.754971 0.754971 0.754971
0.767544 0.767544 0.767544
0.791409 0.791409 0.791409
0.852628 0.852628 0.852628
0.904021 0.904021 0.904021
0.904784 0.904784 0.904784
0.909392 0.909392 0.909392
0.919341 0.919341 0.919341
0.934295 0.934295 0.934295
0.090425 0.090425 0.090425
0.103731 0.103731 0.103731
0.155917 0.155917 0.155917
0.331365 0.331365 0.331365
0.571527 0.571527 0.571527
0.173068 0.173068 0.173068
0.182345 0.182345 0.182345
0.227695 0.227695 0.227695
0.395544 0.395544 0.395544
0.618830 0.618830 0.618830
0.370123 0.370123 0.370123
0.394873 0.394873 0.394873
0.493019 0.493019 0.493019
0.607172 0.607172 0.607172
0.739986 0.739986 0.739986
0.747066 0.747066 0.747066
0.749294 0.749294 0.749294
0.764462 0.764462 0.764462
0.790494 0.790494 0.790494
0.847745 0.847745 0.847745
0.900481 0.900481 0.900481
0.901946 0.901946 0.901946
0.907073 0.907073 0.907073
0.916533 0.916533 0.916533
0.931456 0.931456 0.931456
0.170993 0.170993 0.170993
0.184237 0.184237 0.184237
0.235264 0.235264 0.235264
0.332860 0.332860 0.332860
0.560143 0.560143 0.560143
0.252903 0.252903 0.252903
0.263401 0.263401 0.263401
0.305852 0.305852 0.305852
0.390478 0.390478 0.390478
0.601404 0.601404 0.601404
0.422065 0.422065 0.422065
0.457984 0.457984 0.457984
0.541558 0.541558 0.541558
0.593530 0.593530 0.593530
0.731044 0.731044 0.731044
0.700740 0.700740 0.700740
0.707424 0.707424 0.707424
0.740078 0.740078 0.740078
0.792142 0.792142 0.792142
0.841520 0.841520 0.841520
0.895995 0.895995 0.895995
0.897795 0.897795 0.897795
0.906432 0.906432 0.906432
0.918029 0.918029 0.918029
0.932341 0.932341 0.932341
0.354589 0.354589 0.354589
0.365423 0.365423 0.365423
0.410559 0.410559 0.410559
0.489540 0.489540 0.489540
0.606256 0.606256 0.606256
0.422400 0.422400 0.422400
0.431556 0.431556 0.431556
0.469673 0.469673 0.469673
0.538415 0.538415 0.538415
0.639124 0.639124 0.639124
0.625238 0.625238 0.625238
0.629114 0.629114 0.629114
0.648585 0.648585 0.648585
0.682918 0.682918 0.682918
0.737270 0.737270 0.737270
0.740505 0.740505 0.740505
0.744167 0.744167 0.744167
0.765774 0.765774 0.765774
0.815366 0.815366 0.815366
0.840421 0.840421 0.840421
0.876799 0.876799 0.876799
0.878752 0.878752 0.878752
0.888182 0.888182 0.888182
0.906462 0.906462 0.906462
0.936492 0.936492 0.936492
