20 Preset/Art Style/【3】LUT video cho PR-AE-FCPX/Black _ White HC -.cube
# Created by Adobe Lightroom plugin Export LUT (1.24.0)
# www.johnrellis.com/lightroom/exportlut.htm
# Preset: Black & White HC -
# Color profile: E:\lut插件\exportlut.1.24\exportlut.lrplugin\color profiles\Rec709gamma2.4.icc
LUT_3D_SIZE 5
DOMAIN_MIN 0.000000 0.000000 0.000000
DOMAIN_MAX 0.903226 0.903226 0.903226
0.000000 0.000000 0.000000
0.008789 0.008789 0.008789
0.055665 0.055665 0.055665
0.130709 0.130709 0.130709
0.271763 0.271763 0.271763
0.032227 0.032227 0.032227
0.049805 0.049805 0.049805
0.098054 0.098054 0.098054
0.164187 0.164187 0.164187
0.314946 0.314946 0.314946
0.160616 0.160616 0.160616
0.157626 0.157626 0.157626
0.215213 0.215213 0.215213
0.316075 0.316075 0.316075
0.465339 0.465339 0.465339
0.404578 0.404578 0.404578
0.403265 0.403265 0.403265
0.429725 0.429725 0.429725
0.534844 0.534844 0.534844
0.700862 0.700862 0.700862
0.753780 0.753780 0.753780
0.753689 0.753689 0.753689
0.742824 0.742824 0.742824
0.787411 0.787411 0.787411
0.838132 0.838132 0.838132
0.018555 0.018555 0.018555
0.039063 0.039063 0.039063
0.107546 0.107546 0.107546
0.185061 0.185061 0.185061
0.319127 0.319127 0.319127
0.082399 0.082399 0.082399
0.109560 0.109560 0.109560
0.142672 0.142672 0.142672
0.215000 0.215000 0.215000
0.353887 0.353887 0.353887
0.217166 0.217166 0.217166
0.214572 0.214572 0.214572
0.256199 0.256199 0.256199
0.351659 0.351659 0.351659
0.505119 0.505119 0.505119
0.462684 0.462684 0.462684
0.462440 0.462440 0.462440
0.476722 0.476722 0.476722
0.572595 0.572595 0.572595
0.718257 0.718257 0.718257
0.769680 0.769680 0.769680
0.769192 0.769192 0.769192
0.769528 0.769528 0.769528
0.801633 0.801633 0.801633
0.848264 0.848264 0.848264
0.111482 0.111482 0.111482
0.126925 0.126925 0.126925
0.176730 0.176730 0.176730
0.308507 0.308507 0.308507
0.470588 0.470588 0.470588
0.174838 0.174838 0.174838
0.186801 0.186801 0.186801
0.233616 0.233616 0.233616
0.357305 0.357305 0.357305
0.515129 0.515129 0.515129
0.289586 0.289586 0.289586
0.321874 0.321874 0.321874
0.451942 0.451942 0.451942
0.523308 0.523308 0.523308
0.636713 0.636713 0.636713
0.613794 0.613794 0.613794
0.628016 0.628016 0.628016
0.637903 0.637903 0.637903
0.686213 0.686213 0.686213
0.768246 0.768246 0.768246
0.813535 0.813535 0.813535
0.813931 0.813931 0.813931
0.814267 0.814267 0.814267
0.826505 0.826505 0.826505
0.864591 0.864591 0.864591
0.273106 0.273106 0.273106
0.290867 0.290867 0.290867
0.359167 0.359167 0.359167
0.449104 0.449104 0.449104
0.612696 0.612696 0.612696
0.344427 0.344427 0.344427
0.358434 0.358434 0.358434
0.414862 0.414862 0.414862
0.493629 0.493629 0.493629
0.645930 0.645930 0.645930
0.472572 0.472572 0.472572
0.508537 0.508537 0.508537
0.594293 0.594293 0.594293
0.648371 0.648371 0.648371
0.750698 0.750698 0.750698
0.654749 0.654749 0.654749
0.668025 0.668025 0.668025
0.722255 0.722255 0.722255
0.797910 0.797910 0.797910
0.828885 0.828885 0.828885
0.847776 0.847776 0.847776
0.851530 0.851530 0.851530
0.867826 0.867826 0.867826
0.877531 0.877531 0.877531
0.898283 0.898283 0.898283
0.648585 0.648585 0.648585
0.658045 0.658045 0.658045
0.693294 0.693294 0.693294
0.745632 0.745632 0.745632
0.782834 0.782834 0.782834
0.682185 0.682185 0.682185
0.689540 0.689540 0.689540
0.718044 0.718044 0.718044
0.761196 0.761196 0.761196
0.793942 0.793942 0.793942
0.763394 0.763394 0.763394
0.766903 0.766903 0.766903
0.781674 0.781674 0.781674
0.806760 0.806760 0.806760
0.830533 0.830533 0.830533
0.799435 0.799435 0.799435
0.804379 0.804379 0.804379
0.826078 0.826078 0.826078
0.864103 0.864103 0.864103
0.884520 0.884520 0.884520
0.869017 0.869017 0.869017
0.872282 0.872282 0.872282
0.886259 0.886259 0.886259
0.912322 0.912322 0.912322
0.949310 0.949310 0.949310
