20 Preset/Art Style/【3】LUT video cho PR-AE-FCPX/Black _ White HC --.cube
# Created by Adobe Lightroom plugin Export LUT (1.24.0)
# www.johnrellis.com/lightroom/exportlut.htm
# Preset: Black & White HC --
# Color profile: E:\lut插件\exportlut.1.24\exportlut.lrplugin\color profiles\Rec709gamma2.4.icc
LUT_3D_SIZE 32
DOMAIN_MIN 0.0 0.0 0.0
DOMAIN_MAX 1.0 1.0 1.0
0.000000 0.000000 0.000000
0.000977 0.000977 0.000977
0.001953 0.001953 0.001953
0.004883 0.004883 0.004883
0.010742 0.010742 0.010742
0.018555 0.018555 0.018555
0.027344 0.027344 0.027344
0.040040 0.040040 0.040040
0.055665 0.055665 0.055665
0.073243 0.073243 0.073243
0.088228 0.088228 0.088228
0.097719 0.097719 0.097719
0.109010 0.109010 0.109010
0.122255 0.122255 0.122255
0.137087 0.137087 0.137087
0.154025 0.154025 0.154025
0.172915 0.172915 0.172915
0.194034 0.194034 0.194034
0.216953 0.216953 0.216953
0.242252 0.242252 0.242252
0.269474 0.269474 0.269474
0.303441 0.303441 0.303441
0.341650 0.341650 0.341650
0.379797 0.379797 0.379797
0.417884 0.417884 0.417884
0.456306 0.456306 0.456306
0.495827 0.495827 0.495827
0.536767 0.536767 0.536767
0.578820 0.578820 0.578820
0.620783 0.620783 0.620783
0.661097 0.661097 0.661097
0.699397 0.699397 0.699397
0.001953 0.001953 0.001953
0.001953 0.001953 0.001953
0.002930 0.002930 0.002930
0.006836 0.006836 0.006836
0.011719 0.011719 0.011719
0.019532 0.019532 0.019532
0.028321 0.028321 0.028321
0.040040 0.040040 0.040040
0.055665 0.055665 0.055665
0.073243 0.073243 0.073243
0.087861 0.087861 0.087861
0.097047 0.097047 0.097047
0.108125 0.108125 0.108125
0.121523 0.121523 0.121523
0.136263 0.136263 0.136263
0.152987 0.152987 0.152987
0.171603 0.171603 0.171603
0.192264 0.192264 0.192264
0.215122 0.215122 0.215122
0.239933 0.239933 0.239933
0.266667 0.266667 0.266667
0.299504 0.299504 0.299504
0.336034 0.336034 0.336034
0.372656 0.372656 0.372656
0.409369 0.409369 0.409369
0.446937 0.446937 0.446937
0.485725 0.485725 0.485725
0.526299 0.526299 0.526299
0.568566 0.568566 0.568566
0.611170 0.611170 0.611170
0.652522 0.652522 0.652522
0.691829 0.691829 0.691829
0.006836 0.006836 0.006836
0.006836 0.006836 0.006836
0.007813 0.007813 0.007813
0.011719 0.011719 0.011719
0.016602 0.016602 0.016602
0.024414 0.024414 0.024414
0.034180 0.034180 0.034180
0.046876 0.046876 0.046876
0.061524 0.061524 0.061524
0.078737 0.078737 0.078737
0.090059 0.090059 0.090059
0.099367 0.099367 0.099367
0.110109 0.110109 0.110109
0.123201 0.123201 0.123201
0.137911 0.137881 0.137911
0.154391 0.154391 0.154391
0.173068 0.173068 0.173068
0.193668 0.193668 0.193668
0.216098 0.216098 0.216098
0.240940 0.240940 0.240940
0.267552 0.267552 0.267552
0.300664 0.300664 0.300664
0.335973 0.335973 0.335973
0.371710 0.371710 0.371710
0.407721 0.407721 0.407721
0.444190 0.444190 0.444190
0.482460 0.482460 0.482460
0.522698 0.522698 0.522698
0.564813 0.564813 0.564813
0.607599 0.607599 0.607599
0.649042 0.649042 0.649042
0.688472 0.688472 0.688472
0.017578 0.017578 0.017578
0.017578 0.017578 0.017578
0.018555 0.018555 0.018555
0.021485 0.021485 0.021485
0.029297 0.029297 0.029297
0.038087 0.038087 0.038087
0.048829 0.048829 0.048829
0.060548 0.060548 0.060548
0.075196 0.075196 0.075196
0.087251 0.087251 0.087251
0.095033 0.095033 0.095033
0.104341 0.104341 0.104341
0.115206 0.115206 0.115206
0.128054 0.128054 0.128054
0.142458 0.142458 0.142458
0.158968 0.158968 0.158968
0.177157 0.177157 0.177157
0.197177 0.197177 0.197177
0.219303 0.219303 0.219303
0.243442 0.243442 0.243442
0.269383 0.269383 0.269383
0.301946 0.301946 0.301946
0.335790 0.335790 0.335790
0.370489 0.370489 0.370489
0.406256 0.406256 0.406256
0.443427 0.443427 0.443427
0.482643 0.482643 0.482643
0.523491 0.523491 0.523491
0.566155 0.566155 0.566155
0.608759 0.608759 0.608759
0.649531 0.649531 0.649531
0.687892 0.687892 0.687892
0.038087 0.038087 0.038087
0.039063 0.039063 0.039063
0.040040 0.040040 0.040040
0.043946 0.043946 0.043946
0.048829 0.048829 0.048829
0.062501 0.062501 0.062501
0.071290 0.071290 0.071290
0.081178 0.081178 0.081178
0.088960 0.088960 0.088960
0.095033 0.095033 0.095033
0.102815 0.102815 0.102815
0.112032 0.112032 0.112032
0.122957 0.122957 0.122957
0.135866 0.135866 0.135866
0.150332 0.150332 0.150332
0.166873 0.166873 0.166873
0.185061 0.185061 0.185061
0.205203 0.205203 0.205203
0.227085 0.227085 0.227085
0.251072 0.251072 0.251072
0.277867 0.277867 0.277867
0.309941 0.309941 0.309941
0.342504 0.342504 0.342504
0.376532 0.376532 0.376532
0.411963 0.411963 0.411963
0.448920 0.448920 0.448920
0.487465 0.487465 0.487465
0.527825 0.527825 0.527825
0.569696 0.569696 0.569696
0.611353 0.611353 0.611353
0.651270 0.651270 0.651270
0.688838 0.688838 0.688838
0.071290 0.071290 0.071290
0.072267 0.072267 0.072267
0.073243 0.073243 0.073243
0.076173 0.076173 0.076173
0.080568 0.080568 0.080568
0.084810 0.084810 0.084810
0.092958 0.092958 0.092958
0.096712 0.096712 0.096712
0.101564 0.101564 0.101564
0.107851 0.107851 0.107851
0.115480 0.115480 0.115480
0.124849 0.124849 0.124849
0.136049 0.136049 0.136049
0.148867 0.148867 0.148867
0.163699 0.163699 0.163699
0.179965 0.179965 0.179965
0.198398 0.198398 0.198398
0.218570 0.218570 0.218570
0.240665 0.240665 0.240665
0.264469 0.264469 0.264469
0.293431 0.293431 0.293431
0.324773 0.324773 0.324773
0.395758 0.395758 0.395758
0.433814 0.433814 0.433814
0.471870 0.471870 0.471870
0.510216 0.510216 0.510216
0.549096 0.549096 0.549096
0.587701 0.587701 0.587701
0.625360 0.625360 0.625360
0.661006 0.661006 0.661006
0.694667 0.694667 0.694667
0.726192 0.726192 0.726192
0.098390 0.098390 0.098390
0.098390 0.098390 0.098390
0.099062 0.099062 0.099062
0.100008 0.100008 0.100008
0.102174 0.102174 0.102174
0.105226 0.105226 0.105226
0.109285 0.109285 0.109285
0.120058 0.120058 0.120058
0.124392 0.124392 0.124392
0.130709 0.130709 0.130709
0.138705 0.138705 0.138705
0.148684 0.148684 0.148684
0.160128 0.160128 0.160128
0.173220 0.173220 0.173220
0.188113 0.188113 0.188113
0.204593 0.204593 0.204593
0.222995 0.222995 0.222995
0.243259 0.243259 0.243259
0.265599 0.265599 0.265599
0.292088 0.292088 0.292088
0.325811 0.325811 0.325811
0.361028 0.361028 0.361028
0.398016 0.398016 0.398016
0.436744 0.436744 0.436744
0.475959 0.475959 0.475959
0.514794 0.514794 0.514794
0.553033 0.553033 0.553033
0.590478 0.590478 0.590478
0.626886 0.626886 0.626886
0.661158 0.661158 0.661158
0.693904 0.693904 0.693904
0.724941 0.724941 0.724941
0.119051 0.119051 0.119051
0.119051 0.119051 0.119051
0.119539 0.119539 0.119539
0.120546 0.120546 0.120546
0.122469 0.122469 0.122469
0.125551 0.125551 0.125551
0.129397 0.129397 0.129397
0.134371 0.134371 0.134371
0.145541 0.145541 0.145541
0.154391 0.154391 0.154391
0.162081 0.162081 0.162081
0.171450 0.171450 0.171450
0.182467 0.182467 0.182467
0.195315 0.195315 0.195315
0.209659 0.209659 0.209659
0.225772 0.225772 0.225772
0.243626 0.243626 0.243626
0.263493 0.263493 0.263493
0.286168 0.286168 0.286168
0.315312 0.315312 0.315312
0.346227 0.346227 0.346227
0.379126 0.379126 0.379126
0.413916 0.413916 0.413916
0.450629 0.450629 0.450629
0.488197 0.488197 0.488197
0.525505 0.525505 0.525505
0.562402 0.562402 0.562402
0.598169 0.598169 0.598169
0.633112 0.633112 0.633112
0.666102 0.666102 0.666102
0.697688 0.697688 0.697688
0.727749 0.727749 0.727749
0.144381 0.144381 0.144381
0.144381 0.144381 0.144381
0.144961 0.144961 0.144961
0.145907 0.145907 0.145907
0.147402 0.147402 0.147402
0.150149 0.150149 0.150149
0.153872 0.153872 0.153872
0.158816 0.158816 0.158816
0.164828 0.164828 0.164828
0.176150 0.176150 0.176150
0.190860 0.190860 0.190860
0.200076 0.200076 0.200076
0.210788 0.210788 0.210788
0.223301 0.223301 0.223301
0.237369 0.237369 0.237369
0.252811 0.252811 0.252811
0.270329 0.270329 0.270329
0.290867 0.290867 0.290867
0.316289 0.316289 0.316289
0.343297 0.343297 0.343297
0.372168 0.372168 0.372168
0.402899 0.402899 0.402899
0.435798 0.435798 0.435798
0.470588 0.470588 0.470588
0.506371 0.506371 0.506371
0.541955 0.541955 0.541955
0.577050 0.577050 0.577050
0.611048 0.611048 0.611048
0.643915 0.643915 0.643915
0.675105 0.675105 0.675105
0.705104 0.705104 0.705104
0.733608 0.733608 0.733608
0.174685 0.174685 0.174685
0.174685 0.174685 0.174685
0.174990 0.174990 0.174990
0.175845 0.175845 0.175845
0.177157 0.177157 0.177157
0.179294 0.179294 0.179294
0.182620 0.182620 0.182620
0.187320 0.187320 0.187320
0.193149 0.193149 0.193149
0.200198 0.200198 0.200198
0.210788 0.210788 0.210788
0.232151 0.232151 0.232151
0.242802 0.242802 0.242802
0.254917 0.254917 0.254917
0.268894 0.268894 0.268894
0.284245 0.284245 0.284245
0.304997 0.304997 0.304997
0.327214 0.327214 0.327214
0.351171 0.351171 0.351171
0.376379 0.376379 0.376379
0.402991 0.402991 0.402991
0.430640 0.430640 0.430640
0.460090 0.460090 0.460090
0.491371 0.491371 0.491371
0.523644 0.523644 0.523644
0.556390 0.556390 0.556390
0.589319 0.589319 0.589319
0.621668 0.621668 0.621668
0.653071 0.653071 0.653071
0.683284 0.683284 0.683284
0.712428 0.712428 0.712428
0.739895 0.739895 0.739895
0.207950 0.207950 0.207950
0.208194 0.208194 0.208194
0.208652 0.208652 0.208652
0.209445 0.209445 0.209445
0.211032 0.211032 0.211032
0.213138 0.213138 0.213138
0.216526 0.216526 0.216526
0.221195 0.221195 0.221195
0.227176 0.227176 0.227176
0.234318 0.234318 0.234318
0.242527 0.242527 0.242527
0.252140 0.252140 0.252140
0.280674 0.280674 0.280674
0.292790 0.292790 0.292790
0.309117 0.309117 0.309117
0.326787 0.326787 0.326787
0.345830 0.345830 0.345830
0.366308 0.366308 0.366308
0.387976 0.387976 0.387976
0.411017 0.411017 0.411017
0.435279 0.435279 0.435279
0.460883 0.460883 0.460883
0.488563 0.488563 0.488563
0.517876 0.517876 0.517876
0.548425 0.548425 0.548425
0.579126 0.579126 0.579126
0.609552 0.609552 0.609552
0.639307 0.639307 0.639307
0.668238 0.668238 0.668238
0.696437 0.696437 0.696437
0.723751 0.723751 0.723751
0.749111 0.749111 0.749111
0.248600 0.248600 0.248600
0.248875 0.248875 0.248875
0.249302 0.249302 0.249302
0.250187 0.250187 0.250187
0.251774 0.251774 0.251774
0.253941 0.253941 0.253941
0.257115 0.257115 0.257115
0.261906 0.261906 0.261906
0.267704 0.267704 0.267704
0.274815 0.274815 0.274815
0.282933 0.282933 0.282933
0.294926 0.294926 0.294926
0.332860 0.332860 0.332860
0.372503 0.372503 0.372503
0.389014 0.389014 0.389014
0.406653 0.406653 0.406653
0.425177 0.425177 0.425177
0.444709 0.444709 0.444709
0.465431 0.465431 0.465431
0.487190 0.487190 0.487190
0.509941 0.509941 0.509941
0.533440 0.533440 0.533440
0.558495 0.558495 0.558495
0.584192 0.584192 0.584192
0.609735 0.609735 0.609735
0.634607 0.634607 0.634607
0.658564 0.658564 0.658564
0.681819 0.681819 0.681819
0.704829 0.704829 0.704829
0.727687 0.727687 0.727687
0.749416 0.749416 0.749416
0.770291 0.770291 0.770291
0.305394 0.305394 0.305394
0.305394 0.305394 0.305394
0.305394 0.305394 0.305394
0.305730 0.305730 0.305730
0.306523 0.306523 0.306523
0.307836 0.307836 0.307836
0.310338 0.310338 0.310338
0.316289 0.316289 0.316289
0.324163 0.324163 0.324163
0.333928 0.333928 0.333928
0.345953 0.345953 0.345953
0.360082 0.360082 0.360082
0.375830 0.375830 0.375830
0.392432 0.392432 0.392432
0.435798 0.435798 0.435798
0.451881 0.451881 0.451881
0.468147 0.468147 0.468147
0.484901 0.484901 0.484901
0.502586 0.502586 0.502586
0.521172 0.521172 0.521172
0.540917 0.540917 0.540917
0.561944 0.561944 0.561944
0.584192 0.584192 0.584192
0.607172 0.607172 0.607172
0.630152 0.630152 0.630152
0.652674 0.652674 0.652674
0.674739 0.674739 0.674739
0.696468 0.696468 0.696468
0.718166 0.718166 0.718166
0.739345 0.739345 0.739345
0.759518 0.759518 0.759518
0.778927 0.778927 0.778927
0.362188 0.362188 0.362188
0.362036 0.362036 0.362036
0.361761 0.361761 0.361761
0.362097 0.362097 0.362097
0.362890 0.362890 0.362890
0.364294 0.364294 0.364294
0.366796 0.366796 0.366796
0.370855 0.370855 0.370855
0.377234 0.377234 0.377234
0.385809 0.385809 0.385809
0.396338 0.396338 0.396338
0.409186 0.409186 0.409186
0.423529 0.423529 0.423529
0.438636 0.438636 0.438636
0.453681 0.453681 0.453681
0.491920 0.491920 0.491920
0.511681 0.511681 0.511681
0.526024 0.526024 0.526024
0.541650 0.541650 0.541650
0.557794 0.557794 0.557794
0.575006 0.575006 0.575006
0.593530 0.593530 0.593530
0.613184 0.613184 0.613184
0.633478 0.633478 0.633478
0.653834 0.653834 0.653834
0.674006 0.674006 0.674006
0.693904 0.693904 0.693904
0.713680 0.713680 0.713680
0.733303 0.733303 0.733303
0.752346 0.752346 0.752346
0.770779 0.770779 0.770779
0.788876 0.788876 0.788876
0.421546 0.421546 0.421546
0.421454 0.421454 0.421454
0.420935 0.420935 0.420935
0.420600 0.420600 0.420600
0.420417 0.420417 0.420417
0.420783 0.420783 0.420783
0.422400 0.422400 0.422400
0.425269 0.425269 0.425269
0.430426 0.430426 0.430426
0.437964 0.437964 0.437964
0.447608 0.447608 0.447608
0.459266 0.459266 0.459266
0.472206 0.472206 0.472206
0.485817 0.485817 0.485817
0.499367 0.499367 0.499367
0.512322 0.512322 0.512322
0.544976 0.544976 0.544976
0.568505 0.568505 0.568505
0.581567 0.581567 0.581567
0.595117 0.595117 0.595117
0.609735 0.609735 0.609735
0.625666 0.625666 0.625666
0.642512 0.642512 0.642512
0.659907 0.659907 0.659907
0.677607 0.677607 0.677607
0.695583 0.695583 0.695583
0.713741 0.713741 0.713741
0.731868 0.731868 0.731868
0.749660 0.749660 0.749660
0.767239 0.767239 0.767239
0.784573 0.784573 0.784573
0.801694 0.801694 0.801694
0.476967 0.476967 0.476967
0.477150 0.477150 0.477150
0.477150 0.477150 0.477150
0.477333 0.477333 0.477333
0.477638 0.477638 0.477638
0.478828 0.478828 0.478828
0.480903 0.480903 0.480903
0.484291 0.484291 0.484291
0.489021 0.489021 0.489021
0.495827 0.495827 0.495827
0.503838 0.503838 0.503838
0.512963 0.512963 0.512963
0.522942 0.522942 0.522942
0.533288 0.533288 0.533288
0.543816 0.543816 0.543816
0.554345 0.554345 0.554345
0.565179 0.565179 0.565179
0.591516 0.591516 0.591516
0.617578 0.617578 0.617578
0.629236 0.629236 0.629236
0.642115 0.642115 0.642115
0.656123 0.656123 0.656123
0.670954 0.670954 0.670954
0.686488 0.686488 0.686488
0.702449 0.702449 0.702449
0.718715 0.718715 0.718715
0.734920 0.734920 0.734920
0.750729 0.750729 0.750729
0.766354 0.766354 0.766354
0.781888 0.781888 0.781888
0.797299 0.797299 0.797299
0.812772 0.812772 0.812772
0.530205 0.530205 0.530205
0.530205 0.530205 0.530205
0.530358 0.530358 0.530358
0.530571 0.530571 0.530571
0.531121 0.531121 0.531121
0.532311 0.532311 0.532311
0.534234 0.534234 0.534234
0.537255 0.537255 0.537255
0.541070 0.541070 0.541070
0.546532 0.546532 0.546532
0.553399 0.553399 0.553399
0.561303 0.561303 0.561303
0.569909 0.569909 0.569909
0.578607 0.578607 0.578607
0.587549 0.587549 0.587549
0.596521 0.596521 0.596521
0.605341 0.605341 0.605341
0.614801 0.614801 0.614801
0.635187 0.635187 0.635187
0.662165 0.662165 0.662165
0.673060 0.673060 0.673060
0.685176 0.685176 0.685176
0.698177 0.698177 0.698177
0.711849 0.711849 0.711849
0.726009 0.726009 0.726009
0.740169 0.740169 0.740169
0.754299 0.754299 0.754299
0.768338 0.768338 0.768338
0.782376 0.782376 0.782376
0.796414 0.796414 0.796414
0.810575 0.810575 0.810575
0.824857 0.824857 0.824857
0.584405 0.584405 0.584405
0.584802 0.584802 0.584802
0.611963 0.611963 0.611963
0.612207 0.612207 0.612207
0.612726 0.612726 0.612726
0.613367 0.613367 0.613367
0.614466 0.614466 0.614466
0.616358 0.616358 0.616358
0.619074 0.619074 0.619074
0.622766 0.622766 0.622766
0.627863 0.627863 0.627863
0.633478 0.633478 0.633478
0.639124 0.639124 0.639124
0.644831 0.644831 0.644831
0.650355 0.650355 0.650355
0.655848 0.655848 0.655848
0.661219 0.661219 0.661219
0.666835 0.666835 0.666835
0.672969 0.672969 0.672969
0.686275 0.686275 0.686275
0.712154 0.712154 0.712154
0.721523 0.721523 0.721523
0.731563 0.731563 0.731563
0.742031 0.742031 0.742031
0.752560 0.752560 0.752560
0.763394 0.763394 0.763394
0.774502 0.774502 0.774502
0.786007 0.786007 0.786007
0.798032 0.798032 0.798032
0.810483 0.810483 0.810483
0.823331 0.823331 0.823331
0.836545 0.836545 0.836545
0.640345 0.640345 0.640345
0.642603 0.642603 0.642603
0.645106 0.645106 0.645106
0.647425 0.647425 0.647425
0.649470 0.649470 0.649470
0.650690 0.650690 0.650690
0.651820 0.651820 0.651820
0.653132 0.653132 0.653132
0.655116 0.655116 0.655116
0.657710 0.657710 0.657710
0.661433 0.661433 0.661433
0.665888 0.665888 0.665888
0.670405 0.670405 0.670405
0.675227 0.675227 0.675227
0.679988 0.679988 0.679988
0.684871 0.684871 0.684871
0.689784 0.689784 0.689784
0.695094 0.695094 0.695094
0.700832 0.700832 0.700832
0.707149 0.707149 0.707149
0.717617 0.717617 0.717617
0.743862 0.743862 0.743862
0.752468 0.752468 0.752468
0.761440 0.761440 0.761440
0.770596 0.770596 0.770596
0.779995 0.779995 0.779995
0.789761 0.789761 0.789761
0.800015 0.800015 0.800015
0.810880 0.810880 0.810880
0.822354 0.822354 0.822354
0.834379 0.834379 0.834379
0.846830 0.846830 0.846830
0.677516 0.677516 0.677516
0.679622 0.679622 0.679622
0.681941 0.681941 0.681941
0.684230 0.684230 0.684230
0.686061 0.686061 0.686061
0.687221 0.687221 0.687221
0.688197 0.688197 0.688197
0.689265 0.689265 0.689265
0.690730 0.690730 0.690730
0.692714 0.692714 0.692714
0.695155 0.695155 0.695155
0.698695 0.698695 0.698695
0.702480 0.702480 0.702480
0.706477 0.706477 0.706477
0.710597 0.710597 0.710597
0.714809 0.714809 0.714809
0.719112 0.719112 0.719112
0.723568 0.723568 0.723568
0.728359 0.728359 0.728359
0.733639 0.733639 0.733639
0.739162 0.739162 0.739162
0.746456 0.746456 0.746456
0.769314 0.769314 0.769314
0.779263 0.779263 0.779263
0.787320 0.787320 0.787320
0.795651 0.795651 0.795651
0.804349 0.804349 0.804349
0.813565 0.813565 0.813565
0.823484 0.823484 0.823484
0.834073 0.834073 0.834073
0.845304 0.845304 0.845304
0.857053 0.857053 0.857053
0.712520 0.712520 0.712520
0.714229 0.714229 0.714229
0.716060 0.716060 0.716060
0.717891 0.717891 0.717891
0.719417 0.719417 0.719417
0.720363 0.720363 0.720363
0.721187 0.721187 0.721187
0.722103 0.722103 0.722103
0.723323 0.723323 0.723323
0.724849 0.724849 0.724849
0.726833 0.726833 0.726833
0.729397 0.729397 0.729397
0.732387 0.732387 0.732387
0.735592 0.735592 0.735592
0.739040 0.739040 0.739040
0.742641 0.742641 0.742641
0.746670 0.746670 0.746670
0.750973 0.750973 0.750973
0.755764 0.755764 0.755764
0.761013 0.761013 0.761013
0.766629 0.766629 0.766629
0.772427 0.772427 0.772427
0.778256 0.778256 0.778256
0.797910 0.797910 0.797910
0.809140 0.809140 0.809140
0.816892 0.816892 0.816892
0.824949 0.824949 0.824949
0.833494 0.833494 0.833494
0.842710 0.842710 0.842710
0.852567 0.852567 0.852567
0.862974 0.862974 0.862974
0.873869 0.873869 0.873869
0.752804 0.752804 0.752804
0.753414 0.753414 0.753414
0.753902 0.753902 0.753902
0.754360 0.754360 0.754360
0.754696 0.754696 0.754696
0.754879 0.754879 0.754879
0.755215 0.755215 0.755215
0.755764 0.755764 0.755764
0.756649 0.756649 0.756649
0.757900 0.757900 0.757900
0.759457 0.759457 0.759457
0.761288 0.761288 0.761288
0.763577 0.763577 0.763577
0.766110 0.766110 0.766110
0.768704 0.768704 0.768704
0.771481 0.771481 0.771481
0.774472 0.774472 0.774472
0.777737 0.777737 0.777737
0.781186 0.781186 0.781186
0.785031 0.785031 0.785031
0.789090 0.789090 0.789090
0.793454 0.793454 0.793454
0.797910 0.797910 0.797910
0.802396 0.802396 0.802396
0.818204 0.818204 0.818204
0.830014 0.830014 0.830014
0.837613 0.837613 0.837613
0.845701 0.845701 0.845701
0.854368 0.854368 0.854368
0.863615 0.863615 0.863615
0.873381 0.873381 0.873381
0.883543 0.883543 0.883543
0.778531 0.778531 0.778531
0.778958 0.778958 0.778958
0.779385 0.779385 0.779385
0.779782 0.779782 0.779782
0.780056 0.780056 0.780056
0.780331 0.780331 0.780331
0.780636 0.780636 0.780636
0.781125 0.781125 0.781125
0.781857 0.781857 0.781857
0.782895 0.782895 0.782895
0.784176 0.784176 0.784176
0.785672 0.785672 0.785672
0.787411 0.787411 0.787411
0.789578 0.789578 0.789578
0.791897 0.791897 0.791897
0.794369 0.794369 0.794369
0.797024 0.797024 0.797024
0.799924 0.799924 0.799924
0.803037 0.803037 0.803037
0.806363 0.806363 0.806363
0.809964 0.809964 0.809964
0.813748 0.813748 0.813748
0.817746 0.817746 0.817746
0.821805 0.821805 0.821805
0.822416 0.822416 0.822416
0.835691 0.835691 0.835691
0.848447 0.848447 0.848447
0.856107 0.856107 0.856107
0.864347 0.864347 0.864347
0.873136 0.873136 0.873136
0.882475 0.882475 0.882475
0.892241 0.892241 0.892241
0.805722 0.805722 0.805722
0.806363 0.806363 0.806363
0.806699 0.806699 0.806699
0.806699 0.806699 0.806699
0.806516 0.806516 0.806516
0.806241 0.806241 0.806241
0.805905 0.805905 0.805905
0.805661 0.805661 0.805661
0.805661 0.805661 0.805661
0.805966 0.805966 0.805966
0.806394 0.806394 0.806394
0.807187 0.807187 0.807187
0.808103 0.808103 0.808103
0.809445 0.809445 0.809445
0.810849 0.810849 0.810849
0.812467 0.812467 0.812467
0.814359 0.814359 0.814359
0.816648 0.816648 0.816648
0.819333 0.819333 0.819333
0.822416 0.822416 0.822416
0.825803 0.825803 0.825803
0.829282 0.829282 0.829282
0.832761 0.832761 0.832761
0.836118 0.836118 0.836118
0.839414 0.839414 0.839414
0.842649 0.842649 0.842649
0.853696 0.853696 0.853696
0.866789 0.866789 0.866789
0.874296 0.874296 0.874296
0.882444 0.882444 0.882444
0.891142 0.891142 0.891142
0.900359 0.900359 0.900359
0.824338 0.824338 0.824338
0.824887 0.824887 0.824887
0.825284 0.825284 0.825284
0.825467 0.825467 0.825467
0.825589 0.825589 0.825589
0.825650 0.825650 0.825650
0.825834 0.825834 0.825834
0.826139 0.826139 0.826139
0.826596 0.826596 0.826596
0.827237 0.827237 0.827237
0.828000 0.827970 0.827970
0.828885 0.828885 0.828885
0.829801 0.829801 0.829801
0.830869 0.830869 0.830869
0.832120 0.832120 0.832120
0.833494 0.833494 0.833494
0.835019 0.835019 0.835019
0.836912 0.836912 0.836912
0.839170 0.839170 0.839170
0.841825 0.841825 0.841825
0.844785 0.844785 0.844785
0.847898 0.847898 0.847898
0.851102 0.851102 0.851102
0.854337 0.854337 0.854337
0.857511 0.857511 0.857511
0.860685 0.860685 0.860685
0.863920 0.863920 0.863920
0.873320 0.873320 0.873320
0.886961 0.886961 0.886961
0.894530 0.894530 0.894530
0.902586 0.902586 0.902586
0.911223 0.911223 0.911223
0.844999 0.844999 0.844999
0.845274 0.845274 0.845274
0.845396 0.845396 0.845396
0.845487 0.845487 0.845487
0.845548 0.845548 0.845548
0.845548 0.845548 0.845548
0.845640 0.845640 0.845640
0.845853 0.845853 0.845853
0.846159 0.846159 0.846159
0.846677 0.846677 0.846677
0.847257 0.847257 0.847257
0.848051 0.848051 0.848051
0.848905 0.848905 0.848905
0.849790 0.849790 0.849790
0.850858 0.850858 0.850858
0.852049 0.852049 0.852049
0.853391 0.853391 0.853391
0.855009 0.855009 0.855009
0.857023 0.857023 0.857023
0.859373 0.859373 0.859373
0.861997 0.861997 0.861997
0.864805 0.864805 0.864805
0.867613 0.867613 0.867613
0.870451 0.870451 0.870451
0.873289 0.873289 0.873289
0.876097 0.876097 0.876097
0.878996 0.878996 0.878996
0.881926 0.881926 0.881926
0.889799 0.889799 0.889799
0.902922 0.902922 0.902922
0.911498 0.911498 0.911498
0.919677 0.919677 0.919677
0.863249 0.863249 0.863249
0.863462 0.863462 0.863462
0.863676 0.863676 0.863676
0.863859 0.863859 0.863859
0.864073 0.864073 0.864073
0.864469 0.864469 0.864469
0.865202 0.865202 0.865202
0.866148 0.866148 0.866148
0.867369 0.867369 0.867369
0.868742 0.868742 0.868742
0.870329 0.870329 0.870329
0.871885 0.871885 0.871885
0.873472 0.873472 0.873472
0.874937 0.874937 0.874937
0.876310 0.876310 0.876310
0.877623 0.877623 0.877623
0.878965 0.878965 0.878965
0.880461 0.880461 0.880461
0.882231 0.882231 0.882231
0.884276 0.884276 0.884276
0.886564 0.886564 0.886564
0.888975 0.888975 0.888975
0.891386 0.891386 0.891386
0.893797 0.893797 0.893797
0.896178 0.896178 0.896178
0.898589 0.898589 0.898589
0.901061 0.901061 0.901061
0.903593 0.903593 0.903593
0.906310 0.906310 0.906310
0.912596 0.912596 0.912596
0.924620 0.924620 0.924620
0.933379 0.933379 0.933379
0.887205 0.887205 0.887205
0.887236 0.887236 0.887236
0.887205 0.887205 0.887205
0.887205 0.887205 0.887205
0.887205 0.887205 0.887205
0.887266 0.887266 0.887266
0.887449 0.887449 0.887449
0.887785 0.887785 0.887785
0.888273 0.888273 0.888273
0.888884 0.888884 0.888884
0.889616 0.889616 0.889616
0.890471 0.890471 0.890471
0.891386 0.891386 0.891386
0.892302 0.892302 0.892302
