20 Preset/Art Style/【3】LUT video cho PR-AE-FCPX/Black _ White Soft OD Alt.cube
# Created by Adobe Lightroom plugin Export LUT (1.24.0)
# www.johnrellis.com/lightroom/exportlut.htm
# Preset: Black & White Soft OD Alt
# Color profile: E:\lut插件\exportlut.1.24\exportlut.lrplugin\color profiles\Rec709gamma2.4.icc
LUT_3D_SIZE 5
DOMAIN_MIN 0.000000 0.000000 0.000000
DOMAIN_MAX 0.903226 0.903226 0.903226
0.185733 0.185733 0.185733
0.187076 0.187076 0.187076
0.192905 0.192905 0.192905
0.216617 0.216617 0.216617
0.298955 0.298955 0.298955
0.191379 0.191379 0.191379
0.194034 0.194034 0.194034
0.208194 0.208194 0.208194
0.245182 0.245182 0.245182
0.371862 0.371862 0.371862
0.251072 0.251072 0.251072
0.251164 0.251164 0.251164
0.294408 0.294408 0.294408
0.389441 0.389441 0.389441
0.551781 0.551781 0.551781
0.484230 0.484230 0.484230
0.488869 0.488869 0.488869
0.510613 0.510613 0.510613
0.591913 0.591913 0.591913
0.708125 0.708125 0.708125
0.769375 0.769375 0.769375
0.771328 0.771328 0.771328
0.766659 0.766659 0.766659
0.796292 0.796292 0.796292
0.832944 0.832944 0.832944
0.189425 0.189425 0.189425
0.191104 0.191104 0.191104
0.200565 0.200565 0.200565
0.241215 0.241215 0.241215
0.333379 0.333379 0.333379
0.207156 0.207156 0.207156
0.215763 0.215763 0.215763
0.233433 0.233433 0.233433
0.275334 0.275334 0.275334
0.393072 0.393072 0.393072
0.291386 0.291386 0.291386
0.293431 0.293431 0.293431
0.330999 0.330999 0.330999
0.437446 0.437446 0.437446
0.580743 0.580743 0.580743
0.532738 0.532738 0.532738
0.537835 0.537835 0.537835
0.553704 0.553704 0.553704
0.622827 0.622827 0.622827
0.726314 0.726314 0.726314
0.781338 0.781338 0.781338
0.782559 0.782559 0.782559
0.790372 0.790372 0.790372
0.810178 0.810178 0.810178
0.841184 0.841184 0.841184
0.217502 0.217502 0.217502
0.221408 0.221408 0.221408
0.234592 0.234592 0.234592
0.250828 0.250828 0.250828
0.367041 0.367041 0.367041
0.245090 0.245090 0.245090
0.250645 0.250645 0.250645
0.273106 0.273106 0.273106
0.304601 0.304601 0.304601
0.453010 0.453010 0.453010
0.459205 0.459205 0.459205
0.475624 0.475624 0.475624
0.540246 0.540246 0.540246
0.588800 0.588800 0.588800
0.664393 0.664393 0.664393
0.670466 0.670466 0.670466
0.667994 0.667994 0.667994
0.679225 0.679225 0.679225
0.716915 0.716915 0.716915
0.779660 0.779660 0.779660
0.811887 0.811887 0.811887
0.813565 0.813565 0.813565
0.818997 0.818997 0.818997
0.828550 0.828550 0.828550
0.850309 0.850309 0.850309
0.355749 0.355749 0.355749
0.364813 0.364813 0.364813
0.396246 0.396246 0.396246
0.446571 0.446571 0.446571
0.486183 0.486183 0.486183
0.364355 0.364355 0.364355
0.370886 0.370886 0.370886
0.400275 0.400275 0.400275
0.449073 0.449073 0.449073
0.503075 0.503075 0.503075
0.582483 0.582483 0.582483
0.587884 0.587884 0.587884
0.610498 0.610498 0.610498
0.638727 0.638727 0.638727
0.665126 0.665126 0.665126
0.765652 0.765652 0.765652
0.767971 0.767971 0.767971
0.783444 0.783444 0.783444
0.811154 0.811154 0.811154
0.829435 0.829435 0.829435
0.856718 0.856718 0.856718
0.856626 0.856626 0.856626
0.856748 0.856748 0.856748
0.858671 0.858671 0.858671
0.866819 0.866819 0.866819
0.694697 0.694697 0.694697
0.697963 0.697963 0.697963
0.713130 0.713130 0.713130
0.739284 0.739284 0.739284
0.770993 0.770993 0.770993
0.695949 0.695949 0.695949
0.699367 0.699367 0.699367
0.713802 0.713802 0.713802
0.739345 0.739345 0.739345
0.769039 0.769039 0.769039
0.718532 0.718532 0.718532
0.720607 0.720607 0.720607
0.732021 0.732021 0.732021
0.752529 0.752529 0.752529
0.770626 0.770626 0.770626
0.838529 0.838529 0.838529
0.837949 0.837949 0.837949
0.836576 0.836576 0.836576
0.838041 0.838041 0.838041
0.846342 0.846342 0.846342
0.873869 0.873869 0.873869
0.874174 0.874174 0.874174
0.875731 0.875731 0.875731
0.878599 0.878599 0.878599
0.883116 0.883116 0.883116
