20 Preset/Art Style/【3】LUT video cho PR-AE-FCPX/Black _ White Soft OD _.cube
# Created by Adobe Lightroom plugin Export LUT (1.24.0)
# www.johnrellis.com/lightroom/exportlut.htm
# Preset: Black & White Soft OD +
# Color profile: E:\lut插件\exportlut.1.24\exportlut.lrplugin\color profiles\Rec709gamma2.4.icc
LUT_3D_SIZE 5
DOMAIN_MIN 0.000000 0.000000 0.000000
DOMAIN_MAX 0.903226 0.903226 0.903226
0.185733 0.185733 0.185733
0.186130 0.186130 0.186130
0.189303 0.189303 0.189303
0.213138 0.213138 0.213138
0.340734 0.340734 0.340734
0.187594 0.187594 0.187594
0.188785 0.188785 0.188785
0.197177 0.197177 0.197177
0.234195 0.234195 0.234195
0.398444 0.398444 0.398444
0.231479 0.231479 0.231479
0.228580 0.228580 0.228580
0.277043 0.277043 0.277043
0.395880 0.395880 0.395880
0.564752 0.564752 0.564752
0.504204 0.504204 0.504204
0.502342 0.502342 0.502342
0.529747 0.529747 0.529747
0.616144 0.616144 0.616144
0.714229 0.714229 0.714229
0.747066 0.747066 0.747066
0.746914 0.746914 0.746914
0.735775 0.735775 0.735775
0.767971 0.767971 0.767971
0.805814 0.805814 0.805814
0.186679 0.186679 0.186679
0.187991 0.187991 0.187991
0.200809 0.200809 0.200809
0.247440 0.247440 0.247440
0.390448 0.390448 0.390448
0.192264 0.192264 0.192264
0.201785 0.201785 0.201785
0.218570 0.218570 0.218570
0.272068 0.272068 0.272068
0.435370 0.435370 0.435370
0.274174 0.274174 0.274174
0.271122 0.271122 0.271122
0.312291 0.312291 0.312291
0.431800 0.431800 0.431800
0.593530 0.593530 0.593530
0.560754 0.560754 0.560754
0.560601 0.560601 0.560601
0.571954 0.571954 0.571954
0.638666 0.638666 0.638666
0.724056 0.724056 0.724056
0.757656 0.757656 0.757656
0.757076 0.757076 0.757076
0.757046 0.757046 0.757046
0.779904 0.779904 0.779904
0.814786 0.814786 0.814786
0.202365 0.202365 0.202365
0.209903 0.209903 0.209903
0.240574 0.240574 0.240574
0.376898 0.376898 0.376898
0.562402 0.562402 0.562402
0.239719 0.239719 0.239719
0.248234 0.248234 0.248234
0.288731 0.288731 0.288731
0.439277 0.439277 0.439277
0.598779 0.598779 0.598779
0.350500 0.350500 0.350500
0.391516 0.391516 0.391516
0.546685 0.546685 0.546685
0.604181 0.604181 0.604181
0.673213 0.673213 0.673213
0.661585 0.661585 0.661585
0.668574 0.668574 0.668574
0.674159 0.674159 0.674159
0.702693 0.702693 0.702693
0.754788 0.754788 0.754788
0.787289 0.787289 0.787289
0.787686 0.787686 0.787686
0.787839 0.787839 0.787839
0.796628 0.796628 0.796628
0.825284 0.825284 0.825284
0.329381 0.329381 0.329381
0.351049 0.351049 0.351049
0.438727 0.438727 0.438727
0.540185 0.540185 0.540185
0.657343 0.657343 0.657343
0.418555 0.418555 0.418555
0.436225 0.436225 0.436225
0.503899 0.503899 0.503899
0.576837 0.576837 0.576837
0.674830 0.674830 0.674830
0.557061 0.557061 0.557061
0.586267 0.586267 0.586267
0.644373 0.644373 0.644373
0.674067 0.674067 0.674067
0.740200 0.740200 0.740200
0.680690 0.680690 0.680690
0.688045 0.688045 0.688045
0.722103 0.722103 0.722103
0.775265 0.775265 0.775265
0.797971 0.797971 0.797971
0.812039 0.812039 0.812039
0.814878 0.814878 0.814878
0.827604 0.827604 0.827604
0.834836 0.834836 0.834836
0.850065 0.850065 0.850065
0.670405 0.670405 0.670405
0.675685 0.675685 0.675685
0.697230 0.697230 0.697230
0.731502 0.731502 0.731502
0.757778 0.757778 0.757778
0.689052 0.689052 0.689052
0.693507 0.693507 0.693507
0.711666 0.711666 0.711666
0.741176 0.741176 0.741176
0.765103 0.765103 0.765103
0.742519 0.742519 0.742519
0.744656 0.744656 0.744656
0.755154 0.755154 0.755154
0.773556 0.773556 0.773556
0.792782 0.792782 0.792782
0.768643 0.768643 0.768643
0.772091 0.772091 0.772091
0.789029 0.789029 0.789029
0.819577 0.819577 0.819577
0.836728 0.836728 0.836728
0.824338 0.824338 0.824338
0.826810 0.826810 0.826810
0.838041 0.838041 0.838041
0.858610 0.858610 0.858610
0.888029 0.888029 0.888029
