20 Preset/Art Style/【3】LUT video cho PR-AE-FCPX/Black _ White HC _.cube
# Created by Adobe Lightroom plugin Export LUT (1.24.0)
# www.johnrellis.com/lightroom/exportlut.htm
# Preset: Black & White HC +
# Color profile: E:\lut插件\exportlut.1.24\exportlut.lrplugin\color profiles\Rec709gamma2.4.icc
LUT_3D_SIZE 8
DOMAIN_MIN 0.000000 0.000000 0.000000
DOMAIN_MAX 0.903226 0.903226 0.903226
0.000000 0.000000 0.000000
0.000000 0.000000 0.000000
0.000000 0.000000 0.000000
0.007813 0.007813 0.007813
0.070314 0.070314 0.070314
0.141085 0.141085 0.141085
0.241123 0.241123 0.241123
0.362249 0.362249 0.362249
0.000000 0.000000 0.000000
0.000000 0.000000 0.000000
0.000000 0.000000 0.000000
0.017578 0.017578 0.017578
0.086030 0.086030 0.086030
0.149233 0.149233 0.149233
0.241978 0.241978 0.241978
0.360174 0.360174 0.360174
0.023438 0.023438 0.023438
0.023438 0.023438 0.023438
0.050782 0.050782 0.050782
0.098726 0.098726 0.098726
0.139895 0.139895 0.139895
0.208865 0.208865 0.208865
0.301946 0.301946 0.301946
0.418280 0.418280 0.418280
0.142458 0.142458 0.142458
0.140902 0.140902 0.140902
0.150332 0.150332 0.150332
0.195041 0.195041 0.195041
0.262913 0.262913 0.262913
0.317113 0.317113 0.317113
0.394171 0.394171 0.394171
0.504845 0.504845 0.504845
0.283146 0.283146 0.283146
0.281895 0.281895 0.281895
0.279179 0.279179 0.279179
0.310033 0.310033 0.310033
0.358434 0.358434 0.358434
0.437720 0.437720 0.437720
0.511131 0.511131 0.511131
0.623804 0.623804 0.623804
0.445563 0.445563 0.445563
0.450263 0.450263 0.450263
0.447700 0.447700 0.447700
0.457221 0.457221 0.457221
0.500786 0.500786 0.500786
0.564538 0.564538 0.564538
0.677394 0.677394 0.677394
0.739132 0.739132 0.739132
0.667170 0.667140 0.667140
0.668208 0.668208 0.668208
0.665461 0.665461 0.665461
0.662196 0.662196 0.662196
0.686580 0.686580 0.686580
0.720577 0.720577 0.720577
0.752132 0.752132 0.752132
0.793454 0.793454 0.793454
0.793942 0.793942 0.793942
0.793881 0.793881 0.793881
0.794095 0.794095 0.794095
0.794949 0.794949 0.794949
0.793057 0.793057 0.793057
0.807614 0.807614 0.807614
0.825711 0.825711 0.825711
0.845243 0.845243 0.845243
0.000000 0.000000 0.000000
0.000000 0.000000 0.000000
0.000977 0.000977 0.000977
0.040040 0.040040 0.040040
0.102815 0.102815 0.102815
0.165591 0.165591 0.165591
0.251530 0.251530 0.251530
0.361608 0.361608 0.361608
0.000000 0.000000 0.000000
0.002930 0.002930 0.002930
0.017578 0.017578 0.017578
0.059571 0.059571 0.059571
0.113130 0.113130 0.113130
0.175723 0.175723 0.175723
0.256870 0.256870 0.256870
0.363409 0.363409 0.363409
0.070314 0.070314 0.070314
0.069337 0.069337 0.069337
0.089693 0.089693 0.089693
0.120058 0.120058 0.120058
0.161929 0.161929 0.161929
0.223911 0.223911 0.223911
0.303502 0.303502 0.303502
0.412207 0.412207 0.412207
0.163699 0.163699 0.163699
0.162417 0.162417 0.162417
0.167483 0.167483 0.167483
0.204959 0.204959 0.204959
0.262486 0.262486 0.262486
0.312352 0.312352 0.312352
0.383917 0.383917 0.383917
0.490639 0.490608 0.490608
0.299138 0.299138 0.299138
0.297276 0.297276 0.297276
0.292882 0.292882 0.292882
0.316228 0.316228 0.316228
0.359960 0.359960 0.359960
0.435035 0.435035 0.435035
0.506737 0.506737 0.506737
0.616022 0.616022 0.616022
0.452522 0.452522 0.452522
0.452155 0.452155 0.452155
0.450263 0.450263 0.450263
0.458198 0.458198 0.458198
0.502190 0.502190 0.502190
0.567346 0.567346 0.567346
0.676417 0.676417 0.676417
0.736751 0.736751 0.736751
0.665888 0.665888 0.665888
0.663722 0.663722 0.663722
0.660700 0.660700 0.660700
0.658686 0.658686 0.658686
0.684443 0.684443 0.684443
0.718441 0.718441 0.718441
0.749020 0.749020 0.749020
0.790005 0.790005 0.790005
0.792172 0.792172 0.792172
0.792782 0.792782 0.792782
0.792844 0.792844 0.792844
0.793790 0.793790 0.793790
0.797299 0.797299 0.797299
0.809842 0.809842 0.809842
0.826200 0.826200 0.826200
0.845426 0.845426 0.845426
0.004883 0.004883 0.004883
0.008789 0.008789 0.008789
0.036133 0.036133 0.036133
0.109834 0.109834 0.109834
0.170382 0.170382 0.170382
0.252049 0.252049 0.252049
0.336553 0.336553 0.336553
0.438788 0.438788 0.438788
0.038087 0.038087 0.038087
0.046876 0.046876 0.046876
0.082399 0.082399 0.082399
0.129183 0.129183 0.129183
0.187076 0.187076 0.187076
0.263493 0.263493 0.263493
0.339452 0.339452 0.339452
0.440223 0.440223 0.440223
0.106386 0.106386 0.106386
0.118807 0.118807 0.118807
0.169619 0.169619 0.169619
0.200687 0.200687 0.200687
0.246525 0.246525 0.246525
0.305669 0.305669 0.305669
0.378119 0.378119 0.378119
0.479469 0.479469 0.479469
0.242985 0.242985 0.242985
0.254032 0.254032 0.254032
0.258579 0.258579 0.258579
0.284642 0.284642 0.284642
0.334203 0.334203 0.334203
0.383612 0.383612 0.383612
0.454200 0.454200 0.454200
0.557336 0.557336 0.557336
0.378332 0.378332 0.378332
0.377234 0.377234 0.377234
0.374182 0.374182 0.374182
0.384436 0.384436 0.384436
0.427375 0.427375 0.427375
0.495247 0.495247 0.495247
0.564202 0.564202 0.564202
0.664637 0.664637 0.664637
0.520531 0.520531 0.520531
0.520623 0.520623 0.520623
0.518181 0.518181 0.518181
0.513787 0.513787 0.513787
0.553796 0.553796 0.553796
0.615137 0.615137 0.615137
0.703273 0.703273 0.703273
0.751766 0.751766 0.751766
0.706111 0.706111 0.706111
0.704860 0.704860 0.704860
0.701717 0.701717 0.701717
0.698848 0.698848 0.698848
0.710292 0.710292 0.710292
0.737087 0.737087 0.737087
0.762814 0.762814 0.762814
0.799527 0.799527 0.799527
0.801175 0.801175 0.801175
0.800809 0.800809 0.800809
0.800778 0.800778 0.800778
0.802457 0.802457 0.802457
0.803464 0.803464 0.803464
0.816403 0.816403 0.816403
0.832609 0.832609 0.832609
0.851225 0.851225 0.851225
0.090059 0.090059 0.090059
0.096712 0.096712 0.096712
0.123445 0.123445 0.123445
0.163394 0.163394 0.163394
0.230777 0.230777 0.230777
0.325566 0.325566 0.325566
0.411048 0.411048 0.411048
0.523430 0.523430 0.523430
0.123903 0.123903 0.123903
0.129641 0.129641 0.129641
0.152987 0.152987 0.152987
0.189029 0.189029 0.189029
0.253788 0.253788 0.253788
0.340490 0.340490 0.340490
0.423377 0.423377 0.423377
0.534142 0.534142 0.534142
0.183841 0.183841 0.183841
0.199619 0.199619 0.199619
0.238895 0.238895 0.238895
0.268742 0.268742 0.268742
0.337713 0.337713 0.337713
0.403784 0.403784 0.403784
0.490639 0.490608 0.490608
0.590784 0.590784 0.590784
0.276188 0.276188 0.276188
0.286107 0.286107 0.286107
0.327581 0.327581 0.327581
0.405493 0.405493 0.405493
0.441382 0.441382 0.441382
0.490059 0.490059 0.490059
0.558038 0.558038 0.558038
0.649622 0.649622 0.649622
0.453681 0.453681 0.453681
0.460426 0.460426 0.460426
0.492470 0.492470 0.492470
0.513176 0.513176 0.513176
0.544244 0.544244 0.544244
0.600580 0.600580 0.600580
0.660487 0.660487 0.660487
0.720638 0.720638 0.720638
0.649561 0.649561 0.649561
0.654078 0.654078 0.654078
0.650141 0.650141 0.650141
0.646204 0.646204 0.646204
0.658442 0.658442 0.658442
0.695918 0.695918 0.695918
0.741726 0.741726 0.741726
0.772885 0.772885 0.772885
0.750820 0.750820 0.750820
0.750942 0.750942 0.750942
0.750484 0.750484 0.750484
0.749660 0.749660 0.749660
0.748806 0.748806 0.748806
0.764645 0.764645 0.764645
0.782040 0.782040 0.782040
0.813474 0.813474 0.813474
0.819699 0.819699 0.819699
0.819608 0.819608 0.819608
0.819455 0.819455 0.819455
0.819669 0.819669 0.819669
0.819547 0.819547 0.819547
0.827787 0.827787 0.827787
0.843381 0.843381 0.843381
0.861601 0.861601 0.861601
0.196414 0.196414 0.196414
0.204013 0.204013 0.204013
0.229404 0.229404 0.229404
0.273869 0.273869 0.273869
0.317174 0.317174 0.317174
0.376349 0.376349 0.376349
0.514641 0.514641 0.514641
0.626307 0.626307 0.626307
0.229892 0.229892 0.229892
0.236240 0.236240 0.236240
0.257298 0.257298 0.257298
0.295201 0.295201 0.295201
0.335515 0.335515 0.335515
0.394263 0.394263 0.394263
0.527123 0.527123 0.527123
0.636133 0.636133 0.636133
0.316014 0.316014 0.316014
0.319951 0.319951 0.319951
0.334874 0.334874 0.334874
0.365484 0.365484 0.365484
0.399725 0.399725 0.399725
0.457862 0.457862 0.457862
0.571649 0.571649 0.571649
0.667567 0.667567 0.667567
0.369879 0.369879 0.369879
0.378668 0.378668 0.378668
0.418555 0.418555 0.418555
0.484962 0.484962 0.484962
0.519585 0.519585 0.519585
0.587976 0.587976 0.587976
0.659510 0.659510 0.659510
0.718013 0.718013 0.718013
0.478218 0.478218 0.478218
0.486702 0.486702 0.486702
0.520470 0.520470 0.520470
0.585107 0.585107 0.585107
0.669734 0.669734 0.669734
0.695613 0.695613 0.695613
0.725399 0.725399 0.725399
0.756008 0.756008 0.756008
0.667903 0.667903 0.667903
0.672602 0.672602 0.672602
0.687587 0.687587 0.687587
0.713619 0.713619 0.713619
0.728420 0.728420 0.728420
0.746242 0.746242 0.746242
0.770169 0.770169 0.770169
0.791470 0.791470 0.791470
0.774502 0.774502 0.774502
0.775143 0.775143 0.775143
0.779019 0.779019 0.779019
0.782864 0.782864 0.782864
0.782132 0.782132 0.782132
0.786770 0.786770 0.786770
0.800748 0.800748 0.800748
0.826932 0.826932 0.826932
0.837644 0.837644 0.837644
0.837461 0.837461 0.837461
0.837095 0.837095 0.837095
0.838926 0.838926 0.838926
0.838895 0.838895 0.838895
0.840208 0.840208 0.840208
0.854520 0.854520 0.854520
0.870939 0.870939 0.870939
0.346502 0.346502 0.346502
0.351995 0.351995 0.351995
0.370581 0.370581 0.370581
0.406195 0.406195 0.406195
0.459571 0.459571 0.459571
0.502403 0.502403 0.502403
0.555535 0.555535 0.555535
0.707820 0.707820 0.707820
0.364874 0.364874 0.364874
0.368841 0.368841 0.368841
0.385718 0.385718 0.385718
0.418616 0.418616 0.418616
0.467659 0.467659 0.467659
0.509819 0.509819 0.509819
0.563867 0.563867 0.563867
0.710689 0.710689 0.710689
0.443244 0.443244 0.443244
0.446357 0.446357 0.446357
0.460883 0.460883 0.460883
0.485573 0.485573 0.485573
0.528985 0.528985 0.528985
0.569177 0.569177 0.569177
0.625757 0.625757 0.625757
0.735836 0.735836 0.735836
0.526543 0.526543 0.526543
0.536065 0.536065 0.536065
0.579370 0.579370 0.579370
0.608118 0.608118 0.608118
0.645380 0.645380 0.645380
0.675410 0.675410 0.675410
0.714900 0.714900 0.714900
0.768215 0.768215 0.768215
0.595270 0.595270 0.595270
0.602136 0.602136 0.602136
0.630915 0.630915 0.630915
0.680232 0.680232 0.680232
0.725856 0.725856 0.725856
0.740597 0.740597 0.740597
0.764981 0.764981 0.764981
0.788052 0.788052 0.788052
0.695918 0.695918 0.695918
0.701106 0.701106 0.701106
0.714595 0.714595 0.714595
0.736446 0.736446 0.736446
0.761563 0.761563 0.761563
0.789517 0.789517 0.789517
0.801358 0.801358 0.801358
0.817258 0.817258 0.817258
0.786679 0.786679 0.786679
0.788144 0.788144 0.788144
0.792264 0.792264 0.792264
0.800504 0.800504 0.800504
0.813565 0.813565 0.813565
0.821042 0.821042 0.821042
0.830381 0.830381 0.830381
0.851560 0.851560 0.851560
0.850217 0.850217 0.850217
0.850553 0.850553 0.850553
0.853330 0.853330 0.853330
0.859953 0.859953 0.859953
0.866209 0.866209 0.866209
0.865782 0.865782 0.865782
0.872251 0.872251 0.872251
0.886717 0.886717 0.886717
0.535729 0.535729 0.535729
0.543206 0.543206 0.543206
0.557855 0.557855 0.557855
0.589624 0.589624 0.589624
0.632471 0.632471 0.632471
0.679988 0.679988 0.679988
0.703243 0.703243 0.703243
0.718776 0.718776 0.718776
0.537377 0.537377 0.537377
0.545464 0.545464 0.545464
0.559472 0.559472 0.559472
0.586511 0.586511 0.586511
0.625910 0.625910 0.625910
0.670649 0.670649 0.670649
0.692805 0.692805 0.692805
0.708339 0.708339 0.708339
0.608026 0.608026 0.608026
0.610834 0.610834 0.610834
0.619806 0.619806 0.619806
0.641108 0.641108 0.641108
0.669490 0.669490 0.669490
0.702174 0.702174 0.702174
0.723384 0.723384 0.723384
0.741421 0.741421 0.741421
0.698451 0.698451 0.698451
0.698451 0.698451 0.698451
0.701839 0.701839 0.701839
0.713802 0.713802 0.713802
0.727962 0.727962 0.727962
0.746914 0.746914 0.746914
0.760250 0.760250 0.760250
0.773342 0.773342 0.773342
0.713100 0.713100 0.713100
0.714809 0.714809 0.714809
0.728054 0.728054 0.728054
0.752193 0.752193 0.752193
0.763424 0.763424 0.763424
0.773831 0.773831 0.773831
0.783413 0.783413 0.783413
0.802213 0.802213 0.802213
0.751827 0.751827 0.751827
0.753689 0.753689 0.753689
0.760281 0.760281 0.760281
0.772091 0.772091 0.772091
0.788144 0.788144 0.788144
0.811093 0.811093 0.811093
0.821836 0.821836 0.821836
0.841062 0.841062 0.841062
0.790280 0.790280 0.790280
0.791989 0.791989 0.791989
0.796170 0.796170 0.796170
0.805081 0.805081 0.805081
0.818265 0.818265 0.818265
0.837644 0.837644 0.837644
0.864469 0.864469 0.864469
0.877562 0.877562 0.877562
0.858518 0.858518 0.858518
0.859403 0.859403 0.859403
0.864012 0.864012 0.864012
0.870420 0.870420 0.870420
0.879393 0.879393 0.879393
0.892027 0.892027 0.892027
0.899474 0.899474 0.899474
0.908354 0.908354 0.908354
0.731075 0.731075 0.731075
0.733394 0.733394 0.733394
0.736049 0.736049 0.736049
0.745998 0.745998 0.745998
0.757900 0.757900 0.757900
0.770687 0.770687 0.770687
0.785611 0.785611 0.785611
0.791928 0.791928 0.791928
0.730098 0.730098 0.730098
0.732509 0.732509 0.732509
0.736446 0.736446 0.736446
0.745327 0.745327 0.745327
0.756985 0.756985 0.756985
0.769619 0.769619 0.769619
0.783597 0.783597 0.783597
0.789303 0.789303 0.789303
0.745205 0.745205 0.745205
0.746304 0.746304 0.746304
0.748684 0.748684 0.748684
0.758480 0.758480 0.758480
0.766567 0.766567 0.766567
0.776150 0.776150 0.776150
0.789120 0.789120 0.789120
0.794949 0.794949 0.794949
0.766476 0.766476 0.766476
0.767575 0.767575 0.767575
0.769589 0.769589 0.769589
0.775082 0.775082 0.775082
0.782223 0.782223 0.782223
0.790951 0.790951 0.790951
0.802701 0.802701 0.802701
0.809110 0.809110 0.809110
0.781064 0.781064 0.781064
0.783047 0.783047 0.783047
0.787991 0.787991 0.787991
0.793637 0.793637 0.793637
0.798947 0.798947 0.798947
0.806485 0.806485 0.806485
0.817868 0.817868 0.817868
0.826993 0.826993 0.826993
0.789395 0.789395 0.789395
0.789395 0.789395 0.789395
0.791135 0.791135 0.791135
0.800046 0.800046 0.800046
0.817716 0.817716 0.817716
0.832944 0.832944 0.832944
0.847990 0.847990 0.847990
0.860014 0.860014 0.860014
0.821164 0.821164 0.821164
0.821653 0.821653 0.821653
0.824094 0.824094 0.824094
0.830747 0.830747 0.830747
0.841886 0.841886 0.841886
0.859037 0.859037 0.859037
0.884581 0.884581 0.884581
0.894347 0.894347 0.894347
0.861021 0.861021 0.861021
0.861418 0.861418 0.861418
0.864164 0.864164 0.864164
0.870756 0.870756 0.870756
0.880491 0.880491 0.880491
0.893584 0.893584 0.893584
0.910918 0.910918 0.910918
0.932433 0.932433 0.932433
