20 Preset/Art Style/【3】LUT video cho PR-AE-FCPX/Portra 160 Alt 3.cube
# Created by Adobe Lightroom plugin Export LUT (1.24.0)
# www.johnrellis.com/lightroom/exportlut.htm
# Preset: Portra 160 Alt 3
# Color profile: E:\lut插件\exportlut.1.24\exportlut.lrplugin\color profiles\Rec709gamma2.4.icc
LUT_3D_SIZE 8
DOMAIN_MIN 0.000000 0.000000 0.000000
DOMAIN_MAX 0.903226 0.903226 0.903226
0.160067 0.111727 0.030549
0.167147 0.112245 0.030579
0.218570 0.112337 0.026215
0.364294 0.096803 0.000000
0.575647 0.000000 0.000000
0.757626 0.000000 0.000000
0.876463 0.042145 0.000000
0.942809 0.201205 0.000000
0.165072 0.120272 0.035737
0.171145 0.120607 0.033661
0.226413 0.124880 0.023774
0.367376 0.121187 0.000000
0.571527 0.061280 0.000000
0.750423 0.000000 0.000000
0.868009 0.131563 0.000000
0.936767 0.221775 0.000000
0.185702 0.211551 0.044373
0.203799 0.217319 0.039155
0.263493 0.208896 0.009369
0.420203 0.226627 0.000000
0.611261 0.233433 0.000000
0.773709 0.252384 0.000000
0.876341 0.288396 0.000000
0.935760 0.330938 0.000000
0.228458 0.446174 0.166995
0.257664 0.451301 0.166293
0.361395 0.466468 0.160189
0.482856 0.439765 0.067903
0.658289 0.450202 0.000000
0.789548 0.456123 0.035859
0.866850 0.453895 0.116609
0.919219 0.463447 0.180148
0.422278 0.645624 0.393652
0.439155 0.647333 0.396155
0.505974 0.656611 0.411017
0.581994 0.650538 0.385595
0.660121 0.616938 0.292790
0.757534 0.593164 0.266148
0.835142 0.589105 0.318639
0.888151 0.588769 0.361334
0.598688 0.724697 0.575494
0.609094 0.727077 0.581659
0.633417 0.730159 0.589227
0.674708 0.735439 0.601892
0.698787 0.723568 0.562524
0.745205 0.704219 0.494850
0.803372 0.685145 0.476509
0.851713 0.685725 0.521691
0.704891 0.769680 0.677455
0.707851 0.770352 0.678767
0.717037 0.771847 0.681575
0.735012 0.775082 0.687648
0.751247 0.774563 0.684504
0.764920 0.766598 0.662409
0.790585 0.754879 0.626673
0.825895 0.743801 0.614343
0.768093 0.805478 0.737362
0.769162 0.805722 0.737697
0.773983 0.806821 0.739467
0.783505 0.809171 0.743130
0.793729 0.810208 0.744381
0.802060 0.808042 0.738094
0.812924 0.803464 0.725917
0.829648 0.796536 0.706996
0.162570 0.114565 0.040131
0.166629 0.114107 0.041016
0.221103 0.106630 0.040864
0.362799 0.088777 0.024659
0.567071 0.000000 0.000000
0.745998 0.000000 0.000000
0.863432 0.015137 0.000000
0.933165 0.194583 0.000000
0.166171 0.122225 0.046937
0.174441 0.123171 0.052155
0.232792 0.124605 0.047517
0.373297 0.116213 0.021302
0.572686 0.034089 0.000000
0.746761 0.000000 0.000000
0.859800 0.129671 0.000000
0.928985 0.219028 0.000000
0.187167 0.208621 0.092561
0.206760 0.214511 0.096193
0.267063 0.213230 0.072236
0.420050 0.228946 0.022187
0.603845 0.232975 0.000000
0.762356 0.249332 0.000000
0.862425 0.280308 0.000000
0.926787 0.323949 0.000000
0.230686 0.427771 0.192294
0.256626 0.433906 0.193149
0.357733 0.457404 0.196750
0.466560 0.423804 0.128389
0.634852 0.431189 0.100374
0.769924 0.440314 0.114137
0.853391 0.441321 0.136965
0.911284 0.454261 0.186740
0.415717 0.637568 0.401221
0.431434 0.638911 0.402594
0.496040 0.647639 0.414771
0.572747 0.642542 0.392187
0.647944 0.606470 0.299626
0.748653 0.585687 0.276249
0.828855 0.584466 0.326696
0.883635 0.584649 0.364477
0.591241 0.720027 0.572473
0.597833 0.720912 0.574640
0.623529 0.724422 0.582971
0.668482 0.731197 0.598688
0.694453 0.720150 0.562402
0.741482 0.701595 0.498482
0.800412 0.683009 0.479774
0.849180 0.683680 0.522789
0.699947 0.766812 0.674250
0.701595 0.766873 0.674311
0.711055 0.768399 0.677180
0.730159 0.772000 0.683986
0.748836 0.772732 0.683375
0.762509 0.764706 0.661219
0.787747 0.752316 0.623774
0.823636 0.740749 0.610163
0.765347 0.803708 0.735409
0.766903 0.804257 0.736202
0.771695 0.805356 0.737911
0.781399 0.807767 0.741695
0.795193 0.811063 0.746731
0.802762 0.808499 0.739895
0.812650 0.803311 0.726650
0.829160 0.796231 0.707546
0.166964 0.127260 0.103456
0.170504 0.123415 0.106050
0.210208 0.124269 0.112703
0.350835 0.111269 0.156619
0.585504 0.000000 0.127047
0.758541 0.000000 0.132387
0.867369 0.145663 0.142306
0.931518 0.249912 0.163058
0.173983 0.145174 0.120424
0.182834 0.143496 0.125399
0.227207 0.141665 0.131014
0.370977 0.131380 0.163790
0.590600 0.000000 0.140810
0.757839 0.066560 0.143099
0.863157 0.186343 0.146700
0.927764 0.269261 0.167330
0.187747 0.219059 0.167788
0.204837 0.222599 0.172976
0.279484 0.232578 0.191501
0.433753 0.243198 0.191714
0.617487 0.253269 0.186770
0.767849 0.279576 0.184665
0.860288 0.316777 0.191745
0.920623 0.360204 0.214633
0.224949 0.414466 0.265385
0.250095 0.422950 0.273136
0.358068 0.452155 0.305608
0.479988 0.444312 0.269718
0.644648 0.457191 0.276860
0.766476 0.464637 0.281285
0.846769 0.470588 0.289860
0.902556 0.484230 0.311162
0.400000 0.624720 0.438636
0.427893 0.626337 0.449775
0.494881 0.637324 0.467750
0.583093 0.648035 0.477790
0.650355 0.615564 0.398260
0.745724 0.598596 0.384375
0.819883 0.600824 0.422431
0.872984 0.601526 0.442054
0.593103 0.713649 0.590173
0.599603 0.714778 0.592584
0.623896 0.718807 0.600092
0.666499 0.726101 0.614282
0.696223 0.719905 0.594385
0.736873 0.701869 0.539391
0.795041 0.687098 0.523583
0.842466 0.691646 0.563409
0.701595 0.764950 0.681544
0.703365 0.765164 0.681788
0.712154 0.766598 0.684230
0.730251 0.770169 0.690364
0.752010 0.773373 0.694697
0.763973 0.765591 0.674647
0.787137 0.753933 0.641810
0.822690 0.744656 0.630823
0.765011 0.802823 0.737881
0.765866 0.802976 0.738064
0.770687 0.804135 0.739773
0.781003 0.807034 0.744198
0.794858 0.810513 0.749355
0.804410 0.809506 0.745480
0.813657 0.804379 0.732662
0.829313 0.797147 0.713802
0.156435 0.165866 0.227268
0.163760 0.161654 0.233036
0.218296 0.157839 0.247776
0.329839 0.164920 0.264530
0.504448 0.210819 0.335821
0.728511 0.132326 0.343389
0.856443 0.140780 0.299779
0.914672 0.308965 0.327459
0.170565 0.197574 0.255924
0.179782 0.192782 0.259586
0.231296 0.182559 0.271031
0.347448 0.190616 0.284489
0.521172 0.233677 0.349279
0.735225 0.176761 0.347356
0.853269 0.217166 0.313848
0.911894 0.332097 0.336584
0.178592 0.275914 0.298466
0.198581 0.278965 0.303868
0.278538 0.283940 0.327794
0.396826 0.285985 0.339879
0.579767 0.318730 0.389624
0.757870 0.303777 0.363104
0.845670 0.378271 0.375799
0.902617 0.422583 0.384924
0.195407 0.428321 0.384253
0.225284 0.430549 0.387610
0.325628 0.441016 0.403296
0.473671 0.457435 0.431159
0.629633 0.473060 0.433204
0.744778 0.489387 0.435309
0.824369 0.506035 0.439551
0.881865 0.522820 0.446998
0.381445 0.600610 0.486915
0.398596 0.602960 0.490822
0.465034 0.614221 0.510002
0.575494 0.636347 0.550347
0.646662 0.624628 0.517998
0.734127 0.620905 0.522515
0.802152 0.624140 0.533043
0.855161 0.626123 0.537469
0.576654 0.706020 0.603754
0.587274 0.708309 0.608942
0.615259 0.711238 0.619257
0.665187 0.719020 0.639521
0.705745 0.724208 0.644312
0.733089 0.705501 0.600214
0.786862 0.697078 0.592401
0.833127 0.704097 0.617548
0.692622 0.760586 0.685115
0.697047 0.761044 0.687373
0.711604 0.762814 0.694240
0.730282 0.767483 0.701228
0.755703 0.774014 0.710628
0.767880 0.768338 0.696986
0.785794 0.755917 0.667170
0.820920 0.749172 0.657801
0.764401 0.801663 0.742855
0.765530 0.801938 0.743221
0.770413 0.803220 0.745022
0.780148 0.805905 0.748745
0.794125 0.809689 0.754116
0.807218 0.811368 0.755276
0.815122 0.806088 0.742580
0.829679 0.798825 0.724361
0.086824 0.245792 0.405737
0.111940 0.243107 0.410742
0.178103 0.226108 0.423468
0.338415 0.244938 0.443061
0.493751 0.261143 0.457557
0.657954 0.339239 0.513939
0.789425 0.378027 0.531945
0.877165 0.405249 0.512444
0.126192 0.278080 0.424628
0.144198 0.275425 0.429084
0.203281 0.257450 0.439887
0.351141 0.268986 0.455299
0.505180 0.286290 0.469062
0.661189 0.363439 0.521111
0.790036 0.394903 0.535210
0.875700 0.419348 0.515160
0.173739 0.360296 0.456489
0.201846 0.362860 0.461677
0.278843 0.360235 0.476020
0.390265 0.354589 0.492256
0.537163 0.375158 0.502708
0.665217 0.441505 0.540764
0.790249 0.450507 0.543511
0.870268 0.463935 0.520806
0.216892 0.473182 0.501854
0.243503 0.474922 0.504234
0.333013 0.483436 0.515068
0.466651 0.498573 0.541283
0.582849 0.509270 0.553460
0.691218 0.539117 0.575921
0.792813 0.535271 0.560418
0.855131 0.554986 0.553613
0.347662 0.600916 0.562524
0.365881 0.601953 0.564446
0.430640 0.605463 0.571374
0.527550 0.611780 0.584161
0.627192 0.619440 0.600092
0.712367 0.625360 0.600214
0.781338 0.631769 0.600824
0.837186 0.637659 0.601068
0.532586 0.680385 0.607446
0.541161 0.681544 0.609796
0.571405 0.685023 0.617884
0.622431 0.693751 0.634333
0.686793 0.708553 0.659602
0.723293 0.703059 0.644068
0.776730 0.704463 0.648371
0.823941 0.709834 0.656397
0.669734 0.750820 0.683375
0.672084 0.751034 0.683986
0.683680 0.752712 0.687800
0.708339 0.757473 0.697871
0.744076 0.765194 0.714015
0.768734 0.769345 0.717189
0.781765 0.755398 0.689204
0.817685 0.751125 0.681971
0.743282 0.796017 0.734951
0.744961 0.796292 0.735653
0.752102 0.797635 0.738796
0.771603 0.800900 0.749386
0.788083 0.805905 0.756374
0.807706 0.811887 0.764523
0.815396 0.807309 0.753567
0.827970 0.798703 0.734096
0.009033 0.361395 0.567803
0.100557 0.359411 0.570153
0.197147 0.346838 0.575952
0.338140 0.348272 0.587427
0.508568 0.383795 0.602502
0.636561 0.408423 0.607416
0.743313 0.486122 0.632166
0.805936 0.558831 0.649958
0.131960 0.381201 0.569268
0.155184 0.378485 0.570703
0.224491 0.366247 0.576745
0.346227 0.363348 0.588281
0.509972 0.395605 0.601495
0.636011 0.420020 0.606958
0.740658 0.494484 0.631525
0.805020 0.561242 0.649073
0.244358 0.457893 0.589319
0.268193 0.459754 0.591791
0.319738 0.453315 0.598047
0.391455 0.433570 0.606134
0.536004 0.462135 0.615961
0.648798 0.484718 0.620691
0.738857 0.545220 0.641260
0.805203 0.587030 0.655268
0.297124 0.536156 0.603449
0.317479 0.537530 0.605066
0.395514 0.546044 0.613886
0.493965 0.555932 0.629419
0.581750 0.561456 0.640070
0.671656 0.578943 0.644465
0.739712 0.616938 0.660700
0.808774 0.626459 0.666072
0.405737 0.618677 0.628687
0.417609 0.619165 0.629450
0.463050 0.621668 0.632746
0.536217 0.627344 0.639551
0.624262 0.638178 0.653773
0.689082 0.646174 0.661463
0.748318 0.661128 0.673579
0.815854 0.655665 0.666072
0.525078 0.689418 0.658381
0.533776 0.690272 0.659754
0.559899 0.690822 0.662104
0.603540 0.692226 0.666712
0.656764 0.695125 0.673823
0.714626 0.701686 0.685237
0.768612 0.706325 0.686793
0.816922 0.709987 0.687037
0.646326 0.737942 0.688655
0.649897 0.738521 0.689723
0.661524 0.739528 0.692256
0.685908 0.743893 0.699763
0.719265 0.751583 0.711757
0.761074 0.763790 0.729854
0.779416 0.757046 0.716060
0.816739 0.758114 0.716335
0.728725 0.788327 0.735958
0.729915 0.788479 0.736202
0.736049 0.789792 0.738338
0.749111 0.793240 0.743465
0.769467 0.798703 0.752193
0.798978 0.806546 0.766751
0.817624 0.810300 0.769711
0.826902 0.799771 0.748501
0.281895 0.486061 0.667414
0.294041 0.485420 0.668574
0.333288 0.479377 0.671260
0.397681 0.468544 0.676936
0.521721 0.493599 0.680812
0.634943 0.527855 0.685756
0.714687 0.544640 0.685573
0.782620 0.593011 0.696559
0.302159 0.497719 0.666773
0.313237 0.497383 0.667994
0.348547 0.491157 0.670649
0.407202 0.479377 0.675837
0.523857 0.500481 0.679805
0.634607 0.532708 0.684565
0.713191 0.548058 0.684199
0.780606 0.594446 0.695064
0.381353 0.548486 0.671809
0.387732 0.547112 0.672358
0.413123 0.541680 0.674525
0.459297 0.531823 0.679194
0.546502 0.540795 0.683497
0.645808 0.568505 0.688380
0.718166 0.583398 0.689357
0.779812 0.622370 0.700587
0.424384 0.596002 0.675685
0.435248 0.596643 0.676173
0.479530 0.601556 0.679316
0.533440 0.603540 0.684901
0.584283 0.599542 0.690791
0.666072 0.620630 0.696101
0.727138 0.632197 0.698268
0.779538 0.659144 0.708736
0.473915 0.645502 0.681636
0.479774 0.645258 0.681575
0.506065 0.645869 0.682277
0.562341 0.650782 0.686946
0.630915 0.659266 0.696468
0.683711 0.664454 0.703639
0.736812 0.674464 0.707301
0.781949 0.695247 0.718898
0.559075 0.698970 0.697688
0.563531 0.699123 0.697993
0.580621 0.699489 0.699031
0.611170 0.700313 0.701137
0.652491 0.701778 0.704463
0.708949 0.709346 0.714870
0.752987 0.716976 0.722133
0.793088 0.726497 0.731228
0.633875 0.743801 0.717861
0.636896 0.743954 0.718257
0.647669 0.744137 0.719265
0.668177 0.744717 0.721462
0.696773 0.745876 0.724941
0.731868 0.748348 0.730373
0.770932 0.753384 0.738735
0.812741 0.756313 0.739223
0.711452 0.779080 0.740078
0.712886 0.779294 0.740444
0.719326 0.780362 0.742153
0.730678 0.782132 0.744991
0.748989 0.786099 0.750668
0.775601 0.794400 0.761379
0.812039 0.807279 0.779355
0.825803 0.801480 0.767086
0.502953 0.612085 0.729702
0.507012 0.611994 0.730037
0.520287 0.609216 0.730709
0.547265 0.605798 0.732753
0.596399 0.610254 0.734615
0.661646 0.626307 0.736019
0.724269 0.646174 0.738613
0.768612 0.650904 0.737697
0.508934 0.616571 0.729000
0.513024 0.616419 0.729366
0.526390 0.614069 0.730251
0.551965 0.610407 0.732174
0.598199 0.613458 0.734218
0.662501 0.628962 0.735714
0.724178 0.647883 0.738247
0.768124 0.652247 0.737240
0.539361 0.638239 0.729061
0.542199 0.637812 0.729335
0.553033 0.635279 0.730098
0.576593 0.632776 0.732570
0.611444 0.630793 0.734981
0.669795 0.643641 0.736507
0.727687 0.660395 0.739345
0.769650 0.664363 0.738705
0.560266 0.662074 0.729397
0.566644 0.663111 0.729854
0.589288 0.666529 0.731106
0.609918 0.664515 0.733364
0.635218 0.659907 0.736538
0.682429 0.667536 0.739071
0.734737 0.681514 0.742397
0.773617 0.685298 0.742458
0.565911 0.685389 0.729793
0.570672 0.685817 0.730190
0.587610 0.686519 0.731228
0.625299 0.691127 0.734066
0.663172 0.693751 0.738155
0.693690 0.692012 0.742275
0.742031 0.703853 0.746334
0.779294 0.708858 0.747738
0.608911 0.720211 0.737179
0.610376 0.719905 0.737026
0.618067 0.718959 0.736812
0.634546 0.717769 0.736995
0.664820 0.717861 0.739010
0.714382 0.724636 0.746914
0.752529 0.730037 0.753658
0.789303 0.737087 0.757137
0.661128 0.756100 0.750149
0.662531 0.755978 0.750149
0.668452 0.755673 0.750332
0.680873 0.755306 0.750942
0.699794 0.754788 0.752071
0.725307 0.754330 0.753902
0.765988 0.759060 0.762112
0.801938 0.765927 0.769070
0.707332 0.788754 0.766354
0.708248 0.788724 0.766415
0.712856 0.788785 0.766873
0.722438 0.789242 0.768063
0.737148 0.789883 0.769955
0.757443 0.791012 0.772824
0.784512 0.793454 0.777584
0.819425 0.798978 0.786130
