20 Preset/Art Style/【3】LUT video cho PR-AE-FCPX/Portra 800 Alt 2.cube
# Created by Adobe Lightroom plugin Export LUT (1.24.0)
# www.johnrellis.com/lightroom/exportlut.htm
# Preset: Portra 800 Alt 2
# Color profile: E:\lut插件\exportlut.1.24\exportlut.lrplugin\color profiles\Rec709gamma2.4.icc
LUT_3D_SIZE 32
DOMAIN_MIN 0.0 0.0 0.0
DOMAIN_MAX 1.0 1.0 1.0
0.000000 0.121279 0.191165
0.000000 0.121279 0.191165
0.000000 0.121218 0.191165
0.000000 0.121187 0.191135
0.000000 0.121401 0.191073
0.000000 0.121736 0.191562
0.053559 0.122194 0.192081
0.116335 0.122133 0.192477
0.162997 0.120424 0.192752
0.213931 0.116030 0.192813
0.271031 0.105928 0.192966
0.335943 0.079408 0.192630
0.407141 0.000000 0.192203
0.481056 0.000000 0.191348
0.553735 0.000000 0.190402
0.620996 0.000000 0.189487
0.682094 0.000000 0.188479
0.735714 0.000000 0.187839
0.783474 0.000000 0.187411
0.827512 0.000000 0.187289
0.868711 0.000000 0.187625
0.916991 0.000000 0.188602
0.963500 0.000000 0.190158
1.000000 0.000000 0.192447
1.000000 0.000000 0.195560
1.000000 0.000000 0.199191
1.000000 0.000000 0.203830
1.000000 0.000000 0.209415
1.000000 0.000000 0.216495
1.000000 0.000000 0.225589
1.000000 0.000000 0.237430
1.000000 0.054871 0.252659
0.000000 0.121279 0.191165
0.000000 0.121279 0.191165
0.000000 0.121218 0.191165
0.000000 0.121431 0.191135
0.000000 0.121706 0.191043
0.000000 0.122316 0.191501
0.049165 0.122591 0.191897
0.112947 0.122744 0.192477
0.158877 0.121401 0.192752
0.208835 0.117647 0.192844
0.264775 0.108186 0.192721
0.328496 0.087282 0.192569
0.398444 0.000000 0.192203
0.471931 0.000000 0.191379
0.544640 0.000000 0.190494
0.612665 0.000000 0.189578
0.674464 0.000000 0.188449
0.729122 0.000000 0.187808
0.777523 0.000000 0.187259
0.821683 0.000000 0.187289
0.862943 0.000000 0.187442
0.910185 0.000000 0.188266
0.955169 0.000000 0.189700
0.996216 0.000000 0.191775
1.000000 0.000000 0.194369
1.000000 0.000000 0.197848
1.000000 0.000000 0.202335
1.000000 0.000000 0.207797
1.000000 0.000000 0.214420
1.000000 0.000000 0.223178
1.000000 0.000000 0.234287
1.000000 0.000000 0.248722
0.000000 0.121859 0.191287
0.000000 0.121859 0.191135
0.000000 0.122042 0.191104
0.000000 0.122530 0.191043
0.000000 0.123110 0.190951
0.000000 0.123720 0.191409
0.041901 0.124697 0.191928
0.110414 0.124910 0.192325
0.155764 0.124361 0.192416
0.204807 0.121187 0.192660
0.260136 0.113130 0.192538
0.322911 0.095705 0.192386
0.392096 0.021424 0.191897
0.464790 0.000000 0.191226
0.537285 0.000000 0.190188
0.605798 0.000000 0.189120
0.667964 0.000000 0.188144
0.723751 0.000000 0.187350
0.772732 0.000000 0.186923
0.817166 0.000000 0.186831
0.858885 0.000000 0.186954
0.906432 0.000000 0.187625
0.950744 0.000000 0.189090
0.991180 0.000000 0.191012
1.000000 0.000000 0.193637
1.000000 0.000000 0.196933
1.000000 0.000000 0.201053
1.000000 0.000000 0.206332
1.000000 0.000000 0.212802
1.000000 0.000000 0.221469
1.000000 0.000000 0.232303
1.000000 0.000000 0.246250
0.000000 0.124575 0.192569
0.000000 0.124575 0.192416
0.000000 0.124514 0.192416
0.000000 0.125063 0.191318
0.000000 0.125856 0.190890
0.000000 0.127047 0.191318
0.038331 0.128206 0.191806
0.107729 0.129335 0.192020
0.152712 0.129519 0.192233
0.201389 0.127352 0.192294
0.255955 0.121279 0.192264
0.317693 0.107576 0.191958
0.385870 0.067170 0.191379
0.457649 0.000000 0.190585
0.529412 0.000000 0.189700
0.597223 0.000000 0.188479
0.659449 0.000000 0.187503
0.715328 0.000000 0.186679
0.764553 0.000000 0.186160
0.809201 0.000000 0.185916
0.850950 0.000000 0.185977
0.898680 0.000000 0.186618
0.941680 0.000000 0.187686
0.981964 0.000000 0.189517
1.000000 0.000000 0.192081
1.000000 0.000000 0.195438
1.000000 0.000000 0.199435
1.000000 0.000000 0.204868
1.000000 0.000000 0.211246
1.000000 0.000000 0.219608
1.000000 0.000000 0.230381
1.000000 0.000000 0.244083
0.000000 0.129244 0.194858
0.000000 0.129244 0.194705
0.000000 0.129213 0.194400
0.000000 0.129305 0.193942
0.000000 0.129854 0.192386
0.000000 0.131991 0.191684
0.027070 0.133761 0.191531
0.101808 0.135744 0.191684
0.146578 0.136965 0.191714
0.194644 0.136416 0.191714
0.247837 0.132815 0.191623
0.308507 0.123415 0.191226
0.375311 0.103914 0.190616
0.446601 0.028565 0.189761
0.518120 0.000000 0.188602
0.587457 0.000000 0.187472
0.651118 0.000000 0.186221
0.708492 0.000000 0.185306
0.758663 0.000000 0.184726
0.804013 0.000000 0.184512
0.847929 0.000000 0.184543
0.894713 0.000000 0.185092
0.937072 0.000000 0.186282
0.977264 0.000000 0.187991
1.000000 0.000000 0.190311
1.000000 0.000000 0.193515
1.000000 0.000000 0.197543
1.000000 0.000000 0.202823
1.000000 0.000000 0.209201
1.000000 0.000000 0.217502
1.000000 0.000000 0.227787
1.000000 0.000000 0.241123
0.000000 0.136995 0.197726
0.000000 0.136995 0.197726
0.000000 0.137240 0.196841
0.000000 0.137270 0.196963
0.000000 0.137392 0.195468
0.000000 0.137972 0.193271
0.023774 0.141726 0.192355
0.098817 0.144381 0.191409
0.142885 0.147036 0.191012
0.190219 0.148318 0.190860
0.243320 0.146975 0.190646
0.303441 0.141329 0.190127
0.369909 0.128908 0.189181
0.440681 0.102907 0.188144
0.512840 0.001892 0.186984
0.582208 0.000000 0.185519
0.646601 0.000000 0.184268
0.704799 0.000000 0.183291
0.755520 0.000000 0.182437
0.801236 0.000000 0.182345
0.848569 0.000000 0.182284
0.894408 0.000000 0.182834
0.982238 0.000000 0.185153
1.000000 0.000000 0.187900
1.000000 0.000000 0.191135
1.000000 0.000000 0.195499
1.000000 0.000000 0.200778
1.000000 0.000000 0.207187
1.000000 0.000000 0.214969
1.000000 0.000000 0.225101
1.000000 0.131289 0.237827
1.000000 0.248020 0.253635
0.000000 0.152834 0.202701
0.000000 0.153079 0.202396
0.000000 0.153231 0.201541
0.000000 0.153902 0.200900
0.000000 0.154238 0.200809
0.000000 0.153323 0.197452
0.010895 0.153323 0.194369
0.108949 0.159884 0.192599
0.153292 0.163088 0.191318
0.198978 0.165835 0.189914
0.254185 0.167208 0.188663
0.317479 0.164187 0.187716
0.386114 0.155276 0.186526
0.457465 0.138064 0.185061
0.528771 0.105440 0.183597
0.596368 0.000000 0.182040
0.658534 0.000000 0.180697
0.714504 0.000000 0.179599
0.764126 0.000000 0.179019
0.812161 0.000000 0.178683
0.865873 0.000000 0.178866
0.915221 0.000000 0.179385
0.961852 0.000000 0.180789
1.000000 0.000000 0.183322
1.000000 0.000000 0.186709
1.000000 0.000000 0.190646
1.000000 0.000000 0.195804
1.000000 0.000000 0.201968
1.000000 0.000000 0.209598
1.000000 0.000000 0.218936
1.000000 0.149416 0.231235
1.000000 0.252171 0.246159
0.000000 0.173709 0.208927
0.000000 0.173709 0.208682
0.000000 0.174594 0.207523
0.000000 0.175540 0.205936
0.000000 0.176883 0.206394
0.000000 0.176699 0.204288
0.000000 0.174014 0.199588
0.093141 0.173007 0.195224
0.153689 0.181247 0.192721
0.200229 0.184146 0.190829
0.250553 0.186282 0.188846
0.309026 0.187228 0.186557
0.375402 0.184939 0.183658
0.445838 0.175723 0.181888
0.516655 0.158938 0.179965
0.584070 0.132021 0.178164
0.646754 0.081117 0.176486
0.703700 0.000000 0.175479
0.754360 0.000000 0.174624
0.808835 0.000000 0.174014
0.859312 0.000000 0.174044
0.906859 0.000000 0.174655
0.952270 0.000000 0.176059
0.995850 0.000000 0.178073
1.000000 0.000000 0.181399
1.000000 0.000000 0.185092
1.000000 0.000000 0.190066
1.000000 0.000000 0.195895
1.000000 0.000000 0.203403
1.000000 0.000000 0.212833
1.000000 0.188052 0.224582
1.000000 0.271519 0.239353
0.000000 0.202609 0.217807
0.000000 0.202884 0.217533
0.000000 0.203586 0.216312
0.000000 0.205264 0.214206
0.000000 0.207431 0.213993
0.000000 0.210239 0.215030
0.000000 0.207309 0.208804
0.043275 0.201907 0.202060
0.138033 0.199130 0.195956
0.203037 0.208988 0.191989
0.255467 0.211154 0.189609
0.310826 0.212222 0.186893
0.370733 0.211551 0.183658
0.438972 0.208804 0.179721
0.507591 0.202060 0.175235
0.574823 0.187289 0.172702
0.637659 0.165164 0.170901
0.695186 0.133608 0.169375
0.753231 0.078553 0.168185
0.805386 0.000000 0.167575
0.853971 0.000000 0.167636
0.900114 0.000000 0.168185
0.944732 0.000000 0.169680
0.987732 0.000000 0.171786
1.000000 0.000000 0.174716
1.000000 0.000000 0.178531
1.000000 0.000000 0.183322
1.000000 0.000000 0.189334
1.000000 0.000000 0.196414
1.000000 0.151461 0.205692
1.000000 0.231815 0.217502
1.000000 0.299687 0.232181
0.000000 0.240299 0.229953
0.000000 0.240391 0.229709
0.000000 0.241276 0.228428
0.000000 0.243229 0.226139
0.000000 0.245914 0.224277
0.000000 0.249760 0.225559
0.000000 0.251804 0.224674
0.000000 0.245335 0.214237
0.115480 0.236698 0.204776
0.184909 0.231479 0.196262
0.257237 0.241917 0.190494
0.314488 0.242954 0.187228
0.373510 0.242863 0.183444
0.433387 0.240604 0.179355
0.499825 0.237034 0.174411
0.566308 0.230320 0.168978
0.630823 0.220676 0.163241
0.695430 0.204196 0.160281
0.751705 0.181857 0.159182
0.802243 0.154665 0.158755
0.849149 0.119997 0.158816
0.893126 0.047486 0.159792
0.935485 0.000000 0.161227
0.976623 0.000000 0.163546
1.000000 0.000000 0.166506
1.000000 0.000000 0.169894
1.000000 0.000000 0.174716
1.000000 0.025666 0.180392
1.000000 0.145418 0.187655
1.000000 0.209659 0.196841
1.000000 0.269444 0.208774
1.000000 0.328252 0.223667
0.000000 0.284215 0.244083
0.000000 0.284550 0.243931
0.000000 0.285771 0.242771
0.000000 0.288273 0.240635
0.000000 0.292302 0.236973
0.000000 0.297246 0.238651
0.000000 0.303655 0.240940
0.000000 0.302037 0.234104
0.049561 0.292576 0.220493
0.167697 0.280003 0.207340
0.240208 0.272251 0.195224
0.319677 0.282841 0.187045
0.380957 0.282048 0.182589
0.441474 0.279973 0.177768
0.502983 0.276585 0.172488
0.567376 0.272892 0.166323
0.633906 0.266789 0.159579
0.693782 0.258122 0.152804
0.746395 0.246616 0.146609
0.795590 0.228855 0.146761
0.841428 0.210300 0.147341
0.884855 0.190646 0.148684
0.926940 0.172366 0.150149
0.967956 0.156222 0.152712
1.000000 0.147402 0.155856
1.000000 0.148653 0.159762
1.000000 0.162783 0.164584
1.000000 0.188235 0.170413
1.000000 0.223636 0.177646
1.000000 0.266117 0.187289
1.000000 0.313176 0.199252
1.000000 0.363806 0.214664
0.000000 0.339513 0.262364
0.000000 0.339666 0.262150
0.000000 0.341131 0.261082
0.000000 0.343999 0.258762
0.000000 0.348669 0.255253
0.000000 0.354803 0.254673
0.000000 0.362524 0.257755
0.000000 0.371710 0.261540
0.000000 0.362280 0.245029
0.147005 0.348974 0.226932
0.228031 0.332280 0.209628
0.304326 0.321080 0.192844
0.428504 0.356054 0.176852
0.500084 0.355108 0.169436
0.565087 0.350408 0.162234
0.624353 0.343420 0.155245
0.677424 0.334356 0.148440
0.730190 0.324681 0.141695
0.779965 0.314122 0.134981
0.826169 0.303807 0.126986
0.870146 0.292546 0.122072
0.912230 0.280461 0.125338
0.952819 0.271092 0.129152
0.991974 0.265080 0.133150
1.000000 0.263828 0.137758
1.000000 0.268223 0.143832
1.000000 0.278843 0.149996
1.000000 0.296208 0.158053
1.000000 0.320409 0.167056
1.000000 0.351598 0.178195
1.000000 0.388373 0.192813
1.000000 0.430732 0.210788
0.000000 0.415625 0.290410
0.000000 0.415930 0.290013
0.000000 0.416968 0.288762
0.000000 0.419348 0.286198
0.000000 0.423072 0.282475
0.000000 0.428717 0.278874
0.000000 0.435431 0.282353
0.000000 0.444282 0.287144
0.000000 0.449134 0.284428
0.146395 0.440497 0.261753
0.241123 0.428748 0.237705
0.321782 0.412787 0.213382
0.409766 0.402228 0.186954
0.505486 0.412329 0.167239
0.571679 0.406989 0.159670
0.629053 0.397986 0.152163
0.679438 0.386755 0.145663
0.723873 0.374548 0.139254
0.766598 0.362646 0.132937
0.811795 0.352331 0.125643
0.854551 0.342565 0.116854
0.895628 0.333837 0.105592
0.936156 0.325505 0.105501
0.975708 0.319738 0.111360
1.000000 0.317723 0.117464
1.000000 0.320287 0.123934
1.000000 0.328405 0.131258
1.000000 0.342382 0.139864
1.000000 0.362982 0.150027
1.000000 0.390661 0.162600
1.000000 0.423896 0.177646
1.000000 0.462623 0.197147
0.000000 0.480415 0.319310
0.000000 0.480354 0.319188
0.000000 0.481209 0.317571
0.000000 0.483558 0.315953
0.000000 0.487587 0.312993
0.000000 0.493507 0.308873
0.000000 0.500847 0.311803
0.000000 0.509850 0.318364
0.081300 0.520836 0.327123
0.191867 0.518975 0.312322
0.256870 0.508141 0.282933
0.327398 0.493751 0.251255
0.400122 0.474434 0.218784
0.484138 0.460151 0.183627
0.572015 0.463783 0.159609
0.629664 0.453437 0.151797
0.678401 0.440192 0.145266
0.721736 0.426062 0.138857
0.761715 0.412634 0.132601
0.799344 0.399847 0.124636
0.840513 0.389899 0.116335
0.882048 0.381720 0.105257
0.922301 0.375128 0.089387
0.962005 0.370550 0.061982
1.000000 0.368475 0.082094
1.000000 0.370184 0.094575
1.000000 0.376806 0.104768
1.000000 0.388708 0.115846
1.000000 0.406897 0.128054
1.000000 0.431403 0.142275
1.000000 0.461830 0.159915
1.000000 0.497810 0.181399
0.000000 0.544213 0.358068
0.000000 0.544335 0.357702
0.000000 0.544945 0.356420
0.000000 0.545861 0.354528
0.000000 0.548363 0.351781
0.000000 0.552544 0.348058
0.000000 0.557946 0.347875
0.000000 0.564538 0.354650
0.179294 0.572961 0.364080
0.281529 0.582391 0.374914
0.306920 0.573602 0.343633
0.350317 0.562493 0.308812
0.406500 0.546960 0.269932
0.469856 0.526238 0.229282
0.547753 0.509453 0.184390
0.626215 0.507958 0.156100
0.676234 0.494057 0.149050
0.719203 0.478645 0.142214
0.758724 0.463966 0.135500
0.795987 0.450263 0.127901
0.831754 0.437995 0.118257
0.868742 0.428199 0.106355
0.909545 0.421881 0.091249
0.949371 0.417548 0.045533
0.987945 0.415656 0.000000
1.000000 0.417121 0.000000
1.000000 0.423133 0.026612
1.000000 0.434333 0.061952
1.000000 0.451667 0.093782
1.000000 0.475715 0.114626
1.000000 0.505577 0.137362
1.000000 0.540887 0.164706
0.000000 0.592340 0.396582
0.000000 0.592615 0.396704
0.000000 0.593286 0.396155
0.000000 0.594720 0.395056
0.000000 0.597253 0.393439
0.000000 0.601190 0.391547
0.000000 0.606744 0.389807
0.179355 0.612726 0.397528
0.271672 0.620111 0.407660
0.346380 0.628595 0.419806
0.390967 0.631098 0.416266
0.404913 0.620905 0.380529
0.433204 0.607538 0.339666
0.475319 0.589899 0.294163
0.527825 0.567254 0.244999
0.597498 0.548638 0.191989
0.668360 0.543847 0.159304
0.713436 0.528985 0.151095
0.753262 0.513542 0.143862
0.790860 0.499367 0.135592
0.827237 0.486915 0.125429
0.863035 0.476265 0.112734
0.898222 0.467842 0.095735
0.937774 0.463661 0.055268
0.977295 0.462470 0.000000
1.000000 0.464179 0.000000
1.000000 0.470100 0.000000
1.000000 0.480995 0.000000
1.000000 0.497322 0.000000
1.000000 0.519402 0.044129
1.000000 0.546777 0.104219
1.000000 0.579004 0.140810
0.145144 0.631830 0.435340
0.146975 0.631830 0.435279
0.151858 0.632685 0.434730
0.164096 0.634058 0.434333
0.180758 0.636347 0.433478
0.202243 0.639979 0.432441
0.227817 0.644953 0.431586
0.276066 0.650690 0.435889
0.336217 0.657191 0.445106
0.393256 0.664729 0.455940
0.449592 0.673640 0.468482
0.466773 0.669093 0.448402
0.478004 0.657649 0.411231
0.499886 0.643030 0.367681
0.533471 0.624628 0.318120
0.577966 0.601495 0.263890
0.640986 0.583124 0.205051
0.706844 0.577569 0.168673
0.749081 0.563470 0.159396
0.786862 0.549035 0.150240
0.823606 0.536217 0.139376
0.859556 0.525444 0.126131
0.894957 0.516777 0.109194
0.930053 0.510307 0.083253
0.966430 0.507530 0.006561
1.000000 0.509880 0.000000
1.000000 0.515618 0.000000
1.000000 0.525872 0.000000
1.000000 0.541894 0.000000
1.000000 0.563348 0.000000
1.000000 0.589593 0.001953
1.000000 0.620020 0.109438
0.284092 0.670436 0.475532
0.285313 0.670954 0.475715
0.341161 0.693080 0.498726
0.345464 0.694545 0.498329
0.352941 0.696773 0.498024
0.362737 0.699916 0.497414
0.375280 0.704402 0.496559
0.394232 0.710018 0.497139
0.433845 0.715938 0.505211
0.475685 0.723201 0.514641
0.519219 0.731533 0.525231
0.559442 0.738705 0.532891
0.564355 0.726741 0.501579
0.573388 0.712337 0.463264
0.588342 0.694881 0.416876
0.611841 0.674037 0.362310
0.645197 0.648859 0.300389
0.698817 0.629114 0.233310
0.757748 0.622492 0.191165
0.796201 0.608576 0.178470
0.831510 0.594995 0.165469
0.866667 0.583642 0.150729
0.901152 0.574517 0.133333
0.935149 0.567437 0.110445
0.968139 0.562554 0.062501
1.000000 0.560449 0.000000
1.000000 0.564446 0.000000
1.000000 0.572656 0.000000
1.000000 0.586511 0.000000
1.000000 0.606348 0.000000
1.000000 0.631067 0.000000
1.000000 0.659632 0.021637
0.379095 0.713466 0.520165
0.383246 0.715694 0.522179
0.388952 0.718379 0.524132
0.395636 0.721675 0.525872
0.403754 0.725246 0.526909
0.411994 0.728939 0.526848
0.421820 0.733211 0.526177
0.433448 0.738460 0.525261
0.461860 0.744076 0.530358
0.497627 0.750668 0.538445
0.536065 0.758206 0.547814
0.575830 0.766720 0.558068
0.599939 0.766171 0.551141
0.606744 0.753231 0.519982
0.617273 0.737819 0.482734
0.631678 0.719814 0.436805
0.652888 0.699092 0.383124
0.682765 0.674769 0.320684
0.732570 0.656550 0.252384
0.788907 0.651545 0.208133
0.826413 0.640131 0.194491
0.861875 0.629541 0.179568
0.896605 0.620752 0.163241
0.930602 0.613947 0.142580
0.963378 0.609247 0.114839
0.995392 0.606897 0.050202
1.000000 0.607660 0.000000
1.000000 0.613367 0.000000
1.000000 0.625818 0.000000
1.000000 0.643885 0.000000
1.000000 0.667384 0.000000
1.000000 0.694392 0.000000
0.428504 0.745296 0.550408
0.432013 0.747646 0.552331
0.436500 0.750515 0.554314
0.442512 0.753841 0.556176
0.448951 0.757382 0.557183
0.455787 0.760922 0.557305
0.463844 0.765042 0.556634
0.473457 0.769955 0.555688
0.491218 0.775509 0.557397
0.522606 0.781399 0.564599
0.556817 0.788266 0.572930
0.593439 0.795987 0.582483
0.631312 0.804044 0.592706
0.642573 0.796078 0.571954
0.650904 0.782498 0.540459
0.662348 0.766598 0.503746
0.677150 0.748348 0.459663
0.696651 0.727443 0.406653
0.723140 0.703487 0.344457
0.768582 0.686519 0.275059
0.821836 0.682643 0.228305
0.857969 0.673426 0.213748
0.892699 0.665553 0.197116
0.926543 0.659327 0.178378
0.959075 0.654902 0.155154
0.990753 0.652674 0.123720
1.000000 0.653162 0.053315
1.000000 0.657221 0.000000
1.000000 0.665675 0.000000
1.000000 0.681453 0.000000
1.000000 0.702907 0.000000
1.000000 0.728115 0.000000
0.471351 0.779049 0.580804
0.474159 0.781155 0.582666
0.477974 0.783688 0.584375
0.482643 0.786709 0.585931
0.488106 0.789914 0.586908
0.493904 0.793240 0.586969
0.500938 0.797147 0.586450
0.509361 0.801602 0.585595
0.519982 0.807187 0.584741
0.547875 0.812497 0.591119
0.579431 0.818753 0.599023
0.613275 0.825650 0.608026
0.648707 0.832853 0.617762
0.679316 0.837095 0.621424
0.685389 0.825711 0.593469
0.694636 0.812314 0.561334
0.707698 0.797024 0.525628
0.724025 0.779629 0.484047
0.744076 0.760128 0.433814
0.769375 0.738125 0.374182
0.812039 0.723445 0.306096
0.863096 0.722347 0.258427
0.898009 0.716640 0.243229
0.932158 0.712886 0.225650
0.965026 0.710872 0.205570
0.996490 0.710597 0.181125
1.000000 0.712673 0.149081
1.000000 0.718013 0.100130
1.000000 0.727077 0.000000
1.000000 0.739773 0.000000
1.000000 0.757015 0.000000
1.000000 0.779446 0.000000
0.526024 0.825040 0.623499
0.527306 0.826017 0.624262
0.529046 0.827085 0.624842
0.531640 0.828519 0.624964
0.535332 0.830411 0.624903
0.539818 0.832609 0.624262
0.545617 0.835538 0.623499
0.553155 0.839353 0.622583
0.562432 0.844236 0.621546
0.582544 0.849393 0.625055
0.611963 0.854887 0.632715
0.643763 0.860746 0.641413
0.676844 0.866880 0.650874
0.711055 0.873320 0.661067
0.729305 0.871061 0.651484
0.735927 0.859922 0.621820
0.745693 0.846921 0.589014
0.758572 0.831937 0.552270
0.774289 0.814817 0.511284
0.792935 0.795468 0.463050
0.814817 0.773495 0.404089
0.852476 0.758999 0.335668
0.898222 0.758053 0.285405
0.929564 0.753109 0.268254
0.961212 0.751095 0.249149
0.992035 0.751156 0.227970
1.000000 0.753658 0.202213
1.000000 0.758907 0.171481
1.000000 0.767117 0.128450
1.000000 0.778500 0.000000
1.000000 0.792447 0.000000
1.000000 0.808652 0.000000
0.564385 0.857420 0.655390
0.565515 0.858152 0.656031
0.567163 0.859098 0.656580
0.569726 0.860441 0.656855
0.573022 0.862150 0.656703
0.577325 0.864134 0.656306
0.582940 0.866819 0.655665
0.590143 0.870146 0.654932
0.598932 0.874388 0.654231
0.612085 0.879210 0.654719
0.639399 0.883696 0.662074
0.669276 0.888701 0.670558
0.700282 0.893858 0.679774
0.732448 0.899321 0.689937
0.764675 0.904723 0.700832
0.772000 0.897765 0.677546
0.779599 0.887724 0.647303
0.790280 0.875975 0.613916
0.803708 0.862364 0.577050
0.819608 0.846677 0.535882
0.837797 0.828855 0.489448
0.858213 0.808560 0.433173
0.892149 0.795682 0.366949
0.933928 0.795773 0.315740
0.956970 0.786221 0.291142
0.986419 0.785763 0.271611
1.000000 0.788388 0.250034
1.000000 0.793240 0.225406
1.000000 0.800656 0.196201
1.000000 0.810636 0.160525
1.000000 0.823178 0.108736
1.000000 0.837644 0.000000
0.613550 0.893889 0.695857
0.615229 0.894926 0.696986
0.616938 0.895659 0.697536
0.618585 0.896361 0.697230
0.620630 0.897032 0.696407
0.623621 0.897978 0.695186
0.627344 0.899321 0.693477
0.632746 0.901213 0.691829
0.639704 0.903838 0.690120
0.648493 0.907103 0.688563
0.669154 0.910094 0.692653
0.695644 0.913390 0.699886
0.723323 0.916869 0.708003
0.751949 0.920500 0.716793
0.780484 0.924163 0.726040
0.802274 0.925109 0.726650
0.806210 0.917082 0.697963
0.813748 0.907866 0.666438
0.824765 0.897246 0.632532
0.838773 0.885161 0.595483
0.855039 0.871305 0.554467
0.872984 0.855253 0.508873
0.892119 0.836545 0.454597
0.923033 0.824521 0.389105
0.960632 0.824308 0.336767
0.985931 0.821317 0.317876
1.000000 0.821958 0.298253
1.000000 0.825711 0.276677
1.000000 0.831724 0.253056
1.000000 0.840055 0.226993
1.000000 0.850645 0.197940
1.000000 0.863035 0.164828
0.649714 0.917662 0.725551
0.651362 0.918425 0.726680
0.653162 0.919280 0.727291
0.655238 0.920012 0.727443
0.657893 0.920897 0.727230
0.661433 0.922087 0.726772
0.666407 0.923674 0.726345
0.672633 0.925841 0.725765
0.680476 0.928435 0.725368
0.689784 0.931487 0.724941
0.704646 0.934478 0.726925
0.729274 0.937041 0.734310
0.754665 0.939574 0.742245
0.780697 0.942168 0.750668
0.806485 0.944671 0.759426
0.831937 0.947173 0.768643
0.842649 0.944701 0.756374
0.846708 0.938262 0.727626
0.854643 0.930785 0.696040
0.865904 0.922057 0.661372
0.879911 0.911894 0.623651
0.895964 0.900023 0.581903
0.913176 0.886046 0.535515
0.931365 0.869718 0.482551
0.959777 0.859709 0.420630
0.993561 0.860380 0.369299
1.000000 0.858854 0.351141
1.000000 0.860685 0.332921
1.000000 0.866117 0.314153
1.000000 0.873198 0.294377
1.000000 0.881926 0.274479
1.000000 0.892058 0.254124
0.696223 0.941833 0.761990
0.697230 0.942229 0.762478
0.698390 0.942565 0.762722
0.700038 0.943053 0.762722
0.702388 0.943633 0.762448
0.705470 0.944457 0.761990
0.709773 0.945556 0.761532
0.715358 0.947021 0.760952
0.722225 0.948821 0.760586
0.730587 0.950958 0.760250
0.740230 0.953368 0.759945
0.761563 0.955047 0.766323
0.784360 0.956725 0.773617
0.807462 0.958343 0.781338
0.830350 0.959899 0.789303
0.852964 0.961456 0.797543
0.874998 0.963012 0.806394
0.876646 0.959014 0.782559
0.881193 0.954070 0.754757
0.889342 0.948241 0.723598
0.900664 0.941344 0.689021
0.914488 0.933104 0.650385
0.930022 0.923217 0.607782
0.946746 0.911467 0.560327
0.964141 0.897551 0.506767
0.990112 0.889311 0.447059
1.000000 0.890288 0.397009
1.000000 0.889128 0.379553
1.000000 0.891112 0.362432
1.000000 0.897124 0.346075
1.000000 0.904509 0.330327
1.000000 0.913298 0.315801
0.739773 0.959686 0.794430
0.740566 0.959899 0.794888
0.741756 0.960235 0.795193
0.743557 0.960632 0.795407
0.746242 0.961212 0.795590
0.750179 0.962097 0.796048
0.756130 0.963439 0.797177
0.763485 0.965026 0.798581
0.772488 0.966949 0.800412
0.782834 0.969024 0.802518
0.794308 0.971252 0.804807
0.811398 0.972961 0.810300
0.832547 0.974121 0.818509
0.853269 0.975128 0.826719
0.873075 0.975982 0.834775
0.891600 0.976684 0.842466
0.909087 0.977325 0.850126
0.920073 0.977081 0.848783
0.921263 0.974670 0.826841
0.925475 0.971649 0.801419
0.932799 0.967956 0.772244
0.943145 0.963348 0.738399
0.956023 0.957671 0.699306
0.970825 0.950744 0.655360
0.986847 0.942443 0.606744
1.000000 0.932555 0.552239
1.000000 0.927092 0.494148
1.000000 0.928252 0.447669
1.000000 0.927367 0.431983
1.000000 0.928954 0.417914
1.000000 0.934478 0.406683
1.000000 0.940734 0.396826
0.804044 0.977447 0.839414
0.804196 0.977447 0.839445
0.804746 0.977508 0.839353
0.805600 0.977630 0.839170
0.807340 0.977844 0.839017
0.809812 0.978180 0.838865
0.813443 0.978607 0.838956
0.818082 0.979248 0.839139
0.823911 0.979980 0.839567
0.830777 0.980835 0.840208
0.838590 0.981811 0.840970
0.848173 0.982696 0.842557
0.864439 0.982940 0.848539
0.880400 0.983154 0.854673
