20 Preset/Art Style/【3】LUT video cho PR-AE-FCPX/Portra 160 _.cube
# Created by Adobe Lightroom plugin Export LUT (1.24.0)
# www.johnrellis.com/lightroom/exportlut.htm
# Preset: Portra 160 +
# Color profile: E:\lut插件\exportlut.1.24\exportlut.lrplugin\color profiles\Rec709gamma2.4.icc
LUT_3D_SIZE 8
DOMAIN_MIN 0.000000 0.000000 0.000000
DOMAIN_MAX 0.903226 0.903226 0.903226
0.026215 0.098085 0.038178
0.080415 0.099702 0.039826
0.176516 0.099641 0.044129
0.385046 0.000000 0.028168
0.669093 0.000000 0.000000
0.903441 0.000000 0.000000
1.000000 0.000000 0.000000
1.000000 0.000000 0.000000
0.038788 0.120668 0.056611
0.084352 0.122377 0.049042
0.192691 0.121645 0.032380
0.390234 0.074311 0.003601
0.660090 0.000000 0.000000
0.890166 0.000000 0.000000
1.000000 0.000000 0.000000
1.000000 0.000000 0.000000
0.000000 0.246220 0.114992
0.064302 0.249241 0.107271
0.251530 0.255161 0.028382
0.481453 0.239567 0.000000
0.717891 0.207950 0.000000
0.920134 0.190341 0.000000
1.000000 0.240543 0.000000
1.000000 0.308812 0.000000
0.000000 0.537896 0.282902
0.000000 0.541344 0.275578
0.318944 0.553826 0.269169
0.567468 0.571618 0.132082
0.800839 0.535149 0.000000
0.951202 0.504265 0.000000
1.000000 0.493202 0.000000
1.000000 0.500755 0.000000
0.377966 0.770169 0.543023
0.407385 0.770321 0.543175
0.491402 0.774655 0.537224
0.644434 0.782376 0.549340
0.782467 0.772335 0.404669
0.925261 0.722713 0.224826
1.000000 0.688746 0.127260
1.000000 0.669825 0.000000
0.648188 0.869841 0.741726
0.666163 0.872282 0.749355
0.691951 0.873747 0.747463
0.749416 0.875212 0.754147
0.811002 0.875822 0.743465
0.885222 0.869444 0.648524
0.976043 0.842100 0.530266
1.000000 0.820859 0.486244
0.803861 0.923064 0.862760
0.808377 0.923491 0.864225
0.819242 0.923827 0.865110
0.837156 0.925109 0.865873
0.865537 0.926268 0.869200
0.891997 0.926543 0.856718
0.931456 0.923217 0.810605
0.989166 0.908080 0.739071
0.888548 0.959869 0.927733
0.889982 0.959930 0.928069
0.896391 0.960418 0.929808
0.903410 0.961852 0.930358
0.911559 0.960601 0.928435
0.929320 0.962890 0.932341
0.942412 0.963592 0.923644
0.964324 0.962219 0.902342
0.041688 0.101595 0.065736
0.081605 0.102266 0.062379
0.173281 0.103731 0.067597
0.373846 0.004517 0.054444
0.650263 0.000000 0.000000
0.882689 0.000000 0.000000
1.000000 0.000000 0.000000
1.000000 0.000000 0.000000
0.043824 0.122011 0.079652
0.091127 0.124727 0.081514
0.194491 0.125246 0.077485
0.393133 0.081086 0.050935
0.658930 0.000000 0.000000
0.883635 0.000000 0.000000
1.000000 0.000000 0.000000
1.000000 0.000000 0.000000
0.037110 0.238712 0.143221
0.115023 0.244419 0.141482
0.253422 0.252049 0.106874
0.474464 0.237034 0.000000
0.706325 0.204044 0.000000
0.905852 0.183444 0.000000
1.000000 0.218814 0.000000
1.000000 0.291295 0.000000
0.000000 0.513115 0.297612
0.018769 0.517052 0.295232
0.313909 0.531609 0.286595
0.538781 0.540124 0.179446
0.764126 0.502251 0.000000
0.921782 0.476417 0.000000
1.000000 0.469398 0.000000
1.000000 0.483711 0.000000
0.371740 0.760098 0.545739
0.398016 0.759426 0.544579
0.479744 0.762570 0.536004
0.627893 0.767727 0.543572
0.764675 0.755886 0.404028
0.912016 0.708614 0.242374
1.000000 0.678065 0.168246
1.000000 0.661891 0.120363
0.634028 0.863981 0.734798
0.645197 0.864164 0.736690
0.675288 0.865904 0.736599
0.737301 0.868467 0.745022
0.804044 0.870329 0.738949
0.880522 0.865293 0.649073
0.972045 0.837980 0.534752
1.000000 0.816587 0.489448
0.795315 0.919646 0.857542
0.797726 0.919310 0.857298
0.811429 0.919341 0.859525
0.829526 0.921233 0.859983
0.860960 0.923369 0.865415
0.888701 0.923857 0.853635
0.928344 0.919829 0.804898
0.987243 0.903899 0.730312
0.884154 0.957977 0.925109
0.886381 0.958373 0.925963
0.892821 0.958801 0.927611
0.900511 0.960327 0.928466
0.913909 0.961730 0.930968
0.929961 0.963195 0.933501
0.942168 0.963256 0.923980
0.963928 0.961822 0.902647
0.068879 0.110811 0.135805
0.104219 0.110994 0.136690
0.190005 0.107271 0.134920
0.404700 0.000000 0.152529
0.678004 0.000000 0.178042
0.898528 0.000000 0.179507
1.000000 0.000000 0.178317
1.000000 0.168551 0.171817
0.062684 0.135348 0.159854
0.111269 0.135714 0.160800
0.214908 0.132937 0.157076
0.419348 0.097200 0.169711
0.681544 0.000000 0.189822
0.897581 0.000000 0.185885
1.000000 0.000000 0.177554
1.000000 0.207095 0.168490
0.055634 0.242649 0.221958
0.131655 0.246403 0.224582
0.273136 0.258549 0.231449
0.487587 0.257725 0.229191
0.723293 0.243503 0.218387
0.917998 0.253727 0.209171
1.000000 0.296422 0.200748
1.000000 0.356603 0.196017
0.089784 0.511467 0.390784
0.186069 0.516991 0.393652
0.356390 0.534173 0.396857
0.555291 0.548821 0.344091
0.772061 0.519219 0.274388
0.925444 0.505119 0.252873
1.000000 0.509606 0.253727
1.000000 0.526116 0.257298
0.400031 0.750820 0.594812
0.424872 0.751461 0.595422
0.515465 0.755947 0.599664
0.639673 0.765866 0.605127
0.769009 0.759976 0.515129
0.907988 0.716945 0.400641
1.000000 0.690486 0.356176
1.000000 0.682246 0.354803
0.639490 0.859495 0.753719
0.650507 0.859983 0.755734
0.688716 0.860685 0.760830
0.740139 0.863828 0.764096
0.807248 0.867247 0.768521
0.875334 0.862821 0.693416
0.963378 0.838895 0.601709
1.000000 0.822110 0.568597
0.798123 0.919097 0.865110
0.800595 0.918853 0.865019
0.813230 0.918578 0.866331
0.831968 0.920043 0.867247
0.862058 0.922210 0.872221
0.890776 0.923766 0.866026
0.927855 0.920714 0.825437
0.983124 0.906950 0.766598
0.883207 0.957641 0.926726
0.884398 0.957549 0.926818
0.890837 0.957977 0.928344
0.901518 0.959899 0.930907
0.914305 0.961425 0.933104
0.930846 0.963378 0.936278
0.943511 0.963836 0.928862
0.964233 0.962402 0.908782
0.000000 0.122011 0.296361
0.102602 0.121767 0.303532
0.252781 0.113863 0.321691
0.428931 0.000000 0.311803
0.684993 0.000000 0.320317
0.894865 0.000000 0.358831
1.000000 0.259220 0.423438
1.000000 0.374395 0.440620
0.000000 0.150484 0.331456
0.112154 0.151125 0.335424
0.273411 0.148257 0.349706
0.455299 0.091432 0.337591
0.697627 0.000000 0.340154
0.898131 0.022797 0.379431
1.000000 0.318273 0.441993
1.000000 0.397925 0.446326
0.000000 0.260716 0.379065
0.091218 0.264408 0.387152
0.298253 0.274205 0.410254
0.506828 0.274052 0.405768
0.727657 0.304448 0.417426
0.901854 0.391608 0.468574
1.000000 0.460517 0.492927
1.000000 0.497871 0.485695
0.000000 0.501335 0.499245
0.158938 0.503502 0.500008
0.348455 0.515618 0.506279
0.552239 0.538079 0.518730
0.746273 0.549096 0.520134
0.895232 0.563653 0.520836
0.999268 0.581903 0.520775
1.000000 0.600977 0.516411
0.428046 0.741421 0.668910
0.449958 0.741268 0.668544
0.531762 0.744747 0.671473
0.650599 0.755245 0.681209
0.767391 0.759579 0.646082
0.890105 0.730800 0.590326
0.978454 0.719417 0.573510
1.000000 0.721035 0.574701
0.657893 0.856352 0.791470
0.672358 0.858610 0.795956
0.703334 0.858640 0.797787
0.757809 0.861021 0.804410
0.816403 0.866911 0.811795
0.871580 0.862821 0.763729
0.950378 0.843046 0.700313
1.000000 0.830961 0.675959
0.797726 0.917082 0.875608
0.801633 0.917327 0.876371
0.815824 0.917906 0.878691
0.840482 0.919341 0.883207
0.866606 0.922301 0.886442
0.896178 0.925017 0.887297
0.926696 0.921294 0.852995
0.977050 0.909270 0.809567
0.882719 0.958038 0.931182
0.884215 0.958068 0.931456
0.890593 0.958434 0.932708
0.902861 0.959533 0.935668
0.915312 0.961395 0.937499
0.931762 0.963470 0.940642
0.945495 0.964599 0.936522
0.964874 0.963378 0.918730
0.000000 0.141665 0.524865
0.000000 0.140658 0.532189
0.291722 0.130495 0.550530
0.524437 0.089937 0.583581
0.704860 0.000000 0.545922
0.892943 0.000000 0.520531
1.000000 0.273136 0.552728
1.000000 0.471015 0.609644
0.000000 0.175387 0.546258
0.093904 0.176059 0.553002
0.310948 0.173281 0.569238
0.536614 0.168063 0.596551
0.714473 0.000000 0.559686
0.894438 0.103487 0.531975
1.000000 0.329046 0.566278
1.000000 0.499611 0.621729
0.000000 0.295689 0.587121
0.121279 0.294591 0.591058
0.334142 0.307500 0.603601
0.558373 0.340673 0.629786
0.736629 0.321263 0.605951
0.885771 0.367681 0.577111
0.989044 0.479347 0.613184
1.000000 0.586450 0.662165
0.000000 0.489845 0.625757
0.132784 0.491737 0.626856
0.324804 0.499855 0.632898
0.564599 0.544945 0.671229
0.743465 0.566766 0.672419
0.867735 0.599054 0.666773
0.954833 0.653864 0.699489
1.000000 0.690639 0.718441
0.371801 0.707118 0.716213
0.398383 0.708675 0.717525
0.488533 0.713710 0.720912
0.614527 0.723171 0.727626
0.742245 0.735348 0.735714
0.853330 0.740902 0.736660
0.940185 0.749081 0.737606
1.000000 0.756558 0.734524
0.628992 0.838224 0.811917
0.639734 0.838499 0.812833
0.673487 0.838376 0.813291
0.729580 0.840665 0.816159
0.795956 0.846464 0.822660
0.859251 0.852842 0.810575
0.931518 0.840909 0.781949
0.990417 0.835447 0.769039
0.786709 0.911284 0.885435
0.788846 0.911070 0.885161
0.800443 0.911131 0.885283
0.826780 0.912993 0.888792
0.861112 0.915892 0.894377
0.894499 0.921202 0.900206
0.922484 0.918029 0.874479
0.970459 0.906493 0.840208
0.868894 0.954803 0.931518
0.870603 0.954803 0.931670
0.877775 0.955077 0.932708
0.893584 0.956939 0.936492
0.912230 0.958862 0.940642
0.929290 0.961791 0.943694
0.946136 0.964019 0.943908
0.963622 0.962249 0.926604
0.089479 0.187991 0.731106
0.186343 0.188998 0.735195
0.360784 0.191196 0.744839
0.564935 0.206912 0.765011
0.766293 0.239353 0.782254
0.903349 0.187930 0.745632
1.000000 0.326299 0.704646
1.000000 0.489570 0.714900
0.136599 0.221683 0.730190
0.206180 0.222843 0.732692
0.366827 0.229160 0.743008
0.564630 0.249729 0.762600
0.762844 0.287999 0.781033
0.897490 0.246891 0.744656
0.997681 0.357824 0.704952
1.000000 0.505730 0.717067
0.214481 0.346319 0.753384
0.262943 0.349645 0.755550
0.405280 0.365576 0.765560
0.585992 0.397955 0.779904
0.769894 0.458381 0.799496
0.892454 0.429419 0.766537
0.981079 0.493385 0.729702
1.000000 0.594720 0.747341
0.256992 0.519951 0.763638
0.303197 0.524865 0.766537
0.442298 0.548119 0.781430
0.604517 0.580285 0.801236
0.772732 0.638331 0.822904
0.878599 0.628534 0.803555
0.952941 0.655512 0.777096
1.000000 0.714656 0.799832
0.369512 0.686610 0.790555
0.390906 0.687495 0.790738
0.466835 0.691066 0.792020
0.579583 0.697566 0.795438
0.747097 0.736843 0.822904
0.853483 0.753902 0.825711
0.921843 0.769436 0.821103
0.975067 0.798459 0.839384
0.592248 0.821073 0.840330
0.605127 0.822507 0.841733
0.641962 0.823850 0.842588
0.702358 0.826810 0.844663
0.773922 0.831785 0.848051
0.848112 0.842100 0.856046
0.914519 0.848386 0.859739
0.969512 0.853147 0.860319
0.774380 0.905425 0.900511
0.779202 0.905974 0.901274
0.794064 0.906493 0.902403
0.820981 0.907897 0.904875
0.851774 0.910552 0.906828
0.888090 0.914733 0.910521
0.920165 0.916381 0.901274
0.964446 0.907408 0.881926
0.863706 0.952178 0.939452
0.864622 0.952087 0.939300
0.870115 0.952422 0.939483
0.882200 0.953826 0.940826
0.900694 0.955871 0.943145
0.925231 0.958923 0.947936
0.947112 0.963592 0.952605
0.963073 0.961822 0.938201
0.336980 0.283238 0.864988
0.368078 0.287510 0.866850
0.470649 0.301732 0.871153
0.620630 0.337499 0.879698
0.779446 0.405859 0.889616
0.906615 0.439277 0.889006
0.994446 0.420050 0.860655
1.000000 0.511467 0.820005
0.345525 0.311650 0.863096
0.375830 0.316350 0.865080
0.474311 0.330388 0.869413
0.618921 0.363470 0.877134
0.775448 0.428473 0.886931
0.900938 0.461219 0.886564
0.988586 0.438025 0.857969
1.000000 0.519707 0.817563
0.384375 0.419409 0.867460
0.409277 0.423072 0.868345
0.497078 0.437842 0.871733
0.630213 0.471290 0.878447
0.774319 0.528435 0.887083
0.892149 0.566491 0.889494
0.974792 0.545403 0.865629
1.000000 0.602045 0.832303
0.422766 0.563500 0.868437
0.434150 0.560571 0.869169
0.513878 0.573449 0.872282
0.638483 0.603723 0.879118
0.771420 0.649470 0.888151
0.879850 0.697932 0.895933
0.951019 0.676295 0.877470
0.996948 0.703212 0.852384
0.369818 0.665217 0.853971
0.389075 0.665644 0.853971
0.485908 0.678065 0.859922
0.628504 0.707149 0.872465
0.755337 0.737789 0.885161
0.864652 0.784268 0.898680
0.926452 0.774624 0.887572
0.974060 0.786862 0.872374
0.568200 0.805386 0.881498
0.576287 0.805631 0.881559
0.606958 0.805966 0.881468
0.660487 0.806485 0.881224
0.728969 0.806180 0.880705
0.846281 0.837461 0.900053
0.913939 0.852415 0.904570
0.958007 0.860075 0.901457
0.736385 0.890349 0.910918
0.740780 0.890684 0.911192
0.755581 0.891203 0.911528
0.783291 0.892546 0.912444
0.820493 0.894713 0.913787
0.864256 0.898741 0.916258
0.910216 0.905699 0.920867
0.955596 0.909606 0.922576
0.848417 0.947631 0.946777
0.850309 0.947784 0.946929
0.858579 0.948577 0.947845
0.872892 0.949767 0.949187
0.893217 0.951690 0.951324
0.915221 0.954833 0.953429
0.941680 0.959533 0.957244
0.962737 0.961181 0.952026
0.549401 0.454780 0.944213
0.563958 0.459113 0.944549
0.616602 0.472358 0.944884
0.705959 0.504448 0.946319
0.809506 0.554253 0.947906
0.903746 0.621271 0.949554
0.976410 0.622400 0.946197
1.000000 0.603326 0.928191
0.550561 0.471717 0.942565
0.565148 0.475959 0.942962
0.617517 0.489754 0.943572
0.705196 0.519646 0.944915
0.807706 0.567224 0.946654
0.901213 0.631617 0.948455
0.973083 0.632746 0.945159
1.000000 0.611872 0.927214
0.562829 0.540246 0.939757
0.575402 0.543328 0.940002
0.624475 0.555108 0.940551
0.709468 0.583886 0.942565
0.805997 0.623743 0.944244
0.894347 0.678279 0.946227
0.962066 0.685206 0.943999
1.000000 0.662226 0.927794
0.567773 0.627649 0.935424
0.580560 0.630701 0.935760
0.628412 0.641047 0.936553
0.708553 0.663539 0.938445
0.801389 0.697902 0.940856
0.884916 0.742641 0.943908
0.946960 0.758389 0.943847
0.998322 0.736355 0.930297
0.558221 0.712581 0.927337
0.572351 0.715145 0.927947
0.623163 0.724086 0.929564
0.689326 0.731136 0.933379
0.785855 0.759091 0.936736
0.870909 0.794522 0.941405
0.933471 0.821592 0.945129
0.979339 0.803311 0.934203
0.560357 0.794339 0.925261
0.563867 0.793149 0.924865
0.581262 0.788998 0.923613
0.628199 0.785092 0.922820
0.751858 0.808042 0.930175
0.851194 0.836820 0.939544
0.925078 0.873014 0.949126
0.965270 0.864897 0.942351
0.724605 0.887327 0.940612
0.726925 0.887144 0.940490
0.736782 0.886320 0.940032
0.756893 0.885039 0.939422
0.786404 0.882628 0.938293
0.824125 0.878080 0.936461
0.908385 0.901122 0.948669
0.957580 0.913573 0.952117
0.831174 0.941039 0.957061
0.832456 0.941039 0.957031
0.838437 0.941253 0.957122
0.850889 0.941985 0.957519
0.869108 0.943084 0.958068
0.893004 0.944823 0.958831
0.922362 0.947936 0.960357
0.956725 0.953918 0.963806
