20 Preset/Art Style/【3】LUT video cho PR-AE-FCPX/Portra 800 Muted Soft.cube
# Created by Adobe Lightroom plugin Export LUT (1.24.0)
# www.johnrellis.com/lightroom/exportlut.htm
# Preset: Portra 800 Muted Soft
# Color profile: E:\lut插件\exportlut.1.24\exportlut.lrplugin\color profiles\Rec709gamma2.4.icc
LUT_3D_SIZE 5
DOMAIN_MIN 0.000000 0.000000 0.000000
DOMAIN_MAX 0.903226 0.903226 0.903226
0.175357 0.168917 0.165316
0.181491 0.168368 0.164523
0.318364 0.181186 0.159365
0.639002 0.207523 0.138949
0.905974 0.327214 0.143252
0.169009 0.190860 0.167361
0.194919 0.190158 0.163241
0.350195 0.218235 0.154025
0.671473 0.267185 0.125063
0.909728 0.380987 0.127108
0.000000 0.518975 0.317967
0.161288 0.559808 0.310765
0.474891 0.477577 0.182437
0.736782 0.476814 0.115694
0.905943 0.523613 0.203677
0.646387 0.752529 0.676905
0.676112 0.757656 0.687800
0.753048 0.775906 0.721309
0.749569 0.718135 0.511162
0.872404 0.679805 0.418830
0.816831 0.806668 0.780362
0.822995 0.807553 0.782620
0.831449 0.810697 0.784695
0.845212 0.813016 0.787411
0.840116 0.796933 0.739315
0.174380 0.168093 0.167971
0.185580 0.167880 0.169192
0.336278 0.177157 0.174685
0.641840 0.204105 0.169528
0.891752 0.320470 0.174441
0.176455 0.190219 0.180056
0.211398 0.199374 0.185092
0.370275 0.220493 0.183108
0.669062 0.259709 0.171328
0.895384 0.366247 0.184665
0.102388 0.466407 0.328496
0.263096 0.501823 0.355566
0.470008 0.463752 0.245243
0.733120 0.474372 0.206882
0.900420 0.524804 0.274540
0.628656 0.744991 0.672297
0.669947 0.749416 0.687556
0.751339 0.770840 0.722316
0.751400 0.717464 0.548913
0.868864 0.682948 0.465949
0.813291 0.805661 0.779294
0.819760 0.806455 0.781613
0.834348 0.810910 0.786679
0.848417 0.813931 0.790158
0.842283 0.798215 0.746517
0.199435 0.191806 0.256413
0.230991 0.195895 0.265843
0.368475 0.199283 0.292454
0.694789 0.219638 0.346075
0.887480 0.353979 0.376776
0.215061 0.234745 0.300969
0.251225 0.240116 0.313146
0.413977 0.248569 0.338506
0.707027 0.290349 0.370977
0.887510 0.406683 0.401678
0.185306 0.417090 0.428779
0.265995 0.431189 0.441016
0.528801 0.489357 0.490272
0.741176 0.513024 0.477852
0.879637 0.552148 0.485969
0.519677 0.708888 0.649500
0.572107 0.713375 0.660761
0.723964 0.738674 0.711757
0.760311 0.717983 0.648646
0.855436 0.699367 0.607477
0.789059 0.800229 0.772274
0.798825 0.801358 0.775296
0.829221 0.806088 0.785580
0.852934 0.814542 0.794644
0.843534 0.797604 0.757046
0.263951 0.287907 0.543084
0.312261 0.294041 0.551843
0.486152 0.319310 0.584558
0.718288 0.340093 0.608270
0.860868 0.521538 0.639734
0.296483 0.339849 0.573510
0.342718 0.345647 0.579553
0.507591 0.371405 0.603296
0.723781 0.397803 0.622034
0.854795 0.547539 0.647486
0.353948 0.477119 0.615747
0.401587 0.485389 0.620325
0.575921 0.539055 0.654749
0.740597 0.576471 0.672602
0.842039 0.628504 0.678828
0.520592 0.671260 0.697902
0.547845 0.673426 0.699001
0.646937 0.687098 0.707881
0.768185 0.714656 0.727199
0.842130 0.716182 0.716609
0.712642 0.785428 0.758846
0.727047 0.786740 0.761349
0.780667 0.793423 0.773068
0.843931 0.806729 0.791989
0.848173 0.798856 0.775448
0.601312 0.564508 0.757839
0.617334 0.568566 0.758145
0.677211 0.586084 0.759915
0.766110 0.619989 0.763821
0.851133 0.636042 0.763394
0.617609 0.588098 0.758724
0.631983 0.591577 0.759091
0.686122 0.606561 0.760830
0.768704 0.636591 0.764797
0.849088 0.651087 0.764889
0.645899 0.641382 0.761227
0.663081 0.647852 0.762234
0.710872 0.662623 0.764858
0.777462 0.683925 0.769039
0.844663 0.696956 0.770932
0.686458 0.709712 0.770504
0.693477 0.710262 0.770382
0.722621 0.713283 0.770016
0.788540 0.735164 0.776211
0.844327 0.752163 0.781308
0.754238 0.779660 0.786587
0.758694 0.780148 0.786679
0.777279 0.782620 0.787442
0.810849 0.788052 0.789242
0.853880 0.799863 0.794553
