20 Preset/Art Style/【3】LUT video cho PR-AE-FCPX/Portra 400 Alt.cube
# Created by Adobe Lightroom plugin Export LUT (1.24.0)
# www.johnrellis.com/lightroom/exportlut.htm
# Preset: Portra 400 Alt
# Color profile: E:\lut插件\exportlut.1.24\exportlut.lrplugin\color profiles\Rec709gamma2.4.icc
LUT_3D_SIZE 5
DOMAIN_MIN 0.000000 0.000000 0.000000
DOMAIN_MAX 0.903226 0.903226 0.903226
0.079957 0.118532 0.136843
0.157565 0.123232 0.137453
0.614649 0.000000 0.121645
0.954101 0.092226 0.021942
1.000000 0.393530 0.144717
0.000000 0.170138 0.150057
0.130434 0.189303 0.139925
0.647486 0.204715 0.102480
0.949828 0.301732 0.000000
1.000000 0.463142 0.179202
0.000000 0.538964 0.238743
0.000000 0.563622 0.208042
0.604364 0.620661 0.123140
0.932769 0.624537 0.209110
1.000000 0.631403 0.316808
0.000000 0.788968 0.480262
0.000000 0.790524 0.495369
0.379950 0.797147 0.458717
0.826566 0.793332 0.484657
1.000000 0.802029 0.596246
0.426154 0.893339 0.709010
0.501976 0.892485 0.718776
0.621698 0.889006 0.719356
0.744778 0.899229 0.721401
0.929534 0.910796 0.744320
0.048219 0.122713 0.165072
0.153658 0.118257 0.178836
0.594232 0.000000 0.170352
0.921477 0.000000 0.195804
1.000000 0.379522 0.240635
0.000000 0.181338 0.191714
0.143587 0.202518 0.210849
0.609522 0.194980 0.208743
0.923033 0.283726 0.206485
1.000000 0.446571 0.261875
0.000000 0.533684 0.305913
0.000000 0.560327 0.315190
0.591547 0.604883 0.272953
0.910002 0.609613 0.319158
1.000000 0.633021 0.393469
0.000000 0.785519 0.515435
0.000000 0.787320 0.530907
0.447242 0.794553 0.520165
0.824155 0.792752 0.541344
0.994903 0.802121 0.630884
0.414374 0.892393 0.715724
0.491951 0.891295 0.724453
0.656031 0.892943 0.750637
0.752285 0.902953 0.743252
0.932372 0.915221 0.764401
0.000000 0.145327 0.373754
0.000000 0.137514 0.419867
0.668482 0.000000 0.481849
0.952178 0.000000 0.440162
1.000000 0.302953 0.410071
0.000000 0.241855 0.406134
0.000000 0.237919 0.448615
0.687312 0.190005 0.516747
0.935576 0.244968 0.456550
1.000000 0.437201 0.457404
0.000000 0.560662 0.503990
0.000000 0.580346 0.524620
0.642023 0.631525 0.601038
0.858457 0.624506 0.576165
0.984039 0.648157 0.577295
0.000000 0.776638 0.611780
0.000000 0.775692 0.619684
0.601099 0.782284 0.674006
0.821530 0.794736 0.686305
0.971435 0.799680 0.714107
0.248722 0.888457 0.730648
0.391821 0.887663 0.739284
0.637415 0.887205 0.772976
0.758541 0.898741 0.780331
0.929046 0.911833 0.797574
0.000000 0.218326 0.655146
0.000000 0.220615 0.680507
0.650629 0.087953 0.750149
0.934142 0.286046 0.743557
1.000000 0.505028 0.706508
0.000000 0.316747 0.657649
0.000000 0.309819 0.684138
0.628870 0.301213 0.747768
0.914549 0.414008 0.745235
1.000000 0.548791 0.711177
0.000000 0.563622 0.680903
0.000000 0.569207 0.689601
0.553063 0.606073 0.736355
0.859983 0.655207 0.769436
0.974426 0.666560 0.738125
0.000000 0.770474 0.734951
0.000000 0.770016 0.738949
0.561273 0.774319 0.762417
0.825467 0.800748 0.816251
0.943877 0.784970 0.788357
0.000000 0.886076 0.788754
0.219669 0.885374 0.791592
0.535668 0.885008 0.806485
0.778653 0.894316 0.848295
0.931212 0.914397 0.860166
0.000000 0.405402 0.856107
0.000000 0.424018 0.862119
0.621668 0.438087 0.882536
0.904051 0.501518 0.916045
1.000000 0.622461 0.888823
0.000000 0.466255 0.851194
0.000000 0.469093 0.858213
0.609033 0.504143 0.879057
0.889097 0.558740 0.913237
1.000000 0.649897 0.890684
0.000000 0.611627 0.841520
0.000000 0.610224 0.842924
0.538018 0.636927 0.865934
0.842924 0.683619 0.905516
0.985779 0.724056 0.899840
0.000000 0.772946 0.860044
0.000000 0.770382 0.860746
0.407965 0.761593 0.864622
0.764218 0.775021 0.890135
0.968933 0.809842 0.919432
0.000000 0.895171 0.895354
0.000000 0.893980 0.896178
0.481788 0.890593 0.900450
0.722499 0.891722 0.911589
0.947295 0.929564 0.951080
