20 Preset/Art Style/【3】LUT video cho PR-AE-FCPX/Portra 800 Warm.cube
# Created by Adobe Lightroom plugin Export LUT (1.24.0)
# www.johnrellis.com/lightroom/exportlut.htm
# Preset: Portra 800 Warm
# Color profile: E:\lut插件\exportlut.1.24\exportlut.lrplugin\color profiles\Rec709gamma2.4.icc
LUT_3D_SIZE 8
DOMAIN_MIN 0.000000 0.000000 0.000000
DOMAIN_MAX 0.903226 0.903226 0.903226
0.188327 0.169070 0.079133
0.184024 0.168215 0.078553
0.204257 0.168307 0.070039
0.302281 0.175540 0.038636
0.479194 0.182010 0.000000
0.694331 0.187198 0.000000
0.873808 0.240269 0.000000
0.960723 0.299351 0.000000
0.185580 0.165743 0.072816
0.184939 0.165988 0.072663
0.206119 0.171695 0.064485
0.297581 0.185916 0.028931
0.467933 0.200565 0.000000
0.683314 0.214054 0.000000
0.858488 0.261540 0.000000
0.952789 0.313024 0.000000
0.174685 0.213382 0.088563
0.176394 0.221073 0.075746
0.224002 0.210636 0.046021
0.328740 0.231083 0.000000
0.510216 0.258701 0.000000
0.723873 0.293339 0.000000
0.876127 0.342351 0.000000
0.954986 0.383825 0.000000
0.097475 0.409583 0.203342
0.120302 0.421912 0.200504
0.237125 0.482887 0.207401
0.391211 0.392584 0.041077
0.571069 0.396918 0.000000
0.766354 0.446418 0.000000
0.879210 0.463539 0.000000
0.946349 0.477668 0.000000
0.319554 0.661036 0.438331
0.362676 0.665400 0.446357
0.442115 0.690486 0.456580
0.585992 0.702419 0.478035
0.622583 0.606622 0.228580
0.735073 0.556420 0.000000
0.855558 0.576501 0.096407
0.924743 0.588128 0.198886
0.643977 0.746548 0.620722
0.662287 0.748898 0.629297
0.690211 0.755673 0.639277
0.737545 0.766415 0.661006
0.751553 0.760220 0.635981
0.753079 0.716182 0.460212
0.828458 0.671229 0.290379
0.894102 0.676295 0.376898
0.772000 0.785397 0.709651
0.776333 0.786038 0.711879
0.786130 0.788479 0.716335
0.799741 0.793606 0.722805
0.821592 0.799008 0.735561
0.816648 0.790402 0.708095
0.815610 0.767208 0.624323
0.862150 0.739528 0.499550
0.829007 0.807767 0.755764
0.830442 0.807980 0.756527
0.835111 0.809018 0.759182
0.840574 0.811276 0.762173
0.846647 0.813016 0.765072
0.854429 0.814786 0.768887
0.850553 0.809567 0.751186
0.851591 0.799069 0.711574
0.186282 0.167453 0.070130
0.184665 0.167117 0.070649
0.209720 0.164614 0.067750
0.304723 0.172061 0.042206
0.474159 0.180362 0.000000
0.684077 0.185611 0.000000
0.853941 0.234501 0.000000
0.947997 0.299687 0.000000
0.184878 0.166201 0.071382
0.185458 0.166476 0.072206
0.214694 0.170047 0.065614
0.310307 0.181430 0.035340
0.479286 0.192721 0.000000
0.686976 0.204135 0.000000
0.849058 0.250004 0.000000
0.943420 0.309911 0.000000
0.180392 0.208774 0.099458
0.190677 0.215549 0.102174
0.229435 0.214023 0.077028
0.336919 0.233066 0.020447
0.511315 0.254368 0.000000
0.712612 0.282475 0.000000
0.859373 0.325322 0.000000
0.945800 0.370825 0.000000
0.134157 0.385351 0.207553
0.166171 0.396887 0.212680
0.245640 0.457649 0.219608
0.379980 0.377600 0.105135
0.548302 0.379858 0.000000
0.741909 0.426947 0.000000
0.862760 0.446021 0.000000
0.938018 0.465126 0.000000
0.299687 0.648829 0.433967
0.342229 0.652583 0.440742
0.431586 0.677180 0.452644
0.578088 0.694362 0.478553
0.608698 0.592798 0.237247
0.724971 0.546685 0.000000
0.849210 0.570062 0.125399
0.920714 0.581994 0.201755
0.627710 0.741756 0.612604
0.641749 0.742763 0.617823
0.677943 0.749386 0.631189
0.728573 0.761807 0.654139
0.748440 0.757412 0.634699
0.750393 0.713222 0.463813
0.825772 0.668544 0.298833
0.891936 0.673548 0.379126
0.765347 0.782986 0.705318
0.768460 0.783230 0.706569
0.780423 0.785489 0.712001
0.795041 0.791318 0.718959
0.819150 0.797482 0.733333
0.815213 0.789151 0.707027
0.813138 0.764797 0.620569
0.860105 0.735927 0.492042
0.826261 0.806760 0.753750
0.828092 0.807126 0.754849
0.833524 0.808133 0.757900
0.839261 0.810513 0.761074
0.847623 0.813260 0.766171
0.855131 0.815000 0.769802
0.850675 0.809506 0.751736
0.851438 0.798856 0.711940
0.185458 0.165896 0.095827
0.188907 0.165774 0.096864
0.209049 0.165866 0.099947
0.335271 0.150820 0.115297
0.527276 0.118288 0.080690
0.730922 0.122652 0.000000
0.877592 0.204654 0.000000
0.958465 0.288029 0.000000
0.185336 0.170809 0.108797
0.191440 0.171023 0.110719
0.220829 0.173220 0.112306
0.346380 0.160952 0.117037
0.528801 0.150088 0.089631
0.729580 0.162234 0.000000
0.872465 0.226902 0.000000
0.954620 0.300908 0.000000
0.184176 0.212039 0.142519
0.195193 0.215213 0.146059
0.252811 0.227817 0.157443
0.376898 0.238376 0.146487
0.562615 0.249729 0.119722
0.748867 0.274296 0.024262
0.876005 0.318120 0.000000
0.951690 0.366339 0.000000
0.162814 0.357427 0.242252
0.187228 0.369207 0.251774
0.299260 0.417456 0.288975
0.416724 0.401740 0.221439
0.599512 0.411170 0.181064
0.766720 0.439216 0.154330
0.874022 0.453407 0.119417
0.941711 0.471199 0.128084
0.276432 0.621698 0.446509
0.318700 0.627466 0.453803
0.463783 0.649409 0.487678
0.619959 0.693294 0.544610
0.633051 0.606439 0.341253
0.747463 0.565881 0.228580
0.853788 0.583368 0.273198
0.918608 0.589380 0.300420
0.608667 0.733700 0.610559
0.624079 0.735042 0.615747
0.675257 0.739742 0.634363
0.725154 0.754208 0.655116
0.759731 0.757137 0.656397
0.754879 0.713313 0.511406
0.827268 0.673213 0.371496
0.888151 0.680964 0.443519
0.760281 0.780789 0.704677
0.763729 0.781033 0.705989
0.778439 0.782773 0.712459
0.796414 0.788418 0.721096
0.819059 0.795682 0.734340
0.819791 0.789944 0.716426
0.816312 0.766110 0.639704
0.859373 0.740169 0.534203
0.823270 0.805844 0.752621
0.824613 0.806027 0.753231
0.830838 0.806973 0.756619
0.839445 0.809567 0.761685
0.847501 0.812711 0.766506
0.857206 0.815518 0.772824
0.852537 0.810117 0.755795
0.852445 0.799405 0.717617
0.192142 0.172946 0.188632
0.201541 0.173556 0.192691
0.242313 0.176455 0.201938
0.322362 0.179843 0.211917
0.533196 0.160830 0.256260
0.762997 0.000000 0.205051
0.890043 0.023133 0.181643
0.961425 0.252873 0.176638
0.193576 0.185336 0.214115
0.205051 0.186282 0.216220
0.251286 0.190188 0.222538
0.338231 0.194125 0.230014
0.548058 0.177768 0.266117
0.769589 0.000000 0.207156
0.889158 0.147707 0.191409
0.959686 0.276768 0.185580
0.192966 0.234379 0.254765
0.205966 0.236149 0.259098
0.268956 0.246952 0.278477
0.382757 0.257939 0.283848
0.602228 0.250614 0.298802
0.785183 0.241123 0.258793
0.893004 0.312078 0.245792
0.956268 0.368261 0.233738
0.162509 0.360784 0.339391
0.187198 0.364782 0.342718
0.282078 0.383764 0.357580
0.459541 0.419715 0.383948
0.639124 0.431006 0.364538
0.780362 0.444862 0.338903
0.876005 0.460853 0.315679
0.939239 0.479896 0.303838
0.203677 0.564996 0.454047
0.247623 0.570733 0.459876
0.393561 0.598810 0.490700
0.598810 0.644831 0.552605
0.663172 0.620966 0.480537
0.769528 0.599512 0.430793
0.852506 0.607111 0.438972
0.911376 0.603967 0.426673
0.570214 0.719051 0.610224
0.592065 0.721950 0.617182
0.647364 0.727199 0.632807
0.724941 0.738735 0.661860
0.782925 0.761135 0.692714
0.766567 0.717189 0.585748
0.828794 0.685634 0.490730
0.879545 0.696742 0.541192
0.743771 0.775082 0.700343
0.748775 0.775753 0.702358
0.766751 0.778164 0.709712
0.795346 0.783078 0.723110
0.818631 0.792508 0.736202
0.828336 0.792294 0.732570
0.820706 0.767788 0.666316
0.857664 0.745480 0.588251
0.817075 0.804379 0.750759
0.818723 0.804623 0.751553
0.825620 0.805600 0.754971
0.837583 0.807797 0.761501
0.847318 0.811521 0.767239
0.857847 0.815152 0.774380
0.855558 0.811215 0.762478
0.854215 0.800351 0.726894
0.199924 0.202609 0.355261
0.214450 0.204410 0.359899
0.272160 0.209232 0.369909
0.381506 0.217563 0.388769
0.530053 0.215549 0.399542
0.740230 0.280552 0.452399
0.885405 0.219120 0.409033
0.961486 0.246555 0.357366
0.203708 0.219577 0.376745
0.219425 0.221256 0.380682
0.280339 0.226047 0.388891
0.392859 0.234440 0.403235
0.544610 0.235630 0.413581
0.745785 0.301274 0.459846
0.885496 0.246769 0.413642
0.958923 0.278202 0.365637
0.207584 0.277317 0.420081
0.224857 0.279911 0.425635
0.298161 0.287266 0.434852
0.429267 0.304265 0.449897
0.583581 0.318029 0.455787
0.756252 0.369360 0.479347
0.882322 0.329625 0.427222
0.947631 0.368658 0.392798
0.200717 0.388403 0.471992
0.225986 0.391150 0.474525
0.316808 0.404456 0.486732
0.480415 0.441810 0.515099
0.636255 0.470710 0.523125
0.774899 0.484962 0.518456
0.870146 0.471199 0.473030
0.928466 0.493965 0.450324
0.254795 0.556420 0.544305
0.284154 0.559472 0.546593
0.382513 0.570550 0.554223
0.527184 0.590814 0.568383
0.675502 0.616724 0.585595
0.768887 0.616175 0.568200
0.842130 0.613581 0.547204
0.900114 0.611627 0.525963
0.453315 0.684962 0.603021
0.470161 0.685847 0.604273
0.528923 0.688136 0.608118
0.640803 0.701503 0.631098
0.748684 0.726101 0.670741
0.771359 0.714961 0.637903
0.823514 0.702083 0.607080
0.870146 0.710323 0.617731
0.696193 0.761746 0.687068
0.701381 0.762142 0.688319
0.723690 0.764736 0.694850
0.764218 0.771084 0.709651
0.807462 0.780697 0.729763
0.835843 0.794217 0.747524
0.822965 0.767330 0.688838
0.855833 0.748562 0.633661
0.794766 0.799466 0.741817
0.797086 0.799710 0.742702
0.806485 0.800748 0.746487
0.823911 0.803647 0.754726
0.842954 0.807614 0.765072
0.855772 0.813199 0.773495
0.858824 0.812406 0.769894
0.854948 0.800198 0.735042
0.238346 0.264256 0.544305
0.258000 0.266300 0.546685
0.329656 0.272282 0.551476
0.451759 0.286503 0.564416
0.609003 0.317235 0.583948
0.742824 0.333074 0.582208
0.835630 0.483375 0.600183
0.912261 0.487892 0.580743
0.245975 0.278660 0.547448
0.264652 0.280186 0.548760
0.334936 0.286076 0.553735
0.454536 0.301061 0.566186
0.607538 0.330663 0.583124
0.740688 0.347662 0.582208
0.832303 0.491737 0.600397
0.910338 0.491585 0.580133
0.281132 0.346899 0.581353
0.299992 0.348699 0.582330
0.372503 0.357427 0.587030
0.487068 0.372686 0.592523
0.629938 0.406714 0.604150
0.752529 0.429267 0.602686
0.827787 0.544701 0.615991
0.903563 0.531090 0.592340
0.310460 0.443610 0.601892
0.331334 0.446998 0.603815
0.415106 0.465431 0.613825
0.540856 0.497017 0.627344
0.665431 0.532616 0.635859
0.764981 0.556970 0.635401
0.826719 0.611505 0.640345
0.893889 0.590784 0.613733
0.381476 0.566430 0.628870
0.398016 0.568109 0.629603
0.460914 0.575616 0.632715
0.563073 0.592248 0.639246
0.685695 0.627710 0.652674
0.765255 0.648402 0.657008
0.826078 0.654627 0.652125
0.885130 0.635004 0.622705
0.511620 0.675807 0.659419
0.525750 0.677638 0.660761
0.567559 0.681270 0.662654
0.634028 0.688380 0.666651
0.708583 0.699062 0.673182
0.778286 0.714900 0.684596
0.824735 0.713771 0.675135
0.867643 0.711391 0.663142
0.654994 0.749966 0.694697
0.661280 0.750484 0.695491
0.681209 0.751339 0.696956
0.715236 0.753445 0.700191
0.766018 0.761379 0.712367
0.821744 0.778653 0.738216
0.827848 0.769100 0.716030
0.855467 0.759792 0.693538
0.761440 0.791531 0.733577
0.763821 0.791714 0.734157
0.774868 0.792966 0.737301
0.795682 0.796048 0.744320
0.822660 0.800961 0.755306
0.849760 0.807767 0.769802
0.864073 0.814847 0.779812
0.856779 0.800839 0.746914
0.390173 0.374792 0.673426
0.404334 0.377386 0.674067
0.456367 0.386633 0.675593
0.544518 0.406378 0.678767
0.649958 0.439307 0.682490
0.751858 0.482582 0.685176
0.834653 0.508751 0.679591
0.861845 0.618647 0.679438
0.399878 0.389776 0.674769
0.413367 0.392187 0.675349
0.463691 0.400946 0.676844
0.548486 0.419226 0.679408
0.651759 0.451667 0.682887
0.751919 0.494026 0.685603
0.832914 0.518456 0.679957
0.860380 0.622889 0.680110
0.436561 0.446601 0.681666
0.448188 0.448493 0.681910
0.493080 0.456550 0.682795
0.570062 0.474067 0.684688
0.664149 0.504265 0.687434
0.756374 0.545922 0.690455
0.828519 0.566033 0.685573
0.856229 0.648310 0.687984
0.475715 0.521080 0.687160
0.487678 0.523857 0.687556
0.539147 0.539544 0.690120
0.605707 0.555901 0.691768
0.686213 0.581659 0.694240
0.764431 0.616693 0.698207
0.822690 0.629786 0.695186
0.851438 0.683131 0.700038
0.507561 0.593500 0.691157
0.515923 0.594385 0.691096
0.550408 0.599420 0.691432
0.626825 0.620935 0.695827
0.707912 0.649409 0.701625
0.771450 0.672419 0.706447
0.819638 0.684230 0.706600
0.852018 0.710597 0.711086
0.597467 0.679133 0.705013
0.603326 0.679866 0.705135
0.626307 0.682765 0.705653
0.666011 0.688289 0.706722
0.716854 0.696864 0.708705
0.779599 0.717433 0.717250
0.822263 0.730770 0.721767
0.856321 0.732998 0.719173
0.676356 0.741115 0.721553
0.679988 0.741543 0.721767
0.693690 0.742947 0.722438
0.719051 0.745815 0.723964
0.753017 0.750515 0.726589
0.791531 0.757504 0.731106
0.829252 0.767269 0.738430
0.856840 0.764767 0.730373
0.744198 0.786954 0.744320
0.746304 0.787076 0.744472
0.754971 0.787594 0.745174
0.770596 0.788632 0.746426
0.792081 0.790463 0.748684
0.821775 0.795682 0.756161
0.857145 0.807828 0.774960
0.859312 0.802060 0.761135
0.611994 0.562097 0.740841
0.617426 0.563958 0.740810
0.638148 0.570123 0.740536
0.675990 0.583337 0.740169
0.725154 0.603021 0.739834
0.777707 0.628595 0.739834
0.824460 0.649012 0.739376
0.864775 0.660822 0.735744
0.616754 0.569574 0.740566
0.622034 0.571344 0.740566
0.642237 0.577356 0.740322
0.678828 0.589746 0.740017
0.726680 0.608515 0.739773
0.778286 0.633112 0.739864
0.824216 0.652766 0.739437
0.863981 0.663813 0.735866
0.636378 0.598352 0.740536
0.640681 0.599573 0.740505
0.658289 0.604486 0.740352
0.691371 0.615320 0.740352
0.734371 0.630884 0.740261
0.781369 0.651545 0.740627
0.824338 0.669612 0.740780
0.861540 0.678157 0.737667
0.660639 0.636866 0.741115
0.665827 0.638911 0.741207
0.680629 0.642756 0.741146
0.708248 0.650782 0.741329
0.745266 0.662898 0.741695
0.786435 0.679072 0.742641
0.825345 0.695491 0.743832
0.858366 0.700984 0.741299
0.660700 0.662531 0.741482
0.665095 0.663844 0.741604
0.682338 0.668757 0.742000
0.718502 0.682399 0.743130
0.753872 0.693904 0.744198
0.790677 0.706416 0.745632
0.827024 0.722469 0.748196
0.855711 0.726314 0.746456
0.690089 0.706935 0.745785
0.692073 0.707027 0.745693
0.700771 0.707546 0.745418
0.717952 0.709010 0.745052
0.750454 0.716426 0.746304
0.794217 0.733059 0.749996
0.828824 0.747005 0.753567
0.854795 0.753384 0.753933
0.731746 0.751003 0.754177
0.733211 0.751125 0.754147
0.739528 0.751675 0.754147
0.752102 0.752895 0.754208
0.770840 0.754879 0.754421
0.795071 0.757900 0.754849
0.830442 0.769650 0.759701
0.856107 0.778805 0.763210
0.769558 0.785061 0.764218
0.770626 0.785153 0.764248
0.775143 0.785672 0.764462
0.784329 0.786740 0.764920
0.798093 0.788510 0.765743
0.816098 0.791135 0.767117
0.837736 0.795254 0.769650
0.860777 0.801999 0.774929
