20 Preset/Art Style/【3】LUT video cho PR-AE-FCPX/Portra 400 Alt.cube
# Created by Adobe Lightroom plugin Export LUT (1.24.0)
# www.johnrellis.com/lightroom/exportlut.htm
# Preset: Portra 400 Alt
# Color profile: E:\lut插件\exportlut.1.24\exportlut.lrplugin\color profiles\Rec709gamma2.4.icc
LUT_3D_SIZE 8
DOMAIN_MIN 0.000000 0.000000 0.000000
DOMAIN_MAX 0.903226 0.903226 0.903226
0.079957 0.118532 0.136843
0.093904 0.119417 0.137087
0.197848 0.122713 0.137301
0.458656 0.000000 0.130739
0.745754 0.000000 0.107973
0.923522 0.000000 0.041291
1.000000 0.257969 0.034577
1.000000 0.393530 0.144717
0.069032 0.125673 0.139345
0.088563 0.127871 0.138521
0.197665 0.139284 0.136873
0.448219 0.104372 0.129641
0.731960 0.000000 0.106294
0.909483 0.077638 0.036530
1.000000 0.266270 0.017487
1.000000 0.393500 0.133669
0.000000 0.199283 0.156252
0.000000 0.207279 0.150790
0.160464 0.229648 0.138399
0.521324 0.268681 0.106630
0.769467 0.271580 0.032776
0.922210 0.327092 0.000000
1.000000 0.403662 0.082612
1.000000 0.480323 0.186160
0.000000 0.410071 0.197452
0.000000 0.418555 0.194095
0.000000 0.444404 0.137972
0.455177 0.506615 0.065003
0.823453 0.567773 0.000000
0.927062 0.547845 0.114137
0.993530 0.553521 0.185153
1.000000 0.581506 0.265507
0.000000 0.642603 0.298772
0.000000 0.647028 0.298863
0.000000 0.664668 0.274662
0.000000 0.681636 0.227146
0.693324 0.687007 0.218875
0.893645 0.698024 0.279057
0.968170 0.681605 0.328496
1.000000 0.684108 0.388525
0.000000 0.764248 0.436683
0.000000 0.768978 0.446754
0.000000 0.772122 0.463416
0.000000 0.780179 0.402502
0.553918 0.776577 0.418433
0.807980 0.776669 0.435004
0.937438 0.786801 0.501518
1.000000 0.781918 0.560815
0.000000 0.834409 0.575463
0.000000 0.834592 0.580621
0.250828 0.832853 0.595575
0.440253 0.834104 0.595850
0.548089 0.836240 0.573053
0.726375 0.834562 0.589014
0.870695 0.838407 0.606500
0.978485 0.850675 0.652003
0.426154 0.893339 0.709010
0.447883 0.893034 0.711391
0.525841 0.892393 0.722621
0.630488 0.893095 0.744411
0.634211 0.892760 0.706081
0.718868 0.897826 0.717189
0.822904 0.903380 0.732143
0.929534 0.910796 0.744320
0.075288 0.119631 0.142061
0.092714 0.119844 0.143038
0.187900 0.113161 0.142794
0.415106 0.037415 0.146761
0.710658 0.000000 0.135988
0.897215 0.000000 0.118746
0.992981 0.220523 0.116915
1.000000 0.365423 0.160800
0.063539 0.127199 0.144594
0.088746 0.129610 0.147036
0.186984 0.136355 0.149386
0.426795 0.104585 0.147555
0.714595 0.000000 0.134951
0.894987 0.014984 0.115938
0.986908 0.246647 0.113985
1.000000 0.372869 0.156344
0.000000 0.200198 0.169100
0.000000 0.208621 0.169833
0.164034 0.231205 0.158053
0.495491 0.257572 0.144594
0.749722 0.258885 0.122164
0.902678 0.306157 0.106569
0.986786 0.374029 0.127260
1.000000 0.456123 0.190982
0.000000 0.395392 0.213657
0.000000 0.404578 0.212680
0.000000 0.436194 0.170382
0.427527 0.480873 0.142550
0.786282 0.531609 0.119692
0.902800 0.517662 0.144656
0.976501 0.526574 0.187533
1.000000 0.559808 0.254826
0.000000 0.635309 0.312932
0.000000 0.638514 0.312779
0.000000 0.654749 0.304845
0.000000 0.669032 0.247562
0.675410 0.672389 0.234440
0.881956 0.685847 0.288090
0.959167 0.671046 0.330846
1.000000 0.674434 0.383398
0.000000 0.756680 0.437568
0.000000 0.758083 0.441138
0.000000 0.762509 0.457069
0.000000 0.772152 0.406775
0.543328 0.770474 0.422217
0.802609 0.772396 0.442054
0.932403 0.782620 0.506218
1.000000 0.777340 0.558404
0.000000 0.829313 0.568719
0.000000 0.828367 0.570031
0.154726 0.826719 0.584222
0.429297 0.828061 0.592218
0.539391 0.831998 0.570031
0.720027 0.830411 0.585931
0.865568 0.833036 0.600092
0.972778 0.844633 0.643275
0.393805 0.889067 0.700801
0.423377 0.889433 0.704952
0.507439 0.888548 0.715969
0.619562 0.889097 0.738491
0.647425 0.895445 0.719020
0.721950 0.898741 0.723201
0.822202 0.902403 0.734096
0.928618 0.909667 0.745602
0.019837 0.124514 0.181704
0.069398 0.122988 0.189578
0.197726 0.113924 0.204562
0.470924 0.000000 0.209598
0.740963 0.000000 0.189059
0.904112 0.000000 0.217044
0.989075 0.257206 0.243534
1.000000 0.397192 0.280186
0.000000 0.140780 0.190433
0.026856 0.138308 0.199374
0.204196 0.133486 0.214298
0.465126 0.000000 0.210910
0.730129 0.000000 0.202304
0.892454 0.074861 0.227451
0.983368 0.277806 0.241428
1.000000 0.404517 0.276799
0.000000 0.217807 0.222141
0.000000 0.225498 0.228244
0.192538 0.251377 0.251499
0.480385 0.256809 0.250584
0.749172 0.267460 0.248264
0.898131 0.322789 0.249546
0.980102 0.394537 0.263645
1.000000 0.474403 0.303075
0.000000 0.413306 0.282414
0.000000 0.424170 0.287816
0.000000 0.467292 0.308568
0.478370 0.509850 0.289494
0.780331 0.535241 0.307561
0.895506 0.529747 0.308934
0.969207 0.544305 0.325689
1.000000 0.577935 0.366064
0.000000 0.639582 0.383032
0.000000 0.643732 0.386023
0.000000 0.660090 0.401740
0.246159 0.680140 0.375952
0.694514 0.684657 0.379004
0.876432 0.693172 0.429145
0.947997 0.678553 0.439002
1.000000 0.683833 0.469978
0.000000 0.755459 0.484993
0.000000 0.757046 0.488991
0.000000 0.760494 0.504509
0.332555 0.766690 0.509667
0.568322 0.769589 0.499123
0.801328 0.772641 0.516747
0.924712 0.783780 0.571313
0.993988 0.780606 0.607874
0.000000 0.829252 0.597498
0.000000 0.828458 0.599237
0.227359 0.826383 0.610712
0.507744 0.825071 0.639582
0.571862 0.830747 0.609857
0.728389 0.831052 0.626459
0.866392 0.835843 0.643000
0.972045 0.848844 0.683040
0.384497 0.888975 0.710445
0.407721 0.888304 0.711879
0.495155 0.887266 0.722133
0.614221 0.888640 0.745602
0.667659 0.893767 0.741238
0.729305 0.899413 0.740322
0.824430 0.904204 0.751827
0.929656 0.911650 0.762295
0.000000 0.135042 0.293248
0.000000 0.134066 0.308995
0.200565 0.113039 0.355383
0.500664 0.000000 0.373388
0.782742 0.000000 0.380133
0.928130 0.000000 0.336889
1.000000 0.000000 0.318914
1.000000 0.361852 0.371679
0.000000 0.160464 0.309636
0.000000 0.155550 0.325017
0.197482 0.141604 0.369512
0.516655 0.000000 0.387610
0.787381 0.000000 0.388495
0.925414 0.000000 0.341405
0.996918 0.127443 0.332158
1.000000 0.391577 0.382940
0.000000 0.251865 0.341588
0.000000 0.255680 0.349371
0.101747 0.264134 0.388708
0.531151 0.253666 0.421302
0.782376 0.243229 0.409979
0.913268 0.257176 0.373480
0.974304 0.409308 0.406775
1.000000 0.507256 0.447395
0.000000 0.444984 0.403906
0.000000 0.453010 0.410437
0.000000 0.485695 0.439826
0.524804 0.531212 0.494301
0.740017 0.530846 0.481758
0.862608 0.539971 0.473060
0.942962 0.561059 0.474098
1.000000 0.595270 0.493019
0.000000 0.649165 0.482368
0.000000 0.651972 0.486549
0.000000 0.665156 0.508721
0.483284 0.685389 0.557671
0.714656 0.698787 0.558190
0.855955 0.700496 0.578759
0.927306 0.691402 0.569818
0.989776 0.696407 0.576043
0.000000 0.759274 0.563165
0.000000 0.762631 0.570977
0.000000 0.763973 0.584253
0.487984 0.767758 0.617792
0.632197 0.775723 0.617823
0.805722 0.778805 0.627558
0.914977 0.789487 0.666285
0.982086 0.785183 0.674647
0.000000 0.827970 0.637842
0.000000 0.827970 0.641230
0.289677 0.827176 0.653803
0.526848 0.826719 0.679988
0.644892 0.831083 0.688350
0.744900 0.834470 0.691371
0.867185 0.839445 0.701747
0.969329 0.852537 0.734188
0.362921 0.891783 0.731563
0.390326 0.891417 0.733486
0.482734 0.890196 0.742245
0.601617 0.889799 0.760372
0.702235 0.892485 0.780697
0.739620 0.900237 0.767391
0.826871 0.906340 0.779019
0.931792 0.915099 0.789670
0.000000 0.159701 0.460456
0.000000 0.159884 0.477546
0.000000 0.146120 0.518334
0.555718 0.000000 0.592035
0.796353 0.000000 0.586206
0.930083 0.000000 0.570367
0.999054 0.209079 0.517357
1.000000 0.331426 0.493019
0.000000 0.190158 0.472053
0.000000 0.185092 0.488838
0.000000 0.178256 0.530755
0.554742 0.000000 0.597253
0.797848 0.000000 0.592706
0.925780 0.185794 0.573693
0.994629 0.262150 0.521996
1.000000 0.358312 0.497597
0.000000 0.294255 0.491676
0.000000 0.294682 0.497841
0.000000 0.293309 0.544366
0.532616 0.278935 0.610620
0.786343 0.299443 0.608453
0.900603 0.368475 0.580011
0.973999 0.393713 0.536095
1.000000 0.436072 0.510735
0.000000 0.466529 0.538598
0.000000 0.470985 0.543725
0.000000 0.488930 0.566766
0.464240 0.520836 0.615564
0.753872 0.548516 0.642695
0.861357 0.557183 0.613306
0.940673 0.547295 0.575891
0.994324 0.583398 0.577905
0.000000 0.647578 0.589288
0.000000 0.650996 0.593774
0.000000 0.661921 0.610163
0.469306 0.677272 0.640742
0.718685 0.699214 0.682216
0.817777 0.689723 0.664851
0.897124 0.685756 0.650446
0.966491 0.691707 0.645655
0.000000 0.746792 0.618677
0.000000 0.747494 0.621454
0.000000 0.748653 0.631403
0.464393 0.753567 0.658198
0.678126 0.763821 0.699184
0.802792 0.777676 0.710994
0.898314 0.785367 0.730098
0.965393 0.780240 0.722560
0.000000 0.822904 0.677150
0.000000 0.822263 0.677699
0.169894 0.820951 0.683711
0.480873 0.821164 0.704433
0.670924 0.824399 0.739803
0.753414 0.832822 0.744747
0.864378 0.838682 0.752956
0.962860 0.850278 0.777615
0.000000 0.888579 0.737240
0.000000 0.887999 0.738705
0.342931 0.886137 0.746120
0.539025 0.886412 0.767086
0.679438 0.887938 0.792386
0.750393 0.896391 0.798123
0.824338 0.904234 0.805020
0.929778 0.912871 0.813748
0.000000 0.207218 0.629603
0.000000 0.204715 0.639704
0.000000 0.203403 0.663233
0.501701 0.134340 0.711177
0.809018 0.000000 0.755764
0.921202 0.231357 0.724147
0.977203 0.425177 0.704311
1.000000 0.486458 0.676204
0.000000 0.234348 0.624994
0.000000 0.229496 0.633539
0.000000 0.230259 0.660945
0.486397 0.186130 0.704494
0.798856 0.000000 0.750362
0.913329 0.270451 0.720302
0.970855 0.440650 0.702144
1.000000 0.492744 0.673793
0.000000 0.342351 0.634150
0.000000 0.342260 0.641840
0.000000 0.339574 0.674128
0.469978 0.341711 0.710475
0.783871 0.341497 0.757351
0.894347 0.431800 0.729305
0.951934 0.529992 0.714076
1.000000 0.550622 0.685725
0.000000 0.498146 0.658900
0.000000 0.498970 0.661067
0.000000 0.507012 0.673274
0.438819 0.536522 0.714900
0.737972 0.570275 0.760769
0.863767 0.604730 0.752285
0.926238 0.635859 0.736995
0.990692 0.631769 0.710170
0.000000 0.640192 0.678614
0.000000 0.641596 0.680781
0.000000 0.647639 0.690669
0.417609 0.660060 0.709865
0.679011 0.685817 0.744869
0.828794 0.705470 0.766415
0.898650 0.702419 0.746609
0.970214 0.686244 0.717708
0.000000 0.749905 0.708217
0.000000 0.751522 0.711727
0.000000 0.752865 0.718868
0.455268 0.755978 0.733455
0.666407 0.763882 0.756710
0.809415 0.784634 0.794644
0.876677 0.775998 0.779538
0.948608 0.771145 0.767544
0.000000 0.821683 0.737453
0.000000 0.821988 0.739528
0.251530 0.821042 0.744076
0.484352 0.819974 0.754147
0.651484 0.822416 0.775448
0.782681 0.833188 0.809689
0.868711 0.844541 0.816251
0.960052 0.851560 0.828458
0.000000 0.886839 0.777188
0.000000 0.886168 0.777096
0.249302 0.884947 0.779599
0.448707 0.884428 0.787869
0.615442 0.884611 0.803647
0.757137 0.890745 0.834073
0.824796 0.904173 0.841276
0.930571 0.913817 0.849729
0.000000 0.276707 0.749386
0.000000 0.273167 0.754269
0.000000 0.283268 0.768429
0.461158 0.269261 0.791775
0.740322 0.252354 0.821988
0.909667 0.316106 0.840208
0.966918 0.457374 0.808408
1.000000 0.569635 0.791836
0.000000 0.302159 0.748165
0.000000 0.299351 0.753048
0.000000 0.307958 0.768185
0.455604 0.298924 0.790585
0.734829 0.292302 0.820676
0.904601 0.351446 0.839567
0.962463 0.476478 0.808316
0.999207 0.579156 0.792355
0.000000 0.389593 0.744350
0.000000 0.388830 0.748592
0.000000 0.387732 0.765927
0.439918 0.405219 0.789364
0.714656 0.422126 0.817990
0.886320 0.470954 0.840238
0.947173 0.550927 0.812955
0.988800 0.623804 0.800717
0.000000 0.512627 0.744228
0.000000 0.511772 0.745022
0.000000 0.512688 0.751492
0.389075 0.536492 0.781979
0.679713 0.570214 0.812161
0.857084 0.603876 0.843107
0.924254 0.643091 0.822263
0.974304 0.683070 0.814847
0.000000 0.638422 0.756985
0.000000 0.638453 0.757900
0.000000 0.639155 0.762387
0.320531 0.641962 0.771420
0.632746 0.670497 0.800870
0.816678 0.700587 0.839933
0.902708 0.719387 0.834806
0.962799 0.734432 0.828214
0.000000 0.741817 0.775509
0.000000 0.741878 0.776425
0.000000 0.741787 0.780179
0.353246 0.742123 0.787778
0.599939 0.746242 0.800778
0.772946 0.766903 0.831144
0.886778 0.786007 0.854063
0.954070 0.780301 0.839811
0.000000 0.819730 0.799680
0.000000 0.819547 0.800534
0.000000 0.818662 0.803769
0.424231 0.817716 0.810727
0.617945 0.818753 0.822782
0.759823 0.826993 0.843351
0.874998 0.850187 0.878386
0.941802 0.836332 0.859464
0.000000 0.885985 0.829404
0.000000 0.885740 0.829923
0.256870 0.884977 0.832212
0.448219 0.883574 0.836484
0.599847 0.883146 0.843748
0.722194 0.887541 0.858213
0.842222 0.902251 0.887510
0.935454 0.918517 0.896147
0.000000 0.405402 0.856107
0.000000 0.405219 0.858152
0.204990 0.424811 0.864012
0.510857 0.431159 0.875151
0.717861 0.449622 0.891051
0.872404 0.488624 0.910674
0.966857 0.550195 0.915404
1.000000 0.622461 0.888823
0.000000 0.422950 0.854459
0.000000 0.423072 0.856504
0.200443 0.442634 0.862974
0.507683 0.449561 0.873960
0.713924 0.468238 0.889952
0.868132 0.505760 0.909667
0.963714 0.562127 0.915007
1.000000 0.629419 0.888945
0.000000 0.484565 0.849302
0.000000 0.485206 0.851194
0.000000 0.489845 0.858793
0.495308 0.516869 0.870512
0.699763 0.535088 0.886564
0.852354 0.566064 0.906737
0.952392 0.607752 0.915007
1.000000 0.658412 0.891295
0.000000 0.565759 0.839048
0.000000 0.566552 0.840940
0.000000 0.570794 0.848447
0.440497 0.589441 0.863066
0.673518 0.618341 0.880613
0.826749 0.642939 0.902373
0.935119 0.671046 0.916411
0.991180 0.701534 0.896452
0.000000 0.660670 0.844968
0.000000 0.659785 0.845396
0.000000 0.655299 0.846555
0.290196 0.654170 0.849516
0.616724 0.680507 0.870512
0.791836 0.708156 0.896086
0.915740 0.730129 0.920043
0.980621 0.747463 0.904234
0.000000 0.752193 0.855894
0.000000 0.751431 0.856016
0.000000 0.748226 0.856809
0.228580 0.742824 0.858854
0.519554 0.736599 0.862699
0.738308 0.757015 0.884977
0.885954 0.784604 0.920775
0.971435 0.796780 0.916045
0.000000 0.827817 0.872953
0.000000 0.827329 0.873136
0.000000 0.825193 0.874022
0.309239 0.821500 0.876097
0.535180 0.817197 0.879881
0.694667 0.815061 0.886870
0.836454 0.829648 0.910094
0.960693 0.853544 0.931060
0.000000 0.895171 0.895354
0.000000 0.894835 0.895537
0.139193 0.893584 0.896544
0.395392 0.891600 0.898741
0.558373 0.889891 0.902586
0.692226 0.890654 0.909209
0.813962 0.898741 0.921813
0.947295 0.929564 0.951080
