20 Preset/Art Style/【3】LUT video cho PR-AE-FCPX/Portra 800 Warm.cube
# Created by Adobe Lightroom plugin Export LUT (1.24.0)
# www.johnrellis.com/lightroom/exportlut.htm
# Preset: Portra 800 Warm
# Color profile: E:\lut插件\exportlut.1.24\exportlut.lrplugin\color profiles\Rec709gamma2.4.icc
LUT_3D_SIZE 32
DOMAIN_MIN 0.0 0.0 0.0
DOMAIN_MAX 1.0 1.0 1.0
0.188327 0.169070 0.079133
0.188083 0.169100 0.078431
0.187472 0.168826 0.078614
0.185519 0.168734 0.078859
0.184024 0.168215 0.078553
0.183413 0.167941 0.078004
0.186160 0.167788 0.075502
0.193118 0.167758 0.073365
0.204257 0.168307 0.070039
0.221530 0.169314 0.065064
0.243565 0.171054 0.058106
0.270512 0.173129 0.049134
0.302281 0.175540 0.038636
0.338964 0.178103 0.023957
0.380987 0.180148 0.006958
0.427893 0.181643 0.000000
0.479194 0.182010 0.000000
0.532952 0.182254 0.000000
0.588067 0.182284 0.000000
0.642573 0.183139 0.000000
0.694331 0.187198 0.000000
0.750912 0.196139 0.000000
0.800443 0.209476 0.000000
0.840909 0.224796 0.000000
0.873808 0.240269 0.000000
0.900908 0.255314 0.000000
0.923735 0.270115 0.000000
0.943450 0.284642 0.000000
0.960723 0.299351 0.000000
0.976104 0.314488 0.000000
0.989685 0.330663 0.000000
1.000000 0.348608 0.000000
0.188174 0.168917 0.078523
0.187930 0.168948 0.078523
0.187198 0.168856 0.078614
0.185611 0.168551 0.078950
0.184024 0.168215 0.078553
0.183536 0.167758 0.078126
0.186160 0.167788 0.075502
0.192630 0.167819 0.073396
0.203708 0.168551 0.069917
0.220249 0.169528 0.065095
0.242130 0.171145 0.058320
0.268772 0.173312 0.049348
0.299748 0.175814 0.039094
0.336034 0.178439 0.024628
0.377386 0.180667 0.007874
0.423774 0.182376 0.000000
0.474769 0.182986 0.000000
0.528344 0.183291 0.000000
0.583612 0.183261 0.000000
0.637964 0.184390 0.000000
0.689570 0.188113 0.000000
0.745296 0.196109 0.000000
0.794308 0.208743 0.000000
0.834867 0.223514 0.000000
0.868223 0.238468 0.000000
0.895995 0.253300 0.000000
0.919493 0.267826 0.000000
0.939757 0.282261 0.000000
0.957610 0.296941 0.000000
0.973510 0.311864 0.000000
0.987549 0.327947 0.000000
0.999817 0.345708 0.000000
0.187839 0.168246 0.077089
0.187686 0.168093 0.077241
0.187198 0.167971 0.078401
0.185885 0.167636 0.077913
0.184176 0.167483 0.078218
0.184024 0.167330 0.077302
0.186526 0.167544 0.075624
0.192691 0.168154 0.073091
0.203189 0.169162 0.069459
0.219638 0.170504 0.064363
0.241337 0.172305 0.057465
0.267552 0.174746 0.048341
0.298314 0.177646 0.037812
0.333928 0.180606 0.023224
0.375036 0.183291 0.006226
0.421149 0.185183 0.000000
0.471778 0.186252 0.000000
0.525566 0.186801 0.000000
0.580529 0.187167 0.000000
0.634760 0.188846 0.000000
0.686854 0.192752 0.000000
0.742824 0.201358 0.000000
0.791318 0.213046 0.000000
0.831876 0.227268 0.000000
0.865293 0.241764 0.000000
0.893156 0.255833 0.000000
0.916960 0.270085 0.000000
0.937591 0.284184 0.000000
0.955779 0.298192 0.000000
0.971893 0.313115 0.000000
0.986145 0.328771 0.000000
0.998596 0.346136 0.000000
0.186679 0.166842 0.075105
0.186404 0.166873 0.075105
0.186496 0.166690 0.075257
0.185885 0.166384 0.075593
0.184237 0.166598 0.075624
0.184695 0.166720 0.075471
0.187411 0.167453 0.073335
0.193729 0.168551 0.071473
0.204318 0.170230 0.067231
0.219638 0.172396 0.062684
0.240879 0.174929 0.055177
0.266941 0.178012 0.045472
0.297398 0.181247 0.034668
0.332616 0.184909 0.019501
0.373114 0.188022 0.002258
0.418555 0.190616 0.000000
0.468818 0.192386 0.000000
0.521569 0.193729 0.000000
0.575860 0.194949 0.000000
0.629938 0.197238 0.000000
0.682277 0.201389 0.000000
0.737575 0.209720 0.000000
0.785245 0.221317 0.000000
0.826291 0.234531 0.000000
0.860746 0.248386 0.000000
0.889738 0.262730 0.000000
0.914549 0.276555 0.000000
0.935851 0.290227 0.000000
0.954437 0.303960 0.000000
0.970764 0.318212 0.000000
0.985016 0.333257 0.000000
0.997406 0.349676 0.000000
0.185580 0.165743 0.072816
0.185580 0.165743 0.072816
0.185580 0.165743 0.072816
0.185214 0.165957 0.072663
0.184939 0.165988 0.072663
0.185367 0.166659 0.072053
0.188540 0.167849 0.070588
0.195377 0.169741 0.067933
0.206119 0.171695 0.064485
0.222080 0.174380 0.058198
0.242649 0.177768 0.051057
0.267979 0.181674 0.041779
0.297581 0.185916 0.028931
0.332555 0.190219 0.014160
0.372534 0.194247 0.000000
0.418036 0.197757 0.000000
0.467933 0.200565 0.000000
0.521080 0.202792 0.000000
0.575097 0.205173 0.000000
0.628870 0.208438 0.000000
0.683314 0.214054 0.000000
0.736538 0.223178 0.000000
0.783017 0.235080 0.000000
0.823972 0.248264 0.000000
0.858488 0.261540 0.000000
0.887816 0.274632 0.000000
0.912749 0.287572 0.000000
0.934112 0.300084 0.000000
0.952789 0.313024 0.000000
0.969116 0.326543 0.000000
0.983459 0.340551 0.000000
0.995880 0.356176 0.000000
0.183810 0.167758 0.070192
0.183810 0.167758 0.070192
0.183627 0.168124 0.069917
0.183963 0.168460 0.069581
0.185153 0.168643 0.069245
0.186648 0.168276 0.068208
0.190280 0.169375 0.067872
0.197452 0.171908 0.064576
0.208927 0.175204 0.058625
0.226078 0.178897 0.052155
0.247257 0.182925 0.044068
0.272831 0.187289 0.033967
0.302983 0.191958 0.022400
0.338293 0.196841 0.006500
0.378882 0.201389 0.000000
0.424353 0.205234 0.000000
0.474678 0.208621 0.000000
0.527520 0.211887 0.000000
0.581384 0.215213 0.000000
0.634302 0.219669 0.000000
0.690486 0.226810 0.000000
0.741787 0.236698 0.000000
0.820371 0.262455 0.000000
0.856229 0.277195 0.000000
0.885527 0.291691 0.000000
0.909850 0.305455 0.000000
0.930480 0.318364 0.000000
0.948669 0.329259 0.000000
0.964599 0.340764 0.000000
0.978607 0.352880 0.000000
0.990875 0.365911 0.000000
1.000000 0.380346 0.000000
0.181552 0.175723 0.071321
0.181430 0.175906 0.071199
0.181613 0.176547 0.070558
0.181643 0.177554 0.067384
0.183749 0.179263 0.066621
0.188479 0.178225 0.064668
0.193362 0.176150 0.062501
0.201328 0.177584 0.058808
0.214908 0.181827 0.052522
0.233677 0.186984 0.045106
0.257816 0.192660 0.034241
0.286046 0.198215 0.021485
0.318120 0.203586 0.007691
0.354955 0.208927 0.000000
0.396796 0.213687 0.000000
0.443610 0.218051 0.000000
0.493721 0.221988 0.000000
0.545922 0.226017 0.000000
0.598993 0.230747 0.000000
0.655695 0.237400 0.000000
0.713588 0.247532 0.000000
0.765530 0.260166 0.000000
0.810941 0.274815 0.000000
0.849027 0.289494 0.000000
0.880308 0.303838 0.000000
0.905638 0.317418 0.000000
0.926665 0.329961 0.000000
0.944610 0.342443 0.000000
0.960388 0.354589 0.000000
0.974670 0.364965 0.000000
0.987274 0.376654 0.000000
0.998169 0.389685 0.000000
0.178622 0.190280 0.077943
0.178714 0.190555 0.077607
0.178836 0.191592 0.076539
0.178897 0.193362 0.071321
0.180972 0.196323 0.066773
0.187716 0.198886 0.065309
0.196780 0.194522 0.058473
0.205051 0.189883 0.055207
0.217472 0.190372 0.048096
0.236545 0.195987 0.038605
0.261112 0.202396 0.027466
0.290379 0.209445 0.014435
0.325017 0.216922 0.000000
0.362158 0.222629 0.000000
0.404334 0.227939 0.000000
0.450416 0.232944 0.000000
0.500114 0.237797 0.000000
0.551659 0.242893 0.000000
0.606104 0.248905 0.000000
0.663874 0.257450 0.000000
0.717678 0.267826 0.000000
0.766567 0.280430 0.000000
0.810117 0.293706 0.000000
0.846891 0.307683 0.000000
0.877501 0.321080 0.000000
0.902678 0.333318 0.000000
0.923552 0.345129 0.000000
0.941588 0.356298 0.000000
0.957397 0.367773 0.000000
0.971344 0.379614 0.000000
0.983917 0.390997 0.000000
0.995117 0.402564 0.000000
0.174685 0.213382 0.088563
0.175021 0.213596 0.088869
0.176516 0.214847 0.088228
0.176272 0.217136 0.083925
0.176394 0.221073 0.075746
0.185214 0.225895 0.076234
0.198032 0.225925 0.068635
0.211917 0.218753 0.054108
0.224002 0.210636 0.046021
0.239475 0.208255 0.035615
0.264164 0.215244 0.021942
0.293828 0.223026 0.007050
0.328740 0.231083 0.000000
0.369207 0.239567 0.000000
0.414588 0.247440 0.000000
0.460822 0.253117 0.000000
0.510216 0.258701 0.000000
0.563287 0.265354 0.000000
0.619593 0.273503 0.000000
0.673610 0.282628 0.000000
0.723873 0.293339 0.000000
0.770108 0.305089 0.000000
0.811307 0.317754 0.000000
0.846464 0.330449 0.000000
0.876127 0.342351 0.000000
0.900694 0.353002 0.000000
0.921355 0.363500 0.000000
0.939239 0.373510 0.000000
0.954986 0.383825 0.000000
0.968811 0.394812 0.000000
0.981109 0.406348 0.000000
0.991943 0.418708 0.000000
0.171145 0.244419 0.103334
0.171847 0.244572 0.103212
0.173617 0.245792 0.103670
0.174411 0.248661 0.100832
0.173617 0.253300 0.094728
0.180392 0.259495 0.092134
0.196262 0.267582 0.093568
0.215824 0.261509 0.081147
0.234195 0.250156 0.054261
0.248966 0.237461 0.036927
0.265873 0.230686 0.019837
0.295842 0.238773 0.001129
0.331060 0.247807 0.000000
0.371435 0.257115 0.000000
0.418280 0.267094 0.000000
0.469337 0.277073 0.000000
0.525322 0.287022 0.000000
0.580194 0.295293 0.000000
0.633692 0.303990 0.000000
0.684474 0.313359 0.000000
0.731502 0.323339 0.000000
0.774197 0.333806 0.000000
0.812009 0.344762 0.000000
0.844816 0.355108 0.000000
0.872862 0.365057 0.000000
0.896818 0.374182 0.000000
0.917327 0.383124 0.000000
0.935302 0.392035 0.000000
0.951202 0.401465 0.000000
0.965362 0.411261 0.000000
0.977844 0.421881 0.000000
0.988861 0.433631 0.000000
0.164828 0.283146 0.125338
0.165316 0.283635 0.125643
0.167819 0.285283 0.125917
0.169802 0.288701 0.123842
0.168765 0.294438 0.118685
0.168856 0.302556 0.110811
0.187411 0.312840 0.113802
0.212039 0.323095 0.114870
0.239231 0.308476 0.095491
0.263066 0.291173 0.062776
0.280949 0.272465 0.028443
0.299992 0.261082 0.000366
0.333501 0.268345 0.000000
0.374884 0.278599 0.000000
0.424506 0.291020 0.000000
0.478614 0.303868 0.000000
0.536095 0.316899 0.000000
0.594079 0.330266 0.000000
0.645502 0.339269 0.000000
0.693172 0.347936 0.000000
0.737484 0.356695 0.000000
0.777615 0.365972 0.000000
0.813474 0.375067 0.000000
0.844663 0.383917 0.000000
0.871824 0.392035 0.000000
0.894926 0.399603 0.000000
0.915038 0.407080 0.000000
0.932769 0.414557 0.000000
0.948486 0.422492 0.000000
0.962493 0.431281 0.000000
0.974884 0.440711 0.000000
0.985840 0.451270 0.000000
0.146853 0.335149 0.156222
0.147433 0.335760 0.156374
0.151339 0.337530 0.156954
0.155428 0.341344 0.156741
0.153262 0.348333 0.151431
0.150576 0.358038 0.143801
0.165103 0.370459 0.142153
0.197116 0.385992 0.148135
0.235935 0.389349 0.142153
0.272068 0.367956 0.114290
0.300938 0.343786 0.081636
0.322362 0.318669 0.023896
0.359686 0.315007 0.000000
0.403571 0.323156 0.000000
0.458045 0.337377 0.000000
0.515129 0.352087 0.000000
0.573022 0.366155 0.000000
0.629358 0.380133 0.000000
0.682948 0.393896 0.000000
0.731350 0.406500 0.000000
0.770565 0.413397 0.000000
0.804868 0.419135 0.000000
0.834928 0.424628 0.000000
0.861357 0.429603 0.000000
0.884184 0.434485 0.000000
0.904082 0.438819 0.000000
0.921569 0.443427 0.000000
0.937133 0.448341 0.000000
0.951019 0.453925 0.000000
0.963592 0.460426 0.000000
0.974853 0.467903 0.000000
0.984833 0.476967 0.000000
0.097475 0.409583 0.203342
0.099672 0.409766 0.203555
0.108034 0.411353 0.204013
0.121920 0.415320 0.204746
0.120302 0.421912 0.200504
0.117494 0.431617 0.193790
0.121553 0.444800 0.186038
0.178470 0.460487 0.194369
0.237125 0.482887 0.207401
0.288487 0.475563 0.188235
0.330907 0.452491 0.152651
0.366125 0.425025 0.113069
0.391211 0.392584 0.041077
0.413275 0.364599 0.000000
0.457893 0.368750 0.000000
0.514733 0.382910 0.000000
0.571069 0.396918 0.000000
0.625391 0.410071 0.000000
0.676600 0.422797 0.000000
0.723873 0.435004 0.000000
0.766354 0.446418 0.000000
0.801694 0.453864 0.000000
0.830869 0.457221 0.000000
0.856718 0.460426 0.000000
0.879210 0.463539 0.000000
0.899046 0.466377 0.000000
0.916625 0.469490 0.000000
0.932250 0.473243 0.000000
0.946349 0.477668 0.000000
0.959045 0.483070 0.000000
0.970367 0.489479 0.000000
0.980346 0.497383 0.000000
0.000000 0.483650 0.256046
0.000000 0.483742 0.256138
0.013367 0.484901 0.256657
0.094209 0.488533 0.258793
0.102480 0.495216 0.256504
0.108553 0.505089 0.252110
0.118746 0.518151 0.246494
0.178378 0.534508 0.251011
0.253605 0.552697 0.265782
0.326726 0.572778 0.283330
0.364416 0.551354 0.244114
0.401007 0.525170 0.200595
0.432349 0.493141 0.150210
0.454170 0.455360 0.091005
0.470863 0.418433 0.000000
0.511498 0.415167 0.000000
0.566857 0.428138 0.000000
0.620081 0.440436 0.000000
0.670130 0.452522 0.000000
0.716457 0.463661 0.000000
0.758236 0.474037 0.000000
0.794949 0.482887 0.000000
0.826841 0.490669 0.000000
0.852903 0.493721 0.000000
0.874968 0.494942 0.000000
0.894560 0.496254 0.000000
0.911986 0.497963 0.000000
0.927550 0.500175 0.000000
0.941558 0.503349 0.000000
0.954223 0.507591 0.000000
0.965515 0.512902 0.000000
0.975463 0.519646 0.082307
0.082277 0.557427 0.318273
0.092592 0.557855 0.318486
0.113161 0.558556 0.319127
0.144717 0.560723 0.320928
0.164462 0.565545 0.320623
0.176699 0.572992 0.317601
0.193606 0.583520 0.314183
0.223545 0.596857 0.312535
0.296818 0.611292 0.328222
0.368505 0.627131 0.347692
0.423835 0.632654 0.349432
0.449256 0.612757 0.305791
0.476234 0.586755 0.256046
0.500237 0.554345 0.199039
0.516716 0.513725 0.131930
0.527642 0.470893 0.000000
0.561822 0.460060 0.000000
0.614557 0.471687 0.000000
0.664088 0.482490 0.000000
0.709468 0.492775 0.000000
0.750668 0.502129 0.000000
0.787106 0.510155 0.000000
0.819059 0.516838 0.000000
0.846677 0.522393 0.000000
0.870390 0.527153 0.000000
0.889647 0.527153 0.000000
0.906920 0.527581 0.000000
0.922545 0.528649 0.000000
0.936584 0.530816 0.000000
0.949279 0.534081 0.022095
0.960510 0.538750 0.115023
0.970336 0.544976 0.159396
0.209079 0.616693 0.379919
0.211795 0.617151 0.380285
0.222812 0.618158 0.381506
0.242741 0.620020 0.384039
0.263035 0.623743 0.385962
0.276616 0.630121 0.385473
0.294804 0.638422 0.385046
0.318700 0.648768 0.385260
0.369360 0.659419 0.396826
0.431189 0.670100 0.416022
0.491188 0.680690 0.437903
0.516258 0.675685 0.419348
0.528283 0.658350 0.371496
0.544823 0.635126 0.315679
0.561608 0.603998 0.251102
0.572839 0.563806 0.178256
0.578851 0.518578 0.081453
0.606195 0.501152 0.000000
0.655512 0.511192 0.000000
0.701106 0.520439 0.000000
0.742641 0.529412 0.000000
0.779294 0.536797 0.000000
0.811307 0.542962 0.000000
0.839139 0.547875 0.000000
0.863096 0.552087 0.000000
0.884001 0.555810 0.000000
0.901854 0.558465 0.055604
0.917266 0.558404 0.098970
0.931121 0.559380 0.125185
0.943481 0.561486 0.152834
0.954498 0.564782 0.181643
0.964050 0.569787 0.212802
0.319554 0.661036 0.438331
0.321569 0.661189 0.438605
0.328405 0.661769 0.439918
0.342290 0.662989 0.442420
0.362676 0.665400 0.446357
0.375433 0.669734 0.447181
0.391913 0.675685 0.448371
0.413184 0.682765 0.450782
0.442115 0.690486 0.456580
0.490974 0.697383 0.473457
0.539879 0.704768 0.492744
0.586633 0.711971 0.513451
0.585992 0.702419 0.478035
0.589410 0.688045 0.430182
0.599237 0.668330 0.372290
0.612177 0.642023 0.305547
0.622583 0.606622 0.228580
0.626551 0.562890 0.139620
0.647669 0.540337 0.000000
0.693233 0.548852 0.000000
0.735073 0.556420 0.000000
0.771633 0.563195 0.000000
0.803677 0.568627 0.000000
0.831479 0.572961 0.032898
0.855558 0.576501 0.096407
0.876524 0.579736 0.127047
0.894865 0.582940 0.153719
0.910887 0.586358 0.178805
0.924743 0.588128 0.198886
0.936919 0.589380 0.217990
0.947692 0.591852 0.239811
0.956939 0.596002 0.266239
0.424475 0.693538 0.494453
0.426764 0.693782 0.495186
0.470069 0.704067 0.517144
0.479591 0.704707 0.519646
0.494820 0.705653 0.523888
0.505913 0.708156 0.526055
0.518975 0.711666 0.528588
0.535058 0.715785 0.532128
0.554345 0.720790 0.537102
0.583703 0.725399 0.548363
0.616968 0.729976 0.562951
0.649165 0.734768 0.578058
0.669093 0.736507 0.581872
0.661006 0.727962 0.548608
0.655879 0.716579 0.504173
0.657038 0.700923 0.447456
0.664424 0.679438 0.379034
0.673884 0.650263 0.298833
0.679072 0.611261 0.206577
0.694697 0.584588 0.103609
0.734432 0.590082 0.091341
0.769986 0.594446 0.089235
0.800748 0.598016 0.115206
0.827298 0.600916 0.143343
0.850278 0.603052 0.166537
0.870359 0.605066 0.187289
0.888060 0.607141 0.207340
0.903655 0.609552 0.228397
0.917418 0.612665 0.251102
0.929351 0.616632 0.275731
0.939757 0.618799 0.295903
0.948791 0.622004 0.318242
0.524376 0.718410 0.549432
0.528801 0.719203 0.551507
0.535912 0.720058 0.554467
0.545830 0.721126 0.558343
0.559777 0.722225 0.563378
0.570916 0.724086 0.566735
0.581262 0.726711 0.569421
0.593317 0.729824 0.572595
0.607263 0.733547 0.576684
0.624628 0.737484 0.582757
0.649958 0.741176 0.594141
0.674708 0.744991 0.605921
0.698268 0.748959 0.617639
0.703395 0.747127 0.609491
0.696071 0.739590 0.580804
0.690455 0.729641 0.542260
0.688808 0.716609 0.490669
0.693782 0.698878 0.426459
0.703090 0.674769 0.349371
0.710964 0.642115 0.259525
0.725185 0.614923 0.159670
0.760525 0.618799 0.158907
0.792020 0.621424 0.164218
0.819150 0.623377 0.180392
0.842008 0.625147 0.205234
0.862119 0.626673 0.226596
0.879789 0.628321 0.247166
0.895445 0.630335 0.268193
0.909178 0.633082 0.290410
0.921080 0.636652 0.313970
0.931212 0.641291 0.340185
0.939605 0.646632 0.367437
0.590570 0.733577 0.587854
0.594141 0.734218 0.589715
0.599420 0.734951 0.592157
0.607080 0.735805 0.595422
0.617060 0.736751 0.599451
0.626703 0.737942 0.602960
0.634272 0.740047 0.605097
0.643061 0.742458 0.607813
0.653407 0.745235 0.611139
0.664729 0.748501 0.615045
0.681483 0.751675 0.622461
0.700282 0.754818 0.631586
0.718593 0.758083 0.640772
0.736049 0.761471 0.649928
0.732570 0.757137 0.634638
0.726375 0.750393 0.610346
0.721126 0.741817 0.577783
0.718532 0.730709 0.533593
0.720760 0.715938 0.474617
0.728725 0.696254 0.402350
0.738369 0.669306 0.315099
0.756039 0.646937 0.221103
0.782742 0.644312 0.214847
0.810239 0.645655 0.223301
0.834104 0.646265 0.236393
0.854063 0.647425 0.260533
0.871672 0.648707 0.282261
0.887175 0.650385 0.304112
0.900816 0.652827 0.326848
0.912627 0.656062 0.350500
0.922667 0.660334 0.376593
0.930877 0.665766 0.404456
0.643977 0.746548 0.620722
0.646296 0.747036 0.622004
0.650111 0.747585 0.623926
0.655390 0.748226 0.626368
0.662287 0.748898 0.629297
0.670405 0.749752 0.632563
0.675990 0.751431 0.634394
0.682521 0.753384 0.636561
0.690211 0.755673 0.639277
0.698543 0.758328 0.642298
0.708827 0.761105 0.646571
0.723171 0.763699 0.653620
0.737545 0.766415 0.661006
0.751431 0.769253 0.668391
0.761379 0.770779 0.671778
0.756283 0.766049 0.656031
0.751553 0.760220 0.635981
0.747524 0.752987 0.609400
0.745327 0.743832 0.573724
0.746639 0.731960 0.524926
0.753079 0.716182 0.460212
0.763699 0.694850 0.379614
0.782467 0.676112 0.291203
0.804776 0.670741 0.278904
0.828458 0.671229 0.290379
0.849088 0.671412 0.304448
0.866270 0.672389 0.328161
0.881102 0.674006 0.352667
0.894102 0.676295 0.376898
0.905241 0.679438 0.401953
0.914519 0.683650 0.428077
0.921996 0.688930 0.455726
0.694240 0.760067 0.653681
0.695064 0.760250 0.654139
0.696742 0.760433 0.654932
0.699702 0.760769 0.656184
0.703975 0.761166 0.657954
0.709438 0.761624 0.660212
0.713497 0.762753 0.661616
0.718166 0.764248 0.663264
0.723629 0.766079 0.665278
0.729915 0.768215 0.667781
0.736843 0.770565 0.670649
0.746792 0.772793 0.675532
0.757748 0.775021 0.681300
0.768612 0.777340 0.687190
0.779202 0.779721 0.693141
0.782315 0.779141 0.690455
0.778042 0.774960 0.676997
0.774075 0.769863 0.660029
0.770657 0.763546 0.638148
0.768460 0.755642 0.608789
0.768582 0.745480 0.568444
0.772854 0.732235 0.512139
0.782010 0.714321 0.436988
0.799924 0.697688 0.352300
0.819211 0.690364 0.330388
0.839902 0.690394 0.343542
0.858000 0.690578 0.359045
0.873228 0.691585 0.381750
0.885985 0.693690 0.407904
0.896941 0.696590 0.433906
0.906004 0.700526 0.460273
0.913298 0.705440 0.487404
0.725154 0.769497 0.675105
0.725612 0.769589 0.675410
0.726955 0.769802 0.676051
0.729152 0.770047 0.677058
0.732265 0.770352 0.678431
0.736446 0.770779 0.680262
0.740169 0.771633 0.681727
0.743740 0.772854 0.683101
0.747982 0.774350 0.684779
0.752865 0.776028 0.686824
0.758206 0.777981 0.689143
0.764614 0.779995 0.692195
0.773342 0.781857 0.696864
0.782071 0.783780 0.701717
0.790738 0.785824 0.706691
0.799191 0.787900 0.711635
0.797971 0.785824 0.704891
0.794583 0.782193 0.693446
0.791348 0.777768 0.678981
0.788602 0.772335 0.660609
0.786923 0.765591 0.636713
0.786923 0.757015 0.603937
0.789975 0.745998 0.558007
0.797726 0.731380 0.492836
0.812711 0.715145 0.407935
0.830350 0.707057 0.378241
0.848631 0.707179 0.392859
0.864561 0.707668 0.410315
0.878050 0.708980 0.432441
0.888914 0.711635 0.459724
0.897917 0.715328 0.487098
0.905150 0.720119 0.514336
0.753475 0.778775 0.695644
0.754147 0.778958 0.696101
0.755062 0.779080 0.696559
0.756405 0.779202 0.697169
0.758480 0.779416 0.698024
0.761135 0.779599 0.699123
0.763912 0.780026 0.700221
0.766232 0.780880 0.700984
0.769039 0.781949 0.702022
0.772427 0.783200 0.703365
0.776211 0.784634 0.704921
0.780484 0.786252 0.706813
0.786587 0.787778 0.710018
0.793423 0.789334 0.713771
0.800229 0.790890 0.717617
0.806943 0.792569 0.721553
0.812497 0.793759 0.724147
0.809476 0.791043 0.715816
0.806577 0.787778 0.705592
0.804013 0.783902 0.693202
0.801846 0.779202 0.677424
0.800504 0.773404 0.657069
0.800473 0.766018 0.629816
0.802731 0.756497 0.591485
0.808957 0.743862 0.535973
0.823667 0.731289 0.464271
0.839963 0.722957 0.427863
0.855894 0.723110 0.443915
0.869688 0.723934 0.461830
0.881437 0.725521 0.482734
0.890349 0.728847 0.510765
0.897551 0.733211 0.537804
0.772000 0.785397 0.709651
0.772519 0.785550 0.710048
0.773373 0.785672 0.710475
0.774533 0.785824 0.711055
0.776333 0.786038 0.711879
0.778683 0.786313 0.713008
0.781552 0.786709 0.714321
0.783658 0.787533 0.715236
0.786130 0.788479 0.716335
0.788998 0.789578 0.717617
0.792233 0.790860 0.719112
0.795682 0.792203 0.720760
0.799741 0.793606 0.722805
0.805234 0.794919 0.725917
0.810666 0.796231 0.729091
0.816159 0.797574 0.732296
0.821592 0.799008 0.735561
0.823575 0.798917 0.734707
0.821134 0.796536 0.727474
0.818814 0.793729 0.718807
0.816648 0.790402 0.708095
0.814908 0.786374 0.694789
0.813748 0.781399 0.677638
0.813779 0.775174 0.655207
0.815610 0.767208 0.624323
0.820706 0.756832 0.580133
0.833249 0.746426 0.521263
0.848539 0.738766 0.482094
0.862150 0.739528 0.499550
0.873716 0.740993 0.519005
0.883452 0.743313 0.539788
0.890837 0.747036 0.565209
0.789700 0.791958 0.723445
0.789975 0.792050 0.723629
0.790433 0.792111 0.723873
0.791348 0.792233 0.724300
0.792721 0.792386 0.724971
0.794553 0.792630 0.725856
0.797024 0.792905 0.727077
0.798642 0.793515 0.727779
0.800595 0.794278 0.728634
0.802792 0.795163 0.729702
0.805295 0.796170 0.730861
0.808072 0.797330 0.732265
0.811002 0.798489 0.733700
0.815061 0.799649 0.736019
0.819516 0.800717 0.738613
0.823972 0.801877 0.741268
0.828397 0.803037 0.743984
0.832883 0.804257 0.746761
0.832517 0.803220 0.743465
0.830564 0.801205 0.737270
0.828641 0.798795 0.729732
0.826902 0.795926 0.720516
0.825437 0.792416 0.709010
0.824460 0.788113 0.694331
0.824399 0.782803 0.675257
0.825986 0.776089 0.649805
0.830228 0.767544 0.614466
0.840635 0.758846 0.567132
0.854704 0.751888 0.528374
0.866423 0.753231 0.546410
0.876432 0.755337 0.565759
0.884703 0.758297 0.586114
0.803738 0.797482 0.734707
0.803891 0.797513 0.734798
0.804349 0.797604 0.735073
0.805112 0.797726 0.735500
0.806302 0.797910 0.736110
0.807980 0.798154 0.737026
0.810208 0.798550 0.738277
0.812222 0.799161 0.739376
0.814145 0.799924 0.740475
0.816342 0.800839 0.741726
0.818814 0.801816 0.743099
0.821347 0.802884 0.744533
0.823972 0.803983 0.746029
0.826871 0.805051 0.747738
0.830503 0.805997 0.750027
0.834104 0.806943 0.752224
0.837583 0.807889 0.754421
0.841123 0.808865 0.756649
0.844327 0.809720 0.758633
0.842771 0.808286 0.754269
0.841215 0.806638 0.749111
0.839719 0.804685 0.742885
0.838254 0.802304 0.735256
0.837125 0.799435 0.725826
0.836362 0.795956 0.713924
0.836393 0.791684 0.698695
0.837736 0.786404 0.678828
0.841276 0.779721 0.651972
0.849546 0.773037 0.617548
0.861692 0.767514 0.585077
0.871336 0.769436 0.601953
0.879484 0.772030 0.619318
0.818936 0.803525 0.747189
0.818967 0.803525 0.747219
0.819242 0.803586 0.747372
0.819730 0.803616 0.747585
0.820523 0.803738 0.748043
0.821683 0.803891 0.748623
0.823239 0.804135 0.749477
0.824735 0.804501 0.750301
0.825986 0.805020 0.750942
0.827451 0.805600 0.751705
0.829068 0.806271 0.752560
0.830869 0.807034 0.753506
0.832731 0.807828 0.754574
0.834684 0.808682 0.755642
