20 Preset/Art Style/【3】LUT video cho PR-AE-FCPX/Portra 800 Alt.cube
# Created by Adobe Lightroom plugin Export LUT (1.24.0)
# www.johnrellis.com/lightroom/exportlut.htm
# Preset: Portra 800 Alt
# Color profile: E:\lut插件\exportlut.1.24\exportlut.lrplugin\color profiles\Rec709gamma2.4.icc
LUT_3D_SIZE 5
DOMAIN_MIN 0.000000 0.000000 0.000000
DOMAIN_MAX 0.903226 0.903226 0.903226
0.000000 0.134768 0.153170
0.014771 0.146029 0.157626
0.385534 0.154238 0.163088
0.840513 0.000000 0.154971
1.000000 0.178378 0.160830
0.000000 0.189242 0.174014
0.000000 0.194980 0.173709
0.366888 0.211032 0.170565
0.840208 0.202884 0.150454
1.000000 0.302556 0.155337
0.000000 0.388495 0.205509
0.000000 0.378363 0.213077
0.365026 0.445319 0.181735
0.804959 0.503044 0.051331
1.000000 0.516381 0.122438
0.000000 0.724910 0.267277
0.000000 0.722103 0.280766
0.355840 0.714473 0.316503
0.700496 0.728328 0.249790
0.952605 0.743526 0.237278
0.553124 0.883787 0.565698
0.577111 0.882536 0.572686
0.638300 0.869108 0.580804
0.742550 0.878172 0.599725
0.874754 0.897734 0.572808
0.000000 0.146090 0.207614
0.000000 0.151431 0.211704
0.365179 0.121065 0.212039
0.836179 0.000000 0.228061
1.000000 0.144778 0.241978
0.000000 0.199069 0.216098
0.000000 0.200717 0.218631
0.379187 0.202945 0.224216
0.827909 0.149142 0.223453
1.000000 0.279484 0.239017
0.000000 0.394751 0.248692
0.000000 0.389471 0.244511
0.359228 0.420661 0.232303
0.787778 0.467964 0.190585
1.000000 0.517540 0.236362
0.000000 0.725826 0.324285
0.000000 0.723598 0.337011
0.416541 0.711757 0.379461
0.708034 0.725887 0.322972
0.949767 0.741268 0.320531
0.567498 0.883482 0.584619
0.588922 0.881956 0.590204
0.665370 0.878325 0.617395
0.756344 0.883268 0.632990
0.881559 0.903532 0.609216
0.000000 0.164584 0.383825
0.204135 0.161807 0.390936
0.466651 0.107424 0.408881
0.799466 0.000000 0.378454
1.000000 0.000000 0.383703
0.000000 0.221042 0.395514
0.166476 0.218112 0.399207
0.478523 0.188846 0.418738
0.815549 0.000000 0.385992
1.000000 0.193545 0.410498
0.000000 0.453315 0.420050
0.000000 0.453651 0.421454
0.463905 0.457221 0.431067
0.809812 0.511589 0.463478
0.980896 0.590570 0.517662
0.262730 0.729274 0.500816
0.368688 0.722805 0.505150
0.554345 0.715084 0.519738
0.740810 0.724117 0.518334
0.940764 0.736904 0.521111
0.617823 0.879545 0.654261
0.628138 0.879911 0.653620
0.681880 0.878386 0.663600
0.770718 0.876890 0.691432
0.883299 0.897551 0.668391
0.239322 0.177737 0.691768
0.349187 0.170657 0.697841
0.633295 0.130129 0.710903
0.879698 0.008881 0.715724
1.000000 0.015076 0.625849
0.210880 0.254612 0.694636
0.333196 0.254459 0.696712
0.623987 0.261021 0.705043
0.865415 0.267582 0.708003
0.995483 0.261540 0.625177
0.000000 0.518273 0.679072
0.282658 0.519554 0.682033
0.597040 0.529961 0.692622
0.822965 0.560815 0.702205
0.964599 0.530816 0.639124
0.342168 0.739834 0.689509
0.413092 0.736507 0.687953
0.599634 0.730709 0.690303
0.778561 0.727108 0.697932
0.939391 0.763729 0.734157
0.598016 0.891447 0.741146
0.620203 0.890684 0.743282
0.700221 0.889494 0.755337
0.793393 0.886870 0.769589
0.895964 0.898863 0.766995
0.553124 0.380438 0.897765
0.603876 0.393072 0.897551
0.746059 0.452338 0.896544
0.886992 0.555474 0.895872
1.000000 0.580102 0.896574
0.573877 0.465156 0.895018
0.618555 0.475776 0.894835
0.746883 0.521477 0.894285
0.882444 0.596551 0.895048
0.995575 0.613001 0.896574
0.595880 0.634791 0.887510
0.631159 0.639094 0.887968
0.740017 0.657221 0.889738
0.868040 0.692378 0.894408
0.979736 0.699245 0.898222
0.604456 0.780972 0.881315
0.625635 0.780911 0.881651
0.704372 0.779965 0.883787
0.833494 0.784176 0.895201
0.961273 0.800687 0.904601
0.628992 0.916258 0.895811
0.644251 0.916136 0.896269
0.701808 0.915404 0.897765
0.798306 0.915160 0.901640
0.932036 0.916808 0.909972
