20 Preset/Art Style/【3】LUT video cho PR-AE-FCPX/Portra 160 Alt 3.cube
# Created by Adobe Lightroom plugin Export LUT (1.24.0)
# www.johnrellis.com/lightroom/exportlut.htm
# Preset: Portra 160 Alt 3
# Color profile: E:\lut插件\exportlut.1.24\exportlut.lrplugin\color profiles\Rec709gamma2.4.icc
LUT_3D_SIZE 32
DOMAIN_MIN 0.0 0.0 0.0
DOMAIN_MAX 1.0 1.0 1.0
0.160067 0.111727 0.030549
0.160342 0.111666 0.031678
0.161227 0.111818 0.031495
0.163424 0.111727 0.031281
0.167147 0.112245 0.030579
0.173709 0.112154 0.030915
0.183322 0.112276 0.030701
0.197971 0.112551 0.028412
0.218570 0.112337 0.026215
0.245945 0.111269 0.022522
0.279545 0.108766 0.018250
0.319005 0.104677 0.009155
0.364294 0.096803 0.000000
0.414618 0.080446 0.000000
0.467720 0.034607 0.000000
0.521904 0.000000 0.000000
0.575647 0.000000 0.000000
0.627131 0.000000 0.000000
0.675105 0.000000 0.000000
0.718776 0.000000 0.000000
0.757626 0.000000 0.000000
0.791531 0.000000 0.000000
0.823484 0.000000 0.000000
0.852567 0.000000 0.000000
0.876463 0.042145 0.000000
0.896544 0.111940 0.000000
0.913848 0.146273 0.000000
0.929107 0.174807 0.000000
0.942809 0.201205 0.000000
0.955261 0.226596 0.000000
0.966705 0.251835 0.000000
0.977264 0.277317 0.000000
0.160250 0.112001 0.031525
0.160250 0.112001 0.031525
0.161227 0.111818 0.031495
0.163638 0.112001 0.031128
0.167086 0.112245 0.031708
0.173617 0.112520 0.030762
0.183230 0.112612 0.030549
0.197696 0.112612 0.029541
0.217899 0.112520 0.027375
0.244633 0.111727 0.022583
0.277531 0.109590 0.018341
0.316655 0.105226 0.009613
0.361212 0.098634 0.000031
0.410803 0.085695 0.000000
0.463752 0.041840 0.000000
0.517723 0.000000 0.000000
0.571679 0.000000 0.000000
0.623163 0.000000 0.000000
0.671382 0.000000 0.000000
0.715450 0.000000 0.000000
0.754330 0.000000 0.000000
0.788388 0.000000 0.000000
0.820371 0.000000 0.000000
0.849149 0.000000 0.000000
0.873014 0.029938 0.000000
0.893217 0.108492 0.000000
0.910796 0.141848 0.000000
0.926360 0.171115 0.000000
0.940368 0.197513 0.000000
0.953185 0.222507 0.000000
0.964935 0.247715 0.000000
0.975708 0.273442 0.000000
0.160830 0.112856 0.032166
0.161166 0.112764 0.032166
0.161715 0.112978 0.032013
0.163760 0.113222 0.031647
0.167727 0.113680 0.032074
0.174533 0.113832 0.031098
0.183963 0.114260 0.030762
0.198550 0.114534 0.028443
0.218875 0.114382 0.026246
0.245762 0.113832 0.022461
0.278264 0.112123 0.016938
0.316655 0.108919 0.009094
0.361028 0.102358 0.000000
0.410163 0.091737 0.000000
0.462593 0.060914 0.000000
0.516564 0.007080 0.000000
0.570153 0.000000 0.000000
0.621698 0.000000 0.000000
0.669703 0.000000 0.000000
0.713771 0.000000 0.000000
0.752926 0.000000 0.000000
0.787137 0.000000 0.000000
0.819272 0.000000 0.000000
0.847745 0.000000 0.000000
0.871275 0.061341 0.000000
0.891417 0.114931 0.000000
0.909087 0.146792 0.000000
0.924804 0.173953 0.000000
0.938964 0.199619 0.000000
0.951873 0.224491 0.000000
0.963714 0.248814 0.000000
0.974609 0.274083 0.000000
0.162600 0.115206 0.034150
0.162814 0.115480 0.033997
0.163455 0.115358 0.033967
0.165011 0.115389 0.032654
0.169039 0.116396 0.032776
0.175937 0.116854 0.031647
0.186282 0.117342 0.031128
0.201266 0.117739 0.028656
0.222080 0.118227 0.025971
0.248936 0.118135 0.020691
0.281590 0.116884 0.014832
0.319799 0.114565 0.007630
0.363836 0.109712 0.000000
0.412268 0.101106 0.000000
0.463935 0.086610 0.000000
0.516869 0.042969 0.000000
0.569421 0.000000 0.000000
0.620142 0.000000 0.000000
0.667720 0.000000 0.000000
0.711299 0.000000 0.000000
0.750210 0.000000 0.000000
0.784298 0.000000 0.000000
0.816953 0.000000 0.000000
0.845029 0.024750 0.000000
0.868864 0.098054 0.000000
0.889433 0.131044 0.000000
0.907591 0.158907 0.000000
0.923583 0.184207 0.000000
0.937987 0.208225 0.000000
0.950988 0.231876 0.000000
0.962768 0.255100 0.000000
0.973510 0.278935 0.000000
0.165072 0.120272 0.035737
0.165377 0.120211 0.035706
0.166232 0.120363 0.035554
0.167788 0.120943 0.035035
0.171145 0.120607 0.033661
0.178012 0.121584 0.032258
0.189456 0.122866 0.029908
0.205264 0.123812 0.028077
0.226413 0.124880 0.023774
0.253422 0.125612 0.018982
0.285771 0.125399 0.012512
0.323766 0.124178 0.003540
0.367376 0.121187 0.000000
0.415351 0.115236 0.000000
0.466529 0.105898 0.000000
0.519158 0.091920 0.000000
0.571527 0.061280 0.000000
0.621851 0.019623 0.000000
0.668971 0.000000 0.000000
0.711940 0.000000 0.000000
0.750423 0.000000 0.000000
0.784787 0.000793 0.000000
0.817136 0.058289 0.000000
0.844511 0.104616 0.000000
0.868009 0.131563 0.000000
0.888487 0.155367 0.000000
0.906523 0.178439 0.000000
0.922454 0.200107 0.000000
0.936767 0.221775 0.000000
0.949645 0.243534 0.000000
0.961395 0.265354 0.000000
0.972076 0.287633 0.000000
0.168307 0.129366 0.036957
0.168917 0.129244 0.036927
0.169955 0.129580 0.036591
0.172519 0.130159 0.037049
0.176211 0.130068 0.035492
0.181796 0.129610 0.033906
0.192905 0.131563 0.031128
0.210361 0.133700 0.027008
0.233890 0.135866 0.021363
0.261509 0.137484 0.015564
0.294255 0.138643 0.007782
0.332555 0.138613 0.000000
0.376226 0.137240 0.000000
0.423987 0.134096 0.000000
0.475044 0.128511 0.000000
0.526726 0.120607 0.000000
0.578180 0.112093 0.000000
0.627710 0.102480 0.000000
0.673854 0.095125 0.000000
0.715694 0.093355 0.000000
0.753231 0.099245 0.000000
0.788602 0.113497 0.000000
0.838560 0.149447 0.000000
0.864103 0.169162 0.000000
0.885405 0.188235 0.000000
0.903593 0.207553 0.000000
0.919341 0.225711 0.000000
0.933318 0.243900 0.000000
0.945708 0.262425 0.000000
0.957061 0.281163 0.000000
0.967346 0.300633 0.000000
0.976745 0.320562 0.000000
0.173495 0.147951 0.038727
0.173709 0.148135 0.038544
0.175448 0.148531 0.038056
0.179416 0.149813 0.037690
0.185214 0.150423 0.035309
0.192721 0.149264 0.032807
0.202121 0.148135 0.029938
0.219944 0.150729 0.023865
0.245640 0.154452 0.016083
0.277012 0.157778 0.007416
0.313664 0.160403 0.000000
0.354162 0.161685 0.000000
0.399023 0.162051 0.000000
0.447181 0.160494 0.000000
0.497017 0.157931 0.000000
0.547173 0.154513 0.000000
0.596674 0.150546 0.000000
0.643671 0.148165 0.000000
0.687587 0.147433 0.000000
0.727840 0.150759 0.000000
0.765957 0.158083 0.000000
0.802670 0.171603 0.000000
0.833310 0.185672 0.000000
0.859342 0.201999 0.000000
0.881407 0.217990 0.000000
0.900023 0.233799 0.000000
0.915923 0.249241 0.000000
0.929839 0.264927 0.000000
0.942382 0.280949 0.000000
0.953674 0.297337 0.000000
0.964019 0.314702 0.000000
0.973510 0.333104 0.000000
0.178866 0.174716 0.039918
0.179629 0.174777 0.039734
0.181735 0.175692 0.038605
0.186404 0.176974 0.037934
0.194644 0.179355 0.035584
0.203983 0.178500 0.031586
0.215396 0.176394 0.027070
0.229007 0.173617 0.021485
0.251835 0.176638 0.012940
0.283757 0.181521 0.000793
0.321386 0.185824 0.000000
0.364782 0.189639 0.000000
0.410346 0.191257 0.000000
0.457649 0.192111 0.000000
0.506249 0.191836 0.000000
0.554894 0.191043 0.000000
0.602594 0.190463 0.000000
0.648035 0.190829 0.000000
0.690669 0.192264 0.000000
0.730495 0.196719 0.000000
0.769772 0.204898 0.000000
0.803555 0.215610 0.000000
0.832334 0.226841 0.000000
0.857206 0.239170 0.000000
0.878660 0.252140 0.000000
0.896941 0.264714 0.000000
0.912688 0.277440 0.000000
0.926574 0.290227 0.000000
0.939025 0.304021 0.000000
0.950378 0.318486 0.000000
0.960754 0.333837 0.000000
0.970275 0.350408 0.015961
0.185702 0.211551 0.044373
0.185977 0.211917 0.043915
0.188937 0.212650 0.043732
0.194522 0.214389 0.041932
0.203799 0.217319 0.039155
0.216556 0.219516 0.034272
0.230014 0.216770 0.026184
0.245914 0.213230 0.017151
0.263493 0.208896 0.009369
0.290745 0.210758 0.000000
0.329290 0.216739 0.000000
0.372656 0.222416 0.000000
0.420203 0.226627 0.000000
0.470771 0.230350 0.000000
0.518334 0.231510 0.000000
0.565148 0.232425 0.000000
0.611261 0.233433 0.000000
0.654871 0.234745 0.000000
0.697261 0.238590 0.000000
0.737789 0.244633 0.000000
0.773709 0.252384 0.000000
0.804929 0.260197 0.000000
0.832029 0.268620 0.000000
0.855680 0.278691 0.000000
0.876341 0.288396 0.000000
0.894102 0.298405 0.000000
0.909636 0.308690 0.000000
0.923400 0.319371 0.000000
0.935760 0.330938 0.000000
0.947051 0.343267 0.000000
0.957336 0.356878 0.000000
0.966827 0.371496 0.088930
0.192294 0.258183 0.062715
0.193423 0.258305 0.062348
0.196445 0.259129 0.061707
0.202731 0.261143 0.058656
0.213260 0.264073 0.055573
0.227787 0.268406 0.051514
0.244816 0.267552 0.039368
0.263249 0.263218 0.024323
0.283085 0.258091 0.008453
0.304509 0.251957 0.000000
0.334783 0.251347 0.000000
0.378515 0.258335 0.000000
0.425879 0.264714 0.000000
0.475502 0.270024 0.000000
0.526390 0.274784 0.000000
0.575280 0.277745 0.000000
0.620142 0.280247 0.000000
0.665644 0.284459 0.000000
0.707149 0.289372 0.000000
0.744442 0.294316 0.000000
0.777279 0.299962 0.000000
0.805692 0.305303 0.000000
0.830564 0.311254 0.000000
0.852781 0.317510 0.000000
0.872282 0.324773 0.000000
0.889586 0.331914 0.000000
0.904936 0.339818 0.000000
0.918669 0.348669 0.000000
0.931243 0.358404 0.000000
0.942596 0.369451 0.000000
0.953063 0.381201 0.075532
0.962646 0.394720 0.122591
0.199435 0.311040 0.091737
0.200107 0.311192 0.091981
0.203830 0.312322 0.091737
0.210819 0.314458 0.091341
0.222660 0.317845 0.089631
0.238804 0.322789 0.088350
0.260838 0.328435 0.082979
0.281529 0.323400 0.061402
0.303929 0.318029 0.035248
0.328069 0.310918 0.007721
0.352697 0.302831 0.000000
0.384161 0.299351 0.000000
0.432380 0.306828 0.000000
0.481544 0.313756 0.000000
0.532036 0.320317 0.000000
0.583673 0.327459 0.000000
0.633051 0.333501 0.000000
0.675898 0.337285 0.000000
0.713863 0.340673 0.000000
0.748287 0.344335 0.000000
0.778683 0.347417 0.000000
0.805264 0.350439 0.000000
0.828855 0.354528 0.000000
0.850126 0.358831 0.000000
0.869078 0.363653 0.000000
0.885863 0.369177 0.000000
0.900938 0.375158 0.000000
0.914549 0.381994 0.000000
0.926940 0.389776 0.009949
0.938231 0.398840 0.092226
0.948638 0.409094 0.125917
0.958129 0.420752 0.156497
0.207828 0.372229 0.119844
0.208804 0.372473 0.119631
0.213199 0.373419 0.119966
0.221500 0.375738 0.119753
0.234318 0.379278 0.119600
0.252628 0.384405 0.119112
0.276890 0.391089 0.118410
0.302739 0.392767 0.112947
0.327153 0.386389 0.099153
0.353124 0.379126 0.076692
0.380041 0.370397 0.030060
0.407996 0.361517 0.000000
0.459144 0.373083 0.000000
0.513512 0.383368 0.000000
0.565728 0.391119 0.000000
0.614801 0.398383 0.000000
0.660487 0.404059 0.000000
0.702113 0.408667 0.000000
0.738827 0.412055 0.000000
0.768826 0.412451 0.000000
0.794888 0.412604 0.000000
0.817807 0.412909 0.000000
0.838437 0.413733 0.000000
0.857084 0.415381 0.000000
0.873777 0.417426 0.000000
0.888731 0.419959 0.047700
0.902220 0.423346 0.094331
0.914458 0.427405 0.117281
0.925750 0.432502 0.139132
0.936156 0.438941 0.160433
0.945830 0.446571 0.182345
0.954772 0.456092 0.206607
0.228458 0.446174 0.166995
0.229862 0.446387 0.166842
0.234440 0.447120 0.166842
0.243381 0.448554 0.166659
0.257664 0.451301 0.166293
0.277226 0.455024 0.167117
0.302525 0.460761 0.167880
0.334661 0.469520 0.169924
0.361395 0.466468 0.160189
0.389807 0.461280 0.145724
0.420050 0.455573 0.128817
0.451545 0.448432 0.107118
0.482856 0.439765 0.067903
0.515801 0.431373 0.019074
0.566766 0.439490 0.000000
0.615167 0.445197 0.000000
0.658289 0.450202 0.000000
0.697322 0.453712 0.000000
0.732692 0.456001 0.000000
0.763607 0.457038 0.014710
0.789548 0.456123 0.035859
0.811765 0.454505 0.056550
0.831876 0.453620 0.086091
0.850217 0.453651 0.101442
0.866850 0.453895 0.116609
0.881834 0.455024 0.131350
0.895384 0.456916 0.147280
0.907744 0.459693 0.163058
0.919219 0.463447 0.180148
0.929717 0.468635 0.198672
0.939452 0.475166 0.218326
0.948486 0.483101 0.239750
0.264530 0.512047 0.220890
0.265324 0.512139 0.220554
0.269657 0.512200 0.220554
0.278843 0.513603 0.220798
0.292393 0.515587 0.221469
0.311925 0.519219 0.222171
0.336645 0.523949 0.224155
0.366186 0.530419 0.227756
0.397559 0.534356 0.227054
0.423163 0.528710 0.213626
0.450660 0.522820 0.198306
0.480079 0.516014 0.180850
0.509941 0.507805 0.159854
0.539269 0.497597 0.132509
0.567864 0.486091 0.112825
0.612146 0.489540 0.096681
0.654871 0.492592 0.079530
0.692073 0.495033 0.101137
0.725765 0.496407 0.114565
0.755367 0.496529 0.125612
0.781827 0.495827 0.137209
0.805631 0.495277 0.148013
0.825437 0.493233 0.155062
0.843534 0.491737 0.163577
0.859892 0.491005 0.173373
0.874815 0.490700 0.183810
0.888365 0.491218 0.195712
0.900816 0.492592 0.208133
0.912230 0.495216 0.222812
0.922759 0.499214 0.238651
0.932555 0.504326 0.256504
0.941619 0.511040 0.275792
0.314733 0.568597 0.280186
0.315160 0.568719 0.280400
0.319005 0.568719 0.280308
0.326452 0.569451 0.280034
0.338354 0.570459 0.280674
0.354681 0.572534 0.281224
0.376318 0.575708 0.283787
0.402930 0.580407 0.286839
0.434241 0.586297 0.292271
0.459632 0.584680 0.284764
0.483314 0.579309 0.270848
0.508812 0.573541 0.255253
0.535485 0.566094 0.236759
0.562066 0.557305 0.214633
0.588037 0.546258 0.187716
0.611994 0.532830 0.167239
0.649531 0.532647 0.157443
0.686915 0.533349 0.152071
0.719265 0.533562 0.162783
0.747707 0.532830 0.176242
0.773220 0.531579 0.187350
0.796506 0.530510 0.198245
0.817594 0.529564 0.208438
0.836484 0.528222 0.217777
0.852567 0.526238 0.225467
0.867308 0.525078 0.233249
0.880858 0.524773 0.242893
0.893278 0.525322 0.254612
0.904784 0.527153 0.267308
0.915435 0.530327 0.282322
0.925231 0.534905 0.299596
0.934325 0.540978 0.318669
0.369055 0.612055 0.338323
0.370092 0.612299 0.338506
0.373388 0.612543 0.338872
0.379919 0.613367 0.339422
0.389746 0.614466 0.340154
0.404150 0.616297 0.342290
0.422766 0.619074 0.345556
0.445930 0.622889 0.350011
0.472694 0.627405 0.355840
0.500908 0.631678 0.360998
0.519036 0.626856 0.347448
0.539178 0.621180 0.331945
0.560510 0.614557 0.314183
0.582666 0.606348 0.293217
0.605188 0.596490 0.268498
0.627283 0.585077 0.241032
0.647517 0.570703 0.218784
0.679316 0.567681 0.210819
0.711604 0.566613 0.207370
0.739956 0.564935 0.215610
0.764889 0.563775 0.229191
0.787686 0.562463 0.241855
0.808530 0.561486 0.253239
0.827481 0.560571 0.264683
0.844663 0.560052 0.275547
0.859648 0.558740 0.284154
0.873045 0.557855 0.292943
0.885435 0.557641 0.302617
0.896849 0.558648 0.313909
0.907347 0.560784 0.327337
0.917144 0.564019 0.341894
0.926146 0.568902 0.358953
0.422278 0.645624 0.393652
0.422797 0.645594 0.393652
0.425605 0.645899 0.394110
0.430732 0.646418 0.394934
0.439155 0.647333 0.396155
0.450813 0.648859 0.398260
0.465858 0.650813 0.401465
0.484382 0.653407 0.405615
0.505974 0.656611 0.411017
0.529931 0.660243 0.417792
0.549676 0.660212 0.414954
0.565057 0.655756 0.401343
0.581994 0.650538 0.385595
0.600366 0.644068 0.367010
0.619806 0.636469 0.345403
0.639826 0.627405 0.320867
0.660121 0.616938 0.292790
0.677790 0.602991 0.270237
0.704158 0.597742 0.262577
0.732204 0.595483 0.261295
0.757534 0.593164 0.266148
0.779538 0.591882 0.280949
0.799802 0.590753 0.294377
0.818296 0.589776 0.306554
0.835142 0.589105 0.318639
0.850614 0.588739 0.330327
0.864683 0.588891 0.342260
0.876890 0.588342 0.350683
0.888151 0.588769 0.361334
0.898619 0.590295 0.373297
0.908415 0.592859 0.386572
0.917357 0.596918 0.402136
0.474128 0.672358 0.447883
0.475074 0.672541 0.448280
0.496376 0.681697 0.469368
0.500267 0.682033 0.470222
0.506310 0.682704 0.471504
0.514977 0.683619 0.473121
0.525780 0.684840 0.475593
0.539452 0.686427 0.479225
0.555352 0.688472 0.483711
0.573602 0.690974 0.489265
0.593652 0.693690 0.495552
0.604273 0.690730 0.485634
0.615595 0.686427 0.471504
0.628290 0.681270 0.454963
0.642573 0.675105 0.435401
0.658289 0.667842 0.412970
0.675135 0.659236 0.387304
0.693019 0.649378 0.358129
0.707973 0.635920 0.333989
0.729000 0.628534 0.324437
0.752865 0.625513 0.324132
0.775204 0.622431 0.326299
0.794003 0.620813 0.340826
0.811276 0.619440 0.353765
0.827176 0.618067 0.364813
0.841764 0.617212 0.376013
0.855253 0.616724 0.386511
0.867796 0.616846 0.397864
0.879149 0.617365 0.408515
0.889464 0.618158 0.418708
0.899077 0.620203 0.430732
0.908141 0.623407 0.444251
0.525994 0.695552 0.502098
0.528099 0.696254 0.503929
0.531243 0.697108 0.506065
0.535668 0.698054 0.508476
0.541894 0.699062 0.510826
0.548852 0.699947 0.512993
0.557702 0.700984 0.515343
0.568292 0.702205 0.517998
0.581048 0.703731 0.521721
0.595514 0.705562 0.526268
0.611719 0.707698 0.531609
0.625666 0.708400 0.532403
0.633631 0.705043 0.521050
0.642908 0.701106 0.507836
0.653620 0.696407 0.492256
0.665949 0.690913 0.474128
0.679805 0.684443 0.453071
0.695216 0.677028 0.429358
0.711879 0.668727 0.402808
0.725887 0.656825 0.379828
0.743954 0.649348 0.370764
0.765682 0.646876 0.372168
0.785855 0.644068 0.375158
0.802853 0.642542 0.387518
0.818173 0.641321 0.400458
0.832395 0.640406 0.411841
0.845548 0.639948 0.423011
0.857816 0.640101 0.434363
0.869261 0.641016 0.446174
0.879942 0.642786 0.459022
0.889647 0.644678 0.470405
0.898650 0.647425 0.482795
0.563653 0.710994 0.540703
0.565606 0.711666 0.542412
0.568261 0.712367 0.544335
0.572351 0.713222 0.546532
0.577234 0.714046 0.548577
0.582910 0.714809 0.550500
0.589776 0.715602 0.552544
0.598169 0.716579 0.554894
0.608118 0.717769 0.557977
0.619654 0.719234 0.561578
0.632380 0.720912 0.565820
0.646326 0.722805 0.570520
0.654322 0.721370 0.565393
0.660731 0.718410 0.555138
0.668330 0.714839 0.543084
0.677302 0.710628 0.528710
0.687800 0.705684 0.512169
0.699947 0.700099 0.492988
0.713649 0.693782 0.471504
0.728939 0.686610 0.447456
0.741665 0.675990 0.425879
0.757137 0.668330 0.415717
0.776638 0.666163 0.418494
0.794553 0.663874 0.422492
0.810025 0.662287 0.432441
0.823758 0.661494 0.444984
0.836515 0.661097 0.456886
0.848478 0.661250 0.468330
0.859678 0.662135 0.480049
0.870207 0.663905 0.492500
0.880064 0.666529 0.505516
0.889433 0.669764 0.518669
0.598688 0.724697 0.575494
0.600092 0.725154 0.576837
0.602350 0.725765 0.578363
0.605371 0.726406 0.580011
0.609094 0.727077 0.581659
0.613550 0.727687 0.583185
0.618921 0.728389 0.584833
0.625422 0.729152 0.586786
0.633417 0.730159 0.589227
0.642451 0.731319 0.592096
0.652674 0.732723 0.595483
0.663874 0.734310 0.599329
0.674708 0.735439 0.601892
0.679133 0.733059 0.594141
0.684565 0.730282 0.585168
0.691066 0.727169 0.574670
0.698787 0.723568 0.562524
0.707942 0.719509 0.548455
0.718746 0.714931 0.532677
0.731167 0.709895 0.515099
0.745205 0.704219 0.494850
0.756985 0.695460 0.476356
0.770169 0.688167 0.466743
0.787503 0.686671 0.471107
0.803372 0.685145 0.476509
0.817472 0.684047 0.484749
0.829618 0.684047 0.497536
0.840970 0.684565 0.509453
0.851713 0.685725 0.521691
0.861845 0.687648 0.533745
0.871550 0.690303 0.545892
0.880797 0.693690 0.558373
0.635889 0.739437 0.611872
0.636561 0.739620 0.612329
0.637629 0.739834 0.612848
0.639155 0.740108 0.613428
0.641535 0.740414 0.614160
0.644556 0.740780 0.615015
0.648402 0.741207 0.616052
0.653407 0.741817 0.617548
0.659480 0.742672 0.619409
0.666651 0.743709 0.621729
0.674769 0.744839 0.624567
0.683680 0.746212 0.627619
0.693202 0.747677 0.630915
0.699580 0.747311 0.629297
0.703273 0.745083 0.622522
0.707698 0.742550 0.614649
0.712978 0.739681 0.605463
0.719448 0.736477 0.595239
0.727016 0.732845 0.583307
0.735988 0.728786 0.569635
0.746456 0.724239 0.553979
0.758480 0.719112 0.535729
0.768826 0.711055 0.517967
0.779751 0.703761 0.507408
0.795010 0.702449 0.511589
0.809293 0.701381 0.516594
0.822416 0.700649 0.523247
0.833463 0.701350 0.536004
0.844022 0.702571 0.547906
0.853941 0.704524 0.559808
0.863615 0.707027 0.571252
0.872892 0.710170 0.582818
0.661524 0.750057 0.636378
0.661952 0.750271 0.636683
0.662745 0.750423 0.637140
0.664149 0.750637 0.637690
0.665919 0.750942 0.638239
0.668391 0.751247 0.638972
0.671595 0.751644 0.639918
0.675532 0.752224 0.641077
0.680415 0.752926 0.642664
0.686183 0.753811 0.644648
0.692683 0.754818 0.646906
0.699947 0.756008 0.649470
0.707790 0.757290 0.652155
0.716274 0.758663 0.655207
0.719234 0.757076 0.650416
0.722499 0.755123 0.644587
0.726436 0.752865 0.637842
0.731136 0.750362 0.630182
0.736690 0.747524 0.621485
0.743313 0.744411 0.611475
0.751064 0.740902 0.600244
0.760067 0.736965 0.587213
0.770443 0.732631 0.572320
0.779446 0.725734 0.557061
0.787594 0.717128 0.541863
0.801328 0.716182 0.545800
0.814389 0.715724 0.551324
0.826627 0.715663 0.557702
0.837095 0.716823 0.569085
0.847074 0.718685 0.580529
0.856718 0.721248 0.591821
0.866056 0.724331 0.602869
0.687098 0.761166 0.660609
0.687678 0.761379 0.661036
0.688289 0.761563 0.661372
0.689082 0.761654 0.661585
0.690211 0.761776 0.661769
0.691737 0.761898 0.661982
0.693843 0.762081 0.662348
0.696559 0.762356 0.662898
0.700069 0.762814 0.663752
0.704311 0.763394 0.664973
0.709224 0.764096 0.666377
0.714839 0.765011 0.668147
0.721096 0.766018 0.670192
0.727810 0.767086 0.672389
0.732967 0.767239 0.672145
0.735164 0.765469 0.667292
0.737881 0.763424 0.661585
0.741207 0.761318 0.655482
0.745418 0.759030 0.648768
0.750393 0.756558 0.641321
0.756344 0.753872 0.632898
0.763241 0.750790 0.623255
0.771084 0.747280 0.612085
0.780026 0.743313 0.599054
0.787839 0.736995 0.585321
0.795804 0.730526 0.575341
0.807706 0.729549 0.578027
0.819699 0.729519 0.583185
0.831083 0.729946 0.589166
0.841245 0.731441 0.598657
0.850889 0.733761 0.609369
0.860197 0.736721 0.619898
0.704891 0.769680 0.677455
0.705287 0.769863 0.677821
0.705959 0.770016 0.678157
0.706752 0.770169 0.678462
0.707851 0.770352 0.678767
0.709316 0.770565 0.679225
0.711360 0.770840 0.679805
0.713924 0.771298 0.680568
0.717037 0.771847 0.681575
0.720760 0.772488 0.682856
0.725002 0.773251 0.684260
0.729763 0.774105 0.685908
0.735012 0.775082 0.687648
0.740597 0.776089 0.689479
0.746578 0.777188 0.691371
0.749233 0.776242 0.688838
0.751247 0.774563 0.684504
0.753719 0.772763 0.679683
0.756771 0.770871 0.674525
0.760525 0.768826 0.668788
0.764920 0.766598 0.662409
0.770077 0.764157 0.655299
0.775967 0.761440 0.647089
0.782773 0.758389 0.637659
0.790585 0.754879 0.626673
0.797330 0.749447 0.615198
0.804349 0.744015 0.607080
0.814817 0.743069 0.609003
0.825895 0.743801 0.614343
0.836698 0.744930 0.620386
0.846738 0.746822 0.628443
0.855985 0.749691 0.638483
0.722805 0.778805 0.694362
0.723110 0.778897 0.694545
0.723445 0.778988 0.694697
0.723995 0.779110 0.694911
0.724880 0.779232 0.695155
0.726070 0.779416 0.695460
0.727687 0.779690 0.695918
0.729763 0.780026 0.696529
0.732296 0.780484 0.697292
0.735348 0.781064 0.698329
0.738827 0.781735 0.699458
0.742855 0.782498 0.700801
0.747158 0.783383 0.702296
0.751919 0.784329 0.703853
0.756985 0.785306 0.705470
0.761624 0.785916 0.706294
0.763180 0.784512 0.702846
0.765072 0.782956 0.699031
0.767453 0.781369 0.694942
0.770321 0.779660 0.690486
0.773770 0.777829 0.685573
0.777737 0.775845 0.680140
0.782193 0.773617 0.673884
0.787350 0.771115 0.666743
0.793271 0.768307 0.658625
0.800015 0.765194 0.649134
0.805966 0.760403 0.639307
0.812161 0.755673 0.632319
0.821500 0.754665 0.633295
0.832090 0.756039 0.638880
0.842374 0.757839 0.645136
0.852262 0.760281 0.652522
0.737881 0.787198 0.708614
0.738094 0.787259 0.708766
0.738430 0.787381 0.708949
0.738979 0.787472 0.709163
0.739864 0.787686 0.709468
0.741024 0.787991 0.709926
0.742794 0.788418 0.710719
0.744991 0.788998 0.711696
0.747616 0.789700 0.712856
0.750729 0.790524 0.714260
0.754208 0.791440 0.715816
0.757961 0.792447 0.717433
0.762081 0.793515 0.719142
0.766354 0.794553 0.720821
0.770809 0.795621 0.722499
0.775448 0.796658 0.724086
0.778256 0.796414 0.723201
0.779812 0.795163 0.720302
0.781674 0.793881 0.717189
0.783963 0.792477 0.713771
0.786587 0.791043 0.710079
0.789639 0.789395 0.705989
0.793027 0.787625 0.701289
0.796902 0.785641 0.696101
0.801328 0.783383 0.690089
0.806363 0.780911 0.683375
0.812070 0.778225 0.675746
0.817166 0.774075 0.667689
0.822629 0.770199 0.662165
0.830747 0.769345 0.662562
0.840726 0.771298 0.667964
0.850492 0.773678 0.674006
0.755428 0.797452 0.725246
0.755489 0.797452 0.725246
0.755612 0.797513 0.725277
0.755978 0.797543 0.725338
0.756558 0.797665 0.725521
0.757412 0.797818 0.725795
0.758572 0.798062 0.726162
0.760128 0.798398 0.726680
0.761990 0.798825 0.727352
0.764248 0.799374 0.728145
0.766812 0.799985 0.729122
0.769680 0.800687 0.730220
0.772946 0.801419 0.731441
0.776425 0.802243 0.732662
