20 Preset/Art Style/【3】LUT video cho PR-AE-FCPX/Portra 800 High-key Desaturated.cube
# Created by Adobe Lightroom plugin Export LUT (1.24.0)
# www.johnrellis.com/lightroom/exportlut.htm
# Preset: Portra 800 High-key Desaturated
# Color profile: E:\lut插件\exportlut.1.24\exportlut.lrplugin\color profiles\Rec709gamma2.4.icc
LUT_3D_SIZE 8
DOMAIN_MIN 0.000000 0.000000 0.000000
DOMAIN_MAX 0.903226 0.903226 0.903226
0.175357 0.168917 0.165316
0.167208 0.167605 0.164950
0.212985 0.168246 0.162081
0.377050 0.177554 0.151644
0.588525 0.176425 0.129549
0.770565 0.198795 0.082246
0.910887 0.270970 0.000000
0.984588 0.344457 0.000000
0.170291 0.163882 0.162814
0.169711 0.164309 0.162936
0.215702 0.175753 0.160128
0.368353 0.196597 0.148745
0.574701 0.207553 0.124819
0.759426 0.231724 0.058350
0.895995 0.290074 0.000000
0.976196 0.354681 0.000000
0.144228 0.250828 0.175540
0.149142 0.263432 0.169192
0.247501 0.246067 0.155764
0.411444 0.270817 0.136110
0.610285 0.295201 0.102846
0.787137 0.330205 0.000000
0.907652 0.380194 0.000000
0.976135 0.428809 0.010712
0.150729 0.490211 0.313725
0.190707 0.500664 0.314122
0.332219 0.551385 0.334234
0.472267 0.471931 0.202853
0.652216 0.463508 0.137423
0.807401 0.496498 0.140475
0.901640 0.508049 0.152926
0.962219 0.524712 0.202853
0.448127 0.688808 0.547875
0.475227 0.691951 0.554711
0.529381 0.713344 0.564904
0.634668 0.724819 0.582422
0.667964 0.644617 0.381353
0.769436 0.598810 0.258091
0.871092 0.614527 0.310216
0.934691 0.628626 0.366461
0.670253 0.767575 0.695674
0.686122 0.770413 0.703029
0.709712 0.777218 0.710719
0.753017 0.787778 0.728511
0.767056 0.781765 0.707668
0.772732 0.738552 0.568383
0.841428 0.699001 0.438453
0.902342 0.707027 0.503105
0.787533 0.804196 0.766537
0.791897 0.804654 0.768185
0.801877 0.806363 0.771450
0.815793 0.809812 0.776211
0.836240 0.812833 0.784482
0.828397 0.807370 0.765408
0.827298 0.787900 0.696803
0.871794 0.762264 0.596246
0.845670 0.817441 0.795071
0.846860 0.817502 0.795468
0.850675 0.817899 0.796719
0.854948 0.818875 0.798062
0.858854 0.819486 0.799130
0.863676 0.820127 0.800565
0.859129 0.818021 0.793027
0.857603 0.812528 0.767849
0.171633 0.166079 0.162478
0.168795 0.165530 0.162600
0.221958 0.161135 0.161685
0.377691 0.171267 0.153445
0.580865 0.174624 0.134340
0.760098 0.198184 0.097292
0.891844 0.264714 0.000000
0.971649 0.339605 0.000000
0.169100 0.164401 0.162936
0.170962 0.165408 0.163333
0.231449 0.172366 0.161288
0.385473 0.187930 0.151888
0.584405 0.196353 0.132082
0.761257 0.222934 0.093446
0.886351 0.281041 0.000000
0.966339 0.349371 0.000000
0.158968 0.242344 0.185641
0.183383 0.253544 0.189090
0.255955 0.250980 0.169375
0.420630 0.273228 0.152163
0.609247 0.291020 0.126680
0.775753 0.321294 0.082338
0.891051 0.364324 0.000000
0.966186 0.415137 0.066560
0.161807 0.465339 0.313054
0.216251 0.475471 0.321416
0.331518 0.528252 0.339971
0.458045 0.454902 0.222599
0.629084 0.445380 0.166171
0.784848 0.478340 0.167117
0.885100 0.490608 0.162264
0.953338 0.511192 0.199527
0.432441 0.678035 0.542260
0.459083 0.680690 0.548119
0.520012 0.700893 0.559625
0.626581 0.716396 0.580591
0.655055 0.631647 0.381964
0.759457 0.589563 0.267185
0.864042 0.607904 0.316777
0.930327 0.622004 0.364691
0.655970 0.762173 0.688289
0.667170 0.763363 0.692348
0.697688 0.770382 0.702998
0.743496 0.782864 0.721920
0.763272 0.778561 0.705562
0.769650 0.735103 0.569390
0.838346 0.695949 0.443061
0.900053 0.703944 0.503014
0.779751 0.802121 0.762844
0.782803 0.802243 0.763729
0.794949 0.803891 0.767819
0.810178 0.808103 0.773098
0.833494 0.811856 0.782864
0.826658 0.806363 0.764187
0.824704 0.785336 0.692683
0.869657 0.758358 0.588708
0.842954 0.816983 0.794003
0.844572 0.817105 0.794553
0.849088 0.817472 0.796078
0.853758 0.818509 0.797543
0.859678 0.819608 0.799619
0.864164 0.820218 0.800900
0.859251 0.817990 0.793240
0.857511 0.812375 0.768063
0.170626 0.164157 0.180056
0.178317 0.163729 0.181125
0.220523 0.163729 0.184756
0.419562 0.132662 0.199222
0.630854 0.081270 0.178683
0.795712 0.170932 0.168795
0.908690 0.268467 0.159487
0.978088 0.351232 0.169619
0.169406 0.174105 0.194095
0.182925 0.174472 0.196262
0.241672 0.178683 0.198062
0.433082 0.156863 0.202762
0.629419 0.153109 0.185855
0.792294 0.212039 0.175448
0.902861 0.287388 0.162600
0.973632 0.362127 0.172213
0.166629 0.246769 0.233707
0.190982 0.252018 0.237949
0.294347 0.272831 0.252079
0.465827 0.286656 0.241825
0.650599 0.303136 0.224186
0.799619 0.335332 0.207584
0.900786 0.378027 0.198367
0.967773 0.426123 0.213382
0.178805 0.437385 0.348272
0.225925 0.448890 0.359594
0.378729 0.492195 0.403296
0.496407 0.476936 0.337011
0.664240 0.479225 0.307042
0.798428 0.497597 0.301915
0.890166 0.507286 0.291264
0.953094 0.524804 0.304112
0.412818 0.656306 0.550195
0.439918 0.660334 0.556603
0.542046 0.677607 0.586175
0.657282 0.716060 0.632837
0.673091 0.642908 0.468757
0.773037 0.606928 0.376501
0.864408 0.622461 0.415564
0.925994 0.630579 0.437476
0.640925 0.753964 0.686610
0.653223 0.755489 0.690852
0.695552 0.760800 0.705623
0.739986 0.775387 0.722530
0.773251 0.778317 0.723629
0.772305 0.735256 0.606104
0.838224 0.700374 0.497444
0.895933 0.710506 0.552605
0.774746 0.800320 0.762417
0.778103 0.800473 0.763394
0.792782 0.801663 0.768154
0.811215 0.805875 0.774502
0.833463 0.810605 0.783474
0.831571 0.806790 0.771267
0.827604 0.786679 0.709071
0.869108 0.762509 0.622370
0.840330 0.816587 0.793362
0.841489 0.816587 0.793698
0.846769 0.816922 0.795407
0.853758 0.818021 0.797757
0.859617 0.819333 0.799741
0.865568 0.820401 0.801938
0.860899 0.818204 0.795224
0.858518 0.812680 0.772244
0.177371 0.178439 0.287510
0.196414 0.180026 0.292821
0.269139 0.186740 0.304051
0.397375 0.192874 0.315373
0.623133 0.208103 0.355138
0.813565 0.103365 0.308415
0.911711 0.249760 0.299290
0.973816 0.353338 0.307988
0.182040 0.202152 0.318273
0.203983 0.204166 0.320867
0.283665 0.211612 0.328222
0.417365 0.219791 0.336278
0.634150 0.235874 0.366705
0.816678 0.161685 0.314733
0.909117 0.283848 0.310063
0.971283 0.371679 0.316899
0.189242 0.278477 0.363958
0.214359 0.282261 0.368780
0.316655 0.301701 0.388647
0.463600 0.319219 0.393835
0.670832 0.333684 0.407050
0.817380 0.346014 0.374945
0.905821 0.404578 0.370855
0.964813 0.448371 0.366766
0.198825 0.437049 0.451179
0.234562 0.441138 0.454017
0.354131 0.459693 0.468330
0.531945 0.492226 0.493477
0.683375 0.501976 0.477485
0.799069 0.512047 0.458167
0.883879 0.524010 0.440894
0.945159 0.540185 0.432898
0.353002 0.612879 0.554772
0.381476 0.616907 0.559747
0.487617 0.637018 0.586358
0.641627 0.673976 0.638697
0.694484 0.654597 0.581201
0.784237 0.637171 0.541253
0.859709 0.645350 0.547814
0.917021 0.644373 0.537499
0.612726 0.739620 0.686885
0.630030 0.742885 0.692988
0.673487 0.748409 0.705287
0.740688 0.760525 0.728817
0.796262 0.782437 0.753811
0.781460 0.739315 0.665370
0.838804 0.712062 0.589715
0.888121 0.723537 0.628901
0.758114 0.795377 0.759243
0.763088 0.795926 0.760739
0.781247 0.797940 0.766354
0.810117 0.801755 0.776028
0.833433 0.808438 0.784787
0.840757 0.808225 0.782467
0.831754 0.788266 0.731441
0.867582 0.767300 0.666224
0.834928 0.815976 0.792386
0.836454 0.816068 0.792782
0.842496 0.816373 0.794583
0.852323 0.817166 0.797665
0.859556 0.818753 0.800015
0.866087 0.820218 0.802426
0.863462 0.818631 0.798154
0.860349 0.813138 0.778744
0.199069 0.233585 0.467597
0.223941 0.237064 0.472084
0.310460 0.247623 0.481392
0.450721 0.267918 0.498360
0.608118 0.283787 0.506920
0.769406 0.383307 0.547112
0.893156 0.356573 0.509239
0.964965 0.378271 0.469947
0.217990 0.261082 0.487922
0.242252 0.264378 0.491737
0.327367 0.273960 0.499153
0.463264 0.292821 0.511131
0.617884 0.310552 0.519463
0.772122 0.401190 0.554131
0.892119 0.374456 0.514397
0.961944 0.397711 0.477638
0.255375 0.340642 0.526116
0.279149 0.345037 0.530785
0.364202 0.356298 0.538231
0.499763 0.379828 0.550866
0.640986 0.401282 0.554833
0.775021 0.457099 0.571801
0.886168 0.432105 0.528893
0.949767 0.458961 0.502159
0.290440 0.458503 0.569390
0.313573 0.461616 0.571435
0.401404 0.475563 0.581323
0.546349 0.510704 0.604395
0.672663 0.535332 0.611017
0.786069 0.547601 0.607416
0.873289 0.536492 0.570855
0.931456 0.553429 0.552514
0.385138 0.602319 0.628962
0.404883 0.604608 0.630671
0.475532 0.613092 0.637079
0.584619 0.628992 0.648920
0.700526 0.649714 0.663478
0.781033 0.649348 0.649226
0.849546 0.648219 0.632044
0.906340 0.648005 0.614557
0.527245 0.706325 0.678309
0.538842 0.707179 0.679438
0.581231 0.709377 0.682643
0.667292 0.722621 0.701869
0.761654 0.747280 0.734981
0.784176 0.736690 0.707515
0.834287 0.725673 0.681788
0.879820 0.733761 0.690517
0.711696 0.782345 0.748928
0.716365 0.782742 0.749844
0.737423 0.785245 0.754757
0.777523 0.791318 0.766049
0.821408 0.799405 0.780423
0.848356 0.809140 0.791135
0.833951 0.787564 0.749569
0.865629 0.769436 0.703182
0.812467 0.813657 0.786984
0.814725 0.813718 0.787503
0.824002 0.814054 0.789761
0.840543 0.815244 0.794339
0.856077 0.816922 0.799069
0.864805 0.819364 0.802121
0.865965 0.819028 0.800900
0.861326 0.812894 0.783810
0.307897 0.329686 0.631739
0.328130 0.332769 0.633692
0.398230 0.342779 0.636957
0.514092 0.365820 0.646967
0.650843 0.406897 0.662165
0.763577 0.429023 0.659876
0.839719 0.546624 0.676509
0.914916 0.547906 0.662135
0.320287 0.346868 0.633295
0.337835 0.349065 0.634119
0.404822 0.358404 0.637812
0.516838 0.380346 0.647456
0.648585 0.417884 0.660578
0.760403 0.439857 0.659174
0.836454 0.552148 0.676295
0.913085 0.549889 0.660975
0.374273 0.423102 0.660090
0.389654 0.425116 0.660700
0.450752 0.434760 0.664393
0.547112 0.451087 0.668055
0.664393 0.484230 0.677302
0.766323 0.504875 0.676081
0.833677 0.592004 0.689784
0.907988 0.579522 0.671046
0.411444 0.509453 0.676417
0.427955 0.512688 0.677729
0.495247 0.529686 0.685878
0.593774 0.556481 0.697383
0.693202 0.584649 0.705043
0.776364 0.603204 0.705043
0.835691 0.644953 0.710903
0.901305 0.626581 0.688502
0.474495 0.608881 0.698390
0.486030 0.610285 0.698970
0.532189 0.616571 0.701686
0.609461 0.630182 0.707485
0.707546 0.658503 0.719539
0.777798 0.675654 0.723507
0.836484 0.680476 0.719661
0.894347 0.662928 0.694240
0.566674 0.700038 0.725154
0.577356 0.701778 0.726436
0.608881 0.704921 0.728084
0.661646 0.711421 0.731563
0.725154 0.721248 0.737118
0.790616 0.736599 0.746761
0.836301 0.735744 0.738857
0.877653 0.733577 0.728695
0.675349 0.770413 0.755306
0.680934 0.771023 0.755917
0.698604 0.772030 0.757015
0.729885 0.774289 0.759396
0.779171 0.782132 0.768399
0.835050 0.797482 0.785977
0.839292 0.789151 0.770840
0.864622 0.779812 0.753536
0.777554 0.808835 0.781979
0.779873 0.808927 0.782315
0.791165 0.809567 0.784268
0.812650 0.811246 0.788540
0.838926 0.813626 0.794583
0.860685 0.816831 0.800870
0.869444 0.819974 0.804013
0.863188 0.813107 0.790616
0.467079 0.450904 0.735958
0.478401 0.453498 0.736477
0.520745 0.462806 0.737728
0.592432 0.481575 0.740291
0.679530 0.510033 0.743374
0.766171 0.543847 0.745937
0.838956 0.563439 0.741726
0.870695 0.648585 0.743679
0.476478 0.464637 0.737026
0.487221 0.467048 0.737484
0.527245 0.475471 0.738643
0.595819 0.492378 0.740688
0.681086 0.519677 0.743771
0.766232 0.552667 0.746365
0.837583 0.570794 0.742061
0.869444 0.652216 0.744167
0.508995 0.513664 0.742672
0.517723 0.515221 0.742824
0.552758 0.522210 0.743618
0.613977 0.536645 0.745266
0.691432 0.560388 0.747860
0.770626 0.592187 0.750881
0.835233 0.606989 0.747250
0.866514 0.674067 0.750362
0.540215 0.573419 0.747524
0.549432 0.575616 0.747860
0.588922 0.587915 0.750271
0.642084 0.600580 0.751949
0.709194 0.620386 0.754330
0.778317 0.648157 0.758022
0.832456 0.658747 0.755703
0.862638 0.705867 0.759701
0.563592 0.631739 0.751369
0.569909 0.632410 0.751369
0.596399 0.636194 0.751736
0.656641 0.653010 0.755856
0.725734 0.676143 0.760983
0.784695 0.696315 0.764920
0.831327 0.707057 0.764889
0.863310 0.732235 0.767880
0.629816 0.704524 0.763485
0.634485 0.705104 0.763607
0.653315 0.707515 0.764065
0.686946 0.712062 0.764950
0.732265 0.719417 0.766537
0.792355 0.738796 0.772885
0.834531 0.751980 0.775845
0.866545 0.754452 0.773526
0.693965 0.762081 0.775875
0.697200 0.762478 0.776028
0.709834 0.763821 0.776486
0.733608 0.766629 0.777462
0.766506 0.771176 0.779141
0.804776 0.777981 0.781918
0.841520 0.787289 0.786282
0.865171 0.784787 0.780941
0.760250 0.805325 0.789487
0.762295 0.805417 0.789548
0.771115 0.805692 0.789822
0.786954 0.806241 0.790372
0.808591 0.807218 0.791470
0.837491 0.810208 0.795224
0.865354 0.816770 0.802670
0.865660 0.813718 0.797513
0.648127 0.605280 0.792447
0.652613 0.606683 0.792416
0.669947 0.611383 0.792172
0.702144 0.621515 0.791836
0.745296 0.636927 0.791470
0.793118 0.657649 0.791196
0.837339 0.674891 0.790433
0.876341 0.685145 0.787503
0.651667 0.611078 0.792233
0.656062 0.612390 0.792203
0.673060 0.616999 0.792020
0.704280 0.626612 0.791684
0.746456 0.641321 0.791348
0.793515 0.661463 0.791135
0.837156 0.678218 0.790463
0.875669 0.687892 0.787533
0.666224 0.633906 0.792081
0.670008 0.634882 0.792081
0.685145 0.638636 0.791897
0.714107 0.647364 0.791806
0.752590 0.659998 0.791562
0.796201 0.677394 0.791440
0.837339 0.693385 0.791073
0.873442 0.701167 0.788479
0.684565 0.665705 0.792264
0.689021 0.667323 0.792294
0.702235 0.670527 0.792203
0.727169 0.677302 0.792172
0.761440 0.687770 0.792142
0.800595 0.702266 0.792325
0.838285 0.717678 0.792477
0.870298 0.723018 0.790311
0.683589 0.688777 0.792081
0.687587 0.689876 0.792142
0.702541 0.693843 0.792355
0.735256 0.705653 0.792844
0.768826 0.716243 0.793118
0.804501 0.728176 0.793484
0.839750 0.743984 0.794278
0.867124 0.747921 0.792752
0.708583 0.729305 0.793973
0.710414 0.729335 0.793881
0.718349 0.729732 0.793698
0.734310 0.730861 0.793362
0.765438 0.737819 0.793790
0.808377 0.754238 0.795132
0.841489 0.768124 0.796262
0.864836 0.774594 0.795865
0.748379 0.770748 0.797238
0.749813 0.770840 0.797238
0.755917 0.771389 0.797147
0.768215 0.772610 0.797055
0.786587 0.774685 0.796902
0.810300 0.777920 0.796719
0.843809 0.789487 0.798215
0.864378 0.797574 0.799161
0.788632 0.801450 0.800229
0.789639 0.801541 0.800229
0.794156 0.801968 0.800229
0.803159 0.802884 0.800290
0.816556 0.804349 0.800381
0.833371 0.806485 0.800656
0.851560 0.809476 0.801297
0.867308 0.813626 0.802792
