20 Preset/Art Style/【3】LUT video cho PR-AE-FCPX/Portra 160.cube
# Created by Adobe Lightroom plugin Export LUT (1.24.0)
# www.johnrellis.com/lightroom/exportlut.htm
# Preset: Portra 160
# Color profile: E:\lut插件\exportlut.1.24\exportlut.lrplugin\color profiles\Rec709gamma2.4.icc
LUT_3D_SIZE 32
DOMAIN_MIN 0.0 0.0 0.0
DOMAIN_MAX 1.0 1.0 1.0
0.004364 0.081910 0.077607
0.006348 0.081788 0.077607
0.009308 0.082246 0.078401
0.019501 0.082918 0.078889
0.035615 0.084504 0.080598
0.062959 0.086030 0.082155
0.095186 0.087922 0.084108
0.122835 0.087495 0.085817
0.161837 0.082734 0.086885
0.212436 0.063569 0.087037
0.273289 0.018769 0.086488
0.342382 0.000000 0.084901
0.416205 0.000000 0.081239
0.490913 0.000000 0.075349
0.563348 0.000000 0.066133
0.630701 0.000000 0.056123
0.690730 0.000000 0.045197
0.743282 0.000000 0.036774
0.789517 0.000000 0.030640
0.830503 0.000000 0.028901
0.866697 0.000000 0.033478
0.898863 0.000000 0.046540
0.927337 0.000000 0.068391
0.954650 0.000000 0.092866
0.982116 0.000000 0.113039
1.000000 0.000000 0.136233
1.000000 0.000000 0.161746
1.000000 0.086824 0.189395
1.000000 0.186221 0.219944
1.000000 0.249882 0.253056
1.000000 0.306279 0.290562
1.000000 0.359930 0.331853
0.005615 0.082521 0.077455
0.005615 0.082521 0.077455
0.008576 0.083009 0.078309
0.018799 0.083680 0.078798
0.034913 0.085267 0.080507
0.062257 0.086793 0.082063
0.093568 0.088563 0.084016
0.121187 0.088350 0.085725
0.160037 0.084169 0.086824
0.209323 0.068879 0.086915
0.269718 0.024872 0.086519
0.337774 0.000000 0.084321
0.411200 0.000000 0.081514
0.485847 0.000000 0.075929
0.558526 0.000000 0.066835
0.625910 0.000000 0.055940
0.686793 0.000000 0.044953
0.739712 0.000000 0.035554
0.786465 0.000000 0.031495
0.827512 0.000000 0.028992
0.863737 0.000000 0.033051
0.896147 0.000000 0.043305
0.924804 0.000000 0.066590
0.952178 0.000000 0.091218
0.979339 0.000000 0.110506
1.000000 0.000000 0.132967
1.000000 0.000000 0.157626
1.000000 0.042084 0.184726
1.000000 0.175875 0.214939
1.000000 0.242161 0.248356
1.000000 0.299290 0.285466
1.000000 0.353338 0.326665
0.004425 0.086763 0.079255
0.004425 0.086763 0.079255
0.010285 0.087098 0.077485
0.016938 0.087282 0.079042
0.033051 0.088472 0.080720
0.059663 0.089815 0.082216
0.093355 0.091066 0.084138
0.120424 0.091402 0.085084
0.158267 0.089876 0.086000
0.207370 0.079805 0.086793
0.267369 0.041566 0.085451
0.335119 0.000000 0.083986
0.407904 0.000000 0.080201
0.481819 0.000000 0.073671
0.554406 0.000000 0.064210
0.622065 0.000000 0.052918
0.682948 0.000000 0.041566
0.736538 0.000000 0.033082
0.783413 0.000000 0.026795
0.824887 0.000000 0.025360
0.861570 0.000000 0.028412
0.893980 0.000000 0.038575
0.922820 0.000000 0.059846
0.950591 0.000000 0.088655
0.977539 0.000000 0.108370
1.000000 0.000000 0.130770
1.000000 0.000000 0.155337
1.000000 0.065003 0.182773
1.000000 0.178256 0.212924
1.000000 0.242771 0.245884
1.000000 0.298650 0.282231
1.000000 0.352026 0.323369
0.000641 0.093141 0.082185
0.002625 0.093050 0.082155
0.006592 0.092897 0.082155
0.015900 0.093812 0.078309
0.036439 0.093355 0.079591
0.057923 0.094026 0.082673
0.091432 0.096101 0.084443
0.119020 0.097536 0.085786
0.157809 0.096803 0.085786
0.206577 0.091676 0.085603
0.265995 0.069215 0.083986
0.332647 0.006165 0.082033
0.404547 0.000000 0.077516
0.478248 0.000000 0.069917
0.550347 0.000000 0.058595
0.617273 0.000000 0.048035
0.678157 0.000000 0.035889
0.731594 0.000000 0.025940
0.778622 0.000000 0.018952
0.820310 0.000000 0.016541
0.856931 0.000000 0.018891
0.889830 0.000000 0.030549
0.919005 0.000000 0.048920
0.947539 0.000000 0.082490
0.974517 0.000000 0.105104
0.997894 0.000000 0.127626
1.000000 0.000000 0.152895
1.000000 0.109957 0.181003
1.000000 0.191104 0.211002
1.000000 0.251072 0.244419
1.000000 0.304204 0.281285
1.000000 0.355535 0.321813
0.000000 0.103090 0.086793
0.000000 0.102998 0.087495
0.001740 0.102419 0.086854
0.012573 0.102052 0.084718
0.031556 0.103975 0.079042
0.068299 0.105074 0.078279
0.091676 0.103792 0.083131
0.117647 0.105257 0.084504
0.155520 0.106569 0.084779
0.203983 0.104891 0.083253
0.262119 0.096712 0.081819
0.328710 0.067231 0.079072
0.399695 0.000000 0.071534
0.472694 0.000000 0.062745
0.544152 0.000000 0.051087
0.611994 0.000000 0.037446
0.673365 0.000000 0.023926
0.727321 0.000000 0.013733
0.774594 0.000000 0.004883
0.816556 0.000000 0.002258
0.853635 0.000000 0.005188
0.886534 0.000000 0.017426
0.915984 0.000000 0.036194
0.945403 0.000000 0.073640
0.972137 0.000000 0.100862
0.995636 0.000000 0.125277
1.000000 0.000000 0.150546
1.000000 0.146944 0.179141
1.000000 0.210819 0.209903
1.000000 0.263798 0.243168
1.000000 0.313634 0.279728
1.000000 0.362219 0.320165
0.000000 0.120607 0.089265
0.000000 0.120516 0.089235
0.000000 0.119661 0.088930
0.000000 0.118044 0.088716
0.021454 0.118898 0.085206
0.062470 0.122347 0.076661
0.107973 0.127169 0.067628
0.129763 0.122377 0.078553
0.155001 0.119570 0.082887
0.203342 0.120821 0.080507
0.261723 0.118044 0.077699
0.327092 0.108797 0.071382
0.397650 0.088014 0.062196
0.470222 0.003265 0.049805
0.541527 0.000000 0.035309
0.608392 0.000000 0.020874
0.669825 0.000000 0.006134
0.724331 0.000000 0.000000
0.771725 0.000000 0.000000
0.813687 0.000000 0.000000
0.850675 0.000000 0.000000
0.883726 0.000000 0.000000
0.927703 0.000000 0.032044
0.958373 0.000000 0.081849
0.984649 0.000000 0.111666
1.000000 0.115846 0.139590
1.000000 0.179080 0.168093
1.000000 0.228519 0.198306
1.000000 0.273625 0.230991
1.000000 0.316808 0.265965
1.000000 0.359960 0.304082
1.000000 0.402991 0.344579
0.000000 0.153445 0.089815
0.000000 0.153414 0.089815
0.000000 0.152468 0.089967
0.000000 0.149966 0.089570
0.000000 0.146944 0.089235
0.040986 0.151461 0.080507
0.108370 0.157809 0.061280
0.167605 0.168826 0.035309
0.197208 0.157473 0.050721
0.227237 0.148653 0.062409
0.271061 0.144228 0.066316
0.337896 0.141878 0.054627
0.408545 0.133608 0.042359
0.480415 0.117311 0.027253
0.550347 0.090028 0.010193
0.615808 0.000000 0.000000
0.675380 0.000000 0.000000
0.727871 0.000000 0.000000
0.774502 0.000000 0.000000
0.815976 0.000000 0.000000
0.853391 0.000000 0.000000
0.886809 0.000000 0.000000
0.920684 0.000000 0.001648
0.951537 0.020020 0.055207
0.978546 0.128023 0.102174
1.000000 0.176638 0.132387
1.000000 0.217014 0.162722
1.000000 0.255344 0.193637
1.000000 0.293492 0.226596
1.000000 0.331548 0.261326
1.000000 0.370611 0.299199
1.000000 0.410986 0.339818
0.000000 0.196994 0.088594
0.000000 0.196536 0.088777
0.000000 0.195651 0.088533
0.000000 0.193118 0.088350
0.000000 0.190036 0.088197
0.000000 0.187930 0.083711
0.096498 0.195590 0.057527
0.160006 0.204166 0.024659
0.242344 0.222934 0.000000
0.277989 0.206332 0.000000
0.311681 0.191287 0.009308
0.345708 0.177676 0.027771
0.404425 0.172335 0.020478
0.474861 0.167605 0.002472
0.543755 0.158602 0.000000
0.608209 0.146731 0.000000
0.667689 0.132113 0.000000
0.720363 0.117433 0.000000
0.767147 0.106538 0.000000
0.809140 0.098604 0.000000
0.846464 0.101228 0.000000
0.882628 0.117494 0.000000
0.915862 0.141268 0.000000
0.946105 0.168887 0.023590
0.972808 0.197910 0.091402
0.995789 0.226963 0.125887
1.000000 0.256535 0.157107
1.000000 0.286412 0.189456
1.000000 0.318669 0.222751
1.000000 0.351965 0.258091
1.000000 0.387121 0.296147
1.000000 0.424323 0.337224
0.000000 0.252781 0.083680
0.000000 0.252323 0.084047
0.000000 0.251194 0.084016
0.000000 0.249119 0.083772
0.000000 0.245670 0.083558
0.000000 0.240604 0.083345
0.050324 0.242924 0.058289
0.151858 0.252415 0.006836
0.226932 0.262882 0.000000
0.325719 0.285435 0.000000
0.370642 0.267124 0.000000
0.406561 0.248142 0.000000
0.439887 0.228763 0.000000
0.472023 0.210849 0.000000
0.538750 0.208621 0.000000
0.602716 0.204929 0.000000
0.661494 0.200198 0.000000
0.713832 0.196109 0.000000
0.760586 0.193088 0.000000
0.802335 0.191867 0.000000
0.842191 0.197086 0.000000
0.877836 0.205386 0.000000
0.910460 0.217319 0.000000
0.940337 0.234043 0.000000
0.966888 0.253208 0.069001
0.989929 0.273869 0.117800
1.000000 0.296239 0.152468
1.000000 0.320470 0.186404
1.000000 0.347448 0.220554
1.000000 0.376318 0.256718
1.000000 0.407782 0.295415
1.000000 0.441810 0.336919
0.000000 0.317144 0.080690
0.000000 0.316686 0.080446
0.000000 0.315648 0.079164
0.000000 0.313512 0.079408
0.000000 0.309972 0.078523
0.000000 0.305150 0.076112
0.000000 0.298589 0.073854
0.137118 0.307103 0.005798
0.220218 0.317571 0.000000
0.304173 0.328710 0.000000
0.409522 0.351934 0.000000
0.463264 0.335698 0.000000
0.498695 0.313298 0.000000
0.530022 0.289372 0.000000
0.558984 0.267521 0.000000
0.596612 0.253208 0.000000
0.655116 0.253269 0.000000
0.707362 0.252995 0.000000
0.755276 0.253910 0.000000
0.798856 0.256382 0.000000
0.837430 0.260594 0.000000
0.872038 0.266117 0.000000
0.903655 0.274540 0.000000
0.932799 0.285649 0.000000
0.959014 0.299382 0.028595
0.982177 0.314549 0.106538
1.000000 0.332616 0.144686
1.000000 0.352453 0.179934
1.000000 0.375219 0.216373
1.000000 0.401007 0.253788
1.000000 0.429419 0.293767
1.000000 0.460517 0.336126
0.000000 0.383795 0.086366
0.000000 0.383734 0.085634
0.000000 0.382727 0.084504
0.000000 0.380987 0.083864
0.000000 0.378149 0.081270
0.000000 0.374090 0.079438
0.000000 0.368597 0.072969
0.126436 0.365728 0.042573
0.213443 0.376593 0.000000
0.298772 0.387854 0.000000
0.386969 0.399634 0.000000
0.490852 0.421912 0.000000
0.551781 0.409979 0.000000
0.584009 0.382330 0.000000
0.612665 0.356603 0.000000
0.637385 0.331334 0.000000
0.661402 0.309239 0.000000
0.703273 0.304295 0.000000
0.750546 0.307164 0.000000
0.792905 0.309636 0.000000
0.830716 0.313085 0.000000
0.864805 0.317845 0.000000
0.896300 0.324407 0.000000
0.925322 0.333074 0.000000
0.951781 0.343969 0.000000
0.975067 0.356359 0.094942
0.995697 0.370886 0.138582
1.000000 0.387396 0.177676
1.000000 0.406836 0.215579
1.000000 0.429145 0.254276
1.000000 0.454353 0.294377
1.000000 0.482765 0.337377
0.000000 0.453559 0.102968
0.000000 0.453498 0.102968
0.000000 0.452430 0.102907
0.000000 0.451209 0.101167
0.000000 0.448981 0.100618
0.000000 0.445411 0.098482
0.000000 0.441047 0.095766
0.098024 0.435126 0.090761
0.216220 0.437659 0.005341
0.296666 0.448615 0.000000
0.380591 0.459724 0.000000
0.467933 0.470924 0.000000
0.582177 0.505272 0.000000
0.647913 0.500908 0.000000
0.676997 0.469886 0.000000
0.702998 0.443336 0.000000
0.724788 0.414832 0.000000
0.744015 0.389624 0.000000
0.761929 0.368444 0.000000
0.802335 0.371740 0.000000
0.838407 0.375189 0.000000
0.871122 0.379522 0.000000
0.901213 0.384833 0.000000
0.929015 0.392126 0.000000
0.953826 0.400641 0.000000
0.975860 0.410315 0.105745
0.995361 0.421607 0.151247
1.000000 0.434974 0.190982
1.000000 0.450568 0.229099
1.000000 0.469337 0.267979
1.000000 0.491005 0.308354
1.000000 0.516167 0.351537
0.000000 0.528435 0.141878
0.000000 0.528130 0.141817
0.000000 0.527306 0.141024
0.000000 0.525475 0.139498
0.000000 0.523064 0.138033
0.000000 0.519371 0.135073
0.000000 0.515129 0.132113
0.022034 0.510765 0.128573
0.236576 0.505516 0.123995
0.312902 0.514549 0.001862
0.389441 0.526818 0.000000
0.471931 0.539330 0.000000
0.556725 0.551568 0.000000
0.642084 0.566278 0.000000
0.709071 0.569055 0.000000
0.734585 0.535943 0.000000
0.756527 0.506706 0.000000
0.774807 0.477638 0.000000
0.790768 0.450721 0.000000
0.804929 0.427283 0.000000
0.826658 0.415991 0.000000
0.859434 0.419471 0.000000
0.889830 0.424079 0.000000
0.917967 0.429755 0.000000
0.943328 0.436866 0.000000
0.966094 0.444862 0.091066
0.986206 0.454444 0.144015
1.000000 0.465980 0.187411
1.000000 0.479561 0.227573
1.000000 0.496223 0.267552
1.000000 0.515862 0.309850
1.000000 0.538781 0.353185
0.000000 0.590295 0.189944
0.000000 0.590173 0.190005
0.000000 0.589014 0.188632
0.000000 0.587335 0.187503
0.000000 0.585351 0.186374
0.000000 0.582086 0.183261
0.000000 0.578393 0.180423
0.024292 0.574426 0.176974
0.245274 0.569238 0.172854
0.332830 0.567163 0.160616
0.395972 0.577386 0.083955
0.466926 0.588190 0.000000
0.541253 0.598932 0.000000
0.616815 0.609247 0.000000
0.690181 0.619165 0.000000
0.756588 0.626307 0.000000
0.778653 0.592187 0.000000
0.797635 0.561883 0.000000
0.814298 0.533532 0.000000
0.828092 0.505638 0.000000
0.840513 0.481392 0.000000
0.852232 0.461616 0.000000
0.878965 0.461250 0.000000
0.907561 0.466468 0.000000
0.933349 0.472724 0.000000
0.956634 0.479377 0.068940
0.977325 0.487587 0.140108
0.995850 0.497261 0.185702
1.000000 0.509270 0.227726
1.000000 0.524254 0.269810
1.000000 0.541894 0.312505
1.000000 0.562860 0.357488
0.000000 0.642084 0.242710
0.000000 0.641840 0.242771
0.000000 0.640864 0.241245
0.000000 0.639338 0.240146
0.000000 0.636988 0.237613
0.000000 0.633936 0.235416
0.000000 0.630549 0.232517
0.122225 0.626734 0.228855
0.262699 0.622644 0.225681
0.349004 0.618402 0.222843
0.411658 0.620661 0.199405
0.469032 0.630152 0.137057
0.531884 0.639612 0.000000
0.597436 0.648737 0.000000
0.664881 0.657221 0.000000
0.730709 0.664912 0.000000
0.794614 0.675074 0.000000
0.814206 0.641199 0.000000
0.831327 0.610834 0.000000
0.846677 0.583154 0.000000
0.859342 0.555779 0.000000
0.871153 0.532036 0.000000
0.882261 0.512474 0.000000
0.897093 0.501305 0.000000
0.923369 0.506523 0.000000
0.947021 0.512627 0.043488
0.968231 0.519829 0.137118
0.987366 0.528588 0.186374
1.000000 0.539483 0.230869
1.000000 0.553216 0.274815
1.000000 0.569787 0.319432
1.000000 0.589563 0.365667
0.000000 0.683955 0.293645
0.000000 0.683894 0.293645
0.000000 0.683345 0.293248
0.000000 0.682277 0.292058
0.000000 0.680598 0.290471
0.000000 0.678401 0.288579
0.000000 0.676051 0.287022
0.194766 0.673335 0.284672
0.293767 0.670130 0.282506
0.369482 0.666590 0.280156
0.434455 0.662470 0.277043
0.480903 0.668025 0.243900
0.530816 0.675685 0.189731
0.585443 0.683040 0.068605
0.643519 0.689876 0.000000
0.703304 0.696407 0.000000
0.763088 0.702510 0.000000
0.824277 0.714565 0.000000
0.843015 0.683131 0.000000
0.858854 0.653437 0.000000
0.873747 0.627375 0.000000
0.886259 0.601465 0.000000
0.897734 0.578912 0.000000
0.908385 0.560052 0.000000
0.918303 0.544945 0.000000
0.937896 0.545281 0.034699
0.959533 0.551965 0.139437
0.979034 0.559869 0.191073
0.996551 0.569604 0.237064
1.000000 0.581842 0.281376
1.000000 0.596735 0.326635
1.000000 0.614435 0.372686
0.000000 0.719326 0.342504
0.000000 0.719203 0.342321
0.000000 0.718776 0.342351
0.000000 0.717952 0.341619
0.000000 0.716701 0.340459
0.000000 0.714961 0.338903
0.150088 0.712947 0.337316
0.253056 0.710536 0.335637
0.326818 0.707881 0.333867
0.390082 0.704829 0.331914
0.447059 0.701381 0.329625
0.496986 0.699275 0.322271
0.535912 0.706050 0.286107
0.580591 0.712673 0.235386
0.629694 0.718898 0.158053
0.681971 0.724849 0.000000
0.736172 0.730251 0.000000
0.790738 0.735592 0.000000
0.846860 0.745602 0.000000
0.867460 0.720089 0.000000
0.882628 0.692134 0.000000
0.897032 0.667201 0.000000
0.909270 0.643061 0.000000
0.920226 0.621668 0.000000
0.930297 0.603784 0.000000
0.939605 0.589746 0.000000
0.950713 0.582635 0.144747
0.970550 0.589899 0.197604
0.988403 0.598840 0.244511
1.000000 0.610040 0.289952
1.000000 0.623804 0.336065
1.000000 0.640253 0.383337
0.000000 0.750912 0.391730
0.000000 0.750912 0.391516
0.000000 0.760281 0.407935
0.076936 0.759548 0.407141
0.164431 0.758572 0.406653
0.224857 0.757137 0.404974
0.280888 0.755276 0.403876
0.332982 0.753201 0.402167
0.383825 0.750881 0.400336
0.432715 0.748257 0.399054
0.479225 0.745327 0.396674
0.523827 0.742061 0.394537
0.560632 0.742733 0.379095
0.594415 0.748165 0.343694
0.633112 0.753231 0.298802
0.676112 0.757900 0.236484
0.722621 0.762020 0.123598
0.770809 0.765774 0.000000
0.819608 0.769284 0.000000
0.870176 0.776761 0.000000
0.891844 0.756252 0.000000
0.906035 0.730159 0.000000
0.919585 0.706508 0.000000
0.931029 0.683772 0.000000
0.940948 0.663233 0.000000
0.949889 0.646143 0.000000
0.958038 0.632563 0.057404
0.965606 0.623285 0.199130
0.980255 0.627466 0.254948
0.996643 0.637507 0.300572
1.000000 0.650019 0.346990
1.000000 0.665187 0.394202
0.181674 0.780880 0.442023
0.190433 0.781582 0.443244
0.207370 0.782132 0.444739
0.231846 0.782376 0.445686
0.262699 0.782132 0.446082
0.296757 0.781155 0.445624
0.333471 0.779782 0.444373
0.372229 0.777951 0.442908
0.411902 0.775967 0.441505
0.452674 0.773739 0.440040
0.492927 0.771267 0.438544
0.532280 0.768521 0.436439
0.570855 0.765316 0.434028
0.599664 0.768521 0.411627
0.631006 0.773159 0.378790
0.666712 0.777523 0.336706
0.705928 0.781552 0.280156
0.748623 0.785214 0.196292
0.793057 0.788663 0.000000
0.838407 0.791836 0.000000
0.885863 0.798856 0.000000
0.909148 0.783322 0.000000
0.922820 0.759365 0.000000
0.935943 0.737331 0.000000
0.946715 0.716243 0.000000
0.956085 0.697322 0.000000
0.964569 0.681788 0.000000
0.972168 0.669764 0.150118
0.979156 0.662348 0.245762
0.988220 0.662501 0.309819
1.000000 0.674220 0.356939
1.000000 0.688228 0.404822
0.286442 0.802762 0.481178
0.291661 0.803403 0.482795
0.300694 0.803952 0.484108
0.314763 0.804196 0.484932
0.334264 0.804044 0.485664
0.356725 0.803342 0.485176
0.383246 0.802213 0.484779
0.412726 0.800748 0.483558
0.444221 0.799039 0.482338
0.477150 0.797208 0.480934
0.511162 0.795102 0.479774
0.545464 0.792782 0.478187
0.579370 0.790158 0.476143
0.611383 0.788205 0.471382
0.636255 0.792294 0.446601
0.664942 0.796262 0.415686
0.697658 0.799985 0.376593
0.733883 0.803494 0.325597
0.772824 0.806699 0.255924
0.813779 0.809689 0.129122
0.855650 0.812497 0.000000
0.900603 0.818967 0.000000
0.925170 0.807675 0.000000
0.938231 0.785824 0.000000
0.950896 0.765530 0.000000
0.960998 0.745998 0.000000
0.969696 0.729030 0.000000
0.977630 0.715145 0.000000
0.984771 0.705287 0.212711
0.991150 0.699733 0.297032
0.996796 0.699062 0.365911
1.000000 0.710597 0.416205
0.359594 0.822507 0.519158
0.362554 0.823026 0.520562
0.368505 0.823484 0.521630
0.378454 0.823667 0.522637
0.392004 0.823514 0.522942
0.408423 0.822934 0.522881
0.427955 0.822019 0.522087
0.450629 0.820829 0.521324
0.476204 0.819455 0.520500
0.503197 0.817838 0.519341
0.531792 0.816098 0.518547
0.561364 0.814176 0.517174
0.590967 0.812039 0.515557
0.620539 0.809659 0.513848
0.645991 0.809934 0.503899
0.669093 0.813565 0.480629
0.695949 0.817166 0.452552
0.726284 0.820676 0.417060
0.759823 0.824033 0.372534
0.796078 0.827237 0.312902
0.834348 0.830289 0.225193
0.873655 0.833219 0.000000
0.916625 0.839750 0.000000
0.942626 0.832303 0.000000
0.955291 0.812894 0.000000
0.967651 0.794644 0.000000
0.976684 0.777523 0.000000
0.984741 0.762936 0.000000
0.991913 0.751705 0.185306
0.998260 0.744503 0.288853
1.000000 0.741604 0.366217
1.000000 0.743282 0.433845
0.430610 0.843259 0.562829
0.431769 0.843412 0.563195
0.435126 0.843412 0.563561
0.440894 0.843259 0.563622
0.449744 0.842863 0.563317
0.461280 0.842191 0.562921
0.475807 0.841337 0.562341
0.492958 0.840299 0.561517
0.512718 0.839200 0.560693
0.535027 0.837888 0.559899
0.558679 0.836484 0.559380
0.583276 0.834897 0.558312
0.608576 0.833158 0.557214
0.634272 0.831266 0.556023
0.660060 0.829129 0.554376
0.680110 0.830991 0.539818
0.701381 0.834134 0.518273
0.725856 0.837217 0.491524
0.753506 0.840208 0.459113
0.784146 0.843137 0.418280
0.817227 0.845853 0.365026
0.852476 0.848478 0.290013
0.889006 0.850828 0.159487
0.929442 0.856504 0.000000
0.957031 0.852110 0.000000
0.969177 0.834470 0.000000
0.980865 0.817990 0.000000
0.989044 0.802976 0.000000
0.996338 0.790616 0.106050
1.000000 0.781582 0.260472
1.000000 0.776547 0.350469
1.000000 0.775540 0.424781
0.479835 0.858793 0.596796
0.480690 0.858946 0.597162
0.483497 0.858976 0.597406
0.488136 0.858793 0.597467
0.494850 0.858488 0.597436
0.503624 0.857969 0.597040
0.515129 0.857267 0.596521
0.528985 0.856443 0.595880
0.544793 0.855497 0.595270
0.563195 0.854459 0.594965
0.582879 0.853239 0.594263
0.603540 0.852018 0.593652
0.625452 0.850553 0.592889
0.647913 0.848997 0.592096
0.670558 0.847288 0.590845
0.692653 0.845914 0.588220
0.709621 0.848875 0.571557
0.729427 0.851865 0.551324
0.752193 0.854765 0.526879
0.777737 0.857633 0.497200
0.806058 0.860380 0.459632
0.836698 0.863005 0.411536
0.869474 0.865446 0.345769
0.903807 0.867704 0.245975
0.940063 0.870542 0.000000
0.970367 0.869841 0.000000
0.982422 0.853880 0.000000
0.992889 0.839048 0.000000
1.000000 0.826017 0.000000
1.000000 0.815702 0.217288
1.000000 0.808896 0.328649
1.000000 0.805814 0.411872
0.529442 0.874907 0.633173
0.530602 0.875120 0.633692
0.532555 0.875151 0.633997
0.535729 0.874907 0.633814
0.540337 0.874479 0.633112
0.546624 0.873869 0.632380
0.554833 0.873075 0.631464
0.565087 0.872129 0.630488
0.577356 0.871122 0.629328
0.591638 0.870054 0.628473
0.607416 0.868833 0.627466
0.624537 0.867582 0.626368
0.642908 0.866209 0.625452
0.661891 0.864714 0.624201
0.681300 0.863066 0.622827
0.701106 0.861326 0.621363
0.718746 0.861357 0.614405
0.734615 0.864073 0.598108
0.753079 0.866850 0.578943
0.774380 0.869657 0.556237
0.798367 0.872465 0.527977
0.824735 0.875090 0.493202
0.853391 0.877501 0.448066
0.883848 0.879667 0.387854
0.916289 0.881529 0.297917
0.951293 0.884642 0.113405
0.982269 0.885283 0.000000
0.995850 0.872221 0.000000
1.000000 0.858824 0.000000
1.000000 0.847623 0.148989
1.000000 0.839322 0.299290
1.000000 0.834379 0.395361
0.565850 0.887785 0.661616
0.567010 0.887968 0.662104
0.568719 0.888029 0.662470
0.571466 0.887907 0.662470
0.575555 0.887633 0.662226
0.580896 0.887266 0.661891
0.588067 0.886778 0.661494
0.597223 0.886137 0.661189
0.607691 0.885496 0.660792
0.619898 0.884764 0.660487
0.633387 0.883879 0.659998
0.648188 0.882933 0.659632
0.663691 0.881834 0.658808
0.680018 0.880644 0.658076
0.696895 0.879271 0.656886
0.714137 0.877806 0.655634
0.731838 0.876280 0.654353
0.745846 0.877745 0.644007
0.760678 0.880308 0.628779
0.777951 0.882963 0.611048
0.797696 0.885649 0.589258
0.819760 0.888243 0.562951
0.844236 0.890684 0.530602
0.870848 0.892973 0.488319
0.899535 0.895018 0.432441
0.930205 0.896818 0.353216
0.963287 0.899138 0.217960
0.994598 0.900725 0.000000
1.000000 0.890532 0.000000
1.000000 0.878874 0.000000
1.000000 0.869657 0.273503
1.000000 0.863310 0.383612
0.603845 0.901366 0.692042
0.604517 0.901457 0.692378
0.605646 0.901457 0.692500
0.607752 0.901305 0.692378
0.610925 0.901061 0.692256
0.615320 0.900725 0.691951
0.621118 0.900298 0.691463
0.628351 0.899779 0.691096
0.636988 0.899168 0.690730
0.646967 0.898528 0.690455
0.658381 0.897795 0.690059
0.670680 0.897002 0.689601
0.683986 0.896117 0.689296
0.698054 0.895109 0.688655
0.712581 0.893980 0.687800
0.727687 0.892760 0.686732
0.743221 0.891478 0.685573
0.758755 0.890410 0.683925
0.770504 0.892851 0.671534
0.784451 0.895384 0.657252
0.800565 0.897948 0.640253
0.818906 0.900450 0.619776
0.839384 0.902831 0.594903
0.862119 0.905089 0.563348
0.886961 0.907103 0.523186
0.913939 0.908904 0.470222
0.943053 0.910552 0.396155
0.974243 0.912078 0.276585
1.000000 0.914305 0.000000
1.000000 0.906493 0.000000
1.000000 0.896513 0.226017
1.000000 0.888975 0.360784
0.636316 0.914153 0.719356
0.636805 0.914244 0.719539
0.637842 0.914244 0.719631
0.639704 0.914183 0.719753
0.642603 0.914061 0.719783
0.646601 0.913939 0.719936
0.652216 0.913817 0.720272
0.659113 0.913664 0.720790
0.667414 0.913542 0.721462
0.676783 0.913420 0.722225
0.687282 0.913207 0.722957
0.698543 0.912963 0.723659
0.710445 0.912596 0.724178
0.722988 0.912047 0.724483
0.735805 0.911376 0.724514
0.748898 0.910491 0.724056
0.762325 0.909545 0.723537
0.776059 0.908537 0.722774
0.788632 0.908812 0.718807
0.799649 0.911131 0.708034
0.812406 0.913512 0.695247
0.827085 0.915862 0.679713
0.843626 0.918090 0.660548
0.862211 0.920226 0.637049
0.882933 0.922179 0.607538
0.905882 0.923949 0.569604
0.931060 0.925566 0.520165
0.958587 0.926970 0.451606
0.988495 0.928161 0.346654
1.000000 0.930358 0.128481
1.000000 0.924468 0.197086
1.000000 0.916136 0.354864
0.673182 0.929503 0.751064
0.673365 0.929503 0.751064
0.674006 0.929442 0.751034
0.675319 0.929320 0.750942
0.677455 0.929137 0.750790
0.680507 0.928893 0.750698
0.684627 0.928649 0.750576
0.689784 0.928344 0.750423
0.696040 0.928038 0.750454
0.703273 0.927672 0.750546
0.711574 0.927276 0.750668
0.720607 0.926848 0.750729
0.730556 0.926360 0.750759
0.740993 0.925780 0.750698
