20 Preset/Art Style/【3】LUT video cho PR-AE-FCPX/Portra 400.cube
# Created by Adobe Lightroom plugin Export LUT (1.24.0)
# www.johnrellis.com/lightroom/exportlut.htm
# Preset: Portra 400
# Color profile: E:\lut插件\exportlut.1.24\exportlut.lrplugin\color profiles\Rec709gamma2.4.icc
LUT_3D_SIZE 8
DOMAIN_MIN 0.000000 0.000000 0.000000
DOMAIN_MAX 0.903226 0.903226 0.903226
0.000000 0.000000 0.000000
0.001190 0.014282 0.003662
0.122286 0.088716 0.008850
0.394659 0.114168 0.000000
0.720394 0.000000 0.000000
0.928038 0.000000 0.000000
1.000000 0.000000 0.000000
1.000000 0.150179 0.000000
0.000000 0.085908 0.037385
0.000000 0.092042 0.034272
0.101015 0.122560 0.017639
0.363226 0.152865 0.000000
0.683101 0.019898 0.000000
0.907134 0.000000 0.000000
1.000000 0.000000 0.000000
1.000000 0.186618 0.000000
0.000000 0.205875 0.105257
0.000000 0.203677 0.110994
0.000000 0.216800 0.096956
0.379767 0.248173 0.006226
0.678798 0.255406 0.000000
0.908202 0.262364 0.000000
1.000000 0.299687 0.000000
1.000000 0.346746 0.000000
0.000000 0.407904 0.141817
0.000000 0.402747 0.147250
0.000000 0.399908 0.158267
0.363806 0.459602 0.077455
0.714473 0.512840 0.000000
0.896941 0.479194 0.000000
1.000000 0.480629 0.000000
1.000000 0.494636 0.000000
0.000000 0.658137 0.146761
0.000000 0.655543 0.152804
0.000000 0.649531 0.179965
0.242069 0.655634 0.174533
0.594903 0.663478 0.000000
0.832212 0.665400 0.000000
0.952850 0.634363 0.000000
1.000000 0.616236 0.000000
0.000000 0.773404 0.306828
0.000000 0.776425 0.319860
0.000000 0.771603 0.334752
0.389868 0.762661 0.363714
0.570520 0.763699 0.333440
0.745907 0.767025 0.281529
0.910857 0.779873 0.211307
1.000000 0.763638 0.246860
0.418555 0.855131 0.481056
0.436835 0.855314 0.485298
0.485298 0.851682 0.492287
0.562646 0.846098 0.508965
0.640742 0.841184 0.516533
0.728725 0.847044 0.490639
0.835386 0.854276 0.455299
0.966918 0.873747 0.405585
0.613153 0.940551 0.634394
0.617884 0.940185 0.635401
0.638270 0.939269 0.641413
0.675807 0.938201 0.654536
0.709407 0.926421 0.652888
0.763027 0.931212 0.654688
0.828824 0.939178 0.642145
0.908629 0.944213 0.617090
0.000000 0.014893 0.098329
0.000000 0.025116 0.100038
0.114717 0.034302 0.096742
0.363806 0.060578 0.110109
0.683680 0.000000 0.093538
0.907591 0.000000 0.061006
1.000000 0.000000 0.081971
1.000000 0.069337 0.096834
0.000000 0.093599 0.107729
0.000000 0.096468 0.110262
0.098329 0.117830 0.114260
0.358984 0.133608 0.110719
0.672847 0.000000 0.092958
0.899504 0.000000 0.054597
1.000000 0.000000 0.065614
1.000000 0.149508 0.084108
0.000000 0.208835 0.151278
0.000000 0.207675 0.145632
0.000000 0.216312 0.140688
0.374029 0.236423 0.119112
0.663172 0.237613 0.089448
0.892424 0.235355 0.024048
1.000000 0.266209 0.034577
1.000000 0.321691 0.071168
0.000000 0.393683 0.169436
0.000000 0.390631 0.172946
0.000000 0.387030 0.186893
0.343023 0.426551 0.143618
0.666377 0.470069 0.000000
0.866850 0.442908 0.000000
0.980591 0.451026 0.000000
1.000000 0.472511 0.005493
0.000000 0.651057 0.180179
0.000000 0.647150 0.183871
0.000000 0.638239 0.203586
0.231510 0.637964 0.201694
0.571710 0.644526 0.112734
0.816526 0.648585 0.000000
0.941222 0.619928 0.000000
1.000000 0.605798 0.082826
0.000000 0.765438 0.312932
0.000000 0.764645 0.317021
0.000000 0.760464 0.331914
0.371862 0.752865 0.361944
0.560723 0.754726 0.339727
0.740780 0.760372 0.296300
0.904753 0.772488 0.234012
1.000000 0.755978 0.260380
0.399451 0.847471 0.474922
0.408881 0.845670 0.474250
0.461189 0.841825 0.480690
0.546929 0.836973 0.499123
0.633814 0.833738 0.513787
0.722469 0.839689 0.488228
0.828367 0.845335 0.449531
0.960204 0.864408 0.396094
0.603204 0.934722 0.626307
0.610346 0.935332 0.629664
0.630915 0.934173 0.635187
0.669459 0.933227 0.648493
0.717556 0.930785 0.665766
0.766232 0.932311 0.662898
0.828580 0.937896 0.645380
0.907988 0.942840 0.620142
0.000000 0.049653 0.223209
0.000000 0.056001 0.224674
0.130770 0.062196 0.228855
0.367895 0.000000 0.231632
0.700099 0.000000 0.222782
0.927184 0.000000 0.223484
1.000000 0.000000 0.274083
1.000000 0.246067 0.287938
0.000000 0.109255 0.228916
0.000000 0.112764 0.229435
0.127230 0.116884 0.232090
0.374640 0.000000 0.229557
0.697749 0.000000 0.213687
0.921447 0.000000 0.241062
1.000000 0.000000 0.266636
1.000000 0.262303 0.279576
0.000000 0.228092 0.240421
0.000000 0.228702 0.241154
0.109895 0.227115 0.243107
0.420905 0.225315 0.246525
0.715480 0.205631 0.247776
0.912749 0.235019 0.254459
1.000000 0.305577 0.266270
1.000000 0.379004 0.282841
0.000000 0.430579 0.272801
0.000000 0.432746 0.274937
0.000000 0.431250 0.268498
0.392248 0.452155 0.257786
0.708003 0.469490 0.233341
0.881834 0.462196 0.243168
0.985077 0.483162 0.265385
1.000000 0.513176 0.291234
0.000000 0.659327 0.323247
0.000000 0.658167 0.316472
0.000000 0.653040 0.312963
0.349279 0.646204 0.333715
0.615076 0.654108 0.289860
0.827390 0.651423 0.248112
0.943267 0.624353 0.269535
1.000000 0.626795 0.304112
0.000000 0.764828 0.400305
0.000000 0.764797 0.399481
0.278843 0.760159 0.409949
0.455818 0.751675 0.431189
0.597833 0.750668 0.425422
0.751003 0.757961 0.395026
0.902556 0.770382 0.361181
1.000000 0.759915 0.382605
0.474495 0.849180 0.526879
0.482094 0.847623 0.526452
0.518425 0.843259 0.529686
0.583917 0.837766 0.542321
0.658839 0.832181 0.560479
0.736965 0.839658 0.541039
0.836423 0.848417 0.514305
0.962585 0.868467 0.476478
0.616602 0.935485 0.647639
0.620142 0.934661 0.647547
0.639521 0.933410 0.652277
0.678645 0.933715 0.666957
0.724910 0.931273 0.682490
0.774197 0.933013 0.686915
0.834165 0.939330 0.671992
0.911376 0.944366 0.649104
0.000000 0.063142 0.392065
0.000000 0.049256 0.397498
0.284886 0.000000 0.402930
0.471138 0.000000 0.409827
0.675319 0.000000 0.380468
0.904631 0.000000 0.353338
1.000000 0.000000 0.342168
1.000000 0.000000 0.376043
0.000000 0.130129 0.403845
0.000000 0.129213 0.405585
0.279149 0.111757 0.409644
0.479866 0.000000 0.416693
0.684047 0.000000 0.380652
0.908354 0.000000 0.356970
1.000000 0.000000 0.350561
1.000000 0.228763 0.396094
0.000000 0.267857 0.406622
0.000000 0.261418 0.408789
0.219547 0.239322 0.414618
0.478920 0.217258 0.420081
0.714717 0.088624 0.383978
0.917205 0.129580 0.392676
1.000000 0.351232 0.432288
1.000000 0.503441 0.494606
0.000000 0.472145 0.433356
0.000000 0.470985 0.432929
0.124483 0.470069 0.434363
0.473945 0.465888 0.437720
0.726925 0.489143 0.449928
0.869078 0.521782 0.465980
0.962951 0.558007 0.485878
1.000000 0.590204 0.504814
0.000000 0.678798 0.461982
0.000000 0.676265 0.463020
0.307439 0.669154 0.474311
0.508873 0.661189 0.484932
0.674159 0.662501 0.477607
0.833829 0.658350 0.467842
0.936217 0.654505 0.484108
1.000000 0.671412 0.507622
0.443854 0.768063 0.541711
0.478401 0.769863 0.550622
0.526207 0.765682 0.550835
0.581140 0.761166 0.546502
0.670619 0.755154 0.557763
0.774838 0.761990 0.533593
0.901549 0.772641 0.515984
0.998077 0.767666 0.529564
0.581231 0.849332 0.615717
0.584833 0.849516 0.615045
0.596582 0.848905 0.609796
0.639124 0.845945 0.614740
0.699489 0.840116 0.629633
0.761593 0.843687 0.622126
0.846891 0.851652 0.599725
0.962921 0.869963 0.575525
0.651057 0.940307 0.696284
0.652674 0.940093 0.695247
0.662287 0.939391 0.693385
0.695216 0.937591 0.701930
0.738582 0.934691 0.714321
0.786679 0.933593 0.725582
0.842344 0.940581 0.713100
0.917449 0.946960 0.695308
0.000000 0.056367 0.604883
0.173556 0.031983 0.608270
0.361242 0.000000 0.611597
0.577813 0.000000 0.619409
0.784909 0.000000 0.623987
0.895689 0.000000 0.553582
0.997986 0.000000 0.483101
1.000000 0.000000 0.485908
0.000000 0.143862 0.609705
0.138460 0.139528 0.613214
0.356023 0.112673 0.616297
0.577661 0.000000 0.620722
0.787747 0.000000 0.626978
0.895842 0.000000 0.554955
0.996948 0.000000 0.488533
1.000000 0.000000 0.493843
0.000000 0.268559 0.611627
0.000000 0.268284 0.612604
0.321508 0.267613 0.615320
0.573266 0.273869 0.623285
0.777371 0.238254 0.624598
0.880949 0.167086 0.551843
0.983398 0.212375 0.510582
1.000000 0.356115 0.522210
0.000000 0.496345 0.608301
0.000000 0.496376 0.608057
0.265385 0.497749 0.609918
0.547204 0.497688 0.618189
0.746059 0.505364 0.621057
0.852873 0.477211 0.565576
0.952422 0.525444 0.572930
1.000000 0.569207 0.589685
0.000000 0.676051 0.610925
0.000000 0.675563 0.611383
0.324743 0.671595 0.611658
0.546166 0.663813 0.612116
0.704005 0.653742 0.611353
0.821805 0.667659 0.623713
0.916838 0.685634 0.638911
1.000000 0.703304 0.652430
0.381384 0.765805 0.606653
0.410132 0.764828 0.608240
0.498726 0.759152 0.612024
0.616114 0.752407 0.624537
0.699336 0.745754 0.631189
0.785489 0.754635 0.634546
0.895964 0.765194 0.634150
0.989471 0.768612 0.645289
0.590936 0.849668 0.672724
0.597589 0.848356 0.672480
0.628016 0.845121 0.675074
0.684596 0.843015 0.686702
0.719020 0.841001 0.681483
0.776455 0.838407 0.689143
0.851804 0.846983 0.671107
0.959106 0.860990 0.654047
0.672480 0.935210 0.741695
0.678248 0.934661 0.742885
0.691035 0.933532 0.742306
0.708766 0.935912 0.740261
0.743465 0.934447 0.743618
0.794766 0.931334 0.759274
0.846891 0.936584 0.753353
0.919463 0.942962 0.736141
0.229526 0.135012 0.755154
0.279637 0.132326 0.756405
0.420356 0.114626 0.756161
0.621851 0.061524 0.762356
0.807675 0.171847 0.767941
0.924071 0.125643 0.764614
0.985626 0.006165 0.694636
1.000000 0.118532 0.639826
0.222629 0.180240 0.748287
0.271763 0.178622 0.748440
0.415290 0.170443 0.749691
0.613855 0.163607 0.755154
0.798001 0.223514 0.759792
0.915496 0.197452 0.757565
0.978424 0.160464 0.689509
1.000000 0.181674 0.636194
0.253635 0.331121 0.755245
0.299840 0.332616 0.755215
0.443244 0.341527 0.756222
0.623987 0.355505 0.754299
0.787381 0.406775 0.756069
0.896788 0.402136 0.754055
0.961791 0.378027 0.693965
1.000000 0.371466 0.645350
0.330388 0.544854 0.745815
0.369635 0.545098 0.745174
0.471595 0.539330 0.747280
0.637140 0.558953 0.752651
0.773617 0.588800 0.756863
0.868681 0.587366 0.755581
0.935821 0.563439 0.708888
1.000000 0.551446 0.674861
0.350378 0.671229 0.729732
0.380896 0.671138 0.729397
0.482734 0.671260 0.728878
0.610132 0.673518 0.729183
0.736080 0.675471 0.737362
0.833707 0.680262 0.741054
0.908476 0.658625 0.705074
1.000000 0.672724 0.710964
0.464790 0.769894 0.729091
0.486976 0.770626 0.730922
0.544945 0.768063 0.730617
0.628260 0.764126 0.730556
0.716152 0.759304 0.730282
0.805631 0.757809 0.734371
0.900175 0.776822 0.752529
0.986755 0.793698 0.766781
0.572381 0.860075 0.744991
0.582757 0.860563 0.746609
0.615534 0.858854 0.748135
0.670802 0.855863 0.751400
0.739925 0.851926 0.757626
0.800778 0.847349 0.761288
0.865965 0.851499 0.756497
0.965881 0.860746 0.751980
0.646937 0.941192 0.783230
0.650721 0.940398 0.782712
0.670283 0.938964 0.783810
0.709865 0.938109 0.789364
0.769009 0.935546 0.801663
0.804257 0.934173 0.799008
0.858457 0.934295 0.809018
0.926421 0.941619 0.794003
0.402991 0.233555 0.856779
0.430396 0.235294 0.856748
0.529351 0.245457 0.857115
0.671260 0.275639 0.857694
0.801877 0.345159 0.857328
0.903655 0.444678 0.856840
0.984527 0.424140 0.853819
1.000000 0.399756 0.799649
0.418708 0.278599 0.856504
0.444770 0.280583 0.856443
0.539269 0.291447 0.856657
0.674617 0.320836 0.856809
0.801022 0.384710 0.856596
0.900664 0.473030 0.856504
0.980835 0.453681 0.853758
1.000000 0.428962 0.800961
0.458656 0.413428 0.851865
0.481422 0.415869 0.851896
0.564691 0.427680 0.851987
0.682094 0.453529 0.852018
0.794369 0.498268 0.852293
0.888914 0.554803 0.853361
0.966033 0.537804 0.850950
1.000000 0.511772 0.802579
0.502495 0.570703 0.843198
0.519554 0.571221 0.842771
0.587060 0.578119 0.843229
0.683650 0.592187 0.844175
0.783200 0.614343 0.846189
0.872892 0.643153 0.849577
0.946258 0.631464 0.848142
1.000000 0.607080 0.807218
0.534234 0.692927 0.831235
0.549798 0.693263 0.831662
0.605097 0.694484 0.833127
0.681056 0.694514 0.836637
0.765042 0.698238 0.841581
0.855039 0.715450 0.847532
0.928710 0.710872 0.848234
0.988708 0.687526 0.813443
0.567529 0.778134 0.831571
0.576410 0.778012 0.831601
0.610315 0.777493 0.831632
0.665675 0.776364 0.831815
0.733852 0.774868 0.832181
0.824887 0.776516 0.842191
0.909361 0.783169 0.847837
0.979980 0.761440 0.817044
0.591302 0.861967 0.836851
0.597772 0.861723 0.836851
0.623774 0.860990 0.837095
0.669642 0.859617 0.837644
0.730343 0.857908 0.838651
0.802029 0.855863 0.840055
0.881743 0.853330 0.841642
0.969604 0.872892 0.859312
0.620966 0.948943 0.846983
0.626276 0.948760 0.847196
0.647913 0.947936 0.847898
0.688716 0.946746 0.849943
0.746334 0.944915 0.854002
0.816068 0.942168 0.861570
0.878569 0.938933 0.868864
0.939544 0.943328 0.866209
0.620966 0.443061 0.950134
0.632898 0.446723 0.949920
0.678431 0.462776 0.949248
0.748287 0.493019 0.947814
0.826200 0.535607 0.945983
0.902556 0.583154 0.944366
0.974029 0.627741 0.943420
1.000000 0.600183 0.943236
0.627893 0.472633 0.949187
0.639155 0.475532 0.948974
0.682155 0.489509 0.948302
0.749477 0.516014 0.947021
0.825711 0.553674 0.945434
0.901366 0.596124 0.944091
0.972747 0.637873 0.943420
1.000000 0.610620 0.943297
0.644465 0.557824 0.945281
0.654017 0.559777 0.945159
0.691432 0.568688 0.944762
0.751705 0.585077 0.943877
0.823331 0.609339 0.943175
0.896605 0.638666 0.942748
0.967224 0.670588 0.942840
1.000000 0.645747 0.942779
0.657252 0.648615 0.940764
0.665339 0.649561 0.940734
0.697414 0.653986 0.940673
0.751156 0.662593 0.940612
0.817655 0.676173 0.940734
0.888304 0.694606 0.941253
0.958038 0.717372 0.942321
1.000000 0.696895 0.942382
0.675349 0.738247 0.935515
0.681788 0.738308 0.935637
0.696345 0.731685 0.937072
0.736599 0.728359 0.938537
0.803189 0.737179 0.939452
0.874998 0.750576 0.940887
0.946197 0.769039 0.942840
1.000000 0.754879 0.943114
0.647974 0.808743 0.932036
0.653071 0.808713 0.932097
0.673548 0.808408 0.932280
0.719966 0.806424 0.933989
0.783383 0.805386 0.936919
0.852110 0.806882 0.940337
0.930083 0.824613 0.943236
0.996551 0.820279 0.944274
0.653986 0.880156 0.934874
0.658442 0.880064 0.934936
0.676692 0.879606 0.935119
0.710719 0.878630 0.935393
0.759762 0.877348 0.935790
0.820798 0.876249 0.936217
0.905943 0.881132 0.942870
0.979980 0.889769 0.947143
0.659846 0.957427 0.940185
0.663966 0.957397 0.940276
0.680751 0.957000 0.940490
0.712764 0.956115 0.940795
0.759670 0.954925 0.941375
0.819181 0.953460 0.942382
0.887968 0.951812 0.943847
0.959625 0.950439 0.946136
