20 Preset/Art Style/【3】LUT video cho PR-AE-FCPX/Portra 160 Alt.cube
# Created by Adobe Lightroom plugin Export LUT (1.24.0)
# www.johnrellis.com/lightroom/exportlut.htm
# Preset: Portra 160 Alt
# Color profile: E:\lut插件\exportlut.1.24\exportlut.lrplugin\color profiles\Rec709gamma2.4.icc
LUT_3D_SIZE 5
DOMAIN_MIN 0.000000 0.000000 0.000000
DOMAIN_MAX 0.903226 0.903226 0.903226
0.070466 0.140597 0.138125
0.168612 0.148165 0.147036
0.517144 0.024414 0.153017
0.838834 0.000000 0.173739
1.000000 0.264836 0.283330
0.000000 0.229374 0.159609
0.188785 0.233341 0.139620
0.495674 0.218387 0.142733
0.822782 0.218326 0.163516
0.994812 0.348943 0.287572
0.000000 0.584802 0.285801
0.212711 0.571862 0.276890
0.617273 0.605280 0.000000
0.818204 0.508568 0.000000
0.955474 0.525811 0.297978
0.435096 0.796994 0.550195
0.486671 0.794583 0.549218
0.632105 0.785428 0.543511
0.809720 0.809659 0.353491
0.955230 0.761624 0.275303
0.678126 0.915465 0.754116
0.691859 0.914885 0.754208
0.737209 0.909514 0.748348
0.811887 0.913054 0.735073
0.926574 0.928679 0.600214
0.096773 0.155642 0.213077
0.163760 0.160769 0.188113
0.517845 0.126986 0.179934
0.819333 0.144106 0.165835
0.991333 0.289067 0.271855
0.000000 0.237949 0.245212
0.210788 0.245090 0.240146
0.518761 0.243107 0.204044
0.810056 0.261906 0.157626
0.983032 0.355993 0.274418
0.000000 0.576745 0.385138
0.256077 0.575586 0.374487
0.606165 0.588739 0.277958
0.800046 0.502251 0.201083
0.952667 0.528283 0.295171
0.470130 0.793790 0.593439
0.507530 0.793698 0.588678
0.640955 0.785428 0.585473
0.804654 0.806943 0.459785
0.955383 0.760891 0.277379
0.689601 0.914336 0.770169
0.692592 0.914641 0.763607
0.743587 0.912810 0.764462
0.815915 0.914244 0.754055
0.925322 0.930114 0.645655
0.185916 0.196475 0.542992
0.366827 0.216495 0.535180
0.582605 0.262211 0.478431
0.866392 0.288853 0.463111
0.982879 0.384527 0.392126
0.080812 0.299565 0.555932
0.360021 0.326360 0.551690
0.596948 0.380102 0.510613
0.847349 0.386358 0.481147
0.972778 0.441260 0.414588
0.000000 0.568475 0.592187
0.292393 0.572595 0.590326
0.628870 0.606470 0.600366
0.787900 0.583337 0.542412
0.938933 0.579980 0.472786
0.449958 0.789242 0.679133
0.505760 0.787228 0.678157
0.660517 0.788388 0.687831
0.793271 0.802396 0.657221
0.912810 0.757473 0.570092
0.651972 0.913298 0.787991
0.674189 0.913054 0.790433
0.738491 0.913024 0.794949
0.817655 0.910185 0.796536
0.916381 0.927642 0.734218
0.479103 0.366735 0.777005
0.557305 0.396704 0.776303
0.731746 0.519982 0.768551
0.828092 0.557183 0.738552
0.945495 0.643244 0.746517
0.485817 0.448371 0.772976
0.556420 0.470283 0.772244
0.723842 0.565667 0.767483
0.816648 0.604120 0.742214
0.935180 0.666560 0.750149
0.323674 0.563226 0.757290
0.427710 0.573327 0.757321
0.682338 0.652583 0.766018
0.792935 0.711025 0.758663
0.913451 0.721492 0.755856
0.465553 0.765316 0.779690
0.506126 0.766079 0.778561
0.634607 0.774105 0.778500
0.789822 0.802548 0.791806
0.886595 0.780117 0.747005
0.587579 0.914824 0.844053
0.609186 0.914519 0.843168
0.686641 0.914488 0.840635
0.808560 0.916045 0.845457
0.910887 0.927428 0.828244
0.698116 0.620844 0.898924
0.721767 0.633906 0.897612
0.796872 0.687343 0.893339
0.871153 0.767117 0.885863
0.920256 0.757931 0.870970
0.692531 0.644587 0.895811
0.716121 0.656306 0.894865
0.791226 0.703334 0.891478
0.867704 0.775784 0.885588
0.915984 0.770871 0.871672
0.634974 0.686915 0.891875
0.674922 0.705867 0.890257
0.763577 0.741726 0.889006
0.856626 0.801297 0.887816
0.907622 0.813260 0.879026
0.523766 0.771450 0.891661
0.545922 0.770230 0.890227
0.628199 0.767605 0.885801
0.819089 0.825620 0.893462
0.907225 0.871275 0.898314
0.597925 0.904143 0.912718
0.612116 0.903899 0.912108
0.669368 0.904479 0.910887
0.765438 0.906065 0.908019
0.907774 0.925414 0.918029
