20 Preset/Art Style/【3】LUT video cho PR-AE-FCPX/Portra 800 Desaturated.cube
# Created by Adobe Lightroom plugin Export LUT (1.24.0)
# www.johnrellis.com/lightroom/exportlut.htm
# Preset: Portra 800 Desaturated
# Color profile: E:\lut插件\exportlut.1.24\exportlut.lrplugin\color profiles\Rec709gamma2.4.icc
LUT_3D_SIZE 32
DOMAIN_MIN 0.0 0.0 0.0
DOMAIN_MAX 1.0 1.0 1.0
0.081361 0.120211 0.100435
0.083406 0.120394 0.100374
0.087984 0.121035 0.100587
0.094850 0.122164 0.101350
0.104616 0.124056 0.101930
0.117372 0.126284 0.102663
0.130831 0.129213 0.103578
0.147097 0.132204 0.104952
0.165652 0.135409 0.105776
0.188724 0.138705 0.106569
0.216373 0.141878 0.107301
0.249912 0.144533 0.107851
0.288640 0.146090 0.107790
0.331518 0.146639 0.107973
0.375860 0.145968 0.107881
0.420508 0.144381 0.108095
0.465980 0.142458 0.108034
0.513359 0.138338 0.108797
0.563439 0.131380 0.109102
0.617426 0.120058 0.109590
0.672724 0.103975 0.110628
0.725948 0.086488 0.111299
0.776120 0.065614 0.113680
0.834104 0.088014 0.117525
0.880461 0.120058 0.124239
0.918273 0.156222 0.132265
0.950378 0.191318 0.143343
0.978546 0.226017 0.155245
1.000000 0.260075 0.169619
1.000000 0.294713 0.186618
1.000000 0.329686 0.206546
1.000000 0.365393 0.230076
0.080446 0.121370 0.100984
0.081697 0.121309 0.100954
0.087617 0.121859 0.101167
0.094820 0.122988 0.101228
0.104768 0.124575 0.101808
0.116701 0.127108 0.102876
0.129946 0.129793 0.104189
0.145846 0.132601 0.104921
0.164248 0.135836 0.105745
0.186557 0.139071 0.106600
0.213779 0.142184 0.107393
0.246433 0.144961 0.107637
0.284428 0.146883 0.107942
0.326574 0.147494 0.107942
0.370733 0.146792 0.107942
0.415290 0.145663 0.108186
0.460792 0.143252 0.108675
0.507713 0.139956 0.108797
0.557610 0.133364 0.109224
0.610864 0.122988 0.109895
0.665522 0.107240 0.110658
0.718807 0.090791 0.111879
0.769253 0.073548 0.113497
0.826047 0.086702 0.117372
0.872099 0.115145 0.123018
0.910124 0.149355 0.130251
0.942718 0.183505 0.140475
0.971710 0.217685 0.151827
0.997894 0.252079 0.165164
1.000000 0.286412 0.181643
1.000000 0.321660 0.201022
1.000000 0.357519 0.223972
0.081178 0.124849 0.102144
0.081788 0.125093 0.102449
0.085420 0.125734 0.102296
0.094057 0.127016 0.102296
0.104128 0.128542 0.102907
0.116304 0.130709 0.104005
0.129824 0.133028 0.104952
0.145357 0.135805 0.105684
0.163638 0.138735 0.106538
0.186130 0.141604 0.107454
0.212802 0.144778 0.107912
0.244938 0.147433 0.108217
0.282536 0.149294 0.108248
0.324163 0.149966 0.108644
0.368200 0.149477 0.108644
0.412299 0.148775 0.108888
0.457465 0.146853 0.109377
0.504173 0.143893 0.109590
0.553613 0.138247 0.110048
0.606683 0.128847 0.110475
0.661463 0.115602 0.111452
0.714778 0.101747 0.112337
0.766720 0.091341 0.114321
0.822568 0.097078 0.118013
0.867857 0.122011 0.123415
0.905638 0.152468 0.130312
0.938445 0.185122 0.139284
0.967681 0.217807 0.150790
0.994385 0.251316 0.163638
1.000000 0.285222 0.180056
1.000000 0.320012 0.198978
1.000000 0.355566 0.221256
0.078828 0.132815 0.104921
0.079896 0.132753 0.105257
0.084016 0.132815 0.105867
0.091615 0.134371 0.105501
0.102998 0.136202 0.105287
0.115755 0.137270 0.105837
0.129580 0.139193 0.106477
0.145693 0.141482 0.107271
0.164401 0.143984 0.107820
0.186465 0.147005 0.108339
0.213352 0.149752 0.108827
0.245426 0.152255 0.109133
0.282139 0.154269 0.109468
0.323339 0.155062 0.109865
0.366278 0.155093 0.109590
0.409552 0.154482 0.109957
0.453895 0.153292 0.110475
0.499580 0.150759 0.110842
0.547906 0.146487 0.111727
0.599817 0.139254 0.111971
0.653620 0.128969 0.112795
0.707057 0.117769 0.113802
0.761410 0.109499 0.115846
0.815702 0.115206 0.119051
0.861540 0.134066 0.124117
0.900572 0.161959 0.130861
0.934600 0.192752 0.140169
0.964782 0.224826 0.150973
0.992035 0.257328 0.164736
1.000000 0.290684 0.180362
1.000000 0.324041 0.199435
1.000000 0.358007 0.220768
0.077089 0.142794 0.109041
0.079316 0.142916 0.109316
0.082856 0.142794 0.109621
0.089265 0.143618 0.110048
0.098878 0.145235 0.109255
0.113252 0.147646 0.108827
0.128878 0.148196 0.109010
0.145724 0.149416 0.109255
0.164553 0.151522 0.109834
0.186618 0.154330 0.110018
0.213352 0.156741 0.110536
0.245151 0.159365 0.110780
0.281468 0.161318 0.111147
0.321843 0.162539 0.111482
0.364538 0.162905 0.111818
0.407904 0.162783 0.112093
0.452216 0.161990 0.112917
0.497810 0.160586 0.113130
0.545922 0.157534 0.113558
0.597650 0.152377 0.114199
0.651087 0.144625 0.115206
0.704036 0.137026 0.116335
0.760891 0.133028 0.117952
0.813931 0.138735 0.121798
0.859098 0.156161 0.126223
0.898100 0.179721 0.133333
0.931975 0.207828 0.142092
0.962127 0.237156 0.152926
0.989319 0.267857 0.166629
1.000000 0.299260 0.181888
1.000000 0.331151 0.200565
1.000000 0.363928 0.221744
0.073457 0.154299 0.113375
0.075441 0.154269 0.113375
0.080598 0.154299 0.113924
0.088106 0.154238 0.114778
0.095644 0.155825 0.114351
0.108766 0.157931 0.113405
0.127810 0.161105 0.112612
0.146151 0.161501 0.112337
0.166964 0.162051 0.112520
0.189548 0.164340 0.112734
0.216861 0.166903 0.113100
0.248966 0.169100 0.113344
0.285191 0.171328 0.113863
0.325505 0.172457 0.114443
0.367681 0.173251 0.114931
0.410559 0.173831 0.115023
0.454353 0.174014 0.115908
0.500145 0.173342 0.116182
0.548425 0.171572 0.117220
0.599847 0.168276 0.117281
0.653071 0.163394 0.118715
0.707210 0.159579 0.119539
0.809903 0.171084 0.125887
0.860410 0.190127 0.132265
0.901488 0.214206 0.141207
0.935729 0.240696 0.151736
0.964996 0.268254 0.164401
0.990845 0.295933 0.177798
1.000000 0.324315 0.194308
1.000000 0.353002 0.211948
1.000000 0.382208 0.232151
1.000000 0.411353 0.254551
0.062654 0.170291 0.119173
0.064637 0.170260 0.119173
0.073243 0.170291 0.119722
0.085237 0.170169 0.120516
0.094911 0.170596 0.121157
0.107210 0.172702 0.120516
0.125216 0.175265 0.119295
0.150912 0.179141 0.117464
0.173892 0.179965 0.117159
0.200992 0.180575 0.117159
0.231601 0.181552 0.117281
0.265904 0.183902 0.117708
0.303685 0.185702 0.118227
0.343938 0.187167 0.118685
0.385321 0.188357 0.118868
0.426886 0.189212 0.119600
0.470253 0.190219 0.119997
0.515587 0.190738 0.120607
0.564263 0.190433 0.121492
0.616968 0.189059 0.122530
0.671717 0.187381 0.123140
0.736599 0.189273 0.125216
0.797147 0.197452 0.129915
0.848692 0.214176 0.135866
0.891875 0.235935 0.144533
0.927367 0.260197 0.154971
0.957244 0.285069 0.167117
0.983307 0.310552 0.179812
1.000000 0.336522 0.195163
1.000000 0.362615 0.212314
1.000000 0.389837 0.231601
1.000000 0.417578 0.253544
0.056184 0.185763 0.125399
0.058167 0.185733 0.125399
0.066773 0.185733 0.125887
0.081209 0.185611 0.126619
0.094728 0.185306 0.128145
0.106325 0.186740 0.128176
0.123293 0.188968 0.126833
0.145815 0.191714 0.125704
0.176883 0.196841 0.123537
0.204440 0.198123 0.122744
0.236118 0.198886 0.122805
0.271031 0.198795 0.122896
0.308202 0.200076 0.123171
0.347387 0.201877 0.123537
0.387243 0.203647 0.124147
0.427924 0.205570 0.124331
0.470100 0.207340 0.125154
0.514427 0.209262 0.125978
0.562493 0.210880 0.126375
0.614160 0.211734 0.127047
0.675227 0.213779 0.128878
0.737575 0.218997 0.131533
0.794369 0.228122 0.135409
0.843595 0.243412 0.142123
0.885557 0.263279 0.149844
0.920500 0.284672 0.160311
0.950317 0.307134 0.171237
0.976593 0.329900 0.184298
1.000000 0.353674 0.199100
1.000000 0.378271 0.215946
1.000000 0.403571 0.234684
1.000000 0.429572 0.256199
0.048646 0.203677 0.133181
0.052613 0.203616 0.133181
0.061219 0.203616 0.133639
0.080659 0.203311 0.134340
0.094850 0.203159 0.135714
0.108705 0.202945 0.137240
0.124331 0.205234 0.136233
0.145418 0.207919 0.134920
0.172030 0.210849 0.133516
0.209873 0.216953 0.130648
0.242466 0.218479 0.129854
0.277623 0.219425 0.129580
0.315007 0.219455 0.129549
0.353643 0.219028 0.129671
0.392248 0.221653 0.130220
0.431769 0.224430 0.130648
0.472938 0.227695 0.131472
0.516564 0.230747 0.132174
0.563745 0.234104 0.132540
0.621302 0.238560 0.133730
0.682033 0.243748 0.135714
0.740047 0.250736 0.138582
0.793423 0.260899 0.142947
0.840330 0.275853 0.149081
0.880949 0.293645 0.157351
0.915221 0.312902 0.167147
0.944732 0.333257 0.177768
0.970886 0.354070 0.190921
0.994690 0.376074 0.205692
1.000000 0.398474 0.222049
1.000000 0.421973 0.240757
1.000000 0.446113 0.262181
0.044221 0.224308 0.142336
0.048920 0.224155 0.142367
0.059266 0.223911 0.142611
0.081086 0.223728 0.143679
0.097292 0.223148 0.144808
0.111940 0.222782 0.146456
0.128450 0.223392 0.147127
0.148775 0.226017 0.146120
0.173831 0.229038 0.144564
0.204685 0.232090 0.142641
0.246342 0.238315 0.139345
0.283268 0.241276 0.137881
0.319860 0.242771 0.137636
0.357824 0.243442 0.137423
0.396429 0.243839 0.137270
0.435676 0.245701 0.137362
0.476692 0.250614 0.138399
0.521752 0.256077 0.138857
0.575402 0.263157 0.140536
0.631922 0.269627 0.141817
0.688502 0.276249 0.143832
0.741817 0.283818 0.146883
0.790799 0.293858 0.150881
0.834531 0.306645 0.157229
0.872679 0.322240 0.164218
0.905974 0.339147 0.173129
0.935485 0.357458 0.183658
0.962158 0.376532 0.196506
0.986542 0.397040 0.210636
1.000000 0.418433 0.227756
1.000000 0.440681 0.246372
1.000000 0.463783 0.268040
0.045808 0.246281 0.152621
0.049500 0.246220 0.152834
0.062806 0.246098 0.153231
0.084108 0.246006 0.154177
0.100954 0.245640 0.155306
0.117952 0.245212 0.157198
0.135897 0.244785 0.159579
0.155825 0.247013 0.159060
0.179995 0.250065 0.157565
0.209171 0.253605 0.155856
0.243290 0.257389 0.153292
0.285832 0.263920 0.149996
0.326787 0.269627 0.147097
0.363531 0.272343 0.145998
0.401312 0.274540 0.145907
0.441230 0.277104 0.146212
0.486091 0.280003 0.146883
0.533867 0.287449 0.147433
0.584863 0.295048 0.148806
0.638392 0.302342 0.150240
0.691646 0.309606 0.152560
0.742000 0.317479 0.155703
0.788724 0.327733 0.160342
0.830625 0.340307 0.166018
0.867826 0.354955 0.173373
0.900603 0.370428 0.182528
0.929717 0.387213 0.193332
0.956237 0.404822 0.205814
0.980682 0.423560 0.220310
1.000000 0.443244 0.237156
1.000000 0.463813 0.256718
1.000000 0.485054 0.277928
0.048554 0.273381 0.165316
0.053529 0.273411 0.165469
0.070497 0.273259 0.165988
0.090089 0.273167 0.166659
0.106691 0.272862 0.168002
0.125429 0.272648 0.169802
0.145785 0.272099 0.172427
0.166232 0.272526 0.174380
0.189487 0.276005 0.173007
0.217166 0.280064 0.171237
0.249271 0.284489 0.169039
0.284977 0.289158 0.166018
0.344274 0.312078 0.166537
0.393042 0.326909 0.162173
0.436042 0.334783 0.161563
0.481483 0.341466 0.161807
0.530236 0.346105 0.162448
0.581933 0.348699 0.163241
0.635157 0.351446 0.164706
0.687221 0.360021 0.167178
0.736110 0.368597 0.170779
0.780453 0.377905 0.175784
0.820493 0.388891 0.182376
0.856352 0.401251 0.189914
0.888090 0.414435 0.198978
0.916411 0.427802 0.209232
0.941924 0.441688 0.220768
0.965209 0.455879 0.233524
0.986969 0.470924 0.248020
1.000000 0.486824 0.264988
1.000000 0.503777 0.283879
1.000000 0.521752 0.305486
0.052857 0.314183 0.182742
0.054536 0.314153 0.182895
0.076967 0.313695 0.183139
0.095552 0.313024 0.184024
0.114809 0.312169 0.185031
0.135866 0.311254 0.186587
0.158206 0.310185 0.189151
0.180148 0.309514 0.192111
0.203189 0.311772 0.192538
0.231174 0.318151 0.191196
0.264164 0.326665 0.189944
0.301244 0.336706 0.188693
0.342382 0.347753 0.186252
0.387945 0.360784 0.182834
0.441260 0.380163 0.175784
0.486458 0.387427 0.174746
0.534081 0.392462 0.174411
0.583581 0.395270 0.175235
0.633692 0.396490 0.175998
0.682551 0.396155 0.177646
0.728634 0.400824 0.180972
0.771511 0.409369 0.186099
0.810300 0.419532 0.191775
0.845762 0.430915 0.199283
0.877440 0.442817 0.207889
0.906157 0.455146 0.218418
0.932128 0.468055 0.229953
0.956054 0.481361 0.243565
0.978515 0.495399 0.258488
0.999817 0.510277 0.275212
1.000000 0.526085 0.295079
1.000000 0.542596 0.316991
0.040681 0.355077 0.199191
0.040681 0.355077 0.199191
0.066957 0.354345 0.199344
0.095369 0.353918 0.200198
0.116854 0.353399 0.201419
0.140566 0.352819 0.203281
0.164614 0.352453 0.205905
0.189731 0.352575 0.209445
0.215091 0.353124 0.213870
0.240757 0.359930 0.212589
0.270268 0.368261 0.211093
0.303929 0.378424 0.209445
0.341466 0.389441 0.207095
0.382727 0.400977 0.203952
0.428748 0.412177 0.199161
0.487373 0.432471 0.189670
0.534844 0.437751 0.188174
0.583001 0.440711 0.187900
0.631464 0.442329 0.189151
0.678004 0.442634 0.190494
0.722560 0.442359 0.193149
0.764309 0.442023 0.196963
0.802518 0.451484 0.203189
0.837461 0.462135 0.211032
0.869078 0.473274 0.219821
0.897765 0.484657 0.230259
0.923919 0.496468 0.242344
0.948150 0.508507 0.255619
0.970886 0.521386 0.270970
0.992462 0.535119 0.288853
1.000000 0.549493 0.308385
1.000000 0.564843 0.330663
0.000000 0.406653 0.219120
0.002472 0.406378 0.219059
0.030884 0.405615 0.219272
0.081758 0.404608 0.219699
0.111238 0.403174 0.220737
0.139284 0.401831 0.222232
0.166567 0.400671 0.224552
0.192966 0.400122 0.227634
0.219944 0.400275 0.232090
0.245365 0.403540 0.234684
0.272343 0.411627 0.233036
0.303655 0.421424 0.231449
0.338598 0.432227 0.229191
0.377539 0.443214 0.226474
0.421607 0.453559 0.222141
0.470283 0.462745 0.216342
0.534478 0.481910 0.204990
0.582116 0.485481 0.204044
0.629328 0.487221 0.204044
0.674342 0.487770 0.205570
0.717067 0.487770 0.208621
0.757748 0.487922 0.212436
0.795254 0.488716 0.216770
0.829984 0.493233 0.223606
0.861143 0.503258 0.232700
0.889769 0.513939 0.243870
0.916136 0.524895 0.255955
0.940917 0.536370 0.270268
0.964263 0.548577 0.286534
0.986511 0.561639 0.305608
1.000000 0.575616 0.327001
1.000000 0.590661 0.350896
0.000000 0.455940 0.238376
0.000000 0.456001 0.238468
0.000000 0.455512 0.238895
0.014710 0.454994 0.239506
0.092683 0.454017 0.240635
0.127321 0.453223 0.242496
0.159365 0.452766 0.244877
0.188968 0.452949 0.248417
0.218204 0.453346 0.252964
0.246830 0.454353 0.258213
0.273289 0.460304 0.258152
0.302708 0.468147 0.256229
0.335912 0.476570 0.253422
0.372961 0.485054 0.250095
0.414221 0.493202 0.245701
0.460426 0.500511 0.240299
0.511711 0.507347 0.234134
0.578485 0.525383 0.221683
0.624750 0.527855 0.221408
0.669062 0.528985 0.222446
0.711299 0.529992 0.225406
0.750973 0.531121 0.229587
0.788174 0.532464 0.234745
0.822629 0.534203 0.241276
0.854520 0.535973 0.248753
0.883543 0.543999 0.259831
0.910185 0.554314 0.273045
0.935088 0.564843 0.288029
0.958526 0.575982 0.304875
0.980743 0.587701 0.323980
1.000000 0.600214 0.345098
1.000000 0.613764 0.369238
0.000000 0.503166 0.258335
0.000000 0.503166 0.258518
0.000000 0.502800 0.258793
0.000000 0.502251 0.259556
0.007263 0.501701 0.260655
0.103792 0.501030 0.262394
0.144259 0.500664 0.265080
0.178805 0.500633 0.268315
0.211490 0.500938 0.272648
0.242130 0.501427 0.277684
0.271855 0.503136 0.282567
0.300511 0.510155 0.280613
0.333135 0.517540 0.278080
0.369360 0.524926 0.274937
0.409888 0.532006 0.271122
0.454749 0.538537 0.266270
0.503288 0.544335 0.260868
0.555413 0.549981 0.255039
0.622339 0.566949 0.243442
0.665827 0.568475 0.243290
0.706996 0.569879 0.245274
0.745571 0.571405 0.249516
0.781857 0.573083 0.255558
0.815702 0.574853 0.262608
0.847227 0.576745 0.270329
0.876677 0.578759 0.279606
0.904204 0.582238 0.290898
0.929290 0.592157 0.306737
0.952880 0.602564 0.324681
0.975311 0.613550 0.344213
0.996704 0.625208 0.365972
1.000000 0.637873 0.390387
0.000000 0.551415 0.281926
0.000000 0.551751 0.282139
0.000000 0.576715 0.297032
0.000000 0.576440 0.297978
0.000000 0.575799 0.298863
0.078462 0.575006 0.300664
0.138094 0.574060 0.302892
0.180423 0.573510 0.306004
0.217838 0.573144 0.310002
0.253605 0.573175 0.315221
0.287877 0.573144 0.321111
0.319951 0.576135 0.323125
0.353582 0.581170 0.320439
0.391119 0.585840 0.316808
0.431312 0.590112 0.312963
0.474464 0.593835 0.308080
0.519860 0.596857 0.302434
0.566918 0.599603 0.296086
0.615808 0.602167 0.289555
0.676478 0.615198 0.279332
0.715419 0.616327 0.278752
0.751247 0.617182 0.281926
0.784817 0.618067 0.286717
0.816129 0.618891 0.293889
0.845518 0.619318 0.301488
0.873075 0.620020 0.310124
0.899229 0.620996 0.319463
0.924376 0.622522 0.330419
0.947875 0.628565 0.345830
0.970062 0.638483 0.365789
0.991424 0.649256 0.387854
1.000000 0.661067 0.412055
0.000000 0.602808 0.312657
0.000000 0.604974 0.314000
0.000000 0.607019 0.316136
0.000000 0.608850 0.318212
0.000000 0.609857 0.320562
0.100099 0.609827 0.322667
0.149233 0.609186 0.324926
0.189181 0.608331 0.327611
0.225498 0.607813 0.331182
0.260929 0.607324 0.335790
0.295476 0.607019 0.341131
0.329229 0.606683 0.347326
0.361639 0.610346 0.345525
0.396521 0.614374 0.342992
0.434211 0.618036 0.339330
0.474525 0.621424 0.335637
0.516625 0.624353 0.331121
0.560845 0.627161 0.325963
0.606439 0.630030 0.320867
0.652399 0.632990 0.315984
0.707057 0.644465 0.308049
0.746120 0.648615 0.308110
0.778958 0.649958 0.312749
0.809812 0.650965 0.318517
0.838376 0.651667 0.326787
0.865385 0.652491 0.335485
0.891173 0.653407 0.345220
0.915984 0.654932 0.356146
0.940032 0.657282 0.369116
0.963470 0.660578 0.384314
0.985046 0.670588 0.406622
1.000000 0.681849 0.431281
0.000000 0.637537 0.337957
0.000000 0.639490 0.339818
0.000000 0.641505 0.341955
0.049805 0.643244 0.344427
0.115389 0.644282 0.346685
0.152071 0.644343 0.348913
0.185763 0.643763 0.350958
0.218784 0.642939 0.353521
0.251591 0.642237 0.356817
0.284428 0.641474 0.360998
0.316960 0.640894 0.365850
0.349828 0.640223 0.371374
0.381445 0.640620 0.375006
0.413519 0.643915 0.372747
0.448035 0.647089 0.369940
0.484596 0.649928 0.366827
0.523186 0.652583 0.362860
0.563348 0.655116 0.358709
0.604578 0.657618 0.354376
0.646448 0.660395 0.350469
0.687648 0.663386 0.346044
0.735927 0.673213 0.340764
0.774136 0.679164 0.340703
0.804135 0.680537 0.346746
0.832273 0.681575 0.353643
0.858824 0.682490 0.362310
0.884001 0.683528 0.372137
0.908385 0.685054 0.383429
0.932219 0.687373 0.396460
0.955383 0.690761 0.411963
0.978027 0.695125 0.429633
0.999725 0.702144 0.450935
0.133150 0.670222 0.366888
0.140536 0.671901 0.368627
0.155123 0.673426 0.370611
0.172335 0.674861 0.373053
0.192477 0.675654 0.375280
0.214389 0.675685 0.377234
0.238285 0.675135 0.379187
0.263859 0.674434 0.381445
0.291691 0.673701 0.384863
0.320378 0.672877 0.388525
0.349859 0.672114 0.393042
0.379889 0.671382 0.398199
0.409735 0.670436 0.403967
0.438849 0.671962 0.404364
0.469612 0.674708 0.402564
0.502342 0.677455 0.400000
0.537743 0.680385 0.397711
0.574456 0.683406 0.395239
0.612085 0.686732 0.392981
0.650629 0.690333 0.390906
0.689021 0.694209 0.389075
0.726955 0.698299 0.387701
0.769314 0.707088 0.384985
0.806394 0.715053 0.386877
0.834012 0.717189 0.395605
0.860014 0.718929 0.404700
0.884733 0.720577 0.415351
0.908476 0.722560 0.428107
0.931579 0.725399 0.442390
0.954284 0.728939 0.458564
0.976349 0.733486 0.476814
0.997955 0.738888 0.496986
0.258000 0.710109 0.410498
0.260777 0.710689 0.411200
0.265263 0.711116 0.412268
0.273106 0.711116 0.413184
0.283238 0.710903 0.414099
0.296300 0.710170 0.415167
0.312139 0.709377 0.416754
0.331395 0.708492 0.418647
0.352483 0.707729 0.421546
0.376593 0.706935 0.425116
0.401892 0.706294 0.429450
0.428107 0.705470 0.434394
0.454200 0.704555 0.439887
0.480690 0.703761 0.445319
0.506462 0.705898 0.443458
0.534142 0.708064 0.441382
0.563378 0.710292 0.439063
0.593957 0.712673 0.436927
0.625513 0.715145 0.434485
0.657893 0.717861 0.432349
0.690700 0.720760 0.430365
0.723751 0.723873 0.428290
0.756832 0.726955 0.426246
0.793088 0.733516 0.423682
0.828580 0.742092 0.424811
0.853880 0.744228 0.434180
0.878294 0.746426 0.444556
0.901854 0.748867 0.456977
0.924681 0.751888 0.471443
0.946990 0.755612 0.487800
0.968811 0.760067 0.505699
0.990204 0.765347 0.525536
0.333745 0.736751 0.444556
0.335882 0.737148 0.445380
0.339391 0.737484 0.446082
0.345098 0.737575 0.447120
0.352911 0.737331 0.448035
0.362646 0.736812 0.449256
0.375006 0.736110 0.450568
0.389868 0.735409 0.452644
0.407141 0.734707 0.455238
0.427008 0.733913 0.458503
0.448127 0.733242 0.462593
0.470558 0.732570 0.467384
0.493385 0.731746 0.472480
0.516655 0.730892 0.478187
0.539239 0.731380 0.480812
0.562280 0.733486 0.479561
0.586877 0.735744 0.477913
0.612634 0.738186 0.476570
0.639643 0.740658 0.475074
0.667506 0.743374 0.473640
0.696132 0.746273 0.472511
0.725277 0.749294 0.471199
0.754849 0.752438 0.470192
0.784421 0.755642 0.468971
0.812406 0.756619 0.459571
0.846921 0.766171 0.460517
0.870878 0.768826 0.471046
0.894194 0.771664 0.483101
0.916930 0.774960 0.496773
0.939086 0.778897 0.513176
0.960876 0.783719 0.531456
0.982238 0.789242 0.551568
0.417456 0.766293 0.488350
0.420081 0.766995 0.489631
0.422736 0.767239 0.490455
0.425910 0.766934 0.490608
0.429755 0.766262 0.490669
0.435492 0.765194 0.490730
0.442725 0.763912 0.490852
0.452186 0.762539 0.491341
0.463935 0.761166 0.492592
0.478004 0.759854 0.494606
0.493568 0.758511 0.497108
0.511009 0.757321 0.500511
0.528923 0.756100 0.504204
0.547631 0.754757 0.508659
0.566247 0.753323 0.513268
0.584375 0.754269 0.512352
0.604089 0.755917 0.510369
0.625513 0.757870 0.508629
0.648554 0.760250 0.507561
0.673121 0.763058 0.506859
0.698512 0.766140 0.506615
0.724392 0.769223 0.506157
0.750668 0.772183 0.505119
0.777005 0.774899 0.503838
0.803586 0.777371 0.501946
0.832120 0.781155 0.499641
0.865293 0.791257 0.500389
0.887785 0.793973 0.511040
0.909911 0.797208 0.523766
0.931762 0.801022 0.538750
0.953277 0.805692 0.556298
0.974456 0.811307 0.576287
0.469215 0.787045 0.520287
0.471443 0.787686 0.521569
0.473854 0.788052 0.522515
0.476905 0.787991 0.523247
0.480995 0.787686 0.523857
0.486427 0.787198 0.524529
0.493446 0.786587 0.525536
0.502464 0.785946 0.527153
0.513115 0.785336 0.529229
0.525353 0.784756 0.531823
0.538811 0.783993 0.534966
0.553429 0.783322 0.538659
0.568627 0.782437 0.542504
0.584070 0.781430 0.546502
0.599878 0.780209 0.551019
0.615412 0.779568 0.554162
0.631220 0.781003 0.552361
0.648432 0.782773 0.550774
0.667353 0.785000 0.549737
0.687770 0.787564 0.549279
0.709438 0.790402 0.549371
0.731807 0.793423 0.549218
0.754879 0.796414 0.549157
0.778317 0.799313 0.548821
0.802335 0.802060 0.548119
0.826871 0.804654 0.547021
0.852598 0.807980 0.546014
0.884916 0.819059 0.547936
0.906706 0.822538 0.559747
0.928038 0.826566 0.574426
0.949218 0.831296 0.591028
0.970092 0.836759 0.609918
0.524437 0.811063 0.560174
0.525536 0.811337 0.560815
0.526909 0.811460 0.561334
0.529015 0.811337 0.561761
0.531914 0.811002 0.562127
0.535851 0.810544 0.562676
0.541314 0.809964 0.563531
0.548119 0.809323 0.564660
0.556298 0.808713 0.566430
0.566064 0.808164 0.568750
0.576928 0.807492 0.571496
0.588861 0.806882 0.574701
0.601617 0.806241 0.578363
0.614801 0.805447 0.582361
0.628077 0.804440 0.586328
0.641688 0.803342 0.590600
0.655055 0.803799 0.591363
0.669154 0.805478 0.590082
0.684932 0.807523 0.589319
0.702144 0.809964 0.589136
0.720546 0.812680 0.589441
0.739803 0.815579 0.589654
0.759854 0.818357 0.589807
0.780484 0.821103 0.589654
0.801755 0.823697 0.589258
0.823606 0.826169 0.588373
0.846220 0.828641 0.587579
0.869566 0.831205 0.586633
0.900938 0.842618 0.589258
0.922576 0.847044 0.601892
0.943481 0.851987 0.618036
0.964416 0.857664 0.636469
0.568170 0.832792 0.597101
0.568994 0.833036 0.597711
0.570214 0.833219 0.598291
0.572107 0.833219 0.598962
0.575097 0.833219 0.599878
0.579309 0.833280 0.601160
0.585321 0.833616 0.603601
0.592920 0.834073 0.606714
0.601740 0.834745 0.610559
0.611994 0.835508 0.615137
0.623102 0.836332 0.620111
0.634699 0.837064 0.625360
0.646754 0.837644 0.630732
0.658717 0.837949 0.635889
0.670710 0.837888 0.640925
0.682399 0.837461 0.645441
0.694087 0.836942 0.650111
0.705287 0.838651 0.649378
0.717830 0.840696 0.649104
0.731624 0.843015 0.649378
0.746548 0.845609 0.649866
0.762356 0.848264 0.650294
0.778988 0.850889 0.650660
0.796353 0.853422 0.650690
0.814389 0.855863 0.650416
0.833158 0.858183 0.650019
0.852811 0.860502 0.649653
0.873289 0.862760 0.649134
0.894621 0.865141 0.648737
0.923278 0.875120 0.651606
0.945617 0.881254 0.664790
0.966033 0.886839 0.681819
0.623804 0.862730 0.650935
0.623987 0.862760 0.650965
0.624567 0.862608 0.651057
0.625513 0.862455 0.651179
0.627222 0.862211 0.651423
0.629877 0.861936 0.652033
0.633417 0.861692 0.652918
0.638056 0.861479 0.654322
0.643824 0.861357 0.656306
0.650477 0.861295 0.658656
0.658137 0.861295 0.661585
0.666560 0.861295 0.664851
0.675624 0.861265 0.668513
0.685084 0.861112 0.672175
