20 Preset/Art Style/【3】LUT video cho PR-AE-FCPX/Portra 400.cube
# Created by Adobe Lightroom plugin Export LUT (1.24.0)
# www.johnrellis.com/lightroom/exportlut.htm
# Preset: Portra 400
# Color profile: E:\lut插件\exportlut.1.24\exportlut.lrplugin\color profiles\Rec709gamma2.4.icc
LUT_3D_SIZE 32
DOMAIN_MIN 0.0 0.0 0.0
DOMAIN_MAX 1.0 1.0 1.0
0.000000 0.000000 0.000000
0.000000 0.001190 0.000000
0.000000 0.003388 0.001801
0.000000 0.006775 0.002502
0.001190 0.014282 0.003662
0.010346 0.025483 0.005371
0.033234 0.040711 0.008484
0.083955 0.062501 0.010101
0.122286 0.088716 0.008850
0.170932 0.103151 0.004974
0.234592 0.114260 0.000000
0.312291 0.118715 0.000000
0.394659 0.114168 0.000000
0.475837 0.098939 0.000000
0.557641 0.029969 0.000000
0.641321 0.000000 0.000000
0.720394 0.000000 0.000000
0.789059 0.000000 0.000000
0.845640 0.000000 0.000000
0.891020 0.000000 0.000000
0.928038 0.000000 0.000000
0.958862 0.000000 0.000000
0.990265 0.000000 0.000000
1.000000 0.000000 0.000000
1.000000 0.000000 0.000000
1.000000 0.000000 0.000000
1.000000 0.000000 0.000000
1.000000 0.093172 0.000000
1.000000 0.150179 0.000000
1.000000 0.191379 0.000000
1.000000 0.226535 0.000000
1.000000 0.258946 0.000000
0.000000 0.004791 0.002808
0.000000 0.004791 0.001678
0.000000 0.006989 0.002502
0.000000 0.010376 0.002045
0.000000 0.017884 0.005493
0.007904 0.029114 0.006043
0.031830 0.043122 0.008179
0.079377 0.065583 0.009827
0.118776 0.089296 0.008911
0.165530 0.103670 0.005432
0.227085 0.114961 0.000763
0.303319 0.119966 0.000000
0.385199 0.116732 0.000000
0.465553 0.104524 0.000000
0.546899 0.053498 0.000000
0.630213 0.000000 0.000000
0.710506 0.000000 0.000000
0.780545 0.000000 0.000000
0.838804 0.000000 0.000000
0.885283 0.000000 0.000000
0.922911 0.000000 0.000000
0.954284 0.000000 0.000000
0.985595 0.000000 0.000000
1.000000 0.000000 0.000000
1.000000 0.000000 0.000000
1.000000 0.000000 0.000000
1.000000 0.000000 0.000000
1.000000 0.058198 0.000000
1.000000 0.138491 0.000000
1.000000 0.181857 0.000000
1.000000 0.217929 0.000000
1.000000 0.251133 0.000000
0.000000 0.018036 0.006836
0.000000 0.017792 0.007965
0.000000 0.020203 0.006531
0.000000 0.024781 0.005921
0.000000 0.032319 0.005982
0.000183 0.043305 0.008789
0.021088 0.058747 0.011902
0.069673 0.080049 0.012421
0.114534 0.095979 0.012360
0.161624 0.109438 0.007752
0.222019 0.121309 0.000000
0.297307 0.126650 0.000000
0.378485 0.124453 0.000000
0.458320 0.114443 0.000000
0.538964 0.088746 0.000000
0.621912 0.000000 0.000000
0.702419 0.000000 0.000000
0.773831 0.000000 0.000000
0.833188 0.000000 0.000000
0.880705 0.000000 0.000000
0.919219 0.000000 0.000000
0.951019 0.000000 0.000000
0.983154 0.000000 0.000000
1.000000 0.000000 0.000000
1.000000 0.000000 0.000000
1.000000 0.000000 0.000000
1.000000 0.000000 0.000000
1.000000 0.081331 0.000000
1.000000 0.142367 0.000000
1.000000 0.184329 0.000000
1.000000 0.219272 0.000000
1.000000 0.251499 0.000000
0.000000 0.045411 0.019257
0.000000 0.045411 0.020386
0.000000 0.046387 0.021363
0.000000 0.052186 0.019471
0.000000 0.064302 0.014405
0.000000 0.070497 0.015534
0.009186 0.084230 0.016083
0.054902 0.095674 0.015991
0.109712 0.108309 0.014191
0.157656 0.120912 0.009155
0.218387 0.131624 0.002075
0.292638 0.137881 0.000000
0.372656 0.137301 0.000000
0.451789 0.129793 0.000000
0.531029 0.112093 0.000000
0.612238 0.046632 0.000000
0.692256 0.000000 0.000000
0.763546 0.000000 0.000000
0.824002 0.000000 0.000000
0.872587 0.000000 0.000000
0.911925 0.000000 0.000000
0.944610 0.000000 0.000000
0.977966 0.000000 0.000000
1.000000 0.000000 0.000000
1.000000 0.000000 0.000000
1.000000 0.000000 0.000000
1.000000 0.000000 0.000000
1.000000 0.115206 0.000000
1.000000 0.161013 0.000000
1.000000 0.197421 0.000000
1.000000 0.229099 0.000000
1.000000 0.258610 0.000000
0.000000 0.085908 0.037385
0.000000 0.085908 0.037385
0.000000 0.085786 0.040772
0.000000 0.087892 0.040314
0.000000 0.092042 0.034272
0.000000 0.098695 0.026917
0.000000 0.103517 0.024384
0.030030 0.111116 0.021027
0.101015 0.122560 0.017639
0.150271 0.135103 0.014038
0.210483 0.145480 0.005615
0.284001 0.151919 0.000000
0.363226 0.152865 0.000000
0.442054 0.148470 0.000000
0.520531 0.137453 0.000000
0.602167 0.112062 0.000000
0.683101 0.019898 0.000000
0.755886 0.000000 0.000000
0.817594 0.000000 0.000000
0.867155 0.000000 0.000000
0.907134 0.000000 0.000000
0.941283 0.000000 0.000000
0.975128 0.000000 0.000000
1.000000 0.000000 0.000000
1.000000 0.000000 0.000000
1.000000 0.005371 0.000000
1.000000 0.111116 0.000000
1.000000 0.152468 0.000000
1.000000 0.186618 0.000000
1.000000 0.216770 0.000000
1.000000 0.244724 0.000000
1.000000 0.271550 0.000000
0.000000 0.109071 0.056214
0.000000 0.109010 0.056214
0.000000 0.108644 0.058625
0.000000 0.108522 0.064271
0.000000 0.111604 0.059358
0.000000 0.115938 0.050202
0.000000 0.124941 0.036988
0.000000 0.133364 0.030976
0.090028 0.142000 0.026581
0.146426 0.152224 0.018372
0.208652 0.162325 0.010010
0.282719 0.168612 0.000000
0.361456 0.170779 0.000000
0.439399 0.169192 0.000000
0.517723 0.162783 0.000000
0.598657 0.147738 0.000000
0.679683 0.120027 0.000000
0.752743 0.065797 0.000000
0.814725 0.000000 0.000000
0.864317 0.000000 0.000000
0.904417 0.000000 0.000000
0.941833 0.000000 0.000000
1.000000 0.094057 0.000000
1.000000 0.132052 0.000000
1.000000 0.162570 0.000000
1.000000 0.189731 0.000000
1.000000 0.214664 0.000000
1.000000 0.237858 0.000000
1.000000 0.260655 0.000000
1.000000 0.282506 0.000000
1.000000 0.304204 0.000000
1.000000 0.325200 0.025971
0.000000 0.141817 0.079072
0.000000 0.141573 0.080598
0.000000 0.141482 0.082002
0.000000 0.140566 0.085786
0.000000 0.141024 0.087587
0.000000 0.145632 0.080507
0.000000 0.151400 0.070466
0.000000 0.161868 0.050813
0.084138 0.172030 0.039399
0.157534 0.180423 0.027070
0.230228 0.186130 0.015045
0.308537 0.191592 0.000916
0.386847 0.194369 0.000000
0.463447 0.194736 0.000000
0.540826 0.191867 0.000000
0.620813 0.182498 0.000000
0.698512 0.167880 0.000000
0.767422 0.151156 0.000000
0.825711 0.136599 0.000000
0.873106 0.129519 0.000000
0.915190 0.131838 0.000000
0.956054 0.147433 0.000000
0.989929 0.166598 0.000000
1.000000 0.187564 0.000000
1.000000 0.208316 0.000000
1.000000 0.228580 0.000000
1.000000 0.247318 0.000000
1.000000 0.266148 0.000000
1.000000 0.284886 0.000000
1.000000 0.302953 0.000000
1.000000 0.321599 0.000000
1.000000 0.340368 0.000000
0.000000 0.173007 0.093568
0.000000 0.172824 0.093629
0.000000 0.172519 0.094057
0.000000 0.171817 0.096529
0.000000 0.170779 0.099763
0.000000 0.173220 0.098573
0.000000 0.178012 0.093324
0.000000 0.183780 0.086336
0.016907 0.191348 0.068452
0.148745 0.203464 0.048127
0.226200 0.210544 0.031037
0.304784 0.214511 0.013489
0.381964 0.215824 0.000000
0.456306 0.219760 0.000000
0.531762 0.221469 0.000000
0.609705 0.219242 0.000000
0.686610 0.213016 0.000000
0.755764 0.205539 0.000000
0.815183 0.199283 0.000000
0.864744 0.197665 0.000000
0.912047 0.203922 0.000000
0.950378 0.213657 0.000000
0.982849 0.225834 0.000000
1.000000 0.239628 0.000000
1.000000 0.254337 0.000000
1.000000 0.269139 0.000000
1.000000 0.283970 0.000000
1.000000 0.298528 0.000000
1.000000 0.313787 0.000000
1.000000 0.329473 0.000000
1.000000 0.345281 0.000000
1.000000 0.361639 0.000000
0.000000 0.205875 0.105257
0.000000 0.205722 0.105318
0.000000 0.205325 0.106416
0.000000 0.204715 0.107881
0.000000 0.203677 0.110994
0.000000 0.202518 0.114290
0.000000 0.206516 0.109957
0.000000 0.211429 0.104463
0.000000 0.216800 0.096956
0.127260 0.221744 0.087831
0.224918 0.235966 0.056214
0.304173 0.243259 0.033021
0.379767 0.248173 0.006226
0.452857 0.250584 0.000000
0.526757 0.253208 0.000000
0.603143 0.255985 0.000000
0.678798 0.255406 0.000000
0.747463 0.252934 0.000000
0.809415 0.252384 0.000000
0.864439 0.256443 0.000000
0.908202 0.262364 0.000000
0.944518 0.269749 0.000000
0.976104 0.278508 0.000000
1.000000 0.288670 0.000000
1.000000 0.299687 0.000000
1.000000 0.310826 0.000000
1.000000 0.322301 0.000000
1.000000 0.334203 0.000000
1.000000 0.346746 0.000000
1.000000 0.359686 0.000000
1.000000 0.373266 0.000000
1.000000 0.387274 0.000000
0.000000 0.241306 0.117220
0.000000 0.241032 0.117311
0.000000 0.240482 0.118044
0.000000 0.239811 0.119905
0.000000 0.238315 0.122499
0.000000 0.236637 0.125826
0.000000 0.237247 0.126406
0.000000 0.241642 0.121126
0.000000 0.246586 0.114229
0.119173 0.251957 0.105287
0.205051 0.256870 0.093965
0.299657 0.273075 0.052918
0.373968 0.283391 0.015137
0.445747 0.291447 0.000000
0.519310 0.296086 0.000000
0.595697 0.294743 0.000000
0.671443 0.296971 0.000000
0.747341 0.301549 0.000000
0.811643 0.306188 0.000000
0.862333 0.310948 0.000000
0.903319 0.315892 0.000000
0.937591 0.320653 0.000000
0.967498 0.326635 0.000000
0.994354 0.332982 0.000000
1.000000 0.340429 0.000000
1.000000 0.348425 0.000000
1.000000 0.357305 0.000000
1.000000 0.367010 0.000000
1.000000 0.377752 0.000000
1.000000 0.389166 0.000000
1.000000 0.401160 0.000000
1.000000 0.413764 0.000000
0.000000 0.279576 0.129000
0.000000 0.279454 0.129030
0.000000 0.279179 0.129610
0.000000 0.278477 0.131777
0.000000 0.277409 0.134218
0.000000 0.275975 0.138033
0.000000 0.273991 0.142519
0.000000 0.277562 0.138705
0.000000 0.282994 0.131899
0.103243 0.288945 0.123323
0.203342 0.295415 0.111727
0.281285 0.302312 0.095216
0.369390 0.323857 0.025147
0.440558 0.336950 0.000000
0.514061 0.346380 0.000000
0.597009 0.353887 0.000000
0.677241 0.354192 0.000000
0.748653 0.351202 0.000000
0.808042 0.356390 0.000000
0.855772 0.360876 0.000000
0.895354 0.364538 0.000000
0.928771 0.368078 0.000000
0.958465 0.372412 0.000000
0.985260 0.377234 0.000000
1.000000 0.382635 0.000000
1.000000 0.388861 0.000000
1.000000 0.395972 0.000000
1.000000 0.403754 0.000000
1.000000 0.412543 0.000000
1.000000 0.422217 0.000000
1.000000 0.432410 0.000000
1.000000 0.443214 0.000000
0.000000 0.330175 0.138582
0.000000 0.329992 0.138643
0.000000 0.329656 0.139651
0.000000 0.329076 0.141115
0.000000 0.327977 0.143587
0.000000 0.326543 0.147127
0.000000 0.324743 0.151583
0.000000 0.324163 0.154482
0.000000 0.330266 0.147799
0.012909 0.337346 0.138918
0.192660 0.344945 0.127016
0.275853 0.353521 0.110964
0.383886 0.398596 0.058473
0.485023 0.431556 0.000000
0.571679 0.446174 0.000000
0.654261 0.452522 0.000000
0.727016 0.452430 0.000000
0.787869 0.447883 0.000000
0.837583 0.439857 0.000000
0.878782 0.435645 0.000000
0.913237 0.437385 0.000000
0.943145 0.438911 0.000000
0.970123 0.440742 0.000000
0.994873 0.443244 0.000000
1.000000 0.446204 0.000000
1.000000 0.449683 0.000000
1.000000 0.453895 0.000000
1.000000 0.458625 0.000000
1.000000 0.463935 0.000000
1.000000 0.470161 0.000000
1.000000 0.477211 0.000000
1.000000 0.485054 0.036347
0.000000 0.407904 0.141817
0.000000 0.407691 0.141909
0.000000 0.406744 0.142794
0.000000 0.405035 0.144625
0.000000 0.402747 0.147250
0.000000 0.399908 0.150759
0.000000 0.396765 0.155123
0.000000 0.393683 0.160464
0.000000 0.399908 0.158267
0.000000 0.411872 0.148409
0.178195 0.426154 0.134524
0.278111 0.442390 0.114900
0.363806 0.459602 0.077455
0.450904 0.475990 0.000000
0.561852 0.504631 0.000000
0.644221 0.512383 0.000000
0.714473 0.512840 0.000000
0.772396 0.508446 0.000000
0.820584 0.500755 0.000000
0.861418 0.490730 0.000000
0.896941 0.479194 0.000000
0.927642 0.476844 0.000000
0.955138 0.477546 0.000000
0.980438 0.478828 0.000000
1.000000 0.480629 0.000000
1.000000 0.483040 0.000000
1.000000 0.486305 0.000000
1.000000 0.490120 0.000000
1.000000 0.494636 0.000000
1.000000 0.500008 0.000000
1.000000 0.505974 0.000000
1.000000 0.512566 0.042451
0.000000 0.483406 0.135012
0.000000 0.482948 0.135317
0.000000 0.481575 0.136202
0.000000 0.480110 0.138155
0.000000 0.478248 0.141085
0.000000 0.475868 0.144930
0.000000 0.473732 0.149752
0.000000 0.471870 0.155703
0.000000 0.470436 0.162539
0.000000 0.480079 0.152102
0.089723 0.492073 0.138064
0.239231 0.505760 0.117983
0.334966 0.519829 0.085115
0.425238 0.532708 0.000000
0.517449 0.542901 0.000000
0.620539 0.559197 0.000000
0.698573 0.565667 0.000000
0.755612 0.561761 0.000000
0.803220 0.554681 0.000000
0.843870 0.545373 0.000000
0.879576 0.534844 0.000000
0.911864 0.523857 0.000000
0.941253 0.513725 0.000000
0.967315 0.514183 0.000000
0.991516 0.515282 0.000000
1.000000 0.516808 0.000000
1.000000 0.519097 0.000000
1.000000 0.521935 0.000000
1.000000 0.525505 0.000000
1.000000 0.529931 0.000000
1.000000 0.534966 0.000000
1.000000 0.540703 0.065156
0.000000 0.557641 0.124910
0.000000 0.557305 0.125185
0.000000 0.555932 0.126375
0.000000 0.553765 0.128939
0.000000 0.550927 0.132296
0.000000 0.547539 0.136934
0.000000 0.544457 0.142824
0.000000 0.541772 0.149477
0.000000 0.539849 0.157443
0.000000 0.541955 0.159060
0.000000 0.551354 0.145815
0.181674 0.562127 0.128145
0.299443 0.572808 0.102113
0.395483 0.582422 0.026947
0.488411 0.589837 0.000000
0.577295 0.594415 0.000000
0.667262 0.602228 0.000000
0.739467 0.608606 0.000000
0.786801 0.602258 0.000000
0.827390 0.593683 0.000000
0.863188 0.584131 0.000000
0.895720 0.574212 0.000000
0.925597 0.564019 0.000000
0.953521 0.553796 0.000000
0.979248 0.547936 0.000000
1.000000 0.548852 0.000000
1.000000 0.550591 0.000000
1.000000 0.553124 0.000000
1.000000 0.556512 0.000000
1.000000 0.560723 0.000000
1.000000 0.565637 0.016205
1.000000 0.571252 0.104463
0.000000 0.614038 0.127596
0.000000 0.614160 0.127932
0.000000 0.613428 0.129061
0.000000 0.612268 0.131167
0.000000 0.610468 0.134646
0.000000 0.608515 0.139498
0.000000 0.606775 0.145815
0.000000 0.605158 0.153597
0.000000 0.603784 0.162783
0.000000 0.602411 0.173281
0.000000 0.606714 0.167758
0.108156 0.613153 0.153262
0.266392 0.619440 0.134463
0.368139 0.624628 0.108095
0.459205 0.628534 0.034668
0.544610 0.630823 0.000000
0.625269 0.632136 0.000000
0.701137 0.634485 0.000000
0.769284 0.642237 0.000000
0.810391 0.634974 0.000000
0.847105 0.626917 0.000000
0.880247 0.618189 0.000000
0.910735 0.609369 0.000000
0.939239 0.600458 0.000000
0.966125 0.591730 0.000000
0.991913 0.583154 0.000000
1.000000 0.582055 0.000000
1.000000 0.584253 0.000000
1.000000 0.586999 0.000000
1.000000 0.590448 0.000000
1.000000 0.594354 0.070008
1.000000 0.598871 0.122866
0.000000 0.658137 0.146761
0.000000 0.658045 0.146822
0.000000 0.657618 0.147738
0.000000 0.656794 0.149660
0.000000 0.655543 0.152804
0.000000 0.654108 0.157534
0.000000 0.652583 0.163394
0.000000 0.651057 0.170962
0.000000 0.649531 0.179965
0.000000 0.647913 0.190188
0.000000 0.646998 0.199313
0.000000 0.651362 0.188205
0.242069 0.655634 0.174533
0.347662 0.659113 0.157259
0.436591 0.661585 0.134035
0.518547 0.662989 0.099886
0.594903 0.663478 0.000000
0.666102 0.663600 0.000000
0.729793 0.663020 0.000000
0.795377 0.672480 0.000000
0.832212 0.665400 0.000000
0.865812 0.657862 0.000000
0.896605 0.650019 0.000000
0.925475 0.642115 0.000000
0.952850 0.634363 0.000000
0.979095 0.626978 0.000000
1.000000 0.620050 0.000000
1.000000 0.613611 0.000000
1.000000 0.616236 0.000000
1.000000 0.619409 0.024445
1.000000 0.622980 0.108766
1.000000 0.627100 0.146548
0.000000 0.695613 0.181735
0.000000 0.695827 0.182162
0.000000 0.714870 0.209628
0.000000 0.714229 0.211246
0.000000 0.713222 0.213840
0.000000 0.711849 0.216892
0.000000 0.710140 0.221439
0.000000 0.708339 0.227512
0.000000 0.706569 0.235111
0.000000 0.704585 0.244511
0.000000 0.702327 0.255039
0.192752 0.702174 0.256046
0.300175 0.703822 0.245304
0.383886 0.704829 0.232181
0.458595 0.705074 0.216342
0.528466 0.704677 0.196841
0.594385 0.703517 0.171939
0.656153 0.702083 0.139376
0.713802 0.700710 0.090730
0.767483 0.699153 0.000000
0.826566 0.708125 0.000000
0.858946 0.700587 0.000000
0.889036 0.692988 0.000000
0.917266 0.685237 0.000000
0.943877 0.677394 0.000000
0.969482 0.669917 0.000000
0.994385 0.662776 0.000000
1.000000 0.656092 0.000000
1.000000 0.650050 0.025422
1.000000 0.647211 0.094087
1.000000 0.650446 0.135378
1.000000 0.654078 0.169070
0.000000 0.730953 0.231235
0.000000 0.732418 0.234104
0.000000 0.733761 0.237339
0.000000 0.734707 0.241337
0.000000 0.734981 0.245518
0.000000 0.734249 0.248997
0.000000 0.732906 0.253025
0.000000 0.731167 0.258000
0.000000 0.729335 0.264530
0.000000 0.727291 0.272282
0.000000 0.725032 0.281437
0.226230 0.722438 0.291691
0.312535 0.723201 0.284672
0.384161 0.724086 0.274083
0.450629 0.724422 0.261570
0.513695 0.724269 0.246647
0.573785 0.723720 0.228916
0.631464 0.722957 0.208316
0.686091 0.722255 0.183597
0.737972 0.721675 0.153170
0.787106 0.721187 0.109010
0.843412 0.731258 0.000000
0.874998 0.725277 0.000000
0.903563 0.718502 0.000000
0.930571 0.711574 0.000000
0.956359 0.704829 0.038636
0.981476 0.698482 0.087953
1.000000 0.692561 0.108156
1.000000 0.687160 0.125490
1.000000 0.682277 0.142336
1.000000 0.677760 0.158968
1.000000 0.678614 0.185794
0.000000 0.752773 0.267918
0.000000 0.754147 0.270878
0.000000 0.755489 0.274510
0.000000 0.756374 0.278630
0.000000 0.756649 0.282536
0.000000 0.756069 0.285893
0.000000 0.754879 0.289433
0.000000 0.753292 0.293675
0.000000 0.751461 0.299077
0.000000 0.749416 0.305760
0.178500 0.747250 0.313481
0.278325 0.744686 0.322454
0.347478 0.742855 0.327001
0.404791 0.743618 0.318273
0.460121 0.744106 0.308080
0.513909 0.744198 0.295933
0.566613 0.743923 0.282017
0.617487 0.743557 0.266087
0.666896 0.743160 0.248142
0.714809 0.742885 0.227878
0.760952 0.742763 0.204562
0.805875 0.742855 0.176333
0.856565 0.751308 0.134066
0.890288 0.749264 0.120577
0.917510 0.743343 0.128450
0.943755 0.737392 0.136324
0.969024 0.731746 0.148104
0.993896 0.726497 0.161135
1.000000 0.721889 0.174777
1.000000 0.717678 0.188510
1.000000 0.713863 0.203067
1.000000 0.710140 0.218021
0.000000 0.773404 0.306828
0.000000 0.774533 0.309667
0.000000 0.775540 0.312840
0.000000 0.776211 0.316472
0.000000 0.776425 0.319860
0.000000 0.775814 0.323003
0.000000 0.774746 0.326207
0.000000 0.773281 0.329992
0.000000 0.771603 0.334752
0.180484 0.769711 0.340398
0.268101 0.767636 0.347326
0.334081 0.765286 0.355230
0.389868 0.762661 0.363714
0.436316 0.762142 0.361669
0.480751 0.762722 0.353460
0.525536 0.763210 0.343877
0.570520 0.763699 0.333440
0.615137 0.764248 0.321843
0.659297 0.764950 0.309453
0.702937 0.765927 0.296025
0.745907 0.767025 0.281529
0.787900 0.768368 0.265141
0.828916 0.769589 0.245884
0.875029 0.777493 0.222385
0.910857 0.779873 0.211307
0.937469 0.775601 0.218021
0.963317 0.771328 0.224887
0.988495 0.767269 0.234073
1.000000 0.763638 0.246860
1.000000 0.760342 0.260227
1.000000 0.757229 0.274296
1.000000 0.754116 0.289006
0.000000 0.799435 0.363745
0.000000 0.799832 0.364904
0.000000 0.799954 0.366217
0.000000 0.799802 0.367620
0.000000 0.799283 0.369116
0.000000 0.798306 0.370794
0.131533 0.797086 0.373022
0.204318 0.795651 0.375891
0.261631 0.794095 0.379889
0.314000 0.792386 0.385168
0.362036 0.790524 0.391363
0.406897 0.788449 0.398444
0.448432 0.786099 0.405768
0.487465 0.783658 0.413275
0.520012 0.784329 0.406104
0.553979 0.784909 0.397864
0.588769 0.785489 0.388922
0.624445 0.786099 0.378973
0.660792 0.786709 0.368139
0.697719 0.787472 0.356207
0.734615 0.788357 0.343481
0.771847 0.789334 0.329534
0.808804 0.790311 0.313848
0.845701 0.791196 0.295842
0.887449 0.797513 0.275883
0.925078 0.803250 0.261845
0.951049 0.800107 0.268406
0.976501 0.797086 0.276066
1.000000 0.794186 0.285283
1.000000 0.791531 0.298589
1.000000 0.788998 0.312627
1.000000 0.786374 0.327214
0.186831 0.817288 0.402472
0.193515 0.817624 0.403510
0.204990 0.817777 0.404578
0.221836 0.817624 0.405921
0.241978 0.817197 0.407446
0.265537 0.816373 0.408942
0.292576 0.815305 0.410864
0.322332 0.814084 0.413489
0.354376 0.812711 0.417121
0.388739 0.811185 0.421790
0.422797 0.809567 0.427222
0.457069 0.807797 0.433417
0.490211 0.805814 0.440131
0.522393 0.803677 0.447639
0.551202 0.802792 0.449531
0.577874 0.803738 0.443091
0.606134 0.804715 0.435920
0.635523 0.805753 0.428138
0.666041 0.806821 0.419348
0.697627 0.807980 0.410010
0.729885 0.809293 0.400000
0.762753 0.810697 0.389044
0.795987 0.812161 0.376898
0.829679 0.813596 0.363287
0.860105 0.810727 0.336675
0.898344 0.815946 0.319310
0.937896 0.825101 0.304326
0.963470 0.823026 0.311498
0.988525 0.821012 0.320256
1.000000 0.819028 0.330541
1.000000 0.817258 0.344793
1.000000 0.815427 0.359960
0.351751 0.839048 0.450111
0.356481 0.839597 0.451698
0.361181 0.839719 0.452705
0.366522 0.839353 0.453162
0.373724 0.838529 0.453223
0.383368 0.837369 0.453376
0.395636 0.835843 0.453651
0.411078 0.834165 0.454536
0.429786 0.832395 0.456214
0.451423 0.830533 0.458930
0.474311 0.828550 0.462226
0.499336 0.826596 0.466651
0.524498 0.824491 0.471687
0.549737 0.822202 0.477272
0.574273 0.819699 0.483223
0.595483 0.819699 0.478828
0.617762 0.820371 0.471687
0.641901 0.821317 0.464302
0.667933 0.822568 0.456886
0.695521 0.824155 0.449470
0.724239 0.825925 0.441505
0.753628 0.827665 0.432715
0.783444 0.829252 0.422431
0.813748 0.830564 0.410468
0.844511 0.831601 0.396521
0.875883 0.832364 0.380499
0.910765 0.836240 0.364538
0.951385 0.848020 0.350317
0.976562 0.846311 0.354772
1.000000 0.844877 0.364233
1.000000 0.843473 0.375372
1.000000 0.842069 0.389624
0.418555 0.855131 0.481056
0.421820 0.855680 0.482460
0.425910 0.855894 0.483742
0.430549 0.855741 0.484565
0.436835 0.855314 0.485298
0.445197 0.854612 0.486244
0.456214 0.853727 0.487709
0.469612 0.852720 0.489662
0.485298 0.851682 0.492287
0.502983 0.850523 0.495766
0.522057 0.849180 0.499611
0.542138 0.847745 0.504143
0.562646 0.846098 0.508965
0.583185 0.844236 0.514122
0.603662 0.842100 0.519371
0.623163 0.840452 0.522759
0.640742 0.841184 0.516533
0.659998 0.842191 0.510002
0.681300 0.843534 0.503593
0.704219 0.845182 0.497261
0.728725 0.847044 0.490639
0.754116 0.849058 0.483406
0.780362 0.850980 0.475319
0.807492 0.852750 0.465949
0.835386 0.854276 0.455299
0.864042 0.855650 0.443214
0.893584 0.856901 0.429511
0.925658 0.859983 0.416236
0.966918 0.873747 0.405585
0.992584 0.873472 0.409552
1.000000 0.872557 0.420539
1.000000 0.871397 0.433204
0.482826 0.875120 0.519310
0.484321 0.875395 0.520134
0.486366 0.875425 0.520653
0.489448 0.875212 0.521202
0.493843 0.874754 0.521691
0.499855 0.874083 0.522423
0.507744 0.873289 0.523430
0.517632 0.872343 0.525017
0.529442 0.871366 0.527153
0.543114 0.870298 0.529931
0.558099 0.869169 0.533257
0.574273 0.867948 0.537133
0.591180 0.866636 0.541527
0.608515 0.865049 0.546044
0.625940 0.863249 0.550774
0.643427 0.861295 0.555779
0.659358 0.860929 0.554894
0.675410 0.861967 0.549310
0.693263 0.863310 0.543908
0.712795 0.865019 0.538598
0.733791 0.866972 0.533227
0.755856 0.868956 0.527276
0.778988 0.870878 0.520470
0.803006 0.872679 0.512718
0.827878 0.874296 0.503746
0.853635 0.875700 0.493507
0.880430 0.877043 0.482155
0.908263 0.878264 0.469459
0.938781 0.881254 0.457649
0.978241 0.894041 0.450080
1.000000 0.896574 0.453376
1.000000 0.896147 0.466865
0.526787 0.893889 0.552117
0.527794 0.894102 0.552789
0.529534 0.894224 0.553399
0.532250 0.894163 0.554101
0.536400 0.894011 0.555200
0.542260 0.893919 0.556725
0.550652 0.893980 0.559472
0.560876 0.894163 0.562921
0.572839 0.894438 0.567193
0.586358 0.894743 0.572168
0.600855 0.895079 0.577752
0.615900 0.895262 0.583520
0.631403 0.895201 0.589410
0.646845 0.894835 0.595117
0.662165 0.894102 0.600610
0.677211 0.892882 0.605646
0.692195 0.891539 0.610834
0.705409 0.892607 0.607019
0.719936 0.894072 0.602960
0.736019 0.895750 0.598932
0.753384 0.897673 0.594781
0.772000 0.899626 0.590204
0.791531 0.901427 0.584924
0.812070 0.903136 0.578882
0.833555 0.904662 0.571893
0.856077 0.906035 0.563867
0.879667 0.907286 0.555077
0.904479 0.908476 0.545434
0.930541 0.909606 0.534813
0.959258 0.912383 0.525658
0.996063 0.923461 0.522057
1.000000 0.927733 0.525353
0.582361 0.920897 0.601617
0.582605 0.920897 0.601648
0.583429 0.920775 0.601801
0.584863 0.920531 0.601923
0.587488 0.920195 0.602289
0.591211 0.919799 0.602930
0.596399 0.919341 0.604089
0.602808 0.918914 0.605615
0.610773 0.918486 0.607843
0.620020 0.918090 0.610559
0.630365 0.917632 0.613794
0.641596 0.917205 0.617456
0.653712 0.916655 0.621454
0.666194 0.915923 0.625635
