20 Preset/Art Style/【3】LUT video cho PR-AE-FCPX/Portra 160.cube
# Created by Adobe Lightroom plugin Export LUT (1.24.0)
# www.johnrellis.com/lightroom/exportlut.htm
# Preset: Portra 160
# Color profile: E:\lut插件\exportlut.1.24\exportlut.lrplugin\color profiles\Rec709gamma2.4.icc
LUT_3D_SIZE 5
DOMAIN_MIN 0.000000 0.000000 0.000000
DOMAIN_MAX 0.903226 0.903226 0.903226
0.004364 0.081910 0.077607
0.122835 0.087495 0.085817
0.563348 0.000000 0.066133
0.898863 0.000000 0.046540
1.000000 0.186221 0.219944
0.000000 0.196994 0.088594
0.160006 0.204166 0.024659
0.543755 0.158602 0.000000
0.882628 0.117494 0.000000
1.000000 0.318669 0.222751
0.000000 0.642084 0.242710
0.122225 0.626734 0.228855
0.664881 0.657221 0.000000
0.871153 0.532036 0.000000
1.000000 0.539483 0.230869
0.430610 0.843259 0.562829
0.492958 0.840299 0.561517
0.660060 0.829129 0.554376
0.852476 0.848478 0.290013
0.996338 0.790616 0.106050
0.700404 0.942412 0.775296
0.715053 0.941619 0.775326
0.763210 0.936004 0.769100
0.839719 0.937591 0.752499
0.956970 0.949584 0.576043
0.000000 0.093568 0.170413
0.122713 0.098085 0.135958
0.577905 0.000000 0.110842
0.879545 0.000000 0.000000
1.000000 0.232029 0.204044
0.000000 0.211612 0.225162
0.191470 0.217685 0.210452
0.586725 0.193271 0.139834
0.869657 0.210056 0.000000
1.000000 0.330175 0.204410
0.000000 0.634821 0.388464
0.218173 0.632349 0.373510
0.658656 0.643763 0.223453
0.856748 0.527001 0.000000
1.000000 0.542657 0.227085
0.472663 0.840238 0.614618
0.517144 0.839658 0.608576
0.669795 0.829496 0.604242
0.847196 0.846769 0.440375
0.996521 0.789853 0.115267
0.712978 0.941283 0.792630
0.716152 0.941466 0.785611
0.769894 0.938781 0.786160
0.843809 0.938537 0.773587
0.954711 0.950835 0.632990
0.002106 0.121492 0.583398
0.376684 0.141421 0.575647
0.646784 0.213993 0.513268
0.929290 0.238590 0.467353
1.000000 0.361089 0.359899
0.000000 0.274296 0.606012
0.372747 0.311223 0.600519
0.659449 0.390326 0.552209
0.910002 0.380011 0.490761
1.000000 0.434058 0.387854
0.000000 0.618769 0.641230
0.268437 0.623285 0.638666
0.666224 0.648066 0.635126
0.841947 0.621088 0.565026
0.987884 0.599939 0.459998
0.448188 0.836667 0.714046
0.515068 0.834165 0.712825
0.689967 0.832242 0.720912
0.833494 0.843442 0.682979
0.953796 0.789425 0.570275
0.671901 0.941100 0.811673
0.696468 0.940520 0.814328
0.764981 0.939422 0.818692
0.846342 0.935119 0.819516
0.944366 0.948913 0.744900
0.487739 0.338231 0.819181
0.578546 0.378332 0.818051
0.769802 0.533867 0.808164
0.873503 0.580529 0.777615
0.984771 0.661463 0.771695
0.494545 0.443793 0.816800
0.576715 0.471931 0.815488
0.761135 0.587579 0.808133
0.860838 0.634333 0.781949
0.974273 0.687770 0.776028
0.276829 0.587793 0.803372
0.419959 0.599786 0.803220
0.714992 0.688228 0.808316
0.833188 0.750820 0.798184
0.951476 0.749660 0.783444
0.460914 0.809232 0.820066
0.510491 0.809964 0.819028
0.659449 0.816922 0.818326
0.823484 0.837308 0.824369
0.923919 0.812558 0.774807
0.599878 0.943542 0.870512
0.624659 0.942931 0.869535
0.710353 0.941650 0.866423
0.837186 0.940612 0.869932
0.938140 0.948882 0.849119
0.716823 0.627436 0.927855
0.742977 0.642847 0.926299
0.823697 0.704219 0.920897
0.899840 0.792538 0.911589
0.950774 0.783658 0.897368
0.710079 0.654536 0.925139
0.736385 0.668116 0.923919
0.817838 0.722133 0.919341
0.896574 0.801450 0.911589
0.946502 0.796994 0.898222
0.642542 0.702388 0.922332
0.689143 0.724178 0.920378
0.788449 0.764889 0.917723
0.885863 0.827359 0.914397
0.938018 0.839322 0.905425
0.506920 0.796353 0.921172
0.534661 0.795254 0.919951
0.635370 0.793271 0.916167
0.847623 0.852049 0.920714
0.935851 0.895537 0.922881
0.608087 0.928283 0.936858
0.624659 0.928069 0.936339
0.689082 0.928588 0.935332
0.791745 0.930144 0.932769
0.932647 0.944823 0.938537
