20 Preset/Art Style/【3】LUT video cho PR-AE-FCPX/Portra 800 Warm.cube
# Created by Adobe Lightroom plugin Export LUT (1.24.0)
# www.johnrellis.com/lightroom/exportlut.htm
# Preset: Portra 800 Warm
# Color profile: E:\lut插件\exportlut.1.24\exportlut.lrplugin\color profiles\Rec709gamma2.4.icc
LUT_3D_SIZE 5
DOMAIN_MIN 0.000000 0.000000 0.000000
DOMAIN_MAX 0.903226 0.903226 0.903226
0.188327 0.169070 0.079133
0.193118 0.167758 0.073365
0.380987 0.180148 0.006958
0.750912 0.196139 0.000000
0.960723 0.299351 0.000000
0.178622 0.190280 0.077943
0.205051 0.189883 0.055207
0.404334 0.227939 0.000000
0.766567 0.280430 0.000000
0.957397 0.367773 0.000000
0.082277 0.557427 0.318273
0.223545 0.596857 0.312535
0.516716 0.513725 0.131930
0.787106 0.510155 0.000000
0.936584 0.530816 0.000000
0.694240 0.760067 0.653681
0.718166 0.764248 0.663264
0.779202 0.779721 0.693141
0.772854 0.732235 0.512139
0.885985 0.693690 0.407904
0.829007 0.807767 0.755764
0.834134 0.808621 0.758633
0.841520 0.811643 0.761807
0.853422 0.813779 0.765560
0.851591 0.799069 0.711574
0.185275 0.165682 0.084718
0.195560 0.165347 0.087465
0.414038 0.147219 0.066987
0.759213 0.159548 0.000000
0.953155 0.288884 0.000000
0.183322 0.191592 0.113436
0.224491 0.201602 0.122347
0.439673 0.219394 0.094728
0.771756 0.255558 0.000000
0.951019 0.347417 0.000000
0.130312 0.507408 0.332525
0.306554 0.542596 0.362860
0.515984 0.503258 0.233738
0.785580 0.509606 0.152682
0.933562 0.530968 0.183780
0.680476 0.754147 0.650019
0.713558 0.757565 0.663325
0.778195 0.775540 0.694331
0.775662 0.731716 0.546319
0.882383 0.697169 0.454627
0.826108 0.806851 0.754452
0.831510 0.807645 0.757351
0.843687 0.811765 0.764187
0.855863 0.814572 0.769253
0.853117 0.800107 0.718318
0.196292 0.184451 0.265812
0.240787 0.188449 0.276616
0.414771 0.193973 0.299840
0.800992 0.001251 0.325780
0.963073 0.239536 0.265629
0.199863 0.237003 0.324956
0.256352 0.242191 0.336400
0.465888 0.257786 0.352911
0.812467 0.215305 0.342077
0.956146 0.336492 0.300328
0.159396 0.461799 0.449378
0.277043 0.475685 0.459113
0.580133 0.529229 0.497139
0.799741 0.537743 0.459815
0.921721 0.547906 0.424659
0.590967 0.725856 0.631128
0.635279 0.729244 0.641382
0.757870 0.749203 0.685725
0.785794 0.732296 0.632013
0.869047 0.714229 0.588251
0.807218 0.801938 0.746273
0.814969 0.803006 0.749813
0.839597 0.807431 0.762692
0.859525 0.815183 0.775814
0.854063 0.799802 0.729610
0.260716 0.282048 0.577844
0.327886 0.289128 0.583551
0.539727 0.320836 0.603418
0.772732 0.369146 0.610132
0.895384 0.530205 0.613703
0.296391 0.342382 0.600580
0.359533 0.349310 0.603967
0.559075 0.382696 0.616968
0.774624 0.432868 0.620294
0.889830 0.556298 0.620386
0.354070 0.503655 0.628626
0.412421 0.510704 0.631281
0.616754 0.565270 0.650599
0.777005 0.611322 0.656428
0.878202 0.632136 0.644038
0.568902 0.696773 0.679194
0.596033 0.698604 0.679835
0.688533 0.709224 0.685817
0.793545 0.730251 0.700282
0.862882 0.725765 0.681819
0.748898 0.788602 0.731289
0.759915 0.789761 0.734005
0.800931 0.795895 0.747066
0.852049 0.808103 0.771542
0.857298 0.801083 0.750240
0.611994 0.562097 0.740841
0.631250 0.567956 0.740597
0.699672 0.592432 0.740017
0.790494 0.635859 0.739956
0.864775 0.660822 0.735744
0.630732 0.589899 0.740566
0.647700 0.594720 0.740414
0.708766 0.614984 0.740108
0.792355 0.652155 0.740627
0.862364 0.673976 0.737209
0.659236 0.647974 0.741268
0.679255 0.655634 0.741543
0.731746 0.672877 0.742336
0.798215 0.696651 0.744259
0.856870 0.713283 0.743587
0.701442 0.719203 0.747829
0.708614 0.719722 0.747677
0.737881 0.722194 0.747189
0.803769 0.742519 0.751980
0.854856 0.759884 0.756069
0.769558 0.785061 0.764218
0.773587 0.785489 0.764370
0.790677 0.787533 0.765255
0.821225 0.792020 0.767605
0.860777 0.801999 0.774929
