20 Preset/Art Style/【3】LUT video cho PR-AE-FCPX/Portra 800 Alt.cube
# Created by Adobe Lightroom plugin Export LUT (1.24.0)
# www.johnrellis.com/lightroom/exportlut.htm
# Preset: Portra 800 Alt
# Color profile: E:\lut插件\exportlut.1.24\exportlut.lrplugin\color profiles\Rec709gamma2.4.icc
LUT_3D_SIZE 32
DOMAIN_MIN 0.0 0.0 0.0
DOMAIN_MAX 1.0 1.0 1.0
0.000000 0.134768 0.153170
0.000000 0.134981 0.153140
0.000000 0.135592 0.153475
0.000000 0.136477 0.153719
0.000000 0.138155 0.154665
0.000000 0.140444 0.155306
0.000000 0.143038 0.156649
0.014771 0.146029 0.157626
0.093294 0.149050 0.158694
0.132296 0.152468 0.159701
0.171939 0.155795 0.160830
0.216770 0.158083 0.161685
0.267796 0.158938 0.162448
0.324895 0.157839 0.162783
0.385534 0.154238 0.163088
0.447761 0.147799 0.162722
0.512963 0.136446 0.162692
0.582940 0.114961 0.161746
0.657038 0.047486 0.160128
0.728328 0.000000 0.158419
0.790097 0.000000 0.156619
0.840513 0.000000 0.154971
0.894926 0.000000 0.153750
0.936522 0.000000 0.153109
0.969177 0.000000 0.153170
0.996246 0.000000 0.153994
1.000000 0.089876 0.155459
1.000000 0.140475 0.157687
1.000000 0.178378 0.160830
1.000000 0.213291 0.165408
1.000000 0.246647 0.172152
1.000000 0.280339 0.181796
0.000000 0.135744 0.153475
0.000000 0.135744 0.153475
0.000000 0.136049 0.153414
0.000000 0.136995 0.153872
0.000000 0.138888 0.154604
0.000000 0.141176 0.155612
0.000000 0.143557 0.156771
0.009064 0.146548 0.157778
0.089662 0.149691 0.158846
0.128420 0.152590 0.159762
0.167849 0.155917 0.160922
0.211398 0.158419 0.161776
0.261418 0.159640 0.162417
0.317571 0.158907 0.162844
0.377600 0.155612 0.163241
0.439277 0.149874 0.163119
0.504173 0.139315 0.162844
0.573236 0.120424 0.162020
0.647242 0.072694 0.160525
0.719020 0.000000 0.158724
0.781674 0.000000 0.156863
0.833188 0.000000 0.155306
0.887327 0.000000 0.153872
0.928740 0.000000 0.153017
0.961639 0.000000 0.153140
0.989044 0.000000 0.153384
1.000000 0.058167 0.154665
1.000000 0.129152 0.156527
1.000000 0.169100 0.159243
1.000000 0.204654 0.163302
1.000000 0.238285 0.169497
1.000000 0.272160 0.178256
0.000000 0.138674 0.154574
0.000000 0.138674 0.154757
0.000000 0.139284 0.154665
0.000000 0.140383 0.154513
0.000000 0.141970 0.155245
0.000000 0.143984 0.156313
0.000000 0.146548 0.157229
0.000061 0.149050 0.158267
0.084657 0.151919 0.159182
0.124971 0.155093 0.160037
0.164340 0.158267 0.161257
0.207614 0.160739 0.161959
0.256748 0.162142 0.162814
0.312108 0.161807 0.163272
0.371740 0.158999 0.163546
0.433082 0.153933 0.163485
0.497261 0.144991 0.163241
0.566033 0.128298 0.162264
0.639673 0.094728 0.161013
0.711940 0.000000 0.159030
0.775998 0.000000 0.157259
0.829160 0.000000 0.155520
0.883452 0.000000 0.153811
0.924651 0.000000 0.152987
0.957397 0.000000 0.152804
0.984802 0.000000 0.153017
1.000000 0.076570 0.154116
1.000000 0.132326 0.155642
1.000000 0.170474 0.158022
1.000000 0.204837 0.162081
1.000000 0.237888 0.167727
1.000000 0.270878 0.176150
0.000000 0.144717 0.157046
0.000000 0.144717 0.157259
0.000000 0.145052 0.157778
0.000000 0.146395 0.157198
0.000000 0.148714 0.156832
0.000000 0.149508 0.157229
0.000000 0.151522 0.158206
0.000000 0.153933 0.159060
0.074128 0.156771 0.159915
0.121401 0.159792 0.160983
0.161135 0.162753 0.161837
0.204227 0.165469 0.162722
0.252750 0.166964 0.163394
0.307286 0.166934 0.163729
0.365759 0.165011 0.164034
0.425757 0.161135 0.164034
0.488746 0.153780 0.163882
0.555474 0.140658 0.163058
0.627741 0.115938 0.161746
0.699886 0.050202 0.159670
0.764675 0.000000 0.157534
0.822080 0.000000 0.155489
0.875212 0.000000 0.153719
0.916747 0.000000 0.152682
0.950652 0.000000 0.152193
0.979553 0.007019 0.152377
1.000000 0.106600 0.153231
1.000000 0.146853 0.154757
1.000000 0.181552 0.157137
1.000000 0.213809 0.160922
1.000000 0.244480 0.166812
1.000000 0.275364 0.174624
0.000000 0.153384 0.160494
0.000000 0.153567 0.160647
0.000000 0.153262 0.161044
0.000000 0.154116 0.161288
0.000000 0.155856 0.160464
0.000000 0.158724 0.159609
0.000000 0.159579 0.159915
0.000000 0.160861 0.160281
0.053346 0.163333 0.161196
0.114717 0.166140 0.162081
0.155001 0.169131 0.162936
0.198276 0.171756 0.163638
0.246098 0.173739 0.164309
0.300023 0.174258 0.164858
0.357885 0.173281 0.165133
0.418280 0.170504 0.165316
0.481239 0.165164 0.164889
0.548119 0.155306 0.163973
0.620172 0.136995 0.162387
0.692683 0.107271 0.160159
0.758236 0.039399 0.158053
0.819638 0.000000 0.155428
0.871305 0.000000 0.153597
0.912627 0.000000 0.152102
0.946777 0.032105 0.151583
0.976074 0.103578 0.151247
1.000000 0.138643 0.151919
1.000000 0.169436 0.153445
1.000000 0.198947 0.155642
1.000000 0.227268 0.159457
1.000000 0.255314 0.164981
1.000000 0.284092 0.172915
0.000000 0.163088 0.164340
0.000000 0.163302 0.164492
0.000000 0.162997 0.165072
0.000000 0.162844 0.165957
0.000000 0.164492 0.165347
0.000000 0.166812 0.164034
0.000000 0.170382 0.162631
0.000000 0.171511 0.162814
0.031891 0.172671 0.163119
0.109499 0.174716 0.163699
0.152132 0.177310 0.164553
0.195834 0.180148 0.165194
0.244053 0.182498 0.165988
0.297765 0.183597 0.166445
0.355749 0.183474 0.166812
0.415808 0.181949 0.166690
0.478767 0.178592 0.166079
0.545861 0.171511 0.164950
0.618036 0.158572 0.163058
0.690394 0.139223 0.160525
0.755825 0.117037 0.157748
0.821500 0.097230 0.154879
0.914794 0.124514 0.150576
0.951812 0.147127 0.150515
0.981781 0.170932 0.150790
1.000000 0.193973 0.152132
1.000000 0.216800 0.154635
1.000000 0.239200 0.158022
1.000000 0.262150 0.162936
1.000000 0.285405 0.169497
1.000000 0.309789 0.177859
1.000000 0.334600 0.189059
0.000000 0.176608 0.169223
0.000000 0.176577 0.169406
0.000000 0.176516 0.169741
0.000000 0.176150 0.170809
0.000000 0.176394 0.171420
0.000000 0.178561 0.170352
0.000000 0.181277 0.168948
0.000000 0.185702 0.166964
0.021759 0.187625 0.166690
0.114076 0.189059 0.166903
0.161868 0.190188 0.167056
0.209079 0.192874 0.167880
0.259861 0.195377 0.168215
0.315190 0.196628 0.168734
0.373327 0.197330 0.168368
0.432837 0.197024 0.168032
0.495644 0.195193 0.167025
0.563043 0.190524 0.165316
0.635737 0.181613 0.162875
0.707759 0.169894 0.159426
0.782834 0.159152 0.155520
0.847227 0.158450 0.152163
0.897276 0.168124 0.149691
0.937591 0.184604 0.148470
0.970611 0.203525 0.148135
0.997925 0.222538 0.149447
1.000000 0.241093 0.151797
1.000000 0.260136 0.154757
1.000000 0.279850 0.159091
1.000000 0.299901 0.165164
1.000000 0.321477 0.173404
1.000000 0.344152 0.183993
0.000000 0.189242 0.174014
0.000000 0.189059 0.174197
0.000000 0.188968 0.174533
0.000000 0.188632 0.175387
0.000000 0.188357 0.176730
0.000000 0.189578 0.176486
0.000000 0.192050 0.175174
0.000000 0.194980 0.173709
0.000000 0.198672 0.171572
0.102419 0.202609 0.170748
0.154818 0.204623 0.170932
0.204471 0.205844 0.170901
0.255772 0.206668 0.170809
0.310002 0.209049 0.170840
0.366888 0.211032 0.170565
0.425086 0.212558 0.169894
0.486549 0.213138 0.168521
0.552453 0.212314 0.166354
0.624414 0.208499 0.163516
0.702693 0.203250 0.159365
0.779324 0.200015 0.154543
0.840208 0.202884 0.150454
0.888823 0.211429 0.147433
0.928710 0.224247 0.146090
0.961822 0.239170 0.145571
0.989471 0.254551 0.146090
1.000000 0.269963 0.148104
1.000000 0.285618 0.150942
1.000000 0.302556 0.155337
1.000000 0.320195 0.161715
1.000000 0.339269 0.169680
1.000000 0.359838 0.180087
0.000000 0.203555 0.179507
0.000000 0.203403 0.179690
0.000000 0.203311 0.179995
0.000000 0.203006 0.180819
0.000000 0.202579 0.181796
0.000000 0.202060 0.183261
0.000000 0.204501 0.181979
0.000000 0.207126 0.180606
0.000000 0.210239 0.179019
0.064820 0.213230 0.176761
0.149172 0.219455 0.175021
0.201022 0.222110 0.174685
0.253330 0.223789 0.174228
0.307927 0.224460 0.173556
0.363928 0.226200 0.172824
0.421118 0.229496 0.171572
0.481392 0.232883 0.169772
0.546227 0.235203 0.167178
0.623316 0.236667 0.162966
0.705348 0.237400 0.157748
0.776608 0.239078 0.152529
0.834592 0.243687 0.148043
0.881895 0.252201 0.144381
0.921172 0.263401 0.142489
0.954131 0.275975 0.141451
0.981933 0.288518 0.142153
1.000000 0.301610 0.143740
1.000000 0.315038 0.146883
1.000000 0.329442 0.151583
1.000000 0.344884 0.158053
1.000000 0.361700 0.166629
1.000000 0.380072 0.177279
0.000000 0.219730 0.185489
0.000000 0.219577 0.185519
0.000000 0.219364 0.185672
0.000000 0.219059 0.186313
0.000000 0.218387 0.187289
0.000000 0.217746 0.188693
0.000000 0.218143 0.189151
0.000000 0.220829 0.187808
0.000000 0.223758 0.186130
0.014923 0.227207 0.184054
0.129122 0.230442 0.181582
0.196109 0.237827 0.178836
0.249027 0.241367 0.177859
0.303807 0.244327 0.176547
0.359991 0.246860 0.175174
0.416968 0.248478 0.173098
0.477180 0.253971 0.170657
0.550591 0.261997 0.166659
0.630610 0.268467 0.161471
0.707515 0.273106 0.155062
0.774258 0.277317 0.149203
0.828428 0.282872 0.144411
0.873106 0.290471 0.140230
0.910857 0.299290 0.137819
0.942901 0.309331 0.136446
0.970764 0.319493 0.136385
0.995483 0.330388 0.138033
1.000000 0.342077 0.141085
1.000000 0.354894 0.146120
1.000000 0.369024 0.152682
1.000000 0.384375 0.161837
1.000000 0.401251 0.173648
0.000000 0.237034 0.191043
0.000000 0.237034 0.191043
0.000000 0.236942 0.191196
0.000000 0.236515 0.191958
0.000000 0.236149 0.192844
0.000000 0.235508 0.194217
0.000000 0.234623 0.195987
0.000000 0.236790 0.195163
0.000000 0.239994 0.193362
0.000000 0.243534 0.191470
0.119966 0.247501 0.189090
0.180575 0.251408 0.186069
0.248112 0.260716 0.181613
0.302556 0.266361 0.179538
0.358160 0.272038 0.177218
0.419745 0.279911 0.174075
0.485237 0.286748 0.170199
0.555871 0.292027 0.164981
0.631464 0.300969 0.158694
0.704189 0.307897 0.151522
0.767880 0.313817 0.144808
0.820432 0.320165 0.139345
0.864561 0.327855 0.134676
0.902159 0.336095 0.131411
0.934447 0.344854 0.129885
0.962524 0.353979 0.129915
0.987640 0.363470 0.131411
1.000000 0.373541 0.134951
1.000000 0.384680 0.140627
1.000000 0.397192 0.148379
1.000000 0.410864 0.158541
1.000000 0.426032 0.171084
0.000000 0.259037 0.196475
0.000000 0.259007 0.196475
0.000000 0.258824 0.196780
0.000000 0.258518 0.197360
0.000000 0.258122 0.198367
0.000000 0.257481 0.199527
0.000000 0.256718 0.201205
0.000000 0.256779 0.202670
0.000000 0.260197 0.200839
0.000000 0.264134 0.198856
0.117983 0.268620 0.196109
0.179202 0.273564 0.193057
0.264683 0.295293 0.189731
0.341039 0.316106 0.180575
0.404150 0.331640 0.174716
0.470680 0.345892 0.167788
0.542351 0.357092 0.159915
0.618006 0.363958 0.151186
0.690242 0.366217 0.143252
0.754147 0.369360 0.135622
0.807279 0.376745 0.128115
0.851011 0.383520 0.123079
0.888334 0.390234 0.120241
0.920562 0.396918 0.119112
0.948791 0.403540 0.120272
0.973846 0.410071 0.123445
0.996429 0.416815 0.128420
1.000000 0.423957 0.135012
1.000000 0.432105 0.143313
1.000000 0.441596 0.153445
1.000000 0.452399 0.166232
1.000000 0.465187 0.181582
0.000000 0.294408 0.202365
0.000000 0.294224 0.202396
0.000000 0.293797 0.202609
0.000000 0.292973 0.203128
0.000000 0.291875 0.203952
0.000000 0.290562 0.205203
0.000000 0.289158 0.206821
0.000000 0.287816 0.208865
0.000000 0.289769 0.208713
0.000000 0.296880 0.206332
0.133425 0.306096 0.203555
0.200778 0.317327 0.199741
0.263645 0.330022 0.194614
0.325536 0.344060 0.187869
0.400793 0.370001 0.173892
0.466987 0.387854 0.163668
0.536645 0.401190 0.153079
0.608392 0.409796 0.142611
0.677089 0.413886 0.132723
0.738064 0.413794 0.124514
0.790066 0.410864 0.119356
0.834379 0.415045 0.113985
0.872435 0.421271 0.109743
0.905608 0.427497 0.108248
0.934813 0.433356 0.109163
0.960967 0.439277 0.112917
0.984619 0.445411 0.118502
1.000000 0.451972 0.126101
1.000000 0.459327 0.135775
1.000000 0.467903 0.147829
1.000000 0.477790 0.161898
1.000000 0.489082 0.178958
0.000000 0.333074 0.205142
0.000000 0.332860 0.205203
0.000000 0.332097 0.205509
0.000000 0.331518 0.206119
0.000000 0.330724 0.207004
0.000000 0.329778 0.208255
0.000000 0.329076 0.209934
0.000000 0.328588 0.212100
0.000000 0.328435 0.214878
0.000000 0.336187 0.212222
0.127810 0.346014 0.208682
0.197726 0.357977 0.204166
0.258824 0.371496 0.198093
0.317998 0.386114 0.190463
0.378393 0.400610 0.180728
0.451942 0.423407 0.163241
0.526848 0.443458 0.145357
0.596887 0.453712 0.131228
0.663600 0.459358 0.118593
0.723171 0.460761 0.108217
0.774655 0.459297 0.101289
0.819364 0.456214 0.097322
0.858457 0.452918 0.096010
0.892576 0.458839 0.093782
0.922637 0.464485 0.095094
0.949584 0.469886 0.099794
0.974060 0.475257 0.107088
0.996704 0.480995 0.116762
1.000000 0.487495 0.128817
1.000000 0.495125 0.142855
1.000000 0.503929 0.159030
1.000000 0.514092 0.177890
0.000000 0.388495 0.205509
0.000000 0.388220 0.205570
0.000000 0.387182 0.205997
0.000000 0.385748 0.206607
0.000000 0.383825 0.207584
0.000000 0.381598 0.209110
0.000000 0.379797 0.210819
0.000000 0.378363 0.213077
0.000000 0.377630 0.216037
0.000000 0.380682 0.216770
0.101808 0.390784 0.212619
0.183291 0.403082 0.207370
0.246372 0.416754 0.200687
0.305150 0.431159 0.192233
0.365026 0.445319 0.181735
0.427771 0.458045 0.168704
0.502647 0.475257 0.147860
0.585412 0.496437 0.118196
0.650813 0.503075 0.100801
0.709377 0.505455 0.084932
0.760311 0.505058 0.064790
0.804959 0.503044 0.051331
0.844297 0.499763 0.048829
0.879393 0.495583 0.055421
0.910643 0.494667 0.066285
0.938323 0.499641 0.080446
0.963684 0.504692 0.093446
0.987366 0.510124 0.107088
1.000000 0.516381 0.122438
1.000000 0.523766 0.140139
1.000000 0.532311 0.160220
1.000000 0.542290 0.182864
0.000000 0.444404 0.203098
0.000000 0.444526 0.203159
0.000000 0.443793 0.203525
0.000000 0.442939 0.204288
0.000000 0.441352 0.205386
0.000000 0.439887 0.207004
0.000000 0.438727 0.209079
0.000000 0.437903 0.211795
0.000000 0.437476 0.215000
0.000000 0.437354 0.218906
0.000000 0.444343 0.216312
0.153109 0.454932 0.210300
0.224369 0.466377 0.202823
0.285985 0.477943 0.194003
0.346441 0.489296 0.183078
0.408637 0.499916 0.169986
0.475441 0.509667 0.153872
0.549248 0.520470 0.130495
0.635157 0.541924 0.078584
0.693904 0.545617 0.032013
0.745724 0.546777 0.000458
0.790921 0.545983 0.000000
0.830869 0.543847 0.000000
0.866606 0.540734 0.000000
0.898802 0.536858 0.013275
0.928374 0.532464 0.039734
0.954864 0.534722 0.073579
0.979248 0.539696 0.098756
1.000000 0.545251 0.118166
1.000000 0.551629 0.139162
1.000000 0.558953 0.161410
1.000000 0.567651 0.185702
0.000000 0.499855 0.199039
0.000000 0.499763 0.199069
0.000000 0.499245 0.199649
0.000000 0.498390 0.200320
0.000000 0.497292 0.201724
0.000000 0.495979 0.203525
0.000000 0.494759 0.205966
0.000000 0.493843 0.209049
0.000000 0.493111 0.212650
0.000000 0.492561 0.216983
0.000000 0.493233 0.220829
0.073976 0.502739 0.214542
0.189364 0.513115 0.206851
0.260594 0.523339 0.197726
0.325109 0.533196 0.186862
0.389563 0.542290 0.173678
0.456214 0.550225 0.158083
0.525994 0.557488 0.138430
0.595727 0.562860 0.113313
0.681270 0.583795 0.000000
0.732784 0.585565 0.000000
0.778164 0.585595 0.000000
0.818296 0.584192 0.000000
0.854368 0.581750 0.000000
0.886992 0.578637 0.000000
0.916960 0.575067 0.008301
0.944884 0.571344 0.050294
0.971069 0.567834 0.090669
0.994659 0.573083 0.116365
1.000000 0.578973 0.140871
1.000000 0.585809 0.165866
1.000000 0.593866 0.192477
0.000000 0.557031 0.195834
0.000000 0.557427 0.195865
0.000000 0.588830 0.197818
0.000000 0.588098 0.199069
0.000000 0.587152 0.200748
0.000000 0.585687 0.202976
0.000000 0.583978 0.206271
0.000000 0.582361 0.210391
0.000000 0.581170 0.215152
0.000000 0.580011 0.221225
0.000000 0.578882 0.228061
0.000000 0.581842 0.228489
0.164218 0.588525 0.220462
0.253910 0.594812 0.211002
0.326390 0.600397 0.199985
0.395422 0.605097 0.187045
0.463020 0.608667 0.171786
0.530083 0.611566 0.153170
0.596368 0.614069 0.130343
0.659998 0.615869 0.098970
0.734859 0.631861 0.000000
0.777523 0.630854 0.000000
0.815518 0.628748 0.000000
0.849821 0.625666 0.000000
0.880919 0.621698 0.000000
0.909636 0.617456 0.024445
0.936553 0.612970 0.074128
0.962127 0.608881 0.101381
0.986816 0.605371 0.122591
1.000000 0.605402 0.144839
1.000000 0.611658 0.172091
1.000000 0.619043 0.200229
0.000000 0.616083 0.199893
0.000000 0.618585 0.200778
0.000000 0.621057 0.201877
0.000000 0.622980 0.203616
0.000000 0.623896 0.205997
0.000000 0.623499 0.208499
0.000000 0.622278 0.211734
0.000000 0.620691 0.215885
0.000000 0.619165 0.220920
0.000000 0.617762 0.226963
0.000000 0.616388 0.234073
0.000000 0.614893 0.242100
0.122255 0.619257 0.236606
0.229343 0.624262 0.228305
0.306279 0.628870 0.218570
0.375860 0.632807 0.207248
0.442634 0.636042 0.194156
0.508110 0.638972 0.178744
0.572808 0.641474 0.160708
0.635615 0.643854 0.138491
0.694728 0.646143 0.109133
0.763546 0.661433 0.000000
0.803342 0.660822 0.000000
0.837827 0.658473 0.000000
0.869078 0.655177 0.006622
0.897948 0.651423 0.056245
0.925017 0.647517 0.095674
0.950835 0.643824 0.117037
0.975799 0.640742 0.137240
1.000000 0.638514 0.157626
1.000000 0.637171 0.178531
1.000000 0.641718 0.205478
0.000000 0.652369 0.210452
0.000000 0.654627 0.211917
0.000000 0.656855 0.213718
0.000000 0.658686 0.216007
0.000000 0.659663 0.218723
0.000000 0.659419 0.221561
0.000000 0.658381 0.224826
0.000000 0.656977 0.228916
0.000000 0.655512 0.233982
0.000000 0.653956 0.239841
0.000000 0.652491 0.246830
0.000000 0.650752 0.255039
0.114015 0.650416 0.259525
0.224979 0.654292 0.252171
0.301366 0.657984 0.243748
0.368750 0.661128 0.233982
0.433204 0.663783 0.222538
0.495308 0.666072 0.209751
0.556542 0.668116 0.195102
0.616052 0.670192 0.178164
0.672663 0.672206 0.158572
0.726162 0.674556 0.134279
0.786465 0.686702 0.080903
0.826688 0.688838 0.040620
0.857969 0.686275 0.078950
0.887022 0.683040 0.100618
0.914183 0.679622 0.119722
0.940154 0.676387 0.138827
0.965240 0.673823 0.158419
0.989746 0.671962 0.178531
1.000000 0.671015 0.199496
1.000000 0.671015 0.221378
0.000000 0.685267 0.229007
0.000000 0.687129 0.230686
0.000000 0.688808 0.232822
0.000000 0.690211 0.235386
0.000000 0.690913 0.238346
0.000000 0.690639 0.241093
0.000000 0.689815 0.244297
0.000000 0.688594 0.248234
0.000000 0.687282 0.253178
0.000000 0.685786 0.259068
0.000000 0.684352 0.265873
0.000000 0.682673 0.273838
0.150271 0.680598 0.282444
0.243748 0.681849 0.281285
0.312505 0.684779 0.274113
0.374914 0.687587 0.265965
0.435065 0.690364 0.256962
0.493843 0.693050 0.246891
0.552056 0.695735 0.236271
0.608606 0.698543 0.224521
0.662928 0.701503 0.211673
0.713985 0.704585 0.197238
0.762112 0.707576 0.180026
0.815091 0.717952 0.154788
0.855467 0.723079 0.143923
0.884398 0.720912 0.158419
0.911589 0.718379 0.173404
0.937530 0.716030 0.190158
0.962554 0.714199 0.209110
0.987030 0.713130 0.229252
1.000000 0.712947 0.250401
1.000000 0.713619 0.272984
0.000000 0.724910 0.267277
0.000000 0.725551 0.268284
0.000000 0.725887 0.269505
0.000000 0.725856 0.270848
0.000000 0.725429 0.272557
0.000000 0.724544 0.274632
0.000000 0.723384 0.277256
0.000000 0.722103 0.280766
0.000000 0.720790 0.285374
0.000000 0.719448 0.291234
0.000000 0.718074 0.298070
0.119570 0.716426 0.305882
0.232853 0.714412 0.314305
0.303410 0.712306 0.322911
0.355840 0.714473 0.316503
0.406775 0.716518 0.309300
0.457221 0.718471 0.301335
0.507744 0.720363 0.292576
0.557702 0.722255 0.283146
0.607141 0.724117 0.272862
0.654597 0.726131 0.261784
0.700496 0.728328 0.249790
0.744564 0.730465 0.236423
0.786740 0.732601 0.221134
0.833127 0.740566 0.202640
0.873899 0.748074 0.190127
0.901213 0.746395 0.204440
0.927337 0.744747 0.220188
0.952605 0.743526 0.237278
0.977142 0.742977 0.257237
1.000000 0.743191 0.278599
1.000000 0.744259 0.301213
0.000000 0.749966 0.299809
0.000000 0.750454 0.300725
0.000000 0.750729 0.301915
0.000000 0.750698 0.303441
0.000000 0.750362 0.304936
0.000000 0.749630 0.306950
0.000000 0.748623 0.309514
0.000000 0.747463 0.312902
0.000000 0.746273 0.317327
0.000000 0.744961 0.322881
0.124025 0.743526 0.329351
0.229282 0.741970 0.336950
0.297337 0.740108 0.345129
0.353765 0.738033 0.354253
0.400305 0.737545 0.357397
0.441291 0.739498 0.351476
0.483284 0.741451 0.345006
0.525902 0.743374 0.337987
0.568688 0.745296 0.330266
0.611200 0.747372 0.322057
0.652979 0.749477 0.313420
0.694026 0.751736 0.303960
0.734005 0.754055 0.293797
0.773007 0.756405 0.282567
0.806210 0.754116 0.259037
0.847745 0.760433 0.244266
0.889616 0.770901 0.231693
0.915892 0.769986 0.246525
0.941253 0.769436 0.263432
0.966064 0.769436 0.282017
0.990417 0.770321 0.303960
1.000000 0.772091 0.327367
0.000000 0.777554 0.346349
0.000000 0.778225 0.347997
0.000000 0.778408 0.349187
0.000000 0.778012 0.349767
0.000000 0.777157 0.350164
0.000000 0.775875 0.350805
0.000000 0.774289 0.351659
0.000000 0.772519 0.353307
0.107240 0.770565 0.355901
0.196933 0.768704 0.359564
0.257420 0.766598 0.364233
0.310002 0.764523 0.370153
0.356878 0.762295 0.376837
0.400061 0.759823 0.384375
0.439704 0.757015 0.392279
0.471839 0.757473 0.388647
0.504479 0.758816 0.381811
0.539086 0.760433 0.375036
0.575189 0.762325 0.368383
0.612268 0.764614 0.361883
0.649500 0.767056 0.355077
0.686183 0.769497 0.347631
0.722225 0.771756 0.338903
0.757412 0.773800 0.328832
0.792050 0.775540 0.316869
0.826169 0.777127 0.303685
0.863218 0.781918 0.290837
0.905241 0.794644 0.279850
0.930724 0.794247 0.291691
0.955352 0.794522 0.309545
0.979675 0.795682 0.329717
1.000000 0.797818 0.352850
0.000000 0.795743 0.379919
0.000000 0.796353 0.381598
0.000000 0.796628 0.383062
0.075196 0.796445 0.384192
0.127077 0.795956 0.385229
0.166934 0.795224 0.386694
0.205447 0.794308 0.388739
0.244083 0.793210 0.391547
0.282109 0.792081 0.395178
0.320073 0.790799 0.399878
0.356817 0.789334 0.405127
0.393194 0.787716 0.411383
0.428168 0.785824 0.417975
0.461585 0.783658 0.424964
0.493233 0.781277 0.432319
0.522118 0.779446 0.437507
0.546105 0.780728 0.431525
0.572045 0.782254 0.425452
0.600122 0.784146 0.419684
0.629755 0.786374 0.414130
0.660426 0.788815 0.408515
0.691554 0.791379 0.402564
0.722713 0.793912 0.395850
0.753841 0.796353 0.388159
0.784939 0.798581 0.379309
0.816098 0.800687 0.369177
0.847410 0.802701 0.358038
0.880705 0.806668 0.348272
0.922545 0.821561 0.341619
0.948486 0.823117 0.352880
0.972595 0.824796 0.372503
0.996674 0.827329 0.394079
0.286229 0.816709 0.424201
0.289738 0.816983 0.425208
0.294224 0.817014 0.425818
0.301427 0.816770 0.426551
0.311009 0.816251 0.427405
0.323644 0.815518 0.428595
0.339605 0.814633 0.430182
0.358923 0.813565 0.432532
0.380713 0.812436 0.435584
0.405158 0.811215 0.439643
0.430884 0.809842 0.444282
0.457496 0.808438 0.449805
0.484199 0.806851 0.455970
0.510430 0.805051 0.462409
0.535943 0.802976 0.469123
0.560571 0.800748 0.476265
0.581445 0.800565 0.476509
0.601434 0.802121 0.471168
0.623560 0.803983 0.466163
0.647486 0.806241 0.461616
0.672786 0.808743 0.457130
0.698817 0.811337 0.452247
0.725368 0.813870 0.446601
0.752407 0.816312 0.440162
0.779690 0.818662 0.432746
0.807431 0.820798 0.424201
0.835691 0.822904 0.415076
0.864530 0.824949 0.404852
0.895628 0.828977 0.396674
0.935302 0.843412 0.393683
0.963470 0.848600 0.403388
0.987823 0.851865 0.425208
0.390539 0.835477 0.464057
0.392645 0.835691 0.464881
0.395911 0.835813 0.465705
0.400885 0.835691 0.466682
0.408240 0.835508 0.468116
0.418555 0.835325 0.470222
0.433234 0.835294 0.473915
0.450568 0.835355 0.478553
0.470161 0.835477 0.484199
0.491493 0.835630 0.490944
0.513909 0.835782 0.498390
0.536126 0.835782 0.506157
0.558129 0.835569 0.514122
0.579461 0.835019 0.521965
0.599817 0.834104 0.529503
0.619104 0.832731 0.536645
0.637842 0.831235 0.543938
0.652583 0.832822 0.540551
0.668788 0.834867 0.536919
0.686549 0.837217 0.533562
0.705684 0.839811 0.530266
0.725948 0.842466 0.526574
0.747005 0.845060 0.522301
0.768887 0.847593 0.517357
0.791470 0.849973 0.511589
0.814847 0.852262 0.504936
0.839139 0.854459 0.497719
0.864317 0.856687 0.489906
0.890440 0.858946 0.481605
0.919036 0.863127 0.475654
0.956237 0.877195 0.476539
0.986786 0.885832 0.485451
0.500175 0.862760 0.525231
0.500633 0.862730 0.525292
0.501640 0.862577 0.525475
0.503746 0.862303 0.525719
0.507408 0.861936 0.526299
0.512749 0.861448 0.527337
0.519921 0.860960 0.529015
0.529015 0.860441 0.531304
0.540063 0.859922 0.534447
0.552758 0.859403 0.538231
0.566735 0.858854 0.542748
0.581750 0.858274 0.547906
0.597467 0.857603 0.553460
0.613428 0.856779 0.559289
