20 Preset/Art Style/【3】LUT video cho PR-AE-FCPX/Portra 400.cube
# Created by Adobe Lightroom plugin Export LUT (1.24.0)
# www.johnrellis.com/lightroom/exportlut.htm
# Preset: Portra 400
# Color profile: E:\lut插件\exportlut.1.24\exportlut.lrplugin\color profiles\Rec709gamma2.4.icc
LUT_3D_SIZE 5
DOMAIN_MIN 0.000000 0.000000 0.000000
DOMAIN_MAX 0.903226 0.903226 0.903226
0.000000 0.000000 0.000000
0.083955 0.062501 0.010101
0.557641 0.029969 0.000000
0.958862 0.000000 0.000000
1.000000 0.150179 0.000000
0.000000 0.173007 0.093568
0.000000 0.183780 0.086336
0.531762 0.221469 0.000000
0.950378 0.213657 0.000000
1.000000 0.313787 0.000000
0.000000 0.557641 0.124910
0.000000 0.541772 0.149477
0.488411 0.589837 0.000000
0.895720 0.574212 0.000000
1.000000 0.556512 0.000000
0.000000 0.799435 0.363745
0.204318 0.795651 0.375891
0.520012 0.784329 0.406104
0.771847 0.789334 0.329534
1.000000 0.794186 0.285283
0.613153 0.940551 0.634394
0.631464 0.939483 0.639277
0.683101 0.927550 0.642664
0.778225 0.933410 0.652430
0.908629 0.944213 0.617090
0.000000 0.041657 0.187320
0.029755 0.060243 0.194278
0.528801 0.000000 0.195651
0.953521 0.000000 0.215793
1.000000 0.169894 0.229770
0.000000 0.190188 0.207828
0.000000 0.192233 0.210636
0.546990 0.176364 0.213016
0.941741 0.153902 0.210727
1.000000 0.318120 0.229984
0.000000 0.554345 0.256016
0.000000 0.546014 0.243656
0.483070 0.562707 0.216403
0.882475 0.547234 0.179568
1.000000 0.568566 0.252903
0.229221 0.796017 0.428046
0.349340 0.792844 0.438972
0.567193 0.779873 0.472755
0.778012 0.786221 0.410986
0.996399 0.792813 0.381811
0.622827 0.940002 0.651148
0.639704 0.938659 0.654932
0.702846 0.935393 0.674464
0.789029 0.937469 0.682307
0.914153 0.948394 0.651087
0.000000 0.048493 0.505180
0.282811 0.000000 0.511528
0.642359 0.000000 0.523491
0.923674 0.000000 0.422644
1.000000 0.000000 0.421485
0.000000 0.223362 0.516808
0.216861 0.214725 0.519158
0.652003 0.124941 0.531090
0.925017 0.000000 0.441505
1.000000 0.331731 0.466560
0.000000 0.593530 0.529412
0.000000 0.590661 0.529015
0.611444 0.577203 0.531426
0.865843 0.612940 0.557427
1.000000 0.655909 0.589380
0.499153 0.789883 0.596185
0.551324 0.783932 0.600153
0.659236 0.777218 0.607568
0.799466 0.782040 0.600183
0.982910 0.789029 0.587732
0.662989 0.935180 0.716426
0.670527 0.935546 0.714290
0.715511 0.934081 0.718288
0.800290 0.931304 0.737911
0.916197 0.942748 0.709560
0.258457 0.148775 0.775692
0.394385 0.141024 0.777829
0.718074 0.153384 0.785580
0.938750 0.215610 0.784146
1.000000 0.201053 0.680568
0.283513 0.293919 0.775235
0.413184 0.300175 0.776028
0.713527 0.342473 0.778408
0.918456 0.381476 0.775326
1.000000 0.355322 0.682460
0.346868 0.610071 0.753384
0.466712 0.612696 0.754818
0.691646 0.620935 0.761532
0.868528 0.638056 0.766934
1.000000 0.597467 0.700313
0.519219 0.793820 0.758877
0.558465 0.790829 0.757229
0.680476 0.785550 0.757687
0.824155 0.780026 0.760128
0.980316 0.809689 0.786221
0.641199 0.942870 0.797269
0.660334 0.942199 0.798795
0.733669 0.940642 0.808255
0.824186 0.936675 0.818326
0.928862 0.941497 0.810483
0.620966 0.443061 0.950134
0.664118 0.457435 0.949493
0.787015 0.513024 0.946899
0.920897 0.594812 0.944030
1.000000 0.600183 0.943236
0.639948 0.533562 0.946380
0.676417 0.542657 0.945922
0.787045 0.578515 0.944305
0.916167 0.634394 0.942962
1.000000 0.634668 0.942779
0.655787 0.686702 0.939055
0.684474 0.689601 0.939178
0.778531 0.702083 0.939757
0.900450 0.727871 0.941497
1.000000 0.725063 0.942687
0.649226 0.825742 0.932341
0.667384 0.825437 0.932494
0.738827 0.823178 0.933745
0.865141 0.825223 0.940764
0.992493 0.837736 0.944884
0.659846 0.957427 0.940185
0.675166 0.957122 0.940429
0.734432 0.955566 0.941009
0.835691 0.953063 0.942687
0.959625 0.950439 0.946136
