20 Preset/Art Style/【3】LUT video cho PR-AE-FCPX/Portra 800 Alt 2.cube
# Created by Adobe Lightroom plugin Export LUT (1.24.0)
# www.johnrellis.com/lightroom/exportlut.htm
# Preset: Portra 800 Alt 2
# Color profile: E:\lut插件\exportlut.1.24\exportlut.lrplugin\color profiles\Rec709gamma2.4.icc
LUT_3D_SIZE 8
DOMAIN_MIN 0.000000 0.000000 0.000000
DOMAIN_MAX 0.903226 0.903226 0.903226
0.000000 0.121279 0.191165
0.000000 0.121401 0.191073
0.162997 0.120424 0.192752
0.407141 0.000000 0.192203
0.682094 0.000000 0.188479
0.868711 0.000000 0.187625
1.000000 0.000000 0.195560
1.000000 0.000000 0.216495
0.000000 0.129244 0.194858
0.000000 0.129854 0.192386
0.146578 0.136965 0.191714
0.375311 0.103914 0.190616
0.651118 0.000000 0.186221
0.847929 0.000000 0.184543
1.000000 0.000000 0.190311
1.000000 0.000000 0.209201
0.000000 0.202609 0.217807
0.000000 0.207431 0.213993
0.138033 0.199130 0.195956
0.370733 0.211551 0.183658
0.637659 0.165164 0.170901
0.853971 0.000000 0.167636
1.000000 0.000000 0.174716
1.000000 0.000000 0.196414
0.000000 0.415625 0.290410
0.000000 0.423072 0.282475
0.000000 0.449134 0.284428
0.409766 0.402228 0.186954
0.679438 0.386755 0.145663
0.854551 0.342565 0.116854
1.000000 0.317723 0.117464
1.000000 0.362982 0.150027
0.145144 0.631830 0.435340
0.180758 0.636347 0.433478
0.336217 0.657191 0.445106
0.478004 0.657649 0.411231
0.640986 0.583124 0.205051
0.823606 0.536217 0.139376
0.966430 0.507530 0.006561
1.000000 0.541894 0.000000
0.471351 0.779049 0.580804
0.488106 0.789914 0.586908
0.519982 0.807187 0.584741
0.648707 0.832853 0.617762
0.707698 0.797024 0.525628
0.812039 0.723445 0.306096
0.965026 0.710872 0.205570
1.000000 0.727077 0.000000
0.649714 0.917662 0.725551
0.657893 0.920897 0.727230
0.680476 0.928435 0.725368
0.754665 0.939574 0.742245
0.842649 0.944701 0.756374
0.879911 0.911894 0.623651
0.959777 0.859709 0.420630
1.000000 0.866117 0.314153
0.847074 0.985870 0.868925
0.850248 0.986175 0.868986
0.864622 0.987396 0.870298
0.895109 0.988952 0.876799
0.931609 0.986938 0.884794
0.958099 0.985229 0.863035
0.992279 0.976623 0.747738
1.000000 0.961761 0.545830
0.000000 0.122499 0.198215
0.000000 0.122683 0.196414
0.143679 0.122408 0.196078
0.354101 0.101961 0.192782
0.634791 0.000000 0.186648
0.835874 0.000000 0.184604
1.000000 0.000000 0.189731
1.000000 0.000000 0.207126
0.000000 0.130526 0.200870
0.000000 0.131411 0.201297
0.137697 0.136660 0.199344
0.350408 0.125002 0.193820
0.625147 0.000000 0.184329
0.830289 0.000000 0.181704
0.987732 0.000000 0.186252
1.000000 0.000000 0.202182
0.000000 0.194522 0.226169
0.000000 0.199496 0.229313
0.132601 0.197910 0.209476
0.357153 0.206302 0.197086
0.615869 0.170626 0.179934
0.824491 0.000000 0.166110
0.986511 0.000000 0.171542
1.000000 0.000000 0.189212
0.000000 0.385870 0.292271
0.000000 0.392187 0.297490
0.040253 0.430671 0.303960
0.376104 0.375921 0.211643
0.630060 0.360784 0.176761
0.810758 0.321202 0.152499
0.969512 0.290501 0.122927
1.000000 0.317967 0.147280
0.001648 0.616968 0.430640
0.202213 0.618006 0.437385
0.319982 0.637598 0.441169
0.466224 0.639307 0.418311
0.616693 0.563073 0.225803
0.798917 0.518975 0.171603
0.944976 0.491249 0.117128
1.000000 0.517662 0.000000
0.450935 0.761715 0.570611
0.474891 0.764828 0.575921
0.507958 0.783017 0.575555
0.629541 0.812711 0.606653
0.694575 0.783413 0.527733
0.800290 0.713558 0.321996
0.953552 0.700008 0.230869
1.000000 0.712703 0.097658
0.626825 0.905272 0.712123
0.638605 0.905364 0.713680
0.660700 0.913756 0.711696
0.733577 0.928466 0.727657
0.833890 0.938964 0.752926
0.869627 0.904356 0.622278
0.946624 0.847440 0.420844
1.000000 0.852018 0.313909
0.829160 0.983581 0.859403
0.839811 0.983948 0.863462
0.854551 0.985351 0.864652
0.885252 0.987640 0.870390
0.937407 0.987549 0.892515
0.960510 0.985534 0.870756
0.991119 0.976287 0.752956
1.000000 0.960815 0.551446
0.000000 0.129397 0.236545
0.000000 0.128695 0.235843
0.087129 0.129213 0.226596
0.346563 0.057893 0.230838
0.648280 0.000000 0.228794
0.844205 0.000000 0.216281
1.000000 0.000000 0.193149
1.000000 0.000000 0.202731
0.000000 0.142397 0.242863
0.000000 0.140566 0.244480
0.099794 0.141360 0.235660
0.350805 0.099855 0.235019
0.635065 0.000000 0.232486
0.834989 0.000000 0.219242
0.992584 0.000000 0.193606
1.000000 0.000000 0.197696
0.000000 0.197574 0.264652
0.000000 0.199649 0.265660
0.126131 0.206607 0.269657
0.372229 0.209781 0.260899
0.636408 0.178927 0.246128
0.833738 0.113283 0.227756
0.989075 0.000000 0.200168
1.000000 0.093477 0.182681
0.000000 0.362585 0.320958
0.000000 0.371221 0.327092
0.187655 0.401923 0.354192
0.392645 0.388556 0.295293
0.634668 0.373877 0.262333
0.820066 0.349737 0.244083
0.977844 0.334722 0.214664
1.000000 0.358068 0.148348
0.000000 0.594232 0.441779
0.082979 0.596857 0.448646
0.382788 0.609125 0.481239
0.534722 0.644678 0.506920
0.627070 0.570886 0.331518
0.796597 0.532036 0.279637
0.945769 0.513481 0.241611
1.000000 0.542596 0.178286
0.422553 0.743526 0.573388
0.450019 0.746822 0.579461
0.541314 0.757992 0.600824
0.627832 0.792599 0.619654
0.708217 0.782040 0.579644
0.795102 0.710231 0.403967
0.944793 0.702846 0.332280
1.000000 0.722316 0.258976
0.606775 0.899168 0.716762
0.621149 0.899443 0.719203
0.681117 0.903960 0.733577
0.731655 0.921721 0.738766
0.845090 0.938689 0.782345
0.875822 0.907988 0.666926
0.948943 0.852720 0.482521
1.000000 0.861418 0.397864
0.807858 0.982910 0.856840
0.817105 0.982574 0.859159
0.857023 0.982330 0.872313
0.889342 0.985870 0.879545
0.938170 0.986816 0.898802
0.966735 0.986023 0.893767
0.990936 0.977722 0.787503
1.000000 0.962524 0.590936
0.000000 0.141848 0.319768
0.000000 0.140871 0.323339
0.063569 0.141299 0.319097
0.261112 0.136690 0.304601
0.571618 0.000000 0.318975
0.828519 0.000000 0.303227
0.990723 0.000000 0.320378
1.000000 0.000000 0.288640
0.000000 0.159091 0.330266
0.000000 0.157382 0.333532
0.078157 0.157931 0.330755
0.277440 0.154726 0.316075
0.581689 0.000000 0.327184
0.829587 0.000000 0.316228
0.986358 0.000000 0.324926
1.000000 0.000000 0.292058
0.000000 0.217380 0.351019
0.000000 0.218448 0.352178
0.000000 0.222202 0.359808
0.312993 0.228397 0.347997
0.620569 0.208499 0.359258
0.835325 0.242679 0.370794
0.991211 0.265476 0.354498
1.000000 0.286870 0.311925
0.000000 0.358282 0.399603
0.000000 0.360113 0.400183
0.000000 0.370947 0.405158
0.386053 0.389563 0.417914
0.630823 0.398810 0.406287
0.805661 0.401465 0.391852
0.963653 0.406317 0.369726
1.000000 0.429969 0.327459
0.000000 0.554894 0.460731
0.000000 0.557061 0.464607
0.245975 0.569970 0.486336
0.529503 0.598657 0.538537
0.630243 0.575891 0.466896
0.784451 0.553521 0.423621
0.944060 0.558740 0.401556
1.000000 0.589288 0.360510
0.361486 0.719631 0.583734
0.399268 0.726680 0.593042
0.495460 0.735409 0.609949
0.639826 0.759518 0.648646
0.750576 0.799100 0.673304
0.796506 0.715480 0.516381
0.936065 0.713405 0.461189
1.000000 0.739925 0.410224
0.547509 0.881743 0.716548
0.566094 0.884092 0.720912
0.635645 0.891569 0.737423
0.752346 0.906767 0.772610
0.846006 0.933318 0.805325
0.892119 0.918944 0.747799
0.948821 0.858305 0.566339
1.000000 0.867704 0.496864
0.763821 0.983185 0.856474
0.775479 0.983001 0.859098
0.822782 0.982483 0.871244
0.898100 0.982330 0.896941
0.937652 0.985718 0.908446
0.977447 0.986938 0.927642
0.990265 0.979767 0.841367
1.000000 0.965301 0.656947
0.000000 0.165438 0.435035
0.000000 0.165225 0.439673
0.000000 0.168063 0.439063
0.292363 0.160983 0.435828
0.488197 0.138460 0.421271
0.745693 0.166018 0.438178
0.945251 0.084413 0.429725
1.000000 0.211032 0.439521
0.000000 0.183597 0.442634
0.000000 0.183536 0.447272
0.000000 0.185733 0.449317
0.300969 0.180209 0.443641
0.499245 0.166934 0.430030
0.748135 0.203586 0.445472
0.945342 0.162112 0.437140
1.000000 0.258488 0.448707
0.000000 0.243046 0.456703
0.000000 0.243290 0.458259
0.000000 0.247288 0.469642
0.322972 0.254368 0.470497
0.523705 0.262486 0.455970
0.746578 0.301305 0.465949
0.940520 0.291997 0.459815
1.000000 0.377691 0.478584
0.000000 0.358282 0.493996
0.000000 0.359838 0.494453
0.000000 0.368017 0.497841
0.334844 0.387793 0.510918
0.562127 0.413550 0.505119
0.763149 0.437903 0.513390
0.941802 0.463996 0.520348
1.000000 0.493416 0.500542
0.000000 0.524743 0.537591
0.000000 0.526604 0.538476
0.000000 0.532372 0.541375
0.382361 0.542199 0.548119
0.598047 0.556054 0.560937
0.763516 0.564904 0.551751
0.925353 0.577844 0.537316
1.000000 0.605493 0.508598
0.000000 0.659449 0.572503
0.000000 0.660273 0.574182
0.299046 0.661158 0.578393
0.498787 0.678523 0.606073
0.687617 0.717311 0.659052
0.772000 0.699245 0.598505
0.914092 0.702419 0.559930
1.000000 0.740078 0.534203
0.405859 0.839170 0.699367
0.424292 0.839719 0.700740
0.499184 0.845731 0.710750
0.634394 0.864744 0.741024
0.802701 0.894102 0.795346
0.902129 0.923064 0.824186
0.934447 0.851408 0.643488
1.000000 0.858000 0.578668
0.604822 0.975738 0.833707
0.621942 0.975677 0.835752
0.688930 0.975738 0.845640
0.808682 0.977966 0.873472
0.924834 0.979553 0.912352
0.974640 0.985199 0.936187
0.988251 0.980865 0.894011
1.000000 0.963500 0.721096
0.000000 0.206516 0.560571
0.000000 0.207309 0.563104
0.000000 0.211582 0.563165
0.258091 0.214694 0.565423
0.521599 0.207156 0.563836
0.687526 0.215091 0.543389
0.869383 0.340093 0.561181
1.000000 0.363317 0.580194
0.000000 0.219181 0.556481
0.000000 0.219608 0.557946
0.000000 0.224430 0.561395
0.255802 0.227573 0.561944
0.514885 0.223209 0.559838
0.680964 0.234989 0.541527
0.861845 0.351507 0.559991
1.000000 0.370153 0.578088
0.000000 0.278080 0.571130
0.000000 0.278996 0.572412
0.000000 0.285954 0.579278
0.281010 0.293980 0.577813
0.529534 0.303075 0.574792
0.689662 0.329656 0.560327
0.862486 0.424109 0.582483
1.000000 0.426368 0.595239
0.000000 0.378027 0.592035
0.000000 0.378546 0.591028
0.000000 0.383825 0.590692
0.312596 0.409827 0.605005
0.560388 0.434638 0.607263
0.709834 0.466407 0.599451
0.883330 0.517144 0.623285
1.000000 0.510735 0.624811
0.000000 0.505394 0.613794
0.000000 0.506432 0.613733
0.000000 0.511498 0.614008
0.318730 0.522026 0.616205
0.549737 0.542016 0.627436
0.716182 0.569360 0.629480
0.899565 0.589380 0.646906
1.000000 0.608057 0.647150
0.000000 0.647883 0.648371
0.000000 0.650446 0.650538
0.158053 0.652155 0.651484
0.399084 0.656184 0.654688
0.570733 0.663966 0.662226
0.749416 0.687068 0.685359
0.919615 0.708217 0.681788
1.000000 0.739864 0.663691
0.190311 0.800961 0.716793
0.234257 0.803067 0.718959
0.343084 0.805722 0.721828
0.480446 0.812131 0.728145
0.653986 0.835843 0.757198
0.863066 0.884611 0.828244
0.925231 0.853269 0.741970
1.000000 0.858030 0.684779
0.382940 0.960876 0.832456
0.402625 0.960632 0.832700
0.485298 0.962188 0.837858
0.624414 0.967010 0.852781
0.799313 0.971710 0.881376
0.955474 0.977630 0.932280
0.993103 0.984100 0.947845
1.000000 0.963836 0.805478
0.000000 0.267338 0.673915
0.000000 0.269505 0.675166
0.000000 0.277836 0.676417
0.237125 0.284276 0.675013
0.493172 0.289250 0.671290
0.700771 0.302861 0.666011
0.821622 0.335454 0.646998
0.980255 0.446754 0.676173
0.000000 0.278508 0.672450
0.000000 0.280735 0.673793
0.000000 0.289830 0.676020
0.239689 0.295689 0.673945
0.493050 0.301610 0.670436
0.698024 0.316014 0.665003
0.818143 0.347875 0.646418
0.976318 0.453223 0.675166
0.000000 0.324376 0.676509
0.000000 0.325902 0.677180
0.000000 0.334173 0.679866
0.265568 0.347936 0.680812
0.504875 0.357855 0.677394
0.702052 0.377234 0.673121
0.821622 0.411353 0.659693
0.981567 0.497688 0.691920
0.000000 0.401312 0.684260
0.000000 0.400671 0.682734
0.000000 0.406744 0.684199
0.270115 0.427710 0.691249
0.519097 0.446967 0.692012
0.709041 0.468147 0.690181
0.829557 0.499886 0.683345
0.990021 0.564965 0.718013
0.000000 0.513848 0.705592
0.000000 0.513603 0.704585
0.000000 0.514305 0.702144
0.192813 0.515190 0.698421
0.498024 0.535790 0.707759
0.705653 0.556085 0.711727
0.839811 0.586694 0.711666
1.000000 0.641108 0.750546
0.000000 0.649928 0.737453
0.000000 0.650202 0.737331
0.000000 0.650599 0.736599
0.272892 0.650385 0.735225
0.478004 0.647639 0.733639
0.679225 0.654688 0.746487
0.862913 0.694881 0.759213
1.000000 0.731014 0.788418
0.000000 0.792142 0.784329
0.000000 0.792630 0.784787
0.000000 0.792935 0.785214
0.338689 0.794217 0.786709
0.521599 0.796658 0.790036
0.700130 0.804410 0.799252
0.891661 0.831205 0.826535
1.000000 0.856107 0.820523
0.000000 0.944366 0.864805
0.000000 0.944701 0.865293
0.213138 0.946441 0.867521
0.415412 0.948699 0.870756
0.596094 0.951507 0.875578
0.802518 0.959655 0.896513
0.982788 0.976562 0.952758
1.000000 0.965576 0.894285
0.000000 0.399329 0.836881
0.000000 0.401587 0.837217
0.000000 0.410468 0.836118
0.370581 0.414832 0.832792
0.575341 0.419715 0.827207
0.755642 0.427985 0.819577
0.903166 0.446021 0.813443
0.984283 0.469154 0.793698
0.000000 0.406683 0.835264
0.000000 0.408850 0.835660
0.000000 0.416297 0.835386
0.369818 0.422858 0.831998
0.573785 0.427497 0.826596
0.753841 0.435676 0.819181
0.900969 0.452674 0.812650
0.982300 0.475257 0.793179
0.000000 0.440711 0.836423
0.000000 0.442145 0.836484
0.000000 0.447852 0.835996
0.370459 0.459388 0.836027
0.573541 0.463081 0.830472
0.752590 0.469581 0.823117
0.900450 0.485298 0.816739
0.983062 0.506889 0.800198
0.000000 0.498085 0.840360
0.000000 0.499306 0.840513
0.000000 0.503197 0.840238
0.326055 0.511894 0.841367
0.559197 0.519188 0.839231
0.747005 0.523949 0.833524
0.900725 0.538476 0.827481
0.987030 0.561547 0.815488
0.000000 0.590478 0.854704
0.000000 0.589807 0.854459
0.000000 0.583825 0.851316
0.000000 0.579339 0.847135
0.488350 0.581872 0.850095
0.718654 0.586328 0.847745
0.894347 0.600885 0.843565
0.991852 0.630793 0.836210
0.000000 0.720668 0.878477
0.000000 0.718990 0.877714
0.000000 0.713008 0.875059
0.000000 0.701472 0.870939
0.348913 0.679133 0.864439
0.633570 0.665522 0.868559
0.879850 0.684230 0.870268
0.998749 0.727047 0.868254
0.000000 0.859739 0.908934
0.000000 0.858976 0.908659
0.000000 0.855589 0.907591
0.000000 0.849088 0.905943
0.350774 0.836942 0.903075
0.572168 0.814847 0.898314
0.811887 0.791775 0.899748
0.996979 0.844938 0.905943
0.000000 0.968048 0.940002
0.000000 0.967681 0.939910
0.000000 0.966491 0.939788
0.202274 0.964385 0.939879
0.463630 0.960540 0.939849
0.660822 0.954711 0.939818
0.849027 0.949157 0.941253
0.995819 0.959655 0.955016
