20 Preset/Art Style/【3】LUT video cho PR-AE-FCPX/Portra 800 Desaturated.cube
# Created by Adobe Lightroom plugin Export LUT (1.24.0)
# www.johnrellis.com/lightroom/exportlut.htm
# Preset: Portra 800 Desaturated
# Color profile: E:\lut插件\exportlut.1.24\exportlut.lrplugin\color profiles\Rec709gamma2.4.icc
LUT_3D_SIZE 8
DOMAIN_MIN 0.000000 0.000000 0.000000
DOMAIN_MAX 0.903226 0.903226 0.903226
0.081361 0.120211 0.100435
0.104616 0.124056 0.101930
0.165652 0.135409 0.105776
0.288640 0.146090 0.107790
0.465980 0.142458 0.108034
0.672724 0.103975 0.110628
0.880461 0.120058 0.124239
1.000000 0.260075 0.169619
0.077089 0.142794 0.109041
0.098878 0.145235 0.109255
0.164553 0.151522 0.109834
0.281468 0.161318 0.111147
0.452216 0.161990 0.112917
0.651087 0.144625 0.115206
0.859098 0.156161 0.126223
0.989319 0.267857 0.166629
0.048646 0.203677 0.133181
0.094850 0.203159 0.135714
0.172030 0.210849 0.133516
0.315007 0.219455 0.129549
0.472938 0.227695 0.131472
0.682033 0.243748 0.135714
0.880949 0.293645 0.157351
0.994690 0.376074 0.205692
0.052857 0.314183 0.182742
0.114809 0.312169 0.185031
0.203189 0.311772 0.192538
0.342382 0.347753 0.186252
0.534081 0.392462 0.174411
0.728634 0.400824 0.180972
0.877440 0.442817 0.207889
0.978515 0.495399 0.258488
0.000000 0.503166 0.258335
0.007263 0.501701 0.260655
0.211490 0.500938 0.272648
0.333135 0.517540 0.278080
0.503288 0.544335 0.260868
0.706996 0.569879 0.245274
0.847227 0.576745 0.270329
0.952880 0.602564 0.324681
0.133150 0.670222 0.366888
0.192477 0.675654 0.375280
0.291691 0.673701 0.384863
0.409735 0.670436 0.403967
0.537743 0.680385 0.397711
0.689021 0.694209 0.389075
0.834012 0.717189 0.395605
0.931579 0.725399 0.442390
0.469215 0.787045 0.520287
0.480995 0.787686 0.523857
0.513115 0.785336 0.529229
0.568627 0.782437 0.542504
0.631220 0.781003 0.552361
0.709438 0.790402 0.549371
0.802335 0.802060 0.548119
0.906706 0.822538 0.559747
0.658625 0.885100 0.688960
0.661799 0.884916 0.689815
0.676387 0.884764 0.695094
0.703914 0.885313 0.706722
0.725887 0.875456 0.704250
0.769223 0.882902 0.713832
0.823880 0.894224 0.719051
0.889097 0.903563 0.720089
0.084962 0.126406 0.117098
0.105715 0.128786 0.118196
0.164706 0.134035 0.118013
0.279210 0.150118 0.129641
0.450904 0.145968 0.135073
0.646723 0.117708 0.142031
0.850217 0.114412 0.156374
0.980865 0.239994 0.189303
0.079988 0.147555 0.122774
0.103548 0.149020 0.124453
0.165682 0.156741 0.128115
0.283299 0.165011 0.132601
0.450263 0.164523 0.138064
0.643000 0.149538 0.144686
0.840238 0.155276 0.158236
0.970764 0.254276 0.187961
0.097139 0.206363 0.151186
0.108553 0.206577 0.149538
0.176883 0.212284 0.150423
0.313329 0.218082 0.149416
0.465095 0.227085 0.153719
0.661769 0.241184 0.161990
0.847929 0.274388 0.178439
0.972961 0.353674 0.215640
0.103883 0.308415 0.194827
0.129671 0.307652 0.195224
0.209934 0.307591 0.205692
0.331090 0.332311 0.198184
0.498360 0.363897 0.189029
0.682582 0.373785 0.194369
0.843473 0.411994 0.213901
0.957855 0.470344 0.255619
0.000000 0.497780 0.267857
0.093141 0.495064 0.269291
0.219791 0.491341 0.278813
0.329656 0.500389 0.283452
0.483589 0.523033 0.265690
0.684993 0.550164 0.251530
0.831815 0.560174 0.274113
0.941344 0.590265 0.323217
0.126741 0.660578 0.366400
0.171115 0.660456 0.368994
0.275090 0.659297 0.378820
0.396155 0.658137 0.398993
0.525109 0.669673 0.396368
0.681147 0.686793 0.391394
0.826932 0.709865 0.396765
0.925200 0.717586 0.439185
0.452247 0.778958 0.511986
0.458015 0.777310 0.511284
0.491890 0.774777 0.516350
0.552850 0.772793 0.531090
0.622431 0.773526 0.546349
0.701900 0.783078 0.543297
0.794553 0.793179 0.538659
0.899382 0.812833 0.547295
0.648737 0.879118 0.679866
0.654231 0.879973 0.682918
0.668666 0.879606 0.687770
0.697139 0.880278 0.699733
0.733364 0.880247 0.715145
0.771878 0.884337 0.719692
0.823148 0.893095 0.720089
0.888151 0.902220 0.720516
0.090242 0.140749 0.165499
0.112764 0.142672 0.167239
0.179141 0.148836 0.174899
0.296574 0.143954 0.176242
0.474739 0.104189 0.184207
0.681056 0.094545 0.221530
0.873411 0.180270 0.261662
0.988952 0.303197 0.297917
0.090333 0.163851 0.174868
0.113008 0.162844 0.176455
0.184726 0.167178 0.182315
0.303105 0.161166 0.182559
0.474525 0.141024 0.192691
0.680079 0.159945 0.234623
0.863096 0.204654 0.259800
0.980957 0.312963 0.294438
0.095979 0.221897 0.201450
0.124086 0.222599 0.202609
0.208072 0.223850 0.208072
0.338231 0.230655 0.217899
0.495338 0.242954 0.231785
0.696590 0.263951 0.252384
0.863066 0.310521 0.276097
0.974701 0.392584 0.312383
0.158175 0.331914 0.254490
0.187472 0.333837 0.257816
0.253605 0.336919 0.261326
0.358495 0.354711 0.264958
0.527214 0.379736 0.266941
0.709224 0.401892 0.281346
0.857053 0.445594 0.307378
0.961151 0.503502 0.347509
0.202914 0.514733 0.338811
0.211795 0.514488 0.335821
0.257450 0.514641 0.330449
0.364294 0.518608 0.346227
0.513451 0.542443 0.333410
0.700923 0.562402 0.327092
0.837552 0.570092 0.347997
0.941161 0.608026 0.396765
0.268833 0.666407 0.420294
0.278080 0.667262 0.419287
0.329717 0.666255 0.420050
0.433356 0.663264 0.436500
0.545251 0.670283 0.440589
0.687282 0.687678 0.437293
0.826474 0.711055 0.446723
0.924498 0.722164 0.488502
0.497780 0.783658 0.549248
0.498634 0.782650 0.546593
0.522942 0.779477 0.547845
0.574884 0.776394 0.559075
0.637964 0.774472 0.576410
0.710842 0.785306 0.574975
0.800473 0.798123 0.575097
0.902556 0.819303 0.588006
0.656825 0.880949 0.694179
0.659236 0.880247 0.694087
0.673182 0.879698 0.698299
0.703151 0.881682 0.711971
0.738399 0.881559 0.726192
0.777707 0.886015 0.735378
0.827481 0.895476 0.736538
0.890929 0.904723 0.736721
0.088930 0.159915 0.263737
0.124544 0.161868 0.267826
0.222049 0.167544 0.276768
0.341314 0.164828 0.291875
0.468513 0.139162 0.284611
0.674861 0.000000 0.298466
0.868803 0.000000 0.316838
0.982696 0.284977 0.378790
0.085878 0.182284 0.278904
0.127901 0.183566 0.281041
0.231327 0.186831 0.287907
0.351141 0.183474 0.300969
0.476478 0.159945 0.290288
0.683650 0.067445 0.305852
0.869322 0.000305 0.323857
0.978607 0.326421 0.391485
0.111543 0.249638 0.301671
0.145663 0.249454 0.303593
0.242618 0.244053 0.311101
0.367529 0.246067 0.321172
0.510430 0.239628 0.318791
0.721462 0.244297 0.342657
0.879271 0.346685 0.394354
0.971466 0.466346 0.451484
0.156191 0.369055 0.352789
0.185946 0.369146 0.353002
0.274266 0.372198 0.357275
0.392920 0.379553 0.366613
0.550500 0.406012 0.382727
0.721218 0.438819 0.403235
0.855772 0.487953 0.431128
0.953979 0.545983 0.468116
0.181216 0.550256 0.415869
0.214908 0.549004 0.416358
0.316045 0.548791 0.422980
0.428016 0.552850 0.433997
0.558373 0.566918 0.436988
0.722133 0.580438 0.441047
0.843778 0.602167 0.466590
0.938506 0.638300 0.507012
0.380316 0.686122 0.504570
0.406317 0.689998 0.511620
0.464851 0.687129 0.518120
0.512596 0.686641 0.514275
0.600702 0.686000 0.528344
0.708461 0.699306 0.521843
0.830777 0.718715 0.531762
0.924407 0.730190 0.565454
0.573297 0.788418 0.617365
0.576562 0.788846 0.617090
0.587610 0.789090 0.613825
0.616724 0.788937 0.614557
0.671412 0.786282 0.630426
0.729793 0.792996 0.633112
0.808255 0.804257 0.630060
0.904509 0.824796 0.642847
0.689113 0.887053 0.735378
0.690303 0.886961 0.734768
0.696010 0.886992 0.733089
0.715328 0.887205 0.736995
0.748775 0.886534 0.748623
0.786893 0.888396 0.761044
0.833494 0.898466 0.762081
0.896025 0.909056 0.763668
0.104616 0.189029 0.412177
0.155428 0.190127 0.416480
0.271366 0.192325 0.424231
0.405676 0.197757 0.440284
0.544976 0.185550 0.459144
0.681758 0.145724 0.437018
0.843046 0.093294 0.428260
0.973632 0.244266 0.457893
0.119997 0.210330 0.423743
0.167544 0.211337 0.427771
0.280217 0.212894 0.434852
0.410620 0.218631 0.446448
0.551629 0.210361 0.465522
0.686519 0.179202 0.441657
0.845335 0.159548 0.434333
0.972442 0.279149 0.463844
0.172671 0.286351 0.445167
0.198459 0.284184 0.447669
0.288670 0.280613 0.455543
0.422644 0.294743 0.467659
0.561425 0.295872 0.478584
0.688502 0.276341 0.449866
0.846311 0.295048 0.455268
0.963836 0.379858 0.484169
0.178042 0.412055 0.477302
0.205570 0.412665 0.477943
0.291600 0.417212 0.482033
0.423957 0.420356 0.495094
0.579187 0.434211 0.506004
0.709071 0.424475 0.482460
0.851560 0.470985 0.508537
0.949676 0.541863 0.547967
0.189731 0.567315 0.518242
0.221988 0.568109 0.519219
0.317845 0.569726 0.521996
0.448280 0.571862 0.526848
0.585840 0.572534 0.532830
0.722072 0.594232 0.550195
0.835721 0.624353 0.575128
0.928130 0.658961 0.607019
0.347448 0.688869 0.559594
0.366247 0.688777 0.560754
0.429450 0.685756 0.562676
0.529870 0.683864 0.572107
0.620050 0.682551 0.582116
0.715816 0.698238 0.595087
0.828672 0.716976 0.611261
0.919127 0.736324 0.642176
0.559014 0.793698 0.654200
0.564172 0.792569 0.653681
0.589807 0.790188 0.655207
0.645686 0.789822 0.667872
0.686091 0.790555 0.670619
0.740078 0.791745 0.682979
0.810239 0.803220 0.678737
0.901701 0.820890 0.688197
0.679438 0.884916 0.752468
0.683772 0.884550 0.753353
0.701991 0.883604 0.758083
0.728115 0.886717 0.765805
0.750454 0.887846 0.766995
0.791318 0.887968 0.781949
0.834867 0.896391 0.785336
0.895781 0.906737 0.784756
0.187869 0.234165 0.587213
0.223178 0.235752 0.589837
0.324895 0.241825 0.596094
0.466926 0.258824 0.611994
0.635645 0.287541 0.627405
0.766537 0.281102 0.633173
0.850156 0.287480 0.594018
0.952575 0.315953 0.572961
0.196109 0.252720 0.584375
0.228458 0.254002 0.585931
0.324895 0.260166 0.592157
0.459602 0.275029 0.603754
0.625299 0.302403 0.619287
0.757809 0.297581 0.626734
0.843503 0.302373 0.589807
0.947448 0.327001 0.569665
0.214237 0.336217 0.610254
0.243900 0.337652 0.610742
0.339910 0.345464 0.614557
0.471992 0.357702 0.617273
0.632502 0.386633 0.629114
0.757839 0.389197 0.635920
0.842130 0.390936 0.602014
0.943114 0.411566 0.584436
0.245640 0.483650 0.624506
0.271794 0.482704 0.624445
0.363348 0.485176 0.629053
0.493111 0.491279 0.642481
0.649683 0.519646 0.654505
0.760464 0.526635 0.660182
0.841184 0.521080 0.630060
0.938262 0.545953 0.629389
0.290501 0.602930 0.637690
0.311009 0.603082 0.637873
0.386450 0.604578 0.639521
0.498085 0.608362 0.643977
0.628870 0.610742 0.655451
0.742123 0.621607 0.665187
0.828275 0.611475 0.640986
0.928405 0.648493 0.670619
0.418097 0.708583 0.667933
0.435309 0.710170 0.670436
0.482643 0.709346 0.671260
0.557641 0.708248 0.673548
0.644404 0.707210 0.677058
0.738186 0.711604 0.687709
0.834379 0.735500 0.712764
0.918975 0.760952 0.738460
0.559838 0.808865 0.721798
0.568658 0.809598 0.723445
0.595209 0.808804 0.725124
0.642573 0.807431 0.728695
0.704341 0.805875 0.735866
0.763210 0.805051 0.744594
0.822171 0.812741 0.747555
0.908782 0.828061 0.758572
0.669276 0.893614 0.788571
0.671748 0.892882 0.788052
0.685603 0.891997 0.788754
0.715023 0.892241 0.793515
0.759731 0.891875 0.802914
0.796353 0.893309 0.808011
0.841428 0.897307 0.820249
0.899901 0.908324 0.818662
0.288090 0.319982 0.739254
0.312688 0.322576 0.740078
0.398718 0.332708 0.742702
0.531884 0.353216 0.748196
0.676631 0.388922 0.755001
0.796658 0.450385 0.763821
0.879850 0.450660 0.765164
0.930297 0.460273 0.722133
0.296239 0.341802 0.740322
0.319982 0.344305 0.740993
0.403723 0.353704 0.743526
0.534112 0.372778 0.748379
0.676844 0.407599 0.755245
0.794919 0.466316 0.763912
0.877562 0.466011 0.765225
0.928466 0.473152 0.723018
0.314916 0.417029 0.744869
0.337530 0.418982 0.745357
0.419806 0.427588 0.747524
0.544945 0.445350 0.751858
0.678645 0.476631 0.758145
0.789944 0.525353 0.766903
0.870359 0.524132 0.768643
0.923095 0.525719 0.730495
0.378546 0.545098 0.748836
0.395941 0.544762 0.748806
0.442420 0.536553 0.752316
0.555810 0.547173 0.756802
0.678309 0.570459 0.763363
0.782650 0.604089 0.772732
0.859617 0.603632 0.775448
0.915801 0.598657 0.743709
0.410285 0.649287 0.753964
0.423407 0.649287 0.754055
0.479286 0.649378 0.755703
0.572107 0.649439 0.760891
0.671565 0.653162 0.769741
0.773800 0.675929 0.780087
0.849485 0.679438 0.785061
0.911131 0.671687 0.760861
0.511467 0.736416 0.774350
0.519799 0.736416 0.774502
0.551354 0.736202 0.775204
0.604761 0.735988 0.776547
0.672908 0.736080 0.778714
0.760250 0.740383 0.789334
0.842008 0.752132 0.799130
0.910033 0.742763 0.780117
0.590967 0.817563 0.800046
0.596155 0.817624 0.800229
0.616815 0.817502 0.800992
0.654475 0.817533 0.802609
0.706020 0.817899 0.805234
0.767086 0.818967 0.809140
0.834775 0.821347 0.814878
0.916136 0.843076 0.835050
0.663661 0.904479 0.839384
0.666957 0.904540 0.839628
0.681971 0.904723 0.840818
0.710018 0.904845 0.843168
0.750576 0.905058 0.846921
0.801511 0.905303 0.852811
0.854704 0.906065 0.861082
0.909728 0.914336 0.865049
0.498329 0.490150 0.867369
0.512627 0.492897 0.867521
0.565911 0.503380 0.868009
0.648066 0.525048 0.869169
0.737453 0.557946 0.871214
0.821592 0.599298 0.874388
0.896483 0.645228 0.879118
0.958373 0.633448 0.879179
0.504509 0.506065 0.867063
0.518395 0.508476 0.867216
0.569940 0.518273 0.867796
0.649714 0.538201 0.868986
0.737606 0.568841 0.871122
0.820890 0.607965 0.874418
0.895567 0.652186 0.879301
0.957061 0.639857 0.879332
0.523796 0.559564 0.866911
0.535821 0.561425 0.867124
0.582177 0.568872 0.867704
0.655543 0.584649 0.869291
0.738338 0.608484 0.871641
0.818967 0.640162 0.875303
0.892393 0.677333 0.880613
0.952789 0.665644 0.880797
0.551629 0.633692 0.867002
0.557397 0.632166 0.867552
0.594842 0.635462 0.868528
0.661250 0.646265 0.870329
0.738582 0.663569 0.873289
0.815885 0.687098 0.877592
0.887602 0.716213 0.883665
0.946715 0.706447 0.884306
0.575616 0.710018 0.867674
0.583368 0.709987 0.867979
0.613092 0.709865 0.869108
0.666712 0.711635 0.871977
0.732387 0.717556 0.876280
0.809262 0.735500 0.881437
0.881468 0.759243 0.888457
0.940459 0.754025 0.890105
0.606775 0.781094 0.875029
0.611139 0.780941 0.875059
0.629206 0.780392 0.875120
0.663020 0.779477 0.875395
0.722560 0.778470 0.879179
0.795499 0.784665 0.886656
0.873503 0.805905 0.895293
0.935088 0.807858 0.899016
0.656733 0.851438 0.890562
0.659998 0.851377 0.890593
0.673640 0.851072 0.890837
0.699672 0.850675 0.891417
0.737850 0.850004 0.892363
0.786648 0.849271 0.893736
0.858213 0.853727 0.902373
0.931151 0.865568 0.911009
0.703120 0.920836 0.910582
0.705623 0.920836 0.910704
0.716213 0.920928 0.911131
0.736843 0.921172 0.912078
0.768154 0.921660 0.913664
0.810025 0.922454 0.916014
0.862913 0.923857 0.919524
0.927550 0.926452 0.924895
