20 Preset/Art Style/【3】LUT video cho PR-AE-FCPX/Portra 800 High-key Desaturated.cube
# Created by Adobe Lightroom plugin Export LUT (1.24.0)
# www.johnrellis.com/lightroom/exportlut.htm
# Preset: Portra 800 High-key Desaturated
# Color profile: E:\lut插件\exportlut.1.24\exportlut.lrplugin\color profiles\Rec709gamma2.4.icc
LUT_3D_SIZE 5
DOMAIN_MIN 0.000000 0.000000 0.000000
DOMAIN_MAX 0.903226 0.903226 0.903226
0.175357 0.168917 0.165316
0.188815 0.167117 0.163241
0.482490 0.177554 0.142458
0.814572 0.214969 0.035492
0.984588 0.344457 0.000000
0.153140 0.212009 0.167330
0.213504 0.210880 0.157748
0.506188 0.256596 0.125490
0.822324 0.313725 0.000000
0.979492 0.412238 0.000000
0.298528 0.610315 0.439979
0.376043 0.639246 0.442664
0.587030 0.573693 0.290043
0.817411 0.555077 0.214633
0.949462 0.575402 0.277897
0.713008 0.781552 0.722896
0.734798 0.785702 0.730556
0.793668 0.799649 0.754543
0.789792 0.754116 0.607996
0.894499 0.722072 0.526726
0.845670 0.817441 0.795071
0.849821 0.817746 0.796445
0.855283 0.818997 0.797848
0.862638 0.819760 0.799313
0.857603 0.812528 0.767849
0.169711 0.163729 0.169894
0.192752 0.162844 0.171756
0.517357 0.118471 0.166903
0.817319 0.198062 0.138369
0.974273 0.343053 0.127108
0.164614 0.212741 0.199741
0.247105 0.230259 0.210544
0.539483 0.251652 0.190311
0.821256 0.305577 0.154940
0.969512 0.402258 0.163760
0.278080 0.569451 0.445472
0.413825 0.594415 0.477485
0.582971 0.562097 0.363653
0.809903 0.556756 0.315251
0.943511 0.578302 0.347173
0.700435 0.775448 0.719753
0.730282 0.779110 0.730465
0.792386 0.795895 0.755306
0.791287 0.753567 0.634150
0.890715 0.724880 0.561669
0.843168 0.817044 0.794369
0.847623 0.817288 0.795804
0.857084 0.818997 0.798886
0.864500 0.820066 0.800717
0.859129 0.813169 0.772976
0.182406 0.200992 0.376135
0.260502 0.209720 0.388190
0.504204 0.229099 0.410742
0.832120 0.254368 0.427466
0.970916 0.360876 0.386450
0.213016 0.284428 0.437354
0.298894 0.295384 0.448371
0.547051 0.325628 0.462898
0.834287 0.341283 0.449409
0.961700 0.430518 0.421759
0.279728 0.527825 0.550286
0.375280 0.538903 0.558495
0.627588 0.581079 0.590631
0.809201 0.587579 0.561669
0.926055 0.597314 0.533806
0.627100 0.746273 0.703975
0.661952 0.749905 0.712001
0.771176 0.770596 0.747890
0.798672 0.754025 0.703120
0.878416 0.738003 0.665949
0.825040 0.814817 0.789670
0.832456 0.815183 0.791745
0.853635 0.816922 0.798123
0.867002 0.820218 0.802853
0.860380 0.812711 0.780301
0.337743 0.351873 0.657801
0.400305 0.362310 0.662165
0.589441 0.405768 0.677577
0.785122 0.458625 0.682063
0.899626 0.578729 0.689235
0.385412 0.417914 0.675135
0.438270 0.425910 0.677760
0.604974 0.461616 0.687739
0.784115 0.507073 0.690272
0.895293 0.598077 0.694270
0.449439 0.557733 0.697383
0.493019 0.563958 0.699641
0.651301 0.607996 0.716609
0.787472 0.644099 0.722469
0.887449 0.659846 0.712978
0.608118 0.719509 0.742184
0.629175 0.721035 0.742672
0.706569 0.730983 0.747707
0.805722 0.751461 0.759274
0.872770 0.747036 0.744015
0.764370 0.806729 0.780667
0.775692 0.807462 0.782376
0.817990 0.810971 0.790219
0.862272 0.816983 0.801511
0.863737 0.813230 0.792355
0.648127 0.605280 0.792447
0.664179 0.609705 0.792233
0.722774 0.628595 0.791653
0.805081 0.663722 0.791196
0.876341 0.685145 0.787503
0.662074 0.627070 0.792142
0.676539 0.630884 0.792020
0.729854 0.646906 0.791592
0.806668 0.677913 0.791409
0.874205 0.697261 0.788235
0.682918 0.675685 0.792203
0.700099 0.681910 0.792294
0.748226 0.696803 0.792447
0.811856 0.718807 0.792874
0.868650 0.735012 0.791409
0.718959 0.740749 0.794919
0.725673 0.741176 0.794736
0.753384 0.743374 0.794217
0.817899 0.763577 0.795804
0.864469 0.780789 0.796628
0.788632 0.801450 0.800229
0.792630 0.801816 0.800229
0.809354 0.803555 0.800351
0.837949 0.807156 0.800778
0.867308 0.813626 0.802792
