20 Preset/Art Style/【3】LUT video cho PR-AE-FCPX/Portra 160 Alt 2.cube
# Created by Adobe Lightroom plugin Export LUT (1.24.0)
# www.johnrellis.com/lightroom/exportlut.htm
# Preset: Portra 160 Alt 2
# Color profile: E:\lut插件\exportlut.1.24\exportlut.lrplugin\color profiles\Rec709gamma2.4.icc
LUT_3D_SIZE 5
DOMAIN_MIN 0.000000 0.000000 0.000000
DOMAIN_MAX 0.903226 0.903226 0.903226
0.166506 0.108339 0.110109
0.246494 0.113191 0.113039
0.521019 0.116701 0.097963
0.862974 0.251530 0.000000
1.000000 0.398138 0.000000
0.178286 0.176822 0.129274
0.239292 0.181430 0.125887
0.507408 0.224552 0.099916
0.848356 0.339544 0.000000
1.000000 0.450172 0.000000
0.000000 0.473091 0.152865
0.016449 0.483406 0.151400
0.490120 0.511681 0.064485
0.810391 0.554253 0.000000
1.000000 0.591913 0.129213
0.000000 0.765805 0.406256
0.000000 0.767666 0.414343
0.487709 0.773526 0.443549
0.742977 0.758907 0.354131
0.958404 0.767391 0.381872
0.531304 0.914000 0.702876
0.561151 0.914488 0.705501
0.654932 0.912840 0.709468
0.789670 0.915099 0.712886
0.920226 0.910765 0.674006
0.183902 0.124147 0.171054
0.238346 0.123781 0.172946
0.508995 0.089113 0.179477
0.842985 0.241611 0.176608
1.000000 0.405493 0.189090
0.201785 0.181613 0.185489
0.254337 0.188022 0.190463
0.506676 0.222812 0.191989
0.832609 0.330816 0.179232
1.000000 0.453895 0.207126
0.000000 0.462226 0.272068
0.148653 0.474769 0.252262
0.484627 0.496315 0.224643
0.795651 0.542840 0.217166
0.993011 0.599176 0.296178
0.129641 0.757076 0.503349
0.212467 0.761715 0.486671
0.509361 0.769406 0.517144
0.740841 0.756588 0.441840
0.950896 0.768307 0.465339
0.557641 0.911009 0.723720
0.572015 0.912291 0.720546
0.671931 0.915038 0.731014
0.797940 0.917174 0.734707
0.922179 0.913207 0.698878
0.151247 0.160464 0.422278
0.250553 0.159487 0.421302
0.474708 0.140169 0.421302
0.805966 0.177188 0.473579
0.995636 0.483345 0.539788
0.191012 0.255192 0.449226
0.262760 0.241550 0.447486
0.489784 0.236423 0.443702
0.805936 0.307713 0.483467
0.982605 0.545708 0.572412
0.000000 0.483894 0.504387
0.235355 0.488594 0.506126
0.508965 0.513512 0.521508
0.775631 0.574090 0.551690
0.959533 0.645197 0.600763
0.253971 0.743038 0.638148
0.351965 0.742153 0.640681
0.554437 0.750484 0.655268
0.737881 0.752132 0.638514
0.930114 0.772824 0.649042
0.563897 0.902708 0.764736
0.601221 0.903044 0.769253
0.679835 0.908446 0.770108
0.807767 0.915709 0.784085
0.919310 0.910735 0.750393
0.000000 0.267185 0.742885
0.242771 0.271672 0.741909
0.501701 0.280156 0.734035
0.745937 0.315282 0.725093
0.925475 0.480568 0.733974
0.170413 0.362524 0.746120
0.284123 0.363714 0.744015
0.508232 0.365881 0.735195
0.739620 0.390326 0.725124
0.920073 0.523552 0.737301
0.312871 0.582788 0.750759
0.384924 0.586969 0.749386
0.540978 0.582238 0.744594
0.725338 0.578088 0.733608
0.918364 0.648035 0.757046
0.400397 0.739071 0.765591
0.447364 0.738705 0.764797
0.584985 0.740932 0.764736
0.744076 0.747311 0.766934
0.928832 0.784939 0.783536
0.523980 0.895995 0.821317
0.553735 0.896452 0.821988
0.657984 0.899748 0.825681
0.805173 0.909636 0.835599
0.921538 0.911254 0.822293
0.456397 0.529473 0.889036
0.492836 0.531945 0.887755
0.613275 0.541619 0.883391
0.768185 0.550805 0.874693
0.921202 0.587152 0.867521
0.486519 0.577539 0.886534
0.517510 0.578515 0.885466
0.623713 0.582208 0.881468
0.768185 0.583856 0.873167
0.917266 0.609796 0.866789
0.570275 0.699825 0.884611
0.597162 0.701534 0.883391
0.654871 0.686793 0.881071
0.772396 0.676234 0.873625
0.910918 0.681483 0.869139
0.593256 0.799557 0.890837
0.612787 0.799283 0.890349
0.686854 0.799863 0.889891
0.785489 0.786801 0.887083
0.913024 0.780240 0.881712
0.616052 0.899046 0.904631
0.633356 0.898955 0.904601
0.700862 0.899901 0.905577
0.804685 0.902190 0.906920
0.924834 0.907286 0.907958
