20 Preset/Art Style/【3】LUT video cho PR-AE-FCPX/Portra 400 Alt.cube
# Created by Adobe Lightroom plugin Export LUT (1.24.0)
# www.johnrellis.com/lightroom/exportlut.htm
# Preset: Portra 400 Alt
# Color profile: E:\lut插件\exportlut.1.24\exportlut.lrplugin\color profiles\Rec709gamma2.4.icc
LUT_3D_SIZE 32
DOMAIN_MIN 0.0 0.0 0.0
DOMAIN_MAX 1.0 1.0 1.0
0.079957 0.118532 0.136843
0.079957 0.118532 0.136843
0.080751 0.118776 0.136812
0.086305 0.118807 0.136995
0.093904 0.119417 0.137087
0.107271 0.120485 0.137270
0.128176 0.122133 0.137453
0.157565 0.123232 0.137453
0.197848 0.122713 0.137301
0.248569 0.119905 0.136385
0.310338 0.110567 0.135286
0.381231 0.089021 0.133486
0.458656 0.000000 0.130739
0.537987 0.000000 0.126619
0.614649 0.000000 0.121645
0.684627 0.000000 0.115602
0.745754 0.000000 0.107973
0.797452 0.000000 0.099763
0.841062 0.000000 0.090639
0.882567 0.000000 0.072145
0.923522 0.000000 0.041291
0.954101 0.092226 0.021942
0.977752 0.167575 0.014862
0.997498 0.216892 0.017975
1.000000 0.257969 0.034577
1.000000 0.294102 0.065827
1.000000 0.328618 0.095796
1.000000 0.361395 0.118410
1.000000 0.393530 0.144717
1.000000 0.425879 0.174807
1.000000 0.458442 0.208408
1.000000 0.491585 0.248295
0.079957 0.118532 0.136843
0.079957 0.118532 0.136843
0.080751 0.118776 0.136812
0.085878 0.119112 0.136965
0.093538 0.119722 0.137301
0.106355 0.120851 0.137484
0.127230 0.122225 0.137484
0.156161 0.123445 0.137453
0.194736 0.123659 0.137301
0.244419 0.120912 0.136477
0.304662 0.112612 0.135439
0.374426 0.092958 0.133761
0.450507 0.009888 0.130892
0.529656 0.000000 0.127199
0.606561 0.000000 0.122408
0.677211 0.000000 0.115846
0.739528 0.000000 0.108858
0.791928 0.000000 0.100404
0.836484 0.000000 0.091524
0.878294 0.000000 0.074830
0.918547 0.000000 0.044312
0.948943 0.057496 0.025513
0.972656 0.155428 0.017426
0.992554 0.206821 0.015869
1.000000 0.247715 0.028931
1.000000 0.284733 0.053559
1.000000 0.319036 0.089540
1.000000 0.352544 0.110933
1.000000 0.385138 0.136599
1.000000 0.417914 0.165621
1.000000 0.450843 0.199588
1.000000 0.484230 0.238346
0.078431 0.119448 0.136965
0.079683 0.119387 0.136965
0.080476 0.119661 0.136934
0.085603 0.119966 0.137118
0.093111 0.120882 0.137392
0.106203 0.122530 0.137514
0.127047 0.123873 0.137758
0.155886 0.125368 0.137697
0.194217 0.125917 0.137301
0.243534 0.123934 0.136385
0.303197 0.116274 0.135378
0.372168 0.099641 0.133608
0.447639 0.033661 0.130739
0.526238 0.000000 0.127077
0.602716 0.000000 0.122286
0.673243 0.000000 0.116060
0.735927 0.000000 0.108553
0.788937 0.000000 0.100374
0.833768 0.000000 0.090883
0.876280 0.000000 0.073976
0.915984 0.000000 0.044709
0.946227 0.087221 0.025605
0.969940 0.159365 0.015991
0.989929 0.208011 0.014984
1.000000 0.248356 0.025116
1.000000 0.283787 0.047761
1.000000 0.317784 0.083986
1.000000 0.350561 0.108797
1.000000 0.383215 0.133120
1.000000 0.415839 0.162020
1.000000 0.448737 0.194919
1.000000 0.481819 0.233463
0.075410 0.121767 0.137911
0.075410 0.121767 0.137911
0.077699 0.121706 0.137667
0.082551 0.122316 0.137819
0.092927 0.123903 0.137545
0.106935 0.125673 0.137850
0.128511 0.127657 0.137972
0.157382 0.129824 0.137606
0.196292 0.130892 0.137087
0.245457 0.129397 0.136355
0.305089 0.123140 0.135195
0.373785 0.109255 0.133059
0.448310 0.072053 0.130251
0.525780 0.000000 0.126619
0.600824 0.000000 0.121798
0.670619 0.000000 0.115389
0.732509 0.000000 0.108156
0.785000 0.000000 0.099489
0.829740 0.000000 0.089815
0.872801 0.000000 0.071565
0.910796 0.000000 0.043580
0.940581 0.107210 0.024323
0.964538 0.167605 0.013489
0.985138 0.212314 0.012451
1.000000 0.251377 0.022004
1.000000 0.287327 0.042634
1.000000 0.321569 0.081239
1.000000 0.354498 0.107485
1.000000 0.386908 0.132418
1.000000 0.418860 0.161776
1.000000 0.450629 0.194369
1.000000 0.482643 0.231846
0.069032 0.125673 0.139345
0.068025 0.125948 0.139559
0.070863 0.126406 0.139254
0.076020 0.126833 0.138735
0.088563 0.127871 0.138521
0.106020 0.132143 0.138003
0.128603 0.134890 0.137758
0.158389 0.137453 0.137514
0.197665 0.139284 0.136873
0.247044 0.138918 0.136202
0.305821 0.134890 0.134859
0.374395 0.124727 0.132479
0.448219 0.104372 0.129641
0.525017 0.040467 0.125734
0.599817 0.000000 0.120607
0.669947 0.000000 0.113893
0.731960 0.000000 0.106294
0.784512 0.000000 0.097169
0.828916 0.000000 0.087434
0.872892 0.000000 0.062715
0.909483 0.077638 0.036530
0.938415 0.147768 0.018158
0.962158 0.191745 0.008667
0.982849 0.230014 0.010315
1.000000 0.266270 0.017487
1.000000 0.299565 0.040620
1.000000 0.331518 0.082155
1.000000 0.362646 0.107301
1.000000 0.393500 0.133669
1.000000 0.424109 0.162387
1.000000 0.454658 0.194736
1.000000 0.485603 0.231174
0.051453 0.133639 0.141665
0.050752 0.133913 0.141634
0.052583 0.134585 0.141543
0.056550 0.135286 0.139834
0.073426 0.136538 0.139590
0.095827 0.138582 0.139376
0.125734 0.147127 0.137972
0.161837 0.150790 0.137392
0.202914 0.153567 0.136446
0.253910 0.154391 0.135225
0.314519 0.152071 0.133455
0.383429 0.144930 0.131350
0.457313 0.132052 0.127871
0.533471 0.110262 0.123781
0.607721 0.066285 0.118013
0.676417 0.000000 0.110628
0.737087 0.000000 0.101991
0.788479 0.000000 0.092195
0.833555 0.012055 0.077150
0.876768 0.110079 0.046662
0.911559 0.156100 0.023133
0.939452 0.194034 0.006348
0.988006 0.277653 0.006378
1.000000 0.308263 0.030854
1.000000 0.336614 0.074189
1.000000 0.364538 0.101778
1.000000 0.391211 0.125521
1.000000 0.417456 0.150820
1.000000 0.444068 0.177951
1.000000 0.470588 0.208652
1.000000 0.497444 0.242710
1.000000 0.524437 0.280339
0.007996 0.149508 0.145480
0.009552 0.149691 0.145235
0.011261 0.150912 0.145052
0.013642 0.152529 0.143252
0.024262 0.153994 0.141176
0.067231 0.156130 0.140688
0.110292 0.160250 0.140108
0.163272 0.176791 0.136599
0.222019 0.181735 0.134676
0.280400 0.182956 0.132906
0.346838 0.181643 0.130587
0.419867 0.177249 0.127321
0.495338 0.169284 0.122683
0.570336 0.158145 0.116945
0.640650 0.145998 0.109804
0.703670 0.138003 0.101198
0.758846 0.137881 0.090578
0.805417 0.146639 0.073854
0.852689 0.169802 0.044007
0.893523 0.201358 0.012970
0.926665 0.231907 0.000000
0.954040 0.262730 0.000000
0.977264 0.293004 0.000000
0.997375 0.323125 0.019287
1.000000 0.351171 0.062562
1.000000 0.377478 0.100984
1.000000 0.402075 0.125338
1.000000 0.426490 0.149752
1.000000 0.451057 0.176242
1.000000 0.475563 0.205692
1.000000 0.500755 0.238437
1.000000 0.526543 0.275395
0.000000 0.170138 0.150057
0.000000 0.170291 0.150027
0.000000 0.171481 0.149813
0.000000 0.173953 0.148959
0.000000 0.176425 0.143557
0.000000 0.179080 0.142519
0.063691 0.182498 0.141756
0.130434 0.189303 0.139925
0.208286 0.213596 0.133120
0.283970 0.219394 0.130007
0.357580 0.220005 0.126711
0.431006 0.218296 0.122499
0.505943 0.214694 0.116915
0.579248 0.209415 0.110201
0.647486 0.204715 0.102480
0.708339 0.203159 0.092439
0.761044 0.205875 0.076509
0.810086 0.216190 0.044678
0.855314 0.234470 0.014832
0.892638 0.255650 0.000000
0.923613 0.277592 0.000000
0.949828 0.301732 0.000000
0.972503 0.325658 0.000000
0.992279 0.350561 0.020813
1.000000 0.374670 0.067140
1.000000 0.397345 0.102724
1.000000 0.419348 0.127047
1.000000 0.440894 0.152438
1.000000 0.463142 0.179202
1.000000 0.486061 0.208408
1.000000 0.509483 0.240635
1.000000 0.533654 0.276371
0.000000 0.199283 0.156252
0.000000 0.199680 0.156161
0.000000 0.201053 0.155703
0.000000 0.203891 0.154940
0.000000 0.207279 0.150790
0.000000 0.210849 0.144198
0.000000 0.214847 0.143435
0.062959 0.219913 0.142061
0.160464 0.229648 0.138399
0.267430 0.261936 0.125002
0.357794 0.268620 0.120211
0.445808 0.270665 0.113527
0.521324 0.268681 0.106630
0.592737 0.266575 0.098207
0.658686 0.265660 0.086763
0.716640 0.265690 0.064240
0.769467 0.271580 0.032776
0.818357 0.282353 0.003967
0.858885 0.295232 0.000000
0.893248 0.310704 0.000000
0.922210 0.327092 0.000000
0.947051 0.344579 0.000000
0.968902 0.363745 0.000000
0.988312 0.383612 0.027436
1.000000 0.403662 0.082612
1.000000 0.422309 0.110933
1.000000 0.441382 0.134920
1.000000 0.460334 0.159670
1.000000 0.480323 0.186160
1.000000 0.500816 0.214939
1.000000 0.522271 0.246647
1.000000 0.544579 0.281956
0.000000 0.238132 0.163790
0.000000 0.238315 0.163729
0.000000 0.239750 0.163210
0.000000 0.242832 0.162112
0.000000 0.247074 0.159548
0.000000 0.250797 0.149142
0.000000 0.255253 0.144259
0.000000 0.260716 0.142977
0.082612 0.267430 0.140139
0.203250 0.278935 0.133974
0.336675 0.318669 0.108614
0.435645 0.325780 0.100923
0.532219 0.331182 0.085664
0.603479 0.329320 0.065217
0.668055 0.328893 0.038575
0.727901 0.332860 0.006073
0.781338 0.340154 0.000000
0.825467 0.348150 0.000000
0.862943 0.357427 0.000000
0.894621 0.367620 0.000000
0.921324 0.378332 0.000000
0.944305 0.389899 0.000000
0.964691 0.403449 0.000000
0.983062 0.417304 0.043427
0.999359 0.432105 0.091554
1.000000 0.446937 0.117159
1.000000 0.462867 0.140963
1.000000 0.479316 0.165469
1.000000 0.496986 0.192050
1.000000 0.515892 0.220768
1.000000 0.535851 0.252598
1.000000 0.556786 0.288212
0.000000 0.282444 0.171908
0.000000 0.282872 0.171786
0.000000 0.284428 0.171176
0.000000 0.287846 0.170260
0.000000 0.293095 0.168368
0.000000 0.298100 0.159854
0.000000 0.303532 0.144472
0.000000 0.309483 0.142885
0.000000 0.316808 0.139773
0.122988 0.324681 0.134768
0.262547 0.338537 0.124514
0.415106 0.383917 0.060761
0.517082 0.391882 0.030152
0.611994 0.399084 0.000000
0.685115 0.404334 0.000000
0.742061 0.406958 0.000000
0.789456 0.409491 0.000000
0.829953 0.413336 0.000000
0.864347 0.417762 0.000000
0.893767 0.422919 0.000000
0.918914 0.428901 0.000000
0.940917 0.435981 0.000000
0.960754 0.445106 0.021057
0.978729 0.454902 0.080201
0.994934 0.465888 0.109133
1.000000 0.477760 0.132601
1.000000 0.490486 0.156130
1.000000 0.504326 0.180087
1.000000 0.519371 0.205783
1.000000 0.536004 0.233951
1.000000 0.553765 0.265049
1.000000 0.572717 0.300114
0.000000 0.336431 0.181491
0.000000 0.336858 0.181521
0.000000 0.338537 0.181003
0.000000 0.341863 0.180056
0.000000 0.347356 0.178225
0.000000 0.354070 0.172641
0.000000 0.359930 0.154482
0.000000 0.366705 0.141756
0.000000 0.374334 0.139040
0.000000 0.382849 0.133272
0.184878 0.390967 0.125917
0.335576 0.405646 0.108186
0.543633 0.490333 0.000000
0.646418 0.503746 0.000000
0.727657 0.511894 0.000000
0.785458 0.513176 0.000000
0.825956 0.510246 0.000000
0.859831 0.507774 0.000000
0.888457 0.506188 0.000000
0.913115 0.505821 0.009827
0.934600 0.506523 0.066224
0.953674 0.508415 0.102968
0.970947 0.512016 0.124544
0.986633 0.517052 0.144778
1.000000 0.523247 0.165164
1.000000 0.530571 0.184298
1.000000 0.538994 0.204959
1.000000 0.548486 0.225772
1.000000 0.559564 0.248936
1.000000 0.572076 0.275212
1.000000 0.586267 0.304021
1.000000 0.602014 0.338293
0.000000 0.410071 0.197452
0.000000 0.410315 0.197482
0.000000 0.411475 0.196902
0.000000 0.414343 0.195499
0.000000 0.418555 0.194095
0.000000 0.425452 0.191562
0.000000 0.430549 0.173617
0.000000 0.437140 0.143191
0.000000 0.444404 0.137972
0.000000 0.454475 0.133425
0.000000 0.470008 0.124575
0.289372 0.484932 0.112154
0.455177 0.506615 0.065003
0.621363 0.558343 0.000000
0.706203 0.565637 0.000000
0.772183 0.568078 0.000000
0.823453 0.567773 0.000000
0.855192 0.561028 0.000336
0.882506 0.555291 0.049622
0.906096 0.550683 0.093690
0.927062 0.547845 0.114137
0.945922 0.546838 0.132326
0.963165 0.547417 0.150515
0.978973 0.549828 0.167300
0.993530 0.553521 0.185153
1.000000 0.558251 0.203708
1.000000 0.564599 0.222995
1.000000 0.572381 0.243046
1.000000 0.581506 0.265507
1.000000 0.592493 0.291478
1.000000 0.604791 0.320104
1.000000 0.618769 0.353399
0.000000 0.468849 0.213718
0.000000 0.468727 0.213382
0.000000 0.469520 0.212802
0.000000 0.471992 0.212009
0.000000 0.475746 0.210513
0.000000 0.483680 0.208621
0.000000 0.492195 0.198672
0.000000 0.500603 0.170565
0.000000 0.510643 0.141939
0.000000 0.521630 0.139284
0.000000 0.533623 0.134218
0.178866 0.545434 0.125460
0.387091 0.555810 0.113283
0.538262 0.571374 0.076600
0.681880 0.611994 0.000000
0.750973 0.613550 0.000000
0.804898 0.612390 0.043183
0.848722 0.609766 0.109224
0.876890 0.602258 0.127016
0.899870 0.594995 0.140475
0.920378 0.589502 0.154482
0.939208 0.586023 0.168185
0.956390 0.584253 0.182864
0.972259 0.584253 0.197543
0.986938 0.585657 0.213901
1.000000 0.588495 0.229770
1.000000 0.592706 0.247593
1.000000 0.598413 0.266911
1.000000 0.605737 0.288151
1.000000 0.614679 0.312810
1.000000 0.625269 0.340795
1.000000 0.637476 0.373022
0.000000 0.538964 0.238743
0.000000 0.539330 0.238376
0.000000 0.539940 0.237766
0.000000 0.541772 0.237369
0.000000 0.545098 0.236271
0.000000 0.550286 0.235172
0.000000 0.557794 0.233738
0.000000 0.563622 0.208042
0.000000 0.571588 0.168826
0.000000 0.579858 0.154818
0.000000 0.588952 0.155062
0.000000 0.597833 0.151064
0.312840 0.605066 0.147005
0.474342 0.610559 0.140902
0.604364 0.620661 0.123140
0.727474 0.653101 0.000000
0.785153 0.651820 0.093874
0.829709 0.648005 0.144686
0.866850 0.644160 0.173709
0.894011 0.637751 0.189334
0.914275 0.629999 0.199283
0.932769 0.624537 0.209110
0.949859 0.620783 0.219974
0.965667 0.618524 0.232792
0.980438 0.617945 0.246128
0.994385 0.618921 0.261234
1.000000 0.621393 0.276951
1.000000 0.625544 0.295628
1.000000 0.631403 0.316808
1.000000 0.639185 0.341619
1.000000 0.648585 0.369879
1.000000 0.659693 0.402625
0.000000 0.597070 0.267521
0.000000 0.597345 0.267765
0.000000 0.598077 0.267521
0.000000 0.599939 0.267247
0.000000 0.602747 0.266850
0.000000 0.607233 0.266880
0.000000 0.613245 0.266911
0.000000 0.619471 0.253635
0.000000 0.625818 0.222782
0.000000 0.633051 0.184604
0.000000 0.638758 0.186465
0.000000 0.644099 0.188815
0.205661 0.647700 0.187259
0.413092 0.649805 0.184573
0.543938 0.650874 0.181186
0.652857 0.656825 0.171176
0.760250 0.683467 0.138155
0.810239 0.681117 0.162783
0.848234 0.676448 0.200473
0.880797 0.672145 0.226322
0.907836 0.667933 0.246281
0.926421 0.661006 0.253574
0.943481 0.655940 0.262821
0.959380 0.652369 0.273320
0.974365 0.650416 0.285069
0.988617 0.649989 0.298680
1.000000 0.651179 0.313970
1.000000 0.653803 0.330907
1.000000 0.657923 0.350713
1.000000 0.663752 0.373754
1.000000 0.671077 0.399908
1.000000 0.680140 0.430396
0.000000 0.642603 0.298772
0.000000 0.642725 0.298955
0.000000 0.643366 0.298894
0.000000 0.644800 0.298863
0.000000 0.647028 0.298863
0.000000 0.650324 0.299504
0.000000 0.654719 0.300633
0.000000 0.660029 0.298955
0.000000 0.664668 0.274662
0.000000 0.670283 0.239475
0.000000 0.675196 0.221530
0.000000 0.678828 0.224491
0.000000 0.681636 0.227146
0.344121 0.682673 0.227176
0.490425 0.682826 0.226474
0.599176 0.682399 0.224887
0.693324 0.687007 0.218875
0.786099 0.708370 0.202640
0.831601 0.706752 0.219638
0.864561 0.701717 0.253574
0.893645 0.698024 0.279057
0.919432 0.695125 0.300847
0.937133 0.689479 0.310430
0.953063 0.684749 0.318822
0.968170 0.681605 0.328496
0.982574 0.679988 0.340429
0.996735 0.679896 0.353918
1.000000 0.681239 0.370001
1.000000 0.684108 0.388525
1.000000 0.688441 0.410101
1.000000 0.694331 0.434699
1.000000 0.701747 0.463020
0.000000 0.681788 0.333135
0.000000 0.682277 0.333410
0.000000 0.700801 0.353094
0.000000 0.701686 0.353857
0.000000 0.703182 0.354559
0.000000 0.705074 0.356176
0.000000 0.707668 0.358373
0.000000 0.710811 0.362127
0.000000 0.714199 0.348028
0.000000 0.718288 0.321416
0.000000 0.722835 0.287205
0.000000 0.724636 0.289097
0.000000 0.725612 0.293919
0.318944 0.725063 0.295567
0.468360 0.723445 0.295354
0.575341 0.721523 0.295140
0.661616 0.719295 0.293645
0.739528 0.721462 0.289982
0.816129 0.737209 0.281651
0.855955 0.735622 0.292485
0.883726 0.730556 0.322545
0.908751 0.726772 0.346929
0.931273 0.723873 0.368322
0.949157 0.719722 0.379644
0.963775 0.714839 0.385504
0.977966 0.711360 0.392859
0.991852 0.709255 0.402686
1.000000 0.708705 0.414649
1.000000 0.709834 0.430243
1.000000 0.712551 0.448981
1.000000 0.716884 0.471046
1.000000 0.722591 0.496071
0.000000 0.718959 0.374273
0.000000 0.720577 0.376226
0.000000 0.722469 0.378332
0.000000 0.724544 0.380865
0.000000 0.726650 0.383734
0.000000 0.728481 0.385840
0.000000 0.730373 0.388739
0.000000 0.732540 0.392401
0.000000 0.735012 0.390661
0.000000 0.738003 0.370001
0.000000 0.741512 0.342687
0.000000 0.744289 0.322759
0.000000 0.744656 0.327001
0.238895 0.744686 0.331426
0.414069 0.743099 0.332586
0.528222 0.741176 0.333104
0.618128 0.739071 0.333471
0.693507 0.737270 0.333959
0.763027 0.739590 0.333135
0.831449 0.753689 0.329717
0.869383 0.753780 0.338781
0.894682 0.749630 0.370001
0.917571 0.746487 0.394842
0.938567 0.744259 0.416480
0.957183 0.741756 0.432197
0.971496 0.737453 0.437507
0.985595 0.734432 0.444923
0.999756 0.732784 0.454536
1.000000 0.732753 0.467659
1.000000 0.734218 0.483894
1.000000 0.737301 0.503166
1.000000 0.741665 0.525444
0.000000 0.742794 0.404974
0.000000 0.744259 0.407080
0.000000 0.745876 0.409522
0.000000 0.747646 0.412665
0.000000 0.749264 0.415351
0.000000 0.750546 0.418250
0.000000 0.751858 0.421149
0.000000 0.753140 0.425483
0.000000 0.754574 0.431373
0.000000 0.756771 0.417151
0.000000 0.759518 0.395300
0.000000 0.762570 0.368719
0.000000 0.763272 0.364446
0.215183 0.762997 0.368658
0.371008 0.762325 0.373205
0.490394 0.760433 0.374548
0.581933 0.758389 0.375433
0.657984 0.756527 0.376806
0.723690 0.754910 0.378698
0.785183 0.757321 0.379278
0.845853 0.769833 0.378820
0.881621 0.770962 0.386999
0.904723 0.767422 0.417243
0.925963 0.764950 0.441627
0.945861 0.763149 0.462837
0.965087 0.761959 0.481514
0.979767 0.758419 0.487892
0.994141 0.755886 0.495064
1.000000 0.754849 0.505730
1.000000 0.755215 0.519158
1.000000 0.757076 0.535912
1.000000 0.760311 0.555535
0.000000 0.764248 0.436683
0.000000 0.765316 0.438727
0.000000 0.766567 0.441169
0.000000 0.767849 0.443732
0.000000 0.768978 0.446754
0.000000 0.769802 0.449531
0.000000 0.770626 0.452766
0.000000 0.771328 0.457221
0.000000 0.772122 0.463416
0.000000 0.773342 0.461097
0.000000 0.775570 0.444160
0.000000 0.778042 0.422583
0.000000 0.780179 0.402502
0.219821 0.779690 0.407385
0.357244 0.779263 0.411933
0.462013 0.778164 0.416175
0.553918 0.776577 0.418433
0.630091 0.775174 0.421607
0.695705 0.774136 0.425666
0.753353 0.773587 0.430793
0.807980 0.776669 0.435004
0.861936 0.788327 0.438880
0.895354 0.790677 0.449378
0.917144 0.788327 0.477089
0.937438 0.786801 0.501518
0.957153 0.785794 0.522362
0.976440 0.785245 0.540673
0.992859 0.783566 0.552178
1.000000 0.781918 0.560815
1.000000 0.781582 0.572503
1.000000 0.782559 0.586847
1.000000 0.784817 0.603754
0.000000 0.788968 0.480262
0.000000 0.789364 0.481270
0.000000 0.789670 0.482399
0.000000 0.789975 0.483680
0.000000 0.790188 0.485389
0.000000 0.790280 0.487739
0.000000 0.790372 0.490913
0.000000 0.790524 0.495369
0.000000 0.790677 0.501366
0.000000 0.790951 0.509575
0.000000 0.792752 0.496620
0.025727 0.794827 0.480690
0.145541 0.797086 0.460700
0.272740 0.797726 0.454047
0.379950 0.797147 0.458717
0.460609 0.796506 0.463783
0.540581 0.795163 0.466621
0.612543 0.793637 0.469612
0.674861 0.792325 0.472602
0.730007 0.791318 0.476539
0.779202 0.790677 0.480903
0.826566 0.793332 0.484657
0.874083 0.803525 0.487922
0.905821 0.806302 0.495766
0.926696 0.804135 0.519341
0.946532 0.802914 0.542046
0.966155 0.802274 0.561883
0.985473 0.802213 0.580652
1.000000 0.802029 0.596246
1.000000 0.800931 0.605921
1.000000 0.801114 0.617914
1.000000 0.802487 0.632563
0.000000 0.805112 0.511345
0.000000 0.805386 0.511986
0.000000 0.805631 0.513237
0.000000 0.805783 0.514641
0.000000 0.805844 0.516442
0.000000 0.805814 0.519036
0.000000 0.805722 0.522148
0.000000 0.805600 0.526787
0.000000 0.805478 0.532952
0.149020 0.805386 0.540917
0.245823 0.806302 0.538506
0.267979 0.808072 0.525841
0.291417 0.809964 0.510857
0.313848 0.812131 0.492622
0.401190 0.811551 0.497322
0.471138 0.811093 0.502312
0.531914 0.810636 0.507591
0.599115 0.809323 0.510491
0.658198 0.808255 0.513970
0.710994 0.807370 0.517815
0.758389 0.806821 0.522087
0.801450 0.806577 0.527184
0.843351 0.809445 0.531243
0.886259 0.819089 0.535271
0.915251 0.820218 0.534356
0.935821 0.818296 0.554498
0.955657 0.817563 0.576715
0.975189 0.817411 0.596948
0.994385 0.817868 0.615930
1.000000 0.818845 0.634577
1.000000 0.818509 0.645411
1.000000 0.819303 0.658045
0.000000 0.822538 0.549096
0.000000 0.822904 0.550408
0.000000 0.823087 0.551293
0.000000 0.822934 0.552331
0.000000 0.822538 0.553491
0.000000 0.821988 0.555047
0.000000 0.821347 0.557336
0.000000 0.820584 0.560815
0.043763 0.819852 0.565637
0.262516 0.819181 0.571923
0.344915 0.818845 0.576623
0.357183 0.820066 0.566003
0.369848 0.821469 0.553216
0.383551 0.823026 0.537926
0.418219 0.823728 0.528710
0.478035 0.822904 0.532036
0.531365 0.822293 0.536156
0.584161 0.821592 0.540124
0.640620 0.820584 0.543236
0.691554 0.819883 0.547265
0.737789 0.819577 0.551995
0.779782 0.819394 0.556909
0.818112 0.819425 0.561669
0.855924 0.822263 0.565026
0.895598 0.831205 0.567834
0.926055 0.835203 0.574060
0.946380 0.833341 0.590784
0.965850 0.832761 0.612146
0.985168 0.832914 0.631434
1.000000 0.833677 0.649897
1.000000 0.835019 0.667964
1.000000 0.835874 0.681422
0.000000 0.834409 0.575463
0.000000 0.834745 0.576593
0.000000 0.834928 0.577722
0.000000 0.834836 0.578973
0.000000 0.834592 0.580621
0.000000 0.834257 0.582940
0.000000 0.833829 0.586053
0.105257 0.833341 0.590295
0.250828 0.832853 0.595575
0.336156 0.832425 0.602075
0.406073 0.831968 0.609674
0.430365 0.832792 0.605829
0.440253 0.834104 0.595850
0.450660 0.835538 0.584070
0.461280 0.837064 0.569970
0.502708 0.836820 0.569543
0.548089 0.836240 0.573053
0.590509 0.835874 0.577356
0.636469 0.835325 0.581079
0.683253 0.834806 0.584619
0.726375 0.834562 0.589014
0.765988 0.834592 0.593652
0.802365 0.834836 0.598413
0.836210 0.835233 0.602991
0.870695 0.838407 0.606500
0.908080 0.847349 0.610193
0.938811 0.852232 0.616449
0.958953 0.850645 0.631525
0.978485 0.850675 0.652003
0.997589 0.851377 0.670863
1.000000 0.852628 0.688685
1.000000 0.854582 0.706416
0.000000 0.847807 0.607477
0.000000 0.847959 0.608270
0.000000 0.847959 0.608972
0.000000 0.847837 0.609918
0.000000 0.847532 0.611414
0.000000 0.847135 0.613367
0.191531 0.846647 0.616052
0.270207 0.846098 0.619745
0.334142 0.845579 0.624414
0.392889 0.845060 0.630304
0.446693 0.844572 0.637079
0.484962 0.844633 0.640436
0.492683 0.845853 0.632471
0.500847 0.847227 0.622889
0.509514 0.848569 0.611597
0.525536 0.849607 0.602319
0.564111 0.849210 0.605493
0.601099 0.848936 0.609308
0.636744 0.848966 0.613977
0.678065 0.848753 0.617670
0.717830 0.848722 0.621607
0.754788 0.848905 0.625879
0.789090 0.849241 0.629938
0.821225 0.849760 0.634272
0.851804 0.850309 0.638270
0.883940 0.853635 0.641382
0.919768 0.862364 0.644831
0.950561 0.867918 0.650294
0.970336 0.866361 0.663264
0.989685 0.866941 0.683284
1.000000 0.868315 0.702022
1.000000 0.870390 0.720302
0.121798 0.860227 0.636439
0.134340 0.860349 0.636927
0.156680 0.860380 0.637690
0.189181 0.860319 0.638819
0.228367 0.860197 0.640620
0.270939 0.860075 0.643122
0.318120 0.860044 0.647028
0.364813 0.860105 0.651881
0.412177 0.860227 0.657954
0.458350 0.860410 0.665217
0.503075 0.860746 0.673365
0.545922 0.861082 0.682551
0.558740 0.862699 0.679683
0.567132 0.864469 0.673823
0.575067 0.866239 0.666163
0.582910 0.867918 0.657008
0.604822 0.868528 0.655207
0.634180 0.868681 0.658778
0.662959 0.869078 0.662867
0.691920 0.869657 0.667475
0.725673 0.870024 0.670954
0.757717 0.870603 0.674556
0.788022 0.871244 0.678065
0.816922 0.872007 0.681544
0.844938 0.872801 0.684962
0.872770 0.873533 0.688350
0.903380 0.877043 0.691066
0.937774 0.885801 0.694057
0.968017 0.892241 0.698970
0.986908 0.890562 0.709987
1.000000 0.891752 0.729091
1.000000 0.893706 0.747005
0.346868 0.878233 0.678859
0.348089 0.878233 0.678920
0.353155 0.878111 0.679316
0.361975 0.877958 0.679896
0.377081 0.877684 0.681056
0.396551 0.877348 0.682826
0.420508 0.877012 0.685298
0.448127 0.876738 0.688533
0.478889 0.876463 0.692866
0.511162 0.876249 0.698085
0.543969 0.876127 0.704036
0.576410 0.876127 0.710750
0.596796 0.876860 0.712520
0.602411 0.878294 0.706966
