20 Preset/Art Style/【3】LUT video cho PR-AE-FCPX/Portra 160 Alt 2.cube
# Created by Adobe Lightroom plugin Export LUT (1.24.0)
# www.johnrellis.com/lightroom/exportlut.htm
# Preset: Portra 160 Alt 2
# Color profile: E:\lut插件\exportlut.1.24\exportlut.lrplugin\color profiles\Rec709gamma2.4.icc
LUT_3D_SIZE 32
DOMAIN_MIN 0.0 0.0 0.0
DOMAIN_MAX 1.0 1.0 1.0
0.166506 0.108339 0.110109
0.167971 0.108370 0.110048
0.171817 0.108858 0.110170
0.180667 0.109133 0.110445
0.193301 0.110262 0.111055
0.208560 0.111360 0.111818
0.226291 0.112520 0.112367
0.246494 0.113191 0.113039
0.269627 0.114107 0.113344
0.297215 0.114229 0.113252
0.330358 0.114656 0.112642
0.369970 0.113924 0.111116
0.416114 0.113191 0.108827
0.467170 0.113649 0.104158
0.521019 0.116701 0.097963
0.575708 0.124300 0.089113
0.629755 0.137331 0.066224
0.681910 0.155215 0.030610
0.731258 0.176486 0.000000
0.777035 0.199374 0.000000
0.823056 0.226261 0.000000
0.862974 0.251530 0.000000
0.896056 0.274937 0.000000
0.925444 0.296574 0.000000
0.952056 0.317357 0.000000
0.976715 0.337652 0.000000
0.999878 0.357733 0.000000
1.000000 0.377783 0.000000
1.000000 0.398138 0.000000
1.000000 0.419104 0.000000
1.000000 0.441047 0.000000
1.000000 0.463569 0.000000
0.167086 0.109194 0.110292
0.168032 0.108980 0.110292
0.172122 0.109407 0.110719
0.180606 0.110109 0.110628
0.193332 0.110903 0.111269
0.208347 0.112032 0.112032
0.225711 0.113313 0.112612
0.245640 0.114076 0.112978
0.268406 0.114870 0.113313
0.295659 0.115480 0.113497
0.328161 0.115389 0.113375
0.367407 0.114778 0.111604
0.413031 0.114076 0.109071
0.463386 0.115145 0.104860
0.517082 0.118166 0.098512
0.571679 0.125429 0.090303
0.625971 0.138308 0.068544
0.678187 0.155520 0.032441
0.727871 0.176120 0.000000
0.773678 0.199252 0.000000
0.819425 0.224887 0.000000
0.858793 0.249851 0.000000
0.891691 0.272862 0.000000
0.920958 0.294469 0.000000
0.947692 0.314763 0.000000
0.972442 0.334966 0.000000
0.995972 0.354894 0.000000
1.000000 0.375006 0.000000
1.000000 0.395239 0.000000
1.000000 0.416358 0.000000
1.000000 0.438025 0.000000
1.000000 0.460548 0.000000
0.167880 0.113100 0.111330
0.168521 0.112978 0.111330
0.172183 0.113161 0.111177
0.181094 0.114015 0.111330
0.193271 0.114900 0.112001
0.208377 0.115633 0.112795
0.225376 0.116670 0.113405
0.244938 0.117556 0.114046
0.267613 0.118654 0.114046
0.294621 0.119112 0.113954
0.326757 0.119570 0.113497
0.365667 0.118959 0.112123
0.410895 0.118959 0.109560
0.460883 0.120516 0.105074
0.514153 0.124269 0.099123
0.568658 0.131777 0.090517
0.622705 0.144381 0.070344
0.675257 0.160922 0.034119
0.724941 0.181216 0.000000
0.770993 0.203586 0.000000
0.816983 0.228611 0.000000
0.856107 0.253117 0.000000
0.889097 0.275273 0.000000
0.918395 0.296269 0.000000
0.945098 0.316167 0.000000
0.969940 0.335882 0.000000
0.993530 0.355627 0.000000
1.000000 0.375402 0.000000
1.000000 0.395636 0.000000
1.000000 0.416449 0.000000
1.000000 0.437964 0.000000
1.000000 0.460456 0.000000
0.169436 0.121218 0.113558
0.170382 0.121035 0.113558
0.173342 0.121340 0.113710
0.181064 0.121798 0.113375
0.194064 0.122438 0.113375
0.208591 0.122683 0.114229
0.225254 0.123445 0.114534
0.244450 0.124361 0.115206
0.267063 0.125154 0.115541
0.293675 0.126040 0.115114
0.325689 0.126558 0.114351
0.364080 0.127657 0.112490
0.408728 0.128939 0.109834
0.458289 0.131014 0.105684
0.511009 0.135531 0.099702
0.564721 0.144015 0.091066
0.618402 0.156130 0.071748
0.670466 0.171878 0.035706
0.720027 0.191165 0.000000
0.766140 0.211948 0.000000
0.812009 0.236332 0.000000
0.850675 0.258640 0.000000
0.883757 0.279881 0.000000
0.913512 0.300175 0.000000
0.940917 0.320348 0.000000
0.966583 0.339788 0.000000
0.990906 0.359350 0.000000
1.000000 0.378943 0.000000
1.000000 0.399023 0.000000
1.000000 0.419593 0.000000
1.000000 0.440742 0.000000
1.000000 0.462531 0.000000
0.173007 0.131258 0.117311
0.173434 0.131441 0.117556
0.176486 0.131411 0.117464
0.182162 0.131930 0.117189
0.192386 0.132296 0.116426
0.208377 0.133516 0.116152
0.224674 0.133547 0.116579
0.243381 0.134035 0.116732
0.265568 0.134707 0.116518
0.292149 0.135805 0.116365
0.323491 0.137301 0.115480
0.361242 0.139162 0.113619
0.405280 0.141695 0.110842
0.454383 0.145602 0.106783
0.506432 0.152102 0.100496
0.560479 0.160922 0.091585
0.614313 0.173404 0.071717
0.666773 0.188418 0.034424
0.716396 0.206851 0.000000
0.763821 0.227176 0.000000
0.809079 0.249699 0.000000
0.847257 0.270634 0.000000
0.880400 0.290471 0.000000
0.910399 0.309789 0.000000
0.938140 0.328618 0.000000
0.964172 0.347753 0.000000
0.988708 0.366552 0.000000
1.000000 0.385657 0.000000
1.000000 0.404913 0.000000
1.000000 0.424811 0.000000
1.000000 0.445289 0.000000
1.000000 0.466651 0.000000
0.175418 0.143191 0.120729
0.176120 0.143313 0.121248
0.178470 0.143618 0.120851
0.183810 0.143893 0.121187
0.192325 0.144472 0.120760
0.205509 0.145235 0.119539
0.224765 0.147097 0.118318
0.243351 0.147341 0.118502
0.265080 0.147829 0.118349
0.291417 0.149081 0.117861
0.322789 0.151278 0.116884
0.360266 0.154421 0.115328
0.403967 0.158572 0.112276
0.452705 0.164431 0.107424
0.504631 0.172213 0.100984
0.558251 0.182284 0.091371
0.612146 0.194736 0.071626
0.664668 0.210544 0.030060
0.714382 0.227787 0.000000
0.763424 0.247868 0.000000
0.807797 0.268528 0.000000
0.845731 0.288182 0.000000
0.901244 0.323217 0.000000
0.930144 0.341466 0.000000
0.956573 0.358984 0.000000
0.981231 0.376593 0.000000
1.000000 0.393866 0.000000
1.000000 0.411414 0.000000
1.000000 0.429664 0.000000
1.000000 0.448310 0.000000
1.000000 0.467781 0.000000
1.000000 0.487922 0.000000
0.177218 0.159396 0.124910
0.177707 0.159548 0.124849
0.180331 0.159548 0.125032
0.185519 0.159976 0.125063
0.193515 0.160739 0.125185
0.205417 0.161563 0.123995
0.221744 0.162234 0.122652
0.245243 0.165774 0.120790
0.268101 0.166812 0.120394
0.295384 0.168429 0.119722
0.327611 0.170748 0.118807
0.366552 0.175448 0.116335
0.411139 0.181827 0.112642
0.460029 0.189700 0.107088
0.512078 0.199008 0.099763
0.565057 0.210330 0.088991
0.618189 0.223880 0.058869
0.669612 0.239353 0.017853
0.720272 0.256748 0.000000
0.771328 0.278355 0.000000
0.816312 0.298375 0.000000
0.855070 0.317601 0.000000
0.889403 0.336095 0.000000
0.920531 0.353948 0.000000
0.948943 0.371344 0.000000
0.974670 0.388220 0.000000
0.998474 0.404669 0.000000
1.000000 0.421210 0.000000
1.000000 0.438361 0.000000
1.000000 0.455940 0.000000
1.000000 0.474495 0.000000
1.000000 0.493782 0.000000
0.178286 0.176822 0.129274
0.178988 0.176577 0.129274
0.181582 0.177096 0.129091
0.186435 0.177493 0.129366
0.194522 0.178286 0.129458
0.205234 0.179294 0.129091
0.220188 0.180423 0.127474
0.239292 0.181430 0.125887
0.267063 0.186984 0.122835
0.294194 0.189639 0.121889
0.326665 0.193057 0.120302
0.364782 0.198001 0.117983
0.408362 0.204593 0.113863
0.456306 0.214054 0.107973
0.507408 0.224552 0.099916
0.559716 0.237003 0.088502
0.612421 0.250645 0.055207
0.663600 0.266117 0.010346
0.716976 0.284825 0.000000
0.766232 0.303929 0.000000
0.809934 0.322271 0.000000
0.848356 0.339544 0.000000
0.882689 0.356207 0.000000
0.913909 0.372351 0.000000
0.942565 0.388281 0.000000
0.968719 0.403540 0.000000
0.992950 0.418708 0.000000
1.000000 0.433967 0.000000
1.000000 0.450172 0.000000
1.000000 0.466957 0.000000
1.000000 0.484596 0.000000
1.000000 0.502953 0.000000
0.178439 0.198184 0.134005
0.178592 0.198306 0.134218
0.181125 0.198489 0.134096
0.186007 0.199252 0.134005
0.194003 0.200076 0.134310
0.204990 0.201450 0.134585
0.219516 0.202853 0.132967
0.237675 0.204410 0.131044
0.260288 0.205783 0.128847
0.293431 0.213687 0.123934
0.326116 0.218662 0.121798
0.364324 0.225406 0.118898
0.407446 0.233249 0.114076
0.454505 0.241764 0.108095
0.504387 0.253056 0.099184
0.555871 0.266117 0.086213
0.607721 0.280339 0.048554
0.662104 0.297368 0.000000
0.713863 0.315221 0.000000
0.761776 0.332799 0.000000
0.804532 0.349462 0.000000
0.842344 0.364752 0.000000
0.876677 0.379553 0.000000
0.907988 0.393988 0.000000
0.936858 0.408301 0.000000
0.963226 0.422248 0.000000
0.987793 0.435950 0.000000
1.000000 0.450111 0.000000
1.000000 0.465003 0.000000
1.000000 0.480751 0.000000
1.000000 0.497353 0.000000
1.000000 0.514885 0.000000
0.173953 0.225193 0.139254
0.174746 0.225223 0.139223
0.177371 0.225376 0.139101
0.182925 0.226322 0.138949
0.191165 0.227237 0.139132
0.203128 0.228672 0.139071
0.217807 0.230869 0.138643
0.236606 0.232670 0.136446
0.259251 0.234379 0.133700
0.285679 0.236271 0.130465
0.324559 0.246677 0.123079
0.362249 0.254856 0.119081
0.404974 0.264347 0.113405
0.451575 0.274632 0.105898
0.501091 0.285618 0.095949
0.551843 0.296880 0.079866
0.606928 0.314092 0.030884
0.660212 0.331151 0.000000
0.710597 0.347967 0.000000
0.757656 0.364172 0.000000
0.799405 0.378820 0.000000
0.836362 0.391943 0.000000
0.869810 0.404700 0.000000
0.900633 0.416907 0.000000
0.929076 0.429145 0.000000
0.955718 0.441016 0.000000
0.980529 0.453712 0.000000
1.000000 0.466743 0.000000
1.000000 0.480598 0.000000
1.000000 0.495460 0.000000
1.000000 0.511254 0.000000
1.000000 0.528252 0.000000
0.163210 0.257816 0.143282
0.163729 0.258183 0.143160
0.166690 0.258488 0.143008
0.173190 0.259342 0.143008
0.182742 0.260716 0.143008
0.195743 0.262821 0.142855
0.212650 0.265537 0.142550
0.232944 0.268376 0.141085
0.256992 0.270603 0.137911
0.285374 0.273045 0.133913
0.316808 0.275395 0.129335
0.358831 0.286381 0.119722
0.403784 0.299107 0.110780
0.449989 0.310643 0.101717
0.500542 0.324041 0.088899
0.552911 0.338048 0.052552
0.605524 0.351598 0.007691
0.656550 0.365728 0.000000
0.705867 0.381292 0.000000
0.751644 0.396216 0.000000
0.792905 0.408942 0.000000
0.829526 0.420539 0.000000
0.863035 0.431647 0.000000
0.894133 0.442176 0.000000
0.922881 0.452857 0.000000
0.949676 0.463661 0.000000
0.974853 0.474952 0.000000
0.998657 0.486702 0.000000
1.000000 0.499428 0.000000
1.000000 0.513237 0.000000
1.000000 0.528130 0.000000
1.000000 0.544152 0.009552
0.134463 0.299931 0.145998
0.135866 0.300053 0.145937
0.140658 0.300572 0.145876
0.148501 0.301671 0.145754
0.161868 0.303319 0.145480
0.178775 0.305547 0.145327
0.198978 0.308873 0.144991
0.223148 0.313054 0.144503
0.251164 0.315892 0.141115
0.282353 0.318547 0.136599
0.316442 0.321050 0.130678
0.352789 0.323888 0.123629
0.410407 0.348638 0.106477
0.466377 0.369329 0.081941
0.519463 0.384588 0.036622
0.572930 0.399207 0.000000
0.625360 0.412451 0.000000
0.675532 0.424323 0.000000
0.722560 0.434607 0.000000
0.766110 0.445502 0.000000
0.804990 0.455421 0.000000
0.839750 0.464118 0.000000
0.871702 0.472419 0.000000
0.901244 0.480690 0.000000
0.928832 0.489082 0.000000
0.954589 0.497780 0.000000
0.978637 0.507042 0.000000
1.000000 0.516991 0.000000
1.000000 0.527855 0.000000
1.000000 0.539971 0.000000
1.000000 0.553277 0.067536
1.000000 0.567773 0.118471
0.000000 0.356786 0.147799
0.000000 0.356786 0.147524
0.000000 0.357183 0.147463
0.052705 0.357824 0.147402
0.103334 0.359258 0.147036
0.136355 0.361273 0.146670
0.168948 0.364202 0.146090
0.202670 0.368322 0.145327
0.237430 0.372808 0.143801
0.274296 0.375708 0.137850
0.314336 0.381537 0.130159
0.357305 0.387518 0.121401
0.402625 0.393744 0.109010
0.454322 0.404974 0.086122
0.514366 0.427619 0.001465
0.566979 0.441260 0.000000
0.618341 0.453223 0.000000
0.667262 0.463478 0.000000
0.713436 0.471931 0.000000
0.755734 0.478828 0.000000
0.793759 0.483864 0.000000
0.828733 0.491096 0.000000
0.861234 0.498116 0.000000
0.891203 0.505364 0.000000
0.919402 0.512566 0.000000
0.945739 0.520195 0.000000
0.970489 0.528649 0.000000
0.993774 0.537743 0.000000
1.000000 0.547814 0.000000
1.000000 0.559106 0.066957
1.000000 0.571618 0.115236
1.000000 0.585382 0.146487
0.000000 0.410529 0.148653
0.000000 0.410620 0.148806
0.000000 0.410620 0.148470
0.000000 0.411292 0.148501
0.000000 0.412512 0.148531
0.000000 0.415137 0.147768
0.101900 0.418860 0.147219
0.160281 0.424170 0.146761
0.209995 0.430518 0.145418
0.256168 0.436225 0.141329
0.302770 0.440589 0.133028
0.349798 0.445624 0.122591
0.397833 0.450446 0.108949
0.446509 0.454871 0.091310
0.497536 0.461280 0.031342
0.559808 0.483101 0.000000
0.610529 0.493629 0.000000
0.658839 0.502037 0.000000
0.704585 0.509209 0.000000
0.746334 0.514214 0.000000
0.784237 0.518029 0.000000
0.819120 0.521355 0.000000
0.851621 0.525139 0.000000
0.882231 0.531273 0.000000
0.910796 0.537713 0.000000
0.937743 0.544396 0.000000
0.962921 0.551812 0.000000
0.986725 0.559960 0.005921
1.000000 0.569238 0.085695
1.000000 0.579767 0.120180
1.000000 0.591455 0.147311
1.000000 0.604486 0.175845
0.000000 0.473091 0.152865
0.000000 0.473060 0.152651
0.000000 0.473213 0.152407
0.000000 0.473671 0.152468
0.000000 0.474830 0.151888
0.000000 0.476478 0.151827
0.000000 0.479286 0.151980
0.016449 0.483406 0.151400
0.162753 0.488746 0.151034
0.227024 0.495613 0.150332
0.283482 0.499245 0.142855
0.337255 0.502922 0.132296
0.389227 0.506340 0.119234
0.439948 0.509606 0.101106
0.490120 0.511681 0.064485
0.539178 0.512932 0.000000
0.602655 0.533135 0.000000
0.651026 0.540307 0.000000
0.696071 0.545739 0.000000
0.737575 0.549584 0.000000
0.775296 0.552148 0.000000
0.810391 0.554253 0.000000
0.842985 0.556359 0.000000
0.873411 0.558801 0.000000
0.902373 0.563012 0.000000
0.929534 0.568994 0.000000
0.955413 0.575708 0.040681
0.979706 0.583215 0.100191
1.000000 0.591913 0.129213
1.000000 0.601953 0.156344
1.000000 0.613367 0.182193
1.000000 0.626001 0.209140
0.000000 0.531212 0.163699
0.000000 0.531487 0.163485
0.000000 0.531640 0.163973
0.000000 0.532311 0.163790
0.000000 0.533288 0.163973
0.000000 0.535271 0.163638
0.000000 0.537835 0.164492
0.000000 0.541711 0.164828
0.043061 0.546227 0.165835
0.190860 0.551690 0.167391
0.262516 0.556817 0.167056
0.323369 0.558404 0.156344
0.378973 0.559960 0.144167
0.431800 0.560693 0.128237
0.482704 0.560967 0.107576
0.531762 0.560357 0.069276
0.579431 0.559258 0.000000
0.641566 0.576257 0.000000
0.686702 0.580560 0.000000
0.727901 0.583276 0.000000
0.766079 0.585260 0.000000
0.801663 0.586572 0.000000
0.834653 0.588098 0.000000
0.865537 0.589715 0.000000
0.894743 0.591791 0.020417
0.922271 0.594598 0.088136
0.948486 0.600519 0.117678
0.973236 0.607477 0.141756
0.996612 0.615412 0.164797
1.000000 0.624598 0.188205
1.000000 0.635065 0.212253
1.000000 0.646845 0.237919
0.000000 0.582910 0.184543
0.000000 0.582879 0.184695
0.000000 0.583154 0.184817
0.000000 0.583703 0.184848
0.000000 0.584619 0.185397
0.000000 0.586145 0.185672
0.000000 0.588128 0.187381
0.000000 0.590967 0.188449
0.000000 0.594629 0.190494
0.146426 0.598779 0.192721
0.241367 0.603662 0.195956
0.309239 0.606287 0.192020
0.368322 0.606867 0.180972
0.422766 0.606867 0.168002
0.474525 0.606134 0.152163
0.524132 0.605249 0.132204
0.571771 0.603388 0.106752
0.618189 0.601373 0.040681
0.678218 0.615106 0.000000
0.719387 0.616663 0.000000
0.757595 0.617670 0.000000
0.793240 0.618402 0.000000
0.826444 0.619135 0.021698
0.857664 0.620203 0.084047
0.887175 0.621637 0.111574
0.915068 0.623865 0.134524
0.941527 0.626978 0.156832
0.966522 0.631556 0.177066
0.990204 0.639063 0.198795
1.000000 0.647791 0.221958
1.000000 0.657710 0.245060
1.000000 0.668849 0.269444
0.000000 0.629938 0.216495
0.000000 0.630213 0.216678
0.000000 0.644007 0.229435
0.000000 0.644434 0.229770
0.000000 0.645197 0.230472
0.000000 0.646113 0.231174
0.000000 0.647425 0.232944
0.000000 0.649226 0.234897
0.000000 0.651667 0.237491
0.130312 0.654627 0.241337
0.238926 0.657862 0.245640
0.313420 0.661341 0.250767
0.372442 0.660853 0.241794
0.426825 0.659449 0.230076
0.477699 0.657465 0.216068
0.526207 0.655177 0.199832
0.573053 0.652033 0.181338
0.618158 0.648768 0.158083
0.661769 0.645258 0.130220
0.718166 0.655482 0.050019
0.754879 0.654200 0.079408
0.789883 0.653620 0.105104
0.822507 0.653132 0.125948
0.853300 0.653040 0.143984
0.882261 0.653346 0.162600
0.909697 0.654444 0.179660
0.935698 0.656367 0.196445
0.960449 0.659388 0.214084
0.983825 0.663813 0.233555
1.000000 0.670863 0.254124
1.000000 0.680140 0.276677
1.000000 0.690700 0.301183
0.000000 0.674006 0.259922
0.000000 0.675135 0.261265
0.000000 0.676509 0.262669
0.000000 0.677913 0.264408
0.000000 0.679133 0.266819
0.000000 0.680140 0.268223
0.000000 0.681239 0.269718
0.000000 0.682368 0.271580
0.000000 0.683986 0.274815
0.115053 0.685939 0.278416
0.232151 0.688289 0.283085
0.307042 0.690761 0.288640
0.368475 0.692256 0.289952
0.420142 0.691005 0.279606
0.469398 0.689235 0.267582
0.516991 0.686885 0.253361
0.562310 0.684260 0.238041
0.606714 0.681392 0.220645
0.650080 0.678218 0.201053
0.692134 0.675013 0.177920
0.746609 0.684504 0.143526
0.781125 0.682612 0.151217
0.813993 0.681727 0.167178
0.845090 0.681147 0.183352
0.874144 0.681117 0.198245
0.901793 0.681666 0.214420
0.927916 0.683070 0.231083
0.952819 0.685603 0.247593
0.976379 0.689509 0.265782
0.998901 0.694728 0.284764
1.000000 0.701595 0.306432
1.000000 0.711299 0.330205
0.000000 0.706050 0.301244
0.000000 0.707118 0.302708
0.000000 0.708278 0.304814
0.000000 0.709529 0.306828
0.000000 0.710536 0.309178
0.000000 0.711391 0.310887
0.000000 0.712154 0.312810
0.000000 0.713039 0.314916
0.000000 0.714015 0.317998
0.138643 0.715480 0.321416
0.239994 0.717098 0.325750
0.310857 0.718807 0.331151
0.370794 0.720729 0.337011
0.421546 0.720638 0.333837
0.467597 0.718990 0.322789
0.512169 0.716976 0.310307
0.555840 0.714504 0.296696
0.598322 0.711910 0.281590
0.640070 0.708980 0.265324
0.681056 0.705989 0.246830
0.720912 0.702907 0.227146
0.771542 0.710140 0.202701
0.805875 0.709255 0.205600
0.837064 0.708309 0.220432
0.866423 0.707790 0.235538
0.894194 0.708003 0.250309
0.920409 0.709133 0.264927
0.945312 0.711208 0.281712
0.969024 0.714687 0.298985
0.991547 0.719478 0.318456
1.000000 0.725734 0.338872
1.000000 0.733120 0.361334
0.000000 0.735042 0.347234
0.000000 0.735927 0.348394
0.000000 0.736751 0.350622
0.000000 0.737697 0.352789
0.000000 0.738582 0.354589
0.000000 0.739101 0.356207
0.000000 0.739712 0.358160
0.000000 0.740352 0.360540
0.000000 0.741115 0.363775
0.181582 0.742061 0.367102
0.261601 0.743343 0.371344
0.324224 0.744625 0.376867
0.379370 0.746090 0.382574
0.429786 0.747585 0.388647
0.471870 0.746273 0.379950
0.513085 0.744503 0.369299
0.554040 0.742611 0.357183
0.594354 0.740566 0.344701
0.634424 0.738460 0.331090
0.674098 0.736294 0.316350
0.713313 0.733913 0.301061
0.751766 0.731563 0.284031
0.798398 0.737087 0.265446
0.833310 0.737881 0.266056
0.862974 0.737484 0.281895
0.890776 0.737758 0.297429
0.917052 0.738766 0.312474
0.941955 0.740780 0.329107
0.965454 0.744106 0.347112
0.987884 0.748714 0.366369
1.000000 0.754574 0.386786
1.000000 0.761501 0.409247
0.000000 0.765805 0.406256
0.000000 0.766140 0.406928
0.000000 0.766415 0.407538
0.000000 0.766598 0.408820
0.000000 0.766903 0.409491
0.000000 0.767025 0.410742
0.000000 0.767300 0.412268
0.000000 0.767666 0.414343
0.167605 0.768215 0.417304
0.241611 0.769009 0.420569
0.300908 0.769863 0.425177
0.352880 0.770901 0.430365
0.400671 0.772030 0.435523
0.446204 0.773190 0.441505
0.487709 0.773526 0.443549
0.523857 0.771939 0.433783
0.560235 0.770169 0.422492
0.596826 0.768215 0.410834
0.633570 0.766049 0.398352
0.670283 0.763821 0.384558
0.706630 0.761440 0.370184
0.742977 0.758907 0.354131
0.778531 0.756191 0.337163
0.820920 0.759762 0.319921
0.855528 0.761532 0.317662
0.883452 0.761593 0.332250
0.909850 0.762478 0.347631
0.934813 0.764309 0.364080
0.958404 0.767391 0.381872
0.980774 0.771695 0.400916
1.000000 0.777066 0.420966
1.000000 0.783474 0.443275
0.000000 0.789242 0.455787
0.000000 0.789456 0.456764
0.000000 0.789700 0.457435
0.000000 0.789853 0.458350
0.000000 0.790066 0.459449
0.000000 0.790249 0.460487
0.120790 0.790433 0.462135
0.191501 0.790738 0.463691
0.245090 0.791196 0.466621
0.294163 0.791775 0.470100
0.339574 0.792477 0.474006
0.382727 0.793332 0.479011
0.424353 0.794247 0.484138
0.464698 0.795224 0.489784
0.504204 0.796262 0.496284
0.538323 0.795773 0.493080
0.570611 0.794369 0.483436
0.603296 0.792752 0.473732
0.636591 0.790951 0.462013
0.670130 0.789090 0.450202
0.704067 0.787045 0.437232
0.737850 0.784909 0.423651
0.771542 0.782589 0.408911
0.804959 0.780148 0.392584
0.841154 0.780362 0.370214
0.875578 0.783322 0.364965
0.902129 0.784054 0.380072
0.927123 0.785824 0.396521
0.950774 0.788693 0.413794
0.973358 0.792630 0.432502
0.994659 0.797818 0.453071
1.000000 0.803983 0.474525
0.146395 0.813352 0.511955
0.152682 0.813687 0.512840
0.163027 0.813931 0.513481
0.179110 0.813931 0.514031
0.198947 0.813779 0.514183
0.223392 0.813626 0.514488
0.251377 0.813443 0.514977
0.281376 0.813321 0.515831
0.313787 0.813291 0.517449
0.347265 0.813474 0.519402
0.381659 0.813687 0.522301
0.416632 0.814115 0.525811
0.451575 0.814633 0.529717
0.486366 0.815213 0.534234
0.520745 0.815763 0.539055
0.555016 0.816434 0.544274
0.582422 0.814969 0.535485
0.611200 0.813413 0.526299
0.640833 0.811948 0.516564
0.671412 0.810361 0.506615
0.702693 0.808774 0.495613
0.733883 0.807004 0.483803
0.765347 0.804990 0.470497
0.796567 0.802701 0.455390
0.827237 0.800137 0.439368
0.862028 0.801266 0.422919
0.895567 0.805142 0.414679
0.920317 0.806577 0.429847
0.943877 0.809110 0.446235
0.966247 0.812802 0.464271
0.987549 0.817563 0.483650
1.000000 0.823362 0.504692
0.265080 0.832547 0.555169
0.268223 0.832883 0.556023
0.273442 0.833097 0.556970
0.281529 0.833158 0.557519
0.293065 0.833188 0.558251
0.307958 0.833280 0.558984
0.326787 0.833341 0.560174
0.348791 0.833494 0.561608
0.373144 0.833738 0.563500
0.399695 0.834073 0.566186
0.427741 0.834440 0.569116
0.456703 0.834928 0.572381
0.486366 0.835447 0.575982
0.516381 0.835935 0.579950
0.546746 0.836454 0.583917
0.577111 0.837003 0.588586
0.605158 0.836973 0.589166
0.629358 0.835660 0.581201
0.655207 0.834287 0.573297
0.681941 0.833005 0.564752
0.709651 0.831632 0.555657
0.738003 0.830106 0.545830
0.766537 0.828519 0.534813
0.795254 0.826749 0.522576
0.823819 0.824704 0.508995
0.852079 0.822568 0.494301
0.883207 0.823301 0.479255
0.915740 0.828367 0.469825
0.939086 0.830869 0.485298
0.961334 0.834409 0.502373
0.982330 0.838956 0.521019
1.000000 0.844358 0.540246
0.352209 0.852811 0.599237
0.354101 0.852934 0.599847
0.356817 0.853025 0.600092
0.361822 0.853086 0.600427
0.369421 0.853086 0.600946
0.380041 0.853056 0.601587
0.393011 0.853117 0.602289
0.409033 0.853208 0.603357
0.427527 0.853361 0.605035
0.448249 0.853605 0.606928
0.471015 0.853910 0.609339
0.495186 0.854337 0.611963
0.520348 0.854765 0.615015
0.546319 0.855283 0.618189
0.572869 0.855741 0.621576
0.599756 0.856229 0.625177
0.627039 0.856840 0.629023
0.650111 0.856260 0.626032
0.672541 0.855100 0.619593
0.696132 0.853971 0.613001
0.720607 0.852873 0.605829
0.745785 0.851652 0.597681
0.771359 0.850309 0.589166
0.797177 0.848814 0.579217
0.823087 0.847166 0.568048
0.848844 0.845365 0.555627
0.874418 0.843595 0.542321
0.902037 0.843839 0.528344
0.933471 0.850065 0.519615
0.955657 0.853208 0.533257
0.976593 0.857603 0.550713
0.996521 0.862852 0.568780
0.416144 0.871855 0.635462
0.417365 0.871977 0.635828
0.419348 0.872129 0.636164
0.423377 0.872221 0.636500
0.429725 0.872313 0.637110
0.438514 0.872557 0.638148
0.450355 0.872984 0.639765
0.464820 0.873533 0.641688
0.481453 0.874205 0.644160
0.500145 0.874998 0.646967
0.520592 0.875883 0.650294
0.542138 0.876829 0.653559
0.564843 0.877745 0.656977
0.588037 0.878569 0.660426
0.611658 0.879332 0.663661
0.635431 0.879942 0.666865
0.659480 0.880613 0.670161
0.683680 0.881285 0.673304
0.702937 0.880369 0.668666
0.723201 0.879454 0.663600
0.744320 0.878569 0.658259
0.766171 0.877623 0.652247
0.788357 0.876524 0.645655
0.810849 0.875334 0.638514
0.833402 0.874022 0.630182
0.855955 0.872679 0.621057
0.878599 0.871275 0.610895
0.901122 0.869902 0.599969
0.925109 0.869871 0.588495
0.954437 0.876829 0.581079
0.975006 0.880491 0.592157
0.994507 0.885435 0.607996
0.484169 0.894835 0.674952
0.484474 0.894865 0.674952
0.486030 0.894835 0.675105
0.488624 0.894804 0.675257
0.493233 0.894774 0.675502
0.499611 0.894835 0.675929
0.507866 0.894926 0.676509
0.518456 0.895048 0.677546
0.530999 0.895323 0.678859
0.545281 0.895659 0.680323
0.561395 0.896086 0.682185
0.578943 0.896544 0.684199
0.597803 0.897063 0.686519
0.617456 0.897551 0.688838
