20 Preset/Art Style/【3】LUT video cho PR-AE-FCPX/Portra 800 Desaturated.cube
# Created by Adobe Lightroom plugin Export LUT (1.24.0)
# www.johnrellis.com/lightroom/exportlut.htm
# Preset: Portra 800 Desaturated
# Color profile: E:\lut插件\exportlut.1.24\exportlut.lrplugin\color profiles\Rec709gamma2.4.icc
LUT_3D_SIZE 5
DOMAIN_MIN 0.000000 0.000000 0.000000
DOMAIN_MAX 0.903226 0.903226 0.903226
0.081361 0.120211 0.100435
0.147097 0.132204 0.104952
0.375860 0.145968 0.107881
0.725948 0.086488 0.111299
1.000000 0.260075 0.169619
0.056184 0.185763 0.125399
0.145815 0.191714 0.125704
0.387243 0.203647 0.124147
0.737575 0.218997 0.131533
1.000000 0.353674 0.199100
0.000000 0.406653 0.219120
0.192966 0.400122 0.227634
0.421607 0.453559 0.222141
0.757748 0.487922 0.212436
0.964263 0.548577 0.286534
0.258000 0.710109 0.410498
0.331395 0.708492 0.418647
0.506462 0.705898 0.443458
0.723751 0.723873 0.428290
0.924681 0.751888 0.471443
0.658625 0.885100 0.688960
0.671443 0.884733 0.693202
0.705989 0.875242 0.695155
0.781918 0.885832 0.715450
0.889097 0.903563 0.720089
0.089357 0.136599 0.148775
0.153017 0.143008 0.155276
0.378515 0.127504 0.160708
0.721309 0.114412 0.208652
0.982391 0.274296 0.260685
0.088624 0.199222 0.174868
0.169223 0.201450 0.180087
0.398444 0.211551 0.195590
0.729793 0.230503 0.223056
0.976593 0.354742 0.276646
0.187137 0.411322 0.279088
0.226780 0.409918 0.271580
0.417090 0.437720 0.272892
0.737331 0.469154 0.275792
0.955474 0.556847 0.352422
0.326268 0.711086 0.448676
0.375830 0.710750 0.452979
0.531914 0.705531 0.481056
0.726223 0.723079 0.465888
0.921324 0.751553 0.506249
0.663783 0.885405 0.699458
0.675776 0.884733 0.702785
0.722744 0.884276 0.720394
0.790982 0.891051 0.736477
0.894438 0.908934 0.740749
0.088746 0.173373 0.333654
0.215244 0.177371 0.343267
0.436255 0.172366 0.370184
0.717037 0.000000 0.357000
0.984070 0.217014 0.402350
0.134554 0.245914 0.364630
0.231540 0.239017 0.370092
0.455726 0.243687 0.392767
0.735653 0.213718 0.381476
0.976959 0.367651 0.441932
0.160067 0.468269 0.435279
0.257908 0.470039 0.437568
0.483131 0.479774 0.450141
0.753811 0.530419 0.483589
0.940185 0.607996 0.541833
0.435828 0.719814 0.559869
0.478767 0.715206 0.560815
0.594018 0.714290 0.572930
0.740993 0.727626 0.582513
0.914214 0.751034 0.609979
0.693629 0.882780 0.746334
0.699977 0.883696 0.745907
0.729244 0.885344 0.747951
0.796597 0.887602 0.769223
0.893523 0.905333 0.769131
0.203952 0.246586 0.619440
0.306004 0.253941 0.627375
0.553887 0.285557 0.647272
0.796841 0.311498 0.663233
0.944152 0.343450 0.608515
0.225223 0.320867 0.632288
0.316747 0.327672 0.635615
0.556939 0.358434 0.649561
0.787442 0.384710 0.662379
0.936431 0.404639 0.612573
0.255680 0.546715 0.648310
0.339300 0.548669 0.650752
0.562737 0.553368 0.666590
0.772000 0.580346 0.682765
0.923033 0.585199 0.655024
0.477790 0.739925 0.706905
0.509575 0.737850 0.705928
0.621149 0.736751 0.710079
0.764126 0.739315 0.721157
0.915007 0.778347 0.760006
0.668116 0.896178 0.800259
0.681514 0.895964 0.801572
0.735348 0.896727 0.809689
0.812039 0.897765 0.822904
0.901610 0.909148 0.828794
0.498329 0.490150 0.867369
0.548974 0.499763 0.867826
0.692958 0.540185 0.870085
0.841184 0.610651 0.875425
0.958373 0.633448 0.879179
0.518669 0.543725 0.866972
0.563806 0.551141 0.867521
0.695796 0.582391 0.870176
0.838926 0.639704 0.876097
0.954223 0.657679 0.880400
0.573114 0.675807 0.866667
0.604181 0.677302 0.867796
0.698421 0.683101 0.872740
0.831571 0.717281 0.880613
0.943542 0.729335 0.886839
0.619928 0.798825 0.878660
0.635309 0.798428 0.878782
0.693294 0.796902 0.879393
0.811032 0.801724 0.890043
0.933928 0.821866 0.901671
0.703120 0.920836 0.910582
0.712642 0.920897 0.910948
0.751186 0.921386 0.912810
0.822171 0.922728 0.916777
0.927550 0.926452 0.924895
