20 Preset/Art Style/【3】LUT video cho PR-AE-FCPX/Portra 800 Muted Soft.cube
# Created by Adobe Lightroom plugin Export LUT (1.24.0)
# www.johnrellis.com/lightroom/exportlut.htm
# Preset: Portra 800 Muted Soft
# Color profile: E:\lut插件\exportlut.1.24\exportlut.lrplugin\color profiles\Rec709gamma2.4.icc
LUT_3D_SIZE 32
DOMAIN_MIN 0.0 0.0 0.0
DOMAIN_MAX 1.0 1.0 1.0
0.175357 0.168917 0.165316
0.175082 0.168948 0.165316
0.174777 0.169009 0.165316
0.174105 0.168734 0.165377
0.173495 0.168460 0.165042
0.173953 0.168215 0.164889
0.176455 0.168276 0.164645
0.181491 0.168368 0.164523
0.190402 0.168826 0.164248
0.202670 0.169741 0.163821
0.219120 0.171084 0.163180
0.238865 0.172915 0.162478
0.261936 0.175326 0.161471
0.288304 0.178073 0.160525
0.318364 0.181186 0.159365
0.352514 0.184451 0.157687
0.390906 0.187808 0.155764
0.433661 0.190738 0.153567
0.480018 0.193606 0.150881
0.529107 0.196567 0.147768
0.579004 0.200412 0.143923
0.639002 0.207523 0.138949
0.695216 0.217929 0.133120
0.745022 0.231601 0.127687
0.787472 0.248142 0.123507
0.823789 0.266117 0.121736
0.855070 0.285405 0.123690
0.882261 0.305943 0.130251
0.905974 0.327214 0.143252
0.926696 0.350622 0.162905
0.944518 0.376257 0.190890
0.959197 0.404669 0.227848
0.175082 0.168948 0.165316
0.175082 0.168948 0.165316
0.174594 0.168856 0.165347
0.174105 0.168734 0.165377
0.173495 0.168460 0.165042
0.173892 0.168215 0.165072
0.176455 0.168276 0.164645
0.181491 0.168368 0.164523
0.189609 0.168917 0.164248
0.201938 0.169863 0.163821
0.217807 0.171298 0.163180
0.237400 0.172976 0.162509
0.260014 0.175357 0.161532
0.286076 0.178225 0.160403
0.315526 0.181399 0.159274
0.349126 0.184604 0.157839
0.387243 0.188052 0.155978
0.429694 0.191104 0.153628
0.475837 0.193973 0.151003
0.524437 0.196933 0.148013
0.573816 0.200748 0.144320
0.632502 0.206943 0.139467
0.687343 0.216861 0.133700
0.736629 0.229740 0.128359
0.779324 0.245335 0.123903
0.816129 0.262730 0.121614
0.848386 0.281529 0.122652
0.876585 0.301457 0.128237
0.901244 0.322820 0.139590
0.922789 0.345922 0.158297
0.941405 0.371313 0.185000
0.956878 0.399390 0.220768
0.174746 0.168643 0.165194
0.174746 0.168643 0.165194
0.174838 0.168460 0.165194
0.173861 0.168215 0.165255
0.173617 0.168276 0.165072
0.173892 0.168215 0.165072
0.176577 0.168429 0.164797
0.181857 0.168673 0.164492
0.190036 0.169558 0.164157
0.201968 0.170718 0.163699
0.217868 0.172152 0.163058
0.237186 0.174044 0.162356
0.259434 0.176638 0.161349
0.285161 0.179416 0.160250
0.314549 0.182742 0.159091
0.347814 0.186221 0.157473
0.385657 0.189883 0.155581
0.427771 0.192935 0.153231
0.473610 0.195865 0.150637
0.522057 0.199252 0.147372
0.571740 0.203128 0.143862
0.630243 0.209995 0.138643
0.684260 0.218936 0.133242
0.733059 0.231785 0.127718
0.775509 0.246647 0.123018
0.812497 0.263218 0.120455
0.844907 0.281651 0.121126
0.873533 0.301366 0.125978
0.898619 0.322393 0.137209
0.920623 0.345220 0.155154
0.939605 0.370123 0.181369
0.955413 0.397803 0.216434
0.174472 0.167819 0.164950
0.174472 0.167819 0.164950
0.174166 0.167849 0.164950
0.173861 0.167880 0.164950
0.173861 0.167880 0.164950
0.174899 0.168124 0.164706
0.177584 0.168673 0.164584
0.182925 0.169619 0.164309
0.191470 0.170596 0.163973
0.203281 0.172244 0.163424
0.218875 0.174014 0.162753
0.238102 0.176394 0.161776
0.260166 0.179141 0.160952
0.285588 0.182498 0.159731
0.314427 0.185885 0.158389
0.347295 0.189548 0.156924
0.384558 0.193332 0.154818
0.425849 0.196780 0.152651
0.471015 0.200076 0.149844
0.518730 0.203708 0.146609
0.568231 0.208011 0.142580
0.625605 0.214542 0.137545
0.677974 0.223697 0.131899
0.726619 0.235691 0.126345
0.770108 0.250187 0.121462
0.808469 0.266911 0.118074
0.842222 0.285435 0.117891
0.871733 0.304936 0.122683
0.897307 0.325780 0.134096
0.919554 0.348028 0.152407
0.938567 0.372198 0.178378
0.954314 0.398688 0.212772
0.173800 0.168063 0.164736
0.173800 0.168063 0.164736
0.173800 0.168063 0.164736
0.173709 0.168276 0.164706
0.173983 0.168215 0.164706
0.175631 0.168734 0.164614
0.178988 0.169558 0.164431
0.185245 0.171054 0.164065
0.193912 0.172519 0.163638
0.206058 0.174411 0.163058
0.221286 0.176822 0.162234
0.240085 0.179507 0.161410
0.261753 0.182650 0.160311
0.286961 0.186404 0.159030
0.315709 0.190280 0.157748
0.348547 0.194522 0.155947
0.386084 0.198581 0.153933
0.427558 0.202335 0.151400
0.472511 0.206332 0.148379
0.519951 0.210208 0.145022
0.571710 0.215549 0.140505
0.626612 0.222873 0.134951
0.677699 0.232273 0.129152
0.725551 0.244450 0.122805
0.768948 0.258915 0.117189
0.807309 0.275151 0.113527
0.841032 0.292851 0.113436
0.870481 0.311681 0.118227
0.896056 0.331487 0.129671
0.918273 0.352880 0.148074
0.937255 0.376074 0.174289
0.953094 0.401617 0.208499
0.172732 0.170291 0.164797
0.172610 0.170474 0.164797
0.172854 0.170626 0.164584
0.173129 0.171115 0.164492
0.174533 0.171145 0.164462
0.176333 0.170932 0.164279
0.180423 0.171817 0.164065
0.187228 0.173556 0.163638
0.197635 0.175906 0.163027
0.211215 0.178622 0.162264
0.226963 0.181277 0.161563
0.245853 0.184207 0.160830
0.268009 0.187991 0.159548
0.293309 0.191867 0.158358
0.322637 0.196139 0.156924
0.355810 0.200290 0.155184
0.393561 0.204837 0.152926
0.435492 0.209018 0.150362
0.480659 0.213291 0.147280
0.527642 0.217777 0.143648
0.581903 0.224460 0.138857
0.635065 0.232334 0.133242
0.729091 0.257115 0.120302
0.773739 0.273106 0.113588
0.811368 0.290654 0.107912
0.843717 0.308537 0.106050
0.871427 0.326909 0.109133
0.895598 0.344579 0.121370
0.916472 0.363806 0.139895
0.934539 0.384131 0.165164
0.949767 0.406409 0.197513
0.962066 0.430762 0.236484
0.171328 0.177981 0.165530
0.171206 0.178164 0.165499
0.171145 0.178836 0.165225
0.171481 0.179751 0.164706
0.173831 0.181277 0.164797
0.178531 0.180148 0.164157
0.183597 0.178439 0.163729
0.191501 0.179294 0.163058
0.203372 0.182406 0.162448
0.219089 0.185885 0.161624
0.238560 0.190249 0.160433
0.259861 0.194156 0.159365
0.283177 0.198001 0.158297
0.310124 0.202029 0.157015
0.340612 0.206485 0.155276
0.375097 0.210910 0.153384
0.413519 0.215549 0.150973
0.455787 0.220249 0.148318
0.500969 0.225010 0.144930
0.553429 0.231540 0.140414
0.611444 0.240452 0.134524
0.666773 0.251652 0.127504
0.718715 0.265232 0.120394
0.765591 0.281651 0.112764
0.805600 0.299199 0.107027
0.839170 0.316960 0.104524
0.867399 0.334691 0.106813
0.891386 0.352941 0.114046
0.912413 0.371405 0.128786
0.930755 0.389960 0.154513
0.946471 0.410468 0.186648
0.959258 0.433387 0.225528
0.169009 0.190860 0.167361
0.169223 0.190982 0.167330
0.169802 0.191836 0.167178
0.169436 0.193332 0.166384
0.172122 0.195682 0.165774
0.178408 0.197635 0.165652
0.186770 0.194247 0.164218
0.194919 0.190158 0.163241
0.206271 0.190158 0.162203
0.222171 0.194095 0.161257
0.241825 0.198550 0.160189
0.265049 0.203738 0.158938
0.292302 0.209567 0.157168
0.319371 0.213687 0.155764
0.350195 0.218235 0.154025
0.384649 0.222782 0.152102
0.423041 0.227573 0.149660
0.464790 0.232761 0.146700
0.511894 0.238682 0.142947
0.565881 0.246586 0.137850
0.619501 0.255863 0.131899
0.671473 0.267185 0.125063
0.720699 0.280583 0.117861
0.765286 0.296361 0.110292
0.804196 0.312871 0.105104
0.837125 0.329564 0.102785
0.864897 0.346380 0.105379
0.888823 0.363226 0.113527
0.909728 0.380987 0.127108
0.928038 0.399390 0.146975
0.943877 0.418860 0.176669
0.957061 0.439948 0.216251
0.167330 0.209689 0.170840
0.167697 0.209934 0.170962
0.168826 0.211002 0.170932
0.168582 0.212955 0.169894
0.169162 0.216068 0.168399
0.177127 0.220066 0.168521
0.188602 0.219944 0.167391
0.200900 0.213870 0.164858
0.211673 0.207218 0.162905
0.225345 0.205051 0.161044
0.245457 0.209720 0.159640
0.268956 0.215335 0.158572
0.296300 0.221469 0.157015
0.328405 0.228092 0.154849
0.363409 0.234653 0.152346
0.398322 0.239261 0.150362
0.436896 0.244297 0.147524
0.480629 0.250462 0.144137
0.530602 0.258030 0.139651
0.581170 0.266331 0.134371
0.631342 0.275914 0.128267
0.679927 0.287297 0.121370
0.726375 0.300572 0.113802
0.768460 0.315373 0.107210
0.805509 0.330694 0.102266
0.837156 0.346166 0.100710
0.864256 0.361761 0.104158
0.887724 0.377386 0.114015
0.908263 0.393866 0.128969
0.926329 0.411109 0.149386
0.941924 0.429725 0.175479
0.955230 0.449775 0.208011
0.166140 0.234928 0.177218
0.166384 0.235233 0.177340
0.168307 0.236210 0.177432
0.169131 0.238560 0.176425
0.168826 0.242252 0.174319
0.175021 0.247166 0.173465
0.188693 0.253544 0.174289
0.204837 0.248783 0.170687
0.220218 0.239292 0.166415
0.233127 0.228855 0.163027
0.247990 0.223117 0.160006
0.271641 0.228672 0.158267
0.299290 0.235233 0.156649
0.331395 0.242557 0.154940
0.368597 0.250614 0.152132
0.410651 0.259129 0.148501
0.457252 0.267735 0.144472
0.503532 0.275151 0.140200
0.551171 0.283055 0.135470
0.598932 0.291417 0.129824
0.645502 0.300969 0.123507
0.690089 0.311406 0.116670
0.732021 0.323461 0.109590
0.770504 0.336187 0.103487
0.804776 0.349767 0.099275
0.834928 0.363409 0.099245
0.861387 0.377417 0.103487
0.884703 0.392004 0.113680
0.905333 0.407294 0.129671
0.923583 0.423682 0.151034
0.939452 0.441108 0.178347
0.952880 0.460273 0.211002
0.163394 0.266270 0.186709
0.163760 0.266697 0.186740
0.166262 0.268040 0.186862
0.167636 0.270695 0.186252
0.167391 0.275517 0.183871
0.168215 0.282200 0.180941
0.183688 0.290684 0.181979
0.203830 0.299596 0.182528
0.226017 0.287083 0.175418
0.245487 0.272404 0.168765
0.260349 0.257084 0.163729
0.276646 0.247684 0.159091
0.303319 0.252628 0.156588
0.336065 0.260258 0.154330
0.376287 0.270573 0.151797
0.421576 0.281498 0.147982
0.471809 0.293065 0.142672
0.524529 0.304967 0.135561
0.570703 0.313176 0.130068
0.615381 0.321111 0.123964
0.658839 0.329625 0.117708
0.700160 0.339300 0.110903
0.739498 0.350256 0.104372
0.775357 0.361730 0.099275
0.807889 0.373754 0.096345
0.836484 0.386023 0.098238
0.861875 0.398505 0.105104
0.884398 0.411414 0.117617
0.904479 0.425269 0.134707
0.922271 0.440192 0.157351
0.937804 0.456306 0.185550
0.951019 0.474006 0.218753
0.152865 0.309392 0.201144
0.153964 0.309728 0.201175
0.156710 0.311315 0.201572
0.159518 0.314733 0.201236
0.157961 0.320653 0.198734
0.156435 0.328710 0.194705
0.167453 0.339605 0.193851
0.192294 0.353582 0.196262
0.224399 0.356115 0.193179
0.254215 0.337163 0.181613
0.278202 0.316472 0.172030
0.296147 0.295445 0.164370
0.329412 0.294102 0.157076
0.366003 0.300328 0.152132
0.412116 0.312261 0.147463
0.461799 0.325139 0.143130
0.514031 0.338018 0.137209
0.567437 0.351080 0.129549
0.619806 0.364355 0.119631
0.668971 0.376959 0.109468
0.707424 0.384283 0.103487
0.742916 0.392035 0.098360
0.775540 0.400153 0.095674
0.805203 0.408820 0.096101
0.831907 0.417670 0.100771
0.855680 0.426703 0.109133
0.876585 0.436103 0.122164
0.895476 0.446021 0.138613
0.912413 0.456916 0.158724
0.927611 0.469154 0.183322
0.940978 0.482887 0.211948
0.952422 0.498543 0.245640
0.118593 0.375647 0.228275
0.120302 0.375982 0.228275
0.124727 0.377478 0.228550
0.134035 0.380529 0.228885
0.131807 0.386542 0.225803
0.128603 0.395392 0.221317
0.128969 0.407324 0.215915
0.170626 0.422492 0.220493
0.217014 0.444434 0.228641
0.264805 0.437720 0.216648
0.304204 0.416358 0.196811
0.336187 0.391272 0.179568
0.358221 0.361822 0.166201
0.377050 0.337224 0.155032
0.415229 0.340368 0.147372
0.464607 0.352667 0.140352
0.515679 0.365301 0.135714
0.566491 0.377813 0.129366
0.616327 0.390051 0.121492
0.664057 0.402441 0.112215
0.708553 0.414771 0.102052
0.745998 0.424109 0.095918
0.776730 0.430121 0.095613
0.804898 0.436927 0.097383
0.830625 0.443702 0.104433
0.853666 0.450874 0.115511
0.874357 0.458717 0.130037
0.892912 0.467323 0.147097
0.909758 0.476844 0.168460
0.924926 0.487648 0.193790
0.938140 0.500084 0.222843
0.949493 0.514244 0.256565
0.000000 0.444984 0.265293
0.000000 0.445411 0.265446
0.031067 0.446387 0.265873
0.090242 0.449714 0.267247
0.094606 0.455726 0.265507
0.092164 0.465675 0.261631
0.091615 0.478950 0.256382
0.148104 0.494850 0.259739
0.217655 0.514031 0.271305
0.285954 0.535424 0.285496
0.327306 0.513909 0.254429
0.365240 0.487984 0.222782
0.395697 0.456947 0.193668
0.415625 0.420233 0.170382
0.429633 0.385901 0.153201
0.464912 0.382330 0.141543
0.515068 0.393866 0.133303
0.564538 0.405402 0.127657
0.613184 0.417121 0.122530
0.659449 0.428626 0.116030
0.702663 0.440162 0.108980
0.742336 0.451209 0.103426
0.778103 0.461799 0.100557
0.806638 0.468177 0.105318
0.831144 0.473060 0.114870
0.853269 0.478401 0.127626
0.873198 0.484413 0.143160
0.891295 0.491157 0.161349
0.907652 0.499184 0.183108
0.922423 0.508476 0.208652
0.935393 0.519402 0.237919
0.946441 0.532158 0.271946
0.000000 0.518975 0.317967
0.000000 0.519371 0.318120
0.000000 0.520134 0.318669
0.066255 0.522332 0.319982
0.103700 0.527184 0.319493
0.115877 0.534661 0.316411
0.131899 0.545617 0.312718
0.161288 0.559808 0.310765
0.242313 0.575372 0.324895
0.315587 0.593378 0.343145
0.374243 0.599756 0.345739
0.404730 0.578790 0.305516
0.434333 0.551720 0.262333
0.459327 0.518334 0.220035
0.474891 0.477577 0.182437
0.483131 0.435309 0.153964
0.513664 0.424506 0.136568
0.562799 0.434882 0.127657
0.610163 0.445350 0.121004
0.655451 0.456031 0.119265
0.697719 0.466682 0.116701
0.736782 0.476814 0.115694
0.771969 0.486549 0.117250
0.803769 0.495491 0.122438
0.831785 0.503838 0.132082
0.852903 0.507347 0.145449
0.872251 0.511650 0.161563
0.889891 0.516960 0.181125
0.905943 0.523613 0.203677
0.920378 0.531853 0.229953
0.933104 0.541711 0.260472
0.943786 0.553643 0.295567
0.117617 0.581353 0.375921
0.121920 0.581964 0.376501
0.139132 0.582910 0.377508
0.166262 0.585016 0.379828
0.191257 0.588708 0.381506
0.204929 0.595697 0.380713
0.223789 0.605097 0.380285
0.248569 0.616571 0.380102
0.303746 0.628870 0.391180
0.370825 0.641596 0.410986
0.435889 0.654566 0.433967
0.466316 0.649104 0.415381
0.483009 0.629297 0.366888
0.502129 0.603571 0.313634
0.519493 0.569879 0.257023
0.529656 0.527855 0.204471
0.533227 0.481605 0.161410
0.557610 0.463813 0.134615
0.604883 0.473304 0.126284
0.650050 0.482795 0.119844
0.692378 0.493050 0.123507
0.731411 0.502617 0.127901
0.766476 0.511711 0.134554
0.798215 0.520012 0.143984
0.826169 0.527672 0.155428
0.850950 0.534874 0.170779
0.871855 0.540978 0.188113
0.888853 0.544701 0.207462
0.904204 0.549706 0.229740
0.917937 0.556207 0.255192
0.929931 0.564324 0.285008
0.940032 0.574365 0.319310
0.238132 0.630213 0.435309
0.239872 0.630243 0.435584
0.248631 0.630915 0.436805
0.264714 0.632563 0.439277
0.287816 0.635187 0.443030
0.301091 0.640436 0.443763
0.319127 0.647181 0.444923
0.341436 0.655634 0.447242
0.372717 0.665034 0.452613
0.427253 0.673915 0.470893
0.481697 0.683101 0.491859
0.533623 0.692531 0.514916
0.537926 0.680903 0.475929
0.545861 0.663661 0.424811
0.558343 0.641138 0.366979
0.571740 0.611109 0.302464
0.580621 0.572595 0.237461
0.581720 0.526329 0.179232
0.600610 0.502922 0.138582
0.645380 0.511528 0.132937
0.687617 0.519951 0.128450
0.726345 0.528771 0.139071
0.761288 0.536950 0.151522
0.792691 0.544396 0.164462
0.820615 0.551324 0.179934
0.845304 0.557855 0.197391
0.867063 0.564416 0.216251
0.886168 0.571069 0.237339
0.901884 0.576349 0.260441
0.915038 0.581415 0.285374
0.926452 0.588190 0.314672
0.935943 0.596826 0.348211
0.347692 0.668544 0.495766
0.349584 0.668910 0.496376
0.401251 0.683223 0.523705
0.411780 0.684077 0.526360
0.429053 0.685389 0.530755
0.440803 0.688533 0.532799
0.454963 0.692866 0.535302
0.472541 0.697963 0.538933
0.493141 0.704158 0.543816
0.526329 0.710079 0.556451
0.564630 0.716091 0.573114
0.601404 0.722286 0.590417
0.625269 0.724483 0.594629
0.619501 0.713832 0.556603
0.617609 0.699672 0.507256
0.621668 0.680659 0.445899
0.629816 0.655055 0.373938
0.637629 0.621424 0.296452
0.638941 0.578485 0.219760
0.652003 0.549828 0.157992
0.691981 0.555932 0.156832
0.729183 0.561822 0.159579
0.762600 0.567620 0.173892
0.792294 0.573388 0.192508
0.818509 0.578363 0.210208
0.841703 0.583337 0.228702
0.862486 0.588190 0.248112
0.880888 0.593561 0.269078
0.897093 0.599573 0.292821
0.911162 0.606439 0.319280
0.922118 0.612177 0.347845
0.931029 0.619348 0.379919
0.454688 0.699977 0.557519
0.459541 0.701045 0.560021
0.467689 0.702358 0.563500
0.479530 0.703914 0.568048
0.495186 0.705531 0.573571
0.507927 0.708034 0.577356
0.519097 0.711299 0.580011
0.532555 0.715206 0.583276
0.548333 0.719875 0.587610
0.568139 0.724971 0.594263
0.598138 0.729610 0.607599
0.627619 0.734524 0.621485
0.655787 0.739498 0.635309
0.663081 0.737240 0.625757
0.656794 0.727718 0.592035
0.653468 0.715328 0.547753
0.654719 0.699062 0.490150
0.661341 0.677516 0.421027
0.669734 0.649012 0.342168
0.674037 0.611688 0.259373
0.685267 0.581659 0.182498
0.722225 0.586877 0.186435
0.755917 0.591547 0.193820
0.786038 0.595941 0.209232
0.812070 0.600305 0.231083
0.835142 0.604517 0.252140
0.855711 0.608759 0.273198
0.874022 0.613458 0.295659
0.890166 0.618891 0.320348
0.904112 0.625208 0.347814
0.915923 0.632532 0.377996
0.925231 0.640650 0.410834
0.525505 0.719112 0.600336
0.529351 0.720027 0.602533
0.536065 0.721126 0.605646
0.544945 0.722347 0.609522
0.556878 0.723659 0.614130
0.568109 0.725246 0.618036
0.576928 0.727901 0.620508
0.587213 0.730953 0.623377
0.599145 0.734463 0.627100
0.612696 0.738552 0.631495
0.633021 0.742428 0.640253
0.656153 0.746365 0.651057
0.678584 0.750423 0.661921
0.700099 0.754482 0.672663
0.696651 0.749142 0.654627
0.690455 0.740810 0.625635
0.686519 0.730159 0.587152
0.686122 0.716274 0.536400
0.690578 0.698085 0.471290
0.698756 0.674006 0.393225
0.705867 0.642420 0.307500
0.720638 0.616815 0.223789
0.749111 0.615381 0.223331
0.779263 0.618769 0.234043
0.805814 0.621759 0.248569
0.828824 0.625269 0.274052
0.849210 0.628901 0.297856
0.867277 0.633021 0.321813
0.883238 0.637873 0.347875
0.897093 0.643549 0.376013
0.908659 0.650324 0.406836
0.917967 0.658137 0.439887
0.585199 0.735439 0.637812
0.587945 0.736080 0.639490
0.592950 0.736904 0.641901
0.599573 0.737819 0.644862
0.608301 0.738827 0.648463
0.617975 0.739864 0.652094
0.624781 0.741909 0.654231
0.632532 0.744381 0.656641
0.641901 0.747189 0.659693
0.652125 0.750423 0.663142
0.664820 0.753811 0.668116
0.682734 0.756924 0.676417
0.700679 0.760250 0.685023
0.718196 0.763577 0.693568
0.730648 0.765438 0.697414
0.724727 0.759762 0.679286
0.719631 0.752651 0.655543
0.716060 0.743648 0.623713
0.715541 0.732387 0.581872
0.719112 0.717769 0.526207
0.727047 0.698543 0.455085
0.736690 0.672877 0.369970
0.753658 0.651148 0.284123
0.777462 0.646326 0.275731
0.803891 0.648920 0.291386
0.827207 0.651209 0.308873
0.846952 0.654231 0.336095
0.864164 0.657954 0.364538
0.879118 0.662440 0.393256
0.891936 0.667689 0.423285
0.902495 0.673976 0.454841
0.910704 0.681331 0.488167
0.646387 0.752529 0.676905
0.647761 0.752773 0.677607
0.649683 0.753048 0.678492
0.653498 0.753445 0.679957
0.658808 0.753902 0.681971
0.665461 0.754452 0.684443
0.670375 0.755856 0.686000
0.676112 0.757656 0.687800
0.682979 0.759854 0.690120
0.690913 0.762387 0.692927
0.699611 0.765225 0.696193
0.712093 0.767849 0.701747
0.725917 0.770474 0.708278
0.739681 0.773159 0.714809
0.753048 0.775906 0.721309
0.756741 0.775174 0.718257
0.751461 0.770291 0.703334
0.746700 0.764157 0.683772
0.743160 0.756497 0.657801
0.741665 0.746822 0.622614
0.743557 0.734401 0.575250
0.749569 0.718135 0.511162
0.759060 0.696315 0.429023
0.775967 0.676570 0.341527
0.796323 0.669184 0.322545
0.819547 0.670954 0.339971
0.840146 0.672969 0.359777
0.857633 0.675868 0.387366
0.872404 0.679805 0.418830
0.884916 0.684565 0.449928
0.895171 0.690272 0.482124
0.903166 0.697047 0.515190
0.684077 0.763790 0.701076
0.684901 0.763943 0.701503
0.686488 0.764187 0.702235
0.689448 0.764492 0.703395
0.693355 0.764889 0.704921
0.698573 0.765347 0.706905
0.703365 0.766384 0.708583
0.707759 0.767819 0.710018
0.713130 0.769528 0.711879
0.719326 0.771572 0.714137
0.726192 0.773800 0.716670
0.734340 0.776181 0.720027
0.745418 0.778317 0.725124
0.756497 0.780545 0.730312
0.767453 0.782773 0.735531
0.778042 0.785092 0.740597
0.776272 0.782742 0.733608
0.771817 0.778561 0.721370
0.767666 0.773404 0.705318
0.764553 0.766995 0.684169
0.763058 0.758877 0.655787
0.764248 0.748531 0.616999
0.769009 0.735042 0.563073
0.778042 0.717067 0.489143
0.792660 0.697322 0.396643
0.811093 0.688624 0.367956
0.831907 0.690242 0.387915
0.850065 0.692317 0.410193
0.865415 0.695247 0.437873
0.877836 0.699519 0.471199
0.887999 0.704829 0.504723
0.896025 0.711086 0.537896
0.720333 0.774807 0.723903
0.721340 0.775021 0.724422
0.722530 0.775204 0.724941
0.724178 0.775357 0.725582
0.726680 0.775509 0.726406
0.730220 0.775723 0.727626
0.733608 0.776211 0.728725
0.736385 0.777157 0.729458
0.739925 0.778317 0.730465
0.744167 0.779751 0.731838
0.748898 0.781399 0.733425
0.754360 0.783200 0.735378
0.762051 0.784909 0.738674
0.770687 0.786587 0.742489
0.779202 0.788296 0.746304
0.787686 0.790127 0.750179
0.794461 0.791409 0.752621
0.790311 0.788327 0.744259
0.786313 0.784695 0.733852
0.782895 0.780270 0.720455
0.780179 0.774777 0.702815
0.778836 0.767941 0.679225
0.779538 0.759091 0.646815
0.783322 0.747524 0.600916
0.791135 0.732052 0.535668
0.807065 0.716762 0.455970
0.824277 0.707485 0.418128
0.842313 0.708766 0.439246
0.858000 0.710811 0.463081
0.871275 0.713741 0.490211
0.881285 0.718318 0.524346
0.889372 0.723873 0.557336
0.743648 0.782223 0.738277
0.744442 0.782406 0.738705
0.745480 0.782589 0.739193
0.747005 0.782742 0.739773
0.749172 0.782956 0.740597
0.752285 0.783261 0.741726
0.755886 0.783688 0.743099
0.758541 0.784573 0.743954
0.761776 0.785641 0.745052
0.765438 0.786923 0.746365
0.769528 0.788296 0.747829
0.773983 0.789822 0.749447
0.779110 0.791348 0.751431
0.785977 0.792752 0.754452
0.792813 0.794156 0.757412
0.799527 0.795621 0.760342
0.806210 0.797147 0.763302
0.808499 0.797055 0.762539
0.805020 0.794400 0.755764
0.801694 0.791318 0.747250
0.798642 0.787564 0.736263
0.796201 0.782986 0.722103
0.794827 0.777249 0.702998
0.795102 0.769955 0.676844
0.798062 0.760464 0.640131
0.804898 0.747921 0.587274
0.819547 0.735348 0.519036
0.836240 0.726467 0.476173
0.851591 0.728084 0.499580
0.864622 0.730434 0.525078
0.875425 0.733730 0.552026
0.883391 0.738460 0.583581
0.766415 0.789548 0.751949
0.766903 0.789639 0.752163
0.767605 0.789761 0.752438
0.768673 0.789853 0.752865
0.770382 0.790036 0.753475
0.772671 0.790219 0.754330
0.775662 0.790524 0.755428
0.777829 0.791196 0.756161
0.780240 0.792020 0.756924
0.783108 0.793027 0.757931
0.786282 0.794125 0.759030
0.789792 0.795346 0.760281
0.793454 0.796658 0.761593
0.798520 0.797848 0.763699
0.803983 0.799039 0.765988
0.809445 0.800229 0.768307
0.814908 0.801450 0.770657
0.820279 0.802731 0.772976
0.819577 0.801633 0.770169
0.816739 0.799435 0.764614
0.813931 0.796811 0.757687
0.811307 0.793637 0.748745
0.809110 0.789761 0.737057
0.807645 0.784878 0.721340
0.807645 0.778744 0.699977
0.809934 0.770901 0.670314
0.815763 0.760678 0.627771
0.828550 0.750210 0.571160
0.844633 0.742031 0.526818
0.857755 0.743954 0.550988
0.868711 0.746761 0.576593
0.877623 0.750484 0.603204
0.784451 0.795529 0.762417
0.784726 0.795560 0.762539
0.785306 0.795682 0.762783
0.786282 0.795773 0.763180
0.787716 0.795987 0.763729
0.789822 0.796262 0.764584
0.792782 0.796658 0.765743
0.795315 0.797360 0.766751
0.797848 0.798215 0.767727
0.800656 0.799222 0.768856
0.803799 0.800290 0.770077
0.807034 0.801450 0.771359
0.810361 0.802640 0.772641
0.813962 0.803799 0.774075
0.818357 0.804837 0.775937
0.822629 0.805814 0.777707
0.826871 0.806821 0.779416
0.831022 0.807858 0.781155
0.834806 0.808804 0.782620
0.832609 0.807279 0.779263
0.830411 0.805478 0.775082
0.828153 0.803342 0.769833
0.825925 0.800748 0.763058
0.824033 0.797665 0.754299
0.822690 0.793820 0.742550
0.822416 0.789059 0.726650
0.824002 0.783108 0.704829
0.828611 0.775387 0.673732
0.839017 0.767575 0.632837
0.853666 0.761105 0.594354
0.864042 0.763272 0.617212
0.872587 0.766262 0.640070
0.804227 0.802182 0.773495
0.804349 0.802182 0.773556
0.804685 0.802213 0.773678
0.805264 0.802274 0.773861
0.806271 0.802365 0.774228
0.807675 0.802548 0.774746
0.809537 0.802762 0.775418
0.811398 0.803159 0.776089
0.812955 0.803708 0.776608
0.814725 0.804349 0.777218
0.816739 0.805081 0.777920
0.818906 0.805905 0.778653
0.821195 0.806760 0.779507
0.823575 0.807645 0.780331
