20 Preset/Art Style/【3】LUT video cho PR-AE-FCPX/Portra 800 Alt 2.cube
# Created by Adobe Lightroom plugin Export LUT (1.24.0)
# www.johnrellis.com/lightroom/exportlut.htm
# Preset: Portra 800 Alt 2
# Color profile: E:\lut插件\exportlut.1.24\exportlut.lrplugin\color profiles\Rec709gamma2.4.icc
LUT_3D_SIZE 5
DOMAIN_MIN 0.000000 0.000000 0.000000
DOMAIN_MAX 0.903226 0.903226 0.903226
0.000000 0.121279 0.191165
0.116335 0.122133 0.192477
0.553735 0.000000 0.190402
0.916991 0.000000 0.188602
1.000000 0.000000 0.216495
0.000000 0.173709 0.208927
0.093141 0.173007 0.195224
0.516655 0.158938 0.179965
0.906859 0.000000 0.174655
1.000000 0.000000 0.203403
0.000000 0.544213 0.358068
0.000000 0.564538 0.354650
0.547753 0.509453 0.184390
0.868742 0.428199 0.106355
1.000000 0.451667 0.093782
0.526024 0.825040 0.623499
0.553155 0.839353 0.622583
0.729305 0.871061 0.651484
0.852476 0.758999 0.335668
1.000000 0.767117 0.128450
0.847074 0.985870 0.868925
0.859770 0.986969 0.869780
0.904631 0.986847 0.872679
0.962921 0.983795 0.841306
1.000000 0.961761 0.545830
0.000000 0.126955 0.221500
0.010193 0.127016 0.214481
0.506859 0.000000 0.215610
0.876951 0.000000 0.190433
1.000000 0.000000 0.202731
0.000000 0.172335 0.241550
0.057710 0.177951 0.244755
0.498726 0.159915 0.228275
0.871092 0.000000 0.194766
1.000000 0.000000 0.189944
0.000000 0.497902 0.368750
0.188144 0.514946 0.395026
0.514549 0.482185 0.276097
0.838926 0.422919 0.216190
1.000000 0.452308 0.103853
0.501518 0.806058 0.623011
0.578943 0.816983 0.642847
0.743099 0.867094 0.685908
0.845884 0.754879 0.409613
1.000000 0.767239 0.264500
0.828244 0.984924 0.865629
0.862547 0.984436 0.876890
0.917266 0.987579 0.889616
0.969879 0.985168 0.871305
1.000000 0.965332 0.590356
0.000000 0.151949 0.375402
0.000000 0.152773 0.377935
0.369787 0.136568 0.358923
0.841978 0.000000 0.367010
1.000000 0.200381 0.382208
0.000000 0.211124 0.396490
0.000000 0.211368 0.405737
0.410956 0.216068 0.391455
0.843839 0.174685 0.394049
1.000000 0.313573 0.396002
0.000000 0.446357 0.471351
0.000000 0.453376 0.474159
0.504021 0.480415 0.493477
0.820371 0.495430 0.474067
1.000000 0.531579 0.426001
0.347112 0.737240 0.611017
0.438849 0.741360 0.621424
0.695369 0.786313 0.688502
0.828519 0.746975 0.571679
1.000000 0.763516 0.477760
0.693477 0.978973 0.842130
0.748013 0.979339 0.853544
0.907744 0.980316 0.901793
0.979950 0.985718 0.928283
1.000000 0.962737 0.681147
0.000000 0.215518 0.581628
0.000000 0.221317 0.586328
0.380102 0.225437 0.586694
0.716304 0.237369 0.563958
1.000000 0.389166 0.604242
0.000000 0.265690 0.587732
0.000000 0.270634 0.592798
0.392248 0.284550 0.593561
0.714321 0.315526 0.573266
1.000000 0.428931 0.613428
0.000000 0.429633 0.613519
0.000000 0.433478 0.612604
0.413458 0.463905 0.622889
0.727108 0.512474 0.620935
1.000000 0.551080 0.652644
0.000000 0.683680 0.682002
0.000000 0.683040 0.680995
0.480140 0.689815 0.687007
0.784512 0.720027 0.717586
1.000000 0.763333 0.696559
0.285679 0.954498 0.832425
0.389837 0.956725 0.837613
0.663935 0.966491 0.864591
0.965179 0.978149 0.939696
1.000000 0.964080 0.827817
0.000000 0.399329 0.836881
0.000000 0.406165 0.836484
0.476692 0.417243 0.830320
0.796597 0.431739 0.817594
0.984283 0.469154 0.793698
0.000000 0.430304 0.836423
0.000000 0.436164 0.836301
0.476326 0.449622 0.832090
0.794369 0.462379 0.820218
0.983764 0.497841 0.798886
0.000000 0.536400 0.845304
0.000000 0.535943 0.842802
0.413550 0.545769 0.843870
0.779446 0.554711 0.836881
0.988830 0.593347 0.824399
0.000000 0.758206 0.887175
0.000000 0.753384 0.885161
0.190219 0.731899 0.878386
0.673976 0.691676 0.874998
0.998993 0.754574 0.876860
0.000000 0.968048 0.940002
0.000000 0.966888 0.939788
0.352209 0.962737 0.939910
0.708492 0.953124 0.939910
0.995819 0.959655 0.955016
