20 Preset/Art Style/【3】LUT video cho PR-AE-FCPX/Portra 160 Alt.cube
# Created by Adobe Lightroom plugin Export LUT (1.24.0)
# www.johnrellis.com/lightroom/exportlut.htm
# Preset: Portra 160 Alt
# Color profile: E:\lut插件\exportlut.1.24\exportlut.lrplugin\color profiles\Rec709gamma2.4.icc
LUT_3D_SIZE 8
DOMAIN_MIN 0.000000 0.000000 0.000000
DOMAIN_MAX 0.903226 0.903226 0.903226
0.070466 0.140597 0.138125
0.105684 0.143893 0.141512
0.200565 0.148074 0.148348
0.395209 0.120577 0.151766
0.632776 0.000000 0.154849
0.806394 0.000000 0.167788
0.923980 0.025513 0.204288
1.000000 0.264836 0.283330
0.063447 0.161929 0.146883
0.104097 0.162295 0.141909
0.193301 0.164248 0.148104
0.380072 0.155245 0.150149
0.615229 0.086885 0.151827
0.793179 0.000000 0.163638
0.913848 0.139193 0.199191
0.996124 0.277134 0.276036
0.000000 0.266697 0.165743
0.005615 0.261631 0.164736
0.236210 0.273594 0.134188
0.406378 0.255924 0.130465
0.602747 0.247776 0.138186
0.782284 0.253056 0.151614
0.909911 0.294438 0.199374
0.990112 0.369909 0.286656
0.000000 0.478004 0.221714
0.000000 0.473701 0.219394
0.259037 0.460670 0.212985
0.507744 0.503716 0.000000
0.701747 0.478584 0.000000
0.770077 0.409247 0.129152
0.889067 0.432807 0.195682
0.969940 0.475410 0.294591
0.000000 0.662226 0.359960
0.025208 0.659998 0.358221
0.337407 0.652827 0.353704
0.508507 0.653071 0.321813
0.689784 0.679316 0.096834
0.834104 0.652583 0.000000
0.880858 0.576776 0.140993
0.941131 0.577417 0.307958
0.375982 0.773220 0.510277
0.401495 0.774624 0.513848
0.470008 0.771267 0.511803
0.568292 0.765194 0.507866
0.662470 0.772274 0.459205
0.790860 0.788846 0.309209
0.911803 0.778195 0.000000
0.949828 0.722438 0.294072
0.555566 0.849302 0.643488
0.563806 0.849363 0.644099
0.591608 0.847593 0.642908
0.640986 0.844694 0.641321
0.702602 0.840116 0.637537
0.764034 0.851591 0.585473
0.860441 0.863798 0.469123
0.970855 0.865019 0.181979
0.678126 0.915465 0.754116
0.681697 0.915282 0.754025
0.696895 0.914763 0.754299
0.725460 0.914031 0.755184
0.757992 0.908843 0.748562
0.801389 0.910460 0.742428
0.851194 0.920409 0.701900
0.926574 0.928679 0.600214
0.084260 0.147433 0.157412
0.101564 0.148165 0.151766
0.198245 0.152285 0.151400
0.373754 0.150515 0.150423
0.609918 0.075044 0.152163
0.789364 0.000000 0.163210
0.909972 0.117800 0.197177
0.993347 0.259159 0.270359
0.054231 0.164340 0.164034
0.106661 0.164675 0.161440
0.198367 0.170535 0.158145
0.370886 0.173159 0.148867
0.603693 0.140505 0.149111
0.783627 0.110140 0.160311
0.903868 0.167880 0.194217
0.987823 0.275212 0.265690
0.000000 0.266758 0.196506
0.007233 0.267308 0.190280
0.237552 0.272068 0.165164
0.399512 0.255619 0.151614
0.592889 0.255314 0.137057
0.771542 0.262058 0.148806
0.894987 0.292332 0.190341
0.980865 0.359808 0.272374
0.000000 0.469825 0.261509
0.000000 0.469215 0.249271
0.263828 0.457496 0.244541
0.492409 0.487800 0.128267
0.676478 0.456947 0.000000
0.751003 0.398016 0.124269
0.873838 0.420356 0.182986
0.961395 0.462654 0.278172
0.082521 0.657221 0.393744
0.108797 0.656031 0.378485
0.340764 0.647608 0.372564
0.505760 0.643244 0.346319
0.679744 0.667842 0.179690
0.823026 0.641016 0.000000
0.875364 0.570794 0.126925
0.936675 0.570092 0.296971
0.391363 0.768063 0.523613
0.395789 0.768215 0.516991
0.465034 0.765072 0.515526
0.564569 0.759762 0.513481
0.659541 0.766812 0.471962
0.786893 0.785061 0.340612
0.906493 0.773861 0.034485
0.947753 0.718379 0.284916
0.556512 0.845457 0.646662
0.557031 0.845029 0.642329
0.585290 0.843137 0.640986
0.636133 0.840635 0.640436
0.699794 0.837125 0.638911
0.761196 0.848264 0.590692
0.856260 0.860136 0.479591
0.965484 0.860899 0.230900
0.676234 0.912840 0.754055
0.678248 0.913268 0.753201
0.693416 0.912688 0.753323
0.722286 0.912016 0.754360
0.760983 0.910613 0.754604
0.802670 0.910796 0.747402
0.850675 0.919829 0.706538
0.925231 0.928099 0.609705
0.099489 0.158633 0.247532
0.142702 0.161105 0.238956
0.201694 0.167239 0.211398
0.431830 0.128603 0.221378
0.638575 0.106111 0.196811
0.790646 0.152712 0.164858
0.910491 0.214450 0.198062
0.993286 0.305211 0.276860
0.029633 0.179080 0.260044
0.136629 0.183505 0.253361
0.217258 0.191745 0.226993
0.433143 0.163638 0.225834
0.632441 0.163943 0.204410
0.785275 0.192660 0.171511
0.904479 0.238193 0.195132
0.988617 0.317784 0.273594
0.000000 0.278325 0.289342
0.000000 0.279484 0.287602
0.270756 0.290898 0.285466
0.442390 0.284398 0.260105
0.629633 0.284154 0.230686
0.780728 0.296727 0.191379
0.895720 0.326299 0.191745
0.979950 0.383642 0.277226
0.000000 0.481086 0.366766
0.000000 0.482460 0.365240
0.296971 0.486275 0.357153
0.511742 0.495827 0.308904
0.663539 0.453132 0.269810
0.765072 0.427527 0.239780
0.877867 0.438727 0.187869
0.963012 0.478157 0.286381
0.151583 0.656947 0.465126
0.233249 0.656489 0.465461
0.383429 0.655848 0.460822
0.537499 0.644678 0.457465
0.684047 0.670497 0.365789
0.810483 0.637018 0.284977
0.868681 0.577356 0.256596
0.938354 0.576959 0.303838
0.413916 0.766384 0.568139
0.436378 0.766384 0.569909
0.489754 0.765896 0.565637
0.579248 0.760464 0.564050
0.667659 0.763302 0.542870
0.782193 0.782437 0.458503
0.893156 0.770108 0.349157
0.948455 0.720424 0.300359
0.572930 0.845274 0.674403
0.581994 0.844633 0.675288
0.600092 0.843778 0.669368
0.646601 0.841001 0.668421
0.705928 0.837583 0.667384
0.764462 0.847166 0.635035
0.853361 0.860624 0.555322
0.956298 0.861418 0.410925
0.683803 0.912444 0.768978
0.688350 0.912139 0.769406
0.693935 0.912444 0.763668
0.723690 0.912322 0.765652
0.762173 0.910979 0.766171
0.805509 0.910491 0.763638
0.851560 0.920012 0.729885
0.922881 0.928496 0.652827
0.127108 0.176181 0.439338
0.198947 0.179171 0.437201
0.350927 0.202823 0.416693
0.445655 0.209873 0.374212
0.701015 0.202274 0.408148
0.833402 0.120882 0.332341
0.911711 0.275883 0.314305
0.989960 0.328862 0.277012
0.118990 0.211154 0.449622
0.198093 0.215000 0.446754
0.360632 0.239109 0.429236
0.459998 0.247807 0.389868
0.699184 0.247440 0.415259
0.829129 0.192447 0.340276
0.907836 0.303197 0.322942
0.987274 0.344884 0.277195
0.000000 0.303166 0.463386
0.000000 0.304479 0.463447
0.346685 0.331212 0.461311
0.489754 0.359503 0.432166
0.690578 0.360998 0.436011
0.802762 0.375921 0.397284
0.898894 0.400122 0.363409
0.980529 0.414954 0.305272
0.000000 0.482490 0.505791
0.000000 0.483406 0.504631
0.299840 0.490364 0.502434
0.542138 0.515770 0.510491
0.665064 0.498421 0.471778
0.774899 0.494728 0.439155
0.873747 0.497200 0.400305
0.960479 0.502251 0.345647
0.102327 0.661891 0.571649
0.212955 0.661067 0.570214
0.397986 0.660426 0.568353
0.565057 0.664790 0.572839
0.687984 0.675380 0.544701
0.780209 0.635950 0.498085
0.846555 0.601373 0.455482
0.934051 0.603632 0.411444
0.423651 0.768612 0.632776
0.446601 0.770169 0.635554
0.514458 0.768948 0.637263
0.605310 0.769314 0.640925
0.688685 0.764279 0.639399
0.778592 0.782925 0.593256
0.869535 0.766506 0.537774
0.924407 0.725460 0.489143
0.563226 0.845518 0.703822
0.573724 0.845457 0.705104
0.612573 0.844816 0.709804
0.662287 0.844816 0.712337
0.717372 0.841855 0.712612
0.771633 0.846983 0.698726
0.848753 0.860807 0.649012
0.939117 0.859770 0.570855
0.671717 0.914794 0.783688
0.677028 0.914611 0.784268
0.698390 0.914092 0.786984
0.724971 0.914275 0.786007
0.763638 0.912779 0.786618
0.808194 0.911101 0.787076
0.852384 0.919951 0.763790
0.919982 0.929320 0.710994
0.268315 0.229801 0.628779
0.318486 0.236271 0.628992
0.462165 0.266697 0.623743
0.613703 0.354955 0.609064
0.686580 0.342382 0.572412
0.837522 0.426246 0.603693
0.922148 0.407782 0.547662
0.985290 0.419409 0.492683
0.279973 0.270665 0.631312
0.328344 0.276982 0.631708
0.467750 0.305119 0.627466
0.614984 0.383703 0.613428
0.687343 0.376196 0.579583
0.833097 0.453651 0.610101
0.917357 0.427955 0.552453
0.979461 0.441505 0.501457
0.217716 0.358221 0.634485
0.298100 0.371923 0.634852
0.454505 0.397345 0.633082
0.612512 0.461494 0.626001
0.683864 0.473243 0.598962
0.813352 0.520012 0.620447
0.898711 0.486824 0.563256
0.956542 0.508476 0.527581
0.000000 0.483833 0.637659
0.138277 0.485145 0.636805
0.345312 0.492439 0.635340
0.586358 0.546929 0.643610
0.684413 0.586542 0.633112
0.791287 0.593194 0.631952
0.866026 0.575708 0.587488
0.938659 0.576257 0.550042
0.233921 0.638605 0.660273
0.281193 0.639673 0.660182
0.406592 0.643885 0.659602
0.552514 0.654810 0.661128
0.690517 0.678859 0.670985
0.761776 0.660548 0.638392
0.839231 0.650629 0.607294
0.918456 0.645594 0.570611
0.378302 0.761563 0.697841
0.399390 0.761593 0.697871
0.473091 0.760586 0.696101
0.580743 0.760830 0.694606
0.690242 0.765927 0.701381
0.771664 0.778531 0.691188
0.838621 0.753994 0.653346
0.894347 0.723781 0.609491
0.529778 0.843656 0.741482
0.538750 0.843137 0.740963
0.576135 0.842008 0.740566
0.644373 0.841917 0.744656
0.716213 0.843565 0.750851
0.774838 0.842252 0.751003
0.842039 0.857969 0.723232
0.917479 0.851286 0.677638
0.627375 0.914000 0.797116
0.633967 0.913725 0.797360
0.660060 0.912840 0.798764
0.707759 0.913207 0.804654
0.756283 0.913481 0.807584
0.804654 0.911894 0.809171
0.850492 0.917418 0.798550
0.914733 0.927733 0.761624
0.445594 0.338781 0.756771
0.473091 0.346685 0.756924
0.561212 0.379339 0.754299
0.676539 0.453010 0.750546
0.762020 0.559991 0.740322
0.810941 0.523430 0.715328
0.891081 0.592554 0.727962
0.956268 0.605615 0.710811
0.448127 0.366064 0.752773
0.472969 0.372747 0.752346
0.559289 0.402564 0.750851
0.671534 0.467994 0.747005
0.757534 0.567285 0.737850
0.805631 0.535851 0.714015
0.886259 0.601617 0.728084
0.952422 0.610681 0.710231
0.451362 0.451514 0.753048
0.475196 0.456764 0.752865
0.558190 0.481331 0.752163
0.665370 0.530175 0.748409
0.752377 0.609827 0.743221
0.796414 0.595575 0.723110
0.873625 0.649470 0.740108
0.941466 0.642084 0.717586
0.347143 0.517388 0.746334
0.384100 0.522515 0.746517
0.503136 0.548669 0.749355
0.645563 0.602533 0.752895
0.745724 0.666560 0.754604
0.787289 0.675502 0.741695
0.859434 0.714443 0.761227
0.927367 0.684321 0.726558
0.349096 0.631037 0.746029
0.372015 0.632105 0.745541
0.450752 0.636622 0.744289
0.559014 0.646723 0.743343
0.712093 0.698146 0.754208
0.775875 0.732143 0.753719
0.843961 0.737667 0.755367
0.909087 0.710628 0.716487
0.432563 0.742641 0.758480
0.448798 0.743893 0.759091
0.501488 0.745876 0.758511
0.583215 0.750790 0.758389
0.677760 0.760647 0.760403
0.773465 0.782559 0.772061
0.824491 0.767758 0.746822
0.891173 0.759426 0.720912
0.507836 0.842344 0.794369
0.518669 0.842649 0.794705
0.555383 0.842466 0.794247
0.616266 0.842771 0.793973
0.694575 0.843992 0.792691
0.775265 0.848997 0.797055
0.840238 0.858946 0.789883
0.896635 0.841154 0.756588
0.595178 0.914763 0.833219
0.600214 0.914397 0.832639
0.622827 0.913848 0.831388
0.664729 0.913756 0.830198
0.726101 0.913512 0.830503
0.795956 0.914519 0.836027
0.850706 0.914855 0.837613
0.911376 0.927398 0.815000
0.585046 0.476631 0.835935
0.599268 0.484047 0.836088
0.647669 0.509483 0.834470
0.720180 0.558679 0.831937
0.789975 0.627649 0.826963
0.834470 0.694972 0.819821
0.870481 0.660731 0.803189
0.923552 0.702358 0.808713
0.582635 0.489754 0.832303
0.596826 0.496864 0.832670
0.644526 0.520287 0.831479
0.715633 0.565179 0.828794
0.785763 0.630640 0.824155
0.830655 0.697078 0.816983
0.865812 0.662257 0.799863
0.919615 0.702205 0.805753
0.583368 0.545006 0.830350
0.595575 0.549584 0.830167
0.640833 0.567712 0.829068
0.710445 0.604913 0.827359
0.780026 0.660517 0.824033
0.826780 0.725643 0.819608
0.859007 0.698024 0.805509
0.914641 0.732570 0.815183
0.544945 0.594507 0.827237
0.564752 0.602716 0.826658
0.619196 0.622187 0.825895
0.694453 0.653864 0.826108
0.769924 0.700771 0.825834
0.823636 0.757778 0.826322
0.851347 0.745022 0.815091
0.908598 0.770443 0.827207
0.425971 0.634516 0.816373
0.437873 0.634272 0.815396
0.507958 0.643366 0.815427
0.625299 0.673762 0.819242
0.739986 0.725978 0.823239
0.812863 0.776303 0.828611
0.843229 0.782193 0.822171
0.904967 0.807462 0.839963
0.469917 0.735622 0.821592
0.480049 0.736141 0.821408
0.519097 0.737636 0.820523
0.583703 0.740841 0.818997
0.663935 0.747066 0.817105
0.785824 0.792233 0.830716
0.841917 0.823758 0.836606
0.900938 0.827054 0.839231
0.528527 0.823880 0.834714
0.536706 0.824399 0.834867
0.566003 0.825071 0.834348
0.616999 0.826993 0.833738
0.681453 0.830503 0.833219
0.754177 0.838285 0.835355
0.838254 0.857603 0.847196
0.885405 0.842130 0.821775
0.573541 0.912016 0.873045
0.579156 0.912078 0.873014
0.602472 0.912688 0.873320
0.641566 0.913024 0.872709
0.695064 0.913542 0.871427
0.764553 0.914672 0.868803
0.845701 0.918547 0.872526
0.910338 0.927947 0.867918
0.698116 0.620844 0.898924
0.705074 0.625116 0.898833
0.729824 0.638666 0.897124
0.772549 0.667933 0.894896
0.820645 0.708583 0.891417
0.862547 0.754940 0.886992
0.892241 0.782803 0.882963
0.920256 0.757931 0.870970
0.695369 0.625788 0.897093
0.702388 0.629877 0.897093
0.727718 0.643793 0.895781
0.770077 0.671626 0.893523
0.818479 0.711025 0.890288
0.860868 0.756466 0.886137
0.890471 0.784390 0.881956
0.918059 0.759335 0.869749
0.689693 0.651392 0.894896
0.696315 0.654597 0.894713
0.721370 0.666468 0.893492
0.765408 0.693172 0.892607
0.813840 0.727169 0.889830
0.857359 0.767483 0.886351
0.887877 0.797818 0.883024
0.914244 0.774350 0.871489
0.669490 0.683619 0.892302
0.676967 0.686641 0.892302
0.704433 0.697322 0.891600
0.750576 0.718868 0.890929
0.803372 0.748959 0.889799
0.851713 0.785397 0.888396
0.885679 0.820737 0.886900
0.910063 0.800137 0.876524
0.582452 0.690578 0.890074
0.593622 0.693660 0.890288
0.634394 0.704585 0.889982
0.711574 0.738155 0.889036
0.778073 0.765530 0.889097
0.838712 0.800046 0.889738
0.882963 0.841611 0.891417
0.906218 0.828367 0.883024
0.512261 0.746700 0.888701
0.518059 0.746059 0.888151
0.543236 0.744381 0.886351
0.591302 0.742885 0.883879
0.702449 0.766964 0.886534
0.809659 0.812833 0.891875
0.879088 0.858000 0.899016
0.907073 0.863127 0.895354
0.553460 0.834623 0.898985
0.558587 0.834409 0.898711
0.579217 0.833799 0.897673
0.617945 0.833158 0.896117
0.670741 0.831968 0.893736
0.734005 0.830381 0.890837
0.851896 0.866484 0.901335
0.908995 0.896208 0.908263
0.597925 0.904143 0.912718
0.601495 0.904021 0.912474
0.617456 0.903899 0.911955
0.648615 0.904234 0.911345
0.693111 0.904631 0.910155
0.749447 0.905547 0.908385
0.818631 0.909209 0.907744
0.907774 0.925414 0.918029
