20 Preset/Art Style/【3】LUT video cho PR-AE-FCPX/Portra 160 _.cube
# Created by Adobe Lightroom plugin Export LUT (1.24.0)
# www.johnrellis.com/lightroom/exportlut.htm
# Preset: Portra 160 +
# Color profile: E:\lut插件\exportlut.1.24\exportlut.lrplugin\color profiles\Rec709gamma2.4.icc
LUT_3D_SIZE 32
DOMAIN_MIN 0.0 0.0 0.0
DOMAIN_MAX 1.0 1.0 1.0
0.026215 0.098085 0.038178
0.029877 0.097932 0.039277
0.036408 0.098451 0.038972
0.054566 0.098512 0.039704
0.080415 0.099702 0.039826
0.098817 0.100313 0.042115
0.118471 0.101411 0.042573
0.144381 0.101167 0.043793
0.176516 0.099641 0.044129
0.216495 0.094789 0.043275
0.264958 0.081392 0.039612
0.321233 0.031800 0.034852
0.385046 0.000000 0.028168
0.454292 0.000000 0.018158
0.526238 0.000000 0.003571
0.598596 0.000000 0.000000
0.669093 0.000000 0.000000
0.736141 0.000000 0.000000
0.797543 0.000000 0.000000
0.853513 0.000000 0.000000
0.903441 0.000000 0.000000
0.947845 0.000000 0.000000
0.986297 0.000000 0.000000
1.000000 0.000000 0.000000
1.000000 0.000000 0.000000
1.000000 0.000000 0.000000
1.000000 0.000000 0.000000
1.000000 0.000000 0.000000
1.000000 0.000000 0.000000
1.000000 0.000000 0.000000
1.000000 0.166659 0.000000
1.000000 0.243778 0.120760
0.028473 0.098756 0.039002
0.030457 0.098695 0.038972
0.036988 0.099184 0.038636
0.055116 0.099245 0.039399
0.081209 0.100008 0.039643
0.098451 0.101076 0.040681
0.118288 0.101808 0.042420
0.143862 0.101595 0.043671
0.175174 0.100679 0.042725
0.214145 0.096376 0.041932
0.261540 0.084932 0.039612
0.317144 0.038941 0.035126
0.379614 0.000000 0.027649
0.448280 0.000000 0.017487
0.519677 0.000000 0.003449
0.592065 0.000000 0.000000
0.663142 0.000000 0.000000
0.729946 0.000000 0.000000
0.791989 0.000000 0.000000
0.848112 0.000000 0.000000
0.898314 0.000000 0.000000
0.942748 0.000000 0.000000
0.981720 0.000000 0.000000
1.000000 0.000000 0.000000
1.000000 0.000000 0.000000
1.000000 0.000000 0.000000
1.000000 0.000000 0.000000
1.000000 0.000000 0.000000
1.000000 0.000000 0.000000
1.000000 0.000000 0.000000
1.000000 0.148318 0.000000
1.000000 0.231388 0.107973
0.030091 0.102266 0.041993
0.032074 0.102174 0.041993
0.036927 0.102754 0.040528
0.056947 0.103120 0.038849
0.084199 0.103426 0.038117
0.100984 0.104036 0.038148
0.121309 0.104585 0.039857
0.146426 0.104707 0.039826
0.177401 0.103731 0.039979
0.216190 0.099855 0.039063
0.263127 0.090791 0.036439
0.317998 0.054292 0.031647
0.379522 0.000000 0.023926
0.447059 0.000000 0.013733
0.517906 0.000000 0.000000
0.589410 0.000000 0.000000
0.660029 0.000000 0.000000
0.727199 0.000000 0.000000
0.789059 0.000000 0.000000
0.845304 0.000000 0.000000
0.895811 0.000000 0.000000
0.940459 0.000000 0.000000
0.979431 0.000000 0.000000
1.000000 0.000000 0.000000
1.000000 0.000000 0.000000
1.000000 0.000000 0.000000
1.000000 0.000000 0.000000
1.000000 0.000000 0.000000
1.000000 0.000000 0.000000
1.000000 0.000000 0.000000
1.000000 0.147097 0.000000
1.000000 0.228794 0.093782
0.035920 0.109438 0.047669
0.037903 0.109377 0.047669
0.043153 0.109529 0.047486
0.056794 0.110384 0.044556
0.084474 0.110658 0.041535
0.105531 0.111086 0.037964
0.126375 0.111421 0.037415
0.152499 0.111482 0.036011
0.184298 0.110445 0.033692
0.222934 0.107454 0.032258
0.269261 0.100069 0.029114
0.323308 0.082002 0.023682
0.384222 0.015137 0.015167
0.450141 0.000000 0.004120
0.519158 0.000000 0.000000
0.589349 0.000000 0.000000
0.658350 0.000000 0.000000
0.723934 0.000000 0.000000
0.785061 0.000000 0.000000
0.840726 0.000000 0.000000
0.890745 0.000000 0.000000
0.935546 0.000000 0.000000
0.975006 0.000000 0.000000
1.000000 0.000000 0.000000
1.000000 0.000000 0.000000
1.000000 0.000000 0.000000
1.000000 0.000000 0.000000
1.000000 0.000000 0.000000
1.000000 0.000000 0.000000
1.000000 0.000000 0.000000
1.000000 0.161746 0.000000
1.000000 0.234592 0.055238
0.038788 0.120668 0.056611
0.042054 0.120851 0.056428
0.045624 0.121035 0.055116
0.060090 0.121218 0.054749
0.084352 0.122377 0.049042
0.106813 0.122652 0.043183
0.132021 0.123232 0.039796
0.160250 0.123018 0.035920
0.192691 0.121645 0.032380
0.231571 0.119020 0.028260
0.277256 0.113130 0.022339
0.330602 0.101961 0.014649
0.390234 0.074311 0.003601
0.454688 0.000000 0.000000
0.522606 0.000000 0.000000
0.592126 0.000000 0.000000
0.660090 0.000000 0.000000
0.725399 0.000000 0.000000
0.785519 0.000000 0.000000
0.840482 0.000000 0.000000
0.890166 0.000000 0.000000
0.934203 0.000000 0.000000
0.973693 0.000000 0.000000
1.000000 0.000000 0.000000
1.000000 0.000000 0.000000
1.000000 0.000000 0.000000
1.000000 0.000000 0.000000
1.000000 0.000000 0.000000
1.000000 0.000000 0.000000
1.000000 0.094667 0.000000
1.000000 0.184939 0.000000
1.000000 0.246006 0.000000
0.033478 0.137789 0.066804
0.036713 0.137942 0.066621
0.039887 0.138338 0.064027
0.059602 0.138582 0.063508
0.087831 0.139193 0.060182
0.108675 0.140780 0.049989
0.137545 0.140169 0.041321
0.169650 0.139986 0.034577
0.206577 0.138979 0.027649
0.247318 0.136294 0.021729
0.293706 0.131075 0.014954
0.346715 0.122408 0.006104
0.405585 0.106813 0.000000
0.469398 0.069612 0.000000
0.536065 0.000000 0.000000
0.603235 0.000000 0.000000
0.669795 0.000000 0.000000
0.733272 0.000000 0.000000
0.791806 0.000000 0.000000
0.845090 0.000000 0.000000
0.893217 0.000000 0.000000
0.936431 0.000000 0.000000
1.000000 0.000000 0.000000
1.000000 0.000000 0.000000
1.000000 0.000000 0.000000
1.000000 0.000000 0.000000
1.000000 0.000000 0.000000
1.000000 0.107179 0.000000
1.000000 0.174105 0.000000
1.000000 0.223728 0.000000
1.000000 0.268528 0.000000
1.000000 0.311467 0.040467
0.016724 0.166934 0.082216
0.019989 0.167056 0.082124
0.026246 0.168032 0.080110
0.053254 0.167910 0.078431
0.092042 0.168063 0.076356
0.115511 0.169223 0.064851
0.148287 0.171237 0.046662
0.187594 0.168521 0.031769
0.229618 0.167117 0.021454
0.276158 0.164889 0.009735
0.328710 0.161227 0.000000
0.384100 0.153506 0.000000
0.443732 0.142153 0.000000
0.506676 0.124178 0.000000
0.571130 0.096071 0.000000
0.634974 0.001526 0.000000
0.697780 0.000000 0.000000
0.757107 0.000000 0.000000
0.812253 0.000000 0.000000
0.863035 0.000000 0.000000
0.909972 0.000000 0.000000
0.953094 0.000000 0.000000
0.998108 0.000000 0.000000
1.000000 0.000000 0.000000
1.000000 0.000000 0.000000
1.000000 0.089845 0.000000
1.000000 0.141024 0.000000
1.000000 0.180026 0.000000
1.000000 0.216953 0.000000
1.000000 0.251102 0.000000
1.000000 0.286412 0.000000
1.000000 0.323278 0.000000
0.000000 0.201083 0.096407
0.000000 0.201175 0.095949
0.004517 0.202243 0.095460
0.026490 0.202792 0.091859
0.089143 0.203189 0.090761
0.122408 0.203464 0.088991
0.153231 0.205325 0.072633
0.194339 0.207218 0.040284
0.241398 0.203006 0.015290
0.291905 0.200687 0.000000
0.345342 0.197757 0.000000
0.402472 0.193759 0.000000
0.462257 0.186709 0.000000
0.523308 0.176455 0.000000
0.584894 0.162692 0.000000
0.646326 0.145785 0.000000
0.705959 0.125063 0.000000
0.762875 0.100496 0.000000
0.816037 0.053132 0.000000
0.865202 0.000000 0.000000
0.911070 0.000000 0.000000
0.958404 0.008881 0.000000
0.999481 0.088075 0.000000
1.000000 0.127047 0.000000
1.000000 0.159579 0.000000
1.000000 0.188724 0.000000
1.000000 0.215427 0.000000
1.000000 0.239322 0.000000
1.000000 0.262333 0.000000
1.000000 0.286717 0.000000
1.000000 0.313756 0.000000
1.000000 0.343450 0.000000
0.000000 0.246220 0.114992
0.000000 0.246494 0.114870
0.000000 0.247349 0.113832
0.000000 0.248753 0.108705
0.064302 0.249241 0.107271
0.122133 0.249943 0.105806
0.164523 0.250584 0.103182
0.201694 0.253483 0.081300
0.251530 0.255161 0.028382
0.303868 0.249058 0.000000
0.363531 0.246433 0.000000
0.421546 0.243442 0.000000
0.481453 0.239567 0.000000
0.542412 0.234440 0.000000
0.602472 0.226749 0.000000
0.660761 0.217380 0.000000
0.717891 0.207950 0.000000
0.771878 0.198825 0.000000
0.822568 0.190860 0.000000
0.872190 0.187137 0.000000
0.920134 0.190341 0.000000
0.963195 0.197604 0.000000
1.000000 0.209171 0.000000
1.000000 0.223545 0.000000
1.000000 0.240543 0.000000
1.000000 0.257053 0.000000
1.000000 0.273808 0.000000
1.000000 0.291020 0.000000
1.000000 0.308812 0.000000
1.000000 0.326757 0.000000
1.000000 0.346532 0.000000
1.000000 0.369604 0.000000
0.000000 0.304021 0.141665
0.000000 0.304143 0.141390
0.000000 0.304692 0.140352
0.000000 0.306249 0.136751
0.000000 0.307042 0.131167
0.112032 0.307622 0.129091
0.166690 0.308721 0.126833
0.213230 0.310491 0.118471
0.258457 0.312963 0.090272
0.315007 0.314824 0.009369
0.371069 0.306035 0.000000
0.436866 0.302525 0.000000
0.497139 0.299443 0.000000
0.556939 0.295720 0.000000
0.616663 0.291447 0.000000
0.674128 0.286625 0.000000
0.729702 0.280522 0.000000
0.783230 0.275883 0.000000
0.835996 0.274266 0.000000
0.883909 0.273472 0.000000
0.927489 0.275700 0.000000
0.966339 0.279515 0.000000
1.000000 0.285618 0.000000
1.000000 0.293278 0.000000
1.000000 0.302739 0.000000
1.000000 0.312902 0.000000
1.000000 0.324651 0.000000
1.000000 0.337560 0.000000
1.000000 0.351049 0.000000
1.000000 0.365789 0.000000
1.000000 0.381231 0.000000
1.000000 0.398322 0.000000
0.000000 0.368536 0.174350
0.000000 0.368872 0.174014
0.000000 0.369757 0.173220
0.000000 0.371435 0.172000
0.000000 0.373632 0.162325
0.076234 0.374762 0.161440
0.161929 0.376593 0.159182
0.222507 0.378729 0.156832
0.271000 0.381964 0.141512
0.323033 0.384131 0.103365
0.385046 0.385412 0.000000
0.446265 0.376196 0.000000
0.513420 0.369146 0.000000
0.574029 0.365118 0.000000
0.632959 0.361425 0.000000
0.691554 0.359350 0.000000
0.747036 0.356603 0.000000
0.798642 0.353521 0.000000
0.846525 0.350652 0.000000
0.890776 0.348821 0.000000
0.931182 0.348547 0.000000
0.967254 0.349676 0.000000
0.999542 0.352819 0.000000
1.000000 0.357031 0.000000
1.000000 0.363134 0.000000
1.000000 0.369879 0.000000
1.000000 0.377813 0.000000
1.000000 0.386877 0.000000
1.000000 0.397040 0.000000
1.000000 0.408331 0.000000
1.000000 0.420935 0.000000
1.000000 0.434150 0.000000
0.000000 0.443519 0.216953
0.000000 0.443610 0.217166
0.000000 0.444526 0.216342
0.000000 0.446357 0.215579
0.000000 0.448402 0.206363
0.000000 0.450385 0.203738
0.153841 0.452827 0.202213
0.226719 0.455390 0.201328
0.289769 0.458625 0.199283
0.339300 0.461402 0.173281
0.396796 0.463966 0.130770
0.464057 0.466957 0.014374
0.564233 0.491859 0.000000
0.631373 0.478798 0.000000
0.692042 0.473426 0.000000
0.745998 0.467903 0.000000
0.795926 0.461982 0.000000
0.841733 0.456428 0.000000
0.883818 0.451118 0.000000
0.923125 0.446906 0.000000
0.958068 0.443732 0.000000
0.988952 0.441413 0.000000
1.000000 0.440650 0.000000
1.000000 0.441077 0.000000
1.000000 0.442878 0.000000
1.000000 0.445350 0.000000
1.000000 0.448859 0.000000
1.000000 0.453101 0.000000
1.000000 0.458717 0.000000
1.000000 0.465522 0.000000
1.000000 0.473732 0.000000
1.000000 0.483406 0.000000
0.000000 0.537896 0.282902
0.000000 0.537926 0.283024
0.000000 0.538567 0.282200
0.000000 0.539544 0.281224
0.000000 0.541344 0.275578
0.000000 0.543420 0.268498
0.172976 0.545830 0.267918
0.251316 0.549310 0.268132
0.318944 0.553826 0.269169
0.384192 0.559716 0.268589
0.435065 0.564508 0.236118
0.497078 0.568811 0.194003
0.567468 0.571618 0.132082
0.639673 0.570245 0.000000
0.699184 0.551446 0.000000
0.753109 0.543664 0.000000
0.800839 0.535149 0.000000
0.843595 0.526879 0.000000
0.882872 0.519066 0.000000
0.918883 0.511559 0.000000
0.951202 0.504265 0.000000
0.981079 0.499702 0.000000
1.000000 0.496040 0.000000
1.000000 0.494270 0.000000
1.000000 0.493202 0.000000
1.000000 0.493416 0.000000
1.000000 0.494820 0.000000
1.000000 0.497200 0.000000
1.000000 0.500755 0.000000
1.000000 0.505913 0.000000
1.000000 0.512230 0.000000
1.000000 0.519707 0.000000
0.000000 0.617762 0.352392
0.000000 0.617670 0.352178
0.000000 0.616999 0.350896
0.000000 0.617182 0.349889
0.119356 0.617487 0.348516
0.138430 0.618738 0.334905
0.218448 0.619532 0.334203
0.285008 0.621393 0.334234
0.347997 0.624353 0.335058
0.409430 0.628687 0.337377
0.465827 0.633692 0.331945
0.515007 0.636957 0.298863
0.573327 0.639094 0.257877
0.637354 0.639307 0.203647
0.704067 0.637018 0.116548
0.754086 0.613764 0.000000
0.801633 0.603204 0.000000
0.843412 0.592706 0.000000
0.880705 0.583124 0.000000
0.914580 0.573846 0.000000
0.945464 0.564599 0.000000
0.973785 0.556664 0.000000
0.999878 0.550378 0.000000
1.000000 0.546319 0.000000
1.000000 0.543725 0.000000
1.000000 0.541833 0.000000
1.000000 0.541222 0.000000
1.000000 0.541650 0.000000
1.000000 0.543572 0.000000
1.000000 0.546868 0.000000
1.000000 0.551446 0.000000
1.000000 0.557275 0.000000
0.166812 0.680781 0.420783
0.169009 0.680751 0.420447
0.181857 0.680049 0.419471
0.203250 0.679591 0.418311
0.235233 0.679042 0.416632
0.246098 0.679316 0.406409
0.285008 0.679866 0.402319
0.334905 0.681025 0.402319
0.388128 0.683009 0.403235
0.441810 0.686091 0.406073
0.497566 0.690394 0.410101
0.543664 0.694148 0.397070
0.588342 0.695766 0.364721
0.639918 0.696010 0.325139
0.696315 0.694148 0.275669
0.754849 0.689723 0.208560
0.798184 0.666682 0.130648
0.841093 0.654414 0.000000
0.878050 0.642939 0.000000
0.910063 0.632166 0.000000
0.939422 0.622004 0.000000
0.966766 0.612696 0.000000
0.991943 0.604486 0.000000
1.000000 0.596979 0.000000
1.000000 0.592096 0.000000
1.000000 0.588800 0.000000
1.000000 0.586633 0.000000
1.000000 0.585870 0.000000
1.000000 0.586603 0.000000
1.000000 0.588800 0.000000
1.000000 0.592493 0.000000
1.000000 0.597467 0.000000
0.288212 0.729824 0.484352
0.289769 0.730129 0.484504
0.296361 0.729915 0.484047
0.310033 0.729976 0.483772
0.329381 0.730007 0.483223
0.344945 0.730861 0.479103
0.361578 0.732235 0.472267
0.400031 0.733730 0.473671
0.442603 0.735500 0.475807
0.487068 0.737881 0.478553
0.533135 0.740627 0.482124
0.580377 0.743923 0.486061
0.614374 0.744656 0.464515
0.651637 0.743618 0.430549
0.695033 0.741115 0.389807
0.743343 0.737087 0.341131
0.794949 0.731533 0.280583
0.832700 0.709804 0.219699
0.871397 0.696468 0.171054
0.903899 0.684657 0.125978
0.932647 0.674372 0.082765
0.959106 0.664881 0.000000
0.983673 0.656306 0.000000
1.000000 0.648463 0.000000
1.000000 0.641138 0.000000
1.000000 0.634882 0.000000
1.000000 0.631830 0.000000
1.000000 0.629877 0.000000
1.000000 0.629084 0.000000
1.000000 0.629725 0.000000
1.000000 0.631586 0.000000
1.000000 0.634913 0.000000
0.377966 0.770169 0.543023
0.379278 0.770108 0.543175
0.383856 0.770077 0.542962
0.392859 0.770138 0.542962
0.407385 0.770321 0.543175
0.424598 0.770748 0.542535
0.429206 0.772396 0.533745
0.458595 0.773373 0.535088
0.491402 0.774655 0.537224
0.527123 0.776242 0.539666
0.565393 0.778134 0.543023
0.604822 0.780240 0.546410
0.644434 0.782376 0.549340
0.670436 0.781582 0.521630
0.702571 0.779751 0.489509
0.740566 0.776577 0.450233
0.782467 0.772335 0.404669
0.828122 0.766995 0.350744
0.861234 0.747372 0.296361
0.896330 0.733608 0.255131
0.925261 0.722713 0.224826
0.951415 0.712886 0.201816
0.975006 0.704128 0.184390
0.997131 0.696101 0.160800
1.000000 0.688746 0.127260
1.000000 0.681910 0.060792
1.000000 0.675746 0.000000
1.000000 0.671504 0.000000
1.000000 0.669825 0.000000
1.000000 0.669429 0.064515
1.000000 0.670344 0.120882
1.000000 0.672419 0.153567
0.459602 0.804044 0.600641
0.461250 0.804257 0.601129
0.500603 0.817990 0.627558
0.506737 0.817929 0.627924
0.516564 0.817960 0.628443
0.529870 0.817929 0.628901
0.534874 0.818906 0.623255
0.549737 0.819516 0.620874
0.572778 0.820066 0.622614
0.599237 0.820890 0.624750
0.627588 0.821805 0.627558
0.657343 0.822904 0.630518
0.687831 0.823758 0.633051
0.714382 0.823819 0.627558
0.734127 0.821775 0.600488
0.759335 0.818875 0.568688
0.789578 0.814755 0.531029
0.824247 0.809995 0.487404
0.862211 0.804410 0.437293
0.890440 0.786740 0.385565
0.921447 0.773098 0.345190
0.946380 0.762753 0.320073
0.969421 0.753048 0.296452
0.989746 0.744533 0.284642
1.000000 0.736324 0.267216
1.000000 0.728695 0.246647
1.000000 0.721462 0.223239
1.000000 0.714900 0.194705
1.000000 0.709346 0.162570
1.000000 0.707332 0.177005
1.000000 0.707057 0.198611
1.000000 0.708034 0.221317
0.540307 0.834134 0.660029
0.544030 0.835172 0.662287
0.549645 0.836240 0.664820
0.557519 0.837217 0.667323
0.567376 0.837888 0.669520
0.578912 0.838193 0.671077
0.586633 0.838743 0.668818
0.593042 0.839506 0.664302
0.611109 0.839872 0.665492
0.631830 0.840330 0.667292
0.654719 0.840970 0.669642
0.679103 0.841703 0.672297
0.704372 0.842374 0.674861
0.730129 0.842954 0.677058
0.749416 0.842435 0.665827
0.766720 0.840543 0.640803
0.788876 0.837919 0.611353
0.815549 0.834623 0.577691
0.846494 0.830747 0.539086
0.880522 0.826383 0.494759
0.906310 0.811795 0.447700
0.935515 0.799680 0.409796
0.958099 0.790707 0.388067
0.979217 0.782010 0.366491
0.997772 0.774258 0.354101
1.000000 0.766995 0.340826
1.000000 0.760098 0.324620
1.000000 0.753750 0.306798
1.000000 0.748257 0.287877
1.000000 0.743496 0.268009
1.000000 0.740169 0.255222
1.000000 0.740475 0.275181
0.596124 0.853147 0.701869
0.599390 0.854002 0.704189
0.604181 0.854948 0.706661
0.610986 0.855802 0.709194
0.619226 0.856352 0.711391
0.628443 0.856626 0.713008
0.637720 0.856840 0.713436
0.639857 0.857816 0.707973
0.652918 0.858000 0.708644
0.668910 0.858274 0.710109
0.686702 0.858762 0.712093
0.706142 0.859220 0.714382
0.726436 0.859800 0.716732
0.747463 0.860349 0.719051
0.768917 0.860838 0.721309
0.782223 0.859922 0.705653
0.797055 0.858183 0.682734
0.816159 0.855985 0.656092
0.839384 0.853208 0.625452
0.866423 0.850004 0.590723
0.896391 0.846372 0.551171
0.919738 0.834348 0.508659
0.946899 0.823392 0.471992
0.967163 0.815640 0.453498
0.986328 0.807980 0.434241
1.000000 0.800870 0.420478
1.000000 0.794522 0.409003
1.000000 0.788663 0.396399
1.000000 0.783505 0.382971
1.000000 0.779141 0.369451
1.000000 0.775326 0.354803
1.000000 0.772152 0.340215
0.648188 0.869841 0.741726
0.650690 0.870512 0.743435
0.654810 0.871153 0.745541
0.659846 0.871824 0.747555
0.666163 0.872282 0.749355
0.673304 0.872465 0.750729
0.682063 0.872526 0.752193
0.684596 0.873228 0.748714
0.691951 0.873747 0.747463
0.704158 0.873899 0.748653
0.718044 0.874296 0.750362
0.733303 0.874754 0.752255
0.749416 0.875212 0.754147
0.766354 0.875700 0.756252
0.783780 0.876249 0.758358
0.801053 0.876738 0.759670
0.811002 0.875822 0.743465
0.824186 0.874662 0.724422
0.841032 0.873228 0.702358
0.861448 0.871489 0.677211
0.885222 0.869444 0.648524
0.911620 0.867063 0.615503
0.933867 0.858488 0.578424
0.957305 0.848661 0.546868
0.976043 0.842100 0.530266
0.993317 0.835874 0.514519
1.000000 0.830014 0.501518
1.000000 0.825162 0.494087
1.000000 0.820859 0.486244
1.000000 0.817044 0.477485
1.000000 0.813901 0.468574
1.000000 0.811185 0.459754
0.705837 0.888212 0.786282
0.706722 0.888457 0.786862
0.708461 0.888609 0.787594
0.711208 0.888731 0.788205
0.714870 0.888731 0.788815
0.719570 0.888640 0.789425
0.725795 0.888579 0.790219
0.729549 0.888945 0.788876
0.732479 0.889586 0.786374
0.742031 0.889830 0.787503
0.752621 0.890166 0.788907
0.764248 0.890562 0.790463
0.776669 0.891020 0.792172
0.789853 0.891478 0.793942
0.803494 0.891936 0.795621
0.817624 0.892454 0.797513
0.829557 0.892607 0.794949
0.837858 0.891722 0.781094
0.848814 0.890593 0.765164
0.862821 0.889220 0.746304
0.879759 0.887572 0.724392
0.899779 0.885649 0.698817
0.922484 0.883268 0.668452
0.943023 0.876493 0.634089
0.963104 0.867216 0.604791
0.980865 0.861082 0.587182
0.996612 0.855894 0.574334
1.000000 0.851072 0.562158
1.000000 0.847318 0.557519
1.000000 0.844053 0.552361
1.000000 0.841337 0.546777
1.000000 0.838987 0.541100
0.742824 0.900694 0.815091
0.743526 0.900877 0.815579
0.744930 0.901030 0.816098
0.746944 0.901122 0.816617
0.749905 0.901152 0.817166
0.753536 0.901152 0.817746
0.758663 0.901152 0.818509
0.763058 0.901274 0.818570
0.764523 0.901976 0.816220
0.770901 0.902281 0.816495
0.779141 0.902647 0.817624
0.788327 0.903014 0.818997
0.798245 0.903441 0.820432
0.808865 0.903929 0.822049
0.820005 0.904448 0.823636
0.831449 0.904997 0.825406
0.843351 0.905638 0.827298
0.851865 0.905638 0.822568
0.859159 0.904936 0.811337
0.868711 0.904082 0.798215
0.880644 0.903014 0.782925
0.895140 0.901701 0.765103
0.912230 0.900114 0.744076
0.931701 0.898222 0.719051
0.949828 0.891386 0.681575
0.967193 0.882750 0.654963
0.984222 0.877256 0.637903
0.998627 0.873167 0.627527
1.000000 0.869352 0.618097
1.000000 0.866453 0.614313
1.000000 0.864256 0.612146
1.000000 0.862486 0.609613
0.779721 0.913756 0.843870
0.780728 0.914031 0.844480
0.781735 0.914153 0.844877
0.782925 0.914122 0.845029
0.784543 0.913970 0.845029
0.786862 0.913787 0.845060
0.789914 0.913542 0.845151
0.793881 0.913329 0.845426
0.794400 0.913603 0.843107
0.797086 0.913848 0.841794
0.802914 0.913848 0.842191
0.809751 0.914031 0.842832
0.817227 0.914214 0.843626
0.825315 0.914488 0.844480
0.833829 0.914733 0.845304
0.842893 0.915038 0.846372
0.852506 0.915404 0.847501
0.862577 0.915953 0.849027
0.868528 0.915709 0.842496
0.875151 0.915221 0.833066
0.883757 0.914611 0.822293
0.894255 0.913787 0.809720
0.906737 0.912657 0.794644
0.921477 0.911162 0.776394
0.938415 0.909300 0.754421
0.955810 0.905455 0.727932
0.970733 0.897490 0.704097
0.986755 0.892515 0.687556
1.000000 0.889128 0.679103
1.000000 0.886229 0.671839
1.000000 0.883970 0.668086
1.000000 0.882628 0.668421
0.803861 0.923064 0.862760
0.804593 0.923308 0.863249
0.805539 0.923430 0.863706
0.806668 0.923491 0.863981
0.808377 0.923491 0.864225
0.810544 0.923461 0.864591
0.813474 0.923491 0.865080
0.817227 0.923491 0.865751
0.819242 0.923827 0.865110
0.820584 0.924376 0.863706
0.825528 0.924590 0.864347
0.831144 0.924834 0.865110
0.837156 0.925109 0.865873
0.843626 0.925383 0.866697
0.850492 0.925628 0.867460
0.857816 0.925902 0.868254
0.865537 0.926268 0.869200
0.873655 0.926726 0.870359
0.881895 0.927276 0.871305
0.886229 0.926970 0.864439
0.891997 0.926543 0.856718
0.899290 0.926085 0.847898
0.908232 0.925353 0.837552
0.918883 0.924437 0.825223
0.931456 0.923217 0.810605
0.945983 0.921752 0.793088
0.961700 0.919188 0.772061
0.974273 0.912169 0.752865
0.989166 0.908080 0.739071
1.000000 0.905730 0.733852
1.000000 0.903777 0.729641
1.000000 0.902281 0.727199
0.828428 0.932952 0.881926
0.828794 0.933074 0.882170
0.829374 0.933135 0.882353
0.830228 0.933135 0.882506
0.831449 0.933135 0.882689
0.833188 0.933104 0.882933
0.835508 0.933104 0.883299
0.838437 0.933104 0.883848
0.840787 0.933288 0.883818
0.841672 0.933745 0.882628
0.844785 0.933989 0.882597
0.849241 0.934234 0.883177
0.854093 0.934539 0.883909
0.859403 0.934783 0.884581
0.864958 0.935058 0.885252
0.870848 0.935302 0.885924
0.877165 0.935607 0.886717
0.883879 0.936034 0.887633
0.891081 0.936584 0.888853
0.897124 0.936980 0.888090
0.901061 0.936797 0.882475
0.906126 0.936461 0.876036
0.912444 0.936004 0.868498
0.920073 0.935363 0.859739
0.929229 0.934539 0.849363
0.940002 0.933471 0.837095
0.952544 0.932219 0.822751
0.966796 0.930571 0.805417
0.977447 0.924132 0.789639
0.991363 0.920775 0.778256
1.000000 0.919249 0.775570
1.000000 0.918181 0.774166
0.848539 0.941588 0.897459
0.848844 0.941650 0.897673
0.849302 0.941741 0.897826
0.850095 0.941802 0.898039
0.851347 0.941894 0.898375
0.853117 0.942016 0.898863
0.855619 0.942260 0.899718
0.858701 0.942626 0.900725
0.862242 0.943084 0.901884
0.863798 0.943847 0.901732
0.866300 0.944610 0.901946
0.870573 0.945190 0.903136
0.875120 0.945739 0.904295
0.879820 0.946258 0.905394
0.884581 0.946715 0.906310
0.889403 0.947112 0.907103
0.894438 0.947448 0.907836
0.899779 0.947875 0.908659
0.905516 0.948394 0.909697
0.911467 0.949004 0.910857
0.915587 0.949248 0.909056
0.918883 0.949126 0.904631
0.923003 0.948852 0.899474
0.928130 0.948455 0.893553
0.934356 0.947906 0.886595
0.941863 0.947204 0.878538
0.950744 0.946349 0.869078
0.961151 0.945342 0.858030
0.973266 0.944244 0.845060
0.982086 0.938903 0.833249
0.994415 0.936431 0.825223
1.000000 0.935576 0.824338
0.872404 0.952148 0.915618
0.872465 0.952148 0.915648
0.872709 0.952148 0.915648
0.873167 0.952148 0.915740
0.873991 0.952117 0.915862
0.875120 0.952148 0.916106
0.876707 0.952209 0.916472
0.878782 0.952331 0.916960
0.881315 0.952514 0.917632
0.882475 0.952880 0.917388
0.883391 0.953338 0.916808
0.886320 0.953674 0.917357
0.889616 0.953979 0.917998
0.893126 0.954314 0.918608
