20 Preset/Art Style/【3】LUT video cho PR-AE-FCPX/Portra 160.cube
# Created by Adobe Lightroom plugin Export LUT (1.24.0)
# www.johnrellis.com/lightroom/exportlut.htm
# Preset: Portra 160
# Color profile: E:\lut插件\exportlut.1.24\exportlut.lrplugin\color profiles\Rec709gamma2.4.icc
LUT_3D_SIZE 8
DOMAIN_MIN 0.000000 0.000000 0.000000
DOMAIN_MAX 0.903226 0.903226 0.903226
0.004364 0.081910 0.077607
0.035615 0.084504 0.080598
0.161837 0.082734 0.086885
0.416205 0.000000 0.081239
0.690730 0.000000 0.045197
0.866697 0.000000 0.033478
0.982116 0.000000 0.113039
1.000000 0.186221 0.219944
0.000000 0.103090 0.086793
0.031556 0.103975 0.079042
0.155520 0.106569 0.084779
0.399695 0.000000 0.071534
0.673365 0.000000 0.023926
0.853635 0.000000 0.005188
0.972137 0.000000 0.100862
1.000000 0.210819 0.209903
0.000000 0.252781 0.083680
0.000000 0.245670 0.083558
0.226932 0.262882 0.000000
0.439887 0.228763 0.000000
0.661494 0.200198 0.000000
0.842191 0.197086 0.000000
0.966888 0.253208 0.069001
1.000000 0.347448 0.220554
0.000000 0.528435 0.141878
0.000000 0.523064 0.138033
0.236576 0.505516 0.123995
0.556725 0.551568 0.000000
0.756527 0.506706 0.000000
0.826658 0.415991 0.000000
0.943328 0.436866 0.000000
1.000000 0.479561 0.227573
0.000000 0.719326 0.342504
0.000000 0.716701 0.340459
0.326818 0.707881 0.333867
0.535912 0.706050 0.286107
0.736172 0.730251 0.000000
0.882628 0.692134 0.000000
0.930297 0.603784 0.000000
0.988403 0.598840 0.244511
0.359594 0.822507 0.519158
0.392004 0.823514 0.522942
0.476204 0.819455 0.520500
0.590967 0.812039 0.515557
0.695949 0.817166 0.452552
0.834348 0.830289 0.225193
0.955291 0.812894 0.000000
0.991913 0.751705 0.185306
0.565850 0.887785 0.661616
0.575555 0.887633 0.662226
0.607691 0.885496 0.660792
0.663691 0.881834 0.658808
0.731838 0.876280 0.654353
0.797696 0.885649 0.589258
0.899535 0.895018 0.432441
1.000000 0.890532 0.000000
0.700404 0.942412 0.775296
0.704280 0.942168 0.775204
0.720485 0.941405 0.775387
0.750668 0.940154 0.776150
0.784939 0.934966 0.769223
0.829374 0.935454 0.761501
0.879057 0.943511 0.711055
0.956970 0.949584 0.576043
0.008087 0.088197 0.098177
0.029023 0.089174 0.092805
0.162173 0.089235 0.089601
0.391119 0.000000 0.076509
0.667597 0.000000 0.028382
0.849882 0.000000 0.008209
0.968475 0.000000 0.098848
1.000000 0.178134 0.202823
0.000000 0.106294 0.106355
0.034699 0.106661 0.102907
0.168948 0.112093 0.095247
0.389502 0.089326 0.062776
0.661494 0.000000 0.006439
0.844144 0.000000 0.000000
0.962371 0.000000 0.088502
1.000000 0.209598 0.196048
0.000000 0.254765 0.142977
0.000000 0.256138 0.129244
0.233921 0.263890 0.062226
0.439368 0.228122 0.000885
0.651148 0.213596 0.000000
0.831479 0.213016 0.000000
0.952514 0.251072 0.015839
1.000000 0.335607 0.201572
0.000000 0.519951 0.219730
0.000000 0.519402 0.197360
0.246281 0.503532 0.189548
0.544396 0.536584 0.000000
0.735714 0.484230 0.000000
0.808042 0.403143 0.000000
0.928862 0.422919 0.000000
1.000000 0.465583 0.204379
0.000000 0.714473 0.389380
0.000000 0.713161 0.369024
0.332311 0.703182 0.360937
0.534295 0.696895 0.323339
0.727382 0.719997 0.000000
0.873442 0.681331 0.000000
0.925109 0.597833 0.000000
0.984466 0.591180 0.228550
0.379461 0.817899 0.536065
0.385412 0.817929 0.528008
0.470954 0.814054 0.526177
0.587121 0.807431 0.523339
0.693141 0.812436 0.469612
0.830594 0.827207 0.279545
0.950744 0.809201 0.000000
0.990051 0.747890 0.167514
0.567407 0.884459 0.666072
0.568109 0.884062 0.661128
0.600946 0.881804 0.659480
0.658686 0.878508 0.658656
0.729061 0.873808 0.656489
0.794949 0.882872 0.596368
0.895506 0.891966 0.448035
1.000000 0.887053 0.000000
0.698512 0.940246 0.775631
0.700587 0.940551 0.774624
0.716854 0.939727 0.774685
0.747463 0.938537 0.775570
0.787991 0.936431 0.775570
0.830655 0.935698 0.767025
0.878538 0.943023 0.716701
0.955627 0.949126 0.588434
0.000000 0.095521 0.219547
0.086976 0.096620 0.207584
0.174350 0.100587 0.169558
0.477668 0.000000 0.177462
0.708431 0.000000 0.128756
0.851652 0.000000 0.000000
0.968444 0.082460 0.091157
1.000000 0.256779 0.210147
0.000000 0.119509 0.243778
0.037537 0.125154 0.234165
0.203616 0.135470 0.194827
0.486854 0.000000 0.183139
0.703639 0.000000 0.138857
0.847135 0.000000 0.006500
0.962463 0.154940 0.074098
1.000000 0.276341 0.204990
0.000000 0.270176 0.288182
0.000000 0.272190 0.285222
0.273136 0.280003 0.271397
0.505486 0.266575 0.231083
0.702113 0.253544 0.173007
0.843626 0.264652 0.067048
0.952605 0.300023 0.002472
1.000000 0.366491 0.207248
0.000000 0.534081 0.377356
0.000000 0.535515 0.374334
0.291630 0.536492 0.358953
0.567926 0.547112 0.286473
0.729610 0.482887 0.219272
0.826749 0.440162 0.162142
0.932280 0.444800 0.000000
1.000000 0.483680 0.215549
0.000000 0.714565 0.482155
0.158511 0.713924 0.482338
0.386114 0.712093 0.475868
0.570306 0.698848 0.471260
0.733120 0.724392 0.344823
0.864134 0.679438 0.208469
0.920043 0.605951 0.160403
0.985718 0.598718 0.238651
0.407568 0.816373 0.589807
0.435126 0.816129 0.591699
0.499367 0.815061 0.586114
0.603357 0.808469 0.583948
0.701991 0.809628 0.556970
0.825711 0.825711 0.446021
0.938598 0.806699 0.274998
0.990723 0.749783 0.198703
0.586053 0.884123 0.697780
0.596399 0.883421 0.698756
0.617334 0.882383 0.691920
0.669886 0.878904 0.690578
0.735531 0.874418 0.688960
0.798154 0.882048 0.648890
0.891875 0.892699 0.545800
0.996521 0.887755 0.324651
0.706783 0.939788 0.791653
0.711757 0.939452 0.792203
0.717739 0.939605 0.785977
0.749203 0.938872 0.787808
0.789334 0.936828 0.787991
0.833707 0.935424 0.784726
0.879393 0.943175 0.744076
0.952392 0.949523 0.642634
0.000000 0.103029 0.467262
0.132540 0.101808 0.465126
0.368658 0.126650 0.441688
0.497871 0.126802 0.390478
0.769375 0.000000 0.415167
0.901732 0.000000 0.305425
0.973907 0.213138 0.270787
1.000000 0.291722 0.209232
0.000000 0.154818 0.485817
0.130617 0.158450 0.482490
0.385260 0.189334 0.461219
0.518395 0.199161 0.412665
0.768826 0.180850 0.424933
0.898192 0.000000 0.315862
0.969879 0.258274 0.281865
1.000000 0.314458 0.208774
0.000000 0.290562 0.508110
0.000000 0.292149 0.508568
0.367987 0.328130 0.503868
0.551019 0.369024 0.465553
0.759609 0.360754 0.452796
0.870268 0.371435 0.390631
0.958984 0.392798 0.333471
1.000000 0.405097 0.245457
0.000000 0.527459 0.552514
0.000000 0.528740 0.551110
0.291447 0.535943 0.546410
0.581628 0.552453 0.540398
0.724239 0.536004 0.495979
0.836027 0.522423 0.444068
0.930663 0.514183 0.381415
1.000000 0.510948 0.298344
0.000000 0.720027 0.610956
0.098787 0.718837 0.609186
0.400977 0.716762 0.605585
0.595239 0.717433 0.605859
0.733883 0.728176 0.571527
0.832303 0.680629 0.510643
0.898192 0.634974 0.451148
0.981415 0.627649 0.383551
0.418647 0.818448 0.664851
0.446571 0.819608 0.667628
0.527459 0.817655 0.669093
0.630915 0.816342 0.671809
0.723690 0.810086 0.669551
0.820554 0.826566 0.612482
0.913664 0.804623 0.536736
0.966827 0.756588 0.472786
0.574731 0.884520 0.731197
0.586694 0.884337 0.732540
0.631495 0.883116 0.737606
0.687434 0.882170 0.740047
0.747707 0.878294 0.739895
0.805295 0.881926 0.722652
0.885985 0.893248 0.659998
0.977478 0.886748 0.552605
0.693629 0.942016 0.806882
0.699458 0.941772 0.807584
0.722530 0.940978 0.810422
0.750637 0.940673 0.809201
0.790890 0.938537 0.809537
0.836576 0.936004 0.809537
0.880278 0.943114 0.782467
0.948089 0.950256 0.716091
0.227481 0.163455 0.673030
0.302373 0.171115 0.673304
0.486213 0.214176 0.668025
0.660945 0.344671 0.651362
0.745968 0.331548 0.613092
0.892302 0.429572 0.633387
0.977508 0.397101 0.559625
1.000000 0.401862 0.483375
0.247410 0.224002 0.678218
0.316930 0.232059 0.678584
0.493843 0.271641 0.673823
0.662501 0.383398 0.657099
0.746059 0.377783 0.621393
0.887388 0.462989 0.640833
0.972564 0.422553 0.565362
1.000000 0.429999 0.494026
0.128664 0.346136 0.685908
0.275578 0.364630 0.686152
0.479469 0.399023 0.683131
0.658808 0.483497 0.672755
0.739132 0.500816 0.643244
0.866545 0.543542 0.653742
0.953491 0.495735 0.578851
1.000000 0.513420 0.526268
0.000000 0.509941 0.689143
0.000000 0.511894 0.688350
0.339086 0.521630 0.686763
0.624781 0.584405 0.691371
0.732113 0.629419 0.677089
0.841733 0.629328 0.667231
0.918029 0.602716 0.608515
0.988159 0.593805 0.553002
0.139498 0.689906 0.708766
0.233188 0.691127 0.708675
0.407019 0.695369 0.707607
0.578759 0.704860 0.706661
0.726223 0.720943 0.707179
0.807736 0.704524 0.673671
0.886839 0.687617 0.631281
0.964446 0.672663 0.577050
0.362249 0.812619 0.739437
0.389197 0.812497 0.739315
0.479561 0.810697 0.736934
0.603906 0.808927 0.733639
0.723384 0.810361 0.737362
0.811215 0.821622 0.724636
0.880858 0.793759 0.678218
0.936187 0.757046 0.622065
0.536339 0.883452 0.773648
0.546929 0.882872 0.773068
0.590326 0.881346 0.772488
0.667811 0.880064 0.776303
0.746548 0.879911 0.781857
0.808804 0.877470 0.781338
0.878355 0.890959 0.747921
0.954070 0.879667 0.687800
0.644343 0.942138 0.821195
0.651759 0.941772 0.821500
0.681147 0.940612 0.823178
0.732662 0.940093 0.829038
0.783444 0.939483 0.831632
0.833127 0.937041 0.832761
0.878782 0.941039 0.820157
0.942321 0.949065 0.776791
0.450446 0.303655 0.800137
0.483345 0.314305 0.800137
0.585870 0.359228 0.797208
0.713558 0.455665 0.792172
0.803067 0.584100 0.779629
0.858671 0.544396 0.755581
0.934691 0.613336 0.759731
0.998016 0.619959 0.733333
0.453834 0.340612 0.797055
0.483711 0.349554 0.796506
0.584192 0.389776 0.794491
0.708370 0.474372 0.789303
0.798611 0.593042 0.777737
0.853239 0.559258 0.754696
0.929808 0.623865 0.760250
0.994324 0.625910 0.732998
0.455909 0.451392 0.798886
0.484871 0.458045 0.798550
0.581567 0.489265 0.797055
0.700893 0.549096 0.791836
0.792874 0.641474 0.784085
0.842130 0.627588 0.764401
0.915770 0.677272 0.773007
0.982849 0.661341 0.741207
0.318029 0.534600 0.793576
0.368475 0.540734 0.793606
0.515007 0.571649 0.795651
0.677028 0.633692 0.796963
0.784482 0.704311 0.795804
0.829374 0.714931 0.782498
0.899016 0.747738 0.794797
0.967712 0.708919 0.751461
0.314458 0.668574 0.791501
0.346563 0.669825 0.791073
0.448768 0.675135 0.789853
0.578271 0.686336 0.788449
0.747585 0.739071 0.795651
0.814878 0.773312 0.792874
0.883604 0.773770 0.789609
0.949706 0.739925 0.742061
0.423590 0.788632 0.800870
0.443977 0.789761 0.801328
0.508293 0.791653 0.800748
0.603662 0.796017 0.800168
0.708522 0.803983 0.800412
0.807523 0.819272 0.805875
0.863432 0.805783 0.780728
0.929808 0.791836 0.746670
0.512078 0.882597 0.830472
0.524620 0.882750 0.830655
0.567407 0.882078 0.829923
0.637110 0.881315 0.829038
0.723507 0.880735 0.826474
0.808225 0.882719 0.828550
0.875395 0.891203 0.819760
0.931579 0.871000 0.781521
0.608301 0.943359 0.859129
0.614160 0.942962 0.858549
0.639948 0.942107 0.857298
0.686641 0.941344 0.855894
0.752132 0.940093 0.855741
0.824399 0.939605 0.860563
0.879393 0.938720 0.861295
0.938689 0.948852 0.835111
0.600977 0.468147 0.872923
0.616968 0.477516 0.872923
0.671229 0.508812 0.870909
0.750546 0.568414 0.867338
0.824308 0.648493 0.860990
0.869505 0.723323 0.852476
0.909422 0.687190 0.837247
0.958679 0.726436 0.836728
0.598108 0.484688 0.869780
0.614221 0.493385 0.869993
0.667811 0.522087 0.868315
0.745846 0.576379 0.864683
0.820188 0.652247 0.858579
0.865873 0.726009 0.850004
0.905058 0.689448 0.834348
0.955077 0.726711 0.834134
0.596979 0.550988 0.868315
0.611231 0.556420 0.868040
0.662470 0.578363 0.866453
0.739559 0.622339 0.863706
0.813901 0.685512 0.858885
0.861479 0.756741 0.852628
0.897124 0.728389 0.839811
0.949065 0.759091 0.843473
0.549828 0.610071 0.866117
0.573236 0.619867 0.865354
0.636469 0.642573 0.864073
0.721035 0.678492 0.863066
0.802731 0.730220 0.861051
0.858061 0.790494 0.859342
0.888060 0.778134 0.848936
0.941863 0.798520 0.855375
0.400336 0.659571 0.856321
0.416327 0.659510 0.855528
0.505150 0.669734 0.855283
0.643061 0.702876 0.857786
0.770871 0.758968 0.859434
0.847440 0.810178 0.862242
0.879179 0.816312 0.855680
0.937469 0.835355 0.867613
0.454932 0.771389 0.858915
0.467842 0.771908 0.858762
0.516320 0.773587 0.858000
0.594049 0.777005 0.856565
0.687037 0.783444 0.854551
0.819272 0.826719 0.864652
0.876585 0.856077 0.868376
0.933623 0.855100 0.866850
0.529137 0.860563 0.869078
0.538964 0.861021 0.869230
0.574182 0.861631 0.868742
0.634333 0.863249 0.868162
0.707546 0.866239 0.867460
0.785946 0.872374 0.868406
0.869688 0.886168 0.875273
0.919005 0.871336 0.849851
0.584924 0.941314 0.901122
0.591485 0.941283 0.901061
0.618189 0.941466 0.901122
0.662226 0.941100 0.900145
0.719753 0.940734 0.898283
0.792325 0.940429 0.894560
0.874479 0.941741 0.896666
0.937255 0.949096 0.890349
0.716823 0.627436 0.927855
0.724483 0.632441 0.927672
0.751858 0.648402 0.925689
0.798001 0.682002 0.922911
0.848661 0.728573 0.918486
0.891325 0.779690 0.912963
0.921111 0.808652 0.908476
0.950774 0.783658 0.897368
0.713680 0.633295 0.926268
0.721523 0.638025 0.926146
0.749477 0.654292 0.924529
0.795407 0.686183 0.921721
0.846464 0.731350 0.917540
0.889769 0.781338 0.912291
0.919524 0.810330 0.907622
0.948760 0.785275 0.896361
0.706722 0.662318 0.924346
0.714137 0.665919 0.924102
0.742092 0.679652 0.922637
0.790066 0.710048 0.920958
0.841642 0.748959 0.917235
0.886290 0.792874 0.912718
0.916991 0.823667 0.908751
0.944854 0.800565 0.898131
0.682856 0.698634 0.922301
0.691432 0.702022 0.922210
0.722591 0.714260 0.921172
0.774044 0.739132 0.919677
0.830747 0.772671 0.917510
0.880674 0.811124 0.914946
0.914733 0.846220 0.912413
0.940459 0.826322 0.902953
0.580316 0.707149 0.920989
0.593713 0.710536 0.921141
0.641718 0.722683 0.920531
0.731350 0.760983 0.918608
0.804349 0.790768 0.917510
0.867674 0.826169 0.916747
0.911925 0.866697 0.916777
0.936370 0.854124 0.909117
0.492744 0.770260 0.919036
0.500053 0.769619 0.918578
0.531975 0.768032 0.917052
0.590784 0.766629 0.914946
0.722072 0.792905 0.916350
0.837949 0.839414 0.919463
0.907805 0.882719 0.924071
0.936034 0.887694 0.920256
0.546807 0.860960 0.926360
0.553124 0.860807 0.926116
0.578820 0.860349 0.925200
0.625788 0.859983 0.923888
0.687526 0.859251 0.921843
0.758297 0.858122 0.919280
0.880735 0.891600 0.926879
0.936370 0.918975 0.931487
0.608087 0.928283 0.936858
0.612268 0.928161 0.936675
0.630884 0.928069 0.936248
0.666255 0.928405 0.935729
0.714870 0.928771 0.934691
0.774929 0.929656 0.933135
0.846891 0.932738 0.932128
0.932647 0.944823 0.938537
