20 Preset/Art Style/【3】LUT video cho PR-AE-FCPX/Portra 160 Alt.cube
# Created by Adobe Lightroom plugin Export LUT (1.24.0)
# www.johnrellis.com/lightroom/exportlut.htm
# Preset: Portra 160 Alt
# Color profile: E:\lut插件\exportlut.1.24\exportlut.lrplugin\color profiles\Rec709gamma2.4.icc
LUT_3D_SIZE 32
DOMAIN_MIN 0.0 0.0 0.0
DOMAIN_MAX 1.0 1.0 1.0
0.070466 0.140597 0.138125
0.072724 0.140993 0.138308
0.080507 0.141451 0.138674
0.092317 0.142214 0.139864
0.105684 0.143893 0.141512
0.121340 0.145846 0.143709
0.141970 0.147616 0.145754
0.168612 0.148165 0.147036
0.200565 0.148074 0.148348
0.239445 0.146059 0.149416
0.285008 0.142275 0.150454
0.337652 0.134188 0.151308
0.395209 0.120577 0.151766
0.456062 0.097444 0.152010
0.517144 0.024414 0.153017
0.576715 0.000000 0.153689
0.632776 0.000000 0.154849
0.683742 0.000000 0.156741
0.729458 0.000000 0.159243
0.770291 0.000000 0.162783
0.806394 0.000000 0.167788
0.838834 0.000000 0.173739
0.867674 0.000000 0.181277
0.895598 0.000000 0.191012
0.923980 0.025513 0.204288
0.948028 0.132906 0.220157
0.968841 0.182254 0.238560
0.987152 0.224765 0.259495
1.000000 0.264836 0.283330
1.000000 0.304662 0.310094
1.000000 0.345647 0.341009
1.000000 0.387884 0.375616
0.069032 0.141512 0.138460
0.071321 0.141451 0.138247
0.080659 0.141878 0.138857
0.092134 0.142885 0.139986
0.105257 0.144381 0.141451
0.120729 0.146517 0.143832
0.141421 0.147890 0.145724
0.167422 0.148745 0.147219
0.198917 0.148775 0.148318
0.236912 0.147280 0.149355
0.282383 0.143252 0.150454
0.334051 0.135897 0.151125
0.391394 0.122774 0.151827
0.451759 0.101472 0.152102
0.512840 0.039155 0.152712
0.572473 0.000000 0.153628
0.628870 0.000000 0.154635
0.680171 0.000000 0.156344
0.726314 0.000000 0.159060
0.767208 0.000000 0.162600
0.803464 0.000000 0.166995
0.835996 0.000000 0.173098
0.865080 0.000000 0.180667
0.893034 0.000000 0.190097
0.921050 0.017365 0.202579
0.945006 0.127932 0.217746
0.966003 0.177096 0.235447
0.984588 0.219211 0.255924
1.000000 0.259281 0.279515
1.000000 0.299413 0.306218
1.000000 0.340398 0.336706
1.000000 0.382574 0.371069
0.067170 0.145052 0.139834
0.071168 0.144961 0.139834
0.080262 0.144961 0.138857
0.091707 0.145541 0.140078
0.104128 0.147036 0.142000
0.119600 0.148959 0.143954
0.140017 0.150546 0.145602
0.166110 0.151186 0.147127
0.197391 0.151308 0.148196
0.235233 0.150149 0.149447
0.280339 0.147097 0.150271
0.331640 0.140536 0.150912
0.388342 0.129213 0.151369
0.447974 0.111086 0.151644
0.509148 0.076356 0.152193
0.568658 0.000000 0.153109
0.625147 0.000000 0.154086
0.676936 0.000000 0.155734
0.723232 0.000000 0.158511
0.764523 0.000000 0.161868
0.801236 0.000000 0.166384
0.833860 0.000000 0.172366
0.863096 0.000000 0.179568
0.891478 0.000000 0.189151
0.919158 0.057801 0.201663
0.943114 0.134371 0.216739
0.964080 0.180728 0.234165
0.982757 0.221439 0.254429
0.999603 0.260349 0.277806
1.000000 0.299596 0.304234
1.000000 0.339574 0.334234
1.000000 0.381262 0.368414
0.068147 0.151858 0.142916
0.071138 0.151583 0.142733
0.079957 0.151400 0.142733
0.091920 0.152010 0.140047
0.105867 0.152102 0.141451
0.119142 0.153079 0.144472
0.139590 0.154818 0.145846
0.164920 0.155947 0.147097
0.196170 0.156680 0.148318
0.233585 0.156100 0.149294
0.278172 0.153872 0.149874
0.329046 0.148898 0.150393
0.385168 0.140414 0.150729
0.444434 0.126284 0.151125
0.504906 0.104799 0.151614
0.563989 0.054475 0.152438
0.620294 0.000000 0.153384
0.671931 0.000000 0.154818
0.718410 0.000000 0.157351
0.759915 0.000000 0.160800
0.796628 0.000000 0.164889
0.829648 0.000000 0.171176
0.859281 0.000000 0.178195
0.888365 0.000000 0.187655
0.916136 0.102235 0.200473
0.940429 0.150729 0.214908
0.961913 0.191196 0.232639
0.981018 0.229313 0.253452
0.998108 0.266545 0.276768
1.000000 0.304631 0.303319
1.000000 0.343481 0.333532
1.000000 0.383764 0.367193
0.063447 0.161929 0.146883
0.065431 0.161898 0.146883
0.078889 0.161257 0.146487
0.091096 0.160861 0.145602
0.104097 0.162295 0.141909
0.124880 0.162875 0.141970
0.139376 0.161746 0.145663
0.162448 0.163058 0.147127
0.193301 0.164248 0.148104
0.230381 0.164828 0.148928
0.274113 0.164034 0.149386
0.324834 0.160922 0.149752
0.380072 0.155245 0.150149
0.439002 0.145632 0.150149
0.499031 0.132021 0.150423
0.558679 0.112367 0.150881
0.615229 0.086885 0.151827
0.667384 0.021881 0.153109
0.714260 0.000000 0.155612
0.756130 0.000000 0.159030
0.793179 0.000000 0.163638
0.826322 0.000000 0.169711
0.856199 0.024750 0.176913
0.886259 0.100710 0.186862
0.913848 0.139193 0.199191
0.938231 0.174319 0.214328
0.959808 0.208469 0.231601
0.979034 0.242405 0.252598
0.996124 0.277134 0.276036
1.000000 0.312810 0.302373
1.000000 0.349737 0.332189
1.000000 0.388586 0.365820
0.041749 0.176699 0.150484
0.045747 0.176638 0.150484
0.063355 0.176028 0.150301
0.087617 0.174685 0.149996
0.101625 0.175265 0.147646
0.123110 0.177707 0.142763
0.153201 0.179934 0.140200
0.171481 0.176059 0.144533
0.191745 0.174258 0.147982
0.228611 0.176211 0.148409
0.272190 0.177066 0.148806
0.322301 0.176394 0.149081
0.377203 0.173434 0.148806
0.435798 0.167788 0.148653
0.495674 0.159731 0.148592
0.554864 0.148592 0.148928
0.611688 0.135439 0.149660
0.664210 0.121920 0.150912
0.711177 0.110506 0.153231
0.753109 0.104219 0.156558
0.790219 0.105379 0.161227
0.823606 0.114534 0.167361
0.868254 0.144137 0.179507
0.899901 0.170352 0.192111
0.927001 0.198337 0.207767
0.950256 0.227115 0.225406
0.970428 0.256565 0.245212
0.988159 0.286473 0.267826
1.000000 0.317937 0.293004
1.000000 0.350835 0.321172
1.000000 0.385534 0.352331
1.000000 0.421576 0.386267
0.000000 0.200473 0.154849
0.000000 0.200259 0.154665
0.019532 0.199680 0.154726
0.063142 0.198093 0.154269
0.099733 0.195773 0.153689
0.120821 0.198642 0.148745
0.151949 0.202640 0.142092
0.197757 0.209171 0.134859
0.220554 0.201358 0.140169
0.243931 0.195895 0.145174
0.277317 0.194491 0.147646
0.328862 0.196078 0.147372
0.384405 0.195987 0.146639
0.442786 0.193515 0.146395
0.502464 0.188968 0.146029
0.560693 0.182834 0.146151
0.616541 0.175570 0.146731
0.667597 0.169497 0.148104
0.713832 0.164797 0.150637
0.755459 0.163760 0.154269
0.793027 0.166110 0.159854
0.826749 0.173190 0.166567
0.861326 0.187778 0.176181
0.893034 0.206577 0.189181
0.920989 0.228458 0.204562
0.944823 0.252110 0.222202
0.965423 0.276799 0.242344
0.983398 0.303105 0.264775
0.999451 0.331334 0.290013
1.000000 0.361242 0.317510
1.000000 0.393256 0.348486
1.000000 0.427344 0.382147
0.000000 0.229374 0.159609
0.000000 0.229068 0.159457
0.000000 0.228275 0.159335
0.001892 0.226749 0.159121
0.083284 0.224460 0.158572
0.117983 0.223026 0.156588
0.148196 0.227756 0.148898
0.188785 0.233341 0.139620
0.249546 0.246250 0.126558
0.279179 0.235813 0.130220
0.305943 0.226535 0.137026
0.332982 0.219150 0.143252
0.379400 0.218540 0.144381
0.436988 0.219272 0.143587
0.495674 0.218387 0.142733
0.553338 0.216068 0.142397
0.608881 0.212802 0.142855
0.659937 0.209964 0.144015
0.706630 0.208499 0.146456
0.748562 0.208164 0.150607
0.786221 0.210758 0.155856
0.822782 0.218326 0.163516
0.856718 0.228916 0.173739
0.887755 0.243748 0.186618
0.915404 0.260899 0.201785
0.939391 0.280400 0.219974
0.960204 0.301122 0.239750
0.978485 0.323674 0.262486
0.994812 0.348943 0.287572
1.000000 0.375982 0.315312
1.000000 0.405554 0.346166
1.000000 0.437568 0.380041
0.000000 0.266697 0.165743
0.000000 0.266545 0.165774
0.000000 0.265568 0.165560
0.000000 0.264073 0.165377
0.005615 0.261631 0.164736
0.107790 0.258183 0.164248
0.145632 0.259800 0.158389
0.185824 0.266087 0.147585
0.236210 0.273594 0.134188
0.309697 0.290532 0.112032
0.347875 0.279545 0.114168
0.378668 0.267887 0.120577
0.406378 0.255924 0.130465
0.433539 0.246098 0.139528
0.490791 0.247410 0.138979
0.547875 0.248081 0.137972
0.602747 0.247776 0.138186
0.653620 0.247532 0.139132
0.700313 0.247684 0.141421
0.742092 0.248692 0.145327
0.782284 0.253056 0.151614
0.818357 0.259556 0.159731
0.851652 0.268376 0.170504
0.882261 0.280491 0.183810
0.909911 0.294438 0.199374
0.933898 0.310399 0.217899
0.954955 0.328161 0.238437
0.973510 0.347845 0.261204
0.990112 0.369909 0.286656
1.000000 0.394415 0.314580
1.000000 0.421607 0.345556
1.000000 0.451453 0.379797
0.000000 0.311833 0.173617
0.000000 0.311681 0.173434
0.000000 0.310765 0.173098
0.000000 0.309148 0.172824
0.000000 0.306676 0.172488
0.055818 0.303319 0.171389
0.143069 0.298650 0.170474
0.184421 0.304631 0.159213
0.233524 0.312444 0.143465
0.292210 0.320928 0.123384
0.373846 0.339300 0.084474
0.420600 0.330205 0.080385
0.454017 0.316075 0.089693
0.481544 0.300603 0.107027
0.507805 0.286992 0.122957
0.541863 0.279057 0.132692
0.596643 0.281254 0.132326
0.647608 0.282963 0.133181
0.695369 0.285252 0.135653
0.739040 0.288792 0.139864
0.778012 0.293065 0.146304
0.813016 0.298344 0.155276
0.845243 0.305516 0.166384
0.875181 0.314794 0.180240
0.902281 0.326299 0.196017
0.926421 0.339117 0.214511
0.947814 0.354253 0.235386
0.966857 0.371313 0.258061
0.984009 0.390814 0.284092
0.999756 0.413428 0.312718
1.000000 0.438422 0.344396
1.000000 0.466407 0.379034
0.000000 0.360815 0.183627
0.000000 0.360784 0.183474
0.000000 0.360113 0.183261
0.000000 0.358770 0.182803
0.000000 0.356756 0.182101
0.000000 0.353643 0.181430
0.124758 0.349767 0.179995
0.186526 0.347967 0.175509
0.233494 0.356054 0.158541
0.290684 0.365057 0.135683
0.356542 0.374578 0.103334
0.441230 0.393194 0.000000
0.496986 0.387640 0.000000
0.528679 0.369299 0.000000
0.556756 0.351965 0.023987
0.580102 0.334752 0.092012
0.603021 0.320348 0.117647
0.644251 0.318456 0.125826
0.691341 0.322362 0.128511
0.733822 0.325872 0.133333
0.771878 0.329900 0.140749
0.806394 0.334722 0.150240
0.838468 0.341192 0.162356
0.868284 0.349096 0.176425
0.895598 0.359075 0.193240
0.919829 0.370336 0.212467
0.941497 0.383276 0.233738
0.960937 0.398199 0.257786
0.978363 0.415595 0.284337
0.994476 0.435737 0.313359
1.000000 0.458534 0.344976
1.000000 0.484535 0.380011
0.000000 0.415137 0.197726
0.000000 0.415076 0.197574
0.000000 0.414252 0.197574
0.000000 0.413306 0.196933
0.000000 0.411658 0.196384
0.000000 0.409003 0.195712
0.089204 0.405798 0.194400
0.185458 0.401556 0.192355
0.240116 0.403845 0.180941
0.293126 0.412909 0.157504
0.355230 0.422339 0.124605
0.424720 0.432349 0.043091
0.525200 0.462501 0.000000
0.590082 0.464027 0.000000
0.619959 0.442115 0.000000
0.646937 0.423499 0.000000
0.667750 0.402411 0.000000
0.686305 0.383948 0.068635
0.703822 0.368841 0.119387
0.744381 0.373144 0.127321
0.780789 0.377508 0.136751
0.813993 0.382116 0.149630
0.844663 0.388037 0.164004
0.873198 0.395514 0.180789
0.898924 0.403876 0.199619
0.921904 0.413214 0.220554
0.942321 0.424201 0.243381
0.960662 0.436805 0.268070
0.977264 0.451637 0.295140
0.992828 0.469154 0.324498
1.000000 0.489509 0.356451
1.000000 0.513085 0.391638
0.000000 0.478004 0.221714
0.000000 0.477882 0.221378
0.000000 0.477119 0.221042
0.000000 0.475746 0.220310
0.000000 0.473701 0.219394
0.000000 0.470863 0.217960
0.006561 0.467567 0.216617
0.186465 0.464424 0.214878
0.259037 0.460670 0.212985
0.310033 0.468696 0.192264
0.367559 0.479927 0.161013
0.434638 0.491585 0.112398
0.507744 0.503716 0.000000
0.586053 0.518273 0.000000
0.653254 0.525933 0.000000
0.679011 0.500816 0.000000
0.701747 0.478584 0.000000
0.719631 0.456031 0.000000
0.734768 0.435096 0.000000
0.748440 0.417029 0.094881
0.770077 0.409247 0.129152
0.803189 0.413581 0.143038
0.834104 0.418891 0.158511
0.862821 0.425422 0.176516
0.889067 0.432807 0.195682
0.912657 0.441047 0.217533
0.933715 0.450782 0.241062
0.952697 0.462135 0.266911
0.969940 0.475410 0.294591
0.985992 0.491371 0.324529
1.000000 0.510216 0.357549
1.000000 0.531975 0.392859
0.000000 0.534691 0.251102
0.000000 0.534539 0.250950
0.000000 0.533471 0.250278
0.000000 0.532128 0.249393
0.000000 0.530449 0.248783
0.000000 0.527916 0.247044
0.000458 0.524987 0.245212
0.192813 0.521874 0.243534
0.269932 0.517845 0.241245
0.329290 0.516716 0.235416
0.378058 0.526513 0.209232
0.436194 0.537072 0.172580
0.500328 0.547906 0.113741
0.568170 0.558404 0.000000
0.636316 0.568688 0.000000
0.702632 0.579980 0.000000
0.724849 0.552544 0.000000
0.744320 0.528405 0.000000
0.760952 0.505669 0.000000
0.773892 0.482887 0.000000
0.785641 0.463569 0.035248
0.797055 0.447761 0.130861
0.824002 0.449165 0.153597
0.853239 0.455268 0.172213
0.879850 0.462074 0.193545
0.903929 0.469581 0.215976
0.925536 0.478218 0.240513
0.945006 0.488136 0.266758
0.962676 0.500175 0.295109
0.979095 0.514855 0.326329
0.994324 0.532189 0.359716
1.000000 0.552575 0.396063
0.000000 0.584802 0.285801
0.000000 0.584588 0.285863
0.000000 0.583612 0.284886
0.000000 0.582361 0.284001
0.000000 0.580255 0.282658
0.000000 0.577691 0.281132
0.098695 0.574884 0.279210
0.212711 0.571862 0.276890
0.285252 0.568658 0.274998
0.345769 0.565515 0.273198
0.395209 0.568109 0.260227
0.443000 0.577478 0.231510
0.497505 0.586877 0.193301
0.555779 0.596246 0.133730
0.617273 0.605280 0.000000
0.678523 0.613611 0.000000
0.742428 0.627253 0.000000
0.762081 0.598901 0.000000
0.779660 0.573846 0.000000
0.795254 0.551110 0.000000
0.807004 0.528130 0.000000
0.818204 0.508568 0.000000
0.828885 0.492683 0.125368
0.843687 0.484108 0.169680
0.870695 0.490425 0.191653
0.895140 0.497383 0.215091
0.917235 0.505272 0.240513
0.937285 0.514611 0.268162
0.955474 0.525811 0.297978
0.972442 0.539696 0.330236
0.988190 0.556237 0.365118
1.000000 0.575891 0.402564
0.000000 0.626337 0.322484
0.000000 0.626307 0.322454
0.000000 0.625788 0.322179
0.000000 0.624903 0.321477
0.000000 0.623438 0.320195
0.000000 0.621668 0.318975
0.169833 0.619776 0.317906
0.247807 0.617548 0.316258
0.309972 0.615045 0.314855
0.366155 0.612329 0.313268
0.417884 0.609125 0.311345
0.457374 0.614771 0.290806
0.500633 0.622431 0.261021
0.549126 0.630030 0.221195
0.601373 0.637446 0.162570
0.656275 0.644495 0.000000
0.712367 0.651484 0.000000
0.773526 0.666743 0.000000
0.792508 0.639765 0.000000
0.808713 0.614527 0.000000
0.824033 0.592706 0.000000
0.835782 0.570489 0.000000
0.846738 0.551537 0.000000
0.856962 0.535882 0.127718
0.866728 0.523552 0.185245
0.886900 0.525231 0.216129
0.909422 0.532738 0.243046
0.929808 0.541527 0.271672
0.948394 0.551843 0.302586
0.965606 0.564508 0.335210
0.981537 0.579767 0.370428
0.996185 0.597742 0.408118
0.000000 0.662226 0.359960
0.000000 0.662135 0.359747
0.000000 0.661738 0.359686
0.000000 0.661097 0.359228
0.025208 0.659998 0.358221
0.164920 0.658595 0.357183
0.229587 0.656886 0.356085
0.285618 0.654994 0.354925
0.337407 0.652827 0.353704
0.386175 0.650385 0.352300
0.432441 0.647669 0.350469
0.474342 0.646174 0.345586
0.508507 0.653071 0.321813
0.548180 0.659907 0.290837
0.592065 0.666651 0.252018
0.639734 0.673121 0.197086
0.689784 0.679316 0.096834
0.741299 0.685603 0.000000
0.797482 0.698848 0.000000
0.818601 0.676905 0.000000
0.834104 0.652583 0.000000
0.848966 0.631220 0.000000
0.860716 0.610285 0.000000
0.871092 0.591882 0.000000
0.880858 0.576776 0.140993
0.890105 0.564904 0.202304
0.901488 0.559472 0.246738
0.922210 0.567681 0.276341
0.941131 0.577417 0.307958
0.958679 0.589319 0.341405
0.974945 0.603693 0.377691
0.989837 0.620752 0.416236
0.121523 0.695033 0.399359
0.129732 0.695094 0.399298
0.192538 0.704982 0.412848
0.212985 0.704311 0.412207
0.240818 0.703487 0.411810
0.273167 0.702266 0.410620
0.308965 0.700679 0.409674
0.347051 0.698878 0.408453
0.385809 0.697017 0.407111
0.425299 0.694881 0.406043
0.463966 0.692531 0.404273
0.501946 0.689815 0.402594
0.534051 0.690913 0.391363
0.563928 0.696620 0.366522
0.598840 0.702144 0.336309
0.637873 0.707454 0.297856
0.680507 0.712398 0.246281
0.725429 0.717128 0.170840
0.771633 0.721736 0.000000
0.822049 0.731960 0.000000
0.844541 0.714290 0.000000
0.859220 0.691005 0.000000
0.873228 0.670130 0.000000
0.884276 0.649989 0.000000
0.893736 0.631952 0.008392
0.902495 0.617029 0.170047
0.910582 0.605432 0.231052
0.918364 0.597681 0.278996
0.933898 0.602838 0.315282
0.951598 0.613825 0.349279
0.968109 0.627283 0.386023
0.983307 0.643214 0.424689
0.252476 0.726955 0.441688
0.256474 0.727779 0.442817
0.265873 0.728420 0.444038
0.280308 0.728786 0.444923
0.300023 0.728756 0.445319
0.323735 0.727901 0.444984
0.350378 0.726772 0.443977
0.379736 0.725216 0.442786
0.411383 0.723507 0.441657
0.444739 0.721675 0.440711
0.478279 0.719661 0.439521
0.511925 0.717403 0.437842
0.545373 0.714778 0.436103
0.571099 0.718349 0.419226
0.599115 0.723507 0.395331
0.631586 0.728450 0.365698
0.667445 0.733150 0.328740
0.706691 0.737697 0.281224
0.748348 0.742123 0.216159
0.791470 0.746395 0.087098
0.838651 0.755795 0.000000
0.862974 0.742824 0.000000
0.877226 0.721035 0.000000
0.890898 0.701228 0.000000
0.901457 0.682277 0.000000
0.910460 0.665370 0.107759
0.918761 0.651759 0.201480
0.926513 0.641382 0.262028
0.933928 0.635218 0.312291
0.943938 0.636316 0.355962
0.960723 0.649104 0.393286
0.976318 0.664271 0.432807
0.319524 0.751095 0.476051
0.323278 0.751797 0.477485
0.329625 0.752468 0.478706
0.339879 0.752834 0.479469
0.354223 0.752804 0.480079
0.371252 0.752285 0.479774
0.391516 0.751339 0.479408
0.415076 0.750057 0.478462
0.440528 0.748653 0.477546
0.467842 0.747097 0.476448
0.496590 0.745388 0.475502
0.526207 0.743435 0.474189
0.555779 0.741299 0.472511
0.584009 0.739773 0.468879
0.606226 0.744350 0.449897
0.632136 0.748867 0.426734
0.661982 0.753231 0.398260
0.695155 0.757473 0.363073
0.731289 0.761563 0.319036
0.769680 0.765560 0.260472
0.809598 0.769406 0.170779
0.854002 0.777981 0.000000
0.879789 0.769039 0.000000
0.893645 0.748806 0.000000
0.907042 0.730373 0.000000
0.916960 0.712581 0.000000
0.925536 0.697230 0.160342
0.933501 0.684962 0.239963
0.941009 0.676509 0.299168
0.948150 0.672053 0.351385
0.954925 0.672175 0.400610
0.969329 0.684932 0.441627
0.375982 0.773220 0.510277
0.378454 0.773831 0.511620
0.383093 0.774350 0.512474
0.391089 0.774624 0.513512
0.401495 0.774624 0.513848
0.414618 0.774197 0.513756
0.430365 0.773434 0.513115
0.448798 0.772427 0.512474
0.470008 0.771267 0.511803
0.492683 0.769894 0.510857
0.516991 0.768521 0.510246
0.542504 0.766934 0.509239
0.568292 0.765194 0.507866
0.594415 0.763210 0.506554
0.617212 0.763912 0.498665
0.638056 0.768063 0.480629
0.662470 0.772274 0.459205
0.690272 0.776486 0.432715
0.721126 0.780667 0.400916
0.754910 0.784787 0.360632
0.790860 0.788846 0.309209
0.828428 0.792813 0.237369
0.870848 0.801236 0.095033
0.898222 0.796323 0.000000
0.911803 0.778195 0.000000
0.925139 0.761379 0.000000
0.934142 0.745541 0.106600
0.942260 0.732357 0.223209
0.949828 0.722438 0.294072
0.956909 0.716365 0.352850
0.963531 0.714443 0.406592
0.969757 0.716854 0.457893
0.435096 0.796994 0.550195
0.436255 0.797177 0.550561
0.438911 0.797208 0.550927
0.443763 0.797116 0.550958
0.450782 0.796811 0.550652
0.460304 0.796201 0.550317
0.472328 0.795468 0.549889
0.486671 0.794583 0.549218
0.503197 0.793668 0.548577
0.522271 0.792569 0.547875
0.542535 0.791470 0.547478
0.563928 0.790188 0.546654
0.586206 0.788754 0.545769
0.609033 0.787198 0.544945
0.632105 0.785428 0.543511
0.650202 0.787747 0.531975
0.669490 0.791409 0.515038
0.691859 0.795102 0.494392
0.717220 0.798764 0.469825
0.745571 0.802487 0.439673
0.776425 0.806058 0.402075
0.809720 0.809659 0.353491
0.844694 0.813046 0.288426
0.884489 0.820340 0.188846
0.913512 0.818509 0.000000
0.926665 0.802029 0.000000
0.939239 0.786801 0.000000
0.947539 0.772854 0.185428
0.955230 0.761624 0.275303
0.962371 0.753719 0.342321
0.968963 0.749722 0.401160
0.975128 0.749660 0.455848
0.478126 0.815000 0.581872
0.478981 0.815122 0.582177
0.481300 0.815244 0.582391
0.485023 0.815122 0.582422
0.490730 0.814878 0.582391
0.498054 0.814420 0.582086
0.507713 0.813809 0.581659
0.519371 0.813138 0.581140
0.532921 0.812375 0.580652
0.548699 0.811490 0.580438
0.565728 0.810575 0.579889
0.583856 0.809567 0.579431
0.603052 0.808408 0.578882
0.622980 0.807187 0.578271
0.643305 0.805814 0.577295
0.663325 0.804776 0.575128
0.678828 0.808255 0.561822
0.696925 0.811795 0.545922
0.717830 0.815366 0.526848
0.741512 0.818936 0.504204
0.767910 0.822507 0.476020
0.796750 0.825986 0.441047
0.827817 0.829313 0.396368
0.860746 0.832547 0.336889
0.896147 0.836545 0.245029
0.927703 0.838468 0.091463
0.940795 0.823636 0.000000
0.952056 0.809903 0.120333
0.959747 0.797910 0.248539
0.966979 0.788693 0.327184
0.973663 0.782925 0.393011
0.979980 0.780911 0.451637
0.522301 0.833982 0.616144
0.523430 0.834257 0.616632
0.524987 0.834287 0.616907
0.527703 0.834134 0.616693
0.531640 0.833707 0.616175
0.536980 0.833097 0.615503
0.543877 0.832364 0.614618
0.552667 0.831510 0.613794
0.563195 0.830594 0.612787
0.575463 0.829648 0.611994
0.589227 0.828611 0.611139
0.604273 0.827543 0.610224
0.620478 0.826444 0.609430
0.637354 0.825162 0.608392
0.654688 0.823819 0.607263
0.672724 0.822354 0.606073
0.688746 0.822751 0.600366
0.703243 0.825956 0.587304
0.720363 0.829313 0.572015
0.740200 0.832792 0.554223
0.762600 0.836301 0.532555
0.787350 0.839689 0.506279
0.814359 0.842954 0.473152
0.843320 0.845945 0.430854
0.874418 0.848661 0.373419
0.908507 0.852903 0.295262
0.940429 0.855985 0.180636
0.955230 0.844236 0.119661
0.964538 0.831815 0.215366
0.971618 0.821653 0.309636
0.978271 0.814450 0.382391
0.984558 0.810666 0.446174
0.555566 0.849302 0.643488
0.556573 0.849546 0.643946
0.558038 0.849668 0.644282
0.560327 0.849607 0.644282
0.563806 0.849363 0.644099
0.568475 0.849027 0.643824
0.574670 0.848600 0.643458
0.582483 0.848112 0.643244
0.591608 0.847593 0.642908
0.602350 0.846983 0.642603
0.614160 0.846281 0.642329
0.627192 0.845548 0.641993
0.640986 0.844694 0.641321
0.655604 0.843687 0.640742
0.670802 0.842557 0.639734
0.686458 0.841398 0.638666
0.702602 0.840116 0.637537
0.715633 0.841947 0.629053
0.729335 0.845060 0.616754
0.745541 0.848264 0.602594
0.764034 0.851591 0.585473
0.784848 0.854826 0.564996
0.807889 0.858000 0.540337
0.833158 0.861021 0.508995
0.860441 0.863798 0.469123
0.889738 0.866423 0.416175
0.921782 0.869718 0.342321
0.953826 0.873655 0.245121
0.970855 0.865019 0.181979
0.977661 0.854368 0.297490
0.984161 0.846281 0.378088
0.990326 0.841184 0.446387
0.590112 0.865690 0.672877
0.590661 0.865812 0.673152
0.591608 0.865812 0.673243
0.593439 0.865721 0.673152
0.596246 0.865507 0.673030
0.600092 0.865171 0.672755
0.605188 0.864836 0.672328
0.611505 0.864378 0.672023
0.619104 0.863890 0.671748
0.627955 0.863371 0.671534
0.638025 0.862791 0.671260
0.649042 0.862150 0.670893
0.660975 0.861479 0.670680
0.673640 0.860685 0.670161
0.686885 0.859739 0.669398
0.700649 0.858732 0.668574
0.714931 0.857725 0.667628
0.729274 0.856901 0.666224
0.740414 0.859800 0.656184
0.753567 0.862791 0.644617
0.768734 0.865904 0.630915
0.786130 0.868986 0.614618
0.805539 0.871977 0.595117
0.827085 0.874846 0.570855
0.850706 0.877562 0.540764
0.876402 0.880095 0.502373
0.904173 0.882475 0.451881
0.934173 0.884825 0.380774
0.966583 0.889372 0.287999
0.983093 0.883299 0.275120
0.989410 0.874510 0.366888
0.995453 0.868223 0.440894
0.619409 0.881102 0.699123
0.619898 0.881193 0.699275
0.620813 0.881224 0.699428
0.622431 0.881193 0.699519
0.624994 0.881102 0.699550
0.628534 0.881071 0.699702
0.633661 0.881041 0.700069
0.639765 0.881041 0.700587
0.647150 0.881102 0.701228
0.655695 0.881132 0.702052
0.665187 0.881163 0.702815
0.675471 0.881132 0.703517
0.686366 0.880980 0.704097
0.697871 0.880705 0.704433
0.709773 0.880217 0.704555
0.721920 0.879576 0.704219
0.734463 0.878813 0.703822
0.747433 0.878050 0.703212
0.759304 0.878630 0.699916
0.769986 0.881346 0.691249
0.782345 0.884184 0.681056
0.796506 0.887053 0.668757
0.812406 0.889799 0.653681
0.830228 0.892515 0.635187
0.850034 0.895048 0.612146
0.871946 0.897459 0.583246
0.895872 0.899718 0.546838
0.922087 0.901884 0.499123
0.950683 0.903868 0.432654
0.982574 0.908232 0.346288
0.997284 0.904295 0.373785
1.000000 0.897276 0.450568
0.653010 0.899687 0.730037
0.653132 0.899687 0.730037
0.653803 0.899626 0.730007
0.654963 0.899535 0.729885
0.656916 0.899351 0.729763
0.659693 0.899168 0.729671
0.663416 0.898955 0.729580
0.668116 0.898741 0.729488
0.673915 0.898497 0.729549
0.680568 0.898253 0.729641
0.688197 0.898009 0.729793
0.696559 0.897734 0.729915
0.705806 0.897398 0.730007
0.715602 0.897002 0.730037
