20 Preset/Art Style/【3】LUT video cho PR-AE-FCPX/Portra 800 High-key Desaturated.cube
# Created by Adobe Lightroom plugin Export LUT (1.24.0)
# www.johnrellis.com/lightroom/exportlut.htm
# Preset: Portra 800 High-key Desaturated
# Color profile: E:\lut插件\exportlut.1.24\exportlut.lrplugin\color profiles\Rec709gamma2.4.icc
LUT_3D_SIZE 32
DOMAIN_MIN 0.0 0.0 0.0
DOMAIN_MAX 1.0 1.0 1.0
0.175357 0.168917 0.165316
0.174868 0.168795 0.165347
0.173190 0.168826 0.165377
0.170474 0.168276 0.165133
0.167208 0.167605 0.164950
0.167636 0.167025 0.164645
0.174289 0.166629 0.164004
0.188815 0.167117 0.163241
0.212985 0.168246 0.162081
0.245823 0.170138 0.160372
0.284245 0.173068 0.158022
0.328313 0.175631 0.155215
0.377050 0.177554 0.151644
0.429053 0.178012 0.147524
0.482490 0.177554 0.142458
0.536156 0.176608 0.136690
0.588525 0.176425 0.129549
0.638788 0.177829 0.121309
0.686244 0.181308 0.111360
0.730373 0.188357 0.098939
0.770565 0.198795 0.082246
0.814572 0.214969 0.035492
0.852964 0.233494 0.000000
0.884581 0.252293 0.000000
0.910887 0.270970 0.000000
0.933165 0.289097 0.000000
0.952422 0.307347 0.000000
0.969482 0.325750 0.000000
0.984588 0.344457 0.000000
0.997894 0.364599 0.057801
1.000000 0.385931 0.119814
1.000000 0.408698 0.164553
0.175021 0.168612 0.165194
0.174685 0.168643 0.165377
0.173556 0.168246 0.165255
0.170596 0.168093 0.165164
0.167300 0.167391 0.164950
0.167758 0.166842 0.164675
0.173983 0.166659 0.164004
0.188296 0.167208 0.163241
0.211398 0.168490 0.162081
0.243412 0.170596 0.160403
0.281163 0.173404 0.158114
0.324712 0.176089 0.155337
0.372656 0.178164 0.151858
0.424323 0.179171 0.147738
0.477424 0.179019 0.142702
0.530785 0.178408 0.137026
0.583551 0.177920 0.130037
0.634028 0.179385 0.121614
0.681849 0.182742 0.111757
0.726162 0.189548 0.099886
0.766415 0.199252 0.083925
0.809781 0.214023 0.039704
0.847562 0.232059 0.000000
0.879240 0.250034 0.000000
0.905760 0.268009 0.000000
0.928435 0.285832 0.000000
0.948241 0.303838 0.000000
0.965850 0.322026 0.000000
0.981506 0.340795 0.000000
0.995361 0.360571 0.036774
1.000000 0.381842 0.111269
1.000000 0.404547 0.156558
0.174228 0.167330 0.164828
0.174350 0.167117 0.164858
0.173129 0.167269 0.164858
0.170443 0.166506 0.165011
0.168185 0.166049 0.164767
0.168124 0.166262 0.164553
0.174197 0.166812 0.163973
0.188205 0.167910 0.162966
0.210880 0.169802 0.161715
0.242191 0.172549 0.160128
0.279667 0.175906 0.157778
0.322667 0.179080 0.154971
0.370275 0.181643 0.151431
0.421210 0.183047 0.147280
0.474189 0.183597 0.142184
0.527642 0.183230 0.136477
0.580224 0.183993 0.129244
0.630732 0.185275 0.120821
0.678798 0.188418 0.110903
0.723079 0.195407 0.098848
0.763790 0.204837 0.081727
0.807492 0.219638 0.035370
0.844816 0.236057 0.000000
0.876341 0.253819 0.000000
0.902861 0.271000 0.000000
0.925689 0.287694 0.000000
0.945708 0.305089 0.000000
0.963561 0.323003 0.000000
0.979553 0.341314 0.000000
0.993713 0.360784 0.025055
1.000000 0.381628 0.106111
1.000000 0.404089 0.152102
0.172793 0.165011 0.163699
0.172610 0.164858 0.163729
0.172061 0.164736 0.163943
0.170626 0.164706 0.163973
0.168704 0.164584 0.164034
0.169741 0.165377 0.163729
0.176211 0.166964 0.163180
0.189914 0.169100 0.162387
0.211948 0.172244 0.161135
0.242344 0.176394 0.159365
0.279149 0.180758 0.157015
0.321660 0.185031 0.153994
0.368475 0.188663 0.150271
0.419043 0.190951 0.145968
0.471443 0.191989 0.140993
0.524071 0.192935 0.134859
0.576165 0.194125 0.127535
0.626215 0.196262 0.119112
0.673945 0.200046 0.108949
0.718288 0.206363 0.096254
0.759274 0.215793 0.075593
0.802457 0.229404 0.028321
0.839170 0.244663 0.000000
0.871061 0.260716 0.000000
0.898436 0.277195 0.000000
0.922271 0.293919 0.000000
0.943206 0.311162 0.000000
0.961700 0.328252 0.000000
0.978058 0.346349 0.000000
0.992462 0.365179 0.014710
1.000000 0.385229 0.102998
1.000000 0.406561 0.149020
0.170291 0.163882 0.162814
0.169863 0.164126 0.162783
0.169863 0.164126 0.162783
0.169772 0.164309 0.162753
0.169711 0.164309 0.162936
0.171359 0.165377 0.162936
0.178561 0.167941 0.162234
0.193515 0.171450 0.161379
0.215702 0.175753 0.160128
0.245731 0.180850 0.158145
0.281346 0.186435 0.155764
0.322393 0.191806 0.152529
0.368353 0.196597 0.148745
0.418097 0.200443 0.144076
0.469795 0.202945 0.138766
0.522484 0.205203 0.132387
0.574701 0.207553 0.124819
0.624842 0.210575 0.115511
0.672206 0.215305 0.104463
0.716518 0.221714 0.091005
0.759426 0.231724 0.058350
0.800748 0.245090 0.010559
0.836728 0.259586 0.000000
0.868437 0.274693 0.000000
0.895995 0.290074 0.000000
0.920043 0.305760 0.000000
0.941161 0.321416 0.000000
0.959747 0.337865 0.000000
0.976196 0.354681 0.000000
0.990661 0.372412 0.000916
1.000000 0.391394 0.098268
1.000000 0.411627 0.145968
0.167269 0.168002 0.162478
0.167178 0.168215 0.162448
0.166934 0.168582 0.162387
0.167575 0.169589 0.162051
0.170047 0.169833 0.161990
0.173953 0.169039 0.161807
0.181552 0.171420 0.161288
0.197513 0.176333 0.160159
0.221653 0.182498 0.158480
0.252781 0.189273 0.156252
0.288884 0.195621 0.153536
0.330205 0.201541 0.150179
0.376226 0.207004 0.146212
0.425330 0.211276 0.141421
0.477241 0.214694 0.135775
0.528862 0.217563 0.129000
0.580224 0.220920 0.121035
0.629908 0.224826 0.111452
0.676936 0.229984 0.100099
0.720150 0.236973 0.084627
0.764492 0.248508 0.041779
0.804379 0.261082 0.000000
0.868070 0.293217 0.000000
0.896513 0.309483 0.000000
0.920165 0.325902 0.000000
0.940490 0.341711 0.000000
0.958099 0.357366 0.000000
0.973877 0.371862 0.000000
0.987610 0.387457 0.000000
0.999573 0.403784 0.087037
1.000000 0.421149 0.136721
1.000000 0.439490 0.181582
0.161563 0.184573 0.163790
0.161318 0.184878 0.163729
0.161807 0.186099 0.163180
0.161715 0.188266 0.161868
0.166964 0.191653 0.161776
0.177890 0.189273 0.160800
0.188815 0.185367 0.160067
0.205936 0.188052 0.158572
0.233127 0.195834 0.156344
0.266819 0.204379 0.153597
0.307500 0.213077 0.150027
0.351995 0.220188 0.145937
0.398932 0.225834 0.141207
0.448707 0.230198 0.136110
0.499306 0.234012 0.129885
0.549798 0.237583 0.122560
0.599054 0.241611 0.113771
0.646601 0.246586 0.103304
0.691524 0.252598 0.090211
0.737484 0.262211 0.055543
0.783078 0.275303 0.006470
0.823209 0.290471 0.000000
0.858579 0.306249 0.000000
0.888792 0.322728 0.000000
0.914336 0.338659 0.000000
0.935607 0.354101 0.000000
0.953674 0.368902 0.000000
0.969299 0.383978 0.000000
0.983185 0.398993 0.000000
0.995483 0.413428 0.055024
1.000000 0.429084 0.126894
1.000000 0.446265 0.173556
0.153140 0.212009 0.167330
0.153902 0.212345 0.167056
0.154696 0.214328 0.166690
0.154147 0.217411 0.164797
0.160189 0.222324 0.163302
0.175570 0.226596 0.162844
0.195743 0.219333 0.159976
0.213504 0.210880 0.157748
0.237400 0.211307 0.155306
0.271427 0.220462 0.151980
0.311894 0.229801 0.148379
0.357855 0.239078 0.143465
0.407782 0.247501 0.138003
0.456245 0.252445 0.132326
0.506188 0.256596 0.125490
0.555261 0.260594 0.117830
0.603510 0.264927 0.108553
0.649714 0.270298 0.097322
0.695674 0.277501 0.079622
0.742275 0.288182 0.034455
0.784329 0.300145 0.000000
0.822324 0.313725 0.000000
0.856138 0.327916 0.000000
0.885374 0.342779 0.000000
0.910582 0.357061 0.000000
0.931731 0.371008 0.000000
0.949767 0.384588 0.000000
0.965606 0.397986 0.000000
0.979492 0.412238 0.000000
0.991699 0.426734 0.044221
1.000000 0.441474 0.119448
1.000000 0.456794 0.168917
0.144228 0.250828 0.175540
0.145418 0.251255 0.175601
0.148684 0.253300 0.175570
0.148653 0.257084 0.173007
0.149142 0.263432 0.169192
0.169833 0.271336 0.169802
0.196475 0.271458 0.166873
0.224125 0.259525 0.160403
0.247501 0.246067 0.155764
0.275456 0.241703 0.151522
0.316228 0.251743 0.146456
0.362127 0.261662 0.141817
0.411444 0.270817 0.136110
0.463661 0.279210 0.129274
0.515343 0.286503 0.121279
0.563409 0.290593 0.112856
0.610285 0.295201 0.102846
0.657404 0.301488 0.089754
0.704829 0.309972 0.057404
0.747890 0.319524 0.017853
0.787137 0.330205 0.000000
0.822843 0.342321 0.000000
0.855100 0.354833 0.000000
0.883268 0.367590 0.000000
0.907652 0.380194 0.000000
0.928527 0.392126 0.000000
0.946380 0.404303 0.000000
0.962188 0.416205 0.000000
0.976135 0.428809 0.010712
0.988403 0.441932 0.091493
0.998962 0.456001 0.129671
1.000000 0.470649 0.166751
0.134585 0.299657 0.191653
0.135958 0.300175 0.191806
0.142214 0.301884 0.192020
0.143771 0.306310 0.190097
0.142885 0.312902 0.184787
0.159182 0.321752 0.183383
0.191867 0.332952 0.185946
0.227085 0.324895 0.176425
0.259709 0.308202 0.164370
0.287602 0.288792 0.155184
0.317845 0.277501 0.147219
0.363378 0.287541 0.140749
0.412512 0.297215 0.135042
0.463996 0.306462 0.129152
0.516686 0.315679 0.120974
0.568872 0.324529 0.111055
0.621485 0.333501 0.098573
0.669276 0.340551 0.082124
0.713466 0.348028 0.046754
0.753750 0.356359 0.010010
0.790341 0.365332 0.000000
0.823575 0.374517 0.000000
0.853208 0.384497 0.000000
0.879728 0.394232 0.000000
0.902922 0.404395 0.000000
0.923278 0.414221 0.000000
0.941131 0.424475 0.000000
0.957092 0.435187 0.000000
0.971344 0.446418 0.070283
0.983917 0.458534 0.114015
0.994934 0.471046 0.147585
1.000000 0.484749 0.181918
0.123781 0.353674 0.216281
0.126192 0.354345 0.216556
0.133791 0.356481 0.217166
0.140597 0.360571 0.216464
0.140261 0.368017 0.211673
0.145357 0.377996 0.206729
0.185672 0.390295 0.211185
0.230259 0.402258 0.214755
0.268437 0.384894 0.194247
0.304417 0.363165 0.173953
0.334417 0.338506 0.158145
0.367407 0.322210 0.143862
0.414252 0.328496 0.135622
0.465461 0.337926 0.129061
0.520684 0.349401 0.122621
0.575097 0.360662 0.113741
0.627955 0.371954 0.103578
0.677333 0.383276 0.089693
0.719051 0.389899 0.062837
0.756954 0.396002 0.029969
0.791653 0.402441 0.003326
0.823117 0.409705 0.000000
0.851652 0.417304 0.000000
0.877134 0.425086 0.000000
0.899748 0.433204 0.000000
0.919646 0.441352 0.000000
0.937346 0.449714 0.032319
0.953246 0.458442 0.086671
0.967376 0.468147 0.114565
0.979950 0.478645 0.142733
0.990906 0.489754 0.172244
1.000000 0.501946 0.203403
0.117464 0.415412 0.254215
0.120424 0.415839 0.254490
0.132998 0.417792 0.255741
0.145174 0.422187 0.256321
0.148379 0.429389 0.252903
0.153445 0.439246 0.248112
0.187167 0.451667 0.249882
0.239658 0.466773 0.258946
0.288273 0.469032 0.253910
0.325414 0.447730 0.224186
0.359686 0.422827 0.194430
0.390509 0.395117 0.168368
0.445411 0.392004 0.147036
0.497566 0.397131 0.133974
0.554253 0.408118 0.125246
0.607721 0.419440 0.122621
0.657984 0.429969 0.118502
0.704219 0.440284 0.112947
0.746212 0.450324 0.107637
0.784085 0.459480 0.103304
0.815030 0.463020 0.096986
0.842557 0.466499 0.094636
0.867155 0.470436 0.095857
0.889220 0.474617 0.101167
0.908782 0.479255 0.111147
0.926268 0.484016 0.122286
0.941802 0.489265 0.136751
0.955779 0.495003 0.153201
0.968322 0.501701 0.171817
0.979553 0.509331 0.193301
0.989288 0.518120 0.217533
0.997498 0.528161 0.245274
0.150729 0.490211 0.313725
0.154299 0.490608 0.313970
0.165225 0.491951 0.314946
0.184909 0.494850 0.316991
0.190707 0.500664 0.314122
0.199039 0.509178 0.310338
0.215244 0.520287 0.306462
0.271183 0.533349 0.317510
0.332219 0.551385 0.334234
0.374395 0.545068 0.316930
0.409186 0.525872 0.281468
0.443153 0.502037 0.243320
0.472267 0.471931 0.202853
0.502434 0.444343 0.163210
0.550378 0.444770 0.144472
0.603418 0.454170 0.135256
0.652216 0.463508 0.137423
0.696437 0.472358 0.138613
0.736904 0.480690 0.138369
0.773983 0.488838 0.138705
0.807401 0.496498 0.140475
0.835935 0.501244 0.142672
0.860166 0.503044 0.143832
0.881956 0.505486 0.146548
0.901640 0.508049 0.152926
0.919341 0.511131 0.162173
0.935180 0.514885 0.173312
0.949401 0.519310 0.186801
0.962219 0.524712 0.202853
0.973693 0.531060 0.222507
0.983612 0.538537 0.244694
0.991943 0.547295 0.270603
0.216648 0.553246 0.374456
0.218418 0.553552 0.374731
0.227359 0.554223 0.375769
0.246159 0.556756 0.378607
0.255528 0.561639 0.378027
0.265965 0.569696 0.376043
0.279942 0.580163 0.373846
0.320104 0.591974 0.381506
0.375830 0.605585 0.397589
0.433661 0.620478 0.415808
0.457069 0.604181 0.380560
0.483986 0.583917 0.339605
0.510552 0.558648 0.293736
0.533318 0.526787 0.243839
0.555779 0.494301 0.192264
0.596155 0.488197 0.165011
0.644556 0.495613 0.158175
0.687953 0.502861 0.161013
0.727932 0.510155 0.166629
0.764248 0.516960 0.170901
0.797269 0.523522 0.175296
0.826902 0.529473 0.181064
0.853361 0.535271 0.188449
0.875608 0.537560 0.192935
0.895201 0.538659 0.197391
0.912840 0.540246 0.204135
0.928710 0.542504 0.213016
0.943053 0.545464 0.224094
0.955993 0.549432 0.238041
0.967468 0.554437 0.255741
0.977447 0.560632 0.276341
0.985840 0.568109 0.300389
0.298528 0.610315 0.439979
0.301274 0.610559 0.440223
0.307591 0.611017 0.441108
0.320684 0.612390 0.443153
0.332280 0.615808 0.443763
0.341711 0.621271 0.442359
0.355230 0.629145 0.441382
0.376043 0.639246 0.442664
0.423865 0.649714 0.457435
0.474434 0.661982 0.475441
0.513695 0.666133 0.478462
0.530297 0.650813 0.441505
0.549828 0.630762 0.397284
0.569970 0.605554 0.347082
0.587030 0.573693 0.290043
0.602686 0.538445 0.229099
0.635950 0.527001 0.193637
0.679530 0.532891 0.188937
0.719081 0.538476 0.190402
0.755062 0.544335 0.199649
0.787808 0.549920 0.206821
0.817411 0.555077 0.214633
0.843778 0.560052 0.222965
0.867460 0.564691 0.232242
0.888396 0.569207 0.242985
0.905943 0.569574 0.247868
0.921904 0.570611 0.254948
0.936400 0.572442 0.264988
0.949462 0.575402 0.277897
0.961028 0.579553 0.294194
0.971099 0.584863 0.314183
0.979339 0.591577 0.337926
0.376715 0.654627 0.497658
0.378393 0.655024 0.498238
0.384253 0.655604 0.499336
0.395331 0.656947 0.501762
0.408057 0.659358 0.503899
0.417426 0.664332 0.504234
0.430396 0.670954 0.505241
0.447150 0.679042 0.506981
0.480110 0.687526 0.517021
0.522057 0.696284 0.533074
0.564752 0.705409 0.551019
0.583093 0.701350 0.537072
0.591638 0.686915 0.498665
0.603937 0.668116 0.452735
0.618158 0.643244 0.397284
0.630640 0.611719 0.335515
0.641718 0.575799 0.268742
0.668696 0.559991 0.224582
0.708614 0.564935 0.221469
0.745296 0.569421 0.222446
0.778317 0.574792 0.234104
0.808133 0.579553 0.244938
0.834653 0.584070 0.255314
0.858610 0.588281 0.266148
0.879667 0.592370 0.277165
0.898589 0.596429 0.289708
0.915068 0.599634 0.301549
0.929534 0.600397 0.309911
0.942473 0.602136 0.321111
0.953857 0.605005 0.335393
0.963684 0.608911 0.353155
0.971832 0.614099 0.374640
0.448127 0.688808 0.547875
0.448981 0.688838 0.548150
0.453498 0.689204 0.549218
0.462196 0.690272 0.551415
0.475227 0.691951 0.554711
0.483803 0.695705 0.555779
0.495277 0.700526 0.557397
0.509667 0.706569 0.560021
0.529381 0.713344 0.564904
0.563104 0.719692 0.578485
0.598413 0.726467 0.593713
0.633417 0.733577 0.610254
0.634668 0.724819 0.582422
0.638270 0.711910 0.544945
0.646082 0.695277 0.500084
0.656977 0.673152 0.445136
0.667964 0.644617 0.381353
0.676692 0.609796 0.311376
0.698787 0.590723 0.258274
0.735561 0.594965 0.257664
0.769436 0.598810 0.258091
0.799344 0.603082 0.271611
0.825925 0.607172 0.285039
0.849699 0.610895 0.297276
0.871092 0.614527 0.310216
0.890074 0.618219 0.323735
0.906889 0.622095 0.337926
0.921782 0.626093 0.353094
0.934691 0.628626 0.366461
0.945983 0.630488 0.379095
0.955688 0.633417 0.395239
0.963561 0.637598 0.414893
0.516228 0.715999 0.594293
0.517418 0.716243 0.594751
0.549676 0.726741 0.614954
0.556237 0.727291 0.616999
0.566949 0.728206 0.620325
0.574395 0.730587 0.622004
0.583581 0.733852 0.623987
0.594903 0.737758 0.626795
0.608423 0.742580 0.630518
0.630213 0.747219 0.639399
0.655970 0.752010 0.650935
0.681239 0.757015 0.662867
0.697963 0.758846 0.665797
0.693507 0.750332 0.639490
0.691279 0.739254 0.604974
0.693294 0.724636 0.561120
0.699458 0.705348 0.506981
0.708248 0.680354 0.442542
0.716121 0.648371 0.368688
0.733761 0.626123 0.304295
0.766049 0.628809 0.304662
0.795651 0.631128 0.307500
0.821469 0.633692 0.319280
0.844297 0.636408 0.334264
0.864683 0.638727 0.347295
0.882902 0.641291 0.360815
0.899260 0.643946 0.374060
0.913787 0.646998 0.388556
0.926452 0.650721 0.404974
0.937377 0.654932 0.423102
0.946777 0.657435 0.438514
0.954467 0.660578 0.455879
0.583978 0.739406 0.639307
0.587121 0.740230 0.641077
0.592279 0.741207 0.643641
0.599969 0.742397 0.646906
0.610101 0.743648 0.650843
0.618402 0.745602 0.653590
0.625757 0.748165 0.655512
0.634668 0.751278 0.657893
0.645228 0.755001 0.660945
0.658503 0.759121 0.665553
0.679011 0.762905 0.674708
0.699580 0.766964 0.684230
0.719753 0.771054 0.693721
0.725093 0.769223 0.687129
0.720485 0.761532 0.663905
0.717708 0.751644 0.633356
0.718074 0.738857 0.592950
0.722805 0.722225 0.543236
0.730953 0.700710 0.482551
0.739651 0.672816 0.411109
0.755550 0.649897 0.339757
0.785183 0.652247 0.342321
0.812009 0.654047 0.347204
0.835599 0.655970 0.357916
0.855833 0.658137 0.373968
0.874113 0.660273 0.388586
0.890349 0.662623 0.402960
0.904906 0.665339 0.417884
0.917723 0.668605 0.434516
0.928649 0.672480 0.452857
0.937774 0.676997 0.472938
0.944884 0.681819 0.494148
0.630213 0.754391 0.669581
0.632746 0.755093 0.671138
0.637201 0.755978 0.673304
0.643061 0.757015 0.675990
0.651148 0.758053 0.679255
0.658686 0.759335 0.681971
0.664607 0.761501 0.683680
0.671565 0.763973 0.685634
0.679744 0.766842 0.688167
0.689052 0.770199 0.691157
0.703365 0.773342 0.697169
0.719936 0.776608 0.704646
0.736385 0.779904 0.712215
0.752438 0.783200 0.719783
0.749783 0.778927 0.707088
0.745235 0.772152 0.687007
0.742184 0.763577 0.660517
0.741634 0.752468 0.625483
0.744747 0.738155 0.579736
0.751797 0.719539 0.522972
0.760891 0.695583 0.455390
0.778622 0.676173 0.384527
0.801999 0.673854 0.381231
0.826078 0.675319 0.387457
0.847501 0.676509 0.396368
0.865660 0.678370 0.413825
0.881926 0.680385 0.429664
0.896361 0.682826 0.445624
0.909148 0.685725 0.462623
0.920134 0.689235 0.480995
0.929198 0.693355 0.500908
0.936248 0.698146 0.522423
0.670253 0.767575 0.695674
0.672084 0.768124 0.696834
0.675593 0.768765 0.698512
0.680110 0.769558 0.700557
0.686122 0.770413 0.703029
0.692836 0.771298 0.705562
0.697627 0.772915 0.707027
0.703090 0.774929 0.708644
0.709712 0.777218 0.710719
0.717067 0.779843 0.713130
0.726284 0.782620 0.716579
0.739528 0.785122 0.722438
0.753017 0.787778 0.728511
0.766323 0.790402 0.734615
0.775875 0.791836 0.737362
0.771084 0.787381 0.724422
0.767056 0.781765 0.707668
0.764370 0.774502 0.685603
0.763882 0.765438 0.656825
0.766384 0.753750 0.618402
0.772732 0.738552 0.568383
0.782101 0.718593 0.506096
0.799619 0.701900 0.439277
0.819974 0.697566 0.429633
0.841428 0.699001 0.438453
0.860472 0.700099 0.448768
0.876341 0.701961 0.466316
0.890257 0.704250 0.484810
0.902342 0.707027 0.503105
0.912627 0.710292 0.522148
0.920989 0.714076 0.542107
0.927184 0.718471 0.563622
0.713008 0.781552 0.722896
0.714015 0.781765 0.723354
0.715389 0.781979 0.723964
0.718227 0.782284 0.725032
0.722042 0.782681 0.726436
0.726894 0.783139 0.728176
0.730526 0.784268 0.729274
0.734798 0.785702 0.730556
0.739864 0.787442 0.732174
0.745846 0.789487 0.734157
0.752468 0.791684 0.736477
0.762020 0.793698 0.740475
0.772641 0.795682 0.745144
0.783261 0.797696 0.749874
0.793668 0.799649 0.754543
0.796323 0.799100 0.752346
0.791775 0.795499 0.741573
0.787808 0.790829 0.727565
0.784970 0.784817 0.709224
0.783780 0.777096 0.684810
0.785122 0.767117 0.652247
0.789792 0.754116 0.607996
0.798062 0.736843 0.550011
0.814115 0.721370 0.485786
0.832090 0.715389 0.468757
0.851194 0.716518 0.478492
0.868193 0.717708 0.489754
0.882475 0.719570 0.506859
0.894499 0.722072 0.526726
0.904631 0.725093 0.546288
0.912871 0.728511 0.566644
0.918975 0.732448 0.587854
0.740902 0.790555 0.739956
0.741512 0.790707 0.740261
0.742702 0.790890 0.740810
0.744900 0.791135 0.741634
0.747921 0.791409 0.742702
0.751858 0.791775 0.744137
0.755459 0.792599 0.745327
0.758907 0.793698 0.746365
0.762997 0.795010 0.747707
0.767849 0.796536 0.749294
0.773190 0.798184 0.751186
0.779568 0.799924 0.753597
0.788205 0.801419 0.757290
0.796872 0.802945 0.761044
0.805417 0.804410 0.764797
0.813657 0.805844 0.768460
0.811826 0.804318 0.763424
0.807767 0.801511 0.754604
0.804166 0.797787 0.742977
0.801480 0.792996 0.727840
0.800229 0.786679 0.707759
0.801083 0.778500 0.680873
0.804837 0.767697 0.643885
0.812192 0.753323 0.592676
0.825406 0.737667 0.527184
0.841733 0.730770 0.504326
0.859007 0.731991 0.515465
0.874144 0.733333 0.528191
0.886870 0.735225 0.544793
0.897002 0.737972 0.565789
0.905150 0.741207 0.587030
0.911284 0.744930 0.608392
0.768917 0.798978 0.756222
0.769680 0.799130 0.756619
0.770626 0.799252 0.757015
0.771908 0.799344 0.757443
0.773800 0.799466 0.758083
0.776547 0.799619 0.758968
0.779232 0.799924 0.759731
0.781399 0.800595 0.760281
0.784207 0.801450 0.761044
0.787564 0.802426 0.762051
0.791379 0.803555 0.763210
0.795712 0.804776 0.764675
0.801785 0.805875 0.767056
0.808530 0.806882 0.769802
0.815122 0.807919 0.772549
0.821653 0.808988 0.775265
0.826749 0.809659 0.777035
0.822873 0.807858 0.771115
0.819272 0.805570 0.763638
0.816098 0.802640 0.753933
0.813657 0.798764 0.741207
0.812406 0.793668 0.724300
0.812924 0.786862 0.701442
0.815885 0.777676 0.669795
0.822141 0.765316 0.624994
0.835569 0.753109 0.569635
0.850614 0.745785 0.541558
0.865721 0.746853 0.553246
0.878904 0.748196 0.566888
0.889952 0.749996 0.583032
0.898039 0.752834 0.604700
0.904173 0.756100 0.626123
0.787533 0.804196 0.766537
0.788144 0.804318 0.766812
0.788968 0.804440 0.767147
0.790158 0.804562 0.767605
0.791897 0.804654 0.768185
0.794339 0.804807 0.769009
0.797177 0.805081 0.770016
0.799313 0.805661 0.770626
0.801877 0.806363 0.771450
0.804868 0.807156 0.772427
0.808164 0.808011 0.773526
0.811734 0.808927 0.774716
0.815793 0.809812 0.776211
0.821073 0.810575 0.778317
0.826261 0.811337 0.780392
0.831327 0.812070 0.782437
0.836240 0.812833 0.784482
0.837644 0.812772 0.783932
0.834470 0.811368 0.779294
0.831296 0.809628 0.773251
0.828397 0.807370 0.765408
0.826108 0.804410 0.755123
0.824735 0.800504 0.741329
0.824918 0.795163 0.722591
0.827298 0.787900 0.696803
0.832822 0.778042 0.660426
0.844724 0.768002 0.613581
0.858946 0.760952 0.582879
0.871794 0.762264 0.596246
0.882719 0.763790 0.611322
0.891478 0.765652 0.627802
0.897520 0.768307 0.648157
0.806027 0.808865 0.776211
0.806394 0.808896 0.776333
0.806943 0.808957 0.776547
0.807797 0.809018 0.776852
0.809110 0.809079 0.777310
0.810910 0.809201 0.777890
0.813291 0.809354 0.778714
0.815030 0.809720 0.779232
0.816953 0.810208 0.779812
0.819272 0.810758 0.780545
0.821775 0.811368 0.781369
0.824582 0.812009 0.782284
0.827451 0.812741 0.783291
0.831266 0.813321 0.784726
0.835325 0.813870 0.786282
0.839231 0.814420 0.787808
0.843046 0.814969 0.789334
0.846769 0.815549 0.790829
0.845853 0.815061 0.789059
0.843320 0.813993 0.785397
0.840696 0.812650 0.780636
0.838163 0.810910 0.774380
0.835996 0.808652 0.766018
0.834562 0.805600 0.754665
0.834440 0.801480 0.739162
0.836393 0.795804 0.717952
0.841154 0.788052 0.688197
0.851499 0.779843 0.649348
0.864805 0.773373 0.618402
0.875761 0.774746 0.632593
0.884672 0.776364 0.648127
0.891447 0.778317 0.664851
0.820706 0.812222 0.783474
0.820920 0.812253 0.783566
0.821378 0.812284 0.783719
0.822110 0.812345 0.783993
0.823239 0.812436 0.784390
0.824857 0.812528 0.784970
0.827115 0.812741 0.785794
0.829129 0.813077 0.786496
0.831083 0.813504 0.787167
0.833280 0.814023 0.787961
0.835721 0.814511 0.788815
0.838132 0.815091 0.789700
0.840604 0.815640 0.790555
0.843168 0.816129 0.791531
0.846189 0.816587 0.792691
0.849027 0.816953 0.793759
0.851743 0.817380 0.794797
0.854368 0.817777 0.795834
0.856626 0.818143 0.796689
0.854948 0.817502 0.794736
0.853086 0.816770 0.792203
0.851102 0.815824 0.788876
0.849058 0.814633 0.784390
0.847166 0.813077 0.778347
0.845762 0.810971 0.770047
0.845365 0.808133 0.758572
0.846647 0.804288 0.742733
0.850614 0.798947 0.720394
0.859220 0.793179 0.691676
0.871061 0.788174 0.665064
0.879301 0.789303 0.678950
0.885527 0.790616 0.693385
0.836332 0.815518 0.790860
0.836454 0.815488 0.790890
0.836667 0.815518 0.790951
0.837095 0.815518 0.791073
0.837797 0.815579 0.791318
0.838804 0.815610 0.791653
0.840146 0.815702 0.792111
0.841550 0.815854 0.792569
0.842649 0.816098 0.792905
0.843900 0.816373 0.793301
0.845335 0.816709 0.793790
0.846891 0.817014 0.794247
0.848508 0.817411 0.794797
