20 Preset/Art Style/【3】LUT video cho PR-AE-FCPX/Portra 160 Alt 3.cube
# Created by Adobe Lightroom plugin Export LUT (1.24.0)
# www.johnrellis.com/lightroom/exportlut.htm
# Preset: Portra 160 Alt 3
# Color profile: E:\lut插件\exportlut.1.24\exportlut.lrplugin\color profiles\Rec709gamma2.4.icc
LUT_3D_SIZE 5
DOMAIN_MIN 0.000000 0.000000 0.000000
DOMAIN_MAX 0.903226 0.903226 0.903226
0.160067 0.111727 0.030549
0.197971 0.112551 0.028412
0.467720 0.034607 0.000000
0.791531 0.000000 0.000000
0.942809 0.201205 0.000000
0.178866 0.174716 0.039918
0.229007 0.173617 0.021485
0.506249 0.191836 0.000000
0.803555 0.215610 0.000000
0.939025 0.304021 0.000000
0.314733 0.568597 0.280186
0.402930 0.580407 0.286839
0.588037 0.546258 0.187716
0.796506 0.530510 0.198245
0.904784 0.527153 0.267308
0.635889 0.739437 0.611872
0.653407 0.741817 0.617548
0.703273 0.745083 0.622522
0.758480 0.719112 0.535729
0.844022 0.702571 0.547906
0.768093 0.805478 0.737362
0.772305 0.806455 0.738857
0.786191 0.808377 0.741573
0.804349 0.807095 0.735531
0.829648 0.796536 0.706996
0.166201 0.122164 0.084718
0.191684 0.120455 0.090517
0.475593 0.000000 0.098695
0.787015 0.000000 0.078431
0.930968 0.227329 0.103090
0.182315 0.181704 0.128084
0.242527 0.191043 0.144656
0.511406 0.199680 0.137789
0.793027 0.231724 0.117983
0.925383 0.320256 0.154116
0.291875 0.540276 0.329992
0.390936 0.555871 0.354223
0.571954 0.535729 0.289006
0.781033 0.534020 0.307347
0.893156 0.541619 0.351720
0.635554 0.734249 0.622248
0.653162 0.737209 0.628351
0.707454 0.744808 0.642237
0.754482 0.718898 0.565118
0.838529 0.706630 0.575799
0.767361 0.804410 0.739193
0.771511 0.805386 0.740597
0.788754 0.809598 0.746975
0.806821 0.808804 0.742184
0.830625 0.798306 0.714412
0.134646 0.200839 0.314977
0.176211 0.184848 0.330541
0.410071 0.205600 0.362127
0.729213 0.270237 0.450935
0.906493 0.319371 0.401221
0.171878 0.293309 0.368811
0.241489 0.290990 0.386358
0.455116 0.296269 0.410407
0.742519 0.350439 0.466285
0.892058 0.421790 0.440864
0.250217 0.525628 0.483558
0.338354 0.531304 0.493111
0.559564 0.551354 0.529107
0.745327 0.569451 0.531640
0.857328 0.588067 0.537316
0.599908 0.715328 0.631006
0.618952 0.717037 0.636530
0.694606 0.730098 0.667323
0.744869 0.719631 0.638605
0.824674 0.718532 0.645960
0.753597 0.798642 0.738033
0.762264 0.799832 0.742702
0.783108 0.805386 0.751553
0.808896 0.810483 0.757015
0.828183 0.798032 0.727657
0.103182 0.387396 0.593561
0.194278 0.379156 0.599695
0.424353 0.388251 0.617212
0.657893 0.440162 0.628840
0.787015 0.582391 0.664607
0.249943 0.459236 0.607355
0.292149 0.450904 0.611658
0.453895 0.444343 0.626001
0.663539 0.488930 0.635279
0.787320 0.599390 0.668025
0.355352 0.580774 0.626551
0.402319 0.583032 0.628901
0.558434 0.599664 0.648951
0.687739 0.616175 0.660395
0.797757 0.651484 0.681575
0.561151 0.706142 0.676814
0.578637 0.705959 0.677852
0.642878 0.708186 0.684993
0.730220 0.716060 0.700099
0.813870 0.721584 0.700374
0.724392 0.785824 0.736324
0.730343 0.787137 0.738399
0.754757 0.793606 0.747890
0.802853 0.807340 0.770535
0.826627 0.800137 0.752743
0.502953 0.612085 0.729702
0.515587 0.609888 0.730434
0.564813 0.603662 0.734157
0.677882 0.631006 0.736568
0.768612 0.650904 0.737697
0.530755 0.631891 0.729183
0.541741 0.629969 0.730007
0.583795 0.623255 0.733730
0.682918 0.643366 0.736965
0.769558 0.661311 0.738582
0.561517 0.672602 0.729580
0.581506 0.674800 0.730526
0.636316 0.678584 0.735103
0.699763 0.681544 0.740658
0.775937 0.696376 0.744625
0.623804 0.730129 0.740627
0.630213 0.729427 0.740505
0.658320 0.727504 0.740963
0.727169 0.732815 0.749996
0.792020 0.743984 0.759701
0.707332 0.788754 0.766354
0.711330 0.788754 0.766690
0.729183 0.789517 0.768948
0.763516 0.791470 0.773800
0.819425 0.798978 0.786130
