20 Preset/Art Style/【3】LUT video cho PR-AE-FCPX/Portra 160 _.cube
# Created by Adobe Lightroom plugin Export LUT (1.24.0)
# www.johnrellis.com/lightroom/exportlut.htm
# Preset: Portra 160 +
# Color profile: E:\lut插件\exportlut.1.24\exportlut.lrplugin\color profiles\Rec709gamma2.4.icc
LUT_3D_SIZE 5
DOMAIN_MIN 0.000000 0.000000 0.000000
DOMAIN_MAX 0.903226 0.903226 0.903226
0.026215 0.098085 0.038178
0.144381 0.101167 0.043793
0.526238 0.000000 0.003571
0.947845 0.000000 0.000000
1.000000 0.000000 0.000000
0.000000 0.201083 0.096407
0.194339 0.207218 0.040284
0.584894 0.162692 0.000000
0.958404 0.008881 0.000000
1.000000 0.262333 0.000000
0.166812 0.680781 0.420783
0.334905 0.681025 0.402319
0.696315 0.694148 0.275669
0.966766 0.612696 0.000000
1.000000 0.586603 0.000000
0.705837 0.888212 0.786282
0.729549 0.888945 0.788876
0.803494 0.891936 0.795621
0.899779 0.885649 0.698817
1.000000 0.847318 0.557519
0.888548 0.959869 0.927733
0.894224 0.960235 0.929198
0.904112 0.959777 0.926940
0.933959 0.963531 0.933196
0.964324 0.962219 0.902342
0.063600 0.108400 0.111818
0.150759 0.107424 0.110079
0.528710 0.000000 0.135348
0.934264 0.000000 0.114687
1.000000 0.000000 0.024720
0.066224 0.199222 0.169619
0.212070 0.209842 0.176486
0.586206 0.182712 0.164889
0.948943 0.141756 0.124575
1.000000 0.288518 0.086854
0.218204 0.650935 0.470283
0.370855 0.656977 0.470344
0.670100 0.666163 0.378119
0.945830 0.602350 0.224277
1.000000 0.602258 0.246952
0.705135 0.884001 0.795712
0.732570 0.884733 0.800656
0.804227 0.888762 0.807889
0.895262 0.883330 0.730220
1.000000 0.848783 0.611109
0.886961 0.959197 0.928557
0.892485 0.959472 0.929839
0.908751 0.961608 0.932494
0.936431 0.964721 0.937652
0.965332 0.963653 0.910063
0.000000 0.130556 0.409308
0.223545 0.123720 0.429816
0.572808 0.000000 0.430121
0.933074 0.000000 0.448005
1.000000 0.467170 0.560266
0.000000 0.240116 0.478187
0.257847 0.244419 0.491279
0.618585 0.228885 0.489296
0.927367 0.343236 0.508019
1.000000 0.544335 0.593896
0.216037 0.617029 0.618677
0.366430 0.623743 0.622400
0.659358 0.650874 0.639612
0.897856 0.667201 0.642695
1.000000 0.690059 0.640986
0.698207 0.870634 0.828153
0.718654 0.869627 0.827481
0.799313 0.874235 0.837400
0.884184 0.877379 0.810880
0.991882 0.852537 0.745205
0.875181 0.955840 0.930175
0.882078 0.956390 0.931670
0.906126 0.958618 0.937163
0.934569 0.962890 0.942229
0.963561 0.962127 0.920989
0.155032 0.202426 0.763821
0.334112 0.207950 0.774258
0.673487 0.259068 0.806790
0.930144 0.244938 0.776486
1.000000 0.478676 0.731960
0.235080 0.320073 0.777462
0.371374 0.331853 0.785122
0.679896 0.398627 0.812894
0.918944 0.404913 0.786648
1.000000 0.556909 0.751492
0.235874 0.579278 0.777066
0.380682 0.594812 0.786984
0.671443 0.653864 0.822293
0.879820 0.689235 0.823606
0.987060 0.747311 0.822782
0.640864 0.843107 0.863371
0.665522 0.843168 0.863127
0.753964 0.847776 0.866361
0.865873 0.860197 0.875242
0.963714 0.867460 0.877165
0.862699 0.951324 0.941894
0.868132 0.951781 0.942260
0.890227 0.954467 0.944488
0.930053 0.959716 0.950866
0.963012 0.961669 0.941466
0.549401 0.454780 0.944213
0.599329 0.467445 0.944701
0.757504 0.527428 0.947143
0.923461 0.640803 0.950011
1.000000 0.603326 0.928191
0.560449 0.520897 0.940887
0.607691 0.532586 0.941527
0.756924 0.583612 0.944121
0.915679 0.681575 0.947601
1.000000 0.649226 0.928069
0.568627 0.672724 0.932311
0.604761 0.675471 0.933471
0.747646 0.712520 0.936858
0.895232 0.778927 0.943114
0.988495 0.769955 0.931731
0.609796 0.823941 0.929473
0.622980 0.821378 0.928557
0.679591 0.810788 0.925444
0.866178 0.853971 0.941161
0.962524 0.877623 0.944366
0.831174 0.941039 0.957061
0.836393 0.941161 0.957061
0.859342 0.942504 0.957794
0.899809 0.945434 0.959136
0.956725 0.953918 0.963806
