20 Preset/Art Style/【3】LUT video cho PR-AE-FCPX/Portra 800 Alt.cube
# Created by Adobe Lightroom plugin Export LUT (1.24.0)
# www.johnrellis.com/lightroom/exportlut.htm
# Preset: Portra 800 Alt
# Color profile: E:\lut插件\exportlut.1.24\exportlut.lrplugin\color profiles\Rec709gamma2.4.icc
LUT_3D_SIZE 8
DOMAIN_MIN 0.000000 0.000000 0.000000
DOMAIN_MAX 0.903226 0.903226 0.903226
0.000000 0.134768 0.153170
0.000000 0.138155 0.154665
0.093294 0.149050 0.158694
0.267796 0.158938 0.162448
0.512963 0.136446 0.162692
0.790097 0.000000 0.156619
0.969177 0.000000 0.153170
1.000000 0.178378 0.160830
0.000000 0.153384 0.160494
0.000000 0.155856 0.160464
0.053346 0.163333 0.161196
0.246098 0.173739 0.164309
0.481239 0.165164 0.164889
0.758236 0.039399 0.158053
0.946777 0.032105 0.151583
1.000000 0.198947 0.155642
0.000000 0.203555 0.179507
0.000000 0.202579 0.181796
0.000000 0.210239 0.179019
0.253330 0.223789 0.174228
0.481392 0.232883 0.169772
0.776608 0.239078 0.152529
0.954131 0.275975 0.141451
1.000000 0.329442 0.151583
0.000000 0.294408 0.202365
0.000000 0.291875 0.203952
0.000000 0.289769 0.208713
0.263645 0.330022 0.194614
0.536645 0.401190 0.153079
0.790066 0.410864 0.119356
0.934813 0.433356 0.109163
1.000000 0.459327 0.135775
0.000000 0.499855 0.199039
0.000000 0.497292 0.201724
0.000000 0.493111 0.212650
0.189364 0.513115 0.206851
0.456214 0.550225 0.158083
0.732784 0.585565 0.000000
0.886992 0.578637 0.000000
0.994659 0.573083 0.116365
0.000000 0.685267 0.229007
0.000000 0.690913 0.238346
0.000000 0.687282 0.253178
0.150271 0.680598 0.282444
0.435065 0.690364 0.256962
0.662928 0.701503 0.211673
0.855467 0.723079 0.143923
0.962554 0.714199 0.209110
0.000000 0.795743 0.379919
0.127077 0.795956 0.385229
0.282109 0.792081 0.395178
0.428168 0.785824 0.417975
0.546105 0.780728 0.431525
0.660426 0.788815 0.408515
0.784939 0.798581 0.379309
0.922545 0.821561 0.341619
0.553124 0.883787 0.565698
0.559350 0.883330 0.567254
0.585931 0.882231 0.575708
0.632746 0.881010 0.593683
0.669612 0.867918 0.594812
0.726925 0.874968 0.601038
0.794430 0.887419 0.592523
0.874754 0.897734 0.572808
0.000000 0.138949 0.172854
0.000000 0.141054 0.174075
0.077028 0.145388 0.172641
0.244968 0.158602 0.183749
0.480934 0.135927 0.185733
0.755276 0.000000 0.181765
0.941070 0.000000 0.178256
1.000000 0.130556 0.181735
0.000000 0.157168 0.176242
0.000000 0.158694 0.177615
0.030091 0.165835 0.180911
0.241337 0.173281 0.184634
0.472541 0.160311 0.185946
0.746609 0.000000 0.180972
0.929198 0.000000 0.175814
1.000000 0.166690 0.177340
0.000000 0.205722 0.194156
0.000000 0.205325 0.193698
0.000000 0.210544 0.192996
0.248905 0.220157 0.189975
0.467964 0.226993 0.187320
0.748714 0.224033 0.176272
0.925109 0.243931 0.167697
1.000000 0.301701 0.172244
0.000000 0.288670 0.209964
0.000000 0.287205 0.211521
0.000000 0.285161 0.217990
0.244816 0.311650 0.206210
0.484627 0.361608 0.180240
0.738247 0.373358 0.156954
0.903899 0.399817 0.143282
1.000000 0.433417 0.154879
0.000000 0.492714 0.210513
0.000000 0.488533 0.213016
0.000000 0.480507 0.222873
0.191714 0.489723 0.221347
0.431769 0.522026 0.181491
0.707637 0.562768 0.094392
0.872343 0.560693 0.091249
0.983490 0.560113 0.139284
0.000000 0.674434 0.235904
0.000000 0.674006 0.239536
0.000000 0.671229 0.253758
0.116670 0.666773 0.282383
0.420356 0.678553 0.263645
0.654322 0.693538 0.225010
0.848386 0.715053 0.166110
0.955962 0.705806 0.217716
0.000000 0.787594 0.372503
0.000000 0.785672 0.372290
0.217838 0.781613 0.381476
0.397559 0.776364 0.405921
0.533593 0.773007 0.427466
0.651148 0.781247 0.404639
0.776242 0.789364 0.371130
0.915465 0.811734 0.328435
0.537346 0.877409 0.555444
0.547448 0.878050 0.559777
0.574670 0.876707 0.567651
0.623621 0.875517 0.585962
0.680568 0.872923 0.609766
0.731075 0.876310 0.610254
0.794064 0.885954 0.595758
0.873899 0.896086 0.575616
0.000000 0.148898 0.223148
0.000000 0.150576 0.224216
0.093080 0.155489 0.227390
0.251011 0.148074 0.224643
0.498238 0.000000 0.229068
0.792477 0.000000 0.233402
0.961028 0.000000 0.260929
1.000000 0.189425 0.277928
0.000000 0.166354 0.225589
0.000000 0.167910 0.226139
0.083467 0.171420 0.228519
0.253330 0.162631 0.226017
0.496254 0.054200 0.226078
0.786770 0.000000 0.241062
0.949767 0.000000 0.255497
1.000000 0.208499 0.270909
0.000000 0.216800 0.231632
0.000000 0.217411 0.232364
0.050629 0.218021 0.234623
0.285496 0.221103 0.238743
0.519890 0.215824 0.242710
0.790768 0.196170 0.244968
0.940826 0.240940 0.251560
1.000000 0.323461 0.269657
0.000000 0.310918 0.252201
0.000000 0.312718 0.253758
0.077485 0.313573 0.253208
0.287266 0.331029 0.250309
0.532433 0.368231 0.236057
0.774533 0.381689 0.231540
0.920409 0.413031 0.241459
1.000000 0.456001 0.267277
0.000000 0.514977 0.274052
0.000000 0.513848 0.269932
0.000000 0.509911 0.268437
0.245609 0.510307 0.283574
0.470863 0.543114 0.250431
0.731624 0.568963 0.211734
0.881987 0.559686 0.224918
0.985718 0.573083 0.263828
0.000000 0.681514 0.303532
0.000000 0.681941 0.302464
0.000000 0.678370 0.314214
0.246189 0.671687 0.337896
0.457923 0.676997 0.334997
0.666896 0.692348 0.307530
0.849882 0.713069 0.279362
0.956359 0.707912 0.320104
0.239689 0.791012 0.428779
0.259953 0.789364 0.428809
0.340948 0.784512 0.434272
0.458503 0.778134 0.452308
0.571923 0.771664 0.478523
0.671351 0.781643 0.461006
0.786923 0.793088 0.438575
0.919432 0.816556 0.410529
0.557794 0.878599 0.579706
0.562280 0.877653 0.579858
0.587213 0.876188 0.586664
0.636439 0.876524 0.606470
0.689967 0.873930 0.627924
0.741390 0.877348 0.636683
0.801083 0.887999 0.624628
0.877989 0.898436 0.606165
0.000000 0.160098 0.307042
0.000000 0.161013 0.310552
0.187259 0.162631 0.315343
0.329625 0.149599 0.323064
0.485451 0.045960 0.318456
0.762112 0.000000 0.323491
0.948455 0.000000 0.317082
1.000000 0.000000 0.339605
0.000000 0.178988 0.313939
0.000000 0.179599 0.315435
0.188205 0.179385 0.319585
0.336522 0.165530 0.327459
0.493050 0.096040 0.319677
0.770199 0.000000 0.324529
0.948455 0.000000 0.318822
1.000000 0.000000 0.352697
0.000000 0.239048 0.316808
0.000000 0.236698 0.318395
0.154574 0.228367 0.323644
0.337285 0.220798 0.330480
0.526909 0.176730 0.323491
0.807462 0.000000 0.337163
0.956146 0.199832 0.365545
1.000000 0.409308 0.429114
0.000000 0.345495 0.338994
0.000000 0.345281 0.339178
0.127779 0.346807 0.342260
0.348363 0.349004 0.349096
0.580529 0.371862 0.361791
0.792935 0.401953 0.377661
0.918059 0.455177 0.402014
1.000000 0.514885 0.434821
0.000000 0.555718 0.373724
0.000000 0.553704 0.373571
0.006531 0.551690 0.379614
0.346624 0.551415 0.388434
0.540673 0.566155 0.383062
0.761013 0.575860 0.374060
0.889952 0.580652 0.396246
0.980255 0.610529 0.435981
0.080049 0.699153 0.439918
0.213291 0.702510 0.449104
0.319493 0.698329 0.449775
0.422766 0.693477 0.448920
0.561852 0.687678 0.466438
0.702998 0.699947 0.442481
0.855100 0.715908 0.431647
0.954986 0.714717 0.460700
0.456489 0.792142 0.528557
0.463355 0.792264 0.528344
0.485389 0.791379 0.524773
0.551476 0.787686 0.534325
0.634272 0.780972 0.556146
0.707362 0.786343 0.551598
0.801266 0.797147 0.531334
0.921111 0.819150 0.514824
0.605310 0.884764 0.634180
0.607599 0.884489 0.633509
0.620050 0.883665 0.633173
0.658747 0.881743 0.645167
0.707088 0.878752 0.662287
0.757107 0.878569 0.678370
0.810971 0.890227 0.668391
0.885069 0.902556 0.654597
0.055818 0.166171 0.478828
0.153353 0.164248 0.483162
0.294530 0.153841 0.488991
0.454200 0.122896 0.502159
0.630365 0.000000 0.516258
0.772885 0.000000 0.479347
0.915892 0.000000 0.437537
1.000000 0.000000 0.444007
0.000000 0.186282 0.485084
0.138247 0.184634 0.489479
0.291997 0.175021 0.495064
0.453651 0.150973 0.504326
0.635248 0.000000 0.519615
0.775937 0.000000 0.480323
0.917601 0.000000 0.440162
1.000000 0.000000 0.448219
0.000000 0.245243 0.490394
0.000000 0.244572 0.491951
0.254246 0.241337 0.499062
0.447852 0.237034 0.512200
0.632197 0.199069 0.519158
0.769131 0.080659 0.473976
0.916411 0.000000 0.449805
1.000000 0.230869 0.463905
0.000000 0.393133 0.496681
0.000000 0.392096 0.497017
0.165042 0.388769 0.501823
0.411444 0.383001 0.516014
0.628992 0.387915 0.524620
0.774105 0.352697 0.481025
0.910246 0.407752 0.494087
0.999084 0.486641 0.520806
0.000000 0.567559 0.508110
0.000000 0.568353 0.509087
0.000000 0.568902 0.510887
0.377783 0.568322 0.514427
0.592645 0.562493 0.517784
0.761257 0.584985 0.534966
0.875669 0.614954 0.558801
0.963012 0.646113 0.585382
0.000000 0.699245 0.513603
0.000000 0.698726 0.515007
0.266209 0.693721 0.518517
0.475502 0.687465 0.532982
0.606226 0.679835 0.545068
0.721767 0.693629 0.552911
0.852720 0.708919 0.558465
0.948089 0.716762 0.581109
0.478401 0.794247 0.592370
0.488472 0.792813 0.592248
0.534264 0.789029 0.596185
0.615900 0.786069 0.612757
0.663264 0.783658 0.612787
0.729671 0.781613 0.625910
0.808621 0.793362 0.609003
0.917632 0.811124 0.598413
0.628534 0.880278 0.680568
0.635309 0.879667 0.682216
0.651057 0.878416 0.683040
0.673793 0.881193 0.684352
0.712825 0.879698 0.691737
0.766293 0.877012 0.712245
0.816129 0.886198 0.709285
0.886717 0.898466 0.695338
0.220066 0.173404 0.665522
0.257420 0.171267 0.667414
0.368444 0.160403 0.668940
0.537804 0.130861 0.682185
0.727291 0.097261 0.692287
0.856718 0.000000 0.691249
0.925078 0.000000 0.630701
1.000000 0.000000 0.587335
0.204166 0.194675 0.657404
0.242863 0.192721 0.658045
0.359686 0.184970 0.663172
0.523857 0.165621 0.671931
0.713954 0.150240 0.682185
0.847196 0.000000 0.682979
0.918029 0.000000 0.624598
1.000000 0.000000 0.582605
0.158907 0.277195 0.671443
0.213596 0.277043 0.671656
0.351049 0.278996 0.674311
0.520958 0.279301 0.674647
0.709102 0.300450 0.681819
0.839017 0.285832 0.682765
0.911620 0.265568 0.628412
1.000000 0.272679 0.587762
0.100526 0.444526 0.667811
0.180026 0.443061 0.667414
0.314519 0.432197 0.671321
0.521874 0.453895 0.680293
0.705409 0.489906 0.687770
0.821408 0.493751 0.688502
0.895781 0.473121 0.643061
0.984344 0.476753 0.613855
0.000000 0.590753 0.651850
0.000000 0.590784 0.651759
0.280430 0.591699 0.652125
0.474678 0.595697 0.654200
0.657649 0.599695 0.665522
0.782223 0.609430 0.672084
0.867521 0.588647 0.637049
0.962829 0.618524 0.651057
0.196567 0.711360 0.653315
0.256565 0.712612 0.655695
0.374426 0.710109 0.655909
0.512657 0.706020 0.657038
0.639612 0.701045 0.658747
0.754086 0.701381 0.667079
0.858671 0.724605 0.691463
0.945251 0.747402 0.713710
0.467231 0.807431 0.675257
0.483803 0.807797 0.677272
0.532006 0.805661 0.679683
0.607477 0.801999 0.684932
0.693507 0.797452 0.694911
0.762570 0.792966 0.704341
0.826261 0.799802 0.702296
0.925078 0.814237 0.702937
0.603143 0.888975 0.725765
0.607538 0.888029 0.725307
0.630152 0.886442 0.727047
0.674372 0.885618 0.734401
0.736202 0.883452 0.748745
0.774411 0.882597 0.749996
0.827604 0.884977 0.763638
0.893523 0.898436 0.751369
0.340795 0.218387 0.790341
0.365026 0.218509 0.790524
0.454658 0.219059 0.791806
0.594598 0.225772 0.794339
0.742123 0.262211 0.796872
0.859770 0.355413 0.799771
0.942290 0.344976 0.797757
0.988067 0.338994 0.745083
0.344274 0.245396 0.790707
0.368566 0.245762 0.790799
0.457862 0.248051 0.791989
0.596124 0.257877 0.794064
0.742214 0.296635 0.796780
0.857725 0.385168 0.799771
0.939452 0.376257 0.797940
0.985779 0.368292 0.746548
0.347356 0.336919 0.788449
0.372381 0.338445 0.788693
0.463355 0.345800 0.789761
0.600031 0.363409 0.791501
0.738460 0.404822 0.793942
0.847074 0.475776 0.796902
0.926177 0.467231 0.795438
0.974609 0.452644 0.748196
0.352941 0.478096 0.782681
0.377539 0.478889 0.782345
0.470283 0.487922 0.783291
0.601526 0.506096 0.784970
0.727932 0.537560 0.787961
0.829923 0.579828 0.792569
0.905669 0.573877 0.792386
0.958404 0.556268 0.752956
0.384222 0.627008 0.769955
0.409216 0.627497 0.770443
0.493996 0.629328 0.772305
0.602228 0.630793 0.776425
0.709621 0.638361 0.782467
0.811551 0.662623 0.789914
0.886931 0.662593 0.792294
0.945861 0.644129 0.760433
0.454108 0.723995 0.770687
0.467903 0.723842 0.770748
0.517998 0.723384 0.771023
0.594324 0.722530 0.771664
0.680812 0.722316 0.772854
0.783352 0.727230 0.784451
0.868101 0.737087 0.792294
0.937316 0.720089 0.766659
0.517205 0.810300 0.777340
0.525841 0.810056 0.777371
0.560510 0.809201 0.777951
0.618402 0.807767 0.779049
0.689662 0.806271 0.781064
0.765988 0.805203 0.784085
0.844205 0.805020 0.788479
0.934356 0.827481 0.809689
0.579797 0.900298 0.794766
0.585962 0.900114 0.795102
0.610468 0.899321 0.796201
0.654719 0.898344 0.799100
0.713863 0.897215 0.804013
0.782101 0.895750 0.811978
0.844846 0.894041 0.821012
0.907103 0.903410 0.820829
0.553124 0.380438 0.897765
0.567041 0.383642 0.897642
0.620630 0.398199 0.897520
0.702113 0.429297 0.896941
0.789120 0.479744 0.896208
0.868589 0.540459 0.895811
0.938781 0.597742 0.896666
1.000000 0.580102 0.896574
0.560204 0.406439 0.897185
0.573602 0.409369 0.897093
0.625147 0.423041 0.896880
0.703914 0.452491 0.896361
0.788785 0.498787 0.895750
0.867460 0.554101 0.895628
0.937652 0.607996 0.896818
0.999878 0.590204 0.896849
0.579309 0.490333 0.894041
0.591180 0.492836 0.894011
0.636652 0.503868 0.893919
0.707149 0.525719 0.893523
0.786496 0.558923 0.893614
0.862852 0.598718 0.894499
0.932464 0.640772 0.896574
0.993744 0.623743 0.896757
0.595392 0.591760 0.889494
0.605493 0.593194 0.889494
0.644678 0.599573 0.889708
0.707759 0.612116 0.890166
0.781369 0.631556 0.891234
0.855161 0.657008 0.893309
0.924163 0.686854 0.896696
0.984466 0.672663 0.897215
0.623102 0.690791 0.883726
0.630915 0.691066 0.883940
0.648371 0.685023 0.885740
0.695216 0.683497 0.887938
0.768429 0.695796 0.890166
0.843137 0.713283 0.893553
0.913909 0.735866 0.898375
0.974731 0.726833 0.899504
0.600214 0.763455 0.880552
0.606256 0.763516 0.880644
0.630274 0.763546 0.880980
0.682582 0.762722 0.883482
0.749783 0.762997 0.887846
0.820706 0.766598 0.893736
0.899046 0.786191 0.900267
0.963928 0.785122 0.903136
0.617792 0.836728 0.886046
0.622614 0.836667 0.886168
0.642481 0.836423 0.886564
0.678553 0.835752 0.887236
0.728267 0.834775 0.888365
0.787900 0.833524 0.889982
0.872801 0.838315 0.901122
0.952605 0.849393 0.909483
0.628992 0.916258 0.895811
0.633021 0.916289 0.895964
0.649805 0.916075 0.896422
0.680995 0.915648 0.897154
0.725826 0.915251 0.898589
0.782437 0.915129 0.900908
0.850401 0.915496 0.904417
0.932036 0.916808 0.909972
