20 Preset/Art Style/【3】LUT video cho PR-AE-FCPX/Portra 160 Alt 2.cube
# Created by Adobe Lightroom plugin Export LUT (1.24.0)
# www.johnrellis.com/lightroom/exportlut.htm
# Preset: Portra 160 Alt 2
# Color profile: E:\lut插件\exportlut.1.24\exportlut.lrplugin\color profiles\Rec709gamma2.4.icc
LUT_3D_SIZE 8
DOMAIN_MIN 0.000000 0.000000 0.000000
DOMAIN_MAX 0.903226 0.903226 0.903226
0.166506 0.108339 0.110109
0.193301 0.110262 0.111055
0.269627 0.114107 0.113344
0.416114 0.113191 0.108827
0.629755 0.137331 0.066224
0.823056 0.226261 0.000000
0.952056 0.317357 0.000000
1.000000 0.398138 0.000000
0.173007 0.131258 0.117311
0.192386 0.132296 0.116426
0.265568 0.134707 0.116518
0.405280 0.141695 0.110842
0.614313 0.173404 0.071717
0.809079 0.249699 0.000000
0.938140 0.328618 0.000000
1.000000 0.404913 0.000000
0.178439 0.198184 0.134005
0.194003 0.200076 0.134310
0.260288 0.205783 0.128847
0.407446 0.233249 0.114076
0.607721 0.280339 0.048554
0.804532 0.349462 0.000000
0.936858 0.408301 0.000000
1.000000 0.465003 0.000000
0.000000 0.356786 0.147799
0.103334 0.359258 0.147036
0.237430 0.372808 0.143801
0.402625 0.393744 0.109010
0.618341 0.453223 0.000000
0.793759 0.483864 0.000000
0.919402 0.512566 0.000000
1.000000 0.547814 0.000000
0.000000 0.582910 0.184543
0.000000 0.584619 0.185397
0.000000 0.594629 0.190494
0.368322 0.606867 0.180972
0.571771 0.603388 0.106752
0.757595 0.617670 0.000000
0.887175 0.621637 0.111574
0.990204 0.639063 0.198795
0.000000 0.735042 0.347234
0.000000 0.738582 0.354589
0.000000 0.741115 0.363775
0.379370 0.746090 0.382574
0.554040 0.742611 0.357183
0.713313 0.733913 0.301061
0.862974 0.737484 0.281895
0.965454 0.744106 0.347112
0.265080 0.832547 0.555169
0.293065 0.833188 0.558251
0.373144 0.833738 0.563500
0.486366 0.835447 0.575982
0.605158 0.836973 0.589166
0.709651 0.831632 0.555657
0.823819 0.824704 0.508995
0.939086 0.830869 0.485298
0.531304 0.914000 0.702876
0.539178 0.914092 0.703456
0.571984 0.914733 0.706600
0.630823 0.916320 0.713466
0.695064 0.914153 0.714839
0.771878 0.915435 0.716518
0.844724 0.913603 0.699611
0.920226 0.910765 0.674006
0.174105 0.114168 0.131746
0.192935 0.114565 0.132113
0.265446 0.117037 0.133242
0.398810 0.123781 0.136110
0.609400 0.139101 0.121126
0.804837 0.218387 0.052308
0.933715 0.306889 0.000000
1.000000 0.390143 0.000000
0.180056 0.132509 0.135470
0.198154 0.134249 0.136812
0.263737 0.140169 0.139040
0.397925 0.147707 0.137453
0.605005 0.173953 0.120516
0.799100 0.245457 0.045686
0.926421 0.323095 0.000000
1.000000 0.399359 0.000000
0.194980 0.197116 0.156863
0.204288 0.200046 0.153658
0.263645 0.206058 0.149691
0.402808 0.230289 0.140841
0.599695 0.275700 0.115572
0.789914 0.339361 0.010620
0.919646 0.396674 0.000000
1.000000 0.456336 0.000000
0.125490 0.346746 0.182284
0.130800 0.350927 0.170596
0.243809 0.365820 0.170016
0.394690 0.379461 0.144991
0.595453 0.430121 0.090333
0.771603 0.465644 0.000000
0.901549 0.498909 0.000000
1.000000 0.537987 0.115541
0.000000 0.575280 0.228519
0.000000 0.576928 0.216739
0.000000 0.585260 0.220493
0.365545 0.595605 0.214817
0.560998 0.590326 0.156100
0.746273 0.607355 0.104891
0.877989 0.614282 0.161257
0.982666 0.633661 0.226749
0.000000 0.727871 0.365667
0.000000 0.729061 0.363622
0.000000 0.732113 0.372717
0.375982 0.738338 0.392432
0.550042 0.736721 0.373236
0.708888 0.729702 0.322515
0.857633 0.733639 0.305119
0.960449 0.740383 0.363500
0.261448 0.827359 0.557336
0.282292 0.826993 0.557275
0.363958 0.827481 0.562493
0.479683 0.829831 0.575830
0.602472 0.833066 0.593927
0.705592 0.827878 0.561151
0.818235 0.820249 0.512810
0.933745 0.825956 0.488045
0.525353 0.910613 0.701991
0.535027 0.911192 0.703517
0.567559 0.911803 0.706477
0.626612 0.913542 0.713375
0.701625 0.915770 0.722621
0.774502 0.916014 0.722499
0.844450 0.912993 0.703761
0.919371 0.910063 0.678370
0.186221 0.127657 0.190646
0.201144 0.127749 0.190921
0.259190 0.127504 0.192294
0.396887 0.109163 0.208438
0.623316 0.033417 0.205295
0.813077 0.216373 0.216129
0.934936 0.328191 0.226627
1.000000 0.419837 0.248692
0.199191 0.150393 0.195773
0.210544 0.148165 0.196292
0.264012 0.147616 0.197299
0.401251 0.134951 0.208957
0.617456 0.155428 0.212467
0.804929 0.247135 0.217899
0.928038 0.342229 0.224521
1.000000 0.427832 0.246891
0.206363 0.206210 0.210727
0.221164 0.207980 0.212131
0.280888 0.215976 0.217807
0.418555 0.235630 0.220890
0.616449 0.279576 0.223453
0.796780 0.346441 0.225193
0.919127 0.412665 0.237613
1.000000 0.478187 0.266453
0.156985 0.352300 0.260868
0.184512 0.356512 0.261906
0.263798 0.374487 0.256077
0.411902 0.391730 0.244999
0.607996 0.435035 0.236149
0.777432 0.475746 0.244022
0.901701 0.514153 0.268223
0.999268 0.557336 0.306981
0.000000 0.571191 0.348913
0.000000 0.573022 0.349187
0.145602 0.583764 0.329503
0.391516 0.600977 0.343297
0.572198 0.596643 0.299229
0.747829 0.610315 0.285954
0.874388 0.619593 0.318425
0.976623 0.645716 0.367010
0.000000 0.720211 0.476753
0.114839 0.721065 0.480140
0.203861 0.726772 0.457099
0.407446 0.732631 0.474067
0.561913 0.734066 0.468544
0.707881 0.727749 0.423438
0.851194 0.733394 0.414832
0.953674 0.744625 0.463386
0.389044 0.822171 0.625147
0.391485 0.822446 0.621454
0.413703 0.824399 0.610864
0.508721 0.826566 0.620417
0.618952 0.830564 0.636011
0.714076 0.827268 0.614557
0.819120 0.821317 0.576654
0.930663 0.829099 0.559899
0.561913 0.907591 0.728023
0.563073 0.907774 0.726101
0.578119 0.909453 0.722469
0.636225 0.912047 0.729702
0.708156 0.914549 0.738155
0.781521 0.916503 0.742214
0.847776 0.913909 0.724971
0.919921 0.911040 0.701289
0.180789 0.146273 0.320012
0.201633 0.146548 0.321691
0.275639 0.145022 0.321080
0.388128 0.136568 0.323247
0.571618 0.100526 0.364782
0.796445 0.039979 0.369482
0.923735 0.334234 0.400275
1.000000 0.469581 0.454627
0.190066 0.170382 0.331731
0.210483 0.170443 0.331792
0.282475 0.167666 0.329961
0.395087 0.160037 0.331395
0.580072 0.142977 0.370397
0.797940 0.152834 0.371252
0.917357 0.377050 0.416876
1.000000 0.480568 0.458381
0.204868 0.252079 0.352575
0.225650 0.252873 0.353399
0.292241 0.245426 0.355413
0.410437 0.243412 0.354253
0.604120 0.263218 0.386633
0.799252 0.340215 0.400732
0.907836 0.462684 0.452003
0.996765 0.530968 0.484138
0.149783 0.376898 0.389776
0.186221 0.378210 0.390051
0.288853 0.387060 0.395026
0.431525 0.407385 0.407904
0.611292 0.446815 0.419776
0.767575 0.495216 0.440223
0.885161 0.542931 0.468788
0.980621 0.591638 0.503380
0.000000 0.571832 0.474281
0.000000 0.572839 0.474922
0.252018 0.579950 0.481300
0.422950 0.597559 0.488838
0.583459 0.603876 0.474556
0.743221 0.617334 0.476875
0.863157 0.637293 0.505333
0.961608 0.669642 0.541650
0.162417 0.719081 0.576013
0.223514 0.721584 0.581048
0.348302 0.722316 0.587396
0.463233 0.728756 0.588861
0.594476 0.736507 0.603265
0.710628 0.729152 0.564477
0.841306 0.736904 0.561608
0.942016 0.753048 0.592767
0.421546 0.818173 0.674586
0.438972 0.818418 0.676692
0.499702 0.818631 0.684199
0.550408 0.823606 0.680110
0.644434 0.828763 0.691585
0.730861 0.828580 0.684474
0.820737 0.822141 0.654597
0.925383 0.831968 0.644160
0.589837 0.905974 0.759945
0.598840 0.905913 0.761013
0.631281 0.906157 0.764584
0.649928 0.910552 0.756283
0.717891 0.913359 0.763485
0.792111 0.917510 0.772946
0.852537 0.915160 0.757137
0.921416 0.912810 0.736080
0.035492 0.179721 0.532769
0.138186 0.180026 0.533623
0.269566 0.178256 0.530419
0.410895 0.169039 0.524620
0.564874 0.161532 0.527977
0.734798 0.199710 0.559045
0.882017 0.308782 0.567437
0.988342 0.449012 0.588678
0.092866 0.207370 0.541192
0.151888 0.207584 0.542382
0.276097 0.205356 0.538872
0.414771 0.197055 0.530480
0.567956 0.194919 0.533135
0.734463 0.234440 0.561883
0.880674 0.335760 0.570947
0.986145 0.466224 0.593500
0.169131 0.314000 0.560327
0.203464 0.312902 0.560601
0.287755 0.297734 0.558007
0.425025 0.294469 0.551385
0.572259 0.297887 0.547295
0.725490 0.337682 0.567773
0.873075 0.423682 0.582391
0.975830 0.526818 0.611353
0.118898 0.444709 0.584375
0.177249 0.446174 0.584405
0.305913 0.454200 0.586481
0.436500 0.451240 0.586297
0.577996 0.451545 0.579767
0.731075 0.487648 0.596826
0.865690 0.549371 0.615015
0.953979 0.634363 0.662257
0.000000 0.579583 0.610193
0.101778 0.580652 0.610864
0.286259 0.583948 0.612085
0.441627 0.590997 0.615351
0.584619 0.601495 0.621332
0.725368 0.626398 0.632837
0.842588 0.656703 0.650629
0.943084 0.690120 0.669245
0.150607 0.703883 0.651362
0.205295 0.704433 0.652247
0.331456 0.705013 0.654322
0.473060 0.708492 0.661555
0.598566 0.718257 0.671382
0.707607 0.723384 0.665705
0.829313 0.736660 0.670283
0.931334 0.758083 0.687343
0.407477 0.811215 0.717067
0.420478 0.810819 0.717067
0.473152 0.810605 0.718990
0.565332 0.812589 0.727108
0.649683 0.818967 0.731624
0.741329 0.826017 0.739681
0.819242 0.818906 0.714900
0.919432 0.829862 0.708736
0.532586 0.901671 0.773739
0.543755 0.901518 0.774624
0.586755 0.901244 0.778378
0.661524 0.903197 0.788235
0.715145 0.908385 0.787533
0.791684 0.913878 0.797360
0.854582 0.914427 0.790768
0.919921 0.911162 0.769833
0.000000 0.246677 0.716732
0.053285 0.247623 0.716793
0.269261 0.249912 0.713619
0.426673 0.254551 0.710903
0.574182 0.254582 0.702449
0.718898 0.281834 0.699733
0.842008 0.365911 0.704097
0.940795 0.481270 0.715877
0.000000 0.273136 0.714504
0.118257 0.273472 0.713771
0.277440 0.275181 0.711482
0.425849 0.277043 0.706905
0.570733 0.276463 0.698878
0.714473 0.301915 0.696834
0.837186 0.380591 0.702113
0.937774 0.490425 0.715023
0.185122 0.383246 0.724269
0.202823 0.375952 0.723934
0.311955 0.376501 0.721370
0.440589 0.373877 0.713863
0.575402 0.372229 0.705531
0.712612 0.392248 0.702449
0.829099 0.454200 0.707210
0.933471 0.542657 0.723323
0.270634 0.523644 0.731441
0.295995 0.523857 0.730465
0.380865 0.527611 0.728847
0.472724 0.519615 0.727840
0.589197 0.515404 0.720912
0.711604 0.522148 0.715969
0.818814 0.560143 0.721157
0.932250 0.620874 0.739956
0.292699 0.621820 0.733608
0.317052 0.622675 0.733516
0.398230 0.626795 0.733089
0.508476 0.635706 0.733120
0.604334 0.633204 0.730190
0.703792 0.628412 0.724025
0.816709 0.651118 0.733883
0.936187 0.690578 0.749477
0.339818 0.711269 0.740871
0.361395 0.712428 0.741695
0.426001 0.713069 0.741482
0.518425 0.714595 0.741482
0.616480 0.717067 0.741726
0.715480 0.723476 0.745113
0.830716 0.744686 0.755337
0.931701 0.769680 0.766445
0.428962 0.806119 0.770230
0.442176 0.806546 0.770840
0.486213 0.806363 0.771237
0.560601 0.807370 0.773037
0.652186 0.811002 0.777340
0.744930 0.819394 0.782712
0.824735 0.819577 0.774228
0.922454 0.833066 0.774289
0.522332 0.897429 0.810941
0.529564 0.897215 0.810758
0.561486 0.897398 0.811215
0.620294 0.899077 0.813352
0.703578 0.901518 0.818448
0.785428 0.908202 0.824247
0.860716 0.915740 0.832334
0.920928 0.911162 0.811063
0.248142 0.363134 0.815396
0.275059 0.365576 0.815457
0.357366 0.370459 0.813474
0.470222 0.379278 0.810300
0.590570 0.388098 0.804532
0.709346 0.395758 0.796628
0.825223 0.437415 0.793210
0.914672 0.509636 0.791897
0.262730 0.384955 0.813169
0.287724 0.387091 0.813321
0.363989 0.390845 0.811612
0.471260 0.396551 0.807950
0.588769 0.403052 0.802213
0.705501 0.407385 0.793942
0.820401 0.445167 0.790249
0.910033 0.513024 0.788998
0.323949 0.471504 0.814023
0.340520 0.472023 0.813626
0.399481 0.472633 0.811612
0.490669 0.474250 0.808133
0.596216 0.475257 0.802335
0.705776 0.474922 0.794736
0.817044 0.503899 0.792142
0.906462 0.559899 0.793637
0.426368 0.594018 0.814145
0.438422 0.594354 0.813474
0.473121 0.590356 0.812009
0.529503 0.581567 0.809903
0.615534 0.577966 0.804898
0.710719 0.572961 0.798367
0.812314 0.587304 0.795834
0.900999 0.622248 0.799710
0.460700 0.674495 0.815305
0.471321 0.674769 0.814694
0.513207 0.677119 0.813504
0.576532 0.678096 0.811612
0.637934 0.668727 0.808438
0.715816 0.659785 0.802121
0.806668 0.660914 0.798734
0.898375 0.684382 0.806943
0.485145 0.741848 0.817990
0.494850 0.742275 0.817990
0.531243 0.743679 0.817899
0.591180 0.746151 0.817746
0.664759 0.749264 0.817533
0.734218 0.743648 0.815335
0.812802 0.737819 0.810178
0.910124 0.754757 0.820462
0.513237 0.808957 0.825895
0.521782 0.809293 0.826139
0.551904 0.809445 0.826139
0.604608 0.810025 0.826261
0.671595 0.810636 0.826291
0.747127 0.811917 0.826413
0.826658 0.814633 0.827054
0.928038 0.836728 0.837613
0.541375 0.892332 0.853452
0.548241 0.892454 0.853605
0.576959 0.893309 0.854520
0.625055 0.893950 0.855131
0.689876 0.895293 0.855924
0.771725 0.900298 0.859403
0.858061 0.910491 0.866575
0.924254 0.912047 0.858518
0.456397 0.529473 0.889036
0.467292 0.530785 0.888914
0.505364 0.532677 0.887266
0.572808 0.538415 0.885039
0.656092 0.544671 0.881315
0.745418 0.549584 0.876127
0.836240 0.557977 0.870573
0.921202 0.587152 0.867521
0.462928 0.541802 0.887480
0.473243 0.543114 0.887419
0.510735 0.545037 0.886107
0.575250 0.549157 0.883787
0.656519 0.553948 0.880156
0.744594 0.557702 0.875090
0.834104 0.563714 0.869322
0.918822 0.590906 0.866239
0.495644 0.592065 0.885832
0.503655 0.592432 0.885618
0.535058 0.592493 0.884306
0.593469 0.595697 0.882902
0.666072 0.596063 0.879240
0.747066 0.594934 0.874174
0.832334 0.595392 0.868650
0.915587 0.616480 0.866209
0.555627 0.668513 0.884123
0.558679 0.666712 0.884245
0.571221 0.658778 0.883940
0.617914 0.658045 0.882353
0.680629 0.655756 0.879423
0.753506 0.651270 0.875029
0.831846 0.644953 0.869566
0.912657 0.658930 0.868101
0.575982 0.728298 0.885588
0.582422 0.728481 0.885649
0.605127 0.727443 0.884855
0.653407 0.728908 0.883421
0.691920 0.715389 0.881651
0.757687 0.708522 0.877470
0.830991 0.699733 0.872313
0.910277 0.706874 0.871305
0.588617 0.784695 0.888701
0.593622 0.784451 0.888426
0.615290 0.784176 0.887816
0.656580 0.784695 0.887480
0.708827 0.781399 0.886717
0.765957 0.771847 0.885313
0.836149 0.764065 0.881163
0.912688 0.765438 0.879667
0.599145 0.840360 0.894896
0.604181 0.840269 0.894804
0.624903 0.840116 0.894621
0.664302 0.840360 0.894743
0.718898 0.840940 0.895109
0.784237 0.842405 0.896147
0.845670 0.835203 0.894682
0.914611 0.827756 0.888975
0.616052 0.899046 0.904631
0.620508 0.898985 0.904601
0.639826 0.899016 0.904662
0.676753 0.899535 0.905211
0.727657 0.900328 0.905852
0.788327 0.901640 0.906645
0.855436 0.904204 0.907713
0.924834 0.907286 0.907958
