20 Preset/Art Style/【3】LUT video cho PR-AE-FCPX/Portra 800 Muted Soft.cube
# Created by Adobe Lightroom plugin Export LUT (1.24.0)
# www.johnrellis.com/lightroom/exportlut.htm
# Preset: Portra 800 Muted Soft
# Color profile: E:\lut插件\exportlut.1.24\exportlut.lrplugin\color profiles\Rec709gamma2.4.icc
LUT_3D_SIZE 8
DOMAIN_MIN 0.000000 0.000000 0.000000
DOMAIN_MAX 0.903226 0.903226 0.903226
0.175357 0.168917 0.165316
0.173495 0.168460 0.165042
0.190402 0.168826 0.164248
0.261936 0.175326 0.161471
0.390906 0.187808 0.155764
0.579004 0.200412 0.143923
0.787472 0.248142 0.123507
0.905974 0.327214 0.143252
0.173800 0.168063 0.164736
0.173983 0.168215 0.164706
0.193912 0.172519 0.163638
0.261753 0.182650 0.160311
0.386084 0.198581 0.153933
0.571710 0.215549 0.140505
0.768948 0.258915 0.117189
0.896056 0.331487 0.129671
0.167330 0.209689 0.170840
0.169162 0.216068 0.168399
0.211673 0.207218 0.162905
0.296300 0.221469 0.157015
0.436896 0.244297 0.147524
0.631342 0.275914 0.128267
0.805509 0.330694 0.102266
0.908263 0.393866 0.128969
0.118593 0.375647 0.228275
0.131807 0.386542 0.225803
0.217014 0.444434 0.228641
0.358221 0.361822 0.166201
0.515679 0.365301 0.135714
0.708553 0.414771 0.102052
0.830625 0.443702 0.104433
0.909758 0.476844 0.168460
0.238132 0.630213 0.435309
0.287816 0.635187 0.443030
0.372717 0.665034 0.452613
0.537926 0.680903 0.475929
0.580621 0.572595 0.237461
0.687617 0.519951 0.128450
0.820615 0.551324 0.179934
0.901884 0.576349 0.260441
0.585199 0.735439 0.637812
0.608301 0.738827 0.648463
0.641901 0.747189 0.659693
0.700679 0.760250 0.685023
0.719631 0.752651 0.655543
0.727047 0.698543 0.455085
0.803891 0.648920 0.291386
0.879118 0.662440 0.393256
0.743648 0.782223 0.738277
0.749172 0.782956 0.740597
0.761776 0.785641 0.745052
0.779110 0.791348 0.751431
0.806210 0.797147 0.763302
0.798642 0.787564 0.736263
0.798062 0.760464 0.640131
0.851591 0.728084 0.499580
0.816831 0.806668 0.780362
0.818509 0.806882 0.780972
0.824247 0.807980 0.782986
0.830747 0.810452 0.785245
0.837522 0.812161 0.787106
0.846677 0.814115 0.789792
0.840818 0.808438 0.776333
0.840116 0.796933 0.739315
0.173983 0.168215 0.164706
0.173800 0.168063 0.164736
0.192966 0.167391 0.164767
0.262577 0.174990 0.163363
0.386053 0.188632 0.158877
0.566888 0.202090 0.149233
0.758297 0.241184 0.131624
0.887419 0.317479 0.130068
0.173617 0.168276 0.165072
0.175082 0.168948 0.165316
0.199252 0.172427 0.165164
0.269749 0.182010 0.163119
0.392950 0.197055 0.158450
0.573205 0.213230 0.148135
0.753475 0.251377 0.130892
0.881651 0.323217 0.127382
0.172244 0.205509 0.175082
0.182223 0.210971 0.176272
0.215885 0.209598 0.168338
0.302251 0.223301 0.163210
0.434730 0.242191 0.156252
0.615045 0.268833 0.142428
0.778805 0.313298 0.123842
0.892912 0.377264 0.136172
0.145663 0.352056 0.230014
0.167697 0.362097 0.233280
0.226505 0.418280 0.236576
0.345556 0.345830 0.178012
0.488869 0.347082 0.152560
0.676448 0.392554 0.130648
0.805020 0.421607 0.123690
0.896178 0.460121 0.166171
0.215824 0.615167 0.429267
0.265843 0.619471 0.435554
0.360815 0.648157 0.446448
0.526238 0.669886 0.473732
0.562829 0.555077 0.242710
0.673854 0.507561 0.145907
0.811124 0.542382 0.189914
0.895506 0.568048 0.259495
0.564019 0.728817 0.627131
0.580621 0.730220 0.633021
0.624811 0.738735 0.648493
0.688014 0.754086 0.675685
0.714565 0.748714 0.652461
0.722927 0.694118 0.456641
0.800046 0.645014 0.297826
0.876066 0.658473 0.393072
0.734005 0.779202 0.733181
0.737881 0.779385 0.734401
0.753262 0.781949 0.739986
0.772183 0.788479 0.747097
0.802670 0.795285 0.760952
0.796323 0.785977 0.734615
0.794614 0.757168 0.634241
0.848539 0.723140 0.488991
0.813046 0.805478 0.778592
0.815335 0.805875 0.779477
0.821988 0.806943 0.781888
0.828946 0.809537 0.784298
0.838834 0.812528 0.787991
0.847562 0.814359 0.790494
0.840940 0.808377 0.776730
0.839933 0.796658 0.739620
0.175235 0.168734 0.171725
0.178256 0.168887 0.172335
0.197787 0.169039 0.174624
0.286534 0.172915 0.183383
0.420325 0.181369 0.184237
0.609766 0.195804 0.184298
0.784878 0.245243 0.183108
0.898314 0.328557 0.200290
0.177279 0.173983 0.176913
0.182162 0.174563 0.178225
0.207675 0.175967 0.180087
0.293156 0.183230 0.186618
0.425391 0.193729 0.186709
0.611627 0.211093 0.186099
0.779751 0.256352 0.182284
0.894072 0.334936 0.198215
0.180148 0.206516 0.193393
0.189548 0.209384 0.195132
0.236118 0.220615 0.202152
0.327276 0.233127 0.202121
0.473457 0.250095 0.198856
0.649134 0.275669 0.193454
0.796902 0.321386 0.190707
0.897581 0.385962 0.213718
0.166262 0.327886 0.253696
0.184482 0.338262 0.260685
0.273320 0.381872 0.289830
0.378302 0.368048 0.238651
0.539940 0.376989 0.219730
0.701320 0.407507 0.218326
0.818173 0.435309 0.222690
0.899657 0.473182 0.257725
0.196658 0.585199 0.441505
0.245151 0.591394 0.448859
0.400671 0.617273 0.484596
0.567437 0.670008 0.547204
0.588952 0.571069 0.334966
0.700618 0.528923 0.246738
0.819547 0.557244 0.294469
0.892912 0.577111 0.344762
0.541375 0.718563 0.624781
0.559747 0.720424 0.630762
0.621393 0.726864 0.652003
0.683223 0.744747 0.676417
0.727443 0.748318 0.678035
0.726467 0.694423 0.508782
0.802853 0.650202 0.368170
0.873075 0.666041 0.458137
0.727687 0.776669 0.732601
0.731960 0.776944 0.733944
0.750668 0.778805 0.740505
0.773739 0.785183 0.749203
0.802548 0.793271 0.761898
0.802243 0.786831 0.744503
0.798154 0.758877 0.657710
0.848356 0.728359 0.537316
0.809354 0.804501 0.777676
0.811002 0.804654 0.778164
0.818601 0.805661 0.780850
0.829160 0.808499 0.784787
0.838743 0.811917 0.788266
0.850156 0.814939 0.792599
0.843412 0.809079 0.780056
0.841306 0.797299 0.745510
0.187533 0.178714 0.212253
0.194614 0.179843 0.214817
0.226078 0.183108 0.221805
0.292088 0.185153 0.231296
0.456458 0.194156 0.264805
0.634730 0.180758 0.265385
0.786923 0.239506 0.277714
0.892271 0.335241 0.305119
0.193820 0.190677 0.226566
0.201785 0.191592 0.228214
0.235325 0.194858 0.233890
0.305516 0.196719 0.242985
0.468025 0.207980 0.272953
0.641413 0.200076 0.271305
0.789090 0.259770 0.283452
0.891875 0.348486 0.309880
0.203220 0.227573 0.251316
0.212802 0.230045 0.254704
0.256626 0.240696 0.271763
0.343175 0.246860 0.281743
0.511437 0.270665 0.307836
0.674189 0.293645 0.311376
0.811063 0.349157 0.323949
0.897124 0.412726 0.345220
0.188785 0.327031 0.324468
0.204135 0.330694 0.327642
0.270146 0.348699 0.343511
0.414862 0.384375 0.373724
0.567926 0.402258 0.370306
0.706569 0.423957 0.365179
0.815457 0.453803 0.366796
0.892241 0.492348 0.386511
0.128023 0.525200 0.447547
0.181613 0.531365 0.453620
0.331914 0.561395 0.486671
0.545281 0.613825 0.555993
0.619654 0.587549 0.476356
0.729397 0.566400 0.431861
0.820829 0.583734 0.454810
0.883116 0.595026 0.470253
0.498177 0.700435 0.625299
0.524681 0.704585 0.633845
0.589136 0.711482 0.651270
0.683680 0.726253 0.684932
0.756497 0.753506 0.720150
0.738186 0.699580 0.593957
0.807034 0.664454 0.493965
0.865537 0.682124 0.560113
0.706264 0.770016 0.728115
0.712673 0.770779 0.730220
0.736049 0.773587 0.738003
0.772763 0.779171 0.751553
0.802396 0.789822 0.763882
0.813626 0.789548 0.760464
0.803128 0.760952 0.689204
0.846586 0.734432 0.600519
0.801938 0.803006 0.776272
0.804074 0.803220 0.776913
0.812497 0.804257 0.779690
0.827054 0.806546 0.784756
0.838651 0.810575 0.788876
0.851041 0.814542 0.793729
0.847379 0.810269 0.785245
0.843778 0.798367 0.754757
0.211795 0.210422 0.322118
0.221408 0.212009 0.326665
0.260349 0.216342 0.337865
0.341711 0.223484 0.360418
0.469947 0.217777 0.380072
0.679500 0.265812 0.442023
0.800717 0.302739 0.437507
0.877714 0.389960 0.458289
0.218112 0.224582 0.341558
0.228214 0.226139 0.345708
0.268406 0.230350 0.355871
0.351598 0.236881 0.374365
0.483864 0.232822 0.394079
0.684413 0.285649 0.450172
0.801114 0.320806 0.444038
0.876768 0.403418 0.464271
0.230137 0.271214 0.382788
0.240696 0.273960 0.389075
0.288243 0.280308 0.400855
0.385534 0.293553 0.422339
0.523003 0.297978 0.437934
0.690822 0.352697 0.472511
0.798032 0.381689 0.464576
0.873075 0.444923 0.480446
0.232151 0.357824 0.439673
0.247593 0.360967 0.442878
0.313024 0.375738 0.457832
0.439673 0.413214 0.496590
0.581567 0.433875 0.514885
0.707607 0.469917 0.524834
0.795834 0.489662 0.517418
0.870756 0.522240 0.521263
0.238743 0.510399 0.532341
0.262821 0.513848 0.535241
0.347478 0.526543 0.545769
0.480598 0.550317 0.565728
0.627649 0.581079 0.590661
0.721645 0.586603 0.581262
0.800778 0.594263 0.573175
0.864347 0.607446 0.572351
0.371496 0.654688 0.612726
0.389899 0.656214 0.614343
0.453590 0.660365 0.619013
0.579736 0.678614 0.646174
0.711360 0.709590 0.693355
0.741268 0.696162 0.654597
0.801938 0.681910 0.622980
0.854948 0.695827 0.643641
0.644007 0.753475 0.713313
0.650446 0.753964 0.714595
0.678981 0.757046 0.721553
0.731563 0.764828 0.737423
0.787442 0.776059 0.757748
0.823209 0.791379 0.773617
0.805447 0.760098 0.714443
0.843717 0.737423 0.653437
0.772976 0.797574 0.768338
0.775937 0.797787 0.769070
0.787839 0.798886 0.772366
0.809964 0.801999 0.779385
0.833158 0.806271 0.787289
0.848447 0.812375 0.793118
0.851530 0.811490 0.790585
0.844816 0.798032 0.762203
0.248142 0.270878 0.506065
0.261295 0.272679 0.509483
0.311772 0.277775 0.516930
0.407630 0.289738 0.536828
0.547906 0.311223 0.567773
0.684565 0.309911 0.575799
0.807706 0.436835 0.611017
0.867124 0.502495 0.614679
0.254307 0.282353 0.509911
0.266545 0.283574 0.511559
0.315984 0.288579 0.519524
0.410468 0.300755 0.538689
0.546105 0.321386 0.566308
0.682094 0.322057 0.575250
0.803983 0.444526 0.610498
0.864439 0.505089 0.613489
0.287816 0.342290 0.553002
0.300572 0.343633 0.554467
0.353246 0.350988 0.562341
0.443915 0.362310 0.572869
0.572900 0.387182 0.594354
0.699916 0.395727 0.601984
0.801328 0.502037 0.628931
0.858396 0.541680 0.628229
0.320714 0.423713 0.581048
0.335637 0.427161 0.583978
0.399664 0.445838 0.600031
0.504021 0.475807 0.622644
0.618463 0.505913 0.640009
0.723598 0.521904 0.646693
0.798337 0.582635 0.659693
0.850584 0.598627 0.654566
0.365972 0.531914 0.624353
0.380011 0.533928 0.625452
0.435401 0.542840 0.630732
0.529412 0.562066 0.641505
0.644251 0.599512 0.664607
0.729854 0.617792 0.675227
0.791318 0.636530 0.676600
0.841032 0.640650 0.668818
0.462104 0.645380 0.672938
0.476570 0.647822 0.674952
0.518242 0.652338 0.678004
0.586938 0.661402 0.684260
0.668025 0.675105 0.693874
0.748898 0.695949 0.709621
0.799008 0.698177 0.704219
0.845182 0.701534 0.699214
0.598962 0.737087 0.721126
0.606622 0.737911 0.722072
0.629908 0.739437 0.723842
0.670436 0.742855 0.727535
0.733822 0.753109 0.740444
0.805325 0.773556 0.765682
0.811795 0.762203 0.743984
0.842954 0.751003 0.722438
0.729244 0.788785 0.760952
0.732174 0.788937 0.761410
0.746609 0.790280 0.764279
0.773739 0.793637 0.770565
0.808133 0.798886 0.779782
0.841123 0.806332 0.790707
0.858244 0.814115 0.797299
0.847379 0.798611 0.772641
0.376837 0.379278 0.665553
0.388251 0.381445 0.666773
0.431708 0.388800 0.670466
0.508141 0.404089 0.677760
0.606195 0.428504 0.687312
0.708553 0.459297 0.696803
0.800687 0.471778 0.696712
0.848814 0.580133 0.704250
0.386450 0.392340 0.668238
0.397436 0.394354 0.669398
0.438972 0.401221 0.672755
0.512383 0.415290 0.679103
0.608484 0.439429 0.688411
0.709041 0.470283 0.697810
0.799466 0.481575 0.697414
0.847349 0.585107 0.704982
0.422553 0.442786 0.680354
0.431922 0.444160 0.680964
0.469337 0.450538 0.683558
0.536065 0.464179 0.688716
0.623407 0.487678 0.696620
0.716823 0.520287 0.705959
0.798581 0.529870 0.705684
0.843839 0.614649 0.713863
0.462806 0.509636 0.690974
0.472724 0.512078 0.691920
0.516472 0.526268 0.697475
0.574426 0.539971 0.702083
0.648951 0.561059 0.708827
0.729335 0.590936 0.718288
0.797147 0.598291 0.718837
0.839567 0.656397 0.727291
0.494118 0.575067 0.699825
0.501610 0.576013 0.699916
0.532555 0.581353 0.700954
0.598505 0.601770 0.709834
0.674647 0.628931 0.720882
0.740658 0.651087 0.729763
0.797238 0.660609 0.732906
0.837522 0.693385 0.739528
0.566827 0.657893 0.724208
0.572473 0.658686 0.724453
0.594903 0.661891 0.725429
0.634882 0.668086 0.727413
0.687831 0.678340 0.730678
0.754543 0.702419 0.742733
0.803311 0.716091 0.749691
0.837369 0.725277 0.749905
0.638911 0.726162 0.746944
0.642908 0.726650 0.747250
0.658106 0.728420 0.748104
0.686336 0.732174 0.750027
0.725124 0.738155 0.753201
0.769894 0.747189 0.758297
0.814084 0.759762 0.765957
0.841947 0.758938 0.761166
0.713283 0.781949 0.770687
0.715694 0.782101 0.770809
0.726070 0.782864 0.771450
0.744717 0.784360 0.772641
0.770352 0.786831 0.774594
0.806760 0.792935 0.780667
0.849912 0.806332 0.794339
0.851164 0.799954 0.784268
0.601312 0.564508 0.757839
0.605829 0.565881 0.757992
0.623072 0.570123 0.758297
0.655879 0.579461 0.759213
0.700801 0.594018 0.760769
0.752682 0.614069 0.763058
0.803006 0.629419 0.764736
0.851133 0.636042 0.763394
0.605402 0.570733 0.757870
0.609766 0.571954 0.758022
0.626734 0.576226 0.758389
0.658473 0.585016 0.759304
0.702388 0.598993 0.760830
0.753384 0.618433 0.763149
0.802884 0.633478 0.764889
0.850401 0.639429 0.763546
0.622644 0.595514 0.758999
0.626398 0.596429 0.759152
0.641352 0.599878 0.759487
0.670649 0.608179 0.760616
0.710475 0.620142 0.762112
0.757412 0.637018 0.764401
0.803922 0.651575 0.766476
0.848356 0.655879 0.765347
0.645502 0.630426 0.761074
0.649989 0.632105 0.761379
0.662898 0.635096 0.761807
0.687800 0.641596 0.762844
0.722621 0.651637 0.764492
0.764157 0.665644 0.766964
0.806485 0.680293 0.769680
0.845792 0.682521 0.768856
0.649012 0.655482 0.761501
0.652979 0.656672 0.761837
0.667567 0.660853 0.762844
0.700221 0.673152 0.765347
0.733852 0.683650 0.767544
0.770687 0.695308 0.770108
0.810147 0.710903 0.773831
0.843870 0.712459 0.773465
0.676020 0.697536 0.767880
0.677852 0.697627 0.767788
0.686213 0.698207 0.767575
0.702907 0.699855 0.767300
0.734127 0.707729 0.769314
0.777768 0.724910 0.774197
0.814176 0.739132 0.778378
0.843992 0.744503 0.779660
0.715236 0.742458 0.777615
0.716793 0.742611 0.777584
0.723293 0.743221 0.777584
0.736416 0.744717 0.777707
0.756222 0.747219 0.777951
0.782010 0.751217 0.778408
0.819089 0.764828 0.783200
0.846769 0.774075 0.786618
0.754238 0.779660 0.786587
0.755398 0.779751 0.786587
0.760342 0.780362 0.786740
0.770352 0.781674 0.787137
0.785428 0.783780 0.787778
0.805264 0.787015 0.788846
0.828855 0.791928 0.790799
0.853880 0.799863 0.794553
