20 Preset/City Style/【3】LUT video cho PR-AE-FCPX/TONE 1/Colors Change Blue Tone Portrait.cube
# Created by Adobe Lightroom plugin Export LUT (1.24.0)
# www.johnrellis.com/lightroom/exportlut.htm
# Preset: Colors Change Blue Tone Portrait
# Color profile: E:\lut插件\exportlut.1.24\exportlut.lrplugin\color profiles\Rec709gamma2.4.icc
LUT_3D_SIZE 5
DOMAIN_MIN 0.000000 0.000000 0.000000
DOMAIN_MAX 0.903226 0.903226 0.903226
0.003540 0.115175 0.114321
0.113252 0.121859 0.121065
0.386114 0.090700 0.133944
0.845029 0.000000 0.168063
1.000000 0.402594 0.361883
0.069734 0.150881 0.159365
0.155062 0.167422 0.134981
0.351476 0.199893 0.147738
0.828000 0.293919 0.180484
1.000000 0.509331 0.401160
0.307836 0.355871 0.414618
0.306981 0.354528 0.412390
0.616205 0.489479 0.223301
0.812955 0.564050 0.223545
1.000000 0.685420 0.444190
0.659663 0.722194 0.778195
0.665736 0.727657 0.782528
0.755428 0.774380 0.739345
0.931090 0.792050 0.521630
1.000000 0.794949 0.505455
0.904265 0.926909 0.939544
0.905577 0.927947 0.940398
0.895048 0.919707 0.933349
0.951659 0.942840 0.906218
1.000000 0.930449 0.828855
0.000000 0.127413 0.153201
0.000000 0.127382 0.159945
0.341161 0.105440 0.204837
0.814145 0.000000 0.283574
1.000000 0.349645 0.439582
0.062867 0.159823 0.177462
0.114687 0.176608 0.192599
0.372412 0.193301 0.220920
0.792630 0.247745 0.292241
1.000000 0.454658 0.452003
0.306920 0.354864 0.413489
0.311589 0.359930 0.419471
0.526513 0.435981 0.288975
0.739223 0.527703 0.310216
1.000000 0.677852 0.517021
0.663630 0.725765 0.781064
0.671901 0.733242 0.786893
0.737942 0.771450 0.765591
0.913481 0.790921 0.572290
1.000000 0.798764 0.560845
0.904326 0.926940 0.939574
0.904967 0.927489 0.940002
0.911589 0.932586 0.944182
0.954101 0.949096 0.920714
1.000000 0.939513 0.856565
0.000000 0.183078 0.365270
0.000000 0.183261 0.364294
0.000000 0.167025 0.361456
0.670527 0.000000 0.525139
1.000000 0.320104 0.694179
0.000000 0.265263 0.448859
0.000000 0.254673 0.433600
0.044434 0.217990 0.407782
0.715724 0.172793 0.562402
1.000000 0.480934 0.723598
0.296910 0.418189 0.527794
0.329076 0.434913 0.537743
0.441993 0.505882 0.582910
0.792630 0.590723 0.655818
1.000000 0.718074 0.759152
0.681880 0.742184 0.793881
0.681880 0.742184 0.793881
0.709743 0.766781 0.812924
0.861845 0.805051 0.725521
0.970855 0.822110 0.721401
0.898680 0.922606 0.936004
0.901305 0.924620 0.937652
0.908934 0.930510 0.942504
0.937652 0.944701 0.933013
0.999725 0.939757 0.874418
0.000000 0.370581 0.762356
0.000000 0.366217 0.758267
0.000000 0.332341 0.725032
0.000000 0.242344 0.685634
0.938781 0.000000 0.852567
0.000000 0.457496 0.791073
0.000000 0.446204 0.783536
0.000000 0.394049 0.744533
0.000000 0.287541 0.693935
0.937591 0.247288 0.844968
0.000000 0.679805 0.856779
0.039307 0.671138 0.846586
0.305180 0.628077 0.813565
0.402594 0.494392 0.753933
0.960479 0.568750 0.839841
0.675319 0.781796 0.851530
0.680476 0.782193 0.849607
0.722988 0.801999 0.855222
0.789792 0.835233 0.865934
0.957397 0.885435 0.904082
0.900114 0.923705 0.936919
0.902617 0.925658 0.938506
0.915496 0.935607 0.946685
0.929137 0.946075 0.955291
0.978912 0.950561 0.920348
0.000000 0.618952 0.958129
0.000000 0.613367 0.955749
0.000000 0.590936 0.947417
0.000000 0.519738 0.921080
0.150423 0.344549 0.902464
0.000000 0.655726 0.957488
0.000000 0.650111 0.955535
0.000000 0.624537 0.946990
0.000000 0.549279 0.920745
0.237156 0.376654 0.901274
0.308446 0.794308 0.962341
0.290013 0.786465 0.960266
0.256443 0.758175 0.952911
0.000000 0.678370 0.931243
0.444465 0.523522 0.912627
0.770535 0.907591 0.970092
0.774350 0.908598 0.969879
0.799985 0.915831 0.970062
0.781094 0.888029 0.956909
0.741421 0.791836 0.938293
0.905364 0.943206 0.964538
0.907103 0.943877 0.964630
0.917937 0.949065 0.966613
0.934508 0.956725 0.969177
0.953399 0.964599 0.970611
