20 Preset/City Style/【3】LUT video cho PR-AE-FCPX/TONE 1/Colors Change Night City.cube
# Created by Adobe Lightroom plugin Export LUT (1.24.0)
# www.johnrellis.com/lightroom/exportlut.htm
# Preset: Colors Change Night City
# Color profile: E:\lut插件\exportlut.1.24\exportlut.lrplugin\color profiles\Rec709gamma2.4.icc
LUT_3D_SIZE 32
DOMAIN_MIN 0.0 0.0 0.0
DOMAIN_MAX 1.0 1.0 1.0
0.004974 0.114534 0.114412
0.007935 0.114717 0.114687
0.013153 0.115450 0.115145
0.024170 0.116915 0.115511
0.046357 0.119387 0.116854
0.075441 0.122408 0.118898
0.094942 0.125673 0.120821
0.110933 0.129213 0.122835
0.128634 0.133120 0.124971
0.149691 0.137057 0.126802
0.174807 0.141756 0.128573
0.203342 0.146639 0.130159
0.235050 0.152132 0.131777
0.269902 0.158145 0.133059
0.306737 0.165011 0.134401
0.345800 0.172854 0.135409
0.386084 0.182254 0.135927
0.428260 0.193881 0.136324
0.471473 0.207736 0.136019
0.516442 0.225010 0.135042
0.561303 0.245090 0.133700
0.604700 0.267887 0.131594
0.666590 0.305669 0.127596
0.726864 0.348180 0.122896
0.779324 0.389014 0.120577
0.824949 0.426490 0.121340
0.865476 0.461158 0.130037
0.902464 0.493050 0.146395
0.937041 0.523674 0.170596
0.969848 0.553948 0.202243
1.000000 0.583734 0.242039
1.000000 0.613153 0.290318
0.006928 0.115053 0.114931
0.009216 0.114992 0.114626
0.014435 0.115724 0.115114
0.024842 0.117159 0.116060
0.047333 0.119631 0.117098
0.074708 0.122713 0.118868
0.093568 0.125765 0.120821
0.108888 0.129122 0.122896
0.126253 0.132876 0.124758
0.146670 0.136965 0.126650
0.170260 0.141299 0.128511
0.197391 0.146181 0.129946
0.228489 0.151247 0.131716
0.262211 0.157259 0.132876
0.298314 0.163943 0.134371
0.336767 0.171420 0.135134
0.376959 0.180392 0.135866
0.418433 0.191531 0.136355
0.461280 0.205081 0.136324
0.505791 0.221225 0.135256
0.549645 0.240299 0.134157
0.592767 0.261723 0.132235
0.651637 0.296422 0.128420
0.708553 0.335027 0.124361
0.758602 0.372778 0.121431
0.803769 0.409064 0.119814
0.844968 0.443641 0.124910
0.883330 0.476356 0.136599
0.919768 0.508049 0.156924
0.954681 0.539330 0.185336
0.987854 0.570520 0.223270
1.000000 0.601282 0.269841
0.012085 0.116945 0.116457
0.013336 0.117189 0.116426
0.021607 0.116976 0.116121
0.033906 0.118624 0.116426
0.053803 0.121126 0.118044
0.078340 0.124483 0.119722
0.094759 0.127474 0.121981
0.109682 0.130556 0.123507
0.126436 0.134310 0.125368
0.146181 0.138186 0.127260
0.169436 0.142336 0.128878
0.195926 0.146853 0.130129
0.226078 0.152102 0.131685
0.259159 0.157931 0.133150
0.294438 0.164584 0.134493
0.331823 0.171969 0.135378
0.371435 0.180850 0.136202
0.412787 0.191775 0.136568
0.455360 0.204746 0.136324
0.499550 0.220676 0.135683
0.544091 0.239475 0.134463
0.587060 0.260777 0.132723
0.645747 0.294652 0.129519
0.700465 0.331121 0.125277
0.748928 0.367071 0.122194
0.793088 0.401770 0.120516
0.834134 0.435889 0.123232
0.873014 0.468605 0.132876
0.910430 0.500816 0.151827
0.946319 0.532677 0.178805
0.980346 0.564141 0.214694
1.000000 0.595239 0.259586
0.024598 0.121584 0.120119
0.025849 0.121828 0.120089
0.031708 0.121981 0.119448
0.050507 0.121492 0.118563
0.075685 0.122957 0.119112
0.090608 0.125978 0.120851
0.102174 0.129183 0.122713
0.115267 0.132753 0.124727
0.130434 0.136721 0.126497
0.148989 0.140780 0.128359
0.171328 0.145113 0.129671
0.197452 0.149508 0.131167
0.226535 0.154818 0.132448
0.258244 0.160586 0.133730
0.292424 0.166873 0.134920
0.328618 0.174197 0.135866
0.366369 0.182834 0.136690
0.406043 0.193088 0.136904
0.447028 0.205539 0.136995
0.489845 0.220401 0.136416
0.533013 0.238071 0.135409
0.576410 0.258701 0.133577
0.633478 0.290715 0.130831
0.686122 0.324681 0.127352
0.734890 0.359655 0.123537
0.781216 0.395483 0.121187
0.825345 0.431556 0.123354
0.866789 0.465949 0.132937
0.905974 0.499214 0.150332
0.942565 0.531487 0.177188
0.976471 0.562463 0.212131
1.000000 0.592340 0.254490
0.040650 0.127932 0.125795
0.041932 0.128176 0.125734
0.049744 0.128237 0.125185
0.065431 0.128389 0.123995
0.087861 0.127413 0.122347
0.103120 0.128359 0.122011
0.113191 0.131228 0.123873
0.125490 0.134401 0.125368
0.139742 0.138003 0.127169
0.156863 0.142031 0.128756
0.176852 0.146639 0.130282
0.200656 0.152041 0.131899
0.227176 0.157992 0.133364
0.257572 0.164248 0.134829
0.291051 0.170871 0.135958
0.327123 0.178378 0.136599
0.365179 0.187167 0.137301
0.404761 0.197757 0.137636
0.445777 0.210269 0.137392
0.488350 0.225315 0.137179
0.531121 0.242649 0.135958
0.578271 0.265171 0.134249
0.631952 0.295262 0.131197
0.682856 0.327733 0.127779
0.730770 0.361913 0.124758
0.777096 0.397345 0.122866
0.821286 0.432593 0.125307
0.862455 0.466682 0.134005
0.901335 0.499306 0.150790
0.937743 0.530724 0.176486
0.971618 0.561120 0.210056
1.000000 0.590539 0.250584
0.065187 0.134615 0.131472
0.066743 0.134829 0.131167
0.073884 0.135164 0.130587
0.085847 0.135500 0.129702
0.096895 0.135348 0.128054
0.112367 0.133944 0.126192
0.131563 0.134249 0.125277
0.142550 0.137240 0.126680
0.156527 0.140505 0.127962
0.173129 0.144411 0.129458
0.193027 0.148989 0.130648
0.215885 0.154208 0.132235
0.242283 0.160006 0.133577
0.271641 0.166598 0.134890
0.303471 0.174502 0.136202
0.337438 0.183291 0.137270
0.373785 0.194034 0.138216
0.411933 0.206729 0.138918
0.452735 0.219669 0.138552
0.494850 0.234989 0.137728
0.537011 0.252598 0.136812
0.589166 0.278508 0.134798
0.732326 0.374517 0.127901
0.789303 0.418708 0.127474
0.837766 0.457618 0.133639
0.879057 0.491524 0.147860
0.914855 0.521599 0.168887
0.946685 0.548791 0.194400
0.975433 0.574487 0.225315
1.000000 0.599023 0.261082
1.000000 0.622339 0.300755
1.000000 0.644526 0.344884
0.099367 0.145937 0.139254
0.100099 0.145907 0.139010
0.103304 0.146334 0.138674
0.109651 0.146548 0.137362
0.119875 0.146853 0.135744
0.133700 0.146487 0.133608
0.153079 0.144442 0.131014
0.180514 0.143313 0.128908
0.194827 0.146822 0.129671
0.212741 0.150973 0.131136
0.234409 0.155825 0.132448
0.259342 0.161685 0.133730
0.286534 0.167941 0.135073
0.316136 0.175326 0.135988
0.347478 0.184024 0.137148
0.380346 0.193912 0.137728
0.415351 0.205478 0.137942
0.452064 0.219516 0.138430
0.490547 0.235904 0.138430
0.531212 0.255436 0.137392
0.580743 0.282353 0.136049
0.643153 0.322362 0.133852
0.705379 0.364416 0.130922
0.764736 0.408728 0.130495
0.818326 0.450721 0.134127
0.862882 0.486305 0.146853
0.900389 0.516564 0.165347
0.932769 0.543359 0.189151
0.962219 0.568658 0.216983
0.988952 0.592340 0.248936
1.000000 0.615473 0.286503
1.000000 0.637720 0.328222
0.120943 0.155703 0.144717
0.121431 0.155673 0.144717
0.124453 0.156008 0.144167
0.130068 0.156344 0.143130
0.138979 0.156771 0.141573
0.151308 0.156741 0.139498
0.167330 0.155520 0.136965
0.188876 0.153231 0.134066
0.222965 0.150301 0.130831
0.239658 0.154391 0.131960
0.259922 0.159121 0.132906
0.282933 0.164340 0.133974
0.308263 0.170779 0.134951
0.336126 0.178073 0.136049
0.365667 0.186587 0.136660
0.396643 0.196414 0.137209
0.429541 0.208255 0.137850
0.464668 0.221866 0.137667
0.501732 0.238285 0.137362
0.542199 0.258305 0.136660
0.598016 0.290257 0.134707
0.653468 0.327092 0.132479
0.707851 0.368170 0.130770
0.760800 0.411475 0.131594
0.809445 0.453346 0.137453
0.852476 0.487556 0.148959
0.889677 0.516808 0.166842
0.922454 0.542992 0.188205
0.952361 0.567712 0.215122
0.979828 0.591119 0.245518
1.000000 0.613886 0.281163
1.000000 0.636072 0.321965
0.147250 0.167575 0.151156
0.147860 0.167697 0.151125
0.150301 0.167819 0.150668
0.155428 0.168063 0.149477
0.162966 0.168551 0.148196
0.174044 0.168765 0.145937
0.188724 0.168215 0.143221
0.207156 0.166567 0.140444
0.230991 0.163577 0.137057
0.270451 0.159365 0.133059
0.291356 0.163027 0.133486
0.313817 0.168643 0.134249
0.337926 0.175143 0.135286
0.364202 0.182712 0.135927
0.392065 0.191623 0.136294
0.421118 0.201541 0.136690
0.452338 0.213657 0.137057
0.485481 0.227420 0.136690
0.522087 0.244694 0.136263
0.571374 0.270726 0.134737
0.620813 0.301244 0.132601
0.670527 0.336126 0.130343
0.720241 0.374670 0.129183
0.769162 0.415473 0.129976
0.814420 0.454841 0.136355
0.853086 0.489448 0.149996
0.886687 0.520165 0.169162
0.916777 0.548089 0.193210
0.946654 0.571923 0.219028
0.974060 0.594598 0.248844
0.999420 0.616724 0.283177
1.000000 0.638239 0.322210
0.177920 0.182254 0.158541
0.178714 0.182040 0.158175
0.180636 0.182162 0.157534
0.184726 0.182498 0.156771
0.191440 0.182712 0.155001
0.200900 0.182834 0.152895
0.213504 0.182467 0.150118
0.230014 0.181491 0.147189
0.250187 0.179141 0.143771
0.276249 0.175296 0.139895
0.318334 0.170352 0.135348
0.343359 0.172580 0.134432
0.366888 0.179385 0.135195
0.391852 0.187503 0.135775
0.419471 0.196658 0.136080
0.448280 0.207767 0.136324
0.479591 0.220523 0.135897
0.516808 0.237522 0.135256
0.560967 0.260533 0.134249
0.604700 0.286534 0.132418
0.647883 0.315679 0.130617
0.690303 0.347051 0.128359
0.732601 0.381018 0.127199
0.774350 0.416510 0.128267
0.813443 0.450874 0.133486
0.848692 0.482551 0.144869
0.881010 0.512352 0.162448
0.910887 0.540368 0.184787
0.939025 0.567742 0.213504
0.965484 0.594202 0.246433
0.991424 0.618128 0.282567
1.000000 0.640253 0.322118
0.208499 0.197726 0.165438
0.209110 0.197787 0.165438
0.210727 0.198032 0.165164
0.214908 0.198367 0.164248
0.221592 0.198795 0.162692
0.230381 0.199191 0.160647
0.242954 0.199130 0.157717
0.258396 0.199039 0.154788
0.277195 0.197848 0.151400
0.300053 0.194797 0.147311
0.328344 0.190188 0.142916
0.373022 0.185183 0.137331
0.403235 0.185672 0.134676
0.427314 0.194217 0.135164
0.453620 0.204288 0.135195
0.482979 0.216709 0.134829
0.520653 0.234134 0.134310
0.558740 0.253788 0.133425
0.596674 0.276280 0.131991
0.634668 0.301366 0.130129
0.672541 0.328679 0.127565
0.710567 0.358618 0.126162
0.749386 0.390631 0.124819
0.787625 0.424048 0.126894
0.823728 0.456428 0.132937
0.856779 0.486488 0.144900
0.887236 0.514977 0.162905
0.915801 0.542107 0.185489
0.942901 0.568658 0.213565
0.968414 0.594842 0.247013
0.992248 0.620325 0.284825
1.000000 0.645197 0.328161
0.245731 0.218997 0.175540
0.245975 0.219211 0.175509
0.248051 0.219303 0.174899
0.251987 0.219791 0.173861
0.257877 0.220218 0.172366
0.266880 0.220890 0.170382
0.278935 0.221530 0.167483
0.293675 0.221866 0.164462
0.311742 0.221317 0.160342
0.333349 0.219791 0.155856
0.358343 0.216251 0.151095
0.389380 0.210971 0.145632
0.486641 0.224094 0.138155
0.534264 0.227604 0.131960
0.571832 0.247837 0.130465
0.608820 0.270665 0.128847
0.644770 0.295323 0.126528
0.679988 0.321660 0.124025
0.714382 0.349523 0.121675
0.748562 0.378759 0.120546
0.782132 0.408515 0.120455
0.814115 0.438209 0.124453
0.844602 0.466682 0.132265
0.873289 0.493965 0.145907
0.899596 0.519158 0.162844
0.923247 0.542748 0.183871
0.944610 0.564385 0.206912
0.964294 0.585077 0.232975
0.983124 0.605341 0.261418
1.000000 0.626001 0.293889
1.000000 0.646601 0.330968
1.000000 0.667720 0.373785
0.306950 0.259434 0.193790
0.307164 0.259129 0.193423
0.308385 0.258854 0.192691
0.311131 0.258488 0.191165
0.315801 0.258061 0.188693
0.322850 0.257725 0.185702
0.333074 0.257725 0.182284
0.346654 0.257786 0.178408
0.364416 0.257755 0.173312
0.386206 0.257572 0.168429
0.416114 0.258793 0.163394
0.456519 0.260899 0.157351
0.504906 0.262119 0.149935
0.570062 0.265141 0.137606
0.621118 0.269322 0.126680
0.652552 0.291722 0.124483
0.681971 0.314885 0.122408
0.710292 0.338384 0.120150
0.738552 0.362921 0.118349
0.766354 0.388098 0.117769
0.794522 0.414191 0.118166
0.822446 0.440742 0.121798
0.849577 0.466682 0.129946
0.875975 0.492134 0.142885
0.900664 0.516289 0.159121
0.923583 0.539269 0.179599
0.944762 0.561089 0.202792
0.964721 0.582086 0.228000
0.983856 0.602960 0.257359
1.000000 0.624079 0.291112
1.000000 0.645106 0.328740
1.000000 0.666194 0.370947
0.346990 0.288304 0.207187
0.346685 0.287938 0.206729
0.347448 0.287266 0.205783
0.349859 0.286687 0.203922
0.354253 0.286656 0.201968
0.362402 0.287785 0.199557
0.373877 0.289433 0.196506
0.389471 0.291508 0.192630
0.409247 0.294408 0.188571
0.434180 0.297887 0.183536
0.464637 0.302129 0.177981
0.500633 0.305730 0.171328
0.540612 0.308110 0.163149
0.586084 0.309178 0.153079
0.643793 0.312474 0.136965
0.691096 0.312352 0.119722
0.715908 0.333593 0.117556
0.739498 0.354955 0.116213
0.763668 0.377447 0.114534
0.787594 0.400427 0.114229
0.811917 0.424109 0.116640
0.836790 0.448371 0.121157
0.861326 0.472389 0.129976
0.885679 0.496590 0.143984
0.908782 0.519615 0.160342
0.930388 0.541680 0.180789
0.950591 0.562890 0.203799
0.969726 0.583520 0.229557
0.988220 0.604089 0.258946
1.000000 0.625055 0.292607
1.000000 0.645960 0.330907
1.000000 0.667079 0.373816
0.408484 0.337255 0.231235
0.408637 0.337041 0.230808
0.409247 0.336370 0.229801
0.410773 0.335485 0.228092
0.414282 0.334630 0.224979
0.420142 0.333776 0.221317
0.429236 0.334173 0.217197
0.441932 0.335576 0.212650
0.459449 0.337896 0.207675
0.481300 0.341344 0.202121
0.508721 0.346014 0.196017
0.540642 0.351080 0.188815
0.576043 0.355108 0.180148
0.612940 0.357031 0.169924
0.653773 0.356634 0.157198
0.704219 0.358221 0.137423
0.749477 0.353796 0.112795
0.770108 0.373754 0.111025
0.790860 0.394415 0.110536
0.811368 0.415381 0.112245
0.832517 0.436683 0.114992
0.854307 0.458930 0.122347
0.876188 0.481086 0.132052
0.897917 0.503319 0.146487
0.919036 0.524865 0.163424
0.939147 0.546136 0.184878
0.958648 0.567163 0.208377
0.977569 0.587945 0.235721
0.996155 0.609033 0.266819
1.000000 0.630671 0.303014
1.000000 0.652461 0.344121
1.000000 0.674372 0.390570
0.462043 0.383490 0.256443
0.462531 0.383734 0.256657
0.463600 0.383490 0.255772
0.466011 0.383215 0.253635
0.469856 0.382818 0.250828
0.476112 0.383154 0.247257
0.485451 0.384619 0.243687
0.498665 0.386847 0.238987
0.515282 0.390265 0.234012
0.535149 0.394110 0.227939
0.558312 0.398260 0.220951
0.584314 0.401831 0.213107
0.612451 0.404364 0.203250
0.641688 0.404608 0.191928
0.672053 0.401801 0.178866
0.705745 0.397467 0.162600
0.750668 0.396979 0.140169
0.792691 0.392126 0.111818
0.813474 0.408484 0.108492
0.832120 0.428199 0.110842
0.852018 0.448951 0.115389
0.872587 0.470069 0.123720
0.893126 0.491585 0.135897
0.913634 0.513176 0.152468
0.933623 0.534356 0.171756
0.953002 0.555322 0.193942
0.971588 0.575952 0.218875
0.989563 0.596246 0.247257
1.000000 0.616693 0.279210
1.000000 0.637232 0.315587
1.000000 0.657679 0.355749
1.000000 0.678370 0.401068
0.508537 0.426764 0.282933
0.508934 0.426642 0.282506
0.510002 0.426703 0.281590
0.511925 0.426581 0.280217
0.516106 0.426612 0.277134
0.521782 0.427253 0.274205
0.530724 0.428321 0.269871
0.542016 0.430518 0.265171
0.556268 0.433722 0.260288
0.573602 0.437018 0.254307
0.593896 0.440681 0.246830
0.616876 0.444312 0.238651
0.641810 0.447089 0.229282
0.668055 0.448280 0.218082
0.695216 0.447028 0.204593
0.722683 0.442512 0.189334
0.754086 0.437537 0.171145
0.795651 0.436927 0.146975
0.834958 0.432380 0.116457
0.856199 0.444190 0.111299
0.873930 0.463386 0.118013
0.892424 0.483345 0.128878
0.911345 0.503502 0.142519
0.930205 0.523980 0.160250
0.948791 0.544488 0.181064
0.967010 0.564630 0.203983
0.984649 0.585016 0.231418
1.000000 0.605127 0.261143
1.000000 0.625055 0.294102
1.000000 0.645136 0.331731
1.000000 0.665217 0.373114
1.000000 0.685359 0.418616
0.557794 0.475013 0.315373
0.558862 0.475807 0.315953
0.610864 0.525353 0.353643
0.613245 0.525200 0.351263
0.616815 0.525383 0.348760
0.621851 0.525322 0.344549
0.629084 0.525750 0.339818
0.638849 0.526909 0.333959
0.651545 0.528893 0.327977
0.667170 0.531670 0.321233
0.685298 0.534508 0.313481
0.705409 0.537011 0.304143
0.726314 0.537865 0.292454
0.747982 0.536736 0.278935
0.769467 0.533349 0.263218
0.790890 0.527306 0.244938
0.811948 0.518242 0.225162
0.836606 0.508690 0.202090
0.869505 0.502892 0.175265
0.901183 0.494881 0.145144
0.919951 0.500084 0.138369
0.933715 0.516228 0.151858
0.948028 0.533013 0.167483
0.962310 0.549950 0.186465
0.975952 0.566552 0.206607
0.989502 0.583154 0.229007
1.000000 0.599725 0.253269
1.000000 0.616938 0.281132
1.000000 0.634821 0.313054
1.000000 0.653498 0.349950
1.000000 0.672724 0.391333
1.000000 0.692164 0.436896
0.619684 0.535760 0.364019
0.624750 0.540337 0.368048
0.630915 0.545159 0.371283
0.637354 0.549493 0.373449
0.644190 0.552941 0.373938
0.650233 0.554284 0.371374
0.656977 0.554955 0.367010
0.665156 0.555505 0.361608
0.676020 0.556756 0.355108
0.689143 0.558648 0.348730
0.705013 0.560784 0.341283
0.722683 0.562829 0.332372
0.741146 0.563622 0.322057
0.760189 0.563043 0.309514
0.779721 0.560723 0.295201
0.799496 0.556664 0.279637
0.819730 0.550134 0.261295
0.840421 0.542046 0.241947
0.865202 0.534112 0.220615
0.897429 0.529534 0.196048
0.928344 0.523400 0.169284
0.949737 0.527031 0.161532
0.962921 0.543175 0.178561
0.975982 0.559319 0.197940
0.988434 0.574914 0.217838
1.000000 0.590631 0.240330
1.000000 0.606348 0.264500
1.000000 0.622736 0.292180
1.000000 0.639948 0.324102
1.000000 0.657984 0.360815
1.000000 0.676783 0.402350
1.000000 0.696193 0.448585
0.653559 0.568688 0.394720
0.658778 0.573388 0.398962
0.664912 0.578393 0.403143
0.671778 0.582971 0.406073
0.678248 0.586481 0.407141
0.684169 0.588067 0.404974
0.690364 0.588739 0.401282
0.697658 0.589075 0.396094
0.707027 0.589960 0.390112
0.718379 0.590906 0.383185
0.731868 0.592432 0.376104
0.746883 0.593927 0.368566
0.763119 0.594415 0.358556
0.780240 0.594110 0.347356
0.797971 0.592554 0.334600
0.815976 0.589166 0.319524
0.834379 0.584375 0.303227
0.853361 0.577996 0.285588
0.873106 0.570062 0.266331
0.896788 0.562737 0.246311
0.926604 0.558190 0.223911
0.955962 0.552514 0.200320
0.978119 0.553796 0.191226
0.990051 0.569299 0.211093
1.000000 0.584161 0.231510
1.000000 0.599023 0.253696
1.000000 0.614008 0.278386
1.000000 0.629511 0.305913
1.000000 0.645960 0.337560
1.000000 0.663478 0.374701
1.000000 0.681727 0.416144
1.000000 0.700710 0.461952
0.689723 0.603876 0.430976
0.694423 0.607935 0.434913
0.700038 0.612299 0.438788
0.705867 0.616327 0.441840
0.711635 0.619165 0.442756
0.716793 0.620661 0.441474
0.722347 0.621057 0.437507
0.728908 0.621454 0.432898
0.737209 0.622004 0.427619
0.746975 0.622644 0.421241
0.758602 0.623835 0.415076
0.771725 0.624872 0.407752
0.786069 0.625147 0.398444
0.801328 0.624842 0.388525
0.817441 0.623743 0.377111
0.834226 0.621820 0.364752
0.852506 0.619226 0.351232
0.871489 0.615900 0.337133
0.891875 0.611688 0.322484
0.913298 0.606531 0.307408
0.938109 0.602075 0.291691
0.967620 0.599603 0.275395
0.995605 0.594965 0.257511
1.000000 0.594934 0.249973
1.000000 0.610376 0.275212
1.000000 0.625177 0.301091
1.000000 0.639887 0.329412
1.000000 0.654932 0.359899
1.000000 0.670985 0.395331
1.000000 0.687709 0.434333
1.000000 0.705531 0.477882
1.000000 0.723995 0.523522
0.751919 0.663172 0.500053
0.753780 0.664790 0.502068
0.755734 0.665949 0.502953
0.758053 0.666682 0.502617
0.760708 0.666926 0.500816
0.763455 0.666590 0.497871
0.767330 0.666041 0.493446
0.772549 0.665705 0.488777
0.779538 0.665766 0.483650
0.788266 0.666407 0.478401
0.798489 0.667262 0.473060
0.809934 0.667933 0.466743
0.822263 0.667994 0.458595
0.835569 0.667475 0.449500
0.849332 0.666255 0.439399
0.863951 0.664057 0.427375
0.879332 0.661097 0.414435
0.895537 0.657313 0.400610
0.912505 0.652827 0.386114
0.930205 0.647578 0.371191
0.948730 0.640833 0.354955
0.969940 0.634607 0.338598
0.994965 0.629511 0.321599
1.000000 0.622583 0.302861
1.000000 0.618647 0.291661
1.000000 0.632929 0.318151
1.000000 0.647364 0.347021
1.000000 0.662257 0.378729
1.000000 0.677821 0.413947
1.000000 0.694270 0.453346
1.000000 0.711360 0.495033
1.000000 0.729488 0.539574
0.783261 0.694575 0.542016
0.784695 0.695796 0.543328
0.786465 0.696895 0.544457
0.788510 0.697566 0.544274
0.790768 0.697902 0.543053
0.793606 0.697566 0.540215
0.797147 0.697230 0.537011
0.801816 0.697017 0.532830
0.807767 0.697078 0.528801
0.815457 0.697505 0.524132
0.824308 0.698177 0.519707
0.834501 0.698573 0.513878
0.845457 0.698695 0.507439
0.857389 0.698390 0.499702
0.869993 0.697658 0.491493
0.883330 0.696284 0.481941
0.897490 0.694362 0.471809
0.912383 0.691615 0.460334
0.927977 0.688167 0.448280
0.944335 0.683833 0.435157
0.961151 0.678676 0.421881
0.978454 0.672358 0.407721
0.998077 0.665736 0.392554
1.000000 0.660243 0.377783
1.000000 0.643610 0.342382
1.000000 0.637232 0.328954
1.000000 0.651453 0.358160
1.000000 0.666133 0.390112
1.000000 0.681422 0.425299
1.000000 0.697566 0.463874
1.000000 0.714961 0.506645
1.000000 0.733272 0.551232
0.825162 0.737606 0.602289
0.827176 0.739559 0.605097
0.828580 0.740383 0.605798
0.829343 0.740108 0.604669
0.830014 0.738888 0.601556
0.830808 0.737057 0.597131
0.831907 0.734859 0.591821
0.834165 0.732601 0.585412
0.837461 0.730617 0.579156
0.842283 0.729061 0.572808
0.848020 0.727504 0.565881
0.855528 0.726375 0.558892
0.863859 0.725063 0.551324
0.873014 0.723415 0.542840
0.882658 0.721157 0.533227
0.893217 0.718502 0.522850
0.904875 0.715541 0.511620
0.917784 0.712520 0.500450
0.931914 0.709651 0.489937
0.947204 0.706722 0.480018
0.963195 0.703151 0.469703
0.979400 0.698207 0.457801
0.995270 0.691615 0.444587
1.000000 0.684199 0.429297
1.000000 0.676844 0.412299
1.000000 0.667720 0.393225
1.000000 0.659174 0.377844
1.000000 0.671901 0.405982
1.000000 0.686152 0.439307
1.000000 0.701534 0.476478
1.000000 0.718318 0.517693
1.000000 0.736416 0.561273
0.843748 0.759060 0.634821
0.845579 0.760800 0.637110
0.846952 0.761898 0.638636
0.848295 0.762112 0.638148
0.849638 0.761868 0.636652
0.851286 0.761349 0.634516
0.853880 0.760678 0.631495
0.857206 0.760189 0.628382
0.861601 0.759884 0.624994
0.866880 0.759731 0.621485
0.872953 0.759396 0.617304
0.880095 0.758846 0.612299
0.887602 0.758145 0.606867
0.895659 0.756710 0.599939
0.904295 0.754482 0.591547
0.913390 0.751919 0.582452
0.923369 0.748959 0.572717
0.934356 0.745998 0.563165
0.946624 0.743130 0.553948
0.959899 0.740169 0.545190
0.973785 0.736904 0.536645
0.988067 0.732784 0.527459
1.000000 0.727413 0.517144
1.000000 0.720516 0.504845
1.000000 0.713008 0.491707
1.000000 0.705501 0.477150
1.000000 0.696712 0.461128
1.000000 0.688533 0.448829
1.000000 0.700282 0.478157
1.000000 0.715328 0.514366
1.000000 0.731655 0.553643
1.000000 0.749416 0.595209
0.869535 0.789792 0.682124
0.870481 0.790585 0.683253
0.871153 0.790982 0.683558
0.872038 0.790890 0.682795
0.872984 0.790463 0.681453
0.874388 0.789792 0.679194
0.876341 0.788998 0.676387
0.878965 0.788235 0.673243
0.882506 0.787533 0.669825
0.886900 0.787137 0.666621
0.891997 0.786587 0.662898
0.898100 0.786130 0.658839
0.904784 0.785336 0.654017
0.911864 0.784054 0.648432
0.919310 0.782071 0.641291
0.927306 0.779568 0.633326
0.936004 0.776822 0.625055
0.945617 0.773922 0.616632
0.956268 0.771267 0.608911
0.967773 0.768673 0.601862
0.980072 0.765713 0.594659
0.992523 0.762142 0.587488
1.000000 0.757321 0.578637
1.000000 0.751339 0.568627
1.000000 0.743893 0.556909
1.000000 0.735744 0.543572
1.000000 0.728023 0.530694
1.000000 0.718959 0.515984
1.000000 0.711025 0.505730
1.000000 0.722042 0.533898
1.000000 0.738308 0.572381
1.000000 0.755947 0.612665
0.888151 0.814450 0.721096
0.888792 0.815091 0.721920
0.889525 0.815579 0.722499
0.890501 0.815793 0.722316
0.891905 0.816037 0.722103
0.894011 0.816617 0.722072
0.897368 0.817899 0.722805
0.901579 0.819638 0.724056
0.906706 0.821836 0.725765
0.912566 0.824216 0.727749
0.919005 0.826719 0.729732
0.925689 0.828855 0.731258
0.932677 0.830381 0.731594
0.939544 0.831144 0.730831
0.946532 0.830869 0.728420
0.953429 0.829404 0.724025
0.960632 0.827237 0.718532
0.968383 0.824887 0.713039
0.976867 0.822507 0.707759
0.986053 0.820005 0.702724
0.995727 0.817288 0.697810
1.000000 0.813993 0.692592
1.000000 0.809720 0.686152
1.000000 0.804288 0.678462
1.000000 0.797726 0.669306
1.000000 0.789761 0.658534
1.000000 0.781552 0.647456
1.000000 0.773373 0.636439
1.000000 0.764431 0.624689
1.000000 0.756649 0.616815
1.000000 0.767697 0.643122
1.000000 0.785580 0.680049
0.919341 0.856840 0.786007
0.919402 0.856840 0.785946
0.919585 0.856687 0.785550
0.919890 0.856352 0.784878
0.920592 0.855985 0.783841
0.921599 0.855589 0.782681
0.923125 0.855314 0.781552
0.925322 0.855131 0.780240
0.928008 0.855192 0.779294
0.931334 0.855375 0.778378
0.935180 0.855528 0.777218
0.939574 0.855741 0.776150
0.944366 0.855711 0.774655
0.949493 0.855283 0.772457
