20 Preset/City Style/【3】LUT video cho PR-AE-FCPX/TONE 1/Colors Change Blue_Yellow City 2.cube
# Created by Adobe Lightroom plugin Export LUT (1.24.0)
# www.johnrellis.com/lightroom/exportlut.htm
# Preset: Colors Change Blue&Yellow City 2
# Color profile: E:\lut插件\exportlut.1.24\exportlut.lrplugin\color profiles\Rec709gamma2.4.icc
LUT_3D_SIZE 5
DOMAIN_MIN 0.000000 0.000000 0.000000
DOMAIN_MAX 0.903226 0.903226 0.903226
0.000000 0.065980 0.046967
0.032349 0.089998 0.061433
0.235019 0.117922 0.075563
0.586358 0.199283 0.000000
1.000000 0.542718 0.000000
0.046052 0.110811 0.090974
0.122499 0.110292 0.079316
0.298833 0.132845 0.073396
0.654627 0.275700 0.000000
1.000000 0.593225 0.000000
0.366339 0.281682 0.158816
0.404303 0.280888 0.138521
0.660243 0.312322 0.000000
0.912718 0.459236 0.000000
1.000000 0.639460 0.000000
0.811185 0.688685 0.450294
0.835355 0.692683 0.435004
0.923491 0.696956 0.364111
1.000000 0.665431 0.202945
1.000000 0.704433 0.323735
0.998871 0.929442 0.858610
1.000000 0.928588 0.855558
1.000000 0.906432 0.808255
1.000000 0.894102 0.793027
1.000000 0.848447 0.746120
0.000000 0.110109 0.125216
0.000000 0.112245 0.144259
0.237308 0.141665 0.144717
0.573816 0.235935 0.124697
0.940948 0.494575 0.000000
0.037079 0.137881 0.145815
0.078645 0.150637 0.161074
0.284642 0.183444 0.155520
0.612421 0.292088 0.116060
0.956573 0.536126 0.000000
0.336431 0.313817 0.256931
0.380133 0.316472 0.231968
0.577081 0.300084 0.145632
0.839231 0.410376 0.000000
1.000000 0.623774 0.000000
0.800381 0.690486 0.483131
0.828183 0.694881 0.463264
0.920439 0.691829 0.356298
1.000000 0.659236 0.188663
1.000000 0.700099 0.307073
0.997955 0.927794 0.855589
1.000000 0.926421 0.851438
1.000000 0.922240 0.840787
1.000000 0.904479 0.815824
1.000000 0.861204 0.774166
0.000000 0.285893 0.440040
0.000000 0.294438 0.463416
0.000000 0.285832 0.517937
0.573205 0.273228 0.543877
0.951629 0.590112 0.582971
0.126680 0.359777 0.483223
0.100099 0.364355 0.497688
0.000000 0.349981 0.549340
0.628077 0.385168 0.508171
0.961822 0.631586 0.596521
0.411994 0.509514 0.577722
0.423743 0.519799 0.586786
0.478553 0.569421 0.631586
0.751308 0.633967 0.616999
0.992676 0.723262 0.604303
0.720119 0.768399 0.789090
0.728603 0.764034 0.769131
0.823911 0.777768 0.731807
0.980682 0.744717 0.642664
1.000000 0.741909 0.553063
0.976287 0.926848 0.868772
0.983825 0.927031 0.865202
1.000000 0.920989 0.843046
1.000000 0.896971 0.797604
1.000000 0.847684 0.743557
0.292576 0.685054 0.843900
0.313359 0.694942 0.853330
0.247410 0.689479 0.866392
0.000000 0.643397 0.876677
0.532158 0.510521 0.893919
0.438209 0.717189 0.849516
0.439246 0.718990 0.852934
0.380591 0.706783 0.861326
0.169741 0.654841 0.867796
0.642573 0.554314 0.889555
0.680446 0.792813 0.859709
0.676478 0.792447 0.861448
0.667231 0.794186 0.871916
0.564569 0.747524 0.874662
0.915770 0.755215 0.891875
0.828458 0.868467 0.897795
0.826535 0.866575 0.896056
0.839628 0.875273 0.901946
0.865660 0.892943 0.914275
0.978332 0.908568 0.903105
0.951843 0.961517 0.969299
0.951934 0.961608 0.969360
0.959380 0.965332 0.966827
0.990387 0.965026 0.948028
1.000000 0.926299 0.899260
0.846525 0.929839 0.981415
0.847715 0.930266 0.981872
0.839292 0.927398 0.983948
0.812894 0.916716 0.987396
0.747585 0.886656 0.992706
0.860410 0.934447 0.980743
0.861387 0.934936 0.981262
0.855100 0.932830 0.983215
0.828305 0.921965 0.986450
0.765347 0.892668 0.991699
0.907805 0.952636 0.981079
0.907103 0.952422 0.981384
0.906920 0.952850 0.983154
0.886168 0.944244 0.985443
0.837278 0.920500 0.990173
0.965515 0.977325 0.985107
0.964569 0.977020 0.985168
0.961822 0.976562 0.986175
0.957519 0.975860 0.988617
0.931304 0.962676 0.990967
0.983856 0.988006 0.991058
0.984131 0.988159 0.991180
0.985748 0.989288 0.991943
0.988312 0.991058 0.993133
0.991211 0.992950 0.994385
