20 Preset/City Style/【3】LUT video cho PR-AE-FCPX/TONE 1/Colors Change Neon Tones Portrait.cube
# Created by Adobe Lightroom plugin Export LUT (1.24.0)
# www.johnrellis.com/lightroom/exportlut.htm
# Preset: Colors Change Neon Tones Portrait
# Color profile: E:\lut插件\exportlut.1.24\exportlut.lrplugin\color profiles\Rec709gamma2.4.icc
LUT_3D_SIZE 32
DOMAIN_MIN 0.0 0.0 0.0
DOMAIN_MAX 1.0 1.0 1.0
0.000000 0.087160 0.074861
0.000000 0.087892 0.075868
0.000000 0.087617 0.075837
0.000000 0.088289 0.076631
0.000000 0.088685 0.078401
0.006531 0.089204 0.079469
0.030610 0.089815 0.081147
0.067597 0.090303 0.083406
0.098054 0.090486 0.084810
0.123751 0.089540 0.086732
0.156313 0.084962 0.088167
0.196017 0.071015 0.088808
0.242893 0.036805 0.089937
0.296361 0.000000 0.090852
0.353918 0.000000 0.092073
0.414374 0.000000 0.093324
0.476509 0.000000 0.094850
0.539483 0.000000 0.096895
0.601709 0.000000 0.099458
0.662562 0.000000 0.102571
0.720699 0.000000 0.107454
0.785122 0.000000 0.114351
0.861875 0.000000 0.127077
0.921782 0.000000 0.141695
0.968414 0.000000 0.158785
1.000000 0.000000 0.177981
1.000000 0.000000 0.199924
1.000000 0.000000 0.224674
1.000000 0.000000 0.254551
1.000000 0.000000 0.290227
1.000000 0.187106 0.333501
1.000000 0.282567 0.385565
0.000000 0.087892 0.075868
0.000000 0.087770 0.075837
0.000000 0.088167 0.076814
0.000000 0.088746 0.077638
0.000000 0.089143 0.078309
0.003540 0.089723 0.080110
0.027619 0.090333 0.081788
0.061616 0.090547 0.083436
0.094636 0.090913 0.084840
0.119387 0.090303 0.086091
0.149935 0.087465 0.087770
0.187778 0.076967 0.088991
0.232792 0.047456 0.089723
0.284276 0.000000 0.090852
0.340337 0.000000 0.091768
0.400122 0.000000 0.093141
0.462226 0.000000 0.094514
0.524834 0.000000 0.096376
0.587243 0.000000 0.098909
0.648157 0.000000 0.102266
0.705898 0.000000 0.106600
0.769436 0.000000 0.112947
0.842985 0.000000 0.123476
0.901823 0.000000 0.136233
0.948852 0.000000 0.151247
0.987518 0.000000 0.167788
1.000000 0.000000 0.186801
1.000000 0.000000 0.209445
1.000000 0.000000 0.236881
1.000000 0.000000 0.270298
1.000000 0.120272 0.311620
1.000000 0.244755 0.361425
0.000000 0.089052 0.078553
0.000000 0.089052 0.078553
0.000000 0.089357 0.077485
0.000000 0.089998 0.078248
0.000000 0.090852 0.079347
0.002106 0.091432 0.081147
0.024170 0.092134 0.082826
0.058473 0.092348 0.083772
0.092805 0.092775 0.085176
0.116976 0.092348 0.087129
0.146731 0.089998 0.088045
0.183536 0.082338 0.089235
0.227207 0.058076 0.090028
0.277256 0.013916 0.091127
0.332464 0.000000 0.092531
0.391089 0.000000 0.093629
0.452399 0.000000 0.095003
0.515312 0.000000 0.096986
0.577722 0.000000 0.099428
0.639033 0.000000 0.102541
0.697749 0.000000 0.106752
0.763577 0.000000 0.113130
0.834195 0.000000 0.122835
0.892149 0.000000 0.135073
0.938598 0.000000 0.148409
0.977386 0.000000 0.163790
1.000000 0.000000 0.181552
1.000000 0.000000 0.203220
1.000000 0.000000 0.229343
1.000000 0.000000 0.261906
1.000000 0.086000 0.301823
1.000000 0.229313 0.350225
0.000000 0.091432 0.082918
0.000000 0.091341 0.082918
0.000000 0.091707 0.082826
0.000000 0.091890 0.080568
0.000000 0.092744 0.081697
0.001160 0.094697 0.083192
0.023560 0.095338 0.084169
0.056855 0.095949 0.085725
0.092195 0.096345 0.087160
0.116091 0.096010 0.088197
0.145724 0.093935 0.088808
0.181735 0.089662 0.089876
0.224430 0.073304 0.090700
0.272923 0.032258 0.091859
0.326146 0.000000 0.093294
0.382757 0.000000 0.094362
0.442054 0.000000 0.096193
0.502556 0.000000 0.097963
0.563653 0.000000 0.100130
0.623743 0.000000 0.103029
0.681788 0.000000 0.106813
0.749416 0.000000 0.113161
0.816342 0.000000 0.122072
0.874388 0.000000 0.132845
0.923369 0.000000 0.145296
0.965606 0.000000 0.160952
1.000000 0.000000 0.179446
1.000000 0.000000 0.201511
1.000000 0.000000 0.228000
1.000000 0.000000 0.260838
1.000000 0.111727 0.299382
1.000000 0.231022 0.344610
0.000000 0.094362 0.088655
0.000000 0.094362 0.088655
0.000000 0.094697 0.088624
0.000000 0.095369 0.087495
0.000000 0.095308 0.085237
0.009339 0.095857 0.084932
0.025605 0.098665 0.086854
0.052796 0.100557 0.088014
0.090028 0.100984 0.088472
0.113832 0.101137 0.089143
0.142153 0.100282 0.090089
0.177462 0.096864 0.090761
0.218631 0.089967 0.091890
0.266300 0.063691 0.093385
0.319127 0.007294 0.094667
0.376013 0.000000 0.095918
0.435889 0.000000 0.097993
0.497169 0.000000 0.099855
0.558312 0.000000 0.102144
0.618799 0.000000 0.105074
0.676631 0.000000 0.109163
0.747402 0.000000 0.115755
0.811307 0.000000 0.124147
0.868132 0.000000 0.134432
0.917296 0.000000 0.147219
0.960113 0.000000 0.162387
0.997864 0.000000 0.180331
1.000000 0.000000 0.202121
1.000000 0.000000 0.228672
1.000000 0.000000 0.259861
1.000000 0.146456 0.297642
1.000000 0.242924 0.341344
0.000000 0.098268 0.093111
0.000000 0.098268 0.093538
0.000000 0.098207 0.093538
0.000000 0.099275 0.092927
0.000000 0.100374 0.091005
0.015015 0.099733 0.088838
0.045258 0.100435 0.088533
0.069306 0.103853 0.089479
0.092012 0.107637 0.090700
0.115511 0.109071 0.091157
0.145083 0.108644 0.091951
0.180850 0.106661 0.093263
0.222629 0.101259 0.094118
0.270542 0.089815 0.095674
0.323613 0.048341 0.096925
0.380407 0.000000 0.098726
0.440650 0.000000 0.100557
0.502312 0.000000 0.102602
0.563897 0.000000 0.105287
0.623621 0.000000 0.108553
0.687221 0.000000 0.113375
0.756863 0.000000 0.120638
0.922667 0.000000 0.157229
0.971710 0.000000 0.179782
1.000000 0.000000 0.204379
1.000000 0.000000 0.231510
1.000000 0.112062 0.261295
1.000000 0.195926 0.292821
1.000000 0.255558 0.328832
1.000000 0.307927 0.367834
1.000000 0.356176 0.410468
1.000000 0.402289 0.456794
0.000000 0.105745 0.102937
0.000000 0.105684 0.102937
0.000000 0.106020 0.103243
0.000000 0.106966 0.102724
0.007813 0.108949 0.100557
0.029786 0.110231 0.097230
0.067231 0.109438 0.093996
0.104067 0.109377 0.092226
0.120668 0.114290 0.093416
0.142550 0.119539 0.095338
0.171389 0.124819 0.097108
0.213748 0.122988 0.097993
0.260716 0.117708 0.099214
0.312108 0.107057 0.100954
0.366735 0.087556 0.102358
0.423590 0.013581 0.104494
0.482582 0.000000 0.106264
0.542351 0.000000 0.108766
0.602197 0.000000 0.111818
0.661646 0.000000 0.115969
0.743862 0.000000 0.124392
0.820462 0.000000 0.136263
0.887816 0.000000 0.152987
0.944121 0.000000 0.174746
0.989349 0.000000 0.200046
1.000000 0.092653 0.227665
1.000000 0.174472 0.256596
1.000000 0.228183 0.287022
1.000000 0.274784 0.319921
1.000000 0.317296 0.355810
1.000000 0.359472 0.396094
1.000000 0.401221 0.440223
0.005310 0.113954 0.113588
0.005310 0.113954 0.113588
0.004700 0.113954 0.114199
0.004669 0.114534 0.114717
0.016266 0.116945 0.112154
0.037568 0.119600 0.108125
0.075227 0.120943 0.103609
0.104952 0.119356 0.099123
0.140658 0.117800 0.096498
0.162448 0.123354 0.098146
0.189609 0.129976 0.100160
0.221592 0.137667 0.103090
0.263371 0.139803 0.104524
0.313634 0.134524 0.105989
0.366705 0.124636 0.107546
0.422034 0.107912 0.109438
0.479683 0.071199 0.111604
0.537957 0.000000 0.113893
0.597009 0.000000 0.117250
0.670375 0.000000 0.122194
0.744442 0.000000 0.130831
0.814023 0.000000 0.142763
0.876860 0.000000 0.158175
0.930846 0.017365 0.179416
0.975402 0.143496 0.204166
1.000000 0.194583 0.231205
1.000000 0.236057 0.258610
1.000000 0.271824 0.287388
1.000000 0.307836 0.319951
1.000000 0.342748 0.354711
1.000000 0.378637 0.393683
1.000000 0.415290 0.436378
0.019623 0.125521 0.128847
0.019623 0.125521 0.128847
0.018921 0.125795 0.128817
0.020569 0.126253 0.129519
0.027710 0.128176 0.128450
0.052613 0.131746 0.123842
0.088991 0.134463 0.118410
0.113558 0.135409 0.112764
0.142702 0.132479 0.106722
0.188937 0.127749 0.102419
0.216342 0.134768 0.104677
0.248203 0.142977 0.107607
0.283848 0.152377 0.110079
0.322454 0.164004 0.113008
0.374212 0.161074 0.114961
0.428443 0.153902 0.116457
0.484443 0.143221 0.118227
0.541527 0.129305 0.120272
0.612268 0.118471 0.125246
0.682307 0.113863 0.131594
0.749233 0.121004 0.140475
0.812711 0.141207 0.152255
0.871397 0.170993 0.168460
0.922423 0.205142 0.190158
0.965301 0.238560 0.214817
1.000000 0.269108 0.241032
1.000000 0.296391 0.268467
1.000000 0.323278 0.297124
1.000000 0.350317 0.328649
1.000000 0.378576 0.362646
1.000000 0.408148 0.400397
1.000000 0.439216 0.441413
0.049714 0.140932 0.148623
0.050019 0.140932 0.148409
0.049714 0.140932 0.148623
0.051392 0.141329 0.149172
0.052338 0.141970 0.149722
0.081880 0.145815 0.144594
0.102541 0.149966 0.138369
0.126009 0.153079 0.131197
0.153536 0.153353 0.123720
0.187472 0.148562 0.116426
0.242985 0.139040 0.109682
0.273747 0.147585 0.112428
0.308659 0.157595 0.115206
0.346899 0.170138 0.118502
0.388006 0.185794 0.121798
0.433936 0.198978 0.124636
0.494759 0.198245 0.127321
0.564904 0.201999 0.130922
0.632288 0.207492 0.137026
0.696132 0.215091 0.144167
0.755978 0.226505 0.153750
0.812131 0.240970 0.165347
0.863432 0.258946 0.180880
0.908843 0.278965 0.200229
0.948425 0.299260 0.222538
0.982238 0.319066 0.246098
1.000000 0.339818 0.271672
1.000000 0.361151 0.299931
1.000000 0.383978 0.331060
1.000000 0.408698 0.366003
1.000000 0.435157 0.404150
1.000000 0.463691 0.446571
0.092775 0.158450 0.171054
0.092775 0.158450 0.171054
0.093019 0.158602 0.171389
0.093996 0.159121 0.172030
0.094759 0.159976 0.173098
0.103639 0.163272 0.170718
0.122438 0.168551 0.163882
0.144869 0.173861 0.156069
0.172610 0.177188 0.147768
0.205875 0.176730 0.138186
0.244175 0.169711 0.128664
0.308110 0.155154 0.119265
0.343389 0.165499 0.122072
0.380468 0.179355 0.125154
0.422126 0.197635 0.128878
0.473243 0.223209 0.134432
0.524712 0.253758 0.140597
0.583307 0.271427 0.146120
0.644068 0.280308 0.152163
0.701900 0.290288 0.159854
0.757015 0.301640 0.170047
0.808927 0.315038 0.182589
0.857145 0.330327 0.199039
0.900511 0.346197 0.218204
0.938750 0.362402 0.240421
0.971984 0.377783 0.264927
1.000000 0.393774 0.289982
1.000000 0.410376 0.317876
1.000000 0.428626 0.348821
1.000000 0.449165 0.383124
1.000000 0.471443 0.420905
1.000000 0.495949 0.461616
0.125948 0.182925 0.202090
0.126192 0.183047 0.202213
0.126802 0.183444 0.202731
0.127413 0.184176 0.203464
0.128786 0.185122 0.204685
0.132204 0.186984 0.205631
0.150179 0.194034 0.198489
0.172671 0.201114 0.190341
0.200076 0.207401 0.180270
0.232303 0.211154 0.169528
0.270695 0.209751 0.157321
0.313817 0.200290 0.145205
0.461250 0.216587 0.146944
0.520684 0.241215 0.152163
0.570459 0.275517 0.160250
0.617578 0.313664 0.170962
0.661555 0.352880 0.183963
0.702693 0.393072 0.200809
0.741512 0.432319 0.221042
0.792325 0.443275 0.236149
0.838010 0.452918 0.252964
0.878874 0.461707 0.272770
0.915343 0.470161 0.294743
0.948028 0.478676 0.317510
0.976562 0.486763 0.340887
1.000000 0.494392 0.364019
1.000000 0.501884 0.387457
1.000000 0.509850 0.411048
1.000000 0.519707 0.436744
1.000000 0.531731 0.465522
1.000000 0.546563 0.497444
1.000000 0.564721 0.532433
0.184115 0.233127 0.263096
0.183871 0.232944 0.262852
0.183658 0.232731 0.262577
0.183200 0.232364 0.262058
0.183200 0.232364 0.262058
0.183658 0.232731 0.262577
0.195865 0.238437 0.256413
0.218051 0.247166 0.244968
0.245396 0.256596 0.233066
0.285710 0.270665 0.224338
0.335210 0.283391 0.214481
0.394476 0.291051 0.203098
0.461433 0.288579 0.189944
0.551873 0.276982 0.173831
0.611353 0.300908 0.177371
0.651942 0.337957 0.189212
0.688777 0.373846 0.202548
0.722713 0.408667 0.218235
0.755184 0.443336 0.237278
0.785977 0.476020 0.258549
0.819730 0.498146 0.279942
0.859190 0.504356 0.297337
0.895201 0.510369 0.315831
0.928008 0.516808 0.336492
0.957244 0.522881 0.358007
0.983337 0.528923 0.380133
1.000000 0.535393 0.402564
1.000000 0.542504 0.426368
1.000000 0.551141 0.452399
1.000000 0.562127 0.481239
1.000000 0.575402 0.512596
1.000000 0.591241 0.546380
0.228885 0.279393 0.317510
0.228367 0.279118 0.317021
0.228000 0.278630 0.316564
0.228122 0.278721 0.316625
0.228367 0.279118 0.317021
0.229770 0.280491 0.318669
0.236332 0.285191 0.319371
0.259831 0.297795 0.309545
0.289952 0.312078 0.298863
0.326909 0.327642 0.287785
0.372290 0.343206 0.276219
0.426032 0.356146 0.262943
0.486122 0.362676 0.247257
0.549218 0.357458 0.229587
0.628840 0.343420 0.208133
0.682521 0.359747 0.207919
0.713924 0.392767 0.221225
0.742855 0.424506 0.236973
0.771023 0.455665 0.255070
0.797635 0.485237 0.275425
0.823056 0.513603 0.299260
0.847745 0.541527 0.326452
0.879789 0.552239 0.347112
0.912535 0.557488 0.366400
0.942077 0.562402 0.386206
0.968658 0.567315 0.406867
0.992401 0.572442 0.428351
1.000000 0.578119 0.450935
1.000000 0.585595 0.475898
1.000000 0.594903 0.503624
1.000000 0.606500 0.533471
1.000000 0.620752 0.566278
0.287816 0.347234 0.395056
0.287663 0.346807 0.394629
0.286442 0.345495 0.393103
0.285405 0.344152 0.391608
0.284184 0.342718 0.389960
0.283452 0.341955 0.389136
0.284428 0.343053 0.390356
0.302068 0.352911 0.382025
0.329595 0.367376 0.370153
0.363684 0.383612 0.358495
0.405158 0.400580 0.345922
0.453864 0.416938 0.333135
0.506981 0.428779 0.317876
0.562860 0.432136 0.298528
0.619715 0.423072 0.275395
0.688777 0.404974 0.248447
0.739895 0.413031 0.243137
0.765194 0.442359 0.258183
0.789334 0.470527 0.275731
0.812284 0.497353 0.295811
0.834806 0.523247 0.317876
0.856870 0.549126 0.343694
0.877775 0.574029 0.371710
0.898863 0.596155 0.400763
0.928099 0.600000 0.418708
0.954803 0.604059 0.438148
0.979217 0.608637 0.458808
1.000000 0.614374 0.481697
1.000000 0.621790 0.507134
1.000000 0.631464 0.535790
1.000000 0.643519 0.567224
1.000000 0.658137 0.601038
0.338384 0.408087 0.462867
0.338506 0.408301 0.463142
0.338384 0.408087 0.462867
0.338018 0.407660 0.462440
0.337499 0.407111 0.461799
0.338170 0.407813 0.462593
0.340368 0.410559 0.465614
0.350408 0.417975 0.465461
0.376623 0.433387 0.455299
0.408301 0.449928 0.443824
0.444465 0.466072 0.430762
0.485145 0.480201 0.415015
0.529290 0.490272 0.396368
0.575219 0.494301 0.374304
0.622889 0.490242 0.348486
0.671321 0.474952 0.318456
0.731991 0.453895 0.287083
0.782467 0.454994 0.276646
0.804135 0.481605 0.294224
0.825101 0.507195 0.314397
0.846342 0.532708 0.337072
0.867155 0.557733 0.362310
0.886839 0.582177 0.390600
0.905608 0.605890 0.420356
0.923095 0.628595 0.451392
0.944091 0.642420 0.477668
0.968780 0.646967 0.498054
0.991150 0.652277 0.520409
1.000000 0.658625 0.543755
1.000000 0.666682 0.569665
1.000000 0.676387 0.597040
1.000000 0.688441 0.626612
0.384253 0.463752 0.523156
0.384131 0.463630 0.523003
0.383948 0.463386 0.522759
0.383948 0.463386 0.522759
0.384131 0.463630 0.523003
0.384924 0.464576 0.524041
0.386999 0.467018 0.526635
0.390021 0.470680 0.530510
0.411292 0.483742 0.522637
0.438453 0.498695 0.512139
0.470466 0.513573 0.499733
0.506310 0.527245 0.485542
0.545342 0.538109 0.468757
0.586481 0.544762 0.448890
0.629450 0.545190 0.424445
0.673030 0.538415 0.396826
0.717678 0.522271 0.364813
0.772885 0.501305 0.332311
0.823026 0.496986 0.317937
0.841520 0.520714 0.337499
0.860319 0.544732 0.359899
0.879118 0.568414 0.384497
0.897154 0.591791 0.412024
0.914458 0.614740 0.441199
0.930755 0.636927 0.471656
0.945892 0.658625 0.503410
0.960082 0.679652 0.535454
0.980926 0.687495 0.558251
1.000000 0.693629 0.580865
1.000000 0.701015 0.604913
1.000000 0.710018 0.630732
1.000000 0.720912 0.658289
0.435218 0.523339 0.585290
0.436225 0.524376 0.586389
0.493141 0.584070 0.645930
0.493141 0.584070 0.645930
0.493294 0.584192 0.646082
0.493538 0.584466 0.646326
0.494423 0.585351 0.647211
0.496498 0.587366 0.649165
0.506920 0.594141 0.647242
0.530388 0.606134 0.638117
0.556847 0.618036 0.627893
0.586694 0.628809 0.615808
0.618067 0.636622 0.600397
0.651545 0.640894 0.581231
0.685451 0.640406 0.558434
0.720211 0.634455 0.531060
0.755489 0.621668 0.498604
0.791836 0.601740 0.462440
0.836149 0.576959 0.424689
0.881346 0.563684 0.401556
0.894072 0.582116 0.420050
0.907836 0.601709 0.441749
0.921477 0.621302 0.465766
0.934600 0.640345 0.490517
0.946868 0.658412 0.514855
0.958495 0.676173 0.539818
0.969512 0.693721 0.565209
0.980011 0.711543 0.592035
0.991699 0.727413 0.618769
1.000000 0.733364 0.639734
1.000000 0.741146 0.662928
1.000000 0.750729 0.687404
0.503349 0.594110 0.655726
0.508629 0.599268 0.660639
0.514427 0.604791 0.665980
0.519677 0.609827 0.670771
0.523735 0.613642 0.674403
0.525841 0.615656 0.676326
0.526879 0.616571 0.677241
0.528222 0.617853 0.678401
0.530877 0.620294 0.680781
0.549889 0.630365 0.672663
0.572595 0.640894 0.663569
0.598077 0.650813 0.652979
0.625299 0.658778 0.640009
0.654261 0.664149 0.624384
0.684169 0.665980 0.605707
0.715236 0.663996 0.583764
0.747341 0.657496 0.558740
0.781033 0.645686 0.529900
0.816068 0.628229 0.498543
0.857816 0.606592 0.466011
0.904540 0.591333 0.441138
0.917205 0.610590 0.462776
0.929839 0.629541 0.485847
0.941924 0.647913 0.509148
0.953185 0.665309 0.532128
0.963775 0.682307 0.555413
0.974029 0.699001 0.579004
0.983764 0.716274 0.604334
0.993042 0.734279 0.631525
1.000000 0.753109 0.660609
1.000000 0.766049 0.686488
1.000000 0.774990 0.709590
0.540856 0.629572 0.689448
0.546563 0.634699 0.694301
0.552728 0.640253 0.699458
0.558221 0.645228 0.704067
0.562615 0.649134 0.707668
0.564843 0.651087 0.709468
0.565972 0.652155 0.710445
0.567102 0.653132 0.711330
0.569055 0.654871 0.712947
0.579126 0.660609 0.709743
0.598108 0.669734 0.701869
0.619379 0.678523 0.692775
0.642542 0.685939 0.681819
0.667292 0.691768 0.669337
0.693416 0.695094 0.654536
0.720607 0.695369 0.636805
0.748745 0.692164 0.616541
0.778286 0.685206 0.593530
0.809537 0.673915 0.568017
0.842191 0.658015 0.540612
0.880064 0.637751 0.511406
0.927184 0.620111 0.484749
0.938750 0.638758 0.507134
0.949828 0.656489 0.529381
0.960113 0.673304 0.551049
0.969848 0.689570 0.572717
0.979034 0.705715 0.595087
0.987976 0.722133 0.618372
0.996551 0.739559 0.644038
1.000000 0.757992 0.671870
1.000000 0.777249 0.701015
1.000000 0.796750 0.729976
0.581842 0.666011 0.723110
0.586999 0.670436 0.727138
0.592309 0.675013 0.731258
0.597223 0.679194 0.735012
0.601007 0.682460 0.737911
0.603021 0.684138 0.739437
0.604211 0.685145 0.740322
0.605097 0.685878 0.740993
0.606806 0.687312 0.742275
0.610407 0.689784 0.743038
0.625879 0.697658 0.736599
0.643793 0.705440 0.729030
0.663142 0.712398 0.720150
0.684108 0.718135 0.709743
0.706538 0.722377 0.698085
0.730526 0.724605 0.684413
0.756313 0.725093 0.670100
0.783749 0.723018 0.654017
0.812650 0.718410 0.637018
0.843381 0.710475 0.618982
0.875242 0.698512 0.599817
0.910765 0.682795 0.579614
0.955200 0.666896 0.558618
0.967285 0.683650 0.580438
0.976593 0.701320 0.603540
0.984985 0.717800 0.625452
0.992737 0.733822 0.647181
0.999939 0.750118 0.669764
1.000000 0.767239 0.694148
1.000000 0.785092 0.719539
1.000000 0.803067 0.744625
1.000000 0.821286 0.769589
0.652949 0.725277 0.775509
0.654902 0.726833 0.776883
0.656458 0.728115 0.777951
0.657435 0.728908 0.778653
0.658045 0.729366 0.779049
0.657832 0.729183 0.778897
0.657740 0.729122 0.778836
0.658167 0.729458 0.779110
0.659266 0.730343 0.779873
0.661433 0.732113 0.781399
0.670985 0.737331 0.778653
0.685267 0.744076 0.773098
0.700771 0.750149 0.766415
0.717617 0.755489 0.758541
0.735683 0.759548 0.749447
0.755001 0.762112 0.738766
0.775540 0.763119 0.727169
0.797757 0.762112 0.713832
0.821286 0.759030 0.699519
0.846433 0.753262 0.683711
0.872648 0.744472 0.666712
0.900359 0.731716 0.648096
0.930907 0.714870 0.627283
0.969635 0.698268 0.606622
0.982422 0.708919 0.620417
0.989929 0.725093 0.641444
0.997040 0.741024 0.662654
1.000000 0.757229 0.684535
1.000000 0.774044 0.707790
1.000000 0.791165 0.731289
1.000000 0.808591 0.754879
1.000000 0.826017 0.778012
0.689479 0.754360 0.800320
0.690944 0.755520 0.801266
0.692348 0.756619 0.802213
0.693324 0.757382 0.802853
0.693935 0.757870 0.803250
0.694026 0.757961 0.803311
0.694118 0.758022 0.803403
0.694545 0.758389 0.803708
0.695674 0.759243 0.804440
0.697627 0.760769 0.805692
0.701808 0.763485 0.806119
0.713710 0.769467 0.801572
0.726802 0.775204 0.796231
0.740993 0.780484 0.790402
0.756466 0.784909 0.783383
0.773007 0.788388 0.775662
0.790677 0.790707 0.767025
0.809598 0.791623 0.757595
0.829831 0.790860 0.747127
0.851255 0.788113 0.735683
0.873869 0.783047 0.723201
0.897673 0.775051 0.709316
0.922484 0.763424 0.693751
0.949218 0.748226 0.676539
0.979400 0.721675 0.641077
0.993286 0.728267 0.650324
1.000000 0.744106 0.670863
1.000000 0.760159 0.692195
1.000000 0.776699 0.714382
1.000000 0.793668 0.737118
1.000000 0.811154 0.760403
1.000000 0.828641 0.783169
0.738918 0.793088 0.832639
0.741115 0.794827 0.834073
0.742245 0.795682 0.834775
0.742031 0.795560 0.834653
0.740871 0.794614 0.833890
0.739132 0.793271 0.832761
0.737148 0.791714 0.831479
0.735286 0.790249 0.830259
0.733883 0.789151 0.829374
0.733364 0.788754 0.829038
0.733120 0.788571 0.828885
0.739620 0.791714 0.825132
0.748989 0.795621 0.819791
0.759335 0.799191 0.813626
0.770626 0.802121 0.806638
0.783291 0.804471 0.798947
0.797391 0.806180 0.790585
0.813199 0.807370 0.782101
0.830747 0.807828 0.773434
0.849973 0.807340 0.764828
0.870237 0.805264 0.755703
0.891386 0.800656 0.745144
0.912902 0.792844 0.732692
0.934966 0.781125 0.717739
0.958526 0.765103 0.699702
0.989654 0.748775 0.680964
1.000000 0.751003 0.684901
1.000000 0.765621 0.703578
1.000000 0.780758 0.722957
1.000000 0.796689 0.743679
1.000000 0.813230 0.765042
1.000000 0.830350 0.786984
0.761746 0.810971 0.847410
0.763729 0.812558 0.848692
0.765011 0.813535 0.849516
0.765499 0.813962 0.849851
0.765469 0.813901 0.849790
0.765194 0.813687 0.849638
0.765103 0.813596 0.849546
0.765194 0.813687 0.849638
0.765774 0.814145 0.850004
0.766812 0.815000 0.850675
0.767941 0.815824 0.851377
0.771359 0.817899 0.850828
0.779324 0.821714 0.846769
0.788022 0.825132 0.842008
0.797238 0.827970 0.836332
0.807279 0.830228 0.830076
0.818540 0.832029 0.823301
0.831205 0.833402 0.816281
0.845518 0.834440 0.809415
0.861357 0.834836 0.802487
0.878172 0.834134 0.795499
0.895750 0.831815 0.787869
0.913939 0.827237 0.779019
0.932677 0.819944 0.768643
0.952056 0.809445 0.756527
0.972595 0.795315 0.742275
1.000000 0.781216 0.727718
1.000000 0.781216 0.729824
1.000000 0.795651 0.747463
1.000000 0.810575 0.765835
1.000000 0.826078 0.784939
1.000000 0.842008 0.804471
0.794186 0.836484 0.868345
0.795071 0.837186 0.868925
0.795651 0.837583 0.869261
0.795682 0.837644 0.869291
0.795407 0.837461 0.869139
0.795041 0.837125 0.868894
0.794736 0.836881 0.868681
0.794553 0.836759 0.868559
0.794736 0.836881 0.868681
0.795315 0.837369 0.869078
0.796139 0.838010 0.869596
0.797299 0.838926 0.870329
0.803342 0.842100 0.867582
0.810544 0.845274 0.863706
0.818173 0.847929 0.859098
0.826444 0.850095 0.853819
0.835660 0.851987 0.848264
0.846098 0.853605 0.842466
0.857969 0.855039 0.836851
0.871122 0.856077 0.831296
0.885252 0.856352 0.825742
0.900023 0.855344 0.819638
0.915282 0.852567 0.812650
0.930999 0.847776 0.804593
0.947356 0.840482 0.795041
0.964416 0.830320 0.783871
0.982452 0.817258 0.771267
1.000000 0.804135 0.758511
1.000000 0.801785 0.758206
1.000000 0.816251 0.775479
1.000000 0.831266 0.793484
1.000000 0.846860 0.812192
0.818906 0.855924 0.884245
0.819577 0.856474 0.884703
0.820157 0.856931 0.885069
0.820554 0.857267 0.885313
0.821103 0.857694 0.885679
0.822019 0.858396 0.886259
0.823941 0.859922 0.887480
0.826383 0.861845 0.889067
0.829557 0.864378 0.891081
0.833127 0.867185 0.893400
0.837034 0.870268 0.895903
0.840818 0.873259 0.898314
0.846128 0.876890 0.899260
0.853422 0.881071 0.897856
0.860441 0.884520 0.895781
0.867155 0.887053 0.892699
0.874144 0.889036 0.889158
0.881865 0.890776 0.885313
0.890562 0.892332 0.881590
0.900145 0.893584 0.877836
0.910430 0.894347 0.874083
0.921263 0.894255 0.869932
0.932494 0.892821 0.865049
0.944091 0.890043 0.859495
0.956207 0.885557 0.852903
0.969055 0.879118 0.845212
0.982696 0.870665 0.836576
0.997345 0.859770 0.826749
1.000000 0.848966 0.817380
1.000000 0.845090 0.815640
1.000000 0.858335 0.830503
1.000000 0.872007 0.846006
0.861540 0.889708 0.911650
0.861631 0.889708 0.911650
0.861509 0.889647 0.911589
0.861357 0.889494 0.911467
0.861112 0.889342 0.911345
0.861021 0.889250 0.911284
0.861143 0.889372 0.911376
0.861540 0.889677 0.911620
0.862272 0.890257 0.912108
0.863340 0.891081 0.912779
0.864591 0.892119 0.913573
0.866056 0.893278 0.914519
0.867613 0.894499 0.915526
