20 Preset/City Style/【3】LUT video cho PR-AE-FCPX/TONE 1/Colors Change LookUp.cube
# Created by Adobe Lightroom plugin Export LUT (1.24.0)
# www.johnrellis.com/lightroom/exportlut.htm
# Preset: Colors Change LookUp
# Color profile: E:\lut插件\exportlut.1.24\exportlut.lrplugin\color profiles\Rec709gamma2.4.icc
LUT_3D_SIZE 32
DOMAIN_MIN 0.0 0.0 0.0
DOMAIN_MAX 1.0 1.0 1.0
0.124636 0.124636 0.124636
0.124941 0.124849 0.124575
0.130526 0.125551 0.124361
0.140475 0.126955 0.123964
0.145266 0.128115 0.124208
0.134646 0.127108 0.125429
0.121584 0.126192 0.127108
0.120333 0.126802 0.128389
0.130220 0.129580 0.129122
0.149935 0.133577 0.129671
0.176333 0.139223 0.129671
0.209232 0.146456 0.129213
0.248356 0.154604 0.127413
0.293645 0.163729 0.124453
0.344030 0.173037 0.119814
0.399939 0.182040 0.112978
0.462745 0.190463 0.102266
0.533898 0.198062 0.083558
0.628260 0.204685 0.011109
0.776791 0.215885 0.000000
0.901335 0.238956 0.000000
0.993622 0.276493 0.000000
1.000000 0.319158 0.000000
1.000000 0.359808 0.000000
1.000000 0.395087 0.000000
1.000000 0.425269 0.000000
1.000000 0.451301 0.000000
1.000000 0.473152 0.000000
1.000000 0.491615 0.000000
1.000000 0.507073 0.000000
1.000000 0.519585 0.000000
1.000000 0.529625 0.000000
0.124941 0.124849 0.124575
0.125399 0.124819 0.124575
0.131106 0.126009 0.124300
0.140566 0.127443 0.123873
0.145266 0.128115 0.124208
0.134920 0.127352 0.125399
0.122072 0.126131 0.127108
0.119326 0.126925 0.128389
0.128908 0.128969 0.129213
0.146548 0.132815 0.129580
0.171206 0.138155 0.129976
0.202518 0.145083 0.129183
0.239841 0.153048 0.127840
0.283421 0.162051 0.125154
0.332097 0.171328 0.120912
0.386206 0.180392 0.114595
0.447456 0.188998 0.105104
0.516228 0.196811 0.090211
0.607477 0.203799 0.029084
0.746151 0.213504 0.000000
0.867338 0.231327 0.000000
0.961700 0.261692 0.000000
1.000000 0.299443 0.000000
1.000000 0.338476 0.000000
1.000000 0.374090 0.000000
1.000000 0.406195 0.000000
1.000000 0.434913 0.000000
1.000000 0.459724 0.000000
1.000000 0.481086 0.000000
1.000000 0.498878 0.000000
1.000000 0.513451 0.000000
1.000000 0.524895 0.000000
0.129641 0.125643 0.124392
0.131106 0.126009 0.124300
0.135683 0.127291 0.124025
0.142702 0.129000 0.123873
0.143618 0.129122 0.124392
0.132784 0.127321 0.125948
0.121004 0.126253 0.127382
0.119753 0.126864 0.128634
0.128206 0.129274 0.129458
0.145724 0.132906 0.129854
0.169772 0.138155 0.130007
0.199802 0.144900 0.129549
0.235966 0.152834 0.128054
0.277928 0.161715 0.125551
0.325231 0.170840 0.121553
0.378180 0.180087 0.115511
0.437720 0.188998 0.106508
0.505425 0.196994 0.092500
0.596521 0.204532 0.036316
0.728450 0.213718 0.000000
0.848386 0.229679 0.000000
0.943999 0.257053 0.000000
1.000000 0.291814 0.000000
1.000000 0.329656 0.000000
1.000000 0.365057 0.000000
1.000000 0.397070 0.000000
1.000000 0.426856 0.000000
1.000000 0.453254 0.000000
1.000000 0.475898 0.000000
1.000000 0.495064 0.000000
1.000000 0.510521 0.000000
1.000000 0.522759 0.000000
0.139773 0.127565 0.123873
0.140291 0.128023 0.123812
0.142855 0.128725 0.123934
0.144839 0.129732 0.123995
0.139345 0.129122 0.125307
0.128145 0.127047 0.126894
0.119265 0.126406 0.128176
0.120241 0.127321 0.129091
0.130282 0.129793 0.129854
0.147219 0.133913 0.130190
0.170718 0.139162 0.130098
0.199832 0.145968 0.129641
0.234928 0.153658 0.128206
0.275395 0.162509 0.125551
0.320836 0.171542 0.121736
0.371099 0.180697 0.116060
0.427741 0.189700 0.107668
0.491676 0.197848 0.094942
0.580621 0.206180 0.045777
0.698207 0.214725 0.000000
0.810330 0.227024 0.000000
0.906065 0.248295 0.000000
0.981811 0.278264 0.000000
1.000000 0.314763 0.000000
1.000000 0.352209 0.000000
1.000000 0.388251 0.000000
1.000000 0.421698 0.000000
1.000000 0.450721 0.000000
1.000000 0.475227 0.000000
1.000000 0.495064 0.000000
1.000000 0.510460 0.000000
1.000000 0.522393 0.000000
0.145235 0.128908 0.124117
0.145113 0.129183 0.124086
0.144259 0.129274 0.124361
0.140627 0.128969 0.125032
0.132357 0.127871 0.126406
0.122469 0.126589 0.127840
0.118441 0.126467 0.129244
0.121431 0.127932 0.130007
0.131533 0.130892 0.130434
0.148409 0.134737 0.130800
0.170626 0.140291 0.130678
0.198703 0.147036 0.129763
0.232120 0.154818 0.128420
0.271427 0.163760 0.125795
0.315892 0.173007 0.122042
0.366003 0.182559 0.116091
0.422522 0.191958 0.107698
0.486824 0.200595 0.094820
0.579034 0.209842 0.042664
0.689967 0.218936 0.000000
0.797818 0.231174 0.000000
0.891997 0.250553 0.000000
0.969207 0.278477 0.000000
1.000000 0.313817 0.000000
1.000000 0.351720 0.000000
1.000000 0.388220 0.000000
1.000000 0.421851 0.000000
1.000000 0.451270 0.000000
1.000000 0.475685 0.000000
1.000000 0.495430 0.000000
1.000000 0.511040 0.000000
1.000000 0.522972 0.000000
0.139437 0.128359 0.125154
0.139040 0.128389 0.125154
0.136782 0.128145 0.125490
0.131838 0.127413 0.126223
0.124300 0.126680 0.127535
0.119112 0.126406 0.128725
0.119509 0.127352 0.129854
0.125521 0.129549 0.130739
0.137240 0.132937 0.131289
0.154208 0.137514 0.131289
0.176638 0.143404 0.131044
0.204746 0.150362 0.130007
0.238102 0.158480 0.128237
0.277165 0.167697 0.125216
0.321630 0.177523 0.120882
0.372045 0.187289 0.114565
0.429267 0.196902 0.105531
0.494606 0.206027 0.090639
0.595239 0.216800 0.021668
0.704005 0.226810 0.000000
0.809171 0.240635 0.000000
0.901030 0.261723 0.000000
1.000000 0.396643 0.000000
1.000000 0.431952 0.000000
1.000000 0.460365 0.000000
1.000000 0.482643 0.000000
1.000000 0.500481 0.000000
1.000000 0.514519 0.000000
1.000000 0.525933 0.000000
1.000000 0.534844 0.000000
1.000000 0.541863 0.000000
1.000000 0.547143 0.000000
0.123568 0.126497 0.127321
0.123568 0.126497 0.127321
0.121736 0.126436 0.127626
0.119753 0.126345 0.128176
0.118837 0.126680 0.128939
0.121187 0.127718 0.129793
0.129702 0.130343 0.130800
0.143343 0.134615 0.131441
0.158938 0.139406 0.131624
0.179355 0.145602 0.131136
0.204685 0.153628 0.130220
0.237339 0.162234 0.128115
0.274662 0.171572 0.125093
0.317052 0.181247 0.120638
0.364385 0.191104 0.114565
0.417029 0.200839 0.105898
0.477455 0.210239 0.092287
0.558556 0.220432 0.042542
0.679591 0.233799 0.000000
0.801053 0.250858 0.000000
0.910948 0.278111 0.000000
1.000000 0.318608 0.000000
1.000000 0.366217 0.000000
1.000000 0.411688 0.000000
1.000000 0.449195 0.000000
1.000000 0.477272 0.000000
1.000000 0.497749 0.000000
1.000000 0.513085 0.000000
1.000000 0.525353 0.000000
1.000000 0.534600 0.000000
1.000000 0.541924 0.000000
1.000000 0.547662 0.000000
0.118685 0.126467 0.128450
0.118685 0.126467 0.128450
0.119112 0.126406 0.128725
0.119600 0.126864 0.129152
0.121584 0.127962 0.129488
0.127077 0.129397 0.130220
0.136965 0.132265 0.130892
0.152285 0.136812 0.131167
0.172396 0.142916 0.131258
0.192691 0.149264 0.130617
0.217960 0.157046 0.129641
0.248051 0.166537 0.127291
0.282841 0.177188 0.123903
0.323278 0.187533 0.119142
0.368933 0.197391 0.112642
0.420081 0.207218 0.102937
0.478737 0.216770 0.088685
0.572351 0.230014 0.018585
0.681086 0.243473 0.000000
0.792081 0.260349 0.000000
0.895537 0.285832 0.000000
0.984680 0.322484 0.000000
1.000000 0.366857 0.000000
1.000000 0.410925 0.000000
1.000000 0.448554 0.000000
1.000000 0.477394 0.000000
1.000000 0.498634 0.000000
1.000000 0.514733 0.000000
1.000000 0.527489 0.000000
1.000000 0.537346 0.000000
1.000000 0.544915 0.000000
1.000000 0.550530 0.000000
0.122835 0.128084 0.129458
0.122835 0.128084 0.129458
0.123873 0.128481 0.129641
0.126162 0.129000 0.129763
0.130282 0.130282 0.130282
0.137453 0.132204 0.130648
0.148074 0.135256 0.130983
0.163485 0.139712 0.131228
0.184451 0.145907 0.130922
0.210636 0.154025 0.129946
0.236301 0.162051 0.128176
0.266636 0.171206 0.125612
0.301335 0.181643 0.121950
0.340215 0.193057 0.116274
0.383581 0.205264 0.108583
0.433234 0.216342 0.097444
0.502892 0.228641 0.065156
0.596735 0.242710 0.000000
0.697383 0.256748 0.000000
0.800290 0.274693 0.000000
0.897093 0.300298 0.000000
0.981170 0.335424 0.000000
1.000000 0.377203 0.000000
1.000000 0.418982 0.000000
1.000000 0.455299 0.000000
1.000000 0.483497 0.000000
1.000000 0.504631 0.000000
1.000000 0.520653 0.000000
1.000000 0.533318 0.000000
1.000000 0.542809 0.000000
1.000000 0.550164 0.000000
1.000000 0.555505 0.000000
0.135042 0.131258 0.130068
0.135042 0.131258 0.130068
0.136355 0.131594 0.130251
0.139284 0.132479 0.130312
0.144381 0.133791 0.130526
0.151827 0.135958 0.130800
0.162753 0.138918 0.130861
0.178012 0.143435 0.130739
0.197696 0.149294 0.130190
0.223178 0.157076 0.129152
0.254398 0.166537 0.126955
0.284092 0.175418 0.123934
0.318608 0.185580 0.119722
0.357549 0.196719 0.113954
0.402228 0.208743 0.104799
0.457527 0.222782 0.089967
0.538720 0.241672 0.022309
0.629358 0.258488 0.000000
0.727108 0.274510 0.000000
0.823239 0.294652 0.000000
0.910094 0.320836 0.000000
0.983612 0.352758 0.000000
1.000000 0.388769 0.000000
1.000000 0.424720 0.000000
1.000000 0.457038 0.000000
1.000000 0.483711 0.000000
1.000000 0.505608 0.000000
1.000000 0.522820 0.000000
1.000000 0.536584 0.000000
1.000000 0.547234 0.000000
1.000000 0.555108 0.000000
1.000000 0.560906 0.000000
0.151583 0.135286 0.130404
0.151827 0.135500 0.130373
0.153658 0.135714 0.130526
0.156710 0.136721 0.130556
0.162478 0.138247 0.130709
0.170718 0.140719 0.130617
0.182071 0.143893 0.130556
0.197604 0.148470 0.130068
0.217288 0.154238 0.129397
0.242496 0.161807 0.127687
0.273106 0.170871 0.125338
0.309819 0.181735 0.121065
0.344732 0.191470 0.116304
0.384314 0.202365 0.109438
0.433906 0.215152 0.097841
0.503899 0.231632 0.060609
0.582238 0.248875 0.000000
0.667170 0.268162 0.000000
0.754604 0.291539 0.000000
0.840970 0.314885 0.000000
0.919921 0.341039 0.000000
0.987549 0.371740 0.000000
1.000000 0.405859 0.000000
1.000000 0.439612 0.000000
1.000000 0.470100 0.000000
1.000000 0.495583 0.000000
1.000000 0.516258 0.000000
1.000000 0.532799 0.000000
1.000000 0.545800 0.000000
1.000000 0.555962 0.000000
1.000000 0.563317 0.000000
1.000000 0.568597 0.000000
0.175692 0.141573 0.130343
0.176272 0.141482 0.130343
0.178195 0.142092 0.130190
0.181704 0.143099 0.130190
0.187869 0.144747 0.130251
0.196414 0.147402 0.130037
0.208499 0.150973 0.129519
0.224613 0.155459 0.128878
0.245029 0.161471 0.127626
0.270115 0.168887 0.125643
0.300999 0.177523 0.122377
0.337713 0.187869 0.117891
0.444129 0.213779 0.096742
0.512566 0.229252 0.058747
0.605493 0.248539 0.000000
0.702449 0.270420 0.000000
0.795621 0.296971 0.000000
0.878264 0.329717 0.000000
0.948425 0.367529 0.000000
1.000000 0.408606 0.000000
1.000000 0.450019 0.000000
1.000000 0.479469 0.000000
1.000000 0.504784 0.000000
1.000000 0.526482 0.000000
1.000000 0.543603 0.000000
1.000000 0.556298 0.000000
1.000000 0.565637 0.000000
1.000000 0.572473 0.000000
1.000000 0.577508 0.000000
1.000000 0.581445 0.000000
1.000000 0.584222 0.000000
1.000000 0.586206 0.000000
0.223270 0.153323 0.128786
0.223423 0.153506 0.128756
0.224857 0.153841 0.128634
0.228092 0.155001 0.128542
0.233768 0.156466 0.128298
0.242222 0.159030 0.127687
0.254459 0.162509 0.126955
0.270848 0.167147 0.125673
0.292576 0.173342 0.123598
0.320378 0.180911 0.120455
0.355413 0.190311 0.115663
0.399054 0.201328 0.108034
0.471565 0.218082 0.089509
0.565942 0.237430 0.011688
0.658106 0.256382 0.000000
0.746212 0.277897 0.000000
0.826596 0.303838 0.000000
0.896330 0.333989 0.000000
0.956542 0.368444 0.000000
1.000000 0.405341 0.000000
1.000000 0.442908 0.000000
1.000000 0.480018 0.000000
1.000000 0.512261 0.000000
1.000000 0.533318 0.000000
1.000000 0.550286 0.000000
1.000000 0.563531 0.000000
1.000000 0.573327 0.000000
1.000000 0.580652 0.000000
1.000000 0.586145 0.000000
1.000000 0.590204 0.000000
1.000000 0.592828 0.000000
1.000000 0.594568 0.000000
0.258061 0.161929 0.126619
0.258061 0.161929 0.126619
0.259190 0.162448 0.126467
0.262242 0.163241 0.126406
0.267369 0.164675 0.125826
0.275608 0.167178 0.125154
0.287266 0.170443 0.124269
0.303593 0.174746 0.122530
0.324681 0.180636 0.120180
0.352117 0.187747 0.116365
0.392187 0.197787 0.109651
0.452216 0.211337 0.096407
0.526574 0.226902 0.054566
0.614435 0.244022 0.000000
0.709102 0.264256 0.000000
0.790524 0.286778 0.000000
0.859251 0.312230 0.000000
0.918975 0.341344 0.000000
0.971252 0.373816 0.000000
1.000000 0.408087 0.000000
1.000000 0.443397 0.000000
1.000000 0.478798 0.000000
1.000000 0.512444 0.000000
1.000000 0.543877 0.000000
1.000000 0.563226 0.000000
1.000000 0.575738 0.000000
1.000000 0.585138 0.000000
1.000000 0.591852 0.000000
1.000000 0.597009 0.000000
1.000000 0.600610 0.000000
1.000000 0.602899 0.000000
1.000000 0.604150 0.000000
0.299260 0.171756 0.123232
0.299626 0.171817 0.123171
0.300755 0.172061 0.123049
0.303380 0.172793 0.122713
0.308293 0.174258 0.122316
0.316045 0.176486 0.121553
0.327642 0.179538 0.119936
0.344030 0.183780 0.117830
0.372290 0.190799 0.113863
0.408301 0.199252 0.107546
0.454841 0.209567 0.096681
0.513817 0.221500 0.070314
0.586023 0.235172 0.000916
0.667689 0.251255 0.000000
0.753536 0.271397 0.000000
0.832395 0.296391 0.000000
0.895872 0.323735 0.000000
0.947051 0.352361 0.000000
0.991516 0.383551 0.000000
1.000000 0.415747 0.000000
1.000000 0.448920 0.000000
1.000000 0.482307 0.000000
1.000000 0.514153 0.000000
1.000000 0.543969 0.000000
1.000000 0.570489 0.000000
1.000000 0.589746 0.000000
1.000000 0.598535 0.000000
1.000000 0.605249 0.000000
1.000000 0.610071 0.000000
1.000000 0.613611 0.000000
1.000000 0.615717 0.000000
1.000000 0.616632 0.000000
0.351049 0.182773 0.117464
0.351812 0.183047 0.117311
0.354162 0.183627 0.116945
0.359289 0.184817 0.116457
0.367193 0.186862 0.115145
0.379492 0.189609 0.113466
0.396735 0.193698 0.110353
0.419959 0.198947 0.106142
0.450233 0.205447 0.099458
0.488075 0.213260 0.088808
0.534630 0.222263 0.055634
0.590753 0.232578 0.002228
0.654902 0.244785 0.000000
0.724208 0.259861 0.000000
0.793942 0.278965 0.000000
0.859373 0.302495 0.000000
0.919066 0.330938 0.000000
0.967864 0.361059 0.000000
1.000000 0.391119 0.000000
1.000000 0.422522 0.000000
1.000000 0.455238 0.000000
1.000000 0.487861 0.000000
1.000000 0.518914 0.000000
1.000000 0.547997 0.000000
1.000000 0.573877 0.000000
1.000000 0.596612 0.000000
1.000000 0.615564 0.000000
1.000000 0.621180 0.000000
1.000000 0.624811 0.000000
1.000000 0.627008 0.000000
1.000000 0.627924 0.000000
1.000000 0.627893 0.000000
0.423774 0.196597 0.106050
0.424231 0.196719 0.105959
0.426642 0.197360 0.105409
0.431495 0.198428 0.104402
0.439643 0.200137 0.102968
0.451850 0.202701 0.100191
0.468971 0.206271 0.095918
0.492042 0.210910 0.089052
0.521660 0.216617 0.071748
0.558618 0.223301 0.038880
0.603998 0.231388 0.000000
0.656733 0.241215 0.000000
0.716213 0.253788 0.000000
0.778103 0.269474 0.000000
0.838712 0.289250 0.000000
0.895201 0.313115 0.000000
0.946014 0.341070 0.000000
0.991577 0.372625 0.000000
1.000000 0.404456 0.000000
1.000000 0.434363 0.000000
1.000000 0.465400 0.000000
1.000000 0.496254 0.000000
1.000000 0.525872 0.000000
1.000000 0.553491 0.000000
1.000000 0.578119 0.000000
1.000000 0.599847 0.000000
1.000000 0.618921 0.000000
1.000000 0.635431 0.000000
1.000000 0.639826 0.000000
1.000000 0.641108 0.000000
1.000000 0.641077 0.000000
1.000000 0.640314 0.000000
0.508568 0.209842 0.084749
0.510369 0.210178 0.083864
0.595361 0.220768 0.016602
0.601648 0.221927 0.009430
0.612024 0.223636 0.000000
0.626123 0.226169 0.000000
0.645991 0.229862 0.000000
0.672145 0.234684 0.000000
0.705562 0.241276 0.000000
0.746151 0.250004 0.000000
0.791531 0.261784 0.000000
0.839384 0.277195 0.000000
0.886229 0.295872 0.000000
0.930571 0.318303 0.000000
0.970367 0.343511 0.000000
1.000000 0.370306 0.000000
1.000000 0.397498 0.000000
1.000000 0.425086 0.000000
1.000000 0.452705 0.000000
1.000000 0.479408 0.000000
1.000000 0.503685 0.000000
1.000000 0.528740 0.000000
1.000000 0.552483 0.000000
1.000000 0.574060 0.000000
1.000000 0.593164 0.000000
1.000000 0.610193 0.000000
1.000000 0.625544 0.000000
1.000000 0.639429 0.000000
1.000000 0.652186 0.000000
1.000000 0.655116 0.000000
1.000000 0.654170 0.000000
1.000000 0.652583 0.000000
0.630701 0.224613 0.000000
0.640375 0.225711 0.000000
0.652827 0.227481 0.000000
0.667170 0.229709 0.000000
0.683284 0.232242 0.000000
0.698909 0.235203 0.000000
0.717159 0.239078 0.000000
0.739223 0.244114 0.000000
0.767208 0.250858 0.000000
0.800351 0.260014 0.000000
0.837858 0.272038 0.000000
0.877531 0.287419 0.000000
0.916655 0.305974 0.000000
0.954070 0.327459 0.000000
0.988556 0.351629 0.000000
1.000000 0.377417 0.000000
1.000000 0.403906 0.000000
1.000000 0.430884 0.000000
1.000000 0.458381 0.000000
1.000000 0.485389 0.000000
1.000000 0.511254 0.000000
1.000000 0.535210 0.000000
1.000000 0.557610 0.000000
1.000000 0.577966 0.000000
1.000000 0.595819 0.000000
1.000000 0.611994 0.000000
1.000000 0.626429 0.000000
1.000000 0.639704 0.000000
1.000000 0.652033 0.000000
1.000000 0.663447 0.000000
1.000000 0.665583 0.000000
1.000000 0.663630 0.000000
0.710750 0.234684 0.000000
0.721981 0.236210 0.000000
0.735561 0.238499 0.000000
0.750668 0.241215 0.000000
0.766415 0.244388 0.000000
0.781064 0.248173 0.000000
0.796994 0.252750 0.000000
0.815579 0.258488 0.000000
0.838315 0.266087 0.000000
0.864988 0.276188 0.000000
0.895293 0.289158 0.000000
0.927306 0.305425 0.000000
0.959136 0.324315 0.000000
0.989899 0.345983 0.000000
1.000000 0.369635 0.000000
1.000000 0.394202 0.000000
1.000000 0.419440 0.000000
1.000000 0.444678 0.000000
1.000000 0.469947 0.000000
1.000000 0.495155 0.000000
1.000000 0.519280 0.000000
1.000000 0.542473 0.000000
1.000000 0.563622 0.000000
1.000000 0.582635 0.000000
1.000000 0.599420 0.000000
1.000000 0.614466 0.000000
1.000000 0.628077 0.000000
1.000000 0.640650 0.000000
1.000000 0.652491 0.000000
1.000000 0.663478 0.000000
1.000000 0.673701 0.000000
1.000000 0.674525 0.000000
0.796139 0.248875 0.000000
0.805997 0.250828 0.000000
0.818265 0.253605 0.000000
0.831357 0.257176 0.000000
0.844755 0.261173 0.000000
0.857237 0.265690 0.000000
0.870512 0.270909 0.000000
0.885893 0.277745 0.000000
0.904784 0.286564 0.000000
0.926177 0.297642 0.000000
0.950347 0.311620 0.000000
0.975830 0.328344 0.000000
1.000000 0.347570 0.000000
1.000000 0.368780 0.000000
1.000000 0.391547 0.000000
1.000000 0.415473 0.000000
1.000000 0.440650 0.000000
1.000000 0.466133 0.000000
1.000000 0.491920 0.000000
1.000000 0.517296 0.000000
1.000000 0.541375 0.000000
1.000000 0.563348 0.000000
1.000000 0.582849 0.000000
1.000000 0.600305 0.000000
1.000000 0.615595 0.000000
1.000000 0.628809 0.000000
1.000000 0.640681 0.000000
1.000000 0.651575 0.000000
1.000000 0.661799 0.000000
1.000000 0.671534 0.000000
1.000000 0.680842 0.000000
1.000000 0.689998 0.000000
0.933593 0.289738 0.000000
0.937530 0.291325 0.000000
0.941772 0.293462 0.000000
0.946593 0.296361 0.000000
0.952300 0.299962 0.000000
0.958526 0.304021 0.000000
0.966674 0.309789 0.000000
0.977356 0.317510 0.000000
0.990692 0.327550 0.000000
1.000000 0.340337 0.000000
1.000000 0.355779 0.000000
1.000000 0.373144 0.000000
1.000000 0.391943 0.000000
1.000000 0.411994 0.000000
1.000000 0.432776 0.000000
1.000000 0.454017 0.000000
1.000000 0.475288 0.000000
1.000000 0.496620 0.000000
1.000000 0.517418 0.000000
1.000000 0.537591 0.000000
1.000000 0.556603 0.000000
1.000000 0.574243 0.000000
1.000000 0.590204 0.000000
1.000000 0.604456 0.000000
1.000000 0.618128 0.000000
1.000000 0.630640 0.000000
1.000000 0.642084 0.000000
1.000000 0.652613 0.000000
1.000000 0.662470 0.000000
1.000000 0.671901 0.000000
1.000000 0.680964 0.000000
1.000000 0.690028 0.000000
0.999634 0.324498 0.000000
1.000000 0.326452 0.000000
1.000000 0.328740 0.000000
1.000000 0.331792 0.000000
1.000000 0.335607 0.000000
1.000000 0.340276 0.000000
1.000000 0.346227 0.000000
1.000000 0.354040 0.000000
1.000000 0.364202 0.000000
1.000000 0.376562 0.000000
1.000000 0.391150 0.000000
1.000000 0.407324 0.000000
1.000000 0.424720 0.000000
1.000000 0.443122 0.000000
1.000000 0.462135 0.000000
1.000000 0.481331 0.000000
1.000000 0.500664 0.000000
1.000000 0.519554 0.000000
1.000000 0.537896 0.000000
1.000000 0.555291 0.000000
1.000000 0.571771 0.000000
1.000000 0.587030 0.000000
1.000000 0.600916 0.000000
1.000000 0.613550 0.000000
1.000000 0.618921 0.000000
1.000000 0.630518 0.000000
1.000000 0.641627 0.000000
1.000000 0.652003 0.000000
1.000000 0.661738 0.000000
1.000000 0.671077 0.000000
1.000000 0.680232 0.000000
1.000000 0.689509 0.000000
1.000000 0.383886 0.000000
1.000000 0.387091 0.000000
1.000000 0.389258 0.000000
1.000000 0.390936 0.000000
1.000000 0.392462 0.000000
1.000000 0.394507 0.000000
1.000000 0.397406 0.000000
1.000000 0.401892 0.000000
1.000000 0.408240 0.000000
1.000000 0.416907 0.000000
1.000000 0.427100 0.000000
1.000000 0.439429 0.000000
1.000000 0.453010 0.000000
1.000000 0.467414 0.000000
1.000000 0.481849 0.000000
1.000000 0.497047 0.000000
1.000000 0.512505 0.000000
1.000000 0.528679 0.000000
1.000000 0.544976 0.000000
1.000000 0.561334 0.000000
1.000000 0.576928 0.000000
1.000000 0.591089 0.000000
1.000000 0.603693 0.000000
1.000000 0.614893 0.000000
1.000000 0.624720 0.000000
1.000000 0.633600 0.000000
1.000000 0.643000 0.000000
1.000000 0.652461 0.000000
1.000000 0.661616 0.000000
1.000000 0.670558 0.000000
1.000000 0.679469 0.000000
1.000000 0.688655 0.000000
1.000000 0.415534 0.000000
1.000000 0.418189 0.000000
1.000000 0.420874 0.000000
1.000000 0.423163 0.000000
1.000000 0.425757 0.000000
1.000000 0.429053 0.000000
1.000000 0.433783 0.000000
1.000000 0.439918 0.000000
1.000000 0.447669 0.000000
1.000000 0.457008 0.000000
1.000000 0.467323 0.000000
1.000000 0.478645 0.000000
1.000000 0.490608 0.000000
1.000000 0.502708 0.000000
1.000000 0.514885 0.000000
1.000000 0.527062 0.000000
1.000000 0.539483 0.000000
1.000000 0.552270 0.000000
1.000000 0.565454 0.000000
1.000000 0.578668 0.000000
1.000000 0.591424 0.000000
1.000000 0.603388 0.000000
1.000000 0.614252 0.000000
1.000000 0.624170 0.000000
1.000000 0.633082 0.000000
1.000000 0.641138 0.000000
1.000000 0.648646 0.000000
1.000000 0.656672 0.000000
1.000000 0.665278 0.000000
1.000000 0.673793 0.000000
1.000000 0.682521 0.000000
1.000000 0.691737 0.000000
1.000000 0.460456 0.000000
1.000000 0.461860 0.000000
1.000000 0.463050 0.000000
1.000000 0.464698 0.000000
1.000000 0.466651 0.000000
1.000000 0.469154 0.000000
1.000000 0.472755 0.000000
1.000000 0.477607 0.000000
1.000000 0.483711 0.000000
1.000000 0.491005 0.000000
1.000000 0.499489 0.000000
1.000000 0.508782 0.000000
1.000000 0.518730 0.000000
1.000000 0.528801 0.000000
1.000000 0.538720 0.000000
1.000000 0.548669 0.000000
1.000000 0.558862 0.000000
1.000000 0.569482 0.000000
1.000000 0.580377 0.000000
1.000000 0.591485 0.000000
1.000000 0.602197 0.000000
1.000000 0.612421 0.000000
1.000000 0.621820 0.000000
1.000000 0.630396 0.000000
1.000000 0.638270 0.000000
1.000000 0.645502 0.000000
1.000000 0.652338 0.000000
1.000000 0.658747 0.000000
1.000000 0.666011 0.000000
1.000000 0.674372 0.000000
1.000000 0.683101 0.000000
1.000000 0.692622 0.000000
1.000000 0.494087 0.000000
1.000000 0.495033 0.000000
1.000000 0.496407 0.000000
1.000000 0.498085 0.000000
1.000000 0.500572 0.000000
1.000000 0.504173 0.000000
1.000000 0.509667 0.000000
1.000000 0.516442 0.000000
1.000000 0.524590 0.000000
1.000000 0.533532 0.000000
1.000000 0.543114 0.000000
1.000000 0.552758 0.000000
1.000000 0.562066 0.000000
1.000000 0.571008 0.000000
1.000000 0.579400 0.000000
1.000000 0.587030 0.000000
1.000000 0.594537 0.000000
1.000000 0.602197 0.000000
1.000000 0.609918 0.000000
1.000000 0.617823 0.000000
1.000000 0.625574 0.000000
1.000000 0.633112 0.000000
1.000000 0.640131 0.000000
1.000000 0.646815 0.000000
1.000000 0.653162 0.000000
1.000000 0.659266 0.000000
1.000000 0.665126 0.000000
1.000000 0.670954 0.000000
1.000000 0.676722 0.000000
1.000000 0.683619 0.000000
1.000000 0.692775 0.000000
1.000000 0.703243 0.000000
1.000000 0.545068 0.000000
1.000000 0.545220 0.000000
1.000000 0.545556 0.000000
1.000000 0.546075 0.000000
1.000000 0.547173 0.000000
1.000000 0.548913 0.000000
1.000000 0.551354 0.000000
1.000000 0.554711 0.000000
1.000000 0.558831 0.000000
1.000000 0.563531 0.000000
1.000000 0.569024 0.000000
1.000000 0.574914 0.000000
1.000000 0.581170 0.000000
1.000000 0.587488 0.000000
