20 Preset/City Style/【3】LUT video cho PR-AE-FCPX/TONE 1/Colors Change Taxi_ Reflection.cube
# Created by Adobe Lightroom plugin Export LUT (1.24.0)
# www.johnrellis.com/lightroom/exportlut.htm
# Preset: Colors Change Taxi, Reflection
# Color profile: E:\lut插件\exportlut.1.24\exportlut.lrplugin\color profiles\Rec709gamma2.4.icc
LUT_3D_SIZE 32
DOMAIN_MIN 0.0 0.0 0.0
DOMAIN_MAX 1.0 1.0 1.0
0.109010 0.117922 0.116487
0.108461 0.117983 0.116487
0.108064 0.117739 0.116518
0.107179 0.117525 0.116274
0.107485 0.117220 0.115999
0.111360 0.117128 0.115633
0.120699 0.117281 0.115145
0.136141 0.117922 0.114687
0.158694 0.118532 0.113985
0.187198 0.119692 0.113130
0.221653 0.120882 0.112337
0.262181 0.121462 0.111177
0.308049 0.121096 0.109773
0.358984 0.119753 0.108522
0.413275 0.117250 0.107240
0.469978 0.113436 0.106142
0.528740 0.108339 0.106020
0.588922 0.103487 0.106874
0.649775 0.099214 0.108980
0.710628 0.098085 0.113222
0.768185 0.105379 0.120089
0.829618 0.124422 0.132815
0.898039 0.163973 0.157046
0.946807 0.205509 0.184360
0.982391 0.245365 0.212863
1.000000 0.282719 0.241428
1.000000 0.319585 0.271153
1.000000 0.356542 0.302281
1.000000 0.395270 0.336461
1.000000 0.436774 0.374640
1.000000 0.481849 0.417700
1.000000 0.530480 0.466346
0.108644 0.117678 0.116518
0.108644 0.117678 0.116518
0.108064 0.117739 0.116518
0.107179 0.117525 0.116274
0.107271 0.117525 0.115969
0.111360 0.117128 0.115633
0.119692 0.117403 0.115145
0.134585 0.117861 0.114748
0.155367 0.118776 0.114046
0.182528 0.119814 0.113283
0.215579 0.121065 0.112306
0.254185 0.121523 0.111360
0.298222 0.121736 0.110140
0.347723 0.120699 0.108858
0.400610 0.118624 0.107271
0.456703 0.114900 0.106569
0.515007 0.110811 0.106111
0.574762 0.106020 0.106477
0.635615 0.101045 0.108156
0.696193 0.099397 0.112032
0.753689 0.104311 0.118257
0.815579 0.120027 0.129122
0.882628 0.154360 0.149996
0.931487 0.191775 0.174258
0.968017 0.228397 0.199954
0.996490 0.263828 0.226017
1.000000 0.299077 0.253941
1.000000 0.335271 0.283543
1.000000 0.373449 0.316472
1.000000 0.414801 0.353552
1.000000 0.459998 0.396063
1.000000 0.508843 0.444007
0.108461 0.117433 0.115938
0.108461 0.117433 0.115938
0.107881 0.117159 0.116609
0.107393 0.117220 0.116304
0.107851 0.117464 0.115969
0.112093 0.117647 0.115541
0.120851 0.117830 0.115053
0.134981 0.118654 0.114626
0.155337 0.119661 0.113924
0.181674 0.120851 0.113191
0.213626 0.122072 0.112245
0.251225 0.122988 0.110964
0.293980 0.123384 0.109895
0.341863 0.122988 0.108400
0.393744 0.121370 0.106996
0.448829 0.118502 0.105837
0.506432 0.114809 0.105318
0.566064 0.110842 0.105562
0.626520 0.106569 0.107179
0.687465 0.105165 0.110353
0.745785 0.108949 0.116518
0.810788 0.123598 0.127291
0.875883 0.153964 0.146548
0.924163 0.188632 0.169375
0.960693 0.222812 0.193179
0.989502 0.255711 0.217746
1.000000 0.289891 0.244572
1.000000 0.325139 0.273381
1.000000 0.362860 0.305425
1.000000 0.403876 0.342107
1.000000 0.448463 0.383734
1.000000 0.496895 0.430945
0.107881 0.116915 0.115419
0.107881 0.116915 0.115419
0.107790 0.116915 0.115724
0.107607 0.116915 0.116335
0.108827 0.117678 0.115908
0.114229 0.118257 0.115419
0.123873 0.118929 0.114839
0.138521 0.120180 0.114321
0.158724 0.121645 0.113527
0.184298 0.123079 0.112734
0.215549 0.124361 0.111452
0.251957 0.125734 0.110506
0.293248 0.126864 0.109071
0.339483 0.126772 0.107668
0.389349 0.126009 0.106081
0.442176 0.124269 0.104860
0.497658 0.121767 0.104067
0.554803 0.118624 0.104250
0.613581 0.115846 0.105104
0.672999 0.114595 0.107820
0.730648 0.116915 0.112459
0.798978 0.128878 0.122652
0.861753 0.153323 0.139376
0.910735 0.183383 0.159915
0.949706 0.215610 0.183078
0.981476 0.249271 0.208316
1.000000 0.284398 0.236088
1.000000 0.320745 0.266148
1.000000 0.359167 0.299199
1.000000 0.400122 0.335973
1.000000 0.443427 0.376593
1.000000 0.489265 0.421332
0.107881 0.116915 0.115419
0.107881 0.116915 0.115419
0.107881 0.116915 0.115419
0.109010 0.117678 0.115297
0.111208 0.118868 0.115694
0.115877 0.120394 0.115084
0.127443 0.121889 0.114626
0.142061 0.123049 0.113802
0.161868 0.124697 0.112978
0.186526 0.126436 0.111788
0.216037 0.128481 0.110750
0.250980 0.130190 0.109499
0.290990 0.131777 0.108064
0.335851 0.132662 0.106294
0.384894 0.132692 0.104738
0.437720 0.132265 0.102998
0.493416 0.130831 0.102052
0.551049 0.129152 0.101381
0.609949 0.127352 0.101869
0.669154 0.127016 0.104433
0.726558 0.129641 0.109010
0.799191 0.141817 0.119142
0.858671 0.162905 0.134768
0.906767 0.189731 0.155032
0.945953 0.219547 0.177646
0.978332 0.251286 0.202579
1.000000 0.284855 0.229984
1.000000 0.319585 0.259556
1.000000 0.356603 0.291997
1.000000 0.395880 0.327642
1.000000 0.437598 0.367193
1.000000 0.482002 0.410681
0.109834 0.118410 0.116091
0.109834 0.118410 0.116091
0.109377 0.118166 0.116426
0.110201 0.118654 0.116030
0.115908 0.122072 0.114534
0.120607 0.125124 0.114290
0.129885 0.128023 0.113649
0.148318 0.130098 0.112520
0.170748 0.130526 0.111696
0.195315 0.132876 0.110323
0.224735 0.135164 0.109163
0.259220 0.137423 0.107301
0.298924 0.139651 0.105592
0.343420 0.141207 0.103883
0.392370 0.142245 0.101839
0.444648 0.143038 0.099702
0.500328 0.142855 0.098268
0.558099 0.142580 0.097017
0.616938 0.142489 0.097780
0.675563 0.143282 0.099397
0.741115 0.148592 0.104768
0.810910 0.161654 0.116030
0.951965 0.241123 0.175662
0.989166 0.278752 0.209598
1.000000 0.315160 0.242741
1.000000 0.350744 0.275792
1.000000 0.385840 0.309575
1.000000 0.420813 0.343725
1.000000 0.457069 0.379919
1.000000 0.494484 0.418189
1.000000 0.533135 0.458595
1.000000 0.572381 0.500847
0.115938 0.123842 0.119020
0.115846 0.123842 0.119295
0.115358 0.123598 0.119936
0.114199 0.122591 0.121248
0.122316 0.127230 0.116640
0.139528 0.138216 0.111635
0.147951 0.142702 0.110231
0.162722 0.148074 0.108705
0.191592 0.150210 0.107088
0.226505 0.150790 0.105196
0.260014 0.151064 0.104097
0.298741 0.153872 0.101747
0.341436 0.156435 0.099123
0.388037 0.158419 0.096620
0.437568 0.159945 0.093843
0.489418 0.160983 0.091279
0.543877 0.161685 0.089509
0.600061 0.162844 0.088258
0.657832 0.164370 0.089021
0.717586 0.168124 0.092073
0.802213 0.182620 0.102693
0.871733 0.205386 0.123690
0.927153 0.235508 0.152285
0.970947 0.270176 0.185519
1.000000 0.306310 0.220462
1.000000 0.341375 0.254887
1.000000 0.374823 0.288334
1.000000 0.407385 0.321324
1.000000 0.441199 0.355718
1.000000 0.476051 0.392065
1.000000 0.512902 0.431067
1.000000 0.551080 0.472450
0.124941 0.131807 0.124117
0.124483 0.131868 0.124147
0.124300 0.131106 0.125063
0.122774 0.129946 0.126833
0.125399 0.131228 0.125551
0.142733 0.141848 0.116121
0.168673 0.158572 0.106783
0.176638 0.162325 0.104891
0.193210 0.169528 0.102266
0.227787 0.171939 0.099702
0.267918 0.172641 0.097383
0.310979 0.170443 0.095705
0.350530 0.172183 0.093111
0.395361 0.174716 0.089754
0.442908 0.176913 0.085756
0.492653 0.178592 0.080720
0.545190 0.180331 0.075166
0.599786 0.182345 0.069642
0.656336 0.184787 0.069368
0.734768 0.193301 0.072450
0.807645 0.206241 0.090120
0.869993 0.225040 0.110933
0.921782 0.249577 0.138674
0.963958 0.278477 0.170962
0.997162 0.309758 0.204623
1.000000 0.340459 0.237797
1.000000 0.370550 0.269871
1.000000 0.400732 0.302190
1.000000 0.432593 0.336187
1.000000 0.465705 0.371801
1.000000 0.501030 0.410193
1.000000 0.538079 0.450996
0.138766 0.144045 0.132662
0.138827 0.143832 0.132937
0.137850 0.143252 0.133761
0.136233 0.142031 0.135683
0.133059 0.139986 0.139101
0.147860 0.148104 0.129305
0.173404 0.163851 0.114046
0.207156 0.186160 0.098360
0.212772 0.188022 0.095827
0.230747 0.197696 0.090608
0.271489 0.200290 0.085176
0.316930 0.201236 0.079683
0.366400 0.199283 0.073060
0.410193 0.195895 0.071687
0.456458 0.198306 0.062226
0.504631 0.200473 0.052064
0.555749 0.202609 0.043030
0.610681 0.205325 0.036255
0.684047 0.212955 0.025147
0.753719 0.221836 0.028565
0.817746 0.233585 0.053040
0.873533 0.249332 0.094697
0.921416 0.269657 0.124422
0.961395 0.293767 0.156924
0.993591 0.320165 0.190524
1.000000 0.346990 0.223239
1.000000 0.373877 0.255009
1.000000 0.401617 0.287266
1.000000 0.431128 0.320806
1.000000 0.462226 0.355871
1.000000 0.495583 0.393652
1.000000 0.530999 0.433967
0.157748 0.160830 0.145235
0.157595 0.160464 0.145510
0.156344 0.159640 0.146304
0.154788 0.158236 0.148470
0.151644 0.155550 0.151827
0.153201 0.156588 0.151064
0.179294 0.171786 0.131777
0.211826 0.192416 0.109712
0.250431 0.218326 0.082734
0.253758 0.218021 0.077302
0.272038 0.228000 0.055818
0.316289 0.232364 0.039124
0.365484 0.233036 0.027527
0.418097 0.231174 0.018952
0.473762 0.226352 0.013062
0.518090 0.225254 0.012207
0.580499 0.231632 0.000000
0.647669 0.238590 0.000000
0.713405 0.245914 0.000000
0.775296 0.254154 0.000000
0.830716 0.264073 0.000000
0.878477 0.275792 0.050080
0.919921 0.290623 0.102937
0.955444 0.308110 0.136629
0.985168 0.327825 0.168338
1.000000 0.348821 0.199069
1.000000 0.372045 0.230503
1.000000 0.396918 0.262486
1.000000 0.424475 0.296422
1.000000 0.454688 0.332555
1.000000 0.487434 0.371405
1.000000 0.522881 0.413367
0.178470 0.179294 0.159762
0.178225 0.179171 0.160006
0.177676 0.178378 0.161074
0.175845 0.176883 0.163577
0.173068 0.174594 0.167269
0.168032 0.171786 0.172671
0.187167 0.182315 0.158877
0.219974 0.202670 0.133486
0.259251 0.228489 0.100771
0.299413 0.255741 0.031464
0.303899 0.255558 0.015869
0.321996 0.265141 0.000000
0.369970 0.272251 0.000000
0.423224 0.272465 0.000000
0.489204 0.274998 0.000000
0.557336 0.273777 0.000000
0.617182 0.268620 0.000000
0.677119 0.274510 0.000000
0.735134 0.280339 0.000000
0.789822 0.286748 0.000000
0.838926 0.294163 0.000000
0.882292 0.303288 0.000000
0.920928 0.314885 0.052033
0.954559 0.328740 0.112734
0.983368 0.344915 0.148806
1.000000 0.362829 0.181643
1.000000 0.382666 0.213596
1.000000 0.404791 0.246403
1.000000 0.429664 0.280705
1.000000 0.457588 0.317021
1.000000 0.488411 0.356115
1.000000 0.521843 0.397955
0.206119 0.204349 0.179995
0.206119 0.204227 0.180331
0.205356 0.203586 0.181582
0.203861 0.202213 0.184054
0.201205 0.199924 0.187991
0.197086 0.196841 0.193759
0.198001 0.197421 0.195102
0.232578 0.218051 0.168185
0.272953 0.244022 0.133242
0.319524 0.275517 0.074556
0.359716 0.302464 0.000000
0.372259 0.307866 0.000000
0.464515 0.373938 0.000000
0.534813 0.391577 0.000000
0.608850 0.392279 0.000000
0.680446 0.388281 0.000000
0.746670 0.379797 0.000000
0.806119 0.367376 0.000000
0.847288 0.362310 0.000000
0.887358 0.366033 0.000000
0.922301 0.371313 0.000000
0.952789 0.378424 0.000000
0.979400 0.387762 0.094423
1.000000 0.399268 0.143038
1.000000 0.412665 0.182132
1.000000 0.427253 0.216983
1.000000 0.443275 0.249454
1.000000 0.460975 0.281224
1.000000 0.480964 0.313664
1.000000 0.503929 0.348241
1.000000 0.529870 0.385168
1.000000 0.559319 0.425544
0.256748 0.250706 0.217838
0.256291 0.250340 0.218021
0.255039 0.248936 0.218784
0.252537 0.246311 0.220981
0.248417 0.242710 0.224491
0.242741 0.238193 0.229618
0.235996 0.234195 0.238376
0.262791 0.250767 0.222904
0.311803 0.282353 0.186709
0.369451 0.321965 0.132570
0.436927 0.369909 0.000000
0.491310 0.407782 0.000000
0.511711 0.417945 0.000000
0.542168 0.435401 0.000000
0.611292 0.456031 0.000000
0.680842 0.451606 0.000000
0.743374 0.442176 0.000000
0.798062 0.428779 0.000000
0.846372 0.413031 0.000000
0.882628 0.395666 0.000000
0.914977 0.396948 0.000000
0.944244 0.400519 0.000000
0.970459 0.405951 0.000000
0.993988 0.413733 0.089052
1.000000 0.423377 0.141848
1.000000 0.435004 0.182406
1.000000 0.448432 0.217929
1.000000 0.463966 0.252140
1.000000 0.482216 0.286687
1.000000 0.503777 0.323064
1.000000 0.528161 0.361089
1.000000 0.556023 0.402533
0.310246 0.300237 0.258885
0.309422 0.299535 0.258854
0.307286 0.297490 0.259434
0.304875 0.294835 0.261662
0.301030 0.291142 0.265263
0.295232 0.286351 0.271122
0.288457 0.281468 0.279545
0.287449 0.281346 0.284245
0.337163 0.311650 0.247074
0.393683 0.349279 0.198337
0.457954 0.394415 0.119326
0.530327 0.446448 0.000000
0.577722 0.478584 0.000000
0.594720 0.485542 0.000000
0.616266 0.495308 0.000000
0.674891 0.513817 0.000000
0.735256 0.502708 0.000000
0.788022 0.487953 0.000000
0.835050 0.471412 0.000000
0.876493 0.453681 0.000000
0.913664 0.436164 0.000000
0.939940 0.427253 0.000000
0.965728 0.429847 0.000000
0.989258 0.434791 0.000000
1.000000 0.441535 0.088624
1.000000 0.450263 0.145266
1.000000 0.461036 0.187564
1.000000 0.473884 0.224765
1.000000 0.489815 0.261692
1.000000 0.508934 0.299657
1.000000 0.531334 0.339025
1.000000 0.557397 0.381598
0.367407 0.353979 0.303990
0.366705 0.353307 0.304112
0.364416 0.351019 0.304234
0.360632 0.347112 0.305364
0.355016 0.341833 0.307897
0.348028 0.335515 0.312200
0.340307 0.329137 0.319402
0.330571 0.322881 0.329747
0.358465 0.339940 0.311040
0.414221 0.375830 0.266331
0.477150 0.418769 0.204929
0.545922 0.467567 0.084321
0.617304 0.518944 0.000000
0.653315 0.541924 0.000000
0.665400 0.544457 0.000000
0.677607 0.546471 0.000000
0.725856 0.563714 0.000000
0.778164 0.547448 0.000000
0.824521 0.529534 0.000000
0.865568 0.510765 0.000000
0.902647 0.492409 0.000000
0.936461 0.475166 0.000000
0.964538 0.459022 0.000000
0.985870 0.458900 0.000000
1.000000 0.462745 0.000000
1.000000 0.468879 0.088991
1.000000 0.477241 0.149966
1.000000 0.488502 0.196139
1.000000 0.503044 0.238041
1.000000 0.521447 0.280613
1.000000 0.543816 0.324804
1.000000 0.570123 0.372015
0.417487 0.401495 0.344793
0.417548 0.401556 0.345251
0.416022 0.400092 0.346044
0.413367 0.397345 0.348119
0.409461 0.393072 0.351263
0.404211 0.388342 0.356725
0.398413 0.383551 0.365026
0.390845 0.378515 0.376501
0.387335 0.377325 0.385901
0.444282 0.412757 0.343908
0.504784 0.452613 0.289372
0.568383 0.496101 0.211460
0.631678 0.540124 0.000000
0.691371 0.581903 0.000000
0.711788 0.591852 0.000000
0.717006 0.588495 0.000000
0.722377 0.584741 0.000000
0.761715 0.601984 0.000000
0.808988 0.583459 0.000000
0.851438 0.564446 0.000000
0.890105 0.546044 0.000000
0.925292 0.528405 0.000000
0.956939 0.511925 0.000000
0.985657 0.496590 0.000000
1.000000 0.488563 0.000000
1.000000 0.492775 0.000000
1.000000 0.499397 0.102052
1.000000 0.508507 0.165286
1.000000 0.520684 0.213993
1.000000 0.536248 0.259464
1.000000 0.555138 0.304753
1.000000 0.577935 0.351995
0.464240 0.446662 0.383520
0.464088 0.446357 0.383795
0.462867 0.445075 0.384833
0.460822 0.442817 0.386816
0.457618 0.439429 0.390417
0.453407 0.435248 0.395972
0.448219 0.430762 0.403754
0.441566 0.425879 0.414466
0.432715 0.420722 0.427802
0.459602 0.437812 0.411780
0.518303 0.475288 0.363348
0.578790 0.515373 0.300542
0.639002 0.556359 0.209720
0.695644 0.594995 0.000000
0.745785 0.628931 0.000000
0.757137 0.631373 0.000000
0.760922 0.626825 0.000000
0.764858 0.621851 0.000000
0.796139 0.639277 0.000000
0.839200 0.619257 0.000000
0.878660 0.599878 0.000000
0.914580 0.581476 0.000000
0.946990 0.564111 0.000000
0.976532 0.548058 0.000000
1.000000 0.533410 0.000000
1.000000 0.520592 0.000000
1.000000 0.522789 0.000000
1.000000 0.530053 0.119783
1.000000 0.540337 0.184207
1.000000 0.553704 0.236393
1.000000 0.570581 0.285588
1.000000 0.591180 0.335546
0.517357 0.498177 0.429206
0.518029 0.498726 0.430243
0.576104 0.555596 0.484718
0.574365 0.553613 0.486915
0.571283 0.550439 0.490333
0.566979 0.545922 0.495064
0.561303 0.540490 0.501884
0.554192 0.534752 0.511070
0.545647 0.528954 0.523125
0.537713 0.524712 0.535271
0.594171 0.559777 0.490791
0.650202 0.595117 0.434119
0.702510 0.627771 0.359411
0.749722 0.656703 0.255497
0.791073 0.681209 0.000000
0.826566 0.701930 0.000000
0.829099 0.696315 0.000000
0.829801 0.688655 0.000000
0.830594 0.680720 0.000000
0.851438 0.691432 0.000000
0.886259 0.670497 0.000000
0.919921 0.648554 0.000000
0.950530 0.628199 0.000000
0.978241 0.609369 0.000000
1.000000 0.591669 0.000000
1.000000 0.575860 0.000000
1.000000 0.561913 0.000000
1.000000 0.555657 0.000000
1.000000 0.562463 0.145602
1.000000 0.572778 0.207919
1.000000 0.586908 0.262150
1.000000 0.604547 0.314580
0.585290 0.564752 0.490730
0.590387 0.569757 0.495949
0.595148 0.574426 0.502190
0.598657 0.577691 0.508934
0.599939 0.578759 0.515709
0.598016 0.576562 0.521569
0.593469 0.572259 0.527916
0.587304 0.566735 0.535607
0.579797 0.561120 0.545739
0.569970 0.555047 0.558038
0.591455 0.568719 0.544427
0.643793 0.601068 0.497261
0.693568 0.631647 0.436225
0.739193 0.659083 0.357946
0.780575 0.683192 0.247807
0.817197 0.703975 0.000000
0.847227 0.720302 0.000000
0.849149 0.714595 0.000000
0.851530 0.708675 0.000000
0.854307 0.702815 0.000000
0.873198 0.712154 0.000000
0.905303 0.697230 0.000000
0.937377 0.676173 0.000000
0.966308 0.656245 0.000000
0.992248 0.637568 0.000000
1.000000 0.620417 0.000000
1.000000 0.605310 0.000000
1.000000 0.592432 0.000000
1.000000 0.582544 0.000000
1.000000 0.588159 0.157198
1.000000 0.599695 0.223667
1.000000 0.614832 0.281712
0.619654 0.598871 0.523552
0.624659 0.603845 0.529046
0.629511 0.608576 0.535576
0.633265 0.612177 0.542382
0.634974 0.613672 0.548882
0.633661 0.612238 0.554467
0.630152 0.608606 0.560174
0.624964 0.603906 0.566796
0.618524 0.598810 0.575372
0.610224 0.593072 0.585626
0.599664 0.586999 0.597833
0.646967 0.615930 0.559197
0.693019 0.643732 0.509361
0.736660 0.669398 0.446174
0.776913 0.692409 0.364416
0.813321 0.712306 0.249302
0.845701 0.729488 0.000000
0.869657 0.741054 0.000000
0.872251 0.736049 0.000000
0.875364 0.731044 0.000000
0.878752 0.725948 0.000000
0.895354 0.733486 0.000000
0.923796 0.723110 0.000000
0.954101 0.702510 0.000000
0.981140 0.682918 0.000000
1.000000 0.664698 0.000000
1.000000 0.648280 0.000000
1.000000 0.634058 0.000000
1.000000 0.622736 0.000000
1.000000 0.614374 0.000000
1.000000 0.614313 0.164889
1.000000 0.626825 0.242222
0.654566 0.633875 0.559564
0.658747 0.638056 0.564416
0.662745 0.641932 0.570062
0.665675 0.644892 0.576043
0.667109 0.646082 0.581781
0.666041 0.644923 0.586664
0.663416 0.642176 0.591669
0.659236 0.638331 0.597467
0.654139 0.634058 0.604974
0.647486 0.629175 0.613703
0.639216 0.623987 0.624170
0.653590 0.633143 0.614832
0.695735 0.658350 0.574426
0.736263 0.682033 0.523430
0.774716 0.703639 0.458869
0.810788 0.723171 0.374823
0.844297 0.740688 0.257694
0.874632 0.756283 0.000000
0.895598 0.765682 0.000000
0.900786 0.763363 0.000000
0.906645 0.761013 0.000000
0.912718 0.758602 0.000000
0.928161 0.765164 0.000000
0.953918 0.759335 0.000000
0.982727 0.740200 0.000000
1.000000 0.721920 0.000000
1.000000 0.705379 0.000000
1.000000 0.690974 0.000000
1.000000 0.679408 0.000000
1.000000 0.670802 0.000000
1.000000 0.665248 0.048676
1.000000 0.662776 0.200870
0.711086 0.691402 0.624292
0.712428 0.692897 0.626215
0.713222 0.693629 0.628229
0.713222 0.693446 0.630304
0.712215 0.692287 0.632532
0.710109 0.689967 0.634882
0.707118 0.687007 0.637995
0.703609 0.683558 0.642329
0.699458 0.679988 0.648066
0.694636 0.676326 0.655451
0.688685 0.672358 0.664088
0.680873 0.667872 0.673671
0.713771 0.687953 0.645869
0.749264 0.708644 0.607263
0.783780 0.727657 0.556786
0.817166 0.744839 0.491341
0.848814 0.760189 0.406165
0.878477 0.773831 0.287572
0.905608 0.785824 0.000000
0.922118 0.791196 0.000000
0.926604 0.788174 0.000000
0.931456 0.785031 0.000000
0.936248 0.781460 0.000000
0.948394 0.785000 0.000000
0.970184 0.781613 0.000000
0.997284 0.762875 0.000000
1.000000 0.745571 0.000000
1.000000 0.730251 0.000000
1.000000 0.717342 0.000000
1.000000 0.706996 0.000000
1.000000 0.699428 0.000000
1.000000 0.694636 0.098543
0.738186 0.719387 0.656306
0.739223 0.720455 0.657832
0.739925 0.721126 0.659510
0.739986 0.721126 0.661402
0.739315 0.720302 0.663386
0.737697 0.718624 0.665522
0.735409 0.716182 0.668269
0.732631 0.713466 0.671931
0.729519 0.710658 0.676783
0.725704 0.707668 0.683040
0.721157 0.704463 0.690211
0.715236 0.700893 0.698390
0.723873 0.706508 0.693202
0.755337 0.725429 0.664179
0.786435 0.743221 0.626856
0.817105 0.759487 0.578332
0.847440 0.774350 0.514031
0.876799 0.787564 0.429450
0.904845 0.799313 0.310704
0.930724 0.809689 0.000000
0.944732 0.813138 0.000000
0.949828 0.810666 0.000000
0.955047 0.807950 0.000000
0.960235 0.804807 0.000000
0.963470 0.799863 0.000000
0.982544 0.799619 0.000000
1.000000 0.781888 0.000000
1.000000 0.765713 0.000000
1.000000 0.751583 0.000000
1.000000 0.739742 0.000000
1.000000 0.730617 0.000000
1.000000 0.724117 0.000000
0.774166 0.756924 0.700160
0.775723 0.758602 0.702388
0.776242 0.759121 0.703700
0.775540 0.758328 0.704250
0.773831 0.756435 0.704341
0.771267 0.753628 0.704402
0.767971 0.750118 0.704616
0.764096 0.746212 0.705623
0.759823 0.742092 0.707607
0.755276 0.737942 0.710903
0.749844 0.733455 0.714931
0.743893 0.729030 0.720363
0.736477 0.724147 0.726436
0.759121 0.737514 0.705348
0.785611 0.752377 0.674678
0.812467 0.766506 0.635645
0.839719 0.779782 0.584894
0.867460 0.792264 0.518608
0.895171 0.803952 0.431617
0.922210 0.814786 0.309850
0.947448 0.824582 0.000000
0.959228 0.826688 0.000000
0.964233 0.824308 0.000000
0.968872 0.821134 0.000000
0.972961 0.817136 0.000000
0.981415 0.817411 0.000000
0.997528 0.819394 0.000000
1.000000 0.801816 0.000000
1.000000 0.786069 0.000000
1.000000 0.772519 0.000000
1.000000 0.761379 0.000000
1.000000 0.752834 0.000000
0.790372 0.773953 0.719692
0.791745 0.775418 0.721614
0.792508 0.776150 0.723140
0.792294 0.775998 0.724178
0.791531 0.775082 0.725093
0.790311 0.773709 0.726223
0.788724 0.772030 0.727871
0.786801 0.770016 0.730282
0.784634 0.768002 0.733455
0.782071 0.765805 0.737453
0.778805 0.763210 0.741970
0.774807 0.760342 0.747158
0.769467 0.756802 0.752682
0.773526 0.759152 0.749172
0.796475 0.772396 0.725826
0.819577 0.784909 0.696742
0.843320 0.796872 0.659693
0.867857 0.808286 0.612116
0.893645 0.819242 0.548699
0.920043 0.829526 0.462898
0.946166 0.838804 0.340673
0.970611 0.846860 0.000000
0.980224 0.847379 0.000000
0.985443 0.845121 0.000000
0.990478 0.842191 0.000000
0.995117 0.838712 0.000000
1.000000 0.838560 0.000000
1.000000 0.843198 0.000000
1.000000 0.826719 0.000000
1.000000 0.811978 0.000000
1.000000 0.799405 0.000000
1.000000 0.789334 0.000000
0.813626 0.798550 0.748409
0.814298 0.799222 0.749325
0.814450 0.799374 0.750027
0.814145 0.799008 0.750607
0.813352 0.798093 0.751217
0.812100 0.796811 0.751949
0.810605 0.795193 0.753140
0.808865 0.793362 0.754849
0.806851 0.791440 0.757259
0.804654 0.789456 0.760433
0.801877 0.787167 0.764126
0.798703 0.784787 0.768521
0.794614 0.782010 0.773251
0.789273 0.778561 0.778195
0.804929 0.787747 0.763546
0.825376 0.799191 0.740841
0.846250 0.810208 0.712886
0.868101 0.820951 0.677577
0.891142 0.831449 0.632380
0.915526 0.841459 0.571832
0.940917 0.850584 0.486793
0.966247 0.858488 0.362310
0.989929 0.864958 0.076844
0.997375 0.864073 0.000000
1.000000 0.861540 0.000000
1.000000 0.858427 0.000000
1.000000 0.854978 0.000000
1.000000 0.854002 0.000000
1.000000 0.859464 0.000000
1.000000 0.845396 0.000000
1.000000 0.831907 0.000000
1.000000 0.820371 0.000000
0.831632 0.817655 0.770291
0.832151 0.818173 0.771023
0.832486 0.818448 0.771786
0.832425 0.818387 0.772610
0.832303 0.818204 0.773770
0.832212 0.818112 0.775601
0.832670 0.818540 0.778653
0.833219 0.819211 0.782559
0.833951 0.820096 0.787381
0.834684 0.821134 0.792905
0.835233 0.822171 0.798947
0.835172 0.822812 0.805142
0.834318 0.822965 0.811337
0.832242 0.822324 0.817227
0.835386 0.824765 0.817166
0.852628 0.835080 0.801846
0.869932 0.844846 0.783047
0.887968 0.854337 0.759915
0.906859 0.863645 0.731350
0.926879 0.872587 0.694453
0.948150 0.880919 0.644617
0.971221 0.888121 0.571374
0.995941 0.893797 0.455726
1.000000 0.897917 0.251591
1.000000 0.895811 0.107057
1.000000 0.893034 0.000000
1.000000 0.889830 0.000000
1.000000 0.886290 0.000000
1.000000 0.884581 0.000000
1.000000 0.888701 0.000000
1.000000 0.877775 0.000000
1.000000 0.864530 0.000000
0.865110 0.853147 0.811246
0.865110 0.853147 0.811337
0.864897 0.852903 0.811398
0.864500 0.852445 0.811521
0.863890 0.851774 0.811887
0.863218 0.851011 0.812528
0.862486 0.850187 0.813657
0.861753 0.849424 0.815305
0.860990 0.848692 0.817594
0.860105 0.847990 0.820371
0.859068 0.847196 0.823667
0.857786 0.846372 0.827420
0.855955 0.845274 0.831418
