20 Preset/City Style/【3】LUT video cho PR-AE-FCPX/TONE 1/Colors Change Blue_Yellow City.cube
# Created by Adobe Lightroom plugin Export LUT (1.24.0)
# www.johnrellis.com/lightroom/exportlut.htm
# Preset: Colors Change Blue&Yellow City
# Color profile: E:\lut插件\exportlut.1.24\exportlut.lrplugin\color profiles\Rec709gamma2.4.icc
LUT_3D_SIZE 5
DOMAIN_MIN 0.000000 0.000000 0.000000
DOMAIN_MAX 0.903226 0.903226 0.903226
0.000000 0.104799 0.101991
0.030701 0.109407 0.102876
0.154635 0.128695 0.102937
0.408698 0.173037 0.069947
0.809873 0.393713 0.000000
0.026215 0.118410 0.111574
0.093294 0.117617 0.106661
0.198672 0.135042 0.104799
0.454322 0.184451 0.058473
0.839292 0.416876 0.000000
0.216861 0.197269 0.146304
0.248020 0.198703 0.136141
0.414374 0.176181 0.098482
0.660853 0.260960 0.000000
0.929839 0.488930 0.000000
0.578637 0.490547 0.264958
0.607172 0.497414 0.244144
0.717403 0.511040 0.142763
0.910307 0.481331 0.000000
1.000000 0.593835 0.000000
0.912718 0.847074 0.747646
0.922362 0.847379 0.741665
0.959106 0.841001 0.706691
1.000000 0.818997 0.641535
1.000000 0.737697 0.471870
0.000000 0.117067 0.125856
0.000000 0.117708 0.139498
0.138369 0.140475 0.141451
0.427161 0.217838 0.129946
0.807462 0.426612 0.000000
0.024933 0.130526 0.136110
0.045167 0.138399 0.145510
0.204990 0.163119 0.145998
0.467781 0.229313 0.128786
0.832975 0.443336 0.000000
0.212833 0.225406 0.206119
0.246555 0.230564 0.192874
0.408148 0.208103 0.146304
0.649958 0.295689 0.094087
0.926604 0.507378 0.000000
0.578576 0.515312 0.333562
0.607813 0.522240 0.313420
0.718441 0.532341 0.221134
0.908751 0.494911 0.000000
1.000000 0.594690 0.000000
0.912352 0.848386 0.750912
0.921813 0.848569 0.744717
0.960357 0.846128 0.717983
1.000000 0.823056 0.652247
1.000000 0.741665 0.485115
0.000000 0.189883 0.282994
0.000000 0.199222 0.311528
0.000000 0.199924 0.405188
0.339605 0.219181 0.364874
0.729030 0.460365 0.440772
0.034607 0.225864 0.302190
0.000000 0.235294 0.327581
0.000000 0.234440 0.416175
0.340673 0.301610 0.377752
0.799680 0.537835 0.446296
0.254246 0.321477 0.374243
0.269291 0.336522 0.389685
0.331701 0.400000 0.454017
0.619867 0.493690 0.452216
0.906676 0.629145 0.449134
0.525170 0.612543 0.667506
0.550591 0.623285 0.652552
0.666255 0.648737 0.595087
0.873503 0.606683 0.468086
1.000000 0.675196 0.449561
0.888426 0.866453 0.817563
0.898283 0.867704 0.812222
0.937774 0.867399 0.786831
1.000000 0.843717 0.717861
1.000000 0.748501 0.506554
0.000000 0.474647 0.703853
0.000000 0.488502 0.720760
0.000000 0.502251 0.767056
0.000000 0.480110 0.829496
0.553521 0.385107 0.862760
0.000000 0.514427 0.710140
0.000000 0.524193 0.723995
0.000000 0.540002 0.768765
0.000000 0.514580 0.828641
0.631006 0.450477 0.853941
0.436591 0.609430 0.713375
0.437049 0.613336 0.719051
0.436591 0.641810 0.764340
0.304631 0.616907 0.815000
0.780240 0.676509 0.820798
0.647608 0.731472 0.788663
0.655482 0.736812 0.792477
0.690455 0.760739 0.809964
0.754574 0.805356 0.842741
0.923186 0.844480 0.839841
0.888151 0.910796 0.928679
0.888823 0.911315 0.929076
0.891508 0.913329 0.930236
0.938659 0.920775 0.904356
1.000000 0.876555 0.848234
0.554498 0.796506 0.922728
0.558434 0.798276 0.924773
0.572778 0.806058 0.935088
0.507805 0.791867 0.950103
0.376196 0.755032 0.970672
0.580529 0.800046 0.918029
0.584924 0.802426 0.920531
0.601648 0.811307 0.930907
0.537377 0.796689 0.946014
0.423072 0.762448 0.967620
0.695155 0.831724 0.913420
0.692164 0.831327 0.914672
0.697475 0.837613 0.924285
0.668269 0.832181 0.939330
0.609644 0.811673 0.963867
0.828611 0.884977 0.923217
0.828092 0.884550 0.922820
0.836942 0.889830 0.925933
0.843351 0.902129 0.943969
0.834836 0.903655 0.967895
0.913054 0.934356 0.950591
0.913817 0.934844 0.950866
0.921355 0.940093 0.954528
0.933349 0.948455 0.960235
0.952300 0.961852 0.969604
