20 Preset/City Style/【3】LUT video cho PR-AE-FCPX/TONE 1/Colors Change Night City.cube
# Created by Adobe Lightroom plugin Export LUT (1.24.0)
# www.johnrellis.com/lightroom/exportlut.htm
# Preset: Colors Change Night City
# Color profile: E:\lut插件\exportlut.1.24\exportlut.lrplugin\color profiles\Rec709gamma2.4.icc
LUT_3D_SIZE 8
DOMAIN_MIN 0.000000 0.000000 0.000000
DOMAIN_MAX 0.903226 0.903226 0.903226
0.004974 0.114534 0.114412
0.046357 0.119387 0.116854
0.128634 0.133120 0.124971
0.235050 0.152132 0.131777
0.386084 0.182254 0.135927
0.561303 0.245090 0.133700
0.779324 0.389014 0.120577
0.937041 0.523674 0.170596
0.040650 0.127932 0.125795
0.087861 0.127413 0.122347
0.139742 0.138003 0.127169
0.227176 0.157992 0.133364
0.365179 0.187167 0.137301
0.531121 0.242649 0.135958
0.730770 0.361913 0.124758
0.901335 0.499306 0.150790
0.147250 0.167575 0.151156
0.162966 0.168551 0.148196
0.230991 0.163577 0.137057
0.337926 0.175143 0.135286
0.452338 0.213657 0.137057
0.620813 0.301244 0.132601
0.814420 0.454841 0.136355
0.946654 0.571923 0.219028
0.306950 0.259434 0.193790
0.315801 0.258061 0.188693
0.364416 0.257755 0.173312
0.504906 0.262119 0.149935
0.681971 0.314885 0.122408
0.794522 0.414191 0.118166
0.900664 0.516289 0.159121
0.983856 0.602960 0.257359
0.508537 0.426764 0.282933
0.516106 0.426612 0.277134
0.556268 0.433722 0.260288
0.641810 0.447089 0.229282
0.754086 0.437537 0.171145
0.873930 0.463386 0.118013
0.948791 0.544488 0.181064
1.000000 0.625055 0.294102
0.689723 0.603876 0.430976
0.711635 0.619165 0.442756
0.737209 0.622004 0.427619
0.786069 0.625147 0.398444
0.852506 0.619226 0.351232
0.938109 0.602075 0.291691
1.000000 0.610376 0.275212
1.000000 0.670985 0.395331
0.843748 0.759060 0.634821
0.849638 0.761868 0.636652
0.861601 0.759884 0.624994
0.887602 0.758145 0.606867
0.923369 0.748959 0.572717
0.973785 0.736904 0.536645
1.000000 0.713008 0.491707
1.000000 0.700282 0.478157
0.933104 0.879118 0.820279
0.934508 0.878904 0.819303
0.941253 0.879210 0.817227
0.955047 0.880461 0.815244
0.964599 0.858518 0.775051
0.993347 0.855741 0.768521
1.000000 0.846159 0.757443
1.000000 0.820523 0.727840
0.000000 0.125612 0.147982
0.000000 0.127626 0.146365
0.117983 0.137942 0.141695
0.215000 0.157931 0.145388
0.352941 0.185031 0.141421
0.514000 0.235264 0.136507
0.700984 0.339086 0.126772
0.869841 0.469398 0.134554
0.014557 0.134890 0.145846
0.047761 0.139467 0.146670
0.130556 0.148928 0.146853
0.224521 0.165560 0.146670
0.357092 0.191867 0.141756
0.512200 0.243351 0.137667
0.683101 0.335363 0.129549
0.845853 0.456275 0.131106
0.139467 0.174868 0.171328
0.155154 0.176120 0.167391
0.220371 0.170504 0.152316
0.321782 0.178744 0.145296
0.431769 0.205447 0.137118
0.580713 0.275883 0.134371
0.734585 0.387060 0.129458
0.883909 0.518212 0.168673
0.281224 0.251804 0.204807
0.291691 0.251621 0.199588
0.341802 0.251438 0.181979
0.450233 0.237522 0.150240
0.592737 0.260227 0.129732
0.699031 0.338567 0.123415
0.814939 0.440803 0.125704
0.927153 0.547631 0.189273
0.492500 0.411994 0.276432
0.497566 0.408911 0.268345
0.530755 0.407874 0.245029
0.600702 0.409918 0.212924
0.697963 0.391424 0.161593
0.823270 0.419379 0.109743
0.909941 0.508110 0.147585
0.990234 0.595300 0.245518
0.661799 0.575830 0.401068
0.668910 0.577630 0.398352
0.696345 0.582757 0.385290
0.750942 0.591638 0.361639
0.823697 0.592096 0.320409
0.918944 0.583978 0.269688
1.000000 0.594110 0.247898
1.000000 0.654902 0.358648
0.821408 0.735470 0.600458
0.821408 0.732174 0.593378
0.833402 0.730007 0.580499
0.863828 0.731716 0.565240
0.907439 0.730190 0.540612
0.960418 0.719722 0.503532
1.000000 0.693599 0.448707
1.000000 0.680323 0.427283
0.923552 0.865843 0.800565
0.926696 0.867979 0.802976
0.933593 0.867918 0.800107
0.948669 0.869688 0.798245
0.969055 0.867704 0.790463
0.994232 0.858579 0.773495
1.000000 0.843442 0.752438
1.000000 0.817105 0.721279
0.000000 0.166629 0.281376
0.000000 0.167819 0.279362
0.000000 0.169223 0.261082
0.220279 0.173312 0.242313
0.397528 0.232761 0.249241
0.568292 0.305150 0.252903
0.747799 0.413458 0.249577
0.900633 0.517815 0.221317
0.000000 0.178988 0.278233
0.000000 0.181155 0.274174
0.000000 0.182132 0.259007
0.238621 0.190158 0.229648
0.393927 0.242954 0.248173
0.562737 0.312200 0.252171
0.728450 0.405127 0.240543
0.882933 0.507652 0.208438
0.101411 0.214511 0.268498
0.125093 0.219272 0.268345
0.189395 0.238407 0.269352
0.303075 0.261906 0.266880
0.442664 0.301732 0.264134
0.603906 0.369543 0.262516
0.756771 0.453468 0.247227
0.899931 0.541009 0.216495
0.266636 0.311315 0.337469
0.282231 0.319219 0.335729
0.343236 0.333349 0.317296
0.464729 0.327031 0.281743
0.606592 0.357183 0.264683
0.720180 0.420264 0.254765
0.842069 0.496040 0.235447
0.951415 0.568780 0.211795
0.474464 0.469459 0.418189
0.483223 0.470314 0.412451
0.523400 0.474464 0.390051
0.604669 0.478065 0.350225
0.714443 0.456489 0.282750
0.834714 0.467140 0.224308
0.920562 0.527825 0.199405
0.999878 0.604456 0.259892
0.649989 0.602869 0.492409
0.658625 0.605615 0.490425
0.685939 0.607385 0.471199
0.738338 0.608301 0.433539
0.812741 0.600671 0.371252
0.912261 0.584283 0.286107
1.000000 0.592554 0.245457
1.000000 0.658198 0.366125
0.832212 0.743679 0.610285
0.832853 0.741024 0.604120
0.842008 0.736294 0.587945
0.868101 0.734249 0.568017
0.908904 0.730617 0.540917
0.962890 0.722408 0.508415
1.000000 0.701930 0.466957
1.000000 0.691798 0.456489
0.923735 0.866972 0.802518
0.924376 0.865690 0.799832
0.931182 0.865354 0.796414
0.948150 0.869993 0.798856
0.968444 0.867826 0.790768
0.994720 0.861631 0.778836
1.000000 0.848020 0.760708
1.000000 0.822019 0.730678
0.000000 0.249668 0.523461
0.000000 0.254978 0.528099
0.000000 0.255985 0.509361
0.000000 0.257908 0.476081
0.194247 0.252018 0.436194
0.560967 0.328496 0.405921
0.736355 0.463661 0.472511
0.876402 0.552300 0.472511
0.000000 0.275273 0.537865
0.000000 0.278325 0.535302
0.000000 0.277775 0.516106
0.000000 0.277745 0.485481
0.253117 0.271824 0.450019
0.572717 0.355138 0.426184
0.736599 0.473823 0.473701
0.875700 0.557885 0.472572
0.000000 0.325475 0.535973
0.000000 0.327855 0.530999
0.000000 0.335149 0.512200
0.024323 0.330816 0.482704
0.427008 0.355627 0.486183
0.626795 0.470558 0.512322
0.785794 0.555596 0.526818
0.905913 0.613306 0.513603
0.199222 0.410895 0.530175
0.218875 0.413275 0.527398
0.287694 0.430365 0.525200
0.386450 0.466377 0.525933
0.522484 0.498970 0.521508
0.656611 0.541741 0.518364
0.792630 0.594018 0.515312
0.912963 0.645075 0.506584
0.468849 0.559442 0.621668
0.467628 0.558190 0.620447
0.485817 0.568536 0.616083
0.570153 0.590845 0.593561
0.692622 0.579095 0.549950
0.807187 0.591943 0.524315
0.895232 0.629389 0.514275
0.979461 0.666621 0.497871
0.642298 0.682216 0.682307
0.660273 0.694209 0.690486
0.680781 0.693965 0.674647
0.729763 0.696834 0.651392
0.800198 0.688930 0.611414
0.889097 0.663111 0.552483
0.987579 0.659144 0.503075
1.000000 0.688808 0.487861
0.807492 0.784115 0.736904
0.812009 0.785367 0.736202
0.827298 0.786069 0.727657
0.856962 0.785397 0.709743
0.899321 0.777005 0.674952
0.954467 0.757809 0.621088
1.000000 0.722499 0.538781
1.000000 0.700069 0.477577
0.928527 0.877134 0.818662
0.929870 0.876799 0.817533
0.936095 0.876188 0.813901
0.949371 0.875975 0.808988
0.968750 0.872923 0.799466
0.994415 0.866026 0.786343
1.000000 0.853391 0.770077
1.000000 0.830198 0.745785
0.000000 0.405402 0.753048
0.000000 0.412360 0.755428
0.000000 0.411719 0.745693
0.000000 0.410712 0.728328
0.000000 0.412940 0.706264
0.000000 0.397284 0.648676
0.663722 0.444526 0.666590
0.856901 0.587457 0.660761
0.000000 0.430579 0.759731
0.000000 0.437629 0.762478
0.000000 0.437140 0.752682
0.000000 0.431250 0.733700
0.000000 0.428138 0.708705
0.000000 0.411109 0.651606
0.674952 0.463294 0.663752
0.858732 0.601343 0.669825
0.000000 0.489479 0.766049
0.000000 0.492653 0.765652
0.000000 0.496529 0.756161
0.000000 0.487007 0.735958
0.000000 0.469520 0.701015
0.298436 0.439002 0.654078
0.707668 0.522515 0.634485
0.857664 0.641779 0.692592
0.000000 0.570092 0.774624
0.000000 0.570214 0.771817
0.000000 0.574823 0.763210
0.196262 0.581018 0.745205
0.347356 0.564141 0.714260
0.592950 0.565881 0.705196
0.765347 0.648463 0.705684
0.876463 0.694179 0.705074
0.390051 0.620111 0.739498
0.401984 0.623377 0.740017
0.442237 0.632319 0.738064
0.508934 0.649042 0.734218
0.584894 0.668605 0.725490
0.690761 0.684810 0.716396
0.799619 0.708949 0.709071
0.900755 0.735470 0.699123
0.623743 0.701472 0.754788
0.627008 0.704128 0.757137
0.624262 0.701839 0.755123
0.633478 0.707820 0.756100
0.704097 0.723201 0.734493
0.814115 0.724300 0.718990
0.913909 0.736965 0.709316
0.981903 0.757748 0.699702
0.768032 0.808865 0.829282
0.767727 0.807187 0.825559
0.774746 0.805875 0.814939
0.803647 0.812131 0.804349
0.847013 0.814511 0.787289
0.900877 0.802853 0.756405
0.967834 0.772488 0.708278
1.000000 0.746609 0.647181
0.890837 0.882811 0.860319
0.892180 0.882414 0.858640
0.898985 0.881651 0.852842
0.919341 0.887266 0.851377
0.943267 0.884733 0.837217
0.975616 0.874998 0.812985
1.000000 0.852964 0.772457
1.000000 0.820951 0.728206
0.000000 0.591760 0.896818
0.000000 0.597406 0.898253
0.000000 0.599176 0.894163
0.000000 0.602075 0.888426
0.000000 0.595850 0.873625
0.000000 0.581964 0.849729
0.090059 0.561425 0.814298
0.703731 0.584955 0.829557
0.000000 0.587945 0.886229
0.000000 0.589288 0.885100
0.000000 0.590723 0.880613
0.000000 0.589502 0.873167
0.000000 0.584680 0.859953
0.000000 0.573877 0.838407
0.132082 0.555077 0.803830
0.707851 0.581628 0.822446
0.000000 0.641535 0.896696
0.000000 0.641382 0.894987
0.000000 0.644160 0.889952
0.000000 0.631647 0.875151
0.000000 0.622461 0.860685
0.000000 0.609979 0.839567
0.314366 0.591089 0.807187
0.780880 0.629053 0.834073
0.000000 0.698054 0.899138
0.000000 0.696681 0.896666
0.000000 0.699947 0.891814
0.100862 0.713283 0.888090
0.325780 0.708125 0.876463
0.427497 0.690883 0.854520
0.510582 0.666560 0.824125
0.851408 0.726375 0.834775
0.252842 0.741207 0.886625
0.272984 0.742336 0.886015
0.345281 0.748714 0.884581
0.458534 0.754452 0.877653
0.558099 0.756008 0.863188
0.595880 0.737514 0.840940
0.744381 0.736202 0.834318
0.879881 0.793606 0.835447
0.609400 0.769833 0.856107
0.620752 0.775051 0.858824
0.636744 0.778042 0.856992
0.666438 0.784634 0.854246
0.705928 0.793332 0.849271
0.764157 0.812894 0.848966
0.842802 0.829496 0.848722
0.913573 0.842496 0.843442
0.804959 0.844968 0.875273
0.808682 0.847898 0.877684
0.813474 0.851682 0.880766
0.821378 0.857908 0.885832
0.824826 0.860533 0.887755
0.863188 0.865324 0.869261
0.920287 0.849241 0.846220
0.982544 0.844022 0.829160
0.878538 0.903166 0.922484
0.877073 0.901976 0.921569
0.878264 0.902007 0.918578
0.889006 0.905882 0.912535
0.907073 0.907805 0.900847
0.935943 0.907195 0.887449
0.973877 0.897246 0.867247
1.000000 0.867979 0.829679
0.000000 0.683070 0.952728
0.000000 0.686610 0.953246
0.000000 0.689662 0.950988
0.000000 0.693233 0.948150
0.000000 0.694484 0.942016
0.000000 0.693019 0.932219
0.000000 0.686061 0.917174
0.323796 0.670008 0.894285
0.000000 0.681209 0.947692
0.000000 0.685206 0.948547
0.000000 0.688930 0.946410
0.000000 0.689509 0.942504
0.000000 0.689052 0.935882
0.000000 0.684291 0.924743
0.000000 0.673365 0.907744
0.293126 0.653742 0.882536
0.000000 0.710689 0.949798
0.000000 0.711727 0.949248
0.000000 0.714656 0.946197
0.000000 0.716274 0.941833
0.000000 0.712520 0.934417
0.000000 0.707942 0.924254
0.253758 0.702480 0.910948
0.416388 0.689509 0.890806
0.000000 0.754543 0.951690
0.000000 0.753567 0.950347
0.000000 0.755001 0.947112
0.000000 0.762692 0.942779
0.253208 0.761013 0.935943
0.385962 0.757687 0.927459
0.483497 0.751461 0.915160
0.545464 0.733089 0.894774
0.266636 0.795102 0.947112
0.270390 0.793637 0.945708
0.326757 0.793973 0.942870
0.422339 0.798398 0.939239
0.527977 0.804593 0.932097
0.573236 0.798306 0.922820
0.614160 0.787015 0.909361
0.655512 0.773068 0.892546
0.597314 0.839780 0.940856
0.602502 0.840879 0.940887
0.620142 0.844602 0.940795
0.652186 0.851865 0.940673
0.694575 0.856535 0.936889
0.749233 0.861112 0.929564
0.766995 0.849607 0.916350
0.854215 0.846647 0.911467
0.780392 0.875029 0.929931
0.784024 0.876524 0.930449
0.790677 0.878294 0.929961
0.804929 0.882475 0.929412
0.823301 0.887266 0.927611
0.847410 0.893645 0.924926
0.876432 0.901488 0.921172
0.923156 0.908537 0.917937
0.894194 0.915587 0.932525
0.895079 0.916258 0.933074
0.899870 0.920104 0.936126
0.905486 0.924559 0.939727
0.912779 0.930388 0.944396
0.915099 0.932189 0.945861
0.939513 0.935027 0.933776
0.978119 0.922759 0.917571
0.000000 0.756191 0.988067
0.000000 0.758511 0.988037
0.000000 0.761501 0.986114
0.000000 0.766018 0.984588
0.000000 0.771145 0.981720
0.000000 0.776211 0.977295
0.330663 0.782712 0.971862
0.464240 0.783505 0.963745
0.000000 0.755459 0.986053
0.000000 0.757839 0.986084
0.000000 0.762692 0.984466
0.000000 0.766049 0.982757
0.000000 0.770626 0.979919
0.000000 0.775082 0.975494
0.318334 0.779294 0.969574
0.450385 0.778286 0.960937
0.000000 0.768795 0.984466
0.000000 0.770199 0.984222
0.000000 0.774105 0.982483
0.000000 0.783719 0.981384
0.000000 0.785824 0.978149
0.235325 0.787350 0.973327
0.403540 0.790494 0.967712
0.499641 0.788540 0.959442
0.000000 0.792020 0.982879
0.000000 0.793820 0.982788
0.000000 0.797971 0.981292
0.230564 0.808438 0.978912
0.376593 0.813870 0.975921
0.457923 0.815213 0.971923
0.534356 0.816709 0.966888
0.592798 0.813687 0.959380
0.286351 0.824063 0.980896
0.306401 0.825345 0.980926
0.340764 0.826017 0.979797
0.440986 0.833066 0.977600
0.548089 0.843259 0.973510
0.597253 0.844633 0.969451
0.642023 0.844694 0.964904
0.683925 0.842618 0.958618
0.591760 0.869017 0.978790
0.590967 0.868315 0.978332
0.596063 0.867369 0.977081
0.618708 0.868772 0.975494
0.658869 0.873198 0.973724
0.735897 0.886809 0.970764
0.773404 0.890806 0.967956
0.797177 0.888151 0.962463
0.787106 0.914122 0.976593
0.787900 0.914275 0.976501
0.791836 0.915251 0.976226
0.803128 0.918608 0.976287
0.820798 0.924163 0.976562
0.844816 0.929595 0.975769
0.869627 0.930999 0.970977
0.873716 0.921172 0.962127
0.886564 0.939696 0.971527
0.886809 0.939666 0.971374
0.889403 0.940429 0.971221
0.895995 0.942901 0.971466
0.905089 0.946044 0.971435
0.916594 0.949737 0.970916
0.931090 0.954253 0.969879
0.947539 0.958068 0.966552
