20 Preset/City Style/【3】LUT video cho PR-AE-FCPX/TONE 1/Colors Change Blue Tone Portrait.cube
# Created by Adobe Lightroom plugin Export LUT (1.24.0)
# www.johnrellis.com/lightroom/exportlut.htm
# Preset: Colors Change Blue Tone Portrait
# Color profile: E:\lut插件\exportlut.1.24\exportlut.lrplugin\color profiles\Rec709gamma2.4.icc
LUT_3D_SIZE 32
DOMAIN_MIN 0.0 0.0 0.0
DOMAIN_MAX 1.0 1.0 1.0
0.003540 0.115175 0.114321
0.004822 0.115419 0.114290
0.010742 0.115846 0.114809
0.021912 0.116396 0.115267
0.040314 0.117586 0.116213
0.068574 0.118990 0.117678
0.093843 0.120333 0.119295
0.113252 0.121859 0.121065
0.136690 0.123201 0.122621
0.164889 0.123842 0.124025
0.198459 0.123262 0.125948
0.237461 0.121065 0.127779
0.281621 0.115846 0.129488
0.331914 0.106477 0.131563
0.386114 0.090700 0.133944
0.444160 0.035767 0.136690
0.505119 0.000000 0.139986
0.568048 0.000000 0.143771
0.632349 0.000000 0.147890
0.697566 0.000000 0.152804
0.762051 0.000000 0.158511
0.845029 0.000000 0.168063
0.923919 0.000000 0.183597
0.983368 0.157198 0.203037
1.000000 0.224613 0.226902
1.000000 0.276524 0.254032
1.000000 0.321843 0.285740
1.000000 0.362799 0.320714
1.000000 0.402594 0.361883
1.000000 0.442634 0.408820
1.000000 0.484352 0.462013
1.000000 0.528496 0.521233
0.003510 0.115755 0.114870
0.005097 0.116030 0.114504
0.009033 0.116487 0.115023
0.022187 0.116976 0.115511
0.040558 0.118135 0.116457
0.065583 0.119356 0.117922
0.091707 0.121065 0.119509
0.110811 0.122377 0.121035
0.132906 0.123690 0.122377
0.160067 0.124361 0.124086
0.191806 0.124147 0.125826
0.229282 0.122225 0.127474
0.272099 0.117983 0.129519
0.319982 0.110475 0.131472
0.373144 0.096284 0.133822
0.429816 0.057954 0.136507
0.490028 0.000000 0.139376
0.552758 0.000000 0.143191
0.616693 0.000000 0.147005
0.681086 0.000000 0.151644
0.744961 0.000000 0.156954
0.826108 0.000000 0.165896
0.902403 0.000000 0.178378
0.962188 0.128023 0.195132
1.000000 0.197208 0.215702
1.000000 0.251225 0.239170
1.000000 0.298161 0.266697
1.000000 0.340826 0.299504
1.000000 0.381598 0.337835
1.000000 0.422461 0.382788
1.000000 0.464820 0.435340
1.000000 0.509453 0.494667
0.004791 0.117433 0.117037
0.006775 0.117372 0.117037
0.010803 0.118441 0.115969
0.021271 0.119265 0.116396
0.035950 0.121096 0.117556
0.061250 0.122255 0.118685
0.090486 0.123598 0.120027
0.108766 0.125002 0.121553
0.131014 0.126070 0.122927
0.157229 0.126925 0.124636
0.188052 0.127016 0.126070
0.224063 0.126040 0.127474
0.265782 0.122438 0.129580
0.312505 0.116152 0.131594
0.363958 0.105501 0.133730
0.419409 0.087404 0.136507
0.478950 0.023835 0.139437
0.541100 0.000000 0.142977
0.605066 0.000000 0.146975
0.669459 0.000000 0.151583
0.733913 0.000000 0.157168
0.816373 0.000000 0.165194
0.891081 0.000000 0.177096
0.950408 0.130617 0.192264
0.996918 0.195560 0.210636
1.000000 0.245731 0.232151
1.000000 0.291173 0.258457
1.000000 0.333471 0.289464
1.000000 0.374456 0.325841
1.000000 0.415381 0.370489
1.000000 0.457313 0.421942
1.000000 0.501030 0.479988
0.010346 0.120851 0.121431
0.009613 0.121157 0.121401
0.013764 0.121859 0.121004
0.026520 0.122957 0.118471
0.038209 0.124514 0.119356
0.059968 0.127077 0.120302
0.087098 0.128786 0.121889
0.107179 0.129763 0.123110
0.129274 0.131106 0.124147
0.155673 0.131960 0.125307
0.186007 0.132204 0.126741
0.220859 0.131899 0.128389
0.260807 0.129763 0.130129
0.305821 0.125399 0.132174
0.355261 0.117433 0.134371
0.408423 0.105409 0.136965
0.465248 0.083314 0.140078
0.524987 0.020111 0.143343
0.587030 0.000000 0.147189
0.649805 0.000000 0.151553
0.712276 0.000000 0.156039
0.795163 0.000000 0.164279
0.867491 0.020874 0.174289
0.928038 0.140505 0.186923
0.978576 0.197665 0.204257
1.000000 0.247898 0.225467
1.000000 0.294133 0.252232
1.000000 0.337102 0.284215
1.000000 0.378424 0.321477
1.000000 0.418616 0.366033
1.000000 0.458350 0.415625
1.000000 0.499214 0.471138
0.015473 0.125673 0.127260
0.015167 0.125673 0.127535
0.016449 0.125887 0.127504
0.027649 0.128298 0.125002
0.049500 0.129610 0.121950
0.070192 0.130098 0.122072
0.090486 0.133272 0.123110
0.101717 0.136507 0.125185
0.123781 0.137881 0.125917
0.149874 0.139132 0.127016
0.179385 0.140139 0.128145
0.213504 0.140322 0.129488
0.252628 0.139467 0.131197
0.296208 0.137270 0.133150
0.344335 0.132692 0.135744
0.397101 0.125216 0.138216
0.454200 0.113527 0.141360
0.514031 0.097108 0.144411
0.575921 0.064149 0.148196
0.638697 0.020081 0.152132
0.705318 0.005158 0.157351
0.785916 0.069306 0.164614
0.855924 0.127138 0.173861
0.916350 0.176272 0.186130
0.967773 0.223514 0.202579
1.000000 0.267338 0.223850
1.000000 0.309300 0.249699
1.000000 0.349035 0.280735
1.000000 0.387396 0.317388
1.000000 0.424689 0.360601
1.000000 0.462104 0.408820
1.000000 0.500755 0.462715
0.023926 0.131136 0.134096
0.023621 0.131136 0.134340
0.024598 0.131350 0.134554
0.030762 0.132967 0.133333
0.055787 0.136110 0.129519
0.086702 0.137942 0.125429
0.099123 0.137667 0.124483
0.113191 0.141115 0.125887
0.130007 0.145541 0.126955
0.146456 0.149081 0.129671
0.176089 0.150729 0.130892
0.210300 0.152010 0.132082
0.248783 0.152773 0.133791
0.292515 0.152224 0.135744
0.341405 0.150362 0.137911
0.394446 0.146426 0.140261
0.451362 0.140597 0.143648
0.511101 0.133639 0.146365
0.573114 0.126223 0.150210
0.635767 0.122408 0.154238
0.710811 0.131106 0.159792
0.788174 0.154574 0.167391
0.968750 0.289647 0.211276
1.000000 0.333593 0.241672
1.000000 0.372198 0.274479
1.000000 0.406012 0.311040
1.000000 0.436896 0.349584
1.000000 0.466377 0.390356
1.000000 0.496040 0.434852
1.000000 0.526207 0.480903
1.000000 0.557641 0.528679
1.000000 0.590356 0.576776
0.044190 0.141115 0.146914
0.043885 0.141115 0.147127
0.043854 0.141573 0.147494
0.046784 0.142153 0.148043
0.076875 0.146456 0.143008
0.102174 0.151095 0.136324
0.123354 0.153323 0.130434
0.137758 0.150881 0.126955
0.155673 0.155550 0.129122
0.176669 0.161379 0.131319
0.199313 0.168246 0.134035
0.227878 0.172580 0.137453
0.269657 0.174838 0.139376
0.316014 0.176242 0.141421
0.366094 0.176822 0.143587
0.420081 0.176242 0.146029
0.477546 0.175357 0.148562
0.537804 0.175021 0.151156
0.600549 0.176486 0.154574
0.672541 0.186007 0.159884
0.764309 0.214298 0.167788
0.848966 0.253086 0.179660
0.921904 0.297246 0.198428
0.982116 0.341802 0.225772
1.000000 0.382055 0.258885
1.000000 0.416083 0.295995
1.000000 0.445075 0.333745
1.000000 0.471901 0.371923
1.000000 0.498512 0.413733
1.000000 0.525078 0.457923
1.000000 0.553521 0.504845
1.000000 0.583490 0.552087
0.069734 0.150881 0.159365
0.069734 0.150881 0.159365
0.070405 0.151064 0.159731
0.073335 0.151583 0.160220
0.087984 0.154665 0.157809
0.107271 0.160159 0.150637
0.132143 0.165560 0.142306
0.155062 0.167422 0.134981
0.170657 0.163638 0.129793
0.191287 0.168521 0.131533
0.214878 0.175509 0.134524
0.241337 0.183810 0.137545
0.263676 0.192142 0.142641
0.303349 0.196872 0.145632
0.351476 0.199893 0.147738
0.403143 0.202823 0.150179
0.458534 0.205722 0.152316
0.517174 0.209445 0.154879
0.582300 0.215824 0.158572
0.665126 0.234440 0.163821
0.748440 0.260258 0.170657
0.828000 0.293919 0.180484
0.898375 0.331884 0.197269
0.958648 0.370062 0.222354
1.000000 0.405341 0.253666
1.000000 0.435462 0.287816
1.000000 0.461738 0.322789
1.000000 0.485328 0.360540
1.000000 0.509331 0.401160
1.000000 0.533623 0.444556
1.000000 0.559197 0.490272
1.000000 0.586694 0.537621
0.095644 0.163210 0.175235
0.095979 0.163363 0.175387
0.096315 0.163516 0.175540
0.097139 0.164004 0.176303
0.098695 0.164797 0.177188
0.116670 0.170840 0.169741
0.140078 0.177646 0.160220
0.168276 0.183810 0.149630
0.192630 0.185550 0.140810
0.209110 0.179965 0.133089
0.234043 0.184176 0.132937
0.259648 0.193088 0.137331
0.287968 0.203250 0.141543
0.318486 0.214572 0.145235
0.340246 0.224430 0.153017
0.390356 0.229984 0.155062
0.444373 0.235843 0.157412
0.506218 0.244572 0.160494
0.580896 0.260349 0.164706
0.656489 0.279973 0.169650
0.733272 0.305852 0.176303
0.808774 0.336706 0.186374
0.877958 0.370672 0.201572
0.938201 0.404517 0.223850
0.988220 0.435370 0.252842
1.000000 0.461707 0.285649
1.000000 0.485054 0.319738
1.000000 0.506493 0.355962
1.000000 0.527764 0.395880
1.000000 0.549248 0.437598
1.000000 0.572076 0.482612
1.000000 0.596704 0.529107
0.117647 0.178775 0.195224
0.117647 0.178775 0.195224
0.117647 0.178775 0.195224
0.118044 0.179355 0.195865
0.119142 0.179751 0.196506
0.129122 0.183505 0.192599
0.150729 0.190860 0.182467
0.176761 0.198367 0.171237
0.207431 0.205417 0.158236
0.233280 0.206577 0.146975
0.249668 0.198978 0.136721
0.277714 0.201724 0.132967
0.304906 0.212375 0.138918
0.334752 0.224643 0.144198
0.366888 0.238468 0.149081
0.397223 0.252873 0.154971
0.438514 0.269383 0.164065
0.506981 0.285191 0.167666
0.577020 0.303563 0.172030
0.648188 0.324865 0.177157
0.719142 0.349737 0.183536
0.788724 0.377111 0.193423
0.852262 0.405280 0.206546
0.909117 0.432807 0.225650
0.958160 0.458076 0.249699
0.999329 0.480812 0.277073
1.000000 0.501854 0.307866
1.000000 0.521599 0.341985
1.000000 0.541711 0.381201
1.000000 0.562402 0.424170
1.000000 0.584009 0.469917
1.000000 0.607355 0.518700
0.139895 0.195193 0.216251
0.140078 0.195315 0.216342
0.140017 0.195590 0.216709
0.140749 0.196109 0.217258
0.141878 0.196963 0.218509
0.143954 0.198306 0.219791
0.164950 0.206424 0.209934
0.190066 0.215610 0.198032
0.219425 0.224949 0.184115
0.254429 0.233524 0.167880
0.281712 0.234073 0.153994
0.297826 0.224216 0.140902
0.329870 0.224643 0.130617
0.358801 0.237888 0.138979
0.397131 0.256504 0.146487
0.437629 0.276890 0.153079
0.479622 0.299290 0.158999
0.513390 0.320775 0.170626
0.563867 0.340764 0.179599
0.630732 0.362158 0.184848
0.697871 0.386145 0.191196
0.764370 0.412360 0.199985
0.827268 0.439094 0.213626
0.884642 0.464607 0.231571
0.934752 0.488380 0.254704
0.977813 0.509483 0.281437
1.000000 0.529198 0.311254
1.000000 0.547509 0.344305
1.000000 0.565698 0.382147
1.000000 0.584070 0.423316
1.000000 0.603357 0.467659
1.000000 0.624353 0.516258
0.167910 0.217685 0.244785
0.167910 0.217685 0.244785
0.168429 0.218112 0.245365
0.169131 0.218662 0.246006
0.170138 0.219730 0.247349
0.171969 0.221225 0.249210
0.184054 0.226993 0.245060
0.209415 0.237705 0.232486
0.238499 0.248997 0.217166
0.272313 0.260380 0.200046
0.311101 0.270603 0.180117
0.345129 0.274083 0.163210
0.430854 0.304448 0.149050
0.480293 0.306340 0.118135
0.521386 0.332616 0.135286
0.562493 0.360266 0.150240
0.602960 0.388525 0.162570
0.643153 0.417731 0.175051
0.683223 0.447639 0.187015
0.708248 0.471077 0.215366
0.767544 0.496437 0.231815
0.827146 0.519829 0.248905
0.881010 0.541283 0.271244
0.928344 0.560540 0.296330
0.968994 0.577295 0.324498
1.000000 0.591699 0.354284
1.000000 0.604273 0.384527
1.000000 0.615656 0.416114
1.000000 0.627283 0.450111
1.000000 0.639826 0.487068
1.000000 0.654017 0.525933
1.000000 0.670649 0.567926
0.215335 0.260472 0.298436
0.215152 0.260319 0.298222
0.214786 0.260166 0.297917
0.214603 0.259983 0.297704
0.214603 0.259983 0.297704
0.215152 0.260502 0.298344
0.216831 0.261906 0.299931
0.245274 0.276219 0.287449
0.279942 0.293584 0.272923
0.320989 0.313115 0.255802
0.370245 0.334752 0.235142
0.427588 0.357031 0.209018
0.472847 0.366094 0.183993
0.504448 0.359197 0.156374
0.553643 0.355627 0.099580
0.590753 0.383459 0.126894
0.626520 0.410101 0.147402
0.660761 0.436103 0.165011
0.695369 0.462531 0.180850
0.729641 0.488624 0.196475
0.758663 0.512139 0.217380
0.782620 0.532494 0.249393
0.838346 0.554284 0.268650
0.889250 0.573999 0.291600
0.933562 0.591516 0.317510
0.971923 0.606867 0.345739
1.000000 0.620386 0.375677
1.000000 0.632624 0.407965
1.000000 0.644556 0.442695
1.000000 0.657191 0.480629
1.000000 0.670619 0.520806
1.000000 0.685908 0.563134
0.258976 0.304051 0.352117
0.258610 0.303716 0.351690
0.257877 0.303014 0.350835
0.257816 0.302953 0.350774
0.258122 0.303227 0.351049
0.258885 0.303960 0.352056
0.260838 0.306065 0.354498
0.277226 0.315343 0.348394
0.310521 0.332494 0.331670
0.349493 0.352483 0.313176
0.395666 0.375006 0.291905
0.449073 0.399237 0.265629
0.507683 0.422797 0.232609
0.548913 0.429603 0.202121
0.575708 0.418860 0.166110
0.617243 0.409369 0.086854
0.649958 0.430915 0.113191
0.680201 0.454994 0.142855
0.711177 0.479316 0.166934
0.741512 0.502983 0.188205
0.771878 0.526543 0.207980
0.802243 0.550469 0.227909
0.823484 0.570275 0.259800
0.853696 0.589899 0.291600
0.901640 0.608637 0.316838
0.943236 0.624964 0.343816
0.979431 0.639216 0.373968
1.000000 0.652003 0.405402
1.000000 0.664088 0.440558
1.000000 0.676356 0.479103
1.000000 0.689204 0.519585
1.000000 0.703517 0.562371
0.307836 0.355871 0.414618
0.307561 0.355596 0.414313
0.306432 0.354376 0.412818
0.305272 0.353063 0.411322
0.304143 0.351843 0.409827
0.303227 0.350958 0.408759
0.304021 0.351720 0.409735
0.306981 0.354528 0.412390
0.338994 0.371771 0.395148
0.376410 0.391882 0.376135
0.420478 0.415137 0.354711
0.470405 0.440314 0.330053
0.524681 0.465248 0.298375
0.580621 0.487221 0.259617
0.616205 0.489479 0.223301
0.637690 0.475196 0.181277
0.672786 0.462593 0.090578
0.704005 0.476448 0.094667
0.731228 0.498878 0.139742
0.758114 0.520378 0.171939
0.785183 0.541924 0.199039
0.812955 0.564050 0.223545
0.840085 0.585840 0.247166
0.866056 0.607263 0.271733
0.881071 0.624140 0.311528
0.914244 0.641474 0.343572
0.953796 0.657343 0.373388
0.988373 0.671717 0.406470
1.000000 0.685420 0.444190
1.000000 0.698878 0.485145
1.000000 0.712734 0.529870
1.000000 0.727779 0.576196
0.351049 0.403571 0.470527
0.351263 0.403754 0.470741
0.350866 0.403388 0.470314
0.350683 0.403082 0.470008
0.350408 0.402838 0.469703
0.350866 0.403388 0.470314
0.352850 0.405585 0.472847
0.356512 0.409644 0.477516
0.376104 0.422065 0.471931
0.412970 0.442908 0.453101
0.453559 0.464912 0.431373
0.497963 0.487434 0.404761
0.545098 0.508782 0.372778
0.593591 0.527642 0.334356
0.643122 0.542657 0.286992
0.670253 0.538293 0.245975
0.687434 0.521447 0.198734
0.717494 0.507134 0.106935
0.748440 0.514549 0.056184
0.773373 0.535576 0.139162
0.799374 0.557031 0.179751
0.825620 0.578576 0.213291
0.851530 0.600031 0.243687
0.876982 0.621088 0.271489
0.901305 0.641627 0.298619
0.920775 0.660243 0.332677
0.934081 0.677241 0.376776
0.968627 0.693202 0.412726
1.000000 0.707393 0.450660
1.000000 0.720516 0.491585
1.000000 0.733303 0.534874
1.000000 0.746578 0.579583
0.392096 0.449775 0.522759
0.392096 0.449775 0.522759
0.392096 0.449775 0.522759
0.392096 0.449775 0.522759
0.392187 0.449836 0.522850
0.393042 0.450843 0.523949
0.395056 0.453071 0.526421
0.398169 0.456641 0.530327
0.403265 0.461860 0.535424
0.436744 0.481270 0.518364
0.474586 0.502159 0.497505
0.515831 0.523705 0.473060
0.560052 0.544640 0.443915
0.605768 0.563592 0.408911
0.652064 0.579614 0.366735
0.697597 0.591333 0.316228
0.720729 0.584314 0.273136
0.736629 0.567559 0.223209
0.763149 0.552697 0.136049
0.794095 0.554314 0.017609
0.817502 0.574609 0.144991
0.841550 0.595148 0.194400
0.865537 0.615564 0.233371
0.889097 0.635767 0.268437
0.911986 0.655665 0.301061
0.933989 0.674952 0.332586
0.954894 0.694026 0.363806
0.968536 0.710872 0.408087
0.982788 0.727779 0.456489
1.000000 0.741573 0.498756
1.000000 0.754452 0.542718
1.000000 0.767391 0.588617
0.439918 0.503532 0.580438
0.440558 0.504265 0.581231
0.496437 0.564141 0.641016
0.496529 0.564294 0.641169
0.496742 0.564446 0.641291
0.497017 0.564782 0.641627
0.497932 0.565698 0.642481
0.500145 0.568048 0.644709
0.503899 0.571984 0.648493
0.523278 0.584192 0.642267
0.558465 0.603601 0.623713
0.596582 0.622889 0.601312
0.635248 0.640009 0.573663
0.674495 0.654414 0.540093
0.713313 0.665370 0.498726
0.751339 0.672663 0.449744
0.787961 0.675593 0.391516
0.804196 0.662806 0.342168
0.816007 0.642939 0.284916
0.836393 0.624048 0.198215
0.864286 0.617487 0.086610
0.882322 0.634028 0.181796
0.900603 0.650752 0.237400
0.918761 0.667140 0.280766
0.935973 0.682612 0.317479
0.952667 0.697780 0.350500
0.968963 0.712764 0.381720
0.984863 0.727810 0.412909
0.999390 0.743282 0.448371
1.000000 0.758877 0.499947
1.000000 0.773892 0.548913
1.000000 0.786282 0.595148
0.505669 0.573785 0.650202
0.511040 0.579278 0.655390
0.516899 0.585260 0.661006
0.522240 0.590692 0.666072
0.526452 0.595026 0.670069
0.528557 0.597101 0.671992
0.529870 0.598474 0.673213
0.531365 0.599939 0.674586
0.534325 0.602899 0.677272
0.539147 0.607355 0.680354
0.570275 0.624811 0.664118
0.603693 0.642237 0.645106
0.638575 0.658289 0.621363
0.674006 0.672389 0.593652
0.709834 0.683986 0.559930
0.745663 0.692683 0.519554
0.780941 0.698390 0.471962
0.815946 0.701106 0.416754
0.832273 0.689815 0.371313
0.845945 0.673396 0.318212
0.865904 0.656245 0.239231
0.897185 0.647608 0.105196
0.913970 0.663813 0.202914
0.930388 0.679500 0.261753
0.945922 0.694179 0.306554
0.961089 0.708370 0.345342
0.975769 0.722469 0.381262
0.990234 0.736690 0.415869
1.000000 0.751431 0.451545
1.000000 0.766567 0.488594
1.000000 0.782162 0.535058
1.000000 0.799039 0.589685
0.543542 0.612177 0.685695
0.549218 0.617762 0.690669
0.555566 0.624018 0.696254
0.561364 0.629725 0.701289
0.565942 0.634211 0.705257
0.568200 0.636378 0.707149
0.569512 0.637659 0.708248
0.570794 0.638880 0.709316
0.573083 0.641169 0.711269
0.576074 0.644038 0.713771
0.592248 0.653986 0.708064
0.621424 0.669642 0.691707
0.652186 0.684382 0.671778
0.684260 0.697780 0.648280
0.716793 0.709346 0.620722
0.749538 0.718410 0.587518
0.782406 0.724971 0.548486
0.814908 0.729091 0.503410
0.847837 0.730739 0.450019
0.863096 0.720119 0.407782
0.877043 0.705196 0.356970
0.895811 0.689082 0.285954
0.927398 0.679622 0.164157
0.943603 0.692317 0.229160
0.957549 0.706355 0.288914
0.970947 0.719722 0.336522
0.983978 0.732845 0.377935
0.996857 0.746151 0.416358
1.000000 0.760037 0.455329
1.000000 0.774411 0.494697
1.000000 0.789273 0.535454
1.000000 0.804318 0.576440
0.585321 0.652918 0.721401
0.590570 0.657954 0.725704
0.596063 0.663203 0.730129
0.601129 0.668055 0.734188
0.605249 0.671901 0.737423
0.607294 0.673823 0.739040
0.608637 0.675044 0.740047
0.609888 0.676265 0.741054
0.611749 0.678004 0.742519
0.614374 0.680476 0.744533
0.618647 0.684291 0.747066
0.643610 0.698116 0.733791
0.670222 0.711482 0.717891
0.698421 0.724056 0.698695
0.727535 0.735286 0.676387
0.757595 0.744991 0.650080
0.788724 0.753353 0.620111
0.820432 0.760067 0.585779
0.852781 0.765042 0.546502
0.885252 0.768124 0.502098
0.902007 0.760586 0.468147
0.918669 0.749569 0.424781
0.937713 0.735927 0.363836
0.969421 0.727565 0.266575
0.986145 0.735836 0.297154
0.997101 0.748989 0.361120
1.000000 0.761440 0.413367
1.000000 0.773922 0.460273
1.000000 0.786801 0.504723
1.000000 0.800137 0.547814
1.000000 0.813962 0.590448
1.000000 0.828244 0.632654
0.659663 0.722194 0.778195
0.661769 0.724086 0.779721
0.663416 0.725582 0.780880
0.664546 0.726589 0.781704
0.665126 0.727138 0.782101
0.665095 0.727077 0.782071
0.665095 0.727077 0.782071
0.665736 0.727657 0.782528
0.667018 0.728847 0.783474
0.669642 0.731228 0.785336
0.672877 0.734127 0.787594
0.686000 0.742184 0.783078
0.707881 0.753719 0.770932
0.731106 0.764584 0.756497
0.755428 0.774380 0.739345
0.780606 0.782895 0.718746
0.806424 0.790005 0.695369
0.833463 0.795499 0.667201
0.861082 0.799283 0.634607
0.889220 0.801266 0.597131
0.917296 0.801144 0.554192
0.931090 0.792050 0.521630
0.945525 0.780056 0.479011
0.961578 0.765164 0.420905
0.990234 0.755215 0.333074
1.000000 0.758114 0.334600
1.000000 0.770321 0.399573
1.000000 0.782559 0.455360
1.000000 0.794949 0.505455
1.000000 0.807797 0.552209
1.000000 0.821012 0.597009
1.000000 0.834775 0.640497
0.699001 0.757351 0.805661
0.700618 0.758785 0.806760
0.702083 0.760098 0.807767
0.703273 0.761105 0.808560
0.703944 0.761715 0.809018
0.704189 0.761929 0.809171
0.704311 0.762020 0.809262
0.704921 0.762539 0.809659
0.706294 0.763729 0.810605
0.708461 0.765682 0.812070
0.711360 0.768215 0.814023
0.715267 0.771450 0.815854
0.734035 0.781796 0.806241
0.754055 0.791867 0.795163
0.775082 0.801205 0.781949
0.796872 0.809537 0.766812
0.819760 0.816770 0.749020
0.843198 0.822751 0.728664
0.867399 0.827176 0.704799
0.892271 0.829862 0.676661
0.917571 0.830655 0.643793
0.943053 0.829221 0.604791
0.955474 0.820523 0.576745
0.969329 0.809628 0.539879
0.978180 0.786801 0.466194
1.000000 0.776120 0.387884
1.000000 0.775265 0.365820
1.000000 0.787228 0.433265
1.000000 0.799405 0.491615
1.000000 0.811978 0.543969
1.000000 0.825223 0.593347
1.000000 0.839017 0.640558
0.752865 0.804135 0.841703
0.755306 0.806180 0.843290
0.756466 0.807218 0.844053
0.756313 0.807095 0.843961
0.755062 0.806027 0.843137
0.753323 0.804501 0.841978
0.751156 0.802670 0.840574
0.749203 0.800992 0.839261
0.747890 0.799893 0.838407
0.747463 0.799496 0.838132
0.747372 0.799435 0.838041
0.748379 0.800320 0.838712
0.756832 0.804898 0.834104
0.772122 0.812314 0.823758
0.788266 0.819059 0.811582
0.805570 0.825406 0.797757
0.824247 0.831174 0.782071
0.844388 0.836515 0.764736
0.865812 0.841276 0.745785
0.888304 0.845182 0.724758
0.911315 0.847562 0.700496
0.934447 0.847776 0.671168
0.957336 0.845243 0.635218
0.968505 0.836118 0.607568
0.980865 0.824552 0.570642
0.994751 0.810269 0.520836
1.000000 0.798459 0.451026
1.000000 0.793179 0.407446
1.000000 0.804349 0.473762
1.000000 0.816068 0.531762
1.000000 0.828641 0.585107
1.000000 0.842130 0.635889
0.778164 0.825528 0.858335
0.780270 0.827298 0.859709
0.781735 0.828519 0.860655
0.782254 0.828946 0.861021
0.782223 0.828916 0.860960
0.782071 0.828763 0.860868
0.782010 0.828733 0.860838
0.782223 0.828916 0.860960
0.782925 0.829496 0.861448
0.784146 0.830533 0.862242
0.785489 0.831662 0.863157
0.787198 0.833097 0.864256
0.789303 0.834684 0.865019
0.801938 0.841123 0.856992
0.815122 0.846983 0.847471
0.829068 0.852323 0.836576
0.844053 0.857206 0.824247
0.860288 0.861723 0.810697
0.877684 0.865934 0.796109
0.896147 0.869474 0.780301
0.915373 0.871916 0.762203
0.934936 0.872770 0.741299
0.954833 0.871641 0.715755
0.974334 0.868070 0.685451
0.984710 0.859770 0.662348
0.996643 0.849363 0.631006
1.000000 0.836515 0.588922
1.000000 0.824887 0.532555
1.000000 0.816617 0.478035
1.000000 0.827939 0.544060
1.000000 0.840055 0.601831
1.000000 0.853086 0.654627
0.813626 0.854887 0.881437
0.814603 0.855680 0.882078
0.815122 0.856107 0.882414
0.815274 0.856199 0.882506
0.814969 0.855985 0.882322
0.814664 0.855711 0.882109
0.814359 0.855467 0.881926
0.814206 0.855375 0.881834
0.814511 0.855589 0.882017
0.815274 0.856199 0.882506
0.816251 0.857023 0.883146
0.817655 0.858183 0.884062
0.819059 0.859342 0.884977
0.825406 0.862852 0.881895
0.836149 0.867826 0.874388
0.847562 0.872435 0.865660
0.859709 0.876707 0.855955
0.872923 0.880766 0.845243
0.887388 0.884611 0.833677
0.902800 0.888060 0.821469
0.918853 0.890654 0.807767
0.935271 0.891997 0.792142
0.952056 0.891691 0.773281
0.969299 0.889525 0.750240
0.986114 0.885008 0.722988
0.995453 0.877043 0.702480
1.000000 0.867308 0.675532
1.000000 0.855283 0.638941
1.000000 0.843809 0.591058
1.000000 0.834195 0.536339
1.000000 0.844755 0.594141
1.000000 0.857786 0.652705
0.840146 0.876371 0.898589
0.840818 0.876921 0.899016
0.841459 0.877440 0.899413
0.841886 0.877775 0.899687
0.842435 0.878233 0.900053
0.843412 0.879026 0.900694
0.845426 0.880613 0.902007
0.848051 0.882719 0.903685
0.851347 0.885344 0.905791
0.855100 0.888334 0.908171
0.859129 0.891539 0.910765
0.863005 0.894621 0.913268
0.866697 0.897520 0.915587
0.869993 0.900084 0.917388
0.878965 0.904967 0.913664
0.887510 0.908934 0.908659
0.896147 0.912413 0.902831
0.905455 0.915618 0.896178
0.915557 0.918669 0.889036
0.926329 0.921355 0.881315
0.937652 0.923552 0.872740
0.949432 0.924834 0.862608
0.961578 0.924865 0.850370
0.974212 0.923552 0.835599
0.987579 0.920562 0.817380
1.000000 0.915679 0.796506
1.000000 0.908904 0.781582
1.000000 0.900572 0.762356
1.000000 0.890410 0.737484
1.000000 0.880034 0.706294
1.000000 0.871305 0.672969
1.000000 0.879271 0.707301
0.883635 0.910857 0.926421
0.883696 0.910887 0.926452
0.883574 0.910796 0.926390
0.883421 0.910674 0.926299
0.883238 0.910521 0.926177
0.883146 0.910460 0.926116
0.883330 0.910613 0.926238
0.883726 0.910948 0.926482
0.884520 0.911559 0.927001
0.885618 0.912383 0.927703
0.886900 0.913420 0.928496
0.888396 0.914611 0.929473
0.889982 0.915831 0.930480
