20 Preset/City Style/【3】LUT video cho PR-AE-FCPX/TONE 1/Colors Change The Great Moscow CIty.cube
# Created by Adobe Lightroom plugin Export LUT (1.24.0)
# www.johnrellis.com/lightroom/exportlut.htm
# Preset: Colors Change The Great Moscow CIty
# Color profile: E:\lut插件\exportlut.1.24\exportlut.lrplugin\color profiles\Rec709gamma2.4.icc
LUT_3D_SIZE 32
DOMAIN_MIN 0.0 0.0 0.0
DOMAIN_MAX 1.0 1.0 1.0
0.055055 0.113344 0.122164
0.046143 0.113344 0.121950
0.031403 0.112551 0.121828
0.000214 0.111666 0.121828
0.000000 0.109804 0.121065
0.000000 0.108370 0.120211
0.000000 0.106722 0.119295
0.000000 0.105440 0.117433
0.000000 0.104097 0.115724
0.000000 0.102876 0.113619
0.020294 0.100984 0.111086
0.082490 0.100191 0.108583
0.120607 0.098238 0.105440
0.162234 0.094148 0.102235
0.208835 0.084565 0.098939
0.259709 0.051118 0.094514
0.315892 0.000000 0.089570
0.377264 0.000000 0.080690
0.444953 0.000000 0.064027
0.519127 0.000000 0.041505
0.598779 0.000000 0.014588
0.711543 0.000000 0.000000
0.825895 0.000000 0.000000
0.920409 0.000000 0.000000
0.995911 0.000000 0.000000
1.000000 0.000000 0.000000
1.000000 0.000000 0.000000
1.000000 0.000000 0.000000
1.000000 0.000000 0.000000
1.000000 0.000000 0.000000
1.000000 0.000000 0.000000
1.000000 0.000000 0.000000
0.054566 0.111513 0.121309
0.050690 0.111299 0.121889
0.031983 0.110658 0.121798
0.002075 0.110018 0.121736
0.000000 0.108858 0.121187
0.000000 0.107637 0.120272
0.000000 0.106020 0.118807
0.000000 0.105074 0.117464
0.000000 0.103731 0.116060
0.000000 0.102235 0.113710
0.012055 0.101289 0.111391
0.072633 0.099916 0.108675
0.113985 0.098817 0.105867
0.153902 0.095247 0.102785
0.199252 0.087953 0.099550
0.248875 0.060365 0.095308
0.304021 0.006409 0.090120
0.364202 0.000000 0.081941
0.430518 0.000000 0.066865
0.502617 0.000000 0.046387
0.579858 0.000000 0.019959
0.687373 0.000000 0.000000
0.796445 0.000000 0.000000
0.889220 0.000000 0.000000
0.965576 0.000000 0.000000
1.000000 0.000000 0.000000
1.000000 0.000000 0.000000
1.000000 0.000000 0.000000
1.000000 0.000000 0.000000
1.000000 0.000000 0.000000
1.000000 0.000000 0.000000
1.000000 0.000000 0.000000
0.058228 0.105715 0.117372
0.058473 0.104982 0.118593
0.036774 0.103578 0.120882
0.002411 0.104738 0.121492
0.000000 0.102876 0.120974
0.000000 0.102571 0.119966
0.000000 0.102693 0.118837
0.000000 0.102449 0.117433
0.000000 0.101808 0.115358
0.000000 0.101472 0.113161
0.012085 0.100587 0.110842
0.068971 0.100069 0.108339
0.111299 0.099184 0.105531
0.150149 0.096407 0.102754
0.194278 0.089631 0.098878
0.242954 0.068727 0.094942
0.296971 0.019989 0.090150
0.356573 0.000000 0.082094
0.421729 0.000000 0.067262
0.493385 0.000000 0.047211
0.570336 0.000000 0.021210
0.678737 0.000000 0.000000
0.783871 0.000000 0.000000
0.874723 0.000000 0.000000
0.950713 0.000000 0.000000
1.000000 0.000000 0.000000
1.000000 0.000000 0.000000
1.000000 0.000000 0.000000
1.000000 0.000000 0.000000
1.000000 0.000000 0.000000
1.000000 0.000000 0.000000
1.000000 0.000000 0.000000
0.059236 0.095033 0.110903
0.059358 0.094606 0.111574
0.058595 0.092897 0.115480
0.018067 0.091585 0.117617
0.000000 0.097932 0.119783
0.000000 0.097383 0.119051
0.000000 0.096864 0.117983
0.000000 0.098177 0.116060
0.000000 0.098634 0.114168
0.000000 0.099428 0.112428
0.018372 0.099672 0.109957
0.073823 0.099916 0.107332
0.111849 0.099489 0.104799
0.149325 0.097414 0.101564
0.191440 0.093080 0.098207
0.238254 0.079225 0.094362
0.290227 0.037263 0.089540
0.346838 0.000000 0.081971
0.409766 0.000000 0.067475
0.478340 0.000000 0.048066
0.552514 0.000000 0.023987
0.658106 0.000000 0.000000
0.757809 0.000000 0.000000
0.848356 0.000000 0.000000
0.928588 0.000000 0.000000
0.997925 0.000000 0.000000
1.000000 0.000000 0.000000
1.000000 0.000000 0.000000
1.000000 0.000000 0.000000
1.000000 0.000000 0.000000
1.000000 0.000000 0.000000
1.000000 0.000000 0.000000
0.051270 0.085054 0.103609
0.052003 0.084321 0.103639
0.054688 0.082521 0.106813
0.042206 0.081086 0.109926
0.005310 0.079957 0.113069
0.000000 0.092500 0.115663
0.000000 0.093629 0.116213
0.000000 0.093965 0.114656
0.000000 0.095186 0.113252
0.000000 0.096803 0.110750
0.026001 0.098329 0.108461
0.077729 0.099458 0.106020
0.111788 0.100282 0.103334
0.148074 0.099580 0.100252
0.189425 0.096071 0.096742
0.236057 0.088289 0.092561
0.287633 0.057008 0.087953
0.344762 0.000000 0.078950
0.407202 0.000000 0.062104
0.475563 0.000000 0.042145
0.557183 0.000000 0.014954
0.657099 0.000000 0.000000
0.752468 0.000000 0.000000
0.841367 0.000000 0.000000
0.921660 0.000000 0.000000
0.992035 0.000000 0.000000
1.000000 0.000000 0.000000
1.000000 0.000000 0.000000
1.000000 0.000000 0.000000
1.000000 0.000000 0.000000
1.000000 0.000000 0.000000
1.000000 0.000000 0.000000
0.043488 0.073945 0.097719
0.043183 0.073915 0.098116
0.044678 0.072480 0.099672
0.045411 0.069825 0.103029
0.029419 0.069215 0.104891
0.000641 0.069917 0.107729
0.000000 0.088716 0.110445
0.000000 0.091524 0.111421
0.000000 0.093172 0.109895
0.009857 0.095125 0.108278
0.043275 0.098146 0.106050
0.089509 0.100618 0.103334
0.119020 0.102602 0.100679
0.155001 0.102937 0.097658
0.196719 0.100771 0.093751
0.243168 0.094789 0.089448
0.295354 0.077821 0.082155
0.352972 0.020996 0.069947
0.416297 0.000000 0.052277
0.484810 0.000000 0.030579
0.577203 0.000000 0.000000
0.674250 0.000000 0.000000
0.933379 0.000000 0.000000
1.000000 0.000000 0.000000
1.000000 0.000000 0.000000
1.000000 0.000000 0.000000
1.000000 0.000000 0.000000
1.000000 0.000000 0.000000
1.000000 0.000000 0.000000
1.000000 0.000000 0.000000
1.000000 0.000000 0.000000
1.000000 0.000000 0.000000
0.027131 0.068452 0.092164
0.027131 0.068452 0.092164
0.026520 0.068452 0.093019
0.028992 0.067994 0.095003
0.027100 0.069184 0.096498
0.018921 0.071046 0.098421
0.008331 0.076509 0.100465
0.002930 0.087800 0.102998
0.021576 0.092866 0.103731
0.052369 0.096742 0.102693
0.090883 0.100923 0.100404
0.118441 0.105867 0.097597
0.151644 0.110323 0.094697
0.190768 0.111452 0.091035
0.234562 0.109407 0.085573
0.282628 0.103120 0.077546
0.336309 0.089601 0.062776
0.395453 0.036133 0.046174
0.461219 0.000000 0.024475
0.553704 0.000000 0.000000
0.666102 0.000000 0.000000
0.778317 0.000000 0.000000
0.882383 0.000000 0.000000
0.972625 0.000000 0.000000
1.000000 0.000000 0.000000
1.000000 0.000000 0.000000
1.000000 0.000000 0.000000
1.000000 0.000000 0.000000
1.000000 0.000000 0.000000
1.000000 0.000000 0.000000
1.000000 0.000000 0.000000
1.000000 0.000000 0.000000
0.011566 0.074861 0.090272
0.010864 0.076051 0.090211
0.010864 0.076051 0.090211
0.011841 0.077028 0.090578
0.011109 0.079561 0.091249
0.012329 0.081514 0.091920
0.015534 0.084688 0.093324
0.022248 0.088960 0.094881
0.037507 0.092470 0.096284
0.074617 0.097230 0.096925
0.102388 0.103426 0.096040
0.129061 0.108522 0.093385
0.161044 0.114015 0.090333
0.198672 0.118990 0.085115
0.241062 0.122347 0.077638
0.288151 0.119142 0.063844
0.340154 0.111604 0.048890
0.398077 0.096559 0.030640
0.476783 0.026215 0.002594
0.569757 0.000000 0.000000
0.671046 0.000000 0.000000
0.774533 0.000000 0.000000
0.872587 0.000000 0.000000
0.959258 0.000000 0.000000
1.000000 0.000000 0.000000
1.000000 0.000000 0.000000
1.000000 0.000000 0.000000
1.000000 0.000000 0.000000
1.000000 0.000000 0.000000
1.000000 0.000000 0.000000
1.000000 0.000000 0.000000
1.000000 0.000000 0.000000
0.000000 0.087892 0.090272
0.000000 0.088319 0.090242
0.000000 0.088258 0.089815
0.000000 0.089143 0.089265
0.000000 0.090486 0.088258
0.000000 0.092561 0.086610
0.000641 0.095003 0.087343
0.017487 0.097810 0.087861
0.045686 0.102235 0.088228
0.084016 0.102815 0.089937
0.112795 0.105440 0.090181
0.143557 0.113405 0.088228
0.176089 0.119509 0.083436
0.213352 0.124788 0.075837
0.255009 0.129732 0.062501
0.301335 0.133852 0.046113
0.354223 0.135195 0.027527
0.426276 0.127535 0.000000
0.505028 0.110292 0.000000
0.591669 0.051057 0.000000
0.686244 0.000000 0.000000
0.781827 0.000000 0.000000
0.873442 0.000000 0.000000
0.955810 0.000000 0.000000
1.000000 0.000000 0.000000
1.000000 0.000000 0.000000
1.000000 0.000000 0.000000
1.000000 0.000000 0.000000
1.000000 0.000000 0.000000
1.000000 0.000000 0.000000
1.000000 0.000000 0.000000
1.000000 0.000000 0.000000
0.000000 0.099458 0.093019
0.000000 0.099825 0.092958
0.000000 0.100221 0.092042
0.000000 0.100984 0.091096
0.000000 0.102541 0.088746
0.000000 0.104799 0.083131
0.000000 0.107576 0.080842
0.000000 0.111147 0.080262
0.022339 0.115724 0.079164
0.078523 0.121614 0.077882
0.112001 0.119600 0.079652
0.150179 0.116640 0.079957
0.186954 0.124941 0.073121
0.226932 0.132174 0.062257
0.269993 0.138125 0.048127
0.326390 0.145144 0.025574
0.390356 0.151461 0.000000
0.460395 0.157412 0.000000
0.538018 0.159152 0.000000
0.621210 0.146731 0.000000
0.708125 0.126253 0.000000
0.792660 0.089357 0.000000
0.872984 0.000000 0.000000
0.945983 0.000000 0.000000
1.000000 0.000000 0.000000
1.000000 0.000000 0.000000
1.000000 0.000000 0.000000
1.000000 0.000000 0.000000
1.000000 0.000000 0.000000
1.000000 0.000000 0.000000
1.000000 0.000000 0.000000
1.000000 0.000000 0.000000
0.000000 0.114504 0.097871
0.000000 0.114504 0.097475
0.000000 0.115145 0.096986
0.000000 0.116487 0.095216
0.000000 0.118379 0.092042
0.000000 0.121218 0.086946
0.000000 0.125216 0.077668
0.000000 0.129458 0.073732
0.000000 0.135164 0.068513
0.027222 0.142061 0.061799
0.106996 0.149538 0.055238
0.150881 0.145449 0.055573
0.204166 0.133822 0.057313
0.252415 0.143984 0.041444
0.307530 0.153933 0.021424
0.362524 0.161379 0.000000
0.423529 0.168460 0.000000
0.490883 0.176089 0.000000
0.564172 0.184207 0.000000
0.643488 0.194522 0.000000
0.724331 0.201053 0.000000
0.802853 0.193973 0.000000
0.878172 0.187564 0.000000
0.946990 0.182650 0.000000
1.000000 0.181735 0.000000
1.000000 0.184421 0.000000
1.000000 0.189456 0.000000
1.000000 0.196048 0.000000
1.000000 0.203189 0.000000
1.000000 0.209903 0.000000
1.000000 0.214267 0.000000
1.000000 0.217136 0.000000
0.000000 0.137362 0.105501
0.000000 0.137606 0.105440
0.000000 0.138369 0.104646
0.000000 0.139651 0.102266
0.000000 0.142092 0.098482
0.000000 0.145449 0.092622
0.000000 0.150088 0.080507
0.000000 0.155489 0.066499
0.000000 0.164096 0.058106
0.000000 0.174502 0.044739
0.061402 0.185611 0.029389
0.156222 0.196963 0.009339
0.287663 0.233524 0.000000
0.368078 0.197055 0.000000
0.439918 0.203891 0.000000
0.516564 0.218173 0.000000
0.590417 0.230991 0.000000
0.665095 0.244785 0.000000
0.739681 0.260227 0.000000
0.812039 0.278264 0.000000
0.879057 0.298924 0.000000
0.939635 0.321935 0.000000
0.993103 0.338994 0.000000
1.000000 0.342107 0.000000
1.000000 0.344213 0.000000
1.000000 0.344701 0.000000
1.000000 0.343450 0.000000
1.000000 0.341497 0.000000
1.000000 0.338415 0.000000
1.000000 0.334508 0.000000
1.000000 0.330480 0.000000
1.000000 0.325811 0.000000
0.000000 0.192142 0.125704
0.000000 0.192294 0.125429
0.000000 0.192630 0.123415
0.000000 0.193942 0.120027
0.000000 0.196323 0.114107
0.000000 0.200015 0.104952
0.000000 0.205509 0.090455
0.000000 0.213321 0.050324
0.000000 0.223178 0.032227
0.000000 0.236179 0.009491
0.000000 0.252232 0.000000
0.136843 0.270756 0.000000
0.259190 0.289281 0.000000
0.353643 0.283055 0.000000
0.441352 0.243046 0.000000
0.522057 0.236942 0.000000
0.600427 0.253666 0.000000
0.675502 0.269718 0.000000
0.743069 0.284642 0.000000
0.808133 0.300969 0.000000
0.869902 0.319402 0.000000
0.927581 0.340642 0.000000
0.979522 0.363714 0.000000
1.000000 0.388373 0.000000
1.000000 0.404028 0.000000
1.000000 0.405493 0.000000
1.000000 0.405646 0.000000
1.000000 0.404425 0.000000
1.000000 0.402350 0.000000
1.000000 0.399084 0.000000
1.000000 0.394934 0.000000
1.000000 0.389746 0.000000
0.000000 0.242527 0.146090
0.000000 0.242100 0.145113
0.000000 0.241459 0.142611
0.000000 0.241642 0.137972
0.000000 0.242527 0.130892
0.000000 0.244907 0.119661
0.000000 0.248997 0.103243
0.000000 0.255772 0.067567
0.000000 0.265202 0.016907
0.000000 0.278050 0.000000
0.000000 0.294316 0.000000
0.000000 0.313695 0.000000
0.197421 0.334173 0.000000
0.329046 0.353307 0.000000
0.432776 0.345739 0.000000
0.518425 0.297765 0.000000
0.602960 0.274052 0.000000
0.677760 0.292058 0.000000
0.751186 0.311070 0.000000
0.812253 0.327062 0.000000
0.870298 0.344976 0.000000
0.925566 0.365179 0.000000
0.975738 0.387274 0.000000
1.000000 0.410712 0.000000
1.000000 0.433600 0.000000
1.000000 0.455055 0.000000
1.000000 0.466346 0.000000
1.000000 0.465126 0.000000
1.000000 0.462654 0.000000
1.000000 0.459297 0.000000
1.000000 0.454444 0.000000
1.000000 0.448768 0.000000
0.000000 0.294743 0.168643
0.000000 0.294591 0.167971
0.000000 0.293614 0.165011
0.000000 0.292943 0.159792
0.000000 0.292638 0.151156
0.000000 0.293492 0.139071
0.000000 0.296757 0.120974
0.000000 0.302922 0.093355
0.000000 0.312657 0.000000
0.000000 0.325231 0.000000
0.000000 0.341833 0.000000
0.000000 0.361883 0.000000
0.000000 0.383642 0.000000
0.263371 0.404608 0.000000
0.402777 0.422614 0.000000
0.512444 0.412818 0.000000
0.595697 0.358373 0.000000
0.682795 0.315648 0.000000
0.752621 0.334966 0.000000
0.819028 0.354955 0.000000
0.877165 0.374212 0.000000
0.929046 0.393652 0.000000
0.976440 0.414282 0.000000
1.000000 0.436042 0.000000
1.000000 0.457343 0.000000
1.000000 0.477638 0.000000
1.000000 0.496681 0.000000
1.000000 0.513848 0.000000
1.000000 0.521324 0.000000
1.000000 0.518181 0.000000
1.000000 0.513512 0.000000
1.000000 0.507500 0.000000
0.000000 0.346960 0.192233
0.000000 0.347387 0.191989
0.000000 0.347509 0.189548
0.000000 0.348058 0.184024
0.000000 0.349279 0.175875
0.000000 0.351995 0.163699
0.000000 0.357305 0.145815
0.000000 0.365515 0.118166
0.000000 0.376745 0.037385
0.000000 0.390509 0.000000
0.000000 0.405982 0.000000
0.000000 0.423621 0.000000
0.000000 0.442084 0.000000
0.149020 0.459480 0.000000
0.330236 0.475349 0.000000
0.470863 0.487861 0.000000
0.582330 0.477089 0.000000
0.660883 0.417853 0.000000
0.749966 0.355993 0.000000
0.815213 0.377020 0.000000
0.877836 0.399725 0.000000
0.934905 0.423072 0.000000
0.980774 0.444007 0.000000
1.000000 0.465431 0.000000
1.000000 0.486366 0.000000
1.000000 0.506065 0.000000
1.000000 0.524254 0.000000
1.000000 0.540276 0.000000
1.000000 0.554009 0.000000
1.000000 0.565362 0.000000
1.000000 0.567010 0.000000
1.000000 0.559350 0.000000
0.000000 0.402167 0.218143
0.000000 0.402289 0.217624
0.000000 0.402716 0.215244
0.000000 0.403723 0.210452
0.000000 0.405676 0.202365
0.000000 0.408972 0.189914
0.000000 0.414557 0.171969
0.000000 0.422766 0.145632
0.000000 0.433539 0.099916
0.000000 0.446998 0.000000
0.000000 0.462409 0.000000
0.000000 0.479622 0.000000
0.000000 0.498207 0.000000
0.000000 0.516197 0.000000
0.227420 0.532647 0.000000
0.399298 0.545922 0.000000
0.540002 0.556268 0.000000
0.654597 0.547021 0.000000
0.728603 0.484565 0.000000
0.817472 0.410590 0.000000
0.879667 0.426368 0.000000
0.936126 0.450416 0.000000
0.986358 0.474769 0.000000
1.000000 0.496193 0.000000
1.000000 0.516167 0.000000
1.000000 0.534936 0.000000
1.000000 0.552087 0.000000
1.000000 0.566918 0.000000
1.000000 0.579248 0.000000
1.000000 0.589197 0.000000
1.000000 0.596826 0.000000
1.000000 0.602625 0.000000
0.000000 0.472755 0.252689
0.000000 0.474037 0.252415
0.000000 0.555657 0.292149
0.000000 0.556817 0.285527
0.000000 0.558984 0.275273
0.000000 0.562066 0.259922
0.000000 0.566766 0.237613
0.000000 0.574121 0.205936
0.000000 0.584527 0.157259
0.000000 0.597742 0.000000
0.000000 0.612909 0.000000
0.000000 0.627710 0.000000
0.000000 0.641321 0.000000
0.000000 0.653468 0.000000
0.000000 0.663111 0.000000
0.359228 0.670100 0.000000
0.524681 0.673548 0.000000
0.662409 0.675227 0.000000
0.771603 0.661311 0.000000
0.834501 0.590784 0.000000
0.913603 0.514305 0.000000
0.967926 0.505882 0.000000
1.000000 0.526513 0.000000
1.000000 0.545739 0.000000
1.000000 0.561364 0.000000
1.000000 0.574395 0.000000
1.000000 0.586023 0.000000
1.000000 0.596399 0.000000
1.000000 0.605524 0.000000
1.000000 0.613062 0.000000
1.000000 0.619043 0.000000
1.000000 0.623285 0.000000
0.000000 0.573999 0.305089
0.000000 0.581750 0.309056
0.000000 0.590326 0.311376
0.000000 0.598962 0.309789
0.000000 0.606622 0.303319
0.000000 0.611749 0.289982
0.000000 0.616602 0.270146
0.000000 0.622431 0.241459
0.000000 0.630915 0.200381
0.000000 0.641779 0.127565
0.000000 0.654963 0.000000
0.000000 0.668269 0.000000
0.000000 0.680232 0.000000
0.000000 0.691524 0.000000
0.000000 0.700923 0.000000
0.180911 0.708583 0.000000
0.421302 0.714015 0.000000
0.577142 0.717891 0.000000
0.710506 0.720882 0.000000
0.819211 0.712520 0.000000
0.877592 0.647242 0.000000
0.953979 0.578637 0.000000
1.000000 0.551385 0.000000
1.000000 0.570275 0.000000
1.000000 0.586267 0.000000
1.000000 0.599847 0.000000
1.000000 0.609949 0.000000
1.000000 0.618952 0.000000
1.000000 0.626764 0.000000
1.000000 0.633265 0.000000
1.000000 0.638300 0.000000
1.000000 0.641779 0.000000
0.000000 0.633448 0.340185
0.000000 0.641291 0.344427
0.000000 0.650111 0.347570
0.000000 0.658747 0.347723
0.000000 0.666163 0.342077
0.000000 0.671382 0.329534
0.000000 0.675837 0.310643
0.000000 0.680934 0.284886
0.000000 0.687831 0.248264
0.000000 0.696559 0.193545
0.000000 0.707393 0.060060
0.000000 0.719387 0.000000
0.000000 0.729702 0.000000
0.000000 0.739559 0.000000
0.000000 0.748348 0.000000
0.000000 0.755489 0.000000
0.297887 0.760708 0.000000
0.491646 0.764462 0.000000
0.637659 0.767178 0.000000
0.764401 0.769314 0.000000
0.867124 0.764401 0.000000
0.919310 0.703334 0.000000
0.988952 0.641566 0.000000
1.000000 0.595727 0.000000
1.000000 0.611139 0.000000
1.000000 0.623743 0.000000
1.000000 0.634028 0.000000
1.000000 0.641840 0.000000
1.000000 0.648310 0.000000
1.000000 0.653559 0.000000
1.000000 0.657496 0.000000
1.000000 0.659998 0.000000
0.000000 0.696468 0.383307
0.000000 0.703120 0.387823
0.000000 0.710597 0.390723
0.000000 0.717861 0.390387
0.000000 0.724208 0.386175
0.000000 0.728664 0.374578
0.000000 0.732662 0.357275
0.000000 0.737209 0.332616
0.000000 0.743191 0.300298
0.000000 0.750423 0.255436
0.000000 0.759487 0.184482
0.000000 0.769711 0.000000
0.000000 0.779141 0.000000
0.000000 0.787350 0.000000
0.000000 0.795041 0.000000
0.000000 0.801877 0.000000
0.000000 0.808377 0.000000
0.402655 0.813870 0.000000
0.573419 0.818692 0.000000
0.711879 0.822965 0.000000
0.831235 0.826993 0.000000
0.928496 0.826780 0.000000
0.974701 0.774472 0.000000
1.000000 0.718959 0.000000
1.000000 0.658564 0.000000
1.000000 0.669490 0.000000
1.000000 0.677028 0.000000
1.000000 0.681971 0.000000
1.000000 0.685054 0.000000
1.000000 0.687343 0.000000
1.000000 0.688533 0.000000
1.000000 0.688685 0.000000
0.000000 0.794247 0.469825
0.000000 0.796628 0.472358
0.000000 0.798825 0.471931
0.000000 0.800778 0.467750
0.000000 0.802609 0.459693
0.000000 0.803983 0.447089
0.000000 0.806058 0.429816
0.000000 0.809171 0.406592
0.000000 0.813687 0.377356
0.000000 0.819791 0.338811
0.000000 0.827146 0.286503
0.000000 0.835386 0.204929
0.000000 0.843748 0.000000
0.000000 0.849790 0.000000
0.000000 0.854887 0.000000
0.000000 0.859251 0.000000
0.000000 0.862791 0.000000
0.313390 0.865446 0.000000
0.512657 0.867216 0.000000
0.657496 0.868315 0.000000
0.778012 0.868894 0.000000
0.881254 0.869505 0.000000
0.968566 0.868040 0.000000
1.000000 0.818479 0.000000
1.000000 0.764614 0.000000
1.000000 0.693080 0.000000
1.000000 0.698970 0.000000
1.000000 0.703639 0.000000
1.000000 0.706050 0.000000
1.000000 0.706447 0.000000
1.000000 0.706447 0.000000
1.000000 0.705684 0.000000
0.000000 0.843168 0.525902
0.000000 0.844785 0.527611
0.000000 0.846555 0.527398
0.000000 0.848295 0.524132
0.000000 0.849882 0.517144
0.000000 0.851377 0.506065
0.000000 0.853300 0.490059
0.000000 0.855924 0.470008
0.000000 0.859678 0.444495
0.000000 0.864683 0.411627
0.000000 0.870634 0.368902
0.000000 0.877317 0.310399
0.000000 0.884489 0.220768
0.000000 0.890867 0.061799
0.000000 0.895079 0.000000
0.000000 0.898741 0.000000
0.000000 0.901793 0.000000
0.171054 0.903990 0.000000
0.445289 0.905303 0.000000
0.601556 0.905852 0.000000
0.726833 0.905882 0.000000
0.832303 0.905669 0.000000
0.923369 0.905272 0.000000
1.000000 0.904540 0.000000
1.000000 0.849943 0.000000
1.000000 0.798398 0.000000
1.000000 0.733669 0.000000
1.000000 0.721065 0.000000
1.000000 0.723598 0.000000
1.000000 0.724117 0.000000
1.000000 0.722957 0.000000
1.000000 0.720912 0.000000
0.000000 0.898497 0.609339
0.000000 0.900572 0.612177
0.000000 0.901793 0.611933
0.000000 0.902159 0.607477
0.000000 0.901915 0.598779
0.000000 0.901518 0.586297
0.000000 0.901152 0.569421
0.000000 0.901335 0.547967
0.000000 0.902373 0.522301
0.000000 0.904448 0.490425
0.000000 0.907134 0.451331
0.000000 0.911131 0.401801
0.000000 0.915618 0.335302
0.000000 0.920439 0.234928
0.000000 0.922606 0.168215
0.000000 0.923919 0.089174
0.000000 0.925078 0.000000
0.000000 0.926146 0.000000
0.340826 0.927184 0.000000
0.523949 0.928038 0.000000
0.658839 0.928374 0.000000
0.769986 0.928038 0.000000
0.864225 0.926879 0.000000
0.946563 0.925048 0.000000
1.000000 0.922423 0.000000
1.000000 0.879911 0.000000
1.000000 0.830076 0.000000
1.000000 0.769467 0.000000
1.000000 0.741024 0.000000
1.000000 0.741207 0.000000
1.000000 0.739773 0.000000
1.000000 0.736812 0.000000
0.000000 0.923613 0.652796
0.000000 0.925261 0.655848
0.000000 0.926452 0.656641
0.000000 0.927276 0.653620
0.000000 0.927947 0.647791
0.000000 0.928710 0.639399
0.000000 0.929900 0.627344
0.000000 0.931640 0.612146
0.000000 0.934051 0.593347
0.000000 0.937072 0.570367
0.000000 0.940459 0.540093
0.000000 0.944396 0.502647
0.000000 0.948547 0.453834
0.000000 0.952789 0.387732
0.000000 0.956298 0.309758
0.000000 0.956878 0.276555
0.000000 0.957153 0.235660
0.000000 0.957336 0.183444
0.291844 0.957427 0.099092
0.482399 0.957366 0.000000
0.616205 0.956847 0.000000
0.725429 0.955871 0.000000
0.818814 0.954345 0.000000
0.900725 0.952239 0.000000
0.974884 0.949523 0.000000
1.000000 0.946197 0.000000
1.000000 0.907988 0.000000
1.000000 0.860349 0.000000
1.000000 0.804593 0.000000
1.000000 0.763851 0.000000
1.000000 0.761593 0.000000
1.000000 0.757931 0.000000
0.000000 0.952209 0.713130
0.000000 0.952850 0.714504
0.000000 0.953368 0.713558
0.000000 0.953796 0.711086
0.000000 0.954223 0.706050
0.000000 0.954803 0.698421
0.000000 0.955688 0.688746
0.000000 0.956970 0.675715
0.000000 0.958709 0.660243
0.000000 0.961089 0.641077
0.000000 0.963806 0.616968
0.000000 0.967071 0.587335
0.000000 0.970581 0.549676
0.000000 0.974243 0.500572
0.000000 0.977966 0.434424
0.000000 0.979431 0.389410
0.000000 0.979400 0.360479
0.000000 0.979248 0.327153
0.268345 0.978973 0.292088
0.451453 0.978485 0.252262
0.578424 0.977630 0.202792
0.683162 0.976257 0.124025
0.773068 0.974334 0.000000
0.853117 0.971862 0.000000
0.925414 0.968933 0.000000
0.992798 0.965362 0.000000
1.000000 0.961425 0.000000
1.000000 0.926513 0.000000
1.000000 0.880980 0.000000
1.000000 0.828763 0.000000
1.000000 0.778378 0.000000
1.000000 0.774838 0.000000
0.060029 0.970916 0.758816
0.109468 0.971283 0.759823
0.117800 0.971740 0.759487
0.110811 0.972259 0.757900
0.091707 0.973022 0.755001
0.048249 0.974212 0.751186
0.089509 0.976043 0.747402
0.104250 0.978424 0.742214
0.133089 0.981231 0.736324
0.156985 0.984405 0.728603
0.175753 0.987854 0.718410
0.183871 0.991363 0.704616
0.177005 0.994965 0.685542
0.148562 0.998444 0.659876
0.000000 1.000000 0.624964
0.000000 1.000000 0.580316
0.249516 1.000000 0.562158
0.370794 1.000000 0.541527
0.467506 1.000000 0.520867
0.553491 1.000000 0.498970
0.631891 1.000000 0.475654
0.704707 1.000000 0.448615
0.772061 0.998535 0.416175
0.835935 0.996063 0.375677
0.896971 0.993072 0.324346
0.956054 0.989563 0.255253
1.000000 0.985504 0.140719
1.000000 0.980896 0.000000
1.000000 0.949859 0.000000
1.000000 0.907286 0.000000
1.000000 0.859220 0.000000
1.000000 0.802304 0.000000
0.536156 0.991333 0.830930
0.536126 0.991363 0.830808
0.534691 0.991424 0.829923
0.531029 0.991608 0.828092
0.526207 0.991943 0.825254
0.520439 0.992432 0.821561
0.514000 0.993164 0.816861
0.506432 0.994232 0.810819
0.500267 0.995514 0.804135
0.493111 0.997040 0.795773
0.485389 0.998871 0.785611
0.476539 1.000000 0.773159
0.466133 1.000000 0.757717
