20 Preset/City Style/【3】LUT video cho PR-AE-FCPX/TONE 1/Colors Change Taxi_ Reflection.cube
# Created by Adobe Lightroom plugin Export LUT (1.24.0)
# www.johnrellis.com/lightroom/exportlut.htm
# Preset: Colors Change Taxi, Reflection
# Color profile: E:\lut插件\exportlut.1.24\exportlut.lrplugin\color profiles\Rec709gamma2.4.icc
LUT_3D_SIZE 5
DOMAIN_MIN 0.000000 0.000000 0.000000
DOMAIN_MAX 0.903226 0.903226 0.903226
0.109010 0.117922 0.116487
0.136141 0.117922 0.114687
0.413275 0.117250 0.107240
0.829618 0.124422 0.132815
1.000000 0.395270 0.336461
0.124941 0.131807 0.124117
0.176638 0.162325 0.104891
0.442908 0.176913 0.085756
0.869993 0.225040 0.110933
1.000000 0.432593 0.336187
0.367407 0.353979 0.303990
0.330571 0.322881 0.329747
0.665400 0.544457 0.000000
0.936461 0.475166 0.000000
1.000000 0.503044 0.238041
0.711086 0.691402 0.624292
0.703609 0.683558 0.642329
0.783780 0.727657 0.556786
0.931456 0.785031 0.000000
1.000000 0.717342 0.000000
0.882811 0.871916 0.832303
0.881071 0.869993 0.837217
0.853300 0.844297 0.839017
0.958221 0.902159 0.713832
1.000000 0.913634 0.000000
0.106783 0.116701 0.132631
0.140047 0.111788 0.149203
0.404334 0.024567 0.127779
0.789090 0.169467 0.226871
1.000000 0.419226 0.404517
0.089967 0.157107 0.138796
0.155154 0.160220 0.163027
0.401831 0.194766 0.190066
0.802152 0.268070 0.255924
1.000000 0.437476 0.393408
0.382361 0.382055 0.302647
0.371618 0.359747 0.331518
0.580224 0.478157 0.000000
0.879789 0.436500 0.155459
1.000000 0.530694 0.356146
0.721889 0.706355 0.628260
0.719387 0.701137 0.647059
0.758328 0.719509 0.624994
0.921508 0.780484 0.000000
1.000000 0.713466 0.000000
0.885222 0.875212 0.831449
0.883268 0.872679 0.835538
0.874907 0.865934 0.856138
0.956085 0.909270 0.758968
1.000000 0.921813 0.000000
0.017700 0.139773 0.347021
0.132479 0.132845 0.369329
0.402625 0.000000 0.438056
0.895842 0.000000 0.222782
1.000000 0.196353 0.354772
0.156435 0.225437 0.382177
0.196963 0.221073 0.397559
0.429603 0.129854 0.457008
0.897795 0.000000 0.260136
1.000000 0.396612 0.452491
0.000000 0.501701 0.391150
0.100069 0.502129 0.416480
0.521416 0.509728 0.524071
0.802365 0.576104 0.571221
0.962829 0.674250 0.652125
0.722530 0.757748 0.622156
0.730007 0.747433 0.643000
0.744625 0.730007 0.706477
0.882292 0.780423 0.438636
1.000000 0.734310 0.537072
0.885374 0.883330 0.819211
0.886900 0.882567 0.825681
0.886320 0.876829 0.847776
0.921263 0.895201 0.823911
1.000000 0.917967 0.447639
0.117128 0.257816 0.688167
0.198825 0.251652 0.698238
0.385199 0.203464 0.730648
0.747219 0.000000 0.769284
1.000000 0.000000 0.578424
0.278019 0.355688 0.699763
0.306523 0.347021 0.706661
0.425544 0.298405 0.729885
0.744442 0.000000 0.760464
1.000000 0.000000 0.573327
0.467659 0.566125 0.710262
0.520317 0.575158 0.712917
0.590600 0.582483 0.738125
0.771756 0.496620 0.766903
1.000000 0.470405 0.605524
0.385382 0.801114 0.679011
0.442145 0.796139 0.686244
0.618860 0.789883 0.727199
0.797574 0.787564 0.788296
0.931334 0.818601 0.809934
0.850401 0.914031 0.775174
0.858854 0.912779 0.787076
0.889952 0.910307 0.834134
0.906218 0.899260 0.883085
0.989746 0.924407 0.738399
0.586389 0.579644 0.897154
0.593194 0.572381 0.898924
0.625452 0.537377 0.906462
0.705592 0.442847 0.920165
0.950805 0.228336 0.937041
0.633997 0.635859 0.894530
0.638331 0.629023 0.896330
0.661036 0.596887 0.903716
0.726192 0.511070 0.917662
0.950408 0.342870 0.935363
0.723079 0.748470 0.890074
0.734981 0.753353 0.891691
0.747951 0.739162 0.898131
0.781430 0.687770 0.910613
0.942382 0.589075 0.929351
0.739345 0.841032 0.897215
0.754025 0.840482 0.897368
0.807401 0.841062 0.898222
0.843442 0.837736 0.910033
0.933074 0.788174 0.926696
0.673091 0.949859 0.852140
0.689174 0.949126 0.856046
0.748928 0.946593 0.872068
0.840208 0.942992 0.900725
0.944549 0.941436 0.940642
