20 Preset/City Style/【3】LUT video cho PR-AE-FCPX/TONE 1/Colors Change Blue Tone Portrait.cube
# Created by Adobe Lightroom plugin Export LUT (1.24.0)
# www.johnrellis.com/lightroom/exportlut.htm
# Preset: Colors Change Blue Tone Portrait
# Color profile: E:\lut插件\exportlut.1.24\exportlut.lrplugin\color profiles\Rec709gamma2.4.icc
LUT_3D_SIZE 8
DOMAIN_MIN 0.000000 0.000000 0.000000
DOMAIN_MAX 0.903226 0.903226 0.903226
0.003540 0.115175 0.114321
0.040314 0.117586 0.116213
0.136690 0.123201 0.122621
0.281621 0.115846 0.129488
0.505119 0.000000 0.139986
0.762051 0.000000 0.158511
1.000000 0.224613 0.226902
1.000000 0.402594 0.361883
0.015473 0.125673 0.127260
0.049500 0.129610 0.121950
0.123781 0.137881 0.125917
0.252628 0.139467 0.131197
0.454200 0.113527 0.141360
0.705318 0.005158 0.157351
0.967773 0.223514 0.202579
1.000000 0.387396 0.317388
0.095644 0.163210 0.175235
0.098695 0.164797 0.177188
0.192630 0.185550 0.140810
0.287968 0.203250 0.141543
0.444373 0.235843 0.157412
0.733272 0.305852 0.176303
0.988220 0.435370 0.252842
1.000000 0.527764 0.395880
0.215335 0.260472 0.298436
0.214603 0.259983 0.297704
0.279942 0.293584 0.272923
0.472847 0.366094 0.183993
0.626520 0.410101 0.147402
0.758663 0.512139 0.217380
0.933562 0.591516 0.317510
1.000000 0.644556 0.442695
0.392096 0.449775 0.522759
0.392187 0.449836 0.522850
0.403265 0.461860 0.535424
0.560052 0.544640 0.443915
0.720729 0.584314 0.273136
0.817502 0.574609 0.144991
0.911986 0.655665 0.301061
0.982788 0.727779 0.456489
0.585321 0.652918 0.721401
0.605249 0.671901 0.737423
0.611749 0.678004 0.742519
0.670222 0.711482 0.717891
0.788724 0.753353 0.620111
0.902007 0.760586 0.468147
0.986145 0.735836 0.297154
1.000000 0.786801 0.504723
0.778164 0.825528 0.858335
0.782223 0.828916 0.860960
0.782925 0.829496 0.861448
0.789303 0.834684 0.865019
0.844053 0.857206 0.824247
0.915373 0.871916 0.762203
0.984710 0.859770 0.662348
1.000000 0.816617 0.478035
0.904265 0.926909 0.939544
0.904387 0.927031 0.939635
0.906401 0.928588 0.940887
0.911467 0.932464 0.944091
0.909392 0.927153 0.927184
0.942657 0.940429 0.911254
0.979553 0.945037 0.883360
1.000000 0.930449 0.828855
0.000000 0.119234 0.127169
0.002533 0.119081 0.128939
0.119722 0.122866 0.135866
0.248905 0.120241 0.146975
0.454047 0.035645 0.163149
0.700038 0.000000 0.185641
0.950439 0.102449 0.233768
1.000000 0.326543 0.327062
0.011658 0.127474 0.131167
0.025574 0.131563 0.134768
0.124239 0.136904 0.140352
0.246555 0.139498 0.149752
0.441749 0.117281 0.164431
0.686885 0.004517 0.186435
0.917144 0.166537 0.224277
1.000000 0.329137 0.303349
0.100191 0.166445 0.179263
0.102815 0.168338 0.181765
0.175753 0.184115 0.156924
0.267704 0.204074 0.161044
0.426398 0.226688 0.176699
0.678645 0.269596 0.198642
0.911284 0.358129 0.243015
1.000000 0.466377 0.347967
0.202304 0.248142 0.283024
0.203433 0.249332 0.284428
0.249393 0.274968 0.275792
0.399969 0.318669 0.194308
0.522515 0.340887 0.171603
0.644129 0.426856 0.221500
0.853361 0.511376 0.274205
1.000000 0.587457 0.376684
0.379583 0.435523 0.506889
0.377173 0.432776 0.503838
0.381201 0.437446 0.509026
0.508385 0.500084 0.423194
0.655421 0.530175 0.265232
0.759304 0.528435 0.163119
0.868498 0.619013 0.287266
0.958221 0.697261 0.423987
0.554925 0.623407 0.695705
0.557519 0.626001 0.697993
0.566186 0.634424 0.705409
0.625452 0.671931 0.690425
0.755459 0.724544 0.597681
0.881132 0.743038 0.457435
0.968231 0.720821 0.292119
1.000000 0.773312 0.483772
0.750607 0.802213 0.840208
0.747066 0.799161 0.837858
0.746975 0.799100 0.837797
0.757107 0.807706 0.844450
0.822690 0.839475 0.809232
0.900633 0.857847 0.744045
0.973114 0.844388 0.630182
1.000000 0.800717 0.429694
0.891752 0.917174 0.931579
0.894224 0.919127 0.933165
0.895933 0.920439 0.934264
0.901732 0.924956 0.937957
0.916442 0.933349 0.934508
0.943511 0.942168 0.915190
0.977813 0.943908 0.882506
1.000000 0.929046 0.826963
0.000000 0.132540 0.170260
0.000000 0.132815 0.171786
0.000000 0.131380 0.177493
0.236088 0.123018 0.209964
0.468147 0.000000 0.252873
0.780026 0.000000 0.323735
1.000000 0.153079 0.411261
1.000000 0.396918 0.518669
0.000000 0.147127 0.183383
0.000000 0.146914 0.183688
0.013977 0.143740 0.186618
0.243381 0.138643 0.214115
0.467445 0.097475 0.252842
0.764736 0.000000 0.312444
0.975769 0.193484 0.388830
1.000000 0.392432 0.490730
0.096223 0.178134 0.204257
0.107637 0.182986 0.208438
0.148775 0.202029 0.225071
0.296666 0.216373 0.243320
0.509026 0.237125 0.277684
0.757778 0.288945 0.332006
0.955047 0.384497 0.403876
1.000000 0.495186 0.506340
0.236942 0.281865 0.324834
0.245945 0.290837 0.335943
0.261906 0.307073 0.355749
0.403418 0.354040 0.291020
0.540429 0.396490 0.294041
0.703273 0.475563 0.354345
0.906249 0.551537 0.427497
1.000000 0.618372 0.526818
0.406500 0.465949 0.540551
0.407355 0.467018 0.541711
0.415747 0.476448 0.551873
0.498421 0.526268 0.525048
0.665614 0.565972 0.382574
0.770169 0.565087 0.308537
0.867521 0.646204 0.414618
0.972503 0.714900 0.533349
0.573083 0.641169 0.711269
0.577264 0.645167 0.714748
0.583673 0.651331 0.720058
0.604730 0.668727 0.727260
0.731289 0.723049 0.646052
0.862028 0.743984 0.526513
0.955932 0.728756 0.402350
1.000000 0.786313 0.567437
0.768826 0.817685 0.852201
0.766171 0.815457 0.850462
0.763149 0.812863 0.848447
0.768063 0.817044 0.851713
0.815183 0.840970 0.828885
0.893004 0.863188 0.774594
0.967376 0.855741 0.686915
1.000000 0.817380 0.534356
0.894865 0.919615 0.933562
0.893919 0.918883 0.932982
0.895323 0.919982 0.933867
0.903685 0.926482 0.939208
0.913603 0.932769 0.939300
0.942138 0.944182 0.923430
0.975402 0.947631 0.895720
1.000000 0.934325 0.846159
0.000000 0.159396 0.273930
0.000000 0.160494 0.278691
0.000000 0.160189 0.275944
0.000000 0.152712 0.282994
0.377295 0.098634 0.380896
0.666133 0.000000 0.449836
0.938964 0.000000 0.559136
1.000000 0.378637 0.653407
0.000000 0.181064 0.305547
0.000000 0.180819 0.304784
0.000000 0.177401 0.297704
0.000000 0.166323 0.300175
0.396368 0.120455 0.390906
0.682399 0.000000 0.462562
0.941161 0.120119 0.563714
1.000000 0.415229 0.659388
0.000000 0.245701 0.367498
0.000000 0.247074 0.364691
0.000000 0.242618 0.350378
0.141421 0.221530 0.339269
0.469978 0.216709 0.421607
0.763912 0.265080 0.531151
0.986481 0.429938 0.642939
1.000000 0.582727 0.717678
0.221469 0.318883 0.402045
0.230320 0.323125 0.404761
0.270298 0.346349 0.422431
0.341741 0.393072 0.458412
0.555688 0.434577 0.500389
0.765957 0.492988 0.554894
0.933715 0.570275 0.622004
1.000000 0.654719 0.696681
0.443946 0.508019 0.585107
0.446265 0.510552 0.587701
0.466743 0.532769 0.610224
0.500481 0.568414 0.645106
0.651270 0.614069 0.564477
0.761288 0.632197 0.547387
0.863462 0.694636 0.615503
0.986481 0.748379 0.692531
0.635584 0.700191 0.760647
0.650629 0.713985 0.771695
0.651575 0.714870 0.772396
0.664668 0.726680 0.781765
0.729397 0.760311 0.755917
0.847440 0.772335 0.659571
0.937041 0.761349 0.590143
0.982666 0.814298 0.692134
0.789822 0.835264 0.865965
0.791958 0.837034 0.867338
0.795926 0.840330 0.869932
0.803861 0.846830 0.875090
0.821195 0.858213 0.874601
0.886870 0.879179 0.830198
0.954803 0.871092 0.758785
1.000000 0.839689 0.661891
0.907500 0.929442 0.941619
0.907530 0.929473 0.941650
0.908476 0.930175 0.942199
0.911772 0.932738 0.944305
0.916045 0.936004 0.947021
0.938720 0.946441 0.936004
0.970611 0.952239 0.913512
1.000000 0.943023 0.875456
0.000000 0.217350 0.479805
0.000000 0.219242 0.484474
0.000000 0.215915 0.474189
0.000000 0.207828 0.452522
0.000000 0.184939 0.455146
0.523644 0.049714 0.596674
0.820218 0.000000 0.651240
1.000000 0.247868 0.734707
0.000000 0.245518 0.512200
0.000000 0.247227 0.516716
0.000000 0.240726 0.503777
0.000000 0.224918 0.470314
0.000000 0.199039 0.471199
0.545281 0.108797 0.610254
0.829801 0.000000 0.658137
1.000000 0.298436 0.738033
0.000000 0.341314 0.581476
0.000000 0.338476 0.578424
0.000000 0.322484 0.559319
0.000000 0.297642 0.529320
0.083162 0.257969 0.510796
0.592645 0.218357 0.629938
0.849302 0.249668 0.674434
1.000000 0.428595 0.743618
0.000000 0.466682 0.659602
0.000000 0.471901 0.661707
0.000000 0.493874 0.670344
0.245762 0.468208 0.635737
0.326757 0.407477 0.599664
0.680720 0.419776 0.669093
0.898528 0.515648 0.731106
1.000000 0.653040 0.793118
0.394568 0.532738 0.650935
0.403449 0.538079 0.654200
0.434363 0.554376 0.662409
0.488106 0.584802 0.677790
0.551659 0.620142 0.692836
0.738552 0.658961 0.722530
0.890440 0.711696 0.761715
0.986755 0.767300 0.803647
0.589929 0.657313 0.725154
0.594110 0.661341 0.728573
0.602014 0.668818 0.734859
0.628779 0.693904 0.755550
0.662104 0.724422 0.779965
0.790127 0.770382 0.741360
0.883604 0.788540 0.736995
0.943725 0.832029 0.784176
0.788571 0.834226 0.865141
0.787259 0.833127 0.864286
0.789670 0.835142 0.865873
0.801755 0.845151 0.873716
0.815061 0.856046 0.882383
0.857053 0.875700 0.864622
0.928588 0.873991 0.804196
0.990356 0.852354 0.747616
0.899016 0.922850 0.936217
0.898833 0.922698 0.936095
0.899321 0.923064 0.936400
0.908232 0.930022 0.942077
0.913817 0.934264 0.945586
0.925628 0.941619 0.945434
0.958618 0.950988 0.924712
0.994781 0.943328 0.888243
0.000000 0.351720 0.739437
0.000000 0.352056 0.740078
0.000000 0.339666 0.725124
0.000000 0.319463 0.701259
0.000000 0.291997 0.668482
0.000000 0.236667 0.662989
0.655787 0.168276 0.763973
0.974762 0.122530 0.835752
0.000000 0.362127 0.730068
0.000000 0.359503 0.727230
0.000000 0.347967 0.715114
0.000000 0.328679 0.694667
0.000000 0.296117 0.655848
0.000000 0.243565 0.651209
0.648859 0.187289 0.754513
0.964111 0.152529 0.825864
0.000000 0.479316 0.784909
0.000000 0.475319 0.782315
0.000000 0.461707 0.773617
0.000000 0.420600 0.741787
0.000000 0.370275 0.697841
0.000000 0.307561 0.684413
0.710719 0.292393 0.783291
0.975311 0.327947 0.826871
0.000000 0.638575 0.843015
0.000000 0.634302 0.838682
0.000000 0.628229 0.827909
0.093965 0.607172 0.818051
0.181827 0.549157 0.785519
0.368841 0.466499 0.758114
0.823423 0.484352 0.837736
0.991333 0.554925 0.840360
0.391699 0.700465 0.840574
0.402869 0.702846 0.840726
0.449378 0.715755 0.843503
0.526970 0.742580 0.851102
0.545830 0.703304 0.820371
0.547387 0.622187 0.785031
0.847013 0.646265 0.828763
0.977111 0.741360 0.861418
0.609613 0.730129 0.814969
0.621241 0.737850 0.819577
0.635950 0.744167 0.820890
0.663691 0.757229 0.824643
0.699550 0.774075 0.828946
0.753231 0.804471 0.841917
0.886198 0.843320 0.870665
0.963745 0.875883 0.895964
0.795010 0.839567 0.869352
0.799527 0.843320 0.872282
0.805722 0.848417 0.876310
0.818173 0.858579 0.884398
0.837217 0.873991 0.896666
0.854002 0.887480 0.907500
0.909300 0.895659 0.874205
0.958862 0.894530 0.862333
0.900359 0.923888 0.937072
0.899626 0.923339 0.936614
0.901152 0.924498 0.937560
0.908293 0.930022 0.942107
0.915251 0.935424 0.946502
0.922332 0.940887 0.950988
0.945586 0.951751 0.943389
0.982208 0.948791 0.913298
0.000000 0.495155 0.875334
0.000000 0.496773 0.876616
0.000000 0.487282 0.871000
0.000000 0.469459 0.861173
0.000000 0.431373 0.838712
0.000000 0.370153 0.796628
0.000000 0.282200 0.793668
0.720699 0.255375 0.850034
0.000000 0.501335 0.869169
0.000000 0.503441 0.871031
0.000000 0.493782 0.865629
0.000000 0.471443 0.853239
0.000000 0.432044 0.829709
0.000000 0.368627 0.784695
0.000000 0.282444 0.778195
0.703578 0.250919 0.835691
0.000000 0.583032 0.889586
0.000000 0.580682 0.888487
0.000000 0.567193 0.881682
0.000000 0.541985 0.869291
0.000000 0.496345 0.845304
0.000000 0.427314 0.804868
0.111604 0.341985 0.801144
0.762081 0.349065 0.861448
0.000000 0.708217 0.913725
0.000000 0.702480 0.911192
0.000000 0.688106 0.905028
0.000000 0.665736 0.895872
0.000000 0.620661 0.876280
0.000000 0.550500 0.844053
0.362341 0.464271 0.834409
0.834409 0.492958 0.888029
0.468299 0.805661 0.930510
0.466621 0.802396 0.928344
0.485603 0.796658 0.922759
0.525689 0.787961 0.913268
0.508049 0.753841 0.897765
0.453925 0.686763 0.869871
0.523949 0.600946 0.850828
0.905821 0.648524 0.910185
0.671778 0.840696 0.922179
0.676631 0.842466 0.922667
0.693080 0.848356 0.923980
0.723018 0.859556 0.926787
0.762081 0.874815 0.930541
0.755215 0.849943 0.913451
0.730068 0.783810 0.888426
0.939269 0.808774 0.916167
0.795773 0.870298 0.914000
0.799374 0.872251 0.914977
0.805936 0.875090 0.915679
0.819577 0.881346 0.917601
0.836545 0.888701 0.919402
0.857328 0.897917 0.921660
0.880156 0.908141 0.924224
0.953124 0.928679 0.940398
0.895293 0.919951 0.933837
0.896300 0.920714 0.934478
0.901610 0.924865 0.937865
0.908110 0.929900 0.941985
0.916594 0.936431 0.947356
0.928099 0.945281 0.954650
0.938720 0.953399 0.961364
0.969238 0.957427 0.943267
0.000000 0.618952 0.958129
0.000000 0.619104 0.958282
0.000000 0.611109 0.954803
0.000000 0.600366 0.950805
0.000000 0.577050 0.942321
0.000000 0.533898 0.926360
0.000000 0.462501 0.898650
0.150423 0.344549 0.902464
0.000000 0.624323 0.955474
0.000000 0.624598 0.955749
0.000000 0.617853 0.953063
0.000000 0.605341 0.948455
0.000000 0.581292 0.939849
0.000000 0.537255 0.923552
0.000000 0.462593 0.893858
0.148592 0.344366 0.895995
0.000000 0.668391 0.957427
0.000000 0.667201 0.957092
0.000000 0.659144 0.954192
0.000000 0.650904 0.952087
0.000000 0.623651 0.942992
0.000000 0.575677 0.926360
0.000000 0.499519 0.898192
0.252476 0.385016 0.898833
0.000000 0.746151 0.960784
0.000000 0.745724 0.960723
0.000000 0.738521 0.958679
0.000000 0.726619 0.955535
0.000000 0.701717 0.948730
0.000000 0.655756 0.935698
0.000000 0.578759 0.911772
0.384924 0.473274 0.909697
0.496498 0.832486 0.965270
0.505089 0.833127 0.965087
0.514488 0.829618 0.962554
0.519799 0.820890 0.959014
0.489815 0.797360 0.953185
0.435279 0.755123 0.942565
0.344060 0.681147 0.923247
0.519341 0.589899 0.918761
0.725612 0.896147 0.969818
0.725093 0.895811 0.969543
0.729824 0.896971 0.969177
0.739406 0.895903 0.967071
0.748409 0.889067 0.961822
0.735439 0.870573 0.955413
0.683528 0.826200 0.943786
0.701900 0.756497 0.935637
0.840543 0.924254 0.966766
0.841215 0.924468 0.966735
0.844938 0.925780 0.966827
0.855619 0.930053 0.967834
0.871916 0.936767 0.969635
0.894347 0.946654 0.972869
0.886259 0.933562 0.964752
0.850889 0.884245 0.948272
0.905364 0.943206 0.964538
0.905608 0.943267 0.964477
0.908019 0.944305 0.964782
0.914000 0.947204 0.965911
0.922087 0.950958 0.967254
0.931762 0.955444 0.968719
0.942962 0.960601 0.970397
0.953399 0.964599 0.970611
