20 Preset/City Style/【3】LUT video cho PR-AE-FCPX/TONE 1/Colors Change Blue_Yellow City.cube
# Created by Adobe Lightroom plugin Export LUT (1.24.0)
# www.johnrellis.com/lightroom/exportlut.htm
# Preset: Colors Change Blue&Yellow City
# Color profile: E:\lut插件\exportlut.1.24\exportlut.lrplugin\color profiles\Rec709gamma2.4.icc
LUT_3D_SIZE 8
DOMAIN_MIN 0.000000 0.000000 0.000000
DOMAIN_MAX 0.903226 0.903226 0.903226
0.000000 0.104799 0.101991
0.003662 0.106050 0.101717
0.044007 0.110872 0.102907
0.114260 0.121157 0.103670
0.208408 0.137423 0.101350
0.361608 0.162661 0.086641
0.572992 0.231815 0.000000
0.809873 0.393713 0.000000
0.001923 0.109010 0.105196
0.017334 0.108553 0.103456
0.057679 0.113222 0.104585
0.122530 0.122713 0.104585
0.217258 0.138399 0.101747
0.368078 0.163729 0.086732
0.574243 0.231968 0.000000
0.808164 0.391852 0.000000
0.044465 0.123415 0.114168
0.063386 0.123751 0.112764
0.116487 0.122499 0.107118
0.177401 0.130556 0.105531
0.271885 0.145754 0.101900
0.423499 0.175570 0.080201
0.630121 0.260044 0.000000
0.846769 0.422675 0.000000
0.149264 0.161532 0.131258
0.157290 0.162051 0.129183
0.193362 0.162356 0.120729
0.284398 0.150057 0.106935
0.410559 0.161471 0.092470
0.550164 0.209323 0.015290
0.720729 0.314092 0.000000
0.898009 0.464179 0.000000
0.299992 0.250370 0.165255
0.308385 0.251408 0.162020
0.345068 0.254887 0.147890
0.421363 0.253208 0.119966
0.558984 0.226871 0.045289
0.705196 0.279393 0.000000
0.840391 0.394995 0.000000
0.970977 0.519402 0.000000
0.513054 0.426337 0.230472
0.524041 0.431250 0.226688
0.556756 0.438300 0.204776
0.621027 0.447883 0.156191
0.715145 0.447425 0.000000
0.850095 0.428870 0.000000
0.962829 0.489479 0.000000
1.000000 0.580743 0.000000
0.755673 0.662898 0.432349
0.761746 0.664485 0.428840
0.783871 0.667079 0.408057
0.826261 0.670100 0.366857
0.885863 0.666712 0.296483
0.958923 0.648707 0.180117
1.000000 0.608911 0.000000
1.000000 0.631891 0.000000
0.912718 0.847074 0.747646
0.915221 0.847166 0.746120
0.926024 0.847410 0.739284
0.947082 0.846891 0.725948
0.976165 0.837888 0.693080
1.000000 0.824765 0.655177
1.000000 0.793423 0.586816
1.000000 0.737697 0.471870
0.000000 0.108553 0.109010
0.000000 0.108553 0.111574
0.026978 0.113344 0.111666
0.114839 0.127047 0.112886
0.212650 0.144289 0.110933
0.363958 0.172183 0.099275
0.566979 0.240269 0.000000
0.798489 0.392340 0.000000
0.000793 0.111391 0.110811
0.004364 0.113100 0.112795
0.050813 0.118227 0.113375
0.125216 0.128817 0.113313
0.223209 0.145876 0.111025
0.374395 0.174197 0.098878
0.572625 0.242283 0.000000
0.800015 0.392584 0.000000
0.040467 0.127993 0.124147
0.056580 0.128908 0.122316
0.114656 0.126986 0.115633
0.176120 0.136385 0.114839
0.271916 0.153231 0.112642
0.423133 0.184970 0.096590
0.618494 0.264103 0.000000
0.834562 0.418372 0.000000
0.147005 0.167422 0.144594
0.155489 0.168246 0.142061
0.192508 0.168704 0.132448
0.278599 0.155428 0.116304
0.397131 0.167483 0.105379
0.533104 0.212985 0.065797
0.701961 0.309880 0.000000
0.885283 0.455512 0.000000
0.299138 0.257053 0.179049
0.307164 0.257755 0.175418
0.342779 0.260594 0.160311
0.416236 0.257176 0.131624
0.549187 0.228641 0.077577
0.694667 0.277592 0.000000
0.832395 0.389899 0.000000
0.965270 0.513939 0.000000
0.510430 0.424628 0.232090
0.518212 0.426520 0.226993
0.551080 0.433234 0.204501
0.615686 0.442298 0.154238
0.710109 0.443030 0.000000
0.845731 0.426764 0.000000
0.959625 0.486458 0.000000
1.000000 0.578149 0.000000
0.751492 0.658564 0.425971
0.756191 0.658656 0.420325
0.778073 0.661280 0.399786
0.821256 0.665126 0.359655
0.882567 0.663478 0.291295
0.955718 0.645960 0.174472
1.000000 0.606195 0.000000
1.000000 0.629114 0.000000
0.910552 0.844694 0.743832
0.913512 0.845304 0.743099
0.924315 0.845487 0.736080
0.945586 0.845121 0.722713
0.976867 0.840208 0.698329
1.000000 0.825895 0.658076
1.000000 0.793545 0.586877
1.000000 0.737636 0.471321
0.000000 0.121492 0.135500
0.000000 0.122530 0.140078
0.000000 0.122835 0.156283
0.091554 0.128298 0.149477
0.190249 0.156802 0.159915
0.387243 0.220798 0.154208
0.593347 0.303197 0.122011
0.815213 0.446937 0.000000
0.000000 0.127108 0.138308
0.000000 0.128634 0.142733
0.000000 0.128908 0.157961
0.090181 0.139651 0.152316
0.219028 0.168368 0.161318
0.396918 0.224094 0.155581
0.598077 0.304356 0.121157
0.817258 0.447211 0.000000
0.048249 0.142000 0.151217
0.055085 0.144411 0.153933
0.085206 0.153719 0.165103
0.168978 0.168063 0.165927
0.285740 0.192630 0.164950
0.444831 0.237064 0.155886
0.639155 0.324193 0.114076
0.844999 0.465003 0.000000
0.136782 0.190829 0.210300
0.146822 0.194858 0.207309
0.188663 0.202884 0.193332
0.282353 0.191104 0.169650
0.401648 0.214145 0.163851
0.541527 0.267277 0.151583
0.715663 0.365789 0.093202
0.894408 0.496925 0.000000
0.296361 0.296422 0.260166
0.305364 0.298589 0.255772
0.344152 0.305241 0.237858
0.422705 0.306584 0.205234
0.557855 0.278141 0.157626
0.699092 0.329320 0.115206
0.833188 0.431647 0.000000
0.965026 0.539910 0.000000
0.506340 0.465736 0.336065
0.514458 0.468116 0.331365
0.547906 0.475288 0.309911
0.613367 0.484169 0.266575
0.708858 0.481331 0.194156
0.843442 0.456611 0.000000
0.957855 0.507927 0.000000
1.000000 0.588342 0.000000
0.751705 0.673793 0.479408
0.756588 0.673854 0.473396
0.778195 0.675227 0.450813
0.821225 0.676905 0.406104
0.882902 0.672541 0.330999
0.957397 0.652918 0.208255
1.000000 0.611597 0.000000
1.000000 0.632654 0.000000
0.910491 0.846799 0.748745
0.912810 0.846708 0.746792
0.923552 0.846921 0.739803
0.945129 0.847196 0.727626
0.976135 0.842466 0.703731
1.000000 0.828763 0.665217
1.000000 0.796963 0.596307
1.000000 0.740688 0.481178
0.000000 0.156039 0.210849
0.000000 0.158816 0.218204
0.000000 0.162905 0.241337
0.000000 0.162600 0.285710
0.099672 0.147524 0.297917
0.219791 0.240238 0.276066
0.516289 0.301793 0.300237
0.812161 0.528283 0.278965
0.000000 0.166018 0.217838
0.000000 0.168399 0.224063
0.000000 0.172671 0.246708
0.000000 0.170687 0.289677
0.147005 0.157015 0.296666
0.211398 0.259800 0.294682
0.544854 0.322087 0.301701
0.818448 0.533227 0.280613
0.106630 0.191501 0.227909
0.108217 0.194583 0.232975
0.097536 0.204532 0.257694
0.000000 0.203464 0.300481
0.241428 0.212680 0.290745
0.381659 0.285466 0.312963
0.653559 0.440955 0.306310
0.849241 0.551110 0.291356
0.177249 0.234104 0.269352
0.181216 0.237583 0.273289
0.198581 0.252171 0.288975
0.232395 0.283299 0.321996
0.374914 0.320531 0.321843
0.537133 0.378546 0.319280
0.718837 0.468391 0.309056
0.891875 0.569726 0.292851
0.304234 0.366613 0.416938
0.305272 0.368017 0.418463
0.312566 0.376226 0.426490
0.400153 0.403845 0.387762
0.548913 0.382818 0.330816
0.687190 0.433967 0.317998
0.822049 0.515557 0.310338
0.951995 0.600061 0.303105
0.482643 0.537011 0.537560
0.493538 0.542657 0.535546
0.528374 0.552819 0.515679
0.598016 0.565911 0.477180
0.698756 0.563775 0.414618
0.833677 0.529381 0.328099
0.945403 0.571038 0.300755
1.000000 0.636713 0.298589
0.723995 0.716823 0.649622
0.729885 0.718044 0.646326
0.752773 0.721706 0.631861
0.796750 0.725368 0.601160
0.860166 0.721675 0.546929
0.938354 0.700679 0.461036
1.000000 0.652644 0.332555
1.000000 0.663508 0.296361
0.904753 0.856718 0.778134
0.907378 0.856779 0.776150
0.918303 0.856748 0.768124
0.940124 0.855375 0.751186
0.972900 0.848966 0.720912
1.000000 0.834653 0.679805
1.000000 0.803220 0.612787
1.000000 0.746365 0.499306
0.000000 0.241520 0.385901
0.000000 0.245640 0.395422
0.000000 0.256748 0.427497
0.000000 0.260960 0.477882
0.000000 0.255894 0.549218
0.000000 0.197238 0.596979
0.472206 0.289891 0.501823
0.532586 0.513787 0.581720
0.000000 0.255955 0.394965
0.000000 0.259739 0.403632
0.000000 0.271763 0.435431
0.000000 0.273747 0.482856
0.000000 0.266514 0.552056
0.000000 0.206088 0.597711
0.474372 0.314580 0.501762
0.568994 0.516991 0.585199
0.037659 0.297948 0.411536
0.007843 0.301213 0.418830
0.000000 0.313054 0.447425
0.000000 0.320104 0.495003
0.000000 0.309239 0.558801
0.126894 0.257603 0.587640
0.466377 0.412696 0.514641
0.691341 0.541009 0.593530
0.241855 0.356207 0.438544
0.246342 0.360632 0.442725
0.266209 0.379583 0.461738
0.254520 0.406470 0.514580
0.146456 0.401221 0.576928
0.458564 0.402106 0.566796
0.573754 0.528985 0.589960
0.841245 0.650202 0.602747
0.346654 0.437018 0.505272
0.350896 0.441291 0.509606
0.367529 0.458137 0.525658
0.399542 0.490211 0.556023
0.446571 0.535821 0.597986
0.612726 0.578882 0.595605
0.772702 0.632959 0.594141
0.913451 0.690822 0.594110
0.528283 0.617853 0.678431
0.531151 0.620600 0.680995
0.534020 0.623194 0.683467
0.539940 0.628687 0.688624
0.632715 0.656489 0.656947
0.779721 0.631800 0.599878
0.894987 0.665797 0.592096
0.986358 0.712917 0.596399
0.692317 0.755306 0.796658
0.695735 0.756588 0.794064
0.712184 0.762448 0.783291
0.750790 0.773373 0.764401
0.811460 0.779873 0.734554
0.889891 0.766934 0.685908
0.989807 0.719905 0.606714
1.000000 0.729885 0.588312
0.873411 0.876951 0.857755
0.875761 0.877440 0.856352
0.885740 0.879301 0.851072
0.906706 0.882872 0.841947
0.937011 0.882353 0.824094
0.977295 0.871885 0.793332
1.000000 0.842344 0.739101
1.000000 0.780087 0.633326
0.000000 0.421027 0.649348
0.000000 0.425849 0.655970
0.000000 0.440986 0.677485
0.000000 0.449592 0.709194
0.000000 0.448188 0.747463
0.000000 0.432044 0.791043
0.000000 0.382086 0.831174
0.679011 0.394354 0.806027
0.000000 0.431067 0.648981
0.000000 0.434668 0.654200
0.000000 0.448310 0.674891
0.000000 0.456977 0.705715
0.000000 0.455390 0.744594
0.000000 0.439124 0.788693
0.000000 0.389288 0.828794
0.688930 0.412451 0.802029
0.000000 0.478553 0.661494
0.000000 0.481178 0.666041
0.000000 0.493172 0.684688
0.000000 0.505577 0.713558
0.000000 0.501366 0.749416
0.000000 0.483680 0.791409
0.000000 0.430854 0.829099
0.732143 0.498299 0.795438
0.325658 0.545159 0.671717
0.324559 0.547326 0.675410
0.323705 0.559442 0.693080
0.320836 0.580560 0.725826
0.262638 0.586358 0.761257
0.000000 0.567803 0.799008
0.327459 0.497993 0.830991
0.745113 0.649622 0.782467
0.465370 0.609583 0.700771
0.469703 0.612390 0.702907
0.487404 0.624842 0.712154
0.520867 0.648219 0.729580
0.529137 0.671595 0.763943
0.479957 0.662440 0.800229
0.695552 0.658991 0.799832
0.764340 0.762051 0.808957
0.583124 0.679652 0.744289
0.587152 0.682521 0.746609
0.599115 0.691127 0.753170
0.621576 0.707149 0.765408
0.654719 0.730495 0.783017
0.701015 0.763455 0.807950
0.820737 0.790127 0.806546
0.922118 0.818112 0.805631
0.761257 0.810575 0.847074
0.763638 0.812436 0.848631
0.771237 0.818418 0.853513
0.783017 0.827695 0.861143
0.789151 0.832547 0.865110
0.839445 0.843412 0.843503
0.927123 0.817319 0.808194
0.992676 0.829648 0.803830
0.877348 0.902190 0.921721
0.877195 0.902098 0.921630
0.877501 0.902342 0.921843
0.883360 0.905333 0.919036
0.904265 0.911101 0.906096
0.937102 0.912627 0.889616
0.980529 0.899138 0.863096
1.000000 0.857115 0.815396
0.000000 0.643671 0.835203
0.000000 0.650019 0.839841
0.000000 0.657191 0.846921
0.000000 0.667048 0.861112
0.000000 0.663325 0.877531
0.000000 0.650568 0.896757
0.000000 0.622644 0.917754
0.000000 0.567224 0.940795
0.000000 0.633051 0.823606
0.000000 0.640558 0.829252
0.000000 0.648066 0.836973
0.000000 0.656214 0.850156
0.000000 0.650355 0.866117
0.000000 0.634638 0.884459
0.000000 0.603815 0.905241
0.000000 0.545525 0.929076
0.320439 0.673640 0.833097
0.321965 0.675196 0.834928
0.321782 0.678126 0.839994
0.334691 0.687770 0.852476
0.246311 0.679316 0.865873
0.000000 0.665644 0.884947
0.000000 0.644709 0.909880
0.000000 0.598413 0.936706
0.513024 0.725765 0.841245
0.510704 0.725246 0.841703
0.505760 0.725856 0.845365
0.513878 0.735622 0.858244
0.500114 0.738491 0.872953
0.446479 0.730007 0.892180
0.378088 0.712520 0.915343
0.281285 0.667994 0.938048
0.635187 0.758724 0.834318
0.632227 0.756466 0.832425
0.629511 0.757321 0.835233
0.629053 0.765042 0.847929
0.631220 0.775509 0.865568
0.605676 0.773983 0.884733
0.557580 0.758267 0.907347
0.585138 0.720912 0.934142
0.706020 0.792660 0.849973
0.708675 0.794339 0.851133
0.716915 0.799496 0.854582
0.732998 0.809720 0.861448
0.755489 0.824155 0.871122
0.770352 0.842344 0.893339
0.749844 0.838071 0.914855
0.862608 0.834989 0.916777
0.793576 0.843259 0.879576
0.796780 0.845579 0.881315
0.801297 0.848600 0.883360
0.811765 0.855741 0.888334
0.825193 0.864836 0.894560
0.844297 0.878019 0.903807
0.870268 0.896544 0.917205
0.933104 0.911467 0.917815
0.899474 0.919768 0.935882
0.900389 0.920531 0.936492
0.905577 0.924651 0.939788
0.911437 0.929320 0.943542
0.918883 0.935241 0.948302
0.921263 0.937133 0.949798
0.944030 0.941344 0.938964
0.988647 0.924590 0.919615
0.554498 0.796506 0.922728
0.560601 0.798917 0.924193
0.559838 0.798856 0.925505
0.578454 0.806271 0.931548
0.558160 0.803189 0.938720
0.518212 0.794247 0.947387
0.468025 0.781582 0.958679
0.376196 0.755032 0.970672
0.546380 0.791318 0.918425
0.552819 0.793942 0.920043
0.556970 0.795956 0.922454
0.571801 0.802213 0.928191
0.553613 0.799893 0.935637
0.512596 0.790890 0.944549
0.453407 0.776089 0.955627
0.349279 0.747677 0.967712
0.589227 0.801419 0.916503
0.591516 0.802487 0.917418
0.591516 0.803220 0.919310
0.615503 0.814267 0.927611
0.603021 0.812558 0.934081
0.559258 0.801419 0.941985
0.509087 0.787991 0.953368
0.426673 0.761868 0.965820
0.657404 0.820279 0.914488
0.660243 0.821897 0.915740
0.661433 0.823392 0.918212
0.671656 0.829892 0.924681
0.681086 0.836088 0.932708
0.650935 0.828580 0.941314
0.614191 0.817807 0.952697
0.557824 0.796170 0.965270
0.734554 0.843748 0.911315
0.736263 0.845151 0.912657
0.731624 0.844480 0.914397
0.734249 0.848661 0.920409
0.738735 0.854032 0.928435
0.732418 0.855100 0.937957
0.705928 0.847837 0.949859
0.674067 0.834318 0.963775
0.805936 0.871855 0.915679
0.804532 0.870939 0.915007
0.803311 0.869932 0.914244
0.808438 0.872953 0.915953
0.807492 0.877897 0.924865
0.821408 0.891112 0.939757
0.823239 0.897276 0.954162
0.809995 0.892058 0.967346
0.869780 0.908354 0.935790
0.869932 0.908415 0.935851
0.871244 0.909209 0.936278
0.876402 0.912566 0.938445
0.884947 0.918273 0.942168
0.898192 0.927184 0.948150
0.902739 0.934142 0.957610
0.889830 0.929625 0.967590
0.913054 0.934356 0.950591
0.913054 0.934325 0.950530
0.914397 0.935241 0.951171
0.918608 0.938201 0.953185
0.924224 0.942077 0.955871
0.931212 0.946929 0.959197
0.940612 0.953552 0.963745
0.952300 0.961852 0.969604
