20 Preset/City Style/【3】LUT video cho PR-AE-FCPX/TONE 1/Colors Change Strangers _ Streets.cube
# Created by Adobe Lightroom plugin Export LUT (1.24.0)
# www.johnrellis.com/lightroom/exportlut.htm
# Preset: Colors Change Strangers & Streets
# Color profile: E:\lut插件\exportlut.1.24\exportlut.lrplugin\color profiles\Rec709gamma2.4.icc
LUT_3D_SIZE 5
DOMAIN_MIN 0.000000 0.000000 0.000000
DOMAIN_MAX 0.903226 0.903226 0.903226
0.111696 0.128878 0.122896
0.114992 0.132235 0.126925
0.429847 0.135622 0.114260
1.000000 0.508751 0.000000
1.000000 0.754177 0.000000
0.116793 0.131533 0.127535
0.121492 0.137209 0.132509
0.380346 0.178988 0.110597
1.000000 0.614343 0.000000
1.000000 0.807370 0.000000
0.239445 0.335485 0.257816
0.267399 0.327398 0.260380
0.640620 0.480232 0.000000
1.000000 0.566583 0.000000
1.000000 0.840848 0.000000
0.779843 0.890959 0.868925
0.808408 0.886809 0.915709
0.837491 0.917784 0.650477
1.000000 0.894133 0.000000
1.000000 0.780758 0.000000
0.953094 0.988556 1.000000
0.957122 0.988067 1.000000
0.949676 0.985534 1.000000
0.944610 0.993103 1.000000
1.000000 0.976440 0.000000
0.118685 0.134463 0.129915
0.122164 0.137392 0.131197
0.420691 0.000000 0.121157
1.000000 0.350347 0.000000
1.000000 0.731136 0.000000
0.110506 0.133761 0.136782
0.127962 0.142336 0.138155
0.412146 0.172488 0.127260
1.000000 0.508598 0.000000
1.000000 0.778988 0.000000
0.108949 0.389532 0.260258
0.296300 0.370611 0.301091
0.557763 0.428260 0.000000
1.000000 0.528008 0.000000
1.000000 0.850065 0.000000
0.760769 0.906035 0.865080
0.800687 0.904295 0.915099
0.830716 0.920745 0.804562
1.000000 0.893523 0.000000
1.000000 0.783810 0.000000
0.951324 0.989502 1.000000
0.955474 0.988891 1.000000
0.964233 0.988495 1.000000
0.954406 0.994018 1.000000
1.000000 0.978637 0.145907
0.000000 0.167391 0.395605
0.000000 0.165194 0.422583
0.000000 0.146487 0.508141
1.000000 0.000000 0.583154
1.000000 0.618036 0.458137
0.000000 0.180240 0.429633
0.000000 0.187289 0.445869
0.000000 0.210941 0.540826
1.000000 0.163821 0.573663
1.000000 0.733242 0.539513
0.000000 0.308690 0.516594
0.000000 0.363500 0.533013
0.665705 0.664942 0.620386
0.984955 0.822599 0.699397
1.000000 0.908659 0.805051
0.514641 0.935698 0.946532
0.652277 0.930510 0.935515
0.849149 0.934081 0.995727
0.985046 0.915465 0.533776
1.000000 0.842802 0.000000
0.931365 0.991943 1.000000
0.939208 0.991608 1.000000
0.963134 0.990082 1.000000
0.960784 0.992493 1.000000
1.000000 0.979614 0.616541
0.000000 0.303014 0.979309
0.000000 0.313420 0.994476
0.000000 0.375372 1.000000
0.000000 0.367132 1.000000
1.000000 0.729763 1.000000
0.000000 0.341650 0.984894
0.000000 0.355291 0.996124
0.000000 0.426368 1.000000
0.288273 0.462104 1.000000
1.000000 0.779416 1.000000
0.000000 0.488808 0.966155
0.000000 0.537804 0.980591
0.000000 0.658656 1.000000
0.722713 0.791562 1.000000
1.000000 0.909361 1.000000
0.000000 0.718227 1.000000
0.000000 0.738430 1.000000
0.641718 0.843839 1.000000
0.917388 0.965576 1.000000
0.984619 0.980133 1.000000
0.751278 0.993378 1.000000
0.797910 0.996063 1.000000
0.918334 0.995697 1.000000
0.978363 0.993530 1.000000
0.986328 0.986847 1.000000
0.000000 0.592920 1.000000
0.000000 0.600061 1.000000
0.000000 0.637873 1.000000
0.000000 0.730526 1.000000
0.791257 0.832975 1.000000
0.000000 0.628595 1.000000
0.000000 0.636439 1.000000
0.000000 0.674769 1.000000
0.000000 0.763302 1.000000
0.816953 0.865415 1.000000
0.000000 0.742641 1.000000
0.000000 0.749630 1.000000
0.000000 0.784268 1.000000
0.631495 0.863218 1.000000
0.889586 0.939910 1.000000
0.000000 0.812711 1.000000
0.244999 0.824674 1.000000
0.645472 0.882322 1.000000
0.850614 0.948516 1.000000
0.957153 0.982544 1.000000
0.662165 0.913268 1.000000
0.694606 0.919646 1.000000
0.802304 0.945464 1.000000
0.921050 0.977935 1.000000
0.991302 0.996918 1.000000
