20 Preset/City Style/【3】LUT video cho PR-AE-FCPX/TONE 1/Colors Change Cityscape.cube
# Created by Adobe Lightroom plugin Export LUT (1.24.0)
# www.johnrellis.com/lightroom/exportlut.htm
# Preset: Colors Change Cityscape
# Color profile: E:\lut插件\exportlut.1.24\exportlut.lrplugin\color profiles\Rec709gamma2.4.icc
LUT_3D_SIZE 32
DOMAIN_MIN 0.0 0.0 0.0
DOMAIN_MAX 1.0 1.0 1.0
0.004974 0.114534 0.114412
0.006958 0.114473 0.114412
0.009918 0.114656 0.114656
0.018708 0.115602 0.114809
0.032441 0.116670 0.115175
0.052674 0.118105 0.115480
0.084535 0.119905 0.115938
0.106203 0.121889 0.116243
0.131044 0.124392 0.116274
0.161685 0.126741 0.115999
0.197574 0.128817 0.115267
0.238895 0.130098 0.114015
0.285557 0.130251 0.111940
0.337041 0.129366 0.109133
0.391058 0.127718 0.104891
0.447059 0.125948 0.099153
0.503441 0.126619 0.090486
0.559838 0.132631 0.067903
0.615259 0.144747 0.028412
0.674159 0.166903 0.000000
0.756252 0.211002 0.000000
0.820218 0.254917 0.000000
0.869291 0.293706 0.000000
0.909483 0.328374 0.000000
0.943023 0.358556 0.000000
0.972015 0.385321 0.000000
0.998505 0.410346 0.000000
1.000000 0.434180 0.000000
1.000000 0.457282 0.000000
1.000000 0.480415 0.000000
1.000000 0.503502 0.000000
1.000000 0.526757 0.000000
0.005951 0.114778 0.114687
0.005951 0.114778 0.114687
0.011200 0.114931 0.114626
0.018708 0.115602 0.114809
0.032441 0.116670 0.115175
0.052674 0.118105 0.115480
0.082490 0.119722 0.115999
0.104036 0.121798 0.116304
0.127291 0.124300 0.116396
0.156344 0.126802 0.115846
0.190646 0.128908 0.115236
0.230259 0.130282 0.114137
0.275334 0.130831 0.112245
0.325109 0.130251 0.109712
0.378363 0.128695 0.105898
0.433387 0.127108 0.100649
0.490059 0.127352 0.092287
0.546563 0.131563 0.076112
0.602258 0.142306 0.037537
0.661250 0.162264 0.000000
0.739193 0.201450 0.000000
0.801511 0.242283 0.000000
0.850217 0.279057 0.000000
0.890593 0.312413 0.000000
0.924651 0.342168 0.000000
0.954711 0.369421 0.000000
0.982544 0.395239 0.000000
1.000000 0.420111 0.000000
1.000000 0.444526 0.000000
1.000000 0.468788 0.000000
1.000000 0.493019 0.000000
1.000000 0.517144 0.000000
0.004486 0.116030 0.115114
0.007752 0.116213 0.115084
0.008270 0.115572 0.116060
0.018677 0.116182 0.115328
0.031983 0.117556 0.115358
0.052247 0.118959 0.115663
0.082216 0.120577 0.116182
0.102724 0.122744 0.116182
0.126040 0.125002 0.116304
0.154055 0.127382 0.116121
0.187442 0.129519 0.115267
0.225956 0.131350 0.114168
0.269688 0.132113 0.112428
0.318212 0.131991 0.110018
0.370184 0.130709 0.106111
0.424689 0.129580 0.101106
0.480781 0.129915 0.093599
0.537224 0.133639 0.079042
0.593256 0.143130 0.042420
0.654078 0.162936 0.000000
0.729854 0.199496 0.000000
0.791531 0.238621 0.000000
0.840116 0.273808 0.000000
0.880430 0.306584 0.000000
0.914824 0.335546 0.000000
0.945098 0.362341 0.000000
0.973571 0.388342 0.000000
1.000000 0.413672 0.000000
1.000000 0.438575 0.000000
1.000000 0.463386 0.000000
1.000000 0.487892 0.000000
1.000000 0.512322 0.000000
0.005829 0.118868 0.116213
0.007111 0.119112 0.116182
0.014740 0.118868 0.116487
0.012787 0.118013 0.118654
0.026429 0.118776 0.117922
0.056031 0.120272 0.116060
0.084321 0.122164 0.116213
0.103792 0.124269 0.116243
0.126284 0.126802 0.116030
0.153902 0.129213 0.115846
0.186465 0.131472 0.115297
0.223850 0.133333 0.113954
0.266087 0.134646 0.112215
0.313207 0.134829 0.109926
0.363287 0.134432 0.106172
0.415625 0.134218 0.101106
0.469917 0.134768 0.094179
0.524773 0.138338 0.081270
0.579339 0.146761 0.048585
0.641535 0.164706 0.000000
0.710842 0.195315 0.000000
0.770260 0.230137 0.000000
0.819394 0.263798 0.000000
0.862242 0.296056 0.000000
0.899840 0.326879 0.000000
0.933776 0.355901 0.000000
0.965454 0.384344 0.000000
0.995178 0.411414 0.000000
1.000000 0.437476 0.000000
1.000000 0.462623 0.000000
1.000000 0.486763 0.000000
1.000000 0.510185 0.000000
0.004700 0.123018 0.118013
0.006683 0.122957 0.118013
0.017884 0.122927 0.117952
0.022492 0.121950 0.119509
0.017945 0.121157 0.122194
0.034577 0.122103 0.121706
0.085512 0.123690 0.117769
0.104433 0.126070 0.116854
0.125643 0.129213 0.115969
0.152010 0.131746 0.115480
0.182834 0.134310 0.114961
0.218936 0.136355 0.113985
0.260075 0.138247 0.111971
0.305699 0.139132 0.109438
0.355047 0.139864 0.106020
0.407843 0.140200 0.100954
0.462440 0.141726 0.093538
0.517998 0.145724 0.080690
0.573175 0.154421 0.046082
0.638392 0.173129 0.000000
0.704158 0.201297 0.000000
0.761715 0.233219 0.000000
0.810636 0.265354 0.000000
0.854124 0.297246 0.000000
0.892973 0.327764 0.000000
0.928099 0.357122 0.000000
0.960510 0.385260 0.000000
0.990631 0.412024 0.000000
1.000000 0.437598 0.000000
1.000000 0.462226 0.000000
1.000000 0.485969 0.000000
1.000000 0.508904 0.000000
0.003662 0.128298 0.119814
0.006928 0.128481 0.119783
0.016144 0.128511 0.119753
0.032013 0.128603 0.120211
0.034028 0.126101 0.122805
0.026032 0.124910 0.126253
0.045991 0.126192 0.126802
0.100496 0.128084 0.121798
0.130526 0.131380 0.118166
0.156039 0.135073 0.116609
0.186496 0.138674 0.114351
0.222232 0.141207 0.112947
0.262699 0.143435 0.111116
0.307958 0.145327 0.108370
0.357244 0.146944 0.104311
0.409735 0.148470 0.098848
0.464454 0.151492 0.090974
0.520256 0.156802 0.072633
0.575525 0.166812 0.035584
0.645563 0.188083 0.000000
0.708736 0.216281 0.000000
0.764828 0.247349 0.000000
0.912627 0.359838 0.000000
0.949004 0.390173 0.000000
0.979614 0.416388 0.000000
1.000000 0.439399 0.000000
1.000000 0.460517 0.000000
1.000000 0.480049 0.000000
1.000000 0.499123 0.000000
1.000000 0.517449 0.000000
1.000000 0.535515 0.000000
1.000000 0.553277 0.000000
0.000000 0.140200 0.122225
0.001404 0.140352 0.122164
0.015564 0.140475 0.122377
0.049775 0.140841 0.122133
0.073060 0.139101 0.124239
0.067506 0.134401 0.128420
0.052430 0.132174 0.134096
0.074067 0.134463 0.136568
0.129244 0.136538 0.128389
0.181399 0.140719 0.120668
0.215488 0.144930 0.117128
0.254398 0.149722 0.112947
0.297307 0.154330 0.108309
0.344915 0.157107 0.103975
0.394842 0.159884 0.098390
0.446326 0.163973 0.090242
0.499641 0.169680 0.072877
0.553277 0.178744 0.037598
0.618647 0.196597 0.000000
0.693111 0.227237 0.000000
0.761257 0.263981 0.000000
0.821622 0.302770 0.000000
0.874388 0.341039 0.000000
0.920073 0.376867 0.000000
0.958618 0.408148 0.000000
0.990051 0.434150 0.000000
1.000000 0.456214 0.000000
1.000000 0.475929 0.000000
1.000000 0.494789 0.000000
1.000000 0.512688 0.000000
1.000000 0.530480 0.000000
1.000000 0.548058 0.000000
0.000000 0.152682 0.124483
0.000000 0.152651 0.124483
0.011566 0.152895 0.124361
0.048737 0.153353 0.124361
0.093233 0.153140 0.124666
0.098085 0.148653 0.129091
0.093996 0.142702 0.135042
0.082002 0.140108 0.142702
0.089845 0.143404 0.148745
0.149325 0.145327 0.137789
0.208743 0.148898 0.127260
0.260319 0.153292 0.119326
0.301549 0.158328 0.113161
0.345830 0.164309 0.106203
0.393072 0.170504 0.097902
0.442939 0.175204 0.090150
0.494697 0.182040 0.069978
0.549371 0.192294 0.032349
0.620935 0.214115 0.000000
0.687190 0.242130 0.000000
0.750332 0.274876 0.000000
0.808255 0.310155 0.000000
0.860166 0.345739 0.000000
0.905852 0.379400 0.000000
0.944945 0.409522 0.000000
0.977447 0.434852 0.000000
1.000000 0.456519 0.000000
1.000000 0.476020 0.000000
1.000000 0.494636 0.000000
1.000000 0.512413 0.000000
1.000000 0.529900 0.000000
1.000000 0.547143 0.000000
0.000000 0.169711 0.127413
0.000000 0.169802 0.127352
0.004303 0.169772 0.127260
0.048005 0.170382 0.127199
0.101381 0.170657 0.126772
0.120638 0.168002 0.129610
0.122499 0.160616 0.136110
0.116182 0.153689 0.144411
0.104005 0.151217 0.154574
0.102235 0.156130 0.165957
0.173190 0.157504 0.151522
0.240482 0.160250 0.137697
0.311376 0.164553 0.122499
0.355718 0.169894 0.114168
0.401648 0.177249 0.103883
0.448341 0.187045 0.090425
0.497719 0.197726 0.061280
0.564477 0.214084 0.009186
0.628199 0.235111 0.000000
0.689174 0.261021 0.000000
0.748165 0.291508 0.000000
0.802609 0.324071 0.000000
0.852415 0.357458 0.000000
0.897093 0.389014 0.000000
0.936004 0.417334 0.000000
0.968750 0.441138 0.000000
0.996948 0.461952 0.000000
1.000000 0.480934 0.000000
1.000000 0.498909 0.000000
1.000000 0.516075 0.000000
1.000000 0.533074 0.000000
1.000000 0.549706 0.000000
0.000000 0.191775 0.130922
0.000000 0.191714 0.130922
0.000000 0.191592 0.130556
0.044099 0.191836 0.130526
0.105135 0.191836 0.130098
0.141421 0.191104 0.130129
0.152132 0.186069 0.136416
0.150057 0.175357 0.145571
0.142367 0.167361 0.156344
0.128450 0.164523 0.169223
0.115175 0.171389 0.186740
0.195987 0.172396 0.169741
0.270359 0.174716 0.152193
0.345739 0.178561 0.133303
0.409247 0.185367 0.116182
0.458564 0.195132 0.101747
0.521050 0.213107 0.069612
0.581445 0.236057 0.000000
0.640101 0.260655 0.000000
0.697169 0.285771 0.000000
0.751034 0.313298 0.000000
0.799924 0.341497 0.000000
0.844572 0.369421 0.000000
0.885039 0.396338 0.000000
0.921111 0.421180 0.000000
0.953338 0.442939 0.000000
0.982269 0.463111 0.000000
1.000000 0.481880 0.000000
1.000000 0.500145 0.000000
1.000000 0.517906 0.000000
1.000000 0.535241 0.000000
1.000000 0.552300 0.000000
0.000000 0.215885 0.134707
0.000000 0.215915 0.134676
0.000000 0.216159 0.134249
0.036774 0.216587 0.134096
0.106203 0.217319 0.133425
0.150301 0.217777 0.132753
0.177493 0.214511 0.136782
0.186191 0.206332 0.146181
0.182315 0.194003 0.158541
0.173800 0.185428 0.172488
0.158206 0.182406 0.188327
0.138979 0.191073 0.211673
0.224094 0.192599 0.193729
0.306462 0.195010 0.172183
0.393896 0.201694 0.149233
0.484840 0.214420 0.119753
0.542962 0.230991 0.095857
0.598352 0.251713 0.026795
0.651087 0.277043 0.000000
0.701900 0.306462 0.000000
0.750973 0.334661 0.000000
0.797024 0.360082 0.000000
0.840177 0.385657 0.000000
0.879545 0.410315 0.000000
0.915190 0.433326 0.000000
0.947082 0.454200 0.000000
0.976043 0.473335 0.000000
1.000000 0.491279 0.000000
1.000000 0.508629 0.000000
1.000000 0.525689 0.000000
1.000000 0.542382 0.000000
1.000000 0.558831 0.000000
0.000000 0.249851 0.138491
0.000000 0.250004 0.138643
0.000000 0.250187 0.138430
0.006592 0.250889 0.138155
0.107424 0.251621 0.137331
0.157717 0.252720 0.136507
0.205997 0.253605 0.135531
0.222354 0.246799 0.145937
0.227298 0.233860 0.160037
0.222721 0.219638 0.176425
0.212833 0.209781 0.194156
0.195132 0.206394 0.213840
0.206485 0.246220 0.276219
0.314916 0.259434 0.264195
0.433051 0.270939 0.233768
0.541680 0.287266 0.195621
0.637598 0.310552 0.142916
0.707576 0.337621 0.047181
0.754940 0.363989 0.000000
0.797818 0.390784 0.000000
0.836362 0.417273 0.000000
0.871244 0.442603 0.000000
0.904326 0.463325 0.000000
0.935485 0.480446 0.000000
0.963561 0.496010 0.000000
0.988678 0.510094 0.000000
1.000000 0.522820 0.000000
1.000000 0.534752 0.000000
1.000000 0.546502 0.000000
1.000000 0.558679 0.000000
1.000000 0.571160 0.000000
1.000000 0.584405 0.000000
0.000000 0.314000 0.145052
0.000000 0.313695 0.145144
0.000000 0.313298 0.144869
0.000000 0.312566 0.143771
0.109621 0.312047 0.142763
0.171939 0.311681 0.141512
0.230167 0.311498 0.139467
0.269017 0.307195 0.145602
0.286534 0.298375 0.161257
0.287205 0.279667 0.182986
0.288243 0.267796 0.208560
0.286900 0.264103 0.239902
0.275273 0.268894 0.277256
0.256321 0.291844 0.327367
0.356725 0.308537 0.320958
0.479591 0.319402 0.283696
0.584039 0.333959 0.238468
0.673030 0.353918 0.183017
0.749599 0.379095 0.096315
0.789914 0.400183 0.000000
0.826444 0.421790 0.000000
0.860410 0.443732 0.000000
0.891844 0.465278 0.000000
0.921294 0.486213 0.000000
0.949340 0.502800 0.000000
0.975616 0.516503 0.000000
0.999603 0.529198 0.000000
1.000000 0.541436 0.000000
1.000000 0.553429 0.000000
1.000000 0.565545 0.000000
1.000000 0.577935 0.000000
1.000000 0.590814 0.000000
0.000000 0.358953 0.149355
0.000000 0.358556 0.149294
0.000000 0.357519 0.148898
0.000000 0.356542 0.147951
0.094667 0.355749 0.146853
0.172763 0.354925 0.145022
0.235904 0.356542 0.142885
0.300999 0.361395 0.140322
0.328130 0.357092 0.159213
0.347509 0.349554 0.183566
0.353063 0.334203 0.214328
0.354131 0.322393 0.248631
0.348974 0.317144 0.287083
0.332341 0.320134 0.329259
0.306706 0.341100 0.380987
0.390204 0.357824 0.379339
0.513603 0.365332 0.336095
0.613977 0.377325 0.286809
0.700099 0.394629 0.229679
0.771756 0.414862 0.156497
0.821042 0.434699 0.013336
0.854643 0.453437 0.000000
0.886046 0.472236 0.000000
0.915709 0.491218 0.000000
0.942931 0.509453 0.000000
0.968048 0.526787 0.000000
0.992065 0.540398 0.000000
1.000000 0.551995 0.000000
1.000000 0.563592 0.000000
1.000000 0.575311 0.000000
1.000000 0.587152 0.000000
1.000000 0.599634 0.000000
0.000000 0.426276 0.157351
0.000000 0.426062 0.157382
0.000000 0.425299 0.157137
0.000000 0.424170 0.155764
0.082918 0.423285 0.154574
0.182315 0.422827 0.152651
0.254459 0.423835 0.149935
0.322332 0.426062 0.147158
0.373510 0.425513 0.156039
0.398840 0.420386 0.182345
0.412726 0.407721 0.216129
0.417182 0.391394 0.254582
0.415839 0.378332 0.295537
0.406317 0.370947 0.337926
0.384039 0.371344 0.381537
0.352728 0.388006 0.430915
0.415869 0.405097 0.436530
0.540307 0.410773 0.390845
0.639704 0.420844 0.340063
0.723140 0.435096 0.282719
0.791836 0.451453 0.216434
0.850340 0.469093 0.120668
0.882200 0.484932 0.000000
0.911498 0.501091 0.000000
0.938781 0.517266 0.000000
0.964172 0.533104 0.000000
0.988006 0.548730 0.000000
1.000000 0.564294 0.000000
1.000000 0.577173 0.000000
1.000000 0.589288 0.000000
1.000000 0.601434 0.000000
1.000000 0.614099 0.000000
0.000000 0.492531 0.171298
0.000000 0.492683 0.171115
0.000000 0.492348 0.170626
0.000000 0.492103 0.169741
0.085481 0.491524 0.168063
0.198123 0.491798 0.165774
0.274235 0.493385 0.164340
0.348028 0.496193 0.161196
0.420294 0.500267 0.158633
0.451667 0.495735 0.187472
0.474861 0.489845 0.221744
0.479866 0.470039 0.263127
0.478614 0.449897 0.304570
0.470588 0.432105 0.345525
0.453803 0.419562 0.386450
0.425849 0.414893 0.426093
0.391485 0.427466 0.471992
0.433326 0.445533 0.485786
0.558190 0.450477 0.441596
0.658289 0.459785 0.392401
0.741360 0.472663 0.338293
0.810117 0.487129 0.277531
0.868223 0.502037 0.201846
0.909483 0.516777 0.115511
0.937560 0.531273 0.000000
0.963867 0.545922 0.000000
0.988434 0.560418 0.000000
1.000000 0.574945 0.000000
1.000000 0.589349 0.000000
1.000000 0.603632 0.000000
1.000000 0.615198 0.000000
1.000000 0.626123 0.000000
0.000000 0.548852 0.190738
0.000000 0.548791 0.190860
0.000000 0.548547 0.190524
0.000000 0.548302 0.189578
0.113252 0.547753 0.187991
0.213413 0.547997 0.186831
0.291051 0.548913 0.185183
0.363989 0.550622 0.183444
0.434607 0.553124 0.181827
0.488808 0.552911 0.192477
0.512535 0.546654 0.228580
0.529046 0.537163 0.266514
0.529381 0.516167 0.309575
0.524681 0.495430 0.351934
0.513664 0.477363 0.392706
0.494423 0.463905 0.432380
0.465064 0.458137 0.470893
0.430396 0.468910 0.514549
0.452064 0.488930 0.537530
0.578546 0.493507 0.496162
0.678767 0.501854 0.450599
0.760800 0.512688 0.400153
0.828458 0.524376 0.343847
0.885985 0.536492 0.277073
0.934752 0.548638 0.191348
0.962524 0.561486 0.133547
0.987884 0.574884 0.000000
1.000000 0.588159 0.000000
1.000000 0.601526 0.000000
1.000000 0.614740 0.000000
1.000000 0.627985 0.000000
1.000000 0.641016 0.000000
0.000000 0.605066 0.222904
0.000000 0.605768 0.223117
0.086244 0.657618 0.267369
0.172641 0.657130 0.266514
0.241520 0.656428 0.265721
0.307805 0.655604 0.263828
0.374548 0.654688 0.262211
0.440864 0.654292 0.261326
0.507195 0.654749 0.261021
0.573846 0.655818 0.261875
0.604425 0.651026 0.291844
0.623774 0.644129 0.329992
0.629450 0.628748 0.370459
0.623529 0.606348 0.412238
0.612390 0.584192 0.451606
0.595361 0.564263 0.488838
0.570459 0.547936 0.523491
0.537255 0.538567 0.555810
0.500237 0.543908 0.591363
0.500938 0.562005 0.617334
0.624140 0.562554 0.578668
0.718990 0.566583 0.536919
0.795529 0.572168 0.489845
0.859251 0.578332 0.435828
0.912749 0.584131 0.372168
0.958068 0.590021 0.296696
0.990600 0.597223 0.227298
1.000000 0.606714 0.179995
1.000000 0.617273 0.119081
1.000000 0.628565 0.000000
1.000000 0.640314 0.000000
1.000000 0.652064 0.000000
0.000000 0.669276 0.277195
0.069184 0.673671 0.281743
0.146944 0.678035 0.286137
0.204227 0.681727 0.290593
0.265049 0.684138 0.293828
0.325841 0.684443 0.293645
0.385718 0.683742 0.293156
0.445563 0.682765 0.291691
0.507774 0.682155 0.291112
0.569848 0.682002 0.290867
0.620996 0.680507 0.300420
0.640589 0.674037 0.335668
0.656031 0.666163 0.371618
0.654231 0.647211 0.410651
0.646815 0.626032 0.449409
0.635035 0.605646 0.486122
0.617945 0.587579 0.521019
0.595087 0.574365 0.554589
0.565301 0.567834 0.586572
0.531914 0.574365 0.621088
0.518242 0.595422 0.653986
0.639399 0.597803 0.622919
0.732143 0.601495 0.587579
0.806851 0.605646 0.546868
0.868925 0.609705 0.498360
0.921538 0.613611 0.441657
0.966613 0.617639 0.375494
1.000000 0.621881 0.294621
1.000000 0.630701 0.257206
1.000000 0.640742 0.221958
1.000000 0.651514 0.185580
1.000000 0.662593 0.144289
0.162173 0.700862 0.310094
0.180362 0.705074 0.315648
0.213199 0.709285 0.320928
0.252018 0.712947 0.326482
0.300816 0.715206 0.329931
0.351751 0.715541 0.330755
0.405158 0.714839 0.330114
0.459846 0.713588 0.329351
0.516625 0.712520 0.328191
0.574151 0.711666 0.328222
0.632776 0.710994 0.328038
0.661952 0.706386 0.352178
0.678279 0.699519 0.385565
0.688197 0.689784 0.420478
0.683070 0.670253 0.457588
0.674800 0.650904 0.493355
0.662531 0.632502 0.527642
0.646235 0.616876 0.559960
0.624872 0.605921 0.591333
0.597864 0.601312 0.621393
0.567895 0.607843 0.653162
0.542229 0.630304 0.690028
0.656245 0.633265 0.665003
0.745846 0.636194 0.635004
0.817624 0.638758 0.599725
0.877897 0.641199 0.558282
0.929412 0.643732 0.509636
0.974517 0.646509 0.452308
1.000000 0.649683 0.384863
1.000000 0.655634 0.330205
1.000000 0.665187 0.305638
1.000000 0.675227 0.282902
0.230808 0.732082 0.348730
0.242069 0.735500 0.353918
0.263890 0.738949 0.359625
0.295293 0.741817 0.364599
0.334081 0.743679 0.367742
0.377111 0.743832 0.369024
0.425177 0.743038 0.368444
0.474708 0.741848 0.367590
0.527489 0.740627 0.367102
0.580438 0.739498 0.366857
0.635004 0.738552 0.367010
0.682887 0.736629 0.373358
0.699397 0.730587 0.404425
0.713191 0.723903 0.436439
0.716762 0.711391 0.470375
0.711421 0.693935 0.505455
0.704005 0.677485 0.540063
0.693904 0.663355 0.573877
0.680903 0.652857 0.606989
0.664454 0.647547 0.639277
0.643519 0.648219 0.670192
0.620691 0.657649 0.701045
0.603235 0.679591 0.734310
0.694057 0.686915 0.722316
0.776883 0.691035 0.701350
0.844450 0.693996 0.675807
0.900877 0.696101 0.645716
0.949889 0.697749 0.610163
0.992981 0.699580 0.569696
1.000000 0.700740 0.520287
1.000000 0.701167 0.458228
1.000000 0.709010 0.441016
0.328496 0.781277 0.426917
0.334508 0.782498 0.429053
0.345525 0.783230 0.431098
0.365332 0.783444 0.431678
0.392187 0.782956 0.431708
0.425025 0.781796 0.430640
0.463661 0.780270 0.429084
0.507134 0.778714 0.427649
0.553613 0.777279 0.426978
0.602869 0.776120 0.427527
0.653346 0.775051 0.428107
0.703670 0.773983 0.429450
0.731563 0.769986 0.447822
0.745693 0.764187 0.477150
0.757259 0.757870 0.506310
0.755215 0.743282 0.537896
0.749325 0.727535 0.568780
0.741451 0.712978 0.598962
0.731228 0.700710 0.628504
0.718349 0.691676 0.656947
0.702083 0.686702 0.683864
0.682277 0.686397 0.708888
0.660060 0.692744 0.733486
0.643793 0.710384 0.760800
0.713985 0.717739 0.754421
0.791470 0.721340 0.736812
0.854856 0.724788 0.717159
0.908812 0.727810 0.694606
0.955749 0.730373 0.668757
0.997192 0.732021 0.638209
1.000000 0.732692 0.601373
1.000000 0.732021 0.554009
0.376379 0.806271 0.469368
0.379797 0.807218 0.471138
0.389654 0.807858 0.472786
0.405097 0.808072 0.474067
0.427893 0.807675 0.474159
0.456245 0.806760 0.473335
0.490700 0.805386 0.471962
0.528527 0.804013 0.471168
0.570184 0.802731 0.471015
0.614893 0.801572 0.471473
0.661738 0.800381 0.472053
0.708034 0.799344 0.473732
0.751858 0.797635 0.477424
0.766445 0.792813 0.504570
0.779141 0.787564 0.531884
0.787289 0.780697 0.559777
0.783597 0.766629 0.589624
0.778317 0.753323 0.618494
0.771328 0.741573 0.646662
0.762387 0.731960 0.673518
0.751308 0.725368 0.698970
0.737392 0.722103 0.722652
0.720485 0.722683 0.744503
0.701717 0.728664 0.765774
0.674922 0.732998 0.779721
0.729274 0.741543 0.778378
0.802976 0.745937 0.764401
0.863676 0.750271 0.749233
0.915282 0.754269 0.732326
0.959991 0.757839 0.713710
0.999512 0.760830 0.692561
1.000000 0.762417 0.666651
0.442359 0.839384 0.533684
0.446571 0.840818 0.537102
0.453773 0.841245 0.538476
0.465156 0.840696 0.537957
0.480873 0.839292 0.535515
0.501518 0.837278 0.532219
0.527489 0.834684 0.527886
0.557763 0.831968 0.523919
0.592798 0.829191 0.520287
0.630732 0.826658 0.517540
0.671107 0.824002 0.514672
0.713252 0.821683 0.513207
0.755520 0.819394 0.512108
0.781155 0.815183 0.524254
0.792752 0.809232 0.546471
0.802487 0.803189 0.569696
0.804868 0.793088 0.594568
0.800473 0.779721 0.621057
0.795346 0.767880 0.648127
0.789364 0.758236 0.674769
0.781888 0.750851 0.700343
0.772152 0.745907 0.723903
0.759426 0.743282 0.744991
0.743069 0.743191 0.763851
0.724025 0.746944 0.781552
0.710567 0.759701 0.801907
0.749905 0.768429 0.804044
0.817929 0.772335 0.792172
0.874723 0.776516 0.779782
0.923125 0.780850 0.766964
0.965057 0.785031 0.753475
1.000000 0.788632 0.738491
0.472480 0.855375 0.561547
0.476448 0.856626 0.564782
0.483528 0.857267 0.566613
0.494087 0.857145 0.566949
0.508782 0.856504 0.566308
0.527642 0.855497 0.565332
0.551995 0.854276 0.564141
0.581079 0.852934 0.563287
0.613397 0.851621 0.562737
0.649104 0.850248 0.562493
0.686488 0.848692 0.562310
0.725063 0.847135 0.562585
0.764462 0.845212 0.562219
0.802945 0.842954 0.561822
0.814664 0.837888 0.582025
0.824979 0.832486 0.602533
0.833524 0.827085 0.623804
0.832181 0.815885 0.646906
0.828519 0.804654 0.670802
0.824308 0.794858 0.694636
0.819120 0.787015 0.717800
0.812558 0.781125 0.739528
0.803952 0.777249 0.759640
0.792966 0.775570 0.777859
0.778988 0.776059 0.794369
0.762905 0.779812 0.809934
0.752621 0.791867 0.828489
0.780117 0.801846 0.834287
0.842313 0.806912 0.825986
0.893828 0.812100 0.817777
0.937530 0.817105 0.809415
0.975525 0.821805 0.800809
0.519524 0.877501 0.606287
0.522271 0.878050 0.607660
0.526665 0.878172 0.608515
0.534661 0.877897 0.608301
0.546685 0.877165 0.607416
0.562524 0.876158 0.606348
0.582910 0.874907 0.604852
0.606867 0.873533 0.603693
0.635096 0.872099 0.602716
0.666133 0.870695 0.602350
0.699672 0.869139 0.601709
0.734646 0.867613 0.601709
0.770413 0.865904 0.601801
0.806638 0.863920 0.601312
0.830869 0.860502 0.609613
0.841367 0.855802 0.628016
0.850645 0.850980 0.646723
0.857206 0.845365 0.666468
0.854643 0.834684 0.688075
0.851865 0.825284 0.709834
0.848356 0.817319 0.731258
0.843778 0.810788 0.751369
0.837552 0.805692 0.770047
0.829496 0.802304 0.787167
0.819211 0.800717 0.802762
0.806424 0.801022 0.817014
0.791928 0.804135 0.830594
0.782803 0.814878 0.847196
0.800839 0.825345 0.855436
0.858579 0.831479 0.849760
0.906340 0.837522 0.844327
0.947112 0.843473 0.839109
0.556878 0.894652 0.640131
0.558618 0.895048 0.641382
0.562951 0.895262 0.642267
0.570306 0.895201 0.642695
0.581415 0.895018 0.643275
0.596551 0.894926 0.644190
0.617090 0.895201 0.646845
0.641260 0.895689 0.650294
0.668910 0.896330 0.654780
0.699214 0.897063 0.659846
0.731136 0.897795 0.665217
0.763851 0.898314 0.670375
0.797116 0.898466 0.674769
0.830259 0.898070 0.678187
0.863035 0.897154 0.680293
0.875120 0.894041 0.695369
0.884825 0.890654 0.710750
0.893523 0.887205 0.726253
0.897124 0.881407 0.742947
0.895720 0.873320 0.760433
0.893858 0.866270 0.777584
0.891173 0.860258 0.794064
0.887266 0.855253 0.809384
0.882048 0.851530 0.823606
0.875212 0.848966 0.836698
0.866667 0.847868 0.848814
0.856565 0.848447 0.860136
0.844907 0.850950 0.870848
0.838346 0.859861 0.884276
0.847196 0.869444 0.893156
0.894469 0.875456 0.890043
0.934264 0.881468 0.887358
0.630426 0.923430 0.707027
0.631098 0.923430 0.707057
0.633539 0.923186 0.706752
0.637934 0.922820 0.706233
0.645289 0.922240 0.705592
0.655512 0.921599 0.705043
0.669245 0.920897 0.704768
0.686427 0.920195 0.704707
0.706569 0.919493 0.705196
0.729152 0.918822 0.706172
0.753872 0.918120 0.707362
0.780545 0.917357 0.708736
0.808347 0.916442 0.710140
0.836790 0.915312 0.711116
