20 Preset/City Style/【3】LUT video cho PR-AE-FCPX/TONE 1/Colors Change Cityscape.cube
# Created by Adobe Lightroom plugin Export LUT (1.24.0)
# www.johnrellis.com/lightroom/exportlut.htm
# Preset: Colors Change Cityscape
# Color profile: E:\lut插件\exportlut.1.24\exportlut.lrplugin\color profiles\Rec709gamma2.4.icc
LUT_3D_SIZE 8
DOMAIN_MIN 0.000000 0.000000 0.000000
DOMAIN_MAX 0.903226 0.903226 0.903226
0.004974 0.114534 0.114412
0.032441 0.116670 0.115175
0.131044 0.124392 0.116274
0.285557 0.130251 0.111940
0.503441 0.126619 0.090486
0.756252 0.211002 0.000000
0.943023 0.358556 0.000000
1.000000 0.457282 0.000000
0.004700 0.123018 0.118013
0.017945 0.121157 0.122194
0.125643 0.129213 0.115969
0.260075 0.138247 0.111971
0.462440 0.141726 0.093538
0.704158 0.201297 0.000000
0.892973 0.327764 0.000000
1.000000 0.437598 0.000000
0.000000 0.169711 0.127413
0.101381 0.170657 0.126772
0.104005 0.151217 0.154574
0.311376 0.164553 0.122499
0.497719 0.197726 0.061280
0.748165 0.291508 0.000000
0.936004 0.417334 0.000000
1.000000 0.498909 0.000000
0.000000 0.314000 0.145052
0.109621 0.312047 0.142763
0.286534 0.298375 0.161257
0.275273 0.268894 0.277256
0.584039 0.333959 0.238468
0.826444 0.421790 0.000000
0.949340 0.502800 0.000000
1.000000 0.553429 0.000000
0.000000 0.548852 0.190738
0.113252 0.547753 0.187991
0.434607 0.553124 0.181827
0.529381 0.516167 0.309575
0.465064 0.458137 0.470893
0.678767 0.501854 0.450599
0.934752 0.548638 0.191348
1.000000 0.601526 0.000000
0.230808 0.732082 0.348730
0.334081 0.743679 0.367742
0.527489 0.740627 0.367102
0.699397 0.730587 0.404425
0.704005 0.677485 0.540063
0.643519 0.648219 0.670192
0.776883 0.691035 0.701350
0.992981 0.699580 0.569696
0.472480 0.855375 0.561547
0.508782 0.856504 0.566308
0.613397 0.851621 0.562737
0.764462 0.845212 0.562219
0.833524 0.827085 0.623804
0.819120 0.787015 0.717800
0.778988 0.776059 0.794369
0.842313 0.806912 0.825986
0.667597 0.938689 0.737758
0.680568 0.938018 0.737514
0.733547 0.936278 0.739101
0.822599 0.934051 0.744869
0.896880 0.914519 0.723781
0.923827 0.902159 0.788632
0.916777 0.884703 0.847440
0.891295 0.880858 0.889036
0.006683 0.118685 0.121187
0.012055 0.118135 0.124269
0.114168 0.125216 0.123629
0.243473 0.134127 0.121065
0.446479 0.135225 0.104616
0.678981 0.183780 0.000000
0.865507 0.303044 0.000000
0.996002 0.412665 0.000000
0.008362 0.121859 0.125948
0.018952 0.125277 0.128359
0.118318 0.131167 0.126497
0.246189 0.140230 0.121614
0.441932 0.145296 0.104952
0.667353 0.192447 0.000000
0.842557 0.296483 0.000000
0.975708 0.401953 0.000000
0.000000 0.166781 0.150210
0.014862 0.169070 0.141939
0.106416 0.156924 0.163790
0.289952 0.168734 0.133974
0.469703 0.190311 0.097475
0.687465 0.253971 0.000000
0.863279 0.356573 0.000000
0.996338 0.455604 0.000000
0.000000 0.287785 0.164492
0.000000 0.288731 0.162997
0.261875 0.286015 0.171511
0.242466 0.247105 0.258610
0.498451 0.281315 0.213535
0.730098 0.350103 0.000000
0.874449 0.437354 0.000000
0.994903 0.509178 0.000000
0.000000 0.530205 0.218112
0.000000 0.526421 0.214328
0.376165 0.525292 0.205661
0.490181 0.483375 0.294957
0.422095 0.416205 0.430823
0.636622 0.459968 0.408392
0.898436 0.519127 0.175937
1.000000 0.578058 0.000000
0.000000 0.708705 0.343023
0.216892 0.709010 0.343633
0.460334 0.708461 0.344579
0.662196 0.704433 0.376257
0.676905 0.655146 0.514397
0.623957 0.631037 0.653864
0.763363 0.673762 0.682338
0.982818 0.682826 0.539971
0.406714 0.838712 0.537377
0.437537 0.835264 0.531426
0.559167 0.829892 0.526513
0.727840 0.825742 0.530266
0.814908 0.812711 0.599847
0.801999 0.771664 0.698512
0.755245 0.754971 0.775235
0.822141 0.784115 0.804959
0.630976 0.930114 0.719692
0.650416 0.930999 0.723690
0.707210 0.928893 0.724575
0.803220 0.926848 0.730922
0.902403 0.921752 0.743771
0.925689 0.905486 0.794736
0.914672 0.883207 0.845792
0.888579 0.878599 0.887175
0.006073 0.132662 0.145937
0.000000 0.133211 0.151217
0.050629 0.129824 0.168887
0.257816 0.141512 0.164736
0.478462 0.155550 0.169070
0.721004 0.227665 0.140444
0.895598 0.348241 0.000000
1.000000 0.449104 0.000000
0.038361 0.142580 0.154208
0.030365 0.144076 0.159945
0.076478 0.139895 0.176425
0.256413 0.156222 0.176547
0.466224 0.167300 0.169436
0.701411 0.231754 0.141207
0.874662 0.339239 0.000000
1.000000 0.441047 0.000000
0.040070 0.164279 0.193027
0.073213 0.169406 0.196719
0.134615 0.189792 0.210422
0.300755 0.198001 0.192447
0.514092 0.226017 0.174716
0.724727 0.296727 0.135897
0.884184 0.390265 0.000000
1.000000 0.476234 0.000000
0.000000 0.301396 0.331212
0.000000 0.310704 0.319951
0.164706 0.332189 0.257053
0.285313 0.307530 0.334813
0.574273 0.351812 0.267704
0.757382 0.402319 0.108217
0.899321 0.472908 0.000000
1.000000 0.534569 0.000000
0.000000 0.539391 0.406622
0.000000 0.541558 0.383062
0.193820 0.549432 0.336767
0.513817 0.543420 0.377539
0.458564 0.479469 0.508659
0.681300 0.512627 0.465217
0.898680 0.552514 0.285527
1.000000 0.598871 0.000000
0.000000 0.714565 0.446509
0.000000 0.716060 0.449134
0.323980 0.714321 0.448341
0.623011 0.711635 0.449500
0.673030 0.670283 0.553887
0.626642 0.646052 0.675654
0.776364 0.686427 0.694636
0.985962 0.698512 0.572168
0.303929 0.847501 0.611841
0.349401 0.844663 0.607507
0.495125 0.837705 0.598993
0.680201 0.830900 0.596216
0.805264 0.818997 0.633631
0.805112 0.783963 0.720974
0.769162 0.773129 0.794614
0.844755 0.803403 0.821256
0.596429 0.932189 0.746426
0.609247 0.930785 0.744320
0.670344 0.928527 0.744381
0.777066 0.928405 0.754574
0.891569 0.924041 0.758053
0.926696 0.912200 0.806699
0.918151 0.890440 0.855528
0.893614 0.885466 0.894133
0.000000 0.170199 0.214145
0.000000 0.172885 0.223667
0.000000 0.172213 0.246799
0.136446 0.158724 0.285069
0.454139 0.166293 0.247044
0.693385 0.288762 0.330480
0.867430 0.381781 0.313176
0.989746 0.468482 0.282811
0.092287 0.193606 0.238468
0.076417 0.194186 0.244572
0.000000 0.190585 0.264622
0.155550 0.173648 0.301976
0.472267 0.193637 0.270024
0.695827 0.315465 0.349981
0.864775 0.390753 0.315312
0.987640 0.473884 0.284276
0.183352 0.236912 0.270054
0.192416 0.242832 0.275425
0.172702 0.251164 0.304295
0.207919 0.229679 0.337926
0.505791 0.295445 0.352026
0.730648 0.390692 0.386084
0.895232 0.471992 0.370825
1.000000 0.528557 0.332158
0.146426 0.300908 0.392187
0.164279 0.306798 0.394965
0.226658 0.335149 0.411536
0.324681 0.391394 0.444495
0.554437 0.410773 0.405585
0.737057 0.455085 0.376379
0.884245 0.511070 0.352697
0.999054 0.564538 0.329351
0.000000 0.467323 0.612482
0.000000 0.486458 0.611353
0.000000 0.567163 0.617365
0.392737 0.600885 0.537713
0.507012 0.565850 0.614191
0.741970 0.588403 0.552911
0.901488 0.600000 0.405554
1.000000 0.630518 0.352789
0.000000 0.733791 0.707485
0.000000 0.744106 0.709865
0.000000 0.744381 0.671565
0.487526 0.747799 0.623346
0.701320 0.731197 0.654475
0.659236 0.694881 0.732021
0.811643 0.720516 0.727321
0.989441 0.726558 0.626703
0.266514 0.850126 0.744472
0.307897 0.851102 0.740993
0.383001 0.853819 0.711330
0.600244 0.851011 0.705043
0.799802 0.844266 0.705745
0.819821 0.813504 0.764614
0.786374 0.796902 0.819821
0.870024 0.821378 0.835233
0.573083 0.939544 0.806180
0.574060 0.939788 0.800931
0.627039 0.938170 0.796750
0.731563 0.934997 0.798123
0.851072 0.930144 0.798947
0.924407 0.921874 0.824491
0.922179 0.900725 0.868711
0.902098 0.896727 0.905547
0.010193 0.260533 0.361303
0.000000 0.264103 0.372107
0.000000 0.261814 0.392889
0.000000 0.248692 0.427436
0.251286 0.219150 0.487556
0.653620 0.259922 0.433051
0.830472 0.418524 0.491890
0.945037 0.569055 0.595727
0.127657 0.291203 0.389624
0.114656 0.294621 0.400031
0.000000 0.289525 0.417639
0.000000 0.268742 0.443702
0.267430 0.236698 0.499428
0.659358 0.286046 0.440894
0.829404 0.438117 0.507744
0.946563 0.572442 0.594995
0.259495 0.363256 0.439155
0.255680 0.366155 0.446418
0.226902 0.367834 0.468391
0.130098 0.344701 0.491585
0.311803 0.300298 0.524956
0.652888 0.360174 0.460945
0.815457 0.495521 0.553155
0.943084 0.575952 0.580346
0.333562 0.443702 0.521233
0.344030 0.449134 0.523827
0.387366 0.475715 0.539757
0.371038 0.488319 0.573297
0.405707 0.443183 0.595880
0.673243 0.515984 0.588556
0.826413 0.590631 0.625422
0.952880 0.615534 0.590692
0.296147 0.511009 0.633478
0.310033 0.516838 0.636347
0.357641 0.535454 0.643305
0.433600 0.569055 0.656092
0.518120 0.608301 0.669306
0.700587 0.612818 0.634760
0.847349 0.631434 0.605890
0.964538 0.656184 0.579461
0.192203 0.571588 0.739315
0.213230 0.575952 0.741390
0.258244 0.594812 0.742611
0.306981 0.688197 0.744747
0.554498 0.722225 0.693233
0.658595 0.711818 0.755764
0.837888 0.735164 0.734981
0.973358 0.734585 0.649195
0.000000 0.835813 0.846860
0.000000 0.838682 0.844938
0.269505 0.836545 0.826566
0.468940 0.841215 0.796933
0.663111 0.844785 0.763638
0.813870 0.829770 0.783932
0.784726 0.804959 0.831205
0.885130 0.819944 0.828977
0.470558 0.928588 0.865049
0.484627 0.928099 0.862272
0.541375 0.926879 0.851743
0.648768 0.930907 0.840482
0.764920 0.929900 0.827848
0.902647 0.924620 0.832578
0.917693 0.904662 0.872343
0.897032 0.896056 0.906645
0.158694 0.436896 0.587701
0.145266 0.438575 0.593652
0.000000 0.434607 0.606439
0.000000 0.427039 0.634638
0.000000 0.380102 0.649348
0.411810 0.326116 0.681971
0.793576 0.421637 0.666560
0.928405 0.578332 0.669581
0.202945 0.440772 0.580957
0.192050 0.440314 0.584344
0.131777 0.435340 0.596246
0.000000 0.419593 0.615229
0.000000 0.376562 0.632532
0.402808 0.327947 0.669093
0.781247 0.420111 0.654261
0.919951 0.572992 0.662959
0.367071 0.536919 0.644648
0.362676 0.536584 0.646998
0.331731 0.529259 0.653803
0.244663 0.495277 0.652369
0.000000 0.446723 0.661952
0.445594 0.398199 0.692012
0.787900 0.492927 0.670649
0.915496 0.619959 0.698207
0.523278 0.624750 0.691585
0.517784 0.623011 0.691859
0.507622 0.626001 0.702480
0.488136 0.630884 0.724239
0.406928 0.593286 0.730648
0.536553 0.541741 0.744747
0.809384 0.619989 0.715236
0.917479 0.704067 0.761837
0.517754 0.649317 0.729793
0.523919 0.651667 0.730434
0.550164 0.663294 0.734798
0.598901 0.686793 0.745541
0.585443 0.687037 0.755734
0.593347 0.641810 0.760586
0.798734 0.695888 0.757992
0.911681 0.749386 0.786770
0.500481 0.680018 0.780789
0.514000 0.687007 0.784939
0.536187 0.694362 0.786069
0.576623 0.708827 0.789120
0.628046 0.728359 0.793179
0.698085 0.761135 0.805997
0.835966 0.770413 0.792569
0.943267 0.778805 0.775601
0.528985 0.745113 0.860380
0.538628 0.749264 0.862638
0.556756 0.755428 0.864988
0.590082 0.767330 0.869780
0.629572 0.833066 0.870939
0.756435 0.857328 0.836393
0.809873 0.837064 0.863493
0.925811 0.844877 0.845304
0.519188 0.883116 0.924254
0.518059 0.885649 0.923217
0.530083 0.900175 0.921752
0.574273 0.926726 0.919615
0.683436 0.927611 0.890562
0.812039 0.928618 0.866728
0.917662 0.918914 0.884215
0.899657 0.903929 0.915740
0.349798 0.596918 0.736355
0.349310 0.599481 0.740414
0.320897 0.593011 0.744350
0.262455 0.581079 0.753872
0.039704 0.548241 0.761074
0.000000 0.479042 0.763882
0.535821 0.430823 0.787320
0.865476 0.534020 0.781796
0.360204 0.594476 0.728939
0.360510 0.597620 0.733761
0.333776 0.591669 0.737942
0.270390 0.575738 0.744472
0.101015 0.542229 0.750912
0.000000 0.472175 0.751919
0.519646 0.420356 0.773831
0.850217 0.515343 0.766720
0.477363 0.650172 0.755062
0.471870 0.648585 0.755764
0.446448 0.639765 0.756771
0.395666 0.623102 0.760769
0.300237 0.587671 0.763272
0.027405 0.522545 0.764767
0.552880 0.481544 0.788907
0.862638 0.581353 0.784207
0.600549 0.712215 0.783261
0.595300 0.709621 0.782254
0.584253 0.706783 0.784604
0.557244 0.699336 0.790127
0.490944 0.671168 0.791379
0.387762 0.618219 0.793423
0.608453 0.580011 0.811551
0.872709 0.659419 0.800717
0.678340 0.750454 0.799954
0.678248 0.749203 0.798215
0.683955 0.751431 0.798734
0.669978 0.751522 0.806241
0.637873 0.742306 0.812314
0.559472 0.702388 0.810971
0.653773 0.660731 0.821927
0.882872 0.733089 0.813443
0.667811 0.770871 0.834134
0.671717 0.772610 0.834867
0.685786 0.778408 0.836759
0.712123 0.789639 0.840574
0.747890 0.805081 0.845640
0.741054 0.806119 0.852811
0.741848 0.769497 0.855314
0.897337 0.814023 0.856046
0.676661 0.802243 0.875395
0.681788 0.804623 0.876555
0.693141 0.808621 0.877287
0.716182 0.817319 0.879393
0.746151 0.828489 0.881407
0.783597 0.843351 0.884459
0.826200 0.861692 0.888945
0.922698 0.864561 0.876616
0.684993 0.836515 0.922972
0.688289 0.837888 0.923583
0.705043 0.845243 0.927092
0.725063 0.853452 0.930632
0.750027 0.863645 0.934905
0.779721 0.911345 0.936248
0.870024 0.933837 0.911345
0.909483 0.919188 0.931548
0.565850 0.735775 0.837797
0.565515 0.736416 0.839261
0.546532 0.729305 0.839109
0.519341 0.721340 0.843595
0.465309 0.702327 0.848142
0.364691 0.663233 0.851530
0.122988 0.588281 0.854154
0.662562 0.558709 0.871275
0.566979 0.733516 0.833921
0.566674 0.734401 0.835569
0.550958 0.729152 0.836728
0.521752 0.720027 0.840391
0.468086 0.701015 0.844816
0.368109 0.662013 0.848112
0.127474 0.585412 0.849424
0.655238 0.553124 0.866178
0.614618 0.753109 0.838926
0.612055 0.752529 0.839567
0.596307 0.746731 0.839811
0.577996 0.743160 0.846464
0.525933 0.723018 0.848661
0.434424 0.683955 0.849760
0.269444 0.611902 0.851225
0.666316 0.580774 0.867674
0.680201 0.782040 0.847440
0.680842 0.783108 0.848875
0.676051 0.782559 0.851286
0.655787 0.776547 0.854704
0.615839 0.761349 0.857633
0.545739 0.730129 0.859373
0.427466 0.668757 0.860685
0.695796 0.637507 0.875914
0.749355 0.812772 0.856443
0.749599 0.813809 0.857816
0.742184 0.811765 0.858854
0.734249 0.812070 0.864225
0.709194 0.803830 0.867948
0.652766 0.778744 0.868772
0.562585 0.730465 0.869932
0.732265 0.700923 0.885313
0.782956 0.838407 0.876677
0.782925 0.837827 0.875792
0.786862 0.838163 0.874388
0.800473 0.843351 0.875151
0.795773 0.845487 0.880949
0.777890 0.843778 0.890837
0.723354 0.816983 0.894987
0.796323 0.788266 0.906615
0.789548 0.862364 0.907988
0.790585 0.862638 0.907836
0.795926 0.864286 0.907683
0.809873 0.870024 0.909117
0.831601 0.879454 0.911955
0.861936 0.893919 0.917540
0.858030 0.895018 0.922850
0.849210 0.858549 0.921141
0.804379 0.888243 0.938872
0.805173 0.888426 0.938750
0.810727 0.890471 0.939086
0.823880 0.895995 0.940642
0.842008 0.903502 0.942535
0.864561 0.912902 0.944701
0.891722 0.924620 0.947539
0.920684 0.936645 0.949432
