20 Preset/City Style/【3】LUT video cho PR-AE-FCPX/TONE 1/Colors Change Blue_Yellow City 2.cube
# Created by Adobe Lightroom plugin Export LUT (1.24.0)
# www.johnrellis.com/lightroom/exportlut.htm
# Preset: Colors Change Blue&Yellow City 2
# Color profile: E:\lut插件\exportlut.1.24\exportlut.lrplugin\color profiles\Rec709gamma2.4.icc
LUT_3D_SIZE 32
DOMAIN_MIN 0.0 0.0 0.0
DOMAIN_MAX 1.0 1.0 1.0
0.000000 0.065980 0.046967
0.000000 0.065980 0.048096
0.000000 0.067933 0.048920
0.000000 0.072053 0.049439
0.000000 0.077485 0.051881
0.000000 0.081727 0.054170
0.011139 0.086030 0.057404
0.032349 0.089998 0.061433
0.063050 0.093263 0.064179
0.091432 0.097078 0.067536
0.111238 0.101045 0.070344
0.135073 0.105257 0.073365
0.163455 0.109743 0.075105
0.197452 0.113802 0.075257
0.235019 0.117922 0.075563
0.276219 0.122072 0.074342
0.320653 0.126833 0.070680
0.368902 0.132906 0.064271
0.420203 0.141634 0.053498
0.474830 0.154910 0.037659
0.530999 0.174105 0.012024
0.586358 0.199283 0.000000
0.667506 0.247501 0.000000
0.747280 0.306065 0.000000
0.816526 0.363745 0.000000
0.875273 0.416236 0.000000
0.926543 0.462776 0.000000
0.972168 0.504356 0.000000
1.000000 0.542718 0.000000
1.000000 0.578515 0.000000
1.000000 0.611933 0.000000
1.000000 0.642725 0.063294
0.000000 0.067170 0.049104
0.000000 0.066957 0.047944
0.000000 0.069123 0.048768
0.000000 0.071839 0.049439
0.000000 0.077485 0.051881
0.000000 0.081727 0.054170
0.008453 0.086915 0.057252
0.030640 0.090089 0.060334
0.059785 0.092988 0.064332
0.088991 0.096559 0.067872
0.107362 0.100465 0.069734
0.130068 0.104677 0.072938
0.157534 0.108980 0.075044
0.189883 0.113466 0.075441
0.226291 0.117525 0.076326
0.266484 0.121553 0.074708
0.310613 0.126162 0.071778
0.357641 0.131960 0.065583
0.408209 0.139803 0.056580
0.461799 0.151858 0.041077
0.516655 0.169253 0.019379
0.570947 0.192294 0.000000
0.648615 0.235782 0.000000
0.723720 0.288060 0.000000
0.789761 0.341253 0.000000
0.848356 0.392309 0.000000
0.900786 0.439551 0.000000
0.948730 0.482918 0.000000
0.993103 0.523339 0.000000
1.000000 0.561486 0.000000
1.000000 0.597345 0.000000
1.000000 0.630518 0.000000
0.000000 0.071290 0.050752
0.000000 0.072511 0.050599
0.000000 0.072053 0.049439
0.000000 0.074769 0.051209
0.000000 0.080293 0.052399
0.000000 0.084443 0.055818
0.009674 0.088472 0.059052
0.031891 0.091279 0.062135
0.059358 0.094209 0.065003
0.088350 0.097383 0.068696
0.106630 0.101595 0.070405
0.128878 0.105531 0.072663
0.155306 0.109682 0.074952
0.186740 0.113863 0.076814
0.222080 0.118105 0.075685
0.261326 0.122438 0.075441
0.304723 0.126864 0.073060
0.351446 0.132753 0.067262
0.401282 0.140505 0.057893
0.454505 0.152041 0.043458
0.509361 0.169100 0.022675
0.563989 0.191012 0.000000
0.641077 0.233188 0.000000
0.713222 0.282750 0.000000
0.777249 0.332799 0.000000
0.834745 0.382055 0.000000
0.887449 0.428992 0.000000
0.936034 0.472694 0.000000
0.981781 0.514031 0.000000
1.000000 0.553307 0.000000
1.000000 0.590173 0.000000
1.000000 0.624170 0.000000
0.000000 0.080537 0.057130
0.000000 0.080537 0.057130
0.000000 0.080995 0.055818
0.000000 0.080446 0.054658
0.000000 0.082338 0.055146
0.004456 0.087190 0.057282
0.019440 0.090150 0.060517
0.039673 0.093019 0.063600
0.066102 0.096223 0.067475
0.090700 0.099763 0.069886
0.108156 0.103548 0.071748
0.129793 0.107729 0.074983
0.155734 0.111818 0.076143
0.186282 0.116060 0.076905
0.220493 0.120241 0.077089
0.258000 0.124575 0.076112
0.299290 0.129183 0.073243
0.343755 0.135042 0.068421
0.391730 0.142580 0.060426
0.442847 0.153292 0.048219
0.496010 0.168643 0.028473
0.550896 0.189609 0.000000
0.626093 0.228733 0.000000
0.695308 0.273869 0.000000
0.759487 0.322332 0.000000
0.819883 0.372869 0.000000
0.876341 0.422644 0.000000
0.928466 0.468818 0.000000
0.976349 0.511925 0.000000
1.000000 0.551720 0.000000
1.000000 0.588067 0.000000
1.000000 0.620996 0.000000
0.000000 0.088472 0.066438
0.000000 0.088472 0.066438
0.000000 0.088746 0.065156
0.000000 0.088869 0.062684
0.002136 0.088350 0.060365
0.023133 0.089174 0.059663
0.037140 0.091463 0.061952
0.057374 0.094270 0.065034
0.080629 0.097505 0.067781
0.096345 0.100984 0.071321
0.112428 0.105074 0.073030
0.132601 0.109590 0.074983
0.156588 0.114412 0.076997
0.185733 0.119051 0.078553
0.219333 0.123568 0.078584
0.257115 0.128237 0.077577
0.298283 0.133516 0.074281
0.343145 0.139742 0.070100
0.390875 0.147494 0.060700
0.441474 0.158663 0.048096
0.493812 0.174197 0.028168
0.554284 0.197940 0.000000
0.625177 0.234806 0.000000
0.691798 0.277958 0.000000
0.754696 0.325231 0.000000
0.815213 0.374823 0.000000
0.871458 0.423560 0.000000
0.923400 0.469154 0.000000
0.971130 0.511406 0.000000
1.000000 0.550469 0.000000
1.000000 0.586358 0.000000
1.000000 0.619104 0.000000
0.000000 0.094148 0.076570
0.000000 0.094057 0.076570
0.000000 0.094331 0.075288
0.001495 0.094423 0.072816
0.012604 0.094789 0.070192
0.035340 0.093965 0.066712
0.068574 0.094240 0.064820
0.083711 0.096956 0.066773
0.095918 0.099977 0.069520
0.109499 0.103029 0.071870
0.125917 0.106966 0.074525
0.146151 0.111269 0.076295
0.170748 0.115999 0.077913
0.199374 0.120912 0.078035
0.232120 0.126131 0.078279
0.268193 0.132235 0.077119
0.308232 0.139071 0.074647
0.351629 0.147646 0.069642
0.399756 0.156680 0.060334
0.449805 0.168948 0.045655
0.502007 0.185428 0.024140
0.569909 0.214298 0.000000
0.755612 0.339422 0.000000
0.830350 0.401617 0.000000
0.892363 0.455299 0.000000
0.944305 0.500237 0.000000
0.988006 0.538415 0.000000
1.000000 0.571862 0.000000
1.000000 0.601740 0.000000
1.000000 0.628717 0.000000
1.000000 0.652979 0.114961
1.000000 0.674464 0.215824
0.015778 0.102998 0.085817
0.017792 0.102907 0.085817
0.021332 0.103151 0.085023
0.030152 0.103578 0.084077
0.044800 0.104158 0.081636
0.068849 0.103700 0.079377
0.092836 0.102724 0.075288
0.115633 0.102235 0.070649
0.127657 0.105379 0.072847
0.143313 0.108888 0.074311
0.162936 0.112673 0.076020
0.187350 0.116732 0.076417
0.214450 0.121523 0.077455
0.245090 0.126558 0.076661
0.279057 0.131807 0.075868
0.315557 0.138125 0.073121
0.355657 0.146120 0.067079
0.398596 0.156405 0.059907
0.444953 0.170199 0.045808
0.495369 0.189120 0.026459
0.558495 0.218936 0.000000
0.640864 0.268650 0.000000
0.721981 0.324987 0.000000
0.799771 0.386847 0.000000
0.868498 0.444800 0.000000
0.924712 0.492531 0.000000
0.970703 0.531548 0.000000
1.000000 0.564935 0.000000
1.000000 0.594842 0.000000
1.000000 0.621607 0.000000
1.000000 0.646174 0.011597
1.000000 0.668330 0.182223
0.046052 0.110811 0.090974
0.045350 0.111177 0.090913
0.050904 0.111299 0.090425
0.058015 0.111757 0.089479
0.074372 0.112184 0.088411
0.090669 0.112337 0.085603
0.104005 0.111757 0.083192
0.122499 0.110292 0.079316
0.152651 0.108248 0.073640
0.167910 0.111391 0.074891
0.187472 0.114900 0.075044
0.210636 0.118807 0.076204
0.237034 0.122957 0.075837
0.266453 0.127474 0.074769
0.298833 0.132845 0.073396
0.333654 0.139071 0.069154
0.371832 0.147097 0.063844
0.413367 0.157687 0.054871
0.458473 0.171878 0.041047
0.508904 0.191836 0.019348
0.582238 0.228733 0.000000
0.654627 0.275700 0.000000
0.725917 0.330449 0.000000
0.795377 0.390173 0.000000
0.858000 0.447303 0.000000
0.912200 0.493111 0.000000
0.958221 0.530907 0.000000
0.997772 0.563622 0.000000
1.000000 0.593225 0.000000
1.000000 0.620081 0.000000
1.000000 0.644739 0.000000
1.000000 0.667140 0.167697
0.086000 0.120974 0.095705
0.085542 0.121279 0.095644
0.088533 0.121401 0.095216
0.093172 0.121920 0.094240
0.100099 0.122194 0.093263
0.109316 0.122499 0.091279
0.122103 0.122316 0.089296
0.138918 0.121096 0.086244
0.160189 0.118715 0.082124
0.197543 0.114961 0.075776
0.218967 0.117250 0.074434
0.242222 0.120638 0.074922
0.268101 0.124849 0.073640
0.296727 0.129580 0.072572
0.328344 0.134798 0.069093
0.361486 0.141817 0.064607
0.398535 0.149996 0.058015
0.438453 0.161563 0.047181
0.483680 0.177432 0.030732
0.547631 0.206058 0.000000
0.612512 0.242985 0.000000
0.677241 0.288182 0.000000
0.742367 0.340276 0.000000
0.806210 0.396429 0.000000
0.864286 0.449897 0.000000
0.913237 0.495338 0.000000
0.954955 0.534539 0.000000
0.991363 0.569055 0.000000
1.000000 0.597803 0.000000
1.000000 0.623835 0.000000
1.000000 0.647822 0.000000
1.000000 0.669795 0.167391
0.112734 0.133577 0.101381
0.112734 0.133577 0.101381
0.114778 0.133639 0.100954
0.118746 0.133761 0.100130
0.124727 0.134188 0.098390
0.133364 0.134249 0.096956
0.145388 0.133852 0.094331
0.160250 0.133333 0.091798
0.179599 0.131289 0.088411
0.204807 0.127687 0.083558
0.246891 0.122011 0.075471
0.273594 0.122164 0.072663
0.299351 0.126314 0.070405
0.327855 0.131075 0.068177
0.359442 0.137179 0.063874
0.393439 0.144442 0.058442
0.430884 0.154513 0.048402
0.477272 0.169986 0.032990
0.534356 0.194186 0.004944
0.591608 0.224765 0.000000
0.647974 0.261601 0.000000
0.703273 0.303471 0.000000
0.758602 0.349859 0.000000
0.812802 0.398230 0.000000
0.862882 0.444953 0.000000
0.907469 0.486854 0.000000
0.947692 0.524865 0.000000
0.984131 0.559716 0.000000
1.000000 0.592462 0.000000
1.000000 0.623163 0.000000
1.000000 0.649378 0.000000
1.000000 0.672267 0.166842
0.140993 0.146609 0.107362
0.141238 0.146792 0.107301
0.143008 0.147036 0.106874
0.146944 0.147250 0.106020
0.153079 0.147646 0.104738
0.162203 0.147829 0.102602
0.173953 0.148196 0.100252
0.189059 0.147860 0.097383
0.207523 0.146456 0.094026
0.230381 0.143465 0.090364
0.259251 0.138521 0.084749
0.306737 0.130983 0.073457
0.340185 0.128145 0.065949
0.368261 0.133455 0.061891
0.399176 0.140414 0.055451
0.434913 0.149935 0.046571
0.482490 0.165682 0.029389
0.531701 0.186557 0.006500
0.581201 0.212406 0.000000
0.630549 0.243595 0.000000
0.680079 0.279545 0.000000
0.729702 0.319402 0.000000
0.780148 0.363561 0.000000
0.829648 0.409277 0.000000
0.875669 0.452735 0.000000
0.917174 0.492348 0.000000
0.955016 0.528405 0.000000
0.989685 0.562097 0.000000
1.000000 0.593835 0.000000
1.000000 0.623713 0.000000
1.000000 0.651698 0.000000
1.000000 0.677668 0.179507
0.178531 0.164645 0.115206
0.178714 0.164797 0.115175
0.180880 0.164889 0.114473
0.184604 0.165316 0.113924
0.190799 0.165774 0.112337
0.199741 0.166354 0.110231
0.211704 0.166751 0.107607
0.226841 0.166781 0.104402
0.245396 0.165957 0.100618
0.267918 0.164034 0.096071
0.294041 0.159976 0.091249
0.327214 0.153445 0.083619
0.439643 0.157595 0.050935
0.497688 0.156100 0.024262
0.546136 0.177432 0.000000
0.594812 0.204318 0.000000
0.641962 0.235477 0.000000
0.687984 0.270268 0.000000
0.733059 0.308049 0.000000
0.777981 0.348333 0.000000
0.821744 0.389624 0.000000
0.862943 0.429664 0.000000
0.901518 0.467536 0.000000
0.937652 0.502861 0.000000
0.969879 0.534813 0.000000
0.998474 0.563378 0.000000
1.000000 0.589136 0.000000
1.000000 0.613092 0.000000
1.000000 0.635706 0.000000
1.000000 0.657832 0.086366
1.000000 0.679042 0.186374
1.000000 0.699702 0.261784
0.244938 0.200259 0.129732
0.245304 0.199924 0.129549
0.246281 0.199771 0.128786
0.249271 0.199496 0.127382
0.254002 0.199069 0.125154
0.261295 0.198764 0.122347
0.272007 0.198672 0.118898
0.286381 0.198642 0.114717
0.305119 0.198550 0.109895
0.328862 0.197665 0.104067
0.362768 0.198245 0.097169
0.409827 0.199710 0.087800
0.467872 0.199008 0.060182
0.547173 0.199588 0.005707
0.611170 0.202976 0.000000
0.652064 0.231876 0.000000
0.690883 0.262242 0.000000
0.727718 0.294102 0.000000
0.764675 0.327398 0.000000
0.801358 0.362371 0.000000
0.837613 0.398108 0.000000
0.873289 0.433661 0.000000
0.907652 0.468177 0.000000
0.940459 0.501061 0.000000
0.970855 0.531365 0.000000
0.998505 0.559564 0.000000
1.000000 0.585382 0.000000
1.000000 0.609705 0.000000
1.000000 0.633143 0.000000
1.000000 0.655634 0.047395
1.000000 0.677119 0.179721
1.000000 0.697932 0.257053
0.290501 0.228122 0.140047
0.290562 0.227756 0.139681
0.291081 0.227115 0.138674
0.293339 0.226535 0.137057
0.297978 0.226627 0.135073
0.307530 0.227848 0.132448
0.320500 0.229526 0.128817
0.338079 0.232212 0.124819
0.360571 0.235721 0.119478
0.389624 0.239506 0.112459
0.425238 0.244327 0.104067
0.467964 0.248753 0.091829
0.516381 0.251316 0.061250
0.572412 0.252445 0.010163
0.643458 0.258000 0.000000
0.702296 0.259495 0.000000
0.734676 0.288670 0.000000
0.765621 0.317906 0.000000
0.797238 0.348821 0.000000
0.828305 0.380407 0.000000
0.859434 0.412329 0.000000
0.891112 0.444770 0.000000
0.921843 0.476173 0.000000
0.952056 0.507042 0.000000
0.980316 0.535912 0.000000
1.000000 0.562860 0.000000
1.000000 0.587793 0.000000
1.000000 0.611414 0.000000
1.000000 0.634150 0.000000
1.000000 0.656397 0.065675
1.000000 0.677790 0.183749
1.000000 0.698421 0.260655
0.366339 0.281682 0.158816
0.366430 0.281590 0.158450
0.366857 0.280766 0.157321
0.368750 0.279881 0.155489
0.372351 0.278965 0.152529
0.378973 0.278508 0.148684
0.389532 0.279057 0.143801
0.404303 0.280888 0.138521
0.424628 0.283970 0.131838
0.450507 0.288518 0.123445
0.483192 0.294224 0.112520
0.522057 0.301488 0.098909
0.565301 0.307408 0.067231
0.610315 0.310857 0.007874
0.660243 0.312322 0.000000
0.722683 0.317998 0.000000
0.778225 0.317205 0.000000
0.805142 0.345251 0.000000
0.831876 0.373419 0.000000
0.858305 0.401434 0.000000
0.885039 0.430091 0.000000
0.912718 0.459236 0.000000
0.939940 0.487861 0.000000
0.966735 0.515740 0.000000
0.992248 0.542535 0.000000
1.000000 0.568139 0.000000
1.000000 0.592676 0.000000
1.000000 0.616297 0.000000
1.000000 0.639460 0.000000
1.000000 0.662043 0.116213
1.000000 0.683925 0.209964
1.000000 0.705074 0.288151
0.434333 0.335790 0.178500
0.435096 0.336004 0.178225
0.436316 0.335760 0.176913
0.438849 0.335637 0.175265
0.443153 0.335424 0.172305
0.450629 0.335973 0.168063
0.461952 0.337926 0.162966
0.477089 0.341405 0.156832
0.497108 0.345922 0.149325
0.521233 0.351354 0.139651
0.548974 0.357092 0.127138
0.580316 0.362982 0.111421
0.614527 0.367834 0.088228
0.650141 0.370123 0.018921
0.686610 0.369055 0.000000
0.727565 0.366461 0.000000
0.782712 0.371252 0.000000
0.834134 0.370245 0.000000
0.860349 0.393042 0.000000
0.884276 0.419593 0.000000
0.909239 0.447028 0.000000
0.934936 0.474556 0.000000
0.960296 0.501793 0.000000
0.985412 0.528496 0.000000
1.000000 0.554314 0.000000
1.000000 0.579034 0.000000
1.000000 0.602777 0.000000
1.000000 0.625544 0.000000
1.000000 0.647395 0.000000
1.000000 0.668482 0.150332
1.000000 0.688624 0.230594
1.000000 0.708370 0.303655
0.495033 0.388495 0.200137
0.495186 0.388556 0.200107
0.496376 0.388556 0.199191
0.499031 0.388373 0.196811
0.503624 0.388922 0.194247
0.510399 0.389837 0.189548
0.520745 0.391608 0.184054
0.534203 0.394873 0.177554
0.551324 0.399268 0.169924
0.572290 0.404211 0.159670
0.596735 0.410132 0.147341
0.624292 0.416114 0.131289
0.654505 0.421454 0.109743
0.686397 0.425177 0.069062
0.718898 0.426093 0.000000
0.752041 0.423407 0.000000
0.789975 0.421027 0.000000
0.840452 0.425299 0.000000
0.887633 0.424781 0.000000
0.913848 0.441627 0.000000
0.936095 0.466590 0.000000
0.959014 0.491829 0.000000
0.982055 0.517266 0.000000
1.000000 0.542229 0.000000
1.000000 0.566644 0.000000
1.000000 0.590204 0.000000
1.000000 0.613062 0.000000
1.000000 0.634821 0.000000
1.000000 0.655909 0.080171
1.000000 0.675959 0.185214
1.000000 0.695521 0.259861
1.000000 0.714595 0.331029
0.559075 0.449378 0.231327
0.560143 0.450324 0.231510
0.627558 0.514366 0.270787
0.630274 0.514458 0.268284
0.634455 0.514916 0.264775
0.640497 0.515221 0.258793
0.649042 0.516197 0.251987
0.660670 0.518059 0.243656
0.675990 0.521691 0.234745
0.694911 0.526238 0.223453
0.717006 0.531212 0.209995
0.741390 0.536004 0.194156
0.766537 0.538720 0.172549
0.791928 0.539666 0.146242
0.817258 0.537621 0.107576
0.842191 0.532403 0.000000
0.866636 0.523705 0.000000
0.894957 0.515068 0.000000
0.933410 0.511864 0.000000
0.970214 0.505821 0.000000
0.992035 0.513939 0.000000
1.000000 0.533593 0.000000
1.000000 0.553857 0.000000
1.000000 0.573663 0.000000
1.000000 0.592554 0.000000
1.000000 0.610956 0.000000
1.000000 0.629053 0.000000
1.000000 0.647211 0.000000
1.000000 0.665431 0.143709
1.000000 0.683742 0.219852
1.000000 0.702144 0.289250
1.000000 0.720302 0.357427
0.639399 0.527550 0.282902
0.645716 0.533684 0.287663
0.653651 0.539818 0.290867
0.661921 0.545739 0.293217
0.670344 0.550286 0.293431
0.677852 0.552270 0.289158
0.685969 0.553704 0.283238
0.695857 0.554681 0.274754
0.708644 0.557183 0.266361
0.724849 0.560479 0.255802
0.743893 0.564446 0.244053
0.764981 0.568292 0.230106
0.786831 0.570550 0.212436
0.809506 0.571710 0.191257
0.832334 0.570336 0.163119
0.855344 0.567285 0.127565
0.878477 0.561517 0.047364
0.902281 0.553887 0.000000
0.930694 0.546990 0.000000
0.967681 0.545190 0.000000
1.000000 0.540734 0.000000
1.000000 0.546838 0.000000
1.000000 0.565789 0.000000
1.000000 0.584253 0.000000
1.000000 0.601892 0.000000
1.000000 0.619043 0.000000
1.000000 0.635889 0.000000
1.000000 0.652796 0.049958
1.000000 0.670100 0.169345
1.000000 0.687678 0.239139
1.000000 0.705470 0.306035
1.000000 0.723445 0.374060
0.683467 0.570031 0.319097
0.690364 0.576043 0.323766
0.698451 0.582696 0.328771
0.707088 0.588708 0.332067
0.715358 0.593347 0.332708
0.722560 0.595727 0.329778
0.730007 0.596765 0.324010
0.738643 0.597772 0.316594
0.749660 0.599298 0.308324
0.763210 0.601373 0.298466
0.779263 0.604089 0.287816
0.797330 0.606775 0.274784
0.816403 0.608576 0.260258
0.836484 0.609644 0.242588
0.857115 0.608972 0.220829
0.877775 0.606683 0.195254
0.898863 0.602350 0.163210
0.920348 0.596277 0.119417
0.942565 0.588952 0.000000
0.969268 0.582422 0.000000
1.000000 0.579797 0.000000
1.000000 0.575372 0.000000
1.000000 0.578210 0.000000
1.000000 0.595544 0.000000
1.000000 0.611872 0.000000
1.000000 0.627863 0.000000
1.000000 0.643458 0.000000
1.000000 0.659174 0.122530
1.000000 0.675532 0.197299
1.000000 0.692317 0.261570
1.000000 0.709438 0.326146
1.000000 0.726925 0.392615
0.731228 0.614679 0.362249
0.737118 0.619898 0.367346
0.744228 0.625574 0.372168
0.751644 0.630640 0.375830
0.758877 0.634485 0.376684
0.765225 0.636347 0.374029
0.771572 0.637476 0.369665
0.779324 0.638148 0.362737
0.789151 0.639277 0.355108
0.800656 0.640772 0.346227
0.814481 0.642878 0.336858
0.830106 0.644617 0.325536
0.846799 0.646052 0.312566
0.864469 0.646662 0.297307
0.882780 0.646632 0.280644
0.902281 0.645289 0.260105
0.922789 0.643488 0.237675
0.944549 0.640650 0.212863
0.967224 0.637293 0.184787
0.991119 0.632837 0.150759
1.000000 0.629023 0.104189
1.000000 0.627588 0.000000
1.000000 0.623468 0.000000
1.000000 0.623255 0.000000
1.000000 0.639368 0.000000
1.000000 0.654353 0.110933
1.000000 0.668849 0.180728
1.000000 0.683467 0.238346
1.000000 0.698634 0.295720
1.000000 0.714321 0.354253
1.000000 0.730556 0.415686
1.000000 0.747677 0.480049
0.811185 0.688685 0.450294
0.813443 0.690700 0.453010
0.815793 0.692287 0.454383
0.818509 0.693141 0.453773
0.821683 0.693538 0.451301
0.824949 0.693172 0.446632
0.829313 0.692866 0.441474
0.835355 0.692683 0.435004
0.843412 0.693050 0.427619
0.853422 0.694331 0.420905
0.865415 0.695705 0.412512
0.878843 0.696956 0.402747
0.892851 0.697597 0.391547
0.907866 0.697749 0.379095
0.923491 0.696956 0.364111
0.939849 0.695155 0.346807
0.956878 0.692500 0.328008
0.974792 0.688899 0.307164
0.993286 0.684413 0.284611
1.000000 0.678981 0.260380
1.000000 0.672175 0.233402
1.000000 0.665431 0.202945
1.000000 0.660182 0.167575
1.000000 0.652338 0.115419
1.000000 0.647395 0.052827
1.000000 0.661463 0.156649
1.000000 0.675502 0.215030
1.000000 0.689723 0.268803
1.000000 0.704433 0.323735
1.000000 0.719509 0.380407
1.000000 0.735378 0.440284
1.000000 0.752132 0.501823
0.849882 0.726864 0.506188
0.851743 0.728237 0.507744
0.853819 0.729641 0.509087
0.856229 0.730526 0.509056
0.858976 0.730953 0.507286
0.862089 0.730739 0.503777
0.866148 0.730465 0.498787
0.871519 0.730282 0.493446
0.878386 0.730556 0.487434
0.887205 0.731258 0.481025
0.897398 0.732296 0.474342
0.908782 0.733272 0.467048
0.921294 0.733669 0.457404
0.934752 0.733761 0.446845
0.948821 0.733211 0.434760
0.963653 0.732021 0.421424
0.979217 0.730098 0.406683
0.995392 0.727382 0.390417
1.000000 0.723598 0.372564
1.000000 0.719051 0.353979
1.000000 0.713344 0.334264
1.000000 0.706203 0.313420
1.000000 0.698634 0.290715
1.000000 0.691615 0.266606
1.000000 0.673426 0.206271
1.000000 0.665034 0.179629
1.000000 0.678798 0.234287
1.000000 0.692622 0.286137
1.000000 0.706935 0.339513
1.000000 0.722011 0.396002
1.000000 0.737972 0.455818
1.000000 0.754940 0.517113
0.899931 0.777768 0.585534
0.902434 0.780026 0.588891
0.903960 0.781094 0.590326
0.904906 0.780728 0.588403
0.905486 0.779355 0.584527
0.906340 0.777218 0.578607
0.907622 0.774685 0.571344
0.909941 0.772091 0.562799
0.913603 0.769924 0.554711
0.918883 0.768154 0.545983
0.925414 0.766445 0.536706
0.933593 0.765347 0.527092
0.942931 0.763912 0.516716
0.953033 0.762173 0.504936
0.963592 0.759731 0.491768
0.975341 0.756741 0.476692
0.987945 0.753567 0.461311
1.000000 0.750301 0.445991
1.000000 0.747127 0.430823
1.000000 0.743740 0.416541
1.000000 0.739498 0.401770
1.000000 0.733761 0.385534
1.000000 0.725856 0.366094
1.000000 0.716854 0.343389
1.000000 0.707729 0.318822
1.000000 0.696559 0.290623
1.000000 0.685542 0.266758
1.000000 0.697444 0.311223
1.000000 0.710628 0.359869
1.000000 0.724849 0.412696
1.000000 0.740322 0.470253
1.000000 0.757076 0.529625
0.920989 0.802457 0.627588
0.923033 0.804440 0.630732
0.924620 0.805661 0.632380
0.926024 0.805936 0.632074
0.927581 0.805600 0.630030
0.929412 0.805020 0.626917
0.932280 0.804257 0.623133
0.935943 0.803708 0.619013
0.940703 0.803403 0.614771
0.946593 0.803189 0.610101
0.953399 0.802640 0.604150
0.960998 0.802213 0.598199
0.969360 0.801083 0.590417
0.978210 0.799344 0.580957
0.987366 0.796841 0.569848
0.997070 0.793790 0.557946
1.000000 0.790341 0.544701
1.000000 0.786709 0.531548
1.000000 0.783139 0.518975
1.000000 0.779416 0.507195
1.000000 0.775082 0.495247
1.000000 0.769741 0.482887
1.000000 0.762814 0.468177
1.000000 0.754299 0.451606
1.000000 0.744717 0.432807
1.000000 0.734829 0.412665
1.000000 0.723507 0.390814
1.000000 0.712276 0.373297
1.000000 0.722744 0.414557
1.000000 0.736690 0.465675
1.000000 0.751858 0.518914
1.000000 0.768521 0.573907
0.948669 0.837125 0.688472
0.949584 0.838010 0.689906
0.950286 0.838437 0.690394
0.951171 0.838407 0.689693
0.952300 0.837858 0.687709
0.953918 0.836912 0.684565
0.955993 0.836027 0.681178
0.958953 0.835080 0.677028
0.962737 0.834226 0.672694
0.967407 0.833646 0.668574
0.972961 0.832853 0.663508
0.979400 0.832120 0.658412
0.986481 0.830961 0.652125
0.994018 0.829252 0.644556
1.000000 0.826719 0.635401
1.000000 0.823484 0.624689
1.000000 0.820035 0.613947
1.000000 0.816342 0.602808
1.000000 0.812680 0.592248
1.000000 0.809110 0.583001
1.000000 0.804929 0.573724
1.000000 0.799954 0.564111
1.000000 0.793637 0.552483
1.000000 0.785733 0.538567
1.000000 0.776486 0.523033
1.000000 0.766049 0.505180
1.000000 0.755673 0.487221
1.000000 0.743801 0.466957
1.000000 0.732601 0.452766
1.000000 0.742153 0.492103
1.000000 0.757229 0.542931
1.000000 0.774411 0.597040
0.966674 0.863951 0.737331
0.967254 0.864591 0.738430
0.967987 0.865141 0.739193
0.968933 0.865385 0.739254
0.970428 0.865507 0.738705
0.972564 0.866026 0.738643
0.975799 0.867399 0.739956
0.979980 0.869017 0.741421
0.984894 0.871122 0.743771
0.990448 0.873411 0.746304
0.996582 0.875608 0.748775
1.000000 0.877409 0.750576
1.000000 0.878477 0.751278
1.000000 0.878691 0.750423
1.000000 0.877745 0.747494
1.000000 0.875364 0.741848
1.000000 0.872282 0.735042
1.000000 0.868833 0.728023
1.000000 0.865324 0.721431
1.000000 0.861570 0.715297
1.000000 0.857481 0.709407
1.000000 0.852445 0.702449
1.000000 0.846433 0.694392
1.000000 0.839139 0.684474
1.000000 0.830411 0.672572
1.000000 0.820279 0.658381
1.000000 0.809415 0.643793
1.000000 0.798276 0.629053
1.000000 0.786252 0.613397
1.000000 0.775235 0.602838
1.000000 0.785550 0.637537
1.000000 0.804532 0.686183
0.991669 0.907836 0.817441
0.991699 0.907866 0.817472
0.991852 0.907713 0.817166
0.992279 0.907317 0.816129
0.993011 0.906828 0.814878
0.994049 0.906279 0.813504
0.995514 0.905852 0.812009
0.997559 0.905486 0.810636
1.000000 0.905272 0.809415
1.000000 0.905089 0.808316
1.000000 0.904875 0.806973
1.000000 0.904662 0.805783
1.000000 0.904112 0.803952
