20 Preset/City Style/【3】LUT video cho PR-AE-FCPX/TONE 1/Colors Change The Great Moscow CIty.cube
# Created by Adobe Lightroom plugin Export LUT (1.24.0)
# www.johnrellis.com/lightroom/exportlut.htm
# Preset: Colors Change The Great Moscow CIty
# Color profile: E:\lut插件\exportlut.1.24\exportlut.lrplugin\color profiles\Rec709gamma2.4.icc
LUT_3D_SIZE 8
DOMAIN_MIN 0.000000 0.000000 0.000000
DOMAIN_MAX 0.903226 0.903226 0.903226
0.055055 0.113344 0.122164
0.000000 0.109804 0.121065
0.000000 0.104097 0.115724
0.120607 0.098238 0.105440
0.315892 0.000000 0.089570
0.598779 0.000000 0.014588
0.995911 0.000000 0.000000
1.000000 0.000000 0.000000
0.051270 0.085054 0.103609
0.005310 0.079957 0.113069
0.000000 0.095186 0.113252
0.111788 0.100282 0.103334
0.287633 0.057008 0.087953
0.557183 0.000000 0.014954
0.921660 0.000000 0.000000
1.000000 0.000000 0.000000
0.000000 0.087892 0.090272
0.000000 0.090486 0.088258
0.045686 0.102235 0.088228
0.176089 0.119509 0.083436
0.354223 0.135195 0.027527
0.686244 0.000000 0.000000
1.000000 0.000000 0.000000
1.000000 0.000000 0.000000
0.000000 0.192142 0.125704
0.000000 0.196323 0.114107
0.000000 0.223178 0.032227
0.259190 0.289281 0.000000
0.600427 0.253666 0.000000
0.869902 0.319402 0.000000
1.000000 0.404028 0.000000
1.000000 0.402350 0.000000
0.000000 0.402167 0.218143
0.000000 0.405676 0.202365
0.000000 0.433539 0.099916
0.000000 0.498207 0.000000
0.540002 0.556268 0.000000
0.879667 0.426368 0.000000
1.000000 0.516167 0.000000
1.000000 0.579248 0.000000
0.000000 0.696468 0.383307
0.000000 0.724208 0.386175
0.000000 0.743191 0.300298
0.000000 0.779141 0.000000
0.000000 0.808377 0.000000
0.831235 0.826993 0.000000
1.000000 0.658564 0.000000
1.000000 0.685054 0.000000
0.000000 0.923613 0.652796
0.000000 0.927947 0.647791
0.000000 0.934051 0.593347
0.000000 0.948547 0.453834
0.000000 0.957153 0.235660
0.616205 0.956847 0.000000
0.974884 0.949523 0.000000
1.000000 0.804593 0.000000
0.651484 0.998596 0.866087
0.647242 0.999207 0.862577
0.636194 1.000000 0.848844
0.620661 1.000000 0.818692
0.431525 1.000000 0.676875
0.635737 1.000000 0.631403
0.830198 1.000000 0.553491
1.000000 0.996063 0.381201
0.070924 0.095064 0.097261
0.000000 0.114351 0.096223
0.000000 0.094026 0.101350
0.106355 0.068360 0.090455
0.267033 0.000000 0.081086
0.518517 0.000000 0.037781
0.868925 0.000000 0.000000
1.000000 0.000000 0.000000
0.039979 0.082124 0.096101
0.014710 0.081971 0.093141
0.006531 0.079835 0.092103
0.112032 0.079103 0.089296
0.269688 0.007477 0.078126
0.521965 0.000000 0.027863
0.838010 0.000000 0.000000
1.000000 0.000000 0.000000
0.000000 0.086244 0.091676
0.000000 0.088258 0.090242
0.041291 0.098146 0.082582
0.158938 0.109316 0.075837
0.320684 0.115358 0.038544
0.590967 0.000000 0.000000
0.902586 0.000000 0.000000
1.000000 0.000000 0.000000
0.000000 0.165927 0.129854
0.000000 0.170260 0.122408
0.000000 0.194156 0.075135
0.196963 0.233158 0.000000
0.452338 0.200320 0.000000
0.707179 0.240513 0.000000
0.958129 0.296513 0.000000
1.000000 0.322545 0.000000
0.000000 0.375189 0.228794
0.000000 0.375341 0.214023
0.000000 0.393805 0.138857
0.000000 0.437812 0.000000
0.464210 0.479622 0.000000
0.798734 0.373449 0.000000
1.000000 0.468299 0.000000
1.000000 0.549340 0.000000
0.000000 0.648981 0.375586
0.000000 0.655360 0.362585
0.000000 0.678004 0.292851
0.000000 0.724758 0.000000
0.000000 0.767391 0.000000
0.803372 0.802609 0.000000
1.000000 0.639246 0.000000
1.000000 0.673548 0.000000
0.000000 0.898466 0.627192
0.000000 0.896880 0.610498
0.000000 0.902953 0.553643
0.000000 0.921996 0.419898
0.000000 0.939849 0.197787
0.581415 0.942748 0.000000
0.958648 0.935302 0.000000
1.000000 0.788479 0.000000
0.601373 0.994354 0.852262
0.608881 0.995575 0.852140
0.593561 0.998657 0.836637
0.576837 1.000000 0.804410
0.532097 1.000000 0.725307
0.653437 1.000000 0.657740
0.828580 1.000000 0.558770
1.000000 0.995392 0.372045
0.027955 0.084627 0.091554
0.030976 0.089906 0.093507
0.027680 0.093843 0.103212
0.110323 0.058595 0.095338
0.279942 0.000000 0.087251
0.558190 0.000000 0.100618
0.917876 0.000000 0.090974
1.000000 0.000000 0.000000
0.003357 0.079957 0.093782
0.003265 0.078462 0.095857
0.053223 0.070161 0.102266
0.118257 0.050141 0.090211
0.278813 0.000000 0.092317
0.551995 0.000000 0.107301
0.888243 0.000000 0.074159
1.000000 0.000000 0.000000
0.000000 0.095766 0.100740
0.000000 0.096712 0.102022
0.034516 0.098787 0.108370
0.160159 0.099397 0.107546
0.346471 0.020417 0.104524
0.632074 0.000000 0.087190
0.935302 0.000000 0.000000
1.000000 0.000000 0.000000
0.000000 0.197818 0.167117
0.000000 0.198550 0.169223
0.000000 0.203891 0.162142
0.217929 0.245365 0.103487
0.483986 0.224277 0.034028
0.750210 0.263920 0.000000
0.996185 0.266270 0.000000
1.000000 0.289067 0.000000
0.000000 0.384955 0.293919
0.000000 0.381537 0.293462
0.000000 0.400427 0.259922
0.000000 0.455970 0.128664
0.498878 0.506462 0.000000
0.824918 0.408453 0.000000
1.000000 0.489570 0.000000
1.000000 0.565118 0.000000
0.000000 0.640589 0.467445
0.000000 0.648829 0.460487
0.000000 0.669673 0.410986
0.000000 0.710964 0.247471
0.000000 0.754391 0.000000
0.795743 0.792081 0.000000
1.000000 0.650019 0.000000
1.000000 0.687404 0.000000
0.000000 0.897063 0.712612
0.000000 0.896452 0.700710
0.000000 0.900359 0.654292
0.000000 0.916045 0.550378
0.000000 0.936095 0.352697
0.596490 0.942260 0.213962
0.964538 0.939513 0.000000
1.000000 0.790738 0.000000
0.675441 0.989105 0.880095
0.666560 0.989471 0.875456
0.652399 0.992462 0.862242
0.651423 0.999481 0.840940
0.614679 1.000000 0.778714
0.691402 1.000000 0.720485
0.839689 1.000000 0.645106
1.000000 0.995392 0.496315
0.000000 0.106264 0.152132
0.000000 0.099001 0.160342
0.010101 0.069245 0.179751
0.228824 0.000000 0.194217
0.256748 0.000000 0.132479
0.526177 0.000000 0.088075
0.865263 0.000000 0.112428
1.000000 0.000000 0.173709
0.000000 0.102663 0.164645
0.000000 0.095888 0.169558
0.000000 0.059693 0.186191
0.238499 0.000000 0.198917
0.275059 0.000000 0.134493
0.545312 0.000000 0.096925
0.870390 0.000000 0.127932
1.000000 0.000000 0.191135
0.000000 0.154726 0.163485
0.000000 0.152529 0.168948
0.000000 0.121187 0.188663
0.232547 0.014252 0.201419
0.343145 0.000000 0.149813
0.643580 0.000000 0.161440
0.970855 0.000000 0.225406
1.000000 0.000000 0.269200
0.000000 0.228458 0.201358
0.000000 0.228458 0.203037
0.000000 0.233005 0.214420
0.219181 0.240696 0.240940
0.446937 0.234958 0.238071
0.720546 0.197238 0.233677
0.984527 0.131380 0.225071
1.000000 0.180209 0.214420
0.000000 0.471962 0.375525
0.000000 0.466712 0.375799
0.094636 0.455390 0.376135
0.225193 0.467659 0.369360
0.538445 0.531029 0.250065
0.849241 0.481849 0.201083
1.000000 0.545312 0.099062
1.000000 0.569970 0.000000
0.000000 0.716609 0.579156
0.000000 0.731441 0.597711
0.133242 0.719295 0.595026
0.024048 0.737942 0.549401
0.237156 0.784665 0.368048
0.815763 0.804227 0.225742
1.000000 0.694392 0.158938
1.000000 0.722072 0.000000
0.437232 0.898833 0.789334
0.453132 0.899138 0.791684
0.491310 0.897368 0.793515
0.424994 0.915343 0.746944
0.293492 0.939178 0.607141
0.649958 0.946288 0.502586
0.965515 0.942351 0.365484
1.000000 0.800351 0.247318
0.797879 0.983001 0.927398
0.794919 0.983551 0.925414
0.784848 0.986053 0.917357
0.769192 0.991363 0.899626
0.740230 0.999145 0.859678
0.749325 1.000000 0.803250
0.857481 1.000000 0.754055
1.000000 0.995117 0.661372
0.000000 0.163546 0.298833
0.000000 0.149203 0.309300
0.000000 0.062989 0.332982
0.182956 0.000000 0.375525
0.539086 0.000000 0.381140
0.589105 0.000000 0.255161
0.841764 0.000000 0.191104
1.000000 0.000000 0.131655
0.000000 0.142428 0.315587
0.000000 0.133059 0.325811
0.000000 0.069886 0.346044
0.169253 0.000000 0.380255
0.541955 0.000000 0.383093
0.596124 0.000000 0.257694
0.853849 0.000000 0.193179
1.000000 0.000000 0.149264
0.000000 0.232670 0.327886
0.000000 0.223239 0.333165
0.000000 0.170871 0.350469
0.099214 0.079500 0.383276
0.545769 0.000000 0.391821
0.575982 0.000000 0.257023
0.875517 0.000000 0.198795
1.000000 0.000000 0.213352
0.000000 0.353338 0.320287
0.000000 0.354437 0.322637
0.000000 0.359014 0.353582
0.010559 0.287449 0.410163
0.564752 0.109499 0.433021
0.679866 0.037781 0.318853
0.953735 0.000000 0.306767
1.000000 0.000000 0.379675
0.000000 0.465553 0.393378
0.000000 0.468177 0.397620
0.000000 0.472602 0.410346
0.255192 0.479988 0.436957
0.494667 0.480659 0.475074
0.757870 0.476478 0.465217
0.979858 0.487495 0.463111
1.000000 0.516258 0.463752
0.000000 0.715023 0.579004
0.000000 0.714870 0.583307
0.098024 0.702632 0.590021
0.389044 0.689815 0.604028
0.479133 0.696956 0.596338
0.777646 0.767422 0.500053
1.000000 0.731807 0.478248
1.000000 0.758022 0.464424
0.539483 0.907103 0.816281
0.536828 0.904295 0.813260
0.548363 0.897826 0.808927
0.611902 0.894621 0.817258
0.626917 0.905547 0.794064
0.661524 0.929747 0.675898
0.946258 0.930724 0.583246
1.000000 0.825132 0.498665
0.785428 0.981415 0.924285
0.786831 0.980926 0.924224
0.796078 0.979278 0.925109
0.834073 0.979095 0.934661
0.821256 0.986084 0.915770
0.791348 0.996796 0.863401
0.865507 0.998169 0.824613
1.000000 0.991852 0.756222
0.000000 0.296757 0.583276
0.000000 0.278019 0.593408
0.000000 0.174044 0.611261
0.000000 0.000000 0.649683
0.512016 0.000000 0.695583
0.932250 0.000000 0.684504
0.997650 0.000000 0.487770
1.000000 0.000000 0.371649
0.000000 0.240604 0.564752
0.000000 0.220096 0.569390
0.000000 0.134157 0.588861
0.000000 0.000000 0.625422
0.486885 0.000000 0.676844
0.909087 0.000000 0.664393
0.973877 0.000000 0.472145
1.000000 0.000000 0.362890
0.000000 0.332677 0.595911
0.000000 0.318914 0.599084
0.000000 0.256260 0.616785
0.000000 0.122713 0.642725
0.472297 0.000000 0.697475
0.919432 0.000000 0.680201
0.982666 0.000000 0.488930
1.000000 0.000000 0.381598
0.000000 0.550439 0.620722
0.000000 0.541650 0.623682
0.000000 0.512535 0.650843
0.000000 0.400916 0.706905
0.465858 0.221286 0.758572
0.957519 0.000000 0.739620
1.000000 0.000000 0.552880
1.000000 0.000000 0.443580
0.000000 0.662531 0.600336
0.000000 0.662348 0.601862
0.000000 0.665217 0.612024
0.000000 0.673732 0.652796
0.403937 0.560174 0.718990
0.883574 0.392981 0.732021
0.975769 0.412055 0.590143
1.000000 0.440711 0.560357
0.000000 0.753994 0.659297
0.000000 0.761257 0.669184
0.000000 0.760037 0.676692
0.299199 0.758999 0.693263
0.555810 0.755612 0.717525
0.770230 0.768002 0.766964
0.950774 0.784451 0.776028
1.000000 0.795712 0.779751
0.444831 0.938140 0.840818
0.480751 0.938903 0.845365
0.562402 0.935119 0.852201
0.681697 0.928222 0.865843
0.780911 0.920073 0.880034
0.813626 0.917723 0.872404
0.934905 0.931914 0.804654
1.000000 0.886961 0.778775
0.846250 0.984436 0.944274
0.844327 0.983917 0.943328
0.846128 0.982849 0.942748
0.858732 0.981933 0.944945
0.877440 0.979461 0.947814
0.886046 0.982330 0.939940
0.891539 0.991516 0.901091
0.992157 0.988952 0.860960
0.000000 0.481239 0.826993
0.000000 0.465248 0.834806
0.000000 0.373419 0.847349
0.000000 0.144625 0.872007
0.209232 0.000000 0.894530
0.844419 0.000000 0.916930
1.000000 0.000000 0.866697
1.000000 0.000000 0.666285
0.000000 0.430304 0.812985
0.000000 0.415595 0.822141
0.000000 0.325719 0.834989
0.000000 0.098939 0.855650
0.143832 0.000000 0.876738
0.814267 0.000000 0.898528
1.000000 0.000000 0.846860
1.000000 0.000000 0.643244
0.000000 0.433417 0.836667
0.000000 0.419562 0.839170
0.000000 0.352422 0.846433
0.000000 0.191226 0.862913
0.000000 0.000000 0.879606
0.802213 0.000000 0.902739
1.000000 0.000000 0.861021
1.000000 0.000000 0.670954
0.000000 0.653712 0.845457
0.000000 0.639155 0.844785
0.000000 0.585199 0.851133
0.000000 0.463661 0.872496
0.000000 0.257328 0.895201
0.788937 0.000000 0.919280
1.000000 0.000000 0.884123
1.000000 0.000000 0.706172
0.000000 0.819669 0.812284
0.000000 0.812070 0.811002
0.000000 0.791928 0.818875
0.000000 0.749264 0.843259
0.000000 0.603754 0.876463
0.701015 0.409491 0.907591
1.000000 0.054444 0.886137
1.000000 0.268894 0.748318
0.000000 0.879973 0.819791
0.000000 0.880247 0.821561
0.000000 0.879423 0.826474
0.397894 0.877867 0.836149
0.586114 0.876158 0.856992
0.706447 0.800992 0.901427
1.000000 0.713771 0.908934
1.000000 0.731502 0.824582
0.341314 0.935363 0.863859
0.376898 0.936126 0.866453
0.457618 0.934295 0.870085
0.579065 0.931609 0.878477
0.702754 0.926604 0.889067
0.820584 0.922332 0.903838
0.920623 0.922362 0.922850
0.999634 0.926055 0.924346
0.731594 0.997375 0.933898
0.740627 0.996918 0.935180
0.780667 0.995178 0.941436
0.833127 0.991577 0.949676
0.890318 0.986908 0.959594
0.934325 0.983001 0.968170
0.946471 0.982452 0.966400
0.987091 0.986603 0.941192
0.000000 0.696651 0.957488
0.000000 0.684962 0.960204
0.000000 0.618524 0.965515
0.000000 0.466377 0.980377
0.000000 0.171450 0.995666
0.540795 0.000000 1.000000
1.000000 0.000000 1.000000
1.000000 0.000000 0.950774
0.000000 0.670375 0.954009
0.000000 0.658961 0.956970
0.000000 0.593317 0.963592
0.000000 0.437934 0.977386
0.000000 0.155245 0.991974
0.558526 0.000000 1.000000
1.000000 0.000000 1.000000
1.000000 0.000000 0.946777
0.000000 0.608026 0.959594
0.000000 0.593194 0.961486
0.000000 0.521233 0.966949
0.000000 0.360082 0.982940
0.000000 0.113710 0.992645
0.576623 0.000000 0.998962
1.000000 0.000000 1.000000
1.000000 0.000000 0.947417
0.000000 0.689967 0.955901
0.000000 0.681514 0.958007
0.000000 0.634730 0.963317
0.000000 0.528099 0.976013
0.000000 0.295140 0.991943
0.530449 0.000000 0.999969
0.989197 0.000000 1.000000
1.000000 0.000000 0.953491
0.000000 0.862455 0.937804
0.000000 0.859434 0.939879
0.000000 0.837827 0.944060
0.000000 0.781918 0.955383
0.000000 0.644068 0.973419
0.428290 0.417975 0.992462
0.940734 0.100923 1.000000
1.000000 0.000000 0.959442
0.198550 0.959442 0.918273
0.165438 0.958953 0.919799
0.188205 0.949310 0.921508
0.310491 0.929992 0.929412
0.467903 0.891814 0.945678
0.583154 0.795407 0.971466
0.868040 0.681544 0.992798
1.000000 0.579492 0.968536
0.541375 0.980774 0.935149
0.548547 0.980133 0.935180
0.580835 0.977722 0.935637
0.650690 0.974304 0.938781
0.738827 0.969604 0.943816
0.827420 0.966613 0.954528
0.882872 0.925475 0.975097
1.000000 0.890623 0.975891
0.735012 0.997314 0.953521
0.738521 0.996948 0.953674
0.758663 0.995636 0.955261
0.800259 0.993408 0.959380
0.850828 0.990265 0.964721
0.902098 0.986786 0.970764
0.948119 0.984070 0.977142
0.982422 0.982910 0.983032
