20 Preset/City Style/【3】LUT video cho PR-AE-FCPX/TONE 1/Colors Change Strangers _ Streets.cube
# Created by Adobe Lightroom plugin Export LUT (1.24.0)
# www.johnrellis.com/lightroom/exportlut.htm
# Preset: Colors Change Strangers & Streets
# Color profile: E:\lut插件\exportlut.1.24\exportlut.lrplugin\color profiles\Rec709gamma2.4.icc
LUT_3D_SIZE 32
DOMAIN_MIN 0.0 0.0 0.0
DOMAIN_MAX 1.0 1.0 1.0
0.111696 0.128878 0.122896
0.111696 0.128878 0.122896
0.114229 0.128908 0.122835
0.122042 0.129397 0.122621
0.129946 0.130068 0.122377
0.128206 0.130983 0.123629
0.119539 0.131319 0.125124
0.114992 0.132235 0.126925
0.121126 0.133791 0.128176
0.138491 0.136233 0.129030
0.167025 0.139254 0.129427
0.207462 0.142641 0.128878
0.263005 0.144717 0.126741
0.336217 0.143709 0.122591
0.429847 0.135622 0.114260
0.542412 0.114168 0.098512
0.665339 0.064393 0.043122
0.786252 0.032959 0.000000
0.889372 0.141146 0.000000
0.972656 0.239536 0.000000
1.000000 0.392828 0.000000
1.000000 0.508751 0.000000
1.000000 0.584314 0.000000
1.000000 0.636683 0.000000
1.000000 0.673396 0.000000
1.000000 0.700374 0.000000
1.000000 0.721767 0.000000
1.000000 0.739193 0.000000
1.000000 0.754177 0.000000
1.000000 0.767575 0.000000
1.000000 0.779751 0.000000
1.000000 0.791440 0.000000
0.111696 0.128878 0.122896
0.111696 0.128878 0.122896
0.114046 0.129183 0.122805
0.121218 0.129976 0.122560
0.129122 0.130648 0.122560
0.128511 0.131197 0.123598
0.120302 0.131502 0.125368
0.114473 0.132265 0.126925
0.119265 0.133730 0.128206
0.134310 0.135988 0.129152
0.160464 0.139040 0.129641
0.198001 0.142184 0.129030
0.249332 0.144869 0.127443
0.317357 0.145113 0.123812
0.405158 0.139590 0.116487
0.513115 0.122866 0.103182
0.634760 0.091066 0.063020
0.757565 0.040314 0.000000
0.866209 0.123964 0.000000
0.953643 0.218448 0.000000
1.000000 0.365515 0.000000
1.000000 0.481178 0.000000
1.000000 0.559777 0.000000
1.000000 0.615259 0.000000
1.000000 0.655329 0.000000
1.000000 0.685420 0.000000
1.000000 0.709407 0.000000
1.000000 0.729183 0.000000
1.000000 0.745968 0.000000
1.000000 0.760708 0.000000
1.000000 0.773953 0.000000
1.000000 0.786252 0.000000
0.112245 0.129305 0.123354
0.112520 0.129549 0.123598
0.116426 0.130709 0.122530
0.123903 0.130709 0.122377
0.128695 0.131960 0.122652
0.126925 0.133059 0.125002
0.119509 0.132784 0.126497
0.113771 0.132784 0.127932
0.117250 0.134127 0.129213
0.130922 0.136568 0.129885
0.155734 0.139437 0.129946
0.191226 0.142885 0.129397
0.239658 0.146029 0.127718
0.304082 0.147677 0.124300
0.387457 0.144594 0.117494
0.491188 0.132845 0.104891
0.610529 0.109957 0.073762
0.735012 0.088502 0.000000
0.847654 0.127413 0.000000
0.938964 0.213748 0.000000
1.000000 0.358312 0.000000
1.000000 0.472084 0.000000
1.000000 0.550683 0.000000
1.000000 0.607355 0.000000
1.000000 0.648493 0.000000
1.000000 0.679500 0.000000
1.000000 0.704585 0.000000
1.000000 0.725460 0.000000
1.000000 0.743221 0.000000
1.000000 0.758663 0.000000
1.000000 0.772244 0.000000
1.000000 0.784634 0.000000
0.116091 0.133333 0.127016
0.116548 0.133272 0.127260
0.117494 0.134432 0.126040
0.125063 0.135042 0.121981
0.130037 0.131319 0.122164
0.126467 0.131441 0.122499
0.118776 0.132631 0.126284
0.113069 0.133516 0.129885
0.115328 0.134737 0.130709
0.128054 0.137301 0.130861
0.150881 0.140688 0.130892
0.184695 0.144594 0.129854
0.230594 0.148623 0.127962
0.291264 0.151461 0.124483
0.369360 0.151308 0.117739
0.466835 0.145296 0.105989
0.580652 0.132204 0.080659
0.701686 0.119448 0.000000
0.816770 0.140719 0.000000
0.918700 0.216098 0.000000
1.000000 0.341924 0.000000
1.000000 0.450202 0.000000
1.000000 0.531365 0.000000
1.000000 0.592462 0.000000
1.000000 0.639155 0.000000
1.000000 0.675074 0.000000
1.000000 0.703578 0.000000
1.000000 0.726314 0.000000
1.000000 0.745083 0.000000
1.000000 0.760739 0.000000
1.000000 0.773983 0.000000
1.000000 0.785763 0.000000
0.120546 0.137087 0.131289
0.121065 0.137057 0.131289
0.121065 0.137057 0.131289
0.122011 0.137972 0.128847
0.125765 0.135866 0.123781
0.124880 0.130617 0.122377
0.119356 0.129915 0.122591
0.115419 0.131472 0.125704
0.116396 0.133974 0.129274
0.124819 0.137392 0.131411
0.143435 0.141115 0.131746
0.174136 0.145968 0.130465
0.216617 0.150973 0.128450
0.273381 0.155550 0.124544
0.346777 0.158938 0.117739
0.441413 0.158541 0.105776
0.554345 0.153475 0.080537
0.677974 0.149752 0.000000
0.796963 0.168551 0.000000
0.911803 0.241733 0.000000
1.000000 0.354589 0.000000
1.000000 0.455726 0.000000
1.000000 0.534295 0.000000
1.000000 0.595514 0.000000
1.000000 0.643122 0.000000
1.000000 0.679713 0.000000
1.000000 0.708217 0.000000
1.000000 0.730861 0.000000
1.000000 0.749264 0.000000
1.000000 0.764492 0.000000
1.000000 0.777310 0.000000
1.000000 0.788724 0.000000
0.122683 0.137758 0.133150
0.122683 0.137758 0.133150
0.122683 0.137758 0.133150
0.122621 0.137301 0.132967
0.120363 0.135927 0.131716
0.118318 0.133608 0.126925
0.118349 0.130007 0.122591
0.119051 0.129702 0.122621
0.123262 0.131746 0.123903
0.132265 0.136019 0.127626
0.148898 0.140963 0.129885
0.174777 0.146944 0.130282
0.212192 0.153994 0.127810
0.265904 0.161013 0.122835
0.338293 0.167727 0.115053
0.431861 0.172183 0.101869
0.545434 0.174868 0.063172
0.670192 0.181033 0.000000
0.791073 0.206241 0.000000
0.917449 0.287938 0.000000
1.000000 0.392767 0.000000
1.000000 0.486488 0.000000
1.000000 0.688502 0.000000
1.000000 0.721706 0.000000
1.000000 0.744656 0.000000
1.000000 0.761715 0.000000
1.000000 0.774807 0.000000
1.000000 0.785458 0.000000
1.000000 0.794797 0.000000
1.000000 0.803128 0.000000
1.000000 0.810971 0.000000
1.000000 0.818509 0.000000
0.120668 0.134005 0.130709
0.120241 0.134035 0.130465
0.119631 0.134340 0.130159
0.119234 0.134127 0.130465
0.118868 0.132418 0.132723
0.114717 0.131502 0.134127
0.114199 0.132906 0.130983
0.123018 0.131319 0.122591
0.134249 0.131838 0.122011
0.152621 0.135409 0.121859
0.174594 0.141909 0.124575
0.206821 0.150301 0.126314
0.251194 0.159487 0.125032
0.311070 0.169528 0.118929
0.388403 0.181247 0.105745
0.485634 0.196475 0.071565
0.602930 0.210910 0.000000
0.725856 0.233585 0.000000
0.856840 0.292485 0.000000
0.974823 0.404944 0.000000
1.000000 0.515740 0.000000
1.000000 0.602899 0.000000
1.000000 0.667750 0.000000
1.000000 0.713832 0.000000
1.000000 0.744686 0.000000
1.000000 0.765225 0.000000
1.000000 0.779477 0.000000
1.000000 0.790341 0.000000
1.000000 0.799466 0.000000
1.000000 0.807187 0.000000
1.000000 0.814542 0.000000
1.000000 0.821592 0.000000
0.116793 0.131533 0.127535
0.116701 0.131807 0.127230
0.116243 0.131838 0.126955
0.115785 0.131899 0.126711
0.116640 0.131533 0.128054
0.116732 0.131685 0.130587
0.116976 0.133547 0.133089
0.121492 0.137209 0.132509
0.134493 0.136995 0.125856
0.151278 0.135531 0.123232
0.181796 0.140169 0.121309
0.212192 0.147951 0.123262
0.253788 0.156680 0.122988
0.308751 0.166964 0.119387
0.380346 0.178988 0.110597
0.470863 0.193027 0.090211
0.579126 0.213016 0.000000
0.701320 0.249546 0.000000
0.849607 0.338201 0.000000
0.956909 0.435767 0.000000
1.000000 0.533440 0.000000
1.000000 0.614343 0.000000
1.000000 0.676539 0.000000
1.000000 0.721981 0.000000
1.000000 0.753170 0.000000
1.000000 0.773678 0.000000
1.000000 0.787961 0.000000
1.000000 0.798520 0.000000
1.000000 0.807370 0.000000
1.000000 0.814847 0.000000
1.000000 0.821653 0.000000
1.000000 0.828092 0.000000
0.115389 0.132692 0.126070
0.115389 0.132692 0.126070
0.115389 0.132692 0.126070
0.115938 0.132387 0.126619
0.115633 0.132906 0.126284
0.117037 0.134493 0.125765
0.120760 0.137179 0.127138
0.127993 0.141482 0.129732
0.138735 0.145602 0.131655
0.155886 0.145663 0.128206
0.174746 0.140291 0.124819
0.215885 0.146212 0.122042
0.261357 0.154208 0.120516
0.314763 0.164431 0.118013
0.383520 0.176150 0.110994
0.469459 0.190158 0.094453
0.574975 0.209842 0.020630
0.724697 0.254124 0.000000
0.854673 0.333806 0.000000
0.950591 0.441840 0.000000
1.000000 0.552178 0.000000
1.000000 0.637263 0.000000
1.000000 0.694728 0.000000
1.000000 0.737484 0.000000
1.000000 0.767269 0.000000
1.000000 0.786770 0.000000
1.000000 0.800351 0.000000
1.000000 0.810422 0.000000
1.000000 0.818570 0.000000
1.000000 0.825345 0.000000
1.000000 0.831449 0.000000
1.000000 0.837217 0.000000
0.117281 0.138643 0.128817
0.117983 0.138338 0.128847
0.118502 0.138033 0.129397
0.119661 0.137423 0.130220
0.120638 0.137087 0.131014
0.119539 0.139834 0.127565
0.122652 0.143435 0.124514
0.132082 0.148409 0.123476
0.147829 0.154543 0.124758
0.163973 0.157717 0.127718
0.184573 0.156985 0.127749
0.206607 0.148531 0.125032
0.250675 0.151217 0.121675
0.314397 0.159945 0.116670
0.381964 0.171298 0.110811
0.477729 0.186618 0.094209
0.609155 0.211978 0.000000
0.745815 0.257023 0.000000
0.863096 0.333318 0.000000
0.952270 0.432288 0.000000
1.000000 0.534905 0.000000
1.000000 0.622339 0.000000
1.000000 0.693233 0.000000
1.000000 0.748318 0.000000
1.000000 0.776455 0.000000
1.000000 0.795315 0.000000
1.000000 0.809079 0.000000
1.000000 0.819516 0.000000
1.000000 0.828000 0.000000
1.000000 0.835080 0.000000
1.000000 0.841154 0.000000
1.000000 0.846799 0.000000
0.123568 0.147616 0.135103
0.123964 0.147585 0.135348
0.125124 0.147036 0.135866
0.127382 0.146334 0.137362
0.130068 0.145174 0.139834
0.128267 0.147799 0.136416
0.128450 0.153079 0.130129
0.135775 0.159243 0.123873
0.151766 0.166842 0.119112
0.177615 0.175814 0.117159
0.199435 0.176669 0.120760
0.225162 0.172976 0.123812
0.250797 0.160403 0.122683
0.298161 0.156619 0.119417
0.397253 0.167208 0.107790
0.504814 0.183047 0.088258
0.627161 0.208530 0.000000
0.753414 0.253025 0.000000
0.862516 0.324865 0.000000
0.947173 0.416754 0.000000
1.000000 0.512291 0.000000
1.000000 0.596857 0.000000
1.000000 0.669398 0.000000
1.000000 0.727504 0.000000
1.000000 0.772183 0.000000
1.000000 0.805814 0.000000
1.000000 0.824338 0.000000
1.000000 0.834073 0.000000
1.000000 0.841764 0.000000
1.000000 0.848173 0.000000
1.000000 0.853605 0.000000
1.000000 0.858610 0.000000
0.135256 0.163546 0.146944
0.135775 0.163302 0.147189
0.137331 0.162966 0.148104
0.140444 0.162081 0.150271
0.144747 0.160433 0.153506
0.146242 0.161013 0.154208
0.142245 0.168032 0.144594
0.145113 0.176394 0.133974
0.158022 0.186252 0.122896
0.183749 0.197604 0.112581
0.220676 0.209628 0.104280
0.253758 0.208682 0.105684
0.369085 0.235599 0.087160
0.423499 0.203708 0.097108
0.492378 0.169833 0.095705
0.655512 0.196109 0.000000
0.803952 0.258640 0.000000
0.906737 0.348882 0.000000
0.983581 0.449744 0.000000
1.000000 0.543908 0.000000
1.000000 0.621759 0.000000
1.000000 0.684108 0.000000
1.000000 0.733028 0.000000
1.000000 0.772335 0.000000
1.000000 0.802823 0.000000
1.000000 0.826688 0.000000
1.000000 0.845762 0.000000
1.000000 0.862089 0.000000
1.000000 0.872007 0.000000
1.000000 0.874601 0.000000
1.000000 0.877195 0.000000
1.000000 0.880156 0.000000
0.162570 0.203494 0.175753
0.163424 0.203128 0.175967
0.165377 0.201846 0.176974
0.169955 0.199588 0.179568
0.175967 0.196414 0.183627
0.182742 0.192508 0.190036
0.174105 0.200259 0.177096
0.169528 0.211704 0.159091
0.178073 0.228092 0.139742
0.206485 0.252873 0.116609
0.259312 0.283085 0.073823
0.336461 0.312902 0.000000
0.405615 0.310002 0.000000
0.476081 0.290410 0.000000
0.534905 0.246159 0.005768
0.572717 0.174289 0.063661
0.733761 0.213474 0.000000
0.870756 0.300725 0.000000
0.953552 0.396765 0.000000
1.000000 0.492500 0.000000
1.000000 0.575280 0.000000
1.000000 0.644129 0.000000
1.000000 0.699794 0.000000
1.000000 0.743771 0.000000
1.000000 0.778286 0.000000
1.000000 0.806455 0.000000
1.000000 0.828763 0.000000
1.000000 0.847349 0.000000
1.000000 0.863645 0.000000
1.000000 0.878386 0.000000
1.000000 0.888518 0.000000
1.000000 0.891142 0.121645
0.190127 0.249332 0.205692
0.190311 0.248814 0.205753
0.193454 0.246983 0.207248
0.199588 0.245151 0.210849
0.208927 0.242496 0.216709
0.220127 0.238926 0.226017
0.219638 0.244114 0.223819
0.207919 0.262333 0.200992
0.207553 0.284916 0.173617
0.227481 0.312505 0.139376
0.274449 0.345464 0.082795
0.354772 0.382025 0.000000
0.452766 0.408850 0.000000
0.526024 0.394202 0.000000
0.592248 0.359136 0.000000
0.638025 0.298680 0.000000
0.670100 0.212894 0.000000
0.789914 0.232547 0.000000
0.910796 0.333196 0.000000
0.988067 0.439094 0.000000
1.000000 0.529992 0.000000
1.000000 0.606561 0.000000
1.000000 0.668788 0.000000
1.000000 0.719020 0.000000
1.000000 0.757961 0.000000
1.000000 0.788205 0.000000
1.000000 0.813382 0.000000
1.000000 0.834012 0.000000
1.000000 0.851591 0.000000
1.000000 0.867247 0.000000
1.000000 0.881712 0.000000
1.000000 0.895689 0.043275
0.239445 0.335485 0.257816
0.240269 0.334752 0.258122
0.244022 0.331823 0.259312
0.251621 0.327184 0.262547
0.262577 0.320989 0.268345
0.276249 0.313817 0.277592
0.291905 0.307530 0.291051
0.267399 0.327398 0.260380
0.254765 0.351904 0.224857
0.262211 0.381384 0.182376
0.300572 0.415747 0.119966
0.374090 0.453437 0.000000
0.476112 0.489601 0.000000
0.574975 0.506584 0.000000
0.640620 0.480232 0.000000
0.694942 0.432441 0.000000
0.732357 0.362676 0.000000
0.759487 0.270237 0.000000
0.837156 0.256321 0.000000
0.944671 0.366278 0.000000
1.000000 0.480751 0.000000
1.000000 0.566583 0.000000
1.000000 0.636744 0.000000
1.000000 0.693111 0.000000
1.000000 0.737301 0.000000
1.000000 0.771420 0.000000
1.000000 0.798337 0.000000
1.000000 0.821439 0.000000
1.000000 0.840848 0.000000
1.000000 0.857786 0.000000
1.000000 0.873198 0.000000
1.000000 0.887816 0.000000
0.303593 0.425147 0.312596
0.304997 0.425299 0.313512
0.310124 0.423377 0.315740
0.320073 0.419898 0.320500
0.334752 0.414496 0.328069
0.354070 0.408698 0.340307
0.377508 0.403723 0.358007
0.368841 0.416815 0.345983
0.344915 0.445228 0.304295
0.339544 0.476448 0.253452
0.362921 0.508629 0.186404
0.420111 0.540124 0.000000
0.504295 0.568139 0.000000
0.601495 0.589990 0.000000
0.678920 0.589166 0.000000
0.726406 0.552392 0.000000
0.768521 0.498756 0.000000
0.800870 0.426978 0.000000
0.827298 0.336065 0.000000
0.871763 0.278660 0.000000
0.971893 0.396460 0.000000
1.000000 0.515343 0.000000
1.000000 0.601190 0.000000
1.000000 0.666987 0.000000
1.000000 0.718074 0.000000
1.000000 0.757351 0.000000
1.000000 0.787137 0.000000
1.000000 0.811063 0.000000
1.000000 0.831479 0.000000
1.000000 0.848783 0.000000
1.000000 0.864103 0.000000
1.000000 0.878386 0.000000
0.380774 0.514244 0.371588
0.382116 0.513725 0.372198
0.387549 0.512169 0.374731
0.397650 0.509239 0.379797
0.413977 0.504845 0.388739
0.434913 0.499886 0.402045
0.459968 0.495064 0.421057
0.477089 0.495003 0.435279
0.445136 0.522393 0.390631
0.427283 0.551080 0.337102
0.433967 0.580285 0.271122
0.471321 0.608148 0.180545
0.536950 0.632685 0.000000
0.618799 0.652033 0.000000
0.701869 0.666438 0.000000
0.758785 0.657527 0.000000
0.796201 0.620386 0.000000
0.831724 0.569146 0.000000
0.862150 0.500938 0.000000
0.888945 0.414771 0.000000
0.909880 0.309483 0.000000
1.000000 0.434668 0.000000
1.000000 0.549157 0.000000
1.000000 0.635981 0.000000
1.000000 0.695888 0.000000
1.000000 0.741512 0.000000
1.000000 0.775753 0.000000
1.000000 0.801602 0.000000
1.000000 0.822690 0.000000
1.000000 0.840543 0.000000
1.000000 0.856046 0.000000
1.000000 0.870176 0.000000
0.483345 0.611475 0.449561
0.486427 0.612665 0.451728
0.602594 0.705715 0.556359
0.611109 0.703548 0.563073
0.623560 0.700221 0.573449
0.639216 0.695460 0.588006
0.657710 0.690089 0.608759
0.677363 0.685084 0.635981
0.662409 0.699092 0.604791
0.643214 0.720790 0.542657
0.639521 0.741634 0.469032
0.656153 0.760342 0.380774
0.690394 0.774838 0.264378
0.738277 0.785245 0.000000
0.791623 0.791440 0.000000
0.844083 0.794095 0.000000
0.876768 0.775448 0.000000
0.899901 0.736477 0.000000
0.923980 0.685206 0.000000
0.947478 0.619776 0.000000
0.971069 0.540337 0.000000
0.992248 0.441505 0.000000
1.000000 0.509972 0.000000
1.000000 0.610498 0.000000
1.000000 0.684993 0.000000
1.000000 0.733028 0.000000
1.000000 0.768307 0.000000
1.000000 0.794919 0.000000
1.000000 0.815579 0.000000
1.000000 0.833219 0.000000
1.000000 0.848417 0.000000
1.000000 0.862150 0.000000
0.613184 0.722011 0.570977
0.622553 0.729702 0.582086
0.635157 0.736995 0.596307
0.649256 0.742855 0.612390
0.665156 0.745663 0.630121
0.679957 0.744381 0.646937
0.695430 0.740749 0.666529
0.711421 0.735836 0.690150
0.715358 0.738064 0.694759
0.694667 0.755428 0.637201
0.684657 0.773251 0.569512
0.689418 0.789639 0.490242
0.709712 0.803067 0.392950
0.744289 0.813199 0.268528
0.787900 0.819974 0.000000
0.834836 0.823819 0.000000
0.880217 0.825315 0.000000
0.907500 0.807004 0.000000
0.929686 0.773831 0.000000
0.953246 0.730556 0.000000
0.976959 0.675257 0.000000
1.000000 0.609918 0.000000
1.000000 0.526574 0.000000
1.000000 0.540978 0.000000
1.000000 0.634485 0.000000
1.000000 0.703456 0.000000
1.000000 0.750027 0.000000
1.000000 0.782162 0.000000
1.000000 0.806271 0.000000
1.000000 0.824918 0.000000
1.000000 0.840238 0.000000
1.000000 0.853819 0.000000
0.666987 0.773953 0.643793
0.675166 0.781094 0.656123
0.685603 0.788113 0.671168
0.697566 0.793851 0.687953
0.710201 0.796902 0.705440
0.722225 0.796445 0.721523
0.734401 0.793668 0.739162
0.746975 0.789853 0.760037
0.759762 0.786221 0.785733
0.745327 0.797665 0.744167
0.733211 0.811917 0.683253
0.731655 0.825528 0.610681
0.742245 0.837125 0.524254
0.765927 0.846494 0.421912
0.799313 0.853208 0.292241
0.838437 0.857298 0.000000
0.878996 0.859342 0.000000
0.917784 0.859953 0.000000
0.939696 0.841825 0.000000
0.959625 0.813260 0.000000
0.980682 0.775967 0.000000
1.000000 0.728969 0.000000
1.000000 0.672663 0.000000
1.000000 0.603632 0.000000
1.000000 0.572137 0.000000
1.000000 0.659388 0.000000
1.000000 0.722286 0.000000
1.000000 0.766323 0.000000
1.000000 0.795560 0.000000
1.000000 0.817380 0.000000
1.000000 0.833646 0.000000
1.000000 0.846647 0.000000
0.715023 0.823117 0.725917
0.720851 0.828641 0.736995
0.728664 0.833860 0.750698
0.737453 0.838071 0.765499
0.746761 0.840330 0.780545
0.755856 0.840024 0.794766
0.765408 0.838102 0.809964
0.775204 0.835264 0.827420
0.785183 0.832547 0.848753
0.783810 0.835721 0.842649
0.772549 0.846891 0.793149
0.767910 0.857908 0.731228
0.772763 0.867674 0.654841
0.788235 0.875883 0.564569
0.813596 0.882414 0.458656
0.846159 0.887205 0.327764
0.882872 0.890898 0.074098
0.920073 0.893706 0.000000
0.955749 0.896086 0.000000
0.975647 0.881987 0.000000
0.995056 0.861204 0.000000
1.000000 0.833677 0.000000
1.000000 0.797543 0.000000
1.000000 0.752743 0.000000
1.000000 0.701534 0.000000
1.000000 0.641474 0.000000
1.000000 0.714351 0.000000
1.000000 0.763882 0.000000
1.000000 0.797452 0.000000
1.000000 0.819974 0.000000
1.000000 0.836332 0.000000
1.000000 0.847379 0.000000
0.779843 0.890959 0.868925
0.781674 0.892485 0.873106
0.784054 0.893400 0.877623
0.787289 0.893523 0.882780
0.791409 0.892821 0.888884
0.796139 0.891142 0.895659
0.801816 0.889006 0.904356
0.808408 0.886809 0.915709
0.815579 0.884733 0.929442
0.822507 0.883391 0.944366
0.812894 0.891203 0.914305
0.807736 0.899046 0.872770
0.808988 0.906249 0.816464
0.818753 0.912688 0.742397
0.837491 0.917784 0.650477
0.863554 0.921569 0.540764
0.894408 0.924163 0.410742
0.927245 0.925841 0.232364
0.959625 0.926787 0.000000
0.990204 0.927123 0.000000
1.000000 0.913024 0.000000
1.000000 0.894133 0.000000
1.000000 0.869230 0.000000
1.000000 0.836759 0.000000
1.000000 0.797879 0.000000
1.000000 0.754391 0.000000
1.000000 0.703029 0.000000
1.000000 0.737636 0.000000
1.000000 0.780758 0.000000
1.000000 0.809110 0.000000
1.000000 0.828397 0.000000
1.000000 0.843320 0.000000
0.805844 0.917693 0.929808
0.807004 0.918730 0.932341
0.808988 0.919371 0.935546
0.811643 0.919493 0.939391
0.814878 0.919127 0.943633
0.818662 0.918090 0.948455
0.823392 0.916594 0.954467
0.828824 0.915099 0.961975
0.834867 0.913725 0.971008
0.841550 0.912535 0.981292
0.838651 0.915618 0.974701
0.831662 0.921569 0.950958
0.829068 0.927306 0.915953
0.833249 0.932708 0.866819
0.845701 0.937407 0.798856
0.866453 0.941283 0.710933
0.893889 0.944213 0.603815
0.924956 0.946197 0.477150
0.957153 0.947417 0.317174
0.988098 0.948089 0.000000
1.000000 0.947295 0.000000
1.000000 0.935668 0.000000
1.000000 0.920104 0.000000
1.000000 0.899626 0.000000
1.000000 0.863157 0.000000
1.000000 0.829892 0.000000
1.000000 0.793545 0.000000
1.000000 0.750942 0.000000
1.000000 0.755428 0.000000
1.000000 0.793057 0.000000
1.000000 0.817624 0.000000
1.000000 0.835264 0.000000
0.841459 0.946319 0.989380
0.843412 0.947417 0.991638
0.844938 0.947784 0.993103
0.846220 0.947326 0.994049
0.847501 0.946258 0.994751
0.849119 0.944640 0.995666
0.851164 0.942596 0.996979
0.853941 0.940368 0.999207
0.857603 0.938109 1.000000
0.861906 0.936004 1.000000
0.863920 0.934691 1.000000
0.854917 0.938170 0.994934
0.848325 0.941772 0.974304
0.846006 0.945251 0.942931
0.850340 0.948302 0.895415
0.863310 0.951019 0.827604
0.884611 0.953307 0.737209
0.912261 0.955169 0.627985
0.943175 0.956634 0.501396
0.974792 0.957794 0.347967
1.000000 0.958526 0.000000
1.000000 0.957061 0.000000
1.000000 0.946624 0.000000
1.000000 0.932372 0.000000
1.000000 0.913298 0.000000
1.000000 0.888548 0.000000
1.000000 0.859800 0.000000
1.000000 0.828305 0.000000
1.000000 0.791684 0.000000
1.000000 0.773159 0.000000
1.000000 0.804440 0.000000
1.000000 0.826017 0.000000
0.858396 0.956512 1.000000
0.860105 0.957305 1.000000
0.862119 0.957733 1.000000
0.863951 0.957671 1.000000
0.865995 0.957244 1.000000
0.868559 0.956573 1.000000
0.871977 0.955840 1.000000
0.876280 0.954955 1.000000
0.881224 0.954162 1.000000
0.886748 0.953368 1.000000
0.892241 0.952483 1.000000
0.886931 0.954345 1.000000
0.877256 0.957122 1.000000
0.870268 0.959777 0.999145
0.868101 0.962188 0.977050
0.871641 0.964416 0.941955
0.883421 0.966339 0.887602
0.903960 0.968017 0.810269
0.931670 0.969451 0.709346
0.962982 0.970489 0.588006
0.994476 0.971099 0.443336
1.000000 0.971313 0.243198
1.000000 0.969024 0.000000
1.000000 0.960143 0.000000
1.000000 0.948150 0.000000
1.000000 0.932403 0.000000
1.000000 0.912200 0.000000
1.000000 0.888487 0.000000
1.000000 0.862608 0.000000
1.000000 0.831876 0.000000
1.000000 0.797421 0.000000
1.000000 0.821134 0.000000
0.888518 0.968322 1.000000
0.889555 0.968597 1.000000
0.890471 0.968658 1.000000
0.891478 0.968536 1.000000
0.892790 0.968139 1.000000
0.894469 0.967651 1.000000
0.896727 0.967010 1.000000
0.899596 0.966308 1.000000
0.903014 0.965606 1.000000
0.906950 0.964935 1.000000
0.911040 0.964202 1.000000
0.911711 0.964416 1.000000
0.904723 0.966491 1.000000
0.897124 0.968536 1.000000
0.889372 0.970428 1.000000
0.885252 0.972229 0.996094
0.888060 0.973938 0.969757
0.898161 0.975525 0.927672
0.916960 0.976959 0.864134
0.943450 0.978149 0.775753
0.974517 0.978943 0.661707
1.000000 0.979278 0.521782
1.000000 0.979126 0.342199
1.000000 0.976257 0.000000
1.000000 0.968231 0.000000
1.000000 0.957519 0.000000
1.000000 0.943725 0.000000
1.000000 0.926055 0.000000
1.000000 0.905455 0.000000
1.000000 0.882902 0.000000
1.000000 0.856077 0.000000
1.000000 0.824460 0.000000
0.909026 0.975402 1.000000
0.909667 0.975586 1.000000
0.910521 0.975647 1.000000
0.911559 0.975616 1.000000
0.913054 0.975555 1.000000
0.915251 0.975525 1.000000
0.918547 0.975647 1.000000
0.922454 0.975891 1.000000
0.926970 0.976196 1.000000
0.931731 0.976562 1.000000
0.936522 0.976959 1.000000
0.940887 0.977264 1.000000
0.938994 0.979004 1.000000
0.935882 0.980743 1.000000
0.932372 0.982300 1.000000
0.928374 0.983642 1.000000
0.924590 0.984863 1.000000
0.921721 0.986053 1.000000
0.921416 0.987121 1.000000
0.930510 0.988128 0.974731
0.946990 0.988891 0.929961
0.972259 0.989380 0.854795
1.000000 0.989441 0.738888
1.000000 0.989105 0.582361
1.000000 0.986114 0.379217
1.000000 0.979339 0.000000
1.000000 0.970367 0.000000
1.000000 0.958770 0.000000
1.000000 0.944091 0.000000
1.000000 0.926513 0.000000
1.000000 0.906676 0.000000
1.000000 0.882048 0.000000
0.940337 0.984985 1.000000
0.940429 0.984955 1.000000
0.940581 0.984894 1.000000
0.940826 0.984771 1.000000
0.941344 0.984619 1.000000
0.942138 0.984436 1.000000
0.943359 0.984192 1.000000
0.944915 0.984009 1.000000
0.946838 0.983795 1.000000
0.949004 0.983612 1.000000
0.951324 0.983429 1.000000
0.953674 0.983246 1.000000
0.953643 0.983673 1.000000
