20 Preset/City Style/【3】LUT video cho PR-AE-FCPX/TONE 1/Colors Change Cityscape.cube
# Created by Adobe Lightroom plugin Export LUT (1.24.0)
# www.johnrellis.com/lightroom/exportlut.htm
# Preset: Colors Change Cityscape
# Color profile: E:\lut插件\exportlut.1.24\exportlut.lrplugin\color profiles\Rec709gamma2.4.icc
LUT_3D_SIZE 5
DOMAIN_MIN 0.000000 0.000000 0.000000
DOMAIN_MAX 0.903226 0.903226 0.903226
0.004974 0.114534 0.114412
0.106203 0.121889 0.116243
0.391058 0.127718 0.104891
0.820218 0.254917 0.000000
1.000000 0.457282 0.000000
0.000000 0.152682 0.124483
0.082002 0.140108 0.142702
0.393072 0.170504 0.097902
0.808255 0.310155 0.000000
1.000000 0.494636 0.000000
0.000000 0.426276 0.157351
0.322332 0.426062 0.147158
0.384039 0.371344 0.381537
0.850340 0.469093 0.120668
1.000000 0.577173 0.000000
0.328496 0.781277 0.426917
0.507134 0.778714 0.427649
0.757259 0.757870 0.506310
0.682277 0.686397 0.708888
0.955749 0.730373 0.668757
0.667597 0.938689 0.737758
0.716243 0.936736 0.738399
0.854307 0.917510 0.708248
0.923461 0.896727 0.804868
0.891295 0.880858 0.889036
0.006683 0.127169 0.135897
0.032410 0.125643 0.151278
0.352361 0.142428 0.150637
0.745083 0.229831 0.070802
0.999420 0.426368 0.000000
0.022492 0.147646 0.166781
0.100954 0.164614 0.178836
0.376684 0.179873 0.154940
0.750301 0.281224 0.040131
1.000000 0.457557 0.000000
0.000000 0.409613 0.303685
0.107027 0.418219 0.249271
0.351354 0.360082 0.382971
0.789212 0.448951 0.199100
1.000000 0.571405 0.000000
0.000000 0.779416 0.506523
0.396185 0.778561 0.510002
0.740627 0.762509 0.550500
0.680568 0.693751 0.720699
0.954864 0.733516 0.674006
0.635279 0.938628 0.756558
0.685206 0.936309 0.755795
0.848478 0.930327 0.759915
0.930388 0.908721 0.824979
0.902129 0.893217 0.900877
0.000641 0.207218 0.277348
0.000000 0.209415 0.301915
0.184787 0.182254 0.374395
0.725185 0.306371 0.381842
0.975067 0.505913 0.436744
0.196292 0.278904 0.336431
0.169497 0.280522 0.357366
0.243839 0.242252 0.421332
0.724056 0.391302 0.445319
0.977478 0.535668 0.454658
0.206027 0.401282 0.517540
0.260380 0.421637 0.525811
0.418708 0.504662 0.566094
0.757229 0.540429 0.505272
0.983673 0.611170 0.468574
0.000000 0.760372 0.784360
0.000000 0.759945 0.761196
0.556481 0.770932 0.686213
0.696162 0.732296 0.768734
0.963012 0.746792 0.687373
0.530175 0.930114 0.830961
0.581201 0.930632 0.824521
0.740200 0.929686 0.807004
0.920531 0.917052 0.833219
0.894469 0.891386 0.901549
0.181613 0.459846 0.611749
0.136110 0.462470 0.627771
0.000000 0.432471 0.658442
0.431312 0.339788 0.700984
0.912963 0.552392 0.659815
0.333074 0.526513 0.646601
0.303044 0.519585 0.652094
0.130709 0.479805 0.669764
0.448249 0.384802 0.702632
0.901518 0.579614 0.676387
0.541955 0.637690 0.701015
0.553460 0.643091 0.703304
0.508568 0.639979 0.726894
0.536095 0.555108 0.738033
0.894072 0.700465 0.761257
0.562371 0.723110 0.814054
0.573938 0.725063 0.812284
0.636591 0.747951 0.817319
0.732631 0.788205 0.828580
0.933288 0.794644 0.797391
0.570031 0.847501 0.928405
0.582422 0.863401 0.927794
0.639460 0.923552 0.927825
0.831754 0.932311 0.881743
0.901213 0.906889 0.918914
0.565850 0.735775 0.837797
0.552056 0.731136 0.838773
0.497292 0.713985 0.846189
0.328527 0.649287 0.852567
0.662562 0.558709 0.871275
0.602350 0.748562 0.838437
0.590417 0.744839 0.839811
0.537255 0.727169 0.845762
0.385534 0.664851 0.850767
0.667384 0.577630 0.869718
0.713680 0.797024 0.851835
0.707515 0.795346 0.852964
0.676905 0.786191 0.858396
0.565362 0.735927 0.859251
0.710170 0.665248 0.878874
0.790402 0.848814 0.888029
0.794034 0.849393 0.887053
0.818448 0.858824 0.888609
0.797574 0.855955 0.898192
0.808316 0.805112 0.909545
0.804379 0.888243 0.938872
0.808713 0.889677 0.938903
0.832578 0.899657 0.941650
0.871061 0.915679 0.945403
0.920684 0.936645 0.949432
