20 Preset/City Style/【3】LUT video cho PR-AE-FCPX/TONE 1/Colors Change Neon Tones Portrait.cube
# Created by Adobe Lightroom plugin Export LUT (1.24.0)
# www.johnrellis.com/lightroom/exportlut.htm
# Preset: Colors Change Neon Tones Portrait
# Color profile: E:\lut插件\exportlut.1.24\exportlut.lrplugin\color profiles\Rec709gamma2.4.icc
LUT_3D_SIZE 8
DOMAIN_MIN 0.000000 0.000000 0.000000
DOMAIN_MAX 0.903226 0.903226 0.903226
0.000000 0.087160 0.074861
0.000000 0.088685 0.078401
0.098054 0.090486 0.084810
0.242893 0.036805 0.089937
0.476509 0.000000 0.094850
0.720699 0.000000 0.107454
0.968414 0.000000 0.158785
1.000000 0.000000 0.254551
0.000000 0.094362 0.088655
0.000000 0.095308 0.085237
0.090028 0.100984 0.088472
0.218631 0.089967 0.091890
0.435889 0.000000 0.097993
0.676631 0.000000 0.109163
0.917296 0.000000 0.147219
1.000000 0.000000 0.228672
0.019623 0.125521 0.128847
0.027710 0.128176 0.128450
0.142702 0.132479 0.106722
0.283848 0.152377 0.110079
0.484443 0.143221 0.118227
0.749233 0.121004 0.140475
0.965301 0.238560 0.214817
1.000000 0.350317 0.328649
0.184115 0.233127 0.263096
0.183200 0.232364 0.262058
0.245396 0.256596 0.233066
0.461433 0.288579 0.189944
0.688777 0.373846 0.202548
0.819730 0.498146 0.279942
0.957244 0.522881 0.358007
1.000000 0.551141 0.452399
0.384253 0.463752 0.523156
0.384131 0.463630 0.523003
0.411292 0.483742 0.522637
0.545342 0.538109 0.468757
0.717678 0.522271 0.364813
0.860319 0.544732 0.359899
0.930755 0.636927 0.471656
1.000000 0.693629 0.580865
0.581842 0.666011 0.723110
0.601007 0.682460 0.737911
0.606806 0.687312 0.742275
0.663142 0.712398 0.720150
0.756313 0.725093 0.670100
0.875242 0.698512 0.599817
0.976593 0.701320 0.603540
1.000000 0.767239 0.694148
0.761746 0.810971 0.847410
0.765469 0.813901 0.849790
0.765774 0.814145 0.850004
0.779324 0.821714 0.846769
0.818540 0.832029 0.823301
0.878172 0.834134 0.795499
0.952056 0.809445 0.756527
1.000000 0.795651 0.747463
0.882536 0.906340 0.925048
0.882658 0.906432 0.925139
0.884672 0.907988 0.926421
0.889799 0.912108 0.929717
0.889372 0.905882 0.910552
0.919615 0.915404 0.902770
0.955474 0.916350 0.891661
0.996735 0.897124 0.868315
0.000000 0.095521 0.090333
0.000000 0.091768 0.091188
0.078370 0.092592 0.102327
0.211398 0.064210 0.103456
0.426307 0.000000 0.114137
0.661830 0.000000 0.129397
0.890806 0.000000 0.166262
1.000000 0.000000 0.231144
0.000000 0.097078 0.092500
0.000000 0.099580 0.095277
0.089570 0.102144 0.099519
0.214328 0.092714 0.106996
0.423102 0.000000 0.117525
0.659632 0.000000 0.133455
0.867338 0.000000 0.163973
1.000000 0.000000 0.219791
0.028748 0.131197 0.136019
0.031708 0.133028 0.138369
0.131899 0.138552 0.122408
0.260258 0.161563 0.129702
0.454841 0.142794 0.138460
0.693843 0.081727 0.160189
0.891142 0.124208 0.200900
1.000000 0.258335 0.283391
0.172152 0.222019 0.249729
0.173312 0.222965 0.250919
0.222995 0.246921 0.240452
0.388647 0.255772 0.190585
0.580194 0.306645 0.193790
0.725948 0.408087 0.236332
0.888884 0.440192 0.287755
1.000000 0.484230 0.376287
0.374212 0.451606 0.510185
0.371527 0.448371 0.506645
0.380560 0.455421 0.507103
0.498848 0.498848 0.441993
0.658839 0.475441 0.336309
0.810819 0.506218 0.332677
0.897185 0.606226 0.435157
0.983368 0.662806 0.538415
0.554009 0.641474 0.700587
0.556512 0.643702 0.702663
0.564355 0.650690 0.709133
0.623560 0.681086 0.694331
0.726925 0.701930 0.647822
0.856901 0.684199 0.586755
0.962615 0.689021 0.589776
0.997223 0.753353 0.674647
0.737301 0.791836 0.831601
0.733883 0.789151 0.829374
0.733547 0.788907 0.829160
0.749325 0.798764 0.829526
0.798978 0.816739 0.810117
0.862943 0.820310 0.780819
0.939696 0.791745 0.733791
1.000000 0.775570 0.719295
0.869810 0.896208 0.916899
0.872343 0.898192 0.918517
0.873930 0.899504 0.919554
0.879759 0.904143 0.923278
0.897246 0.913054 0.918242
0.921080 0.917876 0.906340
0.953460 0.915190 0.890867
0.995026 0.895567 0.866972
0.000000 0.133364 0.141390
0.000000 0.127993 0.144656
0.000000 0.106020 0.153201
0.215946 0.093904 0.242985
0.464637 0.000000 0.269902
0.723598 0.000000 0.278233
0.932799 0.000000 0.301640
1.000000 0.000000 0.380499
0.000000 0.148501 0.148287
0.000000 0.143404 0.153597
0.000000 0.118624 0.161257
0.224582 0.109590 0.232059
0.460121 0.000000 0.247715
0.713558 0.000000 0.250523
0.910582 0.000000 0.291661
1.000000 0.000000 0.365850
0.000000 0.152041 0.168368
0.003784 0.157443 0.174075
0.119997 0.178561 0.196506
0.296910 0.179904 0.211490
0.519860 0.161868 0.238468
0.744503 0.153109 0.282841
0.916167 0.209995 0.337713
1.000000 0.316228 0.413214
0.224002 0.274083 0.311254
0.235477 0.286687 0.325933
0.254154 0.307683 0.350103
0.410559 0.334264 0.309117
0.592798 0.407355 0.340398
0.759701 0.459327 0.383917
0.908415 0.489509 0.437781
1.000000 0.527184 0.507469
0.413855 0.499001 0.560235
0.414771 0.500053 0.561334
0.422858 0.509331 0.570947
0.502129 0.550317 0.551659
0.667659 0.542046 0.469306
0.804379 0.569512 0.472938
0.884459 0.650019 0.550500
0.979614 0.682551 0.616449
0.579736 0.664149 0.721431
0.583398 0.667353 0.724331
0.589105 0.672267 0.728817
0.616754 0.689265 0.727962
0.711360 0.712673 0.687068
0.838102 0.700374 0.639521
0.942748 0.713313 0.651087
0.983490 0.776577 0.723659
0.757443 0.807584 0.844602
0.754910 0.805631 0.842985
0.751827 0.803220 0.841001
0.755612 0.806210 0.843473
0.796689 0.822751 0.826444
0.859037 0.830472 0.802762
0.935180 0.810941 0.770291
1.000000 0.804074 0.767239
0.874174 0.899687 0.919707
0.873167 0.898894 0.919066
0.874479 0.899931 0.919890
0.882872 0.906615 0.925292
0.895995 0.914031 0.922972
0.921080 0.921660 0.913756
0.952728 0.920989 0.900633
0.992432 0.903349 0.879179
0.000000 0.248722 0.292607
0.000000 0.245426 0.304204
0.000000 0.209567 0.321019
0.000000 0.152102 0.350835
0.373053 0.112123 0.481117
0.696132 0.000000 0.616388
0.888243 0.000000 0.622248
1.000000 0.203159 0.612970
0.000000 0.289830 0.323888
0.000000 0.280797 0.328618
0.000000 0.238041 0.342565
0.000000 0.173617 0.371801
0.403265 0.141634 0.500389
0.704646 0.000000 0.611902
0.887541 0.057130 0.611322
1.000000 0.239261 0.601404
0.000000 0.333654 0.322271
0.000000 0.339818 0.323522
0.000000 0.327184 0.374548
0.117281 0.247501 0.398993
0.512566 0.267979 0.570336
0.750301 0.289036 0.602136
0.922148 0.356146 0.611017
1.000000 0.404456 0.600732
0.116487 0.344091 0.410590
0.146426 0.349523 0.414954
0.235966 0.379095 0.442115
0.364141 0.439399 0.497047
0.580560 0.453223 0.518334
0.757534 0.474922 0.547356
0.898741 0.508782 0.586450
1.000000 0.552331 0.630915
0.466041 0.556542 0.618830
0.468757 0.559380 0.621607
0.491829 0.582757 0.644648
0.526177 0.615930 0.676570
0.658320 0.629938 0.638300
0.779263 0.662654 0.652033
0.879759 0.695918 0.682856
0.972473 0.711177 0.712612
0.650416 0.723201 0.773739
0.664088 0.734218 0.783200
0.664240 0.734371 0.783322
0.674739 0.742702 0.790463
0.725460 0.762173 0.775479
0.826017 0.749630 0.736416
0.917021 0.765103 0.746212
0.963226 0.814023 0.788724
0.781796 0.826719 0.860349
0.783658 0.828183 0.861570
0.786862 0.830686 0.863615
0.793332 0.835752 0.867765
0.811093 0.845579 0.864775
0.860502 0.853971 0.843412
0.926024 0.836454 0.815305
0.988159 0.836179 0.816617
0.889189 0.911620 0.929320
0.889220 0.911620 0.929320
0.889982 0.912230 0.929839
0.893156 0.914763 0.931853
0.897704 0.918212 0.934020
0.920104 0.926940 0.925170
0.950225 0.928710 0.914122
0.988464 0.915740 0.898039
0.000000 0.484993 0.559747
0.000000 0.484413 0.570367
0.000000 0.450294 0.585382
0.000000 0.378820 0.614923
0.000000 0.273777 0.657374
0.552331 0.280247 0.725643
0.855161 0.344793 0.831785
0.979034 0.422889 0.825071
0.000000 0.520897 0.581231
0.000000 0.520531 0.591333
0.000000 0.485206 0.604242
0.000000 0.405127 0.623743
0.000000 0.302190 0.666316
0.570306 0.312566 0.732448
0.855467 0.373571 0.828946
0.977508 0.441474 0.821286
0.000000 0.585626 0.595544
0.000000 0.587762 0.607385
0.000000 0.561089 0.623774
0.000000 0.494362 0.647608
0.149722 0.390600 0.673610
0.605859 0.398535 0.734524
0.846921 0.447150 0.806943
0.967193 0.486122 0.798093
0.000000 0.614038 0.625879
0.000000 0.616480 0.626368
0.000000 0.630579 0.631586
0.000000 0.623743 0.681117
0.418647 0.546410 0.706264
0.702724 0.560662 0.774960
0.858000 0.573266 0.781704
0.968261 0.588464 0.770077
0.328710 0.588251 0.667597
0.346166 0.593225 0.671443
0.402167 0.609033 0.683009
0.491066 0.638270 0.704494
0.590204 0.673243 0.729671
0.736629 0.673213 0.733608
0.860319 0.682063 0.744869
0.958068 0.698054 0.761135
0.615442 0.694575 0.748714
0.619562 0.697993 0.751736
0.627436 0.704463 0.757443
0.653040 0.725338 0.775570
0.681971 0.748470 0.795315
0.783658 0.769497 0.786252
0.875914 0.798611 0.803342
0.942412 0.825345 0.824338
0.786313 0.830259 0.863249
0.785183 0.829374 0.862516
0.787503 0.831205 0.864012
0.797635 0.839200 0.870573
0.808255 0.847532 0.877409
0.841367 0.859800 0.866972
0.904356 0.848234 0.842466
0.963867 0.851835 0.843320
0.883238 0.906859 0.925475
0.882994 0.906706 0.925353
0.883330 0.906950 0.925566
0.891966 0.913848 0.931121
0.897124 0.917906 0.934386
0.910246 0.925414 0.933135
0.939666 0.930236 0.921996
0.978027 0.918334 0.905821
0.000000 0.732326 0.775509
0.000000 0.730465 0.779232
0.000000 0.705989 0.782864
0.000000 0.673640 0.804685
0.000000 0.600916 0.825437
0.225895 0.495125 0.843137
0.685878 0.518730 0.859190
0.921752 0.601312 0.919158
0.000000 0.725521 0.764248
0.000000 0.720607 0.765438
0.000000 0.701534 0.772976
0.000000 0.662776 0.789517
0.000000 0.591150 0.810575
0.227573 0.490700 0.831205
0.679072 0.514672 0.850858
0.917144 0.594629 0.914061
0.000000 0.786893 0.790921
0.000000 0.781430 0.791562
0.000000 0.762387 0.797177
0.000000 0.712123 0.800595
0.000000 0.646387 0.816953
0.384833 0.567315 0.835599
0.718502 0.587152 0.858518
0.925750 0.649012 0.916594
0.000000 0.814755 0.774563
0.000000 0.812192 0.777981
0.000000 0.810544 0.798856
0.000000 0.794644 0.826078
0.350805 0.746487 0.841947
0.582116 0.693843 0.854826
0.792020 0.703090 0.879301
0.940337 0.732570 0.918853
0.000000 0.791287 0.800198
0.000000 0.791470 0.800015
0.000000 0.794888 0.800931
0.233005 0.803098 0.803677
0.527245 0.793576 0.829770
0.669795 0.748867 0.844236
0.834073 0.755612 0.879545
0.935912 0.759487 0.884947
0.558282 0.749691 0.807980
0.572412 0.755550 0.812375
0.597101 0.760708 0.815335
0.640406 0.771664 0.821988
0.695644 0.787320 0.831601
0.768795 0.816526 0.851957
0.865995 0.821744 0.858671
0.943359 0.826291 0.864439
0.796658 0.838437 0.869932
0.800504 0.841459 0.872404
0.805997 0.845731 0.875944
0.816831 0.854307 0.882933
0.833677 0.867582 0.893706
0.847868 0.878843 0.902831
0.893797 0.879240 0.887785
0.945983 0.890776 0.892821
0.887236 0.910033 0.928038
0.886564 0.909514 0.927642
0.888060 0.910704 0.928588
0.895109 0.916320 0.933104
0.901823 0.921660 0.937407
0.908354 0.926848 0.941558
0.930297 0.935851 0.936736
0.967712 0.928069 0.922515
0.000000 0.856138 0.869047
0.000000 0.855192 0.871519
0.000000 0.841703 0.874754
0.000000 0.815732 0.882872
0.000000 0.770352 0.892699
0.000000 0.710414 0.904295
0.489448 0.650568 0.914183
0.749660 0.661097 0.914855
0.000000 0.852232 0.862943
0.000000 0.851865 0.865843
0.000000 0.838865 0.869322
0.000000 0.811185 0.875914
0.000000 0.765347 0.885527
0.000000 0.702815 0.896391
0.469642 0.636957 0.905791
0.736660 0.643397 0.906554
0.000000 0.877165 0.870115
0.000000 0.874235 0.870909
0.000000 0.860014 0.872892
0.000000 0.832792 0.878508
0.000000 0.789059 0.886259
0.193729 0.735500 0.897307
0.556085 0.689326 0.909026
0.776242 0.701015 0.915160
0.000000 0.903532 0.868986
0.000000 0.901396 0.870359
0.000000 0.894621 0.878325
0.000000 0.869535 0.884337
0.000000 0.832212 0.891966
0.490822 0.791806 0.903166
0.665797 0.759182 0.914183
0.823270 0.763333 0.923003
0.000000 0.897429 0.851713
0.000000 0.895933 0.849882
0.000000 0.894926 0.847013
0.000000 0.891539 0.868742
0.435370 0.869596 0.889220
0.613855 0.832029 0.900114
0.734890 0.803494 0.911131
0.868589 0.815274 0.929686
0.374792 0.878019 0.882597
0.387488 0.879088 0.883238
0.429175 0.882689 0.885191
0.502800 0.886381 0.886442
0.591150 0.890440 0.886107
0.730007 0.886168 0.906584
0.821195 0.862943 0.919432
0.916930 0.867185 0.940032
0.730922 0.857115 0.894011
0.735592 0.858732 0.895140
0.746487 0.861326 0.896574
0.768673 0.867185 0.900023
0.798062 0.874876 0.904387
0.834745 0.885985 0.911070
0.876310 0.901366 0.921050
0.935973 0.900633 0.922179
0.885466 0.908629 0.926940
0.886412 0.909392 0.927520
0.891447 0.913390 0.930755
0.897734 0.918364 0.934752
0.906065 0.925017 0.940093
0.917662 0.934295 0.947509
0.928130 0.942596 0.954192
0.958404 0.942779 0.944396
0.000000 0.936614 0.930846
0.000000 0.934997 0.931762
0.000000 0.924041 0.932555
0.000000 0.905180 0.936553
0.000000 0.875547 0.941833
0.000000 0.838224 0.947753
0.520256 0.806180 0.954314
0.684291 0.779202 0.959106
0.000000 0.935454 0.928099
0.000000 0.933959 0.929137
0.000000 0.923919 0.930602
0.000000 0.904753 0.934264
0.000000 0.875303 0.939605
0.000000 0.837949 0.945678
0.514702 0.804044 0.951965
0.677699 0.774655 0.956695
0.000000 0.943389 0.927337
0.000000 0.941405 0.927855
0.000000 0.931304 0.928985
0.000000 0.915007 0.934295
0.000000 0.885985 0.938689
0.206119 0.849729 0.943877
0.564019 0.818112 0.950439
0.704005 0.791104 0.955474
0.000000 0.961395 0.926848
0.000000 0.959136 0.927581
0.000000 0.947997 0.928923
0.000000 0.931090 0.932830
0.000000 0.905333 0.937896
0.451728 0.873838 0.943725
0.647150 0.846311 0.950500
0.754879 0.824277 0.955871
0.000000 0.964141 0.904387
0.000000 0.963928 0.906828
0.000000 0.960967 0.914122
0.000000 0.955016 0.929442
0.391180 0.929015 0.935485
0.573236 0.899229 0.941650
0.713954 0.873838 0.949310
0.805081 0.857847 0.956115
0.000000 0.954833 0.914946
0.000000 0.954284 0.914092
0.000000 0.953155 0.911589
0.198154 0.952911 0.908659
0.455940 0.950256 0.921691
0.683772 0.933837 0.943145
0.796841 0.912627 0.953613
0.867613 0.901427 0.961517
0.648157 0.938598 0.939879
0.649866 0.938781 0.939849
0.658534 0.939788 0.940002
0.680873 0.943114 0.941405
0.716243 0.947173 0.942687
0.766812 0.950378 0.942412
0.854368 0.947204 0.956481
0.910857 0.931914 0.964385
0.846555 0.927001 0.948241
0.847227 0.927062 0.948211
0.851865 0.928038 0.948699
0.862669 0.931090 0.950439
0.877775 0.935241 0.952789
0.896757 0.940612 0.955810
0.920165 0.947997 0.960174
0.947082 0.957733 0.966278
