20 Preset/City Style/【3】LUT video cho PR-AE-FCPX/TONE 1/Colors Change Neon Tones Portrait.cube
# Created by Adobe Lightroom plugin Export LUT (1.24.0)
# www.johnrellis.com/lightroom/exportlut.htm
# Preset: Colors Change Neon Tones Portrait
# Color profile: E:\lut插件\exportlut.1.24\exportlut.lrplugin\color profiles\Rec709gamma2.4.icc
LUT_3D_SIZE 5
DOMAIN_MIN 0.000000 0.000000 0.000000
DOMAIN_MAX 0.903226 0.903226 0.903226
0.000000 0.087160 0.074861
0.067597 0.090303 0.083406
0.353918 0.000000 0.092073
0.785122 0.000000 0.114351
1.000000 0.000000 0.254551
0.005310 0.113954 0.113588
0.104952 0.119356 0.099123
0.366705 0.124636 0.107546
0.814023 0.000000 0.142763
1.000000 0.307836 0.319951
0.287816 0.347234 0.395056
0.302068 0.352911 0.382025
0.619715 0.423072 0.275395
0.856870 0.549126 0.343694
1.000000 0.621790 0.507134
0.652949 0.725277 0.775509
0.658167 0.729458 0.779110
0.735683 0.759548 0.749447
0.900359 0.731716 0.648096
1.000000 0.774044 0.707790
0.882536 0.906340 0.925048
0.883818 0.907347 0.925872
0.877440 0.900359 0.914275
0.928344 0.916991 0.900755
0.996735 0.897124 0.868315
0.000000 0.116976 0.119081
0.000000 0.100435 0.127291
0.324743 0.000000 0.198245
0.755367 0.000000 0.206149
1.000000 0.000000 0.317296
0.000000 0.129854 0.138277
0.068452 0.147036 0.156558
0.371618 0.130800 0.180026
0.768826 0.000000 0.236790
1.000000 0.232120 0.357366
0.302129 0.364172 0.414160
0.306706 0.369757 0.420417
0.537011 0.403906 0.330266
0.786191 0.536828 0.400580
1.000000 0.617365 0.554284
0.662501 0.732967 0.782132
0.669764 0.738705 0.787045
0.727047 0.764614 0.771603
0.883268 0.741482 0.683284
0.995453 0.785458 0.734768
0.883604 0.907195 0.925750
0.884215 0.907652 0.926116
0.892241 0.913542 0.929107
0.932952 0.925841 0.913573
0.996063 0.909575 0.886229
0.000000 0.357488 0.422736
0.000000 0.327398 0.444404
0.000000 0.197574 0.504997
0.735348 0.169802 0.741115
0.997528 0.320012 0.736507
0.000000 0.452888 0.464393
0.000000 0.425391 0.488167
0.000000 0.284886 0.542596
0.746181 0.311650 0.723720
0.997375 0.418311 0.720699
0.203738 0.468940 0.549493
0.277928 0.488228 0.564874
0.476844 0.567620 0.629816
0.778103 0.584771 0.654902
0.978546 0.634333 0.706233
0.694270 0.758114 0.803494
0.694697 0.758450 0.803738
0.717739 0.776577 0.818936
0.840940 0.785306 0.782895
0.952392 0.822721 0.805814
0.881407 0.905425 0.924346
0.883909 0.907439 0.925933
0.891112 0.913115 0.930541
0.919097 0.925292 0.923461
0.981781 0.912779 0.896849
0.000000 0.752743 0.791226
0.000000 0.741878 0.800320
0.000000 0.674372 0.826200
0.276402 0.520562 0.857176
0.878325 0.598566 0.913329
0.000000 0.785885 0.798856
0.000000 0.770199 0.803250
0.000000 0.700374 0.822232
0.368811 0.562799 0.848966
0.881834 0.627924 0.909880
0.000000 0.810941 0.777401
0.000000 0.810971 0.774380
0.000000 0.789273 0.822873
0.591730 0.698116 0.844968
0.920226 0.743771 0.917479
0.621332 0.787991 0.838773
0.633509 0.788632 0.838437
0.699428 0.805753 0.848814
0.799130 0.840360 0.871519
0.936980 0.841001 0.875853
0.887694 0.910399 0.928344
0.890135 0.912383 0.929931
0.902922 0.922545 0.938079
0.916014 0.932952 0.946441
0.965118 0.931182 0.927459
0.000000 0.936614 0.930846
0.000000 0.927489 0.932097
0.000000 0.891814 0.939178
0.174411 0.829374 0.949493
0.684291 0.779202 0.959106
0.000000 0.941497 0.928161
0.000000 0.932952 0.929686
0.000000 0.898161 0.936370
0.315557 0.838010 0.946502
0.701747 0.789975 0.956847
0.000000 0.964294 0.918059
0.000000 0.960571 0.924041
0.000000 0.928283 0.932677
0.546838 0.874754 0.942260
0.777127 0.838926 0.955322
0.340581 0.953826 0.925597
0.362707 0.953002 0.923857
0.472724 0.952758 0.919524
0.734615 0.936370 0.945983
0.879759 0.909972 0.962432
0.846555 0.927001 0.948241
0.850156 0.927642 0.948486
0.869871 0.933135 0.951598
0.902281 0.942260 0.956756
0.947082 0.957733 0.966278
