20 Preset/City Style/【3】LUT video cho PR-AE-FCPX/TONE 1/Colors Change LookUp.cube
# Created by Adobe Lightroom plugin Export LUT (1.24.0)
# www.johnrellis.com/lightroom/exportlut.htm
# Preset: Colors Change LookUp
# Color profile: E:\lut插件\exportlut.1.24\exportlut.lrplugin\color profiles\Rec709gamma2.4.icc
LUT_3D_SIZE 5
DOMAIN_MIN 0.000000 0.000000 0.000000
DOMAIN_MAX 0.903226 0.903226 0.903226
0.124636 0.124636 0.124636
0.120333 0.126802 0.128389
0.344030 0.173037 0.119814
0.993622 0.276493 0.000000
1.000000 0.491615 0.000000
0.118685 0.126467 0.128450
0.152285 0.136812 0.131167
0.368933 0.197391 0.112642
0.984680 0.322484 0.000000
1.000000 0.527489 0.000000
0.299260 0.171756 0.123232
0.344030 0.183780 0.117830
0.753536 0.271397 0.000000
1.000000 0.482307 0.000000
1.000000 0.610071 0.000000
0.933593 0.289738 0.000000
0.977356 0.317510 0.000000
1.000000 0.432776 0.000000
1.000000 0.574243 0.000000
1.000000 0.662470 0.000000
1.000000 0.567254 0.000000
1.000000 0.576043 0.000000
1.000000 0.594415 0.000000
1.000000 0.641230 0.000000
1.000000 0.683070 0.000000
0.133272 0.135164 0.136690
0.115663 0.126711 0.137362
0.277653 0.157931 0.110262
0.787930 0.301671 0.000000
1.000000 0.504997 0.000000
0.115084 0.129732 0.134127
0.133730 0.133730 0.133730
0.321416 0.179202 0.101411
0.832303 0.313115 0.000000
1.000000 0.533013 0.000000
0.284428 0.157534 0.112093
0.334264 0.169833 0.103182
0.599664 0.228397 0.000000
1.000000 0.394476 0.000000
1.000000 0.628199 0.000000
0.906828 0.263951 0.000000
0.956329 0.292485 0.000000
1.000000 0.407263 0.000000
1.000000 0.555688 0.000000
1.000000 0.654841 0.000000
1.000000 0.555566 0.000000
1.000000 0.564599 0.000000
1.000000 0.598260 0.000000
1.000000 0.640894 0.000000
1.000000 0.684993 0.000000
0.000000 0.252354 0.434974
0.000000 0.260105 0.425360
0.000000 0.302586 0.451118
0.724300 0.304021 0.378241
1.000000 0.566369 0.000000
0.000000 0.274571 0.424079
0.000000 0.276982 0.420478
0.162936 0.324163 0.441108
0.760037 0.364324 0.361425
1.000000 0.604150 0.000000
0.000000 0.361059 0.429084
0.107301 0.371374 0.426734
0.431891 0.431891 0.431891
0.923919 0.532708 0.296788
1.000000 0.649500 0.000000
0.826108 0.613550 0.406744
0.827909 0.553674 0.369604
0.981659 0.515892 0.287633
1.000000 0.606439 0.000000
1.000000 0.628199 0.000000
1.000000 0.501854 0.000000
1.000000 0.513909 0.000000
1.000000 0.556542 0.000000
1.000000 0.615015 0.000000
1.000000 0.667079 0.000000
0.000000 0.565820 0.918151
0.000000 0.582147 0.918517
0.000000 0.622766 0.911498
0.382635 0.710597 0.899168
0.855985 0.847349 0.876402
0.000000 0.586572 0.904173
0.000000 0.592737 0.901244
0.000000 0.627253 0.895811
0.421881 0.706233 0.882567
0.876524 0.825132 0.879454
0.000000 0.650080 0.882536
0.000000 0.655451 0.878935
0.000000 0.692134 0.874784
0.630884 0.760220 0.863828
0.995605 0.847135 0.867552
0.294865 0.812497 0.885924
0.379034 0.812131 0.880491
0.634730 0.833738 0.877195
0.881315 0.881315 0.881315
1.000000 0.892851 0.804654
0.956847 0.972625 0.931792
0.979431 0.976532 0.933501
1.000000 0.946197 0.890105
1.000000 0.853605 0.729397
1.000000 0.761563 0.326268
0.000000 0.844816 1.000000
0.000000 0.846006 1.000000
0.000000 0.855070 1.000000
0.688655 0.903044 1.000000
0.909361 0.953948 0.998413
0.000000 0.845640 1.000000
0.000000 0.847410 1.000000
0.000000 0.859525 1.000000
0.700710 0.905577 1.000000
0.913085 0.955383 0.997803
0.000000 0.862119 1.000000
0.000000 0.862821 1.000000
0.416999 0.883482 1.000000
0.763973 0.921691 1.000000
0.936370 0.966186 0.997009
0.575341 0.914763 1.000000
0.598566 0.916258 1.000000
0.701808 0.926360 1.000000
0.862303 0.953521 1.000000
0.968872 0.982269 0.996551
0.882475 0.974304 0.999817
0.889342 0.975372 0.999512
0.920073 0.980835 0.998535
0.961639 0.988678 0.996948
0.996399 0.996399 0.996399
