20 Preset/City Style/【3】LUT video cho PR-AE-FCPX/TONE 1/Colors Change Blue_Yellow City.cube
# Created by Adobe Lightroom plugin Export LUT (1.24.0)
# www.johnrellis.com/lightroom/exportlut.htm
# Preset: Colors Change Blue&Yellow City
# Color profile: E:\lut插件\exportlut.1.24\exportlut.lrplugin\color profiles\Rec709gamma2.4.icc
LUT_3D_SIZE 32
DOMAIN_MIN 0.0 0.0 0.0
DOMAIN_MAX 1.0 1.0 1.0
0.000000 0.104799 0.101991
0.000000 0.104799 0.101991
0.000000 0.104738 0.101991
0.000000 0.105318 0.101900
0.003662 0.106050 0.101717
0.010468 0.107149 0.101900
0.018952 0.108186 0.102419
0.030701 0.109407 0.102876
0.044007 0.110872 0.102907
0.060548 0.113191 0.103548
0.083436 0.115389 0.103761
0.098451 0.117830 0.103853
0.114260 0.121157 0.103670
0.133059 0.124758 0.103609
0.154635 0.128695 0.102937
0.179904 0.132692 0.102235
0.208408 0.137423 0.101350
0.241093 0.142428 0.099428
0.277440 0.148196 0.096773
0.317601 0.154574 0.092836
0.361608 0.162661 0.086641
0.408698 0.173037 0.069947
0.458381 0.186893 0.041596
0.514122 0.206302 0.000000
0.572992 0.231815 0.000000
0.632929 0.264134 0.000000
0.693660 0.303288 0.000000
0.753170 0.347539 0.000000
0.809873 0.393713 0.000000
0.863767 0.439887 0.000000
0.914275 0.483680 0.000000
0.961151 0.524468 0.000000
0.000000 0.104799 0.101991
0.000000 0.104799 0.101991
0.000000 0.104738 0.101991
0.000000 0.105257 0.101900
0.003388 0.106050 0.102083
0.012146 0.107088 0.102235
0.020935 0.108125 0.102419
0.030701 0.109407 0.102876
0.043000 0.111238 0.103243
0.060548 0.113191 0.103548
0.083436 0.115389 0.103761
0.098451 0.117830 0.103853
0.114260 0.121157 0.103670
0.132784 0.124514 0.103670
0.154391 0.128450 0.102968
0.179324 0.132815 0.102235
0.207797 0.137331 0.101411
0.240208 0.142397 0.099489
0.276616 0.147982 0.096895
0.316686 0.154452 0.092988
0.360143 0.162417 0.087098
0.406867 0.172702 0.071015
0.456519 0.186252 0.043183
0.511711 0.205264 0.000855
0.569635 0.230076 0.000000
0.628809 0.261570 0.000000
0.689418 0.300267 0.000000
0.749050 0.344213 0.000000
0.805905 0.390204 0.000000
0.860105 0.436683 0.000000
0.910979 0.480812 0.000000
0.958251 0.522087 0.000000
0.000000 0.105013 0.102296
0.000000 0.105379 0.102266
0.000000 0.105318 0.101900
0.001129 0.105470 0.101839
0.006622 0.106294 0.102052
0.013123 0.107393 0.102571
0.021912 0.108431 0.102724
0.033661 0.109621 0.103182
0.046265 0.111452 0.103182
0.063813 0.113375 0.103487
0.085267 0.115572 0.104067
0.099214 0.118349 0.104097
0.115053 0.121370 0.103975
0.133761 0.124941 0.103578
0.155489 0.128817 0.103243
0.180331 0.132876 0.102541
0.209018 0.137545 0.101289
0.241459 0.142336 0.099428
0.277501 0.147951 0.096834
0.317449 0.154604 0.093263
0.361273 0.162783 0.086641
0.407904 0.172976 0.071443
0.457099 0.186313 0.042817
0.512169 0.205325 0.001617
0.569635 0.230076 0.000000
0.628229 0.261295 0.000000
0.688472 0.299504 0.000000
0.747738 0.343084 0.000000
0.804776 0.389288 0.000000
0.859007 0.435645 0.000000
0.909819 0.479713 0.000000
0.957153 0.521050 0.000000
0.000000 0.106538 0.103487
0.000000 0.106905 0.103456
0.000000 0.106844 0.103090
0.006348 0.106294 0.102388
0.011841 0.107088 0.102602
0.018341 0.108186 0.103120
0.025147 0.109255 0.103304
0.036866 0.110445 0.103761
0.050202 0.111940 0.103792
0.069734 0.113771 0.104097
0.088380 0.116304 0.104250
0.102235 0.118898 0.104280
0.118074 0.121859 0.104158
0.136629 0.125368 0.103761
0.158541 0.129122 0.103426
0.183261 0.133333 0.102693
0.212100 0.137850 0.101411
0.244114 0.142824 0.099519
0.280125 0.148287 0.096925
0.319799 0.154879 0.092927
0.363043 0.162905 0.086885
0.409400 0.173098 0.071839
0.458656 0.186770 0.042695
0.512963 0.205692 0.001892
0.570214 0.230076 0.000000
0.628809 0.261448 0.000000
0.689265 0.299931 0.000000
0.748806 0.343694 0.000000
0.805875 0.389929 0.000000
0.859922 0.436164 0.000000
0.910521 0.480201 0.000000
0.957336 0.520989 0.000000
0.001923 0.109010 0.105196
0.001923 0.109010 0.105196
0.004211 0.108949 0.104860
0.008484 0.108797 0.104524
0.017334 0.108553 0.103456
0.026825 0.109194 0.103639
0.033631 0.110231 0.103792
0.045350 0.111421 0.104250
0.057679 0.113222 0.104585
0.078981 0.114961 0.104555
0.093019 0.117098 0.104738
0.106661 0.119631 0.104768
0.122530 0.122713 0.104585
0.141512 0.126040 0.104189
0.163363 0.129885 0.103822
0.188479 0.134096 0.103029
0.217258 0.138399 0.101747
0.249516 0.143496 0.099702
0.285252 0.149172 0.097017
0.325017 0.155612 0.092958
0.368078 0.163729 0.086732
0.414313 0.174472 0.070741
0.463874 0.188174 0.042023
0.517693 0.207340 0.000000
0.574243 0.231968 0.000000
0.632776 0.263615 0.000000
0.692622 0.302159 0.000000
0.751614 0.345586 0.000000
0.808164 0.391852 0.000000
0.861784 0.437659 0.000000
0.911894 0.481178 0.000000
0.958343 0.521782 0.000000
0.007752 0.111269 0.107546
0.007752 0.111269 0.107546
0.009339 0.111543 0.107149
0.012879 0.111757 0.106752
0.019745 0.111574 0.105745
0.035279 0.110780 0.104738
0.048310 0.111635 0.104555
0.060365 0.112825 0.104646
0.076631 0.114443 0.104982
0.089509 0.116182 0.105257
0.100496 0.118471 0.105409
0.113924 0.121157 0.105043
0.130312 0.123964 0.105196
0.148928 0.127382 0.104768
0.171298 0.131136 0.103975
0.196445 0.135256 0.103120
0.225376 0.139651 0.101717
0.258000 0.144656 0.099947
0.294041 0.150423 0.097078
0.333898 0.157076 0.092744
0.376959 0.165682 0.086427
0.423194 0.176577 0.069398
0.487404 0.195956 0.027131
0.544121 0.217929 0.000000
0.602106 0.246128 0.000000
0.661616 0.281041 0.000000
0.720974 0.321874 0.000000
0.777829 0.366217 0.000000
0.831937 0.411444 0.000000
0.882872 0.455634 0.000000
0.930266 0.496956 0.000000
0.973785 0.535149 0.000000
0.015717 0.114351 0.109346
0.016693 0.114626 0.109621
0.018982 0.114565 0.109316
0.022858 0.114778 0.108614
0.028687 0.114900 0.107881
0.041505 0.114565 0.106844
0.062287 0.113954 0.105806
0.082918 0.115053 0.105501
0.092592 0.116518 0.105501
0.102296 0.118288 0.105745
0.113161 0.120668 0.105470
0.126802 0.123293 0.105745
0.142702 0.126131 0.105501
0.161776 0.129580 0.105287
0.184146 0.133120 0.104463
0.209964 0.137301 0.103456
0.239353 0.141665 0.101869
0.272251 0.146548 0.099886
0.308782 0.152407 0.096712
0.349004 0.159762 0.092195
0.392859 0.168826 0.083650
0.440925 0.180911 0.062745
0.493660 0.197818 0.026184
0.549706 0.219944 0.000000
0.607691 0.248447 0.000000
0.666560 0.283726 0.000000
0.725216 0.324529 0.000000
0.781186 0.368383 0.000000
0.834409 0.413214 0.000000
0.884428 0.456519 0.000000
0.931334 0.497444 0.000000
0.974426 0.535363 0.000000
0.026215 0.118410 0.111574
0.028199 0.118349 0.111574
0.030488 0.118288 0.111238
0.034058 0.118502 0.110872
0.041169 0.118868 0.110140
0.053285 0.118837 0.109133
0.072053 0.118318 0.108125
0.093294 0.117617 0.106661
0.106355 0.118746 0.106264
0.116548 0.120577 0.106081
0.128359 0.122835 0.105776
0.141878 0.125429 0.105989
0.157900 0.128389 0.105653
0.176822 0.131411 0.105409
0.198672 0.135042 0.104799
0.223209 0.139162 0.103761
0.252323 0.143404 0.102419
0.285405 0.148470 0.099855
0.322057 0.154513 0.096742
0.362341 0.161959 0.091859
0.405829 0.171481 0.082368
0.454322 0.184451 0.058473
0.505791 0.201633 0.021912
0.560296 0.224277 0.000000
0.617151 0.253422 0.000000
0.675044 0.288670 0.000000
0.732204 0.329229 0.000000
0.787137 0.372686 0.000000
0.839292 0.416876 0.000000
0.888609 0.459663 0.000000
0.934630 0.499855 0.000000
0.977081 0.537285 0.000000
0.044465 0.123415 0.114168
0.046448 0.123354 0.114137
0.048737 0.123293 0.113832
0.053590 0.123720 0.113466
0.063386 0.123751 0.112764
0.076783 0.123964 0.111727
0.088869 0.123995 0.110323
0.099825 0.123171 0.109010
0.116487 0.122499 0.107118
0.133455 0.122988 0.106630
0.146365 0.125093 0.106233
0.161013 0.127626 0.105989
0.177401 0.130556 0.105531
0.196536 0.133730 0.105165
0.218997 0.137270 0.104372
0.243717 0.141268 0.103456
0.271885 0.145754 0.101900
0.303014 0.151034 0.099886
0.338994 0.157290 0.096468
0.379278 0.165164 0.091066
0.423499 0.175570 0.080201
0.470466 0.188968 0.053651
0.520806 0.206943 0.013825
0.574395 0.230381 0.000000
0.630121 0.260044 0.000000
0.686671 0.295659 0.000000
0.742397 0.336278 0.000000
0.795804 0.379309 0.000000
0.846769 0.422675 0.000000
0.894865 0.464546 0.000000
0.939879 0.503960 0.000000
0.981384 0.540642 0.000000
0.076722 0.129549 0.117250
0.076295 0.129824 0.116915
0.079469 0.129732 0.116915
0.082673 0.130129 0.116213
0.088899 0.130373 0.115511
0.095247 0.130465 0.114504
0.102815 0.130678 0.113161
0.113344 0.130312 0.111421
0.125338 0.129152 0.109773
0.145785 0.127749 0.107820
0.166567 0.127779 0.106783
0.182223 0.130190 0.106416
0.200198 0.132998 0.105806
0.219944 0.136110 0.104891
0.242741 0.139681 0.104219
0.268162 0.143709 0.102632
0.296696 0.148318 0.101076
0.328283 0.153689 0.098604
0.363409 0.160616 0.094575
0.401587 0.169223 0.089357
0.443702 0.180392 0.076600
0.489265 0.194705 0.046632
0.538262 0.213352 0.005676
0.589899 0.237186 0.000000
0.643397 0.266972 0.000000
0.698146 0.302983 0.000000
0.752224 0.343206 0.000000
0.804379 0.385504 0.000000
0.854185 0.428321 0.000000
0.901274 0.469642 0.000000
0.945495 0.508354 0.000000
0.986267 0.544488 0.000000
0.098756 0.137545 0.120638
0.099184 0.137758 0.120607
0.100313 0.137911 0.120272
0.102724 0.137972 0.119936
0.107179 0.138369 0.118929
0.112886 0.138857 0.117891
0.120546 0.138918 0.116243
0.130739 0.138643 0.114565
0.142763 0.138033 0.112856
0.157443 0.136233 0.110506
0.182101 0.133883 0.108125
0.207248 0.133028 0.106447
0.226261 0.135622 0.105989
0.247898 0.138827 0.104738
0.271214 0.142184 0.103456
0.297246 0.146456 0.101808
0.326329 0.151278 0.099397
0.358587 0.157351 0.096071
0.393347 0.164645 0.091676
0.431006 0.174258 0.083742
0.470741 0.186374 0.065126
0.512566 0.201389 0.035157
0.558434 0.221012 0.000000
0.608637 0.245945 0.000000
0.661097 0.277073 0.000000
0.714321 0.313634 0.000000
0.766415 0.353521 0.000000
0.816739 0.395209 0.000000
0.864927 0.436957 0.000000
0.910674 0.476997 0.000000
0.953460 0.514794 0.000000
0.992859 0.550011 0.000000
0.120668 0.147921 0.125429
0.121187 0.147860 0.125429
0.122621 0.147982 0.124849
0.124758 0.148226 0.124483
0.129183 0.148470 0.123262
0.134737 0.149020 0.122225
0.143069 0.149050 0.120607
0.152712 0.149264 0.118593
0.165133 0.148623 0.116304
0.179782 0.147066 0.113680
0.197147 0.144289 0.111330
0.226535 0.140841 0.107973
0.262364 0.139162 0.105745
0.286595 0.142397 0.103975
0.313176 0.146334 0.101839
0.341558 0.151003 0.099367
0.371984 0.156710 0.096132
0.405280 0.164004 0.091707
0.440711 0.173159 0.083619
0.478431 0.184848 0.064820
0.517784 0.199466 0.036439
0.559136 0.217533 0.000000
0.602808 0.239933 0.000000
0.648402 0.267216 0.000000
0.696407 0.299809 0.000000
0.746487 0.336706 0.000000
0.795071 0.375738 0.000000
0.841764 0.415686 0.000000
0.886381 0.454749 0.000000
0.928862 0.492256 0.000000
0.968688 0.527611 0.000000
1.000000 0.560662 0.000000
0.149264 0.161532 0.131258
0.149630 0.161501 0.131258
0.150668 0.161593 0.130953
0.153384 0.161685 0.130373
0.157290 0.162051 0.129183
0.163333 0.162356 0.127657
0.170840 0.162631 0.125826
0.181033 0.162692 0.123293
0.193362 0.162356 0.120729
0.208164 0.161074 0.117800
0.226444 0.158938 0.114687
0.247776 0.154910 0.111299
0.284398 0.150057 0.106935
0.321324 0.145327 0.103456
0.349889 0.149813 0.100893
0.379492 0.154757 0.097200
0.410559 0.161471 0.092470
0.442512 0.169833 0.086366
0.476844 0.180301 0.072328
0.512688 0.193271 0.047242
0.550164 0.209323 0.015290
0.589776 0.228763 0.000000
0.631617 0.252781 0.000000
0.675685 0.281376 0.000000
0.720729 0.314092 0.000000
0.765164 0.349523 0.000000
0.809873 0.387152 0.000000
0.854826 0.426246 0.000000
0.898009 0.464179 0.000000
0.939147 0.500572 0.000000
0.977539 0.534874 0.000000
1.000000 0.566888 0.000000
0.180209 0.177218 0.138186
0.180819 0.177157 0.137942
0.181888 0.177188 0.137667
0.184482 0.177401 0.136843
0.188235 0.177798 0.135714
0.194430 0.178042 0.134005
0.202121 0.178531 0.131930
0.212161 0.178653 0.129488
0.224674 0.178622 0.126375
0.239963 0.177981 0.122805
0.258335 0.176211 0.118868
0.279667 0.173068 0.114717
0.304021 0.167666 0.110170
0.346319 0.161044 0.103914
0.387854 0.153750 0.099062
0.418952 0.160128 0.094789
0.450202 0.167819 0.088746
0.483223 0.177615 0.074830
0.515892 0.189609 0.052522
0.550317 0.204196 0.024475
0.586053 0.221897 0.000000
0.623987 0.243290 0.000000
0.664149 0.268894 0.000000
0.706447 0.298619 0.000000
0.748714 0.331487 0.000000
0.790646 0.366674 0.000000
0.831754 0.402960 0.000000
0.871550 0.439307 0.000000
0.911498 0.475105 0.000000
0.950805 0.510185 0.000000
0.987549 0.543175 0.000000
1.000000 0.573999 0.000000
0.216861 0.197269 0.146304
0.217197 0.197086 0.146120
0.217960 0.197269 0.145846
0.220523 0.197238 0.144900
0.224460 0.197604 0.143557
0.230259 0.197971 0.141695
0.238010 0.198184 0.139071
0.248020 0.198703 0.136141
0.260807 0.198672 0.132631
0.275761 0.198550 0.128573
0.293950 0.197482 0.123995
0.315373 0.195224 0.118593
0.339849 0.190707 0.113039
0.367010 0.183505 0.107210
0.414374 0.176181 0.098482
0.459388 0.166445 0.091279
0.492164 0.176211 0.080140
0.524376 0.188022 0.056916
0.557733 0.201877 0.027863
0.590570 0.218540 0.000000
0.624506 0.237888 0.000000
0.660853 0.260960 0.000000
0.699428 0.288029 0.000000
0.738613 0.318212 0.000000
0.778164 0.350988 0.000000
0.817350 0.385290 0.000000
0.855741 0.420356 0.000000
0.893370 0.455146 0.000000
0.929839 0.488930 0.000000
0.964782 0.521752 0.000000
0.999268 0.553338 0.000000
1.000000 0.582971 0.000000
0.256718 0.221225 0.155245
0.257176 0.221286 0.155215
0.258274 0.221500 0.154726
0.260960 0.221744 0.153750
0.264897 0.222049 0.152285
0.270909 0.222629 0.150240
0.278691 0.223270 0.147402
0.289067 0.223972 0.144137
0.301671 0.224765 0.140078
0.317144 0.224704 0.135164
0.335088 0.224338 0.129549
0.355810 0.222721 0.123354
0.379370 0.219821 0.116670
0.405585 0.214023 0.109194
0.434516 0.205112 0.101259
0.485573 0.197543 0.087404
0.532799 0.186526 0.064546
0.566308 0.200778 0.035737
0.598047 0.216800 0.001556
0.630854 0.235416 0.000000
0.664607 0.257053 0.000000
0.699702 0.281834 0.000000
0.735592 0.309789 0.000000
0.772366 0.340154 0.000000
0.809140 0.372412 0.000000
0.845609 0.405859 0.000000
0.881621 0.439307 0.000000
0.916442 0.472206 0.000000
0.950347 0.504082 0.000000
0.982666 0.534691 0.000000
1.000000 0.563958 0.000000
1.000000 0.591485 0.000000
0.299992 0.250370 0.165255
0.300511 0.250370 0.165225
0.301671 0.250523 0.164584
0.304082 0.250980 0.163821
0.308385 0.251408 0.162020
0.314244 0.252049 0.159487
0.322179 0.252873 0.156344
0.332586 0.253941 0.152651
0.345068 0.254887 0.147890
0.360082 0.255741 0.142702
0.377844 0.255924 0.135958
0.398047 0.255161 0.128725
0.421363 0.253208 0.119966
0.446937 0.249241 0.110536
0.474861 0.242802 0.100587
0.505303 0.233158 0.089143
0.558984 0.226871 0.045289
0.607111 0.216342 0.009003
0.640833 0.235843 0.000000
0.671962 0.255924 0.000000
0.705196 0.279393 0.000000
0.739284 0.305547 0.000000
0.772641 0.333745 0.000000
0.806394 0.363684 0.000000
0.840391 0.394995 0.000000
0.874022 0.426886 0.000000
0.907439 0.458625 0.000000
0.939818 0.489448 0.000000
0.970977 0.519402 0.000000
1.000000 0.548241 0.000000
1.000000 0.575647 0.000000
1.000000 0.601404 0.000000
0.348150 0.285344 0.176638
0.348669 0.285527 0.176730
0.358160 0.292180 0.178256
0.360845 0.292546 0.176883
0.365179 0.293034 0.174838
0.370794 0.293980 0.172366
0.378912 0.295018 0.168612
0.389105 0.296178 0.163851
0.401526 0.297337 0.158267
0.416541 0.298680 0.151705
0.433875 0.299504 0.143709
0.453925 0.299626 0.134493
0.476265 0.298863 0.124025
0.500664 0.296330 0.111849
0.527337 0.291783 0.097566
0.556023 0.284581 0.076143
0.587396 0.274022 0.033692
0.641566 0.270909 0.000000
0.688655 0.262516 0.000000
0.721218 0.284855 0.000000
0.750973 0.308568 0.000000
0.782223 0.334661 0.000000
0.814054 0.362982 0.000000
0.844358 0.391699 0.000000
0.874540 0.420752 0.000000
0.904692 0.450019 0.000000
0.934417 0.478981 0.000000
0.963439 0.507195 0.000000
0.991669 0.534905 0.000000
1.000000 0.561700 0.000000
1.000000 0.587182 0.000000
1.000000 0.611261 0.000000
0.402228 0.328130 0.191073
0.403510 0.328832 0.191104
0.405554 0.329839 0.190707
0.408850 0.330816 0.189487
0.413703 0.332219 0.187564
0.419745 0.333165 0.184604
0.427558 0.334630 0.180636
0.437079 0.335760 0.175509
0.449134 0.337407 0.169253
0.463600 0.338994 0.161685
0.480293 0.340581 0.152865
0.499367 0.341711 0.142733
0.520867 0.341772 0.130037
0.544091 0.341131 0.115541
0.569604 0.338811 0.097261
0.596948 0.334508 0.060731
0.626032 0.327642 0.005585
0.659388 0.318853 0.000000
0.712734 0.318486 0.000000
0.758267 0.312230 0.000000
0.788998 0.334600 0.000000
0.817777 0.360449 0.000000
0.846921 0.387701 0.000000
0.876341 0.415595 0.000000
0.904265 0.443122 0.000000
0.931701 0.470222 0.000000
0.958618 0.497047 0.000000
0.985077 0.523430 0.000000
1.000000 0.549157 0.000000
1.000000 0.574151 0.000000
1.000000 0.597955 0.000000
1.000000 0.620478 0.000000
0.455726 0.373877 0.208072
0.457160 0.374701 0.208011
0.459388 0.375677 0.207431
0.462898 0.377173 0.206210
0.467506 0.378607 0.204410
0.473335 0.379736 0.200778
0.480842 0.381231 0.196536
0.490272 0.382849 0.190799
0.501610 0.384863 0.184298
0.515465 0.386755 0.175601
0.531273 0.388861 0.165560
0.549248 0.390570 0.153628
0.569421 0.392004 0.139498
0.591608 0.392676 0.122530
0.615839 0.392218 0.100130
0.641962 0.390265 0.049104
0.669764 0.386145 0.000000
0.698909 0.379889 0.000000
0.732662 0.371710 0.000000
0.782254 0.371771 0.000000
0.824491 0.365972 0.000000
0.852537 0.386694 0.000000
0.879179 0.412696 0.000000
0.905913 0.438758 0.000000
0.932555 0.464698 0.000000
0.957977 0.490150 0.000000
0.982269 0.515007 0.000000
1.000000 0.539483 0.000000
1.000000 0.563348 0.000000
1.000000 0.586481 0.000000
1.000000 0.608606 0.000000
1.000000 0.629786 0.000000
0.513054 0.426337 0.230472
0.514183 0.427466 0.230961
0.516350 0.428504 0.230503
0.519707 0.429786 0.229068
0.524041 0.431250 0.226688
0.529625 0.432837 0.223575
0.536736 0.434394 0.218784
0.545739 0.436164 0.212467
0.556756 0.438300 0.204776
0.569482 0.440558 0.195682
0.584619 0.443214 0.184726
0.601862 0.445686 0.171389
0.621027 0.447883 0.156191
0.642054 0.449287 0.136324
0.664912 0.450080 0.111818
0.689174 0.449561 0.065583
0.715145 0.447425 0.000000
0.742245 0.443122 0.000000
0.770657 0.436439 0.000000
0.803830 0.429358 0.000000
0.850095 0.428870 0.000000
0.889097 0.422827 0.000000
0.914000 0.440528 0.000000
0.938598 0.465095 0.000000
0.962829 0.489479 0.000000
0.986572 0.513176 0.000000
1.000000 0.536339 0.000000
1.000000 0.558831 0.000000
1.000000 0.580743 0.000000
1.000000 0.601862 0.000000
1.000000 0.622248 0.000000
1.000000 0.642054 0.000000
0.578637 0.490547 0.264958
0.579278 0.490944 0.264866
0.580713 0.491463 0.264164
0.583276 0.492134 0.262272
0.586847 0.493141 0.259800
0.592096 0.494209 0.255894
0.598566 0.495674 0.250736
0.607172 0.497414 0.244144
0.617304 0.499580 0.236332
0.629725 0.501976 0.226658
0.643885 0.504479 0.215274
0.659998 0.506859 0.201663
0.677516 0.508904 0.185519
0.696803 0.510460 0.166720
0.717403 0.511040 0.142763
0.739467 0.510613 0.112062
0.762600 0.508934 0.036683
0.787045 0.505486 0.000000
0.812406 0.499947 0.000000
0.838651 0.492195 0.000000
0.869444 0.484504 0.000000
0.910307 0.481331 0.000000
0.944610 0.473640 0.000000
0.965881 0.487343 0.000000
0.987304 0.509331 0.000000
1.000000 0.531304 0.000000
1.000000 0.552819 0.000000
1.000000 0.573663 0.000000
1.000000 0.593835 0.000000
1.000000 0.613519 0.000000
1.000000 0.632715 0.000000
1.000000 0.651423 0.000000
0.640162 0.550408 0.307530
0.640681 0.550683 0.307195
0.641871 0.551293 0.307103
0.644343 0.551904 0.305241
0.647761 0.552636 0.302647
0.652369 0.553613 0.298894
0.658656 0.554833 0.293523
0.666377 0.556268 0.287449
0.675715 0.558038 0.279881
0.686885 0.560021 0.270603
0.699672 0.561852 0.259037
0.714168 0.563928 0.246952
0.730159 0.565454 0.231205
0.747494 0.566705 0.214115
0.766323 0.567224 0.193301
0.786069 0.566918 0.168368
0.807248 0.565362 0.136110
0.829099 0.562646 0.090272
0.851987 0.558221 0.000000
0.875486 0.551781 0.000000
0.899565 0.543053 0.000000
0.928374 0.534691 0.000000
0.964111 0.529534 0.000000
0.994415 0.520226 0.000000
1.000000 0.528435 0.000000
1.000000 0.548028 0.000000
1.000000 0.567926 0.000000
1.000000 0.587152 0.000000
1.000000 0.605982 0.000000
1.000000 0.624414 0.000000
1.000000 0.642695 0.000000
1.000000 0.660883 0.000000
0.702693 0.610895 0.366033
0.703456 0.611414 0.366857
0.704646 0.611749 0.365881
0.706569 0.612055 0.364233
0.709102 0.612360 0.361608
0.713008 0.612696 0.357549
0.717922 0.613001 0.352026
0.724331 0.613733 0.346014
0.732448 0.614435 0.337469
0.741878 0.615534 0.328710
0.752712 0.616663 0.318181
0.765499 0.617670 0.305180
0.779355 0.618433 0.291478
0.794644 0.618860 0.274784
0.810849 0.618616 0.256535
0.828031 0.617853 0.235355
0.846525 0.616083 0.210819
0.866117 0.613306 0.181125
0.886442 0.609400 0.144656
0.907530 0.604059 0.089601
0.929290 0.596826 0.000000
0.951202 0.587427 0.000000
0.977508 0.577966 0.000000
1.000000 0.570367 0.000000
1.000000 0.559045 0.000000
1.000000 0.566308 0.000000
1.000000 0.583062 0.000000
1.000000 0.600763 0.000000
1.000000 0.618219 0.000000
1.000000 0.635309 0.000000
1.000000 0.652796 0.000000
1.000000 0.670466 0.109987
0.755673 0.662898 0.432349
0.756161 0.663325 0.432929
0.757351 0.663752 0.432349
0.759060 0.664149 0.431189
0.761746 0.664485 0.428840
0.765408 0.664912 0.425330
0.770199 0.665492 0.420691
0.776364 0.666224 0.414862
0.783871 0.667079 0.408057
0.792538 0.668055 0.400397
0.802518 0.668910 0.390997
0.813901 0.669642 0.379736
0.826261 0.670100 0.366857
0.839811 0.670192 0.352514
0.854276 0.669642 0.335882
0.869657 0.668421 0.316808
0.885863 0.666712 0.296483
0.903075 0.663874 0.273075
0.921019 0.660182 0.246891
0.939727 0.655177 0.216251
0.958923 0.648707 0.180117
0.978454 0.640375 0.133272
0.998169 0.629541 0.000000
1.000000 0.618952 0.000000
1.000000 0.608911 0.000000
1.000000 0.595911 0.000000
1.000000 0.601007 0.000000
1.000000 0.615595 0.000000
1.000000 0.631891 0.000000
1.000000 0.648341 0.000000
1.000000 0.664851 0.119509
1.000000 0.682124 0.211215
0.804990 0.713954 0.511650
0.805447 0.714168 0.511589
0.806180 0.714290 0.511131
0.807645 0.714534 0.510063
0.809934 0.714748 0.507652
0.813138 0.714931 0.504448
0.817350 0.715175 0.500267
0.822599 0.715663 0.495369
0.828916 0.716152 0.489479
0.836637 0.716579 0.482216
0.845365 0.717128 0.473793
0.855253 0.717403 0.464118
0.866239 0.717464 0.452674
0.878111 0.717220 0.439887
0.890867 0.716487 0.425452
0.904356 0.715053 0.408820
0.918883 0.712978 0.390387
0.933928 0.710109 0.370367
0.949889 0.706447 0.348302
0.966461 0.701717 0.323796
0.983459 0.695674 0.297246
1.000000 0.688045 0.267399
1.000000 0.678340 0.231907
1.000000 0.666560 0.190738
1.000000 0.654536 0.134066
1.000000 0.642237 0.000000
1.000000 0.628351 0.000000
1.000000 0.631708 0.000000
1.000000 0.644739 0.020600
1.000000 0.660700 0.153872
1.000000 0.677028 0.221653
1.000000 0.693721 0.285344
0.846586 0.760433 0.592126
0.846830 0.760647 0.592432
0.847471 0.760830 0.592157
0.848875 0.761044 0.591333
0.850858 0.761288 0.589868
0.853819 0.761593 0.587488
0.857908 0.762234 0.584771
0.862882 0.762936 0.581933
0.868894 0.763821 0.578241
0.876036 0.764614 0.573449
0.884215 0.765438 0.567864
0.893126 0.766079 0.561028
0.902953 0.766323 0.553246
0.913420 0.766110 0.543725
0.924651 0.765286 0.532525
0.936584 0.763668 0.519219
0.948943 0.761471 0.504601
0.962188 0.758480 0.487770
0.975952 0.754696 0.469642
0.990295 0.749966 0.449500
1.000000 0.744015 0.427070
1.000000 0.736843 0.403052
1.000000 0.727962 0.375830
1.000000 0.717342 0.345830
1.000000 0.704280 0.311223
1.000000 0.691188 0.273716
1.000000 0.677424 0.231571
1.000000 0.662715 0.202152
1.000000 0.665278 0.221469
1.000000 0.677272 0.258610
1.000000 0.692836 0.312016
1.000000 0.708888 0.368536
0.884855 0.808011 0.678035
0.885008 0.808042 0.677852
0.885496 0.808011 0.677363
0.886381 0.808011 0.676661
0.887968 0.807980 0.675196
0.890166 0.808103 0.673579
0.893187 0.808133 0.671138
0.896941 0.808286 0.668360
0.901579 0.808408 0.664851
0.906889 0.808591 0.661006
0.913237 0.808560 0.656062
0.920195 0.808469 0.650813
0.928008 0.808133 0.644312
