20 Preset/City Style/【3】LUT video cho PR-AE-FCPX/TONE 1/Colors Change The Great Moscow CIty.cube
# Created by Adobe Lightroom plugin Export LUT (1.24.0)
# www.johnrellis.com/lightroom/exportlut.htm
# Preset: Colors Change The Great Moscow CIty
# Color profile: E:\lut插件\exportlut.1.24\exportlut.lrplugin\color profiles\Rec709gamma2.4.icc
LUT_3D_SIZE 5
DOMAIN_MIN 0.000000 0.000000 0.000000
DOMAIN_MAX 0.903226 0.903226 0.903226
0.055055 0.113344 0.122164
0.000000 0.105440 0.117433
0.208835 0.084565 0.098939
0.711543 0.000000 0.000000
1.000000 0.000000 0.000000
0.011566 0.074861 0.090272
0.022248 0.088960 0.094881
0.241062 0.122347 0.077638
0.774533 0.000000 0.000000
1.000000 0.000000 0.000000
0.000000 0.294743 0.168643
0.000000 0.302922 0.093355
0.402777 0.422614 0.000000
0.929046 0.393652 0.000000
1.000000 0.521324 0.000000
0.000000 0.794247 0.469825
0.000000 0.809171 0.406592
0.000000 0.854887 0.000000
0.881254 0.869505 0.000000
1.000000 0.706050 0.000000
0.651484 0.998596 0.866087
0.639155 1.000000 0.853391
0.461128 1.000000 0.733639
0.686397 1.000000 0.618006
1.000000 0.996063 0.381201
0.045136 0.083680 0.086213
0.000000 0.101503 0.093843
0.176486 0.015747 0.086030
0.618891 0.000000 0.082521
1.000000 0.000000 0.000000
0.000000 0.082643 0.091524
0.017304 0.085176 0.095247
0.218540 0.066987 0.093111
0.670527 0.000000 0.026856
1.000000 0.000000 0.000000
0.000000 0.264103 0.208133
0.000000 0.271397 0.184207
0.325231 0.343969 0.000000
0.832486 0.336004 0.000000
1.000000 0.476905 0.000000
0.000000 0.774502 0.551019
0.000000 0.792782 0.508751
0.000000 0.844297 0.173312
0.872221 0.859464 0.000000
1.000000 0.711818 0.000000
0.699794 0.993500 0.886381
0.686122 0.995819 0.874693
0.645563 1.000000 0.817380
0.735164 1.000000 0.710597
1.000000 0.997040 0.520531
0.000000 0.130007 0.214939
0.000000 0.069917 0.238102
0.368994 0.000000 0.275029
0.594568 0.000000 0.147707
1.000000 0.000000 0.153689
0.000000 0.168887 0.236118
0.000000 0.129244 0.251377
0.371679 0.000000 0.279179
0.647913 0.000000 0.153750
1.000000 0.000000 0.228244
0.000000 0.330541 0.282292
0.000000 0.332738 0.291173
0.345586 0.344488 0.340642
0.805264 0.330663 0.332860
1.000000 0.376593 0.334752
0.208377 0.792172 0.670314
0.265080 0.775021 0.657862
0.393683 0.786282 0.634516
0.854948 0.840360 0.400916
1.000000 0.748562 0.287907
0.777981 0.980346 0.920989
0.793057 0.979614 0.924102
0.782712 0.987732 0.902251
0.773342 1.000000 0.812955
1.000000 0.992706 0.688075
0.000000 0.321538 0.624445
0.000000 0.242863 0.650446
0.000000 0.000000 0.716182
0.979706 0.000000 0.727535
1.000000 0.000000 0.423499
0.000000 0.308019 0.641230
0.000000 0.253544 0.656886
0.000000 0.000000 0.714717
0.962463 0.000000 0.715511
1.000000 0.000000 0.425727
0.000000 0.619013 0.617700
0.000000 0.598047 0.632074
0.000000 0.438880 0.707393
0.928191 0.000000 0.722683
1.000000 0.000000 0.495613
0.000000 0.825345 0.736477
0.000000 0.818936 0.736233
0.483040 0.815640 0.762905
0.816403 0.816648 0.816495
1.000000 0.826322 0.815549
0.852079 0.985809 0.947601
0.865415 0.984680 0.950042
0.885954 0.983215 0.953704
0.908507 0.983246 0.950042
0.990539 0.988281 0.883818
0.000000 0.696651 0.957488
0.000000 0.640925 0.963409
0.000000 0.334142 0.989044
0.698085 0.000000 1.000000
1.000000 0.000000 0.950774
0.000000 0.630152 0.959075
0.000000 0.570855 0.965240
0.000000 0.241367 0.987823
0.717983 0.000000 1.000000
1.000000 0.000000 0.949157
0.000000 0.786618 0.948272
0.000000 0.753445 0.951720
0.000000 0.575311 0.972839
0.625147 0.155764 0.995666
1.000000 0.000000 0.955230
0.412238 0.966247 0.922301
0.452308 0.962829 0.921386
0.545220 0.946349 0.938140
0.682429 0.831510 0.971496
1.000000 0.680110 0.968566
0.735012 0.997314 0.953521
0.751583 0.996033 0.954650
0.825315 0.991943 0.962005
0.914458 0.985992 0.972351
0.982422 0.982910 0.983032
