20 Preset/City Style/【3】LUT video cho PR-AE-FCPX/TONE 1/Colors Change Blue_Yellow City 2.cube
# Created by Adobe Lightroom plugin Export LUT (1.24.0)
# www.johnrellis.com/lightroom/exportlut.htm
# Preset: Colors Change Blue&Yellow City 2
# Color profile: E:\lut插件\exportlut.1.24\exportlut.lrplugin\color profiles\Rec709gamma2.4.icc
LUT_3D_SIZE 8
DOMAIN_MIN 0.000000 0.000000 0.000000
DOMAIN_MAX 0.903226 0.903226 0.903226
0.000000 0.065980 0.046967
0.000000 0.077485 0.051881
0.063050 0.093263 0.064179
0.163455 0.109743 0.075105
0.320653 0.126833 0.070680
0.530999 0.174105 0.012024
0.816526 0.363745 0.000000
1.000000 0.542718 0.000000
0.000000 0.088472 0.066438
0.002136 0.088350 0.060365
0.080629 0.097505 0.067781
0.156588 0.114412 0.076997
0.298283 0.133516 0.074281
0.493812 0.174197 0.028168
0.754696 0.325231 0.000000
0.971130 0.511406 0.000000
0.086000 0.120974 0.095705
0.100099 0.122194 0.093263
0.160189 0.118715 0.082124
0.268101 0.124849 0.073640
0.398535 0.149996 0.058015
0.612512 0.242985 0.000000
0.864286 0.449897 0.000000
1.000000 0.597803 0.000000
0.244938 0.200259 0.129732
0.254002 0.199069 0.125154
0.305119 0.198550 0.109895
0.467872 0.199008 0.060182
0.690883 0.262242 0.000000
0.837613 0.398108 0.000000
0.970855 0.531365 0.000000
1.000000 0.633143 0.000000
0.495033 0.388495 0.200137
0.503624 0.388922 0.194247
0.551324 0.399268 0.169924
0.654505 0.421454 0.109743
0.789975 0.421027 0.000000
0.936095 0.466590 0.000000
1.000000 0.566644 0.000000
1.000000 0.655909 0.080171
0.731228 0.614679 0.362249
0.758877 0.634485 0.376684
0.789151 0.639277 0.355108
0.846799 0.646052 0.312566
0.922789 0.643488 0.237675
1.000000 0.629023 0.104189
1.000000 0.639368 0.000000
1.000000 0.698634 0.295720
0.920989 0.802457 0.627588
0.927581 0.805600 0.630030
0.940703 0.803403 0.614771
0.969360 0.801083 0.590417
1.000000 0.790341 0.544701
1.000000 0.775082 0.495247
1.000000 0.744717 0.432807
1.000000 0.722744 0.414557
0.998871 0.929442 0.858610
1.000000 0.929076 0.857511
1.000000 0.928557 0.855070
1.000000 0.928099 0.852750
1.000000 0.903929 0.803342
1.000000 0.896696 0.795041
1.000000 0.881621 0.782223
1.000000 0.848447 0.746120
0.000000 0.088869 0.085023
0.000000 0.089296 0.090333
0.044709 0.096742 0.088655
0.146059 0.114137 0.090944
0.284855 0.132357 0.081910
0.472999 0.167269 0.037598
0.716030 0.293828 0.000000
0.932067 0.473182 0.000000
0.000000 0.094362 0.089082
0.000000 0.097536 0.092805
0.062348 0.105989 0.092958
0.154818 0.120333 0.091493
0.290318 0.138216 0.081514
0.471412 0.176883 0.036652
0.693935 0.288182 0.000000
0.902495 0.454749 0.000000
0.068757 0.127321 0.112795
0.091890 0.128298 0.109255
0.151339 0.124331 0.096468
0.251865 0.128634 0.088502
0.374151 0.144198 0.062776
0.561486 0.212711 0.000000
0.761715 0.357397 0.000000
0.951171 0.531762 0.000000
0.218051 0.193240 0.140658
0.228611 0.193027 0.135622
0.280552 0.192416 0.118349
0.401251 0.175875 0.081117
0.576196 0.192966 0.000000
0.714382 0.293858 0.000000
0.863859 0.432776 0.000000
1.000000 0.568658 0.000000
0.474464 0.370703 0.195804
0.479530 0.366979 0.186618
0.518120 0.367437 0.157809
0.601282 0.373754 0.105196
0.717006 0.358618 0.000000
0.872557 0.407599 0.000000
0.980377 0.522210 0.000000
1.000000 0.624201 0.000000
0.693904 0.578759 0.325658
0.702754 0.581598 0.321569
0.735714 0.589593 0.302800
0.801144 0.603906 0.265263
0.886809 0.610071 0.194125
0.995819 0.607660 0.000000
1.000000 0.622309 0.000000
1.000000 0.683436 0.234226
0.895293 0.774838 0.582300
0.895079 0.770932 0.572930
0.908568 0.768643 0.555718
0.942809 0.771115 0.534752
0.990723 0.769589 0.500572
1.000000 0.757168 0.448798
1.000000 0.725795 0.371252
1.000000 0.704555 0.340673
0.993378 0.916625 0.834592
0.995850 0.918486 0.837583
1.000000 0.917693 0.834104
1.000000 0.917754 0.831937
1.000000 0.912993 0.822538
1.000000 0.899504 0.801205
1.000000 0.878843 0.775814
1.000000 0.844846 0.737667
0.000000 0.123049 0.151064
0.000000 0.124666 0.157351
0.000000 0.125185 0.175784
0.158511 0.123232 0.176028
0.343511 0.169833 0.180728
0.552605 0.240818 0.177554
0.784451 0.385229 0.138155
0.972564 0.530602 0.000000
0.000000 0.134066 0.156222
0.000000 0.136599 0.161929
0.000000 0.135744 0.178042
0.172915 0.139284 0.163180
0.340856 0.180606 0.179934
0.547051 0.250126 0.176577
0.759152 0.373602 0.129091
0.950896 0.517601 0.000000
0.094514 0.162966 0.178592
0.101015 0.166781 0.183078
0.123751 0.181399 0.200076
0.244724 0.201938 0.197421
0.402716 0.240513 0.192508
0.604150 0.321386 0.179294
0.797421 0.437415 0.115846
0.971984 0.558190 0.000000
0.212161 0.250950 0.266636
0.229953 0.259770 0.265141
0.297642 0.276036 0.246677
0.434791 0.269688 0.209628
0.607294 0.306279 0.183841
0.750912 0.391852 0.148470
0.902434 0.498421 0.000000
1.000000 0.593957 0.000000
0.464240 0.438972 0.357763
0.474342 0.440162 0.350469
0.521630 0.446418 0.322637
0.617365 0.454658 0.272099
0.746944 0.435645 0.179690
0.891936 0.462318 0.000000
0.994537 0.544244 0.000000
1.000000 0.633997 0.000000
0.684718 0.610956 0.444343
0.695521 0.614557 0.440833
0.727932 0.618158 0.415167
0.789914 0.622126 0.363256
0.876097 0.618311 0.274205
0.988434 0.607233 0.103182
1.000000 0.620600 0.000000
1.000000 0.686549 0.247715
0.907774 0.784390 0.595087
0.908263 0.781430 0.587457
0.918456 0.775967 0.565545
0.947631 0.773922 0.538170
0.992309 0.770016 0.500816
1.000000 0.759884 0.455451
1.000000 0.733974 0.396979
1.000000 0.714931 0.383093
0.993347 0.917693 0.836820
0.994263 0.916258 0.833585
1.000000 0.915190 0.829465
1.000000 0.918059 0.832547
1.000000 0.913146 0.822782
1.000000 0.902556 0.807706
1.000000 0.883513 0.786130
1.000000 0.850034 0.749477
0.000000 0.205844 0.308171
0.000000 0.212650 0.322606
0.000000 0.215122 0.343145
0.000000 0.211032 0.376562
0.004822 0.176883 0.396735
0.557885 0.260410 0.344213
0.785733 0.434607 0.421881
0.955016 0.556970 0.415320
0.000000 0.233127 0.333684
0.000000 0.236820 0.341497
0.000000 0.236912 0.358801
0.000000 0.229587 0.391089
0.179110 0.194888 0.410803
0.575647 0.292943 0.368017
0.786282 0.448493 0.423468
0.954070 0.564202 0.415198
0.172793 0.281132 0.350622
0.171084 0.284367 0.356725
0.159548 0.292454 0.377966
0.058473 0.280797 0.405005
0.411475 0.291569 0.443091
0.653468 0.439734 0.473854
0.850523 0.554772 0.489174
0.990112 0.632074 0.468177
0.301061 0.374151 0.431373
0.303746 0.376440 0.433387
0.322087 0.394965 0.452033
0.359625 0.433875 0.491066
0.527123 0.475776 0.485115
0.692226 0.533410 0.479438
0.858396 0.604425 0.472236
0.997406 0.671199 0.457465
0.462135 0.552453 0.614710
0.460700 0.550927 0.613214
0.483803 0.563958 0.607446
0.589197 0.593164 0.578027
0.738705 0.581170 0.519585
0.875853 0.601709 0.483864
0.977722 0.651270 0.467842
1.000000 0.696254 0.443397
0.682704 0.708064 0.690913
0.705135 0.723049 0.701228
0.729946 0.722896 0.680903
0.788846 0.727016 0.650568
0.870970 0.718776 0.597864
0.971405 0.689998 0.518151
1.000000 0.686732 0.450263
1.000000 0.716793 0.428901
0.879728 0.831205 0.757473
0.884825 0.832639 0.756527
0.901976 0.833219 0.745785
0.934783 0.831968 0.723384
0.980804 0.821195 0.678920
1.000000 0.797360 0.608576
1.000000 0.754635 0.497719
1.000000 0.722377 0.413611
0.995361 0.927733 0.856321
0.996551 0.927306 0.855070
1.000000 0.925963 0.850675
1.000000 0.924071 0.844816
1.000000 0.918273 0.833310
1.000000 0.907103 0.816983
1.000000 0.889189 0.797787
1.000000 0.858854 0.768734
0.000000 0.392248 0.582025
0.000000 0.402014 0.594079
0.000000 0.403479 0.606348
0.000000 0.402289 0.629145
0.000000 0.396826 0.668391
0.000000 0.328588 0.676326
0.717525 0.378973 0.678859
0.938628 0.587518 0.663416
0.000000 0.422858 0.601251
0.000000 0.432502 0.613123
0.000000 0.433326 0.624292
0.000000 0.427283 0.642786
0.000000 0.414557 0.674769
0.000000 0.342229 0.681514
0.730190 0.407904 0.673426
0.940734 0.605432 0.674830
0.227481 0.492317 0.631800
0.228153 0.496864 0.637873
0.219638 0.503655 0.651484
0.126436 0.493233 0.664485
0.000000 0.460121 0.676143
0.115206 0.369116 0.679530
0.761471 0.498970 0.630518
0.939117 0.657282 0.703578
0.450813 0.583246 0.666072
0.448463 0.583703 0.668025
0.445197 0.590997 0.681086
0.435676 0.599054 0.701198
0.369940 0.569787 0.710964
0.632105 0.549310 0.726772
0.832120 0.665614 0.720699
0.958862 0.723049 0.718807
0.541772 0.640223 0.705409
0.546319 0.643824 0.708553
0.559197 0.653529 0.716304
0.583459 0.671351 0.730526
0.611261 0.691066 0.745602
0.742672 0.710842 0.733425
0.871366 0.741207 0.723690
0.983673 0.772488 0.710445
0.660883 0.731624 0.781003
0.665248 0.735103 0.783993
0.662379 0.732815 0.782010
0.676112 0.741939 0.784665
0.758846 0.758206 0.755428
0.887816 0.759487 0.735622
0.997375 0.773434 0.722744
1.000000 0.793942 0.710689
0.834592 0.860349 0.868772
0.834257 0.858457 0.864469
0.842161 0.856840 0.851865
0.874510 0.863615 0.839048
0.921843 0.865324 0.818387
0.979095 0.849760 0.780789
1.000000 0.811093 0.720668
1.000000 0.774655 0.641749
0.958465 0.936584 0.903441
0.959716 0.936126 0.901610
0.966186 0.934874 0.895140
0.983581 0.938781 0.893553
1.000000 0.933623 0.877409
1.000000 0.919402 0.848814
1.000000 0.890196 0.800229
1.000000 0.849119 0.746548
0.238773 0.663996 0.828824
0.261204 0.671870 0.834867
0.251804 0.673213 0.839994
0.217075 0.674556 0.851072
0.000000 0.658106 0.857237
0.000000 0.620874 0.860777
0.000000 0.546838 0.862364
0.779721 0.539086 0.885588
0.258000 0.653681 0.815030
0.260258 0.655116 0.816648
0.249973 0.656123 0.821530
0.195071 0.652705 0.829862
0.000000 0.639857 0.839231
0.000000 0.608392 0.846891
0.000000 0.537530 0.850797
0.785855 0.537591 0.876432
0.470161 0.719692 0.843259
0.467292 0.718593 0.843198
0.465461 0.719539 0.846677
0.407507 0.698512 0.841703
0.338994 0.680140 0.846708
0.222995 0.647242 0.852873
0.000000 0.577356 0.857664
0.872496 0.612116 0.885344
0.637934 0.777981 0.858030
0.632868 0.775418 0.856657
0.631403 0.776333 0.859678
0.643030 0.787686 0.873289
0.605280 0.774990 0.878508
0.528496 0.738582 0.878965
0.437507 0.662379 0.881559
0.937072 0.754696 0.875212
0.738247 0.808469 0.854887
0.739467 0.809110 0.855283
0.747189 0.814145 0.858762
0.743862 0.818021 0.866545
0.728267 0.814786 0.872374
0.669276 0.784115 0.871366
0.815091 0.765438 0.880034
0.955352 0.842679 0.876097
0.772152 0.825040 0.862852
0.779843 0.830747 0.867369
0.783474 0.833005 0.868864
0.792050 0.838529 0.872587
0.803342 0.845792 0.877409
0.830533 0.865110 0.891722
0.915404 0.883085 0.891112
0.983459 0.894804 0.885069
0.875273 0.900542 0.920409
0.879271 0.903716 0.922972
0.884306 0.907713 0.926177
0.892332 0.914122 0.931334
0.895720 0.916716 0.933165
0.933471 0.920714 0.913603
0.988403 0.901213 0.887816
1.000000 0.890410 0.867948
0.944823 0.955901 0.964813
0.943511 0.954864 0.964019
0.944457 0.954864 0.961364
0.953368 0.957946 0.955962
0.968200 0.958770 0.944976
0.991211 0.956329 0.932097
1.000000 0.943450 0.911528
1.000000 0.908537 0.869688
0.592584 0.814817 0.926909
0.597528 0.816953 0.928344
0.595941 0.816922 0.930053
0.584771 0.815030 0.933928
0.553979 0.806088 0.937499
0.501549 0.789090 0.941314
0.409674 0.756893 0.944671
0.227604 0.695064 0.946990
0.599512 0.814542 0.924132
0.604700 0.816892 0.925689
0.605158 0.817594 0.927764
0.588312 0.813382 0.930449
0.557122 0.804288 0.933959
0.500908 0.785946 0.937285
0.404730 0.752193 0.940002
0.216281 0.688777 0.941863
0.671626 0.837980 0.928801
0.671962 0.838254 0.929259
0.671931 0.838529 0.930694
0.660151 0.835264 0.933104
0.628565 0.824765 0.935485
0.580194 0.807492 0.938811
0.506523 0.777920 0.942748
0.378882 0.719020 0.946715
0.763699 0.871824 0.935576
0.760281 0.870115 0.934844
0.757778 0.869413 0.935698
0.757321 0.870329 0.938842
0.735317 0.862333 0.941009
0.697810 0.847288 0.943938
0.638025 0.819608 0.947112
0.532830 0.761013 0.950530
0.840879 0.900755 0.938445
0.838987 0.899840 0.938140
0.835721 0.898955 0.938750
0.831968 0.898863 0.941344
0.825681 0.897551 0.944610
0.795285 0.884489 0.946227
0.744198 0.858274 0.947662
0.662379 0.803433 0.952575
0.897978 0.926299 0.945983
0.898894 0.926909 0.946410
0.901823 0.928832 0.947692
0.907591 0.932708 0.950286
0.905150 0.933562 0.953063
0.896056 0.931273 0.956176
0.861143 0.912108 0.955688
0.928679 0.898680 0.960266
0.922423 0.941009 0.954925
0.923400 0.941680 0.955444
0.924956 0.942748 0.956115
0.928496 0.945159 0.957763
0.932952 0.948119 0.959747
0.938781 0.951995 0.962341
0.945556 0.956512 0.965301
0.980041 0.960754 0.961944
0.958618 0.966918 0.973632
0.959167 0.967346 0.973999
0.961822 0.969512 0.975677
0.965667 0.972564 0.978119
0.970855 0.976684 0.981415
0.972442 0.977935 0.982422
0.987366 0.979156 0.974243
1.000000 0.968627 0.961975
0.846525 0.929839 0.981415
0.847990 0.930449 0.981720
0.846891 0.929992 0.982025
0.842863 0.928710 0.983185
0.833921 0.925383 0.984771
0.817929 0.918822 0.986755
0.793240 0.908049 0.989471
0.747585 0.886656 0.992706
0.847227 0.929656 0.980682
0.848692 0.930327 0.980987
0.849577 0.930663 0.981506
0.844541 0.928923 0.982574
0.835386 0.925536 0.984161
0.819150 0.918944 0.986145
0.792721 0.907408 0.988739
0.745357 0.885344 0.991882
0.864897 0.936004 0.980529
0.865415 0.936278 0.980713
0.865476 0.936309 0.981140
0.866423 0.937133 0.982666
0.856260 0.933196 0.983917
0.839078 0.926116 0.985565
0.814054 0.915099 0.988067
0.769345 0.893858 0.991150
0.892485 0.946563 0.980743
0.893065 0.946899 0.980987
0.893248 0.947082 0.981506
0.894835 0.948028 0.982727
0.889128 0.946014 0.984070
0.875456 0.940368 0.985626
0.853910 0.930724 0.987854
0.814786 0.911467 0.990661
0.924163 0.959197 0.981476
0.924346 0.959380 0.981689
0.922850 0.958923 0.982025
0.922515 0.959197 0.983062
0.921874 0.959319 0.984436
0.911955 0.955322 0.985718
0.894591 0.947509 0.987549
0.863859 0.931792 0.990082
0.956970 0.973175 0.983642
0.956481 0.972961 0.983612
0.955047 0.972442 0.983673
0.953277 0.972076 0.984283
0.950835 0.971740 0.985504
0.950469 0.972473 0.987610
0.941283 0.968627 0.989288
0.920134 0.957458 0.990906
0.975525 0.982818 0.987854
0.975616 0.982849 0.987884
0.976013 0.983124 0.988067
0.977264 0.983948 0.988617
0.979278 0.985321 0.989502
0.979400 0.986114 0.990661
0.975769 0.984985 0.991547
0.961212 0.977050 0.991485
0.983856 0.988006 0.991058
0.983917 0.988037 0.991089
0.984283 0.988251 0.991211
0.985168 0.988861 0.991669
0.986389 0.989715 0.992248
0.987915 0.990753 0.992950
0.989654 0.991974 0.993774
0.991211 0.992950 0.994385
