20 Preset/City Style/【3】LUT video cho PR-AE-FCPX/TONE 1/Colors Change LookUp.cube
# Created by Adobe Lightroom plugin Export LUT (1.24.0)
# www.johnrellis.com/lightroom/exportlut.htm
# Preset: Colors Change LookUp
# Color profile: E:\lut插件\exportlut.1.24\exportlut.lrplugin\color profiles\Rec709gamma2.4.icc
LUT_3D_SIZE 8
DOMAIN_MIN 0.000000 0.000000 0.000000
DOMAIN_MAX 0.903226 0.903226 0.903226
0.124636 0.124636 0.124636
0.145266 0.128115 0.124208
0.130220 0.129580 0.129122
0.248356 0.154604 0.127413
0.462745 0.190463 0.102266
0.901335 0.238956 0.000000
1.000000 0.395087 0.000000
1.000000 0.491615 0.000000
0.145235 0.128908 0.124117
0.132357 0.127871 0.126406
0.131533 0.130892 0.130434
0.232120 0.154818 0.128420
0.422522 0.191958 0.107698
0.797818 0.231174 0.000000
1.000000 0.351720 0.000000
1.000000 0.475685 0.000000
0.122835 0.128084 0.129458
0.130282 0.130282 0.130282
0.184451 0.145907 0.130922
0.301335 0.181643 0.121950
0.502892 0.228641 0.065156
0.897093 0.300298 0.000000
1.000000 0.455299 0.000000
1.000000 0.533318 0.000000
0.223270 0.153323 0.128786
0.233768 0.156466 0.128298
0.292576 0.173342 0.123598
0.471565 0.218082 0.089509
0.826596 0.303838 0.000000
1.000000 0.442908 0.000000
1.000000 0.550286 0.000000
1.000000 0.586145 0.000000
0.423774 0.196597 0.106050
0.439643 0.200137 0.102968
0.521660 0.216617 0.071748
0.716213 0.253788 0.000000
0.946014 0.341070 0.000000
1.000000 0.465400 0.000000
1.000000 0.578119 0.000000
1.000000 0.639826 0.000000
0.796139 0.248875 0.000000
0.844755 0.261173 0.000000
0.904784 0.286564 0.000000
1.000000 0.347570 0.000000
1.000000 0.440650 0.000000
1.000000 0.541375 0.000000
1.000000 0.615595 0.000000
1.000000 0.661799 0.000000
1.000000 0.415534 0.000000
1.000000 0.425757 0.000000
1.000000 0.447669 0.000000
1.000000 0.490608 0.000000
1.000000 0.539483 0.000000
1.000000 0.591424 0.000000
1.000000 0.633082 0.000000
1.000000 0.665278 0.000000
1.000000 0.567254 0.000000
1.000000 0.569451 0.000000
1.000000 0.579522 0.000000
1.000000 0.597833 0.000000
1.000000 0.607477 0.000000
1.000000 0.634516 0.000000
1.000000 0.659937 0.000000
1.000000 0.683070 0.000000
0.135622 0.133120 0.131044
0.139773 0.135775 0.131106
0.112459 0.133303 0.138247
0.196872 0.151064 0.130678
0.379767 0.195377 0.111757
0.720851 0.240818 0.000000
1.000000 0.335882 0.000000
1.000000 0.462989 0.000000
0.140200 0.134493 0.132540
0.132906 0.132906 0.132906
0.118746 0.132998 0.137697
0.205661 0.153475 0.130220
0.380743 0.199069 0.110842
0.702480 0.244388 0.000000
1.000000 0.323461 0.000000
1.000000 0.449928 0.000000
0.115724 0.132113 0.135744
0.121614 0.133486 0.136416
0.166964 0.143587 0.135500
0.270848 0.171359 0.125368
0.444343 0.219059 0.094087
0.766018 0.282933 0.000000
1.000000 0.389075 0.000000
1.000000 0.505364 0.000000
0.198947 0.149386 0.133883
0.209751 0.152071 0.132815
0.264408 0.164797 0.126253
0.397467 0.200290 0.108583
0.633082 0.252262 0.000000
0.899504 0.338689 0.000000
1.000000 0.477455 0.000000
1.000000 0.558618 0.000000
0.402808 0.191348 0.110323
0.414008 0.194034 0.108156
0.477455 0.207767 0.093385
0.626398 0.236149 0.000000
0.839536 0.292699 0.000000
1.000000 0.403265 0.000000
1.000000 0.536370 0.000000
1.000000 0.629206 0.000000
0.728023 0.234714 0.000000
0.745815 0.238529 0.000000
0.813046 0.256382 0.000000
0.933043 0.306523 0.000000
1.000000 0.399664 0.000000
1.000000 0.516564 0.000000
1.000000 0.600793 0.000000
1.000000 0.652674 0.000000
1.000000 0.375586 0.000000
1.000000 0.376715 0.000000
1.000000 0.399115 0.000000
1.000000 0.450446 0.000000
1.000000 0.514794 0.000000
1.000000 0.574670 0.000000
1.000000 0.620264 0.000000
1.000000 0.655787 0.000000
1.000000 0.551568 0.000000
1.000000 0.556390 0.000000
1.000000 0.567193 0.000000
1.000000 0.587854 0.000000
1.000000 0.611383 0.000000
1.000000 0.634455 0.000000
1.000000 0.657740 0.000000
1.000000 0.680842 0.000000
0.109499 0.141573 0.161685
0.111116 0.142214 0.159152
0.107332 0.134676 0.158480
0.208164 0.132021 0.142092
0.385229 0.183749 0.101534
0.740261 0.273320 0.000000
1.000000 0.433326 0.000000
1.000000 0.538750 0.000000
0.107576 0.139498 0.154574
0.101839 0.137606 0.154879
0.116915 0.135958 0.154086
0.210544 0.141085 0.138308
0.384649 0.189883 0.099275
0.709926 0.273045 0.000000
1.000000 0.416327 0.000000
1.000000 0.529290 0.000000
0.106966 0.143008 0.152346
0.114839 0.144137 0.152316
0.151400 0.151400 0.151400
0.260502 0.172366 0.130648
0.469062 0.220005 0.058656
0.794461 0.292271 0.000000
1.000000 0.444862 0.000000
1.000000 0.559777 0.000000
0.212467 0.173220 0.141390
0.219638 0.169009 0.140261
0.268101 0.166751 0.130587
0.411780 0.199374 0.100801
0.657465 0.246006 0.000000
0.929564 0.337743 0.000000
1.000000 0.492958 0.000000
1.000000 0.609247 0.000000
0.408789 0.186435 0.108125
0.422431 0.189059 0.104189
0.488197 0.200778 0.076783
0.643000 0.225925 0.000000
0.863432 0.284184 0.000000
1.000000 0.398230 0.000000
1.000000 0.530480 0.000000
1.000000 0.625788 0.000000
0.718654 0.215183 0.000000
0.738552 0.218753 0.000000
0.800656 0.234714 0.000000
0.911406 0.279942 0.000000
1.000000 0.370916 0.000000
1.000000 0.492805 0.000000
1.000000 0.588067 0.000000
1.000000 0.647578 0.000000
1.000000 0.367681 0.000000
1.000000 0.370031 0.000000
1.000000 0.389593 0.000000
1.000000 0.437079 0.000000
1.000000 0.501305 0.000000
1.000000 0.566583 0.000000
1.000000 0.617548 0.000000
1.000000 0.655695 0.000000
1.000000 0.540764 0.000000
1.000000 0.542351 0.000000
1.000000 0.553796 0.000000
1.000000 0.578729 0.000000
1.000000 0.603906 0.000000
1.000000 0.630030 0.000000
1.000000 0.655024 0.000000
1.000000 0.679408 0.000000
0.000000 0.200320 0.311925
0.000000 0.205081 0.314153
0.000000 0.206821 0.307713
0.035920 0.218418 0.307866
0.269535 0.263279 0.285100
0.676600 0.264958 0.230655
0.990753 0.388067 0.000000
1.000000 0.548760 0.000000
0.000000 0.211307 0.310185
0.000000 0.211582 0.311131
0.000000 0.212863 0.309697
0.102235 0.227390 0.311528
0.299443 0.262791 0.302861
0.689448 0.279393 0.227573
0.991394 0.398810 0.000000
1.000000 0.554528 0.000000
0.000000 0.218753 0.298161
0.000000 0.219821 0.297673
0.000000 0.225010 0.295689
0.186130 0.247440 0.302068
0.431983 0.271275 0.296941
0.781308 0.355657 0.220279
1.000000 0.509300 0.000000
1.000000 0.610315 0.000000
0.000000 0.264988 0.307439
0.039612 0.267185 0.306920
0.177432 0.281346 0.308873
0.313787 0.313787 0.313787
0.562554 0.352483 0.266087
0.862303 0.417304 0.158816
1.000000 0.522240 0.000000
1.000000 0.604669 0.000000
0.375433 0.409277 0.327367
0.420630 0.417304 0.322759
0.477668 0.381903 0.305547
0.613397 0.355230 0.277165
0.846952 0.406561 0.205936
1.000000 0.481056 0.000000
1.000000 0.561975 0.000000
1.000000 0.616266 0.000000
0.743557 0.406592 0.241398
0.775692 0.412207 0.245121
0.825132 0.371893 0.221836
0.931914 0.400702 0.159731
1.000000 0.457527 0.000000
1.000000 0.527428 0.000000
1.000000 0.585718 0.000000
1.000000 0.638788 0.000000
1.000000 0.401404 0.000000
1.000000 0.408301 0.000000
1.000000 0.429114 0.000000
1.000000 0.467048 0.000000
1.000000 0.511803 0.000000
1.000000 0.558038 0.000000
1.000000 0.608270 0.000000
1.000000 0.649866 0.000000
1.000000 0.525109 0.000000
1.000000 0.528008 0.000000
1.000000 0.540307 0.000000
1.000000 0.563256 0.000000
1.000000 0.590906 0.000000
1.000000 0.619837 0.000000
1.000000 0.647974 0.000000
1.000000 0.676112 0.000000
0.000000 0.321202 0.594263
0.000000 0.327489 0.598413
0.000000 0.334325 0.584985
0.000000 0.364843 0.612665
0.000000 0.410437 0.625879
0.475319 0.507042 0.554925
0.922484 0.449744 0.525414
1.000000 0.619623 0.408728
0.000000 0.335210 0.594171
0.000000 0.341833 0.599847
0.000000 0.350652 0.603113
0.000000 0.375952 0.617578
0.000000 0.418402 0.624994
0.489784 0.514977 0.554925
0.928496 0.468391 0.522759
1.000000 0.626886 0.403693
0.000000 0.365698 0.599725
0.000000 0.369451 0.603235
0.000000 0.377081 0.602655
0.000000 0.394232 0.598352
0.178470 0.427680 0.592065
0.508965 0.511162 0.515831
0.936584 0.511437 0.489998
1.000000 0.636469 0.358373
0.000000 0.406287 0.591058
0.000000 0.408179 0.589593
0.000000 0.421973 0.591241
0.000000 0.450355 0.594202
0.380163 0.494209 0.594751
0.723232 0.516503 0.573632
0.988281 0.621302 0.476631
1.000000 0.693782 0.313176
0.000000 0.489387 0.585626
0.000000 0.494484 0.587396
0.000000 0.509361 0.587274
0.355657 0.540459 0.588190
0.584771 0.584771 0.584771
0.860990 0.629114 0.511345
1.000000 0.684169 0.396857
1.000000 0.707454 0.147005
0.402380 0.585718 0.540703
0.421424 0.592615 0.542992
0.498207 0.632166 0.537102
0.729641 0.639277 0.534905
0.863951 0.577966 0.467445
1.000000 0.660548 0.422004
1.000000 0.704463 0.295384
1.000000 0.693721 0.000000
0.961547 0.764279 0.540246
0.963256 0.750668 0.522637
0.977600 0.700496 0.466224
1.000000 0.630762 0.401495
1.000000 0.639857 0.323888
1.000000 0.657862 0.172915
1.000000 0.660792 0.000000
1.000000 0.639429 0.000000
1.000000 0.638575 0.000000
1.000000 0.629419 0.000000
1.000000 0.593408 0.000000
1.000000 0.585077 0.000000
1.000000 0.590112 0.000000
1.000000 0.595178 0.000000
1.000000 0.629969 0.000000
1.000000 0.661707 0.000000
0.000000 0.561242 0.914488
0.000000 0.569451 0.916960
0.000000 0.572869 0.905364
0.000000 0.596277 0.902037
0.000000 0.628443 0.892973
0.313542 0.680232 0.881529
0.744137 0.792905 0.852537
0.979461 0.783932 0.879271
0.000000 0.533898 0.882353
0.000000 0.535271 0.880064
0.000000 0.541985 0.872068
0.000000 0.562066 0.870420
0.000000 0.598718 0.867521
0.275822 0.656031 0.862394
0.725734 0.774533 0.834958
0.983276 0.762722 0.860014
0.000000 0.586419 0.891539
0.000000 0.586419 0.889647
0.000000 0.593347 0.886625
0.000000 0.594659 0.870298
0.000000 0.627680 0.864744
0.408576 0.684382 0.860136
0.761135 0.792966 0.836271
0.995331 0.790982 0.852750
0.000000 0.638056 0.888060
0.000000 0.636469 0.884733
0.000000 0.646204 0.881834
0.000000 0.682094 0.888457
0.000000 0.720455 0.885679
0.619745 0.765133 0.877531
0.835904 0.843259 0.855955
1.000000 0.850401 0.858549
0.000000 0.672175 0.855894
0.000000 0.673884 0.854887
0.000000 0.684138 0.853269
0.000000 0.709438 0.853819
0.438911 0.740841 0.850431
0.708461 0.780545 0.845762
0.913634 0.809354 0.845518
1.000000 0.855222 0.802090
0.000000 0.748104 0.835874
0.000000 0.757626 0.841276
0.297124 0.764431 0.838895
0.491524 0.779171 0.836118
0.671656 0.800565 0.832425
0.844785 0.844785 0.844785
0.992706 0.874388 0.819120
1.000000 0.870756 0.745418
0.684321 0.871061 0.859586
0.700435 0.875090 0.862516
0.742794 0.874632 0.857053
0.815030 0.892668 0.860105
0.945922 0.913176 0.869383
1.000000 0.862333 0.805844
1.000000 0.860014 0.747311
1.000000 0.824887 0.584253
0.999023 0.961273 0.893553
1.000000 0.957488 0.886534
1.000000 0.943328 0.862852
1.000000 0.910033 0.809964
1.000000 0.831968 0.682033
1.000000 0.791867 0.555993
1.000000 0.754849 0.353155
1.000000 0.695521 0.000000
0.000000 0.699428 0.989960
0.000000 0.703304 0.990265
0.000000 0.709773 0.988037
0.000000 0.727321 0.985107
0.000000 0.758724 0.980316
0.226230 0.800534 0.972900
0.686061 0.845304 0.964324
0.880400 0.912383 0.951171
0.000000 0.695430 0.985290
0.000000 0.699794 0.985840
0.000000 0.706416 0.983764
0.000000 0.721950 0.980133
0.000000 0.751980 0.975463
0.141451 0.791379 0.967742
0.665309 0.834806 0.958618
0.869688 0.903624 0.944579
0.000000 0.720119 0.983978
0.000000 0.721553 0.983520
0.000000 0.726711 0.981048
0.000000 0.743801 0.978149
0.000000 0.770016 0.972808
0.349401 0.807340 0.965850
0.713863 0.851621 0.959472
0.890929 0.916747 0.949310
0.000000 0.761288 0.982361
0.000000 0.760616 0.981018
0.000000 0.766384 0.978820
0.000000 0.783291 0.976287
0.000000 0.807248 0.971191
0.544762 0.839872 0.965576
0.782406 0.878111 0.960632
0.915038 0.930755 0.952148
0.000000 0.800107 0.973602
0.000000 0.799619 0.972473
0.000000 0.804013 0.970459
0.000000 0.816739 0.968505
0.353857 0.836759 0.964477
0.656153 0.862943 0.959350
0.831266 0.895628 0.955535
0.938903 0.943908 0.952117
0.000000 0.851377 0.965240
0.000000 0.852750 0.965179
0.236545 0.857572 0.964477
0.453376 0.866911 0.963287
0.628748 0.880766 0.961242
0.785916 0.903502 0.959747
0.902922 0.930175 0.958160
0.983398 0.946593 0.961089
0.633326 0.907591 0.960937
0.645747 0.909087 0.961303
0.680323 0.912139 0.960571
0.741817 0.918853 0.959564
0.815091 0.928374 0.957641
0.891569 0.941619 0.956146
0.958129 0.958099 0.958099
1.000000 0.963317 0.943999
0.851560 0.962982 0.965332
0.855741 0.963592 0.965393
0.874815 0.966796 0.966278
0.900938 0.970275 0.965423
0.938079 0.972992 0.962615
0.993896 0.984802 0.971069
1.000000 0.957061 0.936858
1.000000 0.941894 0.899870
0.000000 0.844816 1.000000
0.000000 0.846098 1.000000
0.000000 0.846433 1.000000
0.000000 0.851530 1.000000
0.274510 0.866545 1.000000
0.634699 0.895079 1.000000
0.810513 0.926818 1.000000
0.909361 0.953948 0.998413
0.000000 0.841825 1.000000
0.000000 0.843229 1.000000
0.000000 0.844816 1.000000
0.000000 0.849424 1.000000
0.261234 0.865690 1.000000
0.629206 0.893889 1.000000
0.805295 0.924895 1.000000
0.906523 0.952361 0.997894
0.000000 0.846189 1.000000
0.000000 0.846891 1.000000
0.000000 0.847990 1.000000
0.000000 0.855222 1.000000
0.380987 0.873869 1.000000
0.656977 0.899229 1.000000
0.818082 0.928985 1.000000
0.913329 0.955322 0.997498
0.000000 0.855711 1.000000
0.000000 0.856718 1.000000
0.000000 0.858396 1.000000
0.000000 0.868589 1.000000
0.511986 0.888029 1.000000
0.714748 0.912047 1.000000
0.847440 0.939117 1.000000
0.928771 0.962615 0.997253
0.000000 0.870054 1.000000
0.000000 0.871489 1.000000
0.000000 0.874571 1.000000
0.371649 0.885435 1.000000
0.601831 0.902373 1.000000
0.761440 0.924437 1.000000
0.875303 0.949493 0.999573
0.946258 0.971099 0.996979
0.469886 0.903075 1.000000
0.474800 0.903105 1.000000
0.509667 0.904631 1.000000
0.587366 0.910124 1.000000
0.690089 0.920806 1.000000
0.822019 0.942992 1.000000
0.916014 0.966003 0.999084
0.965209 0.980499 0.996796
0.735683 0.940795 1.000000
0.739345 0.941192 1.000000
0.755917 0.943084 1.000000
0.791653 0.948089 1.000000
0.840513 0.956054 1.000000
0.895903 0.967132 0.999756
0.944762 0.978363 0.997803
0.981170 0.988342 0.996094
0.882475 0.974304 0.999817
0.883970 0.974517 0.999725
0.892241 0.975860 0.999390
0.909331 0.978882 0.998901
0.931395 0.982879 0.998138
0.955566 0.987457 0.997162
0.978851 0.992187 0.996338
0.996399 0.996399 0.996399
