20 Preset/City Style/【3】LUT video cho PR-AE-FCPX/TONE 1/Colors Change Taxi_ Reflection.cube
# Created by Adobe Lightroom plugin Export LUT (1.24.0)
# www.johnrellis.com/lightroom/exportlut.htm
# Preset: Colors Change Taxi, Reflection
# Color profile: E:\lut插件\exportlut.1.24\exportlut.lrplugin\color profiles\Rec709gamma2.4.icc
LUT_3D_SIZE 8
DOMAIN_MIN 0.000000 0.000000 0.000000
DOMAIN_MAX 0.903226 0.903226 0.903226
0.109010 0.117922 0.116487
0.107485 0.117220 0.115999
0.158694 0.118532 0.113985
0.308049 0.121096 0.109773
0.528740 0.108339 0.106020
0.768185 0.105379 0.120089
0.982391 0.245365 0.212863
1.000000 0.395270 0.336461
0.107881 0.116915 0.115419
0.111208 0.118868 0.115694
0.161868 0.124697 0.112978
0.290990 0.131777 0.108064
0.493416 0.130831 0.102052
0.726558 0.129641 0.109010
0.945953 0.219547 0.177646
1.000000 0.356603 0.291997
0.138766 0.144045 0.132662
0.133059 0.139986 0.139101
0.212772 0.188022 0.095827
0.366400 0.199283 0.073060
0.555749 0.202609 0.043030
0.817746 0.233585 0.053040
0.993591 0.320165 0.190524
1.000000 0.431128 0.320806
0.256748 0.250706 0.217838
0.248417 0.242710 0.224491
0.311803 0.282353 0.186709
0.511711 0.417945 0.000000
0.743374 0.442176 0.000000
0.914977 0.396948 0.000000
1.000000 0.423377 0.141848
1.000000 0.482216 0.286687
0.464240 0.446662 0.383520
0.457618 0.439429 0.390417
0.432715 0.420722 0.427802
0.639002 0.556359 0.209720
0.760922 0.626825 0.000000
0.878660 0.599878 0.000000
1.000000 0.533410 0.000000
1.000000 0.540337 0.184207
0.654566 0.633875 0.559564
0.667109 0.646082 0.581781
0.654139 0.634058 0.604974
0.695735 0.658350 0.574426
0.844297 0.740688 0.257694
0.906645 0.761013 0.000000
0.982727 0.740200 0.000000
1.000000 0.679408 0.000000
0.790372 0.773953 0.719692
0.791531 0.775082 0.725093
0.784634 0.768002 0.733455
0.769467 0.756802 0.752682
0.843320 0.796872 0.659693
0.946166 0.838804 0.340673
0.990478 0.842191 0.000000
1.000000 0.826719 0.000000
0.882811 0.871916 0.832303
0.882200 0.871214 0.833371
0.880674 0.869566 0.839414
0.877440 0.867582 0.852354
0.871000 0.855833 0.827451
0.939452 0.893858 0.748562
1.000000 0.919463 0.462135
1.000000 0.913634 0.000000
0.108156 0.117159 0.115694
0.109071 0.117037 0.116609
0.153475 0.114382 0.115023
0.269474 0.120607 0.121584
0.466285 0.129549 0.138766
0.698817 0.135317 0.157748
0.916869 0.218662 0.216373
1.000000 0.345434 0.308263
0.106630 0.118441 0.115846
0.109834 0.118654 0.117250
0.152590 0.123507 0.119661
0.272557 0.132876 0.124331
0.467689 0.141238 0.133211
0.701106 0.152071 0.151522
0.900145 0.215000 0.199527
1.000000 0.324590 0.281193
0.146517 0.153811 0.135836
0.145022 0.149905 0.142275
0.201236 0.180575 0.105409
0.339940 0.183932 0.107210
0.516289 0.196536 0.109804
0.754696 0.224186 0.128756
0.929259 0.281071 0.189181
1.000000 0.381384 0.289982
0.248417 0.245151 0.207706
0.244297 0.239628 0.214786
0.277043 0.258762 0.208469
0.436408 0.358862 0.000000
0.631952 0.368566 0.000000
0.822599 0.346624 0.000000
0.952270 0.371893 0.132082
1.000000 0.431617 0.250278
0.455451 0.439887 0.371466
0.446967 0.430274 0.375586
0.419745 0.406439 0.404852
0.581109 0.508690 0.233555
0.703792 0.577996 0.000000
0.836423 0.560479 0.000000
0.974914 0.504997 0.000000
1.000000 0.516564 0.179904
0.632166 0.612390 0.532097
0.630915 0.610407 0.538903
0.620020 0.599451 0.564538
0.653529 0.620356 0.555627
0.817655 0.717006 0.264988
0.890715 0.746731 0.000000
0.970397 0.725399 0.000000
1.000000 0.664729 0.000000
0.773312 0.756374 0.695949
0.769284 0.751919 0.694881
0.761501 0.743526 0.703548
0.748074 0.733974 0.727535
0.826047 0.779782 0.645930
0.932219 0.825528 0.333043
0.975067 0.827573 0.000000
1.000000 0.810697 0.000000
0.872190 0.860777 0.817838
0.873655 0.862181 0.821530
0.871702 0.860044 0.827329
0.868772 0.858213 0.841093
0.877287 0.864012 0.841093
0.939147 0.895811 0.759396
1.000000 0.917754 0.478584
1.000000 0.911772 0.000000
0.105470 0.117281 0.150271
0.111147 0.116396 0.155947
0.164004 0.107332 0.175296
0.341253 0.000000 0.129824
0.539757 0.000000 0.142092
0.769497 0.072450 0.209476
0.940856 0.292088 0.323583
1.000000 0.466773 0.457557
0.108797 0.126650 0.155398
0.114900 0.126375 0.160769
0.167117 0.116243 0.178103
0.336309 0.026795 0.129641
0.518456 0.065187 0.162081
0.750423 0.168246 0.231540
0.917876 0.310918 0.331212
1.000000 0.455482 0.442939
0.060273 0.185428 0.158145
0.100801 0.186770 0.164675
0.187015 0.189670 0.195041
0.328283 0.211917 0.212436
0.538201 0.246525 0.242344
0.774319 0.300847 0.289830
0.927672 0.376715 0.350896
1.000000 0.475563 0.433539
0.286870 0.317510 0.224979
0.301122 0.319310 0.246525
0.313115 0.305516 0.294682
0.454078 0.381201 0.127047
0.668940 0.375647 0.184146
0.838041 0.394263 0.253788
0.955810 0.442481 0.322911
1.000000 0.513390 0.409186
0.499794 0.498604 0.397040
0.498695 0.493141 0.404028
0.491035 0.474830 0.436683
0.564294 0.517357 0.396246
0.722286 0.600183 0.000000
0.855039 0.560449 0.000000
0.970367 0.523308 0.239567
1.000000 0.562707 0.348547
0.657557 0.645014 0.548882
0.658778 0.644495 0.556542
0.652735 0.633631 0.578607
0.627131 0.613611 0.620569
0.791043 0.708705 0.409644
0.880919 0.743191 0.000000
0.970123 0.716274 0.000000
1.000000 0.673610 0.201755
0.790249 0.776699 0.710994
0.787442 0.773190 0.710628
0.779690 0.763607 0.715785
0.767178 0.751827 0.734401
0.810697 0.777035 0.694392
0.918456 0.826993 0.465858
0.975982 0.834287 0.000000
1.000000 0.814633 0.000000
0.877531 0.867430 0.820157
0.876097 0.865690 0.820035
0.874388 0.863310 0.825437
0.874846 0.864103 0.842008
0.868833 0.860624 0.855680
0.932799 0.896605 0.787594
1.000000 0.921324 0.579339
1.000000 0.915740 0.000000
0.084901 0.126284 0.261234
0.098878 0.125673 0.271946
0.156924 0.116213 0.294194
0.305577 0.001648 0.332616
0.565789 0.000000 0.283391
0.835569 0.000000 0.168612
0.967010 0.000000 0.264988
1.000000 0.333745 0.391516
0.104891 0.150423 0.281437
0.116487 0.148684 0.287205
0.167849 0.136995 0.306462
0.317906 0.057313 0.344060
0.581231 0.000000 0.281285
0.836118 0.000000 0.194736
0.959899 0.000336 0.290532
1.000000 0.370001 0.413367
0.153140 0.215854 0.292149
0.176455 0.218235 0.295567
0.212924 0.221897 0.321080
0.334691 0.183993 0.353094
0.638453 0.000000 0.268040
0.842222 0.211429 0.323705
0.956481 0.401984 0.439216
1.000000 0.540673 0.542870
0.000000 0.385046 0.302556
0.000000 0.384985 0.309392
0.202701 0.389929 0.343328
0.407233 0.398444 0.414221
0.609339 0.436591 0.442176
0.785336 0.485512 0.479377
0.905882 0.549279 0.530938
0.982666 0.620722 0.592401
0.485420 0.597131 0.379095
0.497017 0.591760 0.394751
0.546777 0.581933 0.464851
0.581201 0.566064 0.552148
0.721187 0.627497 0.348547
0.856016 0.587884 0.407599
0.942687 0.608667 0.496712
1.000000 0.653346 0.560723
0.703914 0.717037 0.605188
0.715511 0.724331 0.621912
0.716793 0.712856 0.635004
0.714046 0.698024 0.667872
0.765927 0.724880 0.625422
0.874235 0.757809 0.308629
0.969207 0.718166 0.241337
1.000000 0.710903 0.491249
0.807858 0.803677 0.727199
0.808927 0.803616 0.730617
0.809384 0.800015 0.740658
0.806546 0.792996 0.759396
0.797574 0.784878 0.776852
0.895903 0.835264 0.642359
0.967895 0.843015 0.297795
1.000000 0.814237 0.000000
0.892241 0.886412 0.832151
0.891905 0.885679 0.833066
0.890990 0.883177 0.837736
0.889250 0.879637 0.848569
0.881956 0.873442 0.863645
0.920104 0.895689 0.829587
0.992126 0.924620 0.694301
1.000000 0.923156 0.386816
0.000000 0.161563 0.445289
0.000000 0.161257 0.455085
0.152438 0.150515 0.472358
0.275578 0.109621 0.505730
0.511192 0.000000 0.550622
0.812192 0.000000 0.500511
1.000000 0.000000 0.267887
1.000000 0.000000 0.314733
0.060914 0.193210 0.463447
0.101991 0.192782 0.473213
0.177493 0.180514 0.488533
0.287266 0.141329 0.512779
0.523949 0.000000 0.561059
0.819883 0.000000 0.501427
1.000000 0.000000 0.265232
1.000000 0.000000 0.339178
0.199161 0.283177 0.485817
0.217960 0.287968 0.492042
0.252171 0.277073 0.503349
0.333684 0.248569 0.533562
0.545342 0.155245 0.571893
0.817960 0.000000 0.484871
0.993347 0.000000 0.321721
1.000000 0.298802 0.421302
0.205997 0.423407 0.527337
0.244633 0.423438 0.528832
0.362768 0.430793 0.538933
0.446296 0.442084 0.572107
0.594568 0.389197 0.602747
0.844511 0.346960 0.494972
0.945495 0.451057 0.512444
0.998291 0.567956 0.588556
0.000000 0.616632 0.485237
0.000000 0.618067 0.492592
0.226474 0.618769 0.518395
0.448585 0.619135 0.566400
0.627832 0.615045 0.624567
0.762295 0.639826 0.640131
0.867582 0.674922 0.665858
0.946227 0.714992 0.697688
0.575097 0.732326 0.483009
0.586664 0.731319 0.496071
0.623316 0.722011 0.538842
0.685084 0.713436 0.619562
0.711482 0.697261 0.685115
0.821988 0.748013 0.554711
0.920348 0.731930 0.601343
0.982849 0.754269 0.674403
0.793301 0.822324 0.705104
0.793729 0.819974 0.707271
0.800259 0.814817 0.723049
0.812802 0.810941 0.751705
0.813565 0.801511 0.778836
0.851499 0.820920 0.746822
0.935973 0.839658 0.521630
1.000000 0.803922 0.415442
0.884703 0.889982 0.816220
0.884703 0.889036 0.816953
0.885344 0.885954 0.821347
0.891997 0.887175 0.839170
0.890929 0.882017 0.856352
0.890898 0.881102 0.867338
0.964385 0.917571 0.773159
1.000000 0.920745 0.548852
0.078401 0.245518 0.667597
0.122560 0.244968 0.672450
0.205386 0.232425 0.677058
0.314733 0.202640 0.691859
0.462501 0.126406 0.726040
0.726955 0.000000 0.751797
0.964233 0.000000 0.684504
1.000000 0.000000 0.494087
0.142367 0.264866 0.653925
0.160739 0.262242 0.655573
0.221500 0.250156 0.662745
0.320409 0.224430 0.682246
0.455085 0.157534 0.710811
0.713466 0.000000 0.738308
0.952361 0.000000 0.672633
1.000000 0.000000 0.485145
0.310857 0.384802 0.685908
0.316381 0.381933 0.687587
0.345678 0.372290 0.696895
0.395941 0.338323 0.702998
0.497993 0.285771 0.721248
0.730465 0.149477 0.744869
0.957275 0.000000 0.675410
1.000000 0.000000 0.496223
0.455207 0.526268 0.705226
0.459510 0.525597 0.705409
0.492195 0.535088 0.714961
0.547875 0.542535 0.735500
0.604273 0.503075 0.751736
0.770748 0.437995 0.768032
0.959319 0.412116 0.696620
1.000000 0.403388 0.547570
0.372564 0.646479 0.711818
0.396490 0.645472 0.712062
0.483406 0.644434 0.714778
0.604486 0.651942 0.721798
0.667018 0.656092 0.737057
0.759335 0.611902 0.752285
0.925170 0.597101 0.683619
0.997711 0.650782 0.682155
0.279881 0.767361 0.637263
0.325994 0.770565 0.646204
0.416938 0.767758 0.660395
0.538293 0.763607 0.686519
0.657801 0.758297 0.719448
0.773922 0.763058 0.764767
0.863706 0.786374 0.782040
0.937041 0.808927 0.799039
0.713466 0.858457 0.648554
0.722377 0.859220 0.658473
0.745174 0.856016 0.683406
0.782742 0.850278 0.726162
0.824430 0.843076 0.778988
0.841032 0.831540 0.820432
0.903471 0.852537 0.727871
0.976135 0.836484 0.738796
0.863401 0.908476 0.787076
0.863981 0.907073 0.788205
0.870298 0.904631 0.798734
0.884855 0.903441 0.823423
0.897917 0.899321 0.850797
0.899260 0.891661 0.873136
0.932403 0.909819 0.850217
0.996948 0.923400 0.704921
0.309789 0.360937 0.795804
0.318456 0.359747 0.797269
0.351263 0.352361 0.802090
0.410803 0.333165 0.810849
0.492805 0.289036 0.820584
0.603174 0.194156 0.831968
0.840085 0.000000 0.845792
1.000000 0.000000 0.797024
0.342351 0.387854 0.796963
0.349432 0.386389 0.798276
0.375830 0.377539 0.802579
0.426337 0.355962 0.810056
0.502892 0.312840 0.819913
0.608789 0.226108 0.831296
0.840696 0.000000 0.844968
1.000000 0.000000 0.795743
0.444953 0.483009 0.800534
0.447944 0.480690 0.801358
0.461830 0.470314 0.804776
0.492866 0.447944 0.811337
0.548638 0.407568 0.820554
0.637201 0.337072 0.831968
0.847929 0.213016 0.845853
1.000000 0.000000 0.796201
0.556634 0.600916 0.801846
0.561120 0.601373 0.801633
0.584131 0.607355 0.805112
0.596063 0.589105 0.811215
0.625238 0.555810 0.820157
0.685969 0.500175 0.831754
0.854826 0.431678 0.845640
1.000000 0.399512 0.796689
0.621607 0.690181 0.800381
0.629999 0.691310 0.800381
0.659571 0.696620 0.801480
0.679927 0.701106 0.809934
0.706447 0.696498 0.819364
0.737179 0.660060 0.829679
0.853758 0.613611 0.843107
0.995880 0.600793 0.798459
0.559869 0.791592 0.817472
0.570550 0.790951 0.817807
0.610956 0.788205 0.819028
0.676173 0.784085 0.821256
0.751217 0.782925 0.824369
0.791958 0.783169 0.834318
0.854429 0.753689 0.845731
0.978546 0.745846 0.802670
0.534203 0.868101 0.758968
0.544152 0.867826 0.761074
0.580835 0.866453 0.769039
0.642329 0.864134 0.783841
0.715969 0.861357 0.804379
0.791897 0.859068 0.829221
0.865476 0.858335 0.857481
0.932769 0.872129 0.867094
0.773678 0.934356 0.724788
0.777829 0.933959 0.729122
0.795010 0.932494 0.747005
0.824735 0.929595 0.778103
0.862699 0.925383 0.818753
0.901274 0.920287 0.864866
0.917693 0.912047 0.902129
0.969574 0.930236 0.832425
0.586389 0.579644 0.897154
0.588464 0.578088 0.897673
0.595880 0.569574 0.899596
0.612634 0.551598 0.903655
0.642023 0.518486 0.909758
0.689845 0.462104 0.917845
0.762936 0.365301 0.927642
0.950805 0.228336 0.937041
0.600244 0.595972 0.896147
0.602014 0.594293 0.896696
0.608667 0.585962 0.898680
0.623468 0.567926 0.902708
0.650568 0.535332 0.908843
0.695857 0.480262 0.916991
0.766384 0.385931 0.926848
0.950469 0.262364 0.936309
0.647883 0.652552 0.893767
0.648951 0.650965 0.894224
0.653101 0.643366 0.896117
0.664027 0.628229 0.900237
0.684108 0.599420 0.906188
0.720302 0.550225 0.914366
0.781613 0.467079 0.924620
0.949859 0.374609 0.934600
0.709773 0.726741 0.891112
0.710262 0.725551 0.891600
0.712245 0.719966 0.893339
0.717922 0.708309 0.897032
0.730556 0.687007 0.902708
0.756283 0.650568 0.910460
0.804593 0.588037 0.920653
0.945892 0.520378 0.931365
0.742702 0.773861 0.888365
0.744045 0.774014 0.888945
0.748959 0.773983 0.891173
0.769039 0.781277 0.895232
0.776059 0.768368 0.900328
0.790951 0.743282 0.907378
0.826017 0.700893 0.916777
0.938781 0.653071 0.927733
0.748836 0.825620 0.893736
0.752529 0.825620 0.893706
0.767819 0.825834 0.893767
0.795773 0.827512 0.894041
0.813077 0.828183 0.899382
0.829862 0.823819 0.907500
0.850370 0.797513 0.916045
0.933684 0.764279 0.926604
0.694392 0.898405 0.906279
0.699031 0.897795 0.906401
0.718166 0.895293 0.906920
0.753201 0.890837 0.908110
0.800717 0.885313 0.909880
0.854795 0.882078 0.912139
0.884916 0.880278 0.919646
0.934081 0.855772 0.929168
0.673091 0.949859 0.852140
0.677394 0.949645 0.853147
0.695003 0.948852 0.857542
0.727687 0.947478 0.866148
0.772671 0.945586 0.879057
0.825986 0.943481 0.895903
0.884154 0.941833 0.916533
0.944549 0.941436 0.940642
