20 Preset/City Style/【3】LUT video cho PR-AE-FCPX/TONE 1/Colors Change Night City.cube
# Created by Adobe Lightroom plugin Export LUT (1.24.0)
# www.johnrellis.com/lightroom/exportlut.htm
# Preset: Colors Change Night City
# Color profile: E:\lut插件\exportlut.1.24\exportlut.lrplugin\color profiles\Rec709gamma2.4.icc
LUT_3D_SIZE 5
DOMAIN_MIN 0.000000 0.000000 0.000000
DOMAIN_MAX 0.903226 0.903226 0.903226
0.004974 0.114534 0.114412
0.110933 0.129213 0.122835
0.306737 0.165011 0.134401
0.604700 0.267887 0.131594
0.937041 0.523674 0.170596
0.120943 0.155703 0.144717
0.188876 0.153231 0.134066
0.365667 0.186587 0.136660
0.653468 0.327092 0.132479
0.952361 0.567712 0.215122
0.408484 0.337255 0.231235
0.441932 0.335576 0.212650
0.653773 0.356634 0.157198
0.854307 0.458930 0.122347
0.996155 0.609033 0.266819
0.751919 0.663172 0.500053
0.772549 0.665705 0.488777
0.849332 0.666255 0.439399
0.969940 0.634607 0.338598
1.000000 0.677821 0.413947
0.933104 0.879118 0.820279
0.938903 0.878965 0.817746
0.952667 0.859434 0.779019
1.000000 0.854520 0.766934
1.000000 0.820523 0.727840
0.000000 0.151431 0.229770
0.000000 0.154604 0.220768
0.304082 0.194369 0.208530
0.587518 0.298894 0.204440
0.876585 0.486854 0.144717
0.078981 0.185946 0.224887
0.150576 0.202670 0.226505
0.344335 0.242618 0.221622
0.614801 0.343450 0.206882
0.888182 0.521721 0.170474
0.374426 0.366033 0.327276
0.413428 0.367803 0.304448
0.583825 0.350500 0.228702
0.794522 0.426215 0.170260
0.983734 0.594903 0.245121
0.742611 0.665034 0.523705
0.766018 0.668055 0.509911
0.847135 0.661738 0.433021
0.963684 0.628901 0.330205
1.000000 0.673274 0.403204
0.931579 0.877379 0.817868
0.936889 0.876616 0.814359
0.961181 0.875608 0.805417
1.000000 0.864897 0.785245
1.000000 0.832486 0.750118
0.000000 0.319799 0.650965
0.000000 0.324834 0.642451
0.000000 0.325597 0.595789
0.555230 0.354711 0.563348
0.869627 0.585290 0.598993
0.000000 0.385962 0.661860
0.000000 0.389258 0.647456
0.000000 0.383185 0.605829
0.604822 0.432227 0.539513
0.878691 0.617884 0.609735
0.281529 0.517327 0.643763
0.332555 0.527031 0.639887
0.481910 0.572808 0.634913
0.700404 0.622156 0.624506
0.907622 0.692439 0.616846
0.671107 0.731289 0.761593
0.678492 0.727718 0.745510
0.758724 0.739040 0.715755
0.897093 0.711452 0.646906
1.000000 0.712825 0.579004
0.907744 0.874418 0.829709
0.915984 0.875334 0.826627
0.946960 0.872862 0.807950
0.998169 0.856840 0.770748
1.000000 0.819638 0.725856
0.000000 0.604120 0.905028
0.000000 0.612329 0.904723
0.000000 0.613397 0.893156
0.000000 0.599084 0.862272
0.536645 0.572656 0.831174
0.000000 0.634943 0.902861
0.000000 0.638178 0.899168
0.000000 0.634211 0.885649
0.000000 0.613214 0.852842
0.606989 0.597528 0.829770
0.000000 0.711727 0.897246
0.000000 0.711208 0.891997
0.312505 0.719142 0.877409
0.457038 0.690974 0.842924
0.826932 0.725490 0.844907
0.670405 0.807370 0.883146
0.676326 0.806607 0.879881
0.721401 0.817411 0.876158
0.796048 0.837919 0.869535
0.910674 0.855100 0.859648
0.887236 0.910033 0.928038
0.887419 0.910185 0.928191
0.897124 0.915129 0.925231
0.938476 0.917174 0.903532
1.000000 0.882689 0.855558
0.000000 0.756191 0.988067
0.000000 0.760891 0.986542
0.000000 0.768765 0.983398
0.000000 0.778012 0.976104
0.464240 0.783505 0.963745
0.000000 0.765621 0.985290
0.000000 0.770230 0.984009
0.000000 0.779141 0.980346
0.252171 0.785489 0.973053
0.496162 0.788876 0.961089
0.000000 0.806332 0.982330
0.000000 0.808743 0.980682
0.414740 0.822934 0.975341
0.526513 0.824125 0.967834
0.633173 0.825406 0.958343
0.660670 0.885679 0.979858
0.664759 0.885191 0.978912
0.697505 0.887724 0.976196
0.775601 0.898833 0.970672
0.818235 0.897032 0.962585
0.886564 0.939696 0.971527
0.888396 0.940124 0.971252
0.900359 0.944457 0.971527
0.919982 0.950835 0.970733
0.947539 0.958068 0.966552
