20 Preset/City Style/【3】LUT video cho PR-AE-FCPX/TONE 1/Colors Change Strangers _ Streets.cube
# Created by Adobe Lightroom plugin Export LUT (1.24.0)
# www.johnrellis.com/lightroom/exportlut.htm
# Preset: Colors Change Strangers & Streets
# Color profile: E:\lut插件\exportlut.1.24\exportlut.lrplugin\color profiles\Rec709gamma2.4.icc
LUT_3D_SIZE 8
DOMAIN_MIN 0.000000 0.000000 0.000000
DOMAIN_MAX 0.903226 0.903226 0.903226
0.111696 0.128878 0.122896
0.129946 0.130068 0.122377
0.121126 0.133791 0.128176
0.263005 0.144717 0.126741
0.665339 0.064393 0.043122
1.000000 0.392828 0.000000
1.000000 0.673396 0.000000
1.000000 0.754177 0.000000
0.120546 0.137087 0.131289
0.125765 0.135866 0.123781
0.116396 0.133974 0.129274
0.216617 0.150973 0.128450
0.554345 0.153475 0.080537
1.000000 0.354589 0.000000
1.000000 0.643122 0.000000
1.000000 0.749264 0.000000
0.115389 0.132692 0.126070
0.115633 0.132906 0.126284
0.138735 0.145602 0.131655
0.261357 0.154208 0.120516
0.574975 0.209842 0.020630
1.000000 0.552178 0.000000
1.000000 0.767269 0.000000
1.000000 0.818570 0.000000
0.162570 0.203494 0.175753
0.175967 0.196414 0.183627
0.178073 0.228092 0.139742
0.405615 0.310002 0.000000
0.733761 0.213474 0.000000
1.000000 0.575280 0.000000
1.000000 0.778286 0.000000
1.000000 0.863645 0.000000
0.380774 0.514244 0.371588
0.413977 0.504845 0.388739
0.445136 0.522393 0.390631
0.536950 0.632685 0.000000
0.796201 0.620386 0.000000
0.909880 0.309483 0.000000
1.000000 0.695888 0.000000
1.000000 0.822690 0.000000
0.715023 0.823117 0.725917
0.746761 0.840330 0.780545
0.785183 0.832547 0.848753
0.772763 0.867674 0.654841
0.882872 0.890898 0.074098
0.995056 0.861204 0.000000
1.000000 0.701534 0.000000
1.000000 0.797452 0.000000
0.858396 0.956512 1.000000
0.865995 0.957244 1.000000
0.881224 0.954162 1.000000
0.877256 0.957122 1.000000
0.883421 0.966339 0.887602
0.994476 0.971099 0.443336
1.000000 0.948150 0.000000
1.000000 0.862608 0.000000
0.953094 0.988556 1.000000
0.954070 0.988403 1.000000
0.958618 0.987945 1.000000
0.965545 0.987488 1.000000
0.944671 0.987915 1.000000
0.941985 0.992309 1.000000
1.000000 0.994018 0.837613
1.000000 0.976440 0.000000
0.109041 0.131044 0.133791
0.116548 0.133333 0.133364
0.113832 0.138094 0.133242
0.219699 0.140658 0.128176
0.541314 0.115694 0.092592
0.979706 0.290776 0.000000
1.000000 0.600244 0.000000
1.000000 0.724361 0.000000
0.121492 0.136751 0.132082
0.121584 0.136751 0.131807
0.115938 0.135622 0.131319
0.214176 0.144747 0.125093
0.517540 0.145907 0.088258
0.959106 0.308873 0.000000
1.000000 0.591394 0.000000
1.000000 0.722194 0.000000
0.113008 0.136721 0.126833
0.117098 0.135378 0.128267
0.140505 0.144503 0.125582
0.250034 0.154940 0.123232
0.536889 0.197757 0.031128
0.954253 0.461952 0.000000
1.000000 0.694026 0.000000
1.000000 0.789792 0.000000
0.145602 0.199710 0.166262
0.162081 0.195254 0.173739
0.175174 0.216220 0.155886
0.330327 0.259525 0.050202
0.587060 0.183322 0.039521
0.967285 0.427436 0.000000
1.000000 0.705287 0.000000
1.000000 0.834195 0.000000
0.336065 0.503838 0.349767
0.369635 0.490028 0.361852
0.433967 0.477211 0.395727
0.459876 0.567987 0.093904
0.715999 0.544732 0.000000
0.850095 0.258946 0.000000
1.000000 0.648676 0.000000
1.000000 0.805966 0.000000
0.671138 0.794278 0.660639
0.690394 0.793301 0.680568
0.745754 0.786679 0.756985
0.736324 0.828794 0.612360
0.849760 0.863859 0.089876
0.979553 0.841581 0.000000
1.000000 0.665766 0.000000
1.000000 0.786160 0.000000
0.835904 0.946197 0.984314
0.837583 0.943420 0.984405
0.852964 0.939055 0.997986
0.858701 0.943023 0.998108
0.872770 0.958160 0.856931
0.984192 0.964263 0.405402
1.000000 0.937896 0.000000
1.000000 0.842252 0.000000
0.944091 0.986603 1.000000
0.946929 0.986847 1.000000
0.952026 0.986236 1.000000
0.960662 0.985748 1.000000
0.952300 0.989349 1.000000
0.945129 0.992584 1.000000
1.000000 0.993713 0.844816
1.000000 0.976104 0.000000
0.114931 0.137667 0.144015
0.116426 0.138888 0.145388
0.115206 0.134890 0.147829
0.262943 0.100679 0.156527
0.694057 0.000000 0.120424
1.000000 0.206485 0.000000
1.000000 0.606439 0.000000
1.000000 0.738643 0.000000
0.113344 0.137484 0.146029
0.110750 0.136507 0.146822
0.109621 0.131411 0.149569
0.271305 0.105074 0.151827
0.652888 0.000000 0.122591
1.000000 0.259129 0.000000
1.000000 0.603601 0.000000
1.000000 0.739864 0.000000
0.100893 0.138125 0.155825
0.105074 0.140536 0.156863
0.150637 0.161563 0.159365
0.304082 0.186099 0.159426
0.703761 0.251530 0.124392
1.000000 0.509026 0.000000
1.000000 0.706416 0.000000
1.000000 0.794308 0.000000
0.000000 0.271855 0.230594
0.019409 0.282628 0.230381
0.246433 0.285954 0.254551
0.403326 0.328649 0.126223
0.759274 0.268742 0.000000
1.000000 0.588159 0.000000
1.000000 0.792325 0.000000
1.000000 0.868315 0.000000
0.233341 0.605982 0.389654
0.298528 0.602228 0.393988
0.507897 0.588830 0.466896
0.555535 0.642115 0.355077
0.783047 0.622766 0.000000
0.949645 0.359136 0.000000
1.000000 0.701534 0.000000
1.000000 0.833280 0.000000
0.638422 0.837064 0.678340
0.667079 0.837797 0.700771
0.740688 0.831113 0.771572
0.769986 0.840299 0.783505
0.841215 0.871061 0.409308
0.977752 0.847013 0.000000
1.000000 0.637873 0.000000
1.000000 0.796201 0.000000
0.837827 0.958831 0.995361
0.840818 0.957000 0.996155
0.856779 0.952300 1.000000
0.886656 0.948363 1.000000
0.868894 0.960235 0.947387
0.967559 0.967071 0.603601
1.000000 0.944244 0.000000
1.000000 0.843320 0.000000
0.943542 0.988312 1.000000
0.944182 0.987945 1.000000
0.949950 0.987274 1.000000
0.961334 0.987274 1.000000
0.958007 0.989258 1.000000
0.951507 0.992706 1.000000
0.982086 0.994049 0.936004
1.000000 0.977417 0.000000
0.000000 0.154177 0.272282
0.000000 0.154269 0.283452
0.000000 0.150393 0.301427
0.000000 0.134005 0.329870
0.585351 0.000000 0.355505
1.000000 0.000000 0.358831
1.000000 0.354620 0.249088
1.000000 0.671870 0.226596
0.000000 0.151980 0.291569
0.000000 0.151614 0.296818
0.000000 0.152010 0.313207
0.000000 0.143557 0.344274
0.629419 0.000000 0.365118
1.000000 0.000000 0.348180
1.000000 0.431495 0.255436
1.000000 0.692500 0.243839
0.000000 0.163516 0.296086
0.000000 0.168826 0.302922
0.000000 0.182803 0.319890
0.131106 0.197574 0.349065
0.773007 0.095766 0.396460
1.000000 0.342290 0.357885
1.000000 0.694118 0.404913
1.000000 0.795621 0.423774
0.000000 0.218845 0.358892
0.000000 0.228702 0.362127
0.123018 0.286931 0.382116
0.456367 0.466072 0.420569
0.818601 0.582391 0.440345
1.000000 0.723934 0.466072
1.000000 0.824887 0.515984
1.000000 0.871916 0.562036
0.000000 0.646235 0.619593
0.000000 0.670558 0.621698
0.240208 0.725643 0.616663
0.710262 0.748501 0.696986
0.842008 0.739925 0.372625
1.000000 0.656703 0.148653
1.000000 0.833005 0.353368
1.000000 0.903746 0.580652
0.611749 0.904692 0.853849
0.656001 0.913115 0.875334
0.725216 0.908873 0.875151
0.818601 0.906920 0.947814
0.842802 0.916991 0.837949
0.982422 0.885618 0.300908
1.000000 0.672663 0.000000
1.000000 0.839231 0.000000
0.826505 0.971221 1.000000
0.834379 0.971283 1.000000
0.859190 0.970306 1.000000
0.901976 0.968322 1.000000
0.906279 0.970092 1.000000
0.927703 0.974151 0.905150
1.000000 0.952514 0.283330
1.000000 0.831388 0.000000
0.945068 0.992096 1.000000
0.946410 0.991913 1.000000
0.952850 0.991211 1.000000
0.963165 0.990356 1.000000
0.969787 0.989837 1.000000
0.961151 0.992798 1.000000
0.967712 0.994415 1.000000
1.000000 0.980072 0.539330
0.000000 0.187015 0.553582
0.000000 0.188052 0.569207
0.000000 0.189364 0.596918
0.000000 0.203647 0.659937
0.000000 0.175357 0.752529
0.975586 0.000000 0.845212
1.000000 0.318425 0.778164
1.000000 0.580377 0.693660
0.000000 0.189944 0.574884
0.000000 0.192691 0.591333
0.000000 0.198154 0.618341
0.000000 0.216373 0.667689
0.000000 0.198001 0.765591
0.980896 0.000000 0.846830
1.000000 0.378271 0.779507
1.000000 0.612482 0.697871
0.000000 0.223026 0.594507
0.000000 0.226505 0.601801
0.000000 0.239689 0.622644
0.000000 0.286473 0.692226
0.000000 0.300999 0.765652
0.969909 0.303044 0.795224
1.000000 0.516472 0.757809
1.000000 0.701869 0.698665
0.000000 0.281682 0.596246
0.000000 0.294652 0.605890
0.000000 0.364996 0.655177
0.000000 0.480446 0.731136
0.514214 0.569696 0.809598
0.967620 0.655879 0.807706
1.000000 0.749874 0.783047
1.000000 0.855772 0.827939
0.000000 0.432929 0.695186
0.000000 0.449744 0.702388
0.000000 0.517021 0.724300
0.485817 0.650904 0.769467
0.781643 0.816953 0.838712
0.916014 0.870939 0.875486
0.980896 0.913664 0.917571
1.000000 0.935668 0.945708
0.000000 0.719478 0.876097
0.000000 0.744137 0.881804
0.000000 0.818906 0.893919
0.599023 0.896391 0.921263
0.830686 0.908171 0.966766
0.927123 0.904417 0.751461
1.000000 0.840146 0.522087
1.000000 0.922393 0.784939
0.701808 0.977111 1.000000
0.715419 0.975891 1.000000
0.778683 0.973266 1.000000
0.859403 0.972930 1.000000
0.918761 0.972473 1.000000
0.911437 0.974701 1.000000
1.000000 0.955901 0.684871
1.000000 0.786709 0.000000
0.920897 0.993164 1.000000
0.922637 0.992950 1.000000
0.930694 0.992248 1.000000
0.950072 0.992065 1.000000
0.967346 0.990967 1.000000
0.968841 0.991852 1.000000
0.967102 0.993774 1.000000
1.000000 0.981323 0.782956
0.000000 0.286473 0.947936
0.000000 0.290105 0.955840
0.000000 0.296147 0.964813
0.000000 0.329290 1.000000
0.000000 0.403937 1.000000
0.000000 0.339910 1.000000
1.000000 0.449226 1.000000
1.000000 0.768795 1.000000
0.000000 0.280705 0.919829
0.000000 0.282322 0.923064
0.000000 0.291508 0.937804
0.000000 0.325872 0.980041
0.000000 0.396063 1.000000
0.000000 0.345281 1.000000
1.000000 0.446967 1.000000
1.000000 0.757076 1.000000
0.000000 0.347204 0.959258
0.000000 0.351141 0.962615
0.000000 0.372259 0.979767
0.000000 0.404822 0.994507
0.000000 0.489357 1.000000
0.331518 0.490059 1.000000
1.000000 0.617670 1.000000
1.000000 0.817380 1.000000
0.000000 0.483711 0.977478
0.000000 0.488777 0.977661
0.000000 0.520562 0.989807
0.000000 0.596796 1.000000
0.000000 0.692409 1.000000
0.684718 0.751247 1.000000
0.987518 0.832578 1.000000
1.000000 0.902617 1.000000
0.000000 0.507408 0.921660
0.000000 0.517449 0.923217
0.000000 0.564263 0.933379
0.190311 0.685420 0.977325
0.616876 0.801328 1.000000
0.796872 0.870787 1.000000
0.957244 0.909300 1.000000
1.000000 0.934783 1.000000
0.000000 0.662226 0.970245
0.000000 0.678492 0.977630
0.000000 0.713008 0.982544
0.501579 0.780056 0.992737
0.741329 0.871366 1.000000
0.895872 0.953582 1.000000
0.957610 0.969970 1.000000
0.986053 0.977295 1.000000
0.242832 0.835935 1.000000
0.322271 0.843442 1.000000
0.463752 0.861723 1.000000
0.688167 0.942748 1.000000
0.861295 0.980682 1.000000
0.947143 0.981720 1.000000
0.948730 0.972473 1.000000
1.000000 0.923980 0.835142
0.814786 1.000000 1.000000
0.821073 1.000000 1.000000
0.855741 0.998199 1.000000
0.910613 0.995178 1.000000
0.951934 0.993317 1.000000
0.974731 0.992554 1.000000
0.972900 0.993774 1.000000
0.989868 0.985473 0.991577
0.000000 0.427161 1.000000
0.000000 0.430488 1.000000
0.000000 0.440375 1.000000
0.000000 0.465064 1.000000
0.000000 0.510491 1.000000
0.000000 0.595148 1.000000
0.536492 0.562158 1.000000
1.000000 0.700618 1.000000
0.000000 0.434333 1.000000
0.000000 0.438025 1.000000
0.000000 0.448463 1.000000
0.000000 0.472328 1.000000
0.000000 0.519738 1.000000
0.000000 0.604456 1.000000
0.548852 0.576593 1.000000
1.000000 0.707515 1.000000
0.000000 0.483833 1.000000
0.000000 0.486702 1.000000
0.000000 0.499336 1.000000
0.000000 0.528527 1.000000
0.000000 0.582666 1.000000
0.000000 0.669306 1.000000
0.650111 0.682765 1.000000
1.000000 0.793271 1.000000
0.000000 0.582238 1.000000
0.000000 0.582849 1.000000
0.000000 0.598230 1.000000
0.000000 0.633631 1.000000
0.000000 0.689631 1.000000
0.379644 0.771084 1.000000
0.769589 0.821622 1.000000
0.993317 0.883146 1.000000
0.000000 0.652308 1.000000
0.000000 0.659327 1.000000
0.000000 0.692805 1.000000
0.000000 0.739101 1.000000
0.435035 0.791409 1.000000
0.690883 0.864164 1.000000
0.853056 0.913085 1.000000
0.989136 0.942229 1.000000
0.000000 0.702510 1.000000
0.000000 0.707576 1.000000
0.000000 0.728847 1.000000
0.231510 0.771237 1.000000
0.657618 0.857725 1.000000
0.837156 0.933837 1.000000
0.922026 0.965667 1.000000
0.983154 0.974945 1.000000
0.148836 0.811582 1.000000
0.242741 0.816098 1.000000
0.417700 0.833219 1.000000
0.607294 0.867918 1.000000
0.770748 0.916228 1.000000
0.890990 0.961273 1.000000
0.963439 0.986572 1.000000
0.986908 0.990600 1.000000
0.552972 0.903899 1.000000
0.569635 0.906371 1.000000
0.633906 0.916930 1.000000
0.724514 0.934874 1.000000
0.845792 0.974578 1.000000
0.944427 0.995361 1.000000
0.984070 0.994934 1.000000
0.985809 0.991516 1.000000
0.000000 0.592920 1.000000
0.000000 0.595392 1.000000
0.000000 0.602869 1.000000
0.000000 0.622461 1.000000
0.000000 0.657618 1.000000
0.000000 0.712978 1.000000
0.369177 0.792996 1.000000
0.791257 0.832975 1.000000
0.000000 0.601068 1.000000
0.000000 0.603449 1.000000
0.000000 0.611872 1.000000
0.000000 0.631037 1.000000
0.000000 0.666011 1.000000
0.000000 0.720668 1.000000
0.405646 0.799039 1.000000
0.795590 0.838682 1.000000
0.000000 0.640864 1.000000
0.000000 0.643000 1.000000
0.000000 0.651392 1.000000
0.000000 0.673396 1.000000
0.000000 0.706966 1.000000
0.000000 0.757931 1.000000
0.556542 0.833249 1.000000
0.824186 0.874205 1.000000
0.000000 0.706538 1.000000
0.000000 0.709071 1.000000
0.000000 0.718013 1.000000
0.000000 0.738003 1.000000
0.000000 0.770230 1.000000
0.445289 0.819455 1.000000
0.713924 0.886198 1.000000
0.868254 0.921141 1.000000
0.000000 0.783902 1.000000
0.000000 0.785275 1.000000
0.000000 0.788602 1.000000
0.092287 0.804623 1.000000
0.478004 0.835538 1.000000
0.677607 0.880583 1.000000
0.816709 0.930755 1.000000
0.911223 0.956237 1.000000
0.000000 0.807950 1.000000
0.000000 0.810788 1.000000
0.294102 0.824704 1.000000
0.537499 0.856352 1.000000
0.704616 0.896696 1.000000
0.806149 0.931029 1.000000
0.894041 0.963928 1.000000
0.949706 0.978943 1.000000
0.378302 0.851286 1.000000
0.400214 0.853239 1.000000
0.479316 0.862058 1.000000
0.601495 0.881407 1.000000
0.729183 0.911162 1.000000
0.858122 0.953429 1.000000
0.939666 0.980896 1.000000
0.975433 0.990600 1.000000
0.662165 0.913268 1.000000
0.670558 0.914885 1.000000
0.706264 0.922148 1.000000
0.767147 0.936370 1.000000
0.838254 0.955138 1.000000
0.906188 0.973877 1.000000
0.959075 0.988128 1.000000
0.991302 0.996918 1.000000
