20 Preset/Dark Style/【3】LUT video cho PR-AE-FCPX/19Tones (7)/Bluish Package City.cube
# Created by Adobe Lightroom plugin Export LUT (1.24.0)
# www.johnrellis.com/lightroom/exportlut.htm
# Preset: Bluish Package City
# Color profile: E:\lut插件\exportlut.1.24\exportlut.lrplugin\color profiles\Rec709gamma2.4.icc
LUT_3D_SIZE 5
DOMAIN_MIN 0.000000 0.000000 0.000000
DOMAIN_MAX 0.903226 0.903226 0.903226
0.000000 0.106752 0.130953
0.059480 0.121309 0.146578
0.297002 0.131502 0.164370
0.784604 0.000000 0.103792
1.000000 0.000000 0.140536
0.000000 0.128573 0.170047
0.000000 0.132509 0.167971
0.392859 0.180301 0.137881
0.871336 0.153079 0.025910
1.000000 0.307500 0.199130
0.192172 0.295537 0.133425
0.248020 0.284428 0.123629
0.441199 0.361059 0.000000
0.899748 0.526055 0.000000
1.000000 0.645808 0.435401
0.447883 0.595087 0.098116
0.488930 0.588647 0.000000
0.620935 0.560327 0.000000
0.772976 0.609796 0.000000
1.000000 0.689723 0.000000
0.752285 0.816312 0.342992
0.772152 0.814176 0.313970
0.824338 0.780240 0.000000
0.929534 0.788113 0.000000
1.000000 0.802426 0.000000
0.013855 0.137942 0.164797
0.000488 0.132296 0.159243
0.340856 0.000000 0.203098
0.691035 0.000000 0.188785
1.000000 0.000000 0.243381
0.000000 0.129488 0.156222
0.016236 0.139193 0.166629
0.318822 0.140139 0.185336
0.767788 0.036774 0.209842
1.000000 0.251133 0.282353
0.112367 0.332982 0.227695
0.206455 0.334874 0.211734
0.420478 0.361059 0.145357
0.866606 0.526848 0.254917
1.000000 0.651301 0.521050
0.430732 0.628748 0.286442
0.473548 0.624750 0.258000
0.628534 0.592798 0.090974
0.777188 0.622339 0.000000
0.998871 0.703975 0.224643
0.736416 0.819974 0.434577
0.753292 0.817136 0.408240
0.836240 0.809049 0.291539
0.939208 0.804227 0.000000
1.000000 0.817807 0.000000
0.096590 0.167910 0.196780
0.118959 0.181796 0.210452
0.208713 0.244663 0.270207
0.868772 0.242069 0.702510
1.000000 0.400549 0.652857
0.173007 0.219150 0.247166
0.199954 0.239017 0.266087
0.279576 0.307836 0.331518
0.872831 0.391974 0.699153
1.000000 0.470527 0.647974
0.347906 0.379675 0.402258
0.374029 0.406317 0.428595
0.496864 0.523674 0.542138
0.772183 0.577264 0.614984
0.965209 0.634760 0.647272
0.550622 0.690913 0.632227
0.541405 0.690547 0.621668
0.627008 0.714290 0.626001
0.784848 0.698634 0.520989
0.968109 0.788754 0.671351
0.711849 0.829679 0.656825
0.721492 0.829557 0.646387
0.770687 0.824369 0.587915
0.902586 0.801236 0.406622
0.984161 0.818021 0.347692
0.325658 0.357061 0.383642
0.344579 0.376532 0.402686
0.400397 0.433082 0.457404
0.505730 0.530877 0.548791
0.881193 0.661372 0.831632
0.368414 0.401434 0.427497
0.379004 0.411994 0.437659
0.426886 0.459571 0.483101
0.524651 0.547265 0.564233
0.887541 0.677974 0.832822
0.422095 0.456672 0.481697
0.442084 0.475624 0.499763
0.552483 0.572229 0.589227
0.631464 0.635523 0.646052
0.936217 0.762142 0.861387
0.679683 0.675776 0.682643
0.685115 0.680018 0.686549
0.726406 0.712673 0.716365
0.804532 0.777218 0.776028
0.926482 0.807462 0.812985
0.830442 0.847227 0.823117
0.828214 0.849027 0.821988
0.820951 0.858396 0.814939
0.848631 0.864744 0.792386
0.941466 0.853666 0.710201
0.642542 0.646357 0.658991
0.646448 0.649378 0.661616
0.672206 0.669459 0.679255
0.713588 0.701808 0.707698
0.771115 0.748196 0.748989
0.644526 0.647913 0.660273
0.649561 0.651789 0.663722
0.673243 0.670314 0.679988
0.713710 0.701961 0.707790
0.773342 0.750118 0.750759
0.675013 0.672267 0.682338
0.682765 0.678340 0.687648
0.704677 0.695399 0.702663
0.740780 0.723903 0.727871
0.804959 0.777371 0.776150
0.739712 0.724605 0.729397
0.738766 0.723812 0.728695
0.745602 0.728969 0.733547
0.817655 0.789395 0.788510
0.866667 0.835264 0.831571
0.868132 0.838010 0.834195
0.869505 0.839353 0.835508
0.880400 0.850309 0.846220
0.899962 0.870817 0.866514
0.936248 0.912566 0.908721
