20 Preset/Dark Style/【3】LUT video cho PR-AE-FCPX/19Tones (7)/Bluish Package City.cube
# Created by Adobe Lightroom plugin Export LUT (1.24.0)
# www.johnrellis.com/lightroom/exportlut.htm
# Preset: Bluish Package City
# Color profile: E:\lut插件\exportlut.1.24\exportlut.lrplugin\color profiles\Rec709gamma2.4.icc
LUT_3D_SIZE 8
DOMAIN_MIN 0.000000 0.000000 0.000000
DOMAIN_MAX 0.903226 0.903226 0.903226
0.000000 0.106752 0.130953
0.086366 0.109926 0.132631
0.014008 0.125093 0.151003
0.169741 0.138552 0.164797
0.435492 0.093904 0.155459
0.721981 0.000000 0.115633
0.978058 0.000000 0.072999
1.000000 0.000000 0.140536
0.009400 0.138949 0.147524
0.072633 0.137392 0.142458
0.000000 0.131258 0.159426
0.158175 0.144991 0.166476
0.409522 0.122194 0.153170
0.685725 0.000000 0.115602
0.938689 0.000000 0.059571
1.000000 0.000000 0.119020
0.000641 0.129885 0.167788
0.000000 0.130861 0.168643
0.019837 0.141085 0.168765
0.238407 0.180758 0.154879
0.547356 0.217624 0.105623
0.828061 0.224979 0.005341
1.000000 0.272282 0.109957
1.000000 0.346990 0.209995
0.115755 0.211704 0.142916
0.132784 0.209781 0.141970
0.196933 0.211368 0.139315
0.317662 0.268681 0.113893
0.559869 0.363714 0.000000
0.929870 0.500145 0.000000
1.000000 0.546838 0.284154
1.000000 0.558373 0.356542
0.257633 0.375097 0.122011
0.271946 0.372168 0.117128
0.332464 0.367742 0.093965
0.423774 0.384466 0.000000
0.531640 0.431983 0.000000
0.661677 0.461433 0.000000
0.975738 0.597559 0.000000
1.000000 0.708003 0.478981
0.390997 0.537743 0.091707
0.415991 0.550378 0.073304
0.462989 0.541802 0.000000
0.545617 0.524346 0.000000
0.628046 0.545006 0.000000
0.731136 0.579461 0.000000
0.827115 0.592279 0.000000
1.000000 0.697597 0.113191
0.558709 0.687587 0.142306
0.570703 0.688991 0.132937
0.601587 0.680385 0.000000
0.664302 0.666102 0.000000
0.732601 0.645014 0.000000
0.803281 0.669764 0.000000
0.876524 0.687800 0.000000
0.936095 0.688746 0.000000
0.752285 0.816312 0.342992
0.757015 0.815518 0.334813
0.780331 0.813779 0.303716
0.828916 0.811704 0.235508
0.863127 0.776181 0.000000
0.916899 0.782956 0.000000
0.965179 0.799832 0.000000
1.000000 0.802426 0.000000
0.001160 0.132479 0.159609
0.007385 0.135592 0.162844
0.000000 0.141329 0.164279
0.122957 0.132601 0.162692
0.362219 0.060273 0.150973
0.631891 0.000000 0.135500
0.893034 0.000000 0.124788
1.000000 0.000000 0.149386
0.018158 0.140047 0.167269
0.021424 0.141268 0.168551
0.000000 0.138674 0.165805
0.145205 0.132631 0.159518
0.377264 0.089357 0.148165
0.644556 0.000000 0.132479
0.879210 0.000000 0.121248
1.000000 0.000000 0.139651
0.000000 0.131868 0.156191
0.000000 0.133486 0.156191
0.049714 0.141268 0.157870
0.238712 0.170657 0.146181
0.486732 0.189425 0.135409
0.750515 0.187564 0.120058
0.939269 0.199863 0.133425
1.000000 0.274876 0.190860
0.064973 0.207309 0.153445
0.101076 0.207279 0.151156
0.183932 0.212558 0.143069
0.277867 0.243961 0.127932
0.470649 0.306981 0.081758
0.843809 0.439246 0.098116
0.983825 0.469429 0.220981
1.000000 0.493294 0.294224
0.235904 0.376104 0.151400
0.249607 0.370977 0.145998
0.308324 0.362066 0.124849
0.395056 0.363043 0.082948
0.487953 0.400397 0.000000
0.617456 0.431800 0.000000
0.948882 0.573510 0.000000
1.000000 0.688533 0.467018
0.362615 0.523308 0.139498
0.374762 0.522728 0.131868
0.422919 0.516869 0.090333
0.510002 0.505547 0.000000
0.599084 0.525383 0.000000
0.712367 0.567773 0.000000
0.808927 0.580102 0.000000
1.000000 0.686458 0.147402
0.523461 0.668879 0.162936
0.526909 0.663722 0.146822
0.557702 0.654292 0.062043
0.624262 0.642908 0.000000
0.705257 0.626062 0.000000
0.778897 0.652766 0.000000
0.851041 0.668452 0.000000
0.911345 0.667262 0.000000
0.721492 0.801541 0.321111
0.731075 0.803494 0.321294
0.753994 0.800992 0.288212
0.804746 0.798825 0.219181
0.874754 0.791165 0.000000
0.920012 0.787442 0.000000
0.961059 0.797116 0.000000
0.999390 0.799466 0.000000
0.000793 0.132296 0.159060
0.000000 0.131136 0.157626
0.000000 0.128847 0.155520
0.227390 0.097902 0.235660
0.518120 0.000000 0.258885
0.720699 0.000000 0.234257
0.885893 0.000000 0.249546
1.000000 0.000000 0.298955
0.000000 0.128847 0.155520
0.000000 0.128786 0.155734
0.000000 0.131350 0.158389
0.234653 0.106538 0.233494
0.479988 0.000000 0.239078
0.681636 0.000000 0.217350
0.873442 0.000000 0.244114
1.000000 0.000000 0.289403
0.014252 0.139254 0.166659
0.026001 0.143313 0.170779
0.091493 0.164248 0.191836
0.249973 0.173587 0.217716
0.477333 0.177035 0.232883
0.736934 0.182254 0.256901
0.922148 0.231846 0.290715
1.000000 0.324529 0.342535
0.095460 0.249302 0.238712
0.103426 0.260655 0.242924
0.172213 0.296422 0.250309
0.339666 0.317021 0.215366
0.587030 0.399268 0.245182
0.851804 0.501122 0.381262
0.965332 0.515343 0.417975
1.000000 0.546532 0.462013
0.199069 0.447303 0.291173
0.226383 0.450782 0.292699
0.297215 0.448798 0.265141
0.433356 0.440162 0.207950
0.550469 0.468910 0.157931
0.698726 0.495460 0.126619
0.953704 0.632746 0.401099
1.000000 0.729763 0.604456
0.350683 0.577447 0.304906
0.364233 0.578058 0.299504
0.412238 0.571588 0.269169
0.505455 0.557031 0.207553
0.612940 0.550408 0.121126
0.725765 0.590143 0.000000
0.823301 0.599023 0.000000
1.000000 0.719295 0.402136
0.525322 0.702205 0.341314
0.528923 0.698238 0.329839
0.554101 0.687373 0.289708
0.616297 0.673121 0.216678
0.711635 0.650599 0.000000
0.786404 0.667597 0.000000
0.865476 0.688228 0.000000
0.929870 0.690059 0.000000
0.710750 0.810025 0.432929
0.712825 0.807980 0.422583
0.733364 0.805173 0.394690
0.787198 0.806455 0.353918
0.857053 0.798550 0.239170
0.918883 0.793881 0.000000
0.961975 0.805295 0.000000
1.000000 0.807767 0.000000
0.019898 0.141726 0.169741
0.029725 0.145296 0.173495
0.068605 0.156558 0.184726
0.121553 0.182284 0.209873
0.359533 0.171054 0.407874
0.916564 0.000000 0.608331
0.982361 0.000000 0.540612
1.000000 0.185092 0.498085
0.073884 0.158083 0.186709
0.083406 0.161166 0.189517
0.104829 0.172335 0.200748
0.148653 0.200320 0.227268
0.395514 0.199954 0.437293
0.904417 0.000000 0.601190
0.970672 0.130831 0.533806
1.000000 0.214878 0.490639
0.121218 0.183169 0.211978
0.131624 0.190127 0.218631
0.181094 0.224308 0.251499
0.227268 0.260197 0.285222
0.501549 0.306157 0.511589
0.865415 0.345006 0.587396
0.951019 0.377508 0.552850
1.000000 0.378729 0.509545
0.253452 0.285100 0.309209
0.260502 0.291417 0.315343
0.296666 0.325933 0.349126
0.372503 0.403418 0.425757
0.587243 0.471992 0.530663
0.735866 0.462684 0.506493
0.890715 0.507500 0.538872
0.992004 0.560266 0.574243
0.416114 0.503685 0.506035
0.413703 0.506706 0.506493
0.420569 0.530755 0.518395
0.453132 0.582513 0.531487
0.612573 0.586481 0.484169
0.779171 0.630152 0.530297
0.926513 0.738003 0.681758
0.990204 0.745022 0.690608
0.410040 0.654902 0.535027
0.437751 0.666224 0.548150
0.474067 0.669581 0.548943
0.549035 0.673579 0.537957
0.654200 0.649714 0.445747
0.759304 0.656855 0.403784
0.854124 0.658564 0.368719
0.988342 0.786404 0.654292
0.574182 0.747372 0.576654
0.580804 0.747921 0.575250
0.593317 0.744839 0.554284
0.630793 0.737026 0.507347
0.710414 0.718135 0.416083
0.803922 0.705592 0.325200
0.875914 0.721126 0.294865
0.940002 0.720974 0.267735
0.726040 0.833036 0.608087
0.728176 0.832334 0.603449
0.740017 0.829984 0.584741
0.771817 0.826566 0.546807
0.829099 0.818662 0.471412
0.910674 0.803769 0.340703
0.955566 0.817136 0.305272
0.999115 0.823636 0.261448
0.154788 0.206332 0.234958
0.163699 0.212406 0.240970
0.185489 0.228183 0.255985
0.233982 0.266636 0.292546
0.300511 0.328649 0.351751
0.483009 0.383764 0.591882
0.947814 0.451972 0.779507
1.000000 0.555291 0.773068
0.185031 0.228214 0.256382
0.193515 0.234592 0.262516
0.213596 0.249943 0.277195
0.256687 0.287022 0.312230
0.317632 0.345678 0.368597
0.498573 0.404913 0.600763
0.946471 0.479347 0.779355
1.000000 0.567254 0.770718
0.253178 0.285039 0.311559
0.263706 0.294865 0.320958
0.286900 0.316472 0.341863
0.316808 0.346014 0.370367
0.365881 0.395666 0.418189
0.530114 0.456275 0.610468
0.938079 0.549798 0.771206
1.000000 0.586694 0.751064
0.309880 0.340948 0.366094
0.315801 0.346899 0.371923
0.344244 0.375708 0.400549
0.422858 0.455268 0.478004
0.486366 0.514031 0.533257
0.641291 0.582422 0.667720
0.933074 0.660487 0.768276
0.986023 0.631647 0.724880
0.450507 0.483253 0.503685
0.458198 0.490578 0.510613
0.486519 0.516014 0.534874
0.541802 0.563348 0.579187
0.615564 0.623102 0.634424
0.762661 0.689113 0.719326
0.846830 0.662654 0.685298
0.943511 0.686702 0.697627
0.636835 0.639673 0.649348
0.641535 0.643732 0.652979
0.636744 0.650263 0.656245
0.637354 0.669978 0.666438
0.649622 0.702113 0.673640
0.749783 0.713375 0.650752
0.866270 0.753109 0.684688
0.966491 0.843503 0.802548
0.642664 0.758480 0.692439
0.638453 0.757412 0.688991
0.629511 0.757992 0.678859
0.652277 0.766781 0.677211
0.707118 0.769741 0.668025
0.777920 0.745846 0.582330
0.855497 0.750576 0.548730
0.923949 0.745602 0.500938
0.709071 0.834623 0.701015
0.711757 0.834257 0.700343
0.726040 0.833677 0.698939
0.756283 0.837766 0.692378
0.787869 0.832517 0.648737
0.856870 0.821195 0.566217
0.927276 0.818723 0.496101
0.974792 0.827024 0.471077
0.319066 0.350347 0.376959
0.327245 0.358740 0.385321
0.340764 0.372351 0.398413
0.374395 0.406439 0.431373
0.419074 0.451118 0.474128
0.482948 0.510826 0.529839
0.638483 0.591577 0.713893
0.954559 0.669306 0.862303
0.312932 0.343694 0.370245
0.315831 0.346929 0.373205
0.329259 0.360266 0.386267
0.358801 0.390295 0.415381
0.405554 0.437476 0.460700
0.472267 0.500938 0.520500
0.628077 0.583917 0.705440
0.952544 0.663203 0.858030
0.383124 0.416510 0.442267
0.384680 0.418067 0.443580
0.396460 0.430060 0.455055
0.411017 0.444129 0.468086
0.454688 0.485664 0.507378
0.521050 0.544366 0.561517
0.666896 0.625299 0.721004
0.956268 0.700954 0.861997
0.421759 0.456062 0.481025
0.426612 0.460792 0.485481
0.460121 0.492348 0.515251
0.527733 0.551507 0.570214
0.575067 0.590417 0.605524
0.629328 0.633814 0.644373
0.744350 0.700282 0.758633
0.964813 0.767575 0.871946
0.492988 0.522911 0.543328
0.497017 0.526390 0.546624
0.516320 0.542748 0.561883
0.556786 0.576440 0.593194
0.634882 0.639002 0.649989
0.693141 0.684840 0.691096
0.789914 0.740566 0.777462
0.975280 0.807736 0.864897
0.631525 0.637415 0.647608
0.640681 0.644678 0.654261
0.653956 0.655146 0.663783
0.680323 0.675868 0.682704
0.718685 0.706081 0.710353
0.778347 0.754665 0.755001
0.884398 0.817014 0.828336
0.926757 0.790402 0.795468
0.799893 0.773037 0.771908
0.803983 0.776638 0.775265
0.811246 0.783017 0.781277
0.822629 0.794980 0.792203
0.816281 0.806088 0.796475
0.812833 0.820554 0.792172
0.859312 0.811063 0.756191
0.934874 0.840024 0.781338
0.799374 0.844694 0.802823
0.796597 0.843870 0.800595
0.791257 0.844511 0.795682
0.786221 0.849454 0.788113
0.793637 0.853880 0.777951
0.828946 0.852781 0.759426
0.896727 0.837064 0.682185
0.947692 0.846830 0.667872
0.446723 0.480110 0.504967
0.453681 0.486793 0.511192
0.464790 0.497017 0.520592
0.492287 0.521202 0.542992
0.528344 0.552056 0.570947
0.575860 0.590936 0.605951
0.631312 0.635370 0.645563
0.732113 0.693965 0.771878
0.438941 0.472938 0.497841
0.446754 0.480323 0.504967
0.458015 0.490578 0.514458
0.480293 0.510491 0.532769
0.514519 0.540032 0.559899
0.558587 0.576684 0.592828
0.612024 0.619715 0.631281
0.713893 0.678431 0.760037
0.486244 0.516381 0.539025
0.488716 0.518547 0.541009
0.496040 0.524956 0.546746
0.515740 0.541802 0.562005
0.544915 0.565881 0.583856
0.588983 0.601648 0.615808
0.647669 0.648371 0.657588
0.749752 0.711330 0.777920
0.540948 0.563806 0.583215
0.542596 0.564965 0.584222
0.561059 0.580224 0.597864
0.581842 0.597009 0.612848
0.609308 0.618799 0.632258
0.651606 0.652064 0.661921
0.703243 0.692927 0.698360
0.790402 0.748806 0.798611
0.543420 0.566461 0.585931
0.543236 0.566186 0.585687
0.560876 0.580468 0.598444
0.603937 0.614984 0.629541
0.662074 0.660945 0.670649
0.697749 0.689021 0.695583
0.742672 0.724819 0.727596
0.831388 0.785916 0.822049
0.649104 0.652125 0.662379
0.651698 0.654139 0.664210
0.660365 0.660914 0.670436
0.677424 0.674220 0.682521
0.702724 0.693812 0.700465
0.767300 0.745632 0.747463
0.814115 0.785611 0.784085
0.885374 0.834958 0.858518
0.768307 0.747433 0.748409
0.771176 0.749844 0.750576
0.777188 0.754818 0.755184
0.790249 0.765774 0.765347
0.808835 0.781735 0.780270
0.835386 0.805570 0.802853
0.871092 0.839872 0.835966
0.939422 0.882994 0.887358
0.875608 0.844541 0.840391
0.876768 0.845731 0.841550
0.882872 0.851957 0.847684
0.891051 0.860502 0.856138
0.899107 0.871489 0.866545
0.890990 0.879728 0.867887
0.890074 0.889799 0.860502
0.930510 0.881712 0.824399
0.642542 0.646357 0.658991
0.646387 0.649439 0.661707
0.647852 0.650477 0.662531
0.662562 0.661952 0.672633
0.681971 0.677089 0.685939
0.705776 0.695735 0.702296
0.738125 0.721431 0.725063
0.771115 0.748196 0.748989
0.633783 0.639429 0.652644
0.638148 0.642786 0.655695
0.642847 0.646418 0.658869
0.655879 0.656641 0.667781
0.675502 0.671962 0.681270
0.700008 0.691035 0.698085
0.730922 0.715572 0.719722
0.763943 0.742214 0.743465
0.645655 0.648829 0.661097
0.647608 0.650385 0.662501
0.650629 0.652674 0.664424
0.670954 0.668574 0.678614
0.686427 0.680568 0.689082
0.706935 0.696651 0.703120
0.738308 0.721492 0.725154
0.771847 0.748836 0.749599
0.669581 0.667811 0.678309
0.672511 0.670130 0.680293
0.676905 0.673518 0.683253
0.690608 0.684260 0.692744
0.708583 0.698329 0.705135
0.731167 0.716121 0.720912
0.761563 0.740658 0.742733
0.794461 0.768124 0.767544
0.675471 0.672724 0.682918
0.679561 0.676051 0.685908
0.687404 0.682155 0.691218
0.712245 0.701625 0.708522
0.731930 0.717159 0.722316
0.754299 0.735073 0.738247
0.785519 0.760861 0.761440
0.821256 0.791958 0.789944
0.708431 0.699458 0.706844
0.706844 0.698146 0.705715
0.704768 0.696376 0.704189
0.711727 0.701656 0.708949
0.746426 0.729244 0.733547
0.797635 0.771725 0.772061
0.832181 0.802396 0.800443
0.860258 0.828855 0.825345
0.804929 0.779294 0.778897
0.805020 0.779355 0.778988
0.805844 0.780056 0.779660
0.809812 0.783383 0.782803
0.816403 0.789059 0.788174
0.827054 0.798398 0.797086
0.864714 0.833707 0.830594
0.892241 0.861784 0.857633
0.868132 0.838010 0.834195
0.868254 0.838102 0.834257
0.870420 0.840177 0.836332
0.876341 0.846220 0.842191
0.884855 0.854826 0.850675
0.896300 0.866850 0.862577
0.913085 0.885283 0.881010
0.936248 0.912566 0.908721
