20 Preset/Dark Style/【3】LUT video cho PR-AE-FCPX/19Tones (7)/Bluish Package City.cube
# Created by Adobe Lightroom plugin Export LUT (1.24.0)
# www.johnrellis.com/lightroom/exportlut.htm
# Preset: Bluish Package City
# Color profile: E:\lut插件\exportlut.1.24\exportlut.lrplugin\color profiles\Rec709gamma2.4.icc
LUT_3D_SIZE 32
DOMAIN_MIN 0.0 0.0 0.0
DOMAIN_MAX 1.0 1.0 1.0
0.000000 0.106752 0.130953
0.000000 0.106752 0.130953
0.000000 0.106600 0.130922
0.028504 0.107485 0.130892
0.086366 0.109926 0.132631
0.103578 0.112978 0.136263
0.097017 0.117281 0.141238
0.059480 0.121309 0.146578
0.014008 0.125093 0.151003
0.005127 0.128817 0.155276
0.051514 0.132967 0.159579
0.115724 0.136660 0.162722
0.169741 0.138552 0.164797
0.230869 0.137575 0.165530
0.297002 0.131502 0.164370
0.365789 0.118410 0.161044
0.435492 0.093904 0.155459
0.506981 0.000000 0.147951
0.578851 0.000000 0.138643
0.651850 0.000000 0.127687
0.721981 0.000000 0.115633
0.784604 0.000000 0.103792
0.868132 0.000000 0.087465
0.931151 0.000000 0.071748
0.978058 0.000000 0.072999
1.000000 0.000000 0.086000
1.000000 0.000000 0.101167
1.000000 0.000000 0.119051
1.000000 0.000000 0.140536
1.000000 0.114076 0.167147
1.000000 0.202335 0.197910
1.000000 0.269200 0.235203
0.000000 0.106752 0.130953
0.000000 0.106752 0.130953
0.000000 0.107942 0.130770
0.027344 0.108858 0.131014
0.084230 0.111269 0.132998
0.101869 0.114321 0.136599
0.097108 0.117830 0.141390
0.065034 0.121462 0.146304
0.015991 0.125063 0.151003
0.001862 0.128634 0.155306
0.037659 0.132815 0.159243
0.106935 0.136233 0.162325
0.158206 0.138827 0.164614
0.217533 0.138460 0.165652
0.282506 0.133639 0.164797
0.350103 0.122530 0.161807
0.419867 0.101289 0.156588
0.490700 0.027832 0.149325
0.562799 0.000000 0.140536
0.634943 0.000000 0.130037
0.704799 0.000000 0.118349
0.768185 0.000000 0.106722
0.850095 0.000000 0.091127
0.912474 0.000000 0.075685
0.959869 0.000000 0.069429
0.997803 0.000000 0.076722
1.000000 0.000000 0.091249
1.000000 0.000000 0.107301
1.000000 0.000000 0.126925
1.000000 0.000000 0.151247
1.000000 0.166384 0.180941
1.000000 0.241093 0.216342
0.000000 0.113283 0.131502
0.000000 0.114015 0.131655
0.000000 0.114565 0.130526
0.029664 0.115877 0.131228
0.080659 0.118288 0.134951
0.098146 0.119570 0.138674
0.091646 0.121584 0.143313
0.053681 0.123598 0.147860
0.010040 0.126467 0.152499
0.000000 0.129732 0.156405
0.033051 0.133394 0.159976
0.103639 0.137179 0.162814
0.154726 0.139712 0.164950
0.212680 0.139895 0.165805
0.276280 0.135836 0.164828
0.343359 0.126009 0.161654
0.412451 0.107088 0.156497
0.483131 0.051759 0.149477
0.554620 0.000000 0.140780
0.627466 0.000000 0.130129
0.697566 0.000000 0.118715
0.763638 0.000000 0.106569
0.843656 0.000000 0.091188
0.904784 0.000000 0.075837
0.951843 0.000000 0.066682
0.989563 0.000000 0.071260
1.000000 0.000000 0.088045
1.000000 0.000000 0.102205
1.000000 0.000000 0.120729
1.000000 0.000000 0.144442
1.000000 0.154604 0.173159
1.000000 0.230808 0.207736
0.000000 0.127260 0.138308
0.000000 0.127657 0.137758
0.020783 0.128328 0.136873
0.042908 0.128603 0.134829
0.077546 0.127901 0.136690
0.091798 0.127291 0.141543
0.074525 0.127047 0.147616
0.029236 0.127291 0.151736
0.000000 0.129061 0.155703
0.000000 0.131716 0.158938
0.035279 0.135439 0.161837
0.105684 0.139040 0.164248
0.156558 0.141939 0.165774
0.213504 0.142214 0.166079
0.275456 0.138918 0.164523
0.340154 0.130282 0.161044
0.406744 0.114626 0.155703
0.474800 0.084047 0.148775
0.544091 0.000000 0.140352
0.614557 0.000000 0.130220
0.683864 0.000000 0.119081
0.754910 0.000000 0.106477
0.830381 0.000000 0.091737
0.890929 0.000000 0.076509
0.940032 0.000000 0.063783
0.980896 0.000000 0.065431
1.000000 0.000000 0.083711
1.000000 0.000000 0.099580
1.000000 0.000000 0.119203
1.000000 0.006195 0.143618
1.000000 0.165743 0.171664
1.000000 0.233555 0.203677
0.009400 0.138949 0.147524
0.012085 0.139101 0.147921
0.033906 0.139345 0.146304
0.058442 0.138827 0.144320
0.072633 0.137392 0.142458
0.078645 0.134585 0.143893
0.056001 0.130068 0.148409
0.008240 0.129732 0.155184
0.000000 0.131258 0.159426
0.000000 0.134188 0.162112
0.035187 0.137942 0.164157
0.107881 0.141756 0.165927
0.158175 0.144991 0.166476
0.215000 0.145663 0.165835
0.276829 0.142855 0.163302
0.342107 0.135195 0.159091
0.409522 0.122194 0.153170
0.478004 0.099519 0.145968
0.547509 0.023438 0.137148
0.617365 0.000000 0.126802
0.685725 0.000000 0.115602
0.761410 0.000000 0.101961
0.832242 0.000000 0.087892
0.890074 0.000000 0.069764
0.938689 0.000000 0.059571
0.979461 0.000000 0.062776
1.000000 0.000000 0.082460
1.000000 0.000000 0.099153
1.000000 0.000000 0.119020
1.000000 0.106355 0.142641
1.000000 0.184848 0.170596
1.000000 0.243900 0.201816
0.017151 0.141604 0.156802
0.018860 0.141573 0.156985
0.024750 0.141238 0.156222
0.039155 0.140719 0.155032
0.041016 0.138460 0.153506
0.039918 0.135958 0.151736
0.034485 0.133669 0.152438
0.001038 0.130373 0.156313
0.000000 0.131441 0.160708
0.000000 0.137392 0.165988
0.064546 0.141939 0.166934
0.123873 0.146517 0.167208
0.176059 0.149599 0.166323
0.233707 0.150393 0.163973
0.296391 0.148074 0.159945
0.360998 0.141634 0.154665
0.428534 0.130678 0.147616
0.497230 0.113375 0.139498
0.566522 0.078981 0.130068
0.635431 0.000000 0.119387
0.702876 0.000000 0.107851
0.783261 0.000000 0.092348
0.949340 0.000000 0.050202
0.995453 0.000000 0.080385
1.000000 0.000000 0.103609
1.000000 0.120302 0.126467
1.000000 0.175021 0.150729
1.000000 0.218967 0.175326
1.000000 0.259434 0.202548
1.000000 0.298314 0.231449
1.000000 0.337072 0.263432
1.000000 0.374792 0.297673
0.004791 0.133547 0.166903
0.004791 0.133547 0.166903
0.002838 0.133120 0.166598
0.000000 0.132845 0.165896
0.000000 0.132052 0.164920
0.000000 0.130953 0.163760
0.000000 0.130068 0.162722
0.000000 0.130648 0.162875
0.000000 0.133303 0.164645
0.038605 0.141390 0.166873
0.123781 0.151125 0.167025
0.190921 0.158724 0.162844
0.247837 0.161349 0.158877
0.307805 0.161624 0.153872
0.369665 0.159670 0.147951
0.432532 0.154513 0.140963
0.497353 0.145907 0.132692
0.563317 0.133089 0.123171
0.630671 0.114412 0.112642
0.698299 0.083070 0.100587
0.783230 0.000000 0.080659
0.862821 0.000000 0.046052
0.927153 0.000000 0.039216
0.978576 0.081514 0.063355
1.000000 0.134798 0.098451
1.000000 0.177798 0.122957
1.000000 0.212619 0.147768
1.000000 0.244846 0.171878
1.000000 0.277562 0.197330
1.000000 0.309575 0.224277
1.000000 0.342809 0.254002
1.000000 0.377050 0.286900
0.000000 0.128573 0.170047
0.000000 0.128634 0.170047
0.000000 0.128450 0.170077
0.000000 0.128664 0.170077
0.000000 0.128634 0.169772
0.000000 0.129335 0.169375
0.000000 0.130587 0.168704
0.000000 0.132509 0.167971
0.000000 0.133852 0.168002
0.011444 0.139498 0.167880
0.108431 0.151308 0.167208
0.182528 0.164370 0.162844
0.258579 0.173678 0.154269
0.333715 0.179660 0.144594
0.392859 0.180301 0.137881
0.453346 0.179416 0.130465
0.515648 0.176333 0.122133
0.579187 0.171023 0.112398
0.644587 0.163485 0.101350
0.722408 0.156069 0.083436
0.802762 0.151247 0.046387
0.871336 0.153079 0.025910
0.929046 0.164309 0.028229
0.976410 0.183902 0.062745
1.000000 0.208469 0.100191
1.000000 0.232883 0.126192
1.000000 0.257572 0.149966
1.000000 0.281407 0.173953
1.000000 0.307500 0.199130
1.000000 0.334417 0.225986
1.000000 0.363134 0.254948
1.000000 0.393042 0.286381
0.000641 0.129885 0.167788
0.000641 0.129885 0.167788
0.000000 0.129946 0.167971
0.000000 0.130251 0.168307
0.000000 0.130861 0.168643
0.000000 0.131746 0.169100
0.000000 0.134340 0.169192
0.001160 0.137362 0.169009
0.019837 0.141085 0.168765
0.035157 0.143404 0.168460
0.087495 0.149264 0.167636
0.156466 0.164523 0.163180
0.238407 0.180758 0.154879
0.326604 0.195834 0.142306
0.414160 0.209171 0.126680
0.487282 0.216983 0.115053
0.547356 0.217624 0.105623
0.608484 0.216648 0.095552
0.683925 0.218936 0.070954
0.760372 0.221134 0.032898
0.828061 0.224979 0.005341
0.886625 0.230625 0.002869
0.937194 0.240604 0.024109
0.979675 0.254734 0.075288
1.000000 0.272282 0.109957
1.000000 0.289738 0.136477
1.000000 0.307683 0.160464
1.000000 0.326513 0.184878
1.000000 0.346990 0.209995
1.000000 0.368719 0.236118
1.000000 0.392859 0.264378
1.000000 0.418799 0.295140
0.012238 0.138796 0.161929
0.011933 0.138796 0.162112
0.013642 0.138766 0.162295
0.015595 0.139162 0.162631
0.018219 0.139742 0.163272
0.022522 0.140291 0.164126
0.031952 0.141634 0.164889
0.049042 0.145418 0.165133
0.079316 0.150057 0.165042
0.099245 0.154604 0.164889
0.110018 0.157229 0.164645
0.130098 0.161990 0.163943
0.198734 0.179507 0.157107
0.286687 0.199863 0.145235
0.383978 0.222660 0.127596
0.477546 0.243229 0.106294
0.577203 0.266758 0.078676
0.664393 0.281041 0.029419
0.736538 0.287358 0.000000
0.799985 0.291356 0.000000
0.855161 0.295109 0.000000
0.902617 0.299565 0.000000
0.943999 0.305608 0.030579
0.979309 0.313695 0.089631
1.000000 0.324254 0.116396
1.000000 0.335363 0.140780
1.000000 0.348608 0.165499
1.000000 0.362982 0.189853
1.000000 0.380377 0.215274
1.000000 0.400092 0.243290
1.000000 0.421698 0.272251
1.000000 0.445869 0.304723
0.030396 0.152010 0.156039
0.032380 0.151949 0.156039
0.035370 0.152102 0.156191
0.043275 0.152346 0.156558
0.055024 0.153079 0.156802
0.072114 0.153719 0.157443
0.089601 0.154757 0.158389
0.100374 0.157473 0.158480
0.114076 0.162448 0.158419
0.131014 0.168612 0.158083
0.148745 0.174166 0.157717
0.162509 0.176852 0.157046
0.179324 0.180240 0.156893
0.245670 0.199344 0.148684
0.341375 0.226688 0.130953
0.452705 0.261082 0.101839
0.569604 0.296849 0.019501
0.678157 0.328191 0.000000
0.775204 0.357855 0.000000
0.829892 0.361700 0.000000
0.875731 0.363165 0.000000
0.916228 0.365454 0.003510
0.952392 0.369635 0.069947
0.983948 0.375280 0.109804
1.000000 0.382422 0.137942
1.000000 0.390906 0.163272
1.000000 0.400732 0.186679
1.000000 0.411994 0.211185
1.000000 0.425727 0.236606
1.000000 0.442115 0.264225
1.000000 0.460761 0.293797
1.000000 0.481209 0.324926
0.069276 0.172061 0.149905
0.069276 0.172061 0.149905
0.075807 0.172305 0.149844
0.085054 0.172580 0.149966
0.094759 0.173190 0.149966
0.105257 0.173831 0.150179
0.118868 0.174838 0.150454
0.134554 0.175845 0.150881
0.147738 0.180179 0.150301
0.164187 0.186679 0.149416
0.184298 0.194186 0.148348
0.205203 0.201175 0.146944
0.279759 0.235599 0.131258
0.306981 0.242039 0.127535
0.385290 0.273625 0.105745
0.511040 0.324590 0.000000
0.641230 0.373419 0.000000
0.760403 0.414130 0.000000
0.849119 0.444007 0.000000
0.915373 0.472023 0.000000
0.962493 0.498268 0.160342
0.987366 0.497017 0.186160
1.000000 0.497200 0.211307
1.000000 0.498939 0.234745
1.000000 0.501793 0.256779
1.000000 0.504845 0.276249
1.000000 0.508751 0.294713
1.000000 0.513451 0.312474
1.000000 0.520073 0.331334
1.000000 0.528923 0.352178
1.000000 0.540612 0.374975
1.000000 0.555138 0.401160
0.115755 0.211704 0.142916
0.115755 0.211704 0.142916
0.118990 0.211154 0.142763
0.124514 0.210483 0.142611
0.132784 0.209781 0.141970
0.144198 0.209201 0.141665
0.158877 0.208804 0.140963
0.176608 0.208652 0.140566
0.196933 0.211368 0.139315
0.219608 0.222232 0.135744
0.247776 0.235874 0.130587
0.282139 0.252537 0.123293
0.317662 0.268681 0.113893
0.348028 0.279484 0.105806
0.374395 0.285344 0.099580
0.434546 0.310002 0.053925
0.559869 0.363714 0.000000
0.683253 0.410712 0.000000
0.789548 0.447364 0.000000
0.872313 0.475746 0.000000
0.929870 0.500145 0.000000
0.973388 0.527642 0.168643
1.000000 0.547845 0.244053
1.000000 0.546838 0.264622
1.000000 0.546838 0.284154
1.000000 0.547784 0.302739
1.000000 0.549920 0.320104
1.000000 0.553216 0.337835
1.000000 0.558373 0.356542
1.000000 0.566033 0.377417
1.000000 0.575738 0.399451
1.000000 0.588006 0.424201
0.150423 0.249180 0.138735
0.150576 0.248783 0.138857
0.153689 0.247990 0.138338
0.158846 0.247288 0.137728
0.167117 0.246555 0.136782
0.179477 0.245640 0.135561
0.195193 0.245487 0.133669
0.214389 0.246128 0.131777
0.238102 0.246983 0.129244
0.258671 0.252628 0.125704
0.283604 0.265782 0.119112
0.314061 0.282139 0.108980
0.349218 0.300542 0.094484
0.383459 0.316411 0.067170
0.410986 0.325139 0.038361
0.434089 0.328222 0.021332
0.475593 0.342443 0.000000
0.592248 0.393164 0.000000
0.710872 0.439277 0.000000
0.809079 0.474006 0.000000
0.886595 0.501732 0.000000
0.943267 0.526452 0.000000
0.983062 0.552300 0.166934
1.000000 0.581537 0.270451
1.000000 0.596704 0.326146
1.000000 0.595697 0.342321
1.000000 0.595850 0.358465
1.000000 0.597284 0.373968
1.000000 0.600580 0.390936
1.000000 0.606317 0.410498
1.000000 0.614313 0.431495
1.000000 0.624323 0.454292
0.192172 0.295537 0.133425
0.192752 0.295018 0.133364
0.194797 0.293675 0.132845
0.198734 0.292058 0.132418
0.206058 0.289525 0.130922
0.216220 0.287144 0.129244
0.230533 0.285435 0.126711
0.248020 0.284428 0.123629
0.269810 0.284276 0.119692
0.293431 0.283604 0.115785
0.315679 0.295354 0.107668
0.343206 0.311345 0.094789
0.374884 0.329107 0.062409
0.409522 0.347295 0.005585
0.441199 0.361059 0.000000
0.465309 0.366766 0.000000
0.486397 0.368170 0.000000
0.521202 0.377142 0.000000
0.619318 0.419104 0.000000
0.733455 0.464302 0.000000
0.826291 0.498238 0.000000
0.899748 0.526055 0.000000
0.955657 0.551049 0.000000
0.992554 0.575799 0.164736
1.000000 0.603265 0.273808
1.000000 0.632990 0.366247
1.000000 0.642084 0.402502
1.000000 0.642878 0.418097
1.000000 0.645808 0.435401
1.000000 0.651331 0.455512
1.000000 0.659144 0.477211
1.000000 0.669062 0.500694
0.227115 0.336400 0.128176
0.227848 0.336614 0.128023
0.230045 0.335882 0.127291
0.234653 0.334752 0.126070
0.241978 0.333196 0.124147
0.252750 0.331579 0.121431
0.267002 0.330663 0.117678
0.285039 0.330083 0.112612
0.306554 0.330114 0.106355
0.331273 0.330175 0.099001
0.353185 0.331395 0.091524
0.376196 0.344671 0.061402
0.401892 0.359197 0.012604
0.430365 0.373846 0.000000
0.460670 0.388037 0.000000
0.487312 0.397345 0.000000
0.508293 0.400366 0.000000
0.528618 0.400885 0.000000
0.558892 0.406653 0.000000
0.638544 0.439216 0.000000
0.750851 0.485176 0.000000
0.841794 0.520226 0.000000
0.912230 0.548730 0.000000
0.965454 0.574609 0.000000
1.000000 0.599634 0.164492
1.000000 0.626642 0.281132
1.000000 0.655848 0.378058
1.000000 0.686183 0.462837
1.000000 0.691493 0.485878
1.000000 0.694636 0.501884
1.000000 0.699336 0.519066
1.000000 0.705837 0.537591
0.257633 0.375097 0.122011
0.257816 0.375067 0.122011
0.260441 0.374334 0.120974
0.264805 0.373510 0.119539
0.271946 0.372168 0.117128
0.282200 0.370672 0.113252
0.295811 0.369360 0.108400
0.312566 0.368444 0.102205
0.332464 0.367742 0.093965
0.355016 0.367010 0.081209
0.380713 0.365911 0.053773
0.400153 0.370947 0.022797
0.423774 0.384466 0.000000
0.449439 0.398077 0.000000
0.477150 0.411658 0.000000
0.506340 0.424353 0.000000
0.531640 0.431983 0.000000
0.552422 0.434394 0.000000
0.573480 0.435401 0.000000
0.599512 0.437995 0.000000
0.661677 0.461433 0.000000
0.771328 0.507439 0.000000
0.858671 0.542473 0.000000
0.925689 0.571374 0.000000
0.975738 0.597559 0.000000
1.000000 0.623011 0.170199
1.000000 0.649561 0.289677
1.000000 0.678218 0.391058
1.000000 0.708003 0.478981
1.000000 0.735592 0.549432
1.000000 0.738735 0.564050
1.000000 0.743069 0.579126
0.291844 0.418799 0.114290
0.293156 0.419257 0.113832
0.333684 0.467384 0.106630
0.337957 0.466468 0.104158
0.344976 0.464912 0.099092
0.354864 0.462287 0.091279
0.367895 0.459510 0.074098
0.384039 0.456672 0.042847
0.403449 0.454261 0.006195
0.426368 0.451484 0.000000
0.451331 0.448371 0.000000
0.473976 0.441505 0.000000
0.495338 0.452857 0.000000
0.518456 0.464118 0.000000
0.542596 0.474434 0.000000
0.568078 0.483955 0.000000
0.594018 0.492103 0.000000
0.615106 0.495125 0.000000
0.632105 0.493874 0.000000
0.650294 0.492134 0.000000
0.670130 0.489937 0.000000
0.712154 0.501793 0.000000
0.812528 0.544152 0.000000
0.891112 0.576959 0.000000
0.949340 0.603754 0.000000
0.991882 0.627893 0.000000
1.000000 0.651209 0.202884
1.000000 0.675105 0.307103
1.000000 0.701595 0.408911
1.000000 0.729305 0.495766
1.000000 0.756405 0.568872
1.000000 0.775723 0.616846
0.337133 0.475624 0.105074
0.341131 0.479927 0.104280
0.347082 0.484321 0.102693
0.354498 0.487739 0.099550
0.363897 0.489326 0.093202
0.373907 0.488594 0.082887
0.385962 0.486336 0.056916
0.400580 0.483162 0.022461
0.418158 0.480049 0.000000
0.438392 0.476997 0.000000
0.461738 0.473335 0.000000
0.486671 0.469276 0.000000
0.505547 0.466621 0.000000
0.526390 0.476936 0.000000
0.548943 0.486946 0.000000
0.572686 0.496590 0.000000
0.597436 0.505333 0.000000
0.623774 0.513664 0.000000
0.645777 0.517571 0.000000
0.664546 0.517906 0.000000
0.684230 0.517601 0.000000
0.704799 0.516625 0.000000
0.743618 0.526635 0.000000
0.826200 0.560815 0.000000
0.901701 0.593317 0.000000
0.957427 0.619989 0.000000
0.998077 0.644099 0.000000
1.000000 0.667842 0.204105
1.000000 0.691737 0.309270
1.000000 0.717525 0.410834
1.000000 0.744625 0.501549
1.000000 0.770443 0.575616
0.362524 0.505638 0.098512
0.366644 0.510338 0.098421
0.373053 0.514519 0.095979
0.380652 0.518273 0.092683
0.389410 0.520165 0.085328
0.399023 0.519677 0.064118
0.410224 0.517540 0.033326
0.423590 0.514519 0.000000
0.439643 0.511345 0.000000
0.458289 0.507744 0.000000
0.479622 0.503838 0.000000
0.503014 0.499184 0.000000
0.526085 0.492226 0.000000
0.543603 0.496162 0.000000
0.564630 0.505791 0.000000
0.586725 0.515068 0.000000
0.609796 0.523613 0.000000
0.634211 0.531884 0.000000
0.660121 0.539696 0.000000
0.681209 0.543236 0.000000
0.699794 0.543847 0.000000
0.719783 0.544213 0.000000
0.740475 0.543847 0.000000
0.774655 0.551446 0.000000
0.839963 0.577081 0.000000
0.912902 0.609522 0.000000
0.966339 0.636316 0.000000
1.000000 0.660914 0.000000
1.000000 0.685023 0.205631
1.000000 0.709224 0.318456
1.000000 0.733852 0.414435
1.000000 0.759884 0.508171
0.390997 0.537743 0.091707
0.395544 0.541588 0.090578
0.401038 0.545586 0.089387
0.408026 0.548638 0.085695
0.415991 0.550378 0.073304
0.425177 0.549645 0.044404
0.435431 0.547723 0.011017
0.447700 0.545006 0.000000
0.462989 0.541802 0.000000
0.480354 0.538079 0.000000
0.500267 0.534447 0.000000
0.522179 0.529931 0.000000
0.545617 0.524346 0.000000
0.563622 0.517021 0.000000
0.583337 0.526116 0.000000
0.604608 0.535424 0.000000
0.628046 0.545006 0.000000
0.652949 0.554742 0.000000
0.679561 0.564416 0.000000
0.707637 0.574060 0.000000
0.731136 0.579461 0.000000
0.752651 0.582422 0.000000
0.774044 0.584466 0.000000
0.796262 0.585931 0.000000
0.827115 0.592279 0.000000
0.877043 0.610986 0.000000
0.943664 0.643763 0.000000
0.991302 0.671626 0.000000
1.000000 0.697597 0.113191
1.000000 0.722591 0.278233
1.000000 0.747036 0.389593
1.000000 0.770352 0.480262
0.447883 0.595087 0.098116
0.450050 0.596704 0.098390
0.452796 0.597528 0.096498
0.456947 0.597620 0.092470
0.462531 0.596460 0.078370
0.468879 0.594446 0.049348
0.477790 0.591638 0.004639
0.488930 0.588647 0.000000
0.502708 0.585321 0.000000
0.519615 0.581964 0.000000
0.538750 0.578424 0.000000
0.559899 0.574273 0.000000
0.582055 0.568933 0.000000
0.605737 0.562402 0.000000
0.620935 0.560327 0.000000
0.640131 0.568444 0.000000
0.660548 0.576379 0.000000
0.682094 0.584283 0.000000
0.704768 0.591974 0.000000
0.728603 0.599603 0.000000
0.753201 0.606744 0.000000
0.772976 0.609796 0.000000
0.790768 0.610712 0.000000
0.808591 0.610803 0.000000
0.828244 0.611200 0.000000
0.854551 0.615381 0.000000
0.891814 0.627710 0.000000
0.956268 0.661097 0.000000
1.000000 0.689723 0.000000
1.000000 0.715785 0.111391
1.000000 0.740352 0.287938
1.000000 0.763912 0.403204
0.481147 0.624933 0.103456
0.482826 0.626215 0.104494
0.485725 0.626886 0.102144
0.489418 0.627100 0.098604
0.494453 0.626215 0.088350
0.500786 0.624567 0.058778
0.508965 0.622187 0.011536
0.519524 0.619440 0.000000
0.532433 0.616632 0.000000
0.548211 0.613581 0.000000
0.565942 0.610346 0.000000
0.585992 0.606561 0.000000
0.607630 0.601587 0.000000
0.630549 0.596216 0.000000
0.648707 0.585779 0.000000
0.666804 0.593439 0.000000
0.686000 0.601190 0.000000
0.706233 0.608820 0.000000
0.727413 0.616419 0.000000
0.749508 0.623804 0.000000
0.772396 0.630884 0.000000
0.795712 0.637476 0.000000
0.813840 0.640070 0.000000
0.830716 0.640925 0.000000
0.834592 0.631006 0.000000
0.852903 0.631281 0.000000
0.876707 0.634760 0.000000
0.909056 0.645228 0.000000
0.966644 0.676020 0.000000
1.000000 0.704952 0.000000
1.000000 0.731228 0.079988
1.000000 0.755428 0.288365
0.532219 0.667445 0.134401
0.535027 0.669398 0.136843
0.537682 0.670008 0.136172
0.539971 0.669062 0.130465
0.542565 0.666957 0.121309
0.546563 0.663691 0.105501
0.551507 0.659663 0.075624
0.558587 0.655238 0.001862
0.568200 0.650507 0.000000
0.580133 0.645991 0.000000
0.594446 0.640742 0.000000
0.611322 0.635676 0.000000
0.629786 0.629999 0.000000
0.649683 0.623468 0.000000
0.670130 0.615808 0.000000
0.682643 0.609369 0.000000
0.698360 0.615045 0.000000
0.716030 0.621454 0.000000
0.735409 0.628504 0.000000
0.756527 0.636164 0.000000
0.778683 0.643793 0.000000
0.800839 0.650874 0.000000
0.822354 0.656641 0.000000
0.837858 0.657710 0.000000
0.851804 0.657069 0.000000
0.865324 0.655390 0.000000
0.881712 0.655085 0.000000
0.901610 0.656886 0.000000
0.931975 0.667262 0.000000
0.979187 0.692805 0.000000
1.000000 0.721370 0.000000
1.000000 0.746822 0.000000
0.558709 0.687587 0.142306
0.561547 0.689357 0.144930
0.564141 0.690333 0.145388
0.567132 0.690089 0.140810
0.570703 0.688991 0.132937
0.575433 0.687343 0.121157
0.582055 0.685328 0.103273
0.590692 0.682918 0.057710
0.601587 0.680385 0.000000
0.614679 0.677699 0.000000
0.629480 0.674372 0.000000
0.646204 0.670680 0.000000
0.664302 0.666102 0.000000
0.683497 0.660578 0.000000
0.703273 0.653956 0.000000
0.720058 0.643427 0.000000
0.732601 0.645014 0.000000
0.747738 0.650233 0.000000
0.764828 0.656275 0.000000
0.783566 0.662867 0.000000
0.803281 0.669764 0.000000
0.823423 0.676326 0.000000
0.843351 0.682185 0.000000
0.862638 0.687190 0.000000
0.876524 0.687800 0.000000
0.889555 0.687282 0.000000
0.902586 0.686305 0.000000
0.918029 0.686732 0.000000
0.936095 0.688746 0.000000
0.964599 0.700130 0.000000
1.000000 0.721065 0.000000
1.000000 0.748257 0.000000
0.600824 0.718196 0.172702
0.602228 0.719081 0.174746
0.603998 0.719234 0.173037
0.606195 0.718807 0.169406
0.609247 0.717647 0.161532
0.613275 0.715969 0.150698
0.618952 0.713985 0.135927
0.626398 0.711635 0.113375
0.636011 0.709071 0.067811
0.647578 0.706477 0.000000
0.661219 0.703395 0.000000
0.676844 0.700130 0.000000
0.693721 0.696284 0.000000
0.712001 0.691585 0.000000
0.730861 0.685725 0.000000
0.750607 0.679103 0.000000
0.762417 0.671107 0.000000
0.775723 0.675532 0.000000
0.790890 0.680659 0.000000
0.807614 0.686610 0.000000
0.825315 0.692866 0.000000
0.843259 0.698878 0.000000
0.860990 0.704189 0.000000
0.878325 0.708827 0.000000
0.894987 0.712490 0.000000
0.906523 0.712093 0.000000
0.918059 0.711269 0.000000
0.929534 0.710048 0.000000
0.943816 0.710628 0.000000
0.961639 0.714107 0.000000
0.987732 0.725429 0.000000
1.000000 0.742855 0.000000
0.636957 0.743008 0.198795
0.638148 0.743709 0.199924
0.640009 0.744137 0.199893
0.642542 0.744076 0.197055
0.646265 0.743862 0.192508
0.651911 0.743648 0.185428
0.660395 0.744289 0.178531
0.671199 0.745113 0.169528
0.684443 0.746304 0.157992
0.700038 0.747555 0.142153
0.717525 0.748775 0.119112
0.736355 0.749447 0.063630
0.756191 0.749386 0.000000
0.776577 0.748196 0.000000
0.797086 0.745754 0.000000
0.817380 0.741604 0.000000
0.835477 0.734615 0.000000
0.845579 0.733944 0.000000
0.857969 0.738094 0.000000
0.871336 0.742611 0.000000
0.885466 0.747524 0.000000
0.899748 0.752224 0.000000
0.913634 0.756252 0.000000
0.927184 0.759670 0.000000
0.940246 0.762264 0.000000
0.952819 0.764065 0.000000
0.961852 0.763058 0.000000
0.971008 0.761807 0.000000
0.980438 0.760372 0.000000
0.992248 0.760830 0.000000
1.000000 0.765072 0.000000
1.000000 0.774990 0.000000
0.709957 0.790524 0.293095
0.710292 0.790524 0.292760
0.710842 0.790188 0.291081
0.712093 0.789548 0.287114
0.714351 0.788754 0.281865
0.717769 0.787747 0.274174
0.722835 0.786740 0.265019
0.729702 0.785763 0.253422
0.738430 0.784848 0.240177
0.749172 0.783871 0.223728
0.761501 0.782895 0.204227
0.775723 0.781765 0.177951
0.791379 0.780179 0.139986
0.808072 0.778134 0.047547
