20 Preset/Dark Style/【3】LUT video cho PR-AE-FCPX/19Tones (7)/BP 19Tones.cube
# Created by Adobe Lightroom plugin Export LUT (1.24.0)
# www.johnrellis.com/lightroom/exportlut.htm
# Preset: BP 19Tones
# Color profile: E:\lut插件\exportlut.1.24\exportlut.lrplugin\color profiles\Rec709gamma2.4.icc
LUT_3D_SIZE 5
DOMAIN_MIN 0.000000 0.000000 0.000000
DOMAIN_MAX 0.903226 0.903226 0.903226
0.000000 0.120150 0.146120
0.382116 0.000000 0.166476
1.000000 0.000000 0.164187
1.000000 0.000000 0.316289
1.000000 0.395636 0.514183
0.292393 0.320562 0.214847
0.626520 0.275669 0.114717
1.000000 0.526787 0.243503
1.000000 0.508293 0.443519
1.000000 0.594141 0.616999
0.940764 0.886198 0.587121
0.999207 0.880919 0.439094
1.000000 0.645747 0.000000
1.000000 0.848173 0.739376
0.984466 0.842985 0.814908
0.972686 0.946838 0.850889
0.982788 0.945830 0.826505
1.000000 0.903655 0.671138
1.000000 0.662593 0.267247
0.976654 0.863981 0.822507
0.946075 0.925963 0.936950
0.943999 0.924041 0.933715
0.945434 0.918669 0.901762
0.966064 0.867552 0.785824
1.000000 0.712123 0.560815
0.000000 0.250248 0.381506
0.125734 0.246494 0.537591
1.000000 0.000000 0.730739
1.000000 0.490394 0.725643
0.988342 0.785183 0.807706
0.244694 0.422889 0.550225
0.462135 0.538323 0.606653
1.000000 0.627985 0.748684
1.000000 0.811551 0.831998
0.944762 0.856199 0.856657
0.906371 0.877409 0.872557
0.911223 0.892638 0.829648
1.000000 0.778775 0.553948
0.997955 0.907713 0.870390
0.940246 0.897337 0.890410
0.962860 0.946532 0.902373
0.967193 0.946014 0.888914
1.000000 0.924315 0.792325
1.000000 0.679988 0.357519
0.987182 0.853178 0.801328
0.947295 0.927092 0.938476
0.945342 0.925353 0.935454
0.938811 0.916472 0.915038
0.954040 0.874266 0.811276
1.000000 0.705013 0.551904
0.465339 0.696193 0.879789
0.578546 0.730007 0.880583
0.753475 0.727779 0.945312
1.000000 0.338048 0.984344
1.000000 0.781094 0.886900
0.643000 0.765133 0.896422
0.702235 0.785214 0.895323
0.834592 0.824887 0.934203
1.000000 0.636957 0.970520
0.964050 0.881712 0.901884
0.866819 0.884062 0.931487
0.889036 0.895995 0.932372
0.945678 0.932708 0.938811
0.956817 0.945495 0.939910
0.878752 0.948730 0.932616
0.961151 0.932952 0.935088
0.960601 0.934997 0.936797
0.955535 0.936889 0.934264
0.934936 0.935302 0.944549
0.902953 0.928527 0.942321
0.951263 0.927306 0.941283
0.949371 0.925353 0.942962
0.937499 0.917723 0.946685
0.923552 0.903014 0.906310
1.000000 0.665003 0.459571
0.840269 0.873869 0.950713
0.859495 0.883360 0.949676
0.899260 0.901793 0.948791
0.933471 0.911986 0.944701
0.947997 0.846220 0.940734
0.860807 0.884428 0.949310
0.873167 0.890654 0.948394
0.911101 0.911070 0.946471
0.942260 0.923247 0.943511
0.949737 0.873594 0.937804
0.908232 0.911955 0.947173
0.915373 0.916045 0.946593
0.941650 0.932158 0.944701
0.961273 0.944091 0.939269
0.946258 0.941802 0.920287
0.966094 0.942901 0.931121
0.966033 0.942748 0.930846
0.963989 0.939117 0.925994
0.949248 0.923278 0.912993
0.899229 0.903563 0.885161
0.919890 0.865110 0.867124
0.916106 0.864317 0.866697
0.902892 0.861662 0.864042
0.897154 0.865110 0.865782
0.844388 0.879942 0.898558
0.910246 0.912016 0.946685
0.916655 0.915801 0.946044
0.939513 0.929778 0.943297
0.962676 0.942657 0.931823
0.963073 0.944732 0.907500
0.915587 0.915282 0.946166
0.921630 0.918853 0.945525
0.942626 0.931762 0.942748
0.963775 0.943359 0.931640
0.962249 0.943175 0.905669
0.933776 0.926177 0.943267
0.938384 0.928985 0.942596
0.954803 0.938903 0.939178
0.966125 0.943023 0.928008
0.951446 0.927367 0.891173
0.967803 0.942260 0.925902
0.968048 0.942199 0.925139
0.967834 0.940185 0.920836
0.956207 0.925322 0.905516
0.916136 0.883452 0.860533
0.933806 0.889616 0.862974
0.931487 0.887510 0.861601
0.918273 0.875242 0.852903
0.892699 0.852903 0.837522
0.855680 0.822354 0.816251
