20 Preset/Dark Style/【3】LUT video cho PR-AE-FCPX/19Tones (7)/BP 19Tones.cube
# Created by Adobe Lightroom plugin Export LUT (1.24.0)
# www.johnrellis.com/lightroom/exportlut.htm
# Preset: BP 19Tones
# Color profile: E:\lut插件\exportlut.1.24\exportlut.lrplugin\color profiles\Rec709gamma2.4.icc
LUT_3D_SIZE 8
DOMAIN_MIN 0.000000 0.000000 0.000000
DOMAIN_MAX 0.903226 0.903226 0.903226
0.000000 0.120150 0.146120
0.116854 0.119448 0.151766
0.527672 0.000000 0.171206
1.000000 0.000000 0.157656
1.000000 0.000000 0.190433
1.000000 0.000000 0.288334
1.000000 0.067384 0.400183
1.000000 0.395636 0.514183
0.064668 0.155001 0.175845
0.159365 0.150546 0.161196
0.456123 0.159823 0.171206
1.000000 0.000000 0.145205
1.000000 0.000000 0.184909
1.000000 0.000000 0.296086
1.000000 0.269139 0.413611
1.000000 0.423621 0.518425
0.383581 0.408515 0.233402
0.465095 0.434272 0.172061
0.785733 0.333593 0.000000
0.966491 0.559380 0.241245
1.000000 0.621149 0.352514
1.000000 0.593347 0.459815
1.000000 0.618128 0.586725
1.000000 0.635523 0.642023
0.828702 0.781979 0.422583
0.863462 0.787594 0.367041
0.978943 0.771695 0.000000
1.000000 0.608545 0.000000
1.000000 0.755703 0.442786
1.000000 0.846616 0.743069
1.000000 0.818723 0.764157
1.000000 0.795956 0.769772
0.968231 0.922606 0.688838
0.978851 0.923674 0.666133
1.000000 0.919097 0.568566
1.000000 0.854276 0.339269
1.000000 0.654353 0.000000
1.000000 0.766110 0.525505
1.000000 0.871366 0.807858
0.967834 0.878325 0.854520
0.976013 0.946502 0.819211
0.978820 0.946807 0.819577
0.996033 0.945922 0.782071
1.000000 0.921202 0.686549
1.000000 0.837949 0.461982
1.000000 0.660487 0.216312
1.000000 0.782132 0.632685
0.966247 0.880308 0.850340
0.963073 0.941863 0.896025
0.963439 0.941253 0.894072
0.967651 0.939727 0.878569
0.978271 0.932158 0.840970
1.000000 0.902251 0.750179
1.000000 0.809842 0.544152
1.000000 0.674739 0.393866
1.000000 0.802609 0.713527
0.946075 0.925963 0.936950
0.945556 0.925505 0.936095
0.943206 0.923217 0.932341
0.938872 0.918090 0.922301
0.946441 0.912139 0.883726
0.958679 0.882017 0.814878
1.000000 0.785000 0.636744
1.000000 0.712123 0.560815
0.010376 0.156191 0.201175
0.021454 0.152560 0.225437
0.368750 0.000000 0.281743
0.977447 0.000000 0.395575
1.000000 0.000000 0.429969
1.000000 0.000000 0.486397
1.000000 0.414282 0.562676
1.000000 0.535851 0.618982
0.017487 0.170840 0.218814
0.122805 0.195804 0.235752
0.473518 0.162325 0.288609
1.000000 0.000000 0.339208
1.000000 0.000000 0.402411
1.000000 0.298222 0.492134
1.000000 0.463447 0.568780
1.000000 0.541161 0.612573
0.390417 0.422492 0.441627
0.407904 0.455299 0.396307
0.712398 0.402380 0.213230
0.917052 0.602716 0.428565
1.000000 0.645289 0.498146
1.000000 0.649622 0.588830
1.000000 0.672236 0.661097
1.000000 0.681636 0.687861
0.759243 0.757870 0.558129
0.792996 0.768582 0.519127
0.930724 0.782773 0.354040
1.000000 0.592279 0.000000
1.000000 0.753292 0.473426
1.000000 0.842039 0.733425
1.000000 0.818448 0.758877
1.000000 0.789792 0.756405
0.952880 0.917205 0.721065
0.962036 0.917693 0.697963
1.000000 0.918151 0.600793
1.000000 0.859739 0.377539
1.000000 0.650050 0.000000
1.000000 0.757076 0.483131
1.000000 0.857603 0.771023
0.981537 0.874174 0.842588
0.975158 0.945312 0.807340
0.979034 0.945525 0.799496
0.997742 0.945525 0.761105
1.000000 0.922789 0.665766
1.000000 0.843565 0.448463
1.000000 0.655268 0.157015
1.000000 0.772915 0.602991
0.976318 0.874815 0.837156
0.965118 0.943847 0.888304
0.966400 0.943816 0.883513
0.971832 0.942626 0.866239
0.984283 0.935332 0.827298
1.000000 0.904753 0.738125
1.000000 0.814328 0.531853
1.000000 0.669245 0.357610
1.000000 0.794156 0.689082
0.948577 0.928710 0.934417
0.947753 0.927825 0.934051
0.945892 0.925780 0.929778
0.942443 0.920775 0.919066
0.941863 0.911101 0.891295
0.955779 0.883360 0.821042
1.000000 0.788571 0.640314
1.000000 0.708736 0.552209
0.000000 0.311345 0.484474
0.000000 0.327825 0.494881
0.208621 0.311864 0.650660
0.798795 0.000000 0.764401
1.000000 0.000000 0.820493
1.000000 0.458595 0.785763
1.000000 0.722194 0.801999
0.964691 0.821744 0.836667
0.000000 0.352819 0.520195
0.157839 0.374914 0.530755
0.305486 0.418647 0.648585
0.812924 0.000000 0.765713
1.000000 0.244572 0.813474
1.000000 0.581170 0.795010
1.000000 0.758389 0.815000
0.955596 0.840391 0.848936
0.341375 0.529076 0.661036
0.401221 0.555749 0.672786
0.602808 0.654963 0.715328
0.906737 0.696132 0.803342
1.000000 0.783627 0.840116
1.000000 0.860563 0.874571
0.947631 0.899931 0.898131
0.904265 0.906218 0.899779
0.845548 0.887175 0.855222
0.866300 0.889616 0.860227
0.900053 0.878904 0.865354
0.975494 0.872679 0.786709
0.998566 0.900786 0.861631
0.985290 0.914641 0.899535
0.951843 0.914580 0.909361
0.916320 0.910887 0.907591
0.942809 0.921111 0.916594
0.942107 0.923125 0.911986
0.946654 0.930999 0.890013
0.985534 0.933654 0.830381
1.000000 0.823087 0.672175
1.000000 0.877165 0.817411
0.965332 0.922606 0.909300
0.935546 0.915251 0.912200
0.958282 0.944915 0.912963
0.959167 0.945312 0.910613
0.964050 0.946105 0.896056
0.982696 0.944396 0.856657
1.000000 0.904997 0.759731
1.000000 0.744472 0.535088
1.000000 0.836393 0.758602
0.962921 0.886625 0.861295
0.960937 0.943053 0.911711
0.961547 0.943053 0.908263
0.964874 0.942229 0.893431
0.975860 0.938415 0.858061
0.998932 0.913481 0.774197
1.000000 0.834257 0.580743
1.000000 0.654139 0.317967
1.000000 0.785458 0.675563
0.949279 0.929351 0.937041
0.949004 0.929137 0.936034
0.947143 0.927184 0.932219
0.942565 0.921721 0.923705
0.940764 0.913054 0.898741
0.949828 0.888670 0.837522
0.997070 0.805112 0.675196
1.000000 0.699306 0.535058
0.205905 0.580194 0.798795
0.290623 0.600336 0.806607
0.421881 0.629450 0.831937
0.591455 0.595636 0.904997
0.911833 0.314336 0.952178
1.000000 0.316075 0.971130
1.000000 0.654597 0.888884
0.999603 0.807095 0.862089
0.346777 0.623804 0.818570
0.391028 0.635645 0.820340
0.520104 0.674006 0.827634
0.649836 0.660975 0.903593
0.918944 0.428687 0.952514
1.000000 0.456153 0.963470
1.000000 0.714839 0.890532
0.982147 0.836942 0.871855
0.522423 0.694453 0.842588
0.556512 0.706264 0.844511
0.664515 0.746792 0.849882
0.783169 0.794278 0.887297
0.930541 0.712825 0.942657
1.000000 0.791989 0.938445
0.975525 0.892424 0.912261
0.904662 0.929870 0.914580
0.791135 0.834836 0.904326
0.802640 0.839567 0.904234
0.850431 0.863218 0.907958
0.913268 0.902373 0.918700
0.956207 0.918730 0.938750
0.963073 0.938109 0.937591
0.917723 0.950164 0.938445
0.865873 0.955077 0.939910
0.941222 0.943999 0.942809
0.943084 0.944579 0.942687
0.951965 0.946258 0.942535
0.961547 0.945373 0.942535
0.961547 0.945068 0.941650
0.952789 0.942962 0.942931
0.928038 0.939269 0.942992
0.890715 0.939635 0.943481
0.961730 0.942901 0.942107
0.961212 0.942168 0.941497
0.960662 0.943023 0.941314
0.960296 0.942870 0.941833
0.955627 0.939422 0.942657
0.954589 0.930022 0.924315
0.925109 0.932708 0.938750
0.905852 0.931456 0.945586
0.958068 0.938689 0.940642
0.957794 0.938201 0.940978
0.956725 0.936645 0.942565
0.952789 0.933379 0.944427
0.944396 0.928649 0.941497
0.941863 0.919554 0.915923
0.975402 0.854246 0.817380
0.936156 0.883055 0.870085
0.949981 0.928832 0.943328
0.949493 0.928435 0.942931
0.947204 0.926726 0.940490
0.942626 0.922667 0.932982
0.937804 0.915373 0.914122
0.941375 0.897093 0.864195
0.976989 0.831418 0.730129
1.000000 0.680812 0.500511
0.646387 0.778531 0.921324
0.673060 0.788388 0.922820
0.735653 0.810819 0.921843
0.788022 0.823209 0.939086
0.842161 0.813565 0.955688
0.908476 0.691676 0.970733
1.000000 0.523583 0.979828
1.000000 0.750088 0.928710
0.695644 0.798581 0.925292
0.718837 0.808072 0.927001
0.768185 0.826963 0.925933
0.809445 0.837736 0.936797
0.856504 0.832029 0.953429
0.911711 0.726802 0.967620
1.000000 0.585077 0.976196
1.000000 0.783536 0.925933
0.771267 0.832120 0.929412
0.781033 0.836210 0.929381
0.809964 0.847990 0.927550
0.856138 0.869596 0.925872
0.893065 0.877836 0.946136
0.922484 0.813443 0.958282
1.000000 0.754452 0.963104
0.988342 0.867613 0.920806
0.835874 0.866300 0.934020
0.841978 0.869139 0.933806
0.867704 0.882353 0.934051
0.904173 0.903441 0.935149
0.936309 0.924315 0.940398
0.950591 0.918303 0.946471
0.972747 0.915618 0.942870
0.923095 0.945281 0.923278
0.916930 0.917632 0.943572
0.920653 0.919829 0.943603
0.932616 0.927001 0.943542
0.949004 0.937285 0.943389
0.960021 0.944335 0.942779
0.961151 0.944976 0.938964
0.936126 0.944793 0.930205
0.890288 0.940734 0.923919
0.964141 0.942962 0.936187
0.964508 0.942901 0.935912
0.965179 0.942473 0.935882
0.965545 0.939849 0.934783
0.960357 0.934173 0.932830
0.949706 0.929595 0.930510
0.926329 0.925017 0.928893
0.901183 0.914885 0.920256
0.951202 0.917510 0.921782
0.951415 0.918517 0.922667
0.950835 0.920989 0.924224
0.946929 0.922240 0.922210
0.944671 0.921324 0.921904
0.931304 0.914672 0.934936
0.901427 0.927459 0.944823
0.880430 0.927092 0.944274
0.944518 0.921843 0.920195
0.944762 0.921599 0.921172
0.945006 0.920104 0.924773
0.941070 0.913909 0.929168
0.931334 0.907530 0.938720
0.908721 0.902373 0.948363
0.884367 0.905638 0.939788
0.931853 0.834989 0.811612
0.840787 0.874144 0.950683
0.848234 0.877806 0.950439
0.864195 0.885466 0.948882
0.889616 0.897765 0.948028
0.909850 0.903410 0.949157
0.927886 0.905821 0.946685
0.930694 0.871946 0.946593
0.967071 0.803464 0.944305
0.832975 0.869566 0.949157
0.837461 0.871550 0.948791
0.855070 0.879850 0.947448
0.882994 0.893828 0.946227
0.904570 0.900053 0.949310
0.926268 0.904662 0.947601
0.930663 0.871580 0.947814
0.969085 0.802823 0.945861
0.868162 0.888304 0.948638
0.870878 0.889616 0.948363
0.883909 0.896422 0.947356
0.901793 0.905913 0.945403
0.922820 0.915923 0.946807
0.943511 0.925414 0.944091
0.943236 0.906523 0.942046
0.961273 0.862486 0.937285
0.901579 0.907805 0.947509
0.903319 0.908690 0.947295
0.914244 0.915007 0.946532
0.934234 0.927337 0.945342
0.951873 0.938750 0.943725
0.961578 0.944121 0.937774
0.957427 0.942535 0.930449
0.945464 0.931029 0.921355
0.930877 0.926116 0.945800
0.932586 0.927123 0.945647
0.939940 0.931579 0.944945
0.951415 0.938628 0.943511
0.960082 0.943816 0.941527
0.963043 0.944549 0.937713
0.958312 0.945281 0.925444
0.928130 0.949737 0.911589
0.961547 0.943175 0.938140
0.962646 0.943481 0.937224
0.963836 0.943847 0.936248
0.964813 0.943511 0.934142
0.963348 0.940948 0.930663
0.955352 0.931670 0.922240
0.939300 0.917784 0.905333
0.896117 0.908812 0.890440
0.958282 0.920073 0.898589
0.957092 0.918608 0.897246
0.954620 0.916075 0.895384
0.949645 0.909483 0.892760
0.941253 0.897520 0.890105
0.923949 0.887816 0.886656
0.910887 0.884276 0.888029
0.885466 0.882383 0.886595
0.914672 0.869413 0.873106
0.914702 0.870115 0.873777
0.915435 0.872648 0.876585
0.914183 0.875761 0.878813
0.912139 0.881346 0.879759
0.908843 0.877165 0.884001
0.884398 0.870665 0.899962
0.834653 0.899229 0.922362
0.883024 0.897154 0.950439
0.886748 0.899168 0.950103
0.897246 0.904936 0.949187
0.915770 0.915648 0.947478
0.931640 0.923339 0.945556
0.950134 0.933745 0.939483
0.956329 0.937926 0.931304
0.949035 0.928405 0.925780
0.882780 0.897032 0.950378
0.886625 0.899168 0.950072
0.896788 0.904723 0.949187
0.914000 0.914580 0.947631
0.929961 0.922545 0.946014
0.947417 0.931792 0.941009
0.954223 0.935576 0.933776
0.947112 0.923064 0.929381
0.898680 0.906096 0.949035
0.900877 0.907317 0.948821
0.908843 0.911833 0.948119
0.923461 0.920500 0.946715
0.939300 0.929747 0.944945
0.953887 0.937530 0.939696
0.960906 0.942992 0.929717
0.953979 0.939178 0.922210
0.921172 0.919432 0.946685
0.922026 0.919921 0.946624
0.927886 0.923461 0.946014
0.939910 0.930816 0.944549
0.953063 0.939086 0.942443
0.962615 0.943908 0.936248
0.964446 0.945006 0.921996
0.956512 0.946960 0.912840
0.941650 0.931853 0.943481
0.941985 0.932097 0.943511
0.945769 0.934386 0.942962
0.953307 0.938933 0.941405
0.961212 0.943359 0.938689
0.964324 0.943786 0.934234
0.961822 0.939452 0.917754
0.950652 0.940490 0.901732
0.963317 0.942748 0.934295
0.963745 0.942901 0.933959
0.964965 0.943236 0.932769
0.966186 0.943023 0.930297
0.965454 0.940764 0.926268
0.959380 0.932982 0.918181
0.945708 0.917754 0.903288
0.930358 0.914366 0.881865
0.963195 0.929656 0.907317
0.962554 0.928862 0.906523
0.960693 0.926787 0.904784
0.956237 0.921996 0.900877
0.948486 0.914183 0.895048
0.935637 0.901640 0.885954
0.916503 0.883696 0.873014
0.892454 0.868803 0.854276
0.924498 0.877592 0.854124
0.923552 0.876738 0.853513
0.918639 0.872190 0.850217
0.911650 0.866087 0.846098
0.902647 0.855528 0.842710
0.889830 0.842222 0.838743
0.871092 0.836515 0.834806
0.857816 0.834012 0.838712
0.910246 0.912016 0.946685
0.912261 0.913176 0.946471
0.918914 0.917144 0.945830
0.931762 0.924956 0.944335
0.946441 0.933745 0.941741
0.959777 0.940978 0.934691
0.967254 0.945098 0.919951
0.963073 0.944732 0.907500
0.910796 0.912413 0.946746
0.912902 0.913603 0.946502
0.919646 0.917632 0.945800
0.932006 0.925170 0.944396
0.946654 0.934020 0.941894
0.959625 0.940978 0.935088
0.967132 0.945159 0.920989
0.963287 0.944976 0.908690
0.917296 0.916289 0.945983
0.918944 0.917296 0.945800
0.925078 0.920958 0.945129
0.937469 0.928527 0.943450
0.951080 0.937011 0.941100
0.961944 0.942535 0.934356
0.967041 0.944335 0.919677
0.962066 0.942779 0.905547
0.927764 0.922606 0.944427
0.929381 0.923583 0.944182
0.935088 0.927031 0.943420
0.945556 0.933410 0.941680
0.957397 0.940581 0.938689
0.965240 0.943877 0.931884
0.965270 0.940520 0.915099
0.956359 0.934234 0.896696
0.942565 0.931334 0.941222
0.943633 0.931945 0.941009
0.946593 0.933745 0.940490
0.954559 0.938445 0.938506
0.963226 0.943023 0.934569
0.965881 0.942016 0.927489
0.959747 0.932097 0.908568
0.943023 0.916289 0.882628
0.964324 0.942046 0.930907
0.964508 0.942138 0.930785
0.965423 0.942504 0.930083
0.966918 0.942748 0.928130
0.967437 0.941527 0.924315
0.961852 0.932952 0.913634
0.944488 0.912749 0.894835
0.920500 0.888701 0.863706
0.966552 0.932799 0.907347
0.966308 0.932525 0.907073
0.965148 0.931182 0.905852
0.962066 0.927642 0.902678
0.956146 0.921141 0.897215
0.945373 0.909880 0.888365
0.925109 0.889525 0.872648
0.895628 0.861082 0.846830
0.933806 0.889616 0.862974
0.933349 0.889189 0.862760
0.930419 0.886503 0.860899
0.923339 0.879881 0.856168
0.912413 0.870024 0.849271
0.897337 0.856870 0.840269
0.877195 0.839933 0.828580
0.855680 0.822354 0.816251
