20 Preset/Dark Style/【3】LUT video cho PR-AE-FCPX/19Tones (7)/BP 19Tones.cube
# Created by Adobe Lightroom plugin Export LUT (1.24.0)
# www.johnrellis.com/lightroom/exportlut.htm
# Preset: BP 19Tones
# Color profile: E:\lut插件\exportlut.1.24\exportlut.lrplugin\color profiles\Rec709gamma2.4.icc
LUT_3D_SIZE 32
DOMAIN_MIN 0.0 0.0 0.0
DOMAIN_MAX 1.0 1.0 1.0
0.000000 0.120150 0.146120
0.000000 0.120150 0.146120
0.000000 0.120150 0.146120
0.059968 0.119539 0.148043
0.116854 0.119448 0.151766
0.160616 0.118532 0.156741
0.255924 0.097475 0.161837
0.382116 0.000000 0.166476
0.527672 0.000000 0.171206
0.693751 0.000000 0.175082
0.869383 0.000000 0.176761
1.000000 0.000000 0.165713
1.000000 0.000000 0.157656
1.000000 0.000000 0.158694
1.000000 0.000000 0.164187
1.000000 0.000000 0.174990
1.000000 0.000000 0.190433
1.000000 0.000000 0.210697
1.000000 0.000000 0.234165
1.000000 0.000000 0.260380
1.000000 0.000000 0.288334
1.000000 0.000000 0.316289
1.000000 0.000000 0.344366
1.000000 0.000000 0.373358
1.000000 0.067384 0.400183
1.000000 0.236118 0.434730
1.000000 0.311833 0.466773
1.000000 0.358618 0.491341
1.000000 0.395636 0.514183
1.000000 0.424659 0.533593
1.000000 0.450996 0.551385
1.000000 0.474037 0.567437
0.000000 0.120150 0.146120
0.000000 0.120150 0.146120
0.000000 0.120089 0.146120
0.063935 0.119417 0.148043
0.117372 0.119417 0.151766
0.158755 0.118593 0.156588
0.248203 0.100343 0.161532
0.368994 0.000000 0.166140
0.508629 0.000000 0.170748
0.667475 0.000000 0.174533
0.836515 0.000000 0.171237
0.994781 0.000000 0.160922
1.000000 0.000000 0.157717
1.000000 0.000000 0.157504
1.000000 0.000000 0.162051
1.000000 0.000000 0.172061
1.000000 0.000000 0.186831
1.000000 0.000000 0.206516
1.000000 0.000000 0.229526
1.000000 0.000000 0.255039
1.000000 0.000000 0.282170
1.000000 0.000000 0.309636
1.000000 0.000000 0.337377
1.000000 0.000000 0.366033
1.000000 0.000000 0.392218
1.000000 0.212802 0.425727
1.000000 0.291661 0.456397
1.000000 0.340948 0.481453
1.000000 0.379644 0.504692
1.000000 0.409888 0.524651
1.000000 0.438148 0.543420
1.000000 0.462531 0.560113
0.000000 0.122560 0.148226
0.000000 0.122805 0.148409
0.001312 0.123659 0.148257
0.077302 0.125002 0.150759
0.117220 0.125887 0.154757
0.162478 0.124514 0.158846
0.251469 0.107698 0.162203
0.366613 0.000000 0.164736
0.498512 0.000000 0.166384
0.648859 0.000000 0.166445
0.813321 0.000000 0.164096
0.971649 0.000000 0.159701
1.000000 0.000000 0.155703
1.000000 0.000000 0.155215
1.000000 0.000000 0.159640
1.000000 0.000000 0.169986
1.000000 0.000000 0.185183
1.000000 0.000000 0.205325
1.000000 0.000000 0.228977
1.000000 0.000000 0.255161
1.000000 0.000000 0.283146
1.000000 0.000000 0.311101
1.000000 0.000000 0.338048
1.000000 0.000000 0.367376
1.000000 0.072358 0.393225
1.000000 0.226047 0.425666
1.000000 0.296330 0.455055
1.000000 0.343267 0.480140
1.000000 0.380163 0.503105
1.000000 0.410071 0.523095
1.000000 0.437842 0.541924
1.000000 0.462135 0.558923
0.012055 0.138247 0.164218
0.016266 0.139345 0.162966
0.050233 0.142153 0.158175
0.101381 0.136263 0.154849
0.102083 0.146914 0.167391
0.155795 0.149020 0.168917
0.245487 0.144350 0.169680
0.357275 0.120485 0.169741
0.485023 0.000000 0.168978
0.630152 0.000000 0.166751
0.789822 0.000000 0.162325
0.946624 0.000000 0.156039
1.000000 0.000000 0.151034
1.000000 0.000000 0.150210
1.000000 0.000000 0.155825
1.000000 0.000000 0.166964
1.000000 0.000000 0.183902
1.000000 0.000000 0.204929
1.000000 0.000000 0.229648
1.000000 0.000000 0.256321
1.000000 0.000000 0.284184
1.000000 0.000000 0.312078
1.000000 0.000000 0.340185
1.000000 0.000000 0.369085
1.000000 0.168307 0.395941
1.000000 0.264256 0.431312
1.000000 0.321782 0.460182
1.000000 0.363134 0.485603
1.000000 0.396796 0.508446
1.000000 0.424598 0.528527
1.000000 0.449348 0.546441
1.000000 0.470832 0.562188
0.064668 0.155001 0.175845
0.068391 0.155734 0.175418
0.088685 0.158053 0.171847
0.115114 0.156100 0.164889
0.159365 0.150546 0.161196
0.179477 0.165713 0.172549
0.232883 0.176333 0.176913
0.336309 0.175845 0.174533
0.456123 0.159823 0.171206
0.592096 0.106233 0.166690
0.743801 0.000000 0.160342
0.899626 0.000000 0.151888
1.000000 0.000000 0.145205
1.000000 0.000000 0.143679
1.000000 0.000000 0.150210
1.000000 0.000000 0.164431
1.000000 0.000000 0.184909
1.000000 0.000000 0.209964
1.000000 0.000000 0.237522
1.000000 0.000000 0.266392
1.000000 0.000000 0.296086
1.000000 0.000000 0.324712
1.000000 0.124727 0.353033
1.000000 0.207553 0.382818
1.000000 0.269139 0.413611
1.000000 0.322728 0.445411
1.000000 0.363226 0.472297
1.000000 0.396063 0.496803
1.000000 0.423621 0.518425
1.000000 0.446967 0.537285
1.000000 0.468330 0.554314
1.000000 0.487007 0.569207
0.112947 0.178134 0.184054
0.116457 0.179263 0.183413
0.129854 0.183230 0.180148
0.159243 0.188907 0.174289
0.204196 0.182834 0.166201
0.278935 0.174960 0.161776
0.313481 0.196689 0.169863
0.344366 0.219303 0.179660
0.440345 0.232853 0.179141
0.569329 0.233768 0.172457
0.715755 0.219120 0.164157
0.867430 0.186007 0.153506
1.000000 0.136965 0.144167
1.000000 0.096071 0.142794
1.000000 0.098207 0.152132
1.000000 0.106508 0.171054
1.000000 0.135195 0.197238
1.000000 0.155428 0.226932
1.000000 0.183505 0.258366
1.000000 0.207614 0.289464
1.000000 0.239048 0.320470
1.000000 0.267185 0.349645
1.000000 0.367895 0.430976
1.000000 0.391638 0.457679
1.000000 0.435798 0.497475
1.000000 0.469886 0.527825
1.000000 0.495247 0.550652
1.000000 0.513573 0.568353
1.000000 0.529656 0.584253
1.000000 0.541558 0.596551
1.000000 0.553063 0.607721
1.000000 0.561456 0.616266
0.209506 0.248508 0.199130
0.212589 0.249577 0.197757
0.229496 0.256016 0.191012
0.265782 0.266941 0.177493
0.308202 0.265202 0.164767
0.370459 0.242557 0.155154
0.474678 0.226322 0.147158
0.522637 0.262974 0.149630
0.560571 0.301152 0.166232
0.607965 0.350774 0.202029
0.757778 0.370703 0.190127
0.906096 0.385595 0.177646
1.000000 0.396063 0.172000
1.000000 0.404150 0.177890
1.000000 0.407935 0.194797
1.000000 0.408270 0.219730
1.000000 0.405768 0.250004
1.000000 0.402899 0.281804
1.000000 0.401160 0.314244
1.000000 0.402960 0.346990
1.000000 0.409125 0.379126
1.000000 0.419898 0.410681
1.000000 0.435096 0.443091
1.000000 0.462501 0.482033
1.000000 0.493355 0.519829
1.000000 0.517693 0.547967
1.000000 0.533593 0.566918
1.000000 0.547326 0.584009
1.000000 0.557855 0.597375
1.000000 0.567071 0.608820
1.000000 0.575097 0.618372
1.000000 0.581598 0.626276
0.292393 0.320562 0.214847
0.295018 0.321630 0.212985
0.310033 0.327947 0.204440
0.340764 0.339483 0.187442
0.381537 0.344274 0.164584
0.434394 0.334173 0.142275
0.504295 0.296971 0.130953
0.626520 0.275669 0.114717
0.685267 0.321447 0.107973
0.730282 0.368139 0.131868
0.781643 0.423926 0.179477
0.850614 0.479316 0.231144
0.970764 0.501732 0.225406
1.000000 0.517662 0.229892
1.000000 0.526787 0.243503
1.000000 0.529168 0.265171
1.000000 0.526604 0.291844
1.000000 0.520989 0.322057
1.000000 0.514855 0.353002
1.000000 0.509148 0.383551
1.000000 0.506706 0.413794
1.000000 0.508293 0.443519
1.000000 0.519921 0.480903
1.000000 0.539361 0.520409
1.000000 0.556878 0.551507
1.000000 0.569665 0.573388
1.000000 0.579614 0.590906
1.000000 0.587213 0.605035
1.000000 0.594141 0.616999
1.000000 0.600244 0.626886
1.000000 0.605432 0.635218
1.000000 0.609339 0.641871
0.383581 0.408515 0.233402
0.386542 0.409644 0.231357
0.398413 0.414618 0.222019
0.425147 0.424811 0.203006
0.465095 0.434272 0.172061
0.510857 0.429755 0.134585
0.572015 0.409949 0.089540
0.649073 0.360540 0.042023
0.785733 0.333593 0.000000
0.848264 0.388769 0.000000
0.892180 0.442084 0.000000
0.933471 0.499977 0.144991
0.966491 0.559380 0.241245
1.000000 0.602533 0.301518
1.000000 0.616419 0.312718
1.000000 0.621820 0.329992
1.000000 0.621149 0.352514
1.000000 0.615808 0.378149
1.000000 0.607965 0.405249
1.000000 0.599634 0.432563
1.000000 0.593347 0.459815
1.000000 0.595697 0.495949
1.000000 0.601740 0.530938
1.000000 0.610254 0.562158
1.000000 0.618128 0.586725
1.000000 0.624140 0.605524
1.000000 0.628840 0.620539
1.000000 0.632349 0.632258
1.000000 0.635523 0.642023
1.000000 0.638422 0.650141
1.000000 0.640894 0.657008
1.000000 0.642603 0.662501
0.483009 0.502892 0.258762
0.485420 0.503624 0.255833
0.495491 0.506920 0.246220
0.519493 0.515038 0.225406
0.558160 0.525628 0.189242
0.596490 0.522881 0.142458
0.648157 0.511070 0.028138
0.713283 0.483070 0.000000
0.794400 0.426764 0.000000
0.922515 0.396094 0.000000
0.970672 0.454139 0.000000
1.000000 0.506981 0.000000
1.000000 0.561364 0.109468
1.000000 0.615778 0.242954
1.000000 0.668666 0.356329
1.000000 0.690944 0.400641
1.000000 0.694728 0.421332
1.000000 0.691615 0.443275
1.000000 0.685115 0.466438
1.000000 0.679500 0.496376
1.000000 0.675349 0.527031
1.000000 0.671901 0.554253
1.000000 0.670222 0.579004
1.000000 0.670069 0.600855
1.000000 0.670741 0.619440
1.000000 0.670863 0.634150
1.000000 0.671504 0.646357
1.000000 0.671931 0.656519
1.000000 0.673213 0.665522
1.000000 0.674220 0.672816
1.000000 0.675044 0.678981
1.000000 0.675685 0.684047
0.580316 0.585901 0.288518
0.582940 0.586664 0.285985
0.592584 0.589868 0.276890
0.613977 0.596765 0.257053
0.649653 0.607111 0.221805
0.687495 0.610193 0.171633
0.731960 0.604486 0.079835
0.787045 0.588861 0.000000
0.850462 0.556054 0.000000
0.930022 0.496925 0.000000
1.000000 0.462806 0.000000
1.000000 0.518761 0.000000
1.000000 0.568292 0.000000
1.000000 0.617029 0.108034
1.000000 0.664759 0.265263
1.000000 0.710292 0.385962
1.000000 0.752499 0.493202
1.000000 0.755306 0.518181
1.000000 0.752438 0.542718
1.000000 0.746334 0.566400
1.000000 0.739620 0.588220
1.000000 0.733425 0.608545
1.000000 0.728511 0.627527
1.000000 0.724880 0.644617
1.000000 0.722042 0.659113
1.000000 0.719356 0.670588
1.000000 0.717037 0.680140
1.000000 0.715023 0.687922
1.000000 0.713619 0.694606
1.000000 0.712673 0.700526
1.000000 0.711574 0.705165
1.000000 0.710384 0.708858
0.691127 0.674189 0.334112
0.693050 0.674891 0.332189
0.702388 0.677760 0.322881
0.720333 0.683131 0.304906
0.749813 0.691371 0.273533
0.785611 0.697963 0.226566
0.820768 0.695064 0.159365
0.862852 0.685054 0.000000
0.910887 0.663752 0.000000
0.963287 0.624720 0.000000
1.000000 0.564233 0.000000
1.000000 0.526665 0.000000
1.000000 0.615930 0.000000
1.000000 0.660517 0.000000
1.000000 0.701930 0.252171
1.000000 0.741115 0.397284
1.000000 0.777859 0.517967
1.000000 0.812345 0.622431
1.000000 0.829984 0.684443
1.000000 0.822751 0.697383
1.000000 0.815274 0.708675
1.000000 0.808133 0.718410
1.000000 0.801694 0.726833
1.000000 0.795773 0.733913
1.000000 0.790127 0.739162
1.000000 0.784604 0.742824
1.000000 0.779202 0.744991
1.000000 0.773861 0.746212
1.000000 0.768704 0.746761
1.000000 0.764126 0.747311
0.999084 0.759792 0.747463
0.992432 0.755825 0.747524
0.828702 0.781979 0.422583
0.829801 0.782101 0.420386
0.834592 0.782712 0.412268
0.845487 0.784543 0.394995
0.863462 0.787594 0.367041
0.890532 0.793332 0.326329
0.914580 0.790768 0.276432
0.944244 0.784390 0.203952
0.978943 0.771695 0.000000
1.000000 0.749172 0.000000
1.000000 0.710109 0.000000
1.000000 0.651240 0.000000
1.000000 0.608545 0.000000
1.000000 0.650202 0.000000
1.000000 0.686976 0.117342
1.000000 0.721889 0.311742
1.000000 0.755703 0.442786
1.000000 0.788052 0.551568
1.000000 0.818997 0.645594
1.000000 0.847074 0.723201
1.000000 0.846616 0.743069
1.000000 0.839109 0.749660
1.000000 0.831876 0.755398
1.000000 0.825071 0.760250
1.000000 0.818723 0.764157
1.000000 0.812528 0.766659
1.000000 0.806729 0.768307
1.000000 0.801205 0.769314
1.000000 0.795956 0.769772
0.996368 0.791226 0.770047
0.989410 0.786740 0.770047
0.982483 0.782498 0.769680
0.903868 0.847715 0.511742
0.904143 0.847379 0.509880
0.907225 0.847135 0.500938
0.914427 0.847807 0.486549
0.925963 0.849210 0.463874
0.943877 0.851682 0.430549
0.961883 0.850156 0.389044
0.981476 0.843473 0.336004
1.000000 0.832853 0.266087
1.000000 0.816007 0.160159
1.000000 0.789456 0.000000
1.000000 0.746242 0.000000
1.000000 0.682307 0.000000
1.000000 0.633692 0.000000
1.000000 0.666926 0.000000
1.000000 0.698695 0.197848
1.000000 0.730037 0.351202
1.000000 0.761105 0.469795
1.000000 0.791684 0.571099
1.000000 0.821317 0.659358
1.000000 0.847776 0.731289
1.000000 0.864500 0.778286
1.000000 0.857359 0.782406
1.000000 0.850553 0.786099
1.000000 0.844114 0.789120
1.000000 0.837797 0.790921
1.000000 0.831846 0.792081
1.000000 0.826108 0.792508
0.993988 0.820768 0.792599
0.986816 0.815976 0.792660
0.979644 0.811460 0.792355
0.972595 0.807034 0.791592
0.940764 0.886198 0.587121
0.941344 0.886137 0.585199
0.943511 0.885801 0.577966
0.948119 0.885649 0.565087
0.956481 0.885832 0.544610
0.968963 0.886625 0.516320
0.984802 0.886900 0.481300
0.999207 0.880919 0.439094
1.000000 0.872251 0.387274
1.000000 0.859220 0.322026
1.000000 0.839445 0.234714
1.000000 0.809323 0.000427
1.000000 0.762570 0.000000
1.000000 0.695308 0.000000
1.000000 0.645747 0.000000
1.000000 0.674708 0.000000
1.000000 0.704189 0.246281
1.000000 0.734005 0.381628
1.000000 0.763882 0.491615
1.000000 0.793362 0.586481
1.000000 0.822080 0.670100
1.000000 0.848173 0.739376
1.000000 0.870512 0.793881
1.000000 0.871702 0.809293
1.000000 0.865232 0.811307
1.000000 0.859129 0.812833
0.998901 0.853239 0.813718
0.991913 0.847898 0.814420
0.984466 0.842985 0.814908
0.976593 0.838590 0.815213
0.968444 0.834653 0.815457
0.960449 0.830838 0.815061
0.958618 0.908263 0.643427
0.959197 0.908415 0.642786
0.961120 0.908568 0.638239
0.965393 0.908934 0.628412
0.972045 0.909514 0.613642
0.982361 0.910674 0.592309
0.996155 0.912505 0.566064
1.000000 0.909056 0.533684
1.000000 0.902190 0.493996
1.000000 0.891691 0.444739
1.000000 0.875822 0.383001
1.000000 0.852293 0.301030
1.000000 0.818296 0.182834
1.000000 0.768154 0.000000
1.000000 0.697505 0.000000
1.000000 0.651148 0.000000
1.000000 0.678248 0.003754
1.000000 0.706538 0.278111
1.000000 0.735409 0.402228
1.000000 0.764614 0.506462
1.000000 0.794064 0.599054
1.000000 0.822782 0.680781
1.000000 0.848631 0.747616
1.000000 0.870726 0.800320
1.000000 0.883299 0.832456
0.996429 0.877562 0.834043
0.989868 0.872160 0.835111
0.982849 0.867063 0.835660
0.975372 0.862272 0.835904
0.967681 0.857877 0.835782
0.959838 0.853696 0.835294
0.952056 0.849760 0.834440
0.968231 0.922606 0.688838
0.968566 0.922667 0.688228
0.970275 0.922820 0.684169
0.973419 0.923156 0.677516
0.978851 0.923674 0.666133
0.986938 0.924559 0.649561
0.997925 0.925750 0.628046
1.000000 0.924743 0.601038
1.000000 0.919097 0.568566
1.000000 0.910582 0.528313
1.000000 0.897917 0.478523
1.000000 0.879911 0.417182
1.000000 0.854276 0.339269
1.000000 0.818021 0.232273
1.000000 0.766781 0.000000
1.000000 0.695399 0.000000
1.000000 0.654353 0.000000
1.000000 0.680507 0.145205
1.000000 0.708339 0.309300
1.000000 0.736843 0.425238
1.000000 0.766110 0.525505
1.000000 0.795621 0.615137
1.000000 0.824033 0.693294
1.000000 0.849577 0.757412
1.000000 0.871366 0.807858
0.991119 0.889250 0.847105
0.982574 0.887602 0.853544
0.975463 0.882780 0.854215
0.967834 0.878325 0.854520
0.959930 0.874144 0.854429
0.951934 0.870146 0.853819
0.943999 0.866392 0.852842
0.974304 0.933776 0.731807
0.974701 0.933959 0.731777
0.978668 0.941650 0.768582
0.980896 0.941772 0.763546
0.984527 0.941924 0.755734
0.989776 0.942107 0.744167
0.997314 0.942290 0.728237
1.000000 0.942199 0.707912
1.000000 0.937285 0.683314
1.000000 0.930022 0.651850
1.000000 0.919554 0.612085
1.000000 0.904906 0.562860
1.000000 0.884642 0.501793
1.000000 0.856809 0.425391
1.000000 0.818814 0.328740
1.000000 0.766049 0.196750
1.000000 0.692561 0.000000
1.000000 0.656764 0.000000
1.000000 0.683589 0.236210
1.000000 0.712367 0.365667
1.000000 0.741665 0.470588
1.000000 0.771664 0.564202
1.000000 0.801419 0.647791
1.000000 0.829313 0.719081
1.000000 0.853513 0.775998
0.999207 0.873960 0.820859
0.980316 0.890867 0.856291
0.968353 0.896086 0.871519
0.961334 0.891661 0.871214
0.953643 0.887602 0.870848
0.945708 0.883757 0.870085
0.937804 0.880064 0.868925
0.977264 0.942382 0.777340
0.977569 0.942840 0.779782
0.978546 0.943328 0.781186
0.980255 0.943786 0.780301
0.983185 0.944121 0.775967
0.987366 0.944305 0.767727
0.993256 0.944396 0.755306
1.000000 0.944335 0.738643
1.000000 0.941650 0.718105
1.000000 0.935912 0.692592
1.000000 0.927703 0.660609
1.000000 0.916320 0.620111
1.000000 0.900542 0.569268
1.000000 0.879362 0.507774
1.000000 0.850706 0.431891
1.000000 0.811887 0.337469
1.000000 0.758816 0.214664
1.000000 0.686275 0.000000
1.000000 0.657832 0.004791
1.000000 0.684535 0.265873
1.000000 0.713252 0.387274
1.000000 0.742947 0.489479
1.000000 0.773159 0.580255
1.000000 0.803006 0.661158
1.000000 0.830381 0.728847
1.000000 0.854276 0.783413
0.992218 0.874296 0.826291
0.973419 0.890959 0.860594
0.958251 0.901793 0.883757
0.950652 0.897887 0.883482
0.942565 0.894285 0.882994
0.934356 0.890867 0.882048
0.977050 0.944945 0.798581
0.977234 0.945220 0.800900
0.977813 0.945525 0.802396
0.979095 0.945769 0.801938
0.981292 0.945953 0.798825
0.984527 0.945983 0.792355
0.989075 0.945922 0.782559
0.995331 0.945769 0.769162
1.000000 0.944854 0.752438
1.000000 0.940246 0.731655
1.000000 0.933776 0.705959
1.000000 0.924804 0.673457
1.000000 0.912566 0.632532
1.000000 0.895964 0.581476
1.000000 0.873899 0.519951
1.000000 0.844541 0.445624
1.000000 0.805112 0.354009
1.000000 0.751247 0.239933
1.000000 0.678920 0.000000
1.000000 0.658961 0.144686
1.000000 0.685847 0.297581
1.000000 0.714870 0.411810
1.000000 0.744808 0.509850
1.000000 0.775204 0.597345
1.000000 0.804959 0.674861
1.000000 0.832029 0.739528
1.000000 0.855528 0.791562
0.984222 0.875334 0.832975
0.965454 0.891630 0.865934
0.949187 0.904631 0.891905
0.940246 0.903014 0.894347
0.932006 0.899748 0.893492
0.976013 0.946502 0.819211
0.975952 0.946624 0.821317
0.976349 0.946715 0.822324
0.977264 0.946777 0.821927
0.978820 0.946807 0.819577
0.981353 0.946746 0.814176
0.984863 0.946593 0.806394
0.989715 0.946349 0.795621
0.996033 0.945922 0.782071
1.000000 0.942992 0.765316
1.000000 0.937896 0.744900
1.000000 0.930816 0.719081
1.000000 0.921202 0.686549
1.000000 0.908232 0.645319
1.000000 0.890959 0.594812
1.000000 0.868132 0.534203
1.000000 0.837949 0.461982
1.000000 0.797971 0.376135
1.000000 0.743374 0.272862
1.000000 0.671046 0.138369
1.000000 0.660487 0.216312
1.000000 0.688746 0.345953
1.000000 0.719020 0.453254
1.000000 0.750484 0.548028
1.000000 0.782132 0.632685
1.000000 0.812222 0.705776
1.000000 0.838804 0.765286
0.986725 0.861540 0.812833
0.966247 0.880308 0.850340
0.948363 0.895445 0.879881
0.933410 0.907225 0.902617
0.923644 0.908843 0.908568
0.972686 0.946838 0.850889
0.972625 0.946807 0.851530
0.972900 0.946746 0.851102
0.973571 0.946654 0.849577
0.974823 0.946563 0.846403
0.976684 0.946410 0.841520
0.979248 0.946197 0.835080
0.982788 0.945830 0.826505
0.987396 0.945342 0.815946
0.992676 0.943938 0.802823
0.997375 0.939910 0.787015
1.000000 0.934386 0.767330
1.000000 0.927001 0.742428
1.000000 0.916991 0.710811
1.000000 0.903655 0.671138
1.000000 0.885801 0.621271
1.000000 0.862333 0.561364
1.000000 0.831479 0.490394
1.000000 0.790707 0.406653
1.000000 0.734707 0.306920
1.000000 0.662440 0.188357
1.000000 0.662593 0.267247
1.000000 0.691707 0.382025
1.000000 0.722408 0.480903
1.000000 0.754208 0.570642
1.000000 0.785885 0.651331
1.000000 0.815671 0.720821
0.999359 0.841794 0.777401
0.976654 0.863981 0.822507
0.956512 0.882231 0.858061
0.939361 0.896757 0.885771
0.925383 0.907897 0.906859
0.970001 0.945953 0.866606
0.969940 0.945861 0.867033
0.970092 0.945800 0.866758
0.970581 0.945678 0.865537
0.971435 0.945525 0.863157
0.972778 0.945342 0.859312
0.974701 0.945068 0.854063
0.977264 0.944701 0.847318
0.980682 0.944152 0.838987
0.985107 0.943389 0.828428
0.989014 0.940581 0.815793
0.993439 0.936278 0.800259
0.999115 0.930419 0.780667
1.000000 0.922637 0.756191
1.000000 0.912230 0.725490
1.000000 0.898497 0.687160
1.000000 0.880125 0.638911
1.000000 0.856138 0.580987
1.000000 0.824430 0.511711
1.000000 0.782803 0.431159
1.000000 0.725704 0.334936
1.000000 0.652735 0.223423
1.000000 0.665675 0.315343
1.000000 0.695979 0.421180
1.000000 0.725826 0.503563
1.000000 0.757687 0.589166
1.000000 0.789670 0.667720
1.000000 0.818906 0.733822
0.990051 0.844633 0.787930
0.967620 0.866300 0.830900
0.947936 0.883970 0.864683
0.931365 0.897948 0.890837
0.965637 0.943511 0.886473
0.965484 0.943359 0.887144
0.965545 0.943236 0.886900
0.965881 0.943145 0.885588
0.966552 0.943084 0.883177
0.967590 0.942962 0.879545
0.969116 0.942809 0.874632
0.971069 0.942565 0.868559
0.973754 0.942138 0.860929
0.977142 0.941497 0.851743
0.981140 0.940154 0.840391
0.984771 0.936797 0.826932
0.989349 0.932311 0.810544
0.995239 0.926268 0.789914
1.000000 0.918242 0.764492
1.000000 0.907469 0.732601
1.000000 0.893156 0.693172
1.000000 0.874205 0.644678
1.000000 0.849424 0.586877
1.000000 0.816983 0.519493
1.000000 0.774228 0.440894
1.000000 0.715908 0.346471
1.000000 0.642695 0.237461
1.000000 0.669215 0.347509
1.000000 0.699763 0.445441
1.000000 0.731044 0.531945
1.000000 0.762997 0.612848
1.000000 0.794675 0.686854
1.000000 0.823423 0.749142
0.979736 0.848203 0.799496
0.958038 0.869108 0.839780
0.939178 0.886046 0.871458
0.963073 0.941863 0.896025
0.962890 0.941711 0.896574
0.962860 0.941558 0.896605
0.963043 0.941405 0.895720
0.963439 0.941253 0.894072
0.964019 0.941070 0.891600
0.964904 0.940764 0.888273
0.966094 0.940307 0.883909
0.967651 0.939727 0.878569
0.969726 0.938994 0.871977
0.972564 0.938018 0.863645
0.975158 0.935637 0.853574
0.978271 0.932158 0.840970
0.982422 0.927520 0.825223
0.987945 0.921386 0.805356
0.995026 0.913176 0.780758
1.000000 0.902251 0.750179
1.000000 0.887785 0.712642
1.000000 0.868528 0.666560
1.000000 0.843168 0.610437
1.000000 0.809842 0.544152
1.000000 0.765682 0.466468
1.000000 0.706203 0.372015
1.000000 0.644160 0.289464
1.000000 0.674739 0.393866
1.000000 0.706630 0.485878
1.000000 0.738674 0.567559
1.000000 0.771084 0.644007
1.000000 0.802609 0.713527
0.987396 0.830411 0.770626
0.964385 0.854093 0.816434
0.944182 0.873594 0.852628
0.959228 0.938903 0.908354
0.959106 0.938781 0.908598
0.959136 0.938689 0.908385
0.959197 0.938567 0.907622
0.959442 0.938415 0.906249
0.959777 0.938231 0.904234
0.960296 0.937926 0.901610
0.960998 0.937530 0.898100
0.961944 0.936950 0.893797
0.963195 0.936217 0.888579
0.964996 0.935302 0.881926
0.967163 0.933837 0.873747
0.969177 0.931121 0.863981
0.972015 0.927581 0.851682
0.975921 0.922850 0.836088
0.981109 0.916594 0.816770
0.987823 0.908232 0.793027
0.996277 0.897093 0.763699
1.000000 0.882322 0.727871
1.000000 0.862760 0.683864
1.000000 0.836942 0.629694
1.000000 0.802762 0.564172
1.000000 0.756863 0.485237
1.000000 0.695644 0.388403
1.000000 0.649317 0.336339
1.000000 0.681239 0.433387
1.000000 0.713710 0.518914
1.000000 0.745937 0.595819
1.000000 0.778225 0.668025
0.999329 0.809140 0.733242
0.974975 0.835874 0.786069
0.952972 0.858488 0.828336
0.955932 0.936065 0.917601
0.955840 0.935973 0.917693
0.955749 0.935851 0.917601
0.955718 0.935698 0.917113
0.955688 0.935424 0.916289
0.955657 0.935058 0.915160
0.955505 0.934447 0.913817
0.955261 0.933654 0.912139
0.955047 0.932616 0.910002
0.954803 0.931365 0.907317
0.954620 0.929870 0.903899
0.954681 0.928191 0.899413
0.954833 0.925902 0.893553
0.955322 0.923033 0.885863
0.956542 0.919524 0.875975
0.958892 0.915099 0.862943
0.962463 0.909300 0.846677
0.967376 0.901488 0.826352
0.973907 0.891020 0.801389
0.982483 0.877043 0.770443
0.993622 0.858366 0.731533
1.000000 0.833036 0.681697
1.000000 0.798642 0.618402
1.000000 0.750607 0.535668
1.000000 0.687495 0.435065
1.000000 0.658625 0.410681
1.000000 0.693324 0.498390
1.000000 0.727565 0.576471
1.000000 0.760525 0.646448
0.999390 0.791745 0.709651
0.975158 0.820798 0.765896
0.953216 0.845457 0.811063
0.949554 0.929747 0.930968
0.949523 0.929717 0.930938
0.949493 0.929686 0.930694
0.949432 0.929595 0.930297
0.949310 0.929412 0.929595
0.949126 0.929137 0.928649
0.948882 0.928740 0.927337
0.948516 0.928161 0.925750
0.948089 0.927398 0.923766
0.947631 0.926452 0.921233
0.947173 0.925322 0.918120
0.946807 0.923980 0.914183
0.946593 0.922393 0.909239
0.946624 0.920348 0.902983
