20 Preset/Dark Style/【3】LUT video cho PR-AE-FCPX/19Tones (7)/BP Church.cube
# Created by Adobe Lightroom plugin Export LUT (1.24.0)
# www.johnrellis.com/lightroom/exportlut.htm
# Preset: BP Church
# Color profile: E:\lut插件\exportlut.1.24\exportlut.lrplugin\color profiles\Rec709gamma2.4.icc
LUT_3D_SIZE 32
DOMAIN_MIN 0.0 0.0 0.0
DOMAIN_MAX 1.0 1.0 1.0
0.128939 0.187320 0.214481
0.128939 0.187320 0.214481
0.128939 0.187320 0.214481
0.128084 0.186496 0.213718
0.124086 0.185428 0.212833
0.123995 0.184695 0.212039
0.132937 0.184573 0.211429
0.151949 0.186007 0.211063
0.186587 0.189151 0.210971
0.240909 0.195377 0.210452
0.312566 0.205325 0.209354
0.396643 0.220279 0.206943
0.490364 0.241032 0.203525
0.591547 0.268406 0.198337
0.691859 0.300023 0.192447
0.778225 0.333440 0.188510
0.893400 0.392462 0.193820
0.963897 0.444007 0.214054
1.000000 0.487587 0.246036
1.000000 0.526238 0.284276
1.000000 0.560479 0.324987
1.000000 0.590845 0.365972
1.000000 0.617029 0.404730
1.000000 0.640955 0.441901
1.000000 0.663020 0.477699
1.000000 0.683558 0.511192
1.000000 0.703456 0.544274
1.000000 0.722683 0.576135
1.000000 0.741726 0.608057
1.000000 0.760342 0.639033
1.000000 0.778744 0.669886
1.000000 0.796201 0.698848
0.128939 0.187320 0.214481
0.128939 0.187320 0.214481
0.129091 0.187167 0.214511
0.127626 0.186526 0.213718
0.123842 0.185580 0.212955
0.123934 0.184695 0.212161
0.132479 0.184604 0.211429
0.149660 0.185916 0.211093
0.181643 0.188937 0.210819
0.231754 0.194553 0.210361
0.299260 0.203799 0.209323
0.379767 0.217563 0.207218
0.470161 0.237034 0.203738
0.568597 0.262913 0.198520
0.669184 0.293462 0.192386
0.758755 0.326421 0.187228
0.874144 0.381781 0.188724
0.947814 0.431250 0.203677
0.993866 0.473640 0.230686
1.000000 0.511620 0.264714
1.000000 0.545403 0.302678
1.000000 0.575372 0.341711
1.000000 0.601404 0.378943
1.000000 0.625483 0.415961
1.000000 0.647822 0.452064
1.000000 0.669245 0.487404
1.000000 0.690272 0.522301
1.000000 0.710811 0.556603
1.000000 0.731197 0.590661
1.000000 0.751247 0.624262
1.000000 0.770748 0.656855
1.000000 0.789548 0.688197
0.128878 0.187045 0.214389
0.128878 0.187045 0.214389
0.128725 0.186893 0.214176
0.126192 0.186160 0.213901
0.122255 0.185519 0.213474
0.124819 0.184909 0.212497
0.133730 0.185275 0.211612
0.151614 0.186526 0.210880
0.182315 0.189792 0.210330
0.230259 0.195682 0.209628
0.294896 0.205081 0.208255
0.372045 0.218601 0.205814
0.459144 0.237644 0.201999
0.554406 0.262669 0.196353
0.653864 0.292424 0.188968
0.748928 0.326268 0.181918
0.860838 0.377691 0.178866
0.935760 0.424109 0.189487
0.984375 0.464973 0.212070
1.000000 0.502434 0.244175
1.000000 0.536278 0.281315
1.000000 0.566522 0.320348
1.000000 0.592523 0.358190
1.000000 0.616663 0.396033
1.000000 0.638911 0.432258
1.000000 0.660548 0.469123
1.000000 0.682124 0.505730
1.000000 0.703487 0.541985
1.000000 0.724636 0.577935
1.000000 0.745449 0.613123
1.000000 0.765682 0.647303
1.000000 0.784970 0.679744
0.127504 0.185641 0.213291
0.127138 0.185672 0.213169
0.126802 0.185702 0.212924
0.126101 0.185306 0.212589
0.124422 0.184665 0.212161
0.125490 0.184878 0.212131
0.136934 0.186404 0.211704
0.156893 0.188937 0.210788
0.187961 0.192721 0.209628
0.234470 0.199344 0.208286
0.296025 0.209140 0.206332
0.369329 0.223514 0.203281
0.452277 0.242710 0.198581
0.543267 0.267155 0.191684
0.639033 0.295628 0.182864
0.741695 0.331395 0.171878
0.844205 0.375738 0.162905
0.916777 0.416358 0.165408
0.967529 0.453254 0.180880
1.000000 0.487648 0.207309
1.000000 0.519554 0.241184
1.000000 0.548943 0.278660
1.000000 0.575647 0.317327
1.000000 0.601251 0.358312
1.000000 0.625818 0.400000
1.000000 0.649897 0.442115
1.000000 0.673945 0.484474
1.000000 0.697505 0.526177
1.000000 0.720150 0.565667
1.000000 0.741634 0.602930
1.000000 0.762051 0.638331
1.000000 0.781033 0.670954
0.124727 0.184482 0.211917
0.124727 0.184482 0.211917
0.124819 0.184482 0.211795
0.124636 0.184360 0.211551
0.124392 0.184207 0.211429
0.125063 0.184329 0.211673
0.133577 0.185611 0.211307
0.152163 0.188754 0.210758
0.186007 0.194675 0.209415
0.234531 0.204410 0.207218
0.291844 0.215396 0.204501
0.360296 0.230198 0.200565
0.438392 0.249699 0.195010
0.525811 0.273991 0.186923
0.619593 0.302556 0.175479
0.732692 0.341405 0.157900
0.829679 0.381018 0.141085
0.903227 0.417884 0.134188
0.957000 0.452094 0.144137
0.995666 0.484291 0.167727
1.000000 0.514488 0.200992
1.000000 0.542535 0.239689
1.000000 0.568658 0.280247
1.000000 0.594202 0.324651
1.000000 0.619043 0.369360
1.000000 0.643549 0.415473
1.000000 0.667750 0.461311
1.000000 0.691646 0.506279
1.000000 0.714565 0.548241
1.000000 0.736416 0.588067
1.000000 0.756954 0.624811
1.000000 0.776211 0.658900
0.124636 0.184360 0.211551
0.124636 0.184360 0.211551
0.124636 0.184360 0.211551
0.124575 0.184360 0.211673
0.125032 0.184634 0.211887
0.126101 0.185306 0.212589
0.128267 0.186618 0.213931
0.144503 0.189395 0.213443
0.177279 0.194919 0.211612
0.226444 0.204776 0.208927
0.289403 0.219516 0.204929
0.360632 0.239475 0.198825
0.437751 0.264652 0.189944
0.522454 0.290562 0.179294
0.621942 0.322698 0.162905
0.736172 0.362676 0.136355
0.828397 0.399023 0.107698
0.900877 0.432624 0.079347
0.955169 0.463752 0.078218
0.994568 0.492866 0.111116
1.000000 0.520500 0.151675
1.000000 0.546502 0.196933
1.000000 0.641291 0.362036
1.000000 0.662684 0.410712
1.000000 0.682918 0.456031
1.000000 0.702419 0.498299
1.000000 0.720943 0.537163
1.000000 0.738582 0.573083
1.000000 0.755428 0.606622
1.000000 0.771664 0.638270
1.000000 0.787106 0.667720
1.000000 0.801480 0.694697
0.129152 0.187778 0.213931
0.129335 0.187625 0.213931
0.129427 0.187472 0.214084
0.128878 0.187045 0.214389
0.129732 0.187869 0.215061
0.131655 0.189029 0.216159
0.135714 0.191623 0.218692
0.141573 0.195560 0.222690
0.175601 0.204440 0.224704
0.241032 0.216342 0.218021
0.317418 0.235080 0.210727
0.400885 0.260410 0.201236
0.487770 0.290684 0.188174
0.577935 0.324559 0.169589
0.706477 0.377264 0.129000
0.805173 0.420783 0.018952
0.884306 0.454383 0.000000
0.943999 0.482612 0.000000
0.988251 0.508476 0.000000
1.000000 0.534203 0.000000
1.000000 0.560418 0.103670
1.000000 0.586908 0.184451
1.000000 0.613336 0.254124
1.000000 0.639216 0.320531
1.000000 0.663661 0.383215
1.000000 0.685695 0.438056
1.000000 0.706081 0.487160
1.000000 0.724971 0.530632
1.000000 0.742916 0.570001
1.000000 0.759915 0.606195
1.000000 0.776242 0.639704
1.000000 0.791531 0.670100
0.137362 0.193271 0.218235
0.137118 0.193149 0.218265
0.137087 0.192721 0.218418
0.136233 0.191897 0.218662
0.136995 0.192508 0.219669
0.139925 0.194430 0.221500
0.144167 0.197269 0.224369
0.150973 0.202152 0.228916
0.162875 0.210330 0.236851
0.202060 0.228977 0.250370
0.290471 0.244572 0.236271
0.379583 0.267979 0.222812
0.473182 0.298497 0.207431
0.597620 0.346899 0.185061
0.708675 0.391455 0.152621
0.796353 0.428717 0.106294
0.867277 0.461524 0.000000
0.924010 0.490944 0.000000
0.968963 0.517693 0.000000
1.000000 0.539971 0.000000
1.000000 0.562219 0.000000
1.000000 0.585046 0.000000
1.000000 0.608118 0.151614
1.000000 0.631067 0.235203
1.000000 0.653254 0.307164
1.000000 0.674006 0.371038
1.000000 0.693721 0.428199
1.000000 0.713008 0.480690
1.000000 0.731777 0.527855
1.000000 0.749660 0.570611
1.000000 0.766812 0.609247
1.000000 0.783047 0.644495
0.152255 0.203769 0.226474
0.152132 0.203494 0.226505
0.151827 0.202701 0.226627
0.150240 0.201450 0.226780
0.149386 0.200809 0.227665
0.153506 0.203647 0.230411
0.159396 0.207828 0.234531
0.168765 0.214420 0.240879
0.181827 0.224063 0.250187
0.200015 0.237919 0.263493
0.239261 0.270359 0.294713
0.356878 0.300572 0.283787
0.481727 0.339025 0.264530
0.602930 0.380407 0.240116
0.707637 0.417365 0.210422
0.791043 0.448341 0.175875
0.859648 0.476631 0.133211
0.915587 0.502800 0.040131
0.960632 0.527276 0.000000
0.996979 0.550500 0.000000
1.000000 0.572656 0.000000
1.000000 0.593133 0.000000
1.000000 0.612116 0.000000
1.000000 0.631189 0.110048
1.000000 0.650019 0.217258
1.000000 0.668147 0.294682
1.000000 0.686152 0.361883
1.000000 0.704311 0.423224
1.000000 0.722866 0.479377
1.000000 0.741115 0.529961
1.000000 0.758633 0.574853
1.000000 0.775326 0.615229
0.176303 0.221195 0.240421
0.175601 0.220768 0.240391
0.174868 0.219364 0.240330
0.173007 0.217319 0.240391
0.168093 0.213870 0.240208
0.172702 0.217350 0.243717
0.180484 0.223026 0.249210
0.191562 0.231388 0.257115
0.206577 0.243046 0.268406
0.232731 0.264744 0.289220
0.266819 0.295354 0.318883
0.313207 0.341161 0.363806
0.431220 0.387091 0.372442
0.565545 0.419257 0.339666
0.679805 0.450233 0.306737
0.771298 0.477089 0.272740
0.846250 0.502586 0.239261
0.906676 0.526543 0.204501
0.953613 0.548730 0.170047
0.990356 0.569268 0.130526
1.000000 0.588220 0.072847
1.000000 0.605219 0.000000
1.000000 0.620905 0.000000
1.000000 0.634943 0.000000
1.000000 0.648310 0.000000
1.000000 0.662470 0.180056
1.000000 0.677638 0.267430
1.000000 0.693904 0.341558
1.000000 0.711604 0.409918
1.000000 0.730129 0.472236
1.000000 0.748745 0.528313
1.000000 0.766598 0.577478
0.205600 0.244205 0.259281
0.205356 0.243687 0.259159
0.204379 0.242222 0.259068
0.202243 0.239506 0.259129
0.197299 0.235386 0.259129
0.198398 0.236606 0.262150
0.210330 0.245945 0.271244
0.227695 0.260258 0.284947
0.249424 0.279362 0.303319
0.276646 0.304906 0.328099
0.309087 0.336889 0.359564
0.347234 0.376135 0.398383
0.393713 0.424384 0.445960
0.496773 0.480415 0.479713
0.634974 0.502953 0.439246
0.740108 0.523033 0.400275
0.822660 0.542077 0.363653
0.887755 0.560479 0.329839
0.937469 0.577600 0.298741
0.975830 0.593805 0.270665
1.000000 0.609033 0.245457
1.000000 0.623316 0.222599
1.000000 0.636896 0.202884
1.000000 0.649317 0.184176
1.000000 0.660304 0.166812
1.000000 0.669947 0.148348
1.000000 0.678950 0.146700
1.000000 0.692348 0.253025
1.000000 0.707424 0.335454
1.000000 0.724117 0.408972
1.000000 0.742061 0.476417
1.000000 0.759915 0.534936
0.255680 0.287602 0.295689
0.255406 0.287144 0.295689
0.255009 0.285740 0.296025
0.253208 0.282841 0.296513
0.249088 0.278233 0.297002
0.244663 0.275059 0.299290
0.258457 0.287633 0.311376
0.276341 0.304479 0.327764
0.298680 0.326360 0.349248
0.325994 0.354101 0.376593
0.358587 0.388006 0.410101
0.396826 0.427527 0.449042
0.572656 0.587549 0.601404
0.622004 0.627741 0.638422
0.692134 0.678309 0.682124
0.789487 0.680690 0.641321
0.861845 0.684504 0.603540
0.914641 0.687495 0.567193
0.954559 0.690700 0.533318
0.986145 0.694240 0.502098
1.000000 0.698054 0.473854
1.000000 0.702052 0.448310
1.000000 0.706111 0.425147
1.000000 0.710384 0.404822
1.000000 0.714290 0.385687
1.000000 0.717617 0.366857
1.000000 0.720546 0.348760
1.000000 0.723384 0.331731
1.000000 0.726497 0.316503
1.000000 0.737514 0.380835
1.000000 0.751644 0.451850
1.000000 0.766720 0.513878
0.359533 0.392798 0.388983
0.358679 0.391638 0.388434
0.355993 0.387793 0.386847
0.351446 0.380652 0.384436
0.342931 0.370336 0.381170
0.330236 0.357733 0.377630
0.336675 0.365209 0.387518
0.354925 0.384192 0.406317
0.379706 0.409979 0.431800
0.412421 0.443427 0.464668
0.455085 0.484871 0.504845
0.508019 0.532799 0.550317
0.564874 0.581109 0.595422
0.619928 0.626062 0.636866
0.665095 0.662257 0.670008
0.725368 0.710597 0.714260
0.799496 0.718410 0.693141
0.863645 0.720272 0.660365
0.911345 0.721553 0.628809
0.948394 0.722591 0.598688
0.978149 0.724117 0.570733
1.000000 0.726131 0.545373
1.000000 0.728420 0.521935
1.000000 0.731106 0.500999
1.000000 0.733547 0.481025
1.000000 0.735805 0.462013
1.000000 0.737972 0.444190
1.000000 0.740200 0.427741
1.000000 0.742702 0.413031
1.000000 0.745663 0.401099
1.000000 0.748745 0.390600
1.000000 0.760098 0.445838
0.418891 0.454414 0.445991
0.417426 0.452613 0.444709
0.413245 0.447242 0.441627
0.407263 0.438880 0.438025
0.397620 0.427314 0.432990
0.383703 0.412482 0.427314
0.376196 0.406348 0.428229
0.393042 0.423682 0.445319
0.416297 0.447242 0.468391
0.447700 0.477943 0.498146
0.488289 0.515404 0.533898
0.536553 0.557397 0.573388
0.587579 0.599786 0.612696
0.636744 0.639582 0.649256
0.680903 0.674922 0.681605
0.714870 0.702113 0.706508
0.759213 0.738277 0.739712
0.810788 0.752041 0.737179
0.865751 0.752163 0.708675
0.909026 0.752407 0.681209
0.943236 0.752834 0.655482
0.971405 0.753750 0.631739
0.994842 0.754879 0.609674
1.000000 0.756435 0.589715
1.000000 0.757870 0.570855
1.000000 0.759182 0.552850
1.000000 0.760372 0.535576
1.000000 0.761563 0.519341
1.000000 0.763272 0.505180
1.000000 0.765347 0.493019
1.000000 0.767758 0.482460
1.000000 0.770352 0.473732
0.481209 0.514366 0.501946
0.480140 0.513054 0.501122
0.475471 0.507927 0.498054
0.468421 0.499519 0.493751
0.457557 0.487343 0.487861
0.443427 0.472084 0.481178
0.425849 0.456275 0.475685
0.437079 0.467781 0.488350
0.459937 0.489479 0.509239
0.490181 0.517082 0.535515
0.527794 0.549889 0.566369
0.571008 0.586206 0.600122
0.616083 0.622919 0.633967
0.659174 0.657496 0.665675
0.698299 0.688838 0.694331
0.731472 0.715541 0.718776
0.757015 0.736446 0.738003
0.788327 0.762783 0.762417
0.823270 0.781094 0.773312
0.869291 0.780087 0.748898
0.907836 0.780545 0.726619
0.939330 0.780972 0.705318
0.965515 0.781308 0.684901
0.987762 0.781704 0.665644
1.000000 0.782284 0.647547
1.000000 0.782803 0.630518
1.000000 0.783566 0.614862
1.000000 0.784604 0.600519
1.000000 0.786160 0.588159
1.000000 0.788357 0.578210
1.000000 0.790738 0.569726
1.000000 0.793332 0.562768
0.538323 0.564508 0.549920
0.538231 0.564324 0.550042
0.535851 0.561456 0.548760
0.531395 0.556054 0.546685
0.523766 0.547387 0.543236
0.513634 0.536828 0.539849
0.500877 0.525231 0.537316
0.498939 0.524834 0.542840
0.522637 0.545464 0.562219
0.550622 0.569177 0.584375
0.582269 0.595422 0.608667
0.616083 0.622919 0.633967
0.650416 0.650507 0.659297
0.683528 0.676997 0.683467
0.714443 0.701747 0.706142
0.741970 0.724086 0.726650
0.766232 0.744137 0.745083
0.786404 0.761135 0.760891
0.809751 0.781552 0.779934
0.833280 0.802853 0.800137
0.873198 0.802487 0.780240
0.908354 0.804105 0.762814
0.936980 0.805234 0.746090
0.961120 0.806180 0.730068
0.981628 0.806943 0.714778
0.999542 0.807462 0.699916
1.000000 0.808133 0.686183
1.000000 0.808835 0.673152
1.000000 0.809751 0.661433
1.000000 0.810971 0.651118
1.000000 0.812375 0.641871
1.000000 0.813840 0.633600
0.592218 0.609491 0.592920
0.591943 0.609033 0.592828
0.590021 0.606714 0.591882
0.586694 0.602686 0.590509
0.581537 0.596674 0.588556
0.573846 0.588525 0.586297
0.563653 0.579004 0.584466
0.549218 0.567926 0.582757
0.568200 0.583825 0.597955
0.592157 0.603540 0.616175
0.619409 0.625605 0.636469
0.648249 0.648829 0.657710
0.677882 0.672480 0.679377
0.706691 0.695552 0.700465
0.733425 0.717159 0.720272
0.757229 0.736660 0.738186
0.778256 0.754208 0.754421
0.797299 0.770535 0.769650
0.813535 0.784909 0.783108
0.830686 0.800534 0.797940
0.850248 0.819028 0.815640
0.879606 0.823362 0.807675
0.910552 0.825162 0.793576
0.936370 0.826658 0.780117
0.958251 0.827878 0.767239
0.977111 0.828885 0.755062
0.993652 0.829862 0.743526
1.000000 0.830747 0.732631
1.000000 0.831724 0.722683
1.000000 0.832792 0.713558
1.000000 0.833921 0.705165
1.000000 0.835019 0.697322
0.651606 0.657252 0.638636
0.652491 0.657679 0.639307
0.714565 0.706447 0.687251
0.712276 0.703670 0.686366
0.708309 0.699184 0.684932
0.702388 0.692836 0.682918
0.694148 0.684932 0.680751
0.682948 0.675898 0.678798
0.684077 0.677424 0.683925
0.702296 0.692012 0.697230
0.722103 0.707942 0.711818
0.742214 0.724269 0.726802
0.760922 0.739681 0.740993
0.778408 0.754360 0.754543
0.794003 0.767697 0.766964
0.807950 0.779904 0.778408
0.820127 0.790860 0.788724
0.831205 0.801022 0.798367
0.841642 0.810788 0.807706
0.851225 0.819974 0.816526
0.861143 0.829648 0.825925
0.874662 0.843290 0.839170
0.893126 0.849271 0.838773
0.918212 0.850095 0.826596
0.939666 0.850523 0.814664
0.958282 0.850675 0.803067
0.974762 0.850614 0.791806
0.989563 0.850706 0.781155
1.000000 0.851133 0.771695
1.000000 0.851804 0.763088
1.000000 0.852720 0.755459
1.000000 0.853574 0.748226
0.721981 0.713313 0.692470
0.727047 0.717128 0.696468
0.731472 0.720211 0.700343
0.734676 0.721950 0.703517
0.735286 0.721248 0.705226
0.732387 0.717433 0.704921
0.726375 0.711330 0.703487
0.717617 0.703670 0.701656
0.706661 0.695521 0.700404
0.721401 0.707393 0.711330
0.737850 0.720729 0.723568
0.754665 0.734524 0.736233
0.770871 0.747982 0.748653
0.786130 0.760922 0.760647
0.800290 0.773159 0.772061
0.813138 0.784573 0.782773
0.824826 0.795163 0.792782
0.835782 0.805264 0.802426
0.846067 0.815000 0.811734
0.855802 0.824430 0.820829
0.864744 0.833249 0.829374
0.873198 0.841733 0.837705
0.884977 0.853971 0.849699
0.897704 0.862028 0.855100
0.920195 0.863005 0.844572
0.939757 0.863676 0.834470
0.956939 0.864134 0.824643
0.972320 0.864561 0.815335
0.986114 0.865202 0.806973
0.998627 0.866117 0.799435
1.000000 0.867185 0.792752
1.000000 0.868193 0.786465
0.754238 0.739223 0.718074
0.758694 0.742733 0.721859
0.762997 0.745815 0.725582
0.766079 0.747707 0.728725
0.767330 0.747677 0.730648
0.765652 0.745083 0.730739
0.761379 0.740383 0.729702
0.755093 0.734340 0.728267
0.746670 0.727504 0.726986
0.747921 0.729000 0.731106
0.760769 0.739590 0.740902
0.774319 0.750912 0.751369
0.787655 0.762203 0.761837
0.800534 0.773373 0.772274
0.812619 0.784085 0.782345
0.823758 0.794186 0.791867
0.834073 0.803708 0.800931
0.843687 0.812741 0.809567
0.852842 0.821530 0.818051
0.861601 0.830137 0.826352
0.869902 0.838407 0.834409
0.877775 0.846433 0.842283
0.884947 0.853941 0.849668
0.894530 0.864164 0.859770
0.902617 0.873014 0.868589
0.922850 0.874540 0.860197
0.940703 0.875517 0.851591
0.956603 0.876341 0.843381
0.970886 0.877348 0.835966
0.983795 0.878477 0.829282
0.995453 0.879667 0.823301
1.000000 0.880797 0.817655
0.785183 0.764797 0.743740
0.788632 0.767697 0.746792
0.791867 0.769986 0.749722
0.794369 0.771542 0.752285
0.795346 0.771572 0.753841
0.794156 0.769528 0.753933
0.791379 0.766079 0.753323
0.786862 0.761257 0.752163
0.780941 0.755856 0.751247
0.773312 0.750057 0.750546
0.783566 0.758694 0.758602
0.794308 0.767971 0.767239
0.805051 0.777340 0.775998
0.815640 0.786801 0.784909
0.825864 0.796109 0.793729
0.835782 0.805264 0.802426
0.845487 0.814481 0.811246
0.854826 0.823453 0.819883
0.863920 0.832425 0.828580
0.872740 0.841245 0.837217
0.881041 0.849821 0.845640
0.888823 0.858000 0.853666
0.895689 0.865415 0.861021
0.902098 0.872374 0.867979
0.909392 0.880583 0.876158
0.916014 0.888182 0.883818
0.930785 0.891752 0.881163
0.946380 0.893217 0.874601
0.960327 0.894621 0.868498
0.972900 0.895903 0.862882
0.984222 0.897063 0.857603
0.994476 0.898009 0.852445
0.830747 0.804471 0.784604
0.831815 0.805417 0.785641
0.832456 0.805722 0.786374
0.832364 0.805234 0.786587
0.831571 0.803861 0.786343
0.829862 0.801419 0.785489
0.827420 0.798306 0.784421
0.824216 0.794553 0.783352
0.820249 0.790463 0.782559
0.815305 0.786038 0.782162
0.816129 0.787259 0.785336
0.824094 0.794461 0.792142
0.831998 0.801724 0.799039
0.839902 0.809171 0.806180
0.847562 0.816434 0.813138
0.855039 0.823667 0.820096
0.862303 0.830777 0.827024
0.869322 0.837858 0.833890
0.876219 0.844846 0.840726
0.882841 0.851713 0.847440
0.889189 0.858366 0.854063
0.895232 0.864866 0.860502
0.900816 0.870970 0.866575
0.905852 0.876555 0.872160
0.910826 0.882170 0.877806
0.916503 0.888701 0.884367
0.922667 0.895933 0.891691
0.933806 0.900877 0.892851
0.948363 0.902678 0.887449
0.961273 0.904295 0.882353
0.972869 0.905669 0.877531
0.983368 0.906737 0.872770
0.850919 0.823270 0.804105
0.851713 0.824033 0.804898
0.852201 0.824277 0.805509
0.852262 0.823972 0.805783
0.851835 0.822995 0.805692
0.850736 0.821225 0.805112
0.848997 0.818784 0.804379
0.846891 0.816007 0.803647
0.844205 0.812863 0.803128
0.840818 0.809476 0.802853
0.836301 0.805753 0.802792
0.842252 0.811368 0.808255
0.848600 0.817441 0.814115
0.855131 0.823758 0.820188
0.861601 0.830076 0.826322
0.867887 0.836362 0.832456
0.874113 0.842710 0.838621
0.880186 0.848966 0.844755
0.886137 0.855161 0.850858
0.891875 0.861265 0.856901
0.897398 0.867247 0.862852
0.902678 0.873045 0.868620
0.907591 0.878538 0.874144
0.912169 0.883696 0.879332
0.912810 0.884459 0.880095
0.917052 0.889372 0.885008
0.921874 0.895048 0.890776
0.927977 0.902281 0.898131
0.936248 0.908202 0.902312
0.949859 0.910246 0.897704
0.962036 0.912078 0.893431
0.972900 0.913573 0.889281
0.875822 0.847654 0.829801
0.876860 0.848661 0.830961
0.877195 0.848875 0.831418
0.876799 0.848203 0.831144
0.875761 0.846708 0.830228
0.874144 0.844450 0.828855
0.872007 0.841611 0.827237
0.869444 0.838407 0.825528
0.866484 0.834775 0.823941
0.863035 0.831022 0.822629
0.858701 0.826871 0.821347
0.857511 0.826108 0.822446
0.861753 0.830289 0.826505
0.866117 0.834623 0.830716
0.870481 0.839017 0.835019
0.874998 0.843565 0.839506
0.879698 0.848417 0.844236
0.884672 0.853635 0.849363
0.889921 0.859190 0.854856
0.895384 0.865049 0.860624
0.900664 0.870817 0.866423
0.905608 0.876310 0.871916
0.910063 0.881315 0.876921
0.913970 0.885801 0.881437
0.917418 0.889799 0.885466
0.920500 0.893370 0.889097
0.923888 0.897368 0.893126
0.927672 0.901884 0.897765
0.933440 0.908934 0.904936
0.938994 0.915251 0.911101
0.951598 0.917296 0.907103
0.962860 0.919127 0.903349
0.886442 0.858732 0.841337
0.887327 0.859556 0.842313
0.887846 0.859953 0.842924
0.887755 0.859678 0.842985
0.887388 0.858885 0.842710
0.886687 0.857664 0.842252
0.885801 0.856138 0.841733
0.884672 0.854276 0.841215
0.883360 0.852293 0.840879
0.881682 0.850095 0.840635
0.879332 0.847562 0.840330
0.876249 0.844694 0.840177
0.878508 0.847227 0.843046
0.881956 0.850767 0.846555
0.885313 0.854307 0.850034
0.888701 0.857877 0.853574
0.892271 0.861692 0.857328
0.896086 0.865812 0.861418
0.900206 0.870329 0.865934
0.904570 0.875151 0.870726
0.908934 0.880034 0.875639
0.913115 0.884794 0.880400
0.916960 0.889281 0.884916
0.920531 0.893400 0.889097
0.923644 0.897124 0.892882
0.926513 0.900511 0.896330
0.929107 0.903655 0.899504
0.931945 0.907103 0.903044
0.935729 0.911772 0.907805
0.940703 0.917967 0.914183
0.945068 0.923522 0.919921
0.954711 0.926085 0.918242
0.900786 0.874022 0.857603
0.901152 0.874418 0.858091
0.901244 0.874418 0.858244
0.901152 0.874083 0.858152
0.900786 0.873350 0.857877
0.900206 0.872251 0.857389
0.899474 0.870939 0.856870
0.898589 0.869352 0.856352
0.897490 0.867613 0.855894
0.896208 0.865751 0.855619
0.894469 0.863645 0.855344
0.892332 0.861387 0.855253
0.890929 0.860258 0.855894
0.893645 0.863157 0.858793
0.896300 0.866026 0.861631
0.898924 0.868925 0.864530
0.901762 0.872038 0.867613
0.904814 0.875395 0.871000
0.908141 0.879179 0.874754
0.911772 0.883238 0.878874
0.915404 0.887449 0.883085
0.918944 0.891569 0.887236
0.922210 0.895384 0.891142
0.925231 0.898955 0.894774
0.927886 0.902190 0.898039
0.930327 0.905150 0.901030
0.932586 0.907897 0.903868
0.934661 0.910460 0.906462
0.937072 0.913420 0.909514
0.941222 0.918639 0.914885
0.945586 0.924193 0.920592
0.949462 0.929168 0.925750
0.911070 0.885527 0.869841
0.911345 0.885832 0.870207
0.911559 0.885954 0.870451
0.911620 0.885801 0.870573
0.911620 0.885557 0.870665
0.911742 0.885252 0.870939
0.912108 0.885222 0.871641
0.912596 0.885222 0.872618
0.913176 0.885313 0.873869
0.913695 0.885405 0.875303
0.914031 0.885496 0.876890
0.913909 0.885313 0.878386
0.913298 0.884794 0.879728
0.914611 0.886564 0.882200
0.917113 0.889403 0.885069
0.919188 0.891814 0.887510
0.921172 0.894194 0.889921
0.923278 0.896666 0.892393
0.925597 0.899382 0.895171
0.928008 0.902312 0.898161
0.930480 0.905303 0.901244
0.932891 0.908263 0.904234
0.935088 0.911009 0.907012
0.937133 0.913512 0.909606
0.938964 0.915801 0.911955
0.940612 0.917845 0.914061
0.942138 0.919768 0.916045
0.943542 0.921569 0.917876
0.944854 0.923247 0.919646
0.946929 0.925963 0.922423
0.950408 0.930449 0.927092
0.953552 0.934569 0.931334
0.928313 0.905455 0.891661
0.928344 0.905394 0.891661
0.928252 0.905241 0.891569
0.928099 0.904906 0.891386
0.927886 0.904448 0.891173
0.927672 0.903868 0.890959
0.927459 0.903197 0.890837
0.927245 0.902495 0.890776
0.927001 0.901762 0.890867
0.926757 0.900969 0.891081
0.926329 0.900084 0.891386
0.925719 0.899168 0.891783
0.924773 0.898039 0.892149
0.923400 0.896757 0.892546
