20 Preset/Dark Style/【3】LUT video cho PR-AE-FCPX/19Tones (7)/BP Church.cube
# Created by Adobe Lightroom plugin Export LUT (1.24.0)
# www.johnrellis.com/lightroom/exportlut.htm
# Preset: BP Church
# Color profile: E:\lut插件\exportlut.1.24\exportlut.lrplugin\color profiles\Rec709gamma2.4.icc
LUT_3D_SIZE 5
DOMAIN_MIN 0.000000 0.000000 0.000000
DOMAIN_MAX 0.903226 0.903226 0.903226
0.128939 0.187320 0.214481
0.151949 0.186007 0.211063
0.691859 0.300023 0.192447
1.000000 0.590845 0.365972
1.000000 0.741726 0.608057
0.137362 0.193271 0.218235
0.150973 0.202152 0.228916
0.708675 0.391455 0.152621
1.000000 0.585046 0.000000
1.000000 0.731777 0.527855
0.481209 0.514366 0.501946
0.437079 0.467781 0.488350
0.698299 0.688838 0.694331
0.939330 0.780972 0.705318
1.000000 0.786160 0.588159
0.830747 0.804471 0.784604
0.824216 0.794553 0.783352
0.847562 0.816434 0.813138
0.895232 0.864866 0.860502
0.948363 0.902678 0.887449
0.936309 0.915221 0.902220
0.936065 0.913420 0.902190
0.924498 0.898100 0.893889
0.938598 0.915343 0.911498
0.948150 0.927520 0.924010
0.122621 0.184665 0.214481
0.162051 0.200015 0.229129
0.656123 0.307897 0.221012
1.000000 0.528740 0.178866
1.000000 0.698421 0.515953
0.146487 0.242496 0.269322
0.233371 0.265141 0.289677
0.708614 0.401251 0.189914
1.000000 0.559075 0.000000
1.000000 0.690333 0.421149
0.524468 0.563104 0.542443
0.473060 0.501335 0.519768
0.680537 0.674617 0.681361
0.929808 0.759182 0.677699
1.000000 0.778164 0.572229
0.842832 0.817502 0.796994
0.839078 0.809171 0.796139
0.855131 0.823758 0.820188
0.899718 0.869810 0.865415
0.949096 0.900999 0.884550
0.938506 0.918822 0.905638
0.938140 0.916686 0.905150
0.934539 0.910155 0.905913
0.944030 0.922179 0.918517
0.952361 0.933013 0.929686
0.000000 0.245029 0.444312
0.000000 0.242405 0.436500
0.849729 0.801114 0.801785
0.934295 0.803647 0.795529
1.000000 0.789731 0.728237
0.336767 0.483131 0.625757
0.302373 0.452583 0.606561
0.855619 0.824247 0.820645
0.957671 0.770352 0.742672
1.000000 0.784634 0.699519
0.744747 0.793423 0.799069
0.788022 0.803708 0.786465
0.845426 0.814359 0.811154
0.952972 0.807004 0.742550
1.000000 0.792447 0.619715
0.886961 0.872099 0.851469
0.882811 0.860319 0.843076
0.878813 0.847562 0.843351
0.919524 0.892241 0.887938
0.962066 0.909300 0.889586
0.942290 0.929747 0.914946
0.943572 0.928496 0.915129
0.943999 0.922301 0.914946
0.948333 0.927733 0.924254
0.957214 0.939422 0.936370
0.000000 0.521630 0.801938
0.000000 0.521080 0.800595
0.000000 0.449958 0.760891
0.949187 0.920104 0.918059
0.953765 0.934844 0.931609
0.530541 0.665522 0.824002
0.507652 0.651545 0.818418
0.360052 0.563592 0.781857
0.951232 0.930449 0.927184
0.956512 0.927459 0.924254
0.883665 0.864927 0.878691
0.884733 0.864897 0.877287
0.865171 0.844785 0.862242
0.939055 0.915923 0.912078
0.974090 0.908476 0.898009
0.918761 0.910460 0.916625
0.919738 0.914061 0.914794
0.934478 0.918029 0.909575
0.945525 0.924132 0.920531
0.982177 0.918853 0.893553
0.949676 0.951690 0.941070
0.951934 0.951812 0.941070
0.959075 0.951019 0.941558
0.958526 0.941192 0.938231
0.968353 0.954620 0.952239
0.655695 0.755673 0.903838
0.651606 0.752590 0.902708
0.630243 0.737606 0.898741
0.793484 0.758419 0.898833
0.973846 0.954101 0.953765
0.738735 0.792630 0.903380
0.734524 0.789670 0.902464
0.709926 0.773190 0.898192
0.813962 0.781888 0.898192
0.974609 0.957366 0.956451
0.886778 0.881590 0.917205
0.883391 0.878630 0.915801
0.870542 0.867430 0.911131
0.863676 0.845701 0.904936
0.978607 0.968292 0.966644
0.947051 0.935210 0.943175
0.948638 0.936492 0.943633
0.956268 0.943328 0.947051
0.949981 0.935882 0.942351
0.978820 0.969268 0.967620
0.961028 0.954711 0.960967
0.962127 0.955688 0.961486
0.967468 0.960784 0.964691
0.974090 0.969512 0.967803
0.981415 0.973022 0.971557
