20 Preset/Dark Style/【3】LUT video cho PR-AE-FCPX/19Tones (7)/BP Church.cube
# Created by Adobe Lightroom plugin Export LUT (1.24.0)
# www.johnrellis.com/lightroom/exportlut.htm
# Preset: BP Church
# Color profile: E:\lut插件\exportlut.1.24\exportlut.lrplugin\color profiles\Rec709gamma2.4.icc
LUT_3D_SIZE 8
DOMAIN_MIN 0.000000 0.000000 0.000000
DOMAIN_MAX 0.903226 0.903226 0.903226
0.128939 0.187320 0.214481
0.124086 0.185428 0.212833
0.186587 0.189151 0.210971
0.490364 0.241032 0.203525
0.893400 0.392462 0.193820
1.000000 0.560479 0.324987
1.000000 0.663020 0.477699
1.000000 0.741726 0.608057
0.124727 0.184482 0.211917
0.124392 0.184207 0.211429
0.186007 0.194675 0.209415
0.438392 0.249699 0.195010
0.829679 0.381018 0.141085
1.000000 0.514488 0.200992
1.000000 0.619043 0.369360
1.000000 0.714565 0.548241
0.152255 0.203769 0.226474
0.149386 0.200809 0.227665
0.181827 0.224063 0.250187
0.481727 0.339025 0.264530
0.859648 0.476631 0.133211
1.000000 0.572656 0.000000
1.000000 0.650019 0.217258
1.000000 0.722866 0.479377
0.359533 0.392798 0.388983
0.342931 0.370336 0.381170
0.379706 0.409979 0.431800
0.564874 0.581109 0.595422
0.799496 0.718410 0.693141
0.978149 0.724117 0.570733
1.000000 0.733547 0.481025
1.000000 0.742702 0.413031
0.592218 0.609491 0.592920
0.581537 0.596674 0.588556
0.568200 0.583825 0.597955
0.677882 0.672480 0.679377
0.778256 0.754208 0.754421
0.850248 0.819028 0.815640
0.958251 0.827878 0.767239
1.000000 0.831724 0.722683
0.785183 0.764797 0.743740
0.795346 0.771572 0.753841
0.780941 0.755856 0.751247
0.805051 0.777340 0.775998
0.845487 0.814481 0.811246
0.881041 0.849821 0.845640
0.909392 0.880583 0.876158
0.960327 0.894621 0.868498
0.886442 0.858732 0.841337
0.887388 0.858885 0.842710
0.883360 0.852293 0.840879
0.878508 0.847227 0.843046
0.892271 0.861692 0.857328
0.908934 0.880034 0.875639
0.923644 0.897124 0.892882
0.935729 0.911772 0.907805
0.936309 0.915221 0.902220
0.936187 0.914641 0.902098
0.936004 0.912902 0.902403
0.934844 0.910246 0.903929
0.928222 0.902586 0.898436
0.936553 0.912749 0.908812
0.943816 0.921965 0.918303
0.948150 0.927520 0.924010
0.127993 0.185794 0.212131
0.124788 0.184787 0.212009
0.168795 0.187991 0.211002
0.406958 0.233646 0.200504
0.798459 0.359838 0.157839
1.000000 0.493568 0.200381
1.000000 0.600244 0.353796
1.000000 0.698573 0.530785
0.124819 0.184176 0.211551
0.125277 0.184756 0.212009
0.187686 0.195346 0.209842
0.408118 0.251072 0.194308
0.778805 0.374029 0.130343
0.994598 0.489631 0.130861
1.000000 0.583246 0.286717
1.000000 0.678645 0.478614
0.166140 0.215091 0.235477
0.161898 0.209659 0.236271
0.200015 0.237919 0.263493
0.455085 0.326177 0.263371
0.782895 0.435340 0.152956
0.986481 0.538354 0.000000
1.000000 0.608881 0.000000
1.000000 0.685603 0.389532
0.329473 0.363256 0.361303
0.319005 0.346319 0.356847
0.348425 0.377447 0.399603
0.478523 0.506615 0.525536
0.723568 0.640162 0.612757
0.946807 0.655085 0.470771
1.000000 0.683345 0.379004
1.000000 0.711086 0.325963
0.583978 0.604089 0.586725
0.569909 0.588037 0.579156
0.542321 0.562249 0.577905
0.638911 0.641260 0.650843
0.740352 0.722805 0.725429
0.830289 0.800198 0.797604
0.951629 0.807797 0.739864
1.000000 0.814939 0.692744
0.767025 0.750546 0.728573
0.765255 0.747005 0.728359
0.750301 0.730343 0.726253
0.780056 0.755734 0.755825
0.830900 0.800748 0.798123
0.874632 0.843259 0.839139
0.905303 0.875975 0.871580
0.957794 0.888243 0.860563
0.875944 0.848478 0.829801
0.873411 0.845060 0.827420
0.868315 0.837125 0.824735
0.863401 0.831907 0.828092
0.883696 0.852567 0.848325
0.902586 0.872923 0.868528
0.917754 0.890166 0.885832
0.930205 0.904967 0.900877
0.931670 0.910002 0.896086
0.932525 0.910521 0.897215
0.932189 0.908446 0.897246
0.931212 0.905821 0.898985
0.932647 0.907958 0.903929
0.938048 0.914672 0.910796
0.943694 0.921782 0.918120
0.948058 0.927398 0.923919
0.117952 0.185489 0.220615
0.117159 0.185641 0.221592
0.231449 0.240940 0.271153
0.530541 0.332189 0.343481
0.878355 0.426215 0.282475
1.000000 0.532647 0.246860
1.000000 0.618036 0.329259
1.000000 0.711391 0.533654
0.126589 0.196231 0.237339
0.126162 0.195956 0.237797
0.261814 0.290745 0.314397
0.543572 0.307866 0.284703
0.853574 0.419348 0.232059
1.000000 0.524559 0.191135
1.000000 0.604181 0.263401
1.000000 0.695949 0.488502
0.186099 0.315312 0.339605
0.255131 0.331487 0.334173
0.321691 0.349798 0.372351
0.624140 0.430091 0.325353
0.872435 0.500633 0.215061
1.000000 0.569543 0.000000
1.000000 0.625055 0.000000
1.000000 0.691768 0.381415
0.467933 0.534173 0.506584
0.474586 0.517601 0.505486
0.471839 0.500420 0.519677
0.617792 0.624323 0.635279
0.818204 0.709743 0.671229
0.961791 0.703304 0.553063
1.000000 0.709804 0.447425
1.000000 0.725093 0.371588
0.666041 0.677821 0.652766
0.660182 0.667140 0.648737
0.620996 0.626581 0.636103
0.711147 0.699153 0.703761
0.798489 0.771603 0.770626
0.865568 0.827604 0.820890
0.956390 0.822110 0.759823
1.000000 0.819181 0.699519
0.797848 0.779263 0.755978
0.797665 0.776822 0.756283
0.785733 0.760555 0.751736
0.796445 0.769833 0.768978
0.841947 0.811093 0.808011
0.882841 0.851713 0.847471
0.912810 0.884459 0.880095
0.960449 0.890196 0.861875
0.889036 0.863462 0.844999
0.887297 0.860716 0.843107
0.882170 0.852079 0.838773
0.871580 0.840116 0.836088
0.889677 0.858915 0.854582
0.908690 0.879789 0.875395
0.924956 0.898650 0.894438
0.937407 0.913817 0.909941
0.935332 0.915465 0.901518
0.934813 0.914366 0.900725
0.934569 0.912169 0.900450
0.935210 0.910887 0.903380
0.935088 0.910948 0.906981
0.941405 0.918883 0.915099
0.947143 0.926177 0.922667
0.951202 0.931487 0.928130
0.000000 0.208164 0.320256
0.000000 0.209689 0.326360
0.000000 0.206607 0.318059
0.694972 0.657374 0.671260
0.822171 0.763760 0.764828
0.959533 0.701350 0.670527
1.000000 0.704341 0.612421
1.000000 0.728267 0.591974
0.000000 0.249821 0.391485
0.000000 0.248539 0.389807
0.000000 0.235294 0.368292
0.748775 0.729671 0.731777
0.849668 0.743496 0.745388
0.967559 0.691005 0.647547
1.000000 0.698848 0.592432
1.000000 0.725246 0.576318
0.401068 0.481086 0.558221
0.424170 0.494820 0.564050
0.418921 0.483192 0.557183
0.736446 0.676814 0.684047
0.906554 0.656886 0.609430
0.995697 0.677852 0.559380
1.000000 0.718105 0.558801
1.000000 0.738277 0.548302
0.603601 0.715145 0.725765
0.620722 0.729335 0.722042
0.701625 0.698512 0.691981
0.763424 0.741787 0.742916
0.877501 0.748562 0.699611
0.968566 0.736019 0.612970
1.000000 0.737758 0.534752
1.000000 0.738766 0.433875
0.794095 0.802518 0.771145
0.793210 0.793454 0.765560
0.783169 0.761715 0.750240
0.802701 0.775265 0.774044
0.859037 0.827573 0.823880
0.906950 0.856870 0.842832
0.965850 0.847654 0.794858
1.000000 0.836820 0.735012
0.858030 0.839567 0.817380
0.863645 0.842161 0.822110
0.857267 0.828550 0.814817
0.848447 0.817288 0.813962
0.879149 0.847898 0.843687
0.905272 0.875944 0.871519
0.928222 0.902586 0.898436
0.968292 0.900908 0.873442
0.906249 0.885679 0.867582
0.906737 0.885039 0.867735
0.906340 0.880461 0.866392
0.901610 0.871519 0.864225
0.907866 0.878843 0.874449
0.922240 0.895415 0.891173
0.934905 0.910735 0.906767
0.945983 0.924712 0.921141
0.944091 0.928832 0.915343
0.944091 0.928252 0.915068
0.944274 0.926116 0.914427
0.943999 0.922698 0.914244
0.941009 0.918364 0.914611
0.946807 0.925780 0.922210
0.952422 0.933074 0.929808
0.956695 0.938750 0.935668
0.000000 0.307591 0.585473
0.000000 0.310216 0.589197
0.000000 0.299107 0.569512
0.342412 0.328710 0.630518
0.902861 0.860746 0.858732
0.910735 0.882078 0.877714
0.950683 0.854673 0.847013
0.993011 0.845151 0.821225
0.000000 0.373541 0.633631
0.000000 0.375189 0.636103
0.000000 0.353826 0.613977
0.433722 0.401556 0.665949
0.908019 0.874449 0.870634
0.909819 0.881071 0.876677
0.954376 0.850675 0.841306
0.995544 0.842771 0.816129
0.530999 0.626276 0.740536
0.525475 0.622217 0.738827
0.476631 0.587854 0.719997
0.685023 0.628382 0.740169
0.900938 0.871122 0.866728
0.917723 0.849027 0.844480
0.967742 0.829007 0.808225
1.000000 0.827848 0.786221
0.778347 0.775723 0.804288
0.787564 0.780880 0.805600
0.823514 0.803067 0.813748
0.873838 0.842344 0.838285
0.906096 0.820005 0.805570
0.952117 0.805051 0.763943
0.993652 0.807858 0.743038
1.000000 0.816251 0.733944
0.831174 0.845670 0.848661
0.835874 0.850675 0.848539
0.857786 0.854948 0.841398
0.858518 0.827054 0.823362
0.891142 0.860472 0.856138
0.926299 0.861936 0.840665
0.973022 0.849058 0.794705
1.000000 0.836637 0.735988
0.876829 0.874754 0.853147
0.879820 0.874632 0.853544
0.880491 0.863340 0.845579
0.872068 0.841093 0.832883
0.885618 0.854612 0.850340
0.916899 0.889158 0.884825
0.941985 0.910338 0.902312
0.976074 0.904601 0.874907
0.918212 0.907866 0.889799
0.917601 0.905913 0.888090
0.916747 0.899748 0.883635
0.916838 0.891569 0.880400
0.913481 0.885191 0.880827
0.928405 0.902770 0.898619
0.940917 0.918273 0.914488
0.951293 0.931579 0.928222
0.943816 0.935882 0.920592
0.943969 0.935180 0.920134
0.944732 0.932708 0.918914
0.948302 0.931487 0.920958
0.947326 0.926238 0.920348
0.949584 0.929351 0.925933
0.955871 0.937621 0.934508
0.960388 0.943694 0.940826
0.000000 0.498909 0.787625
0.000000 0.499489 0.787625
0.000000 0.497169 0.784970
0.000000 0.464607 0.766201
0.798001 0.663355 0.824430
0.946288 0.916472 0.914275
0.949279 0.928985 0.925536
0.958587 0.924987 0.921691
0.138827 0.535027 0.787961
0.133913 0.532555 0.786465
0.061036 0.517540 0.778256
0.000000 0.473335 0.753933
0.800931 0.671351 0.818051
0.944610 0.916777 0.913939
0.946715 0.925658 0.922118
0.958434 0.920623 0.917082
0.638697 0.714321 0.829465
0.630823 0.709407 0.827420
0.602411 0.691493 0.820066
0.507622 0.632380 0.793942
0.866819 0.779446 0.842649
0.948180 0.927520 0.924041
0.945892 0.924590 0.921019
0.964477 0.915190 0.910369
0.861143 0.847074 0.870176
0.860899 0.846403 0.869078
0.856901 0.842039 0.865476
0.840391 0.827390 0.857237
0.926970 0.883665 0.891142
0.946197 0.924987 0.921416
0.956298 0.914611 0.910033
0.976257 0.909728 0.899687
0.890379 0.872343 0.883421
0.892515 0.873838 0.883848
0.901457 0.880308 0.886412
0.915984 0.891691 0.891691
0.929747 0.896025 0.889738
0.946746 0.886198 0.870756
0.969238 0.884703 0.860624
0.991943 0.888823 0.857969
0.904631 0.898924 0.903685
0.907195 0.902129 0.904845
0.910521 0.907530 0.903685
0.921965 0.908019 0.898497
0.919707 0.892454 0.888151
0.938415 0.915099 0.911254
0.958770 0.918273 0.905058
0.987030 0.910399 0.878538
0.929351 0.930297 0.919219
0.931121 0.930907 0.919738
0.935058 0.930571 0.918914
0.940673 0.928679 0.917632
0.939483 0.917266 0.910521
0.942229 0.919921 0.916167
0.953643 0.934661 0.931426
0.965362 0.944396 0.939025
0.949157 0.949310 0.937133
0.949279 0.948882 0.936614
0.951293 0.948516 0.936400
0.954437 0.947143 0.935973
0.955932 0.941253 0.932799
0.953674 0.934722 0.931487
0.961334 0.945006 0.942199
0.966613 0.952209 0.949706
0.418708 0.645991 0.861570
0.426032 0.648188 0.862181
0.416175 0.640925 0.858976
0.386572 0.622644 0.852354
0.261265 0.565942 0.833402
0.908385 0.809842 0.882567
0.962188 0.937774 0.936431
0.964843 0.949737 0.947143
0.468299 0.660395 0.858000
0.475624 0.662989 0.858976
0.462165 0.654536 0.855863
0.419409 0.630549 0.847593
0.296941 0.571130 0.827512
0.906554 0.808682 0.878843
0.960479 0.936370 0.934661
0.962768 0.946899 0.944182
0.691951 0.756161 0.869566
0.689082 0.754360 0.868986
0.672328 0.743954 0.865324
0.634668 0.720943 0.857786
0.542718 0.665919 0.839719
0.921599 0.847013 0.889220
0.964111 0.946136 0.943725
0.964477 0.949310 0.946685
0.856474 0.852079 0.891386
0.853422 0.849607 0.889982
0.845518 0.842985 0.886503
0.830900 0.830961 0.880735
0.792142 0.800412 0.866850
0.941222 0.894102 0.909209
0.966796 0.952422 0.949950
0.965118 0.950164 0.947570
0.919005 0.901884 0.912078
0.918425 0.901122 0.911254
0.918395 0.900603 0.910246
0.916960 0.898344 0.907988
0.901976 0.883055 0.897826
0.952148 0.923705 0.925048
0.962402 0.946441 0.943694
0.969055 0.943999 0.941009
0.928130 0.913085 0.921141
0.929198 0.913970 0.921569
0.932921 0.916991 0.922972
0.939483 0.922515 0.925628
0.947723 0.929625 0.929198
0.957061 0.937377 0.934203
0.967498 0.932464 0.924651
0.980377 0.933623 0.922210
0.941039 0.931640 0.939178
0.941985 0.932525 0.939788
0.944488 0.934813 0.941161
0.947509 0.940795 0.941405
0.953246 0.944854 0.939635
0.955627 0.937255 0.933776
0.964111 0.948791 0.946136
0.976806 0.948547 0.938964
0.950530 0.957031 0.953704
0.950988 0.957458 0.953857
0.953857 0.958953 0.954406
0.958740 0.959503 0.953582
0.964813 0.959960 0.953185
0.968078 0.956268 0.951171
0.968383 0.954620 0.952239
0.974182 0.962768 0.960754
0.655695 0.755673 0.903838
0.658045 0.756527 0.904021
0.649592 0.751186 0.902251
0.641230 0.744747 0.900450
0.609430 0.725216 0.895933
0.638575 0.700496 0.892973
0.948821 0.881590 0.921630
0.973846 0.954101 0.953765
0.673274 0.762325 0.901976
0.675349 0.763119 0.902251
0.669306 0.759030 0.900999
0.657008 0.750820 0.898833
0.623651 0.730587 0.894163
0.643244 0.704128 0.890806
0.948333 0.881682 0.920623
0.973571 0.954131 0.953613
0.760708 0.803525 0.903655
0.760159 0.803098 0.903532
0.753079 0.798337 0.902037
0.748898 0.794614 0.901396
0.719081 0.775143 0.896147
0.702632 0.744747 0.890318
0.951568 0.893889 0.924163
0.974762 0.958221 0.957153
0.851438 0.856596 0.910857
0.851469 0.856565 0.910948
0.847776 0.853574 0.909789
0.841917 0.848661 0.908202
0.826383 0.836240 0.903990
0.788083 0.807340 0.894987
0.957671 0.913848 0.932403
0.977508 0.965393 0.963836
0.916564 0.905303 0.925383
0.916228 0.905028 0.925414
0.912016 0.901274 0.923674
0.906950 0.896605 0.921691
0.897856 0.888060 0.917723
0.879362 0.870939 0.910369
0.963409 0.931945 0.941466
0.979370 0.970153 0.968505
0.943145 0.930480 0.939117
0.943420 0.930602 0.939055
0.945251 0.932036 0.939422
0.947539 0.933928 0.940246
0.947387 0.933410 0.939879
0.941741 0.927520 0.937224
0.969726 0.949279 0.952239
0.979278 0.970001 0.968353
0.953918 0.944182 0.951110
0.954253 0.944457 0.951232
0.955749 0.945678 0.951690
0.958923 0.948425 0.953002
0.963409 0.952453 0.954986
0.968902 0.957519 0.957733
0.973693 0.960906 0.959899
0.980041 0.965026 0.962707
0.961028 0.954711 0.960967
0.961242 0.954894 0.961028
0.962615 0.956115 0.961761
0.965545 0.958953 0.963531
0.969482 0.962799 0.965972
0.973144 0.968139 0.967529
0.978576 0.970062 0.967468
0.981415 0.973022 0.971557
