20 Preset/Dark Style/【3】LUT video cho PR-AE-FCPX/19Tones (7)/BP Deserted.cube
# Created by Adobe Lightroom plugin Export LUT (1.24.0)
# www.johnrellis.com/lightroom/exportlut.htm
# Preset: BP Deserted
# Color profile: E:\lut插件\exportlut.1.24\exportlut.lrplugin\color profiles\Rec709gamma2.4.icc
LUT_3D_SIZE 8
DOMAIN_MIN 0.000000 0.000000 0.000000
DOMAIN_MAX 0.903226 0.903226 0.903226
0.000000 0.114382 0.140017
0.016815 0.118624 0.144839
0.334478 0.048737 0.147127
0.817594 0.000000 0.114809
1.000000 0.000000 0.000000
1.000000 0.000000 0.018036
1.000000 0.000000 0.194583
1.000000 0.250889 0.327031
0.000000 0.125002 0.151308
0.000000 0.126131 0.152193
0.212192 0.134096 0.148470
0.653010 0.000000 0.120089
1.000000 0.000000 0.000000
1.000000 0.000000 0.000000
1.000000 0.000000 0.179629
1.000000 0.241337 0.302556
0.279362 0.307347 0.330602
0.262638 0.291447 0.315038
0.438361 0.388373 0.208713
0.808438 0.412085 0.000000
0.911986 0.211673 0.000000
1.000000 0.239780 0.102358
1.000000 0.361242 0.281682
1.000000 0.450721 0.404456
0.685237 0.678370 0.684749
0.668849 0.665248 0.672755
0.620294 0.626307 0.637110
0.863005 0.762539 0.578882
1.000000 0.799496 0.373693
1.000000 0.598810 0.266728
1.000000 0.549065 0.354070
1.000000 0.588434 0.470924
0.859922 0.828458 0.824735
0.856199 0.824796 0.821195
0.844999 0.813962 0.810758
0.825528 0.795773 0.793393
0.938445 0.864256 0.756283
1.000000 0.878111 0.667353
1.000000 0.791440 0.548028
1.000000 0.701228 0.510338
0.919646 0.892363 0.888090
0.922637 0.895933 0.891661
0.919677 0.892424 0.888121
0.913695 0.885496 0.881132
0.913664 0.882261 0.868559
0.967285 0.916960 0.850980
1.000000 0.926055 0.820127
1.000000 0.891966 0.752834
0.951019 0.931243 0.927886
0.951324 0.931609 0.928283
0.949950 0.929870 0.926452
0.947906 0.927153 0.923674
0.943816 0.921904 0.918242
0.954040 0.929107 0.911406
0.980468 0.944945 0.900145
1.000000 0.948394 0.878386
0.968750 0.955138 0.952758
0.968627 0.954986 0.952636
0.968475 0.954803 0.952392
0.968414 0.954681 0.952300
0.964233 0.948943 0.946288
0.963989 0.948608 0.945953
0.974823 0.957214 0.941863
0.988464 0.963256 0.931792
0.000000 0.125948 0.151797
0.000000 0.125734 0.152041
0.316472 0.104707 0.222660
0.853635 0.000000 0.199588
1.000000 0.000000 0.184970
1.000000 0.000000 0.216617
1.000000 0.000000 0.291234
1.000000 0.289708 0.377356
0.000000 0.129641 0.157443
0.015625 0.146120 0.176791
0.403937 0.099855 0.191287
0.795560 0.000000 0.182071
1.000000 0.000000 0.180880
1.000000 0.000000 0.213565
1.000000 0.000000 0.281529
1.000000 0.285069 0.357855
0.358434 0.387854 0.409979
0.383001 0.413397 0.435187
0.445991 0.434272 0.354955
0.767788 0.392248 0.183230
0.942596 0.249210 0.173465
1.000000 0.274449 0.228763
1.000000 0.355810 0.323339
1.000000 0.442634 0.419837
0.697017 0.687770 0.693355
0.683955 0.677302 0.683803
0.641932 0.643671 0.653040
0.810666 0.728573 0.582818
1.000000 0.766903 0.403418
1.000000 0.541375 0.267430
1.000000 0.509606 0.336431
1.000000 0.558038 0.449287
0.863462 0.831937 0.828122
0.858396 0.826932 0.823239
0.843778 0.812802 0.809659
0.816190 0.787289 0.785367
0.922393 0.848722 0.744198
1.000000 0.870481 0.665949
1.000000 0.778408 0.545556
1.000000 0.679225 0.492622
0.916289 0.888487 0.884123
0.915770 0.887877 0.883543
0.912810 0.884459 0.880095
0.907317 0.878233 0.873838
0.903532 0.872160 0.862028
0.963195 0.913085 0.849058
1.000000 0.924010 0.820737
1.000000 0.888945 0.753140
0.947967 0.927276 0.923766
0.947021 0.926055 0.922515
0.945342 0.923857 0.920256
0.943511 0.921508 0.917845
0.940459 0.917662 0.913878
0.949889 0.924102 0.906828
0.978149 0.940795 0.893828
1.000000 0.944579 0.869902
0.967163 0.952941 0.950500
0.967437 0.953338 0.950896
0.967193 0.953002 0.950530
0.967132 0.952911 0.950439
0.966522 0.952117 0.949615
0.965148 0.950195 0.947601
0.974456 0.957031 0.942260
0.988006 0.963134 0.932433
0.092287 0.179507 0.283940
0.131075 0.187900 0.276585
0.193668 0.233066 0.258762
0.700771 0.690822 0.696132
0.968933 0.782010 0.828550
1.000000 0.709316 0.779812
1.000000 0.677363 0.736538
1.000000 0.682185 0.717617
0.219333 0.295842 0.426093
0.254368 0.300969 0.411139
0.300420 0.324956 0.354406
0.747494 0.728634 0.730800
0.974121 0.761959 0.812528
1.000000 0.692927 0.760555
1.000000 0.653834 0.709407
1.000000 0.665553 0.699947
0.442512 0.559045 0.588617
0.489357 0.584649 0.612024
0.646784 0.666926 0.687648
0.864042 0.753048 0.771908
1.000000 0.672663 0.703761
1.000000 0.665522 0.690517
1.000000 0.676509 0.693568
1.000000 0.692805 0.702815
0.809049 0.780880 0.779324
0.817777 0.788724 0.786709
0.837705 0.807126 0.804196
0.838346 0.803250 0.786557
0.970397 0.810544 0.727993
1.000000 0.684230 0.626062
1.000000 0.708064 0.668452
1.000000 0.727993 0.698726
0.895384 0.865049 0.860685
0.896147 0.865873 0.861479
0.899657 0.869749 0.865354
0.885344 0.854337 0.850034
0.920775 0.874510 0.829587
0.997040 0.900847 0.806821
1.000000 0.816434 0.712612
1.000000 0.751553 0.666041
0.931304 0.906340 0.902251
0.932158 0.907347 0.903319
0.929442 0.904082 0.899962
0.923949 0.897459 0.893248
0.914366 0.886259 0.881895
0.957275 0.917937 0.875853
0.997375 0.933104 0.865537
1.000000 0.905699 0.824155
0.955169 0.936767 0.933593
0.954528 0.935851 0.932647
0.952636 0.933349 0.930083
0.950317 0.930327 0.926909
0.947082 0.926116 0.922576
0.950011 0.927398 0.917632
0.976013 0.945678 0.911498
0.999542 0.951934 0.899321
0.969635 0.956390 0.954070
0.969360 0.956023 0.953674
0.969085 0.955596 0.953246
0.969451 0.956115 0.953796
0.968811 0.955261 0.952911
0.967987 0.954101 0.951690
0.974762 0.959258 0.948089
0.986877 0.965393 0.940581
0.387396 0.432929 0.615717
0.418128 0.451667 0.619196
0.473030 0.482246 0.592493
0.519677 0.542931 0.559869
0.846067 0.815000 0.811765
0.950744 0.930877 0.927489
0.989899 0.912871 0.926299
1.000000 0.884977 0.904936
0.514397 0.551934 0.697810
0.530053 0.557092 0.692744
0.566339 0.567956 0.663050
0.577173 0.591241 0.604822
0.865080 0.833585 0.829740
0.954070 0.935241 0.932036
0.990906 0.911955 0.925200
1.000000 0.883757 0.902800
0.694148 0.723079 0.796597
0.716915 0.732357 0.798032
0.760037 0.745174 0.791318
0.769955 0.742672 0.755062
0.911528 0.882994 0.878630
0.966094 0.937194 0.938384
0.995026 0.915129 0.925231
1.000000 0.887510 0.900023
0.840208 0.841703 0.843534
0.845274 0.844053 0.845762
0.868498 0.857420 0.858335
0.903868 0.881437 0.881804
0.945098 0.923583 0.919982
0.977630 0.899046 0.902129
1.000000 0.880278 0.881865
1.000000 0.871458 0.872007
0.926329 0.900298 0.896117
0.926604 0.900664 0.896452
0.930144 0.904906 0.900816
0.937652 0.914153 0.910277
0.935546 0.911528 0.907591
0.972442 0.922515 0.898650
0.994018 0.868803 0.846403
1.000000 0.869474 0.850797
0.946288 0.925109 0.921538
0.948425 0.927855 0.924376
0.949157 0.928801 0.925353
0.951629 0.932067 0.928740
0.947692 0.926909 0.923400
0.956359 0.932006 0.916533
0.985504 0.947509 0.916808
1.000000 0.923552 0.887266
0.961700 0.945495 0.942687
0.962036 0.945953 0.943175
0.962860 0.947082 0.944335
0.962921 0.947173 0.944427
0.960479 0.943816 0.940948
0.956909 0.939025 0.935973
0.973968 0.952056 0.932555
0.992493 0.959686 0.928588
0.974701 0.963470 0.961486
0.974609 0.963317 0.961334
0.974304 0.962921 0.960937
0.973938 0.962402 0.960388
0.973236 0.961395 0.959319
0.972290 0.960113 0.957977
0.975311 0.962371 0.955993
0.985687 0.968933 0.951934
0.715694 0.700771 0.805814
0.727718 0.708400 0.806607
0.746944 0.717739 0.797147
0.768338 0.732235 0.777707
0.789212 0.763577 0.763119
0.906126 0.876860 0.872465
0.959289 0.942260 0.939330
0.976715 0.958068 0.958465
0.761532 0.742123 0.825254
0.770230 0.747524 0.825772
0.782437 0.751492 0.816495
0.792325 0.755032 0.794705
0.804044 0.776486 0.775204
0.911925 0.883452 0.879057
0.961028 0.944549 0.941711
0.977752 0.957946 0.958770
0.841154 0.821561 0.867399
0.843809 0.822354 0.866423
0.849454 0.821592 0.859586
0.855192 0.819730 0.844388
0.849668 0.816861 0.816709
0.924620 0.898283 0.894041
0.965759 0.951049 0.948486
0.980865 0.955810 0.958099
0.880827 0.873381 0.897063
0.883848 0.874846 0.898070
0.897948 0.882506 0.901732
0.915740 0.891997 0.902678
0.917327 0.888182 0.889311
0.946746 0.925689 0.922148
0.973754 0.962127 0.960082
0.986389 0.951385 0.954925
0.919615 0.910155 0.909392
0.921569 0.911498 0.910704
0.927947 0.915984 0.915038
0.938293 0.923766 0.922637
0.949432 0.932708 0.931670
0.961852 0.945708 0.942931
0.978515 0.944884 0.945190
0.995911 0.931029 0.930663
0.951354 0.932280 0.928832
0.952056 0.932982 0.929625
0.953246 0.934173 0.930907
0.955352 0.936980 0.933806
0.958923 0.941680 0.938750
0.961120 0.944701 0.941863
0.979248 0.953491 0.941375
0.991333 0.924376 0.911345
0.964965 0.949920 0.947326
0.964752 0.949645 0.947051
0.964752 0.949645 0.947021
0.966308 0.951781 0.949279
0.968414 0.954742 0.952361
0.966400 0.951934 0.949401
0.971527 0.955200 0.945861
0.987945 0.963531 0.944793
0.974060 0.962585 0.960571
0.974121 0.962676 0.960662
0.974548 0.963256 0.961273
0.976379 0.965850 0.964019
0.976715 0.966308 0.964477
0.975830 0.965087 0.963195
0.974701 0.963470 0.961486
0.984131 0.970428 0.958831
0.863401 0.833219 0.885039
0.865934 0.835019 0.884947
0.871275 0.837766 0.881651
0.882109 0.845548 0.877287
0.887510 0.850340 0.865629
0.892668 0.862150 0.857786
0.937469 0.913909 0.910033
0.966094 0.951476 0.948943
0.865843 0.836881 0.885496
0.867155 0.837430 0.884764
0.871885 0.839384 0.881437
0.879332 0.843229 0.874937
0.884703 0.847471 0.863279
0.889494 0.858732 0.854398
0.936828 0.913115 0.909209
0.966094 0.951476 0.948943
0.900175 0.876219 0.907378
0.900359 0.875792 0.906401
0.902464 0.875608 0.903410
0.902586 0.871763 0.894499
0.905425 0.872007 0.884184
0.902953 0.873350 0.868925
0.945281 0.923796 0.920195
0.970092 0.957031 0.954742
0.927398 0.910887 0.928161
0.928191 0.911162 0.927825
0.931273 0.912596 0.927245
0.935515 0.914244 0.925658
0.937987 0.913848 0.920226
0.936614 0.911894 0.910185
0.958831 0.941588 0.938628
0.976532 0.966094 0.964263
0.934966 0.925444 0.934264
0.935821 0.925963 0.934630
0.939635 0.928435 0.936553
0.946563 0.933318 0.940429
0.954253 0.937926 0.941344
0.954498 0.935302 0.934874
0.966094 0.951507 0.948943
0.980987 0.972412 0.970886
0.950469 0.941344 0.940246
0.951812 0.942535 0.941436
0.953735 0.943969 0.942809
0.957305 0.946777 0.945586
0.962036 0.950683 0.949432
0.968750 0.957000 0.955871
0.976562 0.966125 0.964294
0.985229 0.964080 0.963745
0.970092 0.958282 0.955871
0.970581 0.958862 0.956481
0.971466 0.959716 0.957427
0.973175 0.961395 0.959319
0.974395 0.963043 0.961059
0.975860 0.965148 0.963256
0.975616 0.964813 0.962921
0.986114 0.969757 0.962219
0.976928 0.966644 0.964843
0.976837 0.966491 0.964691
0.976959 0.966674 0.964843
0.977630 0.967681 0.965911
0.978668 0.969146 0.967437
0.980499 0.971710 0.970153
0.979675 0.970550 0.968933
0.983520 0.973327 0.967346
0.909606 0.882994 0.917357
0.911009 0.884215 0.917601
0.913085 0.885161 0.915984
0.917296 0.887785 0.913329
0.921080 0.890043 0.907958
0.923095 0.892454 0.899626
0.926909 0.900999 0.896818
0.949920 0.929778 0.926390
0.909453 0.883268 0.916716
0.911009 0.884733 0.917174
0.912993 0.885496 0.915587
0.916228 0.886839 0.912230
0.919585 0.888457 0.906493
0.920806 0.889677 0.897246
0.923522 0.896941 0.892699
0.947906 0.927184 0.923705
0.922911 0.900359 0.925902
0.923247 0.900420 0.925566
0.924102 0.900114 0.923796
0.926207 0.900298 0.920653
0.928191 0.900206 0.915160
0.929503 0.900847 0.907408
0.931487 0.906523 0.902464
0.954681 0.936065 0.932891
0.940520 0.923461 0.939391
0.940185 0.922789 0.938689
0.940398 0.921965 0.937163
0.942046 0.922026 0.935180
0.943481 0.921355 0.931243
0.945006 0.921599 0.926177
0.944366 0.922515 0.919188
0.962707 0.946899 0.944152
0.948974 0.937133 0.948211
0.949035 0.936950 0.947845
0.950896 0.937926 0.947723
0.954864 0.940612 0.948241
0.955749 0.939422 0.945556
0.956664 0.938354 0.941497
0.956298 0.937621 0.935882
0.970001 0.956939 0.954650
0.956420 0.948638 0.952911
0.956878 0.948974 0.953185
0.958373 0.950042 0.954101
0.961212 0.952087 0.955901
0.965026 0.954833 0.958404
0.970031 0.958312 0.959808
0.970855 0.957733 0.956939
0.977691 0.967742 0.966003
0.967529 0.960418 0.959380
0.967895 0.960754 0.959747
0.968780 0.961486 0.960449
0.970550 0.962982 0.961944
0.972900 0.965026 0.963958
0.975952 0.967834 0.966766
0.979583 0.971405 0.970428
0.984741 0.977844 0.976623
0.978729 0.970428 0.968658
0.978882 0.970581 0.968841
0.979644 0.971466 0.969757
0.980713 0.972534 0.970947
0.982055 0.973938 0.972503
0.982971 0.975219 0.973877
0.984283 0.977142 0.975891
0.984466 0.977295 0.975799
0.935119 0.913207 0.937743
0.935637 0.913664 0.937774
0.936187 0.913542 0.936584
0.938323 0.914794 0.935180
0.940795 0.916197 0.932616
0.942962 0.917662 0.928557
0.944335 0.919982 0.923217
0.947204 0.926268 0.922759
0.935210 0.913512 0.937621
0.935729 0.914000 0.937652
0.936553 0.914214 0.936736
0.938415 0.915099 0.935149
0.940764 0.916350 0.932586
0.942870 0.917632 0.928496
0.943877 0.919341 0.922728
0.946380 0.925231 0.921660
0.940093 0.920317 0.940978
0.940307 0.920439 0.940856
0.940795 0.920287 0.939849
0.943206 0.921904 0.939178
0.944823 0.922240 0.936461
0.946166 0.922484 0.932219
0.947112 0.923735 0.926940
0.948943 0.928557 0.925109
0.948272 0.931823 0.947326
0.948608 0.932067 0.947356
0.949035 0.931945 0.946624
0.950408 0.932403 0.945647
0.951934 0.932708 0.943694
0.953216 0.932799 0.940490
0.954131 0.933471 0.936187
0.954833 0.936278 0.933104
0.958679 0.946349 0.955962
0.958831 0.946380 0.955962
0.958282 0.945281 0.955047
0.958862 0.944915 0.954009
0.959777 0.944518 0.952300
0.960754 0.944091 0.949737
0.961700 0.944305 0.946502
0.961547 0.945281 0.942473
0.962982 0.954650 0.962127
0.963043 0.954589 0.962005
0.963684 0.954772 0.961791
0.965606 0.955840 0.961944
0.968750 0.958068 0.962554
0.970184 0.958312 0.961669
0.972045 0.959442 0.960693
0.972534 0.960266 0.958618
0.971405 0.965576 0.967529
0.971496 0.965637 0.967590
0.972015 0.965972 0.967895
0.973205 0.966827 0.968719
0.974975 0.968170 0.969970
0.977386 0.970062 0.971801
0.980194 0.971984 0.972534
0.980652 0.971771 0.970855
0.977783 0.972503 0.971588
0.977844 0.972534 0.971618
0.978302 0.972930 0.972015
0.979339 0.973877 0.972961
0.980774 0.975189 0.974273
0.982513 0.976867 0.975952
0.984649 0.979004 0.978119
0.986877 0.981292 0.980468
