20 Preset/Dark Style/【3】LUT video cho PR-AE-FCPX/19Tones (7)/BP Deserted.cube
# Created by Adobe Lightroom plugin Export LUT (1.24.0)
# www.johnrellis.com/lightroom/exportlut.htm
# Preset: BP Deserted
# Color profile: E:\lut插件\exportlut.1.24\exportlut.lrplugin\color profiles\Rec709gamma2.4.icc
LUT_3D_SIZE 5
DOMAIN_MIN 0.000000 0.000000 0.000000
DOMAIN_MAX 0.903226 0.903226 0.903226
0.000000 0.114382 0.140017
0.218387 0.109926 0.148653
0.992493 0.000000 0.062196
1.000000 0.000000 0.086580
1.000000 0.250889 0.327031
0.191653 0.231479 0.257298
0.334112 0.296910 0.170718
0.775479 0.159213 0.044709
1.000000 0.162051 0.136416
1.000000 0.424201 0.397986
0.807156 0.779232 0.777768
0.771572 0.748592 0.749203
0.915648 0.829740 0.694728
1.000000 0.748898 0.438758
1.000000 0.629328 0.470985
0.933257 0.908690 0.904662
0.931518 0.906554 0.902495
0.923247 0.896635 0.892393
0.971557 0.925780 0.866697
1.000000 0.917082 0.790585
0.968750 0.955138 0.952758
0.968505 0.954833 0.952453
0.964508 0.949310 0.946685
0.964080 0.948699 0.945953
0.988464 0.963256 0.931792
0.000000 0.143404 0.214115
0.109987 0.174868 0.202335
0.939239 0.661402 0.748745
1.000000 0.491310 0.619043
1.000000 0.569360 0.620447
0.307744 0.427558 0.463508
0.491310 0.543114 0.576013
0.980499 0.533318 0.594415
1.000000 0.533715 0.577325
1.000000 0.610986 0.628504
0.846769 0.815671 0.812406
0.851926 0.820645 0.817197
0.881621 0.826627 0.766476
1.000000 0.754788 0.611536
1.000000 0.717372 0.645838
0.941802 0.919402 0.915648
0.940673 0.917906 0.914153
0.933379 0.908812 0.904814
0.966339 0.928527 0.885740
1.000000 0.926390 0.841733
0.970489 0.957610 0.955352
0.970184 0.957183 0.954894
0.969512 0.956237 0.953918
0.968048 0.954223 0.951843
0.987549 0.966400 0.941772
0.571466 0.586297 0.736599
0.616541 0.609522 0.725460
0.678645 0.673060 0.679896
0.946593 0.925475 0.921935
0.993317 0.931609 0.941772
0.764065 0.756283 0.824002
0.773770 0.753811 0.811673
0.784970 0.757687 0.762142
0.955871 0.937652 0.934539
0.995758 0.931395 0.940581
0.888762 0.881956 0.881956
0.899260 0.888334 0.888029
0.932372 0.912596 0.911894
0.970672 0.933806 0.934447
1.000000 0.908721 0.908507
0.954650 0.936034 0.932860
0.954376 0.935637 0.932433
0.958556 0.941253 0.938262
0.960632 0.940948 0.931701
0.997833 0.938598 0.911925
0.973846 0.962280 0.960266
0.974517 0.963226 0.961242
0.974670 0.963470 0.961517
0.973022 0.961151 0.959075
0.984558 0.968780 0.953857
0.872099 0.842161 0.890776
0.878599 0.846647 0.889799
0.891051 0.854551 0.879850
0.899474 0.869535 0.865110
0.960693 0.944121 0.941283
0.894316 0.868589 0.903838
0.896513 0.868864 0.901396
0.903349 0.870390 0.891051
0.904417 0.874968 0.870573
0.963714 0.948241 0.945556
0.928069 0.914427 0.930968
0.931823 0.916442 0.930877
0.940032 0.919829 0.928710
0.939330 0.915190 0.914031
0.974853 0.963684 0.961730
0.956847 0.948272 0.947173
0.957702 0.948730 0.947601
0.963073 0.953063 0.951873
0.971740 0.960937 0.959838
0.984222 0.967864 0.967437
0.977813 0.967895 0.966155
0.978058 0.968261 0.966522
0.979339 0.970031 0.968414
0.981781 0.973541 0.972107
0.983581 0.974212 0.969482
0.935119 0.913207 0.937743
0.935912 0.913451 0.936919
0.939605 0.915557 0.934112
0.943481 0.918212 0.927398
0.947204 0.926268 0.922759
0.938811 0.918517 0.940093
0.939544 0.918730 0.939391
0.942504 0.919921 0.936645
0.945708 0.921508 0.930053
0.948821 0.928374 0.924926
0.953185 0.938689 0.951446
0.953246 0.938201 0.950652
0.954559 0.937743 0.948272
0.956176 0.936889 0.942870
0.957702 0.940093 0.937072
0.965484 0.958068 0.964019
0.965911 0.958251 0.964172
0.969085 0.960113 0.964843
0.972992 0.962066 0.964538
0.974823 0.963439 0.962036
0.977783 0.972503 0.971588
0.978119 0.972778 0.971862
0.980011 0.974487 0.973602
0.983001 0.977356 0.976471
0.986877 0.981292 0.980468
