20 Preset/Dark Style/【3】LUT video cho PR-AE-FCPX/19Tones (7)/BP Deserted.cube
# Created by Adobe Lightroom plugin Export LUT (1.24.0)
# www.johnrellis.com/lightroom/exportlut.htm
# Preset: BP Deserted
# Color profile: E:\lut插件\exportlut.1.24\exportlut.lrplugin\color profiles\Rec709gamma2.4.icc
LUT_3D_SIZE 32
DOMAIN_MIN 0.0 0.0 0.0
DOMAIN_MAX 1.0 1.0 1.0
0.000000 0.114382 0.140017
0.000000 0.114748 0.140414
0.000000 0.115541 0.140963
0.016144 0.116426 0.142397
0.016815 0.118624 0.144839
0.017762 0.120790 0.146975
0.119081 0.120211 0.148318
0.218387 0.109926 0.148653
0.334478 0.048737 0.147127
0.454810 0.000000 0.143832
0.576867 0.000000 0.137881
0.700313 0.000000 0.128359
0.817594 0.000000 0.114809
0.916228 0.000000 0.096559
0.992493 0.000000 0.062196
1.000000 0.000000 0.013153
1.000000 0.000000 0.000000
1.000000 0.000000 0.000000
1.000000 0.000000 0.000000
1.000000 0.000000 0.000000
1.000000 0.000000 0.018036
1.000000 0.000000 0.086580
1.000000 0.000000 0.119142
1.000000 0.000000 0.153231
1.000000 0.000000 0.194583
1.000000 0.000000 0.231266
1.000000 0.000000 0.265934
1.000000 0.184970 0.297063
1.000000 0.250889 0.327031
1.000000 0.300053 0.355505
1.000000 0.340063 0.382452
1.000000 0.385687 0.419257
0.000000 0.116091 0.141665
0.000000 0.116335 0.141176
0.000000 0.116762 0.141543
0.013428 0.117403 0.142763
0.017060 0.119173 0.144991
0.013489 0.120912 0.147219
0.108461 0.121065 0.148379
0.202548 0.113649 0.148623
0.312322 0.081605 0.147524
0.428809 0.000000 0.144564
0.548974 0.000000 0.139132
0.671901 0.000000 0.130312
0.789731 0.000000 0.117708
0.891783 0.000000 0.100710
0.973205 0.000000 0.072847
1.000000 0.000000 0.020844
1.000000 0.000000 0.000000
1.000000 0.000000 0.000000
1.000000 0.000000 0.000000
1.000000 0.000000 0.000000
1.000000 0.000000 0.006683
1.000000 0.000000 0.071839
1.000000 0.000000 0.111025
1.000000 0.000000 0.144289
1.000000 0.000000 0.182650
1.000000 0.000000 0.217288
1.000000 0.000000 0.249821
1.000000 0.133455 0.279728
1.000000 0.217411 0.309361
1.000000 0.272526 0.337530
1.000000 0.317449 0.365850
1.000000 0.365270 0.402625
0.000000 0.120638 0.146914
0.000000 0.120912 0.147097
0.000000 0.121645 0.145724
0.007324 0.121492 0.143893
0.010315 0.121340 0.146090
0.005463 0.122194 0.147951
0.094331 0.123629 0.148898
0.180972 0.120516 0.148959
0.285466 0.103151 0.147555
0.398810 0.000000 0.144747
0.516228 0.000000 0.139559
0.637324 0.000000 0.131044
0.756039 0.000000 0.118776
0.863676 0.000000 0.101900
0.950072 0.000000 0.074708
1.000000 0.000000 0.021180
1.000000 0.000000 0.000000
1.000000 0.000000 0.000000
1.000000 0.000000 0.000000
1.000000 0.000000 0.000000
1.000000 0.000000 0.004028
1.000000 0.000000 0.066529
1.000000 0.000000 0.108309
1.000000 0.000000 0.143343
1.000000 0.000000 0.179660
1.000000 0.000000 0.211643
1.000000 0.000000 0.243107
1.000000 0.117525 0.272770
1.000000 0.207187 0.301488
1.000000 0.264378 0.330083
1.000000 0.309880 0.358373
1.000000 0.355901 0.393042
0.000000 0.125460 0.151858
0.000000 0.125460 0.151858
0.000000 0.125460 0.151858
0.000000 0.125673 0.150790
0.000000 0.123537 0.147646
0.006928 0.124544 0.149172
0.072938 0.126467 0.149783
0.155917 0.127810 0.149203
0.250492 0.121675 0.147829
0.359014 0.096010 0.144656
0.473365 0.000000 0.139620
0.590967 0.000000 0.131258
0.709346 0.000000 0.119112
0.822049 0.000000 0.102052
0.917937 0.000000 0.073121
0.993103 0.000000 0.019135
1.000000 0.000000 0.000000
1.000000 0.000000 0.000000
1.000000 0.000000 0.000000
1.000000 0.000000 0.000000
1.000000 0.000000 0.000000
1.000000 0.000000 0.053986
1.000000 0.000000 0.103120
1.000000 0.000000 0.140108
1.000000 0.000000 0.174868
1.000000 0.000000 0.208377
1.000000 0.000000 0.240787
1.000000 0.140169 0.271183
1.000000 0.219608 0.301061
1.000000 0.273167 0.330053
1.000000 0.315129 0.357336
1.000000 0.353826 0.386450
0.000000 0.125002 0.151308
0.000000 0.125002 0.151308
0.000000 0.125002 0.151308
0.000000 0.125002 0.151308
0.000000 0.126131 0.152193
0.073396 0.136904 0.149660
0.127413 0.140230 0.148898
0.146761 0.135500 0.149752
0.212192 0.134096 0.148470
0.312169 0.125307 0.145296
0.419776 0.097139 0.140169
0.534661 0.000000 0.131930
0.653010 0.000000 0.120089
0.771054 0.000000 0.102968
0.877379 0.000000 0.073152
0.962341 0.000000 0.017334
1.000000 0.000000 0.000000
1.000000 0.000000 0.000000
1.000000 0.000000 0.000000
1.000000 0.000000 0.000000
1.000000 0.000000 0.000000
1.000000 0.000000 0.057710
1.000000 0.000000 0.105776
1.000000 0.000000 0.145052
1.000000 0.000000 0.179629
1.000000 0.000000 0.211734
1.000000 0.018128 0.243107
1.000000 0.179660 0.273198
1.000000 0.241337 0.302556
1.000000 0.287633 0.331060
1.000000 0.325536 0.357427
1.000000 0.357824 0.381994
0.000000 0.130648 0.157473
0.000000 0.130922 0.157839
0.000000 0.130434 0.157107
0.000000 0.129763 0.156619
0.003876 0.131136 0.154238
0.095827 0.147585 0.148348
0.181094 0.176028 0.142947
0.272068 0.189548 0.137270
0.279759 0.164004 0.141482
0.285527 0.144747 0.143893
0.378302 0.134218 0.139101
0.490791 0.107210 0.130465
0.607294 0.000000 0.118288
0.727565 0.000000 0.100710
0.840391 0.000000 0.064851
0.933196 0.000000 0.006897
1.000000 0.000000 0.000000
1.000000 0.000000 0.000000
1.000000 0.000000 0.000000
1.000000 0.000000 0.000000
1.000000 0.000000 0.004852
1.000000 0.000000 0.075990
1.000000 0.000000 0.176699
1.000000 0.127199 0.225895
1.000000 0.224979 0.269535
1.000000 0.283574 0.308507
1.000000 0.328557 0.343786
1.000000 0.363989 0.374243
1.000000 0.395026 0.402075
1.000000 0.420813 0.425818
1.000000 0.442878 0.446571
1.000000 0.459602 0.462440
0.108888 0.174289 0.201877
0.108400 0.173983 0.201511
0.105928 0.172641 0.200137
0.100954 0.169284 0.196750
0.092866 0.164553 0.192233
0.127932 0.176181 0.179355
0.228733 0.219211 0.151675
0.352605 0.273045 0.107301
0.502373 0.325078 0.000000
0.494728 0.253452 0.089296
0.487068 0.199710 0.113527
0.490425 0.157931 0.123445
0.611475 0.136629 0.108064
0.733547 0.060670 0.084840
0.845060 0.000000 0.023041
0.936889 0.000000 0.000000
1.000000 0.000000 0.000000
1.000000 0.000000 0.000000
1.000000 0.000000 0.000000
1.000000 0.000000 0.000000
1.000000 0.000000 0.064027
1.000000 0.000000 0.123018
1.000000 0.071656 0.174319
1.000000 0.197940 0.221653
1.000000 0.262882 0.266423
1.000000 0.311437 0.306828
1.000000 0.348577 0.341558
1.000000 0.378698 0.370733
1.000000 0.405005 0.396948
1.000000 0.427466 0.419989
1.000000 0.447303 0.440040
1.000000 0.463691 0.456825
0.191653 0.231479 0.257298
0.190280 0.230411 0.256260
0.187350 0.228092 0.254093
0.182162 0.224277 0.250278
0.173434 0.217899 0.244175
0.161410 0.209079 0.235813
0.221500 0.237186 0.213260
0.334112 0.296910 0.170718
0.466987 0.363622 0.068116
0.642725 0.437690 0.000000
0.667018 0.371893 0.000000
0.652216 0.293889 0.000000
0.636347 0.228031 0.072023
0.658015 0.181308 0.094209
0.775479 0.159213 0.044709
0.878508 0.122957 0.000000
0.962463 0.033143 0.000000
1.000000 0.000000 0.000000
1.000000 0.000000 0.000000
1.000000 0.000000 0.000000
1.000000 0.074556 0.083040
1.000000 0.162051 0.136416
1.000000 0.219364 0.183474
1.000000 0.269810 0.229770
1.000000 0.312413 0.272526
1.000000 0.347723 0.310826
1.000000 0.376684 0.343328
1.000000 0.400946 0.371191
1.000000 0.424201 0.397986
1.000000 0.444434 0.421088
1.000000 0.462165 0.441291
1.000000 0.477058 0.457862
0.279362 0.307347 0.330602
0.278569 0.306615 0.329900
0.275578 0.303655 0.327031
0.270481 0.298924 0.322362
0.262638 0.291447 0.315038
0.250706 0.280491 0.304509
0.235447 0.266911 0.291417
0.319677 0.317235 0.261021
0.438361 0.388373 0.208713
0.581262 0.460395 0.093996
0.728267 0.512749 0.000000
0.822049 0.501213 0.000000
0.808438 0.412085 0.000000
0.791592 0.332738 0.000000
0.774563 0.261479 0.000000
0.815976 0.221164 0.010437
0.911986 0.211673 0.000000
0.986847 0.202762 0.000000
1.000000 0.200198 0.000000
1.000000 0.216648 0.009827
1.000000 0.239780 0.102358
1.000000 0.267552 0.150332
1.000000 0.298558 0.195743
1.000000 0.330694 0.240055
1.000000 0.361242 0.281682
1.000000 0.387793 0.318547
1.000000 0.410681 0.350317
1.000000 0.431373 0.378576
1.000000 0.450721 0.404456
1.000000 0.467964 0.427222
1.000000 0.483558 0.447272
1.000000 0.497078 0.464393
0.364721 0.394354 0.416388
0.363378 0.392950 0.414984
0.360052 0.389532 0.411627
0.355200 0.384436 0.406592
0.345525 0.374456 0.396674
0.333989 0.362402 0.384741
0.319493 0.347417 0.370031
0.308598 0.334966 0.353033
0.412940 0.403357 0.317296
0.537926 0.476814 0.261509
0.680629 0.543877 0.162051
0.808103 0.586816 0.000000
0.917937 0.606287 0.000000
0.913451 0.519768 0.000000
0.905455 0.440620 0.000000
0.895781 0.367437 0.000000
0.891020 0.301366 0.000000
0.951263 0.283665 0.000000
1.000000 0.293217 0.000000
1.000000 0.305089 0.040681
1.000000 0.320348 0.117006
1.000000 0.337316 0.161349
1.000000 0.356390 0.202304
1.000000 0.376715 0.242679
1.000000 0.397070 0.280003
1.000000 0.415778 0.313817
1.000000 0.434638 0.345769
1.000000 0.452216 0.374609
1.000000 0.469734 0.401770
1.000000 0.486549 0.426734
1.000000 0.502129 0.449104
1.000000 0.516014 0.468452
0.441505 0.472084 0.492500
0.440955 0.471412 0.491859
0.438148 0.468818 0.489296
0.433661 0.464393 0.485054
0.426093 0.456916 0.477821
0.415930 0.446876 0.468025
0.402075 0.432898 0.454353
0.386938 0.417395 0.439094
0.398718 0.421241 0.419776
0.512108 0.493568 0.383612
0.640345 0.562493 0.330266
0.769619 0.620569 0.251347
0.872526 0.653162 0.088014
0.973663 0.687465 0.000000
0.987488 0.621332 0.000000
0.992035 0.551019 0.000000
0.994293 0.484199 0.000000
0.996002 0.421790 0.000000
0.998657 0.363195 0.000000
1.000000 0.362799 0.047272
1.000000 0.375830 0.120821
1.000000 0.389532 0.165103
1.000000 0.404700 0.206241
1.000000 0.420691 0.246799
1.000000 0.437201 0.284947
1.000000 0.453071 0.320165
1.000000 0.468147 0.351659
1.000000 0.483253 0.381262
1.000000 0.498390 0.408850
1.000000 0.513573 0.434852
1.000000 0.527703 0.458015
1.000000 0.540520 0.478004
0.531701 0.553246 0.569512
0.531456 0.553002 0.569299
0.529198 0.551110 0.567529
0.524926 0.547448 0.564080
0.517723 0.541222 0.558251
0.508354 0.533104 0.550622
0.495552 0.521843 0.540032
0.480812 0.508629 0.527489
0.465522 0.494636 0.514183
0.508965 0.521141 0.497871
0.631922 0.593866 0.469429
0.752956 0.656733 0.429541
0.905241 0.756802 0.469276
0.967681 0.775387 0.406897
1.000000 0.784085 0.315496
1.000000 0.751888 0.246067
1.000000 0.692103 0.216739
1.000000 0.633204 0.199130
1.000000 0.577173 0.192203
1.000000 0.525597 0.194156
1.000000 0.479133 0.201724
1.000000 0.492653 0.248753
1.000000 0.506065 0.293553
1.000000 0.519127 0.333776
1.000000 0.531518 0.370611
1.000000 0.542748 0.402472
1.000000 0.552941 0.429908
1.000000 0.562005 0.453315
1.000000 0.570672 0.474006
1.000000 0.579492 0.493050
1.000000 0.587945 0.510094
1.000000 0.596094 0.525628
0.685237 0.678370 0.684749
0.684108 0.677455 0.683925
0.681422 0.675319 0.681971
0.676295 0.671199 0.678218
0.668849 0.665248 0.672755
0.658900 0.657313 0.665492
0.647456 0.648127 0.657130
0.634333 0.637629 0.647486
0.620294 0.626307 0.637110
0.605890 0.614740 0.626459
0.676234 0.657252 0.613672
0.778836 0.716823 0.598474
0.863005 0.762539 0.578882
0.927947 0.793759 0.552117
0.977966 0.809140 0.509758
1.000000 0.812070 0.446326
1.000000 0.799496 0.373693
1.000000 0.748745 0.332952
1.000000 0.697047 0.301488
1.000000 0.646509 0.279179
1.000000 0.598810 0.266728
1.000000 0.555352 0.263096
1.000000 0.525444 0.272526
1.000000 0.537804 0.315831
1.000000 0.549065 0.354070
1.000000 0.559899 0.389258
1.000000 0.569818 0.419806
1.000000 0.579187 0.446632
1.000000 0.588434 0.470924
1.000000 0.597925 0.493172
1.000000 0.606653 0.512688
1.000000 0.615137 0.530449
0.759792 0.738766 0.740139
0.758724 0.737881 0.739315
0.755154 0.734920 0.736568
0.750607 0.731167 0.733150
0.743801 0.725612 0.728023
0.734493 0.718013 0.721065
0.724544 0.709957 0.713649
0.713893 0.701320 0.705745
0.702388 0.692103 0.697292
0.691432 0.683314 0.689296
0.680354 0.674464 0.681209
0.759091 0.723201 0.671931
0.835050 0.768307 0.660426
0.894987 0.801663 0.645411
0.943053 0.823819 0.623285
0.982605 0.834226 0.586908
1.000000 0.835325 0.536309
1.000000 0.834012 0.467262
1.000000 0.790951 0.425910
1.000000 0.746456 0.388647
1.000000 0.702449 0.361456
1.000000 0.660304 0.342504
1.000000 0.620844 0.330602
1.000000 0.585504 0.325841
1.000000 0.568750 0.340459
1.000000 0.579431 0.378698
1.000000 0.589563 0.413092
1.000000 0.598657 0.442390
1.000000 0.608057 0.469795
1.000000 0.617578 0.494606
1.000000 0.626642 0.516625
1.000000 0.635431 0.536584
0.807156 0.779232 0.777768
0.806546 0.778683 0.777279
0.804105 0.776547 0.775235
0.800381 0.773251 0.772152
0.794583 0.768215 0.767453
0.787472 0.762051 0.761715
0.779812 0.755520 0.755642
0.771572 0.748592 0.749203
0.763302 0.741665 0.742824
0.755306 0.735042 0.736690
0.747585 0.728664 0.730861
0.750240 0.729152 0.724880
0.817319 0.772122 0.717708
0.871397 0.805417 0.708278
0.915648 0.829740 0.694728
0.952514 0.845609 0.674861
0.984466 0.853361 0.645624
1.000000 0.853971 0.605524
1.000000 0.851591 0.552636
1.000000 0.824308 0.505333
1.000000 0.786557 0.468757
1.000000 0.748898 0.438758
1.000000 0.711940 0.415473
1.000000 0.676692 0.398962
1.000000 0.643977 0.388281
1.000000 0.614862 0.384100
1.000000 0.607965 0.403418
1.000000 0.618677 0.438972
1.000000 0.629328 0.470985
1.000000 0.640650 0.501213
1.000000 0.651972 0.528771
1.000000 0.662715 0.553338
0.837400 0.806821 0.803922
0.837369 0.806790 0.803891
0.836393 0.805875 0.803006
0.834470 0.804044 0.801266
0.831479 0.801297 0.798611
0.827878 0.797940 0.795468
0.824002 0.794400 0.792111
0.819730 0.790524 0.788418
0.815183 0.786374 0.784512
0.809995 0.781765 0.780148
0.804135 0.776577 0.775265
0.796780 0.770108 0.769223
0.809903 0.777829 0.762081
0.855894 0.807706 0.753323
0.894896 0.831113 0.742306
0.928435 0.848478 0.728084
0.958221 0.860502 0.709804
0.985138 0.866850 0.685664
1.000000 0.867857 0.654994
1.000000 0.865202 0.614771
1.000000 0.850492 0.570611
1.000000 0.818570 0.537041
1.000000 0.786587 0.508019
1.000000 0.755123 0.484291
1.000000 0.724849 0.466529
1.000000 0.696590 0.454658
1.000000 0.671107 0.448463
1.000000 0.649317 0.448341
1.000000 0.651423 0.474281
1.000000 0.662318 0.506401
1.000000 0.672908 0.535393
1.000000 0.682734 0.560449
0.859922 0.828458 0.824735
0.859831 0.828367 0.824643
0.859129 0.827695 0.824002
0.857969 0.826535 0.822904
0.856199 0.824796 0.821195
0.853910 0.822538 0.819059
0.851225 0.820005 0.816556
0.848295 0.817166 0.813809
0.844999 0.813962 0.810758
0.841215 0.810361 0.807340
0.836820 0.806302 0.803403
0.831815 0.801602 0.798917
0.825528 0.795773 0.793393
0.846159 0.809323 0.786679
0.881041 0.832303 0.778622
0.911467 0.850523 0.768673
0.938445 0.864256 0.756283
0.963104 0.874083 0.741207
0.985840 0.879637 0.722347
1.000000 0.880827 0.698207
1.000000 0.878111 0.667353
1.000000 0.872679 0.629145
1.000000 0.845792 0.599237
1.000000 0.818357 0.571435
1.000000 0.791440 0.548028
1.000000 0.765560 0.530297
1.000000 0.741451 0.517906
1.000000 0.719753 0.511131
1.000000 0.701228 0.510338
1.000000 0.686671 0.515312
1.000000 0.694453 0.543816
1.000000 0.704646 0.571710
0.880705 0.849454 0.845274
0.880888 0.849668 0.845457
0.899657 0.869718 0.865324
0.899016 0.869017 0.864622
0.898009 0.867918 0.863523
0.896544 0.866331 0.861936
0.894713 0.864347 0.859953
0.892760 0.862211 0.857847
0.890715 0.860044 0.855680
0.888457 0.857603 0.853300
0.885771 0.854795 0.850492
0.882658 0.851469 0.847257
0.878325 0.847013 0.842832
0.872862 0.841428 0.837369
0.891814 0.854704 0.830777
0.913695 0.869078 0.822873
0.933776 0.880491 0.813260
0.952636 0.889189 0.801907
0.970581 0.895354 0.788937
0.988037 0.898741 0.773251
1.000000 0.899077 0.754086
1.000000 0.896635 0.731075
1.000000 0.892973 0.701106
1.000000 0.873838 0.672450
1.000000 0.850492 0.645716
1.000000 0.826993 0.620874
1.000000 0.803738 0.599145
1.000000 0.781796 0.582727
1.000000 0.762509 0.573297
1.000000 0.746151 0.570031
1.000000 0.733211 0.572564
1.000000 0.724086 0.580163
0.901884 0.872190 0.867765
0.903288 0.873716 0.869322
0.904570 0.875151 0.870756
0.905486 0.876188 0.871763
0.905760 0.876463 0.872068
0.905119 0.875761 0.871366
0.903868 0.874357 0.869932
0.902190 0.872496 0.868101
0.900481 0.870573 0.866178
0.898497 0.868437 0.864042
0.896361 0.866117 0.861723
0.893828 0.863371 0.858976
0.890532 0.859831 0.855497
0.886534 0.855558 0.851255
0.883543 0.851957 0.846036
0.903960 0.866636 0.839872
0.922698 0.878904 0.832761
0.940276 0.889036 0.824735
0.956970 0.897032 0.815610
0.972900 0.902861 0.805325
0.988251 0.906340 0.793149
1.000000 0.907317 0.778286
1.000000 0.905699 0.759701
1.000000 0.902342 0.735500
1.000000 0.889677 0.707607
1.000000 0.869261 0.683009
1.000000 0.848692 0.660273
1.000000 0.828611 0.641077
1.000000 0.809964 0.626764
1.000000 0.793332 0.617792
1.000000 0.779355 0.614801
1.000000 0.767819 0.615961
0.910948 0.882322 0.877928
0.912230 0.883787 0.879423
0.913451 0.885191 0.880827
0.914336 0.886259 0.881895
0.914763 0.886717 0.882353
0.914366 0.886259 0.881895
0.913451 0.885161 0.880797
0.912200 0.883726 0.879362
0.910765 0.882139 0.877745
0.909178 0.880308 0.875914
0.907439 0.878355 0.873930
0.905455 0.876127 0.871733
0.903014 0.873411 0.869017
0.900053 0.870146 0.865721
0.896422 0.866209 0.861814
0.899443 0.867491 0.857023
0.916320 0.879698 0.851438
0.932219 0.890043 0.845151
0.947295 0.898680 0.838224
0.961669 0.905608 0.830564
0.975402 0.910674 0.821988
0.988830 0.913939 0.812100
1.000000 0.915129 0.800015
1.000000 0.913939 0.784573
1.000000 0.910674 0.763912
1.000000 0.903014 0.737484
1.000000 0.885100 0.715175
1.000000 0.867094 0.694911
1.000000 0.849943 0.678401
1.000000 0.833921 0.665949
1.000000 0.819547 0.657893
1.000000 0.806912 0.653681
0.919646 0.892363 0.888090
0.920684 0.893584 0.889311
0.921660 0.894713 0.890440
0.922362 0.895567 0.891295
0.922637 0.895933 0.891661
0.922393 0.895598 0.891325
0.921721 0.894804 0.890532
0.920745 0.893675 0.889372
0.919677 0.892424 0.888121
0.918425 0.890959 0.886625
0.917082 0.889403 0.885069
0.915587 0.887663 0.883330
0.913695 0.885496 0.881132
0.911498 0.882963 0.878599
0.908965 0.880095 0.875669
0.905974 0.876738 0.872313
0.913664 0.882261 0.868559
0.928222 0.893004 0.864378
0.942016 0.902434 0.860136
0.954986 0.910430 0.855741
0.967285 0.916960 0.850980
0.978851 0.921874 0.845701
0.989960 0.925048 0.839109
1.000000 0.926543 0.830930
1.000000 0.926055 0.820127
1.000000 0.923430 0.805295
1.000000 0.919463 0.784665
1.000000 0.905913 0.767453
1.000000 0.891966 0.752834
1.000000 0.878538 0.740536
1.000000 0.865873 0.730617
1.000000 0.854124 0.723140
0.933257 0.908690 0.904662
0.933593 0.909117 0.905119
0.933745 0.909331 0.905303
0.933715 0.909300 0.905272
0.933471 0.908965 0.904967
0.932952 0.908324 0.904326
0.932280 0.907500 0.903471
0.931518 0.906554 0.902495
0.930694 0.905547 0.901457
0.929839 0.904540 0.900450
0.928923 0.903441 0.899321
0.927916 0.902190 0.898039
0.926604 0.900603 0.896452
0.925078 0.898802 0.894591
0.923247 0.896635 0.892393
0.921141 0.894102 0.889830
0.918730 0.891325 0.886992
0.928618 0.898955 0.883452
0.940063 0.907317 0.879728
0.951049 0.914672 0.875700
0.961486 0.920775 0.871397
0.971557 0.925780 0.866697
0.981201 0.929442 0.861204
0.990661 0.931701 0.854612
1.000000 0.932738 0.846769
1.000000 0.932250 0.837003
1.000000 0.930053 0.824338
1.000000 0.926726 0.807218
1.000000 0.917082 0.790585
1.000000 0.904875 0.777584
1.000000 0.892912 0.766018
1.000000 0.881346 0.756008
0.939452 0.916411 0.912566
0.939696 0.916716 0.912902
0.939879 0.916930 0.913115
0.939879 0.916930 0.913115
0.939696 0.916716 0.912902
0.939330 0.916258 0.912444
0.938842 0.915618 0.911772
0.938262 0.914885 0.911040
0.937682 0.914153 0.910277
0.937041 0.913359 0.909483
0.936339 0.912535 0.908598
0.935607 0.911620 0.907652
0.934691 0.910460 0.906462
0.933623 0.909178 0.905180
0.932403 0.907652 0.903593
0.930968 0.905913 0.901854
0.929412 0.904021 0.899931
0.929320 0.903380 0.897704
0.939300 0.911345 0.894804
0.948882 0.918395 0.891752
0.958068 0.924559 0.888548
0.966827 0.929717 0.885008
0.975250 0.933867 0.881102
0.983429 0.936889 0.876524
0.991302 0.936370 0.864988
0.999939 0.937285 0.857847
1.000000 0.937011 0.849149
1.000000 0.935271 0.838254
1.000000 0.932280 0.823239
1.000000 0.925444 0.806088
1.000000 0.914519 0.794339
1.000000 0.903624 0.783261
0.947570 0.926757 0.923278
0.947967 0.927245 0.923735
0.948058 0.927398 0.923919
0.947906 0.927184 0.923705
0.947509 0.926696 0.923186
0.946960 0.925933 0.922393
0.946197 0.924987 0.921416
0.945373 0.923949 0.920348
0.944518 0.922850 0.919219
0.943694 0.921752 0.918090
0.942748 0.920562 0.916869
0.941833 0.919432 0.915679
0.940856 0.918151 0.914397
0.939696 0.916716 0.912902
0.938354 0.915007 0.911131
0.936889 0.913176 0.909270
0.935302 0.911223 0.907256
0.933745 0.909331 0.905333
0.936767 0.911498 0.903227
0.945678 0.918608 0.900786
0.954284 0.924987 0.898314
0.962432 0.930449 0.895537
0.970123 0.934844 0.892210
0.977539 0.938170 0.888060
0.984802 0.940459 0.883024
0.992065 0.941741 0.876890
0.999756 0.942321 0.869932
1.000000 0.941955 0.861692
1.000000 0.940368 0.851408
1.000000 0.937530 0.837766
1.000000 0.932555 0.819028
1.000000 0.922393 0.807248
0.951019 0.931243 0.927886
0.951324 0.931640 0.928313
0.951507 0.931884 0.928557
0.951476 0.931853 0.928527
0.951324 0.931609 0.928283
0.951049 0.931273 0.927916
0.950713 0.930846 0.927489
0.950347 0.930358 0.926970
0.949950 0.929870 0.926452
0.949554 0.929351 0.925902
0.949065 0.928710 0.925261
0.948547 0.928008 0.924559
0.947906 0.927153 0.923674
0.947082 0.926116 0.922576
0.946105 0.924865 0.921294
0.944976 0.923430 0.919829
0.943816 0.921904 0.918242
0.942626 0.920409 0.916716
0.941558 0.919066 0.915312
0.946685 0.923278 0.913481
0.954040 0.929107 0.911406
0.961059 0.934264 0.909209
0.967773 0.938659 0.906676
0.974243 0.942199 0.903716
0.980468 0.944945 0.900145
0.986664 0.946838 0.895842
0.992889 0.947967 0.890745
0.999451 0.948516 0.885069
1.000000 0.948394 0.878386
1.000000 0.947234 0.869871
1.000000 0.944762 0.858457
1.000000 0.940459 0.840757
0.955932 0.937743 0.934630
0.956085 0.937926 0.934813
0.956115 0.937987 0.934844
0.956054 0.937865 0.934783
0.955901 0.937652 0.934539
0.955657 0.937346 0.934203
0.955352 0.936950 0.933806
0.955016 0.936492 0.933349
0.954681 0.936034 0.932860
0.954314 0.935576 0.932403
0.953918 0.935058 0.931853
0.953521 0.934539 0.931273
0.953063 0.933898 0.930663
0.952453 0.933104 0.929808
0.951690 0.932097 0.928801
0.950805 0.930968 0.927611
0.949920 0.929778 0.926390
0.949004 0.928618 0.925139
0.948211 0.927581 0.924102
0.947753 0.926909 0.923186
0.954101 0.932280 0.921416
0.960266 0.937102 0.919524
0.966125 0.941283 0.917357
0.971801 0.944762 0.914855
0.977295 0.947601 0.911864
0.982696 0.949737 0.908293
0.988098 0.951263 0.904204
0.993652 0.952087 0.899351
0.999573 0.952514 0.894011
1.000000 0.952514 0.888029
1.000000 0.951537 0.880339
1.000000 0.949279 0.869871
0.959503 0.942504 0.939574
0.959594 0.942657 0.939727
0.959686 0.942748 0.939849
0.959686 0.942748 0.939849
0.959655 0.942687 0.939788
0.959686 0.942718 0.939818
0.959808 0.942901 0.940002
0.959960 0.943114 0.940246
0.960204 0.943450 0.940581
0.960479 0.943816 0.940978
0.960784 0.944213 0.941344
0.960998 0.944518 0.941680
0.961120 0.944701 0.941863
0.961120 0.944701 0.941863
0.960937 0.944488 0.941650
0.960571 0.943969 0.941100
0.960082 0.943328 0.940459
0.959625 0.942657 0.939757
0.959197 0.942107 0.939178
0.958892 0.941680 0.938720
0.960296 0.942809 0.937987
0.964813 0.946563 0.936553
0.969146 0.949889 0.934905
0.973358 0.952728 0.932982
0.977478 0.955108 0.930755
0.981567 0.957031 0.928130
0.985687 0.958495 0.925139
0.989899 0.959503 0.921691
0.994263 0.960052 0.917723
0.998962 0.960296 0.913359
1.000000 0.960266 0.908446
1.000000 0.959411 0.901793
0.965911 0.951202 0.948669
0.965881 0.951202 0.948669
0.965850 0.951141 0.948608
0.965789 0.951049 0.948486
0.965667 0.950927 0.948363
0.965545 0.950744 0.948180
0.965454 0.950591 0.948028
0.965332 0.950469 0.947875
0.965270 0.950347 0.947784
0.965209 0.950225 0.947662
0.965118 0.950164 0.947570
0.965057 0.950072 0.947478
0.964935 0.949889 0.947295
0.964782 0.949676 0.947051
