20 Preset/Dark Style/【3】LUT video cho PR-AE-FCPX/19Tones (7)/BP Stairs.cube
# Created by Adobe Lightroom plugin Export LUT (1.24.0)
# www.johnrellis.com/lightroom/exportlut.htm
# Preset: BP Stairs
# Color profile: E:\lut插件\exportlut.1.24\exportlut.lrplugin\color profiles\Rec709gamma2.4.icc
LUT_3D_SIZE 32
DOMAIN_MIN 0.0 0.0 0.0
DOMAIN_MAX 1.0 1.0 1.0
0.000000 0.087251 0.105715
0.000000 0.087098 0.105715
0.000000 0.091066 0.108278
0.000000 0.096468 0.114870
0.006317 0.103883 0.122927
0.000000 0.108858 0.130373
0.000000 0.110262 0.135805
0.000000 0.111269 0.138827
0.000000 0.114809 0.139284
0.095155 0.121035 0.136904
0.168917 0.129244 0.131289
0.252232 0.139132 0.122835
0.341161 0.152926 0.111879
0.429206 0.174319 0.097963
0.514488 0.203708 0.076570
0.597345 0.238560 0.037720
0.676570 0.277714 0.012421
0.749294 0.319493 0.017609
0.813931 0.362158 0.075959
0.879454 0.413642 0.134035
0.945251 0.480781 0.214725
0.984009 0.536675 0.291600
1.000000 0.581415 0.358770
1.000000 0.618708 0.417548
1.000000 0.649866 0.468238
1.000000 0.676387 0.511650
1.000000 0.700191 0.550805
1.000000 0.721767 0.586572
1.000000 0.742061 0.620386
1.000000 0.761135 0.652522
1.000000 0.779080 0.682795
1.000000 0.795743 0.710933
0.000000 0.087831 0.106325
0.000000 0.088289 0.106294
0.000000 0.091951 0.109834
0.000000 0.097780 0.116274
0.002014 0.104677 0.123690
0.000000 0.109194 0.130587
0.000000 0.110475 0.135775
0.000000 0.110994 0.138888
0.000000 0.113924 0.139406
0.075624 0.119814 0.137179
0.152712 0.127596 0.132418
0.233341 0.137026 0.124666
0.319860 0.149813 0.114382
0.407050 0.169589 0.101411
0.492256 0.197024 0.084779
0.574762 0.230747 0.048646
0.655665 0.269352 0.019562
0.730709 0.310521 0.016144
0.797574 0.352941 0.060426
0.865080 0.403601 0.123781
0.931395 0.466773 0.197116
0.972869 0.520317 0.268162
0.997406 0.564263 0.332341
1.000000 0.601373 0.389776
1.000000 0.632807 0.440314
1.000000 0.660670 0.485847
1.000000 0.685847 0.527184
1.000000 0.709133 0.565606
1.000000 0.731075 0.602075
1.000000 0.751705 0.636713
1.000000 0.771084 0.669398
1.000000 0.789029 0.699702
0.000000 0.094789 0.115785
0.000000 0.095125 0.116335
0.000000 0.096895 0.116457
0.000000 0.101015 0.120577
0.000000 0.107485 0.127169
0.000000 0.111208 0.133181
0.000000 0.111360 0.137087
0.000000 0.110964 0.139345
0.000000 0.113008 0.139315
0.044587 0.118135 0.137270
0.135561 0.126497 0.132692
0.212619 0.136446 0.125673
0.297856 0.149325 0.116182
0.384619 0.168551 0.104585
0.469642 0.195224 0.090425
0.552270 0.228183 0.063783
0.633539 0.266117 0.034852
0.711696 0.307042 0.026520
0.781216 0.349218 0.064454
0.852995 0.400824 0.122438
0.920134 0.461799 0.190860
0.963592 0.514031 0.259129
0.990326 0.557183 0.321324
1.000000 0.594049 0.377722
1.000000 0.625544 0.428016
1.000000 0.653315 0.473213
1.000000 0.679103 0.515465
1.000000 0.702998 0.554925
1.000000 0.725734 0.592767
1.000000 0.747158 0.628748
1.000000 0.767147 0.662440
1.000000 0.785550 0.693629
0.000000 0.104952 0.128634
0.000000 0.104585 0.128389
0.000000 0.105257 0.127779
0.000000 0.107942 0.129549
0.000000 0.110994 0.132723
0.000000 0.112642 0.136446
0.000000 0.111482 0.139010
0.000000 0.110628 0.139834
0.000000 0.111543 0.139010
0.014405 0.116426 0.136629
0.115297 0.124819 0.132021
0.188296 0.135714 0.125887
0.269871 0.149966 0.117952
0.355627 0.169345 0.108309
0.439826 0.195377 0.096864
0.520745 0.227420 0.082826
0.602075 0.264042 0.058930
0.680232 0.303502 0.050599
0.752132 0.344579 0.078279
0.829221 0.396033 0.121889
0.896300 0.451148 0.179599
0.943145 0.500206 0.240269
0.974578 0.543053 0.299779
0.996063 0.581323 0.356695
1.000000 0.615290 0.410254
1.000000 0.646235 0.460395
1.000000 0.674708 0.507164
1.000000 0.700679 0.549950
1.000000 0.724575 0.589776
1.000000 0.746426 0.626581
1.000000 0.766171 0.659968
1.000000 0.784024 0.690364
0.000000 0.112764 0.137881
0.000000 0.112703 0.138125
0.000000 0.112123 0.137240
0.000000 0.112978 0.137362
0.000000 0.113893 0.138003
0.000000 0.113100 0.139040
0.000000 0.110719 0.139559
0.000000 0.109895 0.139193
0.000000 0.112215 0.137240
0.032166 0.117189 0.134310
0.109895 0.124605 0.130373
0.165682 0.134859 0.125673
0.228153 0.148257 0.120546
0.313115 0.168399 0.113069
0.397559 0.194949 0.104891
0.481910 0.227695 0.096132
0.565362 0.265202 0.088441
0.648493 0.305974 0.084443
0.725338 0.347387 0.096773
0.809689 0.401312 0.133425
0.877562 0.453529 0.185122
0.926665 0.500359 0.241062
0.961364 0.542016 0.297765
0.985931 0.580224 0.354131
1.000000 0.614862 0.407843
1.000000 0.646235 0.458656
1.000000 0.674861 0.505577
1.000000 0.700832 0.548547
1.000000 0.724422 0.587884
1.000000 0.745968 0.624292
1.000000 0.765530 0.657588
1.000000 0.783169 0.687800
0.000000 0.113039 0.138094
0.000000 0.113039 0.138094
0.000000 0.113619 0.138735
0.000000 0.113619 0.138979
0.000000 0.112734 0.139071
0.000000 0.110475 0.138613
0.000000 0.108888 0.137881
0.000000 0.109865 0.135103
0.012879 0.114534 0.132479
0.091798 0.122377 0.129641
0.142123 0.132509 0.126070
0.198764 0.145510 0.122286
0.262242 0.161563 0.118410
0.328832 0.182040 0.114199
0.396857 0.208072 0.110292
0.464454 0.238041 0.107149
0.534386 0.272740 0.105562
0.620447 0.315038 0.106386
0.705898 0.360998 0.119997
0.795346 0.416480 0.156374
0.863767 0.467262 0.205203
0.914763 0.512596 0.259098
0.997223 0.646754 0.456123
1.000000 0.678065 0.506584
1.000000 0.703578 0.548669
1.000000 0.725185 0.584710
1.000000 0.743801 0.616419
1.000000 0.760433 0.644984
1.000000 0.775540 0.671138
1.000000 0.789487 0.695369
1.000000 0.802182 0.717464
1.000000 0.813596 0.737240
0.000000 0.106477 0.130739
0.000000 0.106477 0.130739
0.000000 0.106477 0.130739
0.000000 0.108064 0.132357
0.000000 0.107118 0.132448
0.000000 0.106813 0.132479
0.000000 0.108858 0.130983
0.017304 0.115724 0.129549
0.121523 0.134005 0.127871
0.175357 0.148867 0.126314
0.234440 0.165591 0.124941
0.298314 0.186038 0.123323
0.361486 0.209567 0.121584
0.423957 0.235996 0.120333
0.485786 0.265049 0.120027
0.547448 0.296361 0.121614
0.611017 0.330236 0.127504
0.673487 0.365759 0.139620
0.753811 0.417609 0.171206
0.827024 0.472023 0.220096
0.888090 0.524468 0.280034
0.937743 0.575494 0.348150
0.970489 0.621393 0.415625
0.990753 0.661189 0.477852
1.000000 0.693538 0.529870
1.000000 0.718837 0.571649
1.000000 0.739162 0.606012
1.000000 0.756344 0.635584
1.000000 0.771878 0.662593
1.000000 0.785794 0.687037
1.000000 0.798703 0.709682
1.000000 0.810483 0.730373
0.000000 0.120638 0.146700
0.000000 0.119600 0.145510
0.000000 0.115236 0.140841
0.000000 0.110414 0.135042
0.000000 0.108003 0.131838
0.000000 0.110658 0.131777
0.000000 0.115023 0.131472
0.045472 0.124483 0.131136
0.118624 0.141360 0.132937
0.197513 0.167575 0.135927
0.287480 0.200534 0.138735
0.347204 0.223514 0.138216
0.405829 0.248142 0.137728
0.463844 0.274662 0.138308
0.520928 0.302556 0.140505
0.578149 0.331579 0.145052
0.636316 0.362646 0.153902
0.703883 0.402808 0.173617
0.776699 0.451484 0.210208
0.836576 0.496773 0.254398
0.885740 0.540490 0.305974
0.924651 0.582818 0.362280
0.953124 0.622644 0.419409
0.972747 0.658717 0.473671
0.988891 0.691402 0.524773
0.998535 0.717037 0.566400
1.000000 0.737728 0.601007
1.000000 0.755276 0.631067
1.000000 0.771054 0.658534
1.000000 0.785122 0.683436
1.000000 0.798184 0.706630
1.000000 0.810086 0.727718
0.096712 0.166781 0.194308
0.092592 0.164370 0.191958
0.070130 0.156161 0.183658
0.023682 0.142733 0.169986
0.000000 0.125460 0.152071
0.000000 0.125002 0.147066
0.030884 0.133455 0.147677
0.095186 0.145510 0.148013
0.141604 0.161105 0.147433
0.206821 0.186313 0.150240
0.287053 0.218418 0.155947
0.406500 0.279240 0.170840
0.461524 0.303929 0.171115
0.515373 0.329168 0.173190
0.568627 0.354681 0.176944
0.620966 0.380652 0.183749
0.679866 0.413062 0.198734
0.747250 0.455177 0.228183
0.804227 0.494179 0.263005
0.852750 0.531731 0.303563
0.893523 0.568688 0.349279
0.926482 0.604822 0.397986
0.951385 0.639582 0.447761
0.969085 0.671443 0.495216
0.981109 0.698756 0.536980
0.988891 0.721065 0.571923
0.994415 0.740139 0.602838
0.999817 0.757626 0.632624
1.000000 0.773220 0.659754
1.000000 0.787198 0.684474
1.000000 0.799985 0.707362
1.000000 0.811704 0.728298
0.207614 0.243870 0.269139
0.202365 0.239811 0.265202
0.185946 0.227207 0.253117
0.157595 0.206577 0.233341
0.112551 0.176638 0.204044
0.039033 0.146792 0.173800
0.092714 0.158663 0.175967
0.131075 0.174319 0.178103
0.177432 0.193942 0.179812
0.233890 0.217472 0.180270
0.298405 0.244175 0.178134
0.372930 0.281102 0.186679
0.495003 0.353491 0.214328
0.562493 0.387823 0.223819
0.614221 0.411658 0.229221
0.671962 0.441993 0.243626
0.734310 0.478981 0.269718
0.787747 0.512535 0.299229
0.833616 0.544427 0.332158
0.872099 0.574762 0.367224
0.903899 0.603937 0.404120
0.929259 0.631647 0.441566
0.949157 0.658412 0.479438
0.964233 0.683131 0.515373
0.975372 0.705226 0.548516
0.983368 0.724514 0.578332
0.989014 0.741878 0.606043
0.993042 0.757748 0.631891
0.995666 0.772732 0.656947
0.998383 0.787320 0.682368
1.000000 0.800839 0.706447
1.000000 0.813107 0.728511
0.301427 0.329107 0.351934
0.297887 0.325628 0.348516
0.285039 0.312902 0.336004
0.260502 0.289433 0.313146
0.218967 0.252934 0.277989
0.161624 0.209445 0.235966
0.135775 0.189517 0.211887
0.173159 0.208927 0.216526
0.218784 0.232609 0.221225
0.272801 0.260960 0.225650
0.332250 0.292210 0.228122
0.398199 0.325505 0.228702
0.466865 0.361181 0.235721
0.575769 0.427436 0.271000
0.677668 0.489601 0.315496
0.730983 0.517723 0.334386
0.778561 0.544152 0.355657
0.819699 0.568933 0.378973
0.854978 0.592584 0.403937
0.885008 0.615412 0.430426
0.910277 0.637842 0.458625
0.930999 0.659998 0.487861
0.947967 0.681636 0.517510
0.961425 0.702052 0.546593
0.971618 0.720699 0.574334
0.979217 0.737392 0.599939
0.984863 0.752560 0.623957
0.989014 0.766690 0.646998
0.991852 0.780179 0.669581
0.993652 0.793057 0.691402
0.994598 0.805234 0.712337
0.995300 0.816800 0.732753
0.396338 0.427100 0.448646
0.393530 0.424109 0.445716
0.381903 0.412177 0.433997
0.359594 0.389014 0.411078
0.322057 0.350011 0.372595
0.272648 0.300999 0.324346
0.206210 0.242771 0.268162
0.222232 0.251011 0.263828
0.265110 0.278752 0.271824
0.314427 0.310857 0.280491
0.370092 0.345708 0.288060
0.432654 0.383062 0.295781
0.601617 0.509026 0.384924
0.684199 0.554131 0.413001
0.773861 0.612757 0.472786
0.851591 0.672236 0.540917
0.877745 0.686183 0.551812
0.899290 0.698787 0.563043
0.917235 0.710780 0.575402
0.932311 0.722621 0.588891
0.944793 0.734188 0.603357
0.955108 0.745388 0.618311
0.963561 0.756222 0.633814
0.970397 0.766720 0.649531
0.975769 0.776425 0.664637
0.980072 0.785245 0.678737
0.983368 0.793393 0.692164
0.985931 0.801205 0.705287
0.987762 0.809049 0.718624
0.989105 0.817014 0.732357
0.989807 0.825040 0.746181
0.990021 0.833127 0.760159
0.538293 0.558831 0.574701
0.534691 0.555718 0.571832
0.521660 0.544640 0.561456
0.495277 0.521599 0.539727
0.454871 0.484657 0.504601
0.400916 0.431739 0.453223
0.337407 0.366003 0.388312
0.287602 0.314153 0.333074
0.327092 0.345129 0.344579
0.383124 0.390021 0.366674
0.450996 0.441810 0.393133
0.531182 0.497383 0.423560
0.614923 0.549676 0.454078
0.694636 0.595422 0.482551
0.759335 0.629236 0.503899
0.819364 0.668360 0.544762
0.877775 0.716213 0.600488
0.901396 0.731777 0.616175
0.915953 0.738430 0.620813
0.928527 0.745205 0.626703
0.939574 0.752499 0.634699
0.949187 0.760433 0.644434
0.957397 0.768490 0.655360
0.964324 0.776791 0.667323
0.970031 0.784848 0.679500
0.974670 0.792508 0.691554
0.978393 0.799893 0.703487
0.981384 0.807187 0.715602
0.983642 0.814572 0.728023
0.985260 0.822202 0.741054
0.986328 0.829770 0.754086
0.986847 0.837308 0.767117
0.622644 0.628199 0.638849
0.620356 0.626429 0.637201
0.607996 0.616419 0.628016
0.588281 0.600366 0.613245
0.555047 0.572961 0.587854
0.506340 0.531304 0.548913
0.445991 0.476265 0.496559
0.375433 0.405554 0.427436
0.380835 0.406073 0.415412
0.431830 0.448188 0.437171
0.493751 0.495216 0.462165
0.564111 0.543755 0.490059
0.636255 0.589593 0.517632
0.704097 0.629541 0.541955
0.763210 0.661830 0.560998
0.809476 0.683955 0.572320
0.849577 0.709590 0.598749
0.891814 0.745205 0.640772
0.915404 0.765408 0.665126
0.926207 0.768917 0.666407
0.935943 0.773312 0.670008
0.944762 0.778683 0.675746
0.952483 0.784482 0.682918
0.959228 0.790860 0.691737
0.964904 0.797238 0.701167
0.969696 0.803464 0.710628
0.973602 0.809659 0.720455
0.976776 0.815854 0.730587
0.979339 0.822293 0.741329
0.981231 0.829068 0.752804
0.982574 0.835935 0.764492
0.983429 0.842832 0.776333
0.716915 0.703761 0.708003
0.714626 0.701930 0.706294
0.705501 0.694606 0.699580
0.688533 0.680995 0.687160
0.659968 0.658167 0.666316
0.618677 0.625025 0.635920
0.563867 0.580285 0.594659
0.492805 0.519371 0.537682
0.429114 0.459266 0.477638
0.476448 0.497475 0.497169
0.532494 0.538903 0.519646
0.594507 0.581720 0.544335
0.657282 0.622278 0.568383
0.715450 0.657649 0.589319
0.766445 0.686793 0.606073
0.809049 0.709010 0.617578
0.843076 0.724575 0.624170
0.872374 0.743893 0.644404
0.902281 0.769253 0.674952
0.924773 0.791989 0.705287
0.933288 0.794186 0.705501
0.941192 0.797391 0.707942
0.948302 0.801236 0.711971
0.954620 0.805570 0.717464
0.960143 0.810269 0.723873
0.964874 0.815213 0.731167
0.968872 0.820401 0.739162
0.972259 0.825895 0.748043
0.974945 0.831907 0.757839
0.977081 0.838193 0.768429
0.978576 0.844755 0.779507
0.979583 0.851286 0.790585
0.772305 0.749172 0.749752
0.771298 0.748348 0.748989
0.765805 0.743740 0.744747
0.754086 0.734035 0.735775
0.734310 0.717861 0.720882
0.705257 0.694392 0.699397
0.665705 0.662776 0.670497
0.610010 0.618036 0.629511
0.539330 0.559686 0.575525
0.533410 0.551934 0.559411
0.581598 0.586694 0.577356
0.631800 0.620874 0.595392
0.681270 0.652796 0.612390
0.727596 0.681056 0.627405
0.769345 0.704982 0.639826
0.805661 0.724514 0.649165
0.837278 0.740200 0.655695
0.863706 0.752560 0.660822
0.886809 0.768399 0.678035
0.909270 0.787228 0.701259
0.928466 0.807797 0.729580
0.938079 0.814908 0.738277
0.944671 0.817624 0.740566
0.950652 0.820981 0.744289
0.955932 0.824704 0.749020
0.960571 0.828672 0.754604
0.964508 0.833005 0.761013
0.967895 0.837522 0.768154
0.970703 0.842374 0.775937
0.972961 0.847471 0.784298
0.974701 0.852720 0.793057
0.975952 0.858061 0.801968
0.809293 0.781125 0.779538
0.808316 0.780240 0.778714
0.804379 0.776761 0.775448
0.796323 0.769680 0.768826
0.782986 0.758206 0.758145
0.762600 0.741085 0.742275
0.733303 0.717006 0.720150
0.692103 0.683833 0.689754
0.636988 0.639765 0.649439
0.571923 0.586755 0.599878
0.613581 0.616815 0.614862
0.656764 0.646418 0.629999
0.699428 0.674647 0.644739
0.739467 0.700038 0.658045
0.775662 0.721889 0.669276
0.807584 0.740230 0.678248
0.835447 0.755154 0.684932
0.859953 0.767605 0.690089
0.881163 0.778042 0.695247
0.899382 0.791196 0.710109
0.916167 0.805173 0.727962
0.932067 0.822934 0.752956
0.941650 0.833127 0.767514
0.947204 0.835386 0.769467
0.952178 0.838163 0.772549
0.956603 0.841276 0.776608
0.960479 0.844785 0.781552
0.963836 0.848539 0.787198
0.966674 0.852598 0.793484
0.969024 0.856870 0.800381
0.970916 0.861265 0.807553
0.972381 0.865721 0.814908
0.839384 0.808652 0.805692
0.839078 0.808347 0.805386
0.862333 0.830838 0.827054
0.858122 0.826688 0.823026
0.850950 0.819699 0.816251
0.839963 0.809232 0.806210
0.823331 0.793790 0.791501
0.799832 0.772763 0.771695
0.766537 0.744381 0.745327
0.719875 0.706172 0.710201
0.709621 0.696590 0.696101
0.740719 0.718441 0.706905
0.769558 0.738247 0.716457
0.796139 0.755917 0.724849
0.819730 0.770901 0.731655
0.840421 0.783413 0.736934
0.858640 0.793362 0.740291
0.874937 0.801266 0.742031
0.889952 0.807797 0.743160
0.903685 0.813931 0.745663
0.915679 0.822629 0.756039
0.926360 0.831174 0.767453
0.937652 0.844053 0.786038
0.945678 0.854246 0.801450
0.949798 0.855009 0.801358
0.953613 0.856199 0.802182
0.957092 0.857786 0.803922
0.960235 0.859892 0.806699
0.963012 0.862577 0.810636
0.965423 0.865751 0.815549
0.967407 0.869230 0.821073
0.969055 0.872801 0.826841
0.867399 0.835874 0.831968
0.868864 0.837369 0.833402
0.869108 0.837613 0.833646
0.867704 0.836210 0.832273
0.863645 0.832120 0.828305
0.856016 0.824582 0.821012
0.843961 0.812985 0.809812
0.826566 0.796750 0.794339
0.802548 0.775143 0.773953
0.768032 0.745632 0.746487
0.722255 0.708034 0.711666
0.748806 0.727230 0.720760
0.774166 0.745052 0.729152
0.797696 0.761288 0.736751
0.819181 0.775662 0.743435
0.838437 0.787991 0.748867
0.855619 0.798367 0.753079
0.871336 0.807156 0.756374
0.885649 0.814603 0.758938
0.898863 0.820737 0.760678
0.910857 0.827512 0.765652
0.921263 0.835904 0.776242
0.930327 0.843656 0.786770
0.939361 0.853788 0.801419
0.946410 0.862760 0.815030
0.950530 0.865476 0.818387
0.953857 0.866484 0.819120
0.956909 0.867948 0.820768
0.959655 0.870054 0.823575
0.962158 0.872587 0.827329
0.964263 0.875486 0.831754
0.966033 0.878569 0.836545
0.878080 0.846769 0.842618
0.879332 0.848051 0.843870
0.879850 0.848569 0.844388
0.879118 0.847807 0.843626
0.876249 0.844877 0.840726
0.870665 0.839170 0.835142
0.861784 0.830289 0.826505
0.849332 0.818143 0.814755
0.832120 0.801877 0.799191
0.807706 0.779690 0.778225
0.773648 0.750332 0.750851
0.764675 0.741756 0.738949
0.786099 0.757382 0.746120
0.806424 0.771969 0.752895
0.825132 0.785092 0.759030
0.842069 0.796567 0.764157
0.857511 0.806424 0.768368
0.871458 0.814908 0.771725
0.884367 0.822141 0.774472
0.896300 0.828336 0.776638
0.907317 0.833494 0.778073
0.917449 0.840604 0.785245
0.926177 0.848142 0.794919
0.933745 0.854887 0.804288
0.940917 0.862669 0.815518
0.947051 0.870481 0.827268
0.951171 0.874601 0.833249
0.954101 0.875608 0.834043
0.956817 0.877165 0.835874
0.959228 0.879179 0.838621
0.961395 0.881559 0.842069
0.963287 0.884062 0.845853
0.887480 0.856596 0.852293
0.888640 0.857816 0.853513
0.888945 0.858122 0.853788
0.888243 0.857389 0.853056
0.886168 0.855192 0.850889
0.881895 0.850736 0.846494
0.875425 0.844022 0.839933
0.866209 0.834714 0.830838
0.853605 0.822263 0.818753
0.836301 0.805783 0.802914
0.812619 0.784085 0.782345
0.781979 0.757321 0.756985
0.799893 0.770779 0.763027
0.816953 0.783566 0.768887
0.833066 0.795377 0.774380
0.848081 0.806119 0.779416
0.862211 0.815976 0.784268
0.875273 0.824826 0.788693
0.887327 0.832761 0.792874
0.898466 0.839750 0.796628
0.908690 0.845823 0.799954
0.917998 0.851072 0.802945
0.925994 0.858457 0.812131
0.932952 0.865110 0.821042
0.938872 0.870939 0.829221
0.944244 0.876768 0.837736
0.949035 0.883055 0.847166
0.952636 0.887785 0.854337
0.955016 0.888884 0.855467
0.957183 0.890288 0.857176
0.959106 0.891936 0.859373
0.960876 0.893645 0.861814
0.902281 0.872587 0.868162
0.902525 0.872923 0.868498
0.902220 0.872526 0.868132
0.901091 0.871305 0.866880
0.898924 0.868894 0.864500
0.895567 0.865263 0.860868
0.890776 0.860105 0.855741
0.884276 0.853208 0.848936
0.875608 0.844205 0.840116
0.864103 0.832578 0.828733
0.848753 0.817594 0.814237
0.827665 0.797757 0.795285
0.824704 0.794156 0.788632
0.837766 0.804440 0.793240
0.850126 0.813931 0.797452
0.861784 0.822599 0.801358
0.872587 0.830503 0.804898
0.882811 0.837613 0.808072
0.892332 0.843900 0.810910
0.901213 0.849485 0.813382
0.909483 0.854276 0.815305
0.917235 0.858335 0.816709
0.924315 0.863188 0.820951
0.930480 0.868650 0.827665
0.936095 0.873960 0.834684
0.941039 0.878843 0.841550
0.945464 0.883604 0.848478
0.949706 0.889189 0.856840
0.953033 0.893919 0.864134
0.955200 0.895476 0.866087
0.957122 0.896727 0.867613
0.958831 0.898070 0.869352
0.908080 0.879118 0.874693
0.908293 0.879332 0.874907
0.907988 0.878965 0.874601
0.907164 0.878050 0.873625
0.905486 0.876188 0.871794
0.902983 0.873381 0.868956
0.899260 0.869291 0.864866
0.894408 0.863981 0.859617
0.888029 0.857176 0.852873
0.879728 0.848478 0.844297
0.868742 0.837247 0.833310
0.854246 0.822873 0.819333
0.839689 0.808774 0.805020
0.850401 0.817502 0.808896
0.860716 0.825772 0.812619
0.870420 0.833402 0.816068
0.879637 0.840482 0.819303
0.888304 0.846860 0.822232
0.896483 0.852567 0.824826
0.904112 0.857694 0.827085
0.911284 0.862119 0.828946
0.917998 0.865934 0.830259
0.924254 0.869444 0.831968
0.929900 0.874449 0.837827
0.933410 0.875731 0.838468
0.938262 0.880308 0.844572
0.942596 0.884855 0.850889
0.946471 0.889067 0.857084
0.950225 0.894011 0.864469
0.953216 0.898314 0.871031
0.955352 0.900603 0.874266
0.957061 0.901762 0.875700
0.915892 0.887999 0.883665
0.916228 0.888396 0.884062
0.916045 0.888182 0.883848
0.915251 0.887266 0.882902
0.913695 0.885496 0.881132
0.911467 0.882902 0.878538
0.908385 0.879423 0.874998
0.904295 0.874846 0.870420
0.899016 0.869017 0.864622
0.892332 0.861784 0.857420
0.883604 0.852506 0.848264
0.872465 0.841001 0.836973
0.857694 0.826291 0.822629
0.859251 0.826871 0.820218
0.866819 0.832944 0.822202
0.874357 0.838834 0.824216
0.881834 0.844450 0.826200
0.889281 0.849973 0.828367
0.896635 0.855314 0.830655
0.903807 0.860380 0.832975
0.910582 0.864927 0.835080
0.916838 0.868742 0.836515
0.922606 0.871702 0.837125
0.927825 0.876066 0.841703
0.932464 0.879942 0.846098
0.936584 0.883391 0.850187
0.940581 0.887114 0.855070
0.944274 0.890929 0.860349
0.947601 0.894591 0.865721
0.950805 0.898680 0.871794
0.953491 0.902434 0.877531
0.955505 0.904997 0.881315
0.918456 0.890990 0.886656
0.918730 0.891325 0.886992
0.918639 0.891234 0.886900
0.918090 0.890562 0.886229
0.917052 0.889311 0.884977
0.915465 0.887510 0.883146
0.913329 0.885039 0.880644
0.910369 0.881712 0.877287
0.906767 0.877623 0.873228
0.902190 0.872496 0.868101
0.896239 0.865995 0.861601
0.888731 0.857908 0.853574
0.878843 0.847532 0.843351
0.873350 0.841520 0.836240
0.879088 0.846311 0.837675
0.884855 0.850919 0.839017
0.890562 0.855375 0.840299
0.896391 0.859678 0.841672
0.902251 0.864042 0.843259
0.908049 0.868223 0.844907
0.913664 0.872038 0.846464
0.919005 0.875364 0.847562
0.923919 0.878080 0.848081
0.928588 0.881895 0.851682
0.932769 0.885527 0.855619
0.936553 0.888762 0.859312
0.939971 0.891722 0.862821
0.943297 0.894835 0.866941
0.946410 0.898253 0.871672
0.949187 0.901488 0.876402
0.951781 0.904723 0.881254
0.954070 0.907744 0.885771
0.922637 0.895872 0.891630
0.922728 0.896025 0.891783
0.922576 0.895842 0.891569
0.922057 0.895232 0.890990
0.921172 0.894194 0.889921
0.919860 0.892668 0.888365
0.918120 0.890593 0.886259
0.915831 0.887938 0.883604
0.912993 0.884672 0.880278
0.909422 0.880613 0.876219
0.904906 0.875486 0.871092
0.899229 0.869261 0.864866
0.892180 0.861601 0.857237
0.883330 0.852201 0.847868
0.887846 0.856046 0.848875
0.892363 0.859709 0.849699
0.896941 0.863310 0.850553
0.901610 0.866880 0.851438
0.906401 0.870512 0.852567
0.911254 0.874022 0.853727
0.916014 0.877317 0.854826
0.920562 0.880156 0.855558
0.924804 0.882475 0.855741
0.928893 0.885985 0.858976
0.932677 0.889220 0.862272
0.936095 0.892088 0.865324
0.939239 0.894743 0.868284
0.942107 0.897154 0.871153
0.944945 0.899840 0.874662
0.947692 0.902922 0.878965
0.950164 0.905882 0.883268
0.952422 0.908751 0.887510
0.925353 0.899138 0.894926
0.925444 0.899229 0.895018
0.925322 0.899107 0.894926
0.924987 0.898680 0.894499
0.924407 0.898009 0.893767
0.923613 0.897063 0.892821
0.922667 0.895933 0.891691
0.921447 0.894499 0.890227
0.920012 0.892790 0.888518
0.918212 0.890684 0.886351
0.915953 0.888090 0.883726
0.913085 0.884764 0.880430
0.909453 0.880613 0.876219
0.904723 0.875303 0.870878
0.905486 0.875700 0.869871
0.908659 0.878416 0.870481
0.911620 0.880858 0.870909
0.914672 0.883238 0.871275
0.917876 0.885618 0.871672
0.921080 0.887907 0.872068
0.924285 0.890043 0.872343
0.927398 0.891844 0.872251
0.930388 0.893584 0.872343
0.933440 0.896208 0.874693
0.936278 0.898589 0.876890
0.938903 0.900755 0.878935
0.941344 0.902708 0.880980
0.943633 0.904540 0.882933
0.945739 0.906249 0.884886
0.947845 0.908141 0.887358
0.949981 0.910491 0.890593
0.951873 0.912688 0.893767
0.931365 0.906401 0.902342
0.931334 0.906371 0.902281
0.931151 0.906157 0.902068
0.930846 0.905760 0.901671
0.930297 0.905089 0.900999
0.929595 0.904234 0.900114
0.928679 0.903105 0.898985
0.927459 0.901671 0.897520
0.926055 0.899962 0.895781
0.924315 0.897887 0.893675
0.922210 0.895415 0.891142
0.919707 0.892424 0.888121
0.916533 0.888792 0.884428
0.912749 0.884367 0.880003
