20 Preset/Dark Style/【3】LUT video cho PR-AE-FCPX/19Tones (7)/BP Stairs.cube
# Created by Adobe Lightroom plugin Export LUT (1.24.0)
# www.johnrellis.com/lightroom/exportlut.htm
# Preset: BP Stairs
# Color profile: E:\lut插件\exportlut.1.24\exportlut.lrplugin\color profiles\Rec709gamma2.4.icc
LUT_3D_SIZE 5
DOMAIN_MIN 0.000000 0.000000 0.000000
DOMAIN_MAX 0.903226 0.903226 0.903226
0.000000 0.087251 0.105715
0.000000 0.111269 0.138827
0.514488 0.203708 0.076570
0.984009 0.536675 0.291600
1.000000 0.742061 0.620386
0.000000 0.120638 0.146700
0.045472 0.124483 0.131136
0.520928 0.302556 0.140505
0.924651 0.582818 0.362280
1.000000 0.771054 0.658534
0.716915 0.703761 0.708003
0.492805 0.519371 0.537682
0.766445 0.686793 0.606073
0.941192 0.797391 0.707942
0.974945 0.831907 0.757839
0.902281 0.872587 0.868162
0.884276 0.853208 0.848936
0.850126 0.813931 0.797452
0.917235 0.858335 0.816709
0.953033 0.893919 0.864134
0.933440 0.908934 0.904936
0.930541 0.905394 0.901305
0.909392 0.880491 0.875761
0.928099 0.895293 0.878660
0.944335 0.909148 0.890471
0.000000 0.122591 0.199557
0.048493 0.152163 0.207034
0.755795 0.271946 0.270268
0.901579 0.507713 0.262730
1.000000 0.714992 0.570184
0.093507 0.326879 0.422004
0.278141 0.376287 0.437568
0.639979 0.451606 0.384649
0.891966 0.569574 0.366308
1.000000 0.738613 0.601984
0.909575 0.880797 0.876402
0.879637 0.848356 0.844175
0.771664 0.727810 0.697230
0.925017 0.792844 0.717586
0.974304 0.826841 0.749355
0.931304 0.906340 0.902281
0.923369 0.896788 0.892546
0.857908 0.825803 0.819791
0.917754 0.870726 0.843107
0.953155 0.893095 0.862821
0.939940 0.916991 0.913207
0.937560 0.914031 0.910155
0.925078 0.898833 0.894621
0.931579 0.901732 0.888853
0.945281 0.910826 0.892912
0.489601 0.601892 0.745296
0.541253 0.614862 0.742947
0.708278 0.691310 0.740658
0.927153 0.901274 0.897124
0.992157 0.818051 0.797177
0.620417 0.692378 0.781308
0.651362 0.698177 0.780026
0.761135 0.739651 0.776822
0.930999 0.905943 0.901884
0.980987 0.833219 0.808957
0.830961 0.837644 0.858885
0.837675 0.839353 0.857511
0.864897 0.848936 0.855833
0.933165 0.882780 0.878233
0.949859 0.859770 0.828000
0.949035 0.929137 0.926055
0.949920 0.930083 0.926909
0.949248 0.928923 0.925475
0.928557 0.901305 0.894560
0.947295 0.908995 0.895140
0.951904 0.932403 0.929107
0.951446 0.931792 0.928435
0.947265 0.926360 0.922820
0.936248 0.911711 0.906188
0.945464 0.915740 0.902983
0.838651 0.832975 0.877348
0.846891 0.837156 0.877928
0.866636 0.845609 0.876432
0.896269 0.864866 0.874327
0.936004 0.912108 0.908141
0.853635 0.845518 0.880552
0.857328 0.846464 0.879973
0.872648 0.852079 0.878325
0.898528 0.867948 0.876524
0.936919 0.913268 0.909361
0.874083 0.867369 0.888212
0.879576 0.869688 0.888457
0.899260 0.880034 0.891539
0.914488 0.887755 0.891814
0.944457 0.922728 0.919097
0.925200 0.909239 0.912108
0.925658 0.909361 0.911925
0.929778 0.911833 0.912810
0.936217 0.915862 0.914366
0.950134 0.924041 0.920134
0.953704 0.935241 0.932372
0.954101 0.935637 0.932738
0.955657 0.937469 0.934417
0.954589 0.935943 0.932769
0.950408 0.929595 0.925109
0.906340 0.889128 0.906737
0.907774 0.889891 0.906767
0.914336 0.893950 0.907500
0.924681 0.901396 0.909148
0.936400 0.912230 0.912566
0.909606 0.892241 0.907683
0.910979 0.893004 0.907774
0.916747 0.896513 0.908476
0.925994 0.903014 0.910002
0.937316 0.913451 0.913542
0.921660 0.904112 0.912688
0.922271 0.904326 0.912657
0.925933 0.906401 0.913237
0.932525 0.910796 0.914733
0.942107 0.919768 0.918822
0.929992 0.914397 0.918547
0.931029 0.914977 0.918791
0.935882 0.918120 0.920317
0.943572 0.923980 0.923735
0.948333 0.927947 0.925902
0.946227 0.928710 0.927703
0.946563 0.928985 0.927886
0.948302 0.930480 0.928923
0.950958 0.932830 0.930602
0.953918 0.935576 0.932708
