20 Preset/Dark Style/【3】LUT video cho PR-AE-FCPX/19Tones (7)/BP Stairs.cube
# Created by Adobe Lightroom plugin Export LUT (1.24.0)
# www.johnrellis.com/lightroom/exportlut.htm
# Preset: BP Stairs
# Color profile: E:\lut插件\exportlut.1.24\exportlut.lrplugin\color profiles\Rec709gamma2.4.icc
LUT_3D_SIZE 8
DOMAIN_MIN 0.000000 0.000000 0.000000
DOMAIN_MAX 0.903226 0.903226 0.903226
0.000000 0.087251 0.105715
0.006317 0.103883 0.122927
0.000000 0.114809 0.139284
0.341161 0.152926 0.111879
0.676570 0.277714 0.012421
0.945251 0.480781 0.214725
1.000000 0.649866 0.468238
1.000000 0.742061 0.620386
0.000000 0.112764 0.137881
0.000000 0.113893 0.138003
0.000000 0.112215 0.137240
0.228153 0.148257 0.120546
0.565362 0.265202 0.088441
0.877562 0.453529 0.185122
1.000000 0.614862 0.407843
1.000000 0.724422 0.587884
0.096712 0.166781 0.194308
0.000000 0.125460 0.152071
0.141604 0.161105 0.147433
0.461524 0.303929 0.171115
0.679866 0.413062 0.198734
0.893523 0.568688 0.349279
0.981109 0.698756 0.536980
1.000000 0.773220 0.659754
0.538293 0.558831 0.574701
0.454871 0.484657 0.504601
0.327092 0.345129 0.344579
0.614923 0.549676 0.454078
0.877775 0.716213 0.600488
0.939574 0.752499 0.634699
0.970031 0.784848 0.679500
0.983642 0.814572 0.728023
0.809293 0.781125 0.779538
0.782986 0.758206 0.758145
0.636988 0.639765 0.649439
0.699428 0.674647 0.644739
0.835447 0.755154 0.684932
0.916167 0.805173 0.727962
0.952178 0.838163 0.772549
0.966674 0.852598 0.793484
0.887480 0.856596 0.852293
0.886168 0.855192 0.850889
0.853605 0.822263 0.818753
0.799893 0.770779 0.763027
0.862211 0.815976 0.784268
0.908690 0.845823 0.799954
0.938872 0.870939 0.829221
0.955016 0.888884 0.855467
0.918456 0.890990 0.886656
0.917052 0.889311 0.884977
0.906767 0.877623 0.873228
0.878843 0.847532 0.843351
0.890562 0.855375 0.840299
0.913664 0.872038 0.846464
0.932769 0.885527 0.855619
0.946410 0.898253 0.871672
0.933440 0.908934 0.904936
0.932647 0.907958 0.903929
0.929442 0.904051 0.899962
0.922301 0.895537 0.891264
0.914611 0.885039 0.876768
0.925322 0.893156 0.877836
0.936065 0.902464 0.884489
0.944335 0.909148 0.890471
0.000000 0.113893 0.136568
0.000000 0.113039 0.136904
0.099763 0.112886 0.132662
0.238712 0.145785 0.120485
0.555810 0.255558 0.085481
0.859861 0.432715 0.161410
0.995758 0.588556 0.367681
1.000000 0.701961 0.552239
0.000000 0.107851 0.130556
0.000000 0.106813 0.131991
0.096315 0.120302 0.131106
0.250309 0.157290 0.121126
0.509209 0.259983 0.105562
0.822599 0.434272 0.171206
0.973938 0.577386 0.349096
1.000000 0.690974 0.531243
0.410193 0.441077 0.462379
0.348028 0.376989 0.399207
0.235111 0.243992 0.238041
0.474830 0.333745 0.225681
0.649378 0.395911 0.189975
0.849485 0.526574 0.296757
0.955535 0.639307 0.446082
0.999115 0.735592 0.596246
0.702052 0.691829 0.697078
0.637049 0.639857 0.649500
0.347326 0.376349 0.398566
0.573968 0.534051 0.469642
0.822141 0.657984 0.538933
0.907439 0.688899 0.543633
0.957275 0.735897 0.602319
0.982147 0.783627 0.675868
0.853056 0.821744 0.818265
0.833188 0.802853 0.800137
0.714015 0.701411 0.705867
0.668055 0.654017 0.634852
0.807980 0.735134 0.671901
0.902739 0.780911 0.693812
0.948608 0.821775 0.746273
0.966217 0.840085 0.772641
0.895476 0.865141 0.860746
0.890196 0.859464 0.855100
0.859831 0.828367 0.824643
0.774136 0.749966 0.747585
0.849790 0.805447 0.776089
0.903990 0.843046 0.799802
0.936858 0.864988 0.819974
0.954498 0.884459 0.848356
0.919097 0.891722 0.887388
0.916320 0.888487 0.884123
0.905211 0.875883 0.871458
0.875883 0.844511 0.840391
0.882994 0.847898 0.833707
0.909239 0.867430 0.842008
0.929595 0.879301 0.846464
0.944793 0.893217 0.863920
0.933074 0.908476 0.904448
0.932677 0.908019 0.903990
0.929290 0.903838 0.899718
0.921874 0.895018 0.890745
0.918303 0.889708 0.882444
0.926421 0.895140 0.880980
0.935760 0.901915 0.883726
0.944121 0.908659 0.889738
0.000000 0.163180 0.284062
0.000000 0.168276 0.286351
0.174929 0.216861 0.288365
0.638270 0.640803 0.650416
0.896178 0.413855 0.396735
0.940673 0.546349 0.395239
0.989136 0.637415 0.440742
1.000000 0.733272 0.599298
0.000000 0.227481 0.350530
0.000000 0.231876 0.350805
0.240696 0.277531 0.355810
0.653498 0.652979 0.661555
0.859678 0.451942 0.416358
0.914122 0.548028 0.399298
0.971527 0.625208 0.421485
1.000000 0.726009 0.585199
0.253239 0.456031 0.553765
0.291356 0.466102 0.555200
0.405158 0.502983 0.560571
0.747829 0.613001 0.638575
0.781827 0.585321 0.522240
0.878569 0.618280 0.491005
0.963867 0.680659 0.516136
0.994537 0.751308 0.621210
0.856443 0.831144 0.832456
0.870726 0.843412 0.842832
0.897459 0.867338 0.862943
0.740017 0.718990 0.713954
0.868040 0.784909 0.748287
0.911406 0.765652 0.692805
0.958221 0.770321 0.665431
0.981933 0.799619 0.702754
0.930571 0.905394 0.901335
0.928191 0.902556 0.898436
0.913634 0.885405 0.881041
0.809995 0.781765 0.780148
0.853025 0.805692 0.779446
0.912627 0.841184 0.803983
0.944945 0.840391 0.784146
0.966308 0.845029 0.780911
0.932952 0.908354 0.904326
0.931609 0.906737 0.902678
0.921630 0.894682 0.890410
0.881804 0.850614 0.846403
0.859983 0.823850 0.809262
0.907164 0.860624 0.834501
0.935485 0.877287 0.845396
0.954894 0.885313 0.849668
0.937072 0.913420 0.909514
0.935698 0.911742 0.907774
0.929473 0.904082 0.899992
0.912718 0.884337 0.879973
0.888792 0.856809 0.849210
0.913298 0.877379 0.859983
0.931731 0.889555 0.865751
0.946227 0.896391 0.868772
0.940642 0.917906 0.914122
0.939910 0.916991 0.913176
0.937255 0.913664 0.909758
0.932006 0.907195 0.903136
0.921172 0.893980 0.889220
0.929168 0.900420 0.889769
0.936767 0.903899 0.886900
0.944671 0.909422 0.890837
0.267155 0.453376 0.639887
0.308598 0.467567 0.646326
0.397742 0.487190 0.639063
0.540978 0.554833 0.630488
0.783322 0.758541 0.758419
0.944762 0.847257 0.859190
0.999023 0.750027 0.725887
1.000000 0.766751 0.694545
0.364721 0.520897 0.675166
0.386542 0.524895 0.674586
0.455756 0.536889 0.667170
0.583215 0.592615 0.661006
0.803006 0.775570 0.774319
0.946136 0.843473 0.855283
0.992645 0.757382 0.730648
1.000000 0.770901 0.698665
0.445350 0.601190 0.709957
0.477211 0.610559 0.712886
0.581628 0.645686 0.724910
0.684535 0.683589 0.731533
0.843961 0.812985 0.809812
0.953552 0.828641 0.835966
0.968322 0.809018 0.779568
0.986053 0.805264 0.742061
0.751400 0.786648 0.821317
0.753719 0.786374 0.819669
0.770382 0.789975 0.816739
0.803250 0.799893 0.814725
0.888701 0.857877 0.853574
0.919890 0.839841 0.825498
0.935241 0.822049 0.784176
0.964843 0.826688 0.768002
0.922271 0.900847 0.900603
0.922942 0.901183 0.900664
0.926879 0.904234 0.902556
0.935149 0.911772 0.908415
0.912963 0.884611 0.880247
0.926329 0.890593 0.880400
0.935973 0.878569 0.857420
0.954742 0.869932 0.833433
0.951202 0.931456 0.928099
0.951263 0.931548 0.928191
0.949706 0.929534 0.926116
0.945129 0.923613 0.920012
0.923461 0.896849 0.892607
0.920470 0.889433 0.879667
0.937804 0.901976 0.888823
0.950011 0.900267 0.879393
0.949767 0.929625 0.926207
0.949554 0.929320 0.925902
0.948241 0.927642 0.924132
0.944121 0.922332 0.918669
0.929808 0.904479 0.900389
0.923186 0.894652 0.886564
0.935698 0.904356 0.891783
0.946044 0.907958 0.890806
0.949920 0.929839 0.926421
0.949645 0.929412 0.926024
0.948302 0.927703 0.924193
0.945159 0.923644 0.920043
0.937987 0.914549 0.910704
0.933989 0.908629 0.902434
0.939757 0.912322 0.901732
0.945586 0.912596 0.896361
0.649622 0.704067 0.807675
0.662715 0.709590 0.809323
0.691463 0.717922 0.807767
0.746975 0.741115 0.808499
0.804654 0.773312 0.803922
0.861021 0.829557 0.825803
0.938445 0.915129 0.911254
0.970245 0.874632 0.877256
0.683833 0.726894 0.816190
0.698177 0.733822 0.819028
0.725612 0.742977 0.819364
0.762112 0.754269 0.815488
0.813016 0.781643 0.810056
0.865293 0.833738 0.829892
0.939055 0.915923 0.912078
0.970733 0.873289 0.875120
0.756649 0.778958 0.836484
0.761379 0.780331 0.836606
0.772396 0.780758 0.833768
0.794675 0.784482 0.829038
0.831083 0.801083 0.824186
0.871580 0.840146 0.836118
0.940673 0.917937 0.914153
0.968933 0.870390 0.868223
0.769284 0.802090 0.845182
0.775692 0.804013 0.845426
0.804257 0.814633 0.848508
0.848234 0.835142 0.855894
0.873533 0.846494 0.858091
0.897795 0.867552 0.863340
0.943328 0.914336 0.912322
0.958892 0.880278 0.870573
0.876829 0.870237 0.882719
0.878447 0.871061 0.882963
0.883085 0.872984 0.882963
0.890440 0.876036 0.882689
0.898802 0.878874 0.881590
0.922789 0.895995 0.892699
0.940063 0.898558 0.892546
0.945159 0.886168 0.869657
0.932952 0.913024 0.912444
0.933471 0.913451 0.912718
0.934752 0.914305 0.913115
0.937987 0.916930 0.914855
0.942565 0.921111 0.917998
0.940856 0.918181 0.914427
0.942077 0.916289 0.910430
0.946227 0.911009 0.900298
0.953124 0.934203 0.931090
0.953246 0.934325 0.931212
0.953857 0.935058 0.931884
0.953826 0.934936 0.931701
0.950896 0.931060 0.927703
0.939361 0.916289 0.912444
0.938842 0.913634 0.907073
0.946319 0.917998 0.909026
0.953948 0.935119 0.931914
0.953857 0.934997 0.931792
0.953460 0.934417 0.931182
0.952636 0.933379 0.930083
0.949889 0.929778 0.926360
0.942290 0.919951 0.916258
0.942596 0.918944 0.912810
0.946715 0.920592 0.911376
0.837552 0.832120 0.876860
0.841428 0.834409 0.877562
0.845762 0.834989 0.875853
0.857847 0.839872 0.874693
0.872953 0.846830 0.871977
0.890776 0.858824 0.869596
0.905699 0.876402 0.872007
0.942626 0.920409 0.916716
0.829465 0.826230 0.872374
0.830716 0.826444 0.872038
0.836301 0.827726 0.870817
0.848508 0.832120 0.869444
0.866392 0.840818 0.867735
0.887083 0.855009 0.866514
0.903014 0.873411 0.869017
0.942199 0.919860 0.916136
0.857877 0.849332 0.881132
0.858274 0.849027 0.880674
0.862058 0.849760 0.879820
0.865537 0.848173 0.876158
0.878355 0.853696 0.874907
0.896422 0.865995 0.874815
0.910399 0.881590 0.877470
0.944121 0.922332 0.918669
0.875029 0.866087 0.887785
0.876036 0.866300 0.887510
0.883909 0.870329 0.888426
0.895415 0.876860 0.890837
0.904662 0.881407 0.891539
0.914855 0.887816 0.891936
0.924804 0.898161 0.894591
0.947906 0.927184 0.923705
0.875181 0.872709 0.889738
0.876890 0.873411 0.889891
0.884611 0.876860 0.891020
0.898405 0.884031 0.893950
0.913573 0.892943 0.897978
0.922454 0.897948 0.899779
0.931365 0.906126 0.902678
0.950195 0.928862 0.925811
0.917693 0.902770 0.907134
0.919005 0.903746 0.907744
0.920470 0.904540 0.907897
0.923125 0.906004 0.908263
0.926268 0.907622 0.908507
0.931823 0.911254 0.910185
0.942535 0.920226 0.916777
0.949157 0.920836 0.916045
0.944884 0.925963 0.924285
0.945220 0.926299 0.924529
0.946014 0.926940 0.924987
0.947417 0.928222 0.925933
0.949493 0.930144 0.927398
0.951751 0.932403 0.929259
0.948455 0.927886 0.924407
0.950317 0.928374 0.923766
0.954955 0.936614 0.933593
0.955016 0.936675 0.933654
0.955383 0.937102 0.934051
0.956054 0.937896 0.934813
0.955657 0.937377 0.934264
0.953735 0.934783 0.931579
0.947387 0.926482 0.922972
0.949615 0.928069 0.923003
0.878691 0.865141 0.894163
0.880278 0.866209 0.894499
0.883360 0.867521 0.894285
0.889921 0.870939 0.894438
0.898039 0.875334 0.894347
0.908598 0.882353 0.894408
0.918883 0.890867 0.895048
0.926635 0.900298 0.896910
0.877897 0.864622 0.893339
0.879728 0.865812 0.893767
0.882719 0.867094 0.893614
0.888273 0.869596 0.893339
0.896147 0.873594 0.893034
0.906218 0.879881 0.892638
0.916381 0.887938 0.892668
0.924193 0.897337 0.894011
0.889281 0.874662 0.896971
0.889860 0.874876 0.896971
0.891752 0.875425 0.896635
0.896208 0.877317 0.896422
0.902342 0.880186 0.896025
0.911162 0.885679 0.896147
0.921386 0.894102 0.897520
0.929351 0.903593 0.900298
0.904662 0.888792 0.902831
0.904417 0.888396 0.902525
0.905516 0.888548 0.902190
0.909178 0.890257 0.902403
0.913939 0.892485 0.902495
0.920623 0.896696 0.903349
0.928710 0.903319 0.904936
0.934936 0.910521 0.907195
0.907683 0.894011 0.905241
0.907836 0.893919 0.905058
0.910552 0.895262 0.905364
0.916655 0.898924 0.906706
0.922545 0.902312 0.907897
0.927398 0.904997 0.908629
0.933562 0.909667 0.910094
0.940032 0.916960 0.913573
0.912291 0.901488 0.909087
0.913085 0.901946 0.909300
0.916045 0.903471 0.909941
0.921386 0.906371 0.911284
0.928435 0.910552 0.913359
0.936889 0.916594 0.916869
0.941558 0.919982 0.918761
0.945739 0.924315 0.920836
0.936706 0.919738 0.920439
0.937041 0.919982 0.920623
0.937804 0.920531 0.920897
0.939361 0.921660 0.921538
0.941314 0.923095 0.922301
0.943664 0.924865 0.923308
0.946410 0.926970 0.924590
0.951202 0.931487 0.928130
0.949798 0.931456 0.929381
0.949920 0.931579 0.929442
0.950530 0.932158 0.929900
0.951385 0.932982 0.930541
0.952605 0.934142 0.931487
0.954131 0.935698 0.932738
0.955749 0.937499 0.934386
0.952789 0.933501 0.930144
0.906340 0.889128 0.906737
0.907012 0.889586 0.906889
0.908324 0.890166 0.906767
0.911925 0.892424 0.907195
0.916899 0.895689 0.907836
0.922850 0.899931 0.908782
0.930053 0.906004 0.910430
0.936400 0.912230 0.912566
0.906371 0.889220 0.906584
0.907042 0.889677 0.906767
0.908629 0.890501 0.906798
0.911986 0.892515 0.907134
0.916838 0.895659 0.907744
0.922667 0.899809 0.908659
0.929717 0.905577 0.910124
0.936034 0.911772 0.912169
0.910674 0.893309 0.908049
0.911131 0.893553 0.908110
0.912322 0.894133 0.908110
0.916106 0.896666 0.908873
0.920073 0.899107 0.909300
0.924956 0.902403 0.910063
0.931395 0.907774 0.911559
0.937438 0.913634 0.913695
0.917723 0.900145 0.910857
0.918181 0.900481 0.911009
0.919280 0.901030 0.911101
0.921935 0.902678 0.911589
0.925444 0.904936 0.912291
0.929747 0.907958 0.913237
0.935180 0.912413 0.914855
0.940520 0.917662 0.917052
0.924132 0.906950 0.914153
0.924743 0.907378 0.914366
0.926207 0.908324 0.914672
0.928283 0.909575 0.915129
0.931029 0.911223 0.915770
0.934600 0.913695 0.916777
0.939208 0.917449 0.918578
0.943847 0.921965 0.920714
0.927855 0.912078 0.917144
0.928038 0.912139 0.917144
0.929137 0.912749 0.917357
0.931945 0.914519 0.918151
0.936309 0.917601 0.919738
0.941131 0.921416 0.921965
0.944671 0.924315 0.923705
0.947570 0.926940 0.925017
0.934936 0.919738 0.921782
0.935027 0.919829 0.921782
0.935546 0.920165 0.921935
0.937224 0.921202 0.922515
0.940459 0.923247 0.923705
0.944366 0.926024 0.925414
0.948760 0.929564 0.927794
0.950866 0.931334 0.928954
0.946227 0.928710 0.927703
0.946288 0.928771 0.927733
0.946715 0.929107 0.927947
0.947692 0.929931 0.928527
0.948974 0.931060 0.929320
0.950530 0.932433 0.930327
0.952270 0.934051 0.931518
0.953918 0.935576 0.932708
