20 Preset/Ociden Style/【3】LUT video cho PR-AE-FCPX/Ocident style 4/Tone (9).cube
# Created by Adobe Lightroom plugin Export LUT (1.24.0)
# www.johnrellis.com/lightroom/exportlut.htm
# Preset: Pictor 2 BW
# Color profile: E:\lut插件\exportlut.1.24\exportlut.lrplugin\color profiles\Rec709gamma2.4.icc
LUT_3D_SIZE 32
DOMAIN_MIN 0.0 0.0 0.0
DOMAIN_MAX 1.0 1.0 1.0
0.000000 0.000000 0.000000
0.001953 0.001953 0.001953
0.010742 0.010742 0.010742
0.025391 0.025391 0.025391
0.054688 0.054688 0.054688
0.086030 0.086030 0.086030
0.099672 0.099672 0.099672
0.112032 0.112032 0.112032
0.124392 0.124392 0.124392
0.137270 0.137270 0.137270
0.151217 0.151217 0.151217
0.165591 0.165591 0.165591
0.180667 0.180667 0.180667
0.196414 0.196414 0.196414
0.212802 0.212802 0.212802
0.229679 0.229679 0.229679
0.246799 0.246799 0.246799
0.264134 0.264134 0.264134
0.281132 0.281132 0.281132
0.298192 0.298192 0.298192
0.315129 0.315129 0.315129
0.332036 0.332036 0.332036
0.348913 0.348913 0.348913
0.366217 0.366217 0.366217
0.384253 0.384253 0.384253
0.403052 0.403052 0.403052
0.422675 0.422675 0.422675
0.443397 0.443397 0.443397
0.465217 0.465217 0.465217
0.488411 0.488411 0.488411
0.513207 0.513207 0.513207
0.539757 0.539757 0.539757
0.006836 0.006836 0.006836
0.006836 0.006836 0.006836
0.016602 0.016602 0.016602
0.032227 0.032227 0.032227
0.060548 0.060548 0.060548
0.088594 0.088594 0.088594
0.101259 0.101259 0.101259
0.113405 0.113405 0.113405
0.125795 0.125795 0.125795
0.138521 0.138521 0.138521
0.152102 0.152102 0.152102
0.166384 0.166384 0.166384
0.181369 0.181369 0.181369
0.197299 0.197299 0.197299
0.213474 0.213474 0.213474
0.230289 0.230289 0.230289
0.247440 0.247440 0.247440
0.264622 0.264622 0.264622
0.281651 0.281651 0.281651
0.298741 0.298741 0.298741
0.315526 0.315526 0.315526
0.332311 0.332311 0.332311
0.349248 0.349248 0.349248
0.366583 0.366583 0.366583
0.384558 0.384558 0.384558
0.403418 0.403418 0.403418
0.423041 0.423041 0.423041
0.443671 0.443671 0.443671
0.465492 0.465492 0.465492
0.488685 0.488685 0.488685
0.513420 0.513420 0.513420
0.540032 0.540032 0.540032
0.032227 0.032227 0.032227
0.034180 0.034180 0.034180
0.040040 0.040040 0.040040
0.059571 0.059571 0.059571
0.084230 0.084230 0.084230
0.097047 0.097047 0.097047
0.108125 0.108125 0.108125
0.119295 0.119295 0.119295
0.130709 0.130709 0.130709
0.143252 0.143252 0.143252
0.156435 0.156435 0.156435
0.170230 0.170230 0.170230
0.185061 0.185061 0.185061
0.200565 0.200565 0.200565
0.216617 0.216617 0.216617
0.233127 0.233127 0.233127
0.250095 0.250095 0.250095
0.266972 0.266972 0.266972
0.283818 0.283818 0.283818
0.300664 0.300664 0.300664
0.317479 0.317479 0.317479
0.334081 0.334081 0.334081
0.350774 0.350774 0.350774
0.368078 0.368078 0.368078
0.386053 0.386053 0.386053
0.404669 0.404669 0.404669
0.424292 0.424292 0.424292
0.444953 0.444953 0.444953
0.466651 0.466651 0.466651
0.489876 0.489876 0.489876
0.514519 0.514519 0.514519
0.541039 0.541039 0.541039
0.084810 0.084810 0.084810
0.085420 0.085420 0.085420
0.088228 0.088228 0.088228
0.092592 0.092592 0.092592
0.102815 0.102815 0.102815
0.111757 0.111757 0.111757
0.120790 0.120790 0.120790
0.130495 0.130495 0.130495
0.141085 0.141085 0.141085
0.152468 0.152468 0.152468
0.164675 0.164675 0.164675
0.178012 0.178012 0.178012
0.192264 0.192264 0.192264
0.207279 0.207279 0.207279
0.222782 0.222782 0.222782
0.238895 0.238895 0.238895
0.255253 0.255253 0.255253
0.271763 0.271763 0.271763
0.288212 0.288212 0.288212
0.304723 0.304723 0.304723
0.321141 0.321141 0.321141
0.337560 0.337560 0.337560
0.354070 0.354070 0.354070
0.371038 0.371038 0.371038
0.388830 0.388830 0.388830
0.407416 0.407416 0.407416
0.426886 0.426886 0.426886
0.447395 0.447395 0.447395
0.469032 0.469032 0.469032
0.492103 0.492103 0.492103
0.516777 0.516777 0.516777
0.543236 0.543236 0.543236
0.112856 0.112856 0.112856
0.113130 0.113130 0.113130
0.114443 0.114443 0.114443
0.117556 0.117556 0.117556
0.122469 0.122469 0.122469
0.132692 0.132692 0.132692
0.139498 0.139498 0.139498
0.147585 0.147585 0.147585
0.156435 0.156435 0.156435
0.166384 0.166384 0.166384
0.177584 0.177584 0.177584
0.189944 0.189944 0.189944
0.203311 0.203311 0.203311
0.217502 0.217502 0.217502
0.232364 0.232364 0.232364
0.247715 0.247715 0.247715
0.263401 0.263401 0.263401
0.279179 0.279179 0.279179
0.294926 0.294926 0.294926
0.310857 0.310857 0.310857
0.326970 0.326970 0.326970
0.342901 0.342901 0.342901
0.359014 0.359014 0.359014
0.375799 0.375799 0.375799
0.393317 0.393317 0.393317
0.411719 0.411719 0.411719
0.430945 0.430945 0.430945
0.451240 0.451240 0.451240
0.472816 0.472816 0.472816
0.495796 0.495796 0.495796
0.520378 0.520378 0.520378
0.546715 0.546715 0.546715
0.139315 0.139315 0.139315
0.139498 0.139498 0.139498
0.140505 0.140505 0.140505
0.142855 0.142855 0.142855
0.146822 0.146822 0.146822
0.152102 0.152102 0.152102
0.163546 0.163546 0.163546
0.169467 0.169467 0.169467
0.176577 0.176577 0.176577
0.185061 0.185061 0.185061
0.194797 0.194797 0.194797
0.205875 0.205875 0.205875
0.218143 0.218143 0.218143
0.231266 0.231266 0.231266
0.245274 0.245274 0.245274
0.259495 0.259495 0.259495
0.274174 0.274174 0.274174
0.289067 0.289067 0.289067
0.304326 0.304326 0.304326
0.319432 0.319432 0.319432
0.334874 0.334874 0.334874
0.350286 0.350286 0.350286
0.365911 0.365911 0.365911
0.382361 0.382361 0.382361
0.399542 0.399542 0.399542
0.417609 0.417609 0.417609
0.436652 0.436652 0.436652
0.456733 0.456733 0.456733
0.478187 0.478187 0.478187
0.500938 0.500938 0.500938
0.525475 0.525475 0.525475
0.551507 0.551507 0.551507
0.166079 0.166079 0.166079
0.166384 0.166384 0.166384
0.167178 0.167178 0.167178
0.168856 0.168856 0.168856
0.172030 0.172030 0.172030
0.176577 0.176577 0.176577
0.182345 0.182345 0.182345
0.195163 0.195163 0.195163
0.200443 0.200443 0.200443
0.207401 0.207401 0.207401
0.215763 0.215763 0.215763
0.225650 0.225650 0.225650
0.236515 0.236515 0.236515
0.248325 0.248325 0.248325
0.260899 0.260899 0.260899
0.274022 0.274022 0.274022
0.287633 0.287633 0.287633
0.301610 0.301610 0.301610
0.315770 0.315770 0.315770
0.330236 0.330236 0.330236
0.344915 0.344915 0.344915
0.359716 0.359716 0.359716
0.374823 0.374823 0.374823
0.390784 0.390784 0.390784
0.407538 0.407538 0.407538
0.425269 0.425269 0.425269
0.444007 0.444007 0.444007
0.463874 0.463874 0.463874
0.485054 0.485054 0.485054
0.507683 0.507683 0.507683
0.532036 0.532036 0.532036
0.557763 0.557763 0.557763
0.193790 0.193790 0.193790
0.193912 0.193912 0.193912
0.194675 0.194675 0.194675
0.196048 0.196048 0.196048
0.198520 0.198520 0.198520
0.202243 0.202243 0.202243
0.206943 0.206943 0.206943
0.212680 0.212680 0.212680
0.224125 0.224125 0.224125
0.232456 0.232456 0.232456
0.239536 0.239536 0.239536
0.247898 0.247898 0.247898
0.257389 0.257389 0.257389
0.267948 0.267948 0.267948
0.279179 0.279179 0.279179
0.291020 0.291020 0.291020
0.303441 0.303441 0.303441
0.316350 0.316350 0.316350
0.329686 0.329686 0.329686
0.343175 0.343175 0.343175
0.356970 0.356970 0.356970
0.371038 0.371038 0.371038
0.385657 0.385657 0.385657
0.401038 0.401038 0.401038
0.417426 0.417426 0.417426
0.434760 0.434760 0.434760
0.453162 0.453162 0.453162
0.472663 0.472663 0.472663
0.493629 0.493629 0.493629
0.516106 0.516106 0.516106
0.540246 0.540246 0.540246
0.565454 0.565454 0.565454
0.222049 0.222049 0.222049
0.222141 0.222141 0.222141
0.222660 0.222660 0.222660
0.223819 0.223819 0.223819
0.225650 0.225650 0.225650
0.228702 0.228702 0.228702
0.232761 0.232761 0.232761
0.237766 0.237766 0.237766
0.243534 0.243534 0.243534
0.253178 0.253178 0.253178
0.264622 0.264622 0.264622
0.271763 0.271763 0.271763
0.279942 0.279942 0.279942
0.289158 0.289158 0.289158
0.299290 0.299290 0.299290
0.309880 0.309880 0.309880
0.321324 0.321324 0.321324
0.333104 0.333104 0.333104
0.345373 0.345373 0.345373
0.358038 0.358038 0.358038
0.371038 0.371038 0.371038
0.384344 0.384344 0.384344
0.398291 0.398291 0.398291
0.413153 0.413153 0.413153
0.429084 0.429084 0.429084
0.445930 0.445930 0.445930
0.463966 0.463966 0.463966
0.483253 0.483253 0.483253
0.503929 0.503929 0.503929
0.526146 0.526146 0.526146
0.549859 0.549859 0.549859
0.574609 0.574609 0.574609
0.250553 0.250553 0.250553
0.250736 0.250736 0.250736
0.251072 0.251072 0.251072
0.252140 0.252140 0.252140
0.253605 0.253605 0.253605
0.255924 0.255924 0.255924
0.259312 0.259312 0.259312
0.263645 0.263645 0.263645
0.268650 0.268650 0.268650
0.274479 0.274479 0.274479
0.282475 0.282475 0.282475
0.296513 0.296513 0.296513
0.303838 0.303838 0.303838
0.311772 0.311772 0.311772
0.320806 0.320806 0.320806
0.330358 0.330358 0.330358
0.340734 0.340734 0.340734
0.351507 0.351507 0.351507
0.362829 0.362829 0.362829
0.374640 0.374640 0.374640
0.386816 0.386816 0.386816
0.399268 0.399268 0.399268
0.412634 0.412634 0.412634
0.426978 0.426978 0.426978
0.442359 0.442359 0.442359
0.458778 0.458778 0.458778
0.476509 0.476509 0.476509
0.495460 0.495460 0.495460
0.515892 0.515892 0.515892
0.537896 0.537896 0.537896
0.560937 0.560937 0.560937
0.585077 0.585077 0.585077
0.279179 0.279179 0.279179
0.279240 0.279240 0.279240
0.279698 0.279698 0.279698
0.280461 0.280461 0.280461
0.281804 0.281804 0.281804
0.283665 0.283665 0.283665
0.286473 0.286473 0.286473
0.290074 0.290074 0.290074
0.294499 0.294499 0.294499
0.299565 0.299565 0.299565
0.305272 0.305272 0.305272
0.311772 0.311772 0.311772
0.328435 0.328435 0.328435
0.335515 0.335515 0.335515
0.343511 0.343511 0.343511
0.352148 0.352148 0.352148
0.361456 0.361456 0.361456
0.371466 0.371466 0.371466
0.381872 0.381872 0.381872
0.392767 0.392767 0.392767
0.404028 0.404028 0.404028
0.415869 0.415869 0.415869
0.428626 0.428626 0.428626
0.442420 0.442420 0.442420
0.457343 0.457343 0.457343
0.473396 0.473396 0.473396
0.490730 0.490730 0.490730
0.509331 0.509331 0.509331
0.529473 0.529473 0.529473
0.550988 0.550988 0.550988
0.573388 0.573388 0.573388
0.596918 0.596918 0.596918
0.307652 0.307652 0.307652
0.307713 0.307713 0.307713
0.308049 0.308049 0.308049
0.308782 0.308782 0.308782
0.309880 0.309880 0.309880
0.311528 0.311528 0.311528
0.313787 0.313787 0.313787
0.316991 0.316991 0.316991
0.320745 0.320745 0.320745
0.325261 0.325261 0.325261
0.330358 0.330358 0.330358
0.336156 0.336156 0.336156
0.342504 0.342504 0.342504
0.360174 0.360174 0.360174
0.367254 0.367254 0.367254
0.375036 0.375036 0.375036
0.383490 0.383490 0.383490
0.392523 0.392523 0.392523
0.402136 0.402136 0.402136
0.412207 0.412207 0.412207
0.422736 0.422736 0.422736
0.433845 0.433845 0.433845
0.446082 0.446082 0.446082
0.459388 0.459388 0.459388
0.473854 0.473854 0.473854
0.489509 0.489509 0.489509
0.506493 0.506493 0.506493
0.524834 0.524834 0.524834
0.544579 0.544579 0.544579
0.565301 0.565301 0.565301
0.587060 0.587060 0.587060
0.609918 0.609918 0.609918
0.336034 0.336034 0.336034
0.336095 0.336095 0.336095
0.336431 0.336431 0.336431
0.337011 0.337011 0.337011
0.338018 0.338018 0.338018
0.339452 0.339452 0.339452
0.341344 0.341344 0.341344
0.344030 0.344030 0.344030
0.347387 0.347387 0.347387
0.351324 0.351324 0.351324
0.355962 0.355962 0.355962
0.361089 0.361089 0.361089
0.366796 0.366796 0.366796
0.373114 0.373114 0.373114
0.391760 0.391760 0.391760
0.398749 0.398749 0.398749
0.406470 0.406470 0.406470
0.414740 0.414740 0.414740
0.423529 0.423529 0.423529
0.432868 0.432868 0.432868
0.442634 0.442634 0.442634
0.453193 0.453193 0.453193
0.464912 0.464912 0.464912
0.477821 0.477821 0.477821
0.491859 0.491859 0.491859
0.507134 0.507134 0.507134
0.523857 0.523857 0.523857
0.541802 0.541802 0.541802
0.560754 0.560754 0.560754
0.580804 0.580804 0.580804
0.601831 0.601831 0.601831
0.624018 0.624018 0.624018
0.364355 0.364355 0.364355
0.364446 0.364446 0.364446
0.364660 0.364660 0.364660
0.365240 0.365240 0.365240
0.366125 0.366125 0.366125
0.367407 0.367407 0.367407
0.369055 0.369055 0.369055
0.371252 0.371252 0.371252
0.374243 0.374243 0.374243
0.377844 0.377844 0.377844
0.381933 0.381933 0.381933
0.386633 0.386633 0.386633
0.391821 0.391821 0.391821
0.397559 0.397559 0.397559
0.403815 0.403815 0.403815
0.420905 0.420905 0.420905
0.430304 0.430304 0.430304
0.437842 0.437842 0.437842
0.445960 0.445960 0.445960
0.454536 0.454536 0.454536
0.463691 0.463691 0.463691
0.473793 0.473793 0.473793
0.485054 0.485054 0.485054
0.497536 0.497536 0.497536
0.511254 0.511254 0.511254
0.526268 0.526268 0.526268
0.542473 0.542473 0.542473
0.559686 0.559686 0.559686
0.577966 0.577966 0.577966
0.597253 0.597253 0.597253
0.617578 0.617578 0.617578
0.639094 0.639094 0.639094
0.392523 0.392523 0.392523
0.392615 0.392615 0.392615
0.392859 0.392859 0.392859
0.393317 0.393317 0.393317
0.394171 0.394171 0.394171
0.395270 0.395270 0.395270
0.396826 0.396826 0.396826
0.398718 0.398718 0.398718
0.401282 0.401282 0.401282
0.404456 0.404456 0.404456
0.408179 0.408179 0.408179
0.412451 0.412451 0.412451
0.417151 0.417151 0.417151
0.422400 0.422400 0.422400
0.428199 0.428199 0.428199
0.434424 0.434424 0.434424
0.449928 0.449928 0.449928
0.461860 0.461860 0.461860
0.469306 0.469306 0.469306
0.477211 0.477211 0.477211
0.485847 0.485847 0.485847
0.495552 0.495552 0.495552
0.506493 0.506493 0.506493
0.518578 0.518578 0.518578
0.531945 0.531945 0.531945
0.546441 0.546441 0.546441
0.561944 0.561944 0.561944
0.578454 0.578454 0.578454
0.595941 0.595941 0.595941
0.614496 0.614496 0.614496
0.634180 0.634180 0.634180
0.655024 0.655024 0.655024
0.420691 0.420691 0.420691
0.420783 0.420783 0.420783
0.420935 0.420935 0.420935
0.421454 0.421454 0.421454
0.422126 0.422126 0.422126
0.423194 0.423194 0.423194
0.424598 0.424598 0.424598
0.426307 0.426307 0.426307
0.428412 0.428412 0.428412
0.431342 0.431342 0.431342
0.434699 0.434699 0.434699
0.438575 0.438575 0.438575
0.443000 0.443000 0.443000
0.447761 0.447761 0.447761
0.453040 0.453040 0.453040
0.458808 0.458808 0.458808
0.465064 0.465064 0.465064
0.478920 0.478920 0.478920
0.493324 0.493324 0.493324
0.500633 0.500633 0.500633
0.508934 0.508934 0.508934
0.518303 0.518303 0.518303
0.528985 0.528985 0.528985
0.540734 0.540734 0.540734
0.553491 0.553491 0.553491
0.567254 0.567254 0.567254
0.582055 0.582055 0.582055
0.597803 0.597803 0.597803
0.614618 0.614618 0.614618
0.632502 0.632502 0.632502
0.651453 0.651453 0.651453
0.671687 0.671687 0.671687
0.448920 0.448920 0.448920
0.448920 0.448920 0.448920
0.449134 0.449134 0.449134
0.449561 0.449561 0.449561
0.450141 0.450141 0.450141
0.451087 0.451087 0.451087
0.452308 0.452308 0.452308
0.453925 0.453925 0.453925
0.455848 0.455848 0.455848
0.458350 0.458350 0.458350
0.461494 0.461494 0.461494
0.465034 0.465034 0.465034
0.469062 0.469062 0.469062
0.473518 0.473518 0.473518
0.478340 0.478340 0.478340
0.483711 0.483711 0.483711
0.489418 0.489418 0.489418
0.495613 0.495613 0.495613
0.507927 0.507927 0.507927
0.524956 0.524956 0.524956
0.532982 0.532982 0.532982
0.542046 0.542046 0.542046
0.552178 0.552178 0.552178
0.563256 0.563256 0.563256
0.575341 0.575341 0.575341
0.588464 0.588464 0.588464
0.602594 0.602594 0.602594
0.617639 0.617639 0.617639
0.633783 0.633783 0.633783
0.651026 0.651026 0.651026
0.669337 0.669337 0.669337
0.688899 0.688899 0.688899
0.476936 0.476936 0.476936
0.476997 0.476997 0.476997
0.477180 0.477180 0.477180
0.477546 0.477546 0.477546
0.478187 0.478187 0.478187
0.479042 0.479042 0.479042
0.480171 0.480171 0.480171
0.481575 0.481575 0.481575
0.483345 0.483345 0.483345
0.485481 0.485481 0.485481
0.488319 0.488319 0.488319
0.491646 0.491646 0.491646
0.495308 0.495308 0.495308
0.499428 0.499428 0.499428
0.503960 0.503960 0.503960
0.508934 0.508934 0.508934
0.514336 0.514336 0.514336
0.520104 0.520104 0.520104
0.526421 0.526421 0.526421
0.537377 0.537377 0.537377
0.557275 0.557275 0.557275
0.565850 0.565850 0.565850
0.575372 0.575372 0.575372
0.585901 0.585901 0.585901
0.597375 0.597375 0.597375
0.609888 0.609888 0.609888
0.623346 0.623346 0.623346
0.637842 0.637842 0.637842
0.653376 0.653376 0.653376
0.669947 0.669947 0.669947
0.687678 0.687678 0.687678
0.706630 0.706630 0.706630
0.505272 0.505272 0.505272
0.505303 0.505303 0.505303
0.505486 0.505486 0.505486
0.505821 0.505821 0.505821
0.506432 0.506432 0.506432
0.507195 0.507195 0.507195
0.508354 0.508354 0.508354
0.509667 0.509667 0.509667
0.511345 0.511345 0.511345
0.513329 0.513329 0.513329
0.515862 0.515862 0.515862
0.518975 0.518975 0.518975
0.522484 0.522484 0.522484
0.526390 0.526390 0.526390
0.530755 0.530755 0.530755
0.535485 0.535485 0.535485
0.540520 0.540520 0.540520
0.546014 0.546014 0.546014
0.551843 0.551843 0.551843
0.558007 0.558007 0.558007
0.567254 0.567254 0.567254
0.589502 0.589502 0.589502
0.598505 0.598505 0.598505
0.608545 0.608545 0.608545
0.619532 0.619532 0.619532
0.631464 0.631464 0.631464
0.644373 0.644373 0.644373
0.658259 0.658259 0.658259
0.673182 0.673182 0.673182
0.689174 0.689174 0.689174
0.706386 0.706386 0.706386
0.724666 0.724666 0.724666
0.535058 0.535058 0.535058
0.535088 0.535088 0.535088
0.535210 0.535210 0.535210
0.535607 0.535607 0.535607
0.536126 0.536126 0.536126
0.536889 0.536889 0.536889
0.537896 0.537896 0.537896
0.539208 0.539208 0.539208
0.540764 0.540764 0.540764
0.542596 0.542596 0.542596
0.544793 0.544793 0.544793
0.547662 0.547662 0.547662
0.550927 0.550927 0.550927
0.554528 0.554528 0.554528
0.558556 0.558556 0.558556
0.562890 0.562890 0.562890
0.567620 0.567620 0.567620
0.572656 0.572656 0.572656
0.578027 0.578027 0.578027
0.583703 0.583703 0.583703
0.589746 0.589746 0.589746
0.597192 0.597192 0.597192
0.619471 0.619471 0.619471
0.631067 0.631067 0.631067
0.641566 0.641566 0.641566
0.653010 0.653010 0.653010
0.665370 0.665370 0.665370
0.678767 0.678767 0.678767
0.693141 0.693141 0.693141
0.708644 0.708644 0.708644
0.725216 0.725216 0.725216
0.742977 0.742977 0.742977
0.565423 0.565423 0.565423
0.565515 0.565515 0.565515
0.565606 0.565606 0.565606
0.565911 0.565911 0.565911
0.566430 0.566430 0.566430
0.567102 0.567102 0.567102
0.568078 0.568078 0.568078
0.569268 0.569268 0.569268
0.570733 0.570733 0.570733
0.572381 0.572381 0.572381
0.574365 0.574365 0.574365
0.576837 0.576837 0.576837
0.579858 0.579858 0.579858
0.583124 0.583124 0.583124
0.586816 0.586816 0.586816
0.590814 0.590814 0.590814
0.595148 0.595148 0.595148
0.599817 0.599817 0.599817
0.604761 0.604761 0.604761
0.610071 0.610071 0.610071
0.615686 0.615686 0.615686
0.621546 0.621546 0.621546
0.627680 0.627680 0.627680
0.649409 0.649409 0.649409
0.663478 0.663478 0.663478
0.674495 0.674495 0.674495
0.686397 0.686397 0.686397
0.699306 0.699306 0.699306
0.713161 0.713161 0.713161
0.728145 0.728145 0.728145
0.744228 0.744228 0.744228
0.761379 0.761379 0.761379
0.595972 0.595972 0.595972
0.596002 0.596002 0.596002
0.596124 0.596124 0.596124
0.596429 0.596429 0.596429
0.596918 0.596918 0.596918
0.597528 0.597528 0.597528
0.598413 0.598413 0.598413
0.599512 0.599512 0.599512
0.600824 0.600824 0.600824
0.602380 0.602380 0.602380
0.604211 0.604211 0.604211
0.606287 0.606287 0.606287
0.609033 0.609033 0.609033
0.612085 0.612085 0.612085
0.615473 0.615473 0.615473
0.619165 0.619165 0.619165
0.623163 0.623163 0.623163
0.627497 0.627497 0.627497
0.632105 0.632105 0.632105
0.637018 0.637018 0.637018
0.642176 0.642176 0.642176
0.647700 0.647700 0.647700
0.653437 0.653437 0.653437
0.659419 0.659419 0.659419
0.679469 0.679469 0.679469
0.695796 0.695796 0.695796
0.707301 0.707301 0.707301
0.719722 0.719722 0.719722
0.733181 0.733181 0.733181
0.747646 0.747646 0.747646
0.763210 0.763210 0.763210
0.779812 0.779812 0.779812
0.626673 0.626673 0.626673
0.626673 0.626673 0.626673
0.626825 0.626825 0.626825
0.627100 0.627100 0.627100
0.627527 0.627527 0.627527
0.628138 0.628138 0.628138
0.628931 0.628931 0.628931
0.629938 0.629938 0.629938
0.631159 0.631159 0.631159
0.632624 0.632624 0.632624
0.634272 0.634272 0.634272
0.636194 0.636194 0.636194
0.638544 0.638544 0.638544
0.641382 0.641382 0.641382
0.644495 0.644495 0.644495
0.647944 0.647944 0.647944
0.651667 0.651667 0.651667
0.655665 0.655665 0.655665
0.659937 0.659937 0.659937
0.664515 0.664515 0.664515
0.669337 0.669337 0.669337
0.674464 0.674464 0.674464
0.679835 0.679835 0.679835
0.685420 0.685420 0.685420
0.691310 0.691310 0.691310
0.709590 0.709590 0.709590
0.727993 0.727993 0.727993
0.740047 0.740047 0.740047
0.753048 0.753048 0.753048
0.767056 0.767056 0.767056
0.782132 0.782132 0.782132
0.798215 0.798215 0.798215
0.657588 0.657588 0.657588
0.657588 0.657588 0.657588
0.657771 0.657771 0.657771
0.657984 0.657984 0.657984
0.658381 0.658381 0.658381
0.658930 0.658930 0.658930
0.659663 0.659663 0.659663
0.660578 0.660578 0.660578
0.661707 0.661707 0.661707
0.663081 0.663081 0.663081
0.664637 0.664637 0.664637
0.666438 0.666438 0.666438
0.668421 0.668421 0.668421
0.671046 0.671046 0.671046
0.673945 0.673945 0.673945
0.677089 0.677089 0.677089
0.680537 0.680537 0.680537
0.684260 0.684260 0.684260
0.688258 0.688258 0.688258
0.692500 0.692500 0.692500
0.697017 0.697017 0.697017
0.701778 0.701778 0.701778
0.706783 0.706783 0.706783
0.712093 0.712093 0.712093
0.717586 0.717586 0.717586
0.723293 0.723293 0.723293
0.739864 0.739864 0.739864
0.760098 0.760098 0.760098
0.772702 0.772702 0.772702
0.786313 0.786313 0.786313
0.800870 0.800870 0.800870
0.816464 0.816464 0.816464
0.688716 0.688716 0.688716
0.688746 0.688746 0.688746
0.688869 0.688869 0.688869
0.689052 0.689052 0.689052
0.689448 0.689448 0.689448
0.689967 0.689967 0.689967
0.690639 0.690639 0.690639
0.691493 0.691493 0.691493
0.692561 0.692561 0.692561
0.693812 0.693812 0.693812
0.695277 0.695277 0.695277
0.696956 0.696956 0.696956
0.698817 0.698817 0.698817
0.701045 0.701045 0.701045
0.703761 0.703761 0.703761
0.706661 0.706661 0.706661
0.709895 0.709895 0.709895
0.713344 0.713344 0.713344
0.717067 0.717067 0.717067
0.721035 0.721035 0.721035
0.725216 0.725216 0.725216
0.729702 0.729702 0.729702
0.734401 0.734401 0.734401
0.739345 0.739345 0.739345
0.744472 0.744472 0.744472
0.749844 0.749844 0.749844
0.755428 0.755428 0.755428
0.770291 0.770291 0.770291
0.792111 0.792111 0.792111
0.805264 0.805264 0.805264
0.819425 0.819425 0.819425
0.834562 0.834562 0.834562
0.720089 0.720089 0.720089
0.720119 0.720119 0.720119
0.720211 0.720211 0.720211
0.720455 0.720455 0.720455
0.720790 0.720790 0.720790
0.721248 0.721248 0.721248
0.721889 0.721889 0.721889
0.722713 0.722713 0.722713
0.723690 0.723690 0.723690
0.724849 0.724849 0.724849
0.726192 0.726192 0.726192
0.727749 0.727749 0.727749
0.729488 0.729488 0.729488
0.731502 0.731502 0.731502
0.733944 0.733944 0.733944
0.736690 0.736690 0.736690
0.739681 0.739681 0.739681
0.742916 0.742916 0.742916
0.746365 0.746365 0.746365
0.750088 0.750088 0.750088
0.754025 0.754025 0.754025
0.758175 0.758175 0.758175
0.762570 0.762570 0.762570
0.767178 0.767178 0.767178
0.772030 0.772030 0.772030
0.777066 0.777066 0.777066
0.782284 0.782284 0.782284
0.787716 0.787716 0.787716
0.800809 0.800809 0.800809
0.822721 0.822721 0.822721
0.837736 0.837736 0.837736
0.852445 0.852445 0.852445
0.751797 0.751797 0.751797
0.751827 0.751827 0.751827
0.751919 0.751919 0.751919
0.752102 0.752102 0.752102
0.752438 0.752438 0.752438
0.752895 0.752895 0.752895
0.753475 0.753475 0.753475
0.754238 0.754238 0.754238
0.755154 0.755154 0.755154
0.756252 0.756252 0.756252
0.757504 0.757504 0.757504
0.758968 0.758968 0.758968
0.760616 0.760616 0.760616
0.762448 0.762448 0.762448
0.764584 0.764584 0.764584
0.767147 0.767147 0.767147
0.769924 0.769924 0.769924
0.772915 0.772915 0.772915
0.776150 0.776150 0.776150
0.779599 0.779599 0.779599
0.783291 0.783291 0.783291
0.787167 0.787167 0.787167
0.791257 0.791257 0.791257
0.795621 0.795621 0.795621
0.800107 0.800107 0.800107
0.804868 0.804868 0.804868
0.809751 0.809751 0.809751
0.814878 0.814878 0.814878
0.820157 0.820157 0.820157
0.831479 0.831479 0.831479
0.853269 0.853269 0.853269
0.870115 0.870115 0.870115
0.783780 0.783780 0.783780
0.783810 0.783810 0.783810
0.783902 0.783902 0.783902
0.784085 0.784085 0.784085
0.784390 0.784390 0.784390
0.784817 0.784817 0.784817
0.785367 0.785367 0.785367
0.786038 0.786038 0.786038
0.786923 0.786923 0.786923
0.787930 0.787930 0.787930
0.789151 0.789151 0.789151
0.790494 0.790494 0.790494
0.792050 0.792050 0.792050
0.793759 0.793759 0.793759
