20 Preset/Ociden Style/【3】LUT video cho PR-AE-FCPX/Ocident style 4/Tone (9).cube
# Created by Adobe Lightroom plugin Export LUT (1.24.0)
# www.johnrellis.com/lightroom/exportlut.htm
# Preset: Pictor 2 BW
# Color profile: E:\lut插件\exportlut.1.24\exportlut.lrplugin\color profiles\Rec709gamma2.4.icc
LUT_3D_SIZE 8
DOMAIN_MIN 0.000000 0.000000 0.000000
DOMAIN_MAX 0.903226 0.903226 0.903226
0.000000 0.000000 0.000000
0.054688 0.054688 0.054688
0.124392 0.124392 0.124392
0.180667 0.180667 0.180667
0.246799 0.246799 0.246799
0.315129 0.315129 0.315129
0.384253 0.384253 0.384253
0.465217 0.465217 0.465217
0.112856 0.112856 0.112856
0.122469 0.122469 0.122469
0.156435 0.156435 0.156435
0.203311 0.203311 0.203311
0.263401 0.263401 0.263401
0.326970 0.326970 0.326970
0.393317 0.393317 0.393317
0.472816 0.472816 0.472816
0.222049 0.222049 0.222049
0.225650 0.225650 0.225650
0.243534 0.243534 0.243534
0.279942 0.279942 0.279942
0.321324 0.321324 0.321324
0.371038 0.371038 0.371038
0.429084 0.429084 0.429084
0.503929 0.503929 0.503929
0.336034 0.336034 0.336034
0.338018 0.338018 0.338018
0.347387 0.347387 0.347387
0.366796 0.366796 0.366796
0.406470 0.406470 0.406470
0.442634 0.442634 0.442634
0.491859 0.491859 0.491859
0.560754 0.560754 0.560754
0.448920 0.448920 0.448920
0.450141 0.450141 0.450141
0.455848 0.455848 0.455848
0.469062 0.469062 0.469062
0.489418 0.489418 0.489418
0.532982 0.532982 0.532982
0.575341 0.575341 0.575341
0.633783 0.633783 0.633783
0.565423 0.565423 0.565423
0.566430 0.566430 0.566430
0.570733 0.570733 0.570733
0.579858 0.579858 0.579858
0.595148 0.595148 0.595148
0.615686 0.615686 0.615686
0.663478 0.663478 0.663478
0.713161 0.713161 0.713161
0.688716 0.688716 0.688716
0.689448 0.689448 0.689448
0.692561 0.692561 0.692561
0.698817 0.698817 0.698817
0.709895 0.709895 0.709895
0.725216 0.725216 0.725216
0.744472 0.744472 0.744472
0.792111 0.792111 0.792111
0.816037 0.816037 0.816037
0.816587 0.816587 0.816587
0.818967 0.818967 0.818967
0.823758 0.823758 0.823758
0.831571 0.831571 0.831571
0.843229 0.843229 0.843229
0.858000 0.858000 0.858000
0.875700 0.875700 0.875700
0.034180 0.034180 0.034180
0.065431 0.065431 0.065431
0.132265 0.132265 0.132265
0.195682 0.195682 0.195682
0.259159 0.259159 0.259159
0.323735 0.323735 0.323735
0.390204 0.390204 0.390204
0.469215 0.469215 0.469215
0.110658 0.110658 0.110658
0.128969 0.128969 0.128969
0.166079 0.166079 0.166079
0.215335 0.215335 0.215335
0.273411 0.273411 0.273411
0.334264 0.334264 0.334264
0.398627 0.398627 0.398627
0.476570 0.476570 0.476570
0.227787 0.227787 0.227787
0.231266 0.231266 0.231266
0.247349 0.247349 0.247349
0.283879 0.283879 0.283879
0.325994 0.325994 0.325994
0.375433 0.375433 0.375433
0.432776 0.432776 0.432776
0.506737 0.506737 0.506737
0.339055 0.339055 0.339055
0.340948 0.340948 0.340948
0.349798 0.349798 0.349798
0.368750 0.368750 0.368750
0.407813 0.407813 0.407813
0.444587 0.444587 0.444587
0.493935 0.493935 0.493935
0.562493 0.562493 0.562493
0.450690 0.450690 0.450690
0.452003 0.452003 0.452003
0.457588 0.457588 0.457588
0.470497 0.470497 0.470497
0.490700 0.490700 0.490700
0.533745 0.533745 0.533745
0.576379 0.576379 0.576379
0.634699 0.634699 0.634699
0.566674 0.566674 0.566674
0.567651 0.567651 0.567651
0.571893 0.571893 0.571893
0.580804 0.580804 0.580804
0.596063 0.596063 0.596063
0.616449 0.616449 0.616449
0.663996 0.663996 0.663996
0.713710 0.713710 0.713710
0.689418 0.689418 0.689418
0.690150 0.690150 0.690150
0.693233 0.693233 0.693233
0.699489 0.699489 0.699489
0.710445 0.710445 0.710445
0.725734 0.725734 0.725734
0.744930 0.744930 0.744930
0.792477 0.792477 0.792477
0.816403 0.816403 0.816403
0.816922 0.816922 0.816922
0.819333 0.819333 0.819333
0.824063 0.824063 0.824063
0.831846 0.831846 0.831846
0.843473 0.843473 0.843473
0.858244 0.858244 0.858244
0.875914 0.875914 0.875914
0.099367 0.099367 0.099367
0.106691 0.106691 0.106691
0.137697 0.137697 0.137697
0.205783 0.205783 0.205783
0.272618 0.272618 0.272618
0.338720 0.338720 0.338720
0.403632 0.403632 0.403632
0.479377 0.479377 0.479377
0.147219 0.147219 0.147219
0.152285 0.152285 0.152285
0.173678 0.173678 0.173678
0.228000 0.228000 0.228000
0.287480 0.287480 0.287480
0.349187 0.349187 0.349187
0.411322 0.411322 0.411322
0.486244 0.486244 0.486244
0.221408 0.221408 0.221408
0.229404 0.229404 0.229404
0.258061 0.258061 0.258061
0.292729 0.292729 0.292729
0.336492 0.336492 0.336492
0.386084 0.386084 0.386084
0.442695 0.442695 0.442695
0.514794 0.514794 0.514794
0.345708 0.345708 0.345708
0.349279 0.349279 0.349279
0.358221 0.358221 0.358221
0.375494 0.375494 0.375494
0.412360 0.412360 0.412360
0.450568 0.450568 0.450568
0.500511 0.500511 0.500511
0.568048 0.568048 0.568048
0.457496 0.457496 0.457496
0.458747 0.458747 0.458747
0.464179 0.464179 0.464179
0.475807 0.475807 0.475807
0.495399 0.495399 0.495399
0.536553 0.536553 0.536553
0.580072 0.580072 0.580072
0.638025 0.638025 0.638025
0.571527 0.571527 0.571527
0.572473 0.572473 0.572473
0.576623 0.576623 0.576623
0.584802 0.584802 0.584802
0.599603 0.599603 0.599603
0.619562 0.619562 0.619562
0.665888 0.665888 0.665888
0.715724 0.715724 0.715724
0.692226 0.692226 0.692226
0.692988 0.692988 0.692988
0.696040 0.696040 0.696040
0.702174 0.702174 0.702174
0.712642 0.712642 0.712642
0.727749 0.727749 0.727749
0.746761 0.746761 0.746761
0.794034 0.794034 0.794034
0.817807 0.817807 0.817807
0.818357 0.818357 0.818357
0.820706 0.820706 0.820706
0.825467 0.825467 0.825467
0.832975 0.832975 0.832975
0.844541 0.844541 0.844541
0.859251 0.859251 0.859251
0.876890 0.876890 0.876890
0.140902 0.140902 0.140902
0.147402 0.147402 0.147402
0.172488 0.172488 0.172488
0.211704 0.211704 0.211704
0.275975 0.275975 0.275975
0.345434 0.345434 0.345434
0.412238 0.412238 0.412238
0.489204 0.489204 0.489204
0.182071 0.182071 0.182071
0.186404 0.186404 0.186404
0.203433 0.203433 0.203433
0.233616 0.233616 0.233616
0.291447 0.291447 0.291447
0.356054 0.356054 0.356054
0.420783 0.420783 0.420783
0.496284 0.496284 0.496284
0.244724 0.244724 0.244724
0.255680 0.255680 0.255680
0.280522 0.280522 0.280522
0.299077 0.299077 0.299077
0.345220 0.345220 0.345220
0.396063 0.396063 0.396063
0.454139 0.454139 0.454139
0.524437 0.524437 0.524437
0.333104 0.333104 0.333104
0.337560 0.337560 0.337560
0.355352 0.355352 0.355352
0.387091 0.387091 0.387091
0.419959 0.419959 0.419959
0.459846 0.459846 0.459846
0.510033 0.510033 0.510033
0.575067 0.575067 0.575067
0.460182 0.460182 0.460182
0.462531 0.462531 0.462531
0.472572 0.472572 0.472572
0.485847 0.485847 0.485847
0.503960 0.503960 0.503960
0.541863 0.541863 0.541863
0.585870 0.585870 0.585870
0.642603 0.642603 0.642603
0.580102 0.580102 0.580102
0.581079 0.581079 0.581079
0.585016 0.585016 0.585016
0.592859 0.592859 0.592859
0.606012 0.606012 0.606012
0.625299 0.625299 0.625299
0.669551 0.669551 0.669551
0.718959 0.718959 0.718959
0.697383 0.697383 0.697383
0.698085 0.698085 0.698085
0.701045 0.701045 0.701045
0.707088 0.707088 0.707088
0.716609 0.716609 0.716609
0.731502 0.731502 0.731502
0.750240 0.750240 0.750240
0.796994 0.796994 0.796994
0.820401 0.820401 0.820401
0.820951 0.820951 0.820951
0.823270 0.823270 0.823270
0.828000 0.827970 0.827970
0.835386 0.835386 0.835386
0.846525 0.846525 0.846525
0.861204 0.861204 0.861204
0.878843 0.878843 0.878843
0.194675 0.194675 0.194675
0.199741 0.199741 0.199741
0.218143 0.218143 0.218143
0.247440 0.247440 0.247440
0.285801 0.285801 0.285801
0.343511 0.343511 0.343511
0.421363 0.421363 0.421363
0.497841 0.497841 0.497841
0.225650 0.225650 0.225650
0.229099 0.229099 0.229099
0.242710 0.242710 0.242710
0.266423 0.266423 0.266423
0.300114 0.300114 0.300114
0.354925 0.354925 0.354925
0.429664 0.429664 0.429664
0.504845 0.504845 0.504845
0.299504 0.299504 0.299504
0.301488 0.301488 0.301488
0.309575 0.309575 0.309575
0.325322 0.325322 0.325322
0.350225 0.350225 0.350225
0.397864 0.397864 0.397864
0.462287 0.462287 0.462287
0.532769 0.532769 0.532769
0.351598 0.351598 0.351598
0.355901 0.355901 0.355901
0.374731 0.374731 0.374731
0.408392 0.408392 0.408392
0.426093 0.426093 0.426093
0.467597 0.467597 0.467597
0.518822 0.518822 0.518822
0.580743 0.580743 0.580743
0.444099 0.444099 0.444099
0.447120 0.447120 0.447120
0.459571 0.459571 0.459571
0.482826 0.482826 0.482826
0.516167 0.516167 0.516167
0.549126 0.549126 0.549126
0.591516 0.591516 0.591516
0.644984 0.644984 0.644984
0.577813 0.577813 0.577813
0.579522 0.579522 0.579522
0.586572 0.586572 0.586572
0.600183 0.600183 0.600183
0.615503 0.615503 0.615503
0.633631 0.633631 0.633631
0.674189 0.674189 0.674189
0.721798 0.721798 0.721798
0.700557 0.700557 0.700557
0.701656 0.701656 0.701656
0.706386 0.706386 0.706386
0.713771 0.713771 0.713771
0.723018 0.723018 0.723018
0.736812 0.736812 0.736812
0.755428 0.755428 0.755428
0.801114 0.801114 0.801114
0.823972 0.823972 0.823972
0.824521 0.824521 0.824521
0.826810 0.826810 0.826810
0.831510 0.831510 0.831510
0.838895 0.838895 0.838895
0.849332 0.849332 0.849332
0.864103 0.864103 0.864103
0.881804 0.881804 0.881804
0.253086 0.253086 0.253086
0.256352 0.256352 0.256352
0.269627 0.269627 0.269627
0.291936 0.291936 0.291936
0.321324 0.321324 0.321324
0.359655 0.359655 0.359655
0.414221 0.414221 0.414221
0.503868 0.503868 0.503868
0.274968 0.274968 0.274968
0.277562 0.277562 0.277562
0.288212 0.288212 0.288212
0.307530 0.307530 0.307530
0.334051 0.334051 0.334051
0.370123 0.370123 0.370123
0.423316 0.423316 0.423316
0.511254 0.511254 0.511254
0.336309 0.336309 0.336309
0.338018 0.338018 0.338018
0.345220 0.345220 0.345220
0.359228 0.359228 0.359228
0.379950 0.379950 0.379950
0.409827 0.409827 0.409827
0.458839 0.458839 0.458839
0.541039 0.541039 0.541039
0.397101 0.397101 0.397101
0.402777 0.402777 0.402777
0.425574 0.425574 0.425574
0.435889 0.435889 0.435889
0.451667 0.451667 0.451667
0.474830 0.474830 0.474830
0.520104 0.520104 0.520104
0.590448 0.590448 0.590448
0.464057 0.464057 0.464057
0.466987 0.466987 0.466987
0.478859 0.478859 0.478859
0.501030 0.501030 0.501030
0.538293 0.538293 0.538293
0.555688 0.555688 0.555688
0.596857 0.596857 0.596857
0.648798 0.648798 0.648798
0.560906 0.560906 0.560906
0.562921 0.562921 0.562921
0.571527 0.571527 0.571527
0.587762 0.587762 0.587762
0.612024 0.612024 0.612024
0.645167 0.645167 0.645167
0.678279 0.678279 0.678279
0.721859 0.721859 0.721859
0.697963 0.697963 0.697963
0.699123 0.699123 0.699123
0.703822 0.703822 0.703822
0.713375 0.713375 0.713375
0.728359 0.728359 0.728359
0.744808 0.744808 0.744808
0.762966 0.762966 0.762966
0.805600 0.805600 0.805600
0.823453 0.823453 0.823453
0.824247 0.824247 0.824247
0.827573 0.827573 0.827573
0.834318 0.834318 0.834318
0.843931 0.843931 0.843931
0.854185 0.854185 0.854185
0.868284 0.868284 0.868284
0.886259 0.886259 0.886259
0.320134 0.320134 0.320134
0.322545 0.322545 0.322545
0.332189 0.332189 0.332189
0.349737 0.349737 0.349737
0.374090 0.374090 0.374090
0.404395 0.404395 0.404395
0.444709 0.444709 0.444709
0.496437 0.496437 0.496437
0.335912 0.335912 0.335912
0.338018 0.338018 0.338018
0.346349 0.346349 0.346349
0.362127 0.362127 0.362127
0.384924 0.384924 0.384924
0.413855 0.413855 0.413855
0.452796 0.452796 0.452796
0.503868 0.503868 0.503868
0.386145 0.386145 0.386145
0.387640 0.387640 0.387640
0.394018 0.394018 0.394018
0.406439 0.406439 0.406439
0.425269 0.425269 0.425269
0.450080 0.450080 0.450080
0.484535 0.484535 0.484535
0.533959 0.533959 0.533959
0.459998 0.459998 0.459998
0.461128 0.461128 0.461128
0.465949 0.465949 0.465949
0.475715 0.475715 0.475715
0.490578 0.490578 0.490578
0.510887 0.510887 0.510887
0.539635 0.539635 0.539635
0.585290 0.585290 0.585290
0.499977 0.499977 0.499977
0.504143 0.504143 0.504143
0.521569 0.521569 0.521569
0.553979 0.553979 0.553979
0.570306 0.570306 0.570306
0.585657 0.585657 0.585657
0.607172 0.607172 0.607172
0.649592 0.649592 0.649592
0.588800 0.588800 0.588800
0.590539 0.590539 0.590539
0.597559 0.597559 0.597559
0.610986 0.610986 0.610986
0.631678 0.631678 0.631678
0.667994 0.667994 0.667994
0.685115 0.685115 0.685115
0.726131 0.726131 0.726131
0.681331 0.681331 0.681331
0.682643 0.682643 0.682643
0.688106 0.688106 0.688106
0.699123 0.699123 0.699123
0.716518 0.716518 0.716518
0.741176 0.741176 0.741176
0.774197 0.774197 0.774197
0.808042 0.808042 0.808042
0.821042 0.821042 0.821042
0.821805 0.821805 0.821805
0.825132 0.825132 0.825132
0.831937 0.831937 0.831937
0.842741 0.842741 0.842741
0.858122 0.858122 0.858122
0.874815 0.874815 0.874815
0.892760 0.892760 0.892760
0.409247 0.409247 0.409247
0.411109 0.411109 0.411109
0.418402 0.418402 0.418402
0.432410 0.432410 0.432410
0.452979 0.452979 0.452979
0.479652 0.479652 0.479652
0.511772 0.511772 0.511772
0.555169 0.555169 0.555169
0.420630 0.420630 0.420630
0.422309 0.422309 0.422309
0.429114 0.429114 0.429114
0.442298 0.442298 0.442298
0.461891 0.461891 0.461891
0.487648 0.487648 0.487648
0.518944 0.518944 0.518944
0.561212 0.561212 0.561212
0.461006 0.461006 0.461006
0.462318 0.462318 0.462318
0.467994 0.467994 0.467994
0.479103 0.479103 0.479103
0.496223 0.496223 0.496223
0.519127 0.519127 0.519127
0.547326 0.547326 0.547326
0.584802 0.584802 0.584802
0.524681 0.524681 0.524681
0.525811 0.525811 0.525811
0.530419 0.530419 0.530419
0.539513 0.539513 0.539513
0.553368 0.553368 0.553368
0.571862 0.571862 0.571862
0.594354 0.594354 0.594354
0.625055 0.625055 0.625055
0.581964 0.581964 0.581964
0.585199 0.585199 0.585199
0.598566 0.598566 0.598566
0.609644 0.609644 0.609644
0.619867 0.619867 0.619867
0.633906 0.633906 0.633906
0.651698 0.651698 0.651698
0.676661 0.676661 0.676661
0.626398 0.626398 0.626398
0.627497 0.627497 0.627497
0.632136 0.632136 0.632136
0.651026 0.651026 0.651026
0.685176 0.685176 0.685176
0.704555 0.704555 0.704555
0.719722 0.719722 0.719722
0.740383 0.740383 0.740383
0.720302 0.720302 0.720302
0.721187 0.721187 0.721187
0.725124 0.725124 0.725124
0.732967 0.732967 0.732967
0.745571 0.745571 0.745571
0.763577 0.763577 0.763577
0.798672 0.798672 0.798672
0.815610 0.815610 0.815610
0.808988 0.808988 0.808988
0.809812 0.809812 0.809812
0.813199 0.813199 0.813199
0.820157 0.820157 0.820157
0.831418 0.831418 0.831418
0.847929 0.847929 0.847929
0.871122 0.871122 0.871122
0.903227 0.903227 0.903227
