20 Preset/Ociden Style/【3】LUT video cho PR-AE-FCPX/Ocident style 4/Tone (9).cube
# Created by Adobe Lightroom plugin Export LUT (1.24.0)
# www.johnrellis.com/lightroom/exportlut.htm
# Preset: Pictor 2 BW
# Color profile: E:\lut插件\exportlut.1.24\exportlut.lrplugin\color profiles\Rec709gamma2.4.icc
LUT_3D_SIZE 5
DOMAIN_MIN 0.000000 0.000000 0.000000
DOMAIN_MAX 0.903226 0.903226 0.903226
0.000000 0.000000 0.000000
0.112032 0.112032 0.112032
0.212802 0.212802 0.212802
0.332036 0.332036 0.332036
0.465217 0.465217 0.465217
0.193790 0.193790 0.193790
0.212680 0.212680 0.212680
0.279179 0.279179 0.279179
0.371038 0.371038 0.371038
0.493629 0.493629 0.493629
0.392523 0.392523 0.392523
0.398718 0.398718 0.398718
0.428199 0.428199 0.428199
0.495552 0.495552 0.495552
0.595941 0.595941 0.595941
0.595972 0.595972 0.595972
0.599512 0.599512 0.599512
0.615473 0.615473 0.615473
0.647700 0.647700 0.647700
0.733181 0.733181 0.733181
0.816037 0.816037 0.816037
0.818173 0.818173 0.818173
0.827115 0.827115 0.827115
0.846616 0.846616 0.846616
0.875700 0.875700 0.875700
0.090425 0.090425 0.090425
0.120546 0.120546 0.120546
0.237095 0.237095 0.237095
0.351263 0.351263 0.351263
0.476570 0.476570 0.476570
0.193423 0.193423 0.193423
0.225772 0.225772 0.225772
0.294347 0.294347 0.294347
0.384436 0.384436 0.384436
0.502861 0.502861 0.502861
0.400275 0.400275 0.400275
0.406104 0.406104 0.406104
0.433448 0.433448 0.433448
0.500008 0.500008 0.500008
0.600214 0.600214 0.600214
0.599939 0.599939 0.599939
0.603449 0.603449 0.603449
0.618585 0.618585 0.618585
0.650202 0.650202 0.650202
0.734859 0.734859 0.734859
0.817350 0.817350 0.817350
0.819455 0.819455 0.819455
0.828367 0.828367 0.828367
0.847593 0.847593 0.847593
0.876585 0.876585 0.876585
0.167025 0.167025 0.167025
0.187716 0.187716 0.187716
0.249058 0.249058 0.249058
0.366003 0.366003 0.366003
0.493141 0.493141 0.493141
0.261814 0.261814 0.261814
0.270817 0.270817 0.270817
0.306462 0.306462 0.306462
0.401404 0.401404 0.401404
0.519097 0.519097 0.519097
0.388586 0.388586 0.388586
0.402106 0.402106 0.402106
0.451637 0.451637 0.451637
0.513634 0.513634 0.513634
0.609461 0.609461 0.609461
0.609705 0.609705 0.609705
0.615442 0.615442 0.615442
0.630549 0.630549 0.630549
0.659693 0.659693 0.659693
0.740261 0.740261 0.740261
0.822049 0.822049 0.822049
0.824125 0.824125 0.824125
0.832944 0.832944 0.832944
0.851225 0.851225 0.851225
0.880186 0.880186 0.880186
0.268742 0.268742 0.268742
0.279942 0.279942 0.279942
0.318242 0.318242 0.318242
0.379522 0.379522 0.379522
0.502190 0.502190 0.502190
0.330053 0.330053 0.330053
0.336950 0.336950 0.336950
0.364080 0.364080 0.364080
0.414771 0.414771 0.414771
0.529747 0.529747 0.529747
0.431220 0.431220 0.431220
0.450202 0.450202 0.450202
0.493751 0.493751 0.493751
0.527245 0.527245 0.527245
0.620600 0.620600 0.620600
0.590967 0.590967 0.590967
0.597833 0.597833 0.597833
0.625086 0.625086 0.625086
0.677424 0.677424 0.677424
0.742611 0.742611 0.742611
0.822934 0.822934 0.822934
0.825956 0.825956 0.825956
0.838651 0.838651 0.838651
0.858762 0.858762 0.858762
0.887633 0.887633 0.887633
0.409247 0.409247 0.409247
0.415961 0.415961 0.415961
0.441901 0.441901 0.441901
0.487190 0.487190 0.487190
0.555169 0.555169 0.555169
0.448402 0.448402 0.448402
0.453712 0.453712 0.453712
0.475532 0.475532 0.475532
0.515770 0.515770 0.515770
0.577203 0.577203 0.577203
0.561761 0.561761 0.561761
0.565270 0.565270 0.565270
0.579797 0.579797 0.579797
0.606897 0.606897 0.606897
0.649348 0.649348 0.649348
0.650080 0.650080 0.650080
0.654047 0.654047 0.654047
0.674372 0.674372 0.674372
0.727199 0.727199 0.727199
0.758114 0.758114 0.758114
0.808988 0.808988 0.808988
0.812039 0.812039 0.812039
0.825193 0.825193 0.825193
0.853025 0.853025 0.853025
0.903227 0.903227 0.903227
