20 Preset/Emotion Style/【1】LRtemplate Lightroom bản cũ/Emotion Style (2).lrtemplate
s = {
	id = "0A84ACE3-A564-482B-90B0-6280DD0EC6F7",
	internalName = "sty-spring01",
	title = "02日系情绪-春（素材江湖）",
	type = "Develop",
	value = {
		settings = {
			AutoLateralCA = 0,
			Blacks2012 = 0,
			BlueHue = -15,
			BlueSaturation = -15,
			CameraProfile = "ACR 4.6",
			ChromaticAberrationB = 0,
			ChromaticAberrationR = 0,
			Clarity2012 = -5,
			ColorNoiseReduction = 25,
			ColorNoiseReductionDetail = 50,
			Contrast2012 = 0,
			ConvertToGrayscale = false,
			Defringe = 0,
			EnableCalibration = true,
			EnableColorAdjustments = true,
			EnableDetail = true,
			EnableEffects = true,
			EnableLensCorrections = true,
			EnableSplitToning = true,
			Exposure2012 = 0.44,
			GrainAmount = 17,
			GrainFrequency = 65,
			GrainSize = 40,
			GreenHue = 25,
			GreenSaturation = -20,
			Highlights2012 = -70,
			HueAdjustmentAqua = 10,
			HueAdjustmentBlue = -17,
			HueAdjustmentGreen = 20,
			HueAdjustmentMagenta = 20,
			HueAdjustmentOrange = -5,
			HueAdjustmentPurple = 20,
			HueAdjustmentRed = 15,
			HueAdjustmentYellow = 5,
			LuminanceAdjustmentAqua = 10,
			LuminanceAdjustmentBlue = -49,
			LuminanceAdjustmentGreen = 0,
			LuminanceAdjustmentMagenta = 15,
			LuminanceAdjustmentOrange = 0,
			LuminanceAdjustmentPurple = 20,
			LuminanceAdjustmentRed = 0,
			LuminanceAdjustmentYellow = 10,
			LuminanceNoiseReductionContrast = 0,
			LuminanceNoiseReductionDetail = 50,
			LuminanceSmoothing = 0,
			ParametricDarks = 0,
			ParametricHighlightSplit = 75,
			ParametricHighlights = 0,
			ParametricLights = 0,
			ParametricMidtoneSplit = 48,
			ParametricShadowSplit = 20,
			ParametricShadows = 0,
			PostCropVignetteAmount = 0,
			PostCropVignetteFeather = 50,
			PostCropVignetteHighlightContrast = 0,
			PostCropVignetteMidpoint = 50,
			PostCropVignetteRoundness = 0,
			PostCropVignetteStyle = 1,
			ProcessVersion = "6.7",
			RedHue = 25,
			RedSaturation = 70,
			Saturation = -5,
			SaturationAdjustmentAqua = 0,
			SaturationAdjustmentBlue = -47,
			SaturationAdjustmentGreen = -55,
			SaturationAdjustmentMagenta = -35,
			SaturationAdjustmentOrange = -25,
			SaturationAdjustmentPurple = -35,
			SaturationAdjustmentRed = -30,
			SaturationAdjustmentYellow = -25,
			ShadowTint = -2,
			Shadows2012 = 67,
			SharpenDetail = 25,
			SharpenEdgeMasking = 0,
			SharpenRadius = 1,
			Sharpness = 0,
			SplitToningBalance = 0,
			SplitToningHighlightHue = 0,
			SplitToningHighlightSaturation = 0,
			SplitToningShadowHue = 0,
			SplitToningShadowSaturation = 0,
			ToneCurveName2012 = "Custom",
			ToneCurvePV2012 = {
				0,
				29,
				26,
				36,
				79,
				75,
				133,
				133,
				189,
				191,
				255,
				245,
			},
			ToneCurvePV2012Blue = {
				0,
				0,
				35,
				13,
				116,
				117,
				180,
				202,
				255,
				249,
			},
			ToneCurvePV2012Green = {
				0,
				0,
				36,
				18,
				114,
				119,
				206,
				224,
				255,
				255,
			},
			ToneCurvePV2012Red = {
				0,
				0,
				29,
				14,
				113,
				122,
				175,
				198,
				255,
				255,
			},
			Vibrance = 0,
			VignetteAmount = 33,
			VignetteMidpoint = 50,
			WhiteBalance = "As Shot",
			Whites2012 = -30,
		},
		uuid = "353BF253-9FA8-48CF-9C3D-615E80E44A90",
	},
	version = 0,
}
