20 Preset/Emotion Style/【1】LRtemplate Lightroom bản cũ/Emotion Style (6).lrtemplate
s = {
	id = "8E1C6A88-EAA0-4B5A-B47B-0772CF445DD8",
	internalName = "sty-summer02",
	title = "06日系情绪-夏（素材江湖）",
	type = "Develop",
	value = {
		settings = {
			AutoLateralCA = 0,
			Blacks2012 = 15,
			BlueHue = -10,
			BlueSaturation = -5,
			CameraProfile = "ACR 4.6",
			ChromaticAberrationB = 0,
			ChromaticAberrationR = 0,
			Clarity2012 = -10,
			ColorNoiseReduction = 25,
			ColorNoiseReductionDetail = 50,
			Contrast2012 = 0,
			ConvertToGrayscale = false,
			Defringe = 0,
			EnableCalibration = true,
			EnableColorAdjustments = true,
			EnableDetail = true,
			EnableEffects = true,
			EnableLensCorrections = true,
			EnableSplitToning = true,
			Exposure2012 = -0.11,
			GrainAmount = 16,
			GrainFrequency = 65,
			GrainSize = 40,
			GreenHue = 35,
			GreenSaturation = -5,
			Highlights2012 = -100,
			HueAdjustmentAqua = 10,
			HueAdjustmentBlue = -5,
			HueAdjustmentGreen = 15,
			HueAdjustmentMagenta = 20,
			HueAdjustmentOrange = 2,
			HueAdjustmentPurple = 20,
			HueAdjustmentRed = 15,
			HueAdjustmentYellow = 10,
			LuminanceAdjustmentAqua = 10,
			LuminanceAdjustmentBlue = -15,
			LuminanceAdjustmentGreen = 0,
			LuminanceAdjustmentMagenta = 15,
			LuminanceAdjustmentOrange = 0,
			LuminanceAdjustmentPurple = 20,
			LuminanceAdjustmentRed = 0,
			LuminanceAdjustmentYellow = 10,
			LuminanceNoiseReductionContrast = 0,
			LuminanceNoiseReductionDetail = 50,
			LuminanceSmoothing = 0,
			ParametricDarks = 0,
			ParametricHighlightSplit = 75,
			ParametricHighlights = 0,
			ParametricLights = 0,
			ParametricMidtoneSplit = 48,
			ParametricShadowSplit = 20,
			ParametricShadows = 0,
			PostCropVignetteAmount = 0,
			PostCropVignetteFeather = 50,
			PostCropVignetteHighlightContrast = 0,
			PostCropVignetteMidpoint = 50,
			PostCropVignetteRoundness = 0,
			PostCropVignetteStyle = 1,
			ProcessVersion = "6.7",
			RedHue = 30,
			RedSaturation = 50,
			Saturation = -10,
			SaturationAdjustmentAqua = 0,
			SaturationAdjustmentBlue = -15,
			SaturationAdjustmentGreen = -35,
			SaturationAdjustmentMagenta = -35,
			SaturationAdjustmentOrange = -25,
			SaturationAdjustmentPurple = -35,
			SaturationAdjustmentRed = -20,
			SaturationAdjustmentYellow = -15,
			ShadowTint = -2,
			Shadows2012 = 41,
			SharpenDetail = 25,
			SharpenEdgeMasking = 0,
			SharpenRadius = 1,
			Sharpness = 0,
			SplitToningBalance = 0,
			SplitToningHighlightHue = 50,
			SplitToningHighlightSaturation = 0,
			SplitToningShadowHue = 0,
			SplitToningShadowSaturation = 0,
			ToneCurveName2012 = "Custom",
			ToneCurvePV2012 = {
				0,
				47,
				73,
				74,
				134,
				133,
				189,
				188,
				255,
				245,
			},
			ToneCurvePV2012Blue = {
				0,
				0,
				43,
				12,
				119,
				117,
				179,
				192,
				255,
				255,
			},
			ToneCurvePV2012Green = {
				0,
				0,
				34,
				14,
				82,
				61,
				115,
				119,
				176,
				200,
				255,
				255,
			},
			ToneCurvePV2012Red = {
				0,
				0,
				30,
				11,
				116,
				122,
				175,
				201,
				255,
				255,
			},
			Vibrance = 22,
			VignetteAmount = 0,
			VignetteMidpoint = 50,
			WhiteBalance = "As Shot",
			Whites2012 = -30,
		},
		uuid = "2BFB1876-9010-4EB3-B54D-CFE9C4058DFF",
	},
	version = 0,
}
