20 Preset/Wedding Style/【1】LRtemplate/Film Wedding - Tone (3).lrtemplate
s = {
	id = "840F8EEB-DDE4-4478-A5B7-60078B49DC06",
	internalName = "03婚礼纪实_冰-素材江湖",
	title = "03婚礼纪实_冰-素材江湖",
	type = "Develop",
	value = {
		settings = {
			AutoLateralCA = 0,
			Blacks2012 = -5,
			BlueHue = 0,
			BlueSaturation = 0,
			CameraProfile = "Adobe Standard",
			ChromaticAberrationB = 0,
			ChromaticAberrationR = 0,
			Clarity2012 = 0,
			ColorNoiseReduction = 25,
			ColorNoiseReductionDetail = 50,
			ColorNoiseReductionSmoothness = 50,
			Contrast2012 = -35,
			ConvertToGrayscale = false,
			CropConstrainToWarp = 0,
			Defringe = 0,
			DefringeGreenAmount = 0,
			DefringeGreenHueHi = 60,
			DefringeGreenHueLo = 40,
			DefringePurpleAmount = 0,
			DefringePurpleHueHi = 70,
			DefringePurpleHueLo = 30,
			Dehaze = 0,
			EnableCalibration = true,
			EnableColorAdjustments = true,
			EnableDetail = true,
			EnableEffects = true,
			EnableLensCorrections = true,
			EnableSplitToning = true,
			Exposure2012 = 0,
			GrainAmount = 25,
			GrainFrequency = 60,
			GrainSize = 30,
			GreenHue = 0,
			GreenSaturation = 0,
			Highlights2012 = -50,
			HueAdjustmentAqua = 0,
			HueAdjustmentBlue = 0,
			HueAdjustmentGreen = -100,
			HueAdjustmentMagenta = 0,
			HueAdjustmentOrange = -5,
			HueAdjustmentPurple = 0,
			HueAdjustmentRed = 0,
			HueAdjustmentYellow = -50,
			LensManualDistortionAmount = 0,
			LuminanceAdjustmentAqua = 0,
			LuminanceAdjustmentBlue = 0,
			LuminanceAdjustmentGreen = 0,
			LuminanceAdjustmentMagenta = 0,
			LuminanceAdjustmentOrange = 0,
			LuminanceAdjustmentPurple = 0,
			LuminanceAdjustmentRed = 0,
			LuminanceAdjustmentYellow = 0,
			LuminanceNoiseReductionContrast = 0,
			LuminanceNoiseReductionDetail = 50,
			LuminanceSmoothing = 20,
			ParametricDarks = 0,
			ParametricHighlightSplit = 75,
			ParametricHighlights = -4,
			ParametricLights = 0,
			ParametricMidtoneSplit = 50,
			ParametricShadowSplit = 25,
			ParametricShadows = 0,
			PostCropVignetteAmount = 0,
			PostCropVignetteFeather = 50,
			PostCropVignetteHighlightContrast = 0,
			PostCropVignetteMidpoint = 50,
			PostCropVignetteRoundness = 0,
			PostCropVignetteStyle = 1,
			ProcessVersion = "10.0",
			RedHue = 0,
			RedSaturation = 0,
			Saturation = -5,
			SaturationAdjustmentAqua = -30,
			SaturationAdjustmentBlue = -45,
			SaturationAdjustmentGreen = -100,
			SaturationAdjustmentMagenta = 0,
			SaturationAdjustmentOrange = -20,
			SaturationAdjustmentPurple = 0,
			SaturationAdjustmentRed = -6,
			SaturationAdjustmentYellow = -45,
			ShadowTint = 15,
			Shadows2012 = 60,
			SharpenDetail = 24,
			SharpenEdgeMasking = 80,
			SharpenRadius = 0.9,
			Sharpness = 74,
			SplitToningBalance = 0,
			SplitToningHighlightHue = 29,
			SplitToningHighlightSaturation = 5,
			SplitToningShadowHue = 0,
			SplitToningShadowSaturation = 0,
			ToneCurveName2012 = "Custom",
			ToneCurvePV2012 = {
				0,
				16,
				64,
				45,
				128,
				125,
				189,
				188,
				255,
				223,
			},
			ToneCurvePV2012Blue = {
				0,
				0,
				34,
				22,
				116,
				126,
				187,
				200,
				255,
				247,
			},
			ToneCurvePV2012Green = {
				0,
				0,
				34,
				24,
				112,
				126,
				186,
				203,
				255,
				253,
			},
			ToneCurvePV2012Red = {
				0,
				0,
				34,
				22,
				117,
				127,
				186,
				203,
				255,
				255,
			},
			Vibrance = -5,
			VignetteAmount = 0,
			VignetteMidpoint = 50,
			WhiteBalance = "As Shot",
			Whites2012 = -30,
		},
		uuid = "8CFF6382-B1E0-427B-9443-DB8D74BB70FD",
	},
	version = 0,
}
