20 Preset/Wedding Style/【1】LRtemplate/Film Wedding - Tone (1).lrtemplate
s = {
	id = "61F0B1CA-8759-4657-A6E1-125F11FEB545",
	internalName = "01婚礼纪实_冰-素材江湖",
	title = "01婚礼纪实_冰-素材江湖",
	type = "Develop",
	value = {
		settings = {
			AutoLateralCA = 0,
			Blacks2012 = 60,
			BlueHue = -40,
			BlueSaturation = 0,
			CameraProfile = "Adobe Standard",
			ChromaticAberrationB = 0,
			ChromaticAberrationR = 0,
			Clarity2012 = -9,
			ColorNoiseReduction = 25,
			ColorNoiseReductionDetail = 50,
			ColorNoiseReductionSmoothness = 50,
			Contrast2012 = -15,
			ConvertToGrayscale = false,
			CropConstrainToWarp = 0,
			Defringe = 0,
			DefringeGreenAmount = 0,
			DefringeGreenHueHi = 60,
			DefringeGreenHueLo = 40,
			DefringePurpleAmount = 0,
			DefringePurpleHueHi = 70,
			DefringePurpleHueLo = 30,
			Dehaze = 0,
			EnableCalibration = true,
			EnableColorAdjustments = true,
			EnableDetail = true,
			EnableEffects = true,
			EnableLensCorrections = true,
			EnableSplitToning = true,
			Exposure2012 = 0,
			GrainAmount = 0,
			GrainFrequency = 50,
			GrainSize = 25,
			GreenHue = 8,
			GreenSaturation = -11,
			Highlights2012 = -25,
			HueAdjustmentAqua = 0,
			HueAdjustmentBlue = -1,
			HueAdjustmentGreen = -19,
			HueAdjustmentMagenta = 15,
			HueAdjustmentOrange = -2,
			HueAdjustmentPurple = 30,
			HueAdjustmentRed = 8,
			HueAdjustmentYellow = 3,
			LensManualDistortionAmount = 0,
			LuminanceAdjustmentAqua = -40,
			LuminanceAdjustmentBlue = -5,
			LuminanceAdjustmentGreen = -15,
			LuminanceAdjustmentMagenta = -25,
			LuminanceAdjustmentOrange = 20,
			LuminanceAdjustmentPurple = -10,
			LuminanceAdjustmentRed = -20,
			LuminanceAdjustmentYellow = 0,
			LuminanceNoiseReductionContrast = 0,
			LuminanceNoiseReductionDetail = 50,
			LuminanceSmoothing = 5,
			ParametricDarks = 0,
			ParametricHighlightSplit = 75,
			ParametricHighlights = 0,
			ParametricLights = 0,
			ParametricMidtoneSplit = 60,
			ParametricShadowSplit = 14,
			ParametricShadows = 35,
			PostCropVignetteAmount = 0,
			PostCropVignetteFeather = 50,
			PostCropVignetteHighlightContrast = 0,
			PostCropVignetteMidpoint = 50,
			PostCropVignetteRoundness = 0,
			PostCropVignetteStyle = 1,
			ProcessVersion = "10.0",
			RedHue = 27,
			RedSaturation = 15,
			Saturation = -15,
			SaturationAdjustmentAqua = -60,
			SaturationAdjustmentBlue = -60,
			SaturationAdjustmentGreen = -60,
			SaturationAdjustmentMagenta = -20,
			SaturationAdjustmentOrange = -20,
			SaturationAdjustmentPurple = -10,
			SaturationAdjustmentRed = -5,
			SaturationAdjustmentYellow = -70,
			ShadowTint = 0,
			Shadows2012 = -14,
			SharpenDetail = 25,
			SharpenEdgeMasking = 80,
			SharpenRadius = 1.2,
			Sharpness = 20,
			SplitToningBalance = 10,
			SplitToningHighlightHue = 284,
			SplitToningHighlightSaturation = 6,
			SplitToningShadowHue = 63,
			SplitToningShadowSaturation = 10,
			ToneCurveName2012 = "Custom",
			ToneCurvePV2012 = {
				0,
				0,
				28,
				30,
				57,
				59,
				128,
				128,
				196,
				190,
				255,
				240,
			},
			ToneCurvePV2012Blue = {
				0,
				0,
				40,
				26,
				119,
				124,
				181,
				200,
				255,
				255,
			},
			ToneCurvePV2012Green = {
				0,
				0,
				40,
				25,
				119,
				125,
				184,
				197,
				255,
				255,
			},
			ToneCurvePV2012Red = {
				0,
				0,
				40,
				26,
				119,
				123,
				185,
				195,
				255,
				255,
			},
			Vibrance = 0,
			VignetteAmount = 0,
			VignetteMidpoint = 50,
			WhiteBalance = "As Shot",
			Whites2012 = 25,
		},
		uuid = "15027540-5613-4CDB-BA9F-D12AD3FA131F",
	},
	version = 0,
}
