20 Preset/Wedding Style/【1】LRtemplate/Film Wedding - Tone (5).lrtemplate
s = {
	id = "47E5DBAC-ABF4-46AE-B65D-059E2E4FEF17",
	internalName = "05婚礼纪实_火-素材江湖",
	title = "05婚礼纪实_火-素材江湖",
	type = "Develop",
	value = {
		settings = {
			AutoLateralCA = 0,
			Blacks2012 = -35,
			BlueHue = -46,
			BlueSaturation = -16,
			CameraProfile = "Adobe Standard",
			ChromaticAberrationB = 0,
			ChromaticAberrationR = 0,
			Clarity2012 = 0,
			ColorNoiseReduction = 25,
			ColorNoiseReductionDetail = 50,
			ColorNoiseReductionSmoothness = 50,
			Contrast2012 = -4,
			ConvertToGrayscale = false,
			CropConstrainToWarp = 0,
			Defringe = 0,
			DefringeGreenAmount = 0,
			DefringeGreenHueHi = 60,
			DefringeGreenHueLo = 40,
			DefringePurpleAmount = 0,
			DefringePurpleHueHi = 70,
			DefringePurpleHueLo = 30,
			Dehaze = 0,
			EnableCalibration = true,
			EnableColorAdjustments = true,
			EnableDetail = true,
			EnableEffects = true,
			EnableLensCorrections = true,
			EnableSplitToning = true,
			Exposure2012 = 0,
			GrainAmount = 35,
			GrainFrequency = 65,
			GrainSize = 25,
			GreenHue = 42,
			GreenSaturation = -19,
			Highlights2012 = -45,
			HueAdjustmentAqua = 0,
			HueAdjustmentBlue = 0,
			HueAdjustmentGreen = -35,
			HueAdjustmentMagenta = 0,
			HueAdjustmentOrange = -6,
			HueAdjustmentPurple = 0,
			HueAdjustmentRed = 5,
			HueAdjustmentYellow = -20,
			LensManualDistortionAmount = 0,
			LuminanceAdjustmentAqua = 0,
			LuminanceAdjustmentBlue = 0,
			LuminanceAdjustmentGreen = 0,
			LuminanceAdjustmentMagenta = 0,
			LuminanceAdjustmentOrange = 10,
			LuminanceAdjustmentPurple = 0,
			LuminanceAdjustmentRed = 10,
			LuminanceAdjustmentYellow = -35,
			LuminanceNoiseReductionContrast = 0,
			LuminanceNoiseReductionDetail = 50,
			LuminanceSmoothing = 21,
			ParametricDarks = 29,
			ParametricHighlightSplit = 75,
			ParametricHighlights = -35,
			ParametricLights = -30,
			ParametricMidtoneSplit = 50,
			ParametricShadowSplit = 25,
			ParametricShadows = -22,
			PostCropVignetteAmount = 0,
			PostCropVignetteFeather = 50,
			PostCropVignetteHighlightContrast = 0,
			PostCropVignetteMidpoint = 50,
			PostCropVignetteRoundness = 0,
			PostCropVignetteStyle = 1,
			ProcessVersion = "10.0",
			RedHue = 25,
			RedSaturation = 0,
			Saturation = -15,
			SaturationAdjustmentAqua = -25,
			SaturationAdjustmentBlue = -25,
			SaturationAdjustmentGreen = -45,
			SaturationAdjustmentMagenta = 0,
			SaturationAdjustmentOrange = -20,
			SaturationAdjustmentPurple = 0,
			SaturationAdjustmentRed = -10,
			SaturationAdjustmentYellow = -100,
			ShadowTint = 0,
			Shadows2012 = 45,
			SharpenDetail = 40,
			SharpenEdgeMasking = 70,
			SharpenRadius = 1,
			Sharpness = 74,
			SplitToningBalance = -15,
			SplitToningHighlightHue = 197,
			SplitToningHighlightSaturation = 5,
			SplitToningShadowHue = 35,
			SplitToningShadowSaturation = 3,
			ToneCurveName2012 = "Custom",
			ToneCurvePV2012 = {
				0,
				14,
				45,
				32,
				126,
				133,
				190,
				183,
				255,
				216,
			},
			ToneCurvePV2012Blue = {
				0,
				0,
				37,
				28,
				255,
				255,
			},
			ToneCurvePV2012Green = {
				0,
				0,
				35,
				34,
				126,
				129,
				248,
				242,
			},
			ToneCurvePV2012Red = {
				0,
				0,
				50,
				53,
				219,
				226,
			},
			Vibrance = -10,
			VignetteAmount = 0,
			VignetteMidpoint = 50,
			WhiteBalance = "As Shot",
			Whites2012 = -50,
		},
		uuid = "1DB237BE-8A93-4960-9A7E-EA25E7F60301",
	},
	version = 0,
}
