20 Preset/Dark Style/【1】LRtemplate Lightroom bản cũ/19Tones  (4)/19T-GreyingTones.ESCO.lrtemplate
s = {
	id = "716EC579-C5A0-4252-92C2-95AB31422F9A",
	internalName = "19 tones esco 2",
	title = "19 tones esco 2",
	type = "Develop",
	value = {
		settings = {
			AutoLateralCA = 0,
			Blacks2012 = 15,
			BlueHue = -10,
			BlueSaturation = -12,
			CameraProfile = "Embedded",
			ChromaticAberrationB = 0,
			ChromaticAberrationR = 0,
			Clarity2012 = -10,
			ColorNoiseReduction = 25,
			ColorNoiseReductionDetail = 50,
			ColorNoiseReductionSmoothness = 50,
			Contrast2012 = 4,
			ConvertToGrayscale = false,
			Defringe = 0,
			DefringeGreenAmount = 0,
			DefringeGreenHueHi = 60,
			DefringeGreenHueLo = 40,
			DefringePurpleAmount = 0,
			DefringePurpleHueHi = 70,
			DefringePurpleHueLo = 30,
			EnableCalibration = true,
			EnableColorAdjustments = true,
			EnableDetail = true,
			EnableEffects = true,
			EnableLensCorrections = true,
			EnableSplitToning = true,
			Exposure2012 = 0.03,
			GrainAmount = 0,
			GrainFrequency = 65,
			GrainSize = 40,
			GreenHue = 35,
			GreenSaturation = -10,
			Highlights2012 = -40,
			HueAdjustmentAqua = 10,
			HueAdjustmentBlue = -5,
			HueAdjustmentGreen = 15,
			HueAdjustmentMagenta = 20,
			HueAdjustmentOrange = 2,
			HueAdjustmentPurple = 20,
			HueAdjustmentRed = 15,
			HueAdjustmentYellow = 10,
			IncrementalTemperature = -5,
			IncrementalTint = -1,
			LensProfileEnable = 0,
			LensProfileSetup = "LensDefaults",
			LuminanceAdjustmentAqua = 10,
			LuminanceAdjustmentBlue = -15,
			LuminanceAdjustmentGreen = 0,
			LuminanceAdjustmentMagenta = 15,
			LuminanceAdjustmentOrange = 0,
			LuminanceAdjustmentPurple = 20,
			LuminanceAdjustmentRed = 0,
			LuminanceAdjustmentYellow = 10,
			LuminanceNoiseReductionContrast = 0,
			LuminanceNoiseReductionDetail = 50,
			LuminanceSmoothing = 0,
			ParametricDarks = 0,
			ParametricHighlightSplit = 75,
			ParametricHighlights = 0,
			ParametricLights = 0,
			ParametricMidtoneSplit = 48,
			ParametricShadowSplit = 20,
			ParametricShadows = 0,
			PostCropVignetteAmount = 0,
			PostCropVignetteFeather = 50,
			PostCropVignetteHighlightContrast = 0,
			PostCropVignetteMidpoint = 50,
			PostCropVignetteRoundness = 0,
			PostCropVignetteStyle = 1,
			ProcessVersion = "6.7",
			RedHue = 30,
			RedSaturation = 40,
			Saturation = -10,
			SaturationAdjustmentAqua = 0,
			SaturationAdjustmentBlue = -15,
			SaturationAdjustmentGreen = -35,
			SaturationAdjustmentMagenta = -35,
			SaturationAdjustmentOrange = -15,
			SaturationAdjustmentPurple = -35,
			SaturationAdjustmentRed = -20,
			SaturationAdjustmentYellow = -15,
			ShadowTint = -2,
			Shadows2012 = 25,
			SharpenDetail = 25,
			SharpenEdgeMasking = 0,
			SharpenRadius = 1,
			Sharpness = 70,
			SplitToningBalance = 0,
			SplitToningHighlightHue = 0,
			SplitToningHighlightSaturation = 0,
			SplitToningShadowHue = 0,
			SplitToningShadowSaturation = 0,
			ToneCurveName2012 = "Custom",
			ToneCurvePV2012 = {
				0,
				47,
				43,
				54,
				78,
				84,
				133,
				140,
				189,
				188,
				255,
				245,
			},
			ToneCurvePV2012Blue = {
				0,
				0,
				32,
				19,
				78,
				66,
				113,
				117,
				174,
				198,
				255,
				255,
			},
			ToneCurvePV2012Green = {
				0,
				0,
				35,
				17,
				80,
				65,
				115,
				119,
				177,
				204,
				255,
				255,
			},
			ToneCurvePV2012Red = {
				0,
				0,
				27,
				11,
				81,
				64,
				116,
				122,
				175,
				201,
				255,
				255,
			},
			Vibrance = 0,
			VignetteAmount = 0,
			VignetteMidpoint = 50,
			WhiteBalance = "Custom",
			Whites2012 = -30,
		},
		uuid = "643EA4B5-0580-4CF8-8052-432DA8BC9503",
	},
	version = 0,
}
