20 Preset/Movie Style Preset/【1】LRtemplate/Movie Tone  (1).lrtemplate
s = {
	id = "AFE050E9-D149-4DD0-A7C2-72DCA38432E3",
	internalName = "电影质感-素材江湖01",
	title = "电影质感-素材江湖01",
	type = "Develop",
	value = {
		settings = {
			AutoLateralCA = 1,
			Blacks2012 = 31,
			BlueHue = -12,
			BlueSaturation = -15,
			CameraProfile = "Adobe Standard",
			ChromaticAberrationB = 0,
			ChromaticAberrationR = 0,
			Clarity2012 = 0,
			ColorNoiseReduction = 25,
			ColorNoiseReductionDetail = 50,
			ColorNoiseReductionSmoothness = 50,
			Contrast2012 = -72,
			ConvertToGrayscale = false,
			CropConstrainToWarp = 0,
			Defringe = 0,
			DefringeGreenAmount = 0,
			DefringeGreenHueHi = 60,
			DefringeGreenHueLo = 40,
			DefringePurpleAmount = 0,
			DefringePurpleHueHi = 70,
			DefringePurpleHueLo = 30,
			Dehaze = 0,
			EnableCalibration = true,
			EnableCircularGradientBasedCorrections = true,
			EnableColorAdjustments = true,
			EnableDetail = true,
			EnableEffects = true,
			EnableGradientBasedCorrections = true,
			EnableLensCorrections = true,
			EnableSplitToning = true,
			Exposure2012 = 1.45,
			GradientBasedCorrections = {
				{
					CorrectionActive = true,
					CorrectionAmount = 1,
					CorrectionID = "B908854E-2CE4-4098-B389-007268898271",
					CorrectionMasks = {
						{
							FullX = -0.297999,
							FullY = 0.693916,
							MaskID = "8623B3B5-D531-406B-B5D8-44E4ED8F4427",
							MaskValue = 1,
							What = "Mask/Gradient",
							ZeroX = 0.520583,
							ZeroY = 0.58193,
						},
					},
					CorrectionRangeMask = {
						ColorAmount = 0.5,
						LumFeather = 0.5,
						LumMax = 1,
						LumMin = 0,
						Type = 0,
					},
					CorrectionReferenceX = 0.111292,
					CorrectionReferenceY = 0.637923,
					LocalBlacks2012 = -0.327307,
					LocalBrightness = 0,
					LocalClarity2012 = 0,
					LocalContrast2012 = -0.806374,
					LocalDefringe = 0,
					LocalDehaze = 0,
					LocalExposure2012 = -0.171875,
					LocalHighlights2012 = -0.605832,
					LocalLuminanceNoise = 0,
					LocalMoire = 0,
					LocalSaturation = 0,
					LocalShadows2012 = -0.210847,
					LocalSharpness = 0,
					LocalTemperature = 0.119459,
					LocalTint = -0.012627,
					LocalToningHue = 0,
					LocalToningSaturation = 0,
					LocalWhites2012 = -0.700945,
					What = "Correction",
				},
				{
					CorrectionActive = true,
					CorrectionAmount = 1,
					CorrectionID = "2568D6BF-80CF-4B2F-9990-67AB8C5F22E9",
					CorrectionMasks = {
						{
							FullX = 1.42189,
							FullY = 0.537549,
							MaskID = "D4272233-230D-424D-8445-C7EB633D4CB1",
							MaskValue = 1,
							What = "Mask/Gradient",
							ZeroX = 0.508694,
							ZeroY = 0.529428,
						},
					},
					CorrectionRangeMask = {
						ColorAmount = 0.5,
						LumFeather = 0.5,
						LumMax = 1,
						LumMin = 0,
						Type = 0,
					},
					CorrectionReferenceX = 0.965292,
					CorrectionReferenceY = 0.533489,
					LocalBlacks2012 = 0,
					LocalBrightness = 0,
					LocalClarity2012 = 0,
					LocalContrast2012 = 0,
					LocalDefringe = 0,
					LocalDehaze = -0.043514,
					LocalExposure2012 = 0.273892,
					LocalHighlights2012 = 0,
					LocalLuminanceNoise = 0,
					LocalMoire = 0,
					LocalSaturation = 0,
					LocalShadows2012 = 0,
					LocalSharpness = 0,
					LocalTemperature = 0,
					LocalTint = 0,
					LocalToningHue = 0,
					LocalToningSaturation = 0,
					LocalWhites2012 = 0,
					What = "Correction",
				},
				{
					CorrectionActive = true,
					CorrectionAmount = 1,
					CorrectionID = "529743E0-DF19-4812-9C9F-6DA081BC408D",
					CorrectionMasks = {
						{
							FullX = 0.477875,
							FullY = 1.46517,
							MaskID = "DC64B1E5-853D-41B5-8749-D1ED9401672E",
							MaskValue = 1,
							What = "Mask/Gradient",
							ZeroX = 0.647307,
							ZeroY = 0.230518,
						},
					},
					CorrectionRangeMask = {
						ColorAmount = 0.5,
						LumFeather = 0.5,
						LumMax = 1,
						LumMin = 0,
						Type = 0,
					},
					CorrectionReferenceX = 0.562591,
					CorrectionReferenceY = 0.847844,
					LocalBlacks2012 = 0,
					LocalBrightness = 0,
					LocalClarity2012 = 0,
					LocalContrast2012 = 0,
					LocalDefringe = 0,
					LocalDehaze = -0.043514,
					LocalExposure2012 = -0.430142,
					LocalHighlights2012 = 0,
					LocalLuminanceNoise = 0,
					LocalMoire = 0,
					LocalSaturation = 0,
					LocalShadows2012 = 0,
					LocalSharpness = 0,
					LocalTemperature = 0,
					LocalTint = 0,
					LocalToningHue = 0,
					LocalToningSaturation = 0,
					LocalWhites2012 = 0,
					What = "Correction",
				},
			},
			GrainAmount = 0,
			GrainFrequency = 50,
			GrainSize = 25,
			GreenHue = 50,
			GreenSaturation = -10,
			Highlights2012 = -53,
			HueAdjustmentAqua = -75,
			HueAdjustmentBlue = -13,
			HueAdjustmentGreen = -32,
			HueAdjustmentMagenta = 25,
			HueAdjustmentOrange = -21,
			HueAdjustmentPurple = 10,
			HueAdjustmentRed = 16,
			HueAdjustmentYellow = -31,
			LensManualDistortionAmount = 0,
			LuminanceAdjustmentAqua = 0,
			LuminanceAdjustmentBlue = -23,
			LuminanceAdjustmentGreen = 55,
			LuminanceAdjustmentMagenta = 0,
			LuminanceAdjustmentOrange = 3,
			LuminanceAdjustmentPurple = 0,
			LuminanceAdjustmentRed = -20,
			LuminanceAdjustmentYellow = -26,
			LuminanceNoiseReductionContrast = 0,
			LuminanceNoiseReductionDetail = 50,
			LuminanceSmoothing = 11,
			ParametricDarks = -1,
			ParametricHighlightSplit = 64,
			ParametricHighlights = -30,
			ParametricLights = -19,
			ParametricMidtoneSplit = 36,
			ParametricShadowSplit = 18,
			ParametricShadows = 14,
			PostCropVignetteAmount = 0,
			PostCropVignetteFeather = 50,
			PostCropVignetteHighlightContrast = 0,
			PostCropVignetteMidpoint = 50,
			PostCropVignetteRoundness = 0,
			PostCropVignetteStyle = 1,
			ProcessVersion = "10.0",
			RedHue = 30,
			RedSaturation = -10,
			Saturation = 0,
			SaturationAdjustmentAqua = -69,
			SaturationAdjustmentBlue = -62,
			SaturationAdjustmentGreen = -61,
			SaturationAdjustmentMagenta = -20,
			SaturationAdjustmentOrange = -7,
			SaturationAdjustmentPurple = -10,
			SaturationAdjustmentRed = -20,
			SaturationAdjustmentYellow = -53,
			ShadowTint = 0,
			Shadows2012 = 18,
			SharpenDetail = 25,
			SharpenEdgeMasking = 0,
			SharpenRadius = 1,
			Sharpness = 16,
			SplitToningBalance = 0,
			SplitToningHighlightHue = 0,
			SplitToningHighlightSaturation = 0,
			SplitToningShadowHue = 0,
			SplitToningShadowSaturation = 0,
			Temperature = 6051,
			Tint = 0,
			ToneCurveName2012 = "Custom",
			ToneCurvePV2012 = {
				0,
				33,
				47,
				46,
				96,
				96,
				158,
				172,
				255,
				223,
			},
			ToneCurvePV2012Blue = {
				0,
				0,
				38,
				18,
				79,
				64,
				115,
				122,
				179,
				200,
				255,
				255,
			},
			ToneCurvePV2012Green = {
				0,
				0,
				46,
				20,
				86,
				72,
				115,
				124,
				179,
				200,
				255,
				255,
			},
			ToneCurvePV2012Red = {
				0,
				0,
				47,
				19,
				82,
				61,
				114,
				122,
				177,
				196,
				255,
				255,
			},
			Vibrance = 15,
			VignetteAmount = 0,
			VignetteMidpoint = 50,
			WhiteBalance = "Custom",
			Whites2012 = -52,
			orientation = "DA",
		},
		uuid = "B001310F-AFEC-4D4F-A007-38F1ABC996DB",
	},
	version = 0,
}
