20 Preset/Wedding Style New/【3】LUT video cho PR-AE-FCPX/Tone  (1).cube
# Created by Adobe Lightroom plugin Export LUT (1.24.0)
# www.johnrellis.com/lightroom/exportlut.htm
# Preset: 褐色婚礼-素材江湖02
# Color profile: C:\Program Files (x86)\Common Files\Adobe\Color\Profiles\Recommended\VideoHD.icc
LUT_3D_SIZE 5
DOMAIN_MIN 0.000000 0.000000 0.000000
DOMAIN_MAX 0.903226 0.903226 0.903226
0.000000 0.000000 0.000000
0.183597 0.059510 0.000000
0.422034 0.100038 0.000000
0.657679 0.107301 0.000000
0.940826 0.185306 0.000000
0.078340 0.150942 0.113313
0.145266 0.167941 0.104433
0.429084 0.202701 0.000000
0.665827 0.210300 0.000000
0.946624 0.268254 0.000000
0.203861 0.324926 0.251652
0.245731 0.311345 0.268345
0.347478 0.363684 0.242893
0.658289 0.423194 0.148348
0.960937 0.469062 0.000000
0.339025 0.481147 0.376837
0.365454 0.472389 0.386664
0.415320 0.486030 0.395819
0.572595 0.565515 0.370123
0.911467 0.690455 0.297032
0.545403 0.757595 0.575463
0.570611 0.752041 0.586053
0.644404 0.730404 0.624445
0.715023 0.791073 0.621424
0.868162 0.853056 0.606043
0.000000 0.091829 0.170352
0.148165 0.114046 0.167849
0.422217 0.000000 0.160769
0.649683 0.138552 0.162142
0.933013 0.188632 0.091157
0.000000 0.195834 0.203067
0.184695 0.210575 0.208255
0.424292 0.219883 0.194827
0.657191 0.228885 0.172732
0.938445 0.271885 0.100435
0.212680 0.363531 0.287327
0.266850 0.349615 0.299229
0.365911 0.378698 0.295903
0.669398 0.429999 0.232761
0.957183 0.472236 0.144564
0.341924 0.505943 0.393530
0.372930 0.496986 0.403021
0.434028 0.495979 0.421088
0.585351 0.576684 0.400580
0.917479 0.694331 0.338262
0.542718 0.769833 0.583825
0.569604 0.764248 0.594171
0.653773 0.741665 0.637232
0.723018 0.794583 0.640314
0.871275 0.856535 0.628260
0.000000 0.194186 0.368444
0.174502 0.214817 0.368811
0.356695 0.265843 0.375189
0.635889 0.240757 0.402380
0.945556 0.000000 0.339391
0.151522 0.276371 0.383185
0.215427 0.276951 0.385321
0.375525 0.314519 0.389868
0.646876 0.284062 0.407050
0.943816 0.184543 0.351934
0.096712 0.402258 0.418097
0.219577 0.408759 0.421210
0.432959 0.434943 0.435645
0.678889 0.437049 0.414923
0.951659 0.457801 0.381201
0.285191 0.600671 0.484596
0.356542 0.597223 0.488167
0.491859 0.562005 0.499702
0.633021 0.619501 0.509575
0.943236 0.702724 0.463142
0.513756 0.816281 0.621759
0.538415 0.811887 0.624018
0.653223 0.789456 0.661830
0.744656 0.800443 0.696559
0.878599 0.865110 0.693996
0.151949 0.314946 0.568261
0.237003 0.324743 0.569879
0.415167 0.362493 0.575402
0.597650 0.405982 0.595087
0.903532 0.369665 0.663111
0.209323 0.359258 0.576898
0.260777 0.360693 0.578790
0.429053 0.392248 0.584894
0.609522 0.435309 0.604730
0.910063 0.408759 0.667506
0.212924 0.459327 0.585077
0.280980 0.464759 0.591424
0.449287 0.480903 0.616022
0.649805 0.537224 0.637964
0.934600 0.537896 0.680629
0.000000 0.627985 0.652125
0.125795 0.631678 0.654353
0.415045 0.650111 0.666011
0.717617 0.699001 0.697322
0.954162 0.691402 0.659419
0.107027 0.889220 0.744839
0.302007 0.886320 0.743771
0.582574 0.873228 0.746883
0.777218 0.836545 0.770687
0.895659 0.884367 0.795285
0.332555 0.480812 0.847349
0.385931 0.486854 0.846983
0.542901 0.516289 0.846647
0.723995 0.584985 0.844846
0.868467 0.644190 0.852995
0.339361 0.503288 0.848051
0.392035 0.509300 0.847929
0.547967 0.537530 0.847715
0.728420 0.604273 0.846250
0.869902 0.662745 0.854673
0.393744 0.603998 0.850980
0.443946 0.608942 0.851987
0.552056 0.607080 0.854948
0.742611 0.668788 0.854948
0.879332 0.727840 0.865202
0.233371 0.707698 0.861234
0.300755 0.708248 0.860472
0.485206 0.715206 0.858732
0.741909 0.752926 0.873747
0.901884 0.823941 0.889921
0.000000 0.873289 0.899870
0.161837 0.874113 0.899840
0.463478 0.878996 0.900969
0.713375 0.890959 0.904143
0.933806 0.926452 0.924804
