20 Preset/Wedding Style New/【3】LUT video cho PR-AE-FCPX/Tone  (11).cube
# Created by Adobe Lightroom plugin Export LUT (1.24.0)
# www.johnrellis.com/lightroom/exportlut.htm
# Preset: 褐色婚礼-素材江湖01
# Color profile: C:\Program Files (x86)\Common Files\Adobe\Color\Profiles\Recommended\VideoHD.icc
LUT_3D_SIZE 5
DOMAIN_MIN 0.000000 0.000000 0.000000
DOMAIN_MAX 0.903226 0.903226 0.903226
0.025208 0.024170 0.028931
0.126406 0.067628 0.068818
0.422309 0.130556 0.119753
0.804440 0.307195 0.240665
1.000000 0.537438 0.434455
0.073243 0.111116 0.088808
0.138521 0.117739 0.095216
0.498421 0.237461 0.122499
0.838926 0.370367 0.257908
1.000000 0.580102 0.456672
0.111910 0.256657 0.150393
0.137179 0.216220 0.126802
0.434730 0.360113 0.221683
0.899901 0.579431 0.349645
1.000000 0.711879 0.540429
0.156954 0.391760 0.209323
0.164401 0.355657 0.183291
0.267674 0.343633 0.165377
0.736751 0.615839 0.419959
0.965881 0.813443 0.686702
0.184146 0.591119 0.286168
0.192752 0.562402 0.259037
0.217136 0.432807 0.158541
0.568353 0.626246 0.278569
0.898192 0.837217 0.726192
0.047913 0.080842 0.117769
0.155093 0.046174 0.130037
0.410529 0.184207 0.163088
0.814450 0.338659 0.244327
1.000000 0.548363 0.435462
0.116426 0.142824 0.141482
0.174563 0.172610 0.162081
0.470008 0.269963 0.194644
0.844938 0.393133 0.260807
1.000000 0.586297 0.455360
0.195712 0.336217 0.238926
0.189609 0.292851 0.196414
0.445258 0.385534 0.276768
0.889586 0.583520 0.366125
1.000000 0.716365 0.543114
0.217563 0.448768 0.269993
0.216373 0.410773 0.239384
0.267826 0.347295 0.185580
0.736751 0.630060 0.460029
0.966033 0.814450 0.688685
0.232517 0.623713 0.333135
0.227695 0.595758 0.302373
0.237583 0.466743 0.192721
0.556542 0.620264 0.287541
0.899687 0.839567 0.731777
0.000000 0.188235 0.334386
0.184298 0.177493 0.375097
0.553429 0.029847 0.413855
0.830503 0.307683 0.380865
0.967346 0.602991 0.534539
0.202762 0.290593 0.319585
0.235355 0.285893 0.361425
0.546899 0.262913 0.418708
0.784512 0.422675 0.421790
0.970031 0.635370 0.558618
0.354986 0.442756 0.408423
0.393652 0.458015 0.421271
0.545861 0.528496 0.481209
0.806699 0.632654 0.557275
0.975219 0.738918 0.639979
0.472389 0.641596 0.548699
0.471229 0.626032 0.524041
0.393317 0.495247 0.359197
0.744625 0.684749 0.595727
0.953491 0.837400 0.756588
0.482094 0.747707 0.582361
0.476783 0.733486 0.556329
0.350835 0.619379 0.368139
0.481117 0.573114 0.296025
0.896941 0.845731 0.758968
0.175082 0.391333 0.645106
0.241703 0.382574 0.673945
0.573236 0.367864 0.779171
0.907286 0.337530 0.771664
1.000000 0.552850 0.718959
0.322240 0.464179 0.623316
0.335973 0.452216 0.651911
0.575463 0.449073 0.759365
0.884001 0.435187 0.763699
1.000000 0.598871 0.725643
0.439307 0.543297 0.553185
0.458473 0.545892 0.552483
0.563378 0.597009 0.682887
0.822873 0.613458 0.746944
0.945434 0.712734 0.747677
0.605524 0.712581 0.714870
0.620325 0.716823 0.718990
0.678309 0.738735 0.741848
0.781918 0.787381 0.791714
0.916594 0.854246 0.848600
0.722164 0.876432 0.873014
0.719478 0.872465 0.865751
0.699702 0.848966 0.821592
0.556725 0.688075 0.532799
0.884977 0.873350 0.852445
0.440009 0.603540 0.879332
0.451148 0.590387 0.887968
0.609979 0.589075 0.919432
0.886351 0.573144 0.961181
1.000000 0.586938 0.942901
0.479469 0.634394 0.862760
0.489113 0.625025 0.872679
0.608118 0.616052 0.907561
0.870298 0.607355 0.953429
1.000000 0.616114 0.938109
0.541314 0.693843 0.807736
0.560693 0.698665 0.819730
0.614374 0.695369 0.868772
0.818051 0.704555 0.929931
0.967041 0.717739 0.930175
0.614252 0.753841 0.802304
0.619776 0.752071 0.799527
0.649470 0.751492 0.795590
0.758022 0.801541 0.890837
0.923491 0.844297 0.933501
0.746548 0.866484 0.895384
0.752529 0.867430 0.896056
0.782376 0.875517 0.902953
0.830961 0.891020 0.916350
0.892607 0.918761 0.940429
