20 Preset/Wedding Style New/【3】LUT video cho PR-AE-FCPX/Tone  (6).cube
# Created by Adobe Lightroom plugin Export LUT (1.24.0)
# www.johnrellis.com/lightroom/exportlut.htm
# Preset: 褐色婚礼-素材江湖07
# Color profile: C:\Program Files (x86)\Common Files\Adobe\Color\Profiles\Recommended\VideoHD.icc
LUT_3D_SIZE 32
DOMAIN_MIN 0.0 0.0 0.0
DOMAIN_MAX 1.0 1.0 1.0
0.000000 0.000000 0.000000
0.012482 0.000855 0.000000
0.065827 0.001587 0.000000
0.113069 0.005463 0.000000
0.151553 0.011658 0.000000
0.195560 0.020417 0.000000
0.239719 0.034791 0.000000
0.282017 0.053162 0.000000
0.322606 0.075013 0.000000
0.361181 0.091066 0.000000
0.398840 0.102327 0.000000
0.435859 0.113313 0.000000
0.472694 0.124300 0.000000
0.509209 0.135805 0.000000
0.545525 0.147066 0.000000
0.581598 0.158938 0.000000
0.617365 0.170901 0.000000
0.652888 0.183139 0.000000
0.688380 0.194614 0.000000
0.722591 0.206058 0.000000
0.755001 0.216464 0.000000
0.785733 0.226352 0.000000
0.815061 0.235447 0.000000
0.843992 0.244053 0.000000
0.872679 0.252171 0.000000
0.900969 0.259861 0.000000
0.929046 0.266972 0.000000
0.956847 0.273442 0.000000
0.984375 0.279545 0.000000
1.000000 0.285222 0.000000
1.000000 0.290166 0.000000
1.000000 0.294774 0.000000
0.000000 0.006775 0.002502
0.012604 0.006409 0.000000
0.066835 0.009339 0.000000
0.113558 0.011994 0.000000
0.152346 0.016785 0.000000
0.195926 0.027955 0.000000
0.239689 0.041535 0.000000
0.281834 0.060151 0.000000
0.322606 0.080446 0.000000
0.361120 0.094026 0.000000
0.398688 0.104891 0.000000
0.435828 0.115450 0.000000
0.472572 0.126528 0.000000
0.509117 0.137514 0.000000
0.545373 0.148653 0.000000
0.581506 0.160342 0.000000
0.617273 0.172335 0.000000
0.652888 0.184085 0.000000
0.688350 0.195621 0.000000
0.722499 0.206912 0.000000
0.754910 0.217288 0.000000
0.785702 0.226963 0.000000
0.815000 0.236149 0.000000
0.843931 0.244724 0.000000
0.872618 0.252781 0.000000
0.900938 0.260349 0.000000
0.929015 0.267369 0.000000
0.956817 0.273930 0.000000
0.984405 0.279973 0.000000
1.000000 0.285557 0.000000
1.000000 0.290593 0.000000
1.000000 0.295109 0.000000
0.000000 0.034791 0.007752
0.014984 0.034974 0.007355
0.069215 0.035706 0.002808
0.113954 0.039826 0.000000
0.152956 0.045594 0.000000
0.196353 0.056764 0.000000
0.239872 0.072786 0.000000
0.281682 0.086793 0.000000
0.321996 0.096315 0.000000
0.360693 0.104677 0.000000
0.398230 0.114260 0.000000
0.435492 0.123690 0.000000
0.472145 0.133669 0.000000
0.508659 0.144198 0.000000
0.545129 0.154788 0.000000
0.581109 0.165988 0.000000
0.616999 0.177218 0.000000
0.652552 0.188602 0.000000
0.688014 0.199802 0.000000
0.722225 0.210636 0.000000
0.754726 0.220706 0.000000
0.785397 0.230259 0.000000
0.814755 0.239017 0.000000
0.843778 0.247318 0.000000
0.872435 0.255314 0.000000
0.900877 0.262486 0.000000
0.928893 0.269566 0.000000
0.956725 0.276036 0.000000
0.984314 0.281926 0.000000
1.000000 0.287449 0.000000
1.000000 0.292180 0.000000
1.000000 0.296757 0.000000
0.000000 0.088197 0.023499
0.006409 0.087953 0.019867
0.071565 0.088197 0.016266
0.115145 0.088411 0.007324
0.154635 0.091279 0.000000
0.197360 0.097078 0.000000
0.239994 0.102937 0.000000
0.280980 0.109377 0.000000
0.321324 0.115938 0.000000
0.359808 0.123201 0.000000
0.397589 0.130678 0.000000
0.434546 0.138582 0.000000
0.471504 0.147311 0.000000
0.507927 0.156680 0.000000
0.544335 0.166232 0.000000
0.580438 0.176425 0.000000
0.616358 0.186831 0.000000
0.651850 0.197665 0.000000
0.687434 0.208011 0.000000
0.721614 0.218204 0.000000
0.754177 0.227451 0.000000
0.784939 0.236515 0.000000
0.814359 0.244938 0.000000
0.843381 0.252750 0.000000
0.872099 0.260197 0.000000
0.900542 0.267308 0.000000
0.928618 0.274083 0.000000
0.956512 0.280095 0.000000
0.984161 0.285771 0.000000
1.000000 0.291020 0.000000
1.000000 0.295659 0.000000
1.000000 0.299962 0.000000
0.000000 0.114839 0.050599
0.000000 0.114870 0.042451
0.076844 0.114626 0.038788
0.115114 0.115511 0.029572
0.154818 0.118685 0.013031
0.197787 0.123537 0.000000
0.239597 0.128634 0.000000
0.280339 0.134340 0.000000
0.320409 0.139742 0.000000
0.358770 0.145754 0.000000
0.396338 0.151644 0.000000
0.433509 0.158328 0.000000
0.470192 0.165835 0.000000
0.506859 0.173953 0.000000
0.543236 0.182528 0.000000
0.579187 0.191806 0.000000
0.615290 0.200961 0.000000
0.650935 0.210513 0.000000
0.686458 0.219852 0.000000
0.720821 0.229129 0.000000
0.753384 0.237736 0.000000
0.784207 0.245792 0.000000
0.813657 0.253513 0.000000
0.842832 0.260807 0.000000
0.871611 0.267735 0.000000
0.900145 0.274449 0.000000
0.928252 0.280644 0.000000
0.956207 0.286381 0.000000
0.983917 0.291752 0.000000
1.000000 0.296666 0.000000
1.000000 0.301091 0.000000
1.000000 0.305119 0.000000
0.000000 0.140871 0.078340
0.000000 0.141329 0.067933
0.058564 0.140841 0.064393
0.114748 0.141360 0.056092
0.151247 0.142824 0.043946
0.194308 0.148898 0.020600
0.238651 0.154513 0.000000
0.279271 0.158694 0.000000
0.318578 0.163882 0.000000
0.357153 0.169528 0.000000
0.394690 0.175692 0.000000
0.431861 0.181247 0.000000
0.468605 0.187869 0.000000
0.505211 0.194980 0.000000
0.541558 0.202426 0.000000
0.577844 0.210300 0.000000
0.613794 0.218387 0.000000
0.649622 0.226780 0.000000
0.685359 0.234958 0.000000
0.719631 0.243229 0.000000
0.752285 0.251041 0.000000
0.783169 0.258366 0.000000
0.812772 0.265141 0.000000
0.842039 0.271794 0.000000
0.870939 0.278050 0.000000
0.899535 0.284062 0.000000
0.927825 0.289708 0.000000
0.955840 0.294987 0.000000
0.983581 0.299901 0.000000
1.000000 0.304448 0.000000
1.000000 0.308476 0.000000
1.000000 0.312169 0.000000
0.000000 0.167514 0.095033
0.000000 0.167941 0.089937
0.020325 0.167758 0.085481
0.114321 0.167666 0.080751
0.150546 0.168856 0.071260
0.188174 0.170657 0.054871
0.233097 0.178256 0.029053
0.277806 0.184573 0.000000
0.316930 0.188327 0.000000
0.355016 0.192752 0.000000
0.392737 0.197696 0.000000
0.429786 0.203403 0.000000
0.466651 0.209934 0.000000
0.503227 0.217075 0.000000
0.539757 0.224399 0.000000
0.575982 0.231205 0.000000
0.612207 0.238163 0.000000
0.648127 0.245548 0.000000
0.683803 0.252995 0.000000
0.718227 0.260166 0.000000
0.750942 0.266941 0.000000
0.781857 0.273228 0.000000
0.811612 0.279301 0.000000
0.841062 0.285100 0.000000
0.870115 0.290654 0.000000
0.898802 0.296025 0.000000
0.927214 0.300938 0.000000
0.955322 0.305699 0.000000
0.983124 0.310185 0.000000
1.000000 0.314183 0.000000
1.000000 0.317906 0.000000
1.000000 0.321141 0.000000
0.000000 0.195224 0.107729
0.000000 0.195529 0.104585
0.000000 0.195590 0.098787
0.104891 0.195315 0.096193
0.150484 0.195682 0.092287
0.188174 0.196994 0.085695
0.226535 0.199771 0.069459
0.271153 0.207004 0.038239
0.314763 0.213291 0.004517
0.352880 0.216587 0.000000
0.390539 0.220645 0.000000
0.427741 0.225467 0.000000
0.464729 0.230961 0.000000
0.501396 0.236851 0.000000
0.538048 0.243381 0.000000
0.574304 0.250431 0.000000
0.610468 0.257969 0.000000
0.646448 0.265873 0.000000
0.682307 0.272435 0.000000
0.716762 0.278843 0.000000
0.749355 0.284581 0.000000
0.780423 0.290013 0.000000
0.810361 0.295262 0.000000
0.839933 0.300267 0.000000
0.869169 0.305211 0.000000
0.898009 0.309819 0.000000
0.926482 0.314336 0.000000
0.954711 0.318395 0.000000
0.982696 0.322240 0.000000
1.000000 0.325933 0.000000
1.000000 0.329015 0.000000
1.000000 0.332006 0.000000
0.000000 0.223301 0.123537
0.000000 0.223697 0.119783
0.000000 0.223941 0.113222
0.087404 0.223575 0.111116
0.151003 0.223362 0.107851
0.188693 0.224338 0.102968
0.225559 0.225620 0.097078
0.264927 0.229221 0.086397
0.308049 0.235538 0.054505
0.351019 0.241154 0.014984
0.388739 0.244266 0.000000
0.425940 0.248142 0.000000
0.462989 0.252506 0.000000
0.499733 0.257633 0.000000
0.536370 0.263310 0.000000
0.572656 0.269505 0.000000
0.608942 0.276066 0.000000
0.645014 0.282963 0.000000
0.680751 0.290196 0.000000
0.715175 0.297398 0.000000
0.747768 0.303807 0.000000
0.778775 0.308629 0.000000
0.808896 0.312993 0.000000
0.838682 0.317357 0.000000
0.868101 0.321538 0.000000
0.897093 0.325566 0.000000
0.925719 0.329320 0.000000
0.954040 0.332952 0.000000
0.982116 0.336248 0.000000
1.000000 0.339208 0.000000
1.000000 0.342046 0.000000
1.000000 0.344396 0.000000
0.000000 0.251926 0.139712
0.000000 0.252049 0.136355
0.000000 0.252476 0.128115
0.037659 0.252140 0.126375
0.143526 0.251804 0.123629
0.188846 0.252110 0.119631
0.226230 0.253056 0.114382
0.263157 0.254429 0.107424
0.302617 0.258152 0.097047
0.344671 0.263523 0.075715
0.387030 0.268894 0.029908
0.424262 0.271794 0.000000
0.461372 0.275334 0.000000
0.498207 0.279393 0.000000
0.534874 0.284123 0.000000
0.571283 0.289281 0.000000
0.607446 0.295079 0.000000
0.643519 0.301244 0.000000
0.679286 0.307836 0.000000
0.713527 0.314153 0.000000
0.746151 0.320134 0.000000
0.777218 0.325811 0.000000
0.807431 0.331365 0.000000
0.837369 0.335637 0.000000
0.866941 0.339147 0.000000
0.896086 0.342565 0.000000
0.924865 0.345800 0.000000
0.953338 0.348730 0.000000
0.981537 0.351659 0.000000
1.000000 0.354131 0.000000
1.000000 0.356390 0.000000
1.000000 0.358343 0.000000
0.000000 0.280247 0.156069
0.000000 0.280339 0.154025
0.000000 0.281041 0.143618
0.000000 0.280674 0.141970
0.130251 0.280278 0.139681
0.189303 0.279850 0.136294
0.226810 0.280674 0.131685
0.263432 0.281712 0.125887
0.300389 0.282841 0.118318
0.340002 0.286656 0.106813
0.381109 0.291386 0.090730
0.422614 0.296452 0.045930
0.459754 0.299229 0.000000
0.496620 0.302464 0.000000
0.533318 0.306249 0.000000
0.569848 0.310552 0.000000
0.606165 0.315312 0.000000
0.642237 0.320623 0.000000
0.677913 0.326329 0.000000
0.712062 0.331853 0.000000
0.744656 0.337011 0.000000
0.775662 0.342138 0.000000
0.806119 0.347265 0.000000
0.836088 0.352361 0.000000
0.865751 0.357580 0.000000
0.895018 0.360754 0.000000
0.923949 0.363439 0.000000
0.952605 0.365911 0.000000
0.980926 0.368200 0.000000
1.000000 0.370245 0.000000
1.000000 0.372076 0.000000
1.000000 0.373571 0.000000
0.000000 0.308110 0.172671
0.000000 0.308202 0.170199
0.000000 0.308751 0.161654
0.000000 0.308659 0.157961
0.112459 0.308324 0.155795
0.183810 0.307561 0.152926
0.227115 0.307897 0.148592
0.264012 0.308629 0.143343
0.300511 0.309575 0.136904
0.336980 0.310796 0.128756
0.376593 0.314580 0.116732
0.416846 0.318975 0.100740
0.457771 0.323613 0.066743
0.495033 0.326482 0.006958
0.531762 0.329442 0.000000
0.568383 0.332952 0.000000
0.604578 0.336950 0.000000
0.640803 0.341405 0.000000
0.676417 0.346197 0.000000
0.710536 0.350774 0.000000
0.743069 0.355108 0.000000
0.774228 0.359350 0.000000
0.804837 0.363775 0.000000
0.834958 0.368505 0.000000
0.864714 0.373297 0.000000
0.894072 0.377935 0.000000
0.923095 0.381933 0.000000
0.951873 0.384009 0.000000
0.980316 0.385901 0.000000
1.000000 0.387457 0.000000
1.000000 0.388800 0.000000
1.000000 0.389868 0.000000
0.000000 0.335485 0.188937
0.000000 0.335637 0.187503
0.000000 0.336095 0.179782
0.000000 0.336309 0.173556
0.088411 0.335821 0.171725
0.172183 0.335180 0.169070
0.227756 0.334813 0.165286
0.264408 0.335424 0.161013
0.300664 0.336217 0.155215
0.336828 0.337072 0.148348
0.373510 0.338506 0.139162
0.412726 0.342229 0.126589
0.452430 0.346319 0.110048
0.492714 0.350622 0.086702
0.530175 0.353491 0.022187
0.566735 0.356359 0.000000
0.603143 0.359594 0.000000
0.639277 0.363287 0.000000
0.674922 0.367224 0.000000
0.708949 0.370855 0.000000
0.741329 0.374304 0.000000
0.772732 0.377844 0.000000
0.803525 0.381598 0.000000
0.833951 0.385595 0.000000
0.863828 0.389715 0.000000
0.893248 0.394018 0.000000
0.922362 0.398352 0.000000
0.951141 0.402625 0.000000
0.979767 0.404334 0.000000
1.000000 0.405585 0.000000
1.000000 0.406439 0.000000
1.000000 0.407202 0.000000
0.000000 0.362554 0.205417
0.000000 0.362615 0.204013
0.000000 0.363104 0.197177
0.000000 0.363439 0.189059
0.012634 0.362982 0.187472
0.157931 0.362463 0.184939
0.223423 0.361791 0.181643
0.264622 0.361944 0.177584
0.300816 0.362554 0.172427
0.336675 0.363287 0.166201
0.372717 0.364233 0.158450
0.409369 0.365942 0.148989
0.448341 0.369451 0.135988
0.487617 0.373358 0.119448
0.527398 0.377508 0.096529
0.565118 0.380438 0.039948
0.601495 0.383093 0.000000
0.637537 0.386053 0.000000
0.673152 0.389258 0.000000
0.707027 0.392096 0.000000
0.739406 0.394690 0.000000
0.771054 0.397498 0.000000
0.802182 0.400549 0.000000
0.832822 0.403815 0.000000
0.862913 0.407263 0.000000
0.892576 0.410925 0.000000
0.921782 0.414771 0.000000
0.950683 0.418708 0.000000
0.979278 0.422492 0.000000
1.000000 0.424384 0.000000
1.000000 0.424933 0.000000
1.000000 0.425299 0.000000
0.000000 0.389136 0.221530
0.000000 0.389258 0.220035
0.000000 0.389715 0.214267
0.000000 0.390234 0.204135
0.000000 0.389746 0.202579
0.141299 0.389288 0.200626
0.212741 0.388617 0.197574
0.265293 0.388190 0.193759
0.300816 0.388678 0.189120
0.336767 0.389319 0.183688
0.372320 0.390082 0.176883
0.408179 0.390906 0.168856
0.444831 0.392950 0.158724
0.483589 0.396399 0.145327
0.522637 0.400092 0.128145
0.561975 0.404089 0.105776
0.599878 0.407080 0.057435
0.635920 0.409613 0.000000
0.671138 0.412055 0.000000
0.704982 0.414130 0.000000
0.737484 0.416144 0.000000
0.769375 0.418311 0.000000
0.800748 0.420661 0.000000
0.831540 0.423194 0.000000
0.861936 0.425940 0.000000
0.891814 0.428931 0.000000
0.921263 0.432074 0.000000
0.950256 0.435492 0.000000
0.979004 0.439033 0.000000
1.000000 0.442390 0.000000
1.000000 0.444068 0.000000
1.000000 0.444068 0.000000
0.000000 0.415564 0.236973
0.000000 0.415625 0.235630
0.000000 0.415961 0.230198
0.000000 0.416663 0.219120
0.000000 0.416327 0.217563
0.118227 0.415808 0.215702
0.199924 0.415229 0.213077
0.261509 0.414405 0.209689
0.301122 0.414618 0.205631
0.336522 0.415106 0.200473
0.371954 0.415717 0.194522
0.407477 0.416419 0.187442
0.442969 0.417304 0.178958
0.480140 0.419654 0.168032
0.518273 0.422950 0.154177
0.557061 0.426551 0.137240
0.596399 0.430365 0.114565
0.634089 0.433478 0.078859
0.669062 0.435370 0.000000
0.702693 0.436805 0.000000
0.735409 0.438270 0.000000
0.767544 0.439887 0.000000
0.799191 0.441718 0.000000
0.830259 0.443641 0.000000
0.860838 0.445777 0.000000
0.890959 0.448096 0.000000
0.920592 0.450629 0.000000
0.949920 0.453285 0.000000
0.978820 0.456214 0.000000
1.000000 0.459297 0.000000
1.000000 0.462318 0.000000
1.000000 0.463416 0.000000
0.000000 0.441627 0.252110
0.000000 0.441749 0.250645
0.000000 0.441993 0.246220
0.000000 0.442664 0.235660
0.000000 0.442542 0.232242
0.079011 0.442054 0.230320
0.185031 0.441444 0.228061
0.251377 0.440681 0.224979
0.301366 0.440253 0.221073
0.336339 0.440711 0.216648
0.371649 0.441260 0.211246
0.406989 0.441871 0.204837
0.442206 0.442573 0.197177
0.477363 0.443366 0.188479
0.514672 0.446052 0.177157
0.552819 0.449317 0.162966
0.591333 0.452796 0.145480
0.630243 0.456550 0.122896
0.666896 0.458991 0.092683
0.700435 0.459968 0.007904
0.733303 0.461097 0.000000
0.765713 0.462226 0.000000
0.797543 0.463539 0.000000
0.828855 0.465034 0.000000
0.859678 0.466560 0.000000
0.890013 0.468299 0.000000
0.919951 0.470161 0.000000
0.949523 0.472175 0.000000
0.978607 0.474434 0.000000
1.000000 0.476875 0.000000
1.000000 0.479530 0.000000
1.000000 0.482063 0.000000
0.000000 0.467445 0.266972
0.000000 0.467445 0.266117
0.000000 0.467750 0.261662
0.000000 0.468360 0.252415
0.000000 0.468452 0.246525
0.000000 0.468055 0.244755
0.165682 0.467475 0.242710
0.238895 0.466712 0.239689
0.298344 0.465919 0.236179
0.336492 0.466072 0.232059
0.371405 0.466468 0.227085
0.406409 0.467048 0.221469
0.441535 0.467628 0.214664
0.476600 0.468299 0.206790
0.511559 0.469093 0.197696
0.549004 0.472145 0.185824
0.587030 0.475349 0.171328
0.625208 0.478767 0.153902
0.662593 0.481605 0.132418
0.698238 0.483528 0.103822
0.731319 0.484230 0.033692
0.763821 0.485084 0.000000
0.795895 0.486030 0.000000
0.827390 0.487037 0.000000
0.858396 0.488167 0.000000
0.888975 0.489357 0.000000
0.919158 0.490730 0.000000
0.949004 0.492164 0.000000
0.978363 0.493751 0.000000
1.000000 0.495521 0.000000
1.000000 0.497536 0.000000
1.000000 0.499733 0.000000
0.000000 0.493202 0.281865
0.000000 0.493294 0.280888
0.000000 0.493538 0.276860
0.000000 0.494057 0.268070
0.000000 0.494362 0.260380
0.000000 0.493965 0.258854
0.142214 0.493446 0.256840
0.224796 0.492836 0.253941
0.287999 0.492012 0.250858
0.336645 0.491585 0.246921
0.371344 0.492042 0.242466
0.406226 0.492561 0.237247
0.441199 0.493111 0.230991
0.476204 0.493782 0.223972
0.511192 0.494575 0.215763
0.546593 0.495796 0.206119
0.584253 0.498909 0.193759
0.621973 0.501946 0.179202
0.658930 0.504540 0.162203
0.694789 0.506462 0.141329
0.729274 0.507774 0.114656
0.762020 0.508354 0.062043
0.794217 0.508965 0.000000
0.825895 0.509606 0.000000
0.857084 0.510369 0.000000
0.887907 0.511192 0.000000
0.918334 0.512078 0.000000
0.948363 0.513054 0.000000
0.977966 0.514092 0.000000
1.000000 0.515221 0.000000
1.000000 0.516503 0.000000
1.000000 0.518059 0.000000
0.000000 0.520073 0.296544
0.000000 0.520073 0.295567
0.000000 0.520348 0.291661
0.000000 0.520836 0.284092
0.000000 0.521324 0.273991
0.000000 0.521019 0.272526
0.104341 0.520531 0.270603
0.207645 0.519951 0.268193
0.276310 0.519219 0.265232
0.334874 0.518364 0.261448
0.371862 0.518669 0.257298
0.406836 0.519188 0.252415
0.441901 0.519707 0.246677
0.477058 0.520409 0.240146
0.512169 0.521111 0.232609
0.547204 0.521965 0.224002
0.583276 0.523705 0.213626
0.620478 0.526421 0.200809
0.656977 0.528557 0.186618
0.692439 0.530114 0.169863
0.726925 0.531243 0.149844
0.760220 0.531884 0.124605
0.792569 0.532280 0.085695
0.824430 0.532677 0.000000
0.855802 0.533135 0.000000
0.886809 0.533593 0.000000
0.917449 0.534112 0.000000
0.947723 0.534691 0.000000
0.977600 0.535302 0.000000
1.000000 0.535882 0.000000
1.000000 0.536553 0.000000
1.000000 0.537377 0.000000
0.000000 0.548180 0.311284
0.000000 0.548302 0.310338
0.000000 0.548486 0.306828
0.000000 0.548943 0.299504
0.000000 0.549645 0.287541
0.000000 0.549310 0.286198
0.000000 0.548913 0.284276
0.185428 0.548363 0.282048
0.261936 0.547723 0.279179
0.324834 0.546990 0.275731
0.372992 0.546654 0.271641
0.408087 0.547112 0.267185
0.443366 0.547723 0.261723
0.478584 0.548302 0.255680
0.514092 0.548974 0.248661
0.549310 0.549737 0.240604
0.584497 0.550561 0.231601
0.620569 0.552087 0.220676
0.656519 0.553826 0.208164
0.691768 0.555016 0.193759
0.725917 0.555718 0.177493
0.759030 0.555962 0.157992
0.791012 0.555901 0.133547
0.822995 0.556085 0.097719
0.854551 0.556207 0.000000
0.885740 0.556481 0.000000
0.916564 0.556725 0.000000
0.947051 0.556970 0.000000
0.977111 0.557214 0.000000
1.000000 0.557427 0.000000
1.000000 0.557580 0.000000
1.000000 0.557794 0.000000
0.000000 0.577661 0.325994
0.000000 0.577722 0.325170
0.000000 0.577935 0.322057
0.000000 0.578332 0.315068
0.000000 0.579034 0.303166
0.000000 0.578882 0.299870
0.000000 0.578515 0.298161
0.153231 0.577996 0.295964
0.245060 0.577295 0.293156
0.313237 0.576562 0.289921
0.372564 0.575647 0.286168
0.409369 0.575982 0.281865
0.444953 0.576379 0.276768
0.480415 0.576837 0.271000
0.515984 0.577356 0.264500
0.551476 0.577935 0.257053
0.586816 0.578546 0.248508
0.622034 0.579248 0.238956
0.657496 0.580346 0.227817
0.692409 0.581079 0.215213
0.726375 0.581384 0.201053
0.759304 0.581231 0.184848
0.791135 0.580682 0.165621
0.821866 0.579797 0.141909
0.853361 0.579675 0.107210
0.884703 0.579736 0.000000
0.915770 0.579736 0.000000
0.946380 0.579797 0.000000
0.976745 0.579706 0.000000
1.000000 0.579583 0.000000
1.000000 0.579400 0.000000
1.000000 0.579156 0.000000
0.000000 0.607446 0.341466
0.000000 0.607477 0.340703
0.000000 0.607691 0.337438
0.000000 0.608087 0.330816
0.000000 0.608698 0.319860
0.000000 0.608728 0.313909
0.000000 0.608301 0.312322
0.104097 0.607782 0.310124
0.224430 0.607141 0.307530
0.300023 0.606348 0.304479
0.362890 0.605432 0.300908
0.410803 0.605035 0.296696
0.446387 0.605341 0.291875
0.482277 0.605676 0.286412
0.517906 0.606073 0.280308
0.553491 0.606531 0.273350
0.589075 0.607019 0.265415
0.624445 0.607507 0.256504
0.659693 0.608148 0.246250
0.694362 0.608423 0.235019
0.728145 0.608270 0.222385
0.760922 0.607691 0.208255
0.792691 0.606744 0.191836
0.823301 0.605432 0.172732
0.852903 0.603784 0.149416
0.883787 0.603265 0.114931
0.914977 0.603143 0.007660
0.945739 0.603021 0.000000
0.976318 0.602716 0.000000
1.000000 0.602350 0.000000
1.000000 0.601892 0.000000
1.000000 0.601251 0.000000
0.000000 0.637415 0.357244
0.000000 0.637446 0.356481
0.000000 0.637629 0.353460
0.000000 0.637995 0.347082
0.000000 0.638575 0.336706
0.000000 0.638819 0.328496
0.000000 0.638392 0.326940
0.000000 0.637842 0.324956
0.199557 0.637171 0.322545
0.284215 0.636378 0.319554
0.351690 0.635492 0.316075
0.411719 0.634455 0.311925
0.448157 0.634638 0.307408
0.483986 0.634882 0.302342
0.519860 0.635187 0.296330
0.555596 0.635523 0.289799
0.591455 0.635828 0.282231
0.627008 0.636255 0.273777
0.662409 0.636683 0.264317
0.697536 0.637110 0.253605
0.731136 0.636500 0.242222
0.763882 0.635401 0.229374
0.795499 0.634028 0.215061
0.826108 0.632288 0.198672
0.855680 0.630213 0.179507
0.884215 0.627863 0.156130
0.914305 0.626856 0.121279
0.945312 0.626520 0.014618
0.976043 0.626123 0.000000
1.000000 0.625605 0.000000
1.000000 0.624933 0.000000
1.000000 0.624079 0.000000
0.000000 0.667689 0.373693
0.000000 0.667720 0.372869
0.000000 0.667903 0.370123
0.000000 0.668238 0.364202
0.000000 0.668757 0.354284
0.000000 0.669215 0.343908
0.000000 0.668788 0.342382
0.000000 0.668238 0.340398
0.167086 0.667536 0.337957
0.266484 0.666773 0.335149
0.339422 0.665888 0.331762
0.402564 0.664851 0.328008
0.449989 0.664332 0.323583
0.486061 0.664515 0.318639
0.522026 0.664759 0.312932
0.558038 0.664942 0.306615
0.593896 0.665187 0.299504
0.629633 0.665492 0.291447
0.665187 0.665827 0.282383
0.700649 0.666194 0.272251
0.735470 0.666133 0.261173
0.768124 0.664546 0.249454
0.799680 0.662684 0.236454
0.830320 0.660456 0.221775
0.859861 0.657954 0.205020
0.888365 0.655207 0.185641
0.915801 0.652094 0.161532
0.944976 0.650385 0.126467
0.975891 0.649897 0.013672
1.000000 0.649287 0.000000
1.000000 0.648493 0.000000
1.000000 0.647456 0.000000
0.000000 0.698390 0.390784
0.000000 0.698421 0.390051
0.000000 0.698543 0.387366
0.000000 0.698878 0.381781
0.000000 0.699367 0.372625
0.000000 0.699977 0.360082
0.000000 0.699550 0.358587
0.000000 0.699031 0.356664
0.119600 0.698390 0.354376
0.246433 0.697597 0.351690
0.326696 0.696651 0.348425
0.393011 0.695644 0.344640
0.452430 0.694514 0.340276
0.488441 0.694667 0.335485
0.524743 0.694759 0.330114
0.560571 0.694942 0.323980
0.596612 0.695094 0.317113
0.632563 0.695308 0.309392
0.668330 0.695552 0.300877
0.704005 0.695766 0.291081
0.739498 0.696071 0.280339
0.773617 0.695338 0.268803
0.805234 0.692927 0.256809
0.835935 0.690272 0.243412
0.865507 0.687282 0.228428
0.894041 0.683955 0.210941
0.921477 0.680354 0.190890
0.947784 0.676509 0.166354
0.975860 0.674067 0.129702
1.000000 0.673335 0.005798
1.000000 0.672450 0.000000
1.000000 0.671321 0.000000
0.000000 0.729549 0.409216
0.000000 0.729610 0.408423
0.000000 0.729732 0.405859
0.000000 0.730037 0.400580
0.000000 0.730495 0.391913
0.000000 0.731167 0.378912
0.000000 0.730861 0.375891
0.000000 0.730343 0.374151
0.000000 0.729702 0.371923
0.224460 0.728939 0.369238
0.312657 0.728054 0.366125
0.382849 0.727077 0.362463
0.445319 0.725917 0.358221
0.491676 0.725368 0.353460
0.527672 0.725490 0.348302
0.563775 0.725612 0.342290
0.599908 0.725704 0.335668
0.635981 0.725826 0.328161
0.671839 0.726009 0.319951
0.707729 0.726223 0.310613
0.743435 0.726436 0.300298
0.779080 0.726650 0.288670
0.812253 0.724971 0.276707
0.842954 0.721767 0.264195
0.872557 0.718257 0.250431
0.901152 0.714382 0.234775
0.928618 0.710231 0.216831
0.954955 0.705837 0.195804
0.980255 0.701137 0.170047
1.000000 0.697749 0.131655
1.000000 0.696864 0.000000
1.000000 0.695674 0.000000
0.000000 0.761410 0.428504
0.000000 0.761410 0.428016
0.000000 0.761563 0.425605
0.000000 0.761837 0.420600
0.000000 0.762295 0.412390
0.000000 0.762875 0.400244
0.000000 0.762844 0.394903
0.000000 0.762325 0.393072
0.000000 0.761715 0.390967
0.200137 0.761013 0.388342
0.298589 0.760159 0.385229
0.372778 0.759182 0.381659
0.437720 0.758083 0.377600
0.495766 0.756924 0.372869
